sb224sc-HT22-VT27/4dt907/src/data/kinect_good_preprocessed_A9_mediapipe/A56_kinect.csv
FrameNo,nose_3d_x,nose_3d_y,nose_3d_z,left_shoulder_3d_x,left_shoulder_3d_y,left_shoulder_3d_z,left_elbow_3d_x,left_elbow_3d_y,left_elbow_3d_z,right_shoulder_3d_x,right_shoulder_3d_y,right_shoulder_3d_z,right_elbow_3d_x,right_elbow_3d_y,right_elbow_3d_z,left_wrist_3d_x,left_wrist_3d_y,left_wrist_3d_z,right_wrist_3d_x,right_wrist_3d_y,right_wrist_3d_z,left_hip_3d_x,left_hip_3d_y,left_hip_3d_z,right_hip_3d_x,right_hip_3d_y,right_hip_3d_z,left_knee_3d_x,left_knee_3d_y,left_knee_3d_z,right_knee_3d_x,right_knee_3d_y,right_knee_3d_z,left_ankle_3d_x,left_ankle_3d_y,left_ankle_3d_z,right_ankle_3d_x,right_ankle_3d_y,right_ankle_3d_z
67,-0.006548499999999995,0.6559515,0.0226815,-0.1431385,0.4764115,0.021965500000000002,-0.2248585,0.6761115,-0.0472865,0.13380150000000002,0.44805150000000005,-2.0499999999999902e-05,0.2224115,0.6526115,-0.0653925,-0.2877385,0.9340615,-0.0698815,0.29062150000000003,0.9113315000000001,-0.1078945,-0.0625915,0.0009124999999999966,0.0036105,0.0625915,-0.0009124999999999966,-0.0036105,-0.1275685,-0.4596285,-0.040939500000000004,0.12444150000000001,-0.4772185,-0.043701500000000004,-0.1815985,-0.9210585,-0.0788715,0.16933150000000002,-0.9301385,-0.0670935
68,-0.006908000000000001,0.6554234999999999,0.019681999999999998,-0.14298,0.47591350000000004,0.020409999999999998,-0.22454000000000002,0.6769835,-0.04829,0.13391,0.4475235,-0.0014459999999999998,0.22161999999999998,0.6511035000000001,-0.06639,-0.28869999999999996,0.9342335000000002,-0.07087700000000001,0.29004,0.9097934999999999,-0.108896,-0.062588,0.0009134999999999976,0.003473,0.062588,-0.0009134999999999976,-0.003473,-0.12791,-0.4603165,-0.042331999999999995,0.12453,-0.4774565,-0.045388,-0.18205000000000002,-0.9209265,-0.079476,0.16888999999999998,-0.9306665000000001,-0.068093
69,-0.007287500000000002,0.654959,0.016353000000000003,-0.1428465,0.475449,0.018631,-0.2241465,0.676989,-0.049552,0.1340735,0.44694899999999993,-0.0029159999999999998,0.2207435,0.650459,-0.067645,-0.2890865,0.934069,-0.072135,0.2893835,0.909129,-0.11014600000000001,-0.06258849999999999,0.000902,0.003389,0.06258849999999999,-0.000902,-0.0033889999999999997,-0.1282965,-0.46077100000000004,-0.044125000000000004,0.1247135,-0.47760100000000005,-0.047373000000000005,-0.1826165,-0.9194410000000001,-0.08002000000000001,0.1684335,-0.9312710000000001,-0.06935000000000001
70,-0.007662000000000002,0.6545965,0.0125335,-0.1428,0.4750865000000001,0.0163675,-0.22417,0.6771965000000001,-0.05140549999999999,0.13429,0.44628650000000003,-0.0049285,0.21974,0.6498165,-0.0694935,-0.28953,0.9342065,-0.0739865,0.28863,0.9084165000000001,-0.1119995,-0.06255,0.0008095000000000047,0.0033705000000000002,0.06255,-0.0008094999999999908,-0.0033704999999999994,-0.12871000000000002,-0.46111349999999995,-0.046565499999999996,0.12508,-0.47738349999999996,-0.049964499999999995,-0.18318,-0.9174435,-0.08115449999999999,0.16798,-0.9320035,-0.0713125
71,-0.008087499999999997,0.6542875,0.008310999999999999,-0.1427405,0.4748175,0.013679999999999998,-0.2241705,0.6774275000000001,-0.054007,0.1345495,0.44547749999999997,-0.007291,0.2187495,0.6492675,-0.071813,-0.28994050000000005,0.9345975,-0.076348,0.2877995,0.9077875,-0.114369,-0.0624745,0.0006704999999999905,0.0033370000000000006,0.0624745,-0.0006705000000000044,-0.003337,-0.1291505,-0.4612925,-0.049558,0.1256295,-0.4768825,-0.052988,-0.1832205,-0.9174424999999999,-0.08340299999999999,0.1676395,-0.9317425,-0.073819
72,-0.008546999999999999,0.653739,0.003669499999999999,-0.142711,0.47443900000000006,0.0106125,-0.22415100000000002,0.677699,-0.0577495,0.13485899999999998,0.444619,-0.0100575,0.21797899999999998,0.647769,-0.0750595,-0.289921,0.9349789999999999,-0.08122650000000001,0.286729,0.906239,-0.11805750000000001,-0.062396999999999994,0.0005519999999999969,0.0032674999999999996,0.062396999999999994,-0.0005519999999999969,-0.0032675000000000004,-0.129671,-0.461381,-0.0530225,0.126319,-0.476061,-0.056328500000000004,-0.183171,-0.919671,-0.0870145,0.167479,-0.932261,-0.07670650000000001
73,-0.009144000000000003,0.652772,-0.0015364999999999997,-0.142669,0.47434200000000004,0.0071085,-0.224159,0.677672,-0.0633025,0.135071,0.443682,-0.0132495,0.217091,0.645672,-0.0792905,-0.28979900000000003,0.9349519999999999,-0.0872565,0.285541,0.903972,-0.1235855,-0.062313,0.0005249999999999977,0.0032284999999999987,0.062313,-0.0005249999999999977,-0.0032285000000000005,-0.130019,-0.461318,-0.056957499999999994,0.127231,-0.474948,-0.05998150000000001,-0.183139,-0.920918,-0.09056850000000001,0.167521,-0.932458,-0.07991150000000001
74,-0.009754500000000003,0.651592,-0.0071225,-0.1426435,0.47421199999999997,0.0032224999999999997,-0.2241535,0.677672,-0.0695815,0.1351865,0.44289199999999995,-0.0166705,0.2161165,0.643162,-0.0840465,-0.2896135,0.9349519999999999,-0.0941555,0.2839165,0.901552,-0.1301145,-0.062246499999999996,0.0005249999999999977,0.0033634999999999984,0.062246499999999996,-0.0005249999999999977,-0.0033635,-0.1304835,-0.461198,-0.0612915,0.12824649999999999,-0.473568,-0.0638805,-0.18339350000000001,-0.919398,-0.0935305,0.1675465,-0.933578,-0.0838525
75,-0.0104245,0.650171,-0.013039499999999999,-0.1426125,0.47391099999999997,-0.0008994999999999975,-0.2241725,0.6777610000000001,-0.0763075,0.1352675,0.44225100000000006,-0.0200785,0.2154375,0.640641,-0.0895175,-0.2892625,0.9349409999999999,-0.1022585,0.2826975,0.898861,-0.13793249999999999,-0.0621965,0.0004720000000000002,0.003474500000000002,0.0621965,-0.0004720000000000002,-0.0034744999999999984,-0.1310725,-0.460949,-0.06589149999999999,0.1302975,-0.471999,-0.0681905,-0.1836725,-0.917679,-0.09638849999999999,0.1675775,-0.933769,-0.0876305
76,-0.011285000000000003,0.6484865,-0.019225999999999997,-0.14265899999999998,0.4734165,-0.005307999999999997,-0.224539,0.6774165,-0.083491,0.13531100000000001,0.44161649999999997,-0.023638,0.214661,0.6378465,-0.09536499999999999,-0.28928899999999996,0.9347464999999999,-0.110998,0.281491,0.8959765,-0.145712,-0.062138,0.0003665000000000057,0.0035030000000000026,0.062138,-0.0003665000000000057,-0.003502999999999999,-0.131739,-0.46069350000000003,-0.070698,0.13245099999999999,-0.4704435,-0.072581,-0.18360900000000002,-0.9154135,-0.098926,0.167821,-0.9339035,-0.091558
77,-0.012218,0.6465725,-0.0255525,-0.14274199999999998,0.4727025,-0.009788500000000002,-0.22511199999999998,0.6767825,-0.09075250000000001,0.13528800000000002,0.44103249999999994,-0.0272015,0.21401799999999999,0.6353725,-0.10129550000000001,-0.289522,0.9346125,-0.11983150000000001,0.280328,0.8934225,-0.1531705,-0.062086,0.00020950000000000135,0.0035094999999999987,0.062086,-0.00020950000000000135,-0.0035094999999999987,-0.13247199999999998,-0.46050749999999996,-0.0754055,0.134488,-0.4700175,-0.07678950000000001,-0.18324200000000002,-0.9151375,-0.1025825,0.16803800000000002,-0.9344675,-0.0955665
78,-0.0130205,0.6446470000000001,-0.0320545,-0.1428055,0.4721270000000001,-0.0143845,-0.2257655,0.675907,-0.0980105,0.1352745,0.4405570000000001,-0.0310445,0.2135945,0.632997,-0.10735549999999999,-0.2897455,0.9341570000000001,-0.1290725,0.2795045,0.8910370000000001,-0.1601805,-0.061996499999999996,5.400000000001237e-05,0.0035004999999999967,0.061996499999999996,-5.3999999999998494e-05,-0.0035005,-0.13319550000000002,-0.46007299999999995,-0.0801965,0.1365045,-0.469383,-0.08106350000000001,-0.1828055,-0.916833,-0.1075225,0.16826449999999998,-0.934423,-0.0996745
79,-0.013985500000000005,0.6426985,-0.038168,-0.1429375,0.4715984999999999,-0.018803,-0.2264975,0.6748385,-0.105047,0.1351925,0.4401585,-0.034828000000000005,0.2133025,0.6308285,-0.113072,-0.2900375,0.9336785,-0.137301,0.2786625,0.8886284999999999,-0.167391,-0.061939499999999995,-0.00012150000000001049,0.0034290000000000015,0.061939499999999995,0.00012149999999999661,-0.0034290000000000015,-0.1339975,-0.4594515,-0.084819,0.1383725,-0.46854150000000006,-0.085115,-0.1826775,-0.9162815000000001,-0.111322,0.1683125,-0.9337115,-0.103447
80,-0.015075500000000002,0.6405825,-0.044391,-0.1430705,0.47094250000000004,-0.023216999999999998,-0.2273205,0.6736025,-0.11185200000000001,0.1348595,0.4396325,-0.039047,0.2130995,0.6289725,-0.11873500000000001,-0.2902605,0.9331225,-0.145387,0.2784995,0.8866425,-0.174637,-0.0618255,-0.0003004999999999952,0.0034350000000000006,0.0618255,0.0003005000000000091,-0.0034350000000000006,-0.13482049999999998,-0.4583475,-0.08963299999999999,0.1401795,-0.4660275,-0.089368,-0.1830705,-0.9127975,-0.11452199999999998,0.1686695,-0.9330174999999999,-0.10751
81,-0.016196,0.638427,-0.0503485,-0.14324900000000002,0.47027699999999995,-0.027642499999999997,-0.22822900000000002,0.672437,-0.11834549999999999,0.134431,0.43917700000000004,-0.0435415,0.212921,0.627297,-0.1242195,-0.290589,0.932807,-0.1532825,0.278321,0.884837,-0.1815525,-0.061675999999999995,-0.00045000000000000595,0.0034705000000000014,0.061675999999999995,0.0004499999999999921,-0.0034704999999999944,-0.13561900000000002,-0.457043,-0.09444749999999999,0.141901,-0.463283,-0.0937225,-0.183399,-0.908733,-0.1171615,0.168921,-0.932123,-0.1115435
82,-0.017345,0.636393,-0.0560075,-0.143475,0.46955300000000005,-0.031925499999999996,-0.228985,0.671403,-0.12379949999999999,0.133885,0.43883300000000003,-0.0481345,0.212675,0.626033,-0.1295485,-0.290905,0.9318529999999999,-0.1607235,0.27806499999999995,0.8837229999999999,-0.1875135,-0.061480999999999994,-0.0004849999999999993,0.003428500000000001,0.061480999999999994,0.0004849999999999993,-0.003428500000000001,-0.136405,-0.455557,-0.0991015,0.143405,-0.459407,-0.0980145,-0.183325,-0.905097,-0.1204945,0.169075,-0.9293870000000001,-0.1154365
83,-0.018601500000000003,0.634221,-0.061397499999999994,-0.1437675,0.46830099999999997,-0.036676499999999994,-0.2298775,0.670241,-0.1292285,0.13321249999999998,0.438621,-0.052641499999999994,0.2123725,0.625221,-0.1347875,-0.2914275,0.930771,-0.1679375,0.2779025,0.8823409999999999,-0.1942375,-0.0613185,-0.0004580000000000001,0.0032765000000000016,0.0613185,0.0004580000000000001,-0.0032764999999999947,-0.1373175,-0.453919,-0.1035585,0.14484249999999999,-0.45542900000000003,-0.1021485,-0.1834075,-0.899869,-0.12274449999999999,0.1691225,-0.925999,-0.11912249999999999
84,-0.0197885,0.631991,-0.0665815,-0.1440825,0.46719099999999997,-0.0413505,-0.2307925,0.669091,-0.1345625,0.1326875,0.438371,-0.0571285,0.2120175,0.6244409999999999,-0.1399485,-0.2920125,0.929651,-0.1749065,0.27776750000000006,0.8813409999999999,-0.2001165,-0.0611535,-0.0004139999999999977,0.003089500000000002,0.0611535,0.0004139999999999977,-0.003089500000000002,-0.1382325,-0.452389,-0.1077675,0.1453175,-0.448119,-0.1058975,-0.1835125,-0.896839,-0.12521949999999998,0.1691575,-0.9220590000000001,-0.1229225
85,-0.0208265,0.63012,-0.07159650000000001,-0.1444525,0.46659000000000006,-0.0460435,-0.2312825,0.66857,-0.1400325,0.1320575,0.43845,-0.061713500000000004,0.2118475,0.62373,-0.1451335,-0.2925125,0.92908,-0.1818035,0.2776475,0.88046,-0.2059535,-0.0609795,-0.00046099999999999614,0.003092499999999998,0.0609795,0.0004610000000000031,-0.003092499999999998,-0.13924250000000002,-0.4505,-0.11199049999999999,0.1459975,-0.44077,-0.1099775,-0.1836825,-0.89347,-0.12785950000000001,0.16906749999999998,-0.91735,-0.1266475
86,-0.021536,0.6279835,-0.07622,-0.144786,0.4661235,-0.050537,-0.231956,0.6680235,-0.145455,0.131404,0.4385235,-0.06607299999999999,0.211914,0.6229635,-0.150139,-0.292706,0.9284735000000001,-0.18868600000000002,0.278154,0.8795235,-0.211706,-0.060827000000000006,-0.000505499999999999,0.0030890000000000015,0.060827000000000006,0.000505499999999999,-0.0030890000000000015,-0.14033600000000002,-0.4488465,-0.116171,0.146674,-0.4393165,-0.11386399999999999,-0.184096,-0.8878765,-0.12920199999999998,0.169034,-0.9158864999999999,-0.13020700000000002
87,-0.022121000000000002,0.6263105,-0.080796,-0.145122,0.46492049999999996,-0.056218000000000004,-0.23300200000000001,0.6684905,-0.151117,0.130708,0.43768050000000003,-0.071725,0.21223799999999998,0.6230505,-0.15541,-0.29276199999999997,0.9289605,-0.195135,0.278648,0.8789005,-0.218215,-0.060699,-0.000618500000000001,0.003039,0.060699,0.000618500000000001,-0.003039,-0.141462,-0.4463495,-0.120381,0.147318,-0.4317995,-0.117843,-0.184572,-0.8813495,-0.130585,0.169018,-0.9113495,-0.134028
88,-0.022696499999999998,0.624282,-0.085375,-0.1454765,0.463672,-0.061617,-0.2343465,0.668692,-0.15686,0.1300435,0.43686200000000003,-0.077141,0.2126935,0.622982,-0.160631,-0.2929765,0.929202,-0.20172099999999998,0.2790935,0.878342,-0.224061,-0.060596500000000005,-0.0007059999999999983,0.003009999999999999,0.060596500000000005,0.0007059999999999983,-0.003009999999999999,-0.1426165,-0.444048,-0.124397,0.1479435,-0.426308,-0.121526,-0.1850265,-0.875868,-0.13231900000000002,0.16901349999999998,-0.908048,-0.137599
89,-0.023255,0.6235269999999999,-0.090224,-0.145857,0.46314700000000003,-0.067702,-0.235847,0.6704669999999999,-0.16308699999999998,0.12950299999999998,0.435937,-0.083245,0.213483,0.624087,-0.166484,-0.293177,0.924867,-0.209544,0.27931300000000003,0.879137,-0.230034,-0.06054,-0.000789999999999999,0.003042000000000003,0.06054,0.000789999999999999,-0.003041999999999996,-0.143797,-0.440013,-0.128486,0.148783,-0.419213,-0.12570199999999998,-0.185127,-0.871333,-0.134684,0.168913,-0.903493,-0.14116299999999998
90,-0.023646999999999998,0.62244,-0.09480649999999999,-0.14616800000000002,0.46225000000000005,-0.07354849999999999,-0.237258,0.67194,-0.1691765,0.129042,0.43516999999999995,-0.0887405,0.21457199999999998,0.62493,-0.17225649999999998,-0.293408,0.9206099999999999,-0.2167865,0.279602,0.8798699999999999,-0.2361265,-0.060594999999999996,-0.0009219999999999992,0.0030765000000000098,0.060594999999999996,0.0009219999999999992,-0.003076499999999996,-0.14494800000000002,-0.43618,-0.1322335,0.149752,-0.41368000000000005,-0.1294175,-0.185068,-0.86685,-0.13709349999999998,0.168952,-0.9007200000000001,-0.1444355
91,-0.024062,0.6206505,-0.09914800000000001,-0.146368,0.4610205,-0.07937300000000001,-0.238648,0.6730605000000001,-0.17531000000000002,0.128632,0.4346305,-0.09382500000000002,0.215552,0.6251005000000001,-0.17792000000000002,-0.293608,0.9163705,-0.22359,0.279362,0.8800405,-0.24225000000000002,-0.060728000000000004,-0.0011294999999999986,0.003142999999999993,0.060728000000000004,0.0011294999999999986,-0.003143000000000007,-0.146178,-0.4324795,-0.13601400000000002,0.150902,-0.4084895,-0.13317,-0.18512800000000001,-0.8623395,-0.139358,0.169102,-0.8981595,-0.14774500000000002
92,-0.024412499999999997,0.6192575,-0.1035635,-0.1465695,0.4608375,-0.08447750000000001,-0.23978950000000002,0.6747875,-0.1814575,0.1282705,0.4347275,-0.09881150000000001,0.2164805,0.6244175,-0.18353750000000002,-0.2935895,0.9128375,-0.2301775,0.27906050000000004,0.8798875,-0.2472775,-0.0607755,-0.0013964999999999984,0.0032834999999999948,0.0607755,0.001396500000000002,-0.0032835000000000086,-0.1473795,-0.42841250000000003,-0.1398055,0.1519705,-0.4021525,-0.13688650000000002,-0.1852295,-0.8566825,-0.1413565,0.1692805,-0.8935025,-0.15103850000000002
93,-0.024981,0.618885,-0.10801549999999999,-0.14677500000000002,0.460285,-0.0899915,-0.240285,0.677725,-0.1879875,0.127905,0.43249499999999996,-0.1049735,0.217385,0.6255149999999999,-0.18926749999999998,-0.293495,0.910385,-0.2368775,0.278745,0.881415,-0.2526775,-0.060814,-0.0015200000000000005,0.0035965000000000025,0.060814,0.0015200000000000005,-0.0035965000000000025,-0.148585,-0.42180500000000004,-0.1437875,0.153115,-0.39093500000000003,-0.1408345,-0.185525,-0.8491650000000001,-0.1432175,0.16944499999999998,-0.8848050000000001,-0.15422049999999998
94,-0.025445,0.6182865000000001,-0.11245,-0.147,0.4592465,-0.095499,-0.24076,0.6803765,-0.19430599999999998,0.12755,0.4304365,-0.11104699999999999,0.21825,0.6264665,-0.194786,-0.29331999999999997,0.9080165,-0.24359599999999998,0.27841,0.8832265,-0.258046,-0.06085,-0.0015525,0.003815000000000013,0.06085,0.0015525,-0.003814999999999999,-0.14975,-0.41479350000000004,-0.147604,0.15398,-0.3804135,-0.144474,-0.18583,-0.8419234999999999,-0.144975,0.16958,-0.8756735,-0.157327
95,-0.025831000000000003,0.618292,-0.12039949999999999,-0.147202,0.457812,-0.1044445,-0.24124199999999998,0.682782,-0.2037735,0.127198,0.429072,-0.12066450000000001,0.219068,0.6287919999999999,-0.2036035,-0.293082,0.9065519999999999,-0.2535635,0.27731799999999995,0.8863219999999999,-0.2668235,-0.060896,-0.001552,0.0039285000000000014,0.060896,0.001552,-0.0039285000000000014,-0.150832,-0.406588,-0.15477849999999999,0.154948,-0.369158,-0.1516885,-0.185932,-0.833678,-0.15067350000000002,0.169668,-0.865298,-0.1638445
96,-0.0261855,0.619892,-0.130711,-0.1467555,0.45622199999999996,-0.115618,-0.2418655,0.678082,-0.21489,0.1261045,0.43147199999999997,-0.131506,0.2192745,0.6331019999999999,-0.21611,-0.29220549999999995,0.901992,-0.26592,0.27623450000000005,0.8918619999999999,-0.27892,-0.0610165,-0.001344999999999999,0.003983,0.0610165,0.0013450000000000007,-0.003983,-0.1530455,-0.392548,-0.167434,0.1580145,-0.35666800000000004,-0.16548,-0.1850055,-0.818238,-0.15841699999999997,0.1715245,-0.852758,-0.17432599999999998
97,-0.026580999999999997,0.621465,-0.141045,-0.146318,0.45420499999999997,-0.12698500000000001,-0.24302800000000002,0.674395,-0.225892,0.124742,0.433575,-0.142486,0.21895199999999998,0.636775,-0.228402,-0.291578,0.898305,-0.27867200000000003,0.275192,0.896495,-0.29099200000000003,-0.061099,-0.0012479999999999991,0.003967999999999999,0.061099,0.0012480000000000026,-0.003967999999999999,-0.15532800000000002,-0.378255,-0.18035099999999998,0.16106199999999998,-0.346565,-0.179594,-0.18418800000000002,-0.802465,-0.16639500000000002,0.173352,-0.842605,-0.18516100000000002
98,-0.0269805,0.6213635,-0.150775,-0.1458785,0.4502635,-0.137566,-0.2437885,0.6697135,-0.23593499999999998,0.1231815,0.4359035,-0.15240499999999998,0.2186615,0.6385235,-0.23976499999999998,-0.2912785,0.8997035,-0.290095,0.2741015,0.8989135,-0.30245500000000003,-0.0611655,-0.001282499999999999,0.003825000000000009,0.0611655,0.0012825000000000024,-0.003824999999999995,-0.1577685,-0.3650865,-0.19303599999999999,0.1638915,-0.3380865,-0.192998,-0.1834685,-0.7884565,-0.174003,0.1751715,-0.8340465,-0.19560699999999998
99,-0.0273295,0.6217870000000001,-0.160622,-0.1454125,0.445977,-0.14812799999999998,-0.2442825,0.6661269999999999,-0.246215,0.1214775,0.438197,-0.162623,0.2195475,0.6372070000000001,-0.25200500000000003,-0.2909425,0.9018569999999999,-0.302215,0.27236750000000004,0.8980570000000001,-0.313695,-0.061325500000000005,-0.001350999999999998,0.003735000000000002,0.061325500000000005,0.001351000000000005,-0.0037349999999999883,-0.1602525,-0.351483,-0.20607199999999998,0.1668375,-0.329423,-0.206791,-0.1827625,-0.773803,-0.181888,0.1771175,-0.8252729999999999,-0.206394
100,-0.027880000000000002,0.623197,-0.170516,-0.144909,0.442377,-0.158695,-0.244819,0.663347,-0.25719000000000003,0.119121,0.436667,-0.173237,0.220361,0.637867,-0.26389,-0.290709,0.904397,-0.31545,0.270691,0.898977,-0.32495,-0.06147999999999999,-0.0012200000000000058,0.0036699999999999927,0.06147999999999999,0.0012199999999999989,-0.0036700000000000066,-0.16284900000000002,-0.336933,-0.21929300000000002,0.169841,-0.320143,-0.22084,-0.182179,-0.758413,-0.190305,0.179051,-0.815883,-0.217148
101,-0.0286425,0.62422,-0.18030599999999997,-0.1443935,0.43784,-0.169227,-0.2453735,0.66034,-0.26773499999999995,0.1167465,0.43459000000000003,-0.18391599999999997,0.2211165,0.6399400000000001,-0.27622499999999994,-0.2910835,0.90663,-0.32845499999999994,0.2687565,0.9001,-0.336715,-0.0615375,-0.0010290000000000021,0.003505000000000008,0.0615375,0.0010290000000000021,-0.0035049999999999804,-0.1655935,-0.32241,-0.232705,0.1729365,-0.30886,-0.23501499999999997,-0.1816235,-0.74288,-0.19855599999999998,0.1808765,-0.80446,-0.227705
102,-0.0294055,0.624312,-0.189855,-0.14418750000000002,0.433542,-0.179267,-0.2457975,0.655932,-0.27761,0.11439250000000001,0.434902,-0.193306,0.22071249999999998,0.6401319999999999,-0.28823,-0.2909975,0.9075019999999999,-0.34111,0.2668425,0.900002,-0.34985,-0.0616285,-0.0010590000000000044,0.003159999999999996,0.0616285,0.0010590000000000044,-0.003159999999999996,-0.16851750000000001,-0.309118,-0.24621,0.17584249999999998,-0.29973799999999995,-0.24895,-0.1811075,-0.728388,-0.206548,0.1814025,-0.792618,-0.23537000000000002
103,-0.030099499999999998,0.6236585,-0.19886700000000002,-0.1437905,0.4295385,-0.188779,-0.24575049999999998,0.6518085,-0.28739000000000003,0.1121495,0.4349785,-0.202289,0.2203695,0.6403185,-0.2998,-0.2906305,0.9083485,-0.35328000000000004,0.2651195,0.8997185,-0.36268,-0.0616655,-0.0010214999999999946,0.0028499999999999914,0.0616655,0.0010214999999999946,-0.002850000000000019,-0.1714505,-0.2964215,-0.2595,0.1787995,-0.2902615,-0.26262,-0.18053049999999998,-0.7145315000000001,-0.21429800000000002,0.18208950000000002,-0.7798815,-0.24283
104,-0.0308725,0.6223455,-0.20427800000000002,-0.14369749999999998,0.4264555,-0.19460900000000003,-0.24605749999999998,0.6481155,-0.29413500000000004,0.1098525,0.4348955,-0.20758400000000002,0.22004249999999997,0.6398555,-0.307885,-0.2905975,0.9060255,-0.362455,0.2633825,0.8972355,-0.372095,-0.0617435,-0.0011224999999999985,0.0026549999999999907,0.0617435,0.0011225000000000124,-0.0026550000000000185,-0.1745675,-0.2847145,-0.26943500000000004,0.18162250000000002,-0.2826745,-0.272775,-0.18004750000000003,-0.7012145,-0.21849400000000002,0.1827125,-0.7689045,-0.24680500000000002
105,-0.031351,0.61947,-0.207112,-0.143848,0.42284,-0.19713,-0.246258,0.6473,-0.29863,0.108432,0.43033,-0.21059499999999998,0.219472,0.63766,-0.31203000000000003,-0.29042799999999996,0.90503,-0.36879,0.261722,0.89366,-0.37721,-0.061768,-0.0013800000000000062,0.0025100000000000122,0.061768,0.0013799999999999923,-0.0025099999999999845,-0.176838,-0.27661,-0.27423,0.182452,-0.27541000000000004,-0.27656000000000003,-0.180128,-0.69311,-0.220463,0.182622,-0.75848,-0.24864
106,-0.031870499999999996,0.61598,-0.209793,-0.1440265,0.41970999999999997,-0.199366,-0.2464565,0.64496,-0.30311,0.10709350000000001,0.42634,-0.213308,0.2191735,0.6325799999999999,-0.31582,-0.2906265,0.90263,-0.37448000000000004,0.2600635,0.88873,-0.38202,-0.0617865,-0.0014100000000000085,0.0024200000000000055,0.0617865,0.0014099999999999946,-0.0024200000000000055,-0.1791165,-0.2687,-0.27868000000000004,0.1833535,-0.26797,-0.2802,-0.1802065,-0.6852,-0.222124,0.1824935,-0.74855,-0.25013
107,-0.03242199999999999,0.6134649999999999,-0.21245199999999997,-0.14424700000000001,0.417675,-0.20175099999999999,-0.24668700000000002,0.6430149999999999,-0.30730499999999994,0.10587300000000001,0.423235,-0.215804,0.218753,0.629365,-0.31959499999999996,-0.290507,0.9006050000000001,-0.37963499999999994,0.258413,0.885575,-0.386675,-0.061751,-0.0016050000000000092,0.0022950000000000192,0.061751,0.0016049999999999953,-0.0022949999999999915,-0.181587,-0.260345,-0.28332499999999994,0.184173,-0.260015,-0.28378499999999995,-0.180417,-0.6768449999999999,-0.22364399999999998,0.18232299999999999,-0.7383850000000001,-0.25149499999999997
108,-0.0328875,0.6108549999999999,-0.21509699999999998,-0.14496050000000002,0.416585,-0.204325,-0.24718050000000003,0.640495,-0.311035,0.1046395,0.418185,-0.218471,0.2174195,0.6288549999999999,-0.322105,-0.2910905,0.898045,-0.384335,0.25781950000000003,0.885025,-0.39119499999999996,-0.0617125,-0.001595000000000013,0.0021049999999999958,0.0617125,0.001595000000000013,-0.0021049999999999958,-0.1841105,-0.254545,-0.287925,0.1850695,-0.255495,-0.287555,-0.18090050000000002,-0.6702650000000001,-0.225355,0.18118949999999998,-0.729835,-0.251005
109,-0.033669500000000005,0.607275,-0.217588,-0.1458135,0.415055,-0.206681,-0.24786350000000001,0.637045,-0.313565,0.1042765,0.417285,-0.220593,0.2160665,0.627615,-0.324755,-0.2914635,0.891115,-0.38765499999999997,0.2570365,0.883735,-0.396045,-0.0615705,-0.00189499999999998,0.00190499999999999,0.0615705,0.0018950000000000078,-0.0019050000000000178,-0.1866035,-0.24922499999999997,-0.292155,0.1856465,-0.25121499999999997,-0.290765,-0.1815235,-0.664345,-0.227274,0.1798565,-0.721855,-0.250189
110,-0.034507499999999997,0.60393,-0.22021600000000002,-0.1466085,0.41425999999999996,-0.208923,-0.2485385,0.63087,-0.31593499999999997,0.1038915,0.41698,-0.22237800000000002,0.2147915,0.62498,-0.32655500000000004,-0.2921785,0.88406,-0.39092499999999997,0.2566415,0.8821,-0.400565,-0.061399499999999996,-0.0022800000000000042,0.0017250000000000043,0.061399499999999996,0.0022800000000000042,-0.0017250000000000043,-0.1890685,-0.24393,-0.29612499999999997,0.1861815,-0.2468,-0.293925,-0.1821285,-0.65762,-0.22931200000000002,0.1783015,-0.7139,-0.249017
111,-0.035327,0.600865,-0.22307500000000002,-0.147341,0.413925,-0.21094000000000002,-0.24919100000000002,0.625395,-0.31817,0.103569,0.417685,-0.22394400000000003,0.214609,0.623245,-0.32875,-0.29251099999999997,0.877935,-0.39394,0.256959,0.880245,-0.40451000000000004,-0.06125800000000001,-0.0026650000000000007,0.0015399999999999858,0.06125800000000001,0.0026650000000000007,-0.0015400000000000136,-0.191551,-0.238565,-0.29993000000000003,0.18680899999999998,-0.242405,-0.29700000000000004,-0.182821,-0.6509849999999999,-0.23139,0.176559,-0.705525,-0.24752100000000002
112,-0.0362745,0.598305,-0.22629500000000002,-0.1481945,0.411875,-0.21399800000000002,-0.2495045,0.620895,-0.32035,0.1033255,0.41510500000000006,-0.22685500000000003,0.2144755,0.623025,-0.3316,-0.2925445,0.8734649999999999,-0.39706,0.2574955,0.879815,-0.40875,-0.061033500000000004,-0.0029949999999999977,0.0012299999999999811,0.061033500000000004,0.0029949999999999977,-0.0012300000000000089,-0.1942045,-0.231845,-0.30457,0.18758550000000002,-0.236565,-0.30105000000000004,-0.1834645,-0.641105,-0.23261300000000001,0.1747655,-0.694835,-0.246211
113,-0.037029000000000006,0.5955550000000001,-0.229423,-0.14927700000000002,0.409835,-0.216857,-0.250237,0.616565,-0.322105,0.10301300000000001,0.412875,-0.229634,0.21426299999999998,0.622965,-0.335785,-0.292917,0.8713949999999999,-0.399105,0.25799300000000003,0.881335,-0.41286500000000004,-0.060728000000000004,-0.0033050000000000024,0.0009450000000000014,0.060728000000000004,0.0033050000000000024,-0.0009450000000000014,-0.196857,-0.224815,-0.308995,0.188083,-0.23041499999999998,-0.304995,-0.184177,-0.6325149999999999,-0.23488599999999998,0.172983,-0.6833750000000001,-0.24499100000000001
114,-0.03786199999999999,0.592285,-0.232539,-0.14979299999999998,0.40963499999999997,-0.21943200000000002,-0.251023,0.613915,-0.32393000000000005,0.102747,0.413165,-0.232057,0.213627,0.622775,-0.33984000000000003,-0.29346300000000003,0.868795,-0.40113,0.256717,0.882055,-0.4171,-0.060353000000000004,-0.0035750000000000226,0.0006599999999999939,0.060353000000000004,0.003574999999999995,-0.0006600000000000217,-0.199213,-0.21808500000000003,-0.31299,0.188477,-0.224175,-0.30895,-0.184963,-0.626455,-0.237844,0.17230700000000002,-0.673455,-0.245614
115,-0.038566,0.589575,-0.23578400000000002,-0.150124,0.409435,-0.22202900000000003,-0.251824,0.612725,-0.32574500000000006,0.102626,0.41368499999999997,-0.234547,0.213296,0.626895,-0.34397500000000003,-0.293994,0.8676949999999999,-0.403285,0.255966,0.885615,-0.421775,-0.060044,-0.004045000000000021,0.0004049999999999887,0.060044,0.004044999999999993,-0.00040500000000001646,-0.201464,-0.211185,-0.317255,0.188816,-0.217555,-0.313045,-0.185664,-0.620315,-0.24122000000000002,0.171746,-0.662965,-0.24620800000000004
116,-0.0389505,0.586255,-0.239243,-0.1502925,0.408945,-0.224166,-0.2525225,0.610805,-0.327855,0.1027075,0.41386500000000004,-0.237069,0.2129375,0.630015,-0.347985,-0.2941725,0.8659549999999999,-0.40508500000000003,0.2552275,0.888095,-0.426425,-0.0598785,-0.004255000000000009,0.00033500000000000196,0.0598785,0.004255000000000009,-0.00033500000000000196,-0.20322250000000003,-0.20456500000000002,-0.321205,0.18913750000000001,-0.211425,-0.317315,-0.1861625,-0.615475,-0.24516300000000002,0.17132750000000002,-0.6528550000000001,-0.246695
117,-0.039610000000000006,0.5827450000000001,-0.242401,-0.15054,0.405215,-0.226252,-0.25319,0.609415,-0.33003499999999997,0.103,0.410485,-0.240265,0.21268,0.629865,-0.352445,-0.29441,0.864625,-0.407385,0.25472,0.887675,-0.43127499999999996,-0.059716000000000005,-0.004255000000000009,0.00039500000000000646,0.059716000000000005,0.004255000000000009,-0.00039500000000000646,-0.20485,-0.196905,-0.325065,0.18916,-0.204395,-0.32176499999999997,-0.18654,-0.609645,-0.24856,0.17104,-0.6421349999999999,-0.247317
118,-0.039939999999999996,0.58021,-0.245993,-0.150626,0.40268000000000004,-0.228439,-0.253776,0.6082799999999999,-0.33304500000000004,0.103044,0.40778000000000003,-0.243604,0.21257399999999999,0.62919,-0.357195,-0.294826,0.8671,-0.410215,0.255444,0.88715,-0.43589500000000003,-0.059645,-0.0040999999999999925,0.0004250000000000087,0.059645,0.0040999999999999925,-0.0004250000000000087,-0.206326,-0.18841000000000002,-0.32930499999999996,0.189054,-0.19672,-0.326745,-0.186936,-0.60222,-0.251851,0.170704,-0.63057,-0.248085
119,-0.040008,0.577395,-0.24930799999999997,-0.15052200000000002,0.39997499999999997,-0.230721,-0.254202,0.608625,-0.33640499999999995,0.103038,0.404705,-0.2469,0.21253799999999998,0.625635,-0.361885,-0.295162,0.8672449999999999,-0.41390499999999997,0.25641800000000003,0.883745,-0.440165,-0.059519,-0.003824999999999995,0.00038499999999999646,0.059519,0.003824999999999995,-0.00038499999999999646,-0.20753200000000002,-0.179795,-0.333465,0.189018,-0.18885500000000002,-0.331775,-0.187302,-0.5944550000000001,-0.254595,0.17035799999999998,-0.618795,-0.24875599999999998
120,-0.040009,0.57349,-0.252482,-0.150449,0.39669,-0.233177,-0.254749,0.60814,-0.34031500000000003,0.10356099999999999,0.401,-0.25051,0.212821,0.6227199999999999,-0.366705,-0.296119,0.85943,-0.418335,0.257561,0.88125,-0.44393499999999997,-0.059374,-0.0035600000000000076,0.00038499999999999646,0.059374,0.00355999999999998,-0.00038499999999999646,-0.208489,-0.17082999999999998,-0.337775,0.189011,-0.18057,-0.337175,-0.187489,-0.58646,-0.257125,0.170181,-0.60665,-0.24945499999999998
121,-0.03999649999999999,0.5693299999999999,-0.256207,-0.14953750000000002,0.39274,-0.236043,-0.25486749999999997,0.60583,-0.34514500000000004,0.1038725,0.39898,-0.253932,0.2134625,0.61988,-0.372805,-0.29681749999999996,0.85019,-0.424315,0.2587225,0.8781599999999999,-0.45071500000000003,-0.0591435,-0.003530000000000033,0.0004549999999999832,0.0591435,0.0035299999999999776,-0.00045500000000001095,-0.2096175,-0.15974000000000005,-0.342275,0.18891249999999998,-0.17081000000000002,-0.342795,-0.1876475,-0.57593,-0.259485,0.1699325,-0.5924200000000001,-0.24993900000000002
122,-0.039935,0.565355,-0.25982,-0.14851899999999998,0.38892499999999997,-0.23885299999999998,-0.25482899999999997,0.603485,-0.35048,0.104231,0.397005,-0.257252,0.214371,0.6167149999999999,-0.37770000000000004,-0.297829,0.841835,-0.43048,0.260021,0.874525,-0.4576,-0.058974,-0.003585000000000005,0.0005100000000000104,0.058974,0.003585000000000005,-0.0005100000000000104,-0.210709,-0.14870500000000003,-0.34670999999999996,0.188641,-0.16097500000000003,-0.34831,-0.187659,-0.5633750000000001,-0.26106,0.169691,-0.578275,-0.250377
123,-0.039510500000000004,0.561285,-0.263555,-0.14758849999999998,0.385244,-0.24176999999999998,-0.25489850000000003,0.600635,-0.356545,0.10435149999999999,0.394335,-0.260615,0.2151115,0.608355,-0.382675,-0.2981885,0.836175,-0.437415,0.2609315,0.865965,-0.464585,-0.0588295,-0.0034550000000000414,0.0005949999999999844,0.0588295,0.003454999999999986,-0.0005950000000000122,-0.2118985,-0.13733500000000004,-0.35097500000000004,0.1883015,-0.15094500000000005,-0.353605,-0.1877285,-0.553265,-0.263315,0.1693215,-0.564015,-0.250765
124,-0.0386465,0.556925,-0.26742,-0.1466095,0.382019,-0.24468999999999996,-0.2550395,0.596295,-0.36246,0.10430049999999999,0.391972,-0.26387,0.2158305,0.600155,-0.38759999999999994,-0.2986695,0.8304849999999999,-0.44558,0.2619705,0.857485,-0.47184,-0.0587195,-0.003344999999999987,0.0007100000000000162,0.0587195,0.003344999999999987,-0.0007099999999999884,-0.2129795,-0.125805,-0.35495,0.1874305,-0.140965,-0.35863,-0.18796949999999998,-0.540475,-0.26432999999999995,0.1688605,-0.5498449999999999,-0.25115499999999996
125,-0.037159,0.553175,-0.27086,-0.145375,0.378196,-0.24798900000000001,-0.255135,0.592105,-0.36826000000000003,0.10449499999999999,0.385888,-0.26758000000000004,0.21693500000000002,0.593005,-0.39344999999999997,-0.298755,0.8250949999999999,-0.45487,0.262965,0.850185,-0.48004,-0.058654,-0.0028549999999999964,0.0007999999999999952,0.058654,0.0028549999999999964,-0.0007999999999999952,-0.214005,-0.11297499999999999,-0.35861,0.186645,-0.13043500000000002,-0.36335,-0.188125,-0.5258449999999999,-0.26495,0.168385,-0.5347249999999999,-0.251424
126,-0.035499,0.550445,-0.27479499999999996,-0.144117,0.377479,-0.25108299999999995,-0.254797,0.586435,-0.37466499999999997,0.104793,0.386579,-0.27013499999999996,0.218523,0.590355,-0.39973499999999995,-0.298817,0.818065,-0.465255,0.264263,0.846695,-0.489795,-0.058571,-0.002935000000000021,0.0008750000000000147,0.058571,0.002935000000000021,-0.0008749999999999869,-0.21487699999999998,-0.10081499999999999,-0.361915,0.185953,-0.120085,-0.367405,-0.188137,-0.5120849999999999,-0.26575499999999996,0.167943,-0.520815,-0.25178999999999996
127,-0.033445,0.5467500000000001,-0.278775,-0.14258099999999999,0.376065,-0.254284,-0.25399099999999997,0.58052,-0.381135,0.105399,0.386131,-0.272905,0.220469,0.58752,-0.406295,-0.298631,0.80808,-0.477095,0.265699,0.8428100000000001,-0.499635,-0.05858,-0.0028799999999999937,0.0008849999999999969,0.05858,0.0028799999999999937,-0.0008849999999999969,-0.215511,-0.08917999999999998,-0.36495500000000003,0.185579,-0.11092000000000002,-0.371155,-0.18804099999999999,-0.49941,-0.266725,0.167749,-0.50767,-0.25239100000000003
128,-0.0313865,0.543335,-0.282365,-0.1410365,0.373088,-0.257108,-0.25295650000000003,0.575995,-0.387595,0.1059535,0.38572,-0.275595,0.2224235,0.588005,-0.413275,-0.29842650000000004,0.801635,-0.48789499999999997,0.2670935,0.842605,-0.509455,-0.0586025,-0.0031950000000000034,0.0008750000000000147,0.0586025,0.0031950000000000034,-0.0008749999999999869,-0.2161165,-0.07670500000000002,-0.36750499999999997,0.1854435,-0.10146500000000003,-0.374275,-0.1877665,-0.486025,-0.266935,0.1676335,-0.49393499999999996,-0.25277499999999997
129,-0.029137000000000003,0.53984,-0.285895,-0.13956400000000002,0.37044499999999997,-0.259675,-0.251914,0.56959,-0.39375499999999997,0.106556,0.38532099999999997,-0.277915,0.224746,0.58671,-0.419975,-0.297844,0.79889,-0.498105,0.269196,0.83446,-0.519155,-0.05863,-0.0032300000000000106,0.0009049999999999891,0.05863,0.003229999999999955,-0.0009050000000000169,-0.216594,-0.06493000000000004,-0.369455,0.185546,-0.09260000000000002,-0.376755,-0.187494,-0.47379000000000004,-0.267195,0.16754599999999997,-0.48096000000000005,-0.25300500000000004
130,-0.0270365,0.537165,-0.288635,-0.13892649999999998,0.370184,-0.261435,-0.2509765,0.5650850000000001,-0.39910500000000004,0.10746349999999999,0.383879,-0.27919499999999997,0.2266835,0.583335,-0.424995,-0.2970665,0.797255,-0.5067349999999999,0.2704335,0.827175,-0.525795,-0.0586025,-0.00298499999999996,0.0009049999999999891,0.0586025,0.0029850000000000154,-0.0009049999999999891,-0.2167965,-0.05487499999999995,-0.370505,0.1856835,-0.08473499999999995,-0.378295,-0.1874065,-0.4643149999999999,-0.267775,0.1674435,-0.4701449999999999,-0.253173
131,-0.024950999999999997,0.534915,-0.29133000000000003,-0.13829999999999998,0.369824,-0.26329,-0.24995,0.560595,-0.40431000000000006,0.10833,0.382043,-0.28052,0.22847,0.578415,-0.4303,-0.29555,0.795145,-0.5158100000000001,0.27166,0.819975,-0.5325200000000001,-0.058657,-0.002475000000000005,0.0008399999999999797,0.058657,0.002475000000000005,-0.0008400000000000074,-0.21709,-0.044735000000000025,-0.37146,0.18578,-0.076905,-0.37993,-0.18733,-0.45481499999999997,-0.26849,0.16735,-0.45943500000000004,-0.253428
132,-0.023424999999999998,0.53263,-0.29379500000000003,-0.137686,0.368973,-0.265165,-0.249056,0.55881,-0.408905,0.108984,0.379928,-0.28190499999999996,0.230054,0.57823,-0.435435,-0.294896,0.79017,-0.524565,0.272874,0.8173900000000001,-0.539635,-0.058704,-0.0021700000000000053,0.0007850000000000079,0.058704,0.0021700000000000053,-0.0007849999999999802,-0.21748599999999998,-0.03478999999999999,-0.372345,0.185874,-0.06908999999999998,-0.381425,-0.187226,-0.44560000000000005,-0.269505,0.16728400000000002,-0.44914000000000004,-0.253784
133,-0.022252499999999998,0.530705,-0.2957,-0.1369165,0.368436,-0.26696,-0.2480465,0.5581499999999999,-0.41258,0.10990349999999999,0.377841,-0.28321,0.2317035,0.5777,-0.44085,-0.2931465,0.78502,-0.53182,0.27430350000000003,0.81487,-0.54669,-0.0586725,-0.0018600000000000283,0.0007399999999999907,0.0586725,0.0018599999999999728,-0.0007400000000000184,-0.2177865,-0.024859999999999993,-0.37287000000000003,0.1864535,-0.060980000000000034,-0.38282000000000005,-0.1868465,-0.43653,-0.27041000000000004,0.1674035,-0.43873000000000006,-0.254135
134,-0.0213305,0.527821,-0.29753999999999997,-0.13618750000000002,0.369481,-0.26825,-0.2472175,0.55356,-0.41578,0.11081250000000001,0.379719,-0.28374,0.2328825,0.576,-0.44486,-0.29171749999999996,0.7796000000000001,-0.53807,0.2760425,0.80673,-0.5536300000000001,-0.0586905,-0.0019600000000000173,0.0009200000000000041,0.0586905,0.0019600000000000173,-0.0009199999999999764,-0.2180075,-0.015990000000000004,-0.373,0.1873925,-0.052790000000000004,-0.38371,-0.1863875,-0.42843000000000003,-0.27115,0.1675925,-0.42924999999999996,-0.254411
135,-0.020468,0.5253369999999999,-0.29891500000000004,-0.135465,0.36936599999999997,-0.26939500000000005,-0.24644500000000003,0.552632,-0.418105,0.111945,0.37855799999999995,-0.284345,0.23379499999999998,0.5718949999999999,-0.44739500000000004,-0.290465,0.776095,-0.542935,0.277575,0.801295,-0.558235,-0.058551,-0.001495000000000024,0.0010749999999999926,0.058551,0.0014949999999999686,-0.0010750000000000204,-0.21807500000000002,-0.005565000000000042,-0.373045,0.18867499999999998,-0.04320500000000005,-0.384435,-0.18572500000000003,-0.41935500000000003,-0.271745,0.168035,-0.417825,-0.254533
136,-0.0197605,0.524386,-0.2999,-0.13480550000000002,0.36926499999999995,-0.27051,-0.2455855,0.550734,-0.41913,0.1130545,0.37798099999999996,-0.28485,0.2345245,0.5689029999999999,-0.44908000000000003,-0.2892855,0.7758149999999999,-0.54499,0.2790245,0.796755,-0.56238,-0.0584915,-0.0013450000000000406,0.0012500000000000011,0.0584915,0.001344999999999985,-0.0012500000000000011,-0.2181555,0.005154999999999965,-0.37305,0.1904045,-0.03261500000000006,-0.38517999999999997,-0.18506550000000002,-0.40956500000000007,-0.27219,0.1684745,-0.4062950000000001,-0.254536
137,-0.018949499999999998,0.523729,-0.30036999999999997,-0.1340805,0.3701,-0.27003,-0.2446605,0.549739,-0.41912,0.11408950000000001,0.37725,-0.28452,0.2351295,0.56637,-0.44905,-0.2881405,0.77542,-0.54636,0.28028949999999997,0.79264,-0.5656,-0.0583515,-0.0009600000000000164,0.0013500000000000179,0.0583515,0.0009600000000000164,-0.00134999999999999,-0.2176905,0.015620000000000023,-0.37256999999999996,0.1920295,-0.021389999999999965,-0.38503,-0.1843805,-0.40025000000000005,-0.27260999999999996,0.1689695,-0.39533999999999997,-0.25463199999999997
138,-0.01812,0.5237620000000001,-0.30051500000000003,-0.133177,0.37151,-0.26937500000000003,-0.24359699999999998,0.55057,-0.418955,0.115113,0.37641,-0.284005,0.23589300000000002,0.5632670000000001,-0.44893500000000003,-0.28742700000000004,0.77839,-0.547355,0.281823,0.7944800000000001,-0.5679350000000001,-0.058196,-0.0006499999999999839,0.0014849999999999863,0.058196,0.0006500000000000394,-0.001485000000000014,-0.21723699999999999,0.026050000000000018,-0.371885,0.193613,-0.00988,-0.384755,-0.183577,-0.391,-0.272965,0.16953300000000002,-0.38442,-0.254529
139,-0.017522,0.523163,-0.30039,-0.132527,0.37347500000000006,-0.26839,-0.242757,0.548591,-0.41872999999999994,0.11568300000000001,0.37819500000000006,-0.28323,0.236413,0.5604300000000001,-0.44813000000000003,-0.286917,0.778375,-0.54819,0.283253,0.794025,-0.57019,-0.058099,-0.0003549999999999942,0.0016400000000000026,0.058099,0.0003549999999999942,-0.0016400000000000026,-0.216887,0.035005000000000064,-0.37107999999999997,0.194923,0.0002750000000000252,-0.38408,-0.182677,-0.382695,-0.27292,0.169883,-0.374965,-0.254255
140,-0.017029500000000003,0.525201,-0.30001,-0.1320345,0.372025,-0.26783,-0.2422245,0.549617,-0.41862999999999995,0.1161255,0.37744500000000003,-0.28251,0.23636549999999998,0.561324,-0.44741,-0.28647449999999997,0.781145,-0.5483399999999999,0.28451550000000003,0.795585,-0.57152,-0.0579455,-0.0011250000000000426,0.001810000000000006,0.0579455,0.0011250000000000426,-0.001810000000000006,-0.21667450000000002,0.047304999999999986,-0.36967,0.1953955,0.015164999999999984,-0.38336,-0.18170450000000002,-0.37217500000000003,-0.27348,0.17014549999999998,-0.36207500000000004,-0.254027
141,-0.016497500000000002,0.5275519999999999,-0.29930999999999996,-0.13152950000000002,0.37100999999999995,-0.26722,-0.24164950000000002,0.550839,-0.4188,0.1166005,0.3773099999999999,-0.28181,0.23620049999999998,0.561896,-0.44652,-0.28611949999999997,0.7862199999999999,-0.54828,0.2857005,0.7968599999999999,-0.5723199999999999,-0.0578305,-0.0016200000000000658,0.0019500000000000073,0.0578305,0.0016199999999999548,-0.0019499999999999795,-0.2162195,0.05898999999999993,-0.36812,0.1958705,0.029489999999999905,-0.38266,-0.18067950000000002,-0.36221000000000003,-0.27385,0.16979049999999998,-0.35074000000000005,-0.253857
142,-0.016182000000000002,0.530411,-0.298665,-0.13109600000000002,0.36964499999999995,-0.265975,-0.24110600000000001,0.5524239999999999,-0.41815500000000005,0.116814,0.37675499999999995,-0.281165,0.23677399999999998,0.561448,-0.445875,-0.286406,0.7892049999999999,-0.547635,0.286944,0.796025,-0.572385,-0.057773000000000005,-0.001715000000000022,0.0021950000000000025,0.057773000000000005,0.001714999999999911,-0.0021950000000000025,-0.215786,0.07055499999999992,-0.366365,0.196304,0.04335499999999992,-0.38195500000000004,-0.17963600000000002,-0.3524050000000001,-0.274315,0.169404,-0.3398650000000001,-0.25369
143,-0.015868,0.5347299999999999,-0.29800000000000004,-0.13067199999999998,0.3691249999999999,-0.26452,-0.24032199999999998,0.5589719999999999,-0.41659,0.11704800000000001,0.37636499999999995,-0.28041000000000005,0.236898,0.561827,-0.4441,-0.286752,0.7932049999999999,-0.54696,0.288248,0.799855,-0.57172,-0.057789,-0.0012750000000000261,0.002360000000000001,0.057789,0.001274999999999915,-0.002360000000000001,-0.215252,0.08261499999999994,-0.36435,0.196798,0.057744999999999935,-0.38061,-0.178362,-0.3424450000000001,-0.27467,0.169078,-0.32862500000000006,-0.25346
144,-0.015552499999999997,0.538312,-0.29713999999999996,-0.13029549999999998,0.371135,-0.26278,-0.2395955,0.5638340000000001,-0.41452,0.1171345,0.378745,-0.27932,0.23701450000000002,0.565217,-0.44226999999999994,-0.2871555,0.797455,-0.54584,0.2895045,0.802215,-0.57102,-0.0579835,-0.001354999999999995,0.0026599999999999957,0.0579835,0.001354999999999995,-0.0026599999999999957,-0.2147155,0.09297500000000003,-0.36221000000000003,0.1970045,0.07081499999999996,-0.37900999999999996,-0.1770755,-0.33367499999999994,-0.27494999999999997,0.1688045,-0.317535,-0.25272
145,-0.015332499999999999,0.5412600000000001,-0.295875,-0.1300325,0.37365000000000004,-0.260965,-0.2390025,0.565334,-0.41159500000000004,0.1170975,0.38112,-0.278235,0.2370975,0.5684100000000001,-0.43991500000000006,-0.2877225,0.79895,-0.543705,0.2907075,0.80416,-0.570335,-0.0582415,-0.0012299999999999534,0.002934999999999993,0.0582415,0.0012300000000000644,-0.002934999999999993,-0.2139925,0.10328000000000004,-0.360165,0.19651749999999998,0.08493000000000006,-0.37700500000000003,-0.1758625,-0.32536999999999994,-0.274625,0.1684375,-0.30623999999999996,-0.251965
146,-0.0151005,0.5432150000000001,-0.294255,-0.12985449999999998,0.3759650000000001,-0.259175,-0.23836449999999998,0.5656780000000001,-0.409115,0.11714550000000001,0.3830350000000001,-0.277105,0.23740550000000002,0.5714090000000001,-0.437905,-0.2881945,0.7993150000000001,-0.541335,0.29204549999999996,0.8052250000000001,-0.568845,-0.0584225,-0.0010249999999999426,0.0033350000000000046,0.0584225,0.0010250000000000536,-0.0033350000000000046,-0.2131445,0.1122550000000001,-0.358265,0.1954555,0.09802500000000014,-0.37461500000000003,-0.1743345,-0.31881499999999985,-0.274105,0.1679755,-0.29600499999999985,-0.251375
147,-0.014865,0.5453950000000001,-0.29256499999999996,-0.129807,0.37756500000000004,-0.256885,-0.237767,0.5666100000000001,-0.406385,0.117413,0.38469500000000006,-0.275455,0.23773300000000003,0.575806,-0.43598499999999996,-0.28868699999999997,0.800165,-0.538515,0.293273,0.8069950000000001,-0.566825,-0.058631,-0.0008949999999999791,0.0035449999999999926,0.058631,0.0008950000000000902,-0.0035449999999999926,-0.212287,0.12108500000000005,-0.356205,0.194023,0.11079500000000009,-0.371795,-0.172717,-0.31225499999999995,-0.273355,0.167533,-0.2856049999999999,-0.24923299999999998
148,-0.014488000000000001,0.547871,-0.290115,-0.129697,0.37862999999999997,-0.25436499999999995,-0.237177,0.569278,-0.403485,0.117643,0.38632999999999995,-0.27358499999999997,0.238113,0.5808,-0.433985,-0.289037,0.80262,-0.535635,0.294463,0.8090999999999999,-0.5643050000000001,-0.058772000000000005,-0.0009900000000000464,0.003745000000000026,0.058772000000000005,0.0009899999999999354,-0.0037449999999999983,-0.211337,0.12952999999999998,-0.35418499999999997,0.192323,0.12379999999999997,-0.368745,-0.171027,-0.30637000000000003,-0.272695,0.16714299999999999,-0.27579,-0.246687
149,-0.014160499999999996,0.548721,-0.28746,-0.1295405,0.383735,-0.25290999999999997,-0.2367405,0.569831,-0.40026,0.1178395,0.39109499999999997,-0.27208,0.2384695,0.584106,-0.43212,-0.2894505,0.803045,-0.5324,0.29553949999999996,0.809695,-0.56109,-0.0590005,-0.00011499999999997623,0.003700000000000009,0.0590005,0.00011499999999997623,-0.003700000000000009,-0.2105005,0.134895,-0.35296,0.19077950000000002,0.133975,-0.36575,-0.1694505,-0.30271500000000007,-0.27207000000000003,0.16665950000000002,-0.26910500000000004,-0.243312
150,-0.0138445,0.5494410000000001,-0.28476999999999997,-0.1293355,0.38836500000000007,-0.25154,-0.2363455,0.569949,-0.39714000000000005,0.11812450000000001,0.39549500000000004,-0.27061,0.2389945,0.587165,-0.43025,-0.2898855,0.8029750000000001,-0.52869,0.2967945,0.8100350000000001,-0.55745,-0.0591815,0.0004950000000000232,0.0036700000000000066,0.0591815,-0.0004949999999999122,-0.0036700000000000066,-0.2096855,0.13984500000000005,-0.35177,0.1894045,0.14380500000000007,-0.36275,-0.1678055,-0.29930499999999993,-0.27152,0.1666445,-0.2643249999999999,-0.24018
151,-0.013543999999999997,0.5499250000000001,-0.282325,-0.129137,0.3925900000000001,-0.25038499999999997,-0.235927,0.5695850000000001,-0.394375,0.11844299999999999,0.3994700000000001,-0.26936499999999997,0.23966300000000001,0.5908200000000001,-0.428525,-0.289847,0.8047000000000001,-0.525095,0.297533,0.8120500000000002,-0.553725,-0.059334000000000005,0.0008400000000000629,0.0035450000000000204,0.059334000000000005,-0.0008399999999999519,-0.0035449999999999926,-0.208777,0.14428000000000007,-0.35077499999999995,0.188053,0.15293000000000012,-0.359975,-0.166877,-0.2964499999999999,-0.271205,0.16659300000000002,-0.25873999999999986,-0.236999
152,-0.013358999999999996,0.5494619999999999,-0.279975,-0.12909099999999998,0.3957599999999999,-0.249575,-0.235751,0.5681589999999999,-0.391815,0.118749,0.4027799999999999,-0.268305,0.240399,0.5936429999999999,-0.426765,-0.289941,0.8054299999999999,-0.521235,0.298089,0.8139999999999998,-0.550155,-0.059416000000000004,0.0006699999999999484,0.003354999999999997,0.059416000000000004,-0.0006700000000000594,-0.003354999999999997,-0.208061,0.1476699999999999,-0.350125,0.18715900000000002,0.1596499999999999,-0.35763500000000004,-0.165981,-0.29451000000000005,-0.270455,0.166499,-0.2539100000000001,-0.233937
153,-0.013084499999999999,0.548675,-0.277805,-0.1289185,0.39774000000000004,-0.248805,-0.23553849999999998,0.565604,-0.388695,0.1191015,0.40518000000000004,-0.267305,0.2412215,0.5953510000000001,-0.424835,-0.2900085,0.8051400000000001,-0.5163150000000001,0.2984715,0.81484,-0.5461050000000001,-0.0594255,0.0006400000000000849,0.003114999999999979,0.0594255,-0.0006399999999999739,-0.0031150000000000067,-0.2071285,0.15016000000000007,-0.34943500000000005,0.1863615,0.16489000000000004,-0.355295,-0.1652885,-0.29357999999999995,-0.269775,0.1660915,-0.24888,-0.2305
154,-0.012786499999999996,0.5476899999999999,-0.27571,-0.1285915,0.3989499999999999,-0.24806,-0.2352315,0.5680939999999999,-0.38673,0.1195185,0.40696999999999994,-0.26636,0.2420485,0.5964189999999999,-0.42266,-0.2900715,0.80763,-0.51174,0.2989885,0.8158,-0.54165,-0.0594465,0.0005799999999999139,0.0029000000000000137,0.0594465,-0.0005800000000000249,-0.002899999999999986,-0.2060215,0.1521099999999999,-0.34878,0.1859085,0.16843999999999992,-0.35313,-0.1639615,-0.2931800000000001,-0.26951,0.16595849999999998,-0.24599000000000004,-0.22830899999999998
155,-0.0124615,0.54728,-0.273715,-0.1281545,0.40098,-0.24716499999999997,-0.2347445,0.5705640000000001,-0.38446499999999995,0.1200155,0.40905,-0.26548499999999997,0.2425455,0.597686,-0.420155,-0.2901145,0.8101,-0.506445,0.29950550000000004,0.81684,-0.536735,-0.0595215,0.0006399999999999739,0.0026450000000000085,0.0595215,-0.0006399999999999739,-0.0026449999999999807,-0.2050845,0.15406999999999998,-0.34807499999999997,0.1857355,0.17177000000000003,-0.351145,-0.1634845,-0.29201,-0.269835,0.1663055,-0.24210999999999994,-0.22581999999999997
156,-0.011765000000000005,0.5472300000000001,-0.27185499999999996,-0.127453,0.4032200000000001,-0.24626499999999998,-0.234163,0.572991,-0.381795,0.120867,0.41085000000000005,-0.264335,0.243717,0.5993350000000001,-0.417475,-0.28985299999999997,0.8125300000000001,-0.500685,0.300527,0.8191400000000001,-0.531895,-0.059438,0.0009000000000000119,0.0025050000000000072,0.059438,-0.0008999999999999009,-0.0025049999999999795,-0.203723,0.15621000000000007,-0.34772499999999995,0.185937,0.17476000000000008,-0.34918499999999997,-0.162643,-0.29072999999999993,-0.270355,0.166347,-0.23826999999999998,-0.22373899999999997
157,-0.010887500000000001,0.54734,-0.27035,-0.1265955,0.40526000000000006,-0.24566,-0.2334355,0.575339,-0.37917,0.1219345,0.41237000000000007,-0.26348,0.2450745,0.6010230000000001,-0.41479,-0.2894255,0.8151,-0.49483,0.30165450000000005,0.82145,-0.52728,-0.059221499999999996,0.0012800000000000589,0.002370000000000011,0.059221499999999996,-0.0012799999999999478,-0.0023699999999999832,-0.2022855,0.1583900000000001,-0.34775,0.1863045,0.17765000000000009,-0.34765999999999997,-0.1616155,-0.2883199999999999,-0.27105,0.1666545,-0.23441999999999996,-0.221904
158,-0.009848000000000003,0.546705,-0.26897499999999996,-0.12565500000000002,0.40634499999999996,-0.245075,-0.23270500000000002,0.576785,-0.376375,0.123095,0.413095,-0.262455,0.246475,0.601926,-0.410765,-0.288865,0.816755,-0.488635,0.302645,0.822715,-0.522215,-0.058929999999999996,0.001774999999999971,0.0024450000000000027,0.058929999999999996,-0.001774999999999971,-0.0024450000000000027,-0.20095500000000002,0.159435,-0.347865,0.18678499999999998,0.179315,-0.346465,-0.159915,-0.287585,-0.271495,0.16705499999999998,-0.23299500000000006,-0.220227
159,-0.008844999999999999,0.54618,-0.26764,-0.12471600000000001,0.40742,-0.24451,-0.23203600000000002,0.578135,-0.37322999999999995,0.124234,0.41376,-0.26144,0.248044,0.6029709999999999,-0.40698999999999996,-0.28833600000000004,0.81826,-0.48223,0.303634,0.82402,-0.51727,-0.058641,0.0022299999999999542,0.0025000000000000022,0.058641,-0.0022300000000000653,-0.0025000000000000022,-0.19968599999999997,0.16031999999999996,-0.34787999999999997,0.18725399999999998,0.18081999999999998,-0.34539,-0.158736,-0.28672,-0.27242,0.16721399999999997,-0.23199999999999998,-0.218542
160,-0.007830000000000004,0.54585,-0.26632,-0.123751,0.40847,-0.24393,-0.231371,0.579404,-0.36983,0.125389,0.41442999999999997,-0.26042,0.249179,0.603677,-0.40327,-0.28786100000000003,0.81973,-0.47581,0.30459899999999995,0.82468,-0.51207,-0.058342,0.0026399999999999757,0.002569999999999989,0.058342,-0.0026399999999999757,-0.002569999999999989,-0.198481,0.16138999999999992,-0.34786,0.187759,0.18223999999999996,-0.34439,-0.157571,-0.28596,-0.27332999999999996,0.16744900000000001,-0.23107,-0.216918
161,-0.006831499999999997,0.54562,-0.26504,-0.12279349999999999,0.40914,-0.24333,-0.23068349999999999,0.580546,-0.36632,0.1265665,0.41453,-0.25943,0.2503365,0.604243,-0.39974,-0.2873635,0.82106,-0.46960999999999997,0.3055765,0.82532,-0.50718,-0.0580445,0.003129999999999966,0.0026599999999999957,0.0580445,-0.003129999999999966,-0.0026599999999999957,-0.19724350000000002,0.16215999999999997,-0.34782,0.18824649999999998,0.18345,-0.3435,-0.15711350000000002,-0.28493999999999997,-0.27419,0.16713650000000002,-0.23055000000000003,-0.215461
162,-0.0059034999999999956,0.545415,-0.26385,-0.12194050000000001,0.409605,-0.24269999999999997,-0.2300505,0.581571,-0.36284,0.1276695,0.414485,-0.25844,0.2504995,0.601191,-0.39411,-0.28693050000000003,0.822275,-0.46397,0.3058995,0.824205,-0.50229,-0.057778499999999997,0.0036650000000000293,0.0027700000000000224,0.057778499999999997,-0.0036650000000000293,-0.0027699999999999947,-0.1960205,0.16273499999999996,-0.34762,0.1886595,0.18451499999999998,-0.34278,-0.15705049999999998,-0.283845,-0.27493999999999996,0.1682195,-0.22953500000000004,-0.21409299999999998
163,-0.005150999999999999,0.5454,-0.26287499999999997,-0.1213,0.41002999999999995,-0.242065,-0.22956,0.582606,-0.359375,0.12856,0.4143899999999999,-0.257445,0.25044,0.598244,-0.388625,-0.28666,0.82355,-0.458775,0.30594,0.8224499999999999,-0.496535,-0.057580000000000006,0.004170000000000007,0.002904999999999991,0.057580000000000006,-0.004170000000000007,-0.002904999999999991,-0.19496999999999998,0.16345999999999994,-0.34740499999999996,0.18889,0.18555999999999995,-0.342275,-0.15702999999999998,-0.28297000000000005,-0.275405,0.16762000000000002,-0.22958,-0.212515
164,-0.004670000000000004,0.545755,-0.26215,-0.121124,0.410325,-0.2411,-0.229324,0.58371,-0.35614,0.129196,0.414285,-0.25612,0.250056,0.595464,-0.38355,-0.28666400000000003,0.824995,-0.45406,0.30508599999999997,0.817175,-0.48972,-0.05748,0.004495000000000027,0.0030699999999999894,0.05748,-0.004495000000000027,-0.0030699999999999894,-0.19417399999999999,0.16432499999999994,-0.3472,0.188916,0.18666499999999997,-0.34203,-0.156754,-0.282045,-0.27543,0.168236,-0.22816499999999995,-0.211069
165,-0.0045489999999999975,0.5461250000000001,-0.26155,-0.12109700000000001,0.4106950000000001,-0.240181,-0.229447,0.5848350000000001,-0.35331999999999997,0.129493,0.41488500000000006,-0.25504,0.249293,0.5928530000000001,-0.37873999999999997,-0.286907,0.8262550000000001,-0.44974000000000003,0.303893,0.8119050000000001,-0.48329999999999995,-0.057479,0.004595000000000016,0.0032099999999999906,0.057479,-0.004594999999999905,-0.0032099999999999906,-0.19378700000000001,0.16513500000000003,-0.347,0.188793,0.18780500000000006,-0.34187999999999996,-0.156587,-0.281265,-0.27534000000000003,0.167543,-0.22598499999999988,-0.209841
166,-0.004660000000000001,0.5463950000000001,-0.26104499999999997,-0.12125399999999999,0.41099500000000005,-0.239122,-0.229714,0.585817,-0.350545,0.129586,0.415185,-0.253855,0.24831599999999998,0.590387,-0.37422500000000003,-0.287294,0.8271850000000001,-0.445705,0.302516,0.806385,-0.47726500000000005,-0.057472999999999996,0.004605000000000081,0.00326499999999999,0.057472999999999996,-0.00460499999999997,-0.00326499999999999,-0.19365400000000002,0.16596500000000003,-0.346725,0.18855599999999997,0.18897500000000006,-0.341685,-0.156924,-0.280355,-0.275225,0.167926,-0.2242949999999999,-0.208814
167,-0.004964500000000004,0.54659,-0.260735,-0.12144350000000001,0.41129000000000004,-0.23821,-0.2299835,0.586742,-0.348075,0.1295865,0.41587,-0.252925,0.2472265,0.588125,-0.37134500000000004,-0.2877235,0.82803,-0.442245,0.3010565,0.8007,-0.472345,-0.057472499999999996,0.0045399999999999885,0.003275,0.057472499999999996,-0.0045399999999999885,-0.003275,-0.1936335,0.16679,-0.346375,0.1883365,0.19004000000000004,-0.341545,-0.1576935,-0.2791,-0.275285,0.1683565,-0.22070999999999996,-0.20799099999999998
168,-0.005274500000000001,0.5467,-0.260475,-0.1216825,0.41165999999999997,-0.23727399999999998,-0.2302425,0.587642,-0.345935,0.1295975,0.41674,-0.251905,0.2460575,0.585237,-0.36843499999999996,-0.2880825,0.82884,-0.439345,0.29953749999999996,0.79482,-0.467775,-0.057472499999999996,0.0044999999999999485,0.0033150000000000124,0.057472499999999996,-0.0045000000000000595,-0.0033149999999999846,-0.1936725,0.16732999999999998,-0.346055,0.1880475,0.19105,-0.341615,-0.1584725,-0.27798999999999996,-0.275305,0.1688775,-0.21699000000000002,-0.20705
169,-0.005608499999999999,0.54699,-0.26013,-0.1219115,0.41196999999999995,-0.236331,-0.2305115,0.5884919999999999,-0.34419,0.1295985,0.4170999999999999,-0.25082,0.2446785,0.5822529999999999,-0.36561,-0.2883415,0.82968,-0.43687,0.29791850000000003,0.7887099999999999,-0.46373,-0.057472499999999996,0.0043599999999999195,0.0033199999999999896,0.057472499999999996,-0.0043600000000000305,-0.0033199999999999896,-0.1936715,0.16784999999999994,-0.34572,0.1877385,0.19198999999999994,-0.34175,-0.1588315,-0.27705,-0.27514,0.1691485,-0.21273000000000009,-0.206152
170,-0.006285500000000003,0.5473949999999999,-0.25994,-0.1223785,0.41237499999999994,-0.23540300000000003,-0.2310885,0.5893569999999999,-0.34273,0.1293315,0.4178249999999999,-0.24994,0.2444015,0.5831979999999999,-0.36479,-0.28882850000000004,0.8305349999999999,-0.4348,0.29671149999999996,0.7856749999999999,-0.45967,-0.0575505,0.004174999999999929,0.0033299999999999996,0.0575505,-0.00417500000000004,-0.0033299999999999996,-0.1939485,0.16858499999999987,-0.34529,0.1871715,0.1929349999999999,-0.34186000000000005,-0.15882849999999998,-0.2765550000000001,-0.27456,0.16888150000000002,-0.20918500000000007,-0.205457
171,-0.007018499999999997,0.54789,-0.25977,-0.12288750000000001,0.41269999999999996,-0.234467,-0.2317075,0.5902989999999999,-0.34142,0.1290225,0.4185999999999999,-0.24915,0.2423525,0.5794729999999999,-0.36143000000000003,-0.28926749999999996,0.8315199999999999,-0.43296,0.2946325,0.7797499999999999,-0.45599,-0.057621500000000006,0.0039199999999999235,0.003379999999999994,0.057621500000000006,-0.003920000000000035,-0.003380000000000022,-0.1943075,0.16945,-0.34492,0.1865525,0.19398999999999994,-0.34197,-0.1592675,-0.27609000000000006,-0.27462,0.1694125,-0.20629000000000008,-0.204988
172,-0.007908499999999995,0.54847,-0.259425,-0.1235505,0.41336000000000006,-0.233456,-0.2325005,0.5913170000000001,-0.340125,0.1285195,0.4201000000000001,-0.248215,0.2413495,0.5798120000000001,-0.360375,-0.28981049999999997,0.8324,-0.43128500000000003,0.2929895,0.7760500000000001,-0.453395,-0.0576985,0.003690000000000082,0.0034150000000000014,0.0576985,-0.003689999999999971,-0.0034150000000000014,-0.1948605,0.17036000000000007,-0.344345,0.1857995,0.19528000000000006,-0.341875,-0.15994049999999999,-0.27474,-0.27446499999999996,0.1689795,-0.20441999999999994,-0.204644
173,-0.009047000000000003,0.54869,-0.25911,-0.12423299999999998,0.41375000000000006,-0.232817,-0.233493,0.591515,-0.3389,0.127707,0.42087,-0.24774000000000002,0.240007,0.5797410000000001,-0.35922,-0.290603,0.8326,-0.4299,0.291877,0.7760600000000001,-0.45258,-0.057774,0.0035399999999999876,0.003449999999999981,0.057774,-0.0035399999999999876,-0.0034500000000000086,-0.195553,0.17066000000000003,-0.34371,0.184837,0.19590000000000002,-0.34169,-0.160633,-0.27381999999999995,-0.27464,0.169577,-0.20358999999999994,-0.204216
174,-0.010151,0.5487249999999999,-0.25895500000000005,-0.12493199999999999,0.41351499999999997,-0.23241900000000001,-0.234502,0.59097,-0.337935,0.126878,0.42104499999999995,-0.24744500000000003,0.238498,0.5786939999999999,-0.358105,-0.291442,0.8329549999999999,-0.429505,0.29075799999999996,0.775285,-0.451985,-0.057805999999999996,0.0034849999999999604,0.003474999999999978,0.057805999999999996,-0.0034850000000000714,-0.003475000000000006,-0.196252,0.1700649999999999,-0.343415,0.184028,0.19572499999999998,-0.34155500000000005,-0.161022,-0.274455,-0.27464500000000003,0.170558,-0.20336500000000002,-0.20393
175,-0.011251,0.5487249999999999,-0.259115,-0.12565700000000002,0.41351499999999997,-0.232349,-0.235487,0.590425,-0.337445,0.126023,0.42104499999999995,-0.247375,0.237233,0.57921,-0.357735,-0.292327,0.8329549999999999,-0.429435,0.28964300000000004,0.77443,-0.451785,-0.057819999999999996,0.0034849999999999604,0.003505000000000008,0.057819999999999996,-0.0034850000000000714,-0.003505000000000008,-0.19695700000000002,0.169435,-0.343345,0.18331299999999998,0.19530499999999995,-0.341685,-0.161727,-0.274865,-0.27475499999999997,0.171643,-0.20377500000000004,-0.20405
176,-0.012664500000000002,0.5487249999999999,-0.25956999999999997,-0.1267355,0.41351499999999997,-0.232364,-0.23676550000000002,0.5901879999999999,-0.33718,0.1247645,0.42119499999999993,-0.24739,0.2352745,0.579105,-0.35712,-0.29359549999999995,0.833005,-0.42945,0.2883945,0.77443,-0.4518,-0.0580045,0.0034849999999999604,0.0035300000000000054,0.0580045,-0.0034850000000000714,-0.0035299999999999776,-0.1980655,0.16869499999999993,-0.34336,0.1821545,0.19471499999999997,-0.34197,-0.1617255,-0.27615500000000004,-0.2748,0.1714345,-0.203955,-0.20587699999999998
177,-0.014315500000000002,0.5487249999999999,-0.26015499999999997,-0.12792150000000002,0.413585,-0.23238799999999998,-0.2381415,0.5901879999999999,-0.337205,0.1234485,0.42166499999999996,-0.24716499999999997,0.23314849999999998,0.5791139999999999,-0.356485,-0.2950915,0.8335349999999999,-0.429475,0.28686849999999997,0.7739769999999999,-0.451825,-0.0583065,0.0034849999999999604,0.0035550000000000026,0.0583065,-0.0034850000000000714,-0.003554999999999975,-0.19935150000000001,0.16807499999999997,-0.343395,0.1810085,0.19400499999999998,-0.34233499999999994,-0.16172150000000002,-0.2770450000000001,-0.27436499999999997,0.1701585,-0.20820500000000008,-0.20781699999999997
178,-0.015924000000000004,0.5483450000000001,-0.26072,-0.129055,0.41314500000000004,-0.232574,-0.239425,0.589537,-0.3372,0.12218499999999999,0.421505,-0.24707,0.23105499999999998,0.578495,-0.35584000000000005,-0.296545,0.8333950000000001,-0.42976000000000003,0.285495,0.773227,-0.45181,-0.058621,0.0036249999999999893,0.00355999999999998,0.058621,-0.0036249999999999893,-0.0035600000000000076,-0.200825,0.16649500000000006,-0.34364,0.179915,0.19251500000000005,-0.3428,-0.16162500000000002,-0.27822499999999994,-0.27368000000000003,0.16958499999999999,-0.208955,-0.21030700000000002
179,-0.017431999999999996,0.5469999999999999,-0.262195,-0.130155,0.4115,-0.23369,-0.24060499999999999,0.587324,-0.33808499999999997,0.120905,0.41981999999999997,-0.248145,0.230015,0.576246,-0.356725,-0.297805,0.8319099999999999,-0.43113500000000005,0.284455,0.7708619999999999,-0.452885,-0.058866,0.003889999999999949,0.0032149999999999956,0.058866,-0.00389000000000006,-0.0032149999999999956,-0.202255,0.16354999999999997,-0.344845,0.17888500000000002,0.18922,-0.344245,-0.162715,-0.28044,-0.274665,0.16875500000000002,-0.21559000000000006,-0.21391700000000002
180,-0.017817999999999997,0.54591,-0.263785,-0.13045,0.4102700000000001,-0.234803,-0.24151,0.5909040000000001,-0.340645,0.12025,0.41795000000000004,-0.248865,0.23001,0.5730970000000001,-0.35775500000000005,-0.29784,0.8303800000000001,-0.433095,0.28444,0.7729400000000001,-0.455795,-0.058868000000000004,0.004270000000000107,0.0028549999999999964,0.058868000000000004,-0.004269999999999996,-0.0028549999999999964,-0.20281,0.15939000000000003,-0.34643500000000005,0.17919,0.18478000000000006,-0.345855,-0.16307,-0.28337999999999997,-0.27564500000000003,0.16895,-0.22085,-0.217892
181,-0.018144999999999998,0.54626,-0.265525,-0.131025,0.40904999999999997,-0.235981,-0.242395,0.593569,-0.343085,0.119425,0.41639,-0.249905,0.229845,0.5691269999999999,-0.35880500000000004,-0.298195,0.82826,-0.435215,0.28425500000000004,0.77484,-0.459085,-0.059029,0.004090000000000038,0.0024949999999999972,0.059029,-0.004090000000000038,-0.0024949999999999972,-0.203565,0.15483000000000002,-0.34818499999999997,0.180335,0.17697999999999997,-0.348375,-0.162855,-0.28717000000000004,-0.276285,0.168985,-0.22945000000000004,-0.222172
182,-0.0183065,0.5465,-0.26766999999999996,-0.1315085,0.40727,-0.237358,-0.2429185,0.595842,-0.34547,0.11876149999999999,0.41433000000000003,-0.25087,0.2300715,0.5729770000000001,-0.36246,-0.2984985,0.8258000000000001,-0.43750999999999995,0.2843015,0.77793,-0.46314999999999995,-0.0590335,0.003709999999999991,0.002129999999999993,0.0590335,-0.003709999999999991,-0.002129999999999993,-0.2041385,0.15014000000000005,-0.35002999999999995,0.1818015,0.16872000000000004,-0.35151,-0.1623985,-0.29181999999999997,-0.27675,0.16916150000000002,-0.23831999999999998,-0.22658499999999998
183,-0.018268,0.544045,-0.27071999999999996,-0.131834,0.40293500000000004,-0.23957699999999998,-0.24314400000000003,0.5934550000000001,-0.34824,0.118126,0.410395,-0.25263,0.230796,0.5735560000000001,-0.36757,-0.298744,0.8192550000000001,-0.44072999999999996,0.28449599999999997,0.777155,-0.46821999999999997,-0.059087,0.0029649999999999954,0.0024500000000000077,0.059087,-0.0029649999999999954,-0.0024500000000000077,-0.204704,0.14078500000000005,-0.35278,0.183396,0.154995,-0.35553999999999997,-0.162344,-0.300995,-0.27793,0.169346,-0.251765,-0.23194700000000001
184,-0.018047,0.5420280000000001,-0.27456,-0.13206600000000002,0.39856,-0.242471,-0.243896,0.590326,-0.35268999999999995,0.117534,0.40634000000000003,-0.25519,0.23108399999999998,0.5724340000000001,-0.37231,-0.298786,0.81732,-0.44644999999999996,0.285034,0.7759900000000001,-0.47431999999999996,-0.059233,0.0022699999999999942,0.0026700000000000057,0.059233,-0.0022699999999999942,-0.002669999999999978,-0.20505600000000002,0.12919000000000003,-0.35624,0.185184,0.13883000000000006,-0.35994,-0.162806,-0.30987999999999993,-0.28008,0.16969399999999998,-0.26561999999999997,-0.23776799999999998
185,-0.017628,0.5400729999999999,-0.278695,-0.13219,0.39524499999999996,-0.24571500000000002,-0.24461000000000002,0.5871879999999999,-0.357825,0.11711,0.40300499999999995,-0.257805,0.23134,0.5711419999999999,-0.376865,-0.29838000000000003,0.8151349999999999,-0.45237499999999997,0.28629,0.779785,-0.481055,-0.059412999999999994,0.001754999999999951,0.0026650000000000007,0.059412999999999994,-0.001755000000000062,-0.0026650000000000007,-0.20516,0.11691499999999999,-0.359875,0.18706,0.122085,-0.364195,-0.16315,-0.318925,-0.282575,0.17011,-0.27834500000000006,-0.242354
186,-0.0171755,0.5376369999999999,-0.28298999999999996,-0.1322575,0.39283999999999997,-0.248993,-0.24510749999999998,0.583218,-0.36321,0.1167925,0.39907,-0.26049,0.2329825,0.5712349999999999,-0.38281,-0.2979275,0.81051,-0.4571,0.28770249999999997,0.78214,-0.4876,-0.059603500000000004,0.0015399999999999858,0.0025600000000000067,0.059603500000000004,-0.0015399999999999858,-0.002559999999999979,-0.20520750000000001,0.10365999999999997,-0.36366,0.1887525,0.10378999999999994,-0.36819999999999997,-0.1626975,-0.32957000000000003,-0.28464,0.1705625,-0.29251000000000005,-0.247134
187,-0.016845,0.535771,-0.286895,-0.13257200000000002,0.389155,-0.25204499999999996,-0.245082,0.5849829999999999,-0.367735,0.116188,0.395575,-0.263215,0.234538,0.569498,-0.389255,-0.29775199999999996,0.804735,-0.46179499999999996,0.288988,0.783015,-0.49414499999999995,-0.059787999999999994,0.0007249999999999757,0.0024450000000000027,0.059787999999999994,-0.0007249999999999757,-0.0024450000000000027,-0.205272,0.08904499999999993,-0.36721499999999996,0.190138,0.08390500000000001,-0.371415,-0.16243200000000002,-0.34182500000000005,-0.286725,0.17093799999999998,-0.30835500000000005,-0.251603
188,-0.016051,0.535961,-0.28932,-0.132685,0.38581000000000004,-0.254467,-0.245275,0.587358,-0.37202,0.11590500000000001,0.39257000000000003,-0.26525,0.236375,0.5682820000000001,-0.39493,-0.29739499999999996,0.79989,-0.46517,0.290615,0.78464,-0.49761,-0.05974499999999999,-0.00017000000000000348,0.0025499999999999967,0.05974499999999999,0.00017000000000000348,-0.0025499999999999967,-0.204825,0.07551000000000008,-0.36998,0.19172499999999998,0.06442999999999999,-0.37385,-0.163805,-0.3513799999999999,-0.28791,0.171595,-0.32380999999999993,-0.254984
189,-0.0150835,0.5349999999999999,-0.291875,-0.1324885,0.38344999999999996,-0.25702,-0.2454085,0.5820569999999999,-0.374685,0.1160915,0.38919999999999993,-0.267575,0.2379715,0.5720939999999999,-0.398295,-0.29689849999999995,0.8014299999999999,-0.467735,0.29224150000000004,0.7804499999999999,-0.500175,-0.0596135,-0.0009100000000000774,0.0025149999999999895,0.0596135,0.0009099999999999664,-0.0025150000000000172,-0.2043285,0.06068999999999991,-0.372535,0.1930715,0.04627999999999988,-0.376405,-0.1650885,-0.36274000000000006,-0.289115,0.1722115,-0.34094,-0.258346
190,-0.0142055,0.532753,-0.29466499999999995,-0.13213450000000002,0.3798750000000001,-0.259552,-0.2454845,0.5804410000000001,-0.37736499999999995,0.11645549999999999,0.38974500000000006,-0.26997499999999997,0.2398855,0.57767,-0.402225,-0.2963145,0.805825,-0.470415,0.2934555,0.778085,-0.502865,-0.0595205,-0.0017449999999999966,0.0024150000000000005,0.0595205,0.0017450000000001076,-0.0024150000000000005,-0.2039745,0.044875000000000054,-0.37521499999999997,0.1934255,0.027725,-0.378945,-0.1662845,-0.37438499999999997,-0.28974500000000003,0.1726855,-0.35848499999999994,-0.261181
191,-0.013348000000000002,0.530971,-0.29741,-0.131923,0.37757,-0.26201,-0.245273,0.579646,-0.3801,0.11666699999999999,0.38963000000000003,-0.27246000000000004,0.241557,0.57474,-0.40497,-0.29589299999999996,0.81149,-0.47316,0.294347,0.77761,-0.50471,-0.059488,-0.0021600000000000508,0.002250000000000002,0.059488,0.0021600000000000508,-0.002250000000000002,-0.203763,0.029189999999999994,-0.37795,0.193637,0.00871999999999995,-0.38168,-0.167383,-0.38661,-0.29049,0.173027,-0.3761,-0.26391600000000004
192,-0.012589999999999997,0.530772,-0.29935999999999996,-0.131934,0.37704000000000004,-0.263694,-0.244374,0.5826190000000001,-0.38095,0.116596,0.38967000000000007,-0.2742,0.242236,0.5745790000000001,-0.40705,-0.295564,0.8203600000000001,-0.47523000000000004,0.295166,0.7799800000000001,-0.50678,-0.059492,-0.0020399999999999308,0.001480000000000009,0.059492,0.0020400000000000418,-0.001480000000000009,-0.203374,0.016030000000000044,-0.37954,0.19362600000000002,-0.007929999999999993,-0.3835,-0.16858399999999998,-0.39669999999999994,-0.29061,0.173266,-0.39103999999999994,-0.265988
193,-0.012223500000000002,0.531472,-0.29999,-0.1315925,0.377855,-0.264733,-0.2436725,0.583585,-0.38076,0.1166875,0.38954500000000003,-0.27529,0.2428575,0.577325,-0.40854999999999997,-0.2951525,0.821925,-0.47558999999999996,0.2959175,0.7809349999999999,-0.50645,-0.0594955,-0.0017449999999999966,0.0009099999999999941,0.0594955,0.0017449999999999966,-0.0009099999999999941,-0.2027325,0.0014049999999999896,-0.38036000000000003,0.1933875,-0.023414999999999964,-0.38317,-0.1695125,-0.40929499999999996,-0.29045,0.1735575,-0.407285,-0.267489
194,-0.011806999999999998,0.533898,-0.30044000000000004,-0.131229,0.377983,-0.265516,-0.24350899999999998,0.58562,-0.37942,0.116691,0.388489,-0.27611,0.243901,0.58079,-0.40745,-0.294789,0.82467,-0.47468,0.296431,0.77753,-0.5042,-0.05949700000000001,-0.0017800000000000038,0.0006599999999999939,0.05949700000000001,0.0017800000000000038,-0.0006599999999999939,-0.201909,-0.012340000000000018,-0.38077,0.193021,-0.03758999999999996,-0.38215,-0.170119,-0.42184000000000005,-0.28995,0.173921,-0.42245000000000005,-0.268528
195,-0.0122495,0.5362119999999999,-0.29983000000000004,-0.1313905,0.375631,-0.26557200000000003,-0.24386049999999998,0.58856,-0.37756,0.11605950000000001,0.388772,-0.27589,0.2439395,0.58117,-0.40546000000000004,-0.2953505,0.82775,-0.47262000000000004,0.2961095,0.7809699999999999,-0.50084,-0.059693500000000004,-0.0023400000000000087,0.0005099999999999827,0.059693500000000004,0.0023399999999999532,-0.0005100000000000104,-0.20168049999999998,-0.026890000000000025,-0.38003,0.19188950000000002,-0.05131000000000008,-0.3808,-0.1714605,-0.43528,-0.28874,0.1735295,-0.43838,-0.26868400000000003
196,-0.012947000000000004,0.53739,-0.298265,-0.13168000000000002,0.37516000000000005,-0.264976,-0.24443000000000004,0.5895600000000001,-0.375505,0.11568,0.39049500000000004,-0.275145,0.24347999999999997,0.58781,-0.40325500000000003,-0.29586,0.82986,-0.467795,0.29525999999999997,0.7838,-0.496825,-0.059565999999999994,-0.0025299999999999767,0.0003049999999999997,0.059565999999999994,0.0025300000000000322,-0.0003049999999999997,-0.20143000000000003,-0.04197999999999996,-0.378565,0.19033,-0.06518999999999997,-0.378585,-0.17277,-0.44953999999999994,-0.287505,0.17290999999999998,-0.45528,-0.268696
197,-0.013791999999999999,0.5385599999999999,-0.295585,-0.13229,0.376148,-0.263247,-0.24563000000000001,0.5913299999999999,-0.372535,0.11528000000000001,0.392306,-0.273635,0.24264,0.5943799999999999,-0.40010500000000004,-0.29661,0.8366499999999999,-0.46153500000000003,0.29441,0.7865,-0.49099499999999996,-0.059599,-0.0025700000000000167,0.00019500000000000073,0.059599,0.002569999999999961,-0.00019500000000000073,-0.20116,-0.057520000000000016,-0.37624500000000005,0.18872,-0.07859000000000005,-0.37600500000000003,-0.17391,-0.46498000000000006,-0.285665,0.17209,-0.47229,-0.268143
198,-0.0146225,0.54122,-0.29264,-0.1327255,0.377063,-0.261124,-0.2467355,0.59381,-0.3698,0.1148645,0.39271,-0.272168,0.24251450000000002,0.59548,-0.39683,-0.2970555,0.83612,-0.45507,0.2935845,0.78894,-0.48458999999999997,-0.059659500000000004,-0.0025600000000000067,0.00018000000000001348,0.059659500000000004,0.0025600000000000067,-0.00018000000000001348,-0.20074550000000002,-0.07227,-0.37349,0.18712450000000003,-0.09093000000000001,-0.37343000000000004,-0.17506549999999999,-0.48030999999999996,-0.28411,0.1712245,-0.48876000000000003,-0.267532
199,-0.0153205,0.545585,-0.289625,-0.1330105,0.37913,-0.258711,-0.2468105,0.592345,-0.365205,0.1146095,0.390226,-0.270228,0.24277949999999998,0.594395,-0.392525,-0.2972905,0.832025,-0.448485,0.2931995,0.7887850000000001,-0.477055,-0.0597175,-0.002124999999999988,0.00018500000000001848,0.0597175,0.002124999999999988,-0.00018499999999999073,-0.1999805,-0.08669500000000002,-0.370425,0.1856695,-0.10275499999999999,-0.370595,-0.1760605,-0.49643499999999996,-0.283125,0.1704395,-0.505685,-0.266911
200,-0.015375,0.549505,-0.28659,-0.133102,0.383381,-0.25636000000000003,-0.24675199999999997,0.595915,-0.36077000000000004,0.114298,0.392346,-0.267955,0.242758,0.592295,-0.38791,-0.29715199999999997,0.827655,-0.44142000000000003,0.293258,0.7921050000000001,-0.47092,-0.059854000000000004,-0.001915,0.00018999999999999573,0.059854000000000004,0.001915,-0.00019000000000002348,-0.199022,-0.102655,-0.36686,0.184528,-0.11565500000000001,-0.36721000000000004,-0.176862,-0.513645,-0.28183,0.169768,-0.524475,-0.266332
201,-0.015238000000000002,0.5561200000000001,-0.28311,-0.132897,0.38760500000000003,-0.253895,-0.246537,0.59987,-0.35531999999999997,0.114073,0.395219,-0.265613,0.24294300000000002,0.59822,-0.38338,-0.297197,0.82391,-0.43385,0.293533,0.79589,-0.46458,-0.059986,-0.0017699999999999938,0.00014000000000000123,0.059986,0.0017699999999999938,-0.00014000000000000123,-0.198007,-0.11739,-0.36334,0.183483,-0.12936999999999999,-0.36367,-0.177367,-0.5298499999999999,-0.28028,0.169263,-0.54226,-0.26562600000000003
202,-0.015016999999999999,0.560575,-0.278895,-0.132907,0.389221,-0.250763,-0.246487,0.603795,-0.349265,0.113763,0.397521,-0.262471,0.24186300000000002,0.601105,-0.37865499999999996,-0.296667,0.827395,-0.42461499999999996,0.293403,0.806945,-0.45747499999999997,-0.060271000000000005,-0.00194500000000003,0.00032499999999999196,0.060271000000000005,0.0019449999999999745,-0.00032499999999999196,-0.19691699999999998,-0.131805,-0.359145,0.182433,-0.14250500000000005,-0.359085,-0.177507,-0.543215,-0.277005,0.16878300000000002,-0.560045,-0.26451800000000003
203,-0.0145255,0.56462,-0.27407,-0.1326495,0.39108699999999996,-0.247203,-0.24621950000000004,0.60839,-0.34304,0.1135505,0.40015,-0.25879399999999997,0.2414805,0.6037399999999999,-0.37282000000000004,-0.2967595,0.82841,-0.41493,0.2937005,0.81683,-0.45082999999999995,-0.06050849999999999,-0.0019100000000000228,0.0004899999999999904,0.06050849999999999,0.0019100000000000228,-0.0004899999999999904,-0.19527950000000002,-0.14695999999999998,-0.35402,0.1816505,-0.15671000000000002,-0.35397,-0.1769395,-0.55805,-0.27326,0.16898049999999998,-0.57925,-0.263165
204,-0.014132499999999996,0.570945,-0.26823600000000003,-0.1322765,0.396115,-0.242826,-0.2456265,0.612735,-0.335545,0.1133635,0.403285,-0.254758,0.2415335,0.610935,-0.36560499999999996,-0.29631650000000004,0.834215,-0.403875,0.2937935,0.821755,-0.442215,-0.060713500000000004,-0.001684999999999992,0.0005650000000000099,0.060713500000000004,0.001684999999999992,-0.0005650000000000099,-0.1935365,-0.16125500000000004,-0.348325,0.18112350000000002,-0.169775,-0.34835499999999997,-0.17619649999999998,-0.572215,-0.269291,0.1693635,-0.597315,-0.261445
205,-0.013592500000000004,0.57823,-0.262088,-0.1320635,0.40076,-0.238562,-0.24532350000000003,0.6182,-0.32755500000000004,0.11369649999999999,0.40432999999999997,-0.250707,0.24140650000000002,0.61388,-0.357565,-0.29588349999999997,0.84197,-0.392645,0.2937765,0.82844,-0.432405,-0.0607795,-0.0012900000000000134,0.0005549999999999999,0.0607795,0.0012900000000000134,-0.0005549999999999999,-0.19159350000000003,-0.17443000000000003,-0.342445,0.1806665,-0.18173,-0.342165,-0.1751935,-0.58513,-0.26459699999999997,0.1698965,-0.61578,-0.259708
206,-0.0129255,0.585825,-0.255217,-0.13183150000000002,0.40546499999999996,-0.233854,-0.2454915,0.624075,-0.31922,0.1140785,0.406885,-0.246112,0.2412785,0.618005,-0.34950000000000003,-0.29498149999999995,0.847635,-0.38072,0.2938385,0.834935,-0.42171000000000003,-0.0607785,-0.0010550000000000004,0.0006899999999999962,0.0607785,0.0010550000000000004,-0.0006900000000000239,-0.1895115,-0.18809499999999998,-0.33620000000000005,0.18030849999999998,-0.19386499999999998,-0.33542000000000005,-0.1741115,-0.598695,-0.25966100000000003,0.1704985,-0.634545,-0.25752600000000003
207,-0.0121805,0.593195,-0.24747999999999998,-0.1316315,0.409275,-0.22908099999999998,-0.24577149999999998,0.629945,-0.309645,0.1143885,0.411895,-0.24085099999999998,0.24140850000000003,0.623325,-0.340205,-0.2941515,0.852975,-0.368265,0.29425850000000003,0.841195,-0.410095,-0.0608635,-0.0011450000000000071,0.0007850000000000079,0.0608635,0.0011450000000000071,-0.0007850000000000079,-0.1870815,-0.20134500000000002,-0.32908499999999996,0.1797785,-0.20578500000000002,-0.328005,-0.1729115,-0.6115349999999999,-0.25410900000000003,0.17118850000000002,-0.653015,-0.254926
208,-0.011273500000000002,0.599285,-0.238407,-0.1309525,0.414615,-0.223166,-0.24503250000000001,0.640025,-0.29927000000000004,0.1144975,0.419455,-0.234381,0.2407975,0.627605,-0.33029,-0.2930225,0.865975,-0.35396,0.2954475,0.847875,-0.39735,-0.061184499999999996,-0.0010149999999999881,0.0008599999999999997,0.061184499999999996,0.0010149999999999881,-0.0008599999999999997,-0.1842525,-0.21528499999999998,-0.32133,0.17919749999999998,-0.217905,-0.31976000000000004,-0.1713325,-0.624575,-0.24776900000000002,0.1726975,-0.672245,-0.252649
209,-0.010619500000000004,0.605475,-0.228829,-0.1301795,0.418145,-0.216395,-0.2434995,0.645325,-0.28819,0.11492050000000001,0.42249499999999995,-0.227606,0.2404405,0.632485,-0.31973,-0.2917695,0.877255,-0.33927,0.29713049999999996,0.853255,-0.38295999999999997,-0.0614925,-0.0007149999999999934,0.0010499999999999954,0.0614925,0.0007149999999999934,-0.0010499999999999954,-0.1811195,-0.22860499999999997,-0.31343,0.1785705,-0.22955499999999998,-0.31116,-0.1695395,-0.637935,-0.24119600000000002,0.17443050000000002,-0.6910350000000001,-0.250013
210,-0.009906999999999996,0.611395,-0.21851099999999998,-0.12947899999999998,0.422225,-0.208968,-0.241999,0.650945,-0.2773,0.115361,0.42634500000000003,-0.220153,0.239931,0.637875,-0.30863999999999997,-0.290509,0.891635,-0.32456999999999997,0.299031,0.859715,-0.36829999999999996,-0.061765,-0.0004750000000000032,0.0012900000000000134,0.061765,0.0004750000000000032,-0.0012899999999999856,-0.17804899999999999,-0.24184499999999998,-0.30499,0.177891,-0.241655,-0.30203,-0.167699,-0.651805,-0.23421899999999998,0.176141,-0.709985,-0.24663799999999997
211,-0.0089065,0.619255,-0.20789000000000002,-0.12859150000000003,0.42759500000000006,-0.20153300000000002,-0.24043150000000002,0.659265,-0.26615500000000003,0.1159285,0.430775,-0.21285,0.23995850000000002,0.644615,-0.29737500000000006,-0.2894115,0.9011950000000001,-0.311515,0.3015685,0.864035,-0.35409500000000005,-0.0619285,-0.00014500000000000624,0.0014749999999999763,0.0619285,0.00014500000000000624,-0.001475000000000004,-0.17467149999999998,-0.25134500000000004,-0.296245,0.17724849999999998,-0.25239500000000004,-0.293165,-0.1658015,-0.6664749999999999,-0.22807900000000003,0.17839850000000002,-0.7265349999999999,-0.24336200000000002
212,-0.008432499999999999,0.62651,-0.196768,-0.1276785,0.43301999999999996,-0.193224,-0.2389785,0.66793,-0.254595,0.11660150000000001,0.43633,-0.205043,0.2400515,0.6507000000000001,-0.285575,-0.2877285,0.91361,-0.29852500000000004,0.3033715,0.87139,-0.33896499999999996,-0.0620405,8.999999999999286e-05,0.0016450000000000076,0.0620405,-9.000000000000674e-05,-0.0016450000000000076,-0.1717185,-0.26121000000000005,-0.28773499999999996,0.1766015,-0.26305,-0.28402499999999997,-0.1644585,-0.68059,-0.22136,0.17983149999999998,-0.74164,-0.239256
213,-0.007997500000000001,0.6326615,-0.18519500000000003,-0.1267045,0.43654149999999997,-0.185085,-0.23729450000000002,0.6766515,-0.243265,0.1173355,0.43998149999999997,-0.197252,0.24031550000000002,0.6537314999999999,-0.273675,-0.28614449999999997,0.9216215000000001,-0.285785,0.3052655,0.8780515,-0.32489500000000004,-0.0620535,0.00030949999999999034,0.0017249999999999766,0.0620535,-0.0003095000000000042,-0.0017250000000000043,-0.16879450000000001,-0.2706585,-0.278945,0.1756855,-0.2732485,-0.27453500000000003,-0.1630545,-0.6936184999999999,-0.21391300000000002,0.1814555,-0.7563685,-0.23500000000000001
214,-0.007355,0.6397280000000001,-0.17339300000000002,-0.12596,0.43971800000000005,-0.176839,-0.23582999999999998,0.6808080000000001,-0.231515,0.1182,0.443828,-0.189357,0.24073,0.6569780000000001,-0.261545,-0.28425,0.9314180000000001,-0.271845,0.30641,0.885488,-0.31133500000000003,-0.061826000000000006,0.0004210000000000047,0.0017850000000000088,0.061826000000000006,-0.0004210000000000047,-0.0017850000000000088,-0.16594,-0.279412,-0.270085,0.17466,-0.281482,-0.265005,-0.16166999999999998,-0.705982,-0.20666099999999998,0.18319000000000002,-0.768502,-0.230301
215,-0.006901000000000001,0.6405775,-0.159774,-0.125739,0.44210750000000004,-0.166031,-0.234489,0.6845475,-0.217947,0.119111,0.4487175,-0.178459,0.241311,0.6546475,-0.24712499999999998,-0.281969,0.9389775,-0.256535,0.307841,0.8883275,-0.296485,-0.061598,0.000507500000000001,0.0016550000000000037,0.061598,-0.0005074999999999941,-0.0016550000000000037,-0.16300900000000001,-0.28996249999999996,-0.257575,0.17289100000000002,-0.2923325,-0.252285,-0.16036899999999998,-0.7223925,-0.197185,0.18494100000000002,-0.7829125,-0.223815
216,-0.006557,0.641644,-0.146713,-0.125604,0.444274,-0.155651,-0.233384,0.689354,-0.205488,0.119996,0.452774,-0.168556,0.241736,0.660544,-0.234245,-0.279114,0.948194,-0.240985,0.310936,0.901224,-0.28163499999999997,-0.061346,0.0006139999999999965,0.0015150000000000025,0.061346,-0.0006140000000000034,-0.0015150000000000025,-0.160594,-0.299416,-0.246055,0.171246,-0.302196,-0.24049500000000001,-0.159184,-0.737376,-0.188143,0.186416,-0.795336,-0.217345
217,-0.006211000000000001,0.6422755,-0.134139,-0.12537099999999998,0.4450855,-0.146324,-0.231851,0.6911755,-0.193986,0.12068899999999999,0.4526155,-0.160148,0.241809,0.6680955000000001,-0.222825,-0.27621100000000004,0.9509855,-0.226885,0.313999,0.9143455,-0.268625,-0.061265,0.0007395000000000006,0.0015349999999999947,0.061265,-0.0007395000000000006,-0.0015349999999999947,-0.158651,-0.30856449999999996,-0.234875,0.16983900000000002,-0.31262449999999997,-0.229795,-0.158251,-0.7503345,-0.17941200000000002,0.18770900000000001,-0.8071545,-0.21004499999999998
218,-0.0056250000000000015,0.643274,-0.1226395,-0.125477,0.444914,-0.1371885,-0.230247,0.6921539999999999,-0.1825545,0.121533,0.453204,-0.1511515,0.242203,0.676424,-0.2124315,-0.273457,0.954894,-0.2133515,0.316943,0.922084,-0.2568015,-0.061241,0.000785000000000001,0.0016484999999999972,0.061241,-0.000785000000000001,-0.0016484999999999972,-0.157137,-0.321606,-0.22355150000000001,0.16822299999999998,-0.325666,-0.2194215,-0.15768700000000002,-0.763376,-0.17195850000000001,0.188273,-0.819716,-0.20259149999999998
219,-0.005144000000000003,0.6426045,-0.1113435,-0.12573600000000001,0.4452945,-0.1278065,-0.229046,0.6937245,-0.1710425,0.122694,0.4534745,-0.1419825,0.24246399999999999,0.6767945,-0.2013715,-0.270806,0.9563545,-0.2000115,0.319784,0.9286845,-0.2444515,-0.061246999999999996,0.0010395,0.0016914999999999986,0.061246999999999996,-0.0010394999999999996,-0.0016914999999999986,-0.15566600000000003,-0.3338155,-0.21179150000000002,0.166684,-0.3378755,-0.2085415,-0.15723600000000001,-0.7755855,-0.1627325,0.188714,-0.8319255,-0.1947815
220,-0.0048255,0.64083,-0.0946895,-0.1262045,0.44506999999999997,-0.11268149999999999,-0.2278145,0.69539,-0.1541235,0.1230055,0.45344999999999996,-0.1271435,0.2431455,0.67729,-0.1842045,-0.2683445,0.95816,-0.18075449999999998,0.3216955,0.93196,-0.2261545,-0.061381500000000006,0.0015429999999999992,0.0015455000000000052,0.061381500000000006,-0.001543,-0.0015455000000000052,-0.1542845,-0.34491,-0.1940445,0.1648055,-0.34897,-0.1906245,-0.15694450000000001,-0.78668,-0.1491455,0.1885455,-0.84302,-0.1798245
221,-0.004069999999999997,0.6403025,-0.0775245,-0.126814,0.4493925,-0.0956825,-0.226914,0.6952625,-0.1368525,0.124396,0.4538225,-0.1107455,0.244066,0.6751125,-0.16662149999999998,-0.265844,0.9578525,-0.1595995,0.323176,0.9296725,-0.2061115,-0.061499,0.0014794999999999982,0.0020265000000000005,0.061499,-0.0014795000000000016,-0.0020265000000000005,-0.151204,-0.3615475,-0.1725015,0.160246,-0.36643749999999997,-0.16938150000000002,-0.158074,-0.8064475,-0.1345655,0.187366,-0.8578675,-0.16194350000000002
222,-0.0032135000000000045,0.6392505,-0.06150800000000001,-0.1273755,0.4544505,-0.079339,-0.2262655,0.6960205,-0.120469,0.1259445,0.4553305,-0.094961,0.24413449999999998,0.6738005,-0.150273,-0.2636555,0.9584805,-0.139651,0.3244845,0.9284205,-0.186853,-0.0615885,0.0013795000000000057,0.0025599999999999998,0.0615885,-0.0013794999999999988,-0.0025599999999999998,-0.14823550000000002,-0.3776995,-0.152103,0.1557845,-0.3836695,-0.149022,-0.1593155,-0.8279195,-0.121078,0.1861545,-0.8727795,-0.14463700000000002
223,-0.0022850000000000023,0.6371629999999999,-0.046302,-0.127993,0.45975299999999997,-0.063322,-0.225703,0.697323,-0.104996,0.127577,0.45734299999999994,-0.079513,0.244067,0.672573,-0.134849,-0.261963,0.958133,-0.12151100000000001,0.325667,0.9274629999999999,-0.16795300000000002,-0.06156299999999999,0.0012959999999999985,0.0031749999999999973,0.06156299999999999,-0.0012959999999999985,-0.003175000000000004,-0.145393,-0.39538700000000004,-0.131643,0.151477,-0.40074699999999996,-0.129326,-0.160693,-0.8495170000000001,-0.108166,0.184977,-0.887217,-0.127699
224,-0.0011470000000000022,0.6400999999999999,-0.0336125,-0.128383,0.46517000000000003,-0.0500015,-0.225213,0.69878,-0.09141949999999999,0.129317,0.45786999999999994,-0.0665755,0.244347,0.67669,-0.1215125,-0.261083,0.9578899999999999,-0.1056105,0.326797,0.9319599999999999,-0.15133249999999998,-0.061476,0.0012749999999999984,0.0038835000000000015,0.061476,-0.0012750000000000053,-0.003883499999999998,-0.142823,-0.40773,-0.1152455,0.147787,-0.41311,-0.1129415,-0.162133,-0.86572,-0.09769149999999999,0.183777,-0.8965399999999999,-0.11281050000000001
225,7.200000000000088e-05,0.6426525,-0.020919999999999998,-0.12897,0.4702425,-0.036429,-0.22496000000000002,0.7001825,-0.07737,0.13091,0.45813249999999994,-0.053357,0.24478,0.6725425,-0.107539,-0.25999,0.9593824999999999,-0.089114,0.32706,0.9279525,-0.13539199999999998,-0.061341999999999994,0.001291500000000001,0.004694,0.061341999999999994,-0.001291500000000001,-0.0046939999999999985,-0.14043,-0.4204775,-0.09850999999999999,0.14393999999999998,-0.4266675,-0.09592200000000001,-0.16384,-0.8775875,-0.085014,0.18248999999999999,-0.9062775,-0.097437
226,0.0014999999999999961,0.6451695,-0.0080925,-0.12918300000000002,0.47530949999999994,-0.0230905,-0.22468300000000002,0.7014495,-0.0635235,0.132457,0.4584695,-0.040336500000000004,0.24489699999999998,0.6684295,-0.0935135,-0.258953,0.9608595000000001,-0.0726675,0.32726700000000003,0.9240794999999999,-0.1192705,-0.061299,0.0013454999999999995,0.0053644999999999995,0.061299,-0.0013454999999999995,-0.0053644999999999995,-0.13800300000000001,-0.4333505,-0.0817155,0.140007,-0.4419705,-0.0786935,-0.165633,-0.8936005,-0.0743375,0.18095699999999998,-0.9163605,-0.0817625
227,0.0030950000000000023,0.6475485,0.0044685,-0.12900799999999998,0.4803085,-0.009923499999999998,-0.22425799999999999,0.7029585,-0.0499245,0.134182,0.45917850000000004,-0.027434499999999997,0.24508200000000002,0.6647285,-0.0794495,-0.25786800000000004,0.9624085000000001,-0.0563825,0.327572,0.9206085,-0.1034405,-0.061477000000000004,0.0013765000000000027,0.0058775,0.061477000000000004,-0.0013765000000000027,-0.005877500000000001,-0.135768,-0.4486015,-0.06524150000000001,0.136502,-0.4593815,-0.0616285,-0.167348,-0.9097815,-0.06380050000000001,0.179702,-0.9286015,-0.0661755
