sb224sc-HT22-VT27/4dt907/src/data/kinect_good_preprocessed_A9_mediapipe/A61_kinect_mirrored.csv
FrameNo,nose_3d_x,nose_3d_y,nose_3d_z,left_shoulder_3d_x,left_shoulder_3d_y,left_shoulder_3d_z,left_elbow_3d_x,left_elbow_3d_y,left_elbow_3d_z,right_shoulder_3d_x,right_shoulder_3d_y,right_shoulder_3d_z,right_elbow_3d_x,right_elbow_3d_y,right_elbow_3d_z,left_wrist_3d_x,left_wrist_3d_y,left_wrist_3d_z,right_wrist_3d_x,right_wrist_3d_y,right_wrist_3d_z,left_hip_3d_x,left_hip_3d_y,left_hip_3d_z,right_hip_3d_x,right_hip_3d_y,right_hip_3d_z,left_knee_3d_x,left_knee_3d_y,left_knee_3d_z,right_knee_3d_x,right_knee_3d_y,right_knee_3d_z,left_ankle_3d_x,left_ankle_3d_y,left_ankle_3d_z,right_ankle_3d_x,right_ankle_3d_y,right_ankle_3d_z
32,1.038782,0.7151565,0.0579505,0.882284,0.5573665,0.0226725,0.8354540000000001,0.7792165,-0.0619355,1.1799339999999998,0.5202865,0.0373875,1.247284,0.7344765,-0.0438315,0.8392740000000001,1.0497265,-0.1397105,1.237374,0.9999265,-0.1438305,0.923251,0.0042515,-0.0008044999999999,1.076749,-0.0042515,0.0008045,0.8716940000000001,-0.4455834999999999,0.0088575,1.130734,-0.4543534999999999,-0.0047894999999999,0.8206340000000001,-0.9675935,0.0308755,1.163464,-0.9662935,0.0294725
33,1.038844,0.715246,0.058162,0.8822580000000001,0.557346,0.022763,0.835328,0.779826,-0.062,1.179928,0.519656,0.037134,1.247268,0.734626,-0.043765,0.839118,1.050236,-0.139404,1.237208,1.000136,-0.143434,0.9232460000000001,0.00417,-0.0007419999999999,1.076754,-0.0041699999999999,0.0007419999999999,0.871748,-0.445674,0.008773,1.130768,-0.454324,-0.004822,0.8213779999999999,-0.966544,0.030104,1.163518,-0.966174,0.029312
34,1.038905,0.7153185,0.058348,0.8822520000000001,0.5574085,0.022869,0.8352120000000001,0.7806585,-0.0620649999999999,1.179932,0.5192185,0.036944,1.247272,0.7348685,-0.0438129999999999,0.838962,1.0506285,-0.139102,1.237042,1.0004285,-0.143132,0.9232420000000001,0.0041215,-0.000687,1.0767579999999999,-0.0041214999999999,0.000687,0.871752,-0.4457514999999999,0.008666,1.130822,-0.4543315,-0.0048489999999999,0.821612,-0.9658515,0.029296,1.163642,-0.9660715,0.029041
35,1.0389455,0.7154164999999999,0.0585305,0.8822535,0.5575564999999999,0.0228955,0.8350934999999999,0.7814865,-0.0620965,1.1799434999999998,0.5187164999999999,0.0366635,1.2472835,0.7352065,-0.0438345,0.8388435000000001,1.0509565,-0.1387935,1.2369135,1.0008565,-0.1429835,0.9232365,0.0040945,-0.0006285,1.0767635,-0.0040944999999999,0.0006285,0.8717635000000001,-0.4457935,0.0085575,1.1309035,-0.4544335,-0.0048554999999999,0.8227735,-0.9646035,0.0286355,1.1637635,-0.9660735,0.0286475
36,1.0390125,0.715631,0.0586065,0.8823835000000001,0.5575910000000001,0.0228015,0.8350435,0.782581,-0.0622864999999999,1.1800235,0.5180710000000001,0.0362405,1.2473435,0.735491,-0.0438694999999999,0.8387735000000001,1.051341,-0.1386204999999999,1.2368535,1.001241,-0.1428605,0.9232225000000001,0.004165,-0.0005884999999999,1.0767775,-0.0041649999999999,0.0005885,0.8719235000000001,-0.445789,0.0082855,1.1310235,-0.454389,-0.0048874999999999,0.8239635000000001,-0.963169,0.0280425,1.1639335,-0.965909,0.0282305
37,1.0390355,0.7158800000000001,0.0585495,0.8824425,0.5575100000000001,0.0226395,0.8349325000000001,0.7838700000000001,-0.0626055,1.1800324999999998,0.5176200000000001,0.0358205,1.2473925,0.7357800000000001,-0.0439545,0.8386525000000001,1.05175,-0.1386365,1.2367625,1.0016500000000002,-0.1429165,0.9232235,0.004234,-0.0005434999999999,1.0767765,-0.004234,0.0005434999999999,0.8720125000000001,-0.4458,0.0079255,1.1310324999999999,-0.45436,-0.0049524999999999,0.8245225,-0.96216,0.0275295,1.1640525,-0.96581,0.0277705
38,1.039058,0.7161839999999999,0.058453,0.8825270000000001,0.557434,0.022429,0.834827,0.785604,-0.062986,1.180127,0.517124,0.035365,1.247487,0.7361639999999999,-0.044169,0.8385469999999999,1.051944,-0.1386929999999999,1.2367469999999998,1.002044,-0.142973,0.923219,0.004339,-0.0005159999999999,1.076781,-0.004339,0.0005159999999999,0.872127,-0.445756,0.007434,1.131097,-0.454246,-0.0050359999999999,0.824797,-0.961066,0.027014,1.164197,-0.965626,0.027274
39,1.039109,0.716431,0.058358,0.882657,0.557521,0.022147,0.8347370000000001,0.787401,-0.06351,1.180237,0.516761,0.035088,1.247637,0.7365710000000001,-0.044425,0.8384370000000001,1.052031,-0.138837,1.236747,1.002531,-0.143057,0.923202,0.004431,-0.000486,1.076798,-0.004431,0.000486,0.8722970000000001,-0.445719,0.006602,1.131087,-0.454199,-0.0051669999999999,0.825017,-0.960539,0.026563,1.164347,-0.965389,0.026762
40,1.0391325,0.716632,0.0580295,0.8827545,0.5575220000000001,0.0216285,0.8345644999999999,0.788432,-0.0640475,1.1803344999999998,0.5163920000000001,0.0345135,1.2477845,0.7369020000000001,-0.0450505,0.8382845,1.052062,-0.1390995,1.2367145,1.002962,-0.1433695,0.9231495000000001,0.004555,-0.0005734999999999,1.0768505,-0.004555,0.0005735,0.8728945,-0.445828,0.0047375,1.1311245,-0.454518,-0.0055144999999999,0.8251045,-0.959798,0.0257265,1.1645045,-0.965128,0.0255245
41,1.039016,0.716839,0.056517,0.882646,0.557469,0.020146,0.8340259999999999,0.788289,-0.0664049999999999,1.180216,0.516069,0.032949,1.247716,0.7365689999999999,-0.046747,0.8378559999999999,1.052299,-0.14082,1.236476,1.002699,-0.14477,0.9231070000000001,0.004746,-0.0008599999999999,1.0768929999999999,-0.004746,0.00086,0.873796,-0.4460309999999999,0.000566,1.130926,-0.455101,-0.0067509999999999,0.824846,-0.959261,0.024052,1.164406,-0.964561,0.023481
42,1.0388595,0.7169985000000001,0.054336,0.8824445,0.5571385000000001,0.01831,0.8334545000000001,0.7878485000000001,-0.069719,1.1800245,0.5159385000000001,0.030981,1.2476245,0.7357385000000001,-0.049216,0.8374445,1.0521985,-0.143415,1.2361445,1.0018985,-0.147015,0.9230225,0.0049955,-0.0010709999999999,1.0769775,-0.0049955,0.001071,0.8747345,-0.4462215,-0.0044169999999999,1.1307645,-0.4557415,-0.009574,0.8249645000000001,-0.9588815,0.022084,1.1641845,-0.9639815,0.021272
43,1.038625,0.7172895,0.05106,0.8821019999999999,0.5573595,0.015583,0.8327519999999999,0.7880495,-0.0743849999999999,1.179692,0.5162595,0.028228,1.247562,0.7349395,-0.052956,0.836972,1.0520095,-0.147672,1.235712,1.0010095,-0.150592,0.922969,0.0053095,-0.001683,1.077031,-0.0053095,0.001683,0.875672,-0.4463205,-0.0108599999999999,1.130652,-0.4564205,-0.013654,0.824662,-0.9575705,0.019145,1.163842,-0.9628605,0.01822
44,1.0382975,0.71747,0.0467155,0.8816444999999999,0.55777,0.0120834999999999,0.8318945,0.78688,-0.0801375,1.1792145,0.51693,0.0247855,1.2474645,0.73426,-0.0577754999999999,0.8366145,1.0508,-0.1534755,1.2352245,1.00032,-0.1553555,0.9230095,0.0055499999999999,-0.0024595,1.0769905,-0.0055499999999999,0.0024595,0.8764345,-0.4464499999999999,-0.0186565,1.1306545,-0.45668,-0.0187845,0.8245945,-0.95547,0.0158125,1.1633745,-0.96107,0.0144854999999999
45,1.0379705,0.7170905,0.0411949999999999,0.8811935,0.5584005,0.0078059999999999,0.8309635000000001,0.7866105,-0.086327,1.1786935,0.5179705,0.0207879999999999,1.2475135,0.7334505,-0.063748,0.8362835,1.0496505,-0.160471,1.2348035,0.9994405,-0.161681,0.9230665,0.0057555,-0.003376,1.0769335,-0.0057555,0.0033759999999999,0.8771135,-0.4465395,-0.02778,1.1307135,-0.4567095,-0.02448,0.8244435,-0.9526095,0.0118299999999999,1.1627934999999998,-0.9588295,0.0103379999999999
46,1.037603,0.716334,0.0348835,0.880689,0.558844,0.0030454999999999,0.830029,0.786324,-0.0933755,1.178049,0.518834,0.0163395,1.247619,0.732394,-0.0704475,0.835949,1.0483239999999998,-0.1684655,1.234349,0.998344,-0.1685555,0.923143,0.005814,-0.0043105,1.076857,-0.005814,0.0043104999999999,0.8775090000000001,-0.446616,-0.0375935,1.131319,-0.4567859999999999,-0.0316315,0.824299,-0.949886,0.0074185,1.162259,-0.956416,0.0052615
47,1.0371555,0.715326,0.0274255,0.8805265,0.557396,-0.0042924999999999,0.8291065000000001,0.785636,-0.1017474999999999,1.1774365,0.518826,0.0107375,1.2479365,0.731186,-0.0784175,0.8356965000000001,1.046586,-0.1777274999999999,1.2339265,0.997116,-0.1766875,0.9231655,0.005884,-0.0052565,1.0768345,-0.005884,0.0052565,0.8776065,-0.446744,-0.0478745,1.1320165,-0.456924,-0.0391775,0.8239365000000001,-0.946114,0.0026775,1.1616865,-0.953774,-0.0001415
48,1.0365775,0.713778,0.0192865,0.8801605000000001,0.5560280000000001,-0.0117995,0.8280905000000001,0.7834380000000001,-0.1108495,1.1766605,0.518938,0.0050595,1.2482705,0.7295780000000001,-0.0871535,0.8354805000000001,1.043998,-0.1876695,1.2333205,0.995358,-0.1857895,0.9231985,0.005914,-0.0061495,1.0768015,-0.0059139999999999,0.0061495,0.8772905,-0.446832,-0.0583635,1.1326905,-0.457072,-0.0471285,0.8233805000000001,-0.942322,-0.0022574999999999,1.1609605,-0.950252,-0.0056635
49,1.036339,0.7124145000000001,0.0105125,0.879902,0.5539645000000001,-0.0205315,0.8273619999999999,0.7813245000000001,-0.1208035,1.1761519999999999,0.5193245000000001,-0.0011935,1.2488920000000001,0.7284045,-0.0965085,0.835742,1.0417645,-0.1983635,1.232782,0.9939645,-0.1956235,0.923125,0.0058475,-0.0070685,1.076875,-0.0058475,0.0070685,0.877162,-0.4466455,-0.0687784999999999,1.1339119999999998,-0.4561455,-0.0556925,0.823132,-0.9372555,-0.0071625,1.160572,-0.9452055,-0.0106755
50,1.0366745,0.710409,0.0021654999999999,0.8802065,0.552279,-0.0285925,0.8273565,0.7784989999999999,-0.1300125,1.1762265,0.519619,-0.0069405,1.2500565,0.727689,-0.1056825,0.8367465000000001,1.039969,-0.2081424999999999,1.2326165,0.993119,-0.2049524999999999,0.9230155,0.0055929999999999,-0.0076855,1.0769845,-0.005593,0.0076855,0.8775265000000001,-0.446351,-0.0775055,1.1359265,-0.454241,-0.0639035,0.8236965,-0.932031,-0.0110365,1.1610065,-0.939131,-0.0150075
51,1.0372035,0.7078005,-0.0058064999999999,0.8807015,0.5510105,-0.0360855,0.8275315,0.7750205,-0.1389125,1.1764815,0.5196105,-0.0123334999999999,1.2513614999999998,0.7264105,-0.1147525,0.8381715000000001,1.0382205,-0.2174125,1.2322615,0.9915305,-0.2145925,0.9229325,0.0053805,-0.0082185,1.0770675,-0.0053805,0.0082185,0.8780815,-0.4458495,-0.0857155,1.1383215,-0.4517695,-0.0708735,0.8242815,-0.9268595,-0.0145134999999999,1.1616415,-0.9326495,-0.0187745
52,1.037791,0.705096,-0.013037,0.881242,0.549086,-0.043634,0.8277220000000001,0.771166,-0.14736,1.176822,0.515526,-0.018058,1.252552,0.726016,-0.1234099999999999,0.840042,1.037236,-0.22558,1.231502,0.990836,-0.22367,0.922936,0.005162,-0.008332,1.077064,-0.005162,0.0083319999999999,0.8780920000000001,-0.444104,-0.093077,1.1408719999999999,-0.447694,-0.077361,0.825492,-0.919784,-0.016506,1.1622919999999999,-0.924674,-0.021515
53,1.038122,0.702025,-0.0195345,0.8814540000000001,0.547525,-0.0503175,0.8278940000000001,0.770485,-0.1551015,1.177094,0.5117849999999999,-0.0228405,1.253374,0.726175,-0.1315915,0.8424640000000001,1.033725,-0.2335615,1.230524,0.990285,-0.2318615,0.922922,0.0051199999999999,-0.0081625,1.077078,-0.0051199999999999,0.0081625,0.877414,-0.441365,-0.0996095,1.143304,-0.443295,-0.0833525,0.826544,-0.912295,-0.0174595,1.162904,-0.916035,-0.0232315
54,1.038313,0.698875,-0.025518,0.881572,0.5460250000000001,-0.056637,0.8281620000000001,0.768915,-0.162767,1.177392,0.507995,-0.027312,1.254102,0.7267250000000001,-0.139727,0.8449620000000001,1.031795,-0.240467,1.229442,0.989355,-0.239487,0.922851,0.005072,-0.007952,1.077149,-0.005072,0.007952,0.8763920000000001,-0.437515,-0.1053659999999999,1.145662,-0.438225,-0.089252,0.827482,-0.904265,-0.017793,1.163472,-0.907555,-0.024245
55,1.0386085,0.695724,-0.0312705,0.8818795000000001,0.542994,-0.0628195,0.8284895,0.767684,-0.1703765,1.1778295,0.504924,-0.0318775,1.2551495,0.727924,-0.1480965,0.8478495,1.031414,-0.2466165,1.2283795,0.981994,-0.2467365,0.9226035,0.005172,-0.0079725,1.0773965,-0.0051719999999999,0.0079725,0.8752495,-0.432526,-0.1114995,1.1477195,-0.432056,-0.0944995,0.8284395,-0.895496,-0.0179475,1.1641795,-0.898266,-0.0254515
56,1.039346,0.6915115000000001,-0.0369375,0.882374,0.5428515,-0.0671814999999999,0.829314,0.7668315,-0.1779745,1.178714,0.5015115,-0.0366905,1.256594,0.7286115000000001,-0.1561145,0.851274,1.0318915,-0.2521645,1.227724,0.9745215,-0.2529645,0.922297,0.0052914999999999,-0.0079975,1.077703,-0.0052915,0.0079975,0.874524,-0.4265485,-0.1182845,1.150364,-0.4253485,-0.1006825,0.8298640000000002,-0.8858284999999999,-0.0181145,1.165324,-0.8879484999999999,-0.0271505
57,1.040415,0.68968,-0.042652,0.883356,0.5395,-0.073513,0.830436,0.76762,-0.185264,1.179876,0.49996,-0.042115,1.258366,0.73162,-0.164144,0.8551960000000001,1.03395,-0.257504,1.227216,0.97059,-0.258614,0.921733,0.005094,-0.0080439999999999,1.078267,-0.005094,0.008044,0.873986,-0.4170399999999999,-0.125404,1.153716,-0.41569,-0.108086,0.831576,-0.87192,-0.017974,1.166716,-0.87401,-0.0297699999999999
58,1.041431,0.686834,-0.0477925,0.884326,0.5374939999999999,-0.0784135,0.831686,0.7682739999999999,-0.1925155,1.1811559999999999,0.498134,-0.0468955,1.260086,0.728054,-0.1713755,0.859276,1.035704,-0.2627655,1.227026,0.966604,-0.2641354999999999,0.921094,0.005107,-0.0077434999999999,1.078906,-0.005107,0.0077434999999999,0.873766,-0.407526,-0.1323855,1.157006,-0.406516,-0.1151254999999999,0.833616,-0.858846,-0.0177335,1.1679659999999998,-0.8606959999999999,-0.0298195
59,1.0425775,0.683992,-0.0524629999999999,0.8849745,0.536372,-0.082828,0.8331245,0.770062,-0.199622,1.1826444999999999,0.4947519999999999,-0.051815,1.2615645,0.725852,-0.177422,0.8633345,1.037972,-0.267812,1.2269945,0.963582,-0.269472,0.9205635,0.005358,-0.0074839999999999,1.0794365,-0.005358,0.007484,0.8739945,-0.397018,-0.138602,1.1602145,-0.3968779999999999,-0.1213819999999999,0.8357045,-0.846198,-0.0180989999999999,1.1695345,-0.8474379999999999,-0.0314669999999999
60,1.0438755,0.68179,-0.0571114999999999,0.8859775,0.53369,-0.0883485,0.8345175000000001,0.7659699999999999,-0.2062175,1.1842475000000001,0.49209,-0.0565615,1.2631275,0.72404,-0.1828275,0.8675475,1.03273,-0.2733474999999999,1.2276775,0.95619,-0.2750674999999999,0.9198695,0.0054899999999999,-0.0072374999999999,1.0801305,-0.0054899999999999,0.0072375,0.8747675,-0.3841300000000001,-0.1445475,1.1634475,-0.38508,-0.1272275,0.8381475,-0.83064,-0.0173245,1.1712575,-0.83107,-0.0311285
61,1.0452235,0.67872,-0.0641839999999999,0.8872475,0.5314099999999999,-0.095553,0.8360775,0.7622500000000001,-0.214167,1.1858875,0.49278,-0.062759,1.2647775,0.7210000000000001,-0.190707,0.8714875,1.02792,-0.280577,1.2283875,0.94906,-0.282607,0.9193245,0.0054899999999999,-0.0071489999999999,1.0806755,-0.0054899999999999,0.007149,0.8758875,-0.37198,-0.152617,1.1665874999999999,-0.37411,-0.134657,0.8406975,-0.8159700000000001,-0.0188979999999999,1.1731775,-0.81612,-0.0344169999999999
62,1.046381,0.6758299999999999,-0.071079,0.889149,0.52879,-0.103011,0.837839,0.75878,-0.2221209999999999,1.187169,0.49254,-0.069404,1.266249,0.71733,-0.198511,0.873569,1.0271,-0.286721,1.229039,0.94285,-0.290161,0.9188300000000001,0.0054499999999999,-0.0071009999999999,1.08117,-0.00545,0.007101,0.876809,-0.35984,-0.1601409999999999,1.169399,-0.36239,-0.1413509999999999,0.843139,-0.8003100000000001,-0.02036,1.174579,-0.80202,-0.037968
63,1.047254,0.673315,-0.0779425,0.890821,0.526755,-0.1106234999999999,0.8391109999999999,0.757825,-0.2302435,1.187741,0.4903149999999999,-0.0763445,1.2673809999999999,0.7138450000000001,-0.2058934999999999,0.8754110000000002,1.025615,-0.2938135,1.2290809999999999,0.938655,-0.2976835,0.918933,0.0054649999999999,-0.0070274999999999,1.081067,-0.0054649999999999,0.0070274999999999,0.877471,-0.347415,-0.1672535,1.171831,-0.3494849999999999,-0.1475435,0.845321,-0.783605,-0.0219115,1.175571,-0.7849849999999999,-0.0407075
64,1.0478575,0.67102,-0.0848709999999999,0.8922955,0.5281,-0.118299,0.8405055000000001,0.75515,-0.239359,1.1881355,0.4886999999999999,-0.083272,1.2684655,0.7100299999999999,-0.213589,0.8772655000000001,1.02327,-0.3020489999999999,1.2291055,0.94188,-0.3066689999999999,0.9195305,0.0056699999999999,-0.006847,1.0804695,-0.00567,0.006847,0.8782555000000001,-0.33436,-0.174569,1.1749455,-0.33601,-0.156929,0.8476055,-0.7668,-0.024108,1.1763155,-0.76967,-0.044192
65,1.047388,0.672175,-0.0933814999999999,0.89351,0.526965,-0.1287555,0.84124,0.758295,-0.2494255,1.18818,0.489825,-0.0920435,1.26856,0.711355,-0.2225255,0.8787600000000001,1.022185,-0.3133655,1.22875,0.948655,-0.3184055,0.920082,0.005995,-0.0066194999999999,1.079918,-0.005995,0.0066195,0.8783100000000001,-0.3130549999999999,-0.1899854999999999,1.17826,-0.313945,-0.1718555,0.84953,-0.741715,-0.0287984999999999,1.17656,-0.746345,-0.0497265
66,1.0467215,0.67115,-0.102882,0.8943425,0.5294099999999999,-0.138662,0.8420625000000002,0.7597100000000001,-0.261642,1.1882825,0.48957,-0.1016799999999999,1.2687125,0.7106600000000001,-0.233192,0.8800425000000001,1.01991,-0.326202,1.2288025,0.94987,-0.332122,0.9205225,0.0063999999999999,-0.006572,1.0794775,-0.0063999999999999,0.006572,0.8784425000000001,-0.29485,-0.206462,1.1810725,-0.29449,-0.186972,0.8514525,-0.71997,-0.035015,1.1763025,-0.7263900000000001,-0.054593
67,1.0460805,0.66923,-0.112519,0.8952935,0.52935,-0.14913,0.8429735,0.75935,-0.2732599999999999,1.1885735,0.48938,-0.111525,1.2690335,0.71572,-0.24488,0.8810935,1.01775,-0.33894,1.2287135,0.95106,-0.3457099999999999,0.9205455,0.0064499999999999,-0.006767,1.0794545,-0.00645,0.0067669999999999,0.8784235,-0.27595,-0.22226,1.1840235,-0.27449,-0.20165,0.8525035,-0.6976,-0.041022,1.1762135,-0.7053200000000001,-0.059162
68,1.046294,0.66784,-0.1231345,0.897393,0.52808,-0.1603915,0.844583,0.7576700000000001,-0.2856615,1.189473,0.49024,-0.1216705,1.270263,0.7147300000000001,-0.2571715,0.881603,1.0103300000000002,-0.3533915,1.229293,0.95038,-0.3603415,0.920696,0.0063099999999999,-0.0070274999999999,1.079304,-0.0063099999999999,0.0070274999999999,0.8790330000000001,-0.25746,-0.2388515,1.187723,-0.2550599999999999,-0.2174415,0.8542730000000001,-0.67602,-0.0468984999999999,1.177043,-0.68451,-0.0645645
69,1.0465315,0.667315,-0.1333245,0.8989755,0.527655,-0.1703444999999999,0.8461555000000001,0.761555,-0.2979545,1.1903555,0.490575,-0.1314245,1.2715355,0.715285,-0.2689245,0.8815355,1.011675,-0.3664945,1.2296755,0.955765,-0.3739245,0.9210255,0.006145,-0.0070845,1.0789745,-0.006145,0.0070845,0.8792255,-0.240595,-0.2552445,1.1912155,-0.236695,-0.2331244999999999,0.8559755,-0.656385,-0.0531495,1.1780355,-0.665815,-0.0703025
70,1.0469685,0.66832,-0.145259,0.9005915,0.52664,-0.180379,0.8477215000000001,0.7629699999999999,-0.3113789999999999,1.1911815,0.4908599999999999,-0.141239,1.2725815,0.71503,-0.281389,0.8809515000000001,1.01144,-0.381129,1.2302715,0.95849,-0.389449,0.9213655000000001,0.0059299999999999,-0.007257,1.0786345,-0.0059299999999999,0.0072569999999999,0.8793315,-0.22296,-0.272349,1.1946715,-0.21767,-0.249909,0.8582515,-0.63593,-0.058366,1.1790715,-0.64621,-0.07619
71,1.04739,0.67043,-0.1568835,0.9020980000000001,0.52401,-0.1906535,0.849128,0.76274,-0.3245135,1.191878,0.4898,-0.1516735,1.273638,0.71564,-0.2941135,0.8801580000000001,1.01156,-0.3960835,1.230518,0.96105,-0.4053135,0.921519,0.00617,-0.0073045,1.078481,-0.00617,0.0073044999999999,0.8794180000000001,-0.2040699999999999,-0.2893835,1.198048,-0.19788,-0.2666735,0.860108,-0.61416,-0.0645165,1.180178,-0.62608,-0.0824615
72,1.0474535,0.6699649999999999,-0.1686555,0.9031885,0.5201549999999999,-0.2010255,0.8501185,0.761365,-0.3373155,1.1924885,0.4905549999999999,-0.1619955,1.2744085,0.7163649999999999,-0.3072855,0.8788685,1.011555,-0.4108455,1.2305185,0.962295,-0.4216054999999999,0.9216705000000001,0.0062149999999999,-0.0072245,1.0783295,-0.006215,0.0072244999999999,0.8787985,-0.185245,-0.3067855,1.2012885,-0.1787349999999999,-0.2837055,0.8611285000000001,-0.594055,-0.0719285,1.1807885,-0.6058250000000001,-0.0887185
73,1.0472294999999998,0.670655,-0.177183,0.9040485,0.515025,-0.2081329999999999,0.8504185,0.761045,-0.345823,1.1925985,0.490345,-0.169033,1.2747385,0.716515,-0.316983,0.8769785,1.011105,-0.421853,1.2299285,0.962745,-0.433813,0.9216805,0.0060949999999999,-0.007077,1.0783195,-0.006095,0.007077,0.8775085,-0.1673649999999999,-0.3202129999999999,1.2032085,-0.160745,-0.294243,0.8615385,-0.575455,-0.074388,1.1810385,-0.585895,-0.091426
74,1.047314,0.669905,-0.184472,0.904771,0.511645,-0.212212,0.850391,0.7549049999999999,-0.352952,1.192461,0.489102,-0.173432,1.275471,0.712075,-0.325132,0.875741,1.009065,-0.429952,1.2291409999999998,0.959285,-0.444302,0.921728,0.0057649999999999,-0.0070329999999999,1.078272,-0.005765,0.0070329999999999,0.876681,-0.157825,-0.3255019999999999,1.204251,-0.150855,-0.299172,0.861721,-0.566415,-0.077843,1.181101,-0.573955,-0.092307
75,1.0476945,0.67004,-0.1911385,0.9054835,0.50605,-0.2159685,0.8501434999999999,0.74898,-0.3582385,1.1920335,0.484797,-0.1780585,1.2759035,0.70669,-0.3322085,0.8744735,1.00662,-0.4371685,1.2281335,0.95777,-0.4535885,0.9218725,0.00573,-0.0070215,1.0781275,-0.00573,0.0070215,0.8756435,-0.14672,-0.3307685,1.2053635,-0.1388999999999999,-0.3043485,0.8618535,-0.55515,-0.0819555,1.1813335,-0.56006,-0.0924685
76,1.0480175,0.671765,-0.197706,0.9059155,0.502274,-0.219326,0.8498155000000001,0.744235,-0.3635859999999999,1.1910655,0.481303,-0.182436,1.2759955,0.7018850000000001,-0.338506,0.8728655000000001,1.003575,-0.443976,1.2283855,0.956115,-0.4624959999999999,0.9217065,0.005885,-0.007035,1.0782935,-0.0058849999999999,0.007035,0.8745355000000001,-0.134575,-0.336486,1.2063155,-0.1247549999999999,-0.309986,0.8612355,-0.544235,-0.085982,1.1812855,-0.5459149999999999,-0.092491
77,1.048074,0.672995,-0.203614,0.90544,0.499017,-0.222594,0.8486000000000001,0.740075,-0.368394,1.18994,0.479168,-0.1863739999999999,1.27602,0.702025,-0.345964,0.87078,0.998005,-0.4502939999999999,1.2279,0.955575,-0.471124,0.921611,0.005875,-0.0070429999999999,1.078389,-0.005875,0.007043,0.87325,-0.1234049999999999,-0.342184,1.20666,-0.1133049999999999,-0.315374,0.86032,-0.533715,-0.089832,1.18105,-0.531735,-0.09251
78,1.048752,0.673805,-0.208558,0.905631,0.496102,-0.224858,0.847971,0.736505,-0.371978,1.189551,0.475202,-0.1897579999999999,1.276541,0.6988350000000001,-0.353188,0.869421,0.992935,-0.455678,1.228301,0.952485,-0.477978,0.920895,0.006305,-0.006932,1.079105,-0.006305,0.006932,0.872851,-0.112335,-0.346828,1.2076310000000001,-0.1014249999999999,-0.319778,0.8602110000000001,-0.522915,-0.09264,1.181671,-0.517825,-0.092816
79,1.0493145,0.673065,-0.2111279999999999,0.9057315,0.49344,-0.226298,0.8471015,0.7333850000000001,-0.374498,1.1892215,0.472095,-0.192438,1.2773415,0.6973450000000001,-0.358298,0.8683315,0.989085,-0.459418,1.2288315,0.947785,-0.483768,0.9203015,0.006765,-0.0067779999999999,1.0796985000000001,-0.0067649999999999,0.006778,0.8727015,-0.1013949999999999,-0.3501879999999999,1.2086215,-0.0901649999999999,-0.322698,0.8598715,-0.5129349999999999,-0.094969,1.1822314999999999,-0.5044449999999999,-0.092816
80,1.049342,0.671345,-0.2138615,0.905124,0.4926359999999999,-0.2271615,0.845694,0.732245,-0.3768315,1.188504,0.47058,-0.1944015,1.277734,0.694855,-0.3630915,0.866754,0.984985,-0.4628615,1.229244,0.943345,-0.4889415,0.920284,0.0067249999999999,-0.0065784999999999,1.079716,-0.006725,0.0065785,0.8718440000000001,-0.091835,-0.3535815,1.209244,-0.0802749999999999,-0.3257715,0.859144,-0.503555,-0.0965485,1.182214,-0.491865,-0.0928415
81,1.0494575,0.672525,-0.216575,0.9045395,0.492405,-0.228045,0.8441595,0.730615,-0.379435,1.1878795,0.469066,-0.196525,1.2779595,0.691645,-0.367655,0.8652395000000002,0.981225,-0.466405,1.2296795,0.939055,-0.494295,0.9202585000000001,0.0069149999999999,-0.00629,1.0797415,-0.006915,0.0062899999999999,0.8710095000000001,-0.0823749999999999,-0.356765,1.2099495,-0.070755,-0.328885,0.8589795,-0.494285,-0.099007,1.1821995,-0.479205,-0.093007
82,1.0496455,0.67198,-0.2196595,0.9040025,0.491799,-0.2292294999999999,0.8426925000000001,0.7281500000000001,-0.3824495,1.1873125,0.468179,-0.1989095,1.2782925,0.68792,-0.3728095,0.8638625,0.97711,-0.4705495,1.2302024999999999,0.93431,-0.5005895,0.9202295,0.0068799999999999,-0.0059444999999999,1.0797705,-0.0068799999999999,0.0059444999999999,0.8701025,-0.0734899999999999,-0.3601395,1.2105925,-0.0617799999999999,-0.3319995,0.8591725,-0.4842499999999999,-0.1013475,1.1821025,-0.46702,-0.0937585
83,1.049407,0.6702049999999999,-0.2215245,0.90297,0.491959,-0.2295545,0.8406300000000001,0.724495,-0.3843344999999999,1.18642,0.4672449999999999,-0.2005645,1.2782499999999999,0.684125,-0.3770245,0.86216,0.972975,-0.4743544999999999,1.23051,0.928645,-0.5067245,0.919833,0.0069949999999999,-0.0058785,1.080167,-0.0069949999999999,0.0058785,0.8687400000000001,-0.0639049999999999,-0.3623045,1.21097,-0.0516849999999999,-0.3337544999999999,0.85829,-0.471835,-0.1002115,1.18144,-0.454515,-0.0942415
84,1.048979,0.668245,-0.223455,0.9019159999999999,0.492185,-0.229665,0.8384960000000001,0.7215750000000001,-0.386895,1.185706,0.466674,-0.201785,1.278016,0.6807350000000001,-0.381335,0.860616,0.967945,-0.478745,1.231066,0.924265,-0.513025,0.919529,0.007165,-0.005975,1.080471,-0.0071649999999999,0.005975,0.8674459999999999,-0.0545049999999999,-0.363985,1.211126,-0.0418849999999999,-0.3345749999999999,0.856716,-0.4577749999999999,-0.095841,1.180566,-0.442685,-0.0955469999999999
85,1.04856,0.666825,-0.22514,0.900953,0.492747,-0.2296,0.836703,0.7198850000000001,-0.38924,1.185253,0.4660040000000001,-0.20294,1.277843,0.6778550000000001,-0.3852299999999999,0.859243,0.964725,-0.48273,1.2320229999999999,0.920435,-0.5184,0.919305,0.007345,-0.0061109999999999,1.080695,-0.0073449999999999,0.006111,0.866183,-0.0447449999999999,-0.36532,1.211343,-0.0318249999999999,-0.3349999999999999,0.8555630000000001,-0.4467949999999999,-0.100451,1.179833,-0.431245,-0.0975439999999999
86,1.0481530000000001,0.665465,-0.22659,0.900109,0.492835,-0.2296,0.8353889999999999,0.718105,-0.3910099999999999,1.184679,0.464603,-0.2039699999999999,1.2776589999999999,0.674755,-0.3876699999999999,0.858819,0.968725,-0.4854,1.233169,0.916545,-0.52279,0.919099,0.0076749999999999,-0.0062219999999999,1.080901,-0.0076749999999999,0.0062219999999999,0.864749,-0.035385,-0.36628,1.211609,-0.022065,-0.33532,0.854269,-0.434245,-0.103412,1.179099,-0.419855,-0.099949
87,1.047973,0.6633720000000001,-0.22742,0.899563,0.4931,-0.22956,0.834433,0.71663,-0.39252,1.184353,0.46575,-0.20429,1.278063,0.67432,-0.38902,0.8584430000000001,0.97217,-0.4878,1.234543,0.91508,-0.5265500000000001,0.918951,0.00761,-0.006207,1.081049,-0.00761,0.0062069999999999,0.863173,-0.0264499999999999,-0.36679,1.212213,-0.01295,-0.33519,0.852653,-0.42125,-0.105375,1.178353,-0.4087999999999999,-0.101637
88,1.04772,0.66224,-0.227696,0.8989240000000001,0.4932860000000001,-0.229536,0.833894,0.7167850000000001,-0.393456,1.183854,0.4659750000000001,-0.204256,1.278594,0.6729130000000001,-0.388906,0.8580840000000001,0.975345,-0.4910259999999999,1.235724,0.916415,-0.527016,0.9188850000000001,0.007715,-0.006258,1.0811149999999998,-0.0077149999999999,0.006258,0.861374,-0.0177349999999999,-0.367046,1.212784,-0.0037149999999999,-0.335066,0.850834,-0.4100549999999999,-0.106823,1.1776039999999999,-0.3979349999999999,-0.103132
89,1.047464,0.661534,-0.227651,0.898257,0.4931199999999999,-0.229521,0.833367,0.71675,-0.394551,1.183387,0.4661899999999999,-0.204231,1.279337,0.6720449999999999,-0.388781,0.857877,0.9781,-0.4938909999999999,1.236837,0.917,-0.527551,0.9187740000000001,0.0078099999999999,-0.006313,1.0812259999999998,-0.00781,0.0063129999999999,0.8592770000000001,-0.01022,-0.367251,1.213347,0.0056499999999999,-0.334951,0.849097,-0.3988,-0.106901,1.177117,-0.38773,-0.104658
90,1.0469445,0.6609280000000001,-0.2277485,0.8973705,0.4928100000000001,-0.2293585,0.8325805,0.7166300000000001,-0.3949985,1.1824204999999999,0.46664,-0.2043585,1.2799605,0.671563,-0.3887784999999999,0.8574505,0.98033,-0.4964085,1.2377505,0.91758,-0.5275185,0.9187545,0.0079,-0.0063654999999999,1.0812455,-0.0078999999999999,0.0063655,0.8570605,-0.0033299999999999,-0.3674785,1.2139005,0.01465,-0.3348885,0.8471705,-0.3890099999999999,-0.1072465,1.1763605,-0.37844,-0.1063255
91,1.0467355,0.660965,-0.227927,0.8966695,0.49272,-0.229107,0.8320395,0.7180000000000001,-0.395207,1.1817995,0.46663,-0.2045769999999999,1.2807495,0.67068,-0.388377,0.8573795000000001,0.98162,-0.498647,1.2392695,0.91681,-0.527567,0.9187225,0.0080999999999999,-0.0064359999999999,1.0812775000000001,-0.0080999999999999,0.0064359999999999,0.8551495,0.00429,-0.367807,1.2148995,0.0237399999999999,-0.334617,0.8448595,-0.37927,-0.108111,1.1758695000000001,-0.36939,-0.108092
92,1.046958,0.6611809999999999,-0.2281745,0.896506,0.4913099999999999,-0.2287644999999999,0.832036,0.720428,-0.3956245,1.181576,0.4660899999999999,-0.2044845,1.281886,0.67028,-0.3872744999999999,0.8576160000000002,0.98292,-0.5007345,1.241486,0.91714,-0.5277045,0.9187609999999999,0.0081799999999999,-0.0065435,1.081239,-0.00818,0.0065435,0.853766,0.0104199999999998,-0.3681645,1.216496,0.0309299999999999,-0.3339645,0.8430760000000002,-0.37182,-0.1098405,1.175826,-0.3620300000000001,-0.1098475
93,1.047278,0.66082,-0.227872,0.896454,0.49119,-0.227812,0.832724,0.721484,-0.396162,1.181544,0.46818,-0.203902,1.2831139999999999,0.67137,-0.385592,0.857984,0.98516,-0.502732,1.244394,0.91655,-0.527152,0.918789,0.0080599999999999,-0.00673,1.081211,-0.00806,0.00673,0.8524039999999999,0.0148199999999999,-0.368292,1.218364,0.0365299999999999,-0.333062,0.841464,-0.3661799999999999,-0.111971,1.175974,-0.35695,-0.111755
94,1.0475595,0.659793,-0.2272625,0.8964495000000001,0.4905549999999999,-0.2270825,0.8336995,0.721454,-0.3967725,1.1815895,0.469415,-0.2033225,1.2841395,0.673193,-0.3833325,0.8583195,0.985005,-0.5047024999999999,1.2471495,0.914375,-0.5254624999999999,0.9188065,0.007955,-0.0069444999999999,1.0811935,-0.007955,0.0069444999999999,0.8507795,0.0174849999999999,-0.3683525,1.2202695000000001,0.0404949999999999,-0.3321125,0.8402795000000001,-0.3626349999999999,-0.1139014999999999,1.1762895,-0.353735,-0.1134525
95,1.047781,0.6595960000000001,-0.226402,0.8964570000000001,0.490145,-0.226642,0.834897,0.721467,-0.397612,1.181707,0.470205,-0.202872,1.284757,0.674733,-0.380982,0.8586170000000001,0.982075,-0.5069319999999999,1.248607,0.915975,-0.523142,0.918864,0.007865,-0.0071569999999999,1.081136,-0.007865,0.007157,0.8490670000000001,0.019055,-0.368222,1.221837,0.043085,-0.331072,0.8403070000000001,-0.3587849999999999,-0.1147209999999999,1.1766869999999998,-0.3523849999999999,-0.115247
96,1.047893,0.6600509999999999,-0.2256975,0.896577,0.48906,-0.2265174999999999,0.836117,0.720554,-0.3982075,1.181927,0.4695,-0.2024774999999999,1.285237,0.674891,-0.3787275,0.858967,0.98104,-0.5075875,1.249447,0.91615,-0.5204775,0.918886,0.0078899999999999,-0.0073215,1.081114,-0.0078899999999999,0.0073215,0.847697,0.01853,-0.3680175,1.2230269999999999,0.0433,-0.3302975,0.8399070000000001,-0.3583299999999999,-0.1155725,1.177167,-0.35383,-0.1166675
97,1.047922,0.6600509999999999,-0.2252255,0.896617,0.48906,-0.2269355,0.837107,0.720554,-0.3990455,1.182107,0.4695,-0.2025954999999999,1.285547,0.674891,-0.3770455,0.8591670000000001,0.98104,-0.5086054999999999,1.249667,0.91615,-0.5191555,0.9190020000000001,0.0078899999999999,-0.0074595,1.080998,-0.0078899999999999,0.0074595,0.8470170000000001,0.01853,-0.3677755,1.224147,0.0433,-0.3298255,0.838997,-0.3581299999999999,-0.1163185,1.177437,-0.354,-0.1178645
98,1.048082,0.6600509999999999,-0.2250935,0.896726,0.48906,-0.2279035,0.8379160000000001,0.720554,-0.4004335,1.182296,0.4695,-0.2030635,1.285466,0.674891,-0.3764535,0.859206,0.98104,-0.5099334999999999,1.250056,0.91615,-0.5183435,0.9190790000000001,0.0078899999999999,-0.0076174999999999,1.0809209999999998,-0.0078899999999999,0.0076174999999999,0.8469360000000001,0.01853,-0.3677435,1.225106,0.0433,-0.3296135,0.8386660000000001,-0.35743,-0.1172584999999999,1.177926,-0.35401,-0.1195975
99,1.048496,0.660202,-0.225484,0.8970210000000001,0.48906,-0.229374,0.838731,0.720554,-0.402584,1.1825709999999998,0.4695,-0.203924,1.285851,0.674891,-0.376634,0.859411,0.98104,-0.512224,1.250381,0.91615,-0.518504,0.919189,0.0078899999999999,-0.007717,1.080811,-0.0078899999999999,0.007717,0.846951,0.01853,-0.367724,1.225681,0.0433,-0.329814,0.839391,-0.35743,-0.119769,1.178571,-0.35401,-0.121978
100,1.0487845,0.660272,-0.22637,0.8975215,0.4886049999999999,-0.23122,0.8393714999999999,0.719827,-0.40487,1.1826715,0.4699149999999999,-0.20521,1.2862814999999999,0.675534,-0.37896,0.8595515,0.979835,-0.51505,1.2510115,0.916445,-0.52013,0.9191885,0.0076349999999999,-0.007806,1.0808115,-0.007635,0.007806,0.8468615000000002,0.0168649999999999,-0.36777,1.2256215,0.0414849999999999,-0.33023,0.8393315,-0.357955,-0.120333,1.1790015,-0.3565750000000001,-0.123345
101,1.0490105,0.661046,-0.227834,0.8979285,0.48646,-0.233844,0.8398985,0.7179800000000001,-0.4072639999999999,1.1823385,0.46893,-0.206954,1.2865484999999999,0.675656,-0.381254,0.8596085,0.97726,-0.518734,1.2518785000000001,0.91631,-0.522624,0.9192845000000001,0.00714,-0.0078739999999999,1.0807155,-0.0071399999999999,0.007874,0.8468385,0.01472,-0.3681839999999999,1.2254285,0.03773,-0.3308839999999999,0.8395885,-0.3614999999999999,-0.119206,1.1791885,-0.3616199999999999,-0.1254839999999999
102,1.049409,0.6609820000000001,-0.2296545,0.898473,0.486145,-0.2365445,0.840313,0.717263,-0.4099545,1.182213,0.4691350000000001,-0.2086145,1.286913,0.6755030000000001,-0.3838145,0.859363,0.974535,-0.5229444999999999,1.253293,0.915595,-0.5257045,0.919415,0.006885,-0.0077915,1.080585,-0.0068849999999999,0.0077915,0.847493,0.009615,-0.3687345,1.225333,0.031195,-0.3314045,0.840293,-0.3676349999999999,-0.1180895,1.179483,-0.3699749999999999,-0.1278455
103,1.049666,0.661507,-0.2308624999999999,0.898927,0.484525,-0.2389624999999999,0.840667,0.715656,-0.4118425,1.182327,0.468275,-0.2100024999999999,1.287007,0.67709,-0.3853225,0.8583069999999999,0.971795,-0.5247125,1.254437,0.916765,-0.5274125,0.9195139999999999,0.006425,-0.0077854999999999,1.080486,-0.006425,0.0077855,0.848517,0.0020949999999999,-0.3692225,1.2250969999999999,0.0226349999999999,-0.3318025,0.841117,-0.376095,-0.1166915,1.179577,-0.380705,-0.1300755
104,1.049815,0.662195,-0.2320085,0.899373,0.4820799999999999,-0.2413285,0.841013,0.7142,-0.4123685,1.182613,0.4694999999999999,-0.2115985,1.287003,0.6800069999999999,-0.3865985,0.8568830000000001,0.97145,-0.5246885,1.255223,0.91742,-0.5280585,0.919645,0.0055799999999999,-0.0078944999999999,1.080355,-0.00558,0.0078944999999999,0.850213,-0.00725,-0.3697785,1.223743,0.0121199999999999,-0.3321785,0.841743,-0.38661,-0.1153595,1.179373,-0.3932300000000001,-0.1324295
105,1.049986,0.662868,-0.232796,0.899883,0.4797949999999999,-0.243386,0.8411830000000001,0.7128249999999999,-0.412926,1.182883,0.468755,-0.2131259999999999,1.286963,0.681881,-0.386966,0.8553930000000001,0.970265,-0.5247459999999999,1.2550430000000001,0.917625,-0.5274760000000001,0.919767,0.005085,-0.0078789999999999,1.080233,-0.005085,0.0078789999999999,0.853043,-0.018225,-0.369496,1.221543,-0.0007949999999999,-0.332556,0.842413,-0.399735,-0.1144689999999999,1.179023,-0.407675,-0.1346149999999999
106,1.050103,0.664529,-0.233932,0.900734,0.479133,-0.245352,0.841324,0.71277,-0.413662,1.183144,0.468424,-0.214482,1.287124,0.68226,-0.387602,0.854104,0.97085,-0.525402,1.2553239999999999,0.91779,-0.525822,0.919901,0.0047,-0.007925,1.080099,-0.0047,0.007925,0.856554,-0.0305699999999999,-0.368892,1.218254,-0.01499,-0.332642,0.843534,-0.41514,-0.1147,1.178604,-0.42359,-0.137049
107,1.050009,0.66588,-0.2352755,0.9016649999999999,0.477687,-0.2474155,0.841265,0.71246,-0.4136455,1.183835,0.4684619999999999,-0.2157855,1.287145,0.68355,-0.3871154999999999,0.852745,0.97282,-0.5256855,1.255195,0.91294,-0.5232655,0.919951,0.0043199999999999,-0.0079645,1.080049,-0.0043199999999999,0.0079645,0.860555,-0.04398,-0.3679354999999999,1.214395,-0.03072,-0.3326155,0.844765,-0.43388,-0.1182205,1.1780149999999998,-0.44126,-0.1397765
108,1.0496395,0.66649,-0.236112,0.9022515000000001,0.479058,-0.248972,0.8408415000000001,0.71324,-0.412862,1.1846115,0.468684,-0.216732,1.2872515,0.6850999999999999,-0.385952,0.8508215,0.97382,-0.523782,1.2550215,0.90865,-0.5187120000000001,0.9201215000000001,0.00412,-0.008018,1.0798785,-0.00412,0.0080179999999999,0.8644815,-0.05871,-0.366672,1.2096615,-0.04764,-0.331632,0.8453315,-0.45348,-0.121518,1.1763415,-0.45943,-0.141889
109,1.0493295,0.66833,-0.2359055,0.9025815000000001,0.478535,-0.2503655,0.8404115,0.7139899999999999,-0.4111255,1.1854414999999998,0.4678319999999999,-0.2173855,1.2872815,0.68665,-0.3828155,0.8494515,0.97511,-0.5203855000000001,1.2547015,0.9043,-0.5129055,0.9202625000000001,0.0040399999999999,-0.0079744999999999,1.0797374999999998,-0.00404,0.0079744999999999,0.8685415,-0.0735299999999999,-0.3638655,1.2046215,-0.06453,-0.3300955,0.8457015,-0.47247,-0.1247705,1.1749315,-0.4789,-0.1459995
110,1.0490785,0.66839,-0.2350634999999999,0.9030565,0.479877,-0.2508935,0.8399565,0.7158,-0.4091734999999999,1.1861765,0.470981,-0.2176435,1.2875265,0.69061,-0.3799535,0.8482265,0.97743,-0.5166735,1.2559565,0.90564,-0.5073835,0.9203935,0.00378,-0.0081465,1.0796065,-0.00378,0.0081465,0.8725265,-0.0896499999999999,-0.3611435,1.1993265,-0.0824499999999999,-0.3283435,0.8460665,-0.49271,-0.1302735,1.1735865,-0.4995599999999999,-0.1506065
111,1.0488145,0.668555,-0.2334999999999999,0.9035515000000001,0.479966,-0.2515,0.8397515,0.717805,-0.40628,1.1869915,0.4712349999999999,-0.2183999999999999,1.2875515,0.693465,-0.3769399999999999,0.8468515,0.978715,-0.5129,1.2575715,0.907455,-0.5002,0.9205395,0.0037349999999999,-0.0081499999999999,1.0794605,-0.0037349999999999,0.00815,0.8762715,-0.104555,-0.35751,1.1941215,-0.099815,-0.32638,0.8465415000000001,-0.512915,-0.136459,1.1723615,-0.519695,-0.155443
112,1.0486345,0.667195,-0.232345,0.9041815,0.481057,-0.252585,0.8395215,0.7207749999999999,-0.403705,1.1879415,0.4713549999999999,-0.2199769999999999,1.2871915,0.696375,-0.3738749999999999,0.8453415,0.984355,-0.508005,1.2591014999999999,0.912225,-0.4939949999999999,0.9208105,0.003825,-0.0081149999999999,1.0791895,-0.003825,0.0081149999999999,0.8799215,-0.118045,-0.352775,1.1890615,-0.116035,-0.323745,0.8471915000000001,-0.532805,-0.143102,1.1711215,-0.5380849999999999,-0.1601139999999999
113,1.0488205,0.66829,-0.230865,0.9049725000000001,0.484385,-0.252365,0.8396325,0.72419,-0.4015849999999999,1.1889825,0.472285,-0.219709,1.2866724999999999,0.70024,-0.370735,0.8441725,0.9879,-0.504665,1.2608925,0.91488,-0.488545,0.9211765000000001,0.0040399999999999,-0.0080549999999999,1.0788235,-0.0040399999999999,0.008055,0.8830325,-0.13262,-0.3476749999999999,1.1849224999999999,-0.13298,-0.320605,0.8479825,-0.5532699999999999,-0.148536,1.1702425,-0.5577799999999999,-0.164424
114,1.0488894999999998,0.668415,-0.228929,0.9056575,0.488025,-0.252475,0.8399175,0.7289049999999999,-0.398875,1.1898475,0.474179,-0.219312,1.2860175,0.703815,-0.368125,0.8440475000000001,0.992825,-0.500915,1.2621875,0.917875,-0.482905,0.9216155,0.0042349999999999,-0.007985,1.0783845,-0.0042349999999999,0.0079849999999999,0.8847975,-0.146725,-0.342835,1.1810574999999999,-0.148125,-0.316515,0.8483075,-0.572735,-0.154384,1.1694475,-0.576705,-0.168619
115,1.048837,0.6668350000000001,-0.2257509999999999,0.905851,0.489935,-0.252835,0.8401910000000001,0.732845,-0.394775,1.190331,0.474685,-0.219414,1.285221,0.7074750000000001,-0.363765,0.8441609999999999,0.995645,-0.495585,1.2628709999999999,0.921515,-0.477145,0.922041,0.004285,-0.007915,1.077959,-0.0042849999999999,0.007915,0.885831,-0.1593149999999999,-0.337515,1.177881,-0.162605,-0.312265,0.848581,-0.590855,-0.160154,1.168931,-0.5948249999999999,-0.172813
116,1.0487095,0.665985,-0.221518,0.9056204999999999,0.496575,-0.251145,0.8403805,0.738335,-0.389795,1.1901505000000001,0.473765,-0.219401,1.2840205,0.709485,-0.358425,0.8440905,0.999095,-0.487865,1.2635005,0.926595,-0.470415,0.9225575,0.0050749999999999,-0.007615,1.0774425,-0.0050749999999999,0.007615,0.8861205,-0.170695,-0.332185,1.1750105,-0.174945,-0.307215,0.8487705,-0.609725,-0.164454,1.1684605,-0.611815,-0.175916
117,1.0485625,0.66467,-0.216271,0.9055675,0.5002599999999999,-0.249564,0.8408575,0.7454799999999999,-0.38397,1.1903475000000001,0.47263,-0.219534,1.2842375,0.71218,-0.35167,0.8445075,1.00651,-0.4805999999999999,1.2643175,0.93194,-0.4638,0.9230575,0.0055899999999999,-0.0073199999999999,1.0769425,-0.00559,0.0073199999999999,0.8863975,-0.17964,-0.3262899999999999,1.1729375,-0.18479,-0.30218,0.8491175,-0.6260100000000001,-0.169558,1.1686675,-0.62731,-0.179244
118,1.048327,0.6620250000000001,-0.2101599999999999,0.9058410000000001,0.5076350000000001,-0.246713,0.841371,0.7524850000000001,-0.3780949999999999,1.1907510000000001,0.473585,-0.215829,1.284061,0.715485,-0.344885,0.844951,1.013275,-0.473455,1.265491,0.938685,-0.455805,0.923695,0.006275,-0.0072649999999999,1.076305,-0.0062749999999999,0.007265,0.886071,-0.1886749999999999,-0.321175,1.1713609999999999,-0.1934949999999999,-0.297515,0.8494110000000001,-0.641895,-0.17454,1.1689910000000001,-0.642125,-0.1820159999999999
119,1.04786,0.659715,-0.202822,0.906082,0.5138149999999999,-0.2441439999999999,0.841842,0.761535,-0.37098,1.1910619999999998,0.4710149999999999,-0.211776,1.2836020000000001,0.716175,-0.33658,0.845282,1.019565,-0.46434,1.266522,0.939835,-0.44531,0.924233,0.0073749999999999,-0.0071499999999999,1.075767,-0.007375,0.00715,0.885652,-0.195845,-0.31444,1.170042,-0.200935,-0.29232,0.8497520000000001,-0.656755,-0.177089,1.169222,-0.655305,-0.183195
120,1.0472515,0.65669,-0.194658,0.9062695000000001,0.51663,-0.2410089999999999,0.8421395,0.76665,-0.36253,1.1911895000000001,0.47316,-0.20661,1.2829795,0.7209,-0.32731,0.8453895000000001,1.02512,-0.45342,1.2670095,0.93956,-0.43409,0.9247255,0.00729,-0.0073699999999999,1.0752745,-0.00729,0.00737,0.8851895,-0.2031899999999999,-0.3064099999999999,1.1682895,-0.2080199999999999,-0.28518,0.8500795000000001,-0.67271,-0.1776489999999999,1.1695495,-0.67035,-0.1833639999999999
121,1.0464875,0.65408,-0.1858039999999999,0.9069035,0.51716,-0.23685,0.8430335,0.77004,-0.352925,1.1910835,0.4820799999999999,-0.20051,1.2822035,0.72725,-0.318025,0.8452935,1.02879,-0.442575,1.2652535,0.94004,-0.422195,0.9253155,0.0067399999999999,-0.0074849999999999,1.0746845,-0.00674,0.007485,0.8845735,-0.21103,-0.2993749999999999,1.1663835,-0.21455,-0.2781949999999999,0.8501535,-0.6891700000000001,-0.1789819999999999,1.1694735,-0.6864100000000001,-0.182881
122,1.0450305,0.649675,-0.175971,0.9070415000000001,0.515995,-0.233154,0.8455015,0.771655,-0.341455,1.1906515,0.488495,-0.195028,1.2807715,0.730505,-0.308225,0.8458015,1.030635,-0.427105,1.2646715,0.942065,-0.409045,0.9261405,0.005815,-0.007415,1.0738595,-0.005815,0.0074149999999999,0.8831815000000001,-0.2173749999999999,-0.291985,1.1640815,-0.217935,-0.271315,0.8489015,-0.7039150000000001,-0.179081,1.1690215,-0.700615,-0.18156
123,1.0429804999999999,0.6485650000000001,-0.167341,0.9060265,0.512375,-0.229784,0.8470265000000001,0.770215,-0.330465,1.1897565,0.496005,-0.189385,1.2786665,0.739485,-0.2987849999999999,0.8453665,1.029435,-0.411105,1.2632065,0.948635,-0.3973649999999999,0.9273825,0.004505,-0.0073149999999999,1.0726175,-0.004505,0.0073149999999999,0.8810965,-0.224335,-0.285295,1.1613365,-0.222625,-0.264755,0.8474765,-0.720375,-0.179204,1.1681965,-0.716005,-0.180307
124,1.0411015,0.64811,-0.159719,0.9050015,0.51047,-0.22633,0.8483015,0.76913,-0.32009,1.1887315,0.50473,-0.183801,1.2764515,0.74848,-0.2908699999999999,0.8446615,1.02996,-0.39554,1.2624214999999999,0.9597,-0.38632,0.9285795,0.0030999999999999,-0.00722,1.0714204999999999,-0.0030999999999999,0.00722,0.8781515,-0.22968,-0.27961,1.1592414999999998,-0.22633,-0.259115,0.8445215,-0.73722,-0.180627,1.1677515,-0.73071,-0.180342
125,1.0393325,0.64583,-0.152379,0.9041205,0.5038,-0.224071,0.8481005,0.76765,-0.3099349999999999,1.1874605,0.51361,-0.178562,1.2741805,0.7575000000000001,-0.283585,0.8429705000000001,1.03217,-0.381495,1.2616205,0.96876,-0.374065,0.9292455,0.0012,-0.007305,1.0707545,-0.0012,0.007305,0.8769105000000001,-0.23648,-0.273735,1.1575205,-0.23137,-0.253619,0.8417805,-0.7549,-0.180549,1.1675205,-0.74559,-0.180095
126,1.0374855,0.6435599999999999,-0.145037,0.9029935,0.49822,-0.220363,0.8491335,0.7645299999999999,-0.299055,1.1860135,0.52227,-0.172373,1.2719335,0.7667900000000001,-0.275785,0.8423134999999999,1.02826,-0.367875,1.2609235,0.97713,-0.362045,0.9299094999999999,-0.00066,-0.0074049999999999,1.0700905,0.0006599999999999,0.0074049999999999,0.8759035,-0.2446,-0.267765,1.1553635,-0.23831,-0.247383,0.8392535,-0.77311,-0.179226,1.1671735,-0.76064,-0.178875
127,1.0359099999999999,0.64185,-0.137784,0.901258,0.49242,-0.215679,0.8486480000000001,0.76237,-0.28752,1.184938,0.52857,-0.168835,1.269708,0.77487,-0.26744,0.840678,1.02489,-0.35365,1.260368,0.98553,-0.35064,0.930376,-0.0023099999999999,-0.0075,1.069624,0.00231,0.0074999999999999,0.874918,-0.2520799999999999,-0.26131,1.153048,-0.2458499999999999,-0.239996,0.837098,-0.79051,-0.177659,1.1674479999999998,-0.7774699999999999,-0.176047
128,1.0344494999999998,0.64202,-0.130265,0.8990975,0.48845,-0.209169,0.8494475000000001,0.7591300000000001,-0.2753299999999999,1.1841975,0.5346500000000001,-0.163849,1.2678775,0.7823899999999999,-0.2579599999999999,0.8396175000000001,1.02228,-0.33907,1.2590675,0.99327,-0.33831,0.9308625,-0.00359,-0.0079199999999999,1.0691375,0.00359,0.00792,0.8736675,-0.26085,-0.251666,1.1506375,-0.25391,-0.2314159999999999,0.8357375000000001,-0.8042199999999999,-0.17396,1.1675975,-0.79447,-0.1721009999999999
129,1.0331665,0.64347,-0.1230209999999999,0.8970175,0.4874,-0.202727,0.8490475,0.75927,-0.26335,1.1837575,0.53765,-0.15857,1.2666775000000001,0.7871,-0.247599,0.8381875,1.02233,-0.32582,1.2577075,1.00261,-0.32637,0.9308475,-0.00422,-0.0082799999999999,1.0691525,0.00422,0.00828,0.8727875,-0.26937,-0.242259,1.1482675,-0.26232,-0.222274,0.8344775,-0.81493,-0.169958,1.1676375,-0.8095600000000001,-0.166882
130,1.03225,0.646845,-0.1175029999999999,0.8976850000000001,0.487255,-0.195901,0.847685,0.760135,-0.25233,1.183055,0.533705,-0.1526949999999999,1.266085,0.788595,-0.2370029999999999,0.835895,1.021935,-0.31274,1.256535,1.008555,-0.3142,0.930411,-0.004055,-0.0086099999999999,1.069589,0.004055,0.00861,0.871995,-0.2802449999999999,-0.2308299999999999,1.145635,-0.2731949999999999,-0.2122,0.832345,-0.825965,-0.1650439999999999,1.1668349999999998,-0.821245,-0.161068
131,1.031397,0.6498750000000001,-0.1124389999999999,0.8973450000000001,0.488455,-0.187908,0.846475,0.762255,-0.242985,1.182645,0.528865,-0.1468219999999999,1.2656749999999999,0.7905150000000001,-0.226259,0.833845,1.024225,-0.303265,1.255255,1.018325,-0.301895,0.929991,-0.0031849999999999,-0.0088049999999999,1.070009,0.003185,0.008805,0.871455,-0.2898349999999999,-0.216905,1.1428749999999999,-0.2827849999999999,-0.2012219999999999,0.830175,-0.8341449999999999,-0.159216,1.166145,-0.8320949999999999,-0.154864
132,1.030063,0.64985,-0.101568,0.896293,0.4899,-0.1745,0.844843,0.76539,-0.228458,1.181803,0.5232,-0.135546,1.263763,0.7863600000000001,-0.2100489999999999,0.830963,1.02835,-0.28779,1.253633,1.02299,-0.28427,0.929551,-0.0023399999999999,-0.0088099999999999,1.070449,0.00234,0.0088099999999999,0.870283,-0.2975299999999999,-0.195439,1.139713,-0.2904799999999999,-0.184049,0.827543,-0.84139,-0.147087,1.165023,-0.84027,-0.142896
133,1.029351,0.6562950000000001,-0.0853,0.893655,0.493975,-0.155517,0.842025,0.769095,-0.2097689999999999,1.180235,0.515085,-0.11905,1.261555,0.778665,-0.1887599999999999,0.827635,1.026895,-0.26889,1.251625,1.013565,-0.26192,0.928986,-0.000835,-0.0082799999999999,1.071014,0.000835,0.0082799999999999,0.869285,-0.314405,-0.167263,1.136135,-0.307805,-0.158623,0.824815,-0.858105,-0.129324,1.1636549999999999,-0.858185,-0.125306
134,1.029234,0.662291,-0.0693175,0.890571,0.501021,-0.1369925,0.8364510000000001,0.7724409999999999,-0.1923945,1.1788509999999999,0.5106310000000001,-0.1021995,1.259851,0.771301,-0.1690475,0.822661,1.029181,-0.2509985,1.2497909999999999,1.005741,-0.2433985,0.928202,0.000445,-0.0077615,1.071798,-0.000445,0.0077614999999999,0.8686309999999999,-0.330509,-0.1406305,1.133201,-0.326379,-0.1349165,0.822241,-0.874799,-0.1127365,1.162561,-0.875799,-0.1089055
135,1.0297425,0.668535,-0.0536289999999999,0.8885435,0.507475,-0.1186209999999999,0.8316235000000001,0.774655,-0.1759399999999999,1.1780935,0.509095,-0.084851,1.2584135,0.7631950000000001,-0.1506279999999999,0.8180635,1.032655,-0.2340249999999999,1.2488135,0.997505,-0.225455,0.9270635,0.0013839999999999,-0.0072949999999999,1.0729365,-0.001384,0.007295,0.8681935000000001,-0.347725,-0.114564,1.1306034999999999,-0.3406249999999999,-0.113353,0.8209635,-0.890555,-0.096468,1.1616935,-0.892295,-0.0916669999999999
136,1.030251,0.674424,-0.0386764999999999,0.88653,0.512494,-0.1008275,0.82704,0.7756040000000001,-0.1604845,1.17731,0.507984,-0.0678074999999999,1.25694,0.7554040000000001,-0.1332175,0.81367,1.035424,-0.2179175,1.24837,0.985004,-0.2082675,0.925982,0.001994,-0.0068135,1.074018,-0.001994,0.0068135,0.86862,-0.366336,-0.0890634999999999,1.12868,-0.359076,-0.0919234999999999,0.8193000000000001,-0.903236,-0.0769345,1.16083,-0.908196,-0.0761324999999999
137,1.030646,0.6787955,-0.0249214999999999,0.884532,0.5161654999999999,-0.0834115,0.8224819999999999,0.7757655,-0.1466335,1.176462,0.5080855,-0.0509704999999999,1.255222,0.7486655,-0.1178974999999999,0.809422,1.0378254999999998,-0.2033324999999999,1.247532,0.9774755,-0.1939425,0.925172,0.0022144999999999,-0.0060644999999999,1.0748280000000001,-0.0022145,0.0060645,0.867822,-0.3835945,-0.0675124999999999,1.126322,-0.3734245,-0.0721594999999999,0.817842,-0.9144845,-0.0593974999999999,1.159562,-0.9228245,-0.0613194999999999
138,1.030981,0.683156,-0.011454,0.882728,0.519906,-0.066425,0.8179879999999999,0.775666,-0.13272,1.175648,0.507466,-0.034023,1.2537379999999998,0.7420359999999999,-0.103531,0.805408,1.039476,-0.18919,1.246988,0.967066,-0.1791,0.924412,0.002489,-0.005338,1.075588,-0.002489,0.0053379999999999,0.8668080000000001,-0.400634,-0.047016,1.1242779999999999,-0.391524,-0.054151,0.816058,-0.926364,-0.042127,1.158118,-0.937944,-0.046917
139,1.0313745,0.687407,0.0009459999999999,0.8815645,0.5232370000000001,-0.0499359999999999,0.8143745,0.7748970000000001,-0.119298,1.1750845,0.508697,-0.017335,1.2527145,0.7366670000000001,-0.089896,0.8026345,1.040197,-0.175693,1.2464245,0.959887,-0.165423,0.9237255,0.00257,-0.004676,1.0762745,-0.0025699999999999,0.004676,0.8659345,-0.416173,-0.028565,1.1222945,-0.4077929999999999,-0.0374209999999999,0.8142845,-0.937593,-0.02618,1.1560945,-0.949023,-0.031037
140,1.031729,0.6916735,0.0128624999999999,0.881053,0.5275535,-0.0342765,0.8109630000000001,0.7735335,-0.1061355,1.174613,0.5104635000000001,-0.0012745,1.252283,0.7314935,-0.0764875,0.7996430000000001,1.0389435,-0.1624935,1.245753,0.9488835,-0.1520335,0.9230160000000001,0.0026194999999999,-0.0040535,1.076984,-0.0026194999999999,0.0040534999999999,0.8651130000000001,-0.4310465,-0.0130295,1.119913,-0.4198065,-0.0221415,0.812943,-0.9484565,-0.0120635,1.1541730000000001,-0.9595065,-0.0159465
141,1.0327965,0.6973885,0.0182005,0.8810305,0.5330185,-0.0249954999999999,0.8084005000000001,0.7703485,-0.1001915,1.1747805,0.5134185,0.0081995,1.2531705,0.7264885,-0.0693545,0.7977704999999999,1.0358385,-0.1575375,1.2463104999999999,0.9413285,-0.1452975,0.9225115,0.0030824999999999,-0.0034904999999999,1.0774885,-0.0030825,0.0034905,0.8652205,-0.4439115,-0.0059604999999999,1.1186705,-0.4301515,-0.0146974999999999,0.8123104999999999,-0.9581315,-0.0045964999999999,1.1530805,-0.9673615,-0.0082685
142,1.033189,0.7001364999999999,0.019126,0.880219,0.5380465,-0.020879,0.806529,0.7703365,-0.099615,1.175389,0.5185965,0.012308,1.254319,0.7264765,-0.068284,0.796129,1.0358265000000002,-0.15669,1.247559,0.9443965,-0.1452,0.922033,0.0030945,-0.003472,1.077967,-0.0030945,0.003472,0.8652190000000001,-0.4448535,-0.004272,1.118539,-0.4344735,-0.013021,0.812149,-0.9577535,-0.002497,1.152439,-0.9671935,-0.006265
143,1.0334029999999998,0.7025965,0.020134,0.879393,0.5380465,-0.017574,0.804403,0.7703365,-0.099331,1.176053,0.5197165,0.015462,1.2569029999999999,0.7264765,-0.06844,0.793873,1.0358265000000002,-0.158581,1.2490029999999999,0.9438865,-0.145861,0.921683,0.0030945,-0.0033559999999999,1.078317,-0.0030945,0.0033559999999999,0.865063,-0.4457535,-0.0025399999999999,1.117933,-0.4347935,-0.011325,0.811443,-0.9586435,-0.0005179999999999,1.151743,-0.9670635,-0.0044139999999999
