sb224sc-HT22-VT27/4dt907/src/data/kinect_good_preprocessed_A9_mediapipe/A62_kinect.csv
FrameNo,nose_3d_x,nose_3d_y,nose_3d_z,left_shoulder_3d_x,left_shoulder_3d_y,left_shoulder_3d_z,left_elbow_3d_x,left_elbow_3d_y,left_elbow_3d_z,right_shoulder_3d_x,right_shoulder_3d_y,right_shoulder_3d_z,right_elbow_3d_x,right_elbow_3d_y,right_elbow_3d_z,left_wrist_3d_x,left_wrist_3d_y,left_wrist_3d_z,right_wrist_3d_x,right_wrist_3d_y,right_wrist_3d_z,left_hip_3d_x,left_hip_3d_y,left_hip_3d_z,right_hip_3d_x,right_hip_3d_y,right_hip_3d_z,left_knee_3d_x,left_knee_3d_y,left_knee_3d_z,right_knee_3d_x,right_knee_3d_y,right_knee_3d_z,left_ankle_3d_x,left_ankle_3d_y,left_ankle_3d_z,right_ankle_3d_x,right_ankle_3d_y,right_ankle_3d_z
55,-0.0295565,0.716265,0.0175575,-0.1764055,0.515855,0.0005525,-0.24709550000000002,0.743545,-0.07529749999999999,0.12213450000000001,0.554975,-0.013027500000000001,0.1895845,0.779965,-0.0975265,-0.2371455,1.005985,-0.1703955,0.1852145,1.051485,-0.16463550000000002,-0.07723250000000001,-0.004860000000000003,0.0008085000000000002,0.07723250000000001,0.004860000000000003,-0.0008084999999999998,-0.1306055,-0.450855,-0.046525500000000004,0.1274845,-0.446865,-0.057454500000000006,-0.16113550000000001,-0.947505,-0.0148785,0.1774545,-0.938355,-0.0081795
56,-0.02950350000000001,0.7142175,0.010684,-0.1759965,0.5185275,-0.005186,-0.24681650000000002,0.7434075,-0.083087,0.12220349999999999,0.5525975,-0.019898,0.1902735,0.7762575,-0.10513299999999999,-0.2354165,1.0056175,-0.179282,0.1853135,1.0479175,-0.173632,-0.07739650000000001,-0.0050165,0.0019360000000000002,0.07739650000000001,0.0050165,-0.0019360000000000002,-0.1323865,-0.4509625,-0.055061,0.1274035,-0.4462225,-0.06884699999999999,-0.1616865,-0.9436225,-0.021747000000000002,0.1768235,-0.9334325,-0.015879
57,-0.029442999999999997,0.712031,0.0033405000000000015,-0.17564200000000002,0.520961,-0.0109595,-0.246622,0.7436309999999999,-0.0915585,0.122158,0.549461,-0.0273015,0.19096800000000003,0.773041,-0.1134795,-0.23364200000000002,1.006261,-0.18877349999999998,0.18502800000000003,1.0399610000000001,-0.18316349999999998,-0.077485,-0.0050130000000000036,0.0028885000000000004,0.077485,0.005012999999999997,-0.0028885000000000004,-0.134432,-0.45011900000000005,-0.0637425,0.12768800000000002,-0.444619,-0.0802395,-0.162402,-0.938339,-0.0292465,0.17608800000000002,-0.927829,-0.0230305
58,-0.029352499999999997,0.7083634999999999,-0.004173999999999999,-0.1752955,0.5234435,-0.016281,-0.2465155,0.7431535,-0.10031999999999999,0.12225450000000002,0.5464135,-0.034265,0.1913945,0.7711635,-0.122132,-0.2325755,1.0058635,-0.198482,0.1847145,1.0328635,-0.192232,-0.07753550000000001,-0.005020500000000004,0.0040430000000000015,0.07753550000000001,0.005020499999999997,-0.004043,-0.1365755,-0.4491965,-0.072005,0.12833450000000002,-0.44267650000000003,-0.091554,-0.1631055,-0.9325865,-0.035064,0.1758745,-0.9223365,-0.029779
59,-0.0293495,0.7048125000000001,-0.012603499999999998,-0.17458449999999998,0.5244625,-0.021572499999999998,-0.24647449999999999,0.7431525,-0.1098615,0.1223255,0.5425725,-0.0420995,0.1917955,0.7695525000000001,-0.1319135,-0.2315545,1.0062324999999999,-0.2083835,0.1843455,1.0286324999999998,-0.2013835,-0.0775955,-0.004806500000000002,0.0048015,0.0775955,0.004806500000000002,-0.0048015,-0.13889449999999998,-0.4457275,-0.0802365,0.1291655,-0.43754750000000003,-0.1020735,-0.16375450000000003,-0.9244074999999999,-0.0401935,0.1754255,-0.9135774999999999,-0.0361925
60,-0.029481,0.700688,-0.020468499999999997,-0.174017,0.5250480000000001,-0.026299499999999996,-0.246667,0.743448,-0.11914949999999999,0.12229300000000001,0.537678,-0.049291499999999995,0.192053,0.767928,-0.1413385,-0.230687,1.009238,-0.2175785,0.183813,1.024538,-0.2102185,-0.07767299999999999,-0.004468,0.005308500000000001,0.07767299999999999,0.004468,-0.005308499999999997,-0.141407,-0.44165200000000004,-0.0880025,0.130133,-0.432812,-0.11140149999999999,-0.164357,-0.915362,-0.044705499999999995,0.174543,-0.903852,-0.0418215
61,-0.029531500000000002,0.696525,-0.028386,-0.1732535,0.523295,-0.031392,-0.2469735,0.7445649999999999,-0.128733,0.1221565,0.530525,-0.05738,0.1922865,0.7666649999999999,-0.150354,-0.2297535,1.002525,-0.226354,0.1832165,1.021725,-0.218694,-0.0778025,-0.004384000000000001,0.005720000000000003,0.0778025,0.004383999999999999,-0.005719999999999999,-0.1440535,-0.43673500000000004,-0.095725,0.1311965,-0.42675500000000005,-0.120144,-0.1647935,-0.904505,-0.047938,0.17375649999999998,-0.8929750000000001,-0.04707
62,-0.029751,0.6930265,-0.0363925,-0.172752,0.5212865,-0.036679500000000004,-0.247432,0.7457265,-0.13815850000000002,0.121928,0.5244265,-0.0649845,0.192298,0.7645165,-0.1595685,-0.229002,0.9952765,-0.2346085,0.182208,1.0182464999999998,-0.22642849999999998,-0.077983,-0.0042515,0.005942499999999996,0.077983,0.0042515,-0.005942500000000003,-0.146242,-0.4302835,-0.10184950000000001,0.13202799999999998,-0.4204335,-0.1275965,-0.165302,-0.8948535,-0.05109350000000001,0.172758,-0.8827834999999999,-0.0517055
63,-0.03,0.6882485,-0.044131000000000004,-0.172535,0.5197984999999999,-0.041358,-0.247905,0.7396385,-0.146946,0.12159500000000001,0.5208985,-0.070926,0.192085,0.7624585,-0.16870600000000002,-0.228335,0.9885385,-0.242186,0.180865,1.0148285,-0.233376,-0.078295,-0.0040665,0.006057,0.078295,0.0040665,-0.006057,-0.148525,-0.4233215,-0.10752600000000001,0.13265500000000002,-0.4142515,-0.13450600000000001,-0.165945,-0.8841715,-0.053158000000000004,0.171395,-0.8728215,-0.055592
64,-0.030269499999999998,0.6837225,-0.051365499999999994,-0.1724975,0.5188425,-0.045629499999999996,-0.2484675,0.7345525,-0.1547625,0.1212425,0.5182425,-0.0763595,0.1919025,0.7610425000000001,-0.1772825,-0.2277875,0.9818225,-0.2495425,0.1792625,1.0126625,-0.23974249999999997,-0.0786495,-0.003931500000000001,0.0060745000000000035,0.0786495,0.003931500000000001,-0.006074499999999997,-0.1507875,-0.4157075,-0.1128815,0.1333225,-0.4074175,-0.1413955,-0.1666975,-0.8743274999999999,-0.05536749999999999,0.17046250000000002,-0.8626975,-0.058491499999999995
65,-0.030793000000000008,0.6813389999999999,-0.058666499999999996,-0.17291700000000002,0.515319,-0.0513575,-0.24954700000000002,0.7318389999999999,-0.1625835,0.120333,0.5142789999999999,-0.08284549999999999,0.191213,0.760229,-0.18560349999999998,-0.22748700000000002,0.9774590000000001,-0.2573035,0.177083,1.013239,-0.2454535,-0.07903199999999999,-0.003832000000000002,0.006104500000000006,0.07903199999999999,0.0038319999999999986,-0.006104499999999999,-0.15393700000000002,-0.405391,-0.1190825,0.13339299999999998,-0.397111,-0.1478335,-0.16795700000000002,-0.8616809999999999,-0.0578665,0.16919299999999998,-0.850611,-0.0607655
66,-0.031411,0.677526,-0.065527,-0.17336600000000002,0.511386,-0.056825,-0.250616,0.7287359999999999,-0.170314,0.119734,0.511186,-0.088448,0.189894,0.7558159999999999,-0.193554,-0.226966,0.972526,-0.264564,0.17480400000000001,1.014616,-0.250994,-0.079372,-0.0038860000000000006,0.006027999999999999,0.079372,0.0038859999999999936,-0.006027999999999999,-0.15698600000000001,-0.395334,-0.124989,0.133204,-0.388064,-0.15362399999999998,-0.169136,-0.849104,-0.059461,0.16738399999999998,-0.839464,-0.062809
67,-0.032304000000000006,0.675406,-0.07245850000000001,-0.173861,0.507176,-0.0628645,-0.25185100000000005,0.724356,-0.17856550000000002,0.118889,0.5076459999999999,-0.09464349999999999,0.188349,0.753996,-0.2011755,-0.22542099999999998,0.968386,-0.2711255,0.173259,1.017456,-0.2574155,-0.07986,-0.003983,0.005903499999999999,0.07986,0.003983,-0.005903499999999999,-0.160171,-0.383104,-0.1311005,0.132569,-0.377104,-0.1586255,-0.17047099999999998,-0.834844,-0.061150499999999997,0.16540899999999997,-0.826694,-0.0648025
68,-0.0333195,0.6730769999999999,-0.0789595,-0.1748845,0.504177,-0.0684175,-0.2532445,0.720227,-0.18620750000000003,0.1177955,0.504347,-0.1002095,0.1867455,0.750377,-0.20862750000000002,-0.2238745,0.963707,-0.2798375,0.1709955,1.017877,-0.2638875,-0.0803735,-0.004046000000000001,0.005877500000000001,0.0803735,0.004046000000000001,-0.005877500000000001,-0.1632545,-0.370843,-0.1366465,0.1317955,-0.366123,-0.1632375,-0.1717445,-0.820573,-0.06253550000000001,0.1635055,-0.8141830000000001,-0.0663505
69,-0.034633,0.675581,-0.0909445,-0.176006,0.501131,-0.08084749999999999,-0.254726,0.7202609999999999,-0.1996475,0.116264,0.503711,-0.11182049999999999,0.184364,0.751891,-0.2213175,-0.22312600000000002,0.963371,-0.2944775,0.168184,1.022281,-0.2750775,-0.08143700000000001,-0.004139999999999991,0.005725500000000001,0.08143700000000001,0.004140000000000005,-0.0057254999999999945,-0.166916,-0.350349,-0.1520475,0.130654,-0.346259,-0.17777749999999998,-0.173826,-0.798079,-0.0693345,0.160794,-0.793729,-0.07295549999999999
70,-0.0371785,0.6778885,-0.102931,-0.1786395,0.5002185,-0.092839,-0.2574595,0.7191885,-0.213766,0.1134705,0.5056185,-0.122311,0.18092049999999998,0.7526285,-0.23477599999999998,-0.2236995,0.9697285,-0.309946,0.1635505,1.0212785,-0.29110600000000003,-0.0821725,-0.004341499999999998,0.005753999999999995,0.0821725,0.004341500000000012,-0.005754000000000002,-0.1713095,-0.3315015,-0.16722599999999999,0.12812049999999997,-0.32830149999999997,-0.19207600000000002,-0.17720950000000002,-0.7767815,-0.076529,0.15681050000000002,-0.7745215,-0.079681
71,-0.040093500000000004,0.677925,-0.11474100000000001,-0.18155749999999998,0.498895,-0.105174,-0.2604575,0.7174250000000001,-0.228432,0.11023250000000001,0.507985,-0.133557,0.1770425,0.754345,-0.24838200000000002,-0.2246275,0.9760650000000001,-0.32646200000000003,0.1588125,1.021665,-0.30764199999999997,-0.08254349999999999,-0.005065,0.0058889999999999915,0.08254349999999999,0.005065,-0.005889000000000005,-0.17600749999999998,-0.311745,-0.183062,0.12492249999999999,-0.309595,-0.207282,-0.1811475,-0.755355,-0.084376,0.15217250000000002,-0.754195,-0.08732500000000001
72,-0.042762999999999995,0.6780849999999999,-0.127706,-0.184287,0.495715,-0.118083,-0.263367,0.721065,-0.243947,0.10727300000000001,0.508125,-0.145839,0.17322300000000002,0.754695,-0.261897,-0.225597,0.9799249999999999,-0.343987,0.154213,1.019275,-0.324827,-0.082815,-0.005714999999999998,0.0060090000000000005,0.082815,0.005714999999999998,-0.0060090000000000005,-0.180587,-0.29290499999999997,-0.198887,0.121753,-0.29166499999999995,-0.222227,-0.184837,-0.734705,-0.092088,0.147603,-0.734695,-0.095042
73,-0.0449615,0.6790750000000001,-0.140661,-0.18647149999999998,0.49034500000000003,-0.131572,-0.2658915,0.7180249999999999,-0.259741,0.10467850000000001,0.507225,-0.158385,0.1698085,0.7544249999999999,-0.276351,-0.2259815,0.978235,-0.36089099999999996,0.1500585,1.015695,-0.34233100000000005,-0.0826695,-0.006144999999999984,0.006022,0.0826695,0.0061450000000000116,-0.006022,-0.1847415,-0.27452499999999996,-0.214451,0.1186885,-0.27358499999999997,-0.236451,-0.1881315,-0.7148950000000001,-0.099881,0.14323850000000002,-0.7158249999999999,-0.103049
74,-0.047031500000000004,0.67777,-0.1535075,-0.1883515,0.48742,-0.1438535,-0.2680715,0.7134,-0.2750985,0.1020385,0.50766,-0.16986649999999998,0.1665785,0.75353,-0.2911985,-0.2264915,0.97467,-0.3776885,0.1460785,1.00777,-0.36069850000000003,-0.0821185,-0.0064499999999999835,0.005822500000000008,0.0821185,0.006450000000000011,-0.005822499999999994,-0.1885715,-0.2592,-0.2287185,0.11581849999999999,-0.25816,-0.2506585,-0.1911115,-0.69799,-0.1079285,0.1391785,-0.69965,-0.11103249999999999
75,-0.048876,0.678975,-0.1669815,-0.189755,0.484815,-0.15699449999999998,-0.270135,0.7103250000000001,-0.29124649999999996,0.09995499999999999,0.506815,-0.1824085,0.163495,0.7552350000000001,-0.30617649999999996,-0.22720500000000002,0.9728950000000001,-0.3952865,0.142405,1.005015,-0.3789465,-0.081565,-0.007284999999999986,0.005783500000000011,0.081565,0.007285000000000014,-0.005783499999999997,-0.192075,-0.241925,-0.2430065,0.112905,-0.24049500000000001,-0.2647465,-0.19387500000000002,-0.678985,-0.11628949999999999,0.135135,-0.6814149999999999,-0.11874749999999999
76,-0.050364,0.68041,-0.182182,-0.19093,0.48322,-0.17173,-0.27202000000000004,0.7095,-0.30916,0.09827,0.50771,-0.19642500000000002,0.1607,0.7560100000000001,-0.32367,-0.22907,0.9713099999999999,-0.41568,0.13909,1.00119,-0.39928,-0.08087,-0.007379999999999998,0.005459999999999993,0.08087,0.007379999999999998,-0.0054600000000000065,-0.19502,-0.22492,-0.25870000000000004,0.11019000000000001,-0.22333999999999998,-0.28048,-0.19641,-0.66031,-0.12622,0.13128,-0.66405,-0.129071
77,-0.0516695,0.68141,-0.197906,-0.1919265,0.48141,-0.18633499999999997,-0.2737065,0.7070799999999999,-0.328275,0.0966935,0.5087200000000001,-0.210392,0.15840349999999997,0.75786,-0.341855,-0.2309265,0.96688,-0.436915,0.1360235,0.99888,-0.420535,-0.0803235,-0.007500000000000007,0.005174999999999999,0.0803235,0.007499999999999979,-0.005174999999999999,-0.19730650000000002,-0.20838,-0.274355,0.10741350000000001,-0.2072,-0.296135,-0.19879650000000001,-0.6422300000000001,-0.136068,0.12785349999999998,-0.64653,-0.13949599999999998
78,-0.0526585,0.67719,-0.208665,-0.1921875,0.47761,-0.195735,-0.2753975,0.69913,-0.342445,0.09544250000000001,0.50546,-0.219692,0.1563025,0.75314,-0.354935,-0.2320175,0.95748,-0.452925,0.1336625,0.99041,-0.437785,-0.07913250000000001,-0.007730000000000015,0.005065000000000014,0.07913250000000001,0.007729999999999987,-0.005065,-0.1986575,-0.20046000000000003,-0.280005,0.1052225,-0.19982,-0.301945,-0.2004575,-0.63299,-0.140911,0.1252025,-0.63793,-0.145029
79,-0.05294,0.67266,-0.21943600000000002,-0.19153399999999998,0.47314,-0.20512000000000002,-0.276234,0.69139,-0.356475,0.09502599999999999,0.50132,-0.229325,0.15545599999999998,0.74644,-0.36772499999999997,-0.23222399999999999,0.9482700000000001,-0.46928499999999995,0.132506,0.98826,-0.451125,-0.078596,-0.00766,0.004854999999999998,0.078596,0.00766,-0.004855000000000012,-0.19929400000000003,-0.19122,-0.285325,0.103956,-0.19130999999999998,-0.30757500000000004,-0.20119399999999998,-0.62291,-0.14538500000000001,0.123566,-0.62848,-0.150221
80,-0.0527365,0.66909,-0.230848,-0.19055850000000002,0.46708000000000005,-0.214476,-0.2763385,0.68204,-0.370805,0.09522149999999999,0.49529,-0.239005,0.1551515,0.73874,-0.380955,-0.23218850000000002,0.93719,-0.487985,0.1316215,0.98377,-0.465505,-0.07838149999999999,-0.00716,0.0046750000000000125,0.07838149999999999,0.00716,-0.004674999999999985,-0.1995685,-0.18120999999999998,-0.290485,0.1032015,-0.18212999999999996,-0.312825,-0.20137850000000002,-0.61206,-0.148803,0.12270149999999999,-0.61808,-0.154294
81,-0.0523835,0.6659999999999999,-0.24102500000000002,-0.1892585,0.46313,-0.22315600000000002,-0.27609849999999997,0.67382,-0.385185,0.0958215,0.49243000000000003,-0.24750500000000003,0.1558115,0.73165,-0.393955,-0.2318185,0.92764,-0.505745,0.1310015,0.97839,-0.479895,-0.07821149999999999,-0.006790000000000018,0.004574999999999996,0.07821149999999999,0.006790000000000018,-0.0045750000000000235,-0.1999485,-0.17310999999999999,-0.295095,0.1024215,-0.17415999999999998,-0.317975,-0.20112850000000002,-0.60092,-0.15185700000000002,0.1223515,-0.60747,-0.158006
82,-0.0519015,0.663095,-0.251155,-0.18780249999999998,0.458995,-0.23215700000000003,-0.2754125,0.670865,-0.399175,0.09677750000000002,0.485795,-0.256365,0.1565775,0.723785,-0.40560500000000005,-0.23129249999999998,0.9231050000000001,-0.523695,0.1303675,0.972655,-0.49419500000000005,-0.0779975,-0.0064750000000000085,0.0045349999999999835,0.0779975,0.0064750000000000085,-0.004535000000000011,-0.2000025,-0.163445,-0.300045,0.10201750000000001,-0.165115,-0.323475,-0.2005025,-0.588495,-0.154485,0.12189749999999999,-0.5970249999999999,-0.16166700000000003
83,-0.0511255,0.660255,-0.26095999999999997,-0.18590249999999997,0.45554500000000003,-0.24065599999999998,-0.2747025,0.667665,-0.41351,0.0980475,0.479595,-0.26453,0.15779749999999998,0.716445,-0.41672,-0.2303325,0.918635,-0.54118,0.1306175,0.971275,-0.50701,-0.0778175,-0.005924999999999958,0.004530000000000006,0.0778175,0.005925000000000014,-0.0045299999999999785,-0.19945249999999998,-0.15298499999999998,-0.30469,0.10217749999999999,-0.155605,-0.32885,-0.19966250000000002,-0.576125,-0.1571,0.1222575,-0.5859249999999999,-0.165048
84,-0.0507975,0.656385,-0.26995,-0.1846835,0.452955,-0.24796,-0.27429349999999997,0.662845,-0.42678,0.0983365,0.475005,-0.2712,0.1587865,0.709605,-0.42748,-0.2306635,0.9124749999999999,-0.55795,0.1308065,0.967775,-0.51988,-0.0773565,-0.004854999999999998,0.0045499999999999985,0.0773565,0.004854999999999998,-0.0045499999999999985,-0.1991735,-0.143905,-0.30864,0.1020565,-0.147405,-0.33389,-0.1991135,-0.565015,-0.15906800000000001,0.1227665,-0.574425,-0.167052
85,-0.0507215,0.6523249999999999,-0.27698500000000004,-0.1838535,0.44768499999999994,-0.254065,-0.2740435,0.656965,-0.437235,0.09834649999999999,0.468255,-0.276135,0.15942650000000003,0.701805,-0.435675,-0.2310435,0.9057149999999999,-0.571285,0.13083650000000002,0.963395,-0.5307649999999999,-0.0771165,-0.004615000000000036,0.004535000000000011,0.0771165,0.00461499999999998,-0.0045349999999999835,-0.1998435,-0.13516500000000004,-0.311125,0.10170649999999999,-0.13924500000000006,-0.337505,-0.19876349999999998,-0.553895,-0.159088,0.12259650000000001,-0.563015,-0.167886
86,-0.0504925,0.648395,-0.28387,-0.18317850000000002,0.44247499999999995,-0.26034999999999997,-0.2738985,0.650125,-0.44798000000000004,0.09828150000000001,0.46164499999999997,-0.28168000000000004,0.15985149999999998,0.694055,-0.44358,-0.2313485,0.9001549999999999,-0.58205,0.1305815,0.953805,-0.54202,-0.0769215,-0.004495000000000027,0.004530000000000006,0.0769215,0.004494999999999971,-0.004530000000000006,-0.20090850000000002,-0.126315,-0.31379,0.10103150000000001,-0.13116500000000003,-0.34132,-0.1985885,-0.542195,-0.159633,0.1224515,-0.551345,-0.168444
87,-0.05045,0.6450199999999999,-0.29056,-0.183064,0.438842,-0.2656,-0.273564,0.6445000000000001,-0.45739,0.098406,0.4571,-0.28664,0.160226,0.68729,-0.45183,-0.231844,0.8912,-0.59432,0.130316,0.9459299999999999,-0.5520700000000001,-0.077136,-0.0043199999999999905,0.004540000000000016,0.077136,0.0043199999999999905,-0.0045399999999999885,-0.202034,-0.11702999999999997,-0.31666,0.100356,-0.12290000000000001,-0.34517,-0.198234,-0.53013,-0.160053,0.122916,-0.53935,-0.169123
88,-0.050384,0.641185,-0.29638,-0.182958,0.435637,-0.27051000000000003,-0.273248,0.6388050000000001,-0.46552,0.09844200000000002,0.453103,-0.29108,0.160192,0.683055,-0.45974,-0.23278800000000002,0.883165,-0.60495,0.130012,0.9379550000000001,-0.56134,-0.077362,-0.004105000000000025,0.004920000000000008,0.077362,0.004105000000000025,-0.004920000000000008,-0.203848,-0.10795500000000002,-0.31961,0.099482,-0.11510500000000001,-0.34952,-0.19789800000000002,-0.5180450000000001,-0.16009,0.123272,-0.527285,-0.168743
89,-0.0502685,0.6383099999999999,-0.30075,-0.1828035,0.43322399999999994,-0.27397000000000005,-0.2732235,0.63393,-0.47181000000000006,0.09844649999999999,0.45074899999999996,-0.29445,0.1602065,0.67948,-0.46626,-0.2327635,0.8775499999999999,-0.61242,0.12985649999999999,0.9309799999999999,-0.56852,-0.0776165,-0.0041500000000000425,0.00519,0.0776165,0.004149999999999987,-0.00519,-0.2060535,-0.09987000000000001,-0.32199,0.09852649999999999,-0.10790000000000005,-0.35312,-0.19735350000000002,-0.50787,-0.16020700000000002,0.1234365,-0.51687,-0.169108
90,-0.051413999999999994,0.6349549999999999,-0.30505,-0.18284999999999998,0.430155,-0.27712000000000003,-0.27324,0.629515,-0.47648,0.09766,0.447163,-0.29752,0.16016,0.676105,-0.47186,-0.23314,0.871615,-0.61978,0.12963,0.924315,-0.57525,-0.07796,-0.00414500000000001,0.005510000000000015,0.07796,0.00414500000000001,-0.005509999999999987,-0.20857,-0.091445,-0.32377,0.09718000000000002,-0.10031499999999999,-0.3564,-0.19691999999999998,-0.497335,-0.159584,0.12353,-0.506685,-0.169071
91,-0.0523695,0.6314,-0.30824,-0.1830195,0.428551,-0.27877,-0.27324950000000003,0.62521,-0.48104,0.0971805,0.447533,-0.2994,0.1600905,0.6738,-0.47748,-0.23392949999999998,0.86607,-0.62678,0.1295205,0.9186099999999999,-0.58168,-0.07834050000000001,-0.0041999999999999815,0.005860000000000004,0.07834050000000001,0.0041999999999999815,-0.005860000000000004,-0.2113495,-0.08378999999999998,-0.32499,0.0954005,-0.09327999999999997,-0.35906000000000005,-0.1965095,-0.48796999999999996,-0.158632,0.1232105,-0.49772999999999995,-0.169266
92,-0.053521,0.628475,-0.310765,-0.183525,0.42536100000000004,-0.280315,-0.273665,0.620045,-0.48468500000000003,0.09683499999999999,0.447278,-0.301505,0.15982500000000002,0.670845,-0.483105,-0.235065,0.859575,-0.6331150000000001,0.12926500000000002,0.912605,-0.588485,-0.078565,-0.00460499999999997,0.006144999999999984,0.078565,0.004605000000000026,-0.0061450000000000116,-0.214225,-0.07678499999999999,-0.32560500000000003,0.093265,-0.08677499999999999,-0.361265,-0.19619499999999998,-0.479425,-0.157705,0.12158499999999998,-0.491695,-0.16998100000000002
93,-0.0546425,0.62596,-0.31298000000000004,-0.18401450000000003,0.42161,-0.28193,-0.2738845,0.61479,-0.48782,0.0959655,0.44617999999999997,-0.30412,0.15945549999999997,0.6675899999999999,-0.48825,-0.2363445,0.85056,-0.63954,0.12880550000000002,0.90707,-0.5952200000000001,-0.0786655,-0.005049999999999999,0.00656000000000001,0.0786655,0.005049999999999999,-0.00656000000000001,-0.2170645,-0.06961,-0.3258,0.0905955,-0.08036000000000004,-0.36344,-0.1957545,-0.4710500000000001,-0.156893,0.11988549999999999,-0.48577000000000004,-0.170655
94,-0.0559465,0.6229199999999999,-0.31509,-0.18455850000000001,0.42019599999999996,-0.2826,-0.2746085,0.61027,-0.49145,0.09433149999999998,0.44567999999999997,-0.30664,0.1588915,0.66442,-0.49376000000000003,-0.2379485,0.8424499999999999,-0.64636,0.1278715,0.90273,-0.60143,-0.07873150000000001,-0.005080000000000029,0.006970000000000004,0.07873150000000001,0.005079999999999973,-0.006970000000000004,-0.2199085,-0.063,-0.32549,0.08736150000000001,-0.07495000000000002,-0.36557,-0.19563850000000002,-0.46414,-0.156701,0.1182115,-0.48002,-0.171653
95,-0.057271999999999997,0.619895,-0.31689,-0.185204,0.41806299999999996,-0.28389,-0.274874,0.606985,-0.49406,0.092756,0.44493099999999997,-0.30933,0.158226,0.661215,-0.49922,-0.239484,0.836025,-0.65313,0.126796,0.9038949999999999,-0.60715,-0.07882600000000001,-0.00526500000000002,0.007400000000000018,0.07882600000000001,0.005264999999999964,-0.00739999999999999,-0.22276400000000002,-0.056215000000000015,-0.32503,0.08404600000000001,-0.06902500000000006,-0.36776,-0.195404,-0.456805,-0.156416,0.116536,-0.47421500000000005,-0.173157
96,-0.05859,0.617145,-0.318805,-0.185971,0.41711000000000004,-0.285155,-0.27553099999999997,0.6036250000000001,-0.49765499999999996,0.090959,0.44455700000000004,-0.31167500000000004,0.157159,0.6585650000000001,-0.504265,-0.241361,0.8311850000000001,-0.658565,0.125629,0.9044650000000001,-0.613405,-0.078899,-0.005364999999999953,0.00795499999999999,0.078899,0.005365000000000009,-0.007955000000000004,-0.225631,-0.048394999999999966,-0.324235,0.080519,-0.06204499999999996,-0.369915,-0.195561,-0.44867499999999993,-0.156585,0.11471899999999999,-0.46765499999999993,-0.175121
97,-0.060133000000000006,0.61563,-0.321435,-0.186861,0.41592,-0.286695,-0.27648100000000003,0.5999099999999999,-0.501495,0.089109,0.443664,-0.313995,0.155899,0.6551899999999999,-0.509215,-0.24340099999999998,0.82542,-0.664385,0.124209,0.90406,-0.620055,-0.078969,-0.00541999999999998,0.008445000000000008,0.078969,0.00541999999999998,-0.00844499999999998,-0.228411,-0.04113,-0.323615,0.076709,-0.05562,-0.371885,-0.195871,-0.44146,-0.15717399999999998,0.11273899999999999,-0.46166999999999997,-0.17759199999999997
98,-0.061524999999999996,0.6132500000000001,-0.32387,-0.187791,0.41569,-0.28844000000000003,-0.278021,0.59618,-0.5060100000000001,0.087339,0.44041,-0.31603000000000003,0.15417899999999998,0.65,-0.51383,-0.245571,0.81816,-0.6704000000000001,0.122409,0.90158,-0.62622,-0.079069,-0.0049899999999999944,0.008789999999999992,0.079069,0.0049899999999999944,-0.008790000000000006,-0.230911,-0.034409999999999996,-0.32316,0.07295900000000001,-0.04956000000000005,-0.37354,-0.19595100000000001,-0.43428999999999995,-0.157775,0.110719,-0.45658999999999994,-0.180478
99,-0.0620035,0.6109899999999999,-0.325575,-0.1886035,0.41528899999999996,-0.290375,-0.2800435,0.59055,-0.5107550000000001,0.08543650000000001,0.437562,-0.318145,0.1524665,0.64467,-0.5185649999999999,-0.2473335,0.8103499999999999,-0.6763950000000001,0.12032650000000002,0.89514,-0.636125,-0.0791665,-0.0045600000000000085,0.008825,0.0791665,0.0045600000000000085,-0.008825,-0.2329735,-0.02843000000000001,-0.32303499999999996,0.0695535,-0.043759999999999966,-0.374595,-0.1960735,-0.42865000000000003,-0.159355,0.10874650000000001,-0.45174,-0.182825
100,-0.062373,0.607525,-0.32747000000000004,-0.189461,0.414974,-0.29249,-0.282131,0.5849150000000001,-0.5154000000000001,0.083129,0.434249,-0.32021,0.150749,0.638455,-0.52357,-0.249191,0.801615,-0.68314,0.118279,0.887765,-0.64528,-0.079299,-0.004135,0.008979999999999988,0.079299,0.004135,-0.008980000000000002,-0.23461100000000001,-0.022845000000000004,-0.32261,0.066805,-0.03827499999999995,-0.37523,-0.19609100000000002,-0.423705,-0.161202,0.10721900000000001,-0.445245,-0.183863
101,-0.06279850000000001,0.60354,-0.32964,-0.1902715,0.41515599999999997,-0.29501,-0.2842315,0.5793699999999999,-0.52066,0.08090850000000001,0.43079999999999996,-0.32206,0.1491285,0.6318,-0.5286,-0.25143150000000003,0.7923899999999999,-0.69058,0.1162685,0.87952,-0.65447,-0.0794485,-0.0035900000000000376,0.009360000000000007,0.0794485,0.003589999999999982,-0.009359999999999993,-0.2359415,-0.017300000000000038,-0.32182,0.0652485,-0.03263000000000005,-0.37576,-0.1962915,-0.41864,-0.163049,0.1065885,-0.43889,-0.184991
102,-0.06291250000000001,0.5991299999999999,-0.33213499999999996,-0.1909905,0.41512699999999997,-0.297645,-0.2861005,0.573203,-0.526815,0.0792495,0.427628,-0.323935,0.14747949999999999,0.62466,-0.534375,-0.2534305,0.78421,-0.698645,0.11437950000000001,0.8700600000000001,-0.664175,-0.0795995,-0.0030100000000000127,0.010055000000000008,0.0795995,0.0030100000000000127,-0.010054999999999994,-0.2365005,-0.01199,-0.320825,0.0649795,-0.026949999999999974,-0.37643499999999996,-0.19655050000000002,-0.41392999999999996,-0.165233,0.10619949999999999,-0.43307999999999996,-0.185575
103,-0.0630815,0.5950449999999999,-0.33493,-0.1916965,0.414864,-0.30069999999999997,-0.2879065,0.566294,-0.53315,0.0776635,0.42489499999999997,-0.32606999999999997,0.14590350000000002,0.617285,-0.5407299999999999,-0.2554165,0.774075,-0.70776,0.11236349999999999,0.859245,-0.6749799999999999,-0.0796335,-0.002705000000000013,0.010810000000000014,0.0796335,0.0027049999999999574,-0.01081,-0.2367365,-0.0067250000000000365,-0.31982,0.06464349999999999,-0.02112500000000006,-0.37756999999999996,-0.1967165,-0.408535,-0.16653199999999999,0.10583349999999998,-0.42745500000000003,-0.187359
104,-0.063239,0.590229,-0.33796000000000004,-0.19217499999999998,0.415692,-0.3035,-0.289125,0.558922,-0.5364,0.076325,0.422838,-0.32799,0.14455500000000002,0.609645,-0.547,-0.257365,0.762965,-0.71635,0.110735,0.8474349999999999,-0.68643,-0.079685,-0.0021749999999999825,0.011520000000000002,0.079685,0.0021749999999999825,-0.011520000000000002,-0.236875,-0.001674999999999982,-0.31908000000000003,0.06440499999999999,-0.015545000000000031,-0.37894,-0.196895,-0.403965,-0.168002,0.105625,-0.42213500000000004,-0.18948600000000002
105,-0.0631465,0.585529,-0.34189,-0.19237849999999998,0.413338,-0.30703,-0.2899785,0.5515599999999999,-0.53984,0.0756715,0.418892,-0.33105,0.1437215,0.601305,-0.55429,-0.2580985,0.7533449999999999,-0.72541,0.1094815,0.835235,-0.69961,-0.0797015,-0.00190499999999999,0.012029999999999985,0.0797015,0.00190499999999999,-0.012030000000000013,-0.23688849999999997,0.003025,-0.3186,0.0643845,-0.010384999999999978,-0.38015,-0.19701849999999999,-0.399255,-0.17025300000000002,0.10561150000000001,-0.41671500000000006,-0.191449
106,-0.06307650000000001,0.580636,-0.34561,-0.19260549999999999,0.411571,-0.31064,-0.2906955,0.544628,-0.54315,0.07515449999999999,0.415699,-0.3343,0.1432445,0.593566,-0.56148,-0.2588955,0.74387,-0.7346400000000001,0.1087245,0.82394,-0.71314,-0.0797445,-0.0017500000000000293,0.012380000000000002,0.0797445,0.0017500000000000293,-0.012380000000000002,-0.2368855,0.008330000000000004,-0.31833999999999996,0.0654025,-0.004630000000000023,-0.3808,-0.1971955,-0.39479,-0.172617,0.10554450000000001,-0.41068000000000005,-0.193217
107,-0.062824,0.5767410000000001,-0.34963,-0.192777,0.409594,-0.31417000000000006,-0.290847,0.534218,-0.5459700000000001,0.07477299999999999,0.41335500000000003,-0.33753,0.142913,0.586595,-0.56847,-0.259927,0.73196,-0.7430700000000001,0.10807299999999999,0.81311,-0.72706,-0.079773,-0.0017099999999999893,0.012669999999999987,0.079773,0.0017099999999999893,-0.012670000000000015,-0.236567,0.013600000000000001,-0.3184,0.06762599999999999,0.0009200000000000319,-0.38125000000000003,-0.197317,-0.38993999999999995,-0.17511700000000002,0.105443,-0.40491,-0.19641200000000003
108,-0.062439,0.573501,-0.353515,-0.192797,0.407525,-0.317425,-0.29090699999999997,0.526143,-0.548875,0.074493,0.41075500000000004,-0.34053500000000003,0.14269300000000001,0.579828,-0.574925,-0.260777,0.721395,-0.750725,0.107713,0.806125,-0.736515,-0.07985300000000001,-0.0017249999999999766,0.012804999999999983,0.07985300000000001,0.0017250000000000876,-0.01280500000000001,-0.235987,0.019245000000000012,-0.318905,0.07095299999999999,0.006504999999999983,-0.381415,-0.197347,-0.38456499999999993,-0.17758200000000002,0.105403,-0.399215,-0.19887700000000003
109,-0.061871,0.57128,-0.35736,-0.192539,0.405165,-0.32049000000000005,-0.29090900000000003,0.518533,-0.5518400000000001,0.07442099999999999,0.40824499999999997,-0.34335000000000004,0.142561,0.573484,-0.58081,-0.261579,0.711835,-0.75732,0.107401,0.799805,-0.7462300000000001,-0.079991,-0.0017249999999999766,0.012779999999999986,0.079991,0.0017249999999999766,-0.012780000000000014,-0.235159,0.024704999999999977,-0.31976000000000004,0.075291,0.011965000000000003,-0.38142000000000004,-0.196789,-0.379575,-0.17973800000000004,0.105131,-0.393355,-0.20106900000000003
110,-0.0611695,0.5698380000000001,-0.36107500000000003,-0.1919385,0.40251500000000007,-0.322955,-0.2908285,0.511708,-0.554735,0.0744515,0.40587500000000004,-0.346055,0.14302150000000002,0.5679230000000001,-0.585975,-0.2621585,0.703535,-0.762955,0.10756149999999999,0.7941150000000001,-0.7552350000000001,-0.0801615,-0.0018049999999999455,0.012704999999999994,0.0801615,0.0018050000000000566,-0.012705000000000022,-0.2342885,0.03008500000000003,-0.320815,0.0803515,0.01737500000000003,-0.381315,-0.1960385,-0.37438499999999997,-0.181511,0.1053215,-0.3880849999999999,-0.20397800000000002
111,-0.060281999999999995,0.568836,-0.364415,-0.190964,0.40036,-0.32521500000000003,-0.290104,0.506281,-0.557095,0.074686,0.40397,-0.348265,0.14389600000000002,0.563442,-0.590155,-0.262604,0.69735,-0.7670250000000001,0.10857599999999999,0.7895300000000001,-0.762805,-0.080356,-0.0020400000000000418,0.012454999999999994,0.080356,0.0020400000000000418,-0.012454999999999994,-0.233374,0.03576999999999997,-0.32215499999999997,0.085856,0.02302000000000004,-0.381065,-0.19516399999999998,-0.3687,-0.182284,0.106226,-0.38305,-0.206415
112,-0.059125000000000004,0.5680200000000001,-0.36744,-0.189613,0.397745,-0.3274,-0.289093,0.5019520000000001,-0.5591200000000001,0.075597,0.401745,-0.35043,0.145457,0.5593910000000001,-0.5932999999999999,-0.262843,0.6930850000000001,-0.77043,0.11005699999999999,0.785675,-0.76911,-0.08054700000000001,-0.0023249999999999105,0.012059999999999987,0.08054700000000001,0.0023250000000000215,-0.012059999999999987,-0.232163,0.04138500000000006,-0.32364000000000004,0.09168699999999999,0.028605000000000103,-0.38078999999999996,-0.194003,-0.36411499999999997,-0.183986,0.10714699999999999,-0.37504499999999996,-0.205657
113,-0.057915,0.5682740000000001,-0.370235,-0.188168,0.39465,-0.329425,-0.288028,0.498819,-0.5601750000000001,0.07644200000000001,0.39933,-0.352425,0.147342,0.5560080000000001,-0.5956250000000001,-0.262938,0.68986,-0.773475,0.11194199999999999,0.7825,-0.773715,-0.080702,-0.00268999999999997,0.011574999999999974,0.080702,0.00268999999999997,-0.011575000000000002,-0.230918,0.04686000000000001,-0.325195,0.09695199999999998,0.034089999999999954,-0.380455,-0.19287800000000002,-0.35960000000000003,-0.185512,0.10845199999999999,-0.36873,-0.20633700000000002
114,-0.0568745,0.5686889999999999,-0.371695,-0.1866585,0.3940649999999999,-0.330285,-0.2870085,0.4957289999999999,-0.559185,0.07762150000000001,0.39856499999999995,-0.353515,0.1492915,0.5532609999999999,-0.596765,-0.2631585,0.6873849999999999,-0.775425,0.1142715,0.779565,-0.776135,-0.08085149999999999,-0.002875000000000072,0.011115000000000014,0.08085149999999999,0.002874999999999961,-0.011114999999999986,-0.2299485,0.051054999999999906,-0.326285,0.10160150000000001,0.03839499999999996,-0.38019499999999995,-0.1919485,-0.3562750000000001,-0.186825,0.11001150000000001,-0.36283500000000013,-0.20406799999999997
115,-0.0562515,0.5692039999999999,-0.37266,-0.1852145,0.3929349999999999,-0.33081,-0.2861245,0.49287699999999995,-0.55745,0.0787455,0.39749499999999993,-0.35431,0.15122549999999998,0.55086,-0.59775,-0.2634645,0.684925,-0.77687,0.1168855,0.7766949999999999,-0.77738,-0.0810355,-0.0029850000000000154,0.01076000000000002,0.0810355,0.0029850000000000154,-0.010759999999999992,-0.22907450000000001,0.05460499999999996,-0.32721999999999996,0.1056455,0.042054999999999954,-0.38014,-0.19116450000000001,-0.35346500000000003,-0.18775099999999997,0.1111155,-0.360035,-0.20520999999999998
116,-0.05558,0.569905,-0.37342,-0.183986,0.3925850000000001,-0.33126,-0.285666,0.49502300000000005,-0.5576000000000001,0.079844,0.397645,-0.35466,0.152884,0.549671,-0.59848,-0.263366,0.6865450000000001,-0.7776500000000001,0.11946400000000001,0.775655,-0.77823,-0.081164,-0.0031849999999999934,0.010409999999999975,0.081164,0.0031849999999999934,-0.010410000000000003,-0.228306,0.05821500000000007,-0.32796000000000003,0.10889399999999999,0.04575499999999999,-0.38015,-0.190406,-0.350595,-0.18835600000000002,0.11261399999999999,-0.354665,-0.20276100000000002
117,-0.0551855,0.570899,-0.374095,-0.1830775,0.3928750000000001,-0.331535,-0.2853275,0.4972500000000001,-0.557575,0.0805925,0.39850500000000005,-0.35458500000000004,0.1543825,0.5498480000000001,-0.599205,-0.2633975,0.688405,-0.7775850000000001,0.12179249999999998,0.776155,-0.778995,-0.0812625,-0.003454999999999986,0.010075,0.0812625,0.003455000000000097,-0.010075,-0.2276975,0.06149500000000008,-0.328925,0.11136249999999999,0.04901500000000003,-0.380185,-0.18954749999999998,-0.348035,-0.187651,0.11385249999999998,-0.3519749999999999,-0.20364100000000002
118,-0.0549665,0.572196,-0.374665,-0.1824985,0.393725,-0.331615,-0.2850785,0.499958,-0.557445,0.08118149999999999,0.39976500000000004,-0.35418499999999997,0.1555215,0.551335,-0.5993550000000001,-0.2634685,0.691075,-0.777015,0.1237615,0.778205,-0.779645,-0.0812815,-0.0036049999999999693,0.009844999999999993,0.0812815,0.0036049999999999693,-0.009844999999999993,-0.22715849999999999,0.06449500000000002,-0.329885,0.1131615,0.05198500000000006,-0.380255,-0.1891285,-0.34514500000000004,-0.18737,0.1147515,-0.34938499999999995,-0.203947
119,-0.054854,0.573526,-0.374665,-0.182282,0.396025,-0.33142499999999997,-0.285182,0.502688,-0.557985,0.081618,0.401735,-0.35358500000000004,0.156218,0.554062,-0.599275,-0.263872,0.693805,-0.777555,0.125258,0.780935,-0.779575,-0.081178,-0.003634999999999944,0.009665000000000007,0.081178,0.003635000000000055,-0.009665000000000007,-0.226752,0.06695500000000004,-0.330705,0.114348,0.054315,-0.38043499999999997,-0.189022,-0.343985,-0.18743,0.11504799999999998,-0.343935,-0.200202
120,-0.054749000000000006,0.5747009999999999,-0.37409499999999996,-0.18218,0.39719999999999994,-0.330885,-0.28545,0.503863,-0.557845,0.08201,0.40290999999999993,-0.35272499999999996,0.15667999999999999,0.555237,-0.598555,-0.26458,0.6949799999999999,-0.7778349999999999,0.12633,0.78211,-0.778605,-0.0811,-0.0036200000000000676,0.009635000000000005,0.0811,0.0036199999999999566,-0.009635000000000005,-0.22639,0.06806999999999996,-0.33130499999999996,0.11517,0.05508999999999997,-0.380685,-0.18897,-0.34445000000000003,-0.188085,0.11462999999999998,-0.34276000000000006,-0.199282
121,-0.054764,0.5761859999999999,-0.372825,-0.182058,0.3986849999999999,-0.329965,-0.285868,0.5053479999999999,-0.557105,0.08213200000000001,0.4043949999999999,-0.351695,0.15682200000000002,0.5567219999999999,-0.597075,-0.265698,0.6964649999999999,-0.776915,0.12707200000000002,0.7835949999999999,-0.776545,-0.081092,-0.003515000000000046,0.009794999999999998,0.081092,0.003514999999999935,-0.009794999999999998,-0.22611799999999999,0.06929499999999988,-0.33221500000000004,0.11574200000000001,0.05620499999999995,-0.38104499999999997,-0.189198,-0.3441750000000001,-0.188679,0.11461200000000002,-0.34533500000000006,-0.200601
122,-0.0550915,0.5761859999999999,-0.37053,-0.1819495,0.3986849999999999,-0.32858,-0.2868595,0.5075479999999999,-0.55602,0.0821705,0.4043949999999999,-0.35004,0.1573205,0.5567219999999999,-0.5947,-0.2675695,0.6976849999999999,-0.7747299999999999,0.1273905,0.7843749999999999,-0.7733300000000001,-0.0810305,-0.003515000000000046,0.010049999999999976,0.0810305,0.003514999999999935,-0.010050000000000003,-0.2258895,0.06901499999999988,-0.33309,0.11615049999999999,0.05583499999999986,-0.38145,-0.1895395,-0.34606500000000007,-0.19104100000000002,0.1150505,-0.3464750000000001,-0.199881
123,-0.05513,0.5762349999999999,-0.367745,-0.181487,0.3997949999999999,-0.327005,-0.287927,0.5110389999999999,-0.555055,0.082463,0.4050149999999999,-0.34838499999999994,0.157883,0.5586689999999999,-0.5919049999999999,-0.269427,0.7026749999999999,-0.772405,0.127763,0.7870949999999999,-0.769835,-0.08096300000000001,-0.003515000000000046,0.01019500000000001,0.08096300000000001,0.003514999999999935,-0.010194999999999982,-0.225517,0.0688049999999999,-0.334315,0.11671300000000001,0.055484999999999896,-0.38215499999999997,-0.189687,-0.3480150000000001,-0.194066,0.115533,-0.3481350000000001,-0.20015199999999997
124,-0.0553135,0.576799,-0.36367,-0.1811565,0.40244499999999994,-0.32499999999999996,-0.28921650000000004,0.5166749999999999,-0.5536,0.08271350000000001,0.4065649999999999,-0.34657,0.15822350000000002,0.5625089999999999,-0.5886899999999999,-0.27144650000000003,0.7083249999999999,-0.7696799999999999,0.1281535,0.7916949999999999,-0.7652300000000001,-0.0808335,-0.003515000000000046,0.010340000000000016,0.0808335,0.003514999999999935,-0.010339999999999988,-0.2251665,0.06839499999999993,-0.33538999999999997,0.11723350000000002,0.054584999999999884,-0.38276,-0.18999649999999998,-0.3498450000000001,-0.196302,0.1157935,-0.35304500000000005,-0.20376899999999998
125,-0.055222499999999994,0.5788890000000001,-0.35938000000000003,-0.18081750000000002,0.40526000000000006,-0.32275,-0.2901075,0.5233150000000001,-0.55189,0.0828625,0.4125000000000001,-0.34509,0.15831250000000002,0.5690700000000001,-0.58563,-0.2734775,0.7159800000000001,-0.7663199999999999,0.12857249999999998,0.79874,-0.76111,-0.0807025,-0.0039799999999999836,0.010209999999999997,0.0807025,0.003980000000000095,-0.010209999999999997,-0.2245975,0.06676000000000004,-0.33662000000000003,0.11785250000000001,0.05246000000000006,-0.38356999999999997,-0.1903975,-0.35144999999999993,-0.198519,0.11596250000000001,-0.35495,-0.203241
126,-0.055025,0.581679,-0.355205,-0.180605,0.406925,-0.320415,-0.29121499999999995,0.52878,-0.549225,0.083505,0.415525,-0.343735,0.158525,0.574614,-0.581865,-0.27547499999999997,0.7234149999999999,-0.7617849999999999,0.129235,0.804715,-0.7554350000000001,-0.080785,-0.003654999999999964,0.010014999999999996,0.080785,0.003654999999999964,-0.010014999999999996,-0.223605,0.06139499999999998,-0.337585,0.11887500000000001,0.047095,-0.38409499999999996,-0.190435,-0.356815,-0.20026,0.116425,-0.36080500000000004,-0.202924
127,-0.054924,0.586514,-0.35021,-0.180483,0.40832,-0.3183,-0.292133,0.536176,-0.54567,0.084157,0.41869,-0.34236,0.15862700000000002,0.582681,-0.5766100000000001,-0.27746299999999996,0.73263,-0.7562800000000001,0.129687,0.8132299999999999,-0.7484299999999999,-0.080777,-0.0037000000000000366,0.00960999999999998,0.080777,0.0036999999999999256,-0.009610000000000007,-0.222563,0.05508999999999997,-0.33857000000000004,0.11978699999999999,0.04078999999999999,-0.38451,-0.190633,-0.36202,-0.201229,0.11725700000000001,-0.36740000000000006,-0.203739
128,-0.054385,0.592267,-0.34485,-0.17996800000000002,0.408435,-0.31645999999999996,-0.293098,0.545032,-0.54131,0.084652,0.42138499999999995,-0.34096000000000004,0.158822,0.590896,-0.57082,-0.279158,0.7440249999999999,-0.74881,0.12978199999999998,0.8235049999999999,-0.73942,-0.08074200000000001,-0.003955000000000042,0.009169999999999984,0.08074200000000001,0.003954999999999931,-0.009170000000000011,-0.221358,0.046914999999999984,-0.33973,0.12066199999999999,0.032484999999999986,-0.38500999999999996,-0.190868,-0.36885500000000004,-0.202449,0.11819199999999999,-0.37485500000000005,-0.20297300000000001
129,-0.0535485,0.598434,-0.33854,-0.17949949999999998,0.41296,-0.31289,-0.2938095,0.555013,-0.5369,0.0860805,0.42667,-0.33716,0.1591805,0.600082,-0.56435,-0.2805295,0.75659,-0.7417900000000001,0.1299305,0.83335,-0.73092,-0.0807505,-0.003550000000000053,0.008580000000000004,0.0807505,0.003550000000000053,-0.008580000000000004,-0.2197695,0.03587000000000001,-0.3408,0.12168050000000001,0.021070000000000033,-0.38534,-0.1908895,-0.37856999999999996,-0.202658,0.11897049999999999,-0.38614000000000004,-0.204747
130,-0.0526135,0.603715,-0.331935,-0.1789335,0.41544,-0.30950500000000003,-0.2931535,0.565051,-0.531895,0.08772649999999999,0.42998299999999995,-0.333525,0.1596165,0.608784,-0.556515,-0.2814535,0.76915,-0.734395,0.1302865,0.84392,-0.719925,-0.08061650000000001,-0.003610000000000002,0.00794499999999998,0.08061650000000001,0.003610000000000002,-0.007945000000000008,-0.2177435,0.023819999999999952,-0.34143500000000004,0.12274650000000001,0.008340000000000014,-0.385335,-0.19085349999999998,-0.38992000000000004,-0.202799,0.12089650000000002,-0.39534,-0.204153
131,-0.05159999999999999,0.610365,-0.32506500000000005,-0.177985,0.41849500000000006,-0.305145,-0.293305,0.5731010000000001,-0.526015,0.089665,0.432889,-0.328765,0.160705,0.6164350000000001,-0.548035,-0.281185,0.779815,-0.726015,0.130525,0.852905,-0.709105,-0.080505,-0.0034849999999999604,0.007404999999999995,0.080505,0.003485000000000016,-0.007405000000000023,-0.215505,0.008875000000000022,-0.341405,0.123895,-0.006645000000000012,-0.384085,-0.190905,-0.40415499999999993,-0.20254500000000003,0.122255,-0.41159499999999993,-0.206156
132,-0.0505265,0.616825,-0.31765,-0.1768595,0.419834,-0.30030999999999997,-0.2932095,0.580612,-0.51816,0.0917105,0.436289,-0.32360999999999995,0.1615405,0.624535,-0.53893,-0.28056949999999997,0.790365,-0.7144199999999999,0.1310905,0.862985,-0.69654,-0.0801405,-0.0036550000000000193,0.0069200000000000095,0.0801405,0.003654999999999964,-0.006919999999999982,-0.2131095,-0.008074999999999999,-0.34040000000000004,0.1250505,-0.023414999999999964,-0.38151,-0.1908995,-0.420555,-0.202714,0.1237405,-0.42749500000000007,-0.20508099999999999
133,-0.049577,0.62638,-0.31005,-0.17585800000000001,0.420428,-0.29556,-0.293228,0.58948,-0.5088999999999999,0.093422,0.44004,-0.31811,0.16228199999999998,0.63335,-0.52872,-0.280168,0.8027,-0.70149,0.13186199999999998,0.87398,-0.68294,-0.07955200000000001,-0.0038599999999999746,0.0064700000000000035,0.07955200000000001,0.00386000000000003,-0.0064700000000000035,-0.210588,-0.02429999999999999,-0.33857,0.126002,-0.03944000000000003,-0.37797000000000003,-0.19090800000000002,-0.43799999999999994,-0.20313199999999998,0.12531199999999998,-0.44304999999999994,-0.203644
134,-0.048341,0.6358349999999999,-0.3029,-0.174779,0.427401,-0.29131,-0.29303900000000005,0.600625,-0.49973,0.095161,0.443216,-0.31265,0.163371,0.642715,-0.51954,-0.27969900000000003,0.817465,-0.68816,0.133081,0.886335,-0.6685099999999999,-0.079281,-0.0028750000000000164,0.0063,0.079281,0.0028750000000000164,-0.0063,-0.208059,-0.040935,-0.33704999999999996,0.12701099999999999,-0.05491499999999999,-0.37433,-0.190879,-0.45459499999999997,-0.20349,0.12651099999999998,-0.46292500000000003,-0.204848
135,-0.0470945,0.64586,-0.295115,-0.1741115,0.43543899999999996,-0.287185,-0.2928015,0.61439,-0.491005,0.09665850000000001,0.449887,-0.307175,0.16415849999999998,0.65473,-0.509745,-0.2790115,0.83161,-0.675465,0.1337585,0.90089,-0.655535,-0.0790885,-0.0029899999999999927,0.006214999999999998,0.0790885,0.0029899999999999927,-0.006214999999999998,-0.2056615,-0.05567,-0.335465,0.1280285,-0.06806000000000001,-0.370745,-0.19086150000000002,-0.46962,-0.20355299999999998,0.1277685,-0.48117000000000004,-0.205974
136,-0.0458635,0.655135,-0.28780500000000003,-0.1734445,0.44621999999999995,-0.282685,-0.2924345,0.628295,-0.483035,0.0982855,0.45662899999999995,-0.30173500000000003,0.1649655,0.664715,-0.500965,-0.2783145,0.847155,-0.6614949999999999,0.1344955,0.913885,-0.642325,-0.07882549999999999,-0.0024450000000000305,0.006194999999999978,0.07882549999999999,0.002444999999999975,-0.006195000000000006,-0.2033145,-0.07088500000000003,-0.333685,0.1290855,-0.08155500000000004,-0.367355,-0.1907745,-0.485425,-0.20350900000000002,0.12885549999999998,-0.49580500000000005,-0.205384
137,-0.0449315,0.65945,-0.280593,-0.1729405,0.453177,-0.278015,-0.29253049999999997,0.6364799999999999,-0.47511499999999995,0.0995595,0.46053299999999997,-0.296325,0.1651495,0.6707099999999999,-0.492275,-0.27753049999999996,0.85558,-0.648755,0.1353995,0.92041,-0.630685,-0.0785305,-0.0019100000000000228,0.0062450000000000006,0.0785305,0.0019099999999999673,-0.0062450000000000006,-0.2008705,-0.09066000000000002,-0.33103499999999997,0.1301395,-0.09925,-0.362885,-0.1905205,-0.5075000000000001,-0.203097,0.13037949999999998,-0.51573,-0.204262
138,-0.044373,0.6659200000000001,-0.273507,-0.173275,0.45677900000000005,-0.27433,-0.292295,0.64506,-0.4662,0.09962499999999999,0.46314000000000005,-0.29307,0.165125,0.67834,-0.48267,-0.277275,0.8659100000000001,-0.6335200000000001,0.136005,0.93098,-0.61599,-0.078154,-0.0020599999999999508,0.0062299999999999855,0.078154,0.0020600000000000063,-0.006230000000000013,-0.198735,-0.10788999999999999,-0.32721,0.130805,-0.11447999999999997,-0.35775999999999997,-0.190695,-0.52826,-0.202991,0.131435,-0.53408,-0.202994
139,-0.044274,0.674275,-0.266471,-0.173744,0.46292500000000003,-0.270208,-0.29151400000000005,0.655385,-0.456955,0.099706,0.46730499999999997,-0.289415,0.16492600000000002,0.685675,-0.474205,-0.276994,0.875545,-0.618045,0.136326,0.939725,-0.604175,-0.077922,-0.0018349999999999755,0.0062550000000000106,0.077922,0.0018349999999999755,-0.0062550000000000106,-0.196994,-0.12526500000000002,-0.32293499999999997,0.131376,-0.128925,-0.35223499999999996,-0.190964,-0.548855,-0.203417,0.13178600000000001,-0.555735,-0.203462
140,-0.0440665,0.680695,-0.259083,-0.1737075,0.468385,-0.266183,-0.2924675,0.6657850000000001,-0.44733999999999996,0.09997249999999999,0.471995,-0.28615999999999997,0.16533250000000002,0.694195,-0.46526,-0.2766175,0.889285,-0.6021,0.1372225,0.949775,-0.59193,-0.0777065,-0.0018650000000000055,0.006379999999999997,0.0777065,0.0018650000000000055,-0.006379999999999997,-0.1950375,-0.14003499999999997,-0.31737,0.1317325,-0.14130500000000001,-0.346,-0.19115749999999998,-0.568255,-0.202532,0.1321025,-0.576395,-0.20299099999999998
141,-0.043859,0.6887049999999999,-0.25144200000000005,-0.17311800000000002,0.473545,-0.262505,-0.292998,0.676415,-0.43697,0.099792,0.474255,-0.283053,0.165382,0.7007950000000001,-0.45530000000000004,-0.277028,0.899185,-0.5869800000000001,0.13866199999999998,0.956845,-0.5799799999999999,-0.07749400000000001,-0.0015650000000000386,0.006399999999999989,0.07749400000000001,0.001564999999999983,-0.006400000000000017,-0.19320800000000002,-0.153225,-0.31172,0.13186199999999998,-0.15231500000000003,-0.33977,-0.191328,-0.586935,-0.20159000000000002,0.13239199999999998,-0.595745,-0.20263200000000003
142,-0.043457499999999996,0.693075,-0.24360099999999998,-0.1728245,0.477955,-0.258221,-0.2933445,0.684125,-0.426285,0.0995855,0.475035,-0.279346,0.16596550000000002,0.705665,-0.445255,-0.2771345,0.906925,-0.5704549999999999,0.1404855,0.963325,-0.5660149999999999,-0.0771365,-0.0011249999999999871,0.006395000000000012,0.0771365,0.0011249999999999871,-0.006394999999999984,-0.1913645,-0.167495,-0.305635,0.1321755,-0.16364499999999998,-0.333095,-0.1912245,-0.606475,-0.20007599999999998,0.13244550000000002,-0.615155,-0.20223999999999998
143,-0.0429,0.69141,-0.234742,-0.17296399999999998,0.48001,-0.253159,-0.293594,0.69038,-0.41591500000000003,0.099746,0.47707,-0.275386,0.166996,0.70987,-0.434165,-0.27701400000000004,0.90757,-0.554115,0.142706,0.9684200000000001,-0.552405,-0.076803,-0.0014200000000000046,0.006225000000000008,0.076803,0.0014200000000000046,-0.006225000000000008,-0.189544,-0.18472999999999998,-0.298995,0.13262600000000002,-0.17842,-0.326135,-0.190934,-0.62937,-0.198142,0.132636,-0.63795,-0.201048
144,-0.042654,0.6885950000000001,-0.225937,-0.17299099999999998,0.481785,-0.24807,-0.294091,0.6956249999999999,-0.405585,0.09969900000000001,0.478375,-0.271227,0.167419,0.714585,-0.423935,-0.27653099999999997,0.909835,-0.5368649999999999,0.144679,0.9739850000000001,-0.5388649999999999,-0.07663500000000001,-0.0013749999999999873,0.006125000000000019,0.07663500000000001,0.001375000000000015,-0.0061249999999999916,-0.18795099999999998,-0.19614499999999996,-0.291675,0.132859,-0.19144499999999998,-0.318725,-0.190721,-0.6508149999999999,-0.195563,0.132769,-0.658995,-0.19999499999999998
145,-0.042235499999999995,0.68714,-0.217242,-0.1728375,0.48451999999999995,-0.24284,-0.2939775,0.70158,-0.39498999999999995,0.0997225,0.48009,-0.266721,0.1679925,0.71951,-0.41345,-0.2760075,0.9161,-0.52136,0.1471525,0.97702,-0.52542,-0.0765025,-0.0012699999999999934,0.005970000000000003,0.0765025,0.0012699999999999934,-0.005970000000000003,-0.1858475,-0.20796,-0.28320999999999996,0.1330825,-0.205,-0.31026,-0.1902875,-0.67362,-0.192572,0.13326249999999998,-0.68338,-0.198741
146,-0.0420575,0.6876,-0.20816,-0.1734345,0.49112999999999996,-0.237527,-0.29402449999999997,0.7117100000000001,-0.38452,0.0998455,0.48622,-0.261751,0.16788550000000002,0.7290399999999999,-0.40348,-0.2763945,0.9262600000000001,-0.50602,0.1500455,0.9834700000000001,-0.51149,-0.0764085,-0.0010900000000000076,0.005950000000000011,0.0764085,0.0010899999999999799,-0.005950000000000011,-0.1838845,-0.21549000000000001,-0.27455799999999997,0.13235550000000001,-0.21371,-0.30175,-0.1899945,-0.69235,-0.189188,0.13364549999999997,-0.7033,-0.197095
147,-0.041954500000000006,0.68612,-0.199454,-0.1743215,0.49608,-0.232143,-0.29385150000000004,0.71996,-0.37456999999999996,0.0995985,0.48941,-0.25660299999999997,0.1676685,0.73447,-0.39352,-0.2768915,0.93712,-0.49088999999999994,0.1507385,0.9845,-0.49881,-0.07641049999999999,-0.0007900000000000129,0.005909999999999999,0.07641049999999999,0.0007900000000000129,-0.005909999999999999,-0.18192149999999999,-0.22441,-0.26584599999999997,0.1320285,-0.22258,-0.29344,-0.1896115,-0.71219,-0.185435,0.1339185,-0.7243,-0.19492199999999998
148,-0.041706999999999994,0.68249,-0.190112,-0.17528300000000002,0.50029,-0.226581,-0.292703,0.7268699999999999,-0.364135,0.099327,0.49282,-0.25141800000000003,0.16752699999999998,0.7404299999999999,-0.382485,-0.27726300000000004,0.9470000000000001,-0.475995,0.15159699999999998,0.9894400000000001,-0.484425,-0.076515,-0.0004699999999999982,0.005924999999999986,0.076515,0.0004699999999999982,-0.005925000000000014,-0.179823,-0.23386,-0.256687,0.13111699999999998,-0.23342000000000002,-0.285105,-0.189363,-0.73289,-0.18249300000000002,0.135137,-0.7458100000000001,-0.193885
149,-0.0410055,0.67868,-0.17889100000000002,-0.17556149999999998,0.5042,-0.219068,-0.29084150000000003,0.73418,-0.35119500000000003,0.0995185,0.49562,-0.24433300000000002,0.16751850000000001,0.7459899999999999,-0.369305,-0.2770515,0.95275,-0.45869499999999996,0.1527485,0.9932399999999999,-0.46814500000000003,-0.0762515,-9.999999999998899e-05,0.005824999999999997,0.0762515,0.00010000000000000286,-0.005824999999999997,-0.1775215,-0.24381999999999998,-0.245585,0.1306985,-0.24474,-0.275115,-0.1886715,-0.75126,-0.177849,0.13717849999999998,-0.76491,-0.19107500000000002
150,-0.0401335,0.6719900000000001,-0.167388,-0.1754795,0.5079400000000001,-0.21088,-0.2885695,0.74187,-0.33826500000000004,0.1000205,0.49876,-0.236765,0.1655405,0.7519800000000001,-0.354755,-0.2766695,0.95913,-0.440685,0.1545905,0.99729,-0.447455,-0.0757165,0.0003599999999999992,0.005695000000000006,0.0757165,-0.0003599999999999992,-0.005695000000000006,-0.1747795,-0.25479,-0.23349399999999998,0.13008050000000002,-0.25673,-0.264755,-0.1877695,-0.76919,-0.17288699999999999,0.1393805,-0.78365,-0.187548
151,-0.03862499999999999,0.667592,-0.15540400000000001,-0.175075,0.514262,-0.202428,-0.286355,0.7497119999999999,-0.32441,0.101305,0.502682,-0.229276,0.164035,0.758132,-0.33981,-0.275675,0.971902,-0.42294000000000004,0.156755,1.000312,-0.42869,-0.07533999999999999,0.0008399999999999935,0.005569999999999992,0.07533999999999999,-0.0008400000000000074,-0.005570000000000019,-0.171035,-0.264888,-0.22066400000000003,0.12917499999999998,-0.268478,-0.251652,-0.186805,-0.789718,-0.167356,0.141905,-0.803548,-0.182794
152,-0.036992,0.6684775,-0.14541,-0.17445899999999998,0.5171675,-0.195857,-0.283049,0.7567275,-0.31067,0.103021,0.5019675,-0.22346100000000002,0.162711,0.7624575,-0.32597,-0.273889,0.9886475,-0.40668,0.159121,1.0025275,-0.41077,-0.074893,0.001413499999999998,0.005649999999999988,0.074893,-0.001413499999999998,-0.005650000000000016,-0.16685899999999998,-0.2690225,-0.208771,0.128371,-0.2749225,-0.23974800000000002,-0.18578899999999998,-0.8058025,-0.162305,0.143731,-0.8143125,-0.178348
153,-0.035224,0.6691815,-0.135715,-0.173714,0.5203415,-0.18901199999999999,-0.27976399999999996,0.7636115,-0.29573,0.104936,0.5016015,-0.217739,0.161746,0.7648014999999999,-0.31157,-0.271624,1.0048015,-0.3901,0.16053599999999998,1.0032315,-0.39166999999999996,-0.07445199999999999,0.0019985000000000003,0.005620000000000014,0.07445199999999999,-0.0019985000000000003,-0.005619999999999986,-0.161834,-0.2791285,-0.196637,0.127576,-0.2827385,-0.227428,-0.184634,-0.8217785000000001,-0.156656,0.145746,-0.8246385,-0.173902
154,-0.033933500000000005,0.6708235,-0.126134,-0.1737365,0.5201135,-0.181179,-0.27871650000000003,0.7680834999999999,-0.28068499999999996,0.10624349999999999,0.5014535,-0.2123,0.1639635,0.7670935,-0.298145,-0.26900650000000004,1.0143035,-0.373195,0.1635335,1.0051635,-0.374275,-0.0743035,0.001855500000000003,0.005764999999999992,0.0743035,-0.001855499999999996,-0.005764999999999992,-0.1571065,-0.2881165,-0.18534899999999999,0.1265535,-0.29030649999999997,-0.214493,-0.1831865,-0.8316065,-0.151288,0.1474135,-0.8335165,-0.169622
155,-0.032747,0.6741715,-0.117582,-0.17408099999999999,0.5208915000000001,-0.17385,-0.276351,0.7727315,-0.266775,0.107199,0.4993315,-0.20778400000000002,0.165239,0.7677815,-0.285195,-0.265741,1.0249815,-0.357055,0.166189,1.0068315,-0.358085,-0.074198,0.0018355000000000038,0.005665000000000003,0.074198,-0.0018354999999999969,-0.005665000000000003,-0.152571,-0.2960785,-0.174673,0.125509,-0.2982185,-0.20136500000000002,-0.181671,-0.8405785,-0.1463,0.14904900000000001,-0.8417684999999999,-0.164284
156,-0.031412499999999996,0.676763,-0.105262,-0.1739965,0.521613,-0.162747,-0.27416650000000004,0.777033,-0.249135,0.10829350000000001,0.49850300000000003,-0.199195,0.16669350000000002,0.769003,-0.26958499999999996,-0.2623665,1.031293,-0.33757499999999996,0.16863350000000002,1.009293,-0.339075,-0.0740645,0.001584000000000002,0.00548499999999999,0.0740645,-0.0015839999999999951,-0.00548499999999999,-0.1480365,-0.302257,-0.160082,0.12494350000000001,-0.303587,-0.183603,-0.1802165,-0.8476170000000001,-0.137572,0.1508835,-0.848727,-0.154567
157,-0.030834,0.681755,-0.08706900000000001,-0.174081,0.522235,-0.143036,-0.271811,0.773285,-0.22597499999999998,0.110109,0.503875,-0.178776,0.168519,0.770055,-0.24833500000000003,-0.259201,1.0314649999999999,-0.310325,0.170879,1.006955,-0.314695,-0.073988,0.0011109999999999974,0.004744999999999999,0.073988,-0.0011110000000000009,-0.004744999999999999,-0.143011,-0.320615,-0.138822,0.12470899999999999,-0.320855,-0.15741,-0.178471,-0.865865,-0.121242,0.152989,-0.866135,-0.137803
158,-0.030587,0.6874755,-0.069459,-0.174394,0.5230855,-0.123906,-0.269694,0.7694755,-0.20378800000000002,0.11146600000000001,0.5093055,-0.158841,0.170466,0.7702855,-0.22846,-0.256714,1.0323955,-0.28502,0.17275600000000002,1.0061955,-0.29046,-0.07408200000000001,0.0005384999999999999,0.004049999999999998,0.07408200000000001,-0.0005385000000000008,-0.004049999999999998,-0.138324,-0.3388445,-0.11902700000000001,0.124146,-0.3372445,-0.132101,-0.17693399999999998,-0.8831745,-0.105378,0.155386,-0.8829245,-0.120162
159,-0.030775999999999998,0.693696,-0.052887500000000004,-0.17495499999999997,0.5241359999999999,-0.1053385,-0.267905,0.764656,-0.1831885,0.112955,0.515316,-0.1393615,0.172095,0.7699159999999999,-0.2113035,-0.255675,1.033336,-0.2619635,0.174435,1.0060360000000002,-0.2720935,-0.074352,-0.00016599999999999948,0.003436499999999995,0.074352,0.00016600000000000122,-0.003436499999999995,-0.134285,-0.354584,-0.1024315,0.123515,-0.354364,-0.1087675,-0.175605,-0.899854,-0.0899335,0.157445,-0.899004,-0.1030115
160,-0.031832,0.6988234999999999,-0.037399,-0.176095,0.5236635,-0.08705,-0.267165,0.7600034999999999,-0.164107,0.113745,0.5216635,-0.12031700000000001,0.173035,0.7690834999999999,-0.194987,-0.255545,1.0290335000000002,-0.240537,0.175375,1.0050335000000001,-0.255757,-0.074432,-0.0010124999999999995,0.0027520000000000044,0.074432,0.001012500000000003,-0.0027520000000000044,-0.131355,-0.3728165,-0.086872,0.122885,-0.3711565,-0.088722,-0.174815,-0.9158265,-0.075331,0.158075,-0.9119365,-0.084596
161,-0.033005999999999994,0.7044235,-0.021936500000000005,-0.17735399999999998,0.5235335,-0.0686055,-0.26677399999999996,0.7540835,-0.1458295,0.114456,0.5281435,-0.1011725,0.173866,0.7674335,-0.17879050000000002,-0.25513399999999997,1.0231934999999999,-0.2205005,0.176146,1.0038935,-0.2409905,-0.074518,-0.001865499999999999,0.001978499999999994,0.074518,0.001865499999999999,-0.001978500000000001,-0.128434,-0.39049649999999997,-0.0717255,0.122446,-0.3874165,-0.0690615,-0.174054,-0.9311965,-0.0606465,0.15834600000000001,-0.9244765,-0.06628250000000001
162,-0.034201,0.710618,-0.006617999999999999,-0.17858,0.5225380000000001,-0.050381999999999996,-0.26683999999999997,0.746838,-0.128999,0.1155,0.534218,-0.08163899999999999,0.17761,0.763798,-0.16340100000000002,-0.2542,1.016018,-0.203301,0.17903,1.003218,-0.227321,-0.074642,-0.0026740000000000028,0.0012700000000000003,0.074642,0.002673999999999996,-0.0012700000000000003,-0.12616,-0.40735200000000005,-0.057590999999999996,0.12304999999999999,-0.40289200000000003,-0.051511999999999995,-0.17324,-0.9459719999999999,-0.046195,0.15868,-0.936232,-0.04827
163,-0.035285000000000004,0.71352,0.0081725,-0.179493,0.52164,-0.0333915,-0.268023,0.73719,-0.11359150000000001,0.11652699999999999,0.53973,-0.0623025,0.182087,0.75744,-0.1479905,-0.25432299999999997,1.006,-0.1893305,0.183007,0.9995,-0.21395050000000002,-0.074799,-0.003160999999999997,0.0004004999999999981,0.074799,0.003160999999999997,-0.0004004999999999981,-0.124403,-0.42281,-0.0439025,0.123517,-0.41677,-0.0356865,-0.171703,-0.95583,-0.0308235,0.15917699999999999,-0.94455,-0.031378500000000004
164,-0.0364575,0.716682,0.0230775,-0.18017350000000001,0.5213220000000001,-0.016350499999999997,-0.2707735,0.726302,-0.0988085,0.11742649999999999,0.543842,-0.042707499999999995,0.1878665,0.747602,-0.13218950000000002,-0.2560635,0.995112,-0.17559950000000002,0.1880965,0.991012,-0.20053949999999998,-0.07512949999999999,-0.0036769999999999997,-0.00033049999999999746,0.07512949999999999,0.0036769999999999997,0.00033050000000000093,-0.12308350000000001,-0.43612799999999996,-0.0303145,0.12388650000000001,-0.428828,-0.0212965,-0.1703835,-0.963438,-0.0157245,0.1597065,-0.9549179999999999,-0.0160825
165,-0.03786,0.719944,0.033982,-0.18151899999999999,0.5213340000000001,-0.002791,-0.275559,0.716334,-0.089188,0.118231,0.5482440000000001,-0.025863,0.196171,0.737634,-0.120361,-0.25927900000000004,0.985144,-0.166051,0.195101,0.981044,-0.19348100000000001,-0.075417,-0.004069000000000003,-0.0006610000000000001,0.075417,0.004069000000000003,0.0006609999999999984,-0.121949,-0.446046,-0.020971,0.124091,-0.440116,-0.011909000000000001,-0.16927899999999999,-0.9703259999999999,-0.0055520000000000005,0.160131,-0.964746,-0.005782000000000001
166,-0.038794999999999996,0.719944,0.037673000000000005,-0.182834,0.5213340000000001,0.0016830000000000005,-0.280794,0.716334,-0.086921,0.118726,0.5482440000000001,-0.021311,0.203046,0.737634,-0.115959,-0.264554,0.985144,-0.163779,0.202656,0.981044,-0.196609,-0.075492,-0.004069000000000003,-0.00035400000000000015,0.075492,0.004069000000000003,0.00035400000000000015,-0.12163399999999999,-0.446346,-0.019151,0.12401599999999999,-0.442116,-0.009884,-0.169124,-0.970266,-0.0035369999999999993,0.160176,-0.9644459999999999,-0.0029699999999999996
167,-0.0397105,0.719944,0.04177,-0.1840575,0.5213340000000001,0.006313999999999998,-0.28737749999999995,0.715554,-0.084373,0.1201425,0.5482440000000001,-0.014982000000000002,0.21236249999999998,0.7374940000000001,-0.110601,-0.2712175,0.983544,-0.16264099999999998,0.2129125,0.981044,-0.201401,-0.0755295,-0.004069000000000003,-0.00012200000000000058,0.0755295,0.004069000000000003,0.00012199999999999885,-0.12141750000000001,-0.446996,-0.017878,0.12407249999999999,-0.444786,-0.007646000000000001,-0.1689275,-0.970206,-0.0013060000000000007,0.1606925,-0.9642459999999999,-0.0006080000000000009
168,-0.040576,0.719944,0.046466,-0.185231,0.5213340000000001,0.011113000000000001,-0.296211,0.711474,-0.082839,0.121699,0.5482440000000001,-0.008224,0.223449,0.735824,-0.105029,-0.279631,0.977744,-0.165984,0.225129,0.977444,-0.20774399999999998,-0.07553299999999999,-0.004069000000000003,4.6000000000000034e-05,0.07553299999999999,0.004069000000000003,-4.6000000000000034e-05,-0.12132100000000001,-0.447446,-0.018115,0.124089,-0.44768600000000003,-0.0057929999999999995,-0.168821,-0.9701059999999999,0.0012110000000000003,0.161049,-0.963966,0.001999
169,-0.041177,0.722139,0.051433999999999994,-0.186143,0.521649,0.015931999999999998,-0.306083,0.702069,-0.080921,0.123557,0.546229,-0.0010270000000000001,0.236607,0.719519,-0.09933600000000001,-0.291503,0.9614490000000001,-0.17302599999999999,0.23874700000000001,0.9598490000000001,-0.21600599999999998,-0.07566300000000001,-0.004321000000000005,0.00027999999999999987,0.07566300000000001,0.004321000000000005,-0.0002800000000000003,-0.12154299999999998,-0.444881,-0.017925,0.124587,-0.447331,-0.005689,-0.16847299999999998,-0.966811,0.0035989999999999998,0.161577,-0.959731,0.004688
170,-0.041821,0.7244440000000001,0.056472999999999995,-0.187095,0.521684,0.020545,-0.31720499999999996,0.685824,-0.079045,0.12581499999999998,0.543504,0.005871,0.25128500000000004,0.698644,-0.094958,-0.303455,0.9425939999999999,-0.182748,0.253865,0.9333939999999998,-0.226738,-0.075847,-0.004543000000000005,0.0006169999999999999,0.075847,0.004543000000000005,-0.0006169999999999999,-0.12135499999999999,-0.440206,-0.018515999999999998,0.125105,-0.446956,-0.005776,-0.168215,-0.962976,0.005874,0.162125,-0.955306,0.006638
