sb224sc-HT22-VT27/4dt907/src/data/kinect_good_preprocessed_A9_mediapipe/A62_kinect_mirrored.csv
FrameNo,nose_3d_x,nose_3d_y,nose_3d_z,left_shoulder_3d_x,left_shoulder_3d_y,left_shoulder_3d_z,left_elbow_3d_x,left_elbow_3d_y,left_elbow_3d_z,right_shoulder_3d_x,right_shoulder_3d_y,right_shoulder_3d_z,right_elbow_3d_x,right_elbow_3d_y,right_elbow_3d_z,left_wrist_3d_x,left_wrist_3d_y,left_wrist_3d_z,right_wrist_3d_x,right_wrist_3d_y,right_wrist_3d_z,left_hip_3d_x,left_hip_3d_y,left_hip_3d_z,right_hip_3d_x,right_hip_3d_y,right_hip_3d_z,left_knee_3d_x,left_knee_3d_y,left_knee_3d_z,right_knee_3d_x,right_knee_3d_y,right_knee_3d_z,left_ankle_3d_x,left_ankle_3d_y,left_ankle_3d_z,right_ankle_3d_x,right_ankle_3d_y,right_ankle_3d_z
55,1.0295565,0.716265,0.0175575,0.8778655,0.554975,-0.0130275,0.8104155,0.779965,-0.0975265,1.1764055,0.515855,0.0005525,1.2470955,0.743545,-0.0752974999999999,0.8147854999999999,1.051485,-0.1646355,1.2371455,1.005985,-0.1703955,0.9227675,0.00486,-0.0008084999999999,1.0772325,-0.00486,0.0008085,0.8725155,-0.446865,-0.0574545,1.1306055,-0.450855,-0.0465255,0.8225455,-0.938355,-0.0081795,1.1611354999999999,-0.947505,-0.0148785
56,1.0295035,0.7142175,0.010684,0.8777965000000001,0.5525975,-0.019898,0.8097265,0.7762575,-0.1051329999999999,1.1759965000000001,0.5185275,-0.005186,1.2468165,0.7434075,-0.083087,0.8146865,1.0479175,-0.173632,1.2354165,1.0056175,-0.179282,0.9226035,0.0050165,-0.001936,1.0773965,-0.0050165,0.001936,0.8725965,-0.4462225,-0.0688469999999999,1.1323865,-0.4509625,-0.055061,0.8231765,-0.9334325,-0.015879,1.1616865,-0.9436225,-0.021747
57,1.0294429999999999,0.712031,0.0033405,0.877842,0.549461,-0.0273015,0.809032,0.773041,-0.1134795,1.175642,0.520961,-0.0109595,1.246622,0.7436309999999999,-0.0915585,0.814972,1.039961,-0.1831634999999999,1.233642,1.006261,-0.1887734999999999,0.922515,0.0050129999999999,-0.0028885,1.077485,-0.005013,0.0028885,0.872312,-0.444619,-0.0802395,1.1344319999999999,-0.450119,-0.0637425,0.823912,-0.927829,-0.0230305,1.162402,-0.938339,-0.0292465
58,1.0293525,0.7083634999999999,-0.0041739999999999,0.8777455,0.5464135,-0.034265,0.8086055,0.7711635,-0.122132,1.1752955,0.5234435,-0.016281,1.2465155,0.7431535,-0.1003199999999999,0.8152855,1.0328635,-0.192232,1.2325755,1.0058635,-0.198482,0.9224645,0.0050204999999999,-0.004043,1.0775355,-0.0050205,0.004043,0.8716655,-0.4426765,-0.091554,1.1365755,-0.4491965,-0.072005,0.8241255000000001,-0.9223365,-0.029779,1.1631055,-0.9325865,-0.035064
59,1.0293495,0.7048125000000001,-0.0126034999999999,0.8776745,0.5425725,-0.0420995,0.8082045,0.7695525000000001,-0.1319135,1.1745845,0.5244625,-0.0215724999999999,1.2464745,0.7431525,-0.1098615,0.8156545,1.0286324999999998,-0.2013835,1.2315545,1.0062325,-0.2083835,0.9224045,0.0048065,-0.0048015,1.0775955,-0.0048065,0.0048015,0.8708345,-0.4375475,-0.1020735,1.1388945,-0.4457275,-0.0802365,0.8245745,-0.9135775,-0.0361925,1.1637545,-0.9244075,-0.0401935
60,1.029481,0.700688,-0.0204684999999999,0.877707,0.537678,-0.0492914999999999,0.807947,0.767928,-0.1413385,1.174017,0.5250480000000001,-0.0262994999999999,1.246667,0.743448,-0.1191494999999999,0.816187,1.024538,-0.2102185,1.230687,1.009238,-0.2175785,0.9223270000000001,0.004468,-0.0053084999999999,1.0776729999999999,-0.004468,0.0053085,0.869867,-0.432812,-0.1114014999999999,1.141407,-0.441652,-0.0880025,0.825457,-0.903852,-0.0418215,1.164357,-0.915362,-0.0447054999999999
61,1.0295315,0.696525,-0.028386,0.8778435,0.530525,-0.05738,0.8077135,0.7666649999999999,-0.150354,1.1732535,0.523295,-0.031392,1.2469735,0.7445649999999999,-0.128733,0.8167835,1.021725,-0.218694,1.2297535,1.002525,-0.226354,0.9221975,0.0043839999999999,-0.0057199999999999,1.0778025,-0.004384,0.00572,0.8688035000000001,-0.426755,-0.120144,1.1440535,-0.436735,-0.095725,0.8262435000000001,-0.8929750000000001,-0.04707,1.1647935,-0.904505,-0.047938
62,1.029751,0.6930265,-0.0363925,0.878072,0.5244265,-0.0649845,0.807702,0.7645165,-0.1595685,1.172752,0.5212865,-0.0366795,1.247432,0.7457265,-0.1381585,0.817792,1.0182464999999998,-0.2264284999999999,1.229002,0.9952765,-0.2346085,0.922017,0.0042515,-0.0059425,1.077983,-0.0042515,0.0059424999999999,0.8679720000000001,-0.4204335,-0.1275965,1.146242,-0.4302835,-0.1018495,0.827242,-0.8827834999999999,-0.0517055,1.165302,-0.8948535,-0.0510935
63,1.03,0.6882485,-0.044131,0.878405,0.5208985,-0.070926,0.8079149999999999,0.7624585,-0.168706,1.1725349999999999,0.5197984999999999,-0.041358,1.247905,0.7396385,-0.146946,0.819135,1.0148285,-0.233376,1.228335,0.9885385,-0.242186,0.921705,0.0040665,-0.006057,1.078295,-0.0040665,0.006057,0.867345,-0.4142515,-0.134506,1.148525,-0.4233215,-0.107526,0.828605,-0.8728215,-0.055592,1.165945,-0.8841715,-0.053158
64,1.0302695,0.6837225,-0.0513654999999999,0.8787575,0.5182425,-0.0763595,0.8080975,0.7610425000000001,-0.1772825,1.1724975,0.5188425,-0.0456294999999999,1.2484675,0.7345525,-0.1547625,0.8207375,1.0126625,-0.2397424999999999,1.2277875,0.9818225,-0.2495425,0.9213505,0.0039315,-0.0060744999999999,1.0786495,-0.0039315,0.0060745,0.8666775,-0.4074175,-0.1413955,1.1507875,-0.4157075,-0.1128815,0.8295375,-0.8626975,-0.0584914999999999,1.1666975,-0.8743274999999999,-0.0553674999999999
65,1.030793,0.6813389999999999,-0.0586664999999999,0.879667,0.5142789999999999,-0.0828454999999999,0.808787,0.760229,-0.1856034999999999,1.172917,0.515319,-0.0513575,1.249547,0.7318389999999999,-0.1625835,0.822917,1.013239,-0.2454535,1.227487,0.977459,-0.2573035,0.9209680000000001,0.0038319999999999,-0.0061044999999999,1.079032,-0.003832,0.0061045,0.8666070000000001,-0.397111,-0.1478335,1.153937,-0.405391,-0.1190825,0.8308070000000001,-0.850611,-0.0607655,1.167957,-0.8616809999999999,-0.0578665
66,1.031411,0.677526,-0.065527,0.880266,0.511186,-0.088448,0.810106,0.7558159999999999,-0.193554,1.173366,0.511386,-0.056825,1.250616,0.7287359999999999,-0.170314,0.825196,1.014616,-0.250994,1.226966,0.972526,-0.264564,0.920628,0.0038859999999999,-0.0060279999999999,1.079372,-0.003886,0.0060279999999999,0.866796,-0.388064,-0.1536239999999999,1.156986,-0.395334,-0.124989,0.8326160000000001,-0.839464,-0.062809,1.169136,-0.849104,-0.059461
67,1.0323039999999999,0.675406,-0.0724585,0.881111,0.5076459999999999,-0.0946434999999999,0.811651,0.753996,-0.2011755,1.173861,0.507176,-0.0628645,1.251851,0.724356,-0.1785655,0.826741,1.017456,-0.2574155,1.2254209999999999,0.968386,-0.2711255,0.92014,0.003983,-0.0059034999999999,1.07986,-0.003983,0.0059034999999999,0.8674310000000001,-0.377104,-0.1586255,1.160171,-0.383104,-0.1311005,0.8345910000000001,-0.826694,-0.0648025,1.1704709999999998,-0.834844,-0.0611504999999999
68,1.0333195,0.6730769999999999,-0.0789595,0.8822045000000001,0.504347,-0.1002095,0.8132545,0.750377,-0.2086275,1.1748845,0.504177,-0.0684175,1.2532445,0.720227,-0.1862075,0.8290045,1.017877,-0.2638875,1.2238745,0.963707,-0.2798375,0.9196265,0.004046,-0.0058775,1.0803735,-0.004046,0.0058775,0.8682045,-0.366123,-0.1632375,1.1632545,-0.370843,-0.1366465,0.8364945,-0.8141830000000001,-0.0663505,1.1717445,-0.820573,-0.0625355
69,1.034633,0.675581,-0.0909445,0.883736,0.503711,-0.1118204999999999,0.815636,0.751891,-0.2213175,1.176006,0.501131,-0.0808474999999999,1.254726,0.7202609999999999,-0.1996475,0.831816,1.022281,-0.2750775,1.223126,0.963371,-0.2944775,0.918563,0.00414,-0.0057254999999999,1.081437,-0.0041399999999999,0.0057255,0.869346,-0.346259,-0.1777774999999999,1.166916,-0.350349,-0.1520475,0.839206,-0.793729,-0.0729554999999999,1.173826,-0.798079,-0.0693345
70,1.0371785,0.6778885,-0.102931,0.8865295,0.5056185,-0.122311,0.8190795000000001,0.7526285,-0.2347759999999999,1.1786395,0.5002185,-0.092839,1.2574595,0.7191885,-0.213766,0.8364495000000001,1.0212785,-0.291106,1.2236995,0.9697285,-0.309946,0.9178275,0.0043415,-0.005754,1.0821725,-0.0043414999999999,0.0057539999999999,0.8718795000000001,-0.3283014999999999,-0.192076,1.1713095,-0.3315015,-0.1672259999999999,0.8431895,-0.7745215,-0.079681,1.1772095,-0.7767815,-0.076529
71,1.0400935,0.677925,-0.114741,0.8897675,0.507985,-0.133557,0.8229575,0.754345,-0.248382,1.1815574999999998,0.498895,-0.105174,1.2604575,0.7174250000000001,-0.228432,0.8411875,1.021665,-0.3076419999999999,1.2246275,0.976065,-0.326462,0.9174565000000001,0.005065,-0.005889,1.0825434999999999,-0.005065,0.0058889999999999,0.8750775000000001,-0.309595,-0.207282,1.1760074999999999,-0.311745,-0.183062,0.8478275,-0.754195,-0.087325,1.1811475,-0.755355,-0.084376
72,1.0427629999999999,0.6780849999999999,-0.127706,0.892727,0.508125,-0.145839,0.826777,0.754695,-0.261897,1.184287,0.495715,-0.118083,1.2633670000000001,0.721065,-0.243947,0.8457870000000001,1.019275,-0.324827,1.225597,0.979925,-0.343987,0.917185,0.0057149999999999,-0.006009,1.082815,-0.0057149999999999,0.006009,0.878247,-0.2916649999999999,-0.222227,1.180587,-0.2929049999999999,-0.198887,0.852397,-0.734695,-0.095042,1.184837,-0.734705,-0.092088
73,1.0449615,0.6790750000000001,-0.140661,0.8953215,0.507225,-0.158385,0.8301915,0.7544249999999999,-0.276351,1.1864715,0.490345,-0.131572,1.2658915,0.7180249999999999,-0.259741,0.8499415,1.015695,-0.342331,1.2259815,0.978235,-0.3608909999999999,0.9173305,0.006145,-0.006022,1.0826695,-0.0061449999999999,0.006022,0.8813115,-0.2735849999999999,-0.236451,1.1847415,-0.2745249999999999,-0.214451,0.8567615,-0.7158249999999999,-0.103049,1.1881315,-0.7148950000000001,-0.099881
74,1.0470315,0.67777,-0.1535075,0.8979615,0.50766,-0.1698664999999999,0.8334215,0.75353,-0.2911985,1.1883515,0.48742,-0.1438535,1.2680715,0.7134,-0.2750985,0.8539215,1.00777,-0.3606985,1.2264915,0.97467,-0.3776885,0.9178815,0.00645,-0.0058224999999999,1.0821185,-0.0064499999999999,0.0058225,0.8841815000000001,-0.25816,-0.2506585,1.1885715000000001,-0.2592,-0.2287185,0.8608215,-0.69965,-0.1110324999999999,1.1911114999999999,-0.69799,-0.1079285
75,1.048876,0.678975,-0.1669815,0.9000450000000001,0.506815,-0.1824085,0.836505,0.7552350000000001,-0.3061764999999999,1.189755,0.484815,-0.1569944999999999,1.270135,0.7103250000000001,-0.2912464999999999,0.857595,1.005015,-0.3789465,1.227205,0.972895,-0.3952865,0.918435,0.007285,-0.0057834999999999,1.0815649999999999,-0.0072849999999999,0.0057835,0.887095,-0.240495,-0.2647465,1.192075,-0.241925,-0.2430065,0.864865,-0.6814149999999999,-0.1187474999999999,1.193875,-0.678985,-0.1162894999999999
76,1.050364,0.68041,-0.182182,0.90173,0.50771,-0.196425,0.8392999999999999,0.7560100000000001,-0.32367,1.19093,0.48322,-0.17173,1.27202,0.7095,-0.30916,0.8609100000000001,1.00119,-0.39928,1.22907,0.97131,-0.41568,0.91913,0.0073799999999999,-0.00546,1.08087,-0.0073799999999999,0.0054599999999999,0.88981,-0.2233399999999999,-0.28048,1.19502,-0.22492,-0.2587,0.8687199999999999,-0.66405,-0.129071,1.19641,-0.66031,-0.12622
77,1.0516695,0.68141,-0.197906,0.9033065,0.5087200000000001,-0.210392,0.8415965000000001,0.75786,-0.341855,1.1919265,0.48141,-0.1863349999999999,1.2737065,0.7070799999999999,-0.328275,0.8639765,0.99888,-0.420535,1.2309265,0.96688,-0.436915,0.9196765,0.0074999999999999,-0.0051749999999999,1.0803235,-0.0075,0.0051749999999999,0.8925865,-0.2072,-0.296135,1.1973065,-0.20838,-0.274355,0.8721465000000002,-0.64653,-0.1394959999999999,1.1987965,-0.6422300000000001,-0.136068
78,1.0526585,0.67719,-0.208665,0.9045575,0.50546,-0.219692,0.8436975,0.75314,-0.354935,1.1921875,0.47761,-0.195735,1.2753975,0.69913,-0.342445,0.8663375,0.99041,-0.437785,1.2320175,0.95748,-0.452925,0.9208675,0.0077299999999999,-0.005065,1.0791325,-0.00773,0.005065,0.8947775,-0.19982,-0.301945,1.1986575,-0.20046,-0.280005,0.8747975,-0.63793,-0.145029,1.2004575,-0.63299,-0.140911
79,1.05294,0.67266,-0.219436,0.9049740000000001,0.50132,-0.229325,0.8445440000000001,0.74644,-0.3677249999999999,1.1915339999999999,0.47314,-0.20512,1.276234,0.69139,-0.356475,0.867494,0.98826,-0.451125,1.232224,0.94827,-0.4692849999999999,0.921404,0.00766,-0.004855,1.078596,-0.00766,0.0048549999999999,0.896044,-0.1913099999999999,-0.307575,1.199294,-0.19122,-0.285325,0.876434,-0.62848,-0.150221,1.2011939999999999,-0.62291,-0.145385
80,1.0527365,0.66909,-0.230848,0.9047785000000002,0.49529,-0.239005,0.8448485,0.73874,-0.380955,1.1905585,0.46708,-0.214476,1.2763385,0.68204,-0.370805,0.8683784999999999,0.98377,-0.465505,1.2321885,0.93719,-0.487985,0.9216185000000001,0.00716,-0.0046749999999999,1.0783814999999999,-0.00716,0.004675,0.8967985,-0.1821299999999999,-0.312825,1.1995685,-0.1812099999999999,-0.290485,0.8772985000000001,-0.61808,-0.154294,1.2013785,-0.61206,-0.148803
81,1.0523835,0.6659999999999999,-0.241025,0.9041785,0.49243,-0.247505,0.8441885,0.73165,-0.393955,1.1892585,0.46313,-0.223156,1.2760984999999998,0.67382,-0.385185,0.8689985,0.97839,-0.479895,1.2318185,0.92764,-0.505745,0.9217885000000001,0.00679,-0.004575,1.0782114999999999,-0.00679,0.0045749999999999,0.8975785000000001,-0.1741599999999999,-0.317975,1.1999485,-0.1731099999999999,-0.295095,0.8776485,-0.60747,-0.158006,1.2011285,-0.60092,-0.151857
82,1.0519015,0.663095,-0.251155,0.9032225,0.485795,-0.256365,0.8434225,0.723785,-0.405605,1.1878024999999999,0.458995,-0.232157,1.2754125,0.670865,-0.399175,0.8696325,0.972655,-0.494195,1.2312925,0.923105,-0.523695,0.9220025000000001,0.006475,-0.004535,1.0779975,-0.006475,0.0045349999999999,0.8979825,-0.165115,-0.323475,1.2000025,-0.163445,-0.300045,0.8781025000000001,-0.5970249999999999,-0.161667,1.2005025,-0.588495,-0.154485
83,1.0511255,0.660255,-0.2609599999999999,0.9019525,0.479595,-0.26453,0.8422025000000001,0.716445,-0.41672,1.1859024999999999,0.455545,-0.2406559999999999,1.2747025,0.667665,-0.41351,0.8693825,0.971275,-0.50701,1.2303325,0.918635,-0.54118,0.9221825,0.005925,-0.0045299999999999,1.0778175,-0.0059249999999999,0.00453,0.8978225000000001,-0.155605,-0.32885,1.1994524999999998,-0.1529849999999999,-0.30469,0.8777425,-0.5859249999999999,-0.165048,1.1996625,-0.576125,-0.1571
84,1.0507975,0.656385,-0.26995,0.9016635,0.475005,-0.2712,0.8412135000000001,0.709605,-0.42748,1.1846835,0.452955,-0.24796,1.2742935,0.662845,-0.42678,0.8691935,0.967775,-0.51988,1.2306635,0.912475,-0.55795,0.9226435,0.0048549999999999,-0.0045499999999999,1.0773565,-0.0048549999999999,0.0045499999999999,0.8979435,-0.147405,-0.33389,1.1991735000000001,-0.143905,-0.30864,0.8772335,-0.574425,-0.167052,1.1991135,-0.565015,-0.159068
85,1.0507215,0.6523249999999999,-0.276985,0.9016535000000001,0.468255,-0.276135,0.8405735,0.701805,-0.435675,1.1838535000000001,0.4476849999999999,-0.254065,1.2740434999999999,0.656965,-0.437235,0.8691635,0.963395,-0.5307649999999999,1.2310435,0.905715,-0.571285,0.9228835,0.0046149999999999,-0.0045349999999999,1.0771165,-0.004615,0.004535,0.8982935000000001,-0.139245,-0.337505,1.1998435,-0.135165,-0.311125,0.8774035,-0.563015,-0.167886,1.1987634999999999,-0.553895,-0.159088
86,1.0504925,0.648395,-0.28387,0.9017185,0.4616449999999999,-0.28168,0.8401485000000001,0.694055,-0.44358,1.1831785,0.4424749999999999,-0.2603499999999999,1.2738985,0.650125,-0.44798,0.8694185,0.953805,-0.54202,1.2313485,0.9001549999999999,-0.58205,0.9230785,0.0044949999999999,-0.00453,1.0769215,-0.004495,0.00453,0.8989685000000001,-0.131165,-0.34132,1.2009085,-0.126315,-0.31379,0.8775485,-0.551345,-0.168444,1.1985885,-0.542195,-0.159633
87,1.05045,0.6450199999999999,-0.29056,0.901594,0.4571,-0.28664,0.839774,0.68729,-0.45183,1.183064,0.438842,-0.2656,1.273564,0.6445000000000001,-0.45739,0.869684,0.94593,-0.5520700000000001,1.231844,0.8912,-0.59432,0.922864,0.0043199999999999,-0.0045399999999999,1.077136,-0.0043199999999999,0.00454,0.899644,-0.1229,-0.34517,1.202034,-0.1170299999999999,-0.31666,0.877084,-0.53935,-0.169123,1.198234,-0.53013,-0.160053
88,1.050384,0.641185,-0.29638,0.901558,0.453103,-0.29108,0.839808,0.683055,-0.45974,1.182958,0.435637,-0.27051,1.273248,0.6388050000000001,-0.46552,0.869988,0.937955,-0.56134,1.232788,0.883165,-0.60495,0.922638,0.004105,-0.00492,1.077362,-0.004105,0.00492,0.900518,-0.115105,-0.34952,1.203848,-0.107955,-0.31961,0.876728,-0.527285,-0.168743,1.197898,-0.5180450000000001,-0.16009
89,1.0502685,0.6383099999999999,-0.30075,0.9015535000000001,0.4507489999999999,-0.29445,0.8397935,0.67948,-0.46626,1.1828035,0.4332239999999999,-0.27397,1.2732235,0.63393,-0.47181,0.8701435000000001,0.93098,-0.56852,1.2327635,0.8775499999999999,-0.61242,0.9223835,0.0041499999999999,-0.00519,1.0776165,-0.00415,0.00519,0.9014735,-0.1079,-0.35312,1.2060535,-0.09987,-0.32199,0.8765635,-0.51687,-0.169108,1.1973535,-0.50787,-0.160207
90,1.0514139999999998,0.6349549999999999,-0.30505,0.90234,0.447163,-0.29752,0.83984,0.676105,-0.47186,1.18285,0.430155,-0.27712,1.27324,0.629515,-0.47648,0.87037,0.924315,-0.57525,1.23314,0.871615,-0.61978,0.92204,0.004145,-0.0055099999999999,1.07796,-0.004145,0.00551,0.90282,-0.1003149999999999,-0.3564,1.20857,-0.091445,-0.32377,0.87647,-0.506685,-0.169071,1.19692,-0.497335,-0.159584
91,1.0523695,0.6314,-0.30824,0.9028195,0.447533,-0.2994,0.8399095,0.6738,-0.47748,1.1830195,0.428551,-0.27877,1.2732495,0.62521,-0.48104,0.8704795,0.91861,-0.58168,1.2339295,0.86607,-0.62678,0.9216595,0.0041999999999999,-0.00586,1.0783405,-0.0041999999999999,0.00586,0.9045995,-0.0932799999999999,-0.35906,1.2113495,-0.0837899999999999,-0.32499,0.8767895,-0.4977299999999999,-0.169266,1.1965095,-0.4879699999999999,-0.158632
92,1.053521,0.628475,-0.310765,0.9031650000000001,0.447278,-0.301505,0.840175,0.670845,-0.483105,1.183525,0.425361,-0.280315,1.273665,0.620045,-0.484685,0.870735,0.912605,-0.588485,1.235065,0.859575,-0.6331150000000001,0.921435,0.004605,-0.006145,1.078565,-0.0046049999999999,0.0061449999999999,0.906735,-0.0867749999999999,-0.361265,1.2142249999999999,-0.0767849999999999,-0.325605,0.8784150000000001,-0.491695,-0.169981,1.196195,-0.479425,-0.157705
93,1.0546425,0.62596,-0.31298,0.9040345,0.4461799999999999,-0.30412,0.8405445000000001,0.6675899999999999,-0.48825,1.1840145,0.42161,-0.28193,1.2738844999999999,0.61479,-0.48782,0.8711945,0.90707,-0.5952200000000001,1.2363445,0.85056,-0.63954,0.9213345,0.0050499999999999,-0.00656,1.0786655,-0.0050499999999999,0.00656,0.9094045,-0.08036,-0.36344,1.2170645,-0.06961,-0.3258,0.8801145000000001,-0.48577,-0.170655,1.1957545,-0.4710500000000001,-0.156893
94,1.0559465,0.6229199999999999,-0.31509,0.9056685000000001,0.4456799999999999,-0.30664,0.8411085,0.66442,-0.49376,1.1845585,0.4201959999999999,-0.2826,1.2746085,0.61027,-0.49145,0.8721285,0.90273,-0.60143,1.2379485,0.8424499999999999,-0.64636,0.9212685,0.0050799999999999,-0.00697,1.0787315,-0.00508,0.00697,0.9126385,-0.07495,-0.36557,1.2199085,-0.063,-0.32549,0.8817885,-0.48002,-0.171653,1.1956385,-0.46414,-0.156701
95,1.057272,0.619895,-0.31689,0.9072439999999999,0.4449309999999999,-0.30933,0.841774,0.661215,-0.49922,1.185204,0.4180629999999999,-0.28389,1.274874,0.606985,-0.49406,0.873204,0.903895,-0.60715,1.239484,0.836025,-0.65313,0.921174,0.0052649999999999,-0.0073999999999999,1.078826,-0.005265,0.0074,0.915954,-0.069025,-0.36776,1.222764,-0.056215,-0.32503,0.883464,-0.474215,-0.173157,1.195404,-0.456805,-0.156416
96,1.05859,0.617145,-0.318805,0.909041,0.444557,-0.311675,0.842841,0.6585650000000001,-0.504265,1.1859709999999999,0.41711,-0.285155,1.275531,0.6036250000000001,-0.4976549999999999,0.874371,0.904465,-0.613405,1.241361,0.8311850000000001,-0.658565,0.921101,0.005365,-0.007955,1.078899,-0.0053649999999999,0.0079549999999999,0.919481,-0.0620449999999999,-0.369915,1.225631,-0.0483949999999999,-0.324235,0.8852810000000001,-0.4676549999999999,-0.175121,1.195561,-0.4486749999999999,-0.156585
97,1.060133,0.61563,-0.321435,0.910891,0.443664,-0.313995,0.844101,0.6551899999999999,-0.509215,1.186861,0.41592,-0.286695,1.276481,0.5999099999999999,-0.501495,0.875791,0.90406,-0.620055,1.243401,0.82542,-0.664385,0.921031,0.0054199999999999,-0.0084449999999999,1.078969,-0.0054199999999999,0.008445,0.923291,-0.05562,-0.371885,1.228411,-0.04113,-0.323615,0.8872610000000001,-0.4616699999999999,-0.1775919999999999,1.195871,-0.44146,-0.1571739999999999
98,1.0615249999999998,0.6132500000000001,-0.32387,0.912661,0.44041,-0.31603,0.8458210000000002,0.65,-0.51383,1.187791,0.41569,-0.28844,1.278021,0.59618,-0.5060100000000001,0.877591,0.90158,-0.62622,1.245571,0.81816,-0.6704000000000001,0.9209309999999999,0.0049899999999999,-0.00879,1.079069,-0.0049899999999999,0.0087899999999999,0.927041,-0.04956,-0.37354,1.230911,-0.0344099999999999,-0.32316,0.889281,-0.4565899999999999,-0.180478,1.195951,-0.4342899999999999,-0.157775
99,1.0620035,0.6109899999999999,-0.325575,0.9145635,0.437562,-0.318145,0.8475334999999999,0.64467,-0.5185649999999999,1.1886035,0.4152889999999999,-0.290375,1.2800435000000001,0.59055,-0.5107550000000001,0.8796735,0.89514,-0.636125,1.2473335,0.8103499999999999,-0.6763950000000001,0.9208335,0.00456,-0.008825,1.0791665,-0.00456,0.008825,0.9304465,-0.0437599999999999,-0.374595,1.2329735,-0.02843,-0.3230349999999999,0.8912535,-0.45174,-0.182825,1.1960735,-0.42865,-0.159355
100,1.062373,0.607525,-0.32747,0.916871,0.434249,-0.32021,0.849251,0.638455,-0.52357,1.189461,0.414974,-0.29249,1.2821310000000001,0.5849150000000001,-0.5154000000000001,0.881721,0.887765,-0.64528,1.249191,0.801615,-0.68314,0.920701,0.004135,-0.00898,1.079299,-0.004135,0.0089799999999999,0.933195,-0.0382749999999999,-0.37523,1.234611,-0.022845,-0.32261,0.892781,-0.445245,-0.183863,1.196091,-0.423705,-0.161202
101,1.0627985,0.60354,-0.32964,0.9190915,0.4307999999999999,-0.32206,0.8508715,0.6318,-0.5286,1.1902715,0.4151559999999999,-0.29501,1.2842315,0.5793699999999999,-0.52066,0.8837315,0.87952,-0.65447,1.2514315,0.7923899999999999,-0.69058,0.9205515,0.0035899999999999,-0.0093599999999999,1.0794485,-0.00359,0.00936,0.9347515,-0.03263,-0.37576,1.2359415,-0.0173,-0.32182,0.8934115,-0.43889,-0.184991,1.1962915,-0.41864,-0.163049
102,1.0629125,0.5991299999999999,-0.3321349999999999,0.9207505,0.427628,-0.323935,0.8525205000000001,0.62466,-0.534375,1.1909905,0.4151269999999999,-0.297645,1.2861004999999999,0.573203,-0.526815,0.8856205,0.8700600000000001,-0.664175,1.2534305,0.78421,-0.698645,0.9204005,0.00301,-0.0100549999999999,1.0795995,-0.00301,0.010055,0.9350205,-0.0269499999999999,-0.3764349999999999,1.2365005,-0.01199,-0.320825,0.8938005000000001,-0.4330799999999999,-0.185575,1.1965505,-0.4139299999999999,-0.165233
103,1.0630815,0.5950449999999999,-0.33493,0.9223365,0.4248949999999999,-0.3260699999999999,0.8540965,0.617285,-0.5407299999999999,1.1916965,0.414864,-0.3006999999999999,1.2879065,0.566294,-0.53315,0.8876365000000002,0.859245,-0.6749799999999999,1.2554165,0.774075,-0.70776,0.9203665,0.0027049999999999,-0.01081,1.0796335,-0.002705,0.01081,0.9353565000000001,-0.021125,-0.3775699999999999,1.2367365,-0.006725,-0.31982,0.8941665000000001,-0.427455,-0.187359,1.1967165,-0.408535,-0.1665319999999999
104,1.063239,0.590229,-0.33796,0.923675,0.422838,-0.32799,0.855445,0.609645,-0.547,1.192175,0.415692,-0.3035,1.289125,0.558922,-0.5364,0.889265,0.8474349999999999,-0.68643,1.257365,0.762965,-0.71635,0.920315,0.0021749999999999,-0.01152,1.079685,-0.0021749999999999,0.01152,0.9355950000000001,-0.015545,-0.37894,1.236875,-0.0016749999999999,-0.31908,0.894375,-0.422135,-0.189486,1.196895,-0.403965,-0.168002
105,1.0631465,0.585529,-0.34189,0.9243285,0.418892,-0.33105,0.8562784999999999,0.601305,-0.55429,1.1923784999999998,0.413338,-0.30703,1.2899785,0.5515599999999999,-0.53984,0.8905185,0.835235,-0.69961,1.2580985,0.7533449999999999,-0.72541,0.9202985,0.0019049999999999,-0.01203,1.0797015,-0.0019049999999999,0.0120299999999999,0.9356155,-0.0103849999999999,-0.38015,1.2368884999999998,0.003025,-0.3186,0.8943885,-0.416715,-0.191449,1.1970185,-0.399255,-0.170253
106,1.0630765,0.580636,-0.34561,0.9248455000000001,0.415699,-0.3343,0.8567555,0.593566,-0.56148,1.1926055,0.411571,-0.31064,1.2906955,0.544628,-0.54315,0.8912755,0.82394,-0.71314,1.2588955,0.74387,-0.7346400000000001,0.9202555,0.00175,-0.01238,1.0797444999999999,-0.00175,0.01238,0.9345975,-0.00463,-0.3808,1.2368855,0.00833,-0.3183399999999999,0.8944555,-0.41068,-0.193217,1.1971955,-0.39479,-0.172617
107,1.062824,0.5767410000000001,-0.34963,0.9252270000000001,0.413355,-0.33753,0.8570869999999999,0.586595,-0.56847,1.192777,0.409594,-0.31417,1.290847,0.534218,-0.5459700000000001,0.8919270000000001,0.81311,-0.72706,1.259927,0.73196,-0.7430700000000001,0.920227,0.0017099999999999,-0.01267,1.079773,-0.0017099999999999,0.0126699999999999,0.9323740000000001,0.00092,-0.38125,1.236567,0.0136,-0.3184,0.894557,-0.40491,-0.196412,1.197317,-0.3899399999999999,-0.175117
108,1.062439,0.573501,-0.353515,0.925507,0.410755,-0.340535,0.857307,0.579828,-0.574925,1.192797,0.407525,-0.317425,1.2909069999999998,0.526143,-0.548875,0.892287,0.806125,-0.736515,1.260777,0.721395,-0.750725,0.920147,0.001725,-0.012805,1.079853,-0.0017249999999999,0.0128049999999999,0.9290470000000001,0.0065049999999999,-0.381415,1.235987,0.019245,-0.318905,0.894597,-0.399215,-0.198877,1.197347,-0.3845649999999999,-0.177582
109,1.061871,0.57128,-0.35736,0.9255790000000002,0.4082449999999999,-0.34335,0.8574390000000001,0.573484,-0.58081,1.192539,0.405165,-0.32049,1.290909,0.518533,-0.5518400000000001,0.892599,0.799805,-0.7462300000000001,1.261579,0.711835,-0.75732,0.920009,0.0017249999999999,-0.01278,1.079991,-0.0017249999999999,0.0127799999999999,0.924709,0.011965,-0.38142,1.235159,0.0247049999999999,-0.31976,0.894869,-0.393355,-0.201069,1.1967889999999999,-0.379575,-0.179738
110,1.0611695,0.5698380000000001,-0.361075,0.9255485,0.405875,-0.346055,0.8569785,0.5679230000000001,-0.585975,1.1919385,0.402515,-0.322955,1.2908285,0.511708,-0.554735,0.8924385000000001,0.7941150000000001,-0.7552350000000001,1.2621585,0.703535,-0.762955,0.9198385,0.001805,-0.012705,1.0801615,-0.0018049999999999,0.0127049999999999,0.9196485,0.017375,-0.381315,1.2342885,0.030085,-0.320815,0.8946785,-0.3880849999999999,-0.203978,1.1960385,-0.3743849999999999,-0.181511
111,1.060282,0.568836,-0.364415,0.925314,0.40397,-0.348265,0.856104,0.563442,-0.590155,1.190964,0.40036,-0.325215,1.290104,0.506281,-0.557095,0.8914240000000001,0.7895300000000001,-0.762805,1.262604,0.69735,-0.7670250000000001,0.919644,0.00204,-0.0124549999999999,1.080356,-0.00204,0.0124549999999999,0.914144,0.02302,-0.381065,1.233374,0.0357699999999999,-0.3221549999999999,0.893774,-0.38305,-0.206415,1.195164,-0.3687,-0.182284
112,1.059125,0.5680200000000001,-0.36744,0.924403,0.401745,-0.35043,0.854543,0.5593910000000001,-0.5932999999999999,1.189613,0.397745,-0.3274,1.289093,0.5019520000000001,-0.5591200000000001,0.8899430000000002,0.785675,-0.76911,1.262843,0.6930850000000001,-0.77043,0.919453,0.002325,-0.0120599999999999,1.080547,-0.0023249999999999,0.0120599999999999,0.9083130000000001,0.0286050000000001,-0.3807899999999999,1.232163,0.041385,-0.32364,0.8928530000000001,-0.3750449999999999,-0.205657,1.194003,-0.3641149999999999,-0.183986
113,1.057915,0.5682740000000001,-0.370235,0.923558,0.39933,-0.352425,0.852658,0.5560080000000001,-0.5956250000000001,1.1881680000000001,0.39465,-0.329425,1.288028,0.498819,-0.5601750000000001,0.8880580000000001,0.7825,-0.773715,1.2629380000000001,0.68986,-0.773475,0.919298,0.0026899999999999,-0.011575,1.080702,-0.0026899999999999,0.0115749999999999,0.9030480000000001,0.0340899999999999,-0.380455,1.230918,0.04686,-0.325195,0.8915480000000001,-0.36873,-0.206337,1.1928779999999999,-0.3596,-0.185512
114,1.0568745,0.5686889999999999,-0.371695,0.9223785,0.3985649999999999,-0.353515,0.8507085,0.5532609999999999,-0.596765,1.1866585,0.3940649999999999,-0.330285,1.2870085,0.4957289999999999,-0.559185,0.8857285,0.779565,-0.776135,1.2631585,0.6873849999999999,-0.775425,0.9191485000000001,0.0028749999999999,-0.0111149999999999,1.0808514999999999,-0.002875,0.011115,0.8983985,0.0383949999999999,-0.3801949999999999,1.2299485,0.0510549999999999,-0.326285,0.8899885,-0.3628350000000001,-0.2040679999999999,1.1919485,-0.3562750000000001,-0.186825
115,1.0562515,0.5692039999999999,-0.37266,0.9212545,0.3974949999999999,-0.35431,0.8487745000000001,0.55086,-0.59775,1.1852145,0.3929349999999999,-0.33081,1.2861245000000001,0.4928769999999999,-0.55745,0.8831145,0.7766949999999999,-0.77738,1.2634645,0.684925,-0.77687,0.9189645,0.002985,-0.0107599999999999,1.0810355,-0.002985,0.01076,0.8943544999999999,0.0420549999999999,-0.38014,1.2290745,0.0546049999999999,-0.3272199999999999,0.8888845,-0.360035,-0.2052099999999999,1.1911645,-0.353465,-0.1877509999999999
116,1.05558,0.569905,-0.37342,0.920156,0.397645,-0.35466,0.847116,0.549671,-0.59848,1.183986,0.3925850000000001,-0.33126,1.285666,0.495023,-0.5576000000000001,0.880536,0.775655,-0.77823,1.263366,0.6865450000000001,-0.7776500000000001,0.918836,0.0031849999999999,-0.01041,1.081164,-0.0031849999999999,0.0104099999999999,0.8911060000000001,0.0457549999999999,-0.38015,1.228306,0.058215,-0.32796,0.8873860000000001,-0.354665,-0.202761,1.190406,-0.350595,-0.188356
117,1.0551854999999999,0.570899,-0.374095,0.9194075,0.398505,-0.354585,0.8456175,0.5498480000000001,-0.599205,1.1830775,0.3928750000000001,-0.331535,1.2853275,0.4972500000000001,-0.557575,0.8782075000000001,0.776155,-0.778995,1.2633975,0.688405,-0.7775850000000001,0.9187375,0.003455,-0.010075,1.0812625,-0.0034549999999999,0.010075,0.8886375000000001,0.049015,-0.380185,1.2276975,0.061495,-0.328925,0.8861475000000001,-0.3519749999999999,-0.203641,1.1895475,-0.348035,-0.187651
118,1.0549665,0.572196,-0.374665,0.9188185000000001,0.399765,-0.3541849999999999,0.8444785,0.551335,-0.5993550000000001,1.1824985,0.393725,-0.331615,1.2850785,0.499958,-0.557445,0.8762385,0.778205,-0.779645,1.2634685,0.691075,-0.777015,0.9187185,0.0036049999999999,-0.0098449999999999,1.0812815,-0.0036049999999999,0.0098449999999999,0.8868385,0.051985,-0.380255,1.2271584999999998,0.064495,-0.329885,0.8852485,-0.3493849999999999,-0.203947,1.1891285,-0.345145,-0.18737
119,1.054854,0.573526,-0.374665,0.918382,0.401735,-0.353585,0.843782,0.554062,-0.599275,1.182282,0.396025,-0.3314249999999999,1.285182,0.502688,-0.557985,0.874742,0.780935,-0.779575,1.263872,0.693805,-0.777555,0.918822,0.003635,-0.009665,1.081178,-0.0036349999999999,0.009665,0.885652,0.054315,-0.3804349999999999,1.226752,0.066955,-0.330705,0.8849520000000001,-0.343935,-0.200202,1.189022,-0.343985,-0.18743
120,1.054749,0.5747009999999999,-0.3740949999999999,0.91799,0.4029099999999999,-0.3527249999999999,0.8433200000000001,0.555237,-0.598555,1.18218,0.3971999999999999,-0.330885,1.28545,0.503863,-0.557845,0.87367,0.78211,-0.778605,1.26458,0.6949799999999999,-0.7778349999999999,0.9189,0.0036199999999999,-0.009635,1.0811,-0.00362,0.009635,0.88483,0.0550899999999999,-0.380685,1.22639,0.0680699999999999,-0.3313049999999999,0.8853700000000001,-0.34276,-0.199282,1.18897,-0.34445,-0.188085
121,1.054764,0.5761859999999999,-0.372825,0.917868,0.4043949999999999,-0.351695,0.843178,0.5567219999999999,-0.597075,1.182058,0.3986849999999999,-0.329965,1.285868,0.5053479999999999,-0.557105,0.872928,0.7835949999999999,-0.776545,1.265698,0.6964649999999999,-0.776915,0.9189080000000001,0.0035149999999999,-0.0097949999999999,1.081092,-0.003515,0.0097949999999999,0.884258,0.0562049999999999,-0.3810449999999999,1.2261179999999998,0.0692949999999998,-0.332215,0.885388,-0.345335,-0.200601,1.189198,-0.3441750000000001,-0.188679
122,1.0550915,0.5761859999999999,-0.37053,0.9178295,0.4043949999999999,-0.35004,0.8426795,0.5567219999999999,-0.5947,1.1819495,0.3986849999999999,-0.32858,1.2868595,0.5075479999999999,-0.55602,0.8726095,0.7843749999999999,-0.7733300000000001,1.2675695,0.6976849999999999,-0.7747299999999999,0.9189695,0.0035149999999999,-0.01005,1.0810305,-0.003515,0.0100499999999999,0.8838495000000001,0.0558349999999998,-0.38145,1.2258895,0.0690149999999998,-0.33309,0.8849495000000001,-0.3464750000000001,-0.199881,1.1895395,-0.346065,-0.191041
123,1.05513,0.5762349999999999,-0.367745,0.917537,0.4050149999999999,-0.3483849999999999,0.842117,0.5586689999999999,-0.5919049999999999,1.181487,0.3997949999999999,-0.327005,1.287927,0.5110389999999999,-0.555055,0.872237,0.7870949999999999,-0.769835,1.269427,0.7026749999999999,-0.772405,0.919037,0.0035149999999999,-0.0101949999999999,1.080963,-0.003515,0.010195,0.883287,0.0554849999999998,-0.3821549999999999,1.225517,0.0688049999999999,-0.334315,0.884467,-0.3481350000000001,-0.2001519999999999,1.189687,-0.3480150000000001,-0.194066
124,1.0553135,0.576799,-0.36367,0.9172865,0.4065649999999999,-0.34657,0.8417765,0.5625089999999999,-0.5886899999999999,1.1811565,0.4024449999999999,-0.3249999999999999,1.2892165,0.5166749999999999,-0.5536,0.8718465,0.7916949999999999,-0.7652300000000001,1.2714465,0.7083249999999999,-0.7696799999999999,0.9191665,0.0035149999999999,-0.0103399999999999,1.0808335,-0.003515,0.01034,0.8827665,0.0545849999999998,-0.38276,1.2251665,0.0683949999999999,-0.3353899999999999,0.8842065,-0.353045,-0.2037689999999999,1.1899965,-0.3498450000000001,-0.196302
125,1.0552225,0.5788890000000001,-0.35938,0.9171374999999999,0.4125000000000001,-0.34509,0.8416875,0.5690700000000001,-0.58563,1.1808175,0.40526,-0.32275,1.2901075,0.5233150000000001,-0.55189,0.8714275000000001,0.79874,-0.76111,1.2734775,0.7159800000000001,-0.7663199999999999,0.9192975,0.00398,-0.0102099999999999,1.0807025,-0.0039799999999999,0.0102099999999999,0.8821475,0.05246,-0.3835699999999999,1.2245975,0.06676,-0.33662,0.8840375,-0.35495,-0.203241,1.1903975,-0.3514499999999999,-0.198519
126,1.055025,0.581679,-0.355205,0.9164950000000001,0.415525,-0.343735,0.841475,0.574614,-0.581865,1.180605,0.406925,-0.320415,1.2912149999999998,0.52878,-0.549225,0.870765,0.804715,-0.7554350000000001,1.275475,0.7234149999999999,-0.7617849999999999,0.919215,0.0036549999999999,-0.0100149999999999,1.080785,-0.0036549999999999,0.0100149999999999,0.881125,0.047095,-0.3840949999999999,1.223605,0.0613949999999999,-0.337585,0.883575,-0.360805,-0.202924,1.190435,-0.356815,-0.20026
127,1.054924,0.586514,-0.35021,0.915843,0.41869,-0.34236,0.841373,0.582681,-0.5766100000000001,1.180483,0.40832,-0.3183,1.292133,0.536176,-0.54567,0.870313,0.8132299999999999,-0.7484299999999999,1.277463,0.73263,-0.7562800000000001,0.919223,0.0036999999999999,-0.00961,1.080777,-0.0037,0.0096099999999999,0.8802130000000001,0.0407899999999999,-0.38451,1.222563,0.0550899999999999,-0.33857,0.882743,-0.3674,-0.203739,1.190633,-0.36202,-0.201229
128,1.054385,0.592267,-0.34485,0.915348,0.4213849999999999,-0.34096,0.841178,0.590896,-0.57082,1.179968,0.408435,-0.3164599999999999,1.293098,0.545032,-0.54131,0.8702180000000002,0.8235049999999999,-0.73942,1.279158,0.7440249999999999,-0.74881,0.919258,0.0039549999999999,-0.00917,1.080742,-0.003955,0.0091699999999999,0.8793380000000001,0.0324849999999999,-0.3850099999999999,1.221358,0.0469149999999999,-0.33973,0.8818080000000001,-0.374855,-0.202973,1.190868,-0.368855,-0.202449
129,1.0535485,0.598434,-0.33854,0.9139195,0.42667,-0.33716,0.8408195,0.600082,-0.56435,1.1794995,0.41296,-0.31289,1.2938095,0.555013,-0.5369,0.8700695,0.83335,-0.73092,1.2805295,0.75659,-0.7417900000000001,0.9192495,0.00355,-0.00858,1.0807505,-0.00355,0.00858,0.8783195,0.02107,-0.38534,1.2197695,0.03587,-0.3408,0.8810295000000001,-0.38614,-0.204747,1.1908895,-0.3785699999999999,-0.202658
130,1.0526135,0.603715,-0.331935,0.9122735000000001,0.4299829999999999,-0.333525,0.8403835,0.608784,-0.556515,1.1789335,0.41544,-0.309505,1.2931535,0.565051,-0.531895,0.8697135,0.84392,-0.719925,1.2814535,0.76915,-0.734395,0.9193835,0.00361,-0.007945,1.0806165,-0.00361,0.0079449999999999,0.8772535,0.00834,-0.385335,1.2177435,0.0238199999999999,-0.341435,0.8791035,-0.39534,-0.204153,1.1908534999999998,-0.38992,-0.202799
131,1.0515999999999999,0.610365,-0.325065,0.910335,0.432889,-0.328765,0.839295,0.6164350000000001,-0.548035,1.177985,0.418495,-0.305145,1.293305,0.5731010000000001,-0.526015,0.869475,0.852905,-0.709105,1.281185,0.779815,-0.726015,0.919495,0.003485,-0.007405,1.080505,-0.0034849999999999,0.0074049999999999,0.876105,-0.006645,-0.384085,1.215505,0.008875,-0.341405,0.877745,-0.4115949999999999,-0.206156,1.1909049999999999,-0.4041549999999999,-0.202545
132,1.0505265,0.616825,-0.31765,0.9082895,0.436289,-0.3236099999999999,0.8384595,0.624535,-0.53893,1.1768595,0.419834,-0.3003099999999999,1.2932095000000001,0.580612,-0.51816,0.8689095,0.862985,-0.69654,1.2805695,0.790365,-0.7144199999999999,0.9198595,0.0036549999999999,-0.0069199999999999,1.0801405,-0.003655,0.00692,0.8749495,-0.0234149999999999,-0.38151,1.2131095,-0.0080749999999999,-0.3404,0.8762595,-0.427495,-0.2050809999999999,1.1908995,-0.420555,-0.202714
133,1.049577,0.62638,-0.31005,0.906578,0.44004,-0.31811,0.8377180000000001,0.63335,-0.52872,1.175858,0.420428,-0.29556,1.293228,0.58948,-0.5088999999999999,0.8681380000000001,0.87398,-0.68294,1.280168,0.8027,-0.70149,0.920448,0.00386,-0.00647,1.079552,-0.0038599999999999,0.00647,0.873998,-0.03944,-0.37797,1.210588,-0.0242999999999999,-0.33857,0.8746880000000001,-0.4430499999999999,-0.203644,1.190908,-0.4379999999999999,-0.2031319999999999
134,1.048341,0.6358349999999999,-0.3029,0.904839,0.443216,-0.31265,0.8366290000000001,0.642715,-0.51954,1.174779,0.427401,-0.29131,1.293039,0.600625,-0.49973,0.866919,0.886335,-0.6685099999999999,1.279699,0.817465,-0.68816,0.920719,0.002875,-0.0063,1.079281,-0.002875,0.0063,0.8729890000000001,-0.0549149999999999,-0.37433,1.208059,-0.040935,-0.3370499999999999,0.8734890000000001,-0.462925,-0.204848,1.190879,-0.4545949999999999,-0.20349
135,1.0470945,0.64586,-0.295115,0.9033415,0.449887,-0.307175,0.8358415000000001,0.65473,-0.509745,1.1741115,0.4354389999999999,-0.287185,1.2928015,0.61439,-0.491005,0.8662415,0.90089,-0.655535,1.2790115,0.83161,-0.675465,0.9209115,0.0029899999999999,-0.0062149999999999,1.0790885000000001,-0.0029899999999999,0.0062149999999999,0.8719715,-0.06806,-0.370745,1.2056615,-0.05567,-0.335465,0.8722315,-0.48117,-0.205974,1.1908615,-0.46962,-0.2035529999999999
136,1.0458635,0.655135,-0.287805,0.9017145,0.4566289999999999,-0.301735,0.8350345,0.664715,-0.500965,1.1734445,0.4462199999999999,-0.282685,1.2924345,0.628295,-0.483035,0.8655045,0.913885,-0.642325,1.2783145,0.847155,-0.6614949999999999,0.9211745000000001,0.0024449999999999,-0.006195,1.0788255,-0.002445,0.0061949999999999,0.8709145,-0.081555,-0.367355,1.2033145,-0.070885,-0.333685,0.8711445000000001,-0.495805,-0.205384,1.1907745,-0.485425,-0.203509
137,1.0449315,0.65945,-0.280593,0.9004405,0.4605329999999999,-0.296325,0.8348504999999999,0.6707099999999999,-0.492275,1.1729405,0.453177,-0.278015,1.2925304999999998,0.6364799999999999,-0.4751149999999999,0.8646005,0.92041,-0.630685,1.2775305,0.85558,-0.648755,0.9214694999999999,0.0019099999999999,-0.006245,1.0785305,-0.00191,0.006245,0.8698605,-0.09925,-0.362885,1.2008705,-0.09066,-0.3310349999999999,0.8696205000000001,-0.51573,-0.204262,1.1905205,-0.5075000000000001,-0.203097
138,1.044373,0.6659200000000001,-0.273507,0.9003750000000001,0.46314,-0.29307,0.834875,0.67834,-0.48267,1.173275,0.456779,-0.27433,1.292295,0.64506,-0.4662,0.8639950000000001,0.93098,-0.61599,1.277275,0.8659100000000001,-0.6335200000000001,0.9218459999999999,0.00206,-0.00623,1.078154,-0.0020599999999999,0.0062299999999999,0.8691949999999999,-0.1144799999999999,-0.3577599999999999,1.198735,-0.1078899999999999,-0.32721,0.868565,-0.53408,-0.202994,1.190695,-0.52826,-0.202991
139,1.044274,0.674275,-0.266471,0.900294,0.4673049999999999,-0.289415,0.835074,0.685675,-0.474205,1.1737440000000001,0.462925,-0.270208,1.291514,0.655385,-0.456955,0.863674,0.939725,-0.604175,1.276994,0.875545,-0.618045,0.922078,0.0018349999999999,-0.006255,1.077922,-0.0018349999999999,0.006255,0.8686240000000001,-0.128925,-0.3522349999999999,1.1969940000000001,-0.125265,-0.3229349999999999,0.868214,-0.555735,-0.203462,1.190964,-0.548855,-0.203417
140,1.0440665,0.680695,-0.259083,0.9000275000000001,0.471995,-0.2861599999999999,0.8346675,0.694195,-0.46526,1.1737075,0.468385,-0.266183,1.2924674999999999,0.6657850000000001,-0.4473399999999999,0.8627775,0.949775,-0.59193,1.2766175,0.889285,-0.6021,0.9222935,0.001865,-0.0063799999999999,1.0777065,-0.001865,0.0063799999999999,0.8682675,-0.141305,-0.346,1.1950375,-0.1400349999999999,-0.31737,0.8678975,-0.576395,-0.2029909999999999,1.1911574999999999,-0.568255,-0.202532
141,1.043859,0.6887049999999999,-0.251442,0.900208,0.474255,-0.283053,0.834618,0.7007950000000001,-0.4553,1.173118,0.473545,-0.262505,1.2929979999999999,0.676415,-0.43697,0.8613380000000002,0.956845,-0.5799799999999999,1.277028,0.899185,-0.5869800000000001,0.922506,0.0015649999999999,-0.0064,1.077494,-0.001565,0.0063999999999999,0.8681380000000001,-0.152315,-0.33977,1.193208,-0.153225,-0.31172,0.8676080000000002,-0.595745,-0.202632,1.191328,-0.586935,-0.20159
142,1.0434575,0.693075,-0.2436009999999999,0.9004145,0.475035,-0.279346,0.8340345,0.705665,-0.445255,1.1728245,0.477955,-0.258221,1.2933445,0.684125,-0.426285,0.8595145,0.963325,-0.5660149999999999,1.2771345,0.906925,-0.5704549999999999,0.9228635000000001,0.0011249999999999,-0.0063949999999999,1.0771365,-0.0011249999999999,0.006395,0.8678245,-0.1636449999999999,-0.333095,1.1913645,-0.167495,-0.305635,0.8675545,-0.615155,-0.2022399999999999,1.1912245,-0.606475,-0.2000759999999999
143,1.0429,0.69141,-0.234742,0.900254,0.47707,-0.275386,0.833004,0.70987,-0.434165,1.172964,0.48001,-0.253159,1.2935940000000001,0.69038,-0.415915,0.857294,0.96842,-0.552405,1.2770139999999999,0.90757,-0.554115,0.923197,0.00142,-0.006225,1.076803,-0.00142,0.006225,0.867374,-0.17842,-0.326135,1.189544,-0.1847299999999999,-0.298995,0.867364,-0.63795,-0.201048,1.190934,-0.62937,-0.198142
144,1.042654,0.6885950000000001,-0.225937,0.900301,0.478375,-0.271227,0.832581,0.714585,-0.423935,1.172991,0.481785,-0.24807,1.2940909999999999,0.6956249999999999,-0.405585,0.855321,0.973985,-0.5388649999999999,1.2765309999999999,0.909835,-0.5368649999999999,0.923365,0.001375,-0.0061249999999999,1.076635,-0.0013749999999999,0.006125,0.8671409999999999,-0.1914449999999999,-0.318725,1.187951,-0.1961449999999999,-0.291675,0.867231,-0.658995,-0.1999949999999999,1.190721,-0.6508149999999999,-0.195563
145,1.0422354999999999,0.68714,-0.217242,0.9002775,0.48009,-0.266721,0.8320075,0.71951,-0.41345,1.1728375,0.4845199999999999,-0.24284,1.2939775,0.70158,-0.3949899999999999,0.8528475,0.97702,-0.52542,1.2760075,0.9161,-0.52136,0.9234975,0.0012699999999999,-0.00597,1.0765025,-0.0012699999999999,0.00597,0.8669175,-0.205,-0.31026,1.1858475,-0.20796,-0.2832099999999999,0.8667375000000002,-0.68338,-0.198741,1.1902875,-0.67362,-0.192572
146,1.0420575,0.6876,-0.20816,0.9001545,0.48622,-0.261751,0.8321145,0.7290399999999999,-0.40348,1.1734345,0.4911299999999999,-0.237527,1.2940245,0.7117100000000001,-0.38452,0.8499545,0.98347,-0.51149,1.2763944999999999,0.92626,-0.50602,0.9235915,0.0010899999999999,-0.00595,1.0764085,-0.00109,0.00595,0.8676445,-0.21371,-0.30175,1.1838845,-0.21549,-0.2745579999999999,0.8663545000000001,-0.7033,-0.197095,1.1899945,-0.69235,-0.189188
147,1.0419545,0.68612,-0.199454,0.9004015,0.48941,-0.2566029999999999,0.8323315,0.73447,-0.39352,1.1743215,0.49608,-0.232143,1.2938515,0.71996,-0.3745699999999999,0.8492615,0.9845,-0.49881,1.2768915,0.93712,-0.4908899999999999,0.9235895000000001,0.00079,-0.0059099999999999,1.0764105,-0.00079,0.0059099999999999,0.8679715,-0.22258,-0.29344,1.1819214999999998,-0.22441,-0.2658459999999999,0.8660815,-0.7243,-0.1949219999999999,1.1896115,-0.71219,-0.185435
148,1.041707,0.68249,-0.190112,0.9006730000000001,0.49282,-0.251418,0.8324730000000001,0.7404299999999999,-0.382485,1.175283,0.50029,-0.226581,1.292703,0.7268699999999999,-0.364135,0.8484030000000001,0.98944,-0.484425,1.277263,0.947,-0.475995,0.923485,0.0004699999999999,-0.005925,1.076515,-0.0004699999999999,0.0059249999999999,0.8688830000000001,-0.23342,-0.285105,1.179823,-0.23386,-0.256687,0.8648629999999999,-0.7458100000000001,-0.193885,1.189363,-0.73289,-0.182493
149,1.0410055,0.67868,-0.178891,0.9004815,0.49562,-0.244333,0.8324815,0.7459899999999999,-0.369305,1.1755615,0.5042,-0.219068,1.2908415,0.73418,-0.351195,0.8472515,0.99324,-0.468145,1.2770515,0.95275,-0.4586949999999999,0.9237485,0.0001,-0.0058249999999999,1.0762515,-9.9999999999989e-05,0.0058249999999999,0.8693015,-0.24474,-0.275115,1.1775215,-0.2438199999999999,-0.245585,0.8628215000000001,-0.76491,-0.191075,1.1886714999999999,-0.75126,-0.177849
150,1.0401335,0.6719900000000001,-0.167388,0.8999795,0.49876,-0.236765,0.8344595,0.7519800000000001,-0.354755,1.1754795,0.5079400000000001,-0.21088,1.2885695,0.74187,-0.338265,0.8454095,0.99729,-0.447455,1.2766695000000001,0.95913,-0.440685,0.9242835,-0.0003599999999999,-0.005695,1.0757165,0.0003599999999999,0.005695,0.8699195,-0.25673,-0.264755,1.1747795,-0.25479,-0.2334939999999999,0.8606195,-0.78365,-0.187548,1.1877695,-0.76919,-0.1728869999999999
151,1.038625,0.667592,-0.155404,0.898695,0.502682,-0.229276,0.8359650000000001,0.758132,-0.33981,1.175075,0.514262,-0.202428,1.286355,0.7497119999999999,-0.32441,0.843245,1.000312,-0.42869,1.2756750000000001,0.971902,-0.42294,0.9246600000000001,-0.00084,-0.00557,1.07534,0.0008399999999999,0.0055699999999999,0.8708250000000001,-0.268478,-0.251652,1.171035,-0.264888,-0.220664,0.858095,-0.803548,-0.182794,1.186805,-0.789718,-0.167356
152,1.036992,0.6684775,-0.14541,0.896979,0.5019675,-0.223461,0.837289,0.7624575,-0.32597,1.174459,0.5171675,-0.195857,1.283049,0.7567275,-0.31067,0.8408789999999999,1.0025275,-0.41077,1.273889,0.9886475,-0.40668,0.925107,-0.0014134999999999,-0.00565,1.074893,0.0014134999999999,0.0056499999999999,0.871629,-0.2749225,-0.239748,1.1668589999999999,-0.2690225,-0.208771,0.856269,-0.8143125,-0.178348,1.185789,-0.8058025,-0.162305
153,1.035224,0.6691815,-0.135715,0.895064,0.5016015,-0.217739,0.838254,0.7648014999999999,-0.31157,1.173714,0.5203415,-0.1890119999999999,1.279764,0.7636115,-0.29573,0.8394640000000001,1.0032315,-0.3916699999999999,1.271624,1.0048015,-0.3901,0.9255480000000001,-0.0019985,-0.0056199999999999,1.074452,0.0019985,0.00562,0.872424,-0.2827385,-0.227428,1.161834,-0.2791285,-0.196637,0.8542540000000001,-0.8246385,-0.173902,1.184634,-0.8217785000000001,-0.156656
154,1.0339335,0.6708235,-0.126134,0.8937565000000001,0.5014535,-0.2123,0.8360365,0.7670935,-0.298145,1.1737365,0.5201135,-0.181179,1.2787165,0.7680834999999999,-0.2806849999999999,0.8364665,1.0051635,-0.374275,1.2690065,1.0143035,-0.373195,0.9256965,-0.0018554999999999,-0.0057649999999999,1.0743035,0.0018555,0.0057649999999999,0.8734465,-0.2903064999999999,-0.214493,1.1571065,-0.2881165,-0.1853489999999999,0.8525865,-0.8335165,-0.169622,1.1831865,-0.8316065,-0.151288
155,1.032747,0.6741715,-0.117582,0.892801,0.4993315,-0.207784,0.834761,0.7677815,-0.285195,1.174081,0.5208915000000001,-0.17385,1.276351,0.7727315,-0.266775,0.833811,1.0068315,-0.358085,1.265741,1.0249815,-0.357055,0.925802,-0.0018354999999999,-0.005665,1.074198,0.0018355,0.005665,0.874491,-0.2982185,-0.201365,1.152571,-0.2960785,-0.174673,0.850951,-0.8417684999999999,-0.164284,1.181671,-0.8405785,-0.1463
156,1.0314124999999998,0.676763,-0.105262,0.8917065,0.498503,-0.199195,0.8333065,0.769003,-0.2695849999999999,1.1739964999999999,0.521613,-0.162747,1.2741665,0.777033,-0.249135,0.8313665,1.009293,-0.339075,1.2623665,1.031293,-0.3375749999999999,0.9259355,-0.0015839999999999,-0.0054849999999999,1.0740645,0.001584,0.0054849999999999,0.8750565,-0.303587,-0.183603,1.1480365,-0.302257,-0.160082,0.8491165,-0.848727,-0.154567,1.1802165,-0.8476170000000001,-0.137572
157,1.030834,0.681755,-0.087069,0.889891,0.503875,-0.178776,0.831481,0.770055,-0.248335,1.174081,0.522235,-0.143036,1.271811,0.773285,-0.2259749999999999,0.829121,1.006955,-0.314695,1.259201,1.031465,-0.310325,0.9260120000000001,-0.001111,-0.0047449999999999,1.073988,0.0011109999999999,0.0047449999999999,0.875291,-0.320855,-0.15741,1.143011,-0.320615,-0.138822,0.847011,-0.866135,-0.137803,1.178471,-0.865865,-0.121242
158,1.030587,0.6874755,-0.069459,0.888534,0.5093055,-0.158841,0.829534,0.7702855,-0.22846,1.174394,0.5230855,-0.123906,1.2696939999999999,0.7694755,-0.203788,0.827244,1.0061955,-0.29046,1.256714,1.0323955,-0.28502,0.925918,-0.0005385,-0.0040499999999999,1.074082,0.0005384999999999,0.0040499999999999,0.875854,-0.3372445,-0.132101,1.138324,-0.3388445,-0.119027,0.844614,-0.8829245,-0.120162,1.176934,-0.8831745,-0.105378
159,1.030776,0.693696,-0.0528875,0.887045,0.515316,-0.1393615,0.827905,0.7699159999999999,-0.2113035,1.174955,0.5241359999999999,-0.1053385,1.267905,0.764656,-0.1831885,0.825565,1.0060360000000002,-0.2720935,1.255675,1.033336,-0.2619635,0.925648,0.000166,-0.0034364999999999,1.074352,-0.0001659999999999,0.0034364999999999,0.876485,-0.354364,-0.1087675,1.134285,-0.354584,-0.1024315,0.8425549999999999,-0.899004,-0.1030115,1.175605,-0.899854,-0.0899335
160,1.031832,0.6988234999999999,-0.037399,0.886255,0.5216635,-0.120317,0.826965,0.7690834999999999,-0.194987,1.1760950000000001,0.5236635,-0.08705,1.2671649999999999,0.7600034999999999,-0.164107,0.8246249999999999,1.0050335,-0.255757,1.2555450000000001,1.0290335000000002,-0.240537,0.925568,0.0010125,-0.002752,1.074432,-0.0010124999999999,0.002752,0.877115,-0.3711565,-0.088722,1.131355,-0.3728165,-0.086872,0.841925,-0.9119365,-0.084596,1.174815,-0.9158265,-0.075331
161,1.0330059999999999,0.7044235,-0.0219365,0.885544,0.5281435,-0.1011725,0.826134,0.7674335,-0.1787905,1.1773539999999998,0.5235335,-0.0686055,1.2667739999999998,0.7540835,-0.1458295,0.823854,1.0038935,-0.2409905,1.255134,1.0231935,-0.2205005,0.925482,0.0018654999999999,-0.0019785,1.074518,-0.0018654999999999,0.0019784999999999,0.877554,-0.3874165,-0.0690615,1.128434,-0.3904964999999999,-0.0717255,0.841654,-0.9244765,-0.0662825,1.174054,-0.9311965,-0.0606465
162,1.034201,0.710618,-0.0066179999999999,0.8845,0.534218,-0.0816389999999999,0.82239,0.763798,-0.163401,1.17858,0.5225380000000001,-0.0503819999999999,1.26684,0.746838,-0.128999,0.82097,1.003218,-0.227321,1.2542,1.016018,-0.203301,0.925358,0.0026739999999999,-0.00127,1.074642,-0.002674,0.00127,0.8769500000000001,-0.402892,-0.0515119999999999,1.12616,-0.407352,-0.0575909999999999,0.8413200000000001,-0.936232,-0.04827,1.17324,-0.945972,-0.046195
163,1.035285,0.71352,0.0081725,0.8834730000000001,0.53973,-0.0623025,0.817913,0.75744,-0.1479905,1.179493,0.52164,-0.0333915,1.268023,0.73719,-0.1135915,0.816993,0.9995,-0.2139505,1.2543229999999999,1.006,-0.1893305,0.9252009999999999,0.0031609999999999,-0.0004004999999999,1.074799,-0.0031609999999999,0.0004004999999999,0.876483,-0.41677,-0.0356865,1.124403,-0.42281,-0.0439025,0.8408230000000001,-0.94455,-0.0313785,1.171703,-0.95583,-0.0308235
164,1.0364575,0.716682,0.0230775,0.8825735000000001,0.543842,-0.0427074999999999,0.8121335000000001,0.747602,-0.1321895,1.1801735,0.5213220000000001,-0.0163504999999999,1.2707735,0.726302,-0.0988085,0.8119035,0.991012,-0.2005394999999999,1.2560635,0.995112,-0.1755995,0.9248705000000002,0.0036769999999999,0.0003305,1.0751294999999998,-0.0036769999999999,-0.0003304999999999,0.8761135,-0.428828,-0.0212965,1.1230835,-0.4361279999999999,-0.0303145,0.8402935,-0.954918,-0.0160825,1.1703835,-0.963438,-0.0157245
165,1.03786,0.719944,0.033982,0.881769,0.5482440000000001,-0.025863,0.803829,0.737634,-0.120361,1.181519,0.5213340000000001,-0.002791,1.2755589999999999,0.716334,-0.089188,0.804899,0.981044,-0.193481,1.259279,0.985144,-0.166051,0.924583,0.004069,0.0006609999999999,1.075417,-0.004069,-0.000661,0.875909,-0.440116,-0.011909,1.121949,-0.446046,-0.020971,0.839869,-0.964746,-0.005782,1.169279,-0.970326,-0.005552
166,1.038795,0.719944,0.037673,0.881274,0.5482440000000001,-0.021311,0.7969539999999999,0.737634,-0.115959,1.182834,0.5213340000000001,0.001683,1.280794,0.716334,-0.086921,0.797344,0.981044,-0.196609,1.264554,0.985144,-0.163779,0.924508,0.004069,0.000354,1.0754920000000001,-0.004069,-0.000354,0.8759840000000001,-0.442116,-0.009884,1.1216339999999998,-0.446346,-0.019151,0.839824,-0.964446,-0.0029699999999999,1.169124,-0.970266,-0.0035369999999999
167,1.0397105,0.719944,0.04177,0.8798575,0.5482440000000001,-0.014982,0.7876375000000001,0.7374940000000001,-0.110601,1.1840575,0.5213340000000001,0.0063139999999999,1.2873774999999998,0.715554,-0.084373,0.7870874999999999,0.981044,-0.201401,1.2712175000000001,0.983544,-0.1626409999999999,0.9244705,0.004069,0.0001219999999999,1.0755295,-0.004069,-0.000122,0.8759275000000001,-0.444786,-0.007646,1.1214175,-0.446996,-0.017878,0.8393075,-0.964246,-0.000608,1.1689275000000001,-0.970206,-0.001306
168,1.040576,0.719944,0.046466,0.878301,0.5482440000000001,-0.008224,0.776551,0.735824,-0.105029,1.185231,0.5213340000000001,0.011113,1.296211,0.711474,-0.082839,0.774871,0.977444,-0.2077439999999999,1.279631,0.977744,-0.165984,0.9244670000000001,0.004069,-4.6000000000000034e-05,1.0755329999999999,-0.004069,4.6000000000000034e-05,0.875911,-0.447686,-0.0057929999999999,1.121321,-0.447446,-0.018115,0.838951,-0.963966,0.001999,1.1688209999999999,-0.970106,0.001211
169,1.041177,0.722139,0.0514339999999999,0.876443,0.546229,-0.001027,0.763393,0.719519,-0.099336,1.186143,0.521649,0.0159319999999999,1.306083,0.702069,-0.080921,0.761253,0.959849,-0.2160059999999999,1.291503,0.961449,-0.1730259999999999,0.924337,0.004321,-0.00028,1.075663,-0.004321,0.0002799999999999,0.875413,-0.447331,-0.005689,1.121543,-0.444881,-0.017925,0.838423,-0.959731,0.004688,1.1684729999999999,-0.966811,0.0035989999999999
170,1.041821,0.7244440000000001,0.0564729999999999,0.8741850000000001,0.543504,0.005871,0.748715,0.698644,-0.094958,1.187095,0.521684,0.020545,1.317205,0.685824,-0.079045,0.746135,0.9333939999999998,-0.226738,1.303455,0.942594,-0.182748,0.924153,0.004543,-0.0006169999999999,1.075847,-0.004543,0.0006169999999999,0.874895,-0.446956,-0.005776,1.1213549999999999,-0.440206,-0.0185159999999999,0.837875,-0.955306,0.006638,1.168215,-0.962976,0.005874
