sb224sc-HT22-VT27/4dt907/src/data/kinect_good_preprocessed_A9_mediapipe/A70_kinect_mirrored.csv
FrameNo,nose_3d_x,nose_3d_y,nose_3d_z,left_shoulder_3d_x,left_shoulder_3d_y,left_shoulder_3d_z,left_elbow_3d_x,left_elbow_3d_y,left_elbow_3d_z,right_shoulder_3d_x,right_shoulder_3d_y,right_shoulder_3d_z,right_elbow_3d_x,right_elbow_3d_y,right_elbow_3d_z,left_wrist_3d_x,left_wrist_3d_y,left_wrist_3d_z,right_wrist_3d_x,right_wrist_3d_y,right_wrist_3d_z,left_hip_3d_x,left_hip_3d_y,left_hip_3d_z,right_hip_3d_x,right_hip_3d_y,right_hip_3d_z,left_knee_3d_x,left_knee_3d_y,left_knee_3d_z,right_knee_3d_x,right_knee_3d_y,right_knee_3d_z,left_ankle_3d_x,left_ankle_3d_y,left_ankle_3d_z,right_ankle_3d_x,right_ankle_3d_y,right_ankle_3d_z
19,1.034949,0.721809,0.0302989999999999,0.878702,0.546649,0.0151869999999999,0.817752,0.771009,-0.095898,1.180332,0.516489,0.0215029999999999,1.256522,0.764659,-0.080928,0.8220120000000001,1.047799,-0.173988,1.261452,1.0385989999999998,-0.187938,0.939389,0.001832,0.0021819999999999,1.060611,-0.001832,-0.002182,0.883612,-0.3564509999999999,-0.004526,1.115582,-0.361421,-0.014357,0.8117719999999999,-0.960801,0.0106039999999999,1.161462,-0.863171,0.0030139999999999
20,1.0348975,0.720369,0.0274554999999999,0.8785395,0.546919,0.0131084999999999,0.8185395,0.7725190000000001,-0.0974815,1.1800895,0.516629,0.0192164999999999,1.2558094999999998,0.765229,-0.0819615,0.8221095,1.048059,-0.1733415,1.2612695,1.038959,-0.1872515,0.9395115,0.0020509999999999,0.0017005,1.0604885,-0.0020509999999999,-0.0017005,0.8845095000000001,-0.356651,-0.0064665,1.1154895,-0.361731,-0.0139455,0.8113495,-0.963611,0.0083474999999999,1.1610194999999999,-0.863591,0.0018364999999999
21,1.0345115,0.718755,0.0236914999999999,0.8784495,0.545425,0.0101104999999999,0.8185495,0.771865,-0.0996954999999999,1.1797395,0.5172950000000001,0.0163144999999999,1.2550195,0.763615,-0.0842354999999999,0.8223195,1.047245,-0.1755455,1.2608795,1.037345,-0.1894855,0.9396905,0.0022359999999999,0.0010764999999999,1.0603095,-0.002236,-0.0010765,0.8856995,-0.356755,-0.0094755,1.1153595,-0.3619449999999999,-0.0140535,0.8113795,-0.963385,0.0055114999999999,1.1606495,-0.863945,0.0004804999999999
22,1.0340195,0.7182435,0.018591,0.8784215,0.5449135,0.005697,0.8186115,0.7713535,-0.1029809999999999,1.1793215,0.5187235,0.012264,1.2542115,0.7631035,-0.0875809999999999,0.8226315,1.0467335,-0.178811,1.2599015,1.0368335,-0.1928409999999999,0.9398785,0.0023704999999999,0.000608,1.0601215,-0.0023704999999999,-0.000608,0.8869215,-0.3568165,-0.0131879999999999,1.1153215,-0.3619265,-0.015871,0.8114415,-0.9641965,0.0022259999999999,1.1606615,-0.8644565,-0.0020149999999999
23,1.0333554999999999,0.7182435,0.0118715,0.8783315,0.5449135,9.550000000000183e-05,0.8187415,0.7713535,-0.1085364999999999,1.1787815,0.5189235,0.0071475,1.2532615,0.7631035,-0.0919565,0.8229315,1.0467335,-0.1831065,1.2583615,1.0368335,-0.1972664999999999,0.9400165000000001,0.0023704999999999,-0.0001764999999999,1.0599835,-0.0023704999999999,0.0001764999999999,0.8880215,-0.3568165,-0.0182545,1.1153415,-0.3619265,-0.0185704999999999,0.8117215,-0.9632365,-0.0020745,1.1606614999999998,-0.8644565,-0.0055855
24,1.032462,0.7177535,0.003674,0.8782830000000001,0.5449135,-0.007122,0.818613,0.7713535,-0.1159589999999999,1.178193,0.5189235,0.001128,1.252233,0.7630135,-0.098269,0.823273,1.0467335,-0.1884789999999999,1.256633,1.0362334999999998,-0.202709,0.940138,0.0023704999999999,-0.001006,1.059862,-0.0023704999999999,0.001006,0.8891930000000001,-0.3568165,-0.025645,1.115593,-0.3619265,-0.022218,0.8123130000000001,-0.9614065,-0.0066219999999999,1.1607029999999998,-0.8644565,-0.0107879999999999
25,1.031572,0.7158135,-0.0053325,0.878234,0.5440335000000001,-0.0148335,0.818314,0.7709535000000001,-0.1250075,1.177584,0.5189235,-0.0051135,1.251284,0.7607135,-0.1065474999999999,0.823914,1.0448335,-0.1973275,1.254964,1.0327335,-0.2115375,0.940186,0.0023704999999999,-0.0019015,1.059814,-0.0023704999999999,0.0019014999999999,0.890344,-0.3568165,-0.0336775,1.116454,-0.3619265,-0.0270825,0.812494,-0.9613265,-0.0130235,1.161914,-0.8721765,-0.0163105
26,1.030888,0.7127995,-0.015774,0.878262,0.5398795000000001,-0.026959,0.818112,0.7690995,-0.1366679999999999,1.176462,0.5201595,-0.012612,1.250702,0.7575295000000001,-0.1167879999999999,0.825042,1.0418695,-0.209178,1.253482,1.0289695,-0.222928,0.9401120000000001,0.0024895,-0.0030799999999999,1.059888,-0.0024894999999999,0.00308,0.891472,-0.3567105,-0.04292,1.117762,-0.3617605,-0.033381,0.813092,-0.9600905,-0.019531,1.163392,-0.8791005,-0.022598
27,1.0302345,0.709216,-0.027322,0.8788015,0.536706,-0.039486,0.8178015,0.767026,-0.149946,1.1752515,0.521316,-0.0208399999999999,1.2502715,0.754066,-0.128536,0.8263214999999999,1.038556,-0.223366,1.2518114999999999,1.024856,-0.236636,0.9399725,0.002679,-0.004205,1.0600275,-0.002679,0.004205,0.8921615,-0.356394,-0.052974,1.1192315,-0.361544,-0.039966,0.8141115,-0.957284,-0.026285,1.1651615,-0.884664,-0.0291629999999999
28,1.0296435,0.7034214999999999,-0.0396954999999999,0.8793635,0.5337814999999999,-0.0521195,0.8176235000000001,0.7638014999999999,-0.1648465,1.1741234999999999,0.5231515,-0.0290085,1.2499735,0.7500614999999999,-0.1412065,0.8278735,1.0343115,-0.2388965,1.2499235,1.0200115,-0.2513065,0.9398955,0.0027884999999999,-0.0054415,1.0601045,-0.0027885,0.0054415,0.8926935,-0.3560784999999999,-0.0632835,1.1208835,-0.3611284999999999,-0.0464954999999999,0.8154735,-0.9521985,-0.0337434999999999,1.1670935,-0.8892185,-0.0361875
29,1.0291995,0.6974495,-0.0518789999999999,0.8799715,0.5296095,-0.064633,0.8176915000000001,0.7598895,-0.18001,1.1731415,0.5244694999999999,-0.037043,1.2501715,0.7459395,-0.15498,0.8297215,1.0296495,-0.25603,1.2481315,1.0132495,-0.26747,0.9399405,0.0028104999999999,-0.0061189999999999,1.0600595,-0.0028105,0.0061189999999999,0.8933515,-0.3556805,-0.073182,1.1228315,-0.3604205,-0.0524749999999999,0.8169415,-0.9452405,-0.040636,1.1689515,-0.8916505,-0.0425679999999999
30,1.0290625,0.6925300000000001,-0.0644665,0.8806675,0.52342,-0.0783065,0.8180775,0.7570600000000001,-0.1961534999999999,1.1721675,0.52234,-0.0467295,1.2506975,0.7439600000000001,-0.1697934999999999,0.8321375,1.01861,-0.2742535,1.2463975,1.0021099999999998,-0.2837435,0.9397935000000001,0.0028979999999999,-0.0068435,1.0602064999999998,-0.002898,0.0068434999999999,0.8942175,-0.35476,-0.0832945,1.1256074999999999,-0.3593,-0.0599715,0.8185675,-0.93462,-0.0470855,1.1711775,-0.89059,-0.0486845
31,1.0291745,0.686393,-0.076782,0.8814595000000001,0.518213,-0.091006,0.8189095,0.752613,-0.212164,1.1712995,0.520623,-0.055774,1.2515695,0.742223,-0.184234,0.8345795,1.007703,-0.2910339999999999,1.2450395,0.991703,-0.299344,0.9395495,0.0027799999999999,-0.007651,1.0604505,-0.00278,0.0076509999999999,0.8950095,-0.353747,-0.093288,1.1287695,-0.357677,-0.067416,0.8202395,-0.922207,-0.052699,1.1734895,-0.887837,-0.053875
32,1.0299375,0.6808705,-0.088332,0.8824925000000001,0.5126205,-0.103327,0.8197525,0.7455605,-0.225809,1.1706925,0.5173505,-0.064752,1.2529225,0.7340805,-0.197549,0.8372325,0.9982405,-0.307369,1.2437624999999999,0.9814005,-0.3139389999999999,0.9392115,0.0025095,-0.008233,1.0607885,-0.0025094999999999,0.0082329999999999,0.8954625,-0.3525695,-0.1035359999999999,1.1324225,-0.3555495,-0.07509,0.8220825,-0.9084995,-0.057337,1.1759425000000001,-0.8831395,-0.058435
33,1.031424,0.675945,-0.098851,0.884021,0.507305,-0.114854,0.8214310000000001,0.740115,-0.238993,1.170371,0.514055,-0.073195,1.254491,0.727595,-0.209513,0.840291,0.990095,-0.323073,1.242451,0.972975,-0.327673,0.938877,0.0023339999999999,-0.0086989999999999,1.061123,-0.002334,0.0086989999999999,0.8951709999999999,-0.351015,-0.1124619999999999,1.136801,-0.352965,-0.08324,0.8239810000000001,-0.893035,-0.060933,1.178461,-0.876265,-0.0622049999999999
34,1.0324195,0.6711555,-0.108768,0.8854805,0.5019855,-0.1259259999999999,0.8231305000000001,0.7314855,-0.251937,1.1703505,0.5092055,-0.081702,1.2557405,0.7212155,-0.221027,0.8436505,0.9831855,-0.338457,1.2411805,0.9625355,-0.3406369999999999,0.9385595,0.0022575,-0.009235,1.0614405,-0.0022574999999999,0.009235,0.8943305,-0.3466145,-0.121584,1.1411305,-0.3501545,-0.091104,0.8257105000000001,-0.8757645000000001,-0.063984,1.1795205,-0.8594645,-0.065424
35,1.033531,0.666074,-0.117278,0.886696,0.499994,-0.132665,0.824906,0.7244440000000001,-0.263559,1.1710559999999999,0.506144,-0.088756,1.257196,0.7144940000000001,-0.231989,0.847336,0.976614,-0.353049,1.239326,0.952954,-0.353289,0.9380730000000002,0.001949,-0.009519,1.0619269999999998,-0.0019489999999999,0.009519,0.893266,-0.340656,-0.1301,1.1454659999999999,-0.346016,-0.0992649999999999,0.827716,-0.857896,-0.066193,1.1806759999999998,-0.8423759999999999,-0.067863
36,1.0349235,0.6615840000000001,-0.1283794999999999,0.8881775,0.497194,-0.1430495,0.8271975,0.718304,-0.2782495,1.1723575,0.501024,-0.0998145,1.2590675,0.709014,-0.2464994999999999,0.8516975000000001,0.971344,-0.3703095,1.2378775,0.945994,-0.3690595,0.9375955,0.0018589999999999,-0.0094825,1.0624045,-0.0018589999999999,0.0094824999999999,0.8922975,-0.3318759999999999,-0.1417995,1.1501475,-0.3389259999999999,-0.1111835,0.8300775000000001,-0.8384159999999999,-0.0712625,1.1821774999999999,-0.8234159999999999,-0.0725615
37,1.0373225,0.6595344999999999,-0.1393495,0.8906625000000001,0.4949145,-0.1541145,0.8306725,0.7192345,-0.2924145,1.1745925,0.4963045,-0.1120585,1.2619225,0.7090945,-0.2614145,0.8568725,0.9732845,-0.3865145,1.2378624999999999,0.9446545,-0.3858945,0.9370425,0.0021855,-0.0093014999999999,1.0629575,-0.0021854999999999,0.0093014999999999,0.8916125,-0.3160455,-0.1571745,1.1565725,-0.3247255,-0.1282195,0.8333825000000001,-0.8114655,-0.0763515,1.1845725,-0.7966255,-0.0775715
38,1.0384025,0.657377,-0.1498065,0.8923095,0.494017,-0.1646165,0.8329495,0.719557,-0.3062865,1.1756895,0.4908369999999999,-0.1239435,1.2634794999999999,0.707727,-0.2758665,0.8609295,0.967617,-0.4026165,1.2367895,0.944587,-0.4017465,0.9373915,0.0025229999999999,-0.0090545,1.0626085,-0.0025229999999999,0.0090545,0.8899095,-0.300913,-0.1722265,1.1613695,-0.310293,-0.1448395,0.8356895,-0.784683,-0.0812705,1.1856895,-0.770803,-0.0824845
39,1.0391755,0.654265,-0.1606705,0.8937165,0.494445,-0.1743105,0.8348765,0.7174849999999999,-0.3200405,1.1768465,0.488025,-0.1350525,1.2647465,0.7002649999999999,-0.2897205,0.8644465,0.967365,-0.4182705,1.2355565,0.941805,-0.4186605,0.9378065,0.0026749999999999,-0.0085855,1.0621935,-0.002675,0.0085855,0.8881365,-0.285975,-0.1874705,1.1651164999999999,-0.295335,-0.1617205,0.8369165000000001,-0.7618750000000001,-0.0867785,1.1861964999999999,-0.747205,-0.0875565
40,1.0400375,0.652045,-0.1720134999999999,0.8952775,0.493715,-0.1853235,0.8367575,0.716495,-0.3342035,1.1781774999999999,0.483665,-0.1473335,1.2660875,0.692585,-0.3038135,0.8680875,0.967565,-0.4351035,1.2342975,0.939235,-0.4361235,0.9383155000000001,0.003275,-0.0081575,1.0616845,-0.003275,0.0081574999999999,0.8864974999999999,-0.2693449999999999,-0.2037835,1.1685475,-0.2795149999999999,-0.1793535,0.8394175,-0.736885,-0.0927705,1.1867075,-0.724055,-0.0932045
41,1.040886,0.651775,-0.184571,0.8966080000000001,0.494475,-0.196491,0.838268,0.7172350000000001,-0.349121,1.179208,0.482055,-0.159463,1.267108,0.6922550000000001,-0.319451,0.871338,0.967445,-0.451851,1.233018,0.937455,-0.454611,0.938699,0.0032049999999999,-0.007627,1.061301,-0.003205,0.0076269999999999,0.884448,-0.250915,-0.220831,1.171198,-0.262065,-0.197531,0.841638,-0.7130749999999999,-0.09928,1.186848,-0.700285,-0.099355
42,1.0415625,0.65181,-0.197274,0.8972385,0.49346,-0.207644,0.8394885000000001,0.71501,-0.363444,1.1800785,0.4772,-0.172234,1.2676885,0.69041,-0.3358939999999999,0.8737985,0.96649,-0.467814,1.2320085,0.93446,-0.473194,0.9389225,0.0034,-0.0070579999999999,1.0610775,-0.0033999999999999,0.007058,0.8825385,-0.2327499999999999,-0.2368539999999999,1.1729685,-0.2441399999999999,-0.215474,0.8436085,-0.69034,-0.1055219999999999,1.1864685,-0.67758,-0.1050049999999999
43,1.042112,0.65178,-0.2099174999999999,0.897743,0.4928599999999999,-0.2189475,0.8406629999999999,0.71715,-0.3784375,1.180623,0.47279,-0.1852275,1.268503,0.68948,-0.3532275,0.875113,0.96511,-0.4846075,1.230623,0.93413,-0.4931475,0.9390610000000001,0.00372,-0.0064395,1.0609389999999999,-0.00372,0.0064395,0.880653,-0.21301,-0.2530975,1.174333,-0.22332,-0.2332274999999999,0.845473,-0.66569,-0.1113625,1.184853,-0.65386,-0.1098275
44,1.0424385,0.6524749999999999,-0.222296,0.8981125000000001,0.492355,-0.229866,0.8414625,0.718415,-0.393026,1.1806825,0.467225,-0.197666,1.2679325,0.688615,-0.3702259999999999,0.8762525,0.964415,-0.499996,1.2295825,0.932885,-0.5125959999999999,0.9393755,0.0041649999999999,-0.0059039999999999,1.0606245,-0.004165,0.005904,0.8785525000000001,-0.193595,-0.268456,1.1754324999999999,-0.202295,-0.249746,0.8472525,-0.6410849999999999,-0.117393,1.1833525,-0.630415,-0.1142379999999999
45,1.0420855,0.6521399999999999,-0.230927,0.8980245,0.49024,-0.237057,0.8416045,0.71872,-0.403677,1.1795844999999998,0.4633,-0.205837,1.2663445,0.68632,-0.382617,0.8769045,0.95934,-0.512007,1.2282045,0.93015,-0.527947,0.9398025,0.0044,-0.005663,1.0601975,-0.0044,0.005663,0.8759745,-0.17557,-0.280067,1.1760245,-0.18257,-0.262827,0.8483245,-0.6173299999999999,-0.119777,1.1814545,-0.60768,-0.115077
46,1.041645,0.651435,-0.23973,0.8976830000000001,0.488565,-0.2433499999999999,0.841473,0.712305,-0.4138,1.178453,0.458825,-0.2128699999999999,1.2649029999999999,0.678115,-0.39497,0.877343,0.944305,-0.52386,1.226583,0.917275,-0.54114,0.940345,0.004315,-0.0056269999999999,1.059655,-0.004315,0.005627,0.873793,-0.162775,-0.28844,1.176113,-0.1690849999999999,-0.2708199999999999,0.849213,-0.600035,-0.1220469999999999,1.179563,-0.591475,-0.1155099999999999
47,1.0420655,0.650725,-0.248974,0.8978615,0.486645,-0.249814,0.8419915,0.7073050000000001,-0.424104,1.1779015,0.456645,-0.2199539999999999,1.2642415,0.671455,-0.407624,0.8782015,0.939075,-0.5343640000000001,1.2257315,0.903325,-0.5542039999999999,0.9405595,0.004135,-0.0055809999999999,1.0594405,-0.004135,0.005581,0.8720815,-0.147665,-0.297304,1.1770515,-0.1543749999999999,-0.279074,0.8503615000000001,-0.581685,-0.122055,1.1784215,-0.5740149999999999,-0.1164379999999999
48,1.042405,0.650595,-0.257499,0.898149,0.484685,-0.256309,0.842329,0.701755,-0.4345989999999999,1.1771989999999999,0.455725,-0.226529,1.263699,0.6677150000000001,-0.420999,0.878639,0.934075,-0.545979,1.224799,0.8972549999999999,-0.567009,0.940813,0.003865,-0.005542,1.059187,-0.003865,0.005542,0.869989,-0.131975,-0.306319,1.178109,-0.1382649999999999,-0.287089,0.851219,-0.563145,-0.1220199999999999,1.1774390000000001,-0.555865,-0.116939
49,1.041683,0.649295,-0.2666405,0.897587,0.480965,-0.2639805,0.841427,0.6952050000000001,-0.4463405,1.175687,0.451665,-0.2342605,1.262227,0.662035,-0.4345504999999999,0.878237,0.927815,-0.5601305,1.223527,0.889375,-0.5835105,0.941291,0.003645,-0.0052705,1.058709,-0.003645,0.0052704999999999,0.866727,-0.1192149999999999,-0.3148605,1.177937,-0.121915,-0.2952405,0.851187,-0.543435,-0.1222145,1.175587,-0.536425,-0.1183485
50,1.041232,0.6453099999999999,-0.27495,0.8976030000000002,0.4755199999999999,-0.27181,0.840973,0.68876,-0.4583,1.174503,0.4456449999999999,-0.24222,1.261223,0.65531,-0.44742,0.878443,0.92178,-0.57443,1.223003,0.88051,-0.5996999999999999,0.941278,0.0041399999999999,-0.005083,1.058722,-0.00414,0.0050829999999999,0.864063,-0.10557,-0.3220699999999999,1.178453,-0.10623,-0.30294,0.851763,-0.52507,-0.122585,1.174363,-0.5182,-0.120144
51,1.0409215,0.6404449999999999,-0.2826929999999999,0.8982015,0.473148,-0.278503,0.8407515,0.6840649999999999,-0.470943,1.1733414999999998,0.443015,-0.2487329999999999,1.2604815,0.6487149999999999,-0.458873,0.8789615,0.915395,-0.5892229999999999,1.2229315,0.870395,-0.614703,0.9414235,0.0043249999999999,-0.005037,1.0585765,-0.004325,0.005037,0.8614715,-0.092845,-0.3289729999999999,1.1790215,-0.090625,-0.309203,0.8524515000000001,-0.5078550000000001,-0.1224099999999999,1.1734715,-0.500675,-0.12215
52,1.0401605,0.6343000000000001,-0.2888755,0.8985785,0.468154,-0.2842155,0.8403285,0.67788,-0.4822055,1.1719085,0.438268,-0.2532855,1.2601285,0.6405000000000001,-0.4682755,0.8790185000000001,0.91089,-0.6013755,1.2235185,0.8611200000000001,-0.6270755,0.9414165,0.00447,-0.0049224999999999,1.0585835,-0.0044699999999999,0.0049224999999999,0.8591385,-0.0817399999999999,-0.3338755,1.1793185,-0.0766199999999999,-0.3136555,0.8532185000000001,-0.49322,-0.1252035,1.1731185,-0.48536,-0.1239015
53,1.040218,0.62897,-0.2939425,0.899908,0.463499,-0.2888025,0.840958,0.67101,-0.4923625,1.171638,0.433988,-0.2570825,1.261118,0.63252,-0.4757625,0.879058,0.89937,-0.6144325,1.2251979999999998,0.85004,-0.6381025,0.9412260000000001,0.00467,-0.0049355,1.0587739999999999,-0.00467,0.0049354999999999,0.858348,-0.0708699999999999,-0.3377525,1.1805679999999998,-0.0633699999999999,-0.3167125,0.854758,-0.47831,-0.1276795,1.1737479999999998,-0.47077,-0.1254075
54,1.0401375,0.621685,-0.2991439999999999,0.9017135000000001,0.459871,-0.2929239999999999,0.8417935,0.663845,-0.5019640000000001,1.1717435,0.430279,-0.2597939999999999,1.2627635,0.624345,-0.482644,0.8793035,0.891505,-0.6267240000000001,1.2270335,0.836145,-0.6476839999999999,0.9411005,0.005055,-0.0049439999999999,1.0588995,-0.0050549999999999,0.004944,0.8581835,-0.0605549999999999,-0.340664,1.1822935,-0.0509649999999999,-0.318304,0.8565435,-0.464835,-0.1294819999999999,1.1747635,-0.457325,-0.126876
55,1.039681,0.61337,-0.3035155,0.902937,0.454711,-0.2969255,0.842327,0.6571,-0.5109055,1.171597,0.425607,-0.2622755,1.264117,0.61521,-0.4877654999999999,0.8797969999999999,0.88489,-0.6389355,1.228707,0.82679,-0.6573455,0.940968,0.00541,-0.0049524999999999,1.059032,-0.0054099999999999,0.0049524999999999,0.858177,-0.0503399999999999,-0.3425355,1.184027,-0.0390499999999999,-0.3192755,0.858077,-0.4523899999999999,-0.1294374999999999,1.176107,-0.44359,-0.1285235
56,1.039333,0.6055349999999999,-0.3073884999999999,0.903954,0.4497529999999999,-0.3006485,0.842674,0.648585,-0.5180585,1.171514,0.4201759999999999,-0.2645484999999999,1.265404,0.606305,-0.4914785,0.879904,0.875145,-0.6506085,1.231014,0.818635,-0.6664285,0.9408210000000001,0.0059449999999999,-0.0049464999999999,1.0591789999999999,-0.005945,0.0049465,0.858494,-0.041515,-0.3435085,1.186024,-0.028385,-0.3193685,0.859794,-0.4411550000000001,-0.1275825,1.1774939999999998,-0.431555,-0.1293695
57,1.039015,0.597855,-0.3114409999999999,0.905018,0.445982,-0.304371,0.8420280000000001,0.639735,-0.524481,1.171498,0.414568,-0.267221,1.266758,0.598255,-0.494351,0.8799380000000001,0.8661350000000001,-0.660941,1.234008,0.809505,-0.6754309999999999,0.940702,0.006325,-0.004968,1.059298,-0.0063249999999999,0.004968,0.859378,-0.033775,-0.344351,1.1882679999999999,-0.0187249999999999,-0.320121,0.8618680000000001,-0.4310149999999999,-0.1267019999999999,1.178858,-0.420825,-0.13069
58,1.038677,0.59214,-0.3145755,0.9054180000000001,0.443612,-0.3059155,0.840908,0.63224,-0.5290555,1.171238,0.412968,-0.2688055,1.267748,0.59212,-0.4972855,0.8796180000000001,0.85873,-0.6680055,1.236208,0.8013600000000001,-0.6804455,0.940497,0.00614,-0.0049884999999999,1.059503,-0.0061399999999999,0.0049885,0.860228,-0.0294399999999999,-0.3458655,1.190428,-0.0126499999999999,-0.3215455,0.863718,-0.42467,-0.1263175,1.179928,-0.4142899999999999,-0.1321905
59,1.0377385,0.588945,-0.3173415,0.9056505,0.44108,-0.3086015,0.8391905,0.626085,-0.5331615000000001,1.1705705,0.411903,-0.2715515,1.2681405,0.5875250000000001,-0.5006115,0.8785305,0.854785,-0.6746115,1.2375905,0.795355,-0.6853515,0.9404145,0.005885,-0.0049944999999999,1.0595855,-0.0058849999999999,0.0049945,0.8604905,-0.0270049999999999,-0.3485515,1.1919905,-0.0089549999999999,-0.3241414999999999,0.8647205,-0.420975,-0.1259515,1.1801205,-0.4105949999999999,-0.1348805
60,1.036713,0.586344,-0.3209235,0.905634,0.438104,-0.3121135,0.837394,0.62192,-0.5368035,1.169904,0.4106019999999999,-0.2751135,1.268394,0.584595,-0.5041135,0.877094,0.85033,-0.6790035,1.239224,0.79377,-0.6887635,0.940424,0.0055199999999999,-0.0051334999999999,1.059576,-0.00552,0.0051334999999999,0.860704,-0.02583,-0.3517435,1.193524,-0.0071499999999999,-0.3267035,0.864744,-0.41917,-0.1264225,1.180044,-0.40879,-0.1384035
61,1.0357785,0.586344,-0.324744,0.9058535,0.437922,-0.315784,0.8368635,0.62192,-0.540594,1.1694635,0.4106019999999999,-0.2785539999999999,1.2693735,0.584595,-0.507804,0.8757735,0.85033,-0.6828540000000001,1.2413035,0.79374,-0.692384,0.9404455,0.0055199999999999,-0.005456,1.0595545,-0.00552,0.0054559999999999,0.8613035,-0.02583,-0.3543739999999999,1.1949835,-0.0071499999999999,-0.328614,0.8649135,-0.4189,-0.127971,1.1802535,-0.40858,-0.142098
62,1.0359705,0.586344,-0.3291705,0.9059415,0.437922,-0.3190005,0.8362315000000001,0.62192,-0.5451805,1.1689915,0.4106019999999999,-0.2817405,1.2703115,0.584595,-0.5122805,0.8752815,0.85033,-0.6874205,1.2430415,0.79374,-0.6968105,0.9403565,0.0055199999999999,-0.0056895,1.0596435,-0.00552,0.0056895,0.8622015000000001,-0.02583,-0.3572105,1.1962614999999999,-0.0067099999999999,-0.3305605,0.8649515,-0.4185299999999999,-0.1333565,1.1804615,-0.40812,-0.1456575
63,1.0357815,0.586344,-0.3311415,0.9054045,0.437922,-0.3211815,0.8354945,0.62192,-0.5478415,1.1687445,0.4106019999999999,-0.2838815,1.2711145,0.584595,-0.5147815,0.8745645000000001,0.85033,-0.6916515,1.2443345,0.79374,-0.7007815,0.9401545,0.0055199999999999,-0.0057585,1.0598455,-0.00552,0.0057585,0.8631745,-0.02583,-0.3592214999999999,1.1969545,-0.00572,-0.3315715,0.8647045000000001,-0.41754,-0.1382105,1.1802645,-0.40781,-0.1486555
64,1.0348105,0.58584,-0.33213,0.9042715,0.436332,-0.32259,0.8344615,0.62159,-0.54786,1.1678515,0.410635,-0.2861599999999999,1.2709915,0.583809,-0.5169,0.8731515,0.84982,-0.69423,1.2446115,0.79215,-0.70328,0.9400565,0.00534,-0.0055499999999999,1.0599435,-0.00534,0.0055499999999999,0.8635714999999999,-0.02724,-0.36076,1.1967815,-0.0060299999999999,-0.33275,0.8640015,-0.41788,-0.143299,1.1797615,-0.40728,-0.151425
65,1.033838,0.589275,-0.332575,0.902421,0.435486,-0.322155,0.832711,0.622075,-0.5469849999999999,1.1663109999999999,0.412513,-0.286195,1.269461,0.584495,-0.517015,0.871331,0.855485,-0.694655,1.243911,0.793655,-0.703145,0.9399500000000001,0.004775,-0.005495,1.06005,-0.0047749999999999,0.005495,0.863511,-0.030455,-0.361575,1.195821,-0.0087949999999999,-0.333965,0.862801,-0.4205449999999999,-0.148779,1.178771,-0.409415,-0.154374
66,1.0324805,0.596965,-0.3327,0.8989885,0.434604,-0.32108,0.8299585,0.623645,-0.54418,1.1638885,0.41336,-0.28635,1.2667985,0.586175,-0.51559,0.8682785,0.858185,-0.6928,1.2419985,0.798505,-0.70245,0.9398405,0.003925,-0.00562,1.0601595,-0.003925,0.00562,0.8625484999999999,-0.036595,-0.36241,1.1934885,-0.014855,-0.33496,0.8605185,-0.4268349999999999,-0.154869,1.1767785,-0.415215,-0.158022
67,1.030669,0.60408,-0.33159,0.8959760000000001,0.434299,-0.31886,0.826776,0.62636,-0.5393600000000001,1.161816,0.416209,-0.28573,1.264576,0.59093,-0.5136799999999999,0.864696,0.86476,-0.6877599999999999,1.239696,0.80389,-0.69967,0.939972,0.0029799999999999,-0.00576,1.060028,-0.0029799999999999,0.00576,0.861316,-0.0445199999999999,-0.3626899999999999,1.190686,-0.02322,-0.3357,0.857306,-0.43512,-0.159631,1.174416,-0.42438,-0.16136
68,1.0288475,0.611375,-0.329325,0.8929085,0.436534,-0.315645,0.8238885,0.631985,-0.534725,1.1598685,0.419217,-0.284605,1.2623885,0.598555,-0.509725,0.8609985,0.8775649999999999,-0.681875,1.2381185000000001,0.8078350000000001,-0.6920850000000001,0.9400205,0.002215,-0.005935,1.0599795,-0.002215,0.0059349999999999,0.8601084999999999,-0.0541449999999999,-0.362455,1.1878385,-0.0340949999999999,-0.335975,0.8536485,-0.445835,-0.16436,1.1720385,-0.436015,-0.164667
69,1.027133,0.620085,-0.325,0.889943,0.438522,-0.31211,0.8227030000000001,0.6415150000000001,-0.52783,1.158143,0.421362,-0.28314,1.260423,0.607195,-0.50471,0.857383,0.8913150000000001,-0.6753,1.236653,0.8133250000000001,-0.68265,0.940093,0.001815,-0.00593,1.059907,-0.001815,0.0059299999999999,0.859333,-0.0630749999999999,-0.36092,1.185143,-0.0453649999999999,-0.33583,0.850603,-0.456985,-0.168648,1.169893,-0.4479749999999999,-0.167842
70,1.0263494999999998,0.629105,-0.32059,0.8876505,0.444647,-0.30838,0.8219405,0.652315,-0.5205299999999999,1.1572205,0.428039,-0.28054,1.2593305,0.618765,-0.49889,0.8543505,0.903235,-0.6681,1.2359005,0.826325,-0.67304,0.9402005000000001,0.0015649999999999,-0.0058099999999999,1.0597995,-0.0015649999999999,0.00581,0.8593205000000002,-0.0736149999999999,-0.3586399999999999,1.1826305,-0.0582449999999999,-0.33448,0.8475705,-0.470475,-0.172736,1.1683305,-0.462165,-0.170568
71,1.0266275,0.6336649999999999,-0.3157149999999999,0.8860605,0.446386,-0.304815,0.8213005,0.659945,-0.511695,1.1569505,0.42991,-0.277925,1.2586805,0.626655,-0.491145,0.8519705,0.911645,-0.657975,1.2355505,0.835415,-0.6621049999999999,0.9401995,0.001365,-0.005675,1.0598005,-0.001365,0.0056749999999999,0.8598505,-0.087715,-0.355425,1.1802805,-0.075495,-0.332655,0.8451105,-0.488115,-0.176565,1.1673505,-0.4805649999999999,-0.173087
72,1.0277055,0.641135,-0.3113599999999999,0.8850725,0.452182,-0.30089,0.8216924999999999,0.668845,-0.5032,1.1575325,0.434912,-0.27493,1.2583525,0.635765,-0.48318,0.8501225,0.920935,-0.64821,1.2359825,0.845815,-0.65122,0.9403095000000001,0.001285,-0.0055499999999999,1.0596904999999999,-0.0012849999999999,0.0055499999999999,0.8610424999999999,-0.0991649999999999,-0.35114,1.1781125,-0.0920849999999999,-0.32975,0.8439225,-0.5066149999999999,-0.180222,1.1670025,-0.499255,-0.175482
73,1.02946,0.6483749999999999,-0.30662,0.884484,0.457515,-0.29585,0.8216140000000001,0.676125,-0.4949,1.158634,0.440728,-0.27056,1.258434,0.643625,-0.47426,0.848314,0.924045,-0.6378900000000001,1.236394,0.855505,-0.63886,0.940455,0.0009049999999999,-0.0056599999999999,1.059545,-0.0009049999999999,0.0056599999999999,0.862204,-0.112325,-0.3458799999999999,1.175954,-0.109655,-0.32565,0.842934,-0.5266550000000001,-0.182708,1.166784,-0.5194749999999999,-0.176911
74,1.0299729999999998,0.65137,-0.30117,0.884011,0.46157,-0.29208,0.821871,0.68417,-0.48601,1.160071,0.44476,-0.26798,1.258621,0.6513500000000001,-0.46483,0.846641,0.93398,-0.6262000000000001,1.237211,0.86599,-0.6258699999999999,0.940746,0.00098,-0.00565,1.059254,-0.0009799999999999,0.0056499999999999,0.863271,-0.12661,-0.34024,1.173851,-0.1276899999999999,-0.32068,0.842111,-0.54872,-0.185098,1.1669209999999999,-0.54076,-0.17843
75,1.0307285,0.6536200000000001,-0.29391,0.8848935,0.4677,-0.28706,0.8225035,0.69285,-0.47731,1.1616734999999998,0.45035,-0.2641,1.2597335,0.66004,-0.45559,0.8455035000000001,0.94497,-0.61495,1.2385035,0.87383,-0.61235,0.9408045,0.00128,-0.0054299999999999,1.0591955,-0.00128,0.00543,0.8645335000000001,-0.1390099999999999,-0.3326599999999999,1.1723135,-0.1449999999999999,-0.31426,0.8417935,-0.57007,-0.186087,1.1675535,-0.56169,-0.178643
76,1.031007,0.65306,-0.28473,0.8859430000000001,0.47567,-0.28225,0.822973,0.6994100000000001,-0.46728,1.163433,0.45519,-0.25958,1.261023,0.66729,-0.4449,0.844043,0.95537,-0.60225,1.239593,0.8820300000000001,-0.5979300000000001,0.9409460000000001,0.00164,-0.00542,1.059054,-0.0016399999999999,0.00542,0.8654729999999999,-0.1542999999999999,-0.32369,1.170413,-0.1622299999999999,-0.30461,0.841283,-0.5953999999999999,-0.186756,1.1681629999999998,-0.58661,-0.178679
77,1.029653,0.65244,-0.2747549999999999,0.886706,0.48107,-0.278125,0.8228759999999999,0.70562,-0.456005,1.164896,0.46079,-0.254915,1.261536,0.67268,-0.434775,0.842246,0.96082,-0.589585,1.239526,0.89405,-0.586335,0.941091,0.00179,-0.005405,1.058909,-0.00179,0.0054049999999999,0.866166,-0.1685499999999999,-0.314485,1.168286,-0.17735,-0.2953449999999999,0.841016,-0.61902,-0.187258,1.168276,-0.60969,-0.178577
78,1.0283445,0.64844,-0.26537,0.8873425,0.48574,-0.27391,0.8227925,0.71348,-0.4465,1.1662425,0.46658,-0.25,1.2617924999999999,0.6800299999999999,-0.42413,0.8408725,0.96583,-0.57601,1.2393725,0.90851,-0.57437,0.9413425,0.0017899999999999,-0.00542,1.0586575,-0.00179,0.00542,0.8666825,-0.18463,-0.30545,1.1659225,-0.19063,-0.28495,0.8404325,-0.6444,-0.18775,1.1683025,-0.63352,-0.178565
79,1.0276395,0.64332,-0.254985,0.8879765,0.484,-0.270375,0.8231065,0.71928,-0.436465,1.1679265,0.4698,-0.245555,1.2621164999999999,0.68468,-0.413525,0.8402165,0.97134,-0.561955,1.2396565,0.91441,-0.561505,0.9415145000000001,0.0016599999999999,-0.005275,1.0584855,-0.0016599999999999,0.005275,0.8677064999999999,-0.20014,-0.296065,1.1643765,-0.2042699999999999,-0.275215,0.8402465,-0.6687500000000001,-0.187776,1.1687664999999998,-0.65708,-0.178176
80,1.0279075,0.640055,-0.2442099999999999,0.8896705,0.487155,-0.26719,0.8247805,0.726505,-0.42456,1.1695704999999998,0.477445,-0.2405489999999999,1.2636405,0.695925,-0.4032199999999999,0.8392405000000001,0.977515,-0.54874,1.2399805,0.924955,-0.5473600000000001,0.9416045000000001,0.001145,-0.0051699999999999,1.0583954999999998,-0.0011449999999999,0.00517,0.8691504999999999,-0.208405,-0.28546,1.1629005000000001,-0.2131549999999999,-0.26461,0.8401105,-0.685315,-0.187188,1.1691605,-0.675825,-0.1771579999999999
81,1.027841,0.63534,-0.233193,0.891291,0.48491,-0.264425,0.826541,0.7295800000000001,-0.412855,1.170751,0.48145,-0.236052,1.265071,0.7046000000000001,-0.393885,0.838231,0.98442,-0.533185,1.239961,0.93122,-0.5335650000000001,0.941796,0.0002199999999999,-0.005025,1.058204,-0.0002199999999999,0.005025,0.870121,-0.21985,-0.275445,1.161281,-0.2226699999999999,-0.253815,0.840131,-0.70221,-0.186271,1.169371,-0.6942699999999999,-0.175774
82,1.027437,0.63189,-0.22139,0.8927080000000001,0.48278,-0.260735,0.827928,0.73049,-0.399965,1.171368,0.4899099999999999,-0.23044,1.266028,0.71424,-0.384345,0.836768,0.99127,-0.5181450000000001,1.240268,0.93751,-0.518745,0.941933,-0.0005799999999999,-0.004985,1.058067,0.0005799999999999,0.0049849999999999,0.8707480000000001,-0.2302999999999999,-0.264805,1.159238,-0.23139,-0.241755,0.8398580000000001,-0.7181799999999999,-0.184681,1.168778,-0.71156,-0.173856
83,1.0261115,0.62819,-0.208013,0.8938765,0.48199,-0.2550099999999999,0.8285765,0.7323999999999999,-0.38555,1.1713665,0.49654,-0.222935,1.2662265,0.72268,-0.37248,0.8346465000000001,0.99368,-0.50205,1.2403665,0.94106,-0.5017199999999999,0.9424605000000001,-0.00126,-0.00522,1.0575394999999999,0.0012599999999999,0.00522,0.8708265,-0.23941,-0.25214,1.1565365,-0.2385499999999999,-0.2275499999999999,0.8391065,-0.73244,-0.1811019999999999,1.1676765,-0.7266699999999999,-0.170095
84,1.0246755,0.623575,-0.1943099999999999,0.8955445000000001,0.4792249999999999,-0.249255,0.8295144999999999,0.732975,-0.370295,1.1714045,0.502595,-0.215562,1.2655545,0.7329950000000001,-0.359765,0.8326845,0.996945,-0.4828249999999999,1.2404845,0.950395,-0.483735,0.9429025000000001,-0.002055,-0.005385,1.0570974999999998,0.002055,0.005385,0.8708245,-0.248235,-0.2371849999999999,1.1536745,-0.243995,-0.213297,0.8385345,-0.7444649999999999,-0.177036,1.1667445,-0.739575,-0.166414
85,1.0229975,0.623724,-0.18227,0.8965955,0.475344,-0.2434049999999999,0.8299155,0.736384,-0.356415,1.1702155,0.507314,-0.209001,1.2642655,0.7437239999999999,-0.3474049999999999,0.8306055,1.001204,-0.466985,1.2406354999999998,0.958954,-0.4665249999999999,0.9433235,-0.002778,-0.0055449999999999,1.0566765,0.002778,0.005545,0.8715755000000001,-0.253796,-0.223642,1.1504254999999999,-0.247876,-0.20162,0.8375855,-0.751506,-0.172686,1.1654455,-0.746706,-0.1622299999999999
86,1.0211934999999999,0.623694,-0.171536,0.8973875,0.472184,-0.2366749999999999,0.8302375,0.739874,-0.3425549999999999,1.1687975,0.510434,-0.202837,1.2627275,0.7536039999999999,-0.334765,0.8278375,1.006624,-0.451245,1.2409975,0.965744,-0.449265,0.9439005,-0.003436,-0.0056649999999999,1.0560995,0.0034359999999999,0.005665,0.8719675,-0.259526,-0.2105579999999999,1.1461674999999998,-0.251996,-0.1893159999999999,0.8364075,-0.758976,-0.1679389999999999,1.1637875,-0.753906,-0.1575669999999999
87,1.019321,0.626396,-0.1615569999999999,0.898257,0.470866,-0.2299199999999999,0.830167,0.740926,-0.32814,1.167027,0.513656,-0.196895,1.260517,0.760806,-0.32215,0.824737,1.012436,-0.4360699999999999,1.241657,0.969096,-0.4321399999999999,0.94432,-0.0039069999999999,-0.0059399999999999,1.05568,0.003907,0.00594,0.8717969999999999,-0.264214,-0.1977999999999999,1.141797,-0.258184,-0.178178,0.8349070000000001,-0.764524,-0.163019,1.1618870000000001,-0.760544,-0.1528409999999999
88,1.017367,0.629346,-0.152227,0.899099,0.471536,-0.2233,0.83026,0.742716,-0.3138499999999999,1.16526,0.514956,-0.190944,1.25823,0.767826,-0.30852,0.82199,1.018556,-0.42103,1.24202,0.973286,-0.41442,0.944536,-0.0042169999999999,-0.0059599999999999,1.055464,0.0042169999999999,0.00596,0.87096,-0.267694,-0.184634,1.1373199999999999,-0.262604,-0.166715,0.83317,-0.7687539999999999,-0.1575939999999999,1.1596,-0.765394,-0.148219
89,1.0166645,0.6332505,-0.14398,0.8984675,0.4720405,-0.21633,0.8292955,0.7452305,-0.30184,1.1650255,0.5165704999999999,-0.184423,1.2571055,0.7720405,-0.29412,0.8212755,1.0236905,-0.4057699999999999,1.2435855,0.9832905,-0.39736,0.9443675,-0.0040985,-0.00594,1.0556325,0.0040984999999999,0.00594,0.8712655,-0.2738395,-0.172676,1.1339955,-0.2666995,-0.155768,0.8329455,-0.7753295,-0.150927,1.1582754999999998,-0.7698695,-0.142231
90,1.0163565,0.6395055,-0.134219,0.8978785000000001,0.4762355,-0.207585,0.8283985,0.7520655,-0.288575,1.1647285,0.5199155,-0.1756059999999999,1.2569685,0.7779055,-0.277855,0.8208685,1.0278255,-0.391185,1.2450085,0.9924255,-0.379395,0.9443615000000001,-0.0034754999999999,-0.0059349999999999,1.0556385,0.0034754999999999,0.0059349999999999,0.8717385,-0.2797345,-0.159348,1.1308485,-0.2711845,-0.144959,0.8326285,-0.7815745,-0.142213,1.1568885,-0.7745545,-0.134705
91,1.0160225,0.6449555,-0.121864,0.8970935,0.4810954999999999,-0.195904,0.8273575,0.7588455000000001,-0.273036,1.1642175,0.5192055,-0.164315,1.2564975,0.7829655,-0.258656,0.8202275,1.0322755,-0.372976,1.2458675,1.0017355,-0.3595859999999999,0.9443365,-0.0030345,-0.005654,1.0556635,0.0030344999999999,0.0056539999999999,0.8720675,-0.2801345,-0.144241,1.1276475,-0.2743645,-0.132232,0.8318175,-0.7879244999999999,-0.13006,1.1551675,-0.7778845,-0.123987
92,1.0161845,0.6529,-0.1030744999999999,0.8950165,0.48882,-0.1713595,0.8254475,0.75999,-0.2509765,1.1655775,0.51912,-0.1417495,1.2561575,0.77902,-0.2341965,0.8192174999999999,1.03247,-0.3475065,1.2461575,1.00432,-0.3342965,0.9441605,-0.002311,-0.0048774999999999,1.0558395,0.002311,0.0048775,0.8731375,-0.28973,-0.1233344999999999,1.1237475,-0.2851,-0.1142815,0.8304575,-0.80086,-0.1100054999999999,1.1530375,-0.7885599999999999,-0.1064185
93,1.0171035,0.661278,-0.085202,0.8933915,0.497138,-0.147973,0.8237115,0.761398,-0.230352,1.1674315,0.519238,-0.1196069999999999,1.2564815,0.772008,-0.210782,0.8181815,1.032058,-0.325562,1.2469115,1.003458,-0.310832,0.9437505,-0.001557,-0.0041409999999999,1.0562495,0.0015569999999999,0.0041409999999999,0.8747715,-0.298902,-0.1064489999999999,1.1206115,-0.295972,-0.0976779999999999,0.8297114999999999,-0.813242,-0.093314,1.1513615,-0.7993319999999999,-0.08918
94,1.0184595,0.669716,-0.068147,0.8917735,0.5045959999999999,-0.125107,0.8220135,0.761386,-0.211156,1.1692434999999999,0.519906,-0.097836,1.2572135,0.764926,-0.188476,0.8172535,1.030436,-0.304056,1.2474034999999999,1.003236,-0.289246,0.9431595,-0.0007689999999999,-0.0035239999999999,1.0568405,0.000769,0.003524,0.8760035,-0.307614,-0.090016,1.1178635,-0.306774,-0.081577,0.8290435,-0.825214,-0.073845,1.1502135,-0.809984,-0.072557
95,1.0199805,0.6782545,-0.051179,0.8888475,0.5114745,-0.103278,0.8199175000000001,0.7603745,-0.193078,1.1710375,0.5207245,-0.076158,1.2581674999999999,0.7575345,-0.167668,0.8162175,1.0279445,-0.283358,1.2476975,1.0030445,-0.269128,0.9424965,-4.4999999999975615e-06,-0.002946,1.0575035,4.500000000001031e-06,0.0029459999999999,0.8769875,-0.3160255,-0.073758,1.1158675,-0.3173155,-0.0655169999999999,0.8282175,-0.8375355,-0.055208,1.1491575,-0.8204054999999999,-0.056434
96,1.0215375,0.685915,-0.03462,0.8859215,0.517825,-0.081786,0.8179415,0.758845,-0.1761579999999999,1.1728415,0.521485,-0.054993,1.2591515,0.750535,-0.148638,0.8148815,1.0250549999999998,-0.264098,1.2475815,1.0029549999999998,-0.250888,0.9417655000000001,0.000563,-0.002199,1.0582345,-0.000563,0.0021989999999999,0.8780115,-0.328725,-0.057854,1.1140515,-0.327395,-0.049803,0.8273715,-0.849995,-0.037011,1.1480715,-0.830355,-0.040672
97,1.0232465,0.6937690000000001,-0.018456,0.8833335000000001,0.5246190000000001,-0.060614,0.8162635,0.7574890000000001,-0.160006,1.1748535,0.523289,-0.033992,1.2603435,0.7437290000000001,-0.130786,0.8138335,1.022249,-0.246246,1.2476835,1.0031489999999998,-0.234676,0.9411315,0.0010819999999999,-0.001515,1.0588685,-0.0010819999999999,0.001515,0.8790735000000001,-0.336811,-0.0422979999999999,1.1124735000000001,-0.337121,-0.035099,0.8264935,-0.8611209999999999,-0.019464,1.1472835,-0.839931,-0.025233
98,1.0249709999999999,0.701506,-0.002745,0.881453,0.531716,-0.039862,0.814693,0.755976,-0.144161,1.176953,0.524636,-0.013506,1.261753,0.7358359999999999,-0.114031,0.813223,1.019646,-0.230341,1.248003,0.995946,-0.219541,0.940507,0.001682,-0.000916,1.059493,-0.001682,0.000916,0.880083,-0.344314,-0.0274,1.111133,-0.347024,-0.021859,0.8257829999999999,-0.8713540000000001,-0.0027639999999999,1.146663,-0.849654,-0.0104619999999999
99,1.0267165,0.7059085,0.010574,0.8790505000000001,0.5360085,-0.021225,0.8129005,0.7512685,-0.1305359999999999,1.1793005,0.5244085,0.004364,1.2632205,0.7262385,-0.0993659999999999,0.8130305000000001,1.0170485,-0.217366,1.2487105,0.9890485,-0.206506,0.9399535000000001,0.0020295,-0.0003699999999999,1.0600465,-0.0020295,0.0003699999999999,0.8810905,-0.3506115,-0.015382,1.1099904999999999,-0.3552615,-0.011351,0.8251305000000001,-0.8797315,0.011667,1.1464305,-0.8577015,0.0021499999999999
100,1.0288915,0.710243,0.019512,0.8769235000000001,0.5408329999999999,-0.006759,0.8110135,0.745163,-0.1212789999999999,1.1820135,0.524063,0.018003,1.2652935,0.7177929999999999,-0.089749,0.8127234999999999,1.013003,-0.2085989999999999,1.2498835,0.980603,-0.197639,0.9394395,0.0024489999999999,-5.6000000000000494e-05,1.0605605,-0.002449,5.6000000000000494e-05,0.8824335000000001,-0.355917,-0.0085289999999999,1.1092535,-0.362847,-0.005405,0.8249135,-0.8865270000000001,0.021865,1.1465735,-0.8650869999999999,0.010594
101,1.0302365,0.710243,0.0210725,0.8767735000000001,0.5408329999999999,-0.0048245,0.8095935,0.745163,-0.1194824999999999,1.1821234999999999,0.524063,0.0196525,1.2674235,0.7177929999999999,-0.0881224999999999,0.8112435,1.013003,-0.2072225,1.2518435,0.980603,-0.1963425,0.9394655,0.0024489999999999,-4.649999999999793e-05,1.0605345,-0.002449,4.649999999999793e-05,0.8826435,-0.355917,-0.0088434999999999,1.1090135,-0.362847,-0.0064864999999999,0.8248335,-0.8853070000000001,0.0247665,1.1467235,-0.8650869999999999,0.0115885
102,1.031231,0.710243,0.0230755,0.876217,0.5408329999999999,-0.0024305,0.806847,0.745163,-0.1175095,1.182387,0.524063,0.0216555,1.270527,0.716953,-0.0862895,0.808437,1.013003,-0.2065295,1.254677,0.980603,-0.1954995,0.9394979999999999,0.0024489999999999,-7.650000000000018e-05,1.060502,-0.002449,7.650000000000018e-05,0.882827,-0.355917,-0.0089865,1.108757,-0.362847,-0.0069255,0.825007,-0.8846069999999999,0.0269355,1.146787,-0.8650869999999999,0.0128654999999999
103,1.0320785,0.710243,0.0248529999999999,0.8752805,0.5408329999999999,0.0003419999999999,0.8017105,0.745163,-0.1158439999999999,1.1826405,0.524063,0.023762,1.2752505,0.714283,-0.084064,0.8042405,1.013003,-0.207604,1.2602305,0.977403,-0.1960839999999999,0.9395285,0.0024489999999999,-0.00012,1.0604715,-0.002449,0.0001199999999999,0.8829605000000001,-0.355917,-0.008092,1.1085905,-0.362847,-0.007009,0.8254505,-0.8844369999999999,0.0291919999999999,1.1468405,-0.8650869999999999,0.0142169999999999
104,1.032617,0.7124435,0.027619,0.873679,0.5409735,0.003506,0.794249,0.7409235000000001,-0.1141529999999999,1.182699,0.5237435,0.025955,1.281909,0.7103435,-0.081973,0.7969189999999999,1.0055635,-0.211823,1.266359,0.9714635,-0.197863,0.939469,0.0024465,-8.500000000000174e-05,1.0605310000000001,-0.0024464999999999,8.500000000000174e-05,0.882749,-0.3557964999999999,-0.0070529999999999,1.108359,-0.3628264999999999,-0.0069099999999999,0.825219,-0.8820865,0.030591,1.146939,-0.8649465,0.015398
105,1.033205,0.71477,0.030372,0.871727,0.54014,0.0067,0.784427,0.7313,-0.112152,1.182957,0.52314,0.028098,1.290857,0.70402,-0.079402,0.788407,0.99366,-0.217702,1.273927,0.96256,-0.2046919999999999,0.939416,0.0024089999999999,-0.0001369999999999,1.060584,-0.002409,0.000137,0.882567,-0.35568,-0.0058999999999999,1.108117,-0.36282,-0.0071849999999999,0.825187,-0.87928,0.031932,1.147087,-0.86476,0.016536
106,1.0337395,0.716818,0.033122,0.8694445,0.5389379999999999,0.010083,0.7724945,0.7186779999999999,-0.110381,1.1833145,0.5225179999999999,0.0300819999999999,1.3016545,0.6915779999999999,-0.076971,0.7785545,0.975728,-0.225701,1.2839744999999998,0.946328,-0.211881,0.9393645000000002,0.002346,-0.0002199999999999,1.0606354999999998,-0.002346,0.0002199999999999,0.8822445,-0.355632,-0.0058129999999999,1.1080245,-0.362762,-0.007442,0.8255645,-0.876212,0.033498,1.1473245,-0.8645320000000001,0.0174849999999999
