sb224sc-HT22-VT27/4dt907/src/data/kinect_good_preprocessed_A9_mediapipe/A72_kinect.csv
FrameNo,nose_3d_x,nose_3d_y,nose_3d_z,left_shoulder_3d_x,left_shoulder_3d_y,left_shoulder_3d_z,left_elbow_3d_x,left_elbow_3d_y,left_elbow_3d_z,right_shoulder_3d_x,right_shoulder_3d_y,right_shoulder_3d_z,right_elbow_3d_x,right_elbow_3d_y,right_elbow_3d_z,left_wrist_3d_x,left_wrist_3d_y,left_wrist_3d_z,right_wrist_3d_x,right_wrist_3d_y,right_wrist_3d_z,left_hip_3d_x,left_hip_3d_y,left_hip_3d_z,right_hip_3d_x,right_hip_3d_y,right_hip_3d_z,left_knee_3d_x,left_knee_3d_y,left_knee_3d_z,right_knee_3d_x,right_knee_3d_y,right_knee_3d_z,left_ankle_3d_x,left_ankle_3d_y,left_ankle_3d_z,right_ankle_3d_x,right_ankle_3d_y,right_ankle_3d_z
40,-0.040319,0.7154865,0.0425285,-0.188137,0.5220865,0.042206499999999994,-0.257257,0.7439865,-0.0402555,0.120043,0.5558565,0.032368499999999994,0.175303,0.7767465,-0.0599875,-0.249317,1.0183965,-0.1379575,0.17695299999999997,1.0578965,-0.13980750000000003,-0.061099,-0.0031725000000000086,-0.0034705000000000014,0.061099,0.0031724999999999948,0.0034704999999999944,-0.114597,-0.3623335,-0.008447500000000004,0.118703,-0.3542035,0.003989499999999993,-0.15675699999999998,-0.8642835,0.012299499999999998,0.18306299999999998,-0.9023535,0.024799499999999995
41,-0.040338,0.7156680000000001,0.043094499999999994,-0.188203,0.5222380000000001,0.042118499999999996,-0.257113,0.744128,-0.040182499999999996,0.12001700000000001,0.556018,0.0322605,0.175387,0.776958,-0.05956550000000001,-0.249393,1.018118,-0.13809549999999998,0.17696699999999999,1.0578180000000001,-0.13946550000000002,-0.06109,-0.003152999999999989,-0.0033305,0.06109,0.003153000000000003,0.0033305,-0.11463300000000001,-0.36229199999999995,-0.0083115,0.118667,-0.35421199999999997,0.004166499999999997,-0.157123,-0.864292,0.012194499999999997,0.184977,-0.914122,0.025639499999999996
42,-0.040349499999999996,0.7159679999999999,0.043599,-0.1882705,0.522548,0.042029000000000004,-0.2569605,0.7440979999999999,-0.040129000000000005,0.1199895,0.556338,0.032169,0.17547949999999998,0.777238,-0.059167000000000004,-0.2493205,1.017298,-0.138247,0.17694949999999998,1.057898,-0.139147,-0.0610935,-0.003143000000000007,-0.0031860000000000013,0.0610935,0.003142999999999993,0.0031860000000000013,-0.1147205,-0.36229199999999995,-0.008256,0.1186595,-0.354202,0.0044480000000000006,-0.1574305,-0.8642920000000001,0.012102000000000002,0.1847695,-0.9145920000000001,0.025467
43,-0.040352,0.7162364999999999,0.044011499999999995,-0.188312,0.5228165,0.0419265,-0.25681200000000004,0.7440264999999999,-0.0401735,0.119948,0.5566065,0.032048499999999994,0.175578,0.7774865,-0.0588515,-0.249142,1.0155665,-0.13842150000000003,0.176908,1.0580665,-0.1389415,-0.061095,-0.0031425000000000064,-0.0030255000000000004,0.061095,0.0031424999999999925,0.0030254999999999935,-0.114742,-0.36229350000000005,-0.007929500000000006,0.11863800000000001,-0.3542035,0.004848499999999999,-0.157602,-0.8642935,0.011913499999999994,0.184748,-0.9153735000000001,0.025301499999999998
44,-0.040296,0.716467,0.0442365,-0.188313,0.523107,0.0416905,-0.256633,0.7438670000000001,-0.040439499999999996,0.119927,0.556847,0.0317965,0.175697,0.777597,-0.058727499999999995,-0.24878299999999998,1.014637,-0.1388075,0.176877,1.058237,-0.1389875,-0.061097,-0.003141000000000005,-0.0029295000000000015,0.061097,0.003141000000000005,0.0029295000000000015,-0.114763,-0.362293,-0.008012499999999999,0.118617,-0.354213,0.005136500000000002,-0.157713,-0.8643029999999999,0.011574500000000001,0.184917,-0.916473,0.024649499999999998
45,-0.040203,0.7166680000000001,0.044325,-0.188279,0.5234380000000001,0.041398000000000004,-0.256379,0.743638,-0.040785,0.119921,0.5570980000000001,0.031503,0.175841,0.7776480000000001,-0.058762999999999996,-0.248329,1.014048,-0.139353,0.176871,1.058348,-0.139133,-0.061090000000000005,-0.003160999999999997,-0.0028389999999999943,0.061090000000000005,0.003161000000000011,0.0028390000000000012,-0.114779,-0.362322,-0.008111,0.118501,-0.35421199999999997,0.0055710000000000065,-0.157759,-0.864352,0.011377000000000005,0.185221,-0.917662,0.024199000000000002
46,-0.040068999999999994,0.7169325000000001,0.0443375,-0.188251,0.5237825,0.04100550000000001,-0.25612100000000004,0.7434525000000001,-0.0412115,0.11991900000000001,0.5574625000000001,0.031141500000000003,0.176019,0.7777925,-0.05893849999999999,-0.247841,1.0124624999999998,-0.14010849999999997,0.17685900000000002,1.0583624999999999,-0.1392985,-0.061085,-0.003203499999999998,-0.002862499999999997,0.061085,0.003203499999999998,0.002862500000000004,-0.11479099999999999,-0.36238750000000003,-0.008265499999999995,0.11831900000000001,-0.3542175,0.006000500000000006,-0.157771,-0.8644474999999999,0.011217500000000005,0.185179,-0.9181475,0.023392500000000004
47,-0.039903999999999995,0.717287,0.0442635,-0.188215,0.523997,0.0405385,-0.255795,0.743287,-0.0416745,0.119895,0.557917,0.030719499999999997,0.176215,0.7780170000000001,-0.0591685,-0.247195,1.010917,-0.1412385,0.176935,1.058517,-0.1395185,-0.061080999999999996,-0.0031969999999999915,-0.0029474999999999987,0.061080999999999996,0.0031970000000000054,0.0029474999999999987,-0.114835,-0.362413,-0.008491499999999999,0.118145,-0.35429299999999997,0.0061784999999999965,-0.157775,-0.864433,0.011310500000000001,0.18685500000000002,-0.930743,0.023674499999999998
48,-0.039735000000000006,0.7176440000000001,0.0439855,-0.188184,0.524144,0.0398415,-0.255454,0.743084,-0.0423215,0.119876,0.558384,0.0300945,0.176456,0.778174,-0.0596015,-0.246504,1.0105840000000001,-0.1431815,0.177096,1.058084,-0.1400415,-0.061072,-0.0031719999999999943,-0.0029134999999999994,0.061072,0.003172000000000008,0.0029134999999999994,-0.11489400000000001,-0.36242599999999997,-0.008757500000000001,0.11795599999999999,-0.354416,0.006093500000000002,-0.157864,-0.864436,0.011153499999999997,0.18843600000000002,-0.943356,0.0244085
49,-0.039544,0.7179945,0.04346749999999999,-0.18811,0.5243045,0.0389005,-0.25509,0.7429245,-0.043217500000000006,0.11987,0.5589045,0.029225499999999995,0.17678,0.7783345,-0.0603485,-0.24589,1.0095345,-0.1454985,0.17737,1.0578344999999998,-0.1409485,-0.061039,-0.0031565000000000065,-0.002849500000000005,0.061039,0.0031564999999999926,0.002849499999999998,-0.11493999999999999,-0.3624555,-0.009108500000000005,0.11776,-0.3545455,0.005653499999999992,-0.15794,-0.8644755,0.010555499999999995,0.18991,-0.9558855,0.025075499999999994
50,-0.03931899999999999,0.7182945000000001,0.042718,-0.187978,0.5243845,0.037742,-0.25468799999999997,0.7427645,-0.044376,0.119842,0.5593945,0.02819,0.177152,0.7782945,-0.061324000000000004,-0.245258,1.0091845,-0.147814,0.17768199999999998,1.0575845,-0.14213399999999998,-0.061005000000000004,-0.0031214999999999993,-0.002896999999999997,0.061005000000000004,0.0031214999999999993,0.0028970000000000037,-0.11498799999999999,-0.3624655,-0.009549999999999996,0.11753200000000001,-0.3547355,0.005138999999999998,-0.15798800000000002,-0.8644955,0.009862000000000003,0.189462,-0.9558654999999999,0.024401000000000003
51,-0.0390775,0.7182945000000001,0.041629000000000006,-0.1878305,0.5243845,0.036485000000000004,-0.25424050000000004,0.7427645,-0.045709,0.1198095,0.5593945,0.027032000000000007,0.1776295,0.7782945,-0.062442,-0.2446905,1.0088845,-0.149762,0.1780795,1.0574845,-0.143472,-0.060951500000000006,-0.0031214999999999993,-0.0029729999999999965,0.060951500000000006,0.0031214999999999993,0.0029730000000000034,-0.11500049999999999,-0.3624655,-0.010146999999999996,0.1172895,-0.3547355,0.004162000000000006,-0.1579405,-0.8644955,0.008921000000000005,0.1889495,-0.9559455,0.024024000000000004
52,-0.0388,0.7182945000000001,0.040350000000000004,-0.18765300000000001,0.5243845,0.035036000000000005,-0.253713,0.7427645,-0.047353,0.11978699999999999,0.5593945,0.025735,0.178217,0.7782945,-0.063839,-0.244203,1.0081845,-0.151839,0.17857699999999999,1.0572845,-0.144959,-0.060876,-0.0031214999999999993,-0.002935,0.060876,0.0031214999999999993,0.002935,-0.11500300000000001,-0.3624655,-0.010898999999999999,0.117267,-0.3547355,0.002945000000000003,-0.157883,-0.8644955,0.007885000000000003,0.188837,-0.9559455,0.023463000000000005
53,-0.038613,0.7182945000000001,0.038708,-0.187534,0.5243845,0.033285999999999996,-0.25318399999999996,0.7427645,-0.049517000000000005,0.11968599999999999,0.5593945,0.024196,0.178816,0.7782945,-0.065543,-0.24385400000000002,1.0082845,-0.154173,0.179006,1.0569845,-0.146663,-0.060814,-0.0031214999999999993,-0.0030020000000000047,0.060814,0.0031214999999999993,0.0030019999999999977,-0.115114,-0.3624655,-0.012353000000000003,0.11715600000000001,-0.3547355,0.0014909999999999993,-0.157964,-0.8644955,0.006659999999999999,0.188726,-0.9560755,0.022009
54,-0.038368,0.7183705,0.037068500000000004,-0.187414,0.5243405000000001,0.0313495,-0.25264400000000004,0.7427805000000001,-0.0522885,0.119556,0.5597905000000001,0.022589500000000005,0.179506,0.7780605,-0.0673185,-0.24348399999999998,1.0078105000000002,-0.1568985,0.179396,1.0560105,-0.1485985,-0.060731999999999994,-0.003096499999999988,-0.0030534999999999937,0.060731999999999994,0.003096500000000002,0.0030535000000000007,-0.11504400000000001,-0.3625295,-0.0139665,0.117016,-0.3549295,-0.00011449999999999655,-0.15811399999999998,-0.8645594999999999,0.0052825000000000025,0.188346,-0.9552395,0.019984500000000002
55,-0.038137000000000004,0.7182784999999999,0.035042500000000004,-0.187285,0.5243285,0.029171500000000003,-0.252135,0.7427984999999999,-0.055628500000000004,0.11942499999999999,0.5602685,0.0207705,0.180355,0.7776084999999999,-0.06961149999999999,-0.243085,1.0072285,-0.1601115,0.17979499999999998,1.0546285000000002,-0.15111149999999998,-0.060624,-0.003113500000000005,-0.0028224999999999986,0.060624,0.0031134999999999913,0.0028224999999999986,-0.11497500000000001,-0.3626515,-0.015718499999999996,0.116925,-0.35513150000000004,-0.0032625000000000015,-0.158345,-0.8646815,0.0037965000000000013,0.189775,-0.9658615,0.018180500000000002
56,-0.037696499999999994,0.717713,0.0313965,-0.1871225,0.524543,0.0262145,-0.2515925,0.742723,-0.0606285,0.11937750000000001,0.560673,0.0178385,0.1816075,0.776823,-0.0734525,-0.24251250000000002,1.006343,-0.16460249999999998,0.1800375,1.052443,-0.1549325,-0.0604485,-0.003260000000000013,-0.002313499999999996,0.0604485,0.003259999999999999,0.002313500000000003,-0.11486249999999999,-0.362927,-0.018487499999999997,0.11669750000000001,-0.35522699999999996,-0.007626500000000001,-0.1586325,-0.864827,0.0018805000000000037,0.18946749999999998,-0.964417,0.015015500000000001
57,-0.03729500000000001,0.7168085,0.0269995,-0.187086,0.5247885000000001,0.022873499999999998,-0.25124599999999997,0.7423485000000001,-0.0664785,0.11924399999999999,0.5613085,0.014686499999999998,0.182884,0.7755885,-0.0780515,-0.241946,1.0063385,-0.1697815,0.179984,1.0493385,-0.1593815,-0.060260999999999995,-0.003414500000000001,-0.0018905000000000033,0.060260999999999995,0.003414499999999987,0.0018904999999999998,-0.114946,-0.3631915,-0.022878500000000003,0.11634399999999999,-0.3553515,-0.0134805,-0.160266,-0.8738215,-7.550000000000265e-05,0.189014,-0.9628315000000001,0.011758499999999998
58,-0.0368175,0.7153125,0.021833,-0.1871055,0.5251725,0.019434,-0.2510655,0.7414324999999999,-0.07298199999999999,0.11904450000000001,0.5613525,0.011006000000000002,0.1842045,0.7739925,-0.08332200000000001,-0.2412755,1.0062225,-0.175672,0.1799845,1.0458225,-0.164282,-0.0601165,-0.0035165000000000057,-0.0015349999999999982,0.0601165,0.003516499999999992,0.0015350000000000016,-0.1153355,-0.3633575,-0.027287,0.1159845,-0.3554675,-0.019635,-0.1619455,-0.8823475000000001,-0.002029999999999997,0.1885145,-0.9601475,0.008475
59,-0.0364935,0.714116,0.015787499999999996,-0.1868355,0.524916,0.014578499999999998,-0.2511855,0.740826,-0.08035049999999999,0.1190745,0.557946,0.004396499999999998,0.1852945,0.771636,-0.08947050000000001,-0.2406855,1.006816,-0.18212050000000002,0.1798145,1.042816,-0.1697505,-0.060047500000000004,-0.0036189999999999972,-0.001010500000000001,0.060047500000000004,0.0036189999999999972,0.0010104999999999975,-0.1160155,-0.363454,-0.0319095,0.1156945,-0.355474,-0.0265315,-0.1638455,-0.889174,-0.0043285000000000025,0.1874245,-0.956224,0.0052274999999999995
60,-0.036271,0.7121385,0.009054500000000002,-0.186608,0.5248784999999999,0.0096115,-0.25147800000000003,0.7396984999999999,-0.0882115,0.11911200000000001,0.5548285,-0.002287499999999998,0.186342,0.7689284999999999,-0.0961915,-0.239988,1.0071385000000002,-0.18925150000000002,0.179082,1.0395385000000001,-0.1759615,-0.059991,-0.0037345000000000017,-0.0004274999999999973,0.059991,0.0037345000000000017,0.0004275000000000008,-0.116728,-0.3634815,-0.0370475,0.115442,-0.3553615,-0.034493499999999996,-0.165798,-0.8956515,-0.006668499999999997,0.186062,-0.9520415000000001,0.0017595000000000006
61,-0.0361615,0.709399,0.0015350000000000016,-0.18628250000000002,0.525509,0.004614,-0.25201250000000003,0.738449,-0.096699,0.1190975,0.552029,-0.009250000000000001,0.1872875,0.766459,-0.103539,-0.23918250000000002,1.007559,-0.197099,0.1782575,1.032459,-0.182969,-0.059964500000000004,-0.003716000000000004,1.6999999999999654e-05,0.059964500000000004,0.003715999999999997,-1.6999999999999654e-05,-0.1175325,-0.36325100000000005,-0.042858999999999994,0.11534749999999999,-0.355281,-0.042864,-0.16782249999999999,-0.901261,-0.009222000000000001,0.1854175,-0.9484210000000001,-0.0006859999999999991
62,-0.036088,0.7067899999999999,-0.0064624999999999995,-0.18583500000000003,0.5255299999999999,-0.0013214999999999998,-0.252775,0.7376499999999999,-0.10560649999999999,0.119495,0.5493899999999999,-0.0167545,0.18828499999999998,0.76462,-0.1115565,-0.23878500000000003,1.00807,-0.2054865,0.177435,1.02717,-0.1899265,-0.060007000000000005,-0.0037570000000000034,0.0006675000000000014,0.060007000000000005,0.0037569999999999965,-0.0006675000000000014,-0.118525,-0.36289,-0.049189500000000004,0.115345,-0.35497999999999996,-0.0517835,-0.16974499999999998,-0.9054300000000001,-0.011886500000000001,0.18389499999999998,-0.94169,-0.004068499999999999
63,-0.036102999999999996,0.7035604999999999,-0.014554000000000001,-0.185369,0.5259404999999999,-0.006931,-0.253679,0.7365205,-0.114704,0.119901,0.5471905,-0.023978000000000003,0.189291,0.7623004999999999,-0.120344,-0.238529,1.0081205,-0.214184,0.17644100000000001,1.0225205,-0.197844,-0.060094999999999996,-0.003783500000000002,0.0013039999999999996,0.060094999999999996,0.003783500000000002,-0.0013039999999999996,-0.11971899999999999,-0.36233950000000004,-0.055824,0.115371,-0.35457950000000005,-0.060752,-0.171599,-0.9089995000000001,-0.014090000000000002,0.182301,-0.9354995,-0.006211000000000001
64,-0.0363825,0.701128,-0.022655500000000002,-0.1849525,0.522068,-0.0142075,-0.2547725,0.736108,-0.1240085,0.11975750000000002,0.544678,-0.0320145,0.18991750000000002,0.7609779999999999,-0.1290885,-0.2383725,1.008408,-0.2229685,0.1750775,1.019308,-0.2051285,-0.0603035,-0.003812000000000003,0.0018375000000000006,0.0603035,0.003812000000000003,-0.0018375000000000006,-0.1214125,-0.361572,-0.0626925,0.1151875,-0.353922,-0.0691585,-0.1736825,-0.9103920000000001,-0.015961499999999997,0.1803875,-0.9280120000000001,-0.007643499999999999
65,-0.03690349999999999,0.698035,-0.030011,-0.1845825,0.518505,-0.020703000000000003,-0.2558125,0.735295,-0.132586,0.11955750000000001,0.5428649999999999,-0.038921,0.1901975,0.759165,-0.137456,-0.2383625,1.000235,-0.230316,0.1735275,1.0166350000000002,-0.211746,-0.0605565,-0.003703999999999999,0.0021100000000000008,0.0605565,0.003703999999999999,-0.0021100000000000008,-0.12317249999999999,-0.360505,-0.068606,0.1150975,-0.353285,-0.076954,-0.1757125,-0.911115,-0.017506999999999998,0.1783675,-0.920185,-0.008583
66,-0.037282,0.6956425,-0.0368795,-0.183921,0.5153125,-0.026966500000000004,-0.256311,0.7354425,-0.1408705,0.119519,0.5391525,-0.046360500000000006,0.190499,0.7575025,-0.1456205,-0.23806100000000002,0.9930424999999999,-0.23682050000000002,0.171919,1.0154424999999998,-0.21839050000000002,-0.061006000000000005,-0.0035544999999999986,0.0023155,0.061006000000000005,0.0035544999999999986,-0.0023155,-0.125271,-0.3591475,-0.0734355,0.115299,-0.3525075,-0.08358449999999999,-0.176381,-0.9018375,-0.018752500000000005,0.17659899999999998,-0.9108775,-0.0090915
67,-0.037845000000000004,0.693805,-0.043454999999999994,-0.183338,0.512435,-0.033428,-0.256908,0.736955,-0.14924,0.119462,0.5333249999999999,-0.05431799999999999,0.190712,0.757325,-0.15357,-0.23783800000000002,0.987005,-0.24311000000000002,0.16997199999999998,1.016855,-0.22551000000000002,-0.061464000000000005,-0.0034600000000000004,0.0025629999999999993,0.061464000000000005,0.0034599999999999995,-0.002563000000000001,-0.127908,-0.35758500000000004,-0.07885099999999999,0.115562,-0.351465,-0.09097,-0.177078,-0.890725,-0.019939000000000002,0.17602199999999998,-0.900985,-0.009821
68,-0.0382855,0.6906035,-0.0498285,-0.1830825,0.5109435,-0.0382565,-0.25757250000000004,0.7373235,-0.15780450000000001,0.11925749999999999,0.5312435,-0.0593095,0.1912275,0.7572935000000001,-0.1619245,-0.2375825,0.9795335000000001,-0.2495045,0.1679375,1.0175635,-0.2327645,-0.0618785,-0.0033645000000000003,0.002578500000000001,0.0618785,0.0033645000000000003,-0.002578499999999999,-0.1306525,-0.3559565,-0.0845995,0.11580750000000001,-0.3503165,-0.0980645,-0.1775725,-0.8803365,-0.0209225,0.1756075,-0.8915365,-0.010009499999999998
69,-0.038658000000000005,0.689521,-0.05645050000000001,-0.18283,0.509001,-0.0443445,-0.25805,0.740861,-0.16742949999999998,0.11903999999999999,0.5284610000000001,-0.06580549999999999,0.19109,0.7595310000000001,-0.1710895,-0.23737999999999998,0.9750110000000001,-0.2569495,0.16581,1.021501,-0.24059950000000002,-0.062276,-0.0031590000000000003,0.0025934999999999986,0.062276,0.0031590000000000003,-0.0025935000000000003,-0.13413,-0.353779,-0.09152950000000001,0.11624,-0.34885900000000003,-0.10565949999999999,-0.17793,-0.866699,-0.0219315,0.17384,-0.8792989999999999,-0.010481500000000001
70,-0.039011000000000004,0.688614,-0.0630085,-0.182698,0.506324,-0.05078849999999999,-0.259158,0.744524,-0.1765745,0.118952,0.525564,-0.07240750000000001,0.191542,0.761594,-0.1807545,-0.237418,0.970444,-0.2642545,0.163732,1.029424,-0.24862450000000003,-0.062674,-0.0031069999999999987,0.0026084999999999997,0.062674,0.0031069999999999987,-0.0026084999999999997,-0.137608,-0.351566,-0.09877449999999999,0.11672199999999999,-0.347186,-0.1135245,-0.178308,-0.852786,-0.0229785,0.172142,-0.866626,-0.0108725
71,-0.0392375,0.6871375,-0.0691455,-0.1825365,0.5041375,-0.05604949999999999,-0.2601965,0.7473775,-0.1853575,0.11882349999999998,0.5222475,-0.07854349999999999,0.1919835,0.7628275,-0.1900875,-0.23764649999999998,0.9661375,-0.2716175,0.1618135,1.0355474999999998,-0.2570575,-0.0629975,-0.0030185000000000003,0.002750500000000001,0.0629975,0.0030185000000000003,-0.0027504999999999995,-0.1408865,-0.3492425,-0.10600749999999999,0.1172335,-0.3454125,-0.12136749999999999,-0.1785465,-0.8391925,-0.023264499999999997,0.17077350000000002,-0.8542825,-0.0106015
72,-0.0394425,0.6861045,-0.074772,-0.18241949999999998,0.5013945,-0.061251999999999994,-0.2611295,0.7503445,-0.192807,0.1187405,0.5182045,-0.084927,0.1923205,0.7648345,-0.198277,-0.2379395,0.9632645,-0.27862699999999996,0.1602605,1.0414145,-0.264327,-0.06339449999999999,-0.002855500000000004,0.0029890000000000003,0.06339449999999999,0.002855499999999997,-0.0029889999999999986,-0.1441295,-0.3467055,-0.11305700000000002,0.1179905,-0.3434955,-0.12923700000000002,-0.17852949999999998,-0.8241655,-0.023232999999999997,0.16985050000000002,-0.8401554999999999,-0.009933
73,-0.039491,0.683866,-0.081644,-0.18204,0.502576,-0.06587099999999999,-0.26175,0.745096,-0.20068,0.11902,0.514806,-0.09162000000000001,0.19278,0.761516,-0.20786000000000002,-0.23819,0.9540660000000001,-0.28658999999999996,0.15883999999999998,1.043966,-0.27286,-0.063502,-0.002617000000000008,0.003080000000000001,0.063502,0.0026169999999999943,-0.0030799999999999994,-0.14717,-0.344004,-0.12147,0.11869,-0.34110399999999996,-0.13752,-0.17827,-0.809874,-0.02422,0.16919,-0.826794,-0.010535
74,-0.0395845,0.6820364999999999,-0.08816,-0.1818255,0.5040165,-0.070281,-0.26236550000000003,0.7409265,-0.20738,0.1188545,0.5116065000000001,-0.09809999999999999,0.1926145,0.7586465,-0.21642,-0.23851550000000002,0.9505665000000001,-0.2947,0.1576945,1.0460365,-0.28115,-0.06357950000000001,-0.0024534999999999973,0.0030830000000000007,0.06357950000000001,0.0024534999999999973,-0.003082999999999999,-0.15042550000000002,-0.3372635,-0.12985,0.11919449999999998,-0.3359735,-0.14632,-0.17820550000000002,-0.7952535000000001,-0.025059999999999995,0.1686045,-0.8123635,-0.011011999999999997
75,-0.039428500000000005,0.6798995000000001,-0.0950095,-0.1813875,0.5034495,-0.0762315,-0.2626875,0.7374395,-0.2141195,0.11867250000000001,0.5088395,-0.1047295,0.1923825,0.7570595,-0.2247495,-0.2388875,0.9475495,-0.3031395,0.1570625,1.0444495,-0.2890795,-0.0636175,-0.0023804999999999937,0.0030844999999999987,0.0636175,0.0023805000000000076,-0.0030845000000000004,-0.1536775,-0.3284305,-0.1382895,0.11956250000000002,-0.3284305,-0.1549395,-0.1781075,-0.7798805,-0.0261875,0.16824250000000002,-0.7973304999999999,-0.011908500000000002
76,-0.039168499999999995,0.67787,-0.1020895,-0.1807075,0.5029399999999999,-0.08262950000000001,-0.2624675,0.73346,-0.2215695,0.1181625,0.50993,-0.11097950000000001,0.1921725,0.7546600000000001,-0.2338795,-0.2393975,0.94316,-0.3121395,0.1564725,1.04217,-0.29717950000000004,-0.0636625,-0.002349999999999991,0.0035685000000000005,0.0636625,0.002350000000000005,-0.0035684999999999988,-0.1566575,-0.31895999999999997,-0.14746949999999998,0.11992249999999999,-0.31989,-0.16514949999999998,-0.1784875,-0.7646900000000001,-0.027961499999999997,0.1679125,-0.78224,-0.0130885
77,-0.0387275,0.67783,-0.1100845,-0.18061649999999999,0.50204,-0.0914345,-0.2627465,0.7348600000000001,-0.2302745,0.11705349999999999,0.50964,-0.11945449999999999,0.1911835,0.7558400000000001,-0.2437145,-0.23991649999999998,0.94465,-0.3227345,0.1551535,1.04308,-0.3087645,-0.0643155,-0.00247,0.0035005,0.0643155,0.00247,-0.0035005,-0.16104649999999998,-0.3024,-0.1616545,0.11960349999999999,-0.30438,-0.1789045,-0.1796265,-0.74236,-0.031325500000000006,0.1669235,-0.76042,-0.0159235
78,-0.0378725,0.676285,-0.117452,-0.18014850000000002,0.501395,-0.09859200000000001,-0.2631185,0.7335050000000001,-0.238172,0.1164915,0.509925,-0.126062,0.1904915,0.7541450000000001,-0.252252,-0.2401385,0.942615,-0.33255199999999996,0.1540615,1.039655,-0.320552,-0.0652465,-0.002684999999999993,0.0035179999999999994,0.0652465,0.002684999999999993,-0.0035180000000000003,-0.1644785,-0.286765,-0.174192,0.11928149999999998,-0.289435,-0.190772,-0.18050850000000002,-0.7229350000000001,-0.034265000000000004,0.1661115,-0.7412650000000001,-0.02024
79,-0.036678,0.675,-0.12469899999999999,-0.179028,0.5001800000000001,-0.106349,-0.26306799999999997,0.7315100000000001,-0.24651900000000002,0.116702,0.50956,-0.132739,0.190252,0.7510300000000001,-0.260209,-0.239998,0.9405300000000001,-0.342689,0.154632,1.0284,-0.331199,-0.065941,-0.0027600000000000124,0.0034799999999999996,0.065941,0.0027600000000000124,-0.0034800000000000005,-0.167578,-0.2702,-0.187139,0.119332,-0.27352,-0.20298899999999998,-0.181068,-0.70248,-0.037987,0.166122,-0.7210700000000001,-0.024691000000000005
80,-0.03581,0.67547,-0.132397,-0.178242,0.4979,-0.113737,-0.263272,0.72872,-0.254307,0.116678,0.50963,-0.138847,0.189698,0.74361,-0.266887,-0.239642,0.93781,-0.353087,0.154918,1.01888,-0.340777,-0.066691,-0.0029700000000000004,0.00338,0.066691,0.0029700000000000004,-0.00338,-0.170842,-0.25366,-0.19924699999999998,0.11932799999999999,-0.25702,-0.214367,-0.182032,-0.68181,-0.04149,0.16591799999999998,-0.70091,-0.028606999999999997
81,-0.0348445,0.67622,-0.140473,-0.1773445,0.49604,-0.121223,-0.26394449999999997,0.7221899999999999,-0.26299300000000003,0.11670549999999999,0.50996,-0.144943,0.1890555,0.73763,-0.273673,-0.2389845,0.9351,-0.36452300000000004,0.1554255,1.01088,-0.35065300000000005,-0.0669065,-0.0031100000000000017,0.0032830000000000003,0.0669065,0.0031100000000000017,-0.0032829999999999995,-0.1741145,-0.23726999999999998,-0.211793,0.1194855,-0.24039,-0.225973,-0.1829145,-0.66086,-0.045193,0.1661555,-0.68005,-0.033451999999999996
82,-0.033226500000000006,0.67641,-0.149808,-0.1760295,0.49561,-0.129688,-0.2643295,0.72271,-0.272918,0.1171005,0.50995,-0.152108,0.18886050000000001,0.73572,-0.28193799999999997,-0.2374895,0.93748,-0.378438,0.1565505,1.00712,-0.362888,-0.0667655,-0.0032200000000000006,0.003276,0.0667655,0.0032200000000000006,-0.0032760000000000003,-0.1768995,-0.2211,-0.225408,0.1203205,-0.22391999999999998,-0.239018,-0.18352949999999998,-0.64094,-0.050809999999999994,0.1668905,-0.65893,-0.03992999999999999
83,-0.031627,0.677465,-0.15964,-0.17449900000000002,0.492745,-0.13979,-0.264809,0.722995,-0.28431,0.11752099999999999,0.507465,-0.1606,0.188771,0.734875,-0.29135,-0.235969,0.9426249999999999,-0.39387,0.157941,1.004955,-0.37620000000000003,-0.06661,-0.003454999999999986,0.003326,0.06661,0.003454999999999986,-0.003326,-0.179809,-0.20297500000000002,-0.23954,0.12132099999999998,-0.205355,-0.25219,-0.183669,-0.619725,-0.056933,0.167651,-0.636555,-0.046922
84,-0.0301735,0.6795500000000001,-0.1697045,-0.1732065,0.49249000000000004,-0.1489645,-0.2651965,0.72336,-0.29663449999999997,0.1180235,0.5081800000000001,-0.1686745,0.1891535,0.73322,-0.30167449999999996,-0.2344065,0.94764,-0.4107845,0.1596335,1.00271,-0.3902945,-0.0665325,-0.0035499999999999976,0.0032055,0.0665325,0.003550000000000053,-0.003205499999999999,-0.1825765,-0.18397999999999998,-0.2537645,0.1225135,-0.18605999999999995,-0.26670449999999996,-0.1843865,-0.59743,-0.0626915,0.1691035,-0.61365,-0.0536895
85,-0.0286135,0.68254,-0.178732,-0.1718385,0.49194000000000004,-0.156492,-0.2646085,0.72543,-0.307482,0.11871150000000001,0.5066,-0.175482,0.18963149999999998,0.73304,-0.310492,-0.23193850000000002,0.9504699999999999,-0.42631199999999997,0.1615015,1.00194,-0.40305199999999997,-0.0663325,-0.0033299999999999996,0.002775999999999999,0.0663325,0.0033299999999999996,-0.002776,-0.1851685,-0.16194999999999998,-0.266182,0.12377149999999999,-0.16514999999999996,-0.278022,-0.1851285,-0.5729500000000001,-0.06686399999999999,0.1704915,-0.59012,-0.059024
86,-0.027849,0.68303,-0.18744550000000001,-0.170511,0.49049999999999994,-0.1625255,-0.264241,0.7217899999999999,-0.3176655,0.119329,0.50539,-0.1807455,0.190249,0.7281599999999999,-0.31901549999999995,-0.229711,0.9490099999999999,-0.4403855,0.163419,0.9967699999999999,-0.4133455,-0.066134,-0.003080000000000027,0.0025164999999999996,0.066134,0.0030799999999999716,-0.0025165000000000005,-0.187001,-0.14533000000000007,-0.2742155,0.125069,-0.14977000000000007,-0.28698549999999995,-0.18534099999999998,-0.55537,-0.0697235,0.172079,-0.57204,-0.0632075
87,-0.026737499999999997,0.6833100000000001,-0.1965535,-0.1686455,0.4891,-0.16921350000000002,-0.2640955,0.7178800000000001,-0.32791349999999997,0.12027449999999999,0.50328,-0.1865235,0.19140449999999998,0.7236100000000001,-0.3281635,-0.2278355,0.9480599999999999,-0.45613349999999997,0.1669245,0.98797,-0.4233635,-0.0657075,-0.0027900000000000147,0.0022895,0.0657075,0.0027900000000000147,-0.0022895,-0.1888155,-0.12649,-0.28228349999999997,0.1266245,-0.13283,-0.29748349999999996,-0.1849855,-0.5363899999999999,-0.0726895,0.1740545,-0.5530599999999999,-0.0670515
88,-0.026137999999999998,0.683045,-0.20593,-0.167796,0.487475,-0.17564,-0.264456,0.711325,-0.33831,0.120664,0.501345,-0.19233999999999998,0.192364,0.7187749999999999,-0.33757000000000004,-0.227056,0.9453450000000001,-0.47131,0.168934,0.9875449999999999,-0.43413,-0.06548,-0.002674999999999983,0.002135999999999999,0.06548,0.002674999999999983,-0.0021360000000000007,-0.191106,-0.108155,-0.28969,0.127514,-0.11433500000000002,-0.30758,-0.185086,-0.517055,-0.074641,0.175254,-0.533725,-0.071569
89,-0.0247125,0.681115,-0.2131835,-0.16615749999999999,0.48719500000000004,-0.18064349999999998,-0.2639675,0.706925,-0.3474135,0.1214325,0.49928500000000003,-0.1967835,0.1948525,0.7166250000000001,-0.3461235,-0.2265675,0.942465,-0.4842035,0.1717625,0.986725,-0.4443535,-0.0646615,-0.002334999999999976,0.0018724999999999992,0.0646615,0.0023350000000000315,-0.001872500000000001,-0.1925375,-0.092995,-0.2952135,0.1290725,-0.09907499999999997,-0.31592349999999997,-0.1842975,-0.49690499999999993,-0.0757305,0.1773125,-0.514495,-0.0745205
90,-0.023584000000000004,0.6780700000000001,-0.220511,-0.164921,0.486113,-0.185941,-0.263671,0.70372,-0.35700099999999996,0.121919,0.49640000000000006,-0.201251,0.197439,0.71311,-0.35545099999999996,-0.226391,0.9380900000000001,-0.49715099999999995,0.174359,0.9839,-0.455101,-0.064015,-0.0021799999999999597,0.0015630000000000002,0.064015,0.0021800000000000153,-0.0015630000000000002,-0.194021,-0.07789999999999997,-0.299971,0.13022899999999998,-0.08392999999999995,-0.32363099999999995,-0.183651,-0.4771099999999999,-0.076058,0.178969,-0.49434999999999996,-0.076752
91,-0.022619,0.6756800000000001,-0.22809200000000002,-0.163863,0.48377200000000004,-0.191802,-0.264053,0.70143,-0.367292,0.122447,0.493126,-0.20628200000000002,0.200367,0.7092,-0.365802,-0.226193,0.93359,-0.510342,0.176587,0.98114,-0.466042,-0.063326,-0.0021799999999999597,0.0012830000000000012,0.063326,0.0021800000000000153,-0.0012829999999999994,-0.195323,-0.06208999999999998,-0.30465200000000003,0.131657,-0.06879999999999997,-0.332042,-0.182683,-0.45775999999999994,-0.076911,0.180497,-0.47526,-0.08020999999999999
92,-0.021964499999999998,0.672235,-0.2359505,-0.16334749999999998,0.483166,-0.1968505,-0.2650075,0.697935,-0.37813050000000004,0.1232125,0.49138499999999996,-0.2116105,0.2030825,0.704385,-0.3766605,-0.2262575,0.926455,-0.5236805,0.17868250000000002,0.977215,-0.4766805,-0.0627405,-0.002014999999999989,0.0012315,0.0627405,0.002014999999999989,-0.0012315000000000017,-0.1966375,-0.046345000000000025,-0.3091705,0.13283250000000002,-0.053875000000000006,-0.3403605,-0.1813675,-0.440975,-0.0781875,0.1817425,-0.45655500000000004,-0.0842835
93,-0.021907000000000003,0.66708,-0.244006,-0.163406,0.480184,-0.202046,-0.266376,0.6927800000000001,-0.388566,0.12343400000000002,0.48714300000000005,-0.217266,0.205244,0.69963,-0.387736,-0.22747599999999998,0.91869,-0.5366259999999999,0.18041400000000002,0.97261,-0.48765600000000003,-0.062150000000000004,-0.0020099999999999563,0.0012760000000000028,0.062150000000000004,0.0020100000000000118,-0.0012759999999999994,-0.198366,-0.031149999999999956,-0.31380600000000003,0.133624,-0.039459999999999995,-0.34812600000000005,-0.179856,-0.42496,-0.08112,0.182054,-0.43867,-0.08913499999999999
94,-0.021979,0.660505,-0.250218,-0.163521,0.47744699999999995,-0.205818,-0.268181,0.685425,-0.397578,0.123499,0.48450699999999997,-0.221218,0.207109,0.691865,-0.39731799999999995,-0.230091,0.9101049999999999,-0.547868,0.18237899999999999,0.964155,-0.49968799999999997,-0.061681,-0.0020850000000000035,0.0014890000000000007,0.061681,0.0020850000000000035,-0.0014890000000000007,-0.200191,-0.018735,-0.316588,0.134929,-0.028815000000000035,-0.354278,-0.178171,-0.411505,-0.08146400000000001,0.182239,-0.42401500000000003,-0.092849
95,-0.022008499999999993,0.65542,-0.2555215,-0.1635855,0.474483,-0.20895149999999998,-0.2701855,0.67791,-0.4050015,0.12395450000000002,0.48159599999999997,-0.22474149999999998,0.2088345,0.68607,-0.4056115,-0.2330755,0.90235,-0.5587715000000001,0.1853545,0.95279,-0.5104915,-0.0613535,-0.0022699999999999942,0.0016084999999999988,0.0613535,0.0022699999999999942,-0.0016085000000000023,-0.2020455,-0.004830000000000001,-0.3184715,0.1367045,-0.016449999999999965,-0.3591115,-0.17642549999999999,-0.39668000000000003,-0.08117150000000001,0.1822745,-0.40774,-0.09436050000000001
96,-0.022169,0.6505500000000001,-0.259826,-0.163573,0.47190800000000005,-0.211216,-0.272483,0.66995,-0.411036,0.12450699999999998,0.47926300000000005,-0.227506,0.21043699999999999,0.68074,-0.413106,-0.236103,0.8946100000000001,-0.5671360000000001,0.186697,0.94855,-0.519946,-0.061119,-0.0024699999999999722,0.001802999999999999,0.061119,0.0024700000000000832,-0.001802999999999999,-0.203403,0.008110000000000062,-0.320126,0.139177,-0.0045999999999999375,-0.362536,-0.174483,-0.3825299999999999,-0.082535,0.182447,-0.39196,-0.095534
97,-0.022695,0.64683,-0.263032,-0.16395099999999999,0.47023599999999993,-0.212412,-0.27509100000000003,0.6658,-0.415922,0.124739,0.477251,-0.229482,0.21146900000000002,0.6773499999999999,-0.419242,-0.23941099999999998,0.8891,-0.575382,0.18762900000000002,0.94452,-0.528842,-0.061208,-0.0024700000000000832,0.002034000000000001,0.061208,0.0024699999999999722,-0.0020339999999999976,-0.204701,0.020769999999999955,-0.321052,0.141409,0.007029999999999981,-0.365062,-0.173041,-0.3698100000000001,-0.08421200000000001,0.182099,-0.37640000000000007,-0.09612000000000001
98,-0.023092999999999995,0.64398,-0.265529,-0.164284,0.468736,-0.213279,-0.27755399999999997,0.66047,-0.420129,0.12481600000000001,0.475723,-0.230939,0.212356,0.67572,-0.424689,-0.242964,0.88366,-0.582979,0.188626,0.93979,-0.536999,-0.061314999999999995,-0.002630000000000021,0.002225999999999999,0.061314999999999995,0.002630000000000021,-0.0022260000000000023,-0.205874,0.03210999999999997,-0.322199,0.143706,0.016880000000000006,-0.367379,-0.173784,-0.35724999999999996,-0.08480599999999999,0.181716,-0.36250000000000004,-0.096829
99,-0.023732499999999997,0.6418839999999999,-0.2674725,-0.16504749999999999,0.46777099999999994,-0.2141625,-0.27974750000000004,0.65798,-0.42323249999999996,0.1247025,0.47447799999999996,-0.2321325,0.2127825,0.6732899999999999,-0.4290825,-0.2464275,0.87917,-0.5892824999999999,0.1895425,0.93615,-0.5444125,-0.0614875,-0.002610000000000001,0.002302499999999999,0.0614875,0.002610000000000001,-0.002302499999999999,-0.2072175,0.04233999999999993,-0.32348249999999995,0.1457225,0.02584999999999993,-0.3693825,-0.1747675,-0.34447000000000005,-0.0864095,0.1812325,-0.3487800000000001,-0.0977305
100,-0.0241365,0.640207,-0.268809,-0.1655295,0.46666699999999994,-0.214949,-0.2815095,0.6551469999999999,-0.425749,0.1246505,0.47362499999999996,-0.232929,0.2129805,0.67133,-0.431569,-0.2493795,0.87473,-0.5940690000000001,0.19083050000000001,0.93269,-0.551029,-0.06157750000000001,-0.0025000000000000577,0.0022889999999999994,0.06157750000000001,0.0024999999999999467,-0.0022889999999999994,-0.2083295,0.05125000000000002,-0.324999,0.1476305,0.03411999999999993,-0.370259,-0.1754795,-0.33432000000000006,-0.087073,0.1810405,-0.33591000000000004,-0.097565
101,-0.0240825,0.6395029999999999,-0.269545,-0.1658095,0.4654,-0.215585,-0.2825195,0.653297,-0.427105,0.12472049999999998,0.4728,-0.233575,0.2134805,0.6696059999999999,-0.432815,-0.2513195,0.8725499999999999,-0.597845,0.1926705,0.92936,-0.557125,-0.0617225,-0.0023600000000000287,0.0023,0.0617225,0.0023599999999999177,-0.0023,-0.2093595,0.05886000000000002,-0.326585,0.1497905,0.04116999999999993,-0.370975,-0.1759995,-0.32488000000000006,-0.087949,0.1812405,-0.3254600000000001,-0.09723000000000001
102,-0.0239215,0.639432,-0.269943,-0.1658645,0.4651,-0.21546300000000002,-0.28308449999999996,0.651487,-0.427943,0.1246855,0.4726,-0.233963,0.21408549999999998,0.66774,-0.433233,-0.2529145,0.8697600000000001,-0.600973,0.19479549999999998,0.92578,-0.562243,-0.061836499999999996,-0.0022199999999999998,0.0021730000000000013,0.061836499999999996,0.0022199999999999998,-0.002172999999999998,-0.2102145,0.06502000000000008,-0.327973,0.15205549999999998,0.04620000000000002,-0.371453,-0.1777645,-0.3166899999999999,-0.08777299999999999,0.1831155,-0.3170299999999999,-0.097696
103,-0.023592500000000002,0.6397919999999999,-0.2703825,-0.1654855,0.46429,-0.2152125,-0.2833255,0.64972,-0.42836250000000003,0.1254845,0.47203999999999996,-0.2343225,0.2148345,0.667222,-0.4336825,-0.2536855,0.87037,-0.6038325,0.1970345,0.9243299999999999,-0.5641325,-0.0619275,-0.0023000000000000798,0.002030500000000001,0.0619275,0.0022999999999999687,-0.002030500000000001,-0.2109655,0.0710599999999999,-0.3296025,0.1544845,0.05141999999999991,-0.3718225,-0.1797355,-0.30872,-0.08798249999999999,0.1848545,-0.30981000000000003,-0.09841549999999999
104,-0.0231215,0.6403300000000001,-0.270604,-0.16489150000000002,0.464565,-0.215014,-0.2833415,0.649324,-0.42880399999999996,0.12598849999999998,0.472685,-0.234014,0.2157085,0.6666420000000001,-0.434134,-0.2542515,0.8693850000000001,-0.6064740000000001,0.1983285,0.927665,-0.565474,-0.061937500000000006,-0.0022050000000000125,0.0017779999999999983,0.061937500000000006,0.0022050000000000125,-0.0017780000000000018,-0.21165150000000002,0.075345,-0.331414,0.15721849999999998,0.054565000000000086,-0.37128399999999995,-0.18043150000000002,-0.305195,-0.088576,0.18482849999999998,-0.304945,-0.099104
105,-0.0225785,0.641104,-0.27092099999999997,-0.1640035,0.46449,-0.214781,-0.2832535,0.6498820000000001,-0.429141,0.1266765,0.47365,-0.233361,0.21674649999999998,0.666381,-0.434261,-0.2545635,0.86895,-0.608621,0.1999165,0.93014,-0.5663009999999999,-0.0620505,-0.0021700000000000053,0.0014480000000000014,0.0620505,0.0021700000000000053,-0.001447999999999998,-0.2117435,0.07893000000000006,-0.333501,0.1595965,0.05724000000000007,-0.370251,-0.1826035,-0.30408999999999997,-0.093615,0.1853965,-0.30394999999999994,-0.10203300000000001
106,-0.0220285,0.64169,-0.2707055,-0.1632275,0.464365,-0.2144655,-0.2830475,0.6498970000000001,-0.4290755,0.1274125,0.474515,-0.2325155,0.21778250000000002,0.665824,-0.4335555,-0.2546275,0.8682650000000001,-0.6101055000000001,0.20157250000000002,0.9318150000000001,-0.5666555000000001,-0.0621985,-0.002275000000000027,0.0011644999999999989,0.0621985,0.002275000000000027,-0.0011645000000000023,-0.2116275,0.08154499999999998,-0.33562549999999997,0.16161250000000002,0.05893499999999996,-0.3692155,-0.1845475,-0.30059499999999995,-0.09422350000000002,0.18747250000000001,-0.29964499999999994,-0.10024450000000001
107,-0.0215785,0.641749,-0.27045600000000003,-0.1624465,0.46395000000000003,-0.214086,-0.2828565,0.650101,-0.428896,0.12816349999999999,0.47485000000000005,-0.231356,0.21880349999999998,0.665494,-0.432216,-0.2544765,0.86821,-0.610906,0.20325349999999998,0.9333,-0.566876,-0.0623895,-0.0022900000000000142,0.0008090000000000007,0.0623895,0.0022900000000000142,-0.0008090000000000007,-0.2111765,0.08368000000000009,-0.337926,0.16344350000000002,0.06028,-0.367976,-0.18461650000000002,-0.30128,-0.09923799999999999,0.18942350000000002,-0.29591,-0.097799
108,-0.021019999999999997,0.642221,-0.269942,-0.161611,0.4636050000000001,-0.213832,-0.282111,0.650306,-0.42883200000000005,0.12894899999999998,0.47577500000000006,-0.230372,0.219839,0.6659050000000001,-0.43049200000000004,-0.254221,0.8682850000000001,-0.611162,0.20486900000000002,0.9341650000000001,-0.5670620000000001,-0.062529,-0.0024649999999999395,0.0005940000000000008,0.062529,0.0024650000000000505,-0.0005940000000000008,-0.210401,0.08496500000000007,-0.34041200000000005,0.16534900000000002,0.06098500000000007,-0.366742,-0.187631,-0.2961649999999999,-0.09646099999999999,0.190089,-0.2971449999999999,-0.100046
109,-0.0205205,0.642726,-0.26939799999999997,-0.1609255,0.46351,-0.213628,-0.2813855,0.650447,-0.428798,0.1296545,0.47661999999999993,-0.229398,0.2207745,0.666779,-0.428798,-0.2539655,0.8691,-0.611308,0.20618450000000002,0.93506,-0.567008,-0.06268850000000001,-0.0026399999999999757,0.00035600000000000215,0.06268850000000001,0.0026399999999999757,-0.0003559999999999987,-0.2097455,0.08587999999999996,-0.342588,0.1673345,0.06131999999999993,-0.365588,-0.1907555,-0.29477,-0.09648000000000001,0.19044450000000002,-0.29564,-0.097219
110,-0.020095499999999995,0.6431539999999999,-0.268833,-0.1603225,0.46350499999999994,-0.213543,-0.2806525,0.6506219999999999,-0.428863,0.1303475,0.47742499999999993,-0.228543,0.2215475,0.667604,-0.427163,-0.25367249999999997,0.869925,-0.611513,0.2072675,0.9358849999999999,-0.5663729999999999,-0.0628295,-0.0028450000000000975,0.00017500000000000154,0.0628295,0.0028449999999999864,-0.00017499999999999807,-0.2095325,0.08649499999999999,-0.34447300000000003,0.1695075,0.06124499999999988,-0.364373,-0.1940525,-0.2935850000000001,-0.097057,0.1910675,-0.2982150000000001,-0.10170199999999999
111,-0.0197065,0.6436160000000001,-0.2681205,-0.15986150000000002,0.46389000000000014,-0.2134905,-0.28005149999999995,0.6511870000000001,-0.4289005,0.1310685,0.4780000000000001,-0.2275505,0.22221849999999999,0.6682390000000001,-0.4253905,-0.25320149999999997,0.8705600000000001,-0.6116005,0.2081885,0.93652,-0.5650904999999999,-0.06293850000000001,-0.002989999999999937,-6.150000000000252e-05,0.06293850000000001,0.002990000000000048,6.149999999999906e-05,-0.2097015,0.08742000000000005,-0.34604050000000003,0.1714385,0.06122000000000005,-0.36332050000000005,-0.1956715,-0.28906999999999994,-0.0935375,0.1913385,-0.30113999999999985,-0.10640150000000001
112,-0.019382499999999997,0.6441229999999999,-0.26726,-0.1595335,0.4643449999999999,-0.21336000000000002,-0.2794735,0.6517719999999999,-0.42881,0.1316965,0.4785249999999999,-0.22644,0.2227465,0.668824,-0.42345,-0.2525835,0.871145,-0.61132,0.2089965,0.9371049999999999,-0.56312,-0.0630275,-0.0031050000000000244,-0.00023500000000000257,0.0630275,0.0031049999999999134,0.0002349999999999991,-0.2103835,0.08800499999999989,-0.34682,0.1726365,0.06130499999999994,-0.36246,-0.1973235,-0.2837750000000001,-0.09002399999999999,0.19185649999999999,-0.30420500000000006,-0.11100000000000002
113,-0.019018,0.644423,-0.266252,-0.15926,0.46466,-0.213112,-0.27887,0.652157,-0.42852199999999996,0.13235999999999998,0.47875,-0.225262,0.22319999999999998,0.669417,-0.42136199999999996,-0.2522,0.87182,-0.610352,0.20969,0.9376800000000001,-0.5608420000000001,-0.063089,-0.003190000000000026,-0.00033000000000000043,0.063089,0.003190000000000026,0.00033000000000000043,-0.21113,0.08826999999999996,-0.347722,0.17336,0.06169000000000002,-0.362392,-0.198,-0.28235,-0.09026300000000001,0.19172,-0.31196,-0.121575
114,-0.018712,0.6447579999999999,-0.26527449999999997,-0.15903099999999998,0.46494,-0.2128645,-0.278361,0.652291,-0.4281045,0.132849,0.47917,-0.2242845,0.223549,0.669837,-0.4193245,-0.251971,0.87193,-0.6088944999999999,0.210279,0.9380999999999999,-0.5583545,-0.063095,-0.003290000000000015,-0.0004354999999999984,0.063095,0.003290000000000015,0.0004354999999999984,-0.21187099999999998,0.08868999999999994,-0.3485645,0.17383900000000002,0.06176000000000004,-0.36230450000000003,-0.19666099999999997,-0.28413,-0.0891135,0.18981900000000002,-0.32022000000000006,-0.1328045
115,-0.018318999999999995,0.6451,-0.264326,-0.15871400000000002,0.465195,-0.21257600000000001,-0.27778400000000003,0.652549,-0.42746599999999996,0.13339600000000001,0.479595,-0.223356,0.22393600000000002,0.670256,-0.41731599999999996,-0.251584,0.872205,-0.606786,0.210866,0.9388449999999999,-0.555686,-0.063108,-0.003354999999999997,-0.0005649999999999995,0.063108,0.003354999999999997,0.0005649999999999995,-0.212414,0.08910499999999999,-0.349226,0.174406,0.06178499999999998,-0.36219599999999996,-0.194494,-0.28739499999999996,-0.093474,0.18930600000000003,-0.32482500000000003,-0.137386
116,-0.017994,0.6456310000000001,-0.2630875,-0.158479,0.46565500000000004,-0.2120375,-0.27725900000000003,0.653221,-0.4261475,0.13395100000000001,0.4802850000000001,-0.2222975,0.224231,0.670946,-0.4153075,-0.25122900000000004,0.8728450000000001,-0.6032675,0.211381,0.939845,-0.5527574999999999,-0.063062,-0.003394999999999926,-0.0006695,0.063062,0.003395000000000037,0.0006695,-0.212499,0.08950500000000006,-0.3496575,0.174781,0.06219500000000011,-0.3626275,-0.193709,-0.2882849999999999,-0.0926025,0.18746100000000002,-0.33181499999999997,-0.1496675
117,-0.017594000000000002,0.6464179999999999,-0.2615765,-0.158186,0.46628499999999995,-0.21122649999999998,-0.27663600000000005,0.655107,-0.4240665,0.134554,0.48097499999999993,-0.2210665,0.224604,0.6728879999999999,-0.41334649999999995,-0.251136,0.874805,-0.5982765,0.211944,0.942125,-0.5499265,-0.063004,-0.003395000000000037,-0.0007024999999999983,0.063004,0.003394999999999926,0.0007025000000000017,-0.212216,0.09010499999999999,-0.34950649999999994,0.174924,0.063635,-0.36287650000000005,-0.192676,-0.287725,-0.0920695,0.186824,-0.331705,-0.1500765
118,-0.0172135,0.647262,-0.2600525,-0.15788750000000001,0.46696499999999996,-0.2103425,-0.27602750000000004,0.657038,-0.4217325,0.13512249999999998,0.48167499999999996,-0.2198825,0.22492250000000003,0.674825,-0.4115825,-0.2510175,0.877105,-0.5930124999999999,0.21249250000000003,0.944395,-0.5474424999999999,-0.0629395,-0.0033849999999999714,-0.0006945000000000007,0.0629395,0.0033849999999999714,0.0006945000000000007,-0.21202749999999998,0.09085500000000002,-0.34931249999999997,0.17501250000000002,0.064975,-0.3630525,-0.19142749999999997,-0.289705,-0.0968845,0.1854225,-0.33550500000000005,-0.1569725
119,-0.016823499999999998,0.6480950000000001,-0.258529,-0.15758250000000001,0.4676,-0.209419,-0.2754025,0.658995,-0.419309,0.1357175,0.48226,-0.218719,0.2251975,0.676903,-0.410159,-0.2508725,0.87957,-0.587869,0.2130975,0.94675,-0.545369,-0.0628775,-0.003349999999999964,-0.0006619999999999994,0.0628775,0.003350000000000075,0.0006619999999999994,-0.2121025,0.09162000000000003,-0.34874900000000003,0.17517749999999999,0.06605000000000005,-0.363219,-0.1917825,-0.2853199999999999,-0.091477,0.1857075,-0.3347399999999999,-0.156359
120,-0.0164195,0.6488280000000001,-0.2569725,-0.1572635,0.46826,-0.2084625,-0.27478349999999996,0.6609430000000001,-0.4168325,0.1363065,0.48272000000000004,-0.2176225,0.2254165,0.678944,-0.4089425,-0.2506535,0.88219,-0.5830225,0.2137665,0.94908,-0.5435325000000001,-0.0628095,-0.003269999999999995,-0.0006315000000000001,0.0628095,0.003269999999999995,0.0006315000000000001,-0.2125835,0.09243000000000001,-0.3479825,0.17558649999999998,0.06730999999999998,-0.3635025,-0.1921735,-0.28074,-0.0865885,0.1847265,-0.3386699999999999,-0.16469250000000002
121,-0.015989999999999997,0.649483,-0.255483,-0.156932,0.46887000000000006,-0.20750300000000002,-0.274152,0.6627980000000001,-0.414253,0.136918,0.48306000000000004,-0.216583,0.225658,0.6809280000000001,-0.40795299999999995,-0.250392,0.8847700000000001,-0.578383,0.214488,0.9512500000000002,-0.541983,-0.06274199999999999,-0.0031599999999999406,-0.0005940000000000008,0.06274199999999999,0.0031600000000000517,0.0005940000000000008,-0.213032,0.09328000000000003,-0.34746299999999997,0.17610800000000001,0.06830000000000003,-0.363933,-0.193192,-0.2789299999999999,-0.08709299999999999,0.184998,-0.3388699999999999,-0.165053
122,-0.015561499999999997,0.6501779999999999,-0.2540645,-0.15661049999999999,0.4695299999999999,-0.2065845,-0.2735805,0.6647159999999999,-0.4117345,0.1374995,0.4833099999999999,-0.2155745,0.22593950000000002,0.6828329999999999,-0.40714449999999996,-0.2501305,0.88733,-0.5741245,0.2152495,0.9532799999999999,-0.5407945000000001,-0.0627015,-0.0030400000000000427,-0.000557499999999999,0.0627015,0.0030399999999999316,0.000557499999999999,-0.21297049999999998,0.09391999999999989,-0.34692449999999997,0.1763595,0.06920999999999988,-0.3644445,-0.1939505,-0.27541000000000004,-0.0864055,0.1852895,-0.33703000000000005,-0.1644045
123,-0.015120999999999997,0.65082,-0.2526565,-0.156286,0.47017,-0.20562650000000002,-0.272966,0.666563,-0.4092465,0.138074,0.48351,-0.21456650000000002,0.226224,0.6845,-0.4064265,-0.249866,0.8896999999999999,-0.5702564999999999,0.216064,0.95513,-0.5399664999999999,-0.06268,-0.002909999999999968,-0.0004905000000000014,0.06268,0.002909999999999968,0.0004904999999999979,-0.212696,0.09451999999999994,-0.3462965,0.176594,0.07030000000000003,-0.3649765,-0.193546,-0.27339,-0.08742250000000001,0.186114,-0.33524,-0.1637265
124,-0.014643500000000002,0.65142,-0.251301,-0.15596349999999998,0.47079499999999996,-0.204681,-0.2723235,0.668322,-0.406951,0.13861649999999998,0.48360499999999995,-0.213601,0.2264965,0.685989,-0.405691,-0.2496135,0.891915,-0.567001,0.2169665,0.956855,-0.539261,-0.0626685,-0.0027850000000000374,-0.0004080000000000021,0.0626685,0.0027850000000000374,0.00040799999999999864,-0.2124235,0.09523499999999996,-0.345651,0.1768265,0.071415,-0.365361,-0.19209350000000003,-0.27278500000000006,-0.087699,0.1876665,-0.333495,-0.16304100000000002
125,-0.014138000000000001,0.651951,-0.25023100000000004,-0.155636,0.47125,-0.203931,-0.271686,0.669803,-0.405361,0.138994,0.48364,-0.212841,0.226734,0.687148,-0.40504100000000004,-0.249326,0.89364,-0.5651510000000001,0.21795399999999998,0.95824,-0.538641,-0.062682,-0.00268999999999997,-0.00036699999999999927,0.062682,0.00268999999999997,0.00036699999999999927,-0.212196,0.09579000000000004,-0.345241,0.176904,0.07232000000000005,-0.364991,-0.19064599999999998,-0.27371999999999996,-0.088304,0.18848399999999998,-0.3295,-0.157181
126,-0.0136995,0.652263,-0.24948199999999998,-0.1553735,0.47150000000000003,-0.203462,-0.2711635,0.670189,-0.404642,0.1392765,0.48362000000000005,-0.212342,0.2268865,0.6872280000000001,-0.40462200000000004,-0.2491835,0.894,-0.564732,0.2187865,0.95838,-0.538242,-0.0626995,-0.002630000000000021,-0.0003490000000000021,0.0626995,0.002630000000000021,0.0003489999999999986,-0.2116935,0.09587000000000001,-0.34524200000000005,0.1767565,0.07230999999999999,-0.364752,-0.1905535,-0.27325999999999995,-0.08924299999999999,0.18916650000000002,-0.32480999999999993,-0.150442
127,-0.013251499999999996,0.6525869999999999,-0.2487945,-0.15510949999999998,0.4716099999999999,-0.20306449999999998,-0.2706295,0.6705239999999999,-0.4042445,0.1395905,0.4834799999999999,-0.2118545,0.22708050000000002,0.687325,-0.4043945,-0.2490395,0.8941999999999999,-0.5643245,0.21961050000000001,0.95844,-0.5381045,-0.0627235,-0.0025500000000000522,-0.00032849999999999893,0.0627235,0.002549999999999941,0.00032849999999999893,-0.2109295,0.09585999999999995,-0.3452545,0.17651050000000001,0.07241999999999993,-0.3644445,-0.18987949999999998,-0.27338000000000007,-0.0887655,0.1894905,-0.3199400000000001,-0.14383449999999998
128,-0.012788000000000002,0.65291,-0.2480445,-0.15483,0.47164,-0.2025545,-0.27007000000000003,0.670897,-0.4037645,0.1399,0.48324,-0.2112845,0.22732,0.687478,-0.40427450000000004,-0.24857,0.89442,-0.5638445,0.22035,0.9585,-0.5382545,-0.062764,-0.0024600000000000177,-0.0003165000000000008,0.062764,0.0024600000000000177,0.0003165000000000008,-0.21003,0.09565999999999997,-0.3449845,0.17622,0.07274999999999998,-0.36392450000000004,-0.1903,-0.27296,-0.0886545,0.19029,-0.31469,-0.1359545
129,-0.0123385,0.6532349999999999,-0.2473805,-0.1545625,0.47156,-0.2019905,-0.2694725,0.6713969999999999,-0.40326049999999997,0.1401875,0.4829899999999999,-0.21070049999999999,0.2275375,0.687978,-0.4039705,-0.2475125,0.8954599999999999,-0.5635805,0.22099749999999999,0.959,-0.5383305,-0.0628015,-0.0023800000000000487,-0.0003014999999999997,0.0628015,0.0023799999999999377,0.0003014999999999997,-0.20909250000000001,0.09536999999999995,-0.3446805,0.1759975,0.07289999999999996,-0.3630505,-0.1909025,-0.27248000000000006,-0.0881035,0.1912075,-0.30634000000000006,-0.12225050000000001
130,-0.011831499999999998,0.6532349999999999,-0.246804,-0.1542605,0.47153999999999996,-0.201524,-0.2687405,0.6715439999999999,-0.402914,0.1405095,0.4829899999999999,-0.21021399999999998,0.2278195,0.688334,-0.403694,-0.2463605,0.89616,-0.563984,0.2216395,0.95926,-0.5385040000000001,-0.0628685,-0.0023800000000000487,-0.0003119999999999998,0.0628685,0.0023799999999999377,0.0003119999999999998,-0.2080905,0.0950899999999999,-0.344234,0.1759495,0.07278999999999991,-0.362234,-0.1915305,-0.2708100000000001,-0.08541499999999999,0.1909895,-0.30301,-0.116547
131,-0.011324999999999998,0.6532349999999999,-0.2461865,-0.15403599999999998,0.47153999999999996,-0.2010965,-0.26796600000000004,0.671669,-0.40263649999999995,0.14083400000000001,0.4829899999999999,-0.2096865,0.228084,0.6886979999999999,-0.40326649999999997,-0.245176,0.89667,-0.5645965000000001,0.222244,0.95949,-0.5385365,-0.062947,-0.0023800000000000487,-0.00032949999999999993,0.062947,0.0023799999999999377,0.00032949999999999993,-0.20707599999999998,0.09499999999999997,-0.3437665,0.175884,0.07286999999999999,-0.36160650000000005,-0.191346,-0.26924000000000003,-0.0849945,0.19259400000000002,-0.2948200000000001,-0.1030455
132,-0.010813,0.6532349999999999,-0.245608,-0.153795,0.47153999999999996,-0.20074799999999998,-0.267145,0.6717359999999999,-0.40251800000000004,0.141125,0.4829899999999999,-0.209168,0.228355,0.6888569999999999,-0.402888,-0.244025,0.89713,-0.565388,0.222815,0.95949,-0.538508,-0.063039,-0.0023800000000000487,-0.00034600000000000256,0.063039,0.0023799999999999377,0.0003459999999999991,-0.20607499999999998,0.09499999999999997,-0.34355800000000003,0.175855,0.07304,-0.360928,-0.191305,-0.26804000000000006,-0.084613,0.193415,-0.29102000000000006,-0.09598200000000001
133,-0.010315000000000005,0.6534249999999999,-0.2449105,-0.15353999999999998,0.47136999999999996,-0.20041050000000002,-0.26636000000000004,0.672106,-0.4025105,0.14145000000000002,0.48283,-0.20846050000000002,0.22862000000000002,0.688997,-0.4025105,-0.24298,0.89696,-0.5660405,0.22332000000000002,0.95939,-0.5382804999999999,-0.063108,-0.0023000000000000798,-0.00040050000000000155,0.063108,0.0022999999999999687,0.0004004999999999981,-0.20514,0.09482999999999997,-0.34337049999999997,0.17586000000000002,0.07297999999999993,-0.3591505,-0.19197999999999998,-0.26697000000000004,-0.0829955,0.19478,-0.28615,-0.0893015
134,-0.009872499999999998,0.6536320000000001,-0.2441895,-0.1533265,0.471465,-0.2001195,-0.26564649999999995,0.6725500000000001,-0.4026895,0.1417435,0.4827450000000001,-0.2077795,0.2288135,0.688918,-0.4020495,-0.2420965,0.8967750000000001,-0.5665095,0.2237935,0.9591350000000001,-0.5379594999999999,-0.06315950000000001,-0.002274999999999916,-0.00040050000000000155,0.06315950000000001,0.002275000000000027,0.0004004999999999981,-0.2043265,0.09479500000000007,-0.3434295,0.17578349999999998,0.07308500000000007,-0.3581995,-0.1926465,-0.26592499999999997,-0.0832265,0.1956335,-0.2825549999999999,-0.08314250000000001
135,-0.009497999999999998,0.6537139999999999,-0.24341500000000002,-0.153232,0.4715299999999999,-0.199855,-0.264972,0.6728789999999999,-0.40286500000000003,0.141988,0.48255999999999993,-0.20705500000000002,0.228928,0.688657,-0.401465,-0.241262,0.8966799999999999,-0.566785,0.224218,0.95866,-0.537655,-0.063205,-0.0022100000000000453,-0.00039400000000000025,0.063205,0.0022099999999999342,0.000394000000000002,-0.203602,0.0948699999999999,-0.343665,0.175718,0.07275999999999994,-0.356725,-0.193372,-0.26502000000000003,-0.083568,0.196408,-0.2791300000000001,-0.077426
136,-0.0091745,0.6537820000000001,-0.242531,-0.1531095,0.47165500000000005,-0.199621,-0.2642795,0.6732060000000001,-0.40287100000000003,0.1422005,0.48243500000000006,-0.206311,0.2290605,0.6883760000000001,-0.400801,-0.2404795,0.896665,-0.566721,0.2245105,0.958095,-0.537351,-0.0632605,-0.002134999999999998,-0.0004120000000000009,0.0632605,0.002134999999999998,0.00041199999999999917,-0.2029995,0.09480500000000003,-0.34427100000000005,0.1756205,0.07240500000000005,-0.355161,-0.1938595,-0.2649149999999999,-0.08291899999999999,0.1964505,-0.27593499999999993,-0.072319
137,-0.008925500000000001,0.653788,-0.2416325,-0.1529855,0.47214,-0.1993425,-0.26363549999999997,0.673427,-0.4026125,0.1423645,0.48232,-0.2055925,0.22920449999999998,0.688183,-0.4000325,-0.2397955,0.8965000000000001,-0.5664625,0.22465449999999998,0.9576800000000001,-0.5369824999999999,-0.0633165,-0.0020599999999999508,-0.0004305000000000003,0.0633165,0.0020600000000000618,0.0004305000000000003,-0.20247549999999997,0.09416999999999998,-0.3448125,0.17551450000000002,0.07232000000000005,-0.35370250000000003,-0.19421549999999999,-0.26476999999999995,-0.08248749999999999,0.19634449999999998,-0.27534000000000003,-0.0724755
138,-0.008708500000000003,0.653797,-0.24054350000000002,-0.15285649999999998,0.47272,-0.19898349999999998,-0.26299649999999997,0.673658,-0.4022735,0.14257350000000002,0.48223,-0.20479350000000002,0.2294035,0.688061,-0.3989035,-0.2391765,0.89628,-0.5661235,0.2248535,0.95737,-0.5363235,-0.0633855,-0.0019700000000000273,-0.0005594999999999992,0.0633855,0.0019700000000000273,0.000559500000000001,-0.2019665,0.09373999999999993,-0.3452735,0.1754735,0.07194,-0.35218350000000004,-0.19465649999999998,-0.26452,-0.0821045,0.1959035,-0.27837,-0.0746915
139,-0.008412000000000003,0.653745,-0.2392045,-0.152692,0.47340000000000004,-0.19840449999999998,-0.26240199999999997,0.673884,-0.4017845,0.142858,0.48217000000000004,-0.20383449999999997,0.22950800000000002,0.687913,-0.3971645,-0.23860199999999998,0.89609,-0.5656345,0.22514800000000001,0.95706,-0.5352045000000001,-0.063441,-0.0019399999999999418,-0.0006924999999999987,0.063441,0.0019400000000000528,0.0006925000000000004,-0.20141199999999998,0.09303000000000006,-0.3453745,0.17558800000000002,0.07161000000000006,-0.3505445,-0.195492,-0.2636099999999999,-0.0827125,0.19584800000000002,-0.27869999999999995,-0.0738585
140,-0.0081055,0.653788,-0.23771199999999998,-0.1525625,0.47416500000000006,-0.197822,-0.26184250000000003,0.6743100000000001,-0.401082,0.14313749999999997,0.482205,-0.202872,0.22945749999999998,0.68855,-0.395272,-0.2381125,0.896395,-0.564742,0.2254375,0.957365,-0.5339820000000001,-0.0634815,-0.0018850000000000255,-0.0008330000000000004,0.0634815,0.0018850000000000255,0.0008330000000000004,-0.20111249999999997,0.09309500000000004,-0.345802,0.17589749999999998,0.071295,-0.349022,-0.19522250000000002,-0.263775,-0.0822,0.19575749999999997,-0.278915,-0.072546
141,-0.0078655,0.6541570000000001,-0.23607550000000002,-0.1525065,0.47507000000000005,-0.1975155,-0.26133649999999997,0.6751720000000001,-0.3999655,0.14335350000000002,0.48238000000000003,-0.2021155,0.2292035,0.690002,-0.3933155,-0.23772649999999998,0.8973200000000001,-0.5633255,0.2254235,0.9585600000000001,-0.5324355,-0.0635095,-0.0018699999999999273,-0.0009164999999999989,0.0635095,0.0018700000000000383,0.0009165000000000006,-0.2008565,0.09340000000000004,-0.3464855,0.17634350000000001,0.07094000000000011,-0.3481955,-0.1939265,-0.2653399999999999,-0.0808575,0.1958435,-0.2763199999999999,-0.0689155
142,-0.007794999999999997,0.654775,-0.2341965,-0.152464,0.47586,-0.19709649999999998,-0.260804,0.676511,-0.3981865,0.143496,0.48244,-0.2015165,0.228666,0.6921809999999999,-0.3909165,-0.237374,0.8998999999999999,-0.5607065,0.22515600000000002,0.96077,-0.5302665,-0.063533,-0.0017800000000000038,-0.0008904999999999989,0.063533,0.0017800000000000038,0.0008905000000000007,-0.20063399999999998,0.09368999999999994,-0.34714649999999997,0.17680600000000002,0.07103000000000004,-0.34775649999999997,-0.19364399999999998,-0.26535,-0.0800525,0.19589600000000001,-0.27671999999999997,-0.06866749999999999
143,-0.007871999999999999,0.655234,-0.2319755,-0.152412,0.47714,-0.19671550000000002,-0.26030200000000003,0.677875,-0.39567549999999996,0.14366800000000002,0.48202,-0.2010355,0.227858,0.69431,-0.3880455,-0.236722,0.90344,-0.5569255000000001,0.22478800000000002,0.96299,-0.5273055,-0.063514,-0.0015399999999999858,-0.0007134999999999989,0.063514,0.0015399999999999858,0.0007135000000000006,-0.20025199999999999,0.09320000000000006,-0.3479155,0.177368,0.07032000000000005,-0.3475955,-0.192572,-0.26641000000000004,-0.07900650000000001,0.195998,-0.27791999999999994,-0.0686155
144,-0.0080645,0.6555900000000001,-0.22978900000000002,-0.1522285,0.47822500000000007,-0.19647900000000001,-0.25962850000000004,0.6819270000000001,-0.393069,0.1439015,0.4811350000000001,-0.200829,0.2266915,0.697185,-0.385059,-0.2359785,0.9067750000000001,-0.5521590000000001,0.2239615,0.9666650000000001,-0.522409,-0.0634455,-0.001194999999999946,-0.0006649999999999989,0.0634455,0.0011950000000000571,0.0006650000000000007,-0.1996885,0.09184500000000007,-0.348329,0.1778015,0.06877500000000003,-0.347769,-0.1920085,-0.26853499999999997,-0.07919,0.1964415,-0.2806549999999999,-0.071892
145,-0.008088999999999997,0.657219,-0.22726949999999999,-0.151851,0.47925,-0.1958495,-0.258721,0.685868,-0.38993950000000005,0.143559,0.4832,-0.1997295,0.225449,0.701879,-0.3816195,-0.234991,0.9090199999999999,-0.5459495,0.223119,0.9721299999999999,-0.5170895,-0.063358,-0.0011999999999999789,-0.0006685000000000007,0.063358,0.0011999999999999789,0.0006685000000000007,-0.198941,0.08862999999999999,-0.34834950000000003,0.178279,0.06544000000000005,-0.34845950000000003,-0.19101100000000001,-0.27254,-0.0791395,0.196879,-0.28428,-0.0714895
146,-0.008238999999999998,0.659402,-0.224743,-0.151407,0.4809550000000001,-0.194823,-0.25771700000000003,0.6902210000000001,-0.386493,0.143263,0.4842050000000001,-0.198603,0.224163,0.705829,-0.378333,-0.234037,0.9140550000000001,-0.539223,0.222073,0.9769350000000001,-0.511783,-0.06315599999999999,-0.0010449999999999626,-0.0006760000000000013,0.06315599999999999,0.0010450000000000736,0.0006759999999999995,-0.198137,0.08356500000000011,-0.348383,0.178903,0.06009500000000012,-0.348823,-0.18898700000000002,-0.27851499999999996,-0.080823,0.196673,-0.29220499999999994,-0.073713
147,-0.008670499999999996,0.6615110000000001,-0.22225999999999999,-0.15100249999999998,0.48179500000000003,-0.19341999999999998,-0.2568525,0.694261,-0.38239,0.1425075,0.486935,-0.19743,0.22280750000000002,0.709935,-0.37469,-0.2336325,0.918135,-0.53192,0.2207675,0.981875,-0.50605,-0.0629805,-0.001314999999999955,-0.0006589999999999999,0.0629805,0.0013150000000000661,0.0006589999999999999,-0.19748249999999998,0.07663500000000001,-0.34843,0.1792775,0.05404500000000001,-0.34899,-0.18757249999999998,-0.285315,-0.08211600000000001,0.1964575,-0.30123500000000003,-0.07721900000000001
148,-0.009204000000000002,0.663307,-0.21999,-0.150723,0.48348500000000005,-0.19207,-0.256783,0.697335,-0.37784,0.141717,0.48770500000000006,-0.19658,0.221437,0.713145,-0.3714,-0.23336300000000001,0.9237550000000001,-0.5247299999999999,0.21931699999999998,0.985975,-0.50028,-0.062782,-0.0010649999999999826,-0.0005050000000000002,0.062782,0.0010649999999999826,0.0005050000000000002,-0.196963,0.06676500000000007,-0.34847,0.179327,0.045785000000000076,-0.34935,-0.185743,-0.295115,-0.083537,0.196187,-0.3118949999999999,-0.07971400000000001
149,-0.009764500000000002,0.665551,-0.217993,-0.1504585,0.485009,-0.191193,-0.2560785,0.7014400000000001,-0.373463,0.1409715,0.488161,-0.196213,0.21997150000000001,0.7173700000000001,-0.368203,-0.2332685,0.9285,-0.518293,0.2177715,0.99121,-0.49466299999999996,-0.06260550000000001,-0.0011499999999999844,-0.00040299999999999885,0.06260550000000001,0.0011499999999999844,0.0004030000000000006,-0.1963285,0.05630999999999997,-0.348223,0.1789515,0.036739999999999995,-0.349833,-0.1834885,-0.30616999999999994,-0.084706,0.19613150000000001,-0.32287,-0.082287
150,-0.010177500000000003,0.6674460000000001,-0.2166805,-0.1503685,0.4865480000000001,-0.1900405,-0.2559385,0.7054450000000001,-0.3696005,0.1402915,0.48925500000000005,-0.1959705,0.2186515,0.7200550000000001,-0.3654005,-0.2331885,0.930145,-0.5115704999999999,0.2164015,0.995015,-0.4893705,-0.062385499999999997,-0.0010149999999999881,-0.00018750000000000017,0.062385499999999997,0.0010150000000000992,0.00018750000000000017,-0.19559849999999998,0.04390500000000008,-0.3478805,0.17854150000000002,0.025745000000000018,-0.3507905,-0.1809885,-0.31996499999999994,-0.0859015,0.19669150000000002,-0.3364649999999999,-0.0850635
151,-0.010646000000000003,0.66973,-0.21569850000000002,-0.150465,0.48849100000000006,-0.1890785,-0.256145,0.7093200000000001,-0.3661785,0.139515,0.48973800000000006,-0.1959885,0.217335,0.72279,-0.36302850000000003,-0.234065,0.92947,-0.5053485,0.21510500000000002,0.99854,-0.4846785,-0.062138,-0.0008699999999999264,5.7500000000001994e-05,0.062138,0.0008700000000000374,-5.7499999999998525e-05,-0.19486499999999998,0.030500000000000083,-0.3475685,0.177755,0.014000000000000012,-0.3520285,-0.17887499999999998,-0.3348899999999999,-0.0880145,0.197435,-0.35126999999999997,-0.08714849999999999
152,-0.010878500000000003,0.67299,-0.215206,-0.15044649999999998,0.488506,-0.18852600000000003,-0.2565665,0.7138899999999999,-0.363786,0.1387335,0.490463,-0.19625599999999999,0.2164035,0.72687,-0.361346,-0.2356265,0.9279999999999999,-0.500366,0.2139935,1.00204,-0.480796,-0.0619665,-0.001040000000000041,0.00034199999999999856,0.0619665,0.0010399999999999299,-0.00034199999999999856,-0.1940265,0.017189999999999928,-0.346926,0.1768335,0.002829999999999999,-0.353006,-0.1778165,-0.35107,-0.090059,0.1981735,-0.36634,-0.089556
153,-0.011046999999999996,0.6757550000000001,-0.214608,-0.150696,0.4912250000000001,-0.186918,-0.25719600000000004,0.7163750000000001,-0.360538,0.13789400000000002,0.4922560000000001,-0.196028,0.215674,0.7298950000000001,-0.35944800000000005,-0.23715599999999998,0.9315950000000001,-0.495298,0.21321400000000001,1.0058250000000002,-0.47706800000000005,-0.061800999999999995,-0.0011049999999999116,0.0004829999999999973,0.061800999999999995,0.0011050000000000226,-0.0004830000000000008,-0.193326,0.0024250000000001215,-0.34572800000000004,0.17578400000000002,-0.00963499999999995,-0.35355800000000004,-0.17690599999999998,-0.36909499999999995,-0.09162600000000001,0.19926400000000002,-0.38124499999999995,-0.089233
154,-0.011649000000000003,0.67851,-0.213776,-0.151266,0.4930959999999999,-0.185636,-0.258286,0.71905,-0.35759599999999997,0.137344,0.4920319999999999,-0.196166,0.214804,0.7319599999999999,-0.35797599999999996,-0.238746,0.9388599999999999,-0.489546,0.21240399999999998,1.00846,-0.47381599999999996,-0.061676,-0.000980000000000092,0.0005920000000000022,0.061676,0.0009799999999999809,-0.0005919999999999988,-0.19301600000000002,-0.01100000000000001,-0.34386599999999995,0.17443399999999998,-0.02088000000000001,-0.353616,-0.176466,-0.3865900000000001,-0.093644,0.199714,-0.39717,-0.092583
155,-0.012236999999999996,0.68069,-0.21241300000000002,-0.15198399999999998,0.494558,-0.184063,-0.259314,0.72173,-0.353713,0.136666,0.493126,-0.196013,0.21374600000000002,0.7346,-0.355413,-0.240884,0.94176,-0.484243,0.211816,1.01163,-0.469493,-0.061619999999999994,-0.0008499999999999619,0.0006630000000000004,0.061619999999999994,0.0008500000000000174,-0.0006630000000000004,-0.19269399999999998,-0.024660000000000015,-0.34147299999999997,0.17297600000000002,-0.03117000000000003,-0.352593,-0.176414,-0.40325,-0.09556100000000001,0.200166,-0.41325999999999996,-0.09453900000000001
156,-0.0126635,0.683875,-0.2101775,-0.1526965,0.49701,-0.18233749999999999,-0.2603465,0.724485,-0.34922749999999997,0.13629349999999998,0.493041,-0.1950275,0.21264349999999999,0.736335,-0.3517675,-0.2426365,0.946915,-0.4793575,0.2116335,1.013875,-0.4641475,-0.0616175,-0.0004250000000000087,0.0007185000000000004,0.0616175,0.0004250000000000087,-0.0007184999999999969,-0.1923565,-0.038435,-0.33823749999999997,0.1717535,-0.042995000000000005,-0.3508875,-0.1765065,-0.42017499999999997,-0.0980915,0.2004735,-0.43003499999999995,-0.09628049999999999
157,-0.0130495,0.6868650000000001,-0.2073565,-0.15336349999999999,0.498373,-0.1799165,-0.2613035,0.728615,-0.3439665,0.1358065,0.49474,-0.1933765,0.2117465,0.7386349999999999,-0.3468665,-0.2445935,0.950925,-0.47331650000000003,0.2117365,1.016505,-0.4580465,-0.06161850000000001,-0.0005950000000000122,0.0007004999999999997,0.06161850000000001,0.0005950000000000122,-0.0007005000000000032,-0.1918235,-0.05091499999999999,-0.3343265,0.1706465,-0.05416499999999996,-0.3483965,-0.1766035,-0.43631499999999995,-0.1006255,0.2009965,-0.443845,-0.09443850000000001
158,-0.0134315,0.6894750000000001,-0.2042,-0.15422450000000001,0.50058,-0.17661,-0.2616845,0.7308049999999999,-0.33818000000000004,0.1353655,0.496541,-0.19102999999999998,0.2111255,0.7380249999999999,-0.34121,-0.24470450000000002,0.952755,-0.46563,0.21191549999999998,1.0162849999999999,-0.45104,-0.0615775,-0.0003949999999999787,0.0007110000000000033,0.0615775,0.0003949999999999787,-0.0007109999999999998,-0.19119450000000002,-0.06479499999999999,-0.33028,0.16987549999999998,-0.06704500000000002,-0.34532,-0.1775245,-0.45367499999999994,-0.102019,0.20142549999999998,-0.45972499999999994,-0.093692
159,-0.013758499999999996,0.69293,-0.200272,-0.1549145,0.50234,-0.173492,-0.26193449999999996,0.73308,-0.331562,0.1353855,0.498194,-0.188382,0.2106055,0.74203,-0.33506199999999997,-0.24550450000000001,0.9561,-0.457002,0.21208549999999998,1.02026,-0.44441200000000003,-0.0616275,-0.0005100000000000104,0.0007500000000000007,0.0616275,0.0005100000000000104,-0.0007499999999999972,-0.1905445,-0.07790000000000002,-0.326322,0.1693255,-0.07890999999999998,-0.34175199999999994,-0.1781545,-0.47089000000000003,-0.102902,0.20137549999999999,-0.47672000000000003,-0.092853
160,-0.014171999999999995,0.696205,-0.195922,-0.155911,0.5045850000000001,-0.16992200000000002,-0.261881,0.7378750000000001,-0.324082,0.134969,0.500465,-0.185292,0.210009,0.743325,-0.328322,-0.246751,0.961015,-0.447802,0.212169,1.022035,-0.436162,-0.061786999999999995,-0.0006749999999999812,0.0007379999999999991,0.061786999999999995,0.0006749999999999812,-0.0007379999999999991,-0.189761,-0.09037499999999998,-0.321762,0.168919,-0.08957500000000002,-0.33682199999999995,-0.178891,-0.488235,-0.10361400000000001,0.201119,-0.494065,-0.093583
161,-0.014586,0.69913,-0.1906735,-0.156888,0.50746,-0.1655135,-0.262138,0.7420100000000001,-0.3157835,0.134292,0.50467,-0.1810235,0.209482,0.74672,-0.32079349999999995,-0.24737800000000001,0.97387,-0.4380535,0.212592,1.02495,-0.4274535,-0.061926999999999996,-0.0007900000000000129,0.0005715000000000026,0.061926999999999996,0.0007900000000000129,-0.0005714999999999991,-0.188818,-0.10326999999999997,-0.3167235,0.168492,-0.10142999999999996,-0.3314235,-0.179648,-0.50637,-0.10355149999999999,0.200962,-0.5126900000000001,-0.0923355
162,-0.015298,0.70296,-0.1849135,-0.158306,0.50837,-0.16141350000000002,-0.262576,0.74641,-0.3073835,0.133234,0.5075999999999999,-0.17684350000000001,0.20871399999999998,0.74901,-0.31314349999999996,-0.248126,0.97981,-0.4271935,0.21307399999999999,1.02724,-0.4187535,-0.062098,-0.0010800000000000254,0.0004404999999999999,0.062098,0.0010799999999999699,-0.0004404999999999999,-0.188176,-0.11436000000000002,-0.3113335,0.167624,-0.11242000000000002,-0.32552349999999997,-0.180756,-0.52368,-0.1035195,0.20047399999999999,-0.53024,-0.0912895
163,-0.0158985,0.705605,-0.1792155,-0.1599135,0.510325,-0.1565355,-0.2631735,0.750765,-0.2985955,0.1323465,0.510105,-0.1724155,0.2080565,0.751475,-0.3044255,-0.2486135,0.981705,-0.41677549999999997,0.21370650000000002,1.028915,-0.4099055,-0.06227049999999999,-0.0011550000000000171,0.0003794999999999979,0.06227049999999999,0.0011550000000000171,-0.0003794999999999979,-0.1876235,-0.12656499999999998,-0.3061955,0.1665665,-0.12312499999999998,-0.3188255,-0.18191349999999998,-0.5416049999999999,-0.10337550000000001,0.19996650000000002,-0.547585,-0.0908385
164,-0.0164445,0.709265,-0.172794,-0.1614395,0.512675,-0.151494,-0.2638195,0.754825,-0.289534,0.1315705,0.513525,-0.167144,0.2081005,0.7537149999999999,-0.29571400000000003,-0.2486495,0.988105,-0.405214,0.2145005,1.031435,-0.399614,-0.0624195,-0.001395000000000035,0.00037399999999999933,0.0624195,0.0013949999999999796,-0.00037399999999999933,-0.1868195,-0.13809500000000002,-0.30043400000000003,0.1655105,-0.13415500000000002,-0.312164,-0.1828995,-0.559805,-0.10342099999999999,0.1992805,-0.5647150000000001,-0.090553
165,-0.016937499999999994,0.71026,-0.16693449999999999,-0.16273849999999998,0.51206,-0.1465345,-0.26387849999999996,0.7598100000000001,-0.2805545,0.13089150000000002,0.51595,-0.16370449999999998,0.2077815,0.75712,-0.2875145,-0.24957849999999998,0.99338,-0.39295450000000004,0.21540150000000002,1.0346899999999999,-0.3897645,-0.0625915,-0.0015099999999999558,0.0004175000000000012,0.0625915,0.0015100000000000113,-0.0004175000000000012,-0.18598849999999997,-0.14884999999999998,-0.2951245,0.1644915,-0.14350999999999997,-0.30513450000000003,-0.18379849999999998,-0.57711,-0.1036625,0.1984615,-0.58034,-0.0907975
166,-0.017095999999999997,0.712175,-0.16017150000000002,-0.164075,0.5126850000000001,-0.1418815,-0.263915,0.762595,-0.2714815,0.13017499999999999,0.517835,-0.1605915,0.207405,0.763305,-0.2793015,-0.249875,0.996725,-0.3807415,0.215385,1.0371350000000001,-0.37983150000000004,-0.062749,-0.001534999999999953,0.0005664999999999976,0.062749,0.0015350000000000086,-0.0005665000000000045,-0.18507500000000002,-0.15841499999999997,-0.2890615,0.16328499999999999,-0.15203499999999998,-0.2979115,-0.184665,-0.5938749999999999,-0.1035175,0.19691499999999998,-0.595225,-0.0910325
167,-0.0170195,0.7124649999999999,-0.1523915,-0.1650415,0.5111049999999999,-0.1365615,-0.2639715,0.765475,-0.2615415,0.1296785,0.517535,-0.15747150000000001,0.2072185,0.768315,-0.2711515,-0.2505415,1.001445,-0.3674015,0.21560849999999998,1.040985,-0.3685215,-0.06254950000000001,-0.0015650000000000386,0.00031649999999999734,0.06254950000000001,0.001564999999999983,-0.0003165000000000043,-0.1840115,-0.167925,-0.2824615,0.1621185,-0.160285,-0.2897715,-0.1852615,-0.610785,-0.1026135,0.1954785,-0.610195,-0.09075949999999999
168,-0.016998500000000003,0.711955,-0.1430295,-0.1659345,0.512915,-0.1310885,-0.26388449999999997,0.770195,-0.25048950000000003,0.1262955,0.5165850000000001,-0.1537395,0.2051955,0.770535,-0.2617795,-0.2517545,1.007525,-0.35489950000000003,0.2157555,1.042385,-0.3556595,-0.0622195,-0.0015050000000000063,0.00026349999999999985,0.0622195,0.0015050000000000063,-0.00026349999999999985,-0.1828245,-0.175095,-0.2750995,0.1606255,-0.166705,-0.2811795,-0.1856545,-0.625605,-0.1018685,0.1939855,-0.623025,-0.0904245
169,-0.0171575,0.7103200000000001,-0.13394250000000002,-0.16665249999999998,0.51371,-0.12524649999999998,-0.2635325,0.77389,-0.2399125,0.1251575,0.5146999999999999,-0.1501925,0.2044675,0.77396,-0.2523525,-0.2516725,1.01322,-0.3414325,0.21678750000000002,1.04462,-0.34167250000000005,-0.0617905,-0.00133999999999998,0.00025849999999999485,0.0617905,0.0013400000000000079,-0.0002585000000000018,-0.18172249999999998,-0.18233,-0.2675825,0.1591775,-0.17357,-0.2727225,-0.18605249999999998,-0.6396,-0.1009805,0.1923175,-0.63472,-0.0906705
170,-0.017222499999999995,0.7051499999999999,-0.1250955,-0.16720449999999998,0.51868,-0.1193275,-0.26289450000000003,0.78018,-0.2298405,0.12271549999999999,0.5096099999999999,-0.1475805,0.2041755,0.77117,-0.24348050000000002,-0.2526945,1.0131000000000001,-0.3282805,0.2179955,1.04291,-0.3278905,-0.0613455,-0.0005700000000000149,0.00013350000000000167,0.0613455,0.0005699999999999872,-0.00013350000000000167,-0.17984450000000002,-0.18907000000000002,-0.2590805,0.1576055,-0.18156,-0.2637805,-0.18641449999999998,-0.6529200000000001,-0.1004575,0.1905555,-0.64708,-0.0908385
171,-0.017142499999999998,0.699225,-0.1162455,-0.1673875,0.522105,-0.11418049999999999,-0.26186750000000003,0.785305,-0.2201755,0.12098249999999999,0.5053650000000001,-0.14464549999999998,0.2036325,0.770365,-0.2341055,-0.2530675,1.014845,-0.31476550000000003,0.2191925,1.039595,-0.3155055,-0.060687500000000005,0.00014500000000000624,9.55000000000053e-05,0.060687500000000005,-0.00014499999999997848,-9.549999999999836e-05,-0.17711749999999998,-0.19428499999999999,-0.25020549999999997,0.15600250000000002,-0.188585,-0.2538055,-0.1866575,-0.6634249999999999,-0.1001185,0.18947250000000002,-0.6583749999999999,-0.0912435
172,-0.016905000000000003,0.698555,-0.10786799999999999,-0.167319,0.523255,-0.109869,-0.260449,0.7886550000000001,-0.210071,0.119861,0.5058549999999999,-0.140421,0.203121,0.773965,-0.225281,-0.253179,1.021305,-0.302211,0.220711,1.0416050000000001,-0.302511,-0.059965000000000004,0.0002550000000000052,0.00016500000000000542,0.059965000000000004,-0.00025499999999997747,-0.00016499999999999848,-0.173529,-0.19866499999999998,-0.240461,0.154221,-0.19298500000000002,-0.24249099999999998,-0.186509,-0.6731849999999999,-0.100364,0.188671,-0.6671149999999999,-0.091395
173,-0.0164045,0.69357,-0.099794,-0.1671215,0.52142,-0.106166,-0.2588615,0.7891299999999999,-0.200133,0.11895850000000001,0.50515,-0.13614300000000001,0.2024285,0.7775000000000001,-0.21685300000000002,-0.2540015,1.02136,-0.28903300000000004,0.2222985,1.04544,-0.292123,-0.0591705,0.00032999999999999696,0.0002500000000000002,0.0591705,-0.00032999999999999696,-0.0002500000000000002,-0.1688115,-0.20273000000000002,-0.22919299999999998,0.1525385,-0.19996999999999998,-0.230443,-0.1861315,-0.6826700000000001,-0.10005700000000001,0.1879985,-0.6783699999999999,-0.091375
174,-0.015384,0.6898249999999999,-0.091374,-0.166458,0.5202150000000001,-0.102496,-0.256758,0.789115,-0.19020399999999998,0.118752,0.504395,-0.13147799999999998,0.200272,0.7805949999999999,-0.208044,-0.254478,1.021435,-0.276284,0.221682,1.0468250000000001,-0.282194,-0.058692999999999995,0.0004750000000000032,0.0003610000000000002,0.058692999999999995,-0.00047499999999997544,-0.0003610000000000002,-0.163498,-0.20631499999999997,-0.217794,0.151422,-0.20702499999999996,-0.218134,-0.184798,-0.6910050000000001,-0.099634,0.187712,-0.6893050000000001,-0.09142600000000001
175,-0.0141135,0.68542,-0.083284,-0.16565349999999998,0.51884,-0.098754,-0.2538935,0.79071,-0.18051999999999999,0.1186065,0.50385,-0.126501,0.19810650000000002,0.78104,-0.19938,-0.2548235,1.0231700000000001,-0.26365,0.2209865,1.04922,-0.27214,-0.0580655,0.0007299999999999945,0.0003190000000000068,0.0580655,-0.0007299999999999945,-0.00031899999999999984,-0.15813349999999998,-0.21115,-0.20618999999999998,0.1502965,-0.21533000000000002,-0.20538,-0.1832635,-0.69931,-0.098855,0.1874065,-0.70133,-0.091082
176,-0.014506500000000002,0.6835,-0.075673,-0.16610350000000002,0.5187,-0.095896,-0.2533135,0.79281,-0.171314,0.11820649999999999,0.50525,-0.122429,0.19789649999999998,0.78347,-0.19048400000000001,-0.2561935,1.02662,-0.252474,0.22110649999999998,1.05257,-0.26323399999999997,-0.057689500000000005,0.0009799999999999948,0.00037099999999999633,0.057689500000000005,-0.0009799999999999948,-0.00037100000000000327,-0.1533135,-0.21426,-0.193434,0.1471765,-0.21914,-0.190644,-0.18264350000000001,-0.7127399999999999,-0.097658,0.1869365,-0.71476,-0.088731
177,-0.014810499999999997,0.6810585,-0.07027900000000001,-0.16657249999999998,0.5147885,-0.093292,-0.2529625,0.7919685000000001,-0.16378099999999998,0.1178775,0.5058385000000001,-0.118235,0.1977675,0.7845884999999999,-0.182741,-0.2571425,1.0288685,-0.241471,0.2215175,1.0538385,-0.252591,-0.0572655,0.001628500000000005,0.0005389999999999978,0.0572655,-0.001628499999999991,-0.0005389999999999978,-0.14825249999999998,-0.2191415,-0.18057099999999998,0.1441675,-0.2249315,-0.17569099999999999,-0.18191249999999998,-0.7195914999999999,-0.09578600000000001,0.1856375,-0.7227014999999999,-0.085698
178,-0.015041499999999998,0.679496,-0.059931,-0.16698749999999998,0.5108459999999999,-0.086287,-0.2530475,0.789076,-0.151368,0.1177125,0.5067159999999999,-0.10928099999999999,0.1978625,0.7860159999999999,-0.170678,-0.2577575,1.0305360000000001,-0.227118,0.22039250000000002,1.0556860000000001,-0.239178,-0.0569005,0.0022729999999999972,0.0006530000000000008,0.0569005,-0.002273000000000011,-0.0006529999999999973,-0.1430175,-0.22388400000000003,-0.16244799999999998,0.1412825,-0.23111399999999999,-0.154488,-0.1806475,-0.726554,-0.088501,0.18434250000000002,-0.730684,-0.077444
179,-0.015349499999999997,0.684038,-0.048281000000000004,-0.1676655,0.507768,-0.07337,-0.2531055,0.778278,-0.137197,0.1186645,0.513088,-0.094483,0.1978445,0.788378,-0.15707700000000002,-0.25818549999999996,1.0221879999999999,-0.209937,0.2203745,1.053088,-0.223977,-0.0568435,0.0014240000000000017,0.0005269999999999997,0.0568435,-0.0014240000000000017,-0.0005269999999999997,-0.1373855,-0.24017200000000002,-0.141117,0.1375645,-0.246592,-0.13020700000000002,-0.1792455,-0.742812,-0.07842,0.1835145,-0.747972,-0.067208
180,-0.0157365,0.6896365,-0.0371535,-0.16848950000000001,0.5057165,-0.06032850000000001,-0.2542195,0.7688065000000001,-0.12334450000000001,0.1228605,0.5216565,-0.0789175,0.1998405,0.7903265,-0.1445345,-0.25847950000000003,1.0139365,-0.1950645,0.22080049999999998,1.0504865,-0.2092445,-0.056787500000000005,0.0006165000000000025,0.0003814999999999999,0.056787500000000005,-0.000616499999999999,-0.0003814999999999999,-0.1322595,-0.2580535,-0.1201345,0.13438049999999999,-0.26157349999999996,-0.1065745,-0.17709950000000002,-0.7603035,-0.0680725,0.18317049999999999,-0.7645735,-0.0564925
181,-0.016671,0.690271,-0.025917500000000003,-0.169294,0.505831,-0.047363499999999996,-0.255004,0.7615109999999999,-0.11030050000000001,0.12593600000000002,0.523941,-0.0660555,0.20294600000000002,0.787061,-0.1325205,-0.258554,1.002361,-0.18087050000000002,0.222666,1.043071,-0.1942705,-0.056865,0.0004009999999999986,0.00016950000000000038,0.056865,-0.0004010000000000003,-0.0001694999999999995,-0.12795399999999998,-0.275019,-0.1004665,0.131636,-0.27748900000000004,-0.0855475,-0.17518399999999998,-0.777099,-0.0576705,0.182726,-0.778849,-0.045323499999999996
182,-0.018280500000000005,0.6943655000000001,-0.0157855,-0.17054249999999999,0.5089555,-0.0346635,-0.2554925,0.7568355,-0.0985035,0.12798749999999998,0.5263155,-0.053435500000000004,0.20530749999999998,0.7843955,-0.1208735,-0.2590225,0.9943155,-0.1681435,0.2240475,1.0356155,-0.1794335,-0.0574625,0.00019750000000000063,3.749999999999999e-05,0.0574625,-0.00019749999999999976,-3.749999999999999e-05,-0.1253625,-0.2904545,-0.0832945,0.1285575,-0.29099450000000004,-0.0662275,-0.1734425,-0.7914844999999999,-0.046873500000000005,0.18182749999999998,-0.7911545,-0.0345615
183,-0.020029000000000005,0.698923,-0.005800000000000001,-0.171823,0.511943,-0.022167000000000003,-0.256023,0.751713,-0.087536,0.129737,0.529143,-0.041109,0.205567,0.781713,-0.11005899999999999,-0.259493,0.9856630000000001,-0.155359,0.224407,1.028463,-0.164599,-0.058238,-6.500000000000256e-05,-0.00016200000000000069,0.058238,6.499999999999909e-05,0.00016199999999999895,-0.122963,-0.305887,-0.06623000000000001,0.125497,-0.304087,-0.047861,-0.171873,-0.806707,-0.035491,0.180677,-0.8045869999999999,-0.024154000000000002
184,-0.0212645,0.7037615,0.0033355,-0.1726775,0.5152515000000001,-0.010046500000000002,-0.25635749999999996,0.7465915000000001,-0.0776235,0.1313625,0.5325215000000001,-0.029136499999999996,0.2058225,0.7793015000000001,-0.10011149999999999,-0.2598075,0.9752115,-0.1435615,0.2240025,1.0207115,-0.15068150000000002,-0.058927499999999994,-0.0004284999999999983,-0.0004325000000000006,0.058927499999999994,0.0004284999999999983,0.0004325000000000006,-0.1202575,-0.3208185,-0.050338499999999994,0.12316250000000001,-0.31657850000000004,-0.0306125,-0.1697875,-0.8219885,-0.0244365,0.1802725,-0.8178884999999999,-0.014102499999999999
185,-0.0225695,0.707576,0.012011500000000003,-0.1735385,0.518796,0.001907500000000003,-0.2569685,0.7412759999999999,-0.0685505,0.1334815,0.536336,-0.0172555,0.20576149999999999,0.777076,-0.0907825,-0.2601685,0.9672360000000001,-0.1327625,0.2233915,1.013336,-0.1376525,-0.0593655,-0.000785999999999995,-0.0006404999999999987,0.0593655,0.000786000000000002,0.0006405000000000022,-0.1182685,-0.335434,-0.0360715,0.12177150000000002,-0.33051400000000003,-0.016337499999999998,-0.1678685,-0.836924,-0.014180499999999999,0.1800715,-0.832514,-0.006305499999999999
186,-0.023984999999999996,0.7120785000000001,0.020501000000000002,-0.174396,0.5231085,0.013259000000000002,-0.257796,0.7361485,-0.060089,0.135544,0.5410485,-0.0057909999999999975,0.20605400000000001,0.7751085,-0.082208,-0.26041600000000004,0.9596684999999999,-0.12323800000000001,0.223084,1.0068685,-0.127978,-0.059786,-0.0014945000000000097,-0.0011319999999999976,0.059786,0.0014944999999999958,0.001132000000000001,-0.116846,-0.34888149999999996,-0.023183000000000002,0.120344,-0.3432115,-0.0033749999999999995,-0.166076,-0.8505015,-0.004903999999999999,0.17999400000000002,-0.8456315,0.0006640000000000014
187,-0.025705,0.7165779999999999,0.0236105,-0.17535699999999999,0.527868,0.019159500000000003,-0.258987,0.731298,-0.0571555,0.137133,0.546478,0.0004625000000000011,0.206433,0.773818,-0.0789675,-0.260827,0.952548,-0.11930750000000001,0.222763,1.000948,-0.1240675,-0.060126,-0.002238999999999991,-0.001562499999999998,0.060126,0.002239000000000005,0.0015625000000000014,-0.115957,-0.36144200000000004,-0.0167405,0.11876300000000001,-0.355132,0.0017605000000000016,-0.164827,-0.863132,-0.001406499999999998,0.179783,-0.857992,0.0022135
188,-0.026632,0.7180715,0.0257515,-0.175477,0.5281115000000001,0.019484500000000002,-0.259107,0.7316415000000001,-0.055056499999999994,0.137163,0.5468014999999999,0.0011695000000000004,0.206533,0.7744314999999999,-0.0764375,-0.261127,0.9538015,-0.1172775,0.22287300000000002,1.0024015,-0.1213275,-0.060126,-0.001992500000000008,-0.001562499999999998,0.060126,0.0019924999999999943,0.0015625000000000014,-0.115867,-0.3613885,-0.014416499999999999,0.11844299999999999,-0.3551785,0.0036395000000000004,-0.163597,-0.8633284999999999,0.00014950000000000033,0.180213,-0.8559885,0.002572500000000002
189,-0.027422,0.7187030000000001,0.0280145,-0.17560699999999999,0.528103,0.0198835,-0.259217,0.731703,-0.0528415,0.137193,0.546813,0.0019594999999999994,0.206653,0.774483,-0.0737375,-0.261977,0.9537530000000001,-0.1148875,0.223143,1.0037530000000001,-0.11855750000000001,-0.060126,-0.0019440000000000013,-0.001562499999999998,0.060126,0.0019440000000000013,0.0015625000000000014,-0.115807,-0.361337,-0.012721499999999997,0.11807300000000001,-0.355227,0.004358500000000001,-0.163217,-0.8633869999999999,0.001461500000000001,0.180573,-0.8560369999999999,0.0025585000000000017
190,-0.028057,0.7190845,0.030183500000000002,-0.175997,0.5280644999999999,0.0210365,-0.259307,0.7317445,-0.050672499999999995,0.13725300000000001,0.5467744999999999,0.0035455,0.206773,0.7744445,-0.0709625,-0.262477,0.9550145000000001,-0.1127975,0.223413,1.0048145,-0.11680750000000001,-0.060126,-0.0019055000000000044,-0.001562499999999998,0.060126,0.0019054999999999905,0.0015625000000000014,-0.115747,-0.3613055,-0.0111075,0.11777299999999999,-0.3552655,0.0050125,-0.162897,-0.8633755,0.0026195000000000003,0.180823,-0.8560755,0.0021515000000000006
191,-0.027949,0.7194205,0.0315225,-0.175764,0.5280604999999999,0.0211615,-0.258874,0.7320004999999999,-0.049590499999999996,0.137516,0.5467504999999999,0.004229500000000001,0.206966,0.7744205,-0.0694935,-0.262614,0.9560905,-0.11216050000000001,0.224036,1.0046905,-0.11602050000000001,-0.059996999999999995,-0.001847500000000002,-0.001787500000000001,0.059996999999999995,0.001847500000000002,0.001787500000000001,-0.115534,-0.36128950000000004,-0.010590500000000003,0.118356,-0.35528950000000004,0.004678499999999999,-0.162244,-0.8633195,0.002590499999999999,0.181256,-0.8560995,0.00022250000000000048
192,-0.027716,0.7197155000000001,0.032517,-0.17554,0.5282555,0.021349999999999997,-0.25849,0.7313955,-0.048759,0.13781000000000002,0.5470255,0.004809999999999998,0.20746,0.7747155,-0.06833,-0.26288,0.9561855,-0.11195999999999999,0.22469,1.0049854999999999,-0.11562000000000001,-0.059881000000000004,-0.001634499999999997,-0.0019720000000000015,0.059881000000000004,0.001634499999999997,0.001971999999999998,-0.11533,-0.3610045,-0.010547,0.11873,-0.3554845,0.004277999999999997,-0.16164,-0.8631345,0.001630999999999997,0.18199,-0.8562244999999999,-0.0007420000000000031
193,-0.027384499999999996,0.7199930000000001,0.0332505,-0.17534149999999998,0.5284530000000001,0.0217895,-0.2580415,0.730443,-0.04800750000000001,0.1380885,0.5472729999999999,0.005691499999999999,0.2081285,0.774923,-0.0675425,-0.2628915,0.957363,-0.1116135,0.2255685,1.005163,-0.1168835,-0.0597505,-0.001452999999999996,-0.0021644999999999998,0.0597505,0.001452999999999996,0.0021644999999999998,-0.1150915,-0.360767,-0.010843500000000002,0.11904850000000002,-0.355657,0.0038615000000000003,-0.16100150000000002,-0.862957,0.0006574999999999984,0.1827185,-0.8563769999999999,-0.001802500000000002
194,-0.026979,0.7202725000000001,0.033752000000000004,-0.175233,0.5286824999999999,0.022375,-0.25772300000000004,0.7295825,-0.047403,0.13833700000000002,0.5475025,0.006670000000000002,0.208797,0.7750625,-0.06712800000000001,-0.262953,0.9616425,-0.11117300000000001,0.22637700000000002,1.0060425,-0.11681300000000001,-0.059649999999999995,-0.0012825000000000059,-0.0023320000000000007,0.059649999999999995,0.001282499999999992,0.0023320000000000007,-0.114883,-0.3605875,-0.011315999999999996,0.119517,-0.35578750000000003,0.0034059999999999993,-0.160383,-0.8627975000000001,-0.0002899999999999986,0.183087,-0.8564775,-0.004012999999999999
195,-0.026689,0.7207300000000001,0.034501500000000004,-0.175386,0.52918,0.0236295,-0.25758600000000004,0.7297199999999999,-0.0465645,0.13840399999999997,0.5475300000000001,0.0080015,0.209264,0.7749600000000001,-0.06655649999999999,-0.263266,0.9668999999999999,-0.11111649999999998,0.22755399999999998,1.0073999999999999,-0.1177765,-0.059618000000000004,-0.0010659999999999975,-0.0025025000000000013,0.059618000000000004,0.0010659999999999975,0.0025025000000000013,-0.114826,-0.36038,-0.011838500000000002,0.11994400000000001,-0.35599000000000003,0.0029605000000000013,-0.160306,-0.8626199999999999,-0.0011865,0.183124,-0.8566400000000001,-0.006092500000000001
196,-0.026546999999999998,0.721123,0.0352145,-0.175676,0.529633,0.024949500000000003,-0.257816,0.729993,-0.0460575,0.13830399999999998,0.547513,0.009447500000000003,0.20954399999999998,0.774843,-0.0663125,-0.263946,0.9721329999999999,-0.11175149999999999,0.22891399999999998,1.009233,-0.1186115,-0.059631,-0.0008689999999999948,-0.0026764999999999983,0.059631,0.0008689999999999948,0.002676500000000002,-0.11488599999999999,-0.360197,-0.012240499999999994,0.120184,-0.35615699999999995,0.0026355000000000024,-0.160436,-0.862437,-0.0019254999999999967,0.182994,-0.856817,-0.007945499999999998
197,-0.026528000000000003,0.721491,0.0358305,-0.17616500000000002,0.5298809999999999,0.0263085,-0.258395,0.7304309999999999,-0.04611250000000001,0.13807499999999998,0.547411,0.0109565,0.20970499999999997,0.774701,-0.06663350000000001,-0.264775,0.977161,-0.11248249999999999,0.230175,1.013861,-0.11942249999999999,-0.059672,-0.0006980000000000042,-0.002830500000000003,0.059672,0.0006979999999999903,0.0028304999999999997,-0.115075,-0.36004899999999995,-0.012672500000000003,0.12025500000000001,-0.35629900000000003,0.002346499999999998,-0.16079500000000002,-0.8622690000000001,-0.0025915,0.18279499999999999,-0.8569490000000001,-0.009632500000000002
198,-0.026486,0.721902,0.0362355,-0.176666,0.5302520000000001,0.0276385,-0.259136,0.731212,-0.0468345,0.138104,0.547342,0.0124265,0.210154,0.774402,-0.0672425,-0.265626,0.982272,-0.11320449999999999,0.232214,1.015372,-0.1205145,-0.059745999999999994,-0.0005309999999999898,-0.0030174999999999993,0.059745999999999994,0.0005310000000000037,0.0030174999999999993,-0.11508600000000001,-0.359888,-0.013169500000000004,0.120314,-0.356448,0.0019985000000000003,-0.161126,-0.8621179999999999,-0.0034614999999999993,0.183024,-0.857158,-0.0112365
199,-0.02647,0.7221125,0.036658500000000004,-0.17703200000000002,0.5304725,0.0284135,-0.260392,0.7319125,-0.047433499999999996,0.138168,0.5469225,0.013236500000000002,0.21099800000000002,0.7738625,-0.0679205,-0.266452,0.9838025,-0.1142505,0.234898,1.0169025,-0.1222105,-0.059784000000000004,-0.0004615000000000036,-0.002994499999999997,0.059784000000000004,0.0004615000000000036,0.0029945000000000006,-0.115112,-0.3598175,-0.013611499999999999,0.120488,-0.3564775,0.0016175000000000009,-0.16155199999999997,-0.8620475,-0.004091499999999998,0.183008,-0.8572775,-0.012535499999999998
200,-0.026462999999999997,0.7225820000000001,0.037086999999999995,-0.177442,0.530412,0.029238,-0.262662,0.732762,-0.048038,0.13822800000000002,0.546672,0.014178,0.213088,0.773022,-0.068094,-0.26796200000000003,0.9814020000000001,-0.11543099999999999,0.23799800000000002,1.018102,-0.12501099999999998,-0.059803999999999996,-0.0005359999999999948,-0.0028290000000000017,0.059803999999999996,0.0005359999999999948,0.002828999999999998,-0.115132,-0.359868,-0.014027000000000005,0.120848,-0.35638800000000004,0.0009139999999999981,-0.16197199999999998,-0.862078,-0.004766000000000003,0.182988,-0.857258,-0.013818000000000004
201,-0.026542499999999997,0.7233455,0.0375755,-0.1779345,0.5304154999999999,0.030150499999999997,-0.2668345,0.7320755000000001,-0.04865150000000001,0.1382255,0.5462555,0.015222499999999996,0.2177755,0.7691055,-0.0684755,-0.26999449999999997,0.9812254999999999,-0.11772649999999998,0.2420755,1.0198255,-0.1300465,-0.0598395,-0.0007085000000000008,-0.002571500000000001,0.0598395,0.0007085000000000008,0.0025714999999999974,-0.11520449999999999,-0.3600545,-0.0145905,0.1211855,-0.3561845,0.00018249999999999864,-0.1628445,-0.8621745000000001,-0.005395500000000001,0.18259550000000002,-0.8571145,-0.014721500000000005
202,-0.026727,0.7244659999999999,0.038162,-0.17849600000000002,0.5302859999999999,0.030934,-0.27311599999999997,0.7291759999999999,-0.04937,0.138514,0.545346,0.016212,0.224294,0.762736,-0.069394,-0.275306,0.978836,-0.12252400000000001,0.24695399999999998,1.0188359999999999,-0.13637400000000002,-0.059972000000000004,-0.0008350000000000024,-0.002201999999999999,0.059972000000000004,0.0008350000000000024,0.002201999999999999,-0.115366,-0.360184,-0.015153999999999997,0.121504,-0.355994,-0.000503,-0.163746,-0.862214,-0.005986999999999999,0.182384,-0.8570340000000001,-0.015432999999999999
203,-0.026968,0.725807,0.038941,-0.179074,0.5298470000000001,0.03182,-0.281804,0.723857,-0.049995,0.13916599999999998,0.543917,0.017349,0.23324599999999998,0.751797,-0.070371,-0.28104399999999996,0.9764170000000001,-0.128735,0.252666,1.012817,-0.143595,-0.060104,-0.0009930000000000008,-0.0018429999999999974,0.060104,0.0009930000000000008,0.0018430000000000009,-0.115534,-0.36034299999999997,-0.015722,0.121726,-0.355823,-0.0011509999999999992,-0.164714,-0.8622529999999999,-0.0063539999999999985,0.182166,-0.856963,-0.016045999999999998
204,-0.0272995,0.727262,0.039577,-0.1796995,0.528492,0.032247,-0.2928195,0.712032,-0.049751,0.1400705,0.542492,0.018575,0.2436505,0.739122,-0.07070599999999999,-0.2892395,0.9648920000000001,-0.136488,0.26072049999999997,0.9990920000000001,-0.154118,-0.0602205,-0.0012139999999999998,-0.0014540000000000004,0.0602205,0.0012139999999999998,0.0014540000000000004,-0.1156595,-0.360588,-0.01622,0.1219105,-0.355588,-0.001857000000000001,-0.1656395,-0.862368,-0.006700000000000001,0.1819005,-0.856788,-0.01668
