sb224sc-HT22-VT27/4dt907/src/data/kinect_good_preprocessed_A9_mediapipe/A75_kinect.csv
FrameNo,nose_3d_x,nose_3d_y,nose_3d_z,left_shoulder_3d_x,left_shoulder_3d_y,left_shoulder_3d_z,left_elbow_3d_x,left_elbow_3d_y,left_elbow_3d_z,right_shoulder_3d_x,right_shoulder_3d_y,right_shoulder_3d_z,right_elbow_3d_x,right_elbow_3d_y,right_elbow_3d_z,left_wrist_3d_x,left_wrist_3d_y,left_wrist_3d_z,right_wrist_3d_x,right_wrist_3d_y,right_wrist_3d_z,left_hip_3d_x,left_hip_3d_y,left_hip_3d_z,right_hip_3d_x,right_hip_3d_y,right_hip_3d_z,left_knee_3d_x,left_knee_3d_y,left_knee_3d_z,right_knee_3d_x,right_knee_3d_y,right_knee_3d_z,left_ankle_3d_x,left_ankle_3d_y,left_ankle_3d_z,right_ankle_3d_x,right_ankle_3d_y,right_ankle_3d_z
2,-0.0180935,0.7196535,0.031163,-0.16751749999999999,0.5193035,0.017801,-0.2395375,0.7459635,-0.061422,0.12430250000000001,0.5753535,0.018459000000000003,0.1765925,0.7984835,-0.06036299999999999,-0.2308675,1.0303235,-0.147709,0.16649250000000002,1.0804235,-0.105159,-0.0601705,-0.0018774999999999998,0.0007269999999999985,0.0601705,0.0018774999999999998,-0.0007269999999999985,-0.1193475,-0.3614965,-0.018705,0.11586250000000001,-0.3555765,0.006196,-0.1685775,-0.8623465,0.0070240000000000025,0.1730625,-0.8559465,0.025606
3,-0.017111499999999998,0.7197575,0.030180000000000002,-0.16592449999999997,0.5186075,0.017185000000000002,-0.2395945,0.7472975000000001,-0.060668,0.1244955,0.5762275,0.019549000000000004,0.1771355,0.8425475,-0.062042,-0.2307145,1.0317574999999999,-0.1467,0.1677955,1.0833575,-0.10385,-0.0601245,-0.0018225,0.0007220000000000004,0.0601245,0.0018225000000000003,-0.0007220000000000004,-0.1190845,-0.3614925,-0.018983,0.1163655,-0.3555025,0.006455000000000002,-0.1686145,-0.8623125,0.0069210000000000035,0.17349550000000002,-0.8560625,0.023272
4,-0.015018,0.720781,0.0300705,-0.16947800000000002,0.512531,0.018447500000000002,-0.239848,0.748221,-0.0609535,0.12422200000000001,0.574391,0.0185815,0.17699199999999998,0.856441,-0.06571350000000001,-0.226358,1.032721,-0.1461225,0.16861199999999998,1.085121,-0.1048625,-0.060326000000000005,-0.001639,-0.00028649999999999856,0.060326000000000005,0.001639,0.00028650000000000203,-0.11932799999999999,-0.36128899999999997,-0.0198865,0.115842,-0.355919,0.006365500000000003,-0.168888,-0.862119,0.005659500000000001,0.173422,-0.856459,0.022516500000000002
5,-0.016499,0.7178910000000001,0.026104999999999996,-0.169819,0.513181,0.016817,-0.240549,0.7442110000000001,-0.06446,0.12455100000000001,0.570881,0.016582,0.176181,0.852591,-0.069983,-0.23430900000000002,1.025961,-0.16046300000000002,0.169491,1.081661,-0.10873300000000001,-0.059805,-0.0012849999999999997,-0.0014340000000000012,0.059805,0.0012849999999999997,0.0014339999999999978,-0.11903899999999999,-0.361049,-0.02248,0.114861,-0.35677899999999996,0.004539999999999995,-0.168969,-0.861949,0.002184999999999996,0.171121,-0.857719,0.016848999999999996
6,-0.0152865,0.716912,0.024551,-0.16843850000000002,0.514012,0.015185,-0.2388585,0.743932,-0.067423,0.12633149999999999,0.569682,0.015088,0.1780515,0.850932,-0.073151,-0.2317885,1.025302,-0.164292,0.1746815,1.081302,-0.11377200000000001,-0.0597095,-0.0012720000000000006,-0.002055999999999999,0.0597095,0.0012719999999999988,0.0020560000000000023,-0.11932849999999999,-0.360978,-0.022122999999999997,0.1137515,-0.35708799999999996,0.0044940000000000015,-0.1709285,-0.8618279999999999,0.001230000000000002,0.16920149999999998,-0.8580679999999999,0.017853
7,-0.017912,0.7174215,0.022074,-0.169879,0.5143415,0.011595,-0.239419,0.7473215000000001,-0.073867,0.125111,0.5688115,0.010274,0.180621,0.8219415,-0.078356,-0.229789,1.0268115,-0.171376,0.17658100000000002,1.0784114999999999,-0.12570599999999998,-0.059991,-0.0019095000000000006,-0.0013880000000000003,0.059991,0.0019094999999999997,0.0013880000000000003,-0.119019,-0.3614685,-0.018327,0.114601,-0.35669850000000003,0.002037999999999998,-0.170429,-0.8627484999999999,-0.0009660000000000016,0.176951,-0.8987784999999999,0.019522
8,-0.018175999999999998,0.7174215,0.018645000000000002,-0.170259,0.5143415,0.008865000000000001,-0.239249,0.7473215000000001,-0.07716500000000001,0.12505100000000002,0.5672115000000001,0.007538000000000001,0.18179099999999998,0.8219515000000001,-0.08260400000000001,-0.22945900000000002,1.0268115,-0.17880400000000002,0.178861,1.0784114999999999,-0.131364,-0.060015,-0.0019095000000000006,-0.0016419999999999976,0.060015,0.0019094999999999997,0.001642000000000001,-0.119169,-0.3614685,-0.018210999999999998,0.114311,-0.35669850000000003,-0.0006929999999999992,-0.17094900000000002,-0.8627484999999999,-0.0033719999999999965,0.176211,-0.8998385,0.018334000000000003
9,-0.018562499999999996,0.7170115,0.014386,-0.1707565,0.5142115,0.005977,-0.23900649999999998,0.7473215000000001,-0.08204700000000001,0.12499350000000001,0.5651215,0.004402,0.1829735,0.8219515000000001,-0.089452,-0.2291065,1.0257114999999999,-0.18682200000000002,0.1812435,1.0777115,-0.13850200000000001,-0.0600285,-0.0019095000000000006,-0.0017819999999999989,0.0600285,0.0019094999999999997,0.0017820000000000006,-0.11956649999999999,-0.3614685,-0.018777000000000002,0.1140235,-0.35669850000000003,-0.0035850000000000014,-0.1715165,-0.8627484999999999,-0.005909000000000001,0.17723350000000002,-0.9129385,0.017006
10,-0.019022499999999998,0.715869,0.0096415,-0.1711055,0.513689,0.0030384999999999995,-0.2387955,0.747429,-0.0879465,0.12477450000000001,0.562529,0.0009385000000000001,0.1843245,0.822059,-0.09639650000000001,-0.2285555,1.024419,-0.1949265,0.1837645,1.075619,-0.1476065,-0.060164499999999996,-0.0019240000000000004,-0.0017325000000000014,0.060164499999999996,0.0019239999999999995,0.0017324999999999997,-0.12006549999999999,-0.361491,-0.020133500000000002,0.1137045,-0.356861,-0.0065134999999999985,-0.1721255,-0.862871,-0.0084855,0.1782845,-0.9262210000000001,0.0155545
11,-0.0195425,0.7149625000000001,0.0034504999999999987,-0.1711455,0.5139725,-0.001716500000000001,-0.2387855,0.7473925,-0.0957615,0.1245945,0.5582925,-0.0057585,0.1854745,0.8174025,-0.1055715,-0.2278955,1.0233124999999998,-0.2044315,0.1857445,1.0731125,-0.1584715,-0.060359499999999996,-0.0019835,-0.0016815000000000007,0.060359499999999996,0.0019835,0.001681499999999999,-0.1206555,-0.3615275,-0.0232975,0.11344449999999999,-0.3571775,-0.0112225,-0.1728255,-0.8629975,-0.0121185,0.1792445,-0.9377975,0.012994499999999999
12,-0.020315999999999994,0.7134765,-0.004215,-0.170909,0.5152464999999999,-0.0074789999999999995,-0.238699,0.7464465,-0.104794,0.12432100000000001,0.5536464999999999,-0.013526999999999999,0.18657100000000001,0.8118265,-0.115094,-0.226709,1.0213265,-0.215364,0.187701,1.0693265,-0.170964,-0.060472,-0.0021085,-0.00145,0.060472,0.0021085,0.0014500000000000008,-0.12129899999999999,-0.3615435,-0.027359999999999995,0.113371,-0.35734350000000004,-0.017057999999999997,-0.173599,-0.8630835,-0.016179,0.180141,-0.9484635,0.009929
13,-0.020908499999999997,0.7115889999999999,-0.012604500000000001,-0.17061349999999997,0.516749,-0.013527499999999998,-0.2385735,0.745589,-0.1145945,0.1240565,0.5492589999999999,-0.021860499999999998,0.1870765,0.807349,-0.1255245,-0.2247535,1.019689,-0.2272945,0.1894965,1.0654890000000001,-0.18417450000000002,-0.060567499999999996,-0.0022830000000000003,-0.0011375,0.060567499999999996,0.0022830000000000003,0.0011374999999999998,-0.1222035,-0.36151099999999997,-0.0314155,0.1133865,-0.357321,-0.0236275,-0.17444349999999997,-0.863091,-0.0202355,0.18126650000000002,-0.958111,0.0062285
14,-0.021601499999999996,0.7092149999999999,-0.0218885,-0.17023349999999998,0.519035,-0.019883500000000002,-0.2384135,0.744265,-0.1253305,0.12376650000000002,0.545265,-0.030641500000000002,0.18768649999999998,0.805075,-0.13610049999999999,-0.2220935,1.017985,-0.2378505,0.1910965,1.061085,-0.19774049999999999,-0.0606945,-0.002301,-0.0008135000000000002,0.0606945,0.002301,0.0008135,-0.1232635,-0.361265,-0.0356115,0.1137065,-0.35731500000000005,-0.031398499999999996,-0.17598350000000001,-0.869965,-0.0242535,0.1826565,-0.9645250000000001,0.0022634999999999995
15,-0.0221275,0.7067935000000001,-0.031405,-0.16956849999999998,0.5200735,-0.027201,-0.2383185,0.7431835,-0.13657,0.1234315,0.5379935,-0.040205,0.1883715,0.7998035,-0.14706,-0.2190585,1.0164135,-0.24918,0.1917815,1.0578135,-0.21080000000000002,-0.0609225,-0.0022205000000000003,-0.0005570000000000002,0.0609225,0.0022205000000000003,0.0005570000000000002,-0.1246585,-0.3605465,-0.040974,0.1144115,-0.35717649999999995,-0.040119999999999996,-0.1771885,-0.8751964999999999,-0.027812,0.1822215,-0.9571665,-0.002251
16,-0.022666,0.703074,-0.0410945,-0.16880299999999998,0.521404,-0.0345495,-0.238393,0.7423639999999999,-0.1479395,0.122987,0.531764,-0.0494065,0.18907700000000002,0.793974,-0.1591795,-0.215243,1.015304,-0.2601395,0.192107,1.0542340000000001,-0.2243195,-0.061286999999999994,-0.002045999999999999,-0.0001294999999999994,0.061286999999999994,0.002045999999999999,0.0001294999999999994,-0.12648299999999998,-0.35948599999999997,-0.046671500000000005,0.115477,-0.356906,-0.0495215,-0.17868299999999998,-0.877986,-0.031064500000000002,0.18194700000000003,-0.9497460000000001,-0.0053235
17,-0.023116000000000005,0.699285,-0.050473000000000004,-0.16833800000000002,0.522815,-0.042064000000000004,-0.238408,0.7417050000000001,-0.159395,0.122842,0.524795,-0.058626000000000004,0.189802,0.788815,-0.171125,-0.21046800000000002,1.014065,-0.271445,0.191612,1.0514949999999998,-0.238245,-0.06153,-0.0019439999999999978,0.0004009999999999986,0.06153,0.0019440000000000013,-0.0004010000000000003,-0.128708,-0.35830500000000004,-0.053902,0.11698199999999999,-0.35614500000000004,-0.059035000000000004,-0.18021800000000002,-0.8797849999999999,-0.033535999999999996,0.181762,-0.941485,-0.0077800000000000005
18,-0.023435499999999995,0.695704,-0.0593775,-0.1677495,0.520904,-0.0502285,-0.23836949999999998,0.742174,-0.1712765,0.12260049999999999,0.518564,-0.0676915,0.1902405,0.783894,-0.18130649999999998,-0.20527949999999998,1.014104,-0.2823565,0.1918505,1.0494539999999999,-0.2518665,-0.061648499999999995,-0.001805000000000001,0.0008834999999999989,0.061648499999999995,0.001805000000000001,-0.0008835000000000006,-0.13154949999999999,-0.356796,-0.0619325,0.11905049999999999,-0.355166,-0.0690045,-0.1815895,-0.879146,-0.0357985,0.1814405,-0.929076,-0.010763500000000002
19,-0.023653499999999997,0.692019,-0.06757450000000001,-0.16694949999999997,0.520089,-0.0575825,-0.2384295,0.743479,-0.1827665,0.1225905,0.511879,-0.07632649999999999,0.1906805,0.779189,-0.1913365,-0.19991949999999997,1.014229,-0.2928565,0.19187050000000003,1.047469,-0.2639565,-0.061661499999999994,-0.0016300000000000064,0.0011985,0.061661499999999994,0.0016299999999999995,-0.0011985,-0.1349695,-0.35486100000000004,-0.0707305,0.12141049999999999,-0.35375100000000004,-0.0790035,-0.1829595,-0.876311,-0.0371115,0.18120050000000001,-0.915041,-0.012994499999999999
20,-0.023797,0.6884779999999999,-0.07457849999999999,-0.166709,0.518288,-0.0635825,-0.238059,0.745208,-0.1930705,0.12276100000000001,0.508228,-0.08212850000000001,0.191101,0.775368,-0.1999805,-0.19461900000000001,1.015738,-0.3022605,0.191891,1.046448,-0.2755205,-0.06188199999999999,-0.0014269999999999977,0.0012624999999999997,0.06188199999999999,0.0014269999999999977,-0.0012624999999999997,-0.138689,-0.352392,-0.0800885,0.124191,-0.351952,-0.0882915,-0.183929,-0.870712,-0.0375595,0.181191,-0.8990720000000001,-0.014307499999999999
21,-0.0241665,0.684378,-0.082854,-0.16654549999999999,0.516358,-0.071115,-0.23781549999999999,0.747718,-0.204136,0.12298449999999998,0.503258,-0.089602,0.1912445,0.769418,-0.21052600000000002,-0.1899855,1.018128,-0.312616,0.19197450000000002,1.040608,-0.28814599999999996,-0.0621795,-0.0012729999999999964,0.0013959999999999997,0.0621795,0.0012729999999999964,-0.0013959999999999997,-0.14267549999999998,-0.349552,-0.091873,0.12700450000000002,-0.34977199999999997,-0.099494,-0.1848755,-0.8630519999999999,-0.039785,0.1812745,-0.881842,-0.017106
22,-0.024797999999999997,0.6813855,-0.09059700000000001,-0.16666599999999998,0.5134055,-0.07896,-0.23776599999999998,0.7441355000000001,-0.2152,0.122874,0.5000255,-0.09678600000000001,0.190534,0.7618055,-0.22065,-0.186246,1.0134555,-0.32276,0.19115400000000002,1.0369154999999999,-0.29979,-0.062648,-0.0010365000000000096,0.0015179999999999985,0.062648,0.0010364999999999958,-0.0015180000000000003,-0.147446,-0.3424045,-0.10495199999999999,0.12949400000000003,-0.3438445,-0.111935,-0.18623599999999998,-0.8521845,-0.041712,0.180904,-0.8627144999999999,-0.01989
23,-0.025051,0.679195,-0.097812,-0.16637999999999997,0.510545,-0.087179,-0.23713,0.743035,-0.225296,0.12291,0.49684500000000004,-0.104411,0.19080999999999998,0.756145,-0.230266,-0.18242000000000003,1.0108949999999999,-0.33285600000000004,0.19058999999999998,1.034805,-0.310856,-0.062862,-0.0010249999999999981,0.0014990000000000003,0.062862,0.0010249999999999981,-0.0014990000000000003,-0.15197,-0.333045,-0.118526,0.13262000000000002,-0.335325,-0.124706,-0.18633,-0.832365,-0.043865,0.18133,-0.842895,-0.022551
24,-0.025445500000000003,0.6764300000000001,-0.10574249999999999,-0.16635650000000002,0.50934,-0.0952595,-0.2363965,0.7419,-0.2352655,0.1228235,0.49813,-0.1120255,0.1910035,0.75139,-0.24014549999999998,-0.17951650000000002,1.00871,-0.3438755,0.18946349999999998,1.02912,-0.32241549999999997,-0.06306149999999999,-0.0010699999999999876,0.0016154999999999989,0.06306149999999999,0.0010700000000000154,-0.0016154999999999989,-0.15647650000000002,-0.32171,-0.1316555,0.1356435,-0.32491,-0.1384855,-0.1864165,-0.8116300000000001,-0.047147499999999995,0.1816235,-0.8208599999999999,-0.0263095
25,-0.025947999999999995,0.676735,-0.1150595,-0.166181,0.5045550000000001,-0.1060465,-0.23546099999999998,0.742815,-0.24717450000000002,0.121679,0.499235,-0.1223955,0.19065900000000002,0.754375,-0.2509145,-0.178801,1.008995,-0.35659450000000004,0.18809900000000002,1.024965,-0.33511450000000004,-0.063174,-0.0015049999999999786,0.0017635000000000012,0.063174,0.0015050000000000063,-0.0017634999999999977,-0.162041,-0.302995,-0.1520845,0.139299,-0.307005,-0.1582445,-0.186631,-0.784355,-0.0535085,0.18221900000000002,-0.791655,-0.033160499999999996
26,-0.0267195,0.678105,-0.12394050000000001,-0.1661695,0.500805,-0.1157775,-0.2354095,0.744105,-0.2579015,0.1202705,0.502385,-0.1316915,0.1897505,0.7562450000000001,-0.2609115,-0.1788895,1.011225,-0.3679715,0.1864805,1.0208949999999999,-0.3461315,-0.06307750000000001,-0.0014650000000000218,0.001681499999999999,0.06307750000000001,0.001464999999999994,-0.0016815000000000024,-0.1677195,-0.285175,-0.1717615,0.1424205,-0.289335,-0.1768515,-0.1891495,-0.7537050000000001,-0.0611345,0.18250049999999998,-0.762435,-0.039711500000000004
27,-0.027452,0.679235,-0.13182,-0.166701,0.500345,-0.123812,-0.235401,0.744095,-0.267169,0.118819,0.503285,-0.139719,0.188649,0.757425,-0.269339,-0.178871,1.011895,-0.378509,0.184799,1.018305,-0.355539,-0.062999,-0.0018950000000000078,0.0015609999999999999,0.062999,0.00189499999999998,-0.0015609999999999999,-0.172971,-0.265185,-0.19045900000000002,0.145579,-0.269285,-0.19420900000000002,-0.191931,-0.723095,-0.068074,0.182779,-0.732985,-0.045235000000000004
28,-0.028187,0.681805,-0.1382555,-0.16711299999999998,0.498645,-0.1312125,-0.235513,0.743545,-0.2745155,0.11745699999999999,0.506445,-0.1464055,0.186527,0.760745,-0.2766355,-0.17871299999999998,1.007965,-0.3875855,0.18313700000000002,1.016645,-0.3640355,-0.062916,-0.002145000000000008,0.001303500000000006,0.062916,0.002145000000000008,-0.001303499999999999,-0.177783,-0.24383499999999997,-0.2083255,0.149257,-0.248195,-0.21046549999999997,-0.19472299999999998,-0.692735,-0.0741565,0.183257,-0.703465,-0.0500535
29,-0.028901,0.68442,-0.143667,-0.167331,0.49850000000000005,-0.137243,-0.23483099999999998,0.74033,-0.280567,0.116079,0.50874,-0.152437,0.184479,0.7611300000000001,-0.282377,-0.178791,1.00455,-0.395467,0.181389,1.01521,-0.370787,-0.062839,-0.00272,0.0010390000000000052,0.062839,0.00272,-0.0010389999999999983,-0.182661,-0.22092,-0.226567,0.153329,-0.2253,-0.226377,-0.197841,-0.6625099999999999,-0.079706,0.183839,-0.6752499999999999,-0.054265999999999995
30,-0.029511,0.68805,-0.1484355,-0.167497,0.49749999999999994,-0.14292549999999998,-0.234657,0.7390399999999999,-0.2864055,0.114883,0.5116799999999999,-0.1579055,0.18260300000000002,0.7640899999999999,-0.2874355,-0.179277,1.00197,-0.4032055,0.179533,1.02014,-0.3765055,-0.062645,-0.0031400000000000317,0.0008254999999999998,0.062645,0.003139999999999976,-0.0008254999999999998,-0.187227,-0.19751000000000007,-0.2439055,0.15754300000000002,-0.20189000000000001,-0.2417355,-0.201017,-0.63178,-0.0847605,0.184743,-0.6457700000000001,-0.0584025
31,-0.0304515,0.69133,-0.15249400000000002,-0.1677995,0.49736,-0.147844,-0.2346995,0.7450000000000001,-0.291334,0.1135205,0.5147,-0.162744,0.18048050000000002,0.7695700000000001,-0.291614,-0.1807395,1.0069400000000002,-0.410414,0.1777505,1.02387,-0.381834,-0.0624495,-0.0037299999999999556,0.00035400000000000015,0.0624495,0.003730000000000011,-0.00035400000000000015,-0.19126949999999998,-0.17426999999999992,-0.259644,0.1617805,-0.17904999999999993,-0.255254,-0.20450949999999998,-0.6021299999999999,-0.08974199999999999,0.1860705,-0.61674,-0.062015
32,-0.031267500000000004,0.69431,-0.1559285,-0.1682485,0.49458,-0.15186850000000002,-0.2347885,0.7471700000000001,-0.2959385,0.1124115,0.51822,-0.1666285,0.1782215,0.77439,-0.29531850000000004,-0.1826685,1.00993,-0.4165085,0.1759315,1.0282200000000001,-0.3860485,-0.0620315,-0.0044099999999999695,-0.0002165000000000014,0.0620315,0.004410000000000025,0.0002165000000000014,-0.1950185,-0.15125999999999995,-0.2745985,0.1660915,-0.15605999999999998,-0.2685885,-0.2083385,-0.5724199999999999,-0.0943035,0.1880215,-0.5876899999999999,-0.0658215
33,-0.0321495,0.698385,-0.158136,-0.16903849999999998,0.491745,-0.154686,-0.2355685,0.7487649999999999,-0.30025599999999997,0.1112015,0.5186649999999999,-0.16893599999999998,0.1762315,0.7803249999999999,-0.297726,-0.1854285,1.008785,-0.420666,0.17402150000000002,1.035745,-0.388536,-0.0616515,-0.004785000000000039,-0.00022300000000000098,0.0616515,0.004784999999999984,0.00022299999999999404,-0.1987685,-0.12878500000000004,-0.288826,0.17002150000000002,-0.13420500000000002,-0.280746,-0.2128185,-0.544815,-0.096886,0.1895215,-0.560055,-0.06858
34,-0.0330655,0.6989650000000001,-0.1606305,-0.1699415,0.493117,-0.1567705,-0.2365115,0.748595,-0.3042005,0.1102985,0.5199550000000001,-0.1706005,0.1750485,0.7804150000000001,-0.3003305,-0.1881815,1.002925,-0.42502049999999997,0.1720785,1.040475,-0.39110049999999996,-0.061398499999999995,-0.005135000000000001,-0.00022749999999999854,0.061398499999999995,0.005135000000000001,0.00022749999999999854,-0.2011515,-0.11293499999999995,-0.29930049999999997,0.1728485,-0.11782500000000001,-0.2893705,-0.2171315,-0.5237350000000001,-0.0993755,0.1910485,-0.538775,-0.0704195
35,-0.033686999999999995,0.6999,-0.162781,-0.17024499999999998,0.49199,-0.159221,-0.23718499999999998,0.74683,-0.308021,0.109675,0.51792,-0.172881,0.17439500000000002,0.78017,-0.303011,-0.190745,0.99853,-0.42889099999999997,0.170605,1.04068,-0.393621,-0.061191999999999996,-0.005639999999999978,-0.00023100000000000204,0.061191999999999996,0.005639999999999978,0.0002309999999999951,-0.20271499999999998,-0.09409000000000001,-0.310011,0.17611500000000002,-0.09923000000000004,-0.29934099999999997,-0.218685,-0.50075,-0.100039,0.19307500000000002,-0.51579,-0.071979
36,-0.0339275,0.70114,-0.163023,-0.16978449999999998,0.49157100000000004,-0.16001300000000002,-0.2374145,0.74589,-0.309753,0.1094255,0.519292,-0.173613,0.1741355,0.78162,-0.304413,-0.19299449999999999,0.99551,-0.431383,0.1698455,1.04098,-0.394523,-0.0610555,-0.005799999999999972,-0.0007080000000000003,0.0610555,0.005800000000000027,0.0007080000000000003,-0.2033645,-0.07601999999999998,-0.319073,0.1796155,-0.08170999999999995,-0.307963,-0.2197345,-0.47841,-0.099034,0.1943155,-0.49344999999999994,-0.072362
37,-0.033271,0.70008,-0.160251,-0.169072,0.491562,-0.157511,-0.238002,0.7445200000000001,-0.309161,0.110668,0.518643,-0.171261,0.17415799999999998,0.78105,-0.30256099999999997,-0.193982,0.99777,-0.431061,0.16987799999999997,1.04248,-0.39163099999999995,-0.060727,-0.005989999999999995,-0.0009339999999999973,0.060727,0.005989999999999995,0.0009340000000000043,-0.203472,-0.06217999999999996,-0.324611,0.18218800000000002,-0.06851000000000002,-0.312601,-0.21967199999999998,-0.45617,-0.094642,0.19557799999999997,-0.47198,-0.06861300000000001
38,-0.032802,0.6995199999999999,-0.1576435,-0.16833599999999999,0.490467,-0.1551735,-0.23857599999999998,0.74551,-0.3086135,0.11200399999999999,0.517916,-0.1689235,0.173954,0.7828999999999999,-0.3006835,-0.19500599999999998,0.99839,-0.4316335,0.16970400000000002,1.0421399999999998,-0.3888835,-0.060855,-0.005950000000000011,-0.001184499999999998,0.060855,0.005950000000000011,0.001184500000000005,-0.20377599999999998,-0.04703999999999997,-0.3290035,0.183564,-0.055910000000000015,-0.3169335,-0.219826,-0.43706,-0.0902905,0.19628400000000001,-0.45116,-0.0655935
39,-0.0320155,0.6986300000000001,-0.1554045,-0.1675345,0.48928600000000005,-0.1531045,-0.2389345,0.74424,-0.3081345,0.1132555,0.5179870000000001,-0.1663745,0.1747355,0.78176,-0.2996645,-0.1963045,0.9977,-0.4322045,0.1695855,1.04309,-0.3862445,-0.0610175,-0.005950000000000011,-0.0012054999999999982,0.0610175,0.005950000000000011,0.0012055000000000017,-0.2040045,-0.03269999999999995,-0.3330345,0.1843755,-0.04350999999999994,-0.32107450000000004,-0.2199145,-0.41838999999999993,-0.08615249999999999,0.1971255,-0.43223,-0.0621935
40,-0.030862499999999998,0.6965749999999999,-0.1537885,-0.1667015,0.488457,-0.1512985,-0.2391215,0.7423249999999999,-0.30818850000000003,0.11464850000000001,0.515779,-0.1642285,0.17615850000000002,0.7800149999999999,-0.2988585,-0.1973915,0.997065,-0.4331485,0.1695285,1.043635,-0.38472850000000003,-0.061115499999999996,-0.00582500000000008,-0.0012745000000000013,0.061115499999999996,0.005824999999999969,0.0012744999999999979,-0.2037415,-0.018755000000000077,-0.3374785,0.1848485,-0.03132500000000005,-0.3257985,-0.2192315,-0.400335,-0.0822245,0.1980085,-0.41261500000000007,-0.0592695
41,-0.029428,0.6944750000000001,-0.152831,-0.165847,0.489472,-0.149891,-0.239127,0.741685,-0.309011,0.116203,0.5130250000000001,-0.162381,0.178253,0.775915,-0.298871,-0.198487,0.995385,-0.436751,0.170343,1.041465,-0.384391,-0.061227000000000004,-0.005554999999999977,-0.001363000000000003,0.061227000000000004,0.005554999999999977,0.0013629999999999996,-0.202287,-0.005314999999999959,-0.341441,0.184803,-0.019364999999999966,-0.329391,-0.217767,-0.384115,-0.07812,0.199013,-0.394455,-0.055891
42,-0.027768499999999998,0.691605,-0.15288049999999997,-0.1649265,0.48920600000000003,-0.14950049999999998,-0.2390665,0.740415,-0.3101805,0.1176635,0.5120610000000001,-0.16131050000000002,0.1806635,0.773055,-0.2998405,-0.1991165,0.995655,-0.4410105,0.1722035,1.036625,-0.3870205,-0.0613875,-0.005525000000000002,-0.0015314999999999999,0.0613875,0.005525000000000002,0.0015314999999999999,-0.2003565,0.008175000000000043,-0.3455805,0.18489350000000002,-0.007645000000000013,-0.3322105,-0.2158765,-0.369085,-0.0746385,0.1996635,-0.37660499999999997,-0.0525645
43,-0.0261395,0.690045,-0.154351,-0.1638355,0.487315,-0.150371,-0.2388555,0.737405,-0.31290100000000004,0.1192645,0.50969,-0.161351,0.1839345,0.769505,-0.301891,-0.1995055,0.997545,-0.446911,0.1747945,1.034305,-0.391041,-0.0615415,-0.005284999999999984,-0.001582,0.0615415,0.005284999999999984,0.001582,-0.1980755,0.022355000000000014,-0.349011,0.1851545,0.003715000000000024,-0.33421100000000004,-0.2151555,-0.352075,-0.073025,0.2003545,-0.35992500000000005,-0.050717
44,-0.024701500000000005,0.6864249999999998,-0.157441,-0.1630285,0.4861899999999999,-0.152171,-0.2390385,0.7340099999999999,-0.317771,0.1204915,0.5096699999999998,-0.161941,0.1875515,0.7656799999999999,-0.30541100000000004,-0.1997085,0.9938299999999999,-0.455761,0.17784149999999999,1.0352999999999999,-0.39726100000000003,-0.061755500000000005,-0.005330000000000057,-0.0016239999999999996,0.061755500000000005,0.005329999999999946,0.0016240000000000004,-0.1957085,0.03371999999999986,-0.35252100000000003,0.1856015,0.012879999999999892,-0.33505100000000004,-0.2126985,-0.34113000000000016,-0.07345499999999999,0.1999915,-0.3462900000000001,-0.050079
45,-0.023897,0.682798,-0.16227550000000002,-0.162656,0.48327999999999993,-0.1553455,-0.239096,0.7283959999999999,-0.3243155,0.121304,0.50733,-0.16391550000000002,0.190904,0.7599499999999999,-0.31019549999999996,-0.200166,0.98742,-0.46617549999999996,0.18157399999999999,1.03312,-0.40566549999999996,-0.061927,-0.005330000000000057,-0.0018034999999999995,0.061927,0.005329999999999946,0.0018034999999999995,-0.193556,0.042119999999999935,-0.35605549999999997,0.18556399999999998,0.02073999999999998,-0.3359255,-0.21005600000000002,-0.33344000000000007,-0.07812949999999999,0.199244,-0.33611,-0.0493095
46,-0.023467,0.680824,-0.16751449999999998,-0.162126,0.47935,-0.15854449999999998,-0.238946,0.722279,-0.3307545,0.12178399999999999,0.50467,-0.1657845,0.194494,0.75439,-0.3151745,-0.19988599999999998,0.9797,-0.4775045,0.185614,1.02919,-0.4144545,-0.06202099999999999,-0.005589999999999984,-0.0018015000000000001,0.06202099999999999,0.005589999999999984,0.0018014999999999993,-0.19111599999999998,0.04803999999999997,-0.3587245,0.18568400000000002,0.025469999999999993,-0.3365945,-0.206396,-0.32950999999999997,-0.0830385,0.198914,-0.32968,-0.0488185
47,-0.023075000000000002,0.6765760000000001,-0.173123,-0.161687,0.47817500000000007,-0.16149300000000003,-0.239047,0.7166110000000001,-0.337323,0.122253,0.503245,-0.167353,0.197943,0.746415,-0.320253,-0.199707,0.967635,-0.488623,0.189233,1.0240150000000001,-0.42461299999999996,-0.06213300000000001,-0.005564999999999931,-0.0017999999999999995,0.06213300000000001,0.005565000000000042,0.0017999999999999995,-0.188967,0.04888500000000007,-0.359073,0.185503,0.026145000000000085,-0.33658299999999997,-0.202547,-0.3293149999999999,-0.082847,0.198733,-0.328715,-0.048858
48,-0.022516999999999995,0.6741340000000001,-0.1791645,-0.161075,0.47606500000000007,-0.16424450000000002,-0.238835,0.7115230000000001,-0.3443345,0.122885,0.5011950000000001,-0.16882450000000002,0.200415,0.7419120000000001,-0.3250645,-0.19950500000000002,0.954725,-0.4985745,0.192705,1.018555,-0.4347945,-0.062103,-0.005564999999999931,-0.0018004999999999991,0.062103,0.005565000000000042,0.0018005,-0.186935,0.04731500000000011,-0.3591045,0.185155,0.02489500000000011,-0.3365845,-0.19839500000000002,-0.33162499999999995,-0.0830045,0.197905,-0.33111499999999994,-0.0494575
49,-0.0213695,0.6741340000000001,-0.1859905,-0.1597245,0.47606500000000007,-0.1678105,-0.2375445,0.711187,-0.3513605,0.1239855,0.5011950000000001,-0.1711805,0.2031555,0.7419120000000001,-0.3305605,-0.1993445,0.9526650000000001,-0.5088805000000001,0.1964155,1.0177150000000001,-0.4444705,-0.0621095,-0.005564999999999931,-0.0020925000000000006,0.0621095,0.005565000000000042,0.002092499999999999,-0.1845845,0.04727500000000007,-0.3599205,0.1857355,0.02489500000000011,-0.3373605,-0.19441450000000002,-0.3341749999999999,-0.0848545,0.19754549999999998,-0.33296499999999996,-0.051617500000000004
50,-0.019979999999999998,0.6741340000000001,-0.193363,-0.15842599999999998,0.47606500000000007,-0.173383,-0.237176,0.711187,-0.359193,0.124404,0.5011950000000001,-0.174893,0.204774,0.7419120000000001,-0.335963,-0.199866,0.9526650000000001,-0.517733,0.198964,1.0177150000000001,-0.454043,-0.062096,-0.005564999999999931,-0.0024469999999999995,0.062096,0.005565000000000042,0.0024469999999999995,-0.18240599999999998,0.04727500000000007,-0.361553,0.18657400000000002,0.02489500000000011,-0.338113,-0.190886,-0.33579499999999995,-0.087823,0.197384,-0.33462499999999995,-0.054512
51,-0.018611000000000003,0.6735690000000001,-0.2011635,-0.157194,0.47550000000000003,-0.1792535,-0.236894,0.7106220000000001,-0.3659135,0.12482599999999999,0.50063,-0.1792835,0.206316,0.741347,-0.3417535,-0.201074,0.9521000000000001,-0.5264135,0.20055599999999998,1.01715,-0.4610535,-0.062137,-0.005950000000000011,-0.0029224999999999998,0.062137,0.005950000000000011,0.0029224999999999998,-0.180284,0.04671000000000003,-0.3632535,0.187406,0.024330000000000074,-0.3386035,-0.18801400000000001,-0.33709,-0.09153549999999999,0.19697599999999998,-0.3356,-0.0575445
52,-0.017627500000000004,0.67068,-0.20892349999999998,-0.1560225,0.47369000000000006,-0.1849135,-0.2370525,0.704172,-0.3730235,0.12538749999999999,0.49821000000000004,-0.1839135,0.2082275,0.7369000000000001,-0.34817349999999997,-0.20216250000000002,0.9456500000000001,-0.5334435,0.2022275,1.0107000000000002,-0.4695635,-0.0620275,-0.005669999999999953,-0.003150499999999999,0.0620275,0.005670000000000064,0.0031505000000000005,-0.1780425,0.040260000000000074,-0.3639535,0.18825750000000002,0.018550000000000066,-0.3385435,-0.1862725,-0.34353999999999996,-0.0952885,0.19687749999999998,-0.3416699999999999,-0.06167449999999999
53,-0.0166315,0.668705,-0.21583,-0.1549905,0.471025,-0.19063,-0.2372805,0.698414,-0.37923999999999997,0.1256695,0.495715,-0.18891,0.2100595,0.734105,-0.35359999999999997,-0.2029705,0.9390350000000001,-0.53747,0.2040495,1.006545,-0.47587999999999997,-0.061856499999999995,-0.005715000000000026,-0.0033490000000000013,0.061856499999999995,0.005715000000000026,0.0033490000000000013,-0.1757905,0.03057500000000002,-0.36408999999999997,0.1888495,0.010844999999999994,-0.33775,-0.18572049999999998,-0.352595,-0.100084,0.1970295,-0.35028499999999996,-0.06382399999999999
54,-0.015462999999999998,0.6679080000000001,-0.22240500000000002,-0.15357200000000001,0.4673900000000001,-0.19654500000000003,-0.237142,0.6936450000000001,-0.384485,0.126108,0.4922200000000001,-0.19433499999999998,0.212188,0.73011,-0.35851500000000003,-0.203742,0.9327100000000002,-0.5420349999999999,0.206268,1.00415,-0.481625,-0.06163400000000001,-0.005599999999999938,-0.0034280000000000005,0.06163400000000001,0.005600000000000049,0.0034280000000000005,-0.173412,0.018510000000000137,-0.363535,0.189528,0.0014100000000001334,-0.337055,-0.183832,-0.3653599999999999,-0.105244,0.19733799999999999,-0.36387999999999987,-0.06836400000000001
55,-0.014578999999999998,0.66686,-0.228073,-0.152192,0.46767000000000003,-0.202123,-0.23719200000000001,0.6921820000000001,-0.389153,0.126538,0.49097,-0.19964300000000001,0.21370799999999998,0.7281500000000001,-0.363213,-0.205122,0.92476,-0.546673,0.208258,1.00193,-0.486333,-0.061499,-0.005410000000000026,-0.0033980000000000017,0.061499,0.005410000000000026,0.0033980000000000017,-0.17103200000000002,0.0034399999999999986,-0.362093,0.190058,-0.010969999999999924,-0.33648300000000003,-0.181812,-0.38386,-0.109506,0.197758,-0.38237999999999994,-0.071512
56,-0.013578499999999997,0.6668430000000001,-0.2326545,-0.1509405,0.46869000000000005,-0.20715450000000002,-0.23746050000000002,0.6922,-0.39371449999999997,0.1268395,0.48870500000000006,-0.20426450000000002,0.2147695,0.72699,-0.36779449999999997,-0.20682050000000002,0.92031,-0.5507345,0.2097095,1.00033,-0.4909145,-0.0612755,-0.00492999999999999,-0.003215499999999996,0.0612755,0.00492999999999999,0.003215500000000003,-0.1686105,-0.013149999999999995,-0.3598745,0.1902895,-0.02462999999999993,-0.33571449999999997,-0.1804205,-0.4004599999999999,-0.1096715,0.1982695,-0.40317000000000003,-0.0750185
57,-0.012486999999999998,0.6677249999999999,-0.236459,-0.149891,0.47089899999999996,-0.210959,-0.23788099999999998,0.694145,-0.397489,0.127199,0.4908739999999999,-0.208059,0.215369,0.726425,-0.371589,-0.208691,0.916185,-0.551869,0.21021900000000002,0.9997149999999999,-0.494719,-0.061089000000000004,-0.004735000000000045,-0.002935,0.061089000000000004,0.004734999999999934,0.002935,-0.16625099999999998,-0.030695000000000028,-0.356729,0.19031900000000002,-0.03907500000000008,-0.33397899999999997,-0.17918099999999998,-0.419775,-0.10897899999999999,0.19961900000000002,-0.425095,-0.078324
58,-0.012075499999999996,0.667945,-0.23992549999999999,-0.1494975,0.47413299999999997,-0.2144355,-0.23917750000000002,0.6963349999999999,-0.3994355,0.1272025,0.491407,-0.2115255,0.2146325,0.726055,-0.3736555,-0.2107275,0.9119649999999999,-0.5498555,0.2098825,0.999335,-0.4977555,-0.060908500000000004,-0.004135,-0.0024944999999999967,0.060908500000000004,0.004135,0.0024945000000000037,-0.1647575,-0.050244999999999984,-0.3527455,0.1899025,-0.05546499999999999,-0.3314755,-0.1777975,-0.445495,-0.1109115,0.2003425,-0.44857500000000006,-0.0805845
59,-0.011924499999999998,0.67059,-0.24305149999999998,-0.14935749999999998,0.47489200000000004,-0.21773150000000002,-0.2398975,0.69906,-0.4001615,0.12747250000000002,0.49142100000000005,-0.2148215,0.2134325,0.72682,-0.37409149999999997,-0.2121875,0.9186300000000001,-0.5461914999999999,0.20951250000000002,1.00013,-0.4973415,-0.0608025,-0.003909999999999969,-0.002183499999999998,0.0608025,0.003910000000000025,0.002183500000000005,-0.1636475,-0.06806999999999996,-0.3484915,0.18922250000000002,-0.07042999999999999,-0.32791149999999997,-0.1785475,-0.46746,-0.1136615,0.2008125,-0.47100999999999993,-0.0833805
60,-0.012239499999999997,0.67226,-0.2441985,-0.1500375,0.476663,-0.2204785,-0.2408375,0.7009799999999999,-0.3987385,0.1274725,0.492367,-0.2175285,0.2122225,0.73042,-0.3735885,-0.21352749999999998,0.92503,-0.5416685,0.2089725,0.99919,-0.49618850000000003,-0.0606495,-0.003310000000000035,-0.0017765000000000003,0.0606495,0.0033099999999999796,0.0017765000000000003,-0.1630575,-0.08574999999999999,-0.34414849999999997,0.1881525,-0.08525000000000005,-0.3234585,-0.1799375,-0.49007,-0.1163525,0.20116250000000002,-0.49571,-0.08728050000000001
61,-0.012663,0.67557,-0.2441125,-0.151038,0.478606,-0.22213249999999998,-0.24124800000000002,0.70714,-0.39699249999999997,0.12742199999999998,0.493421,-0.2193125,0.211082,0.73337,-0.3722625,-0.214428,0.92536,-0.5354325,0.20866200000000001,1.00471,-0.4927125,-0.060499,-0.0032099999999999906,-0.0014534999999999965,0.060499,0.0032099999999999906,0.0014535000000000034,-0.162108,-0.10136,-0.3391725,0.187132,-0.09804999999999997,-0.3181525,-0.180988,-0.51153,-0.1189095,0.201762,-0.51771,-0.0911255
62,-0.013332000000000004,0.67892,-0.2431255,-0.15204299999999998,0.481773,-0.22162549999999998,-0.24169300000000002,0.71254,-0.39423549999999996,0.127637,0.49659,-0.21951549999999997,0.209957,0.73681,-0.3701255,-0.215663,0.92927,-0.5287755000000001,0.20880700000000002,1.00846,-0.48871549999999997,-0.060283,-0.0029000000000000137,-0.0011504999999999987,0.060283,0.0029000000000000137,0.0011504999999999987,-0.16178299999999998,-0.11626000000000003,-0.3340055,0.18579700000000002,-0.11055000000000004,-0.3122955,-0.182753,-0.53272,-0.1223855,0.201987,-0.53872,-0.0949425
63,-0.013848000000000003,0.6808,-0.24010399999999998,-0.153049,0.48683999999999994,-0.22023399999999999,-0.24215899999999999,0.7187999999999999,-0.389864,0.127651,0.5012099999999999,-0.218994,0.209071,0.7408299999999999,-0.365954,-0.216669,0.93184,-0.520274,0.209121,1.0121,-0.483934,-0.060217999999999994,-0.0028000000000000247,-0.0009699999999999986,0.060217999999999994,0.002799999999999969,0.0009700000000000056,-0.161379,-0.13170000000000004,-0.327154,0.184571,-0.12447000000000008,-0.305904,-0.184279,-0.5548700000000001,-0.12571,0.202581,-0.56069,-0.0972
64,-0.014026000000000004,0.681605,-0.236611,-0.154032,0.487975,-0.219431,-0.241632,0.721705,-0.38466100000000003,0.127128,0.502805,-0.219071,0.208168,0.745365,-0.36058100000000004,-0.217072,0.942075,-0.5124609999999999,0.209238,1.016865,-0.47836100000000004,-0.060121999999999995,-0.0026450000000000085,-0.0008850000000000038,0.060121999999999995,0.0026450000000000085,0.0008850000000000038,-0.160792,-0.145565,-0.319581,0.183438,-0.13674500000000006,-0.298451,-0.184492,-0.5766450000000001,-0.12812500000000002,0.202968,-0.5811649999999999,-0.099705
65,-0.014006500000000002,0.6807300000000001,-0.231876,-0.1549705,0.49171,-0.217466,-0.24188050000000003,0.7235400000000001,-0.377296,0.1263495,0.50303,-0.218326,0.20719949999999998,0.74867,-0.355606,-0.2175205,0.95083,-0.505876,0.20927949999999998,1.01924,-0.472316,-0.0601215,-0.0026399999999999757,-0.0009429999999999994,0.0601215,0.0026399999999999757,0.0009429999999999994,-0.1603005,-0.15986,-0.31136600000000003,0.1823995,-0.14976,-0.29025599999999996,-0.1842905,-0.59945,-0.130147,0.20328949999999998,-0.60208,-0.10173
66,-0.014275999999999997,0.678715,-0.22466199999999997,-0.156222,0.49590500000000004,-0.214082,-0.242322,0.7306250000000001,-0.368882,0.125998,0.498885,-0.21644200000000002,0.205778,0.751225,-0.347132,-0.218222,0.961835,-0.497682,0.209338,1.021775,-0.462412,-0.060022,-0.0018549999999999955,-0.0009529999999999955,0.060022,0.0018549999999999955,0.0009529999999999955,-0.160102,-0.17000500000000002,-0.300872,0.181008,-0.16096500000000002,-0.280272,-0.184302,-0.618495,-0.13095099999999998,0.203278,-0.6209450000000001,-0.10267799999999999
67,-0.0145745,0.67569,-0.2166435,-0.1574455,0.49779,-0.2107635,-0.24242550000000002,0.73809,-0.36102349999999994,0.12594450000000001,0.49903,-0.2132635,0.2040545,0.75488,-0.3387635,-0.2189555,0.97384,-0.48826349999999996,0.2091445,1.02397,-0.44986349999999997,-0.0599865,-0.0011999999999999789,-0.0010084999999999955,0.0599865,0.0012000000000000344,0.0010085000000000094,-0.1598855,-0.17878,-0.2899435,0.1793545,-0.16981999999999997,-0.2695235,-0.1842855,-0.63573,-0.1320825,0.2029345,-0.63674,-0.10333149999999999
68,-0.014983499999999997,0.67133,-0.2075185,-0.1589775,0.50229,-0.20561849999999998,-0.24223750000000002,0.74532,-0.3529685,0.1230125,0.49425,-0.2091785,0.2010725,0.7566200000000001,-0.33031849999999996,-0.2200175,0.97581,-0.4772885,0.2089925,1.0262600000000002,-0.4382085,-0.0599215,-0.00045000000000000595,-0.0009074999999999916,0.0599215,0.00045000000000000595,0.0009075000000000055,-0.1591275,-0.18973999999999996,-0.27881849999999997,0.1775425,-0.18062,-0.25866849999999997,-0.1842475,-0.65435,-0.1324325,0.2023525,-0.65352,-0.10417549999999999
69,-0.015421,0.666605,-0.198712,-0.160388,0.503325,-0.19997199999999998,-0.242218,0.750835,-0.344622,0.12015200000000001,0.492465,-0.20480199999999998,0.197932,0.757155,-0.32096199999999997,-0.220948,0.976475,-0.464522,0.208662,1.030885,-0.42611200000000005,-0.05991,-0.0003049999999999997,-0.0008069999999999883,0.05991,0.0003049999999999997,0.0008070000000000022,-0.157838,-0.20336499999999996,-0.266082,0.175232,-0.193365,-0.246752,-0.183748,-0.675495,-0.13182899999999997,0.201392,-0.671185,-0.10426099999999999
70,-0.0156505,0.661575,-0.189022,-0.1611305,0.503175,-0.19481199999999999,-0.24202050000000003,0.7536050000000001,-0.33416199999999996,0.1195595,0.491875,-0.19958199999999998,0.1947595,0.759085,-0.310632,-0.2215605,0.9816849999999999,-0.450302,0.2084395,1.031535,-0.413872,-0.059924500000000006,-0.0003449999999999842,-0.0008069999999999883,0.059924500000000006,0.00034500000000001196,0.0008070000000000022,-0.1560805,-0.21541499999999997,-0.253312,0.1725595,-0.203845,-0.23458199999999998,-0.1831905,-0.6939549999999999,-0.13067299999999998,0.2002195,-0.6854750000000001,-0.1038
71,-0.015733999999999998,0.65737,-0.17877500000000002,-0.16179,0.50269,-0.189945,-0.24128,0.7573300000000001,-0.321175,0.11853,0.4914,-0.19439499999999998,0.19175999999999999,0.7616099999999999,-0.29862500000000003,-0.22293000000000002,0.9898,-0.435825,0.20831,1.03292,-0.399895,-0.059853,-0.00019000000000002348,-0.0008080000000000032,0.059853,0.00018999999999999573,0.0008080000000000032,-0.15411999999999998,-0.22592,-0.240055,0.16952,-0.21363,-0.222005,-0.18241000000000002,-0.7102900000000001,-0.129391,0.19890999999999998,-0.69845,-0.103187
72,-0.015775499999999998,0.65354,-0.16895,-0.1620685,0.50228,-0.18547,-0.2403885,0.76007,-0.30882,0.1173915,0.49039,-0.18917,0.18864150000000002,0.76561,-0.28652,-0.2242285,1.00048,-0.42213999999999996,0.2074515,1.0380800000000001,-0.3849,-0.0597665,4.999999999999449e-05,-0.0008100000000000052,0.0597665,-4.999999999999449e-05,0.0008099999999999913,-0.15192850000000002,-0.23324999999999999,-0.22489,0.16640149999999998,-0.22197999999999998,-0.2096,-0.1811585,-0.72265,-0.127963,0.1977215,-0.7099,-0.102488
73,-0.0157505,0.653035,-0.1581815,-0.1623885,0.500945,-0.1796755,-0.2392585,0.7633749999999999,-0.2947955,0.1163245,0.48848499999999995,-0.18203550000000002,0.1857415,0.7660449999999999,-0.27301549999999997,-0.2253885,1.004805,-0.40601550000000003,0.20721150000000002,1.0395349999999999,-0.3670255,-0.0596225,0.00037499999999998646,-0.0009805000000000091,0.0596225,-0.0003750000000000142,0.0009804999999999953,-0.1492385,-0.24190500000000004,-0.2101355,0.1631415,-0.23173500000000002,-0.19630550000000002,-0.1795985,-0.734755,-0.1255635,0.1966215,-0.722135,-0.10043650000000001
74,-0.015713,0.653775,-0.14775,-0.163278,0.496915,-0.173923,-0.23861800000000002,0.767365,-0.280793,0.115467,0.48875500000000005,-0.17506300000000002,0.184142,0.767705,-0.25837299999999996,-0.22664800000000002,1.010835,-0.386983,0.206502,1.043415,-0.34791300000000003,-0.059523999999999994,0.0006150000000000044,-0.0011120000000000019,0.059523999999999994,-0.0006150000000000044,0.001111999999999988,-0.14608800000000002,-0.248175,-0.19556300000000001,0.159872,-0.237225,-0.183583,-0.177908,-0.743245,-0.12231800000000001,0.195522,-0.729525,-0.097818
75,-0.0156535,0.65402,-0.13770300000000002,-0.1638815,0.49162,-0.168054,-0.2380115,0.76507,-0.265784,0.1148125,0.49021,-0.167714,0.18273850000000003,0.7693500000000001,-0.245834,-0.22735149999999998,1.01478,-0.367464,0.2054085,1.0466199999999999,-0.329504,-0.059554499999999996,0.00032000000000000084,-0.0011800000000000005,0.059554499999999996,-0.00032000000000000084,0.0011800000000000005,-0.1428315,-0.25547000000000003,-0.181874,0.1557785,-0.24267,-0.168994,-0.17622149999999998,-0.7522099999999999,-0.118284,0.19439849999999997,-0.7369,-0.09313
76,-0.015439000000000001,0.655795,-0.123344,-0.164419,0.488055,-0.156901,-0.23735900000000001,0.763675,-0.24564999999999998,0.11419299999999999,0.490615,-0.156883,0.18193099999999998,0.769915,-0.22865000000000002,-0.227819,1.019285,-0.34538,0.204171,1.050055,-0.30943000000000004,-0.059539,-0.00017500000000000848,-0.0005929999999999963,0.059539,0.0001749999999999946,0.0005930000000000032,-0.139429,-0.26187499999999997,-0.16347,0.152021,-0.24870500000000004,-0.150779,-0.174519,-0.760165,-0.109303,0.194121,-0.744445,-0.083654
77,-0.016696000000000003,0.662071,-0.10542199999999999,-0.16574299999999997,0.48582100000000006,-0.13873999999999997,-0.237543,0.7569509999999999,-0.221804,0.114642,0.501921,-0.13668999999999998,0.18204700000000001,0.7774409999999999,-0.20812399999999998,-0.227773,1.021491,-0.320304,0.20288699999999998,1.054751,-0.284854,-0.059559,-0.0009689999999999976,-0.0011539999999999953,0.059559,0.0009689999999999976,0.0011540000000000022,-0.135353,-0.275929,-0.13999699999999998,0.14653699999999997,-0.262829,-0.126523,-0.17202299999999998,-0.775599,-0.095835,0.194867,-0.7650790000000001,-0.06980599999999999
78,-0.018184,0.6685295,-0.08850250000000001,-0.167155,0.48764949999999996,-0.1221735,-0.237635,0.7536095,-0.1999755,0.11734,0.5107695,-0.1178305,0.18205500000000002,0.7805795,-0.1889655,-0.227675,1.0268395,-0.29763550000000005,0.201555,1.0585795,-0.2600055,-0.059539,-0.0011364999999999986,-0.001750500000000002,0.059539,0.0011364999999999986,0.0017504999999999951,-0.13189499999999998,-0.28577050000000004,-0.11917950000000001,0.14144500000000002,-0.27355050000000003,-0.1051555,-0.16985499999999998,-0.7863705,-0.08392150000000001,0.194305,-0.7765605,-0.057072500000000005
79,-0.019764,0.6749084999999999,-0.07284850000000001,-0.16861900000000002,0.4895385,-0.1057005,-0.23848900000000003,0.7500985,-0.17986649999999998,0.11897,0.5188285,-0.10026850000000001,0.18226099999999998,0.7822684999999999,-0.1708365,-0.22764900000000002,1.0289685,-0.2779165,0.201041,1.0610785,-0.23703649999999998,-0.059634999999999994,-0.0012665000000000037,-0.002274500000000002,0.059634999999999994,0.0012664999999999968,0.0022744999999999987,-0.128859,-0.2959715,-0.09941349999999999,0.136851,-0.2855715,-0.0851305,-0.167859,-0.7974415,-0.07198650000000001,0.193551,-0.7912715,-0.0440475
80,-0.022223500000000004,0.6798124999999999,-0.0572505,-0.1703635,0.4918125,-0.0895325,-0.23929350000000002,0.7457825,-0.1622675,0.11930650000000001,0.5249525,-0.0833875,0.1817465,0.7825025,-0.1545575,-0.2277035,1.0242025000000001,-0.2589375,0.1991165,1.0624325000000001,-0.2161975,-0.05968949999999999,-0.0013504999999999975,-0.002800500000000001,0.05968949999999999,0.0013504999999999975,0.002800500000000001,-0.1262935,-0.30662750000000005,-0.0807595,0.1325865,-0.2976075,-0.0661225,-0.1662035,-0.8087875,-0.0604025,0.1937665,-0.8065175,-0.0294175
81,-0.0240745,0.684802,-0.0426755,-0.1719765,0.493982,-0.0716455,-0.23963649999999997,0.741382,-0.1456275,0.1192975,0.528042,-0.0655715,0.1816635,0.781862,-0.1386675,-0.2271865,1.019522,-0.24089750000000001,0.1976835,1.0609320000000002,-0.1964075,-0.0596415,-0.0014389999999999993,-0.003362499999999999,0.0596415,0.0014389999999999993,0.003362500000000001,-0.1233765,-0.318478,-0.06580749999999999,0.12921349999999998,-0.309648,-0.0479595,-0.1641965,-0.820788,-0.0489205,0.1945835,-0.821518,-0.0152835
82,-0.026199500000000004,0.6870695,-0.029454,-0.1740925,0.4979695,-0.054542,-0.24073250000000002,0.7375195,-0.131198,0.11902549999999999,0.5349895,-0.048954000000000004,0.18133749999999998,0.7831795,-0.124888,-0.2268725,1.0153495,-0.225248,0.1968375,1.0610495,-0.180968,-0.059589500000000004,-0.0016795000000000004,-0.003936,0.059589500000000004,0.0016795000000000004,0.003936,-0.12114250000000001,-0.3284905,-0.051972000000000004,0.1259275,-0.3203705,-0.03235,-0.16255250000000002,-0.8309805,-0.038049,0.1950575,-0.8387505,-0.002264
83,-0.0283145,0.689181,-0.0173485,-0.1757455,0.501971,-0.038173500000000006,-0.2422555,0.7340409999999999,-0.11792849999999999,0.11959449999999999,0.543601,-0.03217950000000001,0.1817645,0.784731,-0.1122085,-0.2266455,1.011011,-0.2126585,0.1962545,1.061211,-0.1672785,-0.059512499999999996,-0.0018739999999999998,-0.0046785,0.059512499999999996,0.0018739999999999998,0.0046785,-0.1194555,-0.33875900000000003,-0.039358500000000005,0.1227545,-0.332409,-0.017503499999999998,-0.16101549999999998,-0.841429,-0.0280515,0.19590449999999998,-0.857419,0.0101295
84,-0.0303715,0.692885,-0.006200500000000001,-0.1774465,0.507145,-0.021857500000000002,-0.2439065,0.731525,-0.10618050000000001,0.1201725,0.553405,-0.0155835,0.1821235,0.787345,-0.10019049999999999,-0.22651649999999998,1.007845,-0.2022805,0.1958635,1.062345,-0.1552705,-0.0594195,-0.0019920000000000007,-0.0054085,0.0594195,0.0019920000000000007,0.005408499999999999,-0.1179065,-0.350225,-0.027796500000000002,0.1207025,-0.343775,-0.005659500000000001,-0.1595165,-0.853085,-0.0190575,0.1965835,-0.873395,0.0206815
85,-0.032447,0.6969705,0.00019500000000000073,-0.17934,0.5119805000000001,-0.010477,-0.24572,0.7284005,-0.09986199999999999,0.119819,0.5633705,-0.0033019999999999994,0.18212,0.7902105,-0.093342,-0.22635,1.0042404999999999,-0.196192,0.19569999999999999,1.0640405,-0.147982,-0.059281,-0.0020275000000000015,-0.006735999999999999,0.059281,0.002027499999999998,0.006736000000000001,-0.11686,-0.36172950000000004,-0.021647,0.118502,-0.3555795,0.0015910000000000004,-0.15829,-0.8645995,-0.014936999999999999,0.19644,-0.8850695,0.023486
86,-0.03324,0.6981605000000001,0.004177499999999999,-0.180172,0.5128305000000001,-0.0054335000000000026,-0.24643199999999998,0.7294005,-0.0955155,0.119308,0.5633705,0.001126499999999999,0.182478,0.7904305,-0.0880745,-0.226522,1.0049405,-0.1925355,0.19563799999999998,1.0647404999999999,-0.14283549999999998,-0.059108,-0.0020275000000000015,-0.0067385,0.059108,0.002027499999999998,0.006738499999999999,-0.116622,-0.36172950000000004,-0.0193455,0.11829600000000001,-0.3563095,0.004025499999999999,-0.158012,-0.8645995,-0.0133965,0.196758,-0.8855495,0.0234805
87,-0.034104999999999996,0.6991105000000001,0.0085415,-0.18093399999999998,0.5135705,-0.00039849999999999955,-0.24703399999999998,0.7297905,-0.09110950000000001,0.118858,0.5633705,0.0058475,0.18291600000000002,0.7905605,-0.0829405,-0.22620400000000002,1.0049405,-0.18865949999999998,0.195986,1.0654405,-0.13889949999999998,-0.059074,-0.0020275000000000015,-0.006739499999999999,0.059074,0.002027499999999998,0.0067395,-0.116334,-0.36172950000000004,-0.0171425,0.118217,-0.3563095,0.0062875000000000006,-0.157704,-0.8645995,-0.011858500000000001,0.197166,-0.8830095,0.0236145
88,-0.035199,0.6999805,0.012993500000000002,-0.181821,0.5142005000000001,0.004578500000000001,-0.24779100000000004,0.7298105,-0.0869715,0.118242,0.5633705,0.0106995,0.18316900000000003,0.7906105,-0.07790549999999999,-0.226091,1.0049405,-0.1848505,0.19626900000000003,1.0656405,-0.1350605,-0.059102,-0.0020275000000000015,-0.0067385,0.059102,0.002027499999999998,0.0067385000000000006,-0.11625100000000001,-0.36172950000000004,-0.015202499999999999,0.117942,-0.3563095,0.008320500000000002,-0.15763100000000002,-0.8645995,-0.0106685,0.197529,-0.8805095,0.0236085
89,-0.035352,0.700198,0.014058000000000001,-0.182342,0.514928,0.0072,-0.248222,0.730228,-0.085149,0.117962,0.5634480000000001,0.013332,0.18335800000000002,0.789068,-0.075736,-0.225922,1.005358,-0.183164,0.196648,1.065958,-0.133264,-0.058972,-0.001752,-0.006702,0.058972,0.001752,0.0067020000000000005,-0.11614200000000001,-0.361412,-0.015908,0.118282,-0.356492,0.0068980000000000005,-0.157252,-0.864352,-0.011817000000000001,0.19851799999999997,-0.880282,0.021282000000000002
90,-0.0355215,0.7005425,0.0153095,-0.1824035,0.5156225,0.0079895,-0.24853349999999996,0.7306925,-0.0835135,0.1178315,0.5635325,0.0147515,0.1837565,0.7893125,-0.0747915,-0.22627350000000002,1.0064225,-0.1805925,0.19706649999999998,1.0659224999999999,-0.13146249999999998,-0.0588675,-0.0015125,-0.0066645,0.0588675,0.0015125,0.0066645,-0.1159735,-0.3611475,-0.016774499999999998,0.1186265,-0.3566475,0.0055515,-0.1569335,-0.8641475000000001,-0.0133155,0.1992565,-0.8801175,0.0178555
91,-0.0357195,0.7009230000000001,0.016479,-0.18236950000000002,0.5163730000000001,0.008374,-0.24875950000000002,0.731183,-0.082076,0.1178625,0.5637230000000001,0.015529000000000001,0.1841305,0.7897230000000001,-0.07384600000000001,-0.22677950000000002,1.007063,-0.17839999999999998,0.1974405,1.066463,-0.12986999999999999,-0.0587655,-0.0013169999999999987,-0.006546000000000001,0.0587655,0.0013169999999999987,0.006546,-0.1157995,-0.36096700000000004,-0.017662,0.1189465,-0.35679700000000003,0.00425,-0.1566995,-0.864007,-0.014979,0.1998805,-0.888077,0.019446
92,-0.03597,0.701441,0.017571,-0.182296,0.517101,0.008507,-0.248866,0.731721,-0.081012,0.118086,0.564071,0.015818,0.184444,0.790241,-0.073179,-0.22735600000000003,1.0072910000000002,-0.176752,0.19775399999999999,1.066791,-0.129182,-0.058658,-0.0012229999999999984,-0.0063750000000000005,0.058658,0.0012229999999999984,0.0063750000000000005,-0.115626,-0.360939,-0.018535,0.119228,-0.356929,0.002955,-0.156456,-0.863989,-0.016895,0.200144,-0.886039,0.017062
93,-0.0360945,0.7024705,0.0184535,-0.1821295,0.5180305,0.008146500000000001,-0.24890949999999998,0.7320105,-0.0799485,0.11839949999999999,0.5644405,0.0157505,0.18512050000000002,0.7908105,-0.0726875,-0.22787949999999998,1.0073805,-0.1757985,0.1984805,1.0672805,-0.13085850000000002,-0.0585415,-0.0011584999999999998,-0.0062205,0.0585415,0.0011584999999999998,0.0062205,-0.11541949999999998,-0.3609195,-0.0194405,0.1195215,-0.3570195,0.0017185000000000004,-0.1563495,-0.8639895,-0.0188325,0.2011805,-0.8893895,0.0148325
94,-0.036180000000000004,0.703309,0.019032999999999998,-0.181958,0.5189889999999999,0.007626999999999999,-0.249078,0.731969,-0.079331,0.118703,0.564699,0.015476999999999998,0.18640199999999998,0.791029,-0.072185,-0.22846800000000003,1.0071890000000001,-0.177567,0.199982,1.0669890000000002,-0.133017,-0.058457999999999996,-0.0011369999999999991,-0.005907,0.058457999999999996,0.0011370000000000026,0.005907,-0.115158,-0.360971,-0.020153,0.119821,-0.357021,0.000536,-0.156338,-0.8640410000000001,-0.020681,0.201952,-0.890911,0.012684999999999998
95,-0.036171999999999996,0.703999,0.019536500000000002,-0.18195099999999997,0.519999,0.0076974999999999995,-0.24999100000000002,0.7318290000000001,-0.07990749999999999,0.118895,0.564959,0.014898499999999999,0.188689,0.790529,-0.0719995,-0.229441,1.006999,-0.1795755,0.20209900000000003,1.066299,-0.13507550000000001,-0.058478,-0.0011800000000000005,-0.0054715,0.058478,0.001179999999999997,0.005471500000000001,-0.11504099999999999,-0.36108100000000004,-0.0208155,0.120063,-0.35692100000000004,-0.0005135000000000001,-0.156401,-0.864151,-0.0223945,0.20209900000000003,-0.888091,0.011196500000000002
96,-0.036022,0.7045174999999999,0.0195045,-0.182107,0.5210174999999999,0.007699500000000001,-0.253397,0.7298475,-0.0818825,0.120325,0.5635475,0.015020500000000003,0.193613,0.7876074999999999,-0.0722315,-0.23183700000000002,1.0052675,-0.1816025,0.205273,1.0642675,-0.1372025,-0.058628,-0.0013085000000000006,-0.0049004999999999995,0.058628,0.0013084999999999972,0.0049004999999999995,-0.11499699999999999,-0.3613125,-0.0214915,0.120504,-0.3567025,-0.0014844999999999997,-0.156507,-0.8643725000000001,-0.0238505,0.202183,-0.8850325,0.0097305
97,-0.035927,0.7060675,0.019769500000000002,-0.182181,0.5224775,0.007745499999999999,-0.258441,0.7269775,-0.08190449999999999,0.12204,0.5615075,0.015172500000000002,0.200649,0.7826175,-0.0722945,-0.23584100000000002,1.0017174999999998,-0.1834965,0.20946900000000002,1.0600174999999998,-0.1404465,-0.058706999999999995,-0.0013714999999999995,-0.0042685,0.058706999999999995,0.0013715000000000012,0.0042685000000000015,-0.114921,-0.3615025,-0.0220325,0.120975,-0.3565125,-0.002374499999999999,-0.15665099999999998,-0.8645525,-0.0252725,0.20191900000000002,-0.8773625,0.008257500000000001
98,-0.035917,0.7084425,0.020351,-0.182292,0.5230225000000001,0.008521,-0.266742,0.7217325,-0.082104,0.124214,0.5589325,0.015547000000000002,0.210928,0.7729825,-0.071782,-0.24103200000000002,0.9956925,-0.185857,0.214988,1.0503924999999998,-0.14485699999999999,-0.058699,-0.0014324999999999997,-0.003802,0.058699,0.0014324999999999997,0.003802,-0.114932,-0.3616275,-0.022412,0.121514,-0.3563175,-0.0030289999999999996,-0.156882,-0.8646475,-0.026583,0.201508,-0.8692775,0.006945
99,-0.035925,0.7116039999999999,0.021037000000000004,-0.182451,0.523354,0.009472000000000001,-0.277191,0.7148739999999999,-0.082151,0.12703899999999999,0.555654,0.016331000000000002,0.223499,0.7613639999999999,-0.07123499999999999,-0.248181,0.984744,-0.190302,0.22364900000000001,1.034154,-0.15104199999999998,-0.05871,-0.001535,-0.0032879999999999993,0.05871,0.001535,0.003288000000000001,-0.11494099999999999,-0.361756,-0.022738,0.12219200000000001,-0.356076,-0.0036019999999999993,-0.157131,-0.8647360000000001,-0.028149999999999998,0.201409,-0.8630460000000001,0.005242
