sb224sc-HT22-VT27/4dt907/src/data/kinect_good_preprocessed_A9_mediapipe/A7_kinect.csv
FrameNo,nose_3d_x,nose_3d_y,nose_3d_z,left_shoulder_3d_x,left_shoulder_3d_y,left_shoulder_3d_z,left_elbow_3d_x,left_elbow_3d_y,left_elbow_3d_z,right_shoulder_3d_x,right_shoulder_3d_y,right_shoulder_3d_z,right_elbow_3d_x,right_elbow_3d_y,right_elbow_3d_z,left_wrist_3d_x,left_wrist_3d_y,left_wrist_3d_z,right_wrist_3d_x,right_wrist_3d_y,right_wrist_3d_z,left_hip_3d_x,left_hip_3d_y,left_hip_3d_z,right_hip_3d_x,right_hip_3d_y,right_hip_3d_z,left_knee_3d_x,left_knee_3d_y,left_knee_3d_z,right_knee_3d_x,right_knee_3d_y,right_knee_3d_z,left_ankle_3d_x,left_ankle_3d_y,left_ankle_3d_z,right_ankle_3d_x,right_ankle_3d_y,right_ankle_3d_z
46,-0.001782500000000001,0.7373385,0.059715000000000004,-0.1480535,0.5012885,0.05611100000000001,-0.25065350000000003,0.7342885,0.040403,0.1511865,0.48072849999999995,0.053545,0.2493365,0.7230085,0.047462000000000004,-0.2753835,0.9756285000000001,0.006826000000000002,0.2758665,0.9632284999999999,0.002795000000000006,-0.07334750000000001,0.002616499999999994,0.0027650000000000036,0.07334750000000001,-0.0026165000000000008,-0.0027649999999999966,-0.12336350000000001,-0.4114515,-0.021564,0.1212165,-0.4401915,0.0013070000000000026,-0.1350035,-0.7906814999999999,-0.03217199999999999,0.1307065,-0.7956814999999999,-0.017049999999999996
47,-0.0023589999999999965,0.7371965,0.057992,-0.148513,0.5015364999999999,0.055831000000000006,-0.251893,0.7345765,0.038155,0.150817,0.48077649999999994,0.053247,0.249547,0.7222065,0.046018,-0.276003,0.9759165000000001,0.0043240000000000015,0.276797,0.9633164999999999,0.0007570000000000007,-0.073355,0.0025784999999999975,0.0028430000000000018,0.073355,-0.0025784999999999975,-0.0028429999999999983,-0.123023,-0.4141835,-0.025445999999999996,0.12187700000000001,-0.4410735,-0.003696999999999999,-0.134833,-0.7914235000000001,-0.036043,0.130917,-0.7958935,-0.020342
48,-0.002906000000000006,0.7369144999999999,0.05604,-0.148814,0.5018045,0.054847,-0.253114,0.7348844999999999,0.035387,0.150416,0.4808245,0.052887,0.24961599999999998,0.7212744999999999,0.044383,-0.27640400000000004,0.9762245,0.001517000000000001,0.277746,0.9634244999999999,-0.0015230000000000035,-0.073357,0.002538499999999999,0.0029159999999999985,0.073357,-0.002538500000000006,-0.002916000000000002,-0.122644,-0.41672549999999997,-0.029542,0.12242600000000001,-0.44154550000000004,-0.008688000000000001,-0.134464,-0.7925055000000001,-0.039750999999999995,0.131096,-0.7961555,-0.023861
49,-0.003320500000000005,0.7364345,0.0540425,-0.14914349999999998,0.5020845,0.0539795,-0.2542635,0.7352545,0.0325585,0.15003650000000002,0.48093450000000004,0.052657499999999996,0.2498265,0.7204645,0.0426375,-0.2766335,0.9765845000000001,-0.0013945,0.2786765,0.9634845,-0.003891499999999999,-0.0733515,0.0024684999999999985,0.002911500000000001,0.0733515,-0.0024685000000000054,-0.002911500000000001,-0.1222035,-0.4188455,-0.0337535,0.12297649999999999,-0.4416955,-0.013518500000000003,-0.1340535,-0.7931855,-0.043609499999999995,0.1313165,-0.7965155,-0.027723499999999998
50,-0.0038069999999999988,0.73539,0.051484,-0.14947,0.50266,0.05258,-0.25442,0.7342,0.029205000000000002,0.14981,0.48193,0.051698,0.25032,0.71995,0.040305,-0.27727,0.9772399999999999,-0.005236999999999999,0.2799,0.96434,-0.0068579999999999995,-0.073358,0.0023220000000000046,0.0028820000000000026,0.073358,-0.0023219999999999977,-0.002881999999999999,-0.12160000000000001,-0.42012,-0.039708999999999994,0.1237,-0.44044,-0.019846999999999997,-0.13366,-0.79298,-0.04822799999999999,0.13161,-0.7959700000000001,-0.032172
51,-0.004159999999999995,0.7342215000000001,0.048896,-0.149797,0.5026315,0.051555000000000004,-0.25525699999999996,0.7343915000000001,0.025798,0.149383,0.4828815,0.051179,0.250743,0.7191715000000001,0.037853,-0.277927,0.9778115000000001,-0.009051999999999998,0.281083,0.9653115000000001,-0.009855999999999997,-0.07337199999999999,0.002175499999999997,0.0029120000000000014,0.07337199999999999,-0.002175499999999997,-0.002911999999999998,-0.12104700000000002,-0.4202885,-0.04612399999999999,0.124423,-0.43906850000000003,-0.026068,-0.133207,-0.7923684999999999,-0.05292399999999999,0.131903,-0.7953184999999999,-0.036523
52,-0.004367000000000001,0.7327684999999999,0.0464025,-0.14999,0.5024185000000001,0.050672499999999995,-0.25595,0.7345984999999999,0.022400499999999997,0.14911,0.4836385,0.0505995,0.25146,0.7187285000000001,0.0353595,-0.27838,0.9786485,-0.012877500000000004,0.28239,0.9664485,-0.012857500000000001,-0.073409,0.0020124999999999935,0.002942499999999997,0.073409,-0.0020125000000000004,-0.0029425000000000007,-0.12045,-0.4197415,-0.052873500000000004,0.12532,-0.4375315,-0.032246500000000004,-0.1325,-0.7915414999999999,-0.057591500000000004,0.13242,-0.7943015,-0.040835500000000004
53,-0.004861499999999998,0.7309125,0.044222,-0.1501555,0.5025124999999999,0.049382999999999996,-0.2560555,0.7336524999999999,0.019451,0.14911449999999998,0.4842825,0.04929,0.2521945,0.7183124999999999,0.032848,-0.2789355,0.9798524999999999,-0.016666999999999998,0.28360450000000004,0.9678524999999999,-0.015619999999999998,-0.0734665,0.0018224999999999977,0.0030430000000000006,0.0734665,-0.0018224999999999977,-0.0030430000000000006,-0.11998550000000001,-0.4188075,-0.05996,0.12622450000000002,-0.4358875,-0.038928000000000004,-0.1318855,-0.7906275,-0.06217399999999999,0.1328545,-0.7930275,-0.045089000000000004
54,-0.005667500000000004,0.729105,0.0423145,-0.15067950000000002,0.5020650000000001,0.0480005,-0.2561295,0.7324550000000001,0.0169195,0.14867049999999998,0.48434499999999997,0.047932499999999996,0.2525005,0.718225,0.030490500000000004,-0.2797595,0.9813850000000001,-0.020179499999999996,0.2845205,0.969485,-0.018181499999999996,-0.0734645,0.001575,0.0029675000000000005,0.0734645,-0.0015750000000000035,-0.0029674999999999997,-0.12001950000000002,-0.417655,-0.0671105,0.1268605,-0.434225,-0.0458765,-0.13157950000000002,-0.789245,-0.06651750000000001,0.13301049999999998,-0.791395,-0.0491785
55,-0.0065115,0.727318,0.040564,-0.1512935,0.501788,0.046757999999999994,-0.2562535,0.731278,0.01452,0.1481265,0.484398,0.046519000000000005,0.2527065,0.718308,0.0282,-0.28061349999999996,0.9831579999999999,-0.023593,0.28539650000000005,0.971358,-0.020642,-0.0734595,0.0013659999999999992,0.0029130000000000002,0.0734595,-0.0013660000000000026,-0.0029130000000000007,-0.12017349999999999,-0.416032,-0.07434400000000001,0.1274765,-0.432292,-0.052877999999999994,-0.1314135,-0.787602,-0.07073700000000001,0.1331665,-0.789462,-0.053441
56,-0.007296500000000001,0.7254125,0.038971,-0.15186049999999998,0.5006425,0.045817000000000004,-0.2563005,0.7278925,0.012609,0.1475895,0.48402249999999997,0.045531,0.2533295,0.7186225,0.026118,-0.2815005,0.9854125000000001,-0.026722000000000003,0.2864995,0.9738525,-0.023064,-0.07344049999999999,0.0010455000000000013,0.002698,0.07344049999999999,-0.0010454999999999978,-0.0026980000000000003,-0.1201905,-0.41295750000000003,-0.082556,0.1281895,-0.42871750000000003,-0.060939,-0.1311805,-0.7844774999999999,-0.075312,0.13318950000000002,-0.7859474999999999,-0.057689
57,-0.008019000000000004,0.723483,0.037200000000000004,-0.152398,0.498823,0.044975,-0.256328,0.724453,0.010526,0.147082,0.483163,0.044474,0.254172,0.719303,0.023842000000000002,-0.282708,0.987433,-0.03009,0.287782,0.977053,-0.025762999999999998,-0.07341400000000001,0.0006749999999999985,0.002401,0.07341400000000001,-0.000675000000000002,-0.002401,-0.120118,-0.408457,-0.09198300000000001,0.129042,-0.423897,-0.070021,-0.131048,-0.779637,-0.07986700000000001,0.133262,-0.781107,-0.062466
58,-0.008762499999999996,0.7215104999999999,0.035593,-0.1529525,0.49694050000000006,0.044098,-0.25644249999999996,0.7219705,0.008439000000000002,0.1465775,0.48194050000000005,0.043425,0.2549575,0.7197605,0.021683,-0.28402249999999996,0.9889904999999999,-0.033532,0.2890375,0.9807405,-0.028461,-0.07343050000000001,0.0003154999999999998,0.00215,0.07343050000000001,-0.0003154999999999998,-0.0021499999999999996,-0.12017250000000002,-0.40332949999999995,-0.102049,0.1299475,-0.4182495,-0.07974099999999999,-0.1308825,-0.7736395,-0.085198,0.1328975,-0.7755995,-0.067108
59,-0.009486499999999995,0.720197,0.034449,-0.1536325,0.4957170000000001,0.043735,-0.25671249999999995,0.7189070000000001,0.006936999999999999,0.1458775,0.48086700000000004,0.043087,0.2555275,0.720157,0.019936000000000002,-0.28498249999999997,0.989977,-0.036153,0.28985750000000005,0.9839870000000001,-0.030737,-0.0734695,7.200000000000088e-05,0.0018309999999999993,0.0734695,-7.200000000000002e-05,-0.0018310000000000002,-0.1202925,-0.398723,-0.110566,0.13071750000000001,-0.41322299999999995,-0.088098,-0.1308725,-0.768143,-0.089575,0.1322075,-0.7704329999999999,-0.07080499999999999
60,-0.010223499999999996,0.7188610000000001,0.033281500000000006,-0.15430850000000002,0.494181,0.0431975,-0.25698849999999995,0.7162310000000001,0.005455500000000002,0.1453615,0.479821,0.042485499999999995,0.2560815,0.7204510000000001,0.0181885,-0.2858785,0.990881,-0.0387445,0.29058150000000005,0.987101,-0.032974500000000004,-0.0734795,-0.00018099999999999995,0.0016275000000000005,0.0734795,0.00018099999999999995,-0.0016274999999999987,-0.12049850000000001,-0.394169,-0.1187145,0.1314815,-0.407829,-0.0963455,-0.1309585,-0.7620189999999999,-0.0937775,0.1315215,-0.7649889999999999,-0.0746575
61,-0.010884999999999999,0.7174025,0.032102,-0.154995,0.49306249999999996,0.042633000000000004,-0.25716500000000003,0.7139025,0.0039050000000000005,0.144905,0.47891249999999996,0.041981000000000004,0.256645,0.7205525,0.016189000000000002,-0.286795,0.9917925000000001,-0.041361,0.29129499999999997,0.9898325,-0.035447,-0.073477,-0.00038849999999999996,0.0014219999999999997,0.073477,0.00038849999999999996,-0.0014219999999999997,-0.12075499999999999,-0.3891875,-0.126587,0.132305,-0.4022675,-0.10458400000000001,-0.131065,-0.7555175,-0.09793700000000001,0.130865,-0.7592074999999999,-0.078851
62,-0.011296,0.716418,0.030857000000000002,-0.155724,0.491768,0.042208,-0.257524,0.712788,0.002158,0.144346,0.478348,0.041528999999999996,0.257166,0.720718,0.014155000000000001,-0.287664,0.9920479999999999,-0.043782,0.291906,0.992398,-0.037714,-0.07346,-0.0006390000000000007,0.001268,0.07346,0.0006390000000000007,-0.001268,-0.121084,-0.383942,-0.13391,0.133036,-0.397222,-0.111985,-0.131234,-0.748382,-0.10184299999999999,0.130156,-0.753382,-0.08271300000000001
63,-0.01168,0.7153255,0.029583500000000002,-0.156293,0.4910255,0.0418675,-0.257873,0.7118355,0.00023250000000000007,0.144047,0.4782055,0.0410325,0.257757,0.7201655,0.012171500000000002,-0.288423,0.9918655,-0.0461475,0.292517,0.9941755,-0.0399435,-0.073452,-0.0008254999999999998,0.0010994999999999998,0.073452,0.0008254999999999998,-0.0010994999999999998,-0.12143299999999999,-0.37934450000000003,-0.1410225,0.133767,-0.3923845,-0.1189925,-0.131493,-0.7413245,-0.1057345,0.129417,-0.7476645,-0.0864755
64,-0.011838499999999998,0.7140285,0.028228000000000003,-0.1565905,0.4900885,0.041272,-0.2578705,0.7109684999999999,-0.0018219999999999972,0.14387950000000002,0.4780085,0.040562,0.2585295,0.7200485000000001,0.010302000000000002,-0.2889405,0.9914185,-0.048494999999999996,0.2933795,0.9902385,-0.042543,-0.07344149999999999,-0.0009575,0.0009660000000000016,0.07344149999999999,0.0009575,-0.0009659999999999981,-0.1217105,-0.3739715,-0.148359,0.13482950000000002,-0.3872815,-0.126759,-0.1316405,-0.7336315,-0.109577,0.1287495,-0.7412915,-0.090178
65,-0.011862000000000001,0.7129719999999999,0.027183000000000002,-0.156675,0.489802,0.040662000000000004,-0.258035,0.710402,-0.003616000000000001,0.143805,0.477432,0.039942000000000005,0.259175,0.719722,0.008846,-0.289145,0.9908319999999999,-0.05038,0.294035,0.9860120000000001,-0.044846,-0.073453,-0.0009879999999999958,0.0008739999999999998,0.073453,0.0009880000000000028,-0.0008739999999999998,-0.122035,-0.369458,-0.154199,0.135805,-0.383098,-0.132759,-0.131665,-0.727368,-0.112226,0.128305,-0.7359979999999999,-0.09334100000000001
66,-0.011925499999999999,0.7118180000000001,0.026466500000000004,-0.15674649999999998,0.489528,0.0399925,-0.25816649999999997,0.709848,-0.005034499999999997,0.1436435,0.476958,0.039364500000000004,0.2596035,0.718738,0.0077985,-0.28919649999999997,0.9902880000000001,-0.0518895,0.2944135,0.981488,-0.0466795,-0.0735295,-0.0009790000000000007,0.0008875000000000029,0.0735295,0.0009789999999999938,-0.0008874999999999994,-0.1224365,-0.36570199999999997,-0.1589315,0.1364435,-0.379212,-0.1376815,-0.13179649999999998,-0.721972,-0.1145225,0.1277735,-0.731602,-0.0958675
67,-0.011914999999999999,0.7109690000000001,0.0256715,-0.156771,0.48945900000000003,0.039316500000000004,-0.258311,0.709639,-0.006257499999999999,0.14359899999999998,0.476519,0.0387525,0.260049,0.718259,0.0068045000000000015,-0.28919100000000003,0.990119,-0.0533255,0.294799,0.976849,-0.0483305,-0.073527,-0.0009510000000000005,0.0008635000000000032,0.073527,0.0009510000000000005,-0.0008634999999999997,-0.12273099999999999,-0.36233099999999996,-0.1630915,0.13708900000000002,-0.37537099999999995,-0.1419315,-0.131961,-0.717181,-0.1159645,0.12759900000000002,-0.727171,-0.0982015
68,-0.011827500000000001,0.7095560000000001,0.024678000000000005,-0.1567705,0.489376,0.038354000000000006,-0.2586305,0.709686,-0.007836,0.14358949999999998,0.477006,0.037784000000000005,0.2605295,0.717376,0.005493000000000001,-0.28913049999999996,0.9902460000000001,-0.055283,0.2952595,0.972516,-0.05023999999999999,-0.0735305,-0.0009499999999999995,0.0009080000000000026,0.0735305,0.0009499999999999995,-0.0009079999999999991,-0.1230205,-0.359124,-0.167869,0.1377295,-0.371014,-0.146739,-0.13211050000000002,-0.7115539999999999,-0.117727,0.1275295,-0.722244,-0.100805
69,-0.011459499999999997,0.7088154999999999,0.023352499999999998,-0.1564345,0.4879055,0.0370025,-0.2588845,0.7112554999999999,-0.010062500000000002,0.1435355,0.4759855,0.0364635,0.2613055,0.7170354999999999,0.0038674999999999994,-0.2887445,0.9919255,-0.0577075,0.2961355,0.9686055,-0.052416500000000005,-0.0736125,-0.0008845000000000033,0.0008184999999999998,0.0736125,0.0008844999999999964,-0.0008184999999999998,-0.1229545,-0.3537345,-0.17292649999999998,0.1387055,-0.3653545,-0.1520965,-0.1321445,-0.7038545,-0.11986650000000001,0.1277255,-0.7151645,-0.1035005
70,-0.010925999999999995,0.7084185000000001,0.021477000000000003,-0.155769,0.4873485,0.03505900000000001,-0.259189,0.7126785,-0.013115,0.143781,0.4750585,0.034846,0.262111,0.7176685,0.0019660000000000025,-0.289349,0.9843985,-0.062188,0.297321,0.9655985,-0.054987999999999995,-0.07374700000000001,-0.0008164999999999978,0.000681000000000001,0.07374700000000001,0.0008165000000000047,-0.0006809999999999976,-0.12253900000000001,-0.3478815,-0.17835,0.139881,-0.3588915,-0.15777000000000002,-0.131909,-0.6952315,-0.122307,0.128121,-0.7073915,-0.106134
71,-0.0104135,0.7071045,0.019444999999999997,-0.1552585,0.4870445,0.032993999999999996,-0.2596385,0.7140845,-0.016326,0.1439615,0.4742745,0.033122,0.2627315,0.7181545,1.1000000000000593e-05,-0.28990849999999996,0.9769645,-0.066774,0.2984315,0.9624845,-0.0576,-0.07390450000000001,-0.0006665000000000004,0.00042000000000000023,0.07390450000000001,0.0006665000000000004,-0.00042000000000000023,-0.12211850000000002,-0.3423055,-0.183805,0.1409915,-0.3526855,-0.163395,-0.1317885,-0.6868855,-0.124863,0.12844150000000001,-0.6998455,-0.108781
72,-0.009782499999999996,0.7058515,0.017347000000000008,-0.15468649999999998,0.4869915,0.030891000000000002,-0.2592765,0.7156315,-0.019785999999999995,0.1440935,0.4739215,0.03098100000000001,0.2634835,0.7168215,-0.0022979999999999945,-0.2903565,0.9697115,-0.071389,0.2995335,0.9600915,-0.06028699999999999,-0.07417950000000001,-0.0005445000000000033,0.00014200000000000323,0.07417950000000001,0.0005445000000000033,-0.0001419999999999963,-0.1217065,-0.3343285,-0.189318,0.14204350000000002,-0.3447085,-0.16914800000000002,-0.13143649999999998,-0.6787585,-0.127394,0.1287035,-0.6918685,-0.110912
73,-0.009112499999999999,0.704958,0.015092999999999995,-0.15405149999999998,0.48662799999999995,0.028646999999999992,-0.2587515,0.7164780000000001,-0.023595000000000005,0.14417850000000001,0.47332799999999997,0.02868799999999999,0.2642485,0.714708,-0.004869000000000005,-0.2907215,0.961878,-0.07605400000000001,0.3005885,0.956418,-0.062804,-0.0743955,-0.0005109999999999976,3.099999999999631e-05,0.0743955,0.0005109999999999976,-3.100000000000325e-05,-0.1211515,-0.326322,-0.194492,0.14309850000000002,-0.33665199999999995,-0.174372,-0.1308915,-0.670582,-0.13006600000000001,0.1289985,-0.683862,-0.11318500000000001
74,-0.008451499999999997,0.7038800000000001,0.012399,-0.1532985,0.48621000000000003,0.025909,-0.2580485,0.71733,-0.028220000000000002,0.1443215,0.4726,0.025949,0.2650915,0.71287,-0.007869000000000001,-0.2912185,0.95406,-0.081599,0.3015015,0.9536,-0.065888,-0.0746725,-0.0004919999999999924,-0.00015700000000000436,0.0746725,0.0004920000000000063,0.00015699999999999742,-0.12048849999999998,-0.31748,-0.199872,0.1442715,-0.32760999999999996,-0.180052,-0.1301985,-0.6615599999999999,-0.132711,0.1293515,-0.67509,-0.115867
75,-0.007238499999999998,0.70445,0.0035349999999999965,-0.1513625,0.48522000000000004,0.016384999999999997,-0.2568225,0.7178,-0.038939,0.1448875,0.47252,0.017458,0.26642750000000004,0.71334,-0.017171000000000006,-0.2910725,0.95025,-0.094714,0.3031575,0.9542,-0.076236,-0.0749345,-0.0004200000000000037,-0.0008700000000000027,0.0749345,0.0004200000000000037,0.0008699999999999958,-0.1196725,-0.30208999999999997,-0.214007,0.1465375,-0.31095,-0.19371700000000003,-0.12895250000000003,-0.64787,-0.14102599999999998,0.13021749999999999,-0.66043,-0.123492
76,-0.006017500000000002,0.7046049999999999,-0.005870499999999994,-0.14936649999999999,0.484755,0.006566500000000003,-0.2556665,0.718325,-0.050229499999999996,0.1453735,0.473015,0.0086725,0.2676935,0.7124849999999999,-0.027028499999999997,-0.2910065,0.9472649999999999,-0.10876549999999999,0.3047935,0.954715,-0.0871985,-0.0752185,-0.00033500000000000196,-0.0015544999999999934,0.0752185,0.00033500000000000196,0.0015545000000000003,-0.11889649999999999,-0.286155,-0.2282235,0.1487635,-0.294145,-0.20745349999999999,-0.1277165,-0.633395,-0.1494865,0.1311435,-0.6447050000000001,-0.13090449999999998
77,-0.004798500000000001,0.7054549999999999,-0.016297,-0.14734150000000001,0.483805,-0.004028999999999998,-0.25510150000000004,0.718565,-0.062388,0.14588849999999998,0.471865,-0.0009809999999999958,0.26898849999999996,0.712675,-0.037981,-0.29085150000000004,0.945785,-0.124313,0.3063885,0.955565,-0.100093,-0.0754175,-0.0002650000000000152,-0.0021880000000000024,0.0754175,0.00026499999999998747,0.0021879999999999955,-0.11810150000000001,-0.269945,-0.24250500000000003,0.15126849999999997,-0.277085,-0.22140500000000002,-0.12593149999999997,-0.617385,-0.158244,0.1319185,-0.626665,-0.137605
78,-0.003647000000000001,0.70543,-0.026628500000000006,-0.145564,0.48444,-0.014340500000000006,-0.254044,0.71767,-0.07402850000000001,0.14674600000000002,0.47233,-0.01041750000000001,0.270176,0.71235,-0.048781500000000005,-0.290794,0.94313,-0.1395895,0.307886,0.9562,-0.1127515,-0.075586,-0.00021999999999999797,-0.0027935000000000043,0.075586,0.00021999999999999797,0.0027934999999999904,-0.11744399999999999,-0.25561999999999996,-0.25625549999999997,0.153666,-0.26174,-0.23479550000000002,-0.12409399999999998,-0.60305,-0.1665335,0.132596,-0.61017,-0.1439805
79,-0.0025914999999999966,0.70547,-0.036932,-0.14383849999999998,0.48407,-0.024421000000000005,-0.25277849999999996,0.7171000000000001,-0.085102,0.14749150000000003,0.47299,-0.019578000000000005,0.2712415,0.7111799999999999,-0.05947,-0.2895185,0.9498199999999999,-0.152887,0.3092815,0.95645,-0.125246,-0.07566350000000001,-0.00024000000000001798,-0.003384999999999999,0.07566350000000001,0.00023999999999999022,0.003384999999999999,-0.11690850000000001,-0.24179,-0.269679,0.1559115,-0.24718,-0.247599,-0.1222485,-0.5892900000000001,-0.17428500000000002,0.1332015,-0.59409,-0.150022
80,-0.0015429999999999992,0.70622,-0.047453999999999996,-0.142074,0.48445,-0.03453799999999999,-0.25145399999999996,0.7176400000000001,-0.09605999999999999,0.148166,0.47374,-0.028872999999999996,0.27229600000000004,0.70982,-0.070906,-0.28821399999999997,0.95618,-0.16459000000000001,0.310446,0.95361,-0.137552,-0.075779,-0.00021999999999999797,-0.003838999999999995,0.075779,0.00021999999999999797,0.003839000000000009,-0.116404,-0.22594999999999998,-0.283207,0.158186,-0.23099999999999998,-0.260877,-0.120324,-0.57412,-0.182355,0.133816,-0.57629,-0.156123
81,-0.00047849999999999976,0.7065549999999999,-0.05794350000000001,-0.1403535,0.483205,-0.04489750000000001,-0.24976349999999997,0.713315,-0.10680450000000001,0.1489465,0.472725,-0.038651500000000005,0.27332650000000003,0.711075,-0.0824155,-0.2872835,0.960025,-0.1777745,0.3114765,0.951425,-0.1500555,-0.0758865,-0.00015500000000001624,-0.004263500000000003,0.0758865,0.00015499999999998848,0.0042634999999999895,-0.1158535,-0.209615,-0.29668150000000004,0.1606165,-0.213625,-0.27418149999999997,-0.1181635,-0.558505,-0.19005450000000002,0.1344765,-0.557945,-0.16216750000000002
82,0.0006125000000000019,0.70675,-0.06793000000000002,-0.13862549999999998,0.48266,-0.05478300000000001,-0.24789550000000002,0.70841,-0.11701600000000001,0.1493345,0.47084000000000004,-0.04839400000000001,0.27443449999999997,0.71217,-0.09356900000000001,-0.2857755,0.96314,-0.190805,0.31250449999999996,0.9552700000000001,-0.162023,-0.07606550000000001,1.0000000000010001e-05,-0.004753000000000007,0.07606550000000001,-1.0000000000010001e-05,0.004752999999999993,-0.1153555,-0.19310000000000002,-0.30995700000000004,0.1630045,-0.19616999999999998,-0.287077,-0.1159655,-0.54288,-0.19739700000000002,0.1351645,-0.5396099999999999,-0.167809
83,0.0015569999999999959,0.70661,-0.077544,-0.13714300000000001,0.48104,-0.06469100000000001,-0.246223,0.70339,-0.12671000000000002,0.149647,0.4697,-0.05792300000000001,0.27543700000000004,0.71363,-0.104802,-0.28467299999999995,0.96661,-0.203439,0.313287,0.95803,-0.173496,-0.076237,0.00010000000000001674,-0.005180000000000004,0.076237,-9.999999999998899e-05,0.00517999999999999,-0.115033,-0.17654999999999998,-0.32306999999999997,0.165267,-0.17868999999999996,-0.29973,-0.11385300000000001,-0.52712,-0.204407,0.13594699999999998,-0.5210199999999999,-0.173651
84,0.0019314999999999992,0.704815,-0.08114400000000001,-0.1365335,0.481335,-0.067967,-0.24544349999999998,0.699775,-0.130481,0.14934650000000002,0.469295,-0.061603000000000005,0.2757365,0.713855,-0.109928,-0.28495349999999997,0.966105,-0.20958500000000002,0.3132665,0.9562949999999999,-0.177836,-0.07643849999999999,0.00010499999999999399,-0.005115000000000008,0.07643849999999999,-0.00010499999999999399,0.0051149999999999946,-0.1148835,-0.163885,-0.327615,0.1665265,-0.16602499999999998,-0.304705,-0.1128835,-0.5144550000000001,-0.20595000000000002,0.1361465,-0.507555,-0.174878
85,0.002239499999999995,0.703145,-0.084251,-0.1359435,0.480835,-0.07111200000000001,-0.2449735,0.696735,-0.133721,0.14915649999999997,0.467845,-0.065143,0.2759765,0.715225,-0.114276,-0.2856435,0.965455,-0.21476,0.31312650000000003,0.954035,-0.181451,-0.0766675,0.00011500000000003174,-0.0050200000000000106,0.0766675,-0.00011499999999997623,0.005019999999999997,-0.1147035,-0.151505,-0.33196000000000003,0.16774650000000002,-0.15364499999999998,-0.30964,-0.1120335,-0.502185,-0.20750000000000002,0.1362765,-0.494595,-0.17597600000000002
86,0.0025379999999999986,0.7013050000000001,-0.086027,-0.135373,0.48036500000000004,-0.07340200000000001,-0.244583,0.694375,-0.13601100000000002,0.148937,0.467225,-0.06757400000000001,0.276167,0.716105,-0.11738100000000001,-0.28652299999999997,0.963715,-0.219005,0.312917,0.9511350000000001,-0.182923,-0.076855,0.00016500000000002624,-0.0050150000000000056,0.076855,-0.00016499999999997073,0.005014999999999992,-0.11460299999999998,-0.140115,-0.33548500000000003,0.168627,-0.14225499999999996,-0.31345500000000004,-0.111683,-0.49087499999999995,-0.20851000000000003,0.136397,-0.483205,-0.176824
87,0.002590499999999999,0.700105,-0.087924,-0.1348915,0.479565,-0.07617,-0.24490149999999997,0.692965,-0.138626,0.1486885,0.466025,-0.070295,0.2761285,0.716675,-0.120537,-0.2874715,0.962515,-0.22281,0.3126485,0.9491050000000001,-0.184453,-0.0769775,0.00015500000000001624,-0.005060000000000009,0.0769775,-0.00015500000000001624,0.005059999999999995,-0.1148415,-0.131295,-0.33932,0.16943850000000002,-0.132795,-0.31742000000000004,-0.11103149999999999,-0.47854500000000005,-0.209943,0.1365785,-0.470065,-0.17829699999999998
88,0.0025819999999999975,0.698745,-0.08962500000000001,-0.13459,0.478545,-0.079201,-0.24536999999999998,0.691495,-0.141451,0.14849,0.46470500000000003,-0.073048,0.27592,0.717285,-0.123747,-0.28855,0.960925,-0.226375,0.31234,0.943385,-0.186026,-0.077074,0.00016500000000002624,-0.00507500000000001,0.077074,-0.00016499999999997073,0.005074999999999996,-0.11504000000000002,-0.122195,-0.342985,0.17022,-0.123255,-0.321345,-0.11045,-0.466375,-0.21147100000000002,0.13678,-0.456835,-0.17990899999999999
89,0.0026529999999999956,0.69738,-0.09144999999999999,-0.13436700000000001,0.4766,-0.082312,-0.245957,0.68953,-0.144761,0.14832299999999998,0.46353999999999995,-0.07567099999999999,0.275673,0.71661,-0.126322,-0.289697,0.95983,-0.22987,0.312243,0.94123,-0.187699,-0.077149,1.0000000000010001e-05,-0.005139999999999992,0.077149,-1.0000000000010001e-05,0.005140000000000006,-0.11520699999999999,-0.11332000000000003,-0.34636999999999996,0.170903,-0.11419000000000001,-0.32464,-0.11001699999999999,-0.45621999999999996,-0.21366,0.136993,-0.44603000000000004,-0.183106
90,0.0026345000000000014,0.69699,-0.09342,-0.1342245,0.47564,-0.085103,-0.2465945,0.68939,-0.148196,0.1481555,0.46409,-0.077879,0.2752455,0.71585,-0.128698,-0.2908645,0.95594,-0.23404,0.3120255,0.93877,-0.189382,-0.07720650000000001,-0.00024000000000001798,-0.005239999999999995,0.07720650000000001,0.00024000000000001798,0.0052400000000000085,-0.1154145,-0.10485,-0.34931999999999996,0.1713655,-0.10543999999999998,-0.32738999999999996,-0.10956450000000001,-0.4467,-0.21550999999999998,0.1369855,-0.43577999999999995,-0.185062
91,0.002661499999999997,0.69615,-0.09567099999999999,-0.1341675,0.47464,-0.088075,-0.2470875,0.69129,-0.151766,0.1482425,0.46474000000000004,-0.080096,0.2747025,0.71438,-0.131294,-0.2920875,0.95431,-0.23815,0.31185250000000003,0.9377899999999999,-0.191437,-0.07729549999999999,-0.0004899999999999904,-0.00544,0.07729549999999999,0.0004899999999999904,0.00544,-0.1154175,-0.09623999999999999,-0.35232,0.17165249999999999,-0.09643999999999997,-0.32997,-0.10928750000000001,-0.43717,-0.21678,0.1369425,-0.42551999999999995,-0.187278
92,0.002547999999999998,0.6959949999999999,-0.097668,-0.134239,0.47433499999999995,-0.090802,-0.24695899999999998,0.693465,-0.155231,0.148251,0.46497499999999997,-0.082236,0.274011,0.712345,-0.133406,-0.293119,0.9529249999999999,-0.24211,0.31167100000000003,0.937275,-0.19384,-0.07748,-0.0006550000000000167,-0.005659999999999998,0.07748,0.0006549999999999612,0.005659999999999998,-0.11537899999999998,-0.08768500000000001,-0.35482,0.171761,-0.08762500000000006,-0.33231,-0.10910899999999998,-0.4279050000000001,-0.21789,0.136771,-0.41569500000000004,-0.189081
93,0.0024994999999999983,0.69604,-0.10025300000000001,-0.1342065,0.47279000000000004,-0.09380400000000001,-0.24703650000000002,0.69508,-0.15917800000000001,0.14822349999999998,0.46418000000000004,-0.084512,0.2734435,0.71013,-0.135428,-0.2935565,0.95236,-0.245565,0.3115335,0.93782,-0.196642,-0.0778285,-0.0007699999999999929,-0.005865000000000009,0.0778285,0.0007699999999999929,0.005864999999999995,-0.11540650000000001,-0.07956999999999997,-0.357085,0.1717135,-0.07956999999999997,-0.334355,-0.1089065,-0.41972999999999994,-0.219115,0.1358835,-0.40698,-0.19101600000000002
94,0.0024215000000000035,0.69533,-0.102853,-0.1342145,0.47064,-0.096882,-0.24719449999999998,0.6949,-0.163569,0.1483755,0.46363,-0.0866,0.2732055,0.70706,-0.137579,-0.2940145,0.9513400000000001,-0.249695,0.3114255,0.93852,-0.20021,-0.0781285,-0.0009899999999999909,-0.0061250000000000054,0.0781285,0.0009899999999999909,0.0061249999999999916,-0.11551449999999999,-0.07123000000000002,-0.359085,0.1715955,-0.07127,-0.336155,-0.10796449999999999,-0.41137000000000007,-0.22014499999999998,0.13454549999999998,-0.39844000000000007,-0.194078
95,0.0024750000000000015,0.695025,-0.10530400000000001,-0.134229,0.46870500000000004,-0.099703,-0.24706899999999998,0.694435,-0.167085,0.148661,0.463233,-0.088587,0.273131,0.7031350000000001,-0.139598,-0.293869,0.9498249999999999,-0.25343,0.31151100000000004,0.939085,-0.20383099999999998,-0.078475,-0.0012349999999999861,-0.006350000000000008,0.078475,0.0012349999999999861,0.0063499999999999945,-0.115499,-0.063305,-0.36091,0.17157100000000003,-0.06309500000000001,-0.33784000000000003,-0.107199,-0.403345,-0.22089999999999999,0.133081,-0.39026500000000003,-0.196556
96,0.002496500000000002,0.693265,-0.10764,-0.1342605,0.467383,-0.101879,-0.2470105,0.689975,-0.169919,0.1489095,0.46303700000000003,-0.090138,0.2730995,0.699755,-0.14141199999999998,-0.29441049999999996,0.945835,-0.25704499999999997,0.3116195,0.9386749999999999,-0.207679,-0.0787725,-0.001375000000000015,-0.006514999999999993,0.0787725,0.001375000000000015,0.006514999999999993,-0.1153705,-0.056255,-0.362195,0.1714395,-0.055784999999999973,-0.338985,-0.10667049999999999,-0.396545,-0.220915,0.1313895,-0.38330499999999995,-0.19849899999999998
97,0.0025924999999999976,0.69167,-0.10955899999999999,-0.13423749999999998,0.46667400000000003,-0.10350699999999999,-0.2469675,0.68535,-0.172153,0.1491525,0.46276300000000004,-0.091636,0.2731425,0.69633,-0.143708,-0.2949675,0.94179,-0.2603,0.3118325,0.9391,-0.21087899999999998,-0.07896449999999999,-0.0014199999999999768,-0.006659999999999999,0.07896449999999999,0.0014200000000000323,0.006659999999999999,-0.1151875,-0.04743999999999998,-0.36343000000000003,0.1710825,-0.04629,-0.34012,-0.1061175,-0.38747999999999994,-0.220287,0.12927249999999998,-0.37556,-0.20024199999999998
98,0.002761999999999997,0.6899299999999999,-0.11092900000000001,-0.13416,0.465286,-0.104913,-0.24686000000000002,0.67916,-0.173768,0.14947,0.461364,-0.09298800000000002,0.2733,0.69546,-0.14600400000000002,-0.29536,0.9367000000000001,-0.263145,0.31219,0.9388000000000001,-0.213885,-0.07904,-0.0013199999999999878,-0.006735000000000005,0.07904,0.0013199999999999878,0.006734999999999991,-0.11485000000000001,-0.03694000000000003,-0.364615,0.17063,-0.03495999999999999,-0.341075,-0.10539000000000001,-0.37701,-0.21910800000000002,0.12718000000000002,-0.36601999999999996,-0.201052
99,0.0029244999999999965,0.687895,-0.111955,-0.1340225,0.464507,-0.106179,-0.24650249999999999,0.6758550000000001,-0.17501,0.1499075,0.45981900000000003,-0.094111,0.27377749999999995,0.694095,-0.148256,-0.2957225,0.936385,-0.264995,0.31242749999999997,0.937835,-0.216592,-0.0790325,-0.0011349999999999971,-0.0067949999999999955,0.0790325,0.0011349999999999971,0.0067949999999999955,-0.11414250000000001,-0.026734999999999953,-0.365615,0.1701475,-0.024124999999999952,-0.34192500000000003,-0.1053925,-0.36635499999999993,-0.21910000000000002,0.1251575,-0.35730499999999993,-0.201703
100,0.003162500000000002,0.686175,-0.112712,-0.1339505,0.46266899999999994,-0.10721000000000001,-0.2461305,0.672375,-0.17615,0.15044949999999999,0.459018,-0.09488500000000001,0.27425950000000004,0.694515,-0.150267,-0.2959305,0.935765,-0.2666,0.3127495,0.9361349999999999,-0.218933,-0.0791505,-0.0011150000000000326,-0.006830000000000003,0.0791505,0.0011149999999999771,0.006830000000000003,-0.11338050000000001,-0.016495000000000037,-0.36634,0.1696095,-0.013185000000000058,-0.34241,-0.10526049999999999,-0.355865,-0.218584,0.1231995,-0.3487450000000001,-0.201986
101,0.0034960000000000026,0.683145,-0.113205,-0.13375299999999998,0.46141099999999996,-0.107879,-0.24576299999999998,0.669395,-0.177042,0.151227,0.45818,-0.09543599999999999,0.275507,0.695785,-0.15209,-0.295983,0.935345,-0.267885,0.31336699999999995,0.934485,-0.220702,-0.079443,-0.0009950000000000236,-0.006815000000000002,0.079443,0.0009949999999999681,0.006815000000000002,-0.112403,-0.005905000000000049,-0.366705,0.168957,-0.001585000000000003,-0.342665,-0.104963,-0.34455500000000006,-0.218673,0.121288,-0.340495,-0.201043
102,0.003994000000000001,0.68022,-0.11347499999999999,-0.133513,0.460144,-0.108181,-0.24560300000000002,0.66659,-0.177871,0.152057,0.457196,-0.095555,0.276837,0.69678,-0.15301399999999998,-0.295943,0.9347799999999999,-0.26898500000000003,0.314107,0.93216,-0.22227,-0.079803,-0.0008900000000000019,-0.006804999999999992,0.079803,0.0008900000000000019,0.0068050000000000055,-0.11144299999999999,0.0042899999999999605,-0.366595,0.168197,0.009779999999999955,-0.34262499999999996,-0.104663,-0.33319,-0.218688,0.11984500000000001,-0.33237000000000005,-0.199762
103,0.004559000000000004,0.677935,-0.113823,-0.13325299999999998,0.459768,-0.108195,-0.245383,0.665295,-0.178769,0.152787,0.456552,-0.09559999999999999,0.278317,0.698465,-0.153517,-0.296033,0.934365,-0.26964,0.31493699999999997,0.928995,-0.222942,-0.080003,-0.0007050000000000112,-0.006779999999999994,0.080003,0.0007050000000000112,0.006780000000000008,-0.11059300000000001,0.014695000000000014,-0.36641,0.167297,0.021285,-0.34262000000000004,-0.104753,-0.32160500000000003,-0.218733,0.119679,-0.324415,-0.198661
104,0.005214999999999994,0.6753899999999999,-0.114182,-0.13294,0.45960999999999996,-0.10817900000000001,-0.24498000000000003,0.66435,-0.179657,0.15361,0.45562099999999994,-0.09553900000000001,0.27987,0.7008399999999999,-0.15382500000000002,-0.29608,0.9344999999999999,-0.27085000000000004,0.31590999999999997,0.92604,-0.22329900000000003,-0.08016999999999999,-0.00047000000000002595,-0.006790000000000004,0.08016999999999999,0.00046999999999997044,0.006790000000000004,-0.10974,0.025689999999999935,-0.36612,0.16649,0.03318999999999994,-0.34254,-0.10492000000000001,-0.30976000000000004,-0.21876,0.11968999999999999,-0.3162600000000001,-0.198111
105,0.005815999999999998,0.6733750000000001,-0.114259,-0.132781,0.459649,-0.10793,-0.245351,0.667175,-0.18081,0.154489,0.455731,-0.095226,0.281099,0.699005,-0.15354600000000002,-0.296261,0.936525,-0.27208,0.31723900000000005,0.921145,-0.22356,-0.080221,-0.0002949999999999897,-0.006710000000000008,0.080221,0.0002949999999999897,0.006709999999999994,-0.10892099999999999,0.038024999999999975,-0.36574,0.165639,0.046314999999999995,-0.34209,-0.10598099999999999,-0.296825,-0.21926299999999999,0.119903,-0.306565,-0.197601
106,0.006385499999999999,0.67107,-0.11428400000000001,-0.1327535,0.458764,-0.10752500000000001,-0.24566349999999998,0.67012,-0.181639,0.1553665,0.455513,-0.09488300000000001,0.2820765,0.69755,-0.153194,-0.2963635,0.93354,-0.27366,0.3185365,0.91905,-0.22360000000000002,-0.0802735,-0.00045000000000000595,-0.0065800000000000025,0.0802735,0.00045000000000000595,0.0065800000000000025,-0.1081335,0.048140000000000016,-0.36487,0.1650065,0.05646000000000001,-0.34151,-0.1081335,-0.28685,-0.220821,0.1195325,-0.29848,-0.196646
107,0.006900999999999997,0.6691449999999999,-0.113858,-0.132673,0.45866899999999994,-0.107077,-0.245813,0.674565,-0.182392,0.15636699999999998,0.456151,-0.09432700000000001,0.282877,0.6953849999999999,-0.15288000000000002,-0.296343,0.9320249999999999,-0.27495,0.319817,0.9174549999999999,-0.22359,-0.08025299999999999,-0.0006950000000000012,-0.006460000000000007,0.08025299999999999,0.0006949999999998902,0.0064599999999999935,-0.107293,0.056254999999999944,-0.36402,0.16461699999999999,0.06463499999999994,-0.34072,-0.110203,-0.27900500000000006,-0.222477,0.11966199999999999,-0.2923450000000001,-0.196134
108,0.007439500000000002,0.66722,-0.11358199999999999,-0.13252350000000002,0.45829800000000004,-0.10655099999999999,-0.2470135,0.67945,-0.183238,0.15730650000000002,0.45654,-0.09343499999999999,0.2834365,0.69304,-0.152496,-0.2964235,0.93136,-0.27636,0.3209065,0.91625,-0.22285,-0.0802635,-0.0008799999999999919,-0.006279999999999994,0.0802635,0.0008799999999999919,0.006280000000000008,-0.10642349999999999,0.06491000000000002,-0.36293,0.1643365,0.07344,-0.33965999999999996,-0.11235350000000001,-0.27127999999999997,-0.22466,0.1200285,-0.28369,-0.195392
109,0.0077630000000000025,0.6656599999999999,-0.11266799999999999,-0.132536,0.45905499999999994,-0.105748,-0.24862599999999999,0.68297,-0.184052,0.15807400000000002,0.45734299999999994,-0.092055,0.283584,0.69053,-0.151125,-0.296746,0.9305599999999999,-0.27681,0.321664,0.9155599999999999,-0.22172999999999998,-0.080146,-0.0009300000000000974,-0.006139999999999993,0.080146,0.0009299999999999864,0.006139999999999993,-0.105796,0.07343999999999995,-0.36111,0.16395400000000002,0.08270999999999995,-0.33787,-0.114736,-0.2632500000000001,-0.22747,0.12038299999999999,-0.27598,-0.19311099999999998
110,0.008024000000000003,0.665235,-0.111891,-0.132688,0.45975900000000003,-0.104826,-0.25057799999999997,0.685885,-0.185807,0.158592,0.458205,-0.090578,0.283652,0.687425,-0.149396,-0.29702799999999996,0.929145,-0.27815500000000004,0.322182,0.9146449999999999,-0.22071000000000002,-0.080088,-0.0009850000000000136,-0.005975000000000008,0.080088,0.0009850000000000136,0.005975000000000008,-0.105298,0.08103500000000002,-0.359145,0.163752,0.09107500000000002,-0.335835,-0.117278,-0.255965,-0.23019499999999998,0.120048,-0.269475,-0.191125
111,0.0082465,0.6649100000000001,-0.11082899999999998,-0.1325905,0.46039900000000006,-0.10366299999999999,-0.2522105,0.68903,-0.18767899999999998,0.1589095,0.45892800000000006,-0.08899599999999999,0.28366949999999996,0.68398,-0.147222,-0.2973405,0.9275300000000001,-0.278765,0.3226495,0.9146800000000002,-0.219515,-0.0800605,-0.0010599999999999499,-0.005854999999999985,0.0800605,0.001060000000000061,0.005854999999999999,-0.10467050000000001,0.08895000000000008,-0.35689499999999996,0.16368950000000002,0.09999000000000008,-0.333435,-0.11990050000000001,-0.24869999999999992,-0.233535,0.1196935,-0.26205999999999996,-0.18934299999999998
112,0.008404000000000002,0.6645300000000001,-0.10970500000000001,-0.132729,0.460809,-0.102492,-0.252459,0.69089,-0.187198,0.159251,0.45995100000000005,-0.08746500000000001,0.283671,0.68086,-0.144909,-0.29744899999999996,0.92594,-0.278455,0.323031,0.9153800000000001,-0.21840900000000002,-0.080019,-0.0011499999999999844,-0.005715000000000012,0.080019,0.0011499999999999844,0.005714999999999998,-0.103969,0.09696000000000005,-0.354575,0.163641,0.10885000000000006,-0.330925,-0.122369,-0.24169999999999991,-0.236215,0.119293,-0.25449,-0.187621
113,0.008490500000000002,0.66395,-0.10873899999999999,-0.1329645,0.4611700000000001,-0.10127799999999999,-0.2526045,0.69264,-0.186392,0.1594455,0.46100700000000006,-0.08582199999999998,0.2832155,0.67803,-0.142504,-0.2974545,0.92417,-0.277935,0.3234355,0.9161400000000001,-0.217227,-0.07989450000000001,-0.0012199999999999989,-0.005594999999999989,0.07989450000000001,0.0012200000000001099,0.005595000000000003,-0.1032845,0.10504000000000008,-0.352225,0.1634955,0.11745000000000005,-0.328195,-0.12455450000000001,-0.2350899999999999,-0.238305,0.1184935,-0.24717999999999996,-0.184971
114,0.008518499999999998,0.6644,-0.107616,-0.13316250000000002,0.460917,-0.099952,-0.2528425,0.69431,-0.185507,0.1594275,0.46150800000000003,-0.084151,0.28278749999999997,0.6794800000000001,-0.140743,-0.2976025,0.92279,-0.2771,0.32363749999999997,0.9191800000000001,-0.21597,-0.0797525,-0.0014100000000000223,-0.005629999999999996,0.0797525,0.0014100000000000223,0.005629999999999996,-0.1025625,0.11219000000000001,-0.34995,0.1633175,0.12505000000000005,-0.32536,-0.12633250000000001,-0.23019999999999996,-0.23961,0.1176295,-0.24093999999999993,-0.182238
115,0.0084125,0.66495,-0.10643,-0.1333165,0.46147000000000005,-0.098718,-0.2532165,0.6889500000000001,-0.184634,0.1593835,0.46237000000000006,-0.082506,0.28234349999999997,0.68042,-0.13919199999999998,-0.2979465,0.9235200000000001,-0.27624499999999996,0.32369349999999997,0.9219300000000001,-0.214698,-0.07965649999999999,-0.0012999999999999678,-0.005654999999999993,0.07965649999999999,0.0013000000000000789,0.005655000000000007,-0.1019265,0.1188900000000001,-0.347825,0.1631735,0.1322100000000001,-0.322455,-0.12763649999999999,-0.22523999999999988,-0.24051499999999998,0.1169635,-0.23450999999999989,-0.179242
116,0.008229,0.665261,-0.105256,-0.133501,0.462015,-0.09748599999999999,-0.253501,0.682455,-0.18342599999999998,0.159319,0.463115,-0.08108599999999999,0.281909,0.680565,-0.137745,-0.298291,0.922975,-0.27543,0.32372900000000004,0.923815,-0.213668,-0.07956099999999999,-0.0011649999999999716,-0.005709999999999993,0.07956099999999999,0.0011649999999999716,0.005710000000000007,-0.101331,0.125145,-0.34575999999999996,0.163099,0.13886500000000002,-0.31965,-0.128861,-0.22089499999999995,-0.24135,0.11577899999999999,-0.228205,-0.17549399999999998
117,0.007994000000000001,0.665224,-0.10406000000000001,-0.133689,0.462695,-0.09639100000000002,-0.25342899999999996,0.675575,-0.18135,0.159211,0.464025,-0.08002500000000001,0.28165100000000004,0.681015,-0.136668,-0.298539,0.921995,-0.27380000000000004,0.323591,0.925455,-0.212599,-0.079519,-0.0010550000000000281,-0.005780000000000007,0.079519,0.0010550000000000281,0.0057799999999999935,-0.100799,0.13060500000000003,-0.34393,0.16303099999999998,0.14453500000000002,-0.31709,-0.129999,-0.21692499999999992,-0.24209,0.114984,-0.22287499999999993,-0.171844
118,0.007855499999999998,0.6648339999999999,-0.10294199999999999,-0.13363049999999999,0.46307,-0.095612,-0.2531605,0.6702859999999999,-0.179896,0.15922950000000002,0.46491,-0.079326,0.2815895,0.68087,-0.135993,-0.2989405,0.92126,-0.27229,0.3235595,0.92659,-0.211841,-0.0795105,-0.0010299999999999754,-0.005830000000000002,0.0795105,0.0010299999999999754,0.005830000000000002,-0.0999705,0.13516999999999996,-0.34231,0.1632095,0.14915999999999996,-0.31486,-0.1308805,-0.21433999999999997,-0.24267,0.1135935,-0.21845000000000003,-0.168584
119,0.0077000000000000055,0.66458,-0.10207500000000001,-0.13361,0.463175,-0.09498300000000001,-0.25248,0.66403,-0.177935,0.15911,0.46579499999999996,-0.07881400000000001,0.28151000000000004,0.680731,-0.135603,-0.29939,0.919385,-0.27083,0.32355,0.9271849999999999,-0.211445,-0.07949,-0.0010449999999999626,-0.0059000000000000025,0.07949,0.0010449999999999626,0.005899999999999989,-0.09954,0.13898499999999997,-0.34159,0.16337,0.15315499999999999,-0.31291,-0.13196,-0.212395,-0.24274,0.112242,-0.21463500000000002,-0.16548000000000002
120,0.0076489999999999995,0.664262,-0.101459,-0.133548,0.463865,-0.09459699999999999,-0.251828,0.657464,-0.176373,0.159052,0.46616500000000005,-0.078512,0.281492,0.6806570000000001,-0.13536299999999998,-0.29986799999999997,0.917425,-0.27017,0.32369200000000004,0.9272750000000001,-0.211191,-0.079488,-0.0009149999999999991,-0.005959999999999993,0.079488,0.0009149999999999991,0.005960000000000007,-0.099288,0.142075,-0.34133,0.16359200000000002,0.15625500000000003,-0.31123999999999996,-0.13216799999999998,-0.210075,-0.24251999999999999,0.11114399999999999,-0.21163500000000002,-0.16258699999999998
121,0.007628499999999996,0.6642159999999999,-0.101221,-0.1334755,0.46410499999999993,-0.094305,-0.2522355,0.6521419999999999,-0.175623,0.1590045,0.46639499999999995,-0.078266,0.2814745,0.6802119999999999,-0.135163,-0.30049549999999997,0.915295,-0.27003,0.3238645,0.9275049999999999,-0.210974,-0.0794855,-0.0008250000000000757,-0.005989999999999995,0.0794855,0.0008249999999999647,0.005989999999999995,-0.0993855,0.14484499999999995,-0.34028,0.1638145,0.15876499999999993,-0.30986,-0.1323655,-0.2077850000000001,-0.24319999999999997,0.11038849999999999,-0.20912500000000012,-0.160117
122,0.0074715000000000024,0.6642669999999999,-0.10103999999999999,-0.1335235,0.46402999999999994,-0.09400499999999999,-0.2527235,0.646778,-0.174902,0.1588865,0.46686999999999995,-0.07808199999999998,0.28148650000000003,0.679572,-0.13519699999999998,-0.3014035,0.9130199999999999,-0.269915,0.3240465,0.9274399999999999,-0.211314,-0.07946349999999999,-0.0008799999999999919,-0.006034999999999999,0.07946349999999999,0.0008799999999999919,0.006034999999999999,-0.0995635,0.14744999999999997,-0.339065,0.1639565,0.16103999999999996,-0.30866499999999997,-0.13265349999999998,-0.20551000000000008,-0.243755,0.11015749999999999,-0.2068500000000001,-0.15932
123,0.0073014999999999955,0.663927,-0.101054,-0.1335605,0.46420000000000006,-0.09390799999999999,-0.25251049999999997,0.640563,-0.17385899999999999,0.1587495,0.46731,-0.078092,0.2817295,0.6787270000000001,-0.135852,-0.3024505,0.91028,-0.27,0.3242495,0.9269000000000001,-0.212383,-0.0794205,-0.0008299999999999974,-0.006029999999999994,0.0794205,0.0008299999999999974,0.006029999999999994,-0.0995305,0.14936000000000005,-0.33803,0.16406949999999998,0.16233000000000003,-0.30795,-0.13280050000000002,-0.20421,-0.2436,0.10996149999999999,-0.20568999999999993,-0.158894
124,0.007269999999999999,0.663739,-0.101017,-0.133507,0.46397999999999995,-0.093778,-0.251787,0.640486,-0.17324499999999998,0.15874300000000002,0.46763,-0.078054,0.282133,0.6781469999999999,-0.13666,-0.303077,0.91013,-0.269915,0.32471300000000003,0.92648,-0.213715,-0.079417,-0.0008299999999999974,-0.006034999999999999,0.079417,0.0008299999999999974,0.006034999999999999,-0.099567,0.15103999999999995,-0.336855,0.164163,0.16329,-0.307355,-0.133107,-0.20321,-0.243585,0.109746,-0.20479999999999998,-0.158611
125,0.007227000000000004,0.663624,-0.10115700000000001,-0.133471,0.46365999999999996,-0.09368200000000002,-0.251101,0.640503,-0.17275200000000002,0.158729,0.46791,-0.07806200000000002,0.282489,0.678045,-0.137632,-0.303661,0.91005,-0.26990000000000003,0.324949,0.92666,-0.21523000000000003,-0.079431,-0.0008700000000000374,-0.006030000000000008,0.079431,0.0008700000000000374,0.006029999999999994,-0.099521,0.15259,-0.33571,0.164159,0.16425,-0.3069,-0.13367099999999998,-0.20184000000000002,-0.24362,0.10975700000000001,-0.20394999999999996,-0.158399
126,0.007153000000000003,0.663601,-0.10146100000000001,-0.13353500000000001,0.46384499999999995,-0.09366200000000001,-0.250365,0.639693,-0.17219600000000002,0.158765,0.468175,-0.07819500000000001,0.282795,0.678165,-0.138711,-0.304025,0.909405,-0.27014499999999997,0.325175,0.926855,-0.217255,-0.079415,-0.0009550000000000392,-0.00600500000000001,0.079415,0.0009550000000000392,0.0060049999999999965,-0.099495,0.153555,-0.33503499999999997,0.164155,0.165165,-0.30652500000000005,-0.134015,-0.20105499999999998,-0.24374500000000002,0.109755,-0.20311500000000005,-0.15826
127,0.007047000000000001,0.6636439999999999,-0.101819,-0.133584,0.46363499999999996,-0.093655,-0.25030399999999997,0.6388969999999999,-0.172594,0.15875599999999998,0.468595,-0.078338,0.283026,0.678195,-0.139693,-0.30446399999999996,0.908515,-0.27149999999999996,0.325386,0.9269149999999999,-0.21926,-0.079414,-0.0009950000000000792,-0.005990000000000009,0.079414,0.0009949999999999681,0.005989999999999995,-0.099424,0.15465499999999993,-0.33442,0.16416599999999998,0.16594499999999995,-0.3063,-0.134224,-0.19991500000000006,-0.24421,0.10974400000000001,-0.202415,-0.158252
128,0.006928000000000004,0.663808,-0.102099,-0.13367600000000002,0.46343500000000004,-0.09364999999999998,-0.25030600000000003,0.638463,-0.173379,0.158714,0.468725,-0.07848999999999999,0.283184,0.67833,-0.14063199999999998,-0.304866,0.9076150000000001,-0.273065,0.325574,0.927265,-0.221075,-0.079416,-0.0010449999999999626,-0.005974999999999994,0.079416,0.0010449999999999626,0.005975000000000008,-0.09930599999999999,0.155445,-0.33403499999999997,0.16419399999999998,0.16641500000000004,-0.30628500000000003,-0.134356,-0.199075,-0.244725,0.110028,-0.202025,-0.158214
129,0.006777999999999999,0.663739,-0.102325,-0.133747,0.46329,-0.093642,-0.25045700000000004,0.638202,-0.17436000000000001,0.158633,0.46864,-0.07860400000000001,0.283313,0.678415,-0.141537,-0.305427,0.9068499999999999,-0.27464,0.325733,0.92727,-0.22281,-0.079427,-0.0011299999999999644,-0.005970000000000003,0.079427,0.0011299999999999644,0.005970000000000003,-0.099207,0.15534000000000003,-0.33401000000000003,0.164153,0.16606000000000004,-0.30628,-0.134587,-0.19909999999999994,-0.24533,0.110307,-0.20243,-0.158175
130,0.006697499999999999,0.663739,-0.102463,-0.1338085,0.46329,-0.093631,-0.25089849999999997,0.638731,-0.175246,0.1584215,0.46864,-0.078852,0.2834815,0.678415,-0.142369,-0.3057685,0.90717,-0.275965,0.32592150000000003,0.92727,-0.224445,-0.0794385,-0.0011299999999999644,-0.005955000000000002,0.0794385,0.0011299999999999644,0.005955000000000002,-0.09929850000000001,0.15508,-0.33403499999999997,0.1640315,0.16557,-0.30627499999999996,-0.1349285,-0.19886000000000004,-0.245945,0.11039550000000001,-0.20302999999999993,-0.15815
131,0.0065425,0.663739,-0.10254999999999999,-0.1340345,0.46329,-0.093679,-0.2514245,0.6394610000000001,-0.17579899999999998,0.1581455,0.46864,-0.079119,0.2835355,0.678415,-0.143055,-0.3060945,0.90766,-0.277335,0.32586550000000003,0.92727,-0.22547499999999998,-0.0794545,-0.0011299999999999644,-0.00591499999999999,0.0794545,0.0011299999999999644,0.005915000000000004,-0.0993845,0.15471000000000001,-0.33447499999999997,0.16379549999999998,0.16503,-0.306305,-0.1350845,-0.19821,-0.24648499999999998,0.11049250000000001,-0.20302999999999993,-0.158742
132,0.006357999999999999,0.663739,-0.10268,-0.134542,0.46329,-0.094078,-0.251952,0.640415,-0.176563,0.157858,0.46881,-0.079584,0.283568,0.678823,-0.14399,-0.306572,0.9087000000000001,-0.2782,0.325598,0.92727,-0.22655,-0.079472,-0.0011299999999999644,-0.005909999999999999,0.079472,0.0011299999999999644,0.005909999999999999,-0.099472,0.15369,-0.33555,0.163548,0.16448000000000002,-0.30685,-0.13514199999999998,-0.19796999999999998,-0.24686,0.11205999999999999,-0.20302999999999993,-0.162288
133,0.006156499999999995,0.664109,-0.102795,-0.1350385,0.46277999999999997,-0.09463099999999999,-0.2526585,0.645334,-0.17898999999999998,0.15758149999999999,0.4684499999999999,-0.080208,0.28373149999999997,0.6792459999999999,-0.145189,-0.3076585,0.90984,-0.27986,0.3252615,0.9268299999999999,-0.22775,-0.0795085,-0.0012500000000000844,-0.0059000000000000025,0.0795085,0.0012499999999999734,0.0059000000000000025,-0.0995185,0.15161999999999992,-0.33667,0.1633615,0.16300999999999993,-0.30791999999999997,-0.1351785,-0.19813000000000003,-0.2469,0.1131255,-0.2041900000000001,-0.16592200000000001
134,0.006004499999999996,0.66523,-0.10314599999999999,-0.1354505,0.46228499999999995,-0.09538399999999998,-0.2537505,0.6534089999999999,-0.18234,0.1573895,0.4672449999999999,-0.08108199999999999,0.2838395,0.679213,-0.14648,-0.30867049999999996,0.9121949999999999,-0.281925,0.3249195,0.9258149999999999,-0.22923499999999997,-0.0796505,-0.0013350000000000861,-0.005834999999999993,0.0796505,0.001334999999999975,0.005835000000000007,-0.0993205,0.14914499999999992,-0.337005,0.1632895,0.15997499999999992,-0.30966499999999997,-0.1351405,-0.19953500000000002,-0.24698499999999998,0.1139665,-0.2070550000000001,-0.16933499999999999
135,0.005832499999999997,0.665783,-0.103579,-0.13582650000000002,0.461635,-0.09656899999999999,-0.2540065,0.658891,-0.185275,0.1572135,0.465895,-0.082396,0.2840035,0.678641,-0.147946,-0.3093265,0.912605,-0.284585,0.3246435,0.9237850000000001,-0.230735,-0.0798465,-0.0015249999999999986,-0.005824999999999997,0.0798465,0.0015249999999999986,0.005824999999999997,-0.09911650000000001,0.145175,-0.337175,0.1633735,0.155385,-0.311995,-0.1351165,-0.20274499999999995,-0.24717499999999998,0.11538849999999999,-0.21102500000000002,-0.169384
136,0.005634999999999998,0.666264,-0.10391,-0.13613799999999998,0.46138999999999997,-0.098044,-0.253838,0.662743,-0.187648,0.157072,0.46382,-0.08382700000000001,0.284242,0.681273,-0.150759,-0.30925800000000003,0.91357,-0.28747,0.324032,0.92365,-0.23294,-0.080038,-0.0013699999999999823,-0.0059000000000000025,0.080038,0.0013699999999999823,0.005899999999999989,-0.09887800000000001,0.13792,-0.33928,0.16356199999999999,0.14860999999999996,-0.31466,-0.13391799999999998,-0.20836,-0.24647,0.116041,-0.21716999999999997,-0.169735
137,0.005329,0.6684490000000001,-0.10452700000000001,-0.136469,0.46121500000000004,-0.099665,-0.253899,0.665721,-0.19053799999999999,0.156831,0.459645,-0.085401,0.284751,0.681965,-0.15377200000000002,-0.30978900000000004,0.915605,-0.29035500000000003,0.32332099999999997,0.922435,-0.235205,-0.080219,-0.0009350000000000191,-0.005964999999999998,0.080219,0.0009350000000000191,0.005964999999999998,-0.098549,0.12763500000000005,-0.343005,0.163761,0.13915500000000003,-0.318045,-0.131469,-0.21701499999999996,-0.24361500000000003,0.117061,-0.22536499999999993,-0.17269800000000002
138,0.005034000000000004,0.67008,-0.105021,-0.136746,0.4602400000000001,-0.10158800000000001,-0.253086,0.66644,-0.19219000000000003,0.156294,0.45808000000000004,-0.087496,0.285094,0.6836000000000001,-0.156869,-0.309706,0.91588,-0.292405,0.322724,0.9206000000000001,-0.237995,-0.080286,-0.0010799999999999699,-0.005895000000000011,0.080286,0.001080000000000081,0.0058949999999999975,-0.09822600000000001,0.11387000000000008,-0.346855,0.164094,0.12535000000000007,-0.322435,-0.128076,-0.22926999999999997,-0.23963500000000001,0.11837,-0.23705999999999994,-0.177432
139,0.004504000000000001,0.672455,-0.105344,-0.137377,0.46072399999999997,-0.10323099999999999,-0.25478700000000004,0.668895,-0.195399,0.155673,0.45616399999999996,-0.089483,0.285043,0.6856749999999999,-0.159742,-0.310877,0.918175,-0.29552,0.322103,0.9201649999999999,-0.24076999999999998,-0.080367,-0.0010050000000000336,-0.005839999999999998,0.080367,0.0010049999999999226,0.005840000000000012,-0.098137,0.09892499999999999,-0.35077,0.164243,0.11035499999999998,-0.32679,-0.124337,-0.24277500000000007,-0.23493999999999998,0.119706,-0.24877500000000008,-0.18206099999999997
140,0.003844500000000004,0.67482,-0.10549900000000001,-0.1380245,0.4609229999999999,-0.10473400000000001,-0.2562245,0.6739999999999999,-0.19799,0.15497550000000002,0.45440299999999995,-0.091352,0.2848555,0.68763,-0.16203800000000002,-0.3121345,0.9230099999999999,-0.29803999999999997,0.3213255,0.9191099999999999,-0.24325,-0.0804945,-0.0009400000000000519,-0.005820000000000006,0.0804945,0.0009399999999999409,0.005819999999999992,-0.0981445,0.08275999999999994,-0.35422,0.1643255,0.0939299999999999,-0.33092,-0.12111449999999999,-0.2576600000000001,-0.23144,0.12063850000000001,-0.26167000000000007,-0.18588
141,0.0032020000000000035,0.6777149999999998,-0.105227,-0.13846799999999998,0.4605059999999999,-0.10595399999999999,-0.257298,0.6777049999999999,-0.19971899999999998,0.154302,0.4533779999999999,-0.092973,0.284632,0.688985,-0.16372,-0.313098,0.9261649999999999,-0.299985,0.320632,0.9180349999999999,-0.245075,-0.080528,-0.0009250000000000647,-0.005754999999999996,0.080528,0.0009249999999999536,0.005754999999999996,-0.098178,0.06554499999999991,-0.356965,0.16454200000000002,0.0761949999999999,-0.334665,-0.117798,-0.2727250000000001,-0.22789500000000001,0.121868,-0.2753650000000001,-0.19047999999999998
142,0.002631999999999999,0.680555,-0.104938,-0.13897700000000002,0.460765,-0.106825,-0.258957,0.6790849999999999,-0.20045200000000002,0.153633,0.45302899999999996,-0.094282,0.284403,0.692275,-0.16501100000000002,-0.314097,0.927785,-0.300385,0.31993299999999997,0.920805,-0.245995,-0.08047699999999999,-0.0009649999999999936,-0.0056850000000000095,0.08047699999999999,0.0009649999999999936,0.005684999999999996,-0.098247,0.047514999999999974,-0.35906499999999997,0.16486299999999998,0.057684999999999986,-0.337745,-0.11438700000000002,-0.28883500000000006,-0.224375,0.12387300000000001,-0.28998500000000005,-0.194437
143,0.0021480000000000006,0.684345,-0.104787,-0.13952,0.46011500000000005,-0.10728300000000002,-0.26026,0.677045,-0.200716,0.15301,0.45229800000000003,-0.09537600000000002,0.2843,0.6952050000000001,-0.166296,-0.31511,0.929915,-0.30036,0.3193,0.922855,-0.24633000000000002,-0.08036,-0.0009249999999999536,-0.005610000000000004,0.08036,0.0009250000000000091,0.00560999999999999,-0.0985,0.028925000000000034,-0.36053,0.16531,0.03837500000000005,-0.3399,-0.11102000000000001,-0.30583499999999997,-0.22084,0.12369,-0.305605,-0.193801
144,0.0016559999999999978,0.687605,-0.10447999999999999,-0.140147,0.462785,-0.107019,-0.261407,0.673995,-0.200498,0.152253,0.45349700000000004,-0.09573899999999999,0.284423,0.698075,-0.16695,-0.315697,0.931315,-0.300095,0.318613,0.924525,-0.246075,-0.080247,-0.0006950000000000012,-0.005424999999999999,0.080247,0.0006950000000000012,0.005424999999999999,-0.098877,0.009325000000000028,-0.361145,0.165823,0.018295000000000006,-0.340955,-0.107887,-0.323965,-0.216695,0.123593,-0.3214449999999999,-0.19278800000000001
145,0.001185499999999999,0.69157,-0.10403300000000001,-0.1407805,0.46476700000000004,-0.106587,-0.2623105,0.67715,-0.200038,0.1515195,0.454759,-0.095722,0.2841395,0.69957,-0.166487,-0.3164205,0.93435,-0.29967,0.3181295,0.92532,-0.24562,-0.0801505,-0.0007099999999999884,-0.0052400000000000085,0.0801505,0.0007099999999999884,0.005239999999999995,-0.0993705,-0.009919999999999984,-0.36109,0.1663195,-0.0009500000000000064,-0.34143999999999997,-0.10553050000000001,-0.34182,-0.21345,0.1253695,-0.33711,-0.193
146,0.0007875000000000035,0.694285,-0.103032,-0.14137349999999999,0.466595,-0.105874,-0.26264350000000003,0.6793849999999999,-0.19819,0.1507165,0.458223,-0.09523100000000001,0.2839365,0.7027950000000001,-0.165739,-0.3173935,0.937125,-0.298715,0.3177365,0.926785,-0.244895,-0.0800535,-0.0010249999999999981,-0.005135000000000001,0.0800535,0.0010249999999999981,0.005135000000000001,-0.09990349999999999,-0.029015000000000013,-0.360375,0.1667365,-0.020045000000000035,-0.340645,-0.1048935,-0.359505,-0.210847,0.1262365,-0.352675,-0.190919
147,0.0005000000000000004,0.697635,-0.101783,-0.141863,0.46877499999999994,-0.104968,-0.263173,0.682785,-0.196106,0.150637,0.459331,-0.094295,0.28363700000000003,0.705375,-0.164822,-0.31838299999999997,0.940535,-0.29705000000000004,0.317427,0.929195,-0.24395,-0.079883,-0.0007950000000000457,-0.0048900000000000055,0.079883,0.0007949999999999902,0.0048900000000000055,-0.100323,-0.04563500000000004,-0.35946,0.167187,-0.037205000000000044,-0.33965999999999996,-0.10494300000000001,-0.374745,-0.208345,0.127637,-0.36658500000000005,-0.189656
148,2.9500000000001747e-05,0.70029,-0.10040000000000002,-0.1424595,0.468614,-0.10363400000000002,-0.2641095,0.68663,-0.19404300000000002,0.1501405,0.459878,-0.09336400000000002,0.2823205,0.70726,-0.16256900000000002,-0.3198095,0.9439299999999999,-0.29475,0.3168305,0.93318,-0.24194000000000002,-0.0797395,-0.0007900000000000129,-0.004570000000000005,0.0797395,0.0007899999999999574,0.004569999999999991,-0.1009995,-0.06131000000000003,-0.35855000000000004,0.1674305,-0.05398000000000003,-0.33866,-0.1051695,-0.38981,-0.205852,0.1293805,-0.38085,-0.188309
149,-0.0006835000000000035,0.70427,-0.098186,-0.1431615,0.47021999999999997,-0.101892,-0.2653415,0.6857199999999999,-0.19184800000000002,0.1496885,0.45972199999999996,-0.092303,0.2813485,0.70844,-0.160207,-0.3215315,0.9428099999999999,-0.29233,0.31610849999999996,0.9348,-0.23964000000000002,-0.0794715,-0.0006300000000000194,-0.004239999999999994,0.0794715,0.0006299999999999639,0.004239999999999994,-0.10192150000000001,-0.07693000000000005,-0.35585,0.1674985,-0.07153000000000004,-0.33688,-0.10553150000000001,-0.40632,-0.203432,0.1310185,-0.39704000000000006,-0.187144
150,-0.0012139999999999998,0.7071149999999999,-0.09587300000000001,-0.14375,0.47174499999999997,-0.099678,-0.26685,0.689925,-0.189718,0.14923999999999998,0.461265,-0.090676,0.28006000000000003,0.7104550000000001,-0.15733,-0.32382,0.946685,-0.2898,0.3154,0.936865,-0.23626,-0.07918,-0.0005950000000000122,-0.003940000000000013,0.07918,0.0005950000000000122,0.003939999999999999,-0.1029,-0.09180500000000003,-0.35231,0.1674,-0.08820500000000003,-0.33348,-0.10584,-0.422535,-0.201642,0.13218000000000002,-0.41337500000000005,-0.18582100000000001
151,-0.0019444999999999983,0.710055,-0.093301,-0.1441515,0.472595,-0.097237,-0.2687015,0.6893750000000001,-0.187139,0.14888849999999998,0.462325,-0.088666,0.2787085,0.711125,-0.153766,-0.32608149999999997,0.948115,-0.28723,0.3145585,0.9403349999999999,-0.23258,-0.0788715,-0.0005850000000000022,-0.003610000000000002,0.0788715,0.0005850000000000022,0.003610000000000002,-0.10400150000000001,-0.10552499999999998,-0.34822,0.16697849999999997,-0.103885,-0.32954,-0.1068515,-0.43822500000000003,-0.200343,0.13382850000000002,-0.42895500000000003,-0.18424000000000001
152,-0.0024819999999999946,0.71071,-0.090589,-0.14449499999999998,0.47417999999999993,-0.09487800000000002,-0.27020500000000003,0.69065,-0.184637,0.14858500000000002,0.46393999999999996,-0.08660100000000001,0.27758499999999997,0.71296,-0.150268,-0.32821500000000003,0.95058,-0.28406,0.31387499999999996,0.94446,-0.22894,-0.078545,-0.0006000000000000449,-0.0034200000000000064,0.078545,0.0005999999999999894,0.0034199999999999925,-0.10485499999999999,-0.11728000000000005,-0.34421999999999997,0.166465,-0.11738000000000004,-0.3254,-0.107425,-0.45288000000000006,-0.199059,0.135415,-0.44328,-0.18268700000000002
153,-0.0028394999999999983,0.7132499999999999,-0.08791500000000001,-0.1448275,0.47257,-0.092588,-0.2711075,0.69617,-0.182168,0.1483525,0.46281,-0.084567,0.2771225,0.7148399999999999,-0.14642,-0.3295975,0.9545,-0.28076500000000004,0.3135125,0.94962,-0.225335,-0.07815849999999999,-0.0006200000000000094,-0.0033550000000000108,0.07815849999999999,0.0006200000000000094,0.003354999999999997,-0.10562749999999999,-0.12737000000000004,-0.340345,0.1659725,-0.12886000000000003,-0.32111500000000004,-0.1079775,-0.46648,-0.197721,0.1353425,-0.4575,-0.179859
154,-0.0032200000000000006,0.716475,-0.0849495,-0.14510499999999998,0.473975,-0.0898805,-0.27149500000000004,0.695595,-0.1790525,0.148025,0.46530499999999997,-0.0822465,0.27663499999999996,0.714135,-0.1422425,-0.330125,0.9545049999999999,-0.2770375,0.31304499999999996,0.951995,-0.22135749999999998,-0.077828,-0.0008350000000000302,-0.003082500000000002,0.077828,0.0008349999999999747,0.003082500000000002,-0.10642499999999999,-0.138075,-0.33550749999999996,0.165385,-0.141135,-0.31586749999999997,-0.10850499999999999,-0.48128499999999996,-0.1959525,0.135215,-0.47326500000000005,-0.1771235
155,-0.003577500000000001,0.7185900000000001,-0.082044,-0.1454225,0.47447000000000006,-0.087266,-0.2718725,0.69676,-0.175934,0.1476975,0.46701000000000004,-0.079712,0.2763375,0.71468,-0.13752999999999999,-0.3305725,0.95379,-0.273206,0.3125775,0.95431,-0.21721600000000002,-0.0774705,-0.0009799999999999809,-0.0028839999999999977,0.0774705,0.0009800000000000364,0.0028839999999999977,-0.1070525,-0.14825999999999995,-0.330486,0.1647275,-0.15247999999999995,-0.310556,-0.1091425,-0.49539,-0.192664,0.13509749999999998,-0.48800999999999994,-0.174243
156,-0.004052999999999998,0.72159,-0.07750300000000002,-0.145472,0.47505000000000003,-0.08343400000000001,-0.272542,0.69862,-0.17028300000000002,0.147548,0.46886000000000005,-0.07566800000000001,0.275738,0.7170799999999999,-0.13048200000000001,-0.331392,0.9562700000000001,-0.265683,0.311838,0.95676,-0.209673,-0.077043,-0.0010499999999999954,-0.002700000000000008,0.077043,0.0010500000000000231,0.002699999999999994,-0.107892,-0.16101,-0.322863,0.163478,-0.16615999999999997,-0.302553,-0.109972,-0.51447,-0.188202,0.13478800000000002,-0.5074799999999999,-0.16981400000000002
157,-0.004417500000000001,0.725125,-0.07215150000000001,-0.1455235,0.47579499999999997,-0.07888250000000001,-0.2725435,0.699805,-0.1628925,0.1475565,0.470665,-0.07099250000000001,0.27576649999999997,0.7189749999999999,-0.12313950000000001,-0.3324035,0.958175,-0.2564325,0.3115865,0.958005,-0.2013125,-0.0766155,-0.0011249999999999871,-0.002537500000000012,0.0766155,0.0011250000000000149,0.002537499999999998,-0.1088635,-0.174885,-0.3140125,0.1620265,-0.180745,-0.2935225,-0.11082349999999999,-0.534675,-0.1830905,0.1343865,-0.528575,-0.16486650000000003
158,-0.0044319999999999984,0.726995,-0.06681350000000001,-0.145187,0.476305,-0.07423450000000001,-0.272287,0.702075,-0.1552995,0.147823,0.47428499999999996,-0.06615750000000001,0.275473,0.721645,-0.1155275,-0.33279699999999995,0.961105,-0.2464865,0.311713,0.9611149999999999,-0.1923265,-0.076281,-0.0013050000000000006,-0.0023555000000000104,0.076281,0.0013050000000000006,0.0023554999999999965,-0.10974700000000001,-0.188175,-0.3048965,0.160543,-0.193715,-0.2842965,-0.111507,-0.5532750000000001,-0.17835650000000003,0.134053,-0.547975,-0.1597155
159,-0.0042535,0.73004,-0.06115250000000001,-0.1448555,0.47699,-0.06925250000000001,-0.2721255,0.7035800000000001,-0.14746750000000003,0.1481145,0.4772,-0.06117850000000001,0.2748845,0.7233799999999999,-0.1072845,-0.3330555,0.95899,-0.2358035,0.3121145,0.9639800000000001,-0.1827215,-0.0758935,-0.0014299999999999868,-0.0020205000000000084,0.0758935,0.0014300000000000146,0.0020204999999999945,-0.1106055,-0.20153,-0.2943935,0.15852449999999998,-0.20679999999999998,-0.27415350000000005,-0.1121955,-0.5720000000000001,-0.1732785,0.1337845,-0.56796,-0.1544145
160,-0.0035554999999999996,0.7325200000000001,-0.0553945,-0.1442315,0.47895,-0.06408549999999999,-0.27180150000000003,0.7081500000000001,-0.1396485,0.14883849999999998,0.47963,-0.0560025,0.2754685,0.72468,-0.0993115,-0.33308150000000003,0.96369,-0.2244515,0.3135285,0.96569,-0.1728475,-0.0753325,-0.0012399999999999911,-0.0017594999999999972,0.0753325,0.0012399999999999911,0.001759500000000011,-0.1112415,-0.21494999999999997,-0.2829215,0.1563385,-0.21992,-0.2632215,-0.1126415,-0.59085,-0.16817749999999998,0.1337085,-0.58804,-0.1487455
161,-0.002545000000000002,0.73619,-0.05010049999999999,-0.14325700000000002,0.48214999999999997,-0.0589195,-0.27153700000000003,0.71167,-0.1317765,0.149723,0.48264999999999997,-0.0507195,0.276343,0.7256199999999999,-0.0913435,-0.332807,0.9662999999999999,-0.2136325,0.31510299999999997,0.9671,-0.1627865,-0.074706,-0.0009800000000000086,-0.0014274999999999982,0.074706,0.0009799999999999809,0.0014274999999999982,-0.111917,-0.22857,-0.2705025,0.154333,-0.23325,-0.2516025,-0.11303699999999998,-0.61019,-0.1628375,0.133683,-0.60817,-0.14289849999999998
162,-0.0014394999999999963,0.73958,-0.044823,-0.1430745,0.48585,-0.053706000000000004,-0.2706845,0.71507,-0.12411900000000001,0.1506355,0.48649,-0.04552900000000001,0.27724550000000003,0.7275,-0.083941,-0.3318945,0.96877,-0.202906,0.3169055,0.96949,-0.1527,-0.0741255,-0.0007300000000000084,-0.0010660000000000114,0.0741255,0.0007299999999999945,0.0010659999999999975,-0.11244449999999999,-0.24659999999999999,-0.25764600000000004,0.1520055,-0.25378,-0.239606,-0.1133945,-0.63065,-0.157559,0.1336955,-0.62876,-0.137109
163,-0.00015100000000000183,0.7405889999999999,-0.03981599999999999,-0.142961,0.486889,-0.048777999999999995,-0.269551,0.7189789999999999,-0.11657799999999999,0.151669,0.487159,-0.040752,0.27839899999999995,0.7301289999999999,-0.077099,-0.33079099999999995,0.972109,-0.192555,0.31894900000000004,0.972919,-0.14321699999999998,-0.073446,-0.0004710000000000131,-0.0010689999999999936,0.073446,0.0004709999999999992,0.0010690000000000005,-0.112821,-0.26343099999999997,-0.244925,0.149949,-0.272721,-0.22758499999999998,-0.113761,-0.6492910000000001,-0.152253,0.13383899999999999,-0.647541,-0.13135
164,0.0005600000000000015,0.744229,-0.030971,-0.143452,0.487899,-0.039568,-0.268992,0.721179,-0.104822,0.152168,0.487619,-0.03171399999999999,0.279248,0.732169,-0.066107,-0.330382,0.974619,-0.177649,0.320418,0.974649,-0.12930599999999998,-0.07297200000000001,-0.0003979999999999956,-0.0007229999999999945,0.07297200000000001,0.0003979999999999956,0.0007230000000000014,-0.113932,-0.281841,-0.226309,0.147068,-0.293321,-0.209439,-0.11474200000000001,-0.669501,-0.142237,0.133638,-0.668011,-0.121082
165,0.0010994999999999998,0.7449565,-0.023253499999999996,-0.1439255,0.49080650000000003,-0.0312615,-0.2684755,0.7229965,-0.0949695,0.1528945,0.4867665,-0.023491499999999995,0.2799545,0.7313465,-0.0568235,-0.3302955,0.9730565,-0.1655055,0.3228145,0.9757165,-0.11810849999999999,-0.0726465,-9.149999999999436e-05,-0.00041649999999999326,0.0726465,9.150000000000824e-05,0.0004165000000000002,-0.11459549999999999,-0.2978935,-0.2059155,0.1439345,-0.3094735,-0.1890055,-0.11581549999999999,-0.6857835,-0.13226349999999998,0.1334145,-0.6844335,-0.1113995
166,0.0013485000000000007,0.7447520000000001,-0.015331500000000001,-0.14442449999999998,0.494052,-0.023677500000000004,-0.26854449999999996,0.724982,-0.0866015,0.1533555,0.486572,-0.0159145,0.28057550000000003,0.7314120000000001,-0.0481395,-0.3307245,0.971442,-0.1548775,0.3249155,0.974692,-0.10768749999999999,-0.0724145,0.00018599999999999867,-0.00013250000000000067,0.0724145,-0.00018599999999999867,0.00013250000000000067,-0.11518450000000001,-0.312448,-0.1862375,0.1408555,-0.323828,-0.1691575,-0.11685450000000001,-0.700708,-0.12271950000000001,0.1331255,-0.699418,-0.1022855
167,0.0013184999999999985,0.7448589999999999,-0.008167999999999998,-0.1449835,0.495869,-0.016385999999999998,-0.26880350000000003,0.727649,-0.078488,0.1539865,0.487009,-0.008680999999999998,0.28119649999999996,0.7329589999999999,-0.039719,-0.3315235,0.970169,-0.144873,0.3267265,0.9740489999999999,-0.097742,-0.0722555,0.00046199999999999714,0.0002149999999999999,0.0722555,-0.0004620000000000041,-0.0002149999999999999,-0.11582350000000001,-0.32584100000000005,-0.166813,0.1380765,-0.336631,-0.14991300000000002,-0.11805349999999999,-0.7146410000000001,-0.113397,0.1327465,-0.7134710000000001,-0.093714
168,0.0011894999999999996,0.744569,-0.0013114999999999967,-0.1456945,0.497649,-0.009267499999999998,-0.2690145,0.726749,-0.0707945,0.1546355,0.486259,-0.0018374999999999989,0.2818655,0.734789,-0.0319485,-0.3322445,0.969789,-0.1357295,0.3283955,0.973219,-0.0886425,-0.07205149999999999,0.0008630000000000027,0.0003625000000000017,0.07205149999999999,-0.0008629999999999992,-0.00036249999999999824,-0.1163545,-0.336741,-0.1486695,0.1359655,-0.349211,-0.1315695,-0.11925449999999999,-0.725691,-0.10456549999999999,0.1323155,-0.725151,-0.08547049999999999
169,0.0008599999999999997,0.7442875,0.005376999999999998,-0.146351,0.49856750000000005,-0.0024600000000000004,-0.26925099999999996,0.7237875,-0.063246,0.15511899999999998,0.48605750000000003,0.0049110000000000004,0.282189,0.7365475,-0.024052999999999998,-0.332841,0.9636275,-0.127241,0.328529,0.9685275,-0.079708,-0.07181499999999999,0.0010855000000000014,0.0005929999999999998,0.07181499999999999,-0.0010854999999999997,-0.0005929999999999998,-0.11674100000000001,-0.34658249999999996,-0.131251,0.134119,-0.3609825,-0.113771,-0.120451,-0.7355725,-0.095554,0.131709,-0.7348825,-0.076768
170,0.0003895000000000027,0.7432895,0.012147,-0.1474725,0.4989995,0.004787000000000001,-0.2699425,0.7222395,-0.055328,0.1554175,0.4856495,0.012193,0.2814575,0.7382795000000001,-0.015517,-0.33326249999999996,0.9581495000000001,-0.118295,0.3280275,0.9650695,-0.07032799999999999,-0.0716215,0.0012085,0.0008540000000000006,0.0716215,-0.0012085000000000002,-0.0008539999999999997,-0.1172425,-0.3565105,-0.11351499999999999,0.13202750000000002,-0.3732205,-0.09543,-0.12189249999999999,-0.7453504999999999,-0.086145,0.1311275,-0.7442804999999999,-0.067583
171,-0.00021449999999999594,0.7415135,0.018599,-0.1488005,0.49880350000000007,0.011882,-0.2703005,0.7187035,-0.047099999999999996,0.15549949999999998,0.4852535,0.019495000000000002,0.2803295,0.7383435,-0.006952000000000001,-0.3337505,0.9523535,-0.109029,0.3271695,0.9608335,-0.060863999999999994,-0.0715595,0.0012584999999999992,0.001175,0.0715595,-0.0012585,-0.0011749999999999998,-0.1179005,-0.36818649999999997,-0.095875,0.1297795,-0.3870765,-0.077006,-0.12346049999999999,-0.7564365,-0.076156,0.1303695,-0.7548765,-0.058038
172,-0.0014160000000000006,0.7405940000000001,0.0252495,-0.15073899999999998,0.498134,0.019609500000000002,-0.270989,0.715624,-0.03833349999999999,0.155051,0.48470399999999997,0.0272155,0.278471,0.737454,0.002011500000000001,-0.334279,0.9469740000000001,-0.0991425,0.32549100000000003,0.957034,-0.0509235,-0.07163900000000001,0.0014260000000000002,0.0016715000000000011,0.07163900000000001,-0.0014260000000000002,-0.0016714999999999994,-0.118899,-0.380296,-0.07824149999999999,0.127141,-0.401276,-0.0581555,-0.125559,-0.7675259999999999,-0.0655955,0.129441,-0.7655959999999999,-0.0481115
173,-0.0024724999999999973,0.7376199999999999,0.02837,-0.1528245,0.49817999999999996,0.023044000000000002,-0.2715345,0.71414,-0.033983,0.15472550000000002,0.48492999999999997,0.030638,0.27675550000000004,0.73575,0.006732,-0.33446449999999994,0.9424899999999999,-0.093666,0.32381550000000003,0.95555,-0.045371,-0.0718285,0.001738,0.0018770000000000002,0.0718285,-0.001738,-0.0018770000000000002,-0.1194945,-0.39018,-0.06673200000000001,0.1250155,-0.41338,-0.045377,-0.1273945,-0.77602,-0.059641999999999994,0.1283755,-0.77399,-0.042504
174,-0.0034699999999999974,0.7360855,0.031204000000000003,-0.15451499999999999,0.4965855,0.025994000000000003,-0.27210500000000004,0.7132155,-0.030057,0.154175,0.48598549999999996,0.033393000000000006,0.275185,0.7346355,0.010561000000000003,-0.33462499999999995,0.9399554999999999,-0.088849,0.32213499999999995,0.9543655,-0.04038,-0.072035,0.0017905000000000004,0.002125000000000002,0.072035,-0.0017905000000000004,-0.0021249999999999984,-0.120365,-0.3955445,-0.059902,0.12338500000000001,-0.4191545,-0.037845,-0.128995,-0.7813845,-0.05506,0.127385,-0.7794145,-0.038051999999999996
175,-0.004418500000000002,0.7349765,0.0341695,-0.1561125,0.4950765,0.0290705,-0.2726125,0.7125265000000001,-0.0258495,0.1537475,0.48730650000000003,0.0361975,0.2736175,0.7342165,0.0146635,-0.3347625,0.9382865,-0.0834195,0.3205475,0.9536565,-0.0351235,-0.0723705,0.0018525,0.002460500000000001,0.0723705,-0.0018525,-0.002460500000000001,-0.1213225,-0.40030350000000003,-0.0533725,0.12189749999999999,-0.4240935,-0.030356499999999998,-0.1305125,-0.7862135,-0.050409499999999996,0.12649749999999998,-0.7842235,-0.033535499999999996
176,-0.0051605,0.7340335,0.0371615,-0.1574555,0.49358350000000006,0.0323965,-0.2729055,0.7121535,-0.021542500000000003,0.1530145,0.48685350000000005,0.0390555,0.2720845,0.7323835000000001,0.0187295,-0.3347055,0.9375835,-0.0778765,0.3192445,0.9536135,-0.0299205,-0.0726955,0.001842499999999997,0.0026785000000000003,0.0726955,-0.0018425000000000039,-0.0026785000000000003,-0.1222355,-0.40417650000000005,-0.047508499999999995,0.1203745,-0.42813650000000003,-0.0233175,-0.1317655,-0.7901064999999999,-0.04578449999999999,0.1258445,-0.7881064999999999,-0.0291495
177,-0.005814,0.7332575,0.040521,-0.158334,0.49216750000000004,0.035737,-0.273154,0.7120274999999999,-0.01693,0.152366,0.48659749999999996,0.04211,0.270846,0.7320274999999999,0.023045,-0.33456400000000003,0.9385175,-0.07167299999999999,0.31707599999999997,0.9541774999999999,-0.02466,-0.07289799999999999,0.0017704999999999943,0.0029330000000000016,0.07289799999999999,-0.0017705000000000012,-0.002932999999999998,-0.12318399999999999,-0.4049725,-0.041931,0.11948600000000001,-0.42907249999999997,-0.016567,-0.132874,-0.7921425000000001,-0.041366999999999994,0.125466,-0.7906225,-0.024867
178,-0.0062685,0.7320945,0.043828,-0.15906350000000002,0.49064450000000004,0.03902,-0.2733335,0.7120145,-0.012159999999999997,0.1518565,0.48644449999999995,0.045089000000000004,0.2703565,0.7316945,0.02773,-0.3343235,0.9398145,-0.065194,0.3149665,0.9550244999999999,-0.019470999999999995,-0.0730855,0.0016885000000000025,0.003144000000000001,0.0730855,-0.0016885000000000025,-0.003144000000000001,-0.12407349999999999,-0.40552550000000004,-0.036606,0.1187665,-0.4300455,-0.010348999999999997,-0.1337735,-0.7935555,-0.036913,0.1252965,-0.7925555,-0.020673999999999998
179,-0.0064805,0.7312114999999999,0.046601,-0.1593965,0.48958150000000006,0.041763999999999996,-0.2733065,0.7116815000000001,-0.007762999999999999,0.1516435,0.48634150000000004,0.047617999999999994,0.2692335,0.7317914999999999,0.03183,-0.3341365,0.9417314999999999,-0.058977,0.3131835,0.9556614999999999,-0.014942000000000004,-0.0731885,0.0016195000000000029,0.003277999999999996,0.0731885,-0.001619499999999996,-0.003278000000000003,-0.12454649999999999,-0.4055185,-0.03229,0.1182735,-0.4311085,-0.005428000000000002,-0.13428649999999998,-0.7938285,-0.033030000000000004,0.12536350000000002,-0.7936485,-0.017230000000000002
180,-0.0066425,0.7313145,0.04919300000000001,-0.1596215,0.48956450000000007,0.044328000000000006,-0.2732915,0.7116645,-0.003024999999999993,0.1514685,0.48632450000000005,0.050058000000000005,0.26782849999999997,0.7319045000000001,0.035930000000000004,-0.3340515,0.9438145,-0.05234899999999999,0.3113585,0.9562444999999999,-0.010264999999999996,-0.0731945,0.0016135000000000038,0.0033420000000000047,0.0731945,-0.0016134999999999969,-0.0033419999999999978,-0.12489150000000002,-0.4054855,-0.028342999999999993,0.11788850000000001,-0.4308255,-0.0010659999999999975,-0.1346015,-0.7929955,-0.02978399999999999,0.1255185,-0.7935854999999999,-0.014282999999999997
181,-0.006818499999999996,0.731429,0.0511865,-0.15979949999999998,0.4895590000000001,0.046261500000000004,-0.2735395,0.711659,0.0010945000000000052,0.1513305,0.48631900000000006,0.051735500000000004,0.2666505,0.7318990000000001,0.039283500000000006,-0.3344195,0.945449,-0.04660449999999999,0.3101705,0.9564389999999999,-0.006214499999999998,-0.07319149999999999,0.0016079999999999983,0.003312500000000003,0.07319149999999999,-0.0016080000000000053,-0.003312499999999996,-0.1251395,-0.405481,-0.02557849999999999,0.11764050000000001,-0.43032099999999995,0.0017595000000000041,-0.1348395,-0.792261,-0.027567499999999995,0.1254305,-0.793571,-0.012133499999999998
182,-0.006991999999999995,0.731619,0.053232,-0.16007699999999997,0.4891690000000001,0.04819,-0.27380699999999997,0.711659,0.005080999999999995,0.151213,0.48631900000000006,0.053153,0.26633300000000004,0.731969,0.041617,-0.334737,0.9467990000000001,-0.041399,0.309363,0.9568390000000001,-0.0025379999999999986,-0.073198,0.0016079999999999983,0.0033030000000000004,0.073198,-0.0016080000000000053,-0.0033030000000000004,-0.125517,-0.40544100000000005,-0.023111,0.117443,-0.42981100000000005,0.004075999999999996,-0.13503700000000002,-0.791801,-0.025602000000000007,0.12538300000000002,-0.793571,-0.010382000000000002
183,-0.007132999999999999,0.7312145,0.055821,-0.16037800000000002,0.48786450000000003,0.050467000000000005,-0.273988,0.7113545,0.008992000000000007,0.15116200000000002,0.4862345,0.05467,0.266122,0.7315845,0.04435700000000001,-0.334958,0.9483045,-0.03622299999999999,0.30876200000000004,0.9573145000000001,0.0011620000000000033,-0.073254,0.0015374999999999972,0.0032900000000000013,0.073254,-0.0015375000000000041,-0.0032899999999999943,-0.12590800000000002,-0.4051355,-0.02072199999999999,0.11729200000000001,-0.4301755,0.006285000000000006,-0.13518799999999997,-0.7912454999999999,-0.022966,0.12546200000000002,-0.7939355,-0.008858999999999999
184,-0.007082499999999997,0.7310800000000001,0.058362500000000005,-0.1604455,0.48696999999999996,0.052402500000000005,-0.2738555,0.71111,0.012468500000000004,0.1513945,0.48638999999999993,0.056129500000000006,0.2662745,0.73197,0.046789500000000005,-0.3348255,0.95015,-0.03186749999999999,0.30864450000000004,0.95864,0.004589500000000003,-0.07326350000000001,0.0014310000000000017,0.0031655000000000016,0.07326350000000001,-0.0014310000000000017,-0.0031654999999999947,-0.1261655,-0.40437,-0.018625499999999996,0.1174145,-0.42996,0.008117500000000007,-0.1350455,-0.79004,-0.0207465,0.1258145,-0.7937299999999999,-0.0075304999999999955
185,-0.0069714999999999985,0.7310255,0.060807,-0.16038049999999998,0.4863855,0.05419,-0.2737005,0.7108655,0.015844,0.15169950000000001,0.48659549999999996,0.057554,0.2666095,0.7333955,0.049105,-0.3346805,0.9520055,-0.027534999999999997,0.3086695,0.9597255,0.008190000000000003,-0.0732875,0.0013304999999999984,0.003035000000000003,0.0732875,-0.0013304999999999984,-0.003035000000000003,-0.1264005,-0.4034645,-0.016600999999999998,0.11764949999999999,-0.42974450000000003,0.009914,-0.1348405,-0.7887145,-0.018686,0.1261495,-0.7933845,-0.006336000000000001
186,-0.006889500000000007,0.7312835,0.0627875,-0.1603195,0.48594350000000003,0.055779499999999996,-0.2735895,0.7106835,0.0186985,0.1519605,0.4867835,0.0588405,0.2670505,0.7352034999999999,0.0512915,-0.3345595,0.9537035,-0.024082500000000007,0.3087305,0.9608435,0.0115045,-0.07330249999999999,0.0012175000000000033,0.0029384999999999967,0.07330249999999999,-0.0012174999999999964,-0.0029385000000000036,-0.1266295,-0.4025065,-0.014857500000000003,0.1178605,-0.4294965,0.0114685,-0.1346995,-0.7874165,-0.0167575,0.12655049999999998,-0.7929965000000001,-0.0053945000000000035
187,-0.006866999999999998,0.7317060000000001,0.06450249999999999,-0.16029,0.48565600000000003,0.05716449999999999,-0.27355,0.7103360000000001,0.021180499999999994,0.15213000000000002,0.48694599999999993,0.060019499999999996,0.26753,0.737506,0.053356499999999994,-0.33454,0.955256,-0.02124150000000001,0.30875,0.9618760000000001,0.014620499999999995,-0.07331299999999999,0.001121999999999998,0.002848499999999997,0.07331299999999999,-0.001122000000000005,-0.002848500000000004,-0.12682,-0.401554,-0.013487500000000006,0.11803,-0.429224,0.012830499999999995,-0.13465,-0.786284,-0.014968500000000003,0.12683,-0.792604,-0.0046135000000000065
