sb224sc-HT22-VT27/4dt907/src/data/kinect_good_preprocessed_A9_mediapipe/A83_kinect.csv
FrameNo,nose_3d_x,nose_3d_y,nose_3d_z,left_shoulder_3d_x,left_shoulder_3d_y,left_shoulder_3d_z,left_elbow_3d_x,left_elbow_3d_y,left_elbow_3d_z,right_shoulder_3d_x,right_shoulder_3d_y,right_shoulder_3d_z,right_elbow_3d_x,right_elbow_3d_y,right_elbow_3d_z,left_wrist_3d_x,left_wrist_3d_y,left_wrist_3d_z,right_wrist_3d_x,right_wrist_3d_y,right_wrist_3d_z,left_hip_3d_x,left_hip_3d_y,left_hip_3d_z,right_hip_3d_x,right_hip_3d_y,right_hip_3d_z,left_knee_3d_x,left_knee_3d_y,left_knee_3d_z,right_knee_3d_x,right_knee_3d_y,right_knee_3d_z,left_ankle_3d_x,left_ankle_3d_y,left_ankle_3d_z,right_ankle_3d_x,right_ankle_3d_y,right_ankle_3d_z
0,-0.0022309999999999943,0.7854315000000001,0.1348765,-0.178599,0.5861815,0.1022675,-0.31672900000000004,0.8201515,0.0491105,0.189161,0.5827015,0.1177925,0.347631,0.8209515000000001,0.0799115,-0.383629,1.0402915,0.0019264999999999977,0.440311,1.0321915,0.0259415,-0.081163,0.0020334999999999997,0.0011144999999999974,0.081163,-0.0020334999999999997,-0.0011145000000000044,-0.11800899999999999,-0.4422585,-0.029365500000000003,0.117581,-0.5002285,0.006525499999999997,-0.097092,-0.8563185,-0.0055365,0.12451100000000001,-0.8709985,0.0090545
1,-0.0021635,0.7854725,0.13484,-0.1799755,0.5874325,0.10403,-0.3166755,0.8201225,0.048929,0.1892345,0.5827525,0.117734,0.3476945,0.8209425,0.07984,-0.39618549999999997,1.0776525,-0.0009709999999999996,0.43675450000000005,1.0224525,0.026060999999999997,-0.0811855,0.0019925,0.001128999999999998,0.0811855,-0.0019925,-0.001128999999999998,-0.1181955,-0.4472375,-0.028418000000000006,0.1175545,-0.49997749999999996,0.006489999999999996,-0.0970295,-0.8562875,-0.005582999999999998,0.12367449999999999,-0.8734675,0.010076999999999996
2,-0.0020325000000000005,0.785243,0.134488,-0.1798425,0.587323,0.103674,-0.31674250000000004,0.8201630000000001,0.048438,0.1893275,0.582723,0.117637,0.3477875,0.8208930000000001,0.079709,-0.3960625,1.078613,-0.0014159999999999937,0.43777750000000004,1.023913,0.025275000000000002,-0.0811695,0.00178,0.0010770000000000016,0.0811695,-0.00178,-0.0010769999999999946,-0.1179525,-0.440047,-0.029947,0.1175475,-0.49984700000000004,0.006386000000000003,-0.0970775,-0.8561369999999999,-0.005816999999999996,0.1239275,-0.8719969999999999,0.009175000000000003
3,-0.0018279999999999946,0.7848515,0.134133,-0.179978,0.5873915,0.103882,-0.31680800000000003,0.8194815,0.047997,0.18940200000000001,0.5825115,0.117612,0.347922,0.8205215,0.079305,-0.39584800000000003,1.0790015,-0.0022889999999999994,0.437872,1.0239015,0.024319,-0.081199,0.0019785000000000002,0.0010550000000000004,0.081199,-0.0019785000000000002,-0.0010550000000000004,-0.118308,-0.4376585,-0.031002000000000002,0.11691200000000002,-0.49650849999999996,0.005908999999999998,-0.097337,-0.8561385,-0.005807,0.12404200000000001,-0.8717185,0.008434999999999998
4,-0.001812499999999997,0.7850010000000001,0.133983,-0.1797005,0.587241,0.10325999999999999,-0.31705049999999996,0.819791,0.047527,0.1893995,0.582661,0.117477,0.34789950000000003,0.820551,0.079042,-0.3959405,1.0797510000000001,-0.002686000000000001,0.43793950000000004,1.023951,0.023478,-0.0812245,0.001976,0.0010760000000000006,0.0812245,-0.001976,-0.0010760000000000006,-0.11750050000000001,-0.44965900000000003,-0.028847000000000005,0.11689949999999999,-0.496259,0.005694999999999999,-0.0975125,-0.8551489999999999,-0.005320999999999999,0.1240995,-0.871579,0.008483999999999998
5,-0.0020940000000000025,0.7845495,0.1335605,-0.179494,0.5866795,0.1025955,-0.317094,0.8194895,0.0464985,0.189336,0.5824095,0.11728550000000001,0.347866,0.8199895,0.0783325,-0.395964,1.0796695,-0.0030675000000000008,0.437886,1.0218695,0.020536500000000003,-0.08116100000000001,0.0017994999999999999,0.0009925000000000003,0.08116100000000001,-0.0017994999999999999,-0.0009925000000000003,-0.11776400000000001,-0.4542905,-0.028641499999999993,0.11690600000000001,-0.4959205,0.005254500000000002,-0.09707299999999999,-0.8590105,-0.005465499999999998,0.123946,-0.8717705,0.008407499999999998
6,-0.0021879999999999994,0.784559,0.133179,-0.179847,0.5870190000000001,0.102715,-0.317177,0.819689,0.046096,0.189353,0.5824290000000001,0.11703799999999999,0.347913,0.819999,0.07788999999999999,-0.395787,1.0795890000000001,-0.003737000000000004,0.438923,1.023389,0.019010999999999997,-0.08116899999999999,0.001846,0.001014999999999995,0.08116899999999999,-0.001846,-0.001015000000000002,-0.117707,-0.452351,-0.028505000000000003,0.11683299999999999,-0.5034409999999999,0.005458999999999999,-0.09728300000000001,-0.8590909999999999,-0.005729000000000005,0.12365299999999999,-0.874251,0.006970999999999998
7,-0.002271,0.784846,0.132383,-0.179639,0.5871360000000001,0.102065,-0.317049,0.819736,0.044827000000000006,0.18939099999999998,0.582616,0.116809,0.348001,0.8201860000000001,0.07669000000000001,-0.394119,1.079286,-0.006023999999999995,0.438781,1.024386,0.017988,-0.081232,0.001997,0.0011400000000000021,0.081232,-0.001997,-0.0011399999999999952,-0.118009,-0.445814,-0.029609999999999997,0.116901,-0.497564,0.005171000000000002,-0.097358,-0.856784,-0.0062369999999999995,0.123931,-0.8712139999999999,0.008475000000000003
8,-0.002256999999999996,0.7848105,0.131782,-0.17960700000000002,0.5871405,0.10187199999999999,-0.316997,0.8197004999999999,0.043815,0.189423,0.5825905,0.11657999999999999,0.348073,0.8201505,0.07581299999999999,-0.394017,1.0793504999999999,-0.007565999999999996,0.438633,1.0243505,0.016331000000000002,-0.081248,0.0019775,0.0011600000000000013,0.081248,-0.0019775,-0.0011600000000000013,-0.11802699999999999,-0.44559950000000004,-0.029621,0.116853,-0.4969695,0.004982,-0.097467,-0.8567795,-0.006330999999999996,0.123903,-0.8709195000000001,0.008404000000000002
9,-0.002197500000000001,0.7847735,0.13105,-0.1795275,0.5871335,0.101408,-0.3169575,0.8196735,0.042703000000000005,0.1894625,0.5825835,0.11633,0.34813249999999996,0.8201135,0.074867,-0.3935475,1.0794134999999998,-0.009246999999999991,0.4388225,1.0245134999999999,0.014739000000000006,-0.08126749999999999,0.0019585,0.0011550000000000032,0.08126749999999999,-0.0019585,-0.0011549999999999963,-0.11803749999999999,-0.44454649999999996,-0.029751,0.1168025,-0.49639649999999996,0.0047850000000000045,-0.09757750000000001,-0.8566765,-0.006432999999999994,0.1239025,-0.8703664999999999,0.008206000000000005
10,-0.0021139999999999952,0.7848465,0.129879,-0.179394,0.5872165,0.10061600000000001,-0.316934,0.8196964999999999,0.041173,0.189536,0.5827165,0.115756,0.348206,0.8199164999999999,0.073452,-0.393084,1.0795065,-0.011564999999999999,0.438996,1.0242065,0.012707,-0.081294,0.0020255,0.0011530000000000012,0.081294,-0.0020255,-0.0011530000000000012,-0.11810399999999999,-0.4454535,-0.029763000000000005,0.11671600000000001,-0.4958035,0.004529999999999999,-0.09773699999999999,-0.8568835,-0.006179999999999998,0.123806,-0.8702735,0.00843
11,-0.002025000000000002,0.784996,0.128551,-0.17923899999999998,0.5873759999999999,0.09981399999999999,-0.316899,0.8198160000000001,0.039585999999999996,0.189611,0.5828960000000001,0.11516,0.348281,0.819766,0.071985,-0.392669,1.079636,-0.013904000000000007,0.439191,1.023936,0.010734999999999995,-0.08132400000000001,0.002079,0.0011399999999999952,0.08132400000000001,-0.002079,-0.0011400000000000021,-0.118119,-0.446374,-0.029959,0.11663099999999998,-0.495444,0.004268999999999995,-0.097883,-0.8570040000000001,-0.005895000000000004,0.123701,-0.8701840000000001,0.008792999999999995
12,-0.001960499999999997,0.785176,0.12703599999999998,-0.1791195,0.587556,0.099002,-0.3168495,0.8199259999999999,0.037869,0.1896805,0.583086,0.114506,0.3483705,0.8195359999999999,0.070337,-0.39241950000000003,1.079566,-0.016392999999999998,0.4394405,1.023866,0.008535000000000001,-0.0813585,0.0021279999999999997,0.0011450000000000002,0.0813585,-0.002128,-0.0011450000000000002,-0.1181995,-0.445894,-0.030279,0.1165405,-0.495084,0.003974999999999999,-0.09797449999999999,-0.857344,-0.0056709999999999955,0.1235405,-0.870094,0.00911
13,-0.0019084999999999977,0.7853315,0.12543500000000002,-0.1790415,0.5877715,0.098173,-0.31686149999999996,0.8201515,0.036114,0.1897585,0.5832915,0.113853,0.3484685,0.8193115,0.068649,-0.3922615,1.0793015,-0.018825,0.43974850000000004,1.0237015,0.006227999999999997,-0.08140349999999999,0.0021855,0.001131,0.08140349999999999,-0.0021855,-0.001131,-0.1182115,-0.4453185,-0.030622999999999997,0.1164385,-0.4946485,0.003727000000000001,-0.09808049999999999,-0.8573485,-0.005464000000000004,0.1233785,-0.8698685,0.009345
14,-0.0018690000000000017,0.7854755,0.1238205,-0.17895,0.5879755,0.0972765,-0.31701,0.8203655,0.034215499999999996,0.18982000000000002,0.5835055,0.1131845,0.34853,0.8190955,0.06689049999999999,-0.3921,1.0788455000000001,-0.0212225,0.43997,1.0235455,0.003886500000000001,-0.08144499999999999,0.0022345000000000004,0.0010755,0.08144499999999999,-0.0022345000000000004,-0.0010755,-0.11821999999999999,-0.4447845,-0.031019500000000005,0.11634,-0.4936745,0.0034275,-0.09814500000000001,-0.8573945000000001,-0.005264499999999998,0.12323,-0.8694845,0.0095705
15,-0.0018240000000000014,0.7856885,0.1222005,-0.178868,0.5881885,0.0963435,-0.317168,0.8203385,0.0323815,0.189882,0.5837185,0.1125005,0.348552,0.8187985,0.06508749999999999,-0.39195800000000003,1.0777984999999999,-0.0233945,0.440152,1.0233984999999999,0.001625500000000002,-0.081477,0.002271500000000001,0.0009964999999999974,0.081477,-0.002271499999999999,-0.0009965000000000043,-0.11818799999999999,-0.4448315,-0.0314425,0.116262,-0.4929215,0.002963500000000001,-0.09806600000000001,-0.8574615,-0.0050695000000000046,0.12302199999999999,-0.8694915,0.0097655
16,-0.0017744999999999985,0.7859470000000001,0.1204855,-0.1787935,0.588447,0.0954125,-0.3174335,0.8202170000000001,0.030429499999999998,0.1899365,0.583947,0.1117515,0.34864649999999997,0.818527,0.0632525,-0.3920035,1.076477,-0.0255595,0.4403765,1.023077,-0.0005165000000000031,-0.0815035,0.0022839999999999996,0.0009064999999999976,0.0815035,-0.0022839999999999996,-0.0009065000000000045,-0.1181635,-0.445373,-0.0318175,0.1161865,-0.492143,0.0023245,-0.0980335,-0.857503,-0.004917500000000005,0.12288650000000001,-0.8694729999999999,0.009890499999999997
17,-0.0016989999999999976,0.786226,0.11867,-0.178734,0.588676,0.094471,-0.31783399999999995,0.820026,0.028381,0.189996,0.584166,0.111007,0.34875599999999995,0.818206,0.061426999999999995,-0.392204,1.075066,-0.027873000000000002,0.44065600000000005,1.022566,-0.002786999999999998,-0.081539,0.0022889999999999994,0.0008420000000000025,0.081539,-0.002289000000000001,-0.0008420000000000025,-0.118154,-0.445944,-0.032208999999999995,0.116146,-0.491384,0.001679,-0.09790399999999999,-0.857724,-0.004812000000000004,0.122766,-0.869424,0.010032
18,-0.0016119999999999962,0.7864785000000001,0.11691049999999999,-0.17874400000000001,0.5888585000000001,0.0935945,-0.318254,0.8197585000000001,0.026126499999999993,0.190036,0.5843585,0.11019449999999999,0.348876,0.8177485000000001,0.05925649999999999,-0.39289399999999997,1.0735685,-0.03064850000000001,0.441186,1.0220685,-0.00567150000000001,-0.08158599999999999,0.0022915,0.0008084999999999967,0.08158599999999999,-0.0022915,-0.0008085000000000037,-0.11815400000000001,-0.4457115,-0.03281350000000001,0.11610600000000001,-0.4905415,0.0008534999999999932,-0.097879,-0.8579614999999999,-0.004719500000000008,0.12260599999999999,-0.8694115,0.010148499999999994
19,-0.0015319999999999995,0.7864785000000001,0.115388,-0.178865,0.5888585000000001,0.092961,-0.318845,0.8197585000000001,0.024072000000000003,0.190065,0.5843585,0.109638,0.349015,0.8177485000000001,0.057321,-0.393875,1.0735685,-0.033426,0.441675,1.0220685,-0.00811,-0.081645,0.0022915,0.0007810000000000039,0.081645,-0.0022915,-0.000780999999999997,-0.118115,-0.4449515,-0.033600000000000005,0.116165,-0.4898715,-0.00023999999999999716,-0.09782,-0.8579515,-0.00485,0.122605,-0.8694115,0.010014000000000002
20,-0.0014179999999999991,0.7864785000000001,0.113871,-0.178999,0.5888585000000001,0.09228900000000001,-0.319529,0.8197585000000001,0.021842,0.190091,0.5843585,0.10905599999999999,0.349221,0.8177485000000001,0.055202,-0.395069,1.0735685,-0.036536000000000006,0.442251,1.0220685,-0.010823,-0.081703,0.0022915,0.0007749999999999979,0.081703,-0.0022915,-0.0007749999999999979,-0.118079,-0.4442015,-0.034456999999999995,0.116281,-0.4891915,-0.0015949999999999992,-0.097764,-0.8579515,-0.004970000000000002,0.12262100000000001,-0.8694115,0.009892999999999999
21,-0.0013200000000000056,0.7864785000000001,0.11211650000000001,-0.17928,0.5888585000000001,0.0914665,-0.32038,0.8197585000000001,0.0193785,0.1901,0.5843585,0.10846650000000001,0.34944,0.8177485000000001,0.052963500000000004,-0.39649999999999996,1.0729685,-0.0401585,0.44321999999999995,1.0220685,-0.013537500000000001,-0.081761,0.0022915,0.0007705000000000004,0.081761,-0.0022915,-0.0007705000000000004,-0.11803000000000001,-0.4442015,-0.03571049999999999,0.11639999999999999,-0.4891915,-0.0031585000000000016,-0.09771500000000001,-0.8579515,-0.0050585000000000005,0.12265999999999999,-0.8694115,0.0098035
22,-0.0012554999999999977,0.7865685,0.110276,-0.1796575,0.5889585,0.090537,-0.3211175,0.8193585,0.016641000000000003,0.1900325,0.5844585,0.107837,0.3496225,0.8173385000000001,0.050524000000000006,-0.39822749999999996,1.0708185000000001,-0.044108999999999995,0.4443825,1.0220185,-0.016561999999999993,-0.08181949999999999,0.002240500000000001,0.0007670000000000038,0.08181949999999999,-0.0022404999999999994,-0.0007669999999999969,-0.1179075,-0.44339150000000005,-0.03749799999999999,0.11653250000000001,-0.4890415,-0.005069999999999998,-0.09758649999999999,-0.8579614999999999,-0.005274999999999995,0.12264250000000002,-0.8695915,0.009028000000000005
23,-0.0011924999999999976,0.7866310000000001,0.1083755,-0.18007649999999997,0.588981,0.0896035,-0.3217965,0.8187610000000001,0.013750500000000002,0.1899435,0.584531,0.1071985,0.3498635,0.816841,0.0479805,-0.40031649999999996,1.068571,-0.04835249999999999,0.4458035,1.021571,-0.019958499999999997,-0.0818895,0.002203,0.0007764999999999994,0.0818895,-0.002203,-0.0007764999999999994,-0.1178065,-0.443199,-0.039470500000000006,0.11665350000000001,-0.488889,-0.007238500000000002,-0.0973735,-0.858049,-0.005573500000000002,0.1226535,-0.869969,0.0081355
24,-0.0011039999999999982,0.786577,0.10648250000000001,-0.180527,0.588917,0.0887395,-0.322497,0.817227,0.010889500000000007,0.189833,0.584567,0.1065315,0.350313,0.8163469999999999,0.045574500000000004,-0.402707,1.066567,-0.05245949999999999,0.447643,1.020767,-0.023193499999999992,-0.081979,0.002177,0.0007955000000000045,0.081979,-0.002177,-0.0007954999999999976,-0.117717,-0.441803,-0.04181249999999999,0.116823,-0.487653,-0.009599499999999997,-0.097158,-0.857993,-0.006256499999999991,0.122603,-0.869833,0.007098500000000008
25,-0.0010169999999999953,0.7864059999999999,0.10449649999999999,-0.181018,0.588846,0.0877695,-0.32317799999999997,0.8150259999999999,0.0080485,0.18981199999999998,0.584596,0.10601749999999999,0.350982,0.8154859999999999,0.042867499999999996,-0.405788,1.064926,-0.0570825,0.449952,1.0198260000000001,-0.026709500000000004,-0.08208,0.002145000000000001,0.0007904999999999995,0.08208,-0.0021449999999999993,-0.0007904999999999995,-0.117628,-0.43981400000000004,-0.0448835,0.11714200000000001,-0.486564,-0.012755500000000003,-0.096949,-0.857884,-0.006851500000000003,0.122632,-0.869504,0.0061475
26,-0.000962500000000001,0.7862665,0.10249649999999999,-0.1814815,0.5888165,0.0866635,-0.32403150000000003,0.8128464999999999,0.005115500000000002,0.1898085,0.5846865,0.1054455,0.3517385,0.8144564999999999,0.039988499999999996,-0.4093115,1.0635065000000001,-0.06209750000000001,0.4528485,1.0183065,-0.030621500000000003,-0.0822035,0.0021335,0.0007824999999999985,0.0822035,-0.002133499999999999,-0.0007824999999999985,-0.1175215,-0.43803349999999996,-0.04823550000000001,0.1174385,-0.48560349999999997,-0.016058500000000003,-0.0967775,-0.8576235000000001,-0.007439500000000002,0.1226485,-0.8691235,0.005201499999999998
27,-0.000895,0.7861485,0.100094,-0.181889,0.5888985,0.08518600000000001,-0.32496899999999995,0.8104285,0.002131000000000001,0.189831,0.5846585,0.10399800000000001,0.352721,0.8120085,0.037180000000000005,-0.41295899999999996,1.0620384999999999,-0.06702,0.455901,1.0159384999999999,-0.03432299999999999,-0.082366,0.0020984999999999997,0.0007750000000000049,0.082366,-0.0020984999999999997,-0.0007749999999999979,-0.11746899999999999,-0.4364215,-0.052135,0.11782100000000001,-0.4843915,-0.019660999999999998,-0.09662499999999999,-0.8569915,-0.007982999999999997,0.12265100000000001,-0.8684815,0.0042210000000000025
28,-0.0008005000000000049,0.786316,0.097554,-0.1822495,0.5888460000000001,0.083098,-0.3257795,0.807436,-0.0010599999999999984,0.18986050000000002,0.584746,0.10219400000000001,0.3539305,0.809766,0.034457,-0.4172095,1.059766,-0.07191499999999999,0.4606005,1.013866,-0.038390999999999995,-0.0825725,0.002038,0.0007559999999999997,0.0825725,-0.002038,-0.0007559999999999997,-0.11741950000000001,-0.434794,-0.05647099999999999,0.11829049999999999,-0.482964,-0.023261999999999998,-0.0965105,-0.855984,-0.008472,0.12244050000000001,-0.8676539999999999,0.003355999999999998
29,-0.0006564999999999986,0.786309,0.09470200000000001,-0.18259250000000002,0.588769,0.080914,-0.3266425,0.803799,-0.004235999999999997,0.1899475,0.5848190000000001,0.100244,0.35679750000000005,0.807529,0.031021,-0.42217249999999995,1.056549,-0.07695099999999999,0.46603750000000005,1.0112489999999998,-0.04228899999999999,-0.08282049999999999,0.001987,0.0007450000000000026,0.08282049999999999,-0.001987,-0.0007449999999999957,-0.1172425,-0.43296100000000004,-0.061216999999999994,0.1188475,-0.48135100000000003,-0.026966000000000004,-0.0964055,-0.8546309999999999,-0.008975999999999998,0.12224750000000001,-0.866691,0.002694000000000002
30,-0.000442500000000003,0.786231,0.0918875,-0.1828595,0.588611,0.0786525,-0.3278795,0.799971,-0.0076665,0.19028050000000002,0.584801,0.09805849999999999,0.35996049999999996,0.804901,0.0279815,-0.42805950000000004,1.0531110000000001,-0.08236550000000001,0.4724905,1.007311,-0.04612750000000001,-0.0831035,0.0019379999999999998,0.0007355,0.0831035,-0.001938,-0.0007355,-0.1170795,-0.43038899999999997,-0.06597549999999999,0.1194705,-0.47933899999999996,-0.030781499999999996,-0.09633950000000001,-0.853129,-0.009354500000000002,0.1220805,-0.865479,0.0021154999999999993
31,-0.00020200000000000318,0.7860675,0.08889549999999999,-0.18305900000000003,0.5883975,0.07621549999999999,-0.329539,0.7956875,-0.011016500000000005,0.190691,0.5848175,0.0956335,0.363411,0.8019275,0.025164499999999996,-0.43494900000000003,1.0487375,-0.08812249999999999,0.479251,1.0015175,-0.04945250000000001,-0.083382,0.0018804999999999994,0.0007824999999999985,0.083382,-0.0018805000000000002,-0.0007825000000000054,-0.116899,-0.4272625,-0.0707825,0.120181,-0.4770625,-0.0347195,-0.096261,-0.8513725,-0.0096865,0.121791,-0.8637425,0.0021244999999999944
32,-8.99999999999946e-06,0.7860985,0.085792,-0.183301,0.5877384999999999,0.07362099999999999,-0.331841,0.7909484999999999,-0.014564,0.19120900000000002,0.5849785,0.093041,0.367019,0.7974685,0.022534999999999996,-0.443571,1.0429585,-0.09424700000000001,0.486229,0.9952785,-0.052402000000000004,-0.083704,0.0017985000000000006,0.0008029999999999982,0.083704,-0.0017984999999999998,-0.0008030000000000051,-0.11677099999999999,-0.4249415,-0.075577,0.12090899999999999,-0.4742015,-0.03883700000000001,-0.09622800000000001,-0.8493215000000001,-0.009956000000000007,0.121359,-0.8614115,0.0024929999999999952
33,0.00018549999999999817,0.7864009999999999,0.082508,-0.18359550000000002,0.587151,0.070808,-0.3347755,0.786681,-0.018528999999999997,0.19174449999999998,0.5847009999999999,0.090099,0.3706345,0.792701,0.019894,-0.4527755,1.0363010000000001,-0.100821,0.4930445,0.9877509999999999,-0.055655,-0.0839615,0.0017079999999999994,0.0007720000000000019,0.0839615,-0.0017080000000000012,-0.0007720000000000019,-0.11673549999999999,-0.424209,-0.080151,0.1216345,-0.471359,-0.04301,-0.09630450000000002,-0.846819,-0.009977,0.1208545,-0.858889,0.0030939999999999995
34,0.00033949999999999475,0.78667,0.0790035,-0.1839195,0.5866699999999999,0.0678625,-0.3380895,0.78206,-0.022817499999999998,0.1923505,0.58431,0.0868795,0.3743305,0.7874099999999999,0.017345500000000003,-0.4627495,1.02759,-0.1079985,0.4996405,0.9797399999999999,-0.0586525,-0.0842725,0.001601,0.0007425000000000001,0.0842725,-0.001601,-0.0007425000000000001,-0.11670950000000001,-0.42358999999999997,-0.0842385,0.1222905,-0.46817,-0.0468555,-0.0964175,-0.8440000000000001,-0.009896499999999996,0.12030049999999999,-0.85618,0.003778500000000004
35,0.00047650000000000383,0.7870539999999999,0.07517,-0.18419549999999998,0.585634,0.064542,-0.3413355,0.776524,-0.02727299999999999,0.1929645,0.5835140000000001,0.08314099999999999,0.3781445,0.7818940000000001,0.014677000000000003,-0.47271549999999996,1.017684,-0.11517999999999999,0.5062745,0.9724740000000001,-0.061549999999999994,-0.0846325,0.001447999999999998,0.0006519999999999998,0.0846325,-0.0014480000000000014,-0.0006519999999999998,-0.11659549999999999,-0.423126,-0.08839000000000001,0.12303449999999999,-0.464576,-0.050926,-0.09650149999999999,-0.841116,-0.009895000000000001,0.1197245,-0.8530660000000001,0.004519000000000002
36,0.0005129999999999991,0.787454,0.0712245,-0.18456799999999998,0.584474,0.061384499999999995,-0.344918,0.770884,-0.031865500000000005,0.193572,0.582704,0.0798325,0.381932,0.777004,0.011894499999999995,-0.48298800000000003,1.007314,-0.12293649999999999,0.513122,0.965314,-0.0660665,-0.08505099999999999,0.0012840000000000004,0.0005784999999999957,0.08505099999999999,-0.0012840000000000004,-0.0005785000000000026,-0.116588,-0.422036,-0.09215650000000002,0.12368200000000001,-0.46028600000000003,-0.0548435,-0.09662799999999999,-0.838016,-0.0099225,0.11907200000000001,-0.849846,0.005399499999999995
37,0.00037200000000000037,0.7872110000000001,0.066635,-0.18497,0.582721,0.058393,-0.34883,0.7643709999999999,-0.036591,0.19379,0.581521,0.07644600000000001,0.3859,0.771131,0.008680000000000007,-0.49299,0.996251,-0.130803,0.5200400000000001,0.9550810000000001,-0.07034299999999999,-0.085453,0.0011050000000000018,0.0005710000000000021,0.085453,-0.0011049999999999983,-0.0005709999999999951,-0.11662,-0.420199,-0.09599300000000001,0.12425,-0.456109,-0.05916299999999999,-0.09672,-0.834579,-0.009894999999999994,0.11864,-0.846409,0.006623000000000004
38,0.00022400000000000024,0.7871985,0.061839,-0.185387,0.5809685,0.054993,-0.353017,0.7580285,-0.041689000000000004,0.193913,0.5805485,0.072679,0.38842299999999996,0.7649185000000001,0.005985999999999998,-0.503077,0.9849385,-0.139401,0.526923,0.9442385,-0.075761,-0.085838,0.0009995000000000004,0.0005760000000000001,0.085838,-0.000999499999999997,-0.0005760000000000001,-0.116617,-0.41795150000000003,-0.09976099999999999,0.124753,-0.45181150000000003,-0.063291,-0.096746,-0.8310215,-0.009774000000000005,0.11821300000000001,-0.8428715,0.007546999999999998
39,5.900000000000089e-05,0.7869710000000001,0.05672050000000001,-0.18576700000000002,0.579171,0.05135050000000001,-0.357357,0.752181,-0.04715849999999999,0.193993,0.579661,0.0683745,0.390973,0.759391,0.0023425000000000043,-0.513007,0.973981,-0.1480275,0.534363,0.934071,-0.0810875,-0.086228,0.0008199999999999978,0.0006065000000000029,0.086228,-0.0008200000000000013,-0.0006064999999999959,-0.11654700000000001,-0.41552900000000004,-0.10359749999999998,0.12523299999999998,-0.447579,-0.0680775,-0.096751,-0.827479,-0.009870499999999997,0.117783,-0.839329,0.008236500000000008
40,-0.0002990000000000024,0.7868345,0.0507645,-0.186207,0.5773945,0.0469075,-0.362867,0.7463645,-0.0540355,0.193763,0.5786445,0.0631855,0.393303,0.7536945,-0.0025835000000000025,-0.523607,0.9637045000000001,-0.15778550000000002,0.541373,0.9242745,-0.0883955,-0.08666299999999999,0.0007204999999999989,0.0006214999999999971,0.08666299999999999,-0.0007204999999999989,-0.000621500000000004,-0.116317,-0.41302550000000005,-0.1070755,0.12559299999999998,-0.44239550000000005,-0.0724555,-0.09670999999999999,-0.8231054999999999,-0.010001500000000003,0.11730299999999999,-0.8346255,0.008731499999999996
41,-0.0006665000000000022,0.7866515000000001,0.0438865,-0.1865235,0.5763115000000001,0.0418535,-0.3685035,0.7413215000000001,-0.0615005,0.1934765,0.5773515,0.0574675,0.3955365,0.7497015,-0.008275499999999998,-0.5334135,0.9546315000000001,-0.1680105,0.5478565,0.9145115,-0.09577050000000001,-0.0870785,0.0006345000000000031,0.0006724999999999995,0.0870785,-0.0006344999999999962,-0.0006724999999999995,-0.1162735,-0.40998850000000003,-0.11070050000000001,0.12574649999999998,-0.4371485,-0.0767505,-0.09672349999999999,-0.8188685,-0.009918499999999997,0.11680650000000001,-0.8300084999999999,0.008918500000000003
42,-0.0010259999999999983,0.785899,0.03621,-0.186878,0.574659,0.036169,-0.373558,0.735559,-0.069164,0.193162,0.576579,0.051074,0.397812,0.7450789999999999,-0.015216999999999994,-0.542338,0.940919,-0.178994,0.5545519999999999,0.9059889999999999,-0.10447400000000001,-0.087473,0.00047599999999999726,0.0007360000000000005,0.087473,-0.0004760000000000042,-0.0007360000000000005,-0.11629799999999998,-0.407491,-0.114644,0.125752,-0.43229100000000004,-0.081044,-0.09695499999999999,-0.814741,-0.010185,0.116252,-0.825921,0.008754000000000005
43,-0.0013959999999999988,0.7856035,0.028214999999999997,-0.18721100000000002,0.5728335,0.030105999999999997,-0.378171,0.7284535,-0.076696,0.19286899999999998,0.5753535,0.043585,0.39975900000000003,0.7407635,-0.022521,-0.550021,0.9286035,-0.188866,0.5614089999999999,0.8984335,-0.113736,-0.087779,0.00032749999999999446,0.0007209999999999994,0.087779,-0.0003275000000000014,-0.0007209999999999994,-0.116431,-0.4048565,-0.118536,0.12567899999999999,-0.4272165,-0.08510600000000001,-0.097157,-0.8101265,-0.010636,0.11563899999999999,-0.8214265,0.008258999999999996
44,-0.0016415000000000058,0.7847945,0.019549,-0.1875065,0.5709845,0.023676,-0.3827165,0.7209245,-0.08388800000000002,0.1924035,0.5746844999999999,0.036236000000000004,0.4015935,0.7357945,-0.029922999999999998,-0.5583265,0.9160444999999999,-0.198518,0.5685135,0.8900644999999999,-0.123608,-0.08803949999999999,0.00015249999999999986,0.0007080000000000003,0.08803949999999999,-0.00015249999999999986,-0.0007080000000000003,-0.1166065,-0.40199549999999995,-0.122308,0.1255135,-0.4228355,-0.088998,-0.0973205,-0.8051355,-0.011034000000000002,0.1151335,-0.8167955,0.007662000000000002
45,-0.0019159999999999984,0.783742,0.010584999999999997,-0.187615,0.5691120000000001,0.016839,-0.386675,0.712932,-0.090916,0.191945,0.573782,0.028737,0.40332500000000004,0.731012,-0.037564999999999994,-0.566075,0.901402,-0.207336,0.575265,0.8810020000000001,-0.132366,-0.088224,3.500000000000031e-05,0.0006989999999999982,0.088224,-3.500000000000031e-05,-0.0006989999999999982,-0.116725,-0.39912800000000004,-0.126096,0.125435,-0.41843800000000003,-0.092996,-0.097404,-0.800188,-0.011499000000000002,0.114665,-0.812118,0.007163000000000003
46,-0.0022565000000000033,0.7832614999999999,0.001298500000000001,-0.1875555,0.5679415,0.009508500000000003,-0.3904355,0.7063615,-0.09777949999999999,0.1913745,0.5729314999999999,0.0203845,0.40481449999999997,0.7269715,-0.045887500000000005,-0.5740354999999999,0.8878415,-0.21595949999999997,0.5829745000000001,0.8754314999999999,-0.1428495,-0.0884315,-7.150000000000212e-05,0.0007474999999999982,0.0884315,7.149999999999518e-05,-0.0007474999999999982,-0.1168755,-0.3952985,-0.1297595,0.12527449999999998,-0.4131285,-0.0967295,-0.09758549999999999,-0.7940085,-0.012049499999999998,0.1142445,-0.8060785,0.0065495
47,-0.002615,0.782288,-0.008471500000000007,-0.187471,0.566428,0.001729499999999995,-0.39354100000000003,0.699428,-0.10490250000000001,0.190849,0.572118,0.011903499999999997,0.406319,0.722948,-0.0547025,-0.582901,0.874358,-0.22393249999999998,0.591319,0.870858,-0.1533525,-0.08863599999999999,-0.00029900000000000065,0.0008904999999999955,0.08863599999999999,0.00029900000000000065,-0.0008905000000000024,-0.116981,-0.390862,-0.1334025,0.125059,-0.407692,-0.10068250000000001,-0.09784599999999999,-0.787272,-0.012897500000000006,0.113869,-0.799762,0.005681499999999999
48,-0.0030269999999999993,0.7812684999999999,-0.019029500000000005,-0.18737499999999999,0.5651785,-0.006569499999999999,-0.395975,0.6911285,-0.11209150000000001,0.19015500000000002,0.5710785,0.0029124999999999984,0.40752499999999997,0.7175784999999999,-0.0639315,-0.590995,0.8578485,-0.2317215,0.598055,0.8657885000000001,-0.1647615,-0.08884700000000001,-0.00043650000000000633,0.0009774999999999992,0.08884700000000001,0.00043649999999999245,-0.0009774999999999992,-0.11718500000000001,-0.3855115,-0.1371515,0.12476500000000001,-0.4023415,-0.10435150000000001,-0.09817500000000001,-0.7805515000000001,-0.014081499999999997,0.11344499999999999,-0.7930815,0.004445499999999998
49,-0.003372999999999995,0.7800670000000001,-0.029604000000000005,-0.187329,0.563727,-0.014697000000000002,-0.396989,0.682627,-0.11830199999999999,0.189501,0.570127,-0.006029,0.408461,0.712357,-0.072702,-0.5976290000000001,0.841377,-0.237912,0.605061,0.860947,-0.175522,-0.08899599999999999,-0.0006549999999999889,0.0010290000000000021,0.08899599999999999,0.0006550000000000028,-0.0010290000000000021,-0.11748899999999998,-0.379703,-0.141402,0.12440100000000001,-0.396533,-0.108712,-0.098611,-0.774743,-0.015635000000000003,0.11294100000000001,-0.787273,0.002930000000000002
50,-0.003728000000000003,0.7784465,-0.04094350000000001,-0.18735800000000002,0.5618665,-0.023362500000000008,-0.39738799999999996,0.6730365,-0.12465550000000002,0.188932,0.5693064999999999,-0.015623500000000005,0.410792,0.7066165,-0.0828655,-0.603948,0.8212865,-0.24477549999999998,0.613212,0.8565265,-0.1881155,-0.089103,-0.0008905000000000024,0.0011554999999999968,0.089103,0.0008905000000000024,-0.0011555000000000037,-0.117808,-0.3743635,-0.1457055,0.124042,-0.3903435,-0.11346550000000001,-0.099037,-0.7684935,-0.017346500000000008,0.112422,-0.7810835,0.0007474999999999982
51,-0.0041010000000000005,0.7769625,-0.053069000000000005,-0.187367,0.5602725000000001,-0.032677,-0.397857,0.6642724999999999,-0.131506,0.188233,0.5684625,-0.025585999999999998,0.413263,0.7018825,-0.09301600000000002,-0.609727,0.8066825,-0.251196,0.621223,0.8516724999999999,-0.200516,-0.08924299999999999,-0.0010425000000000018,0.0011390000000000011,0.08924299999999999,0.0010425000000000018,-0.0011390000000000011,-0.118147,-0.3685175,-0.150286,0.12360300000000002,-0.38359750000000004,-0.11860599999999999,-0.09953300000000001,-0.7615675000000001,-0.019469,0.111813,-0.7741575,-0.001903000000000002
52,-0.004424999999999998,0.7744305,-0.0655265,-0.187313,0.5586105,-0.0420585,-0.398313,0.6568005,-0.13884649999999998,0.187517,0.5685804999999999,-0.034685499999999994,0.416227,0.6971805,-0.10353649999999999,-0.6114729999999999,0.7911605,-0.2582565,0.630327,0.8447805,-0.21393649999999997,-0.089417,-0.0012585000000000096,0.001181500000000002,0.089417,0.0012584999999999957,-0.001181500000000002,-0.11857300000000001,-0.36510950000000003,-0.15492650000000002,0.12304699999999999,-0.37848950000000003,-0.12398649999999999,-0.100083,-0.7553295,-0.0225895,0.11118700000000001,-0.7680895,-0.0057515
53,-0.00464,0.7718465,-0.078373,-0.18741,0.5570365,-0.05162800000000001,-0.39839,0.6498465,-0.14660299999999998,0.18683,0.5674065,-0.045059,0.41935999999999996,0.6929765,-0.114683,-0.61195,0.7766265,-0.265223,0.63878,0.8377965,-0.227483,-0.08962,-0.0013734999999999997,0.001112999999999996,0.08962,0.0013734999999999997,-0.0011130000000000029,-0.11896999999999999,-0.36178350000000004,-0.15985300000000002,0.12258,-0.3737535,-0.12966300000000003,-0.100624,-0.7487435,-0.026027,0.11056,-0.7618334999999999,-0.009819000000000001
54,-0.004904,0.769115,-0.09164549999999999,-0.18765800000000002,0.555245,-0.0613475,-0.398138,0.642845,-0.1548155,0.185922,0.566285,-0.0558245,0.421662,0.688545,-0.12610549999999998,-0.612508,0.7621249999999999,-0.2722355,0.646942,0.830625,-0.24183550000000004,-0.089862,-0.0015150000000000025,0.0010505000000000028,0.089862,0.0015149999999999886,-0.0010504999999999959,-0.119478,-0.35853500000000005,-0.1643755,0.121942,-0.369505,-0.1349455,-0.10123299999999999,-0.742075,-0.029705499999999996,0.109792,-0.7555350000000001,-0.013913499999999995
55,-0.005292500000000004,0.765635,-0.105044,-0.1879195,0.552865,-0.07109399999999999,-0.3986295,0.635485,-0.16323400000000002,0.1847505,0.565245,-0.06633,0.4241505,0.683555,-0.137604,-0.6176495000000001,0.7451949999999999,-0.27932399999999996,0.6526405,0.822195,-0.255144,-0.09011050000000001,-0.0016449999999999937,0.0010509999999999999,0.09011050000000001,0.0016449999999999937,-0.0010510000000000033,-0.12027950000000001,-0.352685,-0.16900400000000002,0.12137049999999999,-0.363045,-0.14003400000000002,-0.10198950000000001,-0.735895,-0.033488,0.10915049999999998,-0.749675,-0.018248
56,-0.005838499999999995,0.7623599999999999,-0.11906950000000001,-0.1881815,0.55048,-0.0812195,-0.3991215,0.6284399999999999,-0.17205949999999998,0.18352849999999998,0.56383,-0.0775795,0.4265485,0.6783300000000001,-0.14984950000000002,-0.6233915,0.7296199999999999,-0.2867995,0.6571785,0.8120400000000001,-0.2689095,-0.0904185,-0.001700000000000007,0.0009175000000000016,0.0904185,0.0016999999999999932,-0.0009174999999999982,-0.1210315,-0.34658,-0.1740295,0.1208085,-0.35617,-0.14535949999999997,-0.10285549999999999,-0.7292000000000001,-0.0374695,0.10849850000000001,-0.74346,-0.0229725
57,-0.0059975000000000046,0.75942,-0.1391815,-0.18798350000000003,0.54844,-0.0975815,-0.39936350000000004,0.62246,-0.1869415,0.18245650000000002,0.56228,-0.0950815,0.4293865,0.6736,-0.1678115,-0.6288235,0.71696,-0.3004715,0.6623964999999999,0.80192,-0.2885615,-0.0906665,-0.0017600000000000116,0.0007045000000000003,0.0906665,0.0017599999999999838,-0.0007045000000000003,-0.1213635,-0.33961,-0.1850415,0.12071649999999999,-0.34868,-0.15675150000000002,-0.10316850000000001,-0.7222900000000001,-0.0475285,0.1084065,-0.7366900000000001,-0.03386449999999999
58,-0.006141499999999999,0.756675,-0.15964599999999998,-0.18706450000000002,0.545885,-0.11472600000000001,-0.4018645,0.617545,-0.20393599999999998,0.18126550000000002,0.560335,-0.11268600000000001,0.4323555,0.669615,-0.186516,-0.6339645,0.705565,-0.318136,0.6672155,0.791245,-0.308226,-0.0908055,-0.001815000000000011,0.000542,0.0908055,0.001815000000000011,-0.0005420000000000008,-0.1217545,-0.331765,-0.199846,0.12076550000000001,-0.34148500000000004,-0.17335599999999998,-0.1038265,-0.7177450000000001,-0.062558,0.1089255,-0.7320150000000001,-0.050406
59,-0.006216499999999998,0.75424,-0.1800215,-0.1859275,0.54394,-0.1319715,-0.40416749999999996,0.61444,-0.2210415,0.1801025,0.55889,-0.1305915,0.4339425,0.66613,-0.2049415,-0.6372575,0.69787,-0.3352915,0.6715525,0.7811899999999999,-0.3281715,-0.09091250000000001,-0.0019399999999999973,0.00012850000000000014,0.09091250000000001,0.0019399999999999973,-0.00012849999999999993,-0.12224750000000001,-0.32316999999999996,-0.21586149999999998,0.12089249999999999,-0.33282999999999996,-0.1906415,-0.10466349999999999,-0.7125400000000001,-0.07876449999999999,0.1095525,-0.72652,-0.06724749999999999
60,-0.006127000000000002,0.75118,-0.1997875,-0.184591,0.54235,-0.14845750000000002,-0.40602099999999997,0.61094,-0.2381375,0.178899,0.5574399999999999,-0.1478575,0.435259,0.66137,-0.22344750000000002,-0.639161,0.68914,-0.35212750000000004,0.675629,0.77071,-0.34773750000000003,-0.090949,-0.0019900000000000195,-0.0002715000000000009,0.090949,0.0019899999999999918,0.00027149999999999917,-0.122641,-0.31485,-0.23176750000000002,0.121169,-0.32454,-0.2077275,-0.105463,-0.70736,-0.0947865,0.110209,-0.72106,-0.08374949999999999
61,-0.0058995,0.7483,-0.219427,-0.1828095,0.5401,-0.165597,-0.4077995,0.60762,-0.255407,0.1779105,0.55472,-0.166017,0.4365205,0.65664,-0.242257,-0.6421295,0.68123,-0.368637,0.6786705000000001,0.76088,-0.36705699999999997,-0.0909505,-0.0019599999999999895,-0.000616000000000002,0.0909505,0.0019600000000000173,0.0006159999999999985,-0.1230995,-0.30627,-0.247947,0.1215205,-0.31595999999999996,-0.224797,-0.1062245,-0.70174,-0.11049500000000001,0.1108605,-0.71576,-0.099852
62,-0.005406500000000003,0.7449999999999999,-0.238542,-0.18096650000000003,0.53782,-0.182472,-0.4094365,0.60433,-0.273082,0.1770835,0.5528,-0.183082,0.43760350000000003,0.65141,-0.260962,-0.6468665,0.6726399999999999,-0.385692,0.6816935000000001,0.7492300000000001,-0.386542,-0.0908935,-0.0019900000000000195,-0.0009380000000000013,0.0908935,0.0019899999999999918,0.0009379999999999944,-0.12381650000000001,-0.29696,-0.263922,0.12193349999999999,-0.30763,-0.241572,-0.1068775,-0.69635,-0.126006,0.11150349999999999,-0.71058,-0.11587
63,-0.004816499999999998,0.7411300000000001,-0.25707599999999997,-0.1791025,0.53522,-0.199046,-0.4110425,0.6011299999999999,-0.29059599999999997,0.1764475,0.55076,-0.199856,0.4381975,0.64615,-0.279626,-0.6513125000000001,0.66641,-0.403906,0.6840575,0.73819,-0.405406,-0.0908175,-0.002019999999999994,-0.0012030000000000027,0.0908175,0.002019999999999994,0.0012030000000000027,-0.12456249999999999,-0.28780000000000006,-0.27977599999999997,0.12227750000000001,-0.29874,-0.25840599999999997,-0.1069245,-0.68699,-0.136695,0.1120775,-0.70545,-0.132013
64,-0.004194500000000002,0.736605,-0.275321,-0.1772305,0.5320050000000001,-0.215371,-0.4124605,0.597765,-0.30834100000000003,0.1760795,0.548475,-0.21629099999999998,0.4387395,0.640085,-0.297841,-0.6538105000000001,0.660875,-0.42214100000000004,0.6862094999999999,0.726345,-0.42408100000000004,-0.0906695,-0.0020650000000000113,-0.0015270000000000006,0.0906695,0.0020650000000000113,0.0015270000000000006,-0.1253205,-0.278465,-0.295501,0.1224395,-0.289885,-0.275321,-0.1069785,-0.677905,-0.147903,0.11239949999999999,-0.700395,-0.147958
65,-0.0036529999999999983,0.731705,-0.2928115,-0.17532799999999998,0.529135,-0.2312015,-0.414178,0.594315,-0.3258415,0.175732,0.5450250000000001,-0.2326715,0.438882,0.634245,-0.3155915,-0.651398,0.655225,-0.44046149999999995,0.687962,0.715325,-0.4426015,-0.090552,-0.0020549999999999735,-0.0017904999999999935,0.090552,0.0020550000000000013,0.0017905000000000004,-0.126218,-0.268775,-0.3108915,0.12240200000000001,-0.280535,-0.2923215,-0.107067,-0.6689849999999999,-0.1589515,0.11288200000000001,-0.695375,-0.16413149999999999
66,-0.0033719999999999983,0.725595,-0.30416750000000004,-0.173666,0.524875,-0.2408375,-0.416206,0.590225,-0.3372575,0.175374,0.5415449999999999,-0.2425175,0.438674,0.627805,-0.3271475,-0.652946,0.650085,-0.4536875,0.688874,0.704145,-0.4550375,-0.090444,-0.0021049999999999958,-0.0020484999999999948,0.090444,0.0021050000000000235,0.0020484999999999948,-0.127446,-0.259715,-0.3200275,0.12209400000000001,-0.271375,-0.3032275,-0.10743,-0.660695,-0.1638925,0.11307400000000001,-0.6911149999999999,-0.1746475
67,-0.002953000000000006,0.71892,-0.315106,-0.172581,0.52161,-0.24979600000000002,-0.415991,0.58528,-0.347056,0.175389,0.53729,-0.252026,0.438049,0.62054,-0.338406,-0.6552709999999999,0.64415,-0.463746,0.689919,0.69408,-0.467506,-0.090419,-0.0020600000000000063,-0.002237000000000003,0.090419,0.0020600000000000063,0.002237000000000003,-0.128111,-0.25171,-0.32556599999999997,0.121509,-0.26337,-0.309126,-0.107451,-0.65296,-0.168358,0.11299899999999999,-0.68451,-0.179536
68,-0.0024490000000000015,0.711225,-0.3253765,-0.171631,0.517075,-0.2581565,-0.415771,0.578235,-0.3564565,0.175369,0.531825,-0.2606365,0.437419,0.611795,-0.3488965,-0.6579510000000001,0.633685,-0.4736965,0.690379,0.682075,-0.4787165,-0.090389,-0.0018950000000000078,-0.0022895,0.090389,0.00189499999999998,0.0022895,-0.128621,-0.244875,-0.3296465,0.12078899999999998,-0.256535,-0.3140265,-0.10750799999999999,-0.6461250000000001,-0.1720295,0.11291899999999999,-0.677675,-0.1832065
69,-0.0019414999999999988,0.7038,-0.33564099999999997,-0.1707765,0.51203,-0.266811,-0.4155365,0.5715600000000001,-0.365711,0.1756035,0.52583,-0.269711,0.4379835,0.6038399999999999,-0.358811,-0.6603965,0.62456,-0.483861,0.6911835,0.6697,-0.490041,-0.09039349999999999,-0.0017900000000000138,-0.0022119999999999918,0.09039349999999999,0.001789999999999986,0.0022120000000000056,-0.1291465,-0.23773,-0.33392099999999997,0.12011350000000001,-0.24939,-0.319071,-0.10789750000000001,-0.6403,-0.17604199999999998,0.11289350000000001,-0.67053,-0.18712099999999998
70,-0.0013199999999999983,0.696025,-0.345653,-0.170188,0.507725,-0.274743,-0.41481799999999996,0.565095,-0.374493,0.17588199999999998,0.520425,-0.278113,0.438402,0.595685,-0.368293,-0.660058,0.616085,-0.493603,0.692222,0.657405,-0.500963,-0.090322,-0.0016549999999999898,-0.002155000000000004,0.090322,0.0016549999999999898,0.0021549999999999903,-0.129558,-0.232465,-0.337903,0.119382,-0.243455,-0.324093,-0.107788,-0.631465,-0.17603000000000002,0.11220200000000001,-0.663415,-0.190693
71,-0.0007229999999999945,0.68867,-0.354983,-0.16966199999999998,0.5036,-0.282253,-0.414452,0.55845,-0.382723,0.176098,0.51511,-0.28623299999999996,0.439098,0.5877399999999999,-0.377343,-0.660072,0.60797,-0.504123,0.693328,0.64664,-0.511143,-0.09028800000000001,-0.0015199999999999936,-0.002026,0.09028800000000001,0.0015199999999999936,0.002026,-0.12995199999999998,-0.22707,-0.341853,0.118538,-0.23767,-0.32905300000000004,-0.10752999999999999,-0.62247,-0.175118,0.11102800000000002,-0.65596,-0.189403
72,-5.7499999999998525e-05,0.6822550000000001,-0.3644805,-0.1691445,0.499545,-0.2895005,-0.41430449999999996,0.5521149999999999,-0.3903805,0.1761755,0.5096849999999999,-0.2937605,0.4396255,0.579285,-0.3858905,-0.6619645,0.6008549999999999,-0.5131405,0.6942555,0.6347849999999999,-0.5205905,-0.0903455,-0.0012949999999999906,-0.001950499999999994,0.0903455,0.0012949999999999906,0.001950499999999994,-0.13074449999999999,-0.221725,-0.34532050000000003,0.11747550000000001,-0.232055,-0.33383050000000003,-0.1073435,-0.612085,-0.1737695,0.10943549999999999,-0.647055,-0.18746649999999998
73,0.0007079999999999968,0.676315,-0.3733635,-0.168533,0.496135,-0.2965135,-0.413903,0.545425,-0.3982735,0.176337,0.504115,-0.30116350000000003,0.440007,0.571425,-0.3940535,-0.6632629999999999,0.594965,-0.5225735,0.6950470000000001,0.623065,-0.5298435,-0.090257,-0.0010249999999999981,-0.0017735000000000112,0.090257,0.0010249999999999981,0.0017734999999999973,-0.130673,-0.21397500000000003,-0.3485735,0.11652699999999999,-0.224385,-0.3371635,-0.106633,-0.6021150000000001,-0.1723035,0.108037,-0.6372950000000001,-0.1861875
74,0.0012459999999999971,0.669835,-0.381917,-0.168136,0.49233499999999997,-0.303157,-0.413656,0.5383849999999999,-0.405507,0.176404,0.498985,-0.307997,0.440614,0.5628949999999999,-0.402057,-0.664366,0.587475,-0.531367,0.6958340000000001,0.6111949999999999,-0.538467,-0.090144,-0.0006150000000000322,-0.0014330000000000037,0.090144,0.0006149999999999767,0.0014330000000000037,-0.13062600000000002,-0.206625,-0.351537,0.11557399999999998,-0.21710500000000005,-0.340257,-0.106016,-0.592475,-0.17063499999999998,0.106654,-0.627935,-0.18426900000000002
75,0.0016199999999999964,0.66347,-0.389968,-0.167933,0.48821000000000003,-0.309538,-0.413783,0.53086,-0.41241799999999995,0.176537,0.49314,-0.31464800000000004,0.441017,0.5543899999999999,-0.41044800000000004,-0.6636730000000001,0.57828,-0.539108,0.697047,0.59859,-0.547228,-0.090017,-0.00015999999999999348,-0.0009359999999999924,0.090017,0.00015999999999999348,0.0009360000000000063,-0.13059300000000001,-0.19978,-0.354398,0.11470699999999999,-0.21053,-0.343318,-0.105717,-0.58525,-0.173128,0.105387,-0.61898,-0.182365
76,0.0021089999999999963,0.65621,-0.403115,-0.167518,0.48276,-0.321035,-0.413728,0.52258,-0.424195,0.176682,0.48708,-0.326315,0.441272,0.54494,-0.423585,-0.6618980000000001,0.56547,-0.551465,0.698212,0.58523,-0.560655,-0.089812,0.00018000000000001348,-0.0004549999999999971,0.089812,-0.00017999999999995797,0.0004549999999999971,-0.130638,-0.19399999999999995,-0.357505,0.113982,-0.20468999999999998,-0.348515,-0.105231,-0.57888,-0.18060700000000002,0.10441199999999999,-0.6109399999999999,-0.185497
77,0.0026235000000000043,0.648845,-0.4157,-0.1670795,0.477005,-0.33209,-0.4142995,0.514005,-0.43671,0.17699050000000002,0.480525,-0.3377,0.4408405,0.535705,-0.43631,-0.6596695,0.556775,-0.56287,0.6982505,0.5717749999999999,-0.57358,-0.08972050000000001,0.0004649999999999932,3.999999999999837e-05,0.08972050000000001,-0.0004649999999999932,-3.999999999999837e-05,-0.1306495,-0.18865500000000002,-0.36036,0.1135805,-0.19922500000000004,-0.35318,-0.10470650000000001,-0.5728949999999999,-0.18799100000000002,0.10355050000000002,-0.6031249999999999,-0.188212
78,0.003206500000000001,0.641195,-0.427545,-0.1666315,0.47091500000000003,-0.342645,-0.4148415,0.504595,-0.448435,0.1775385,0.473625,-0.348385,0.4417085,0.525715,-0.44859499999999997,-0.6569215,0.546525,-0.573955,0.6998385,0.558455,-0.5855750000000001,-0.0896485,0.0007550000000000057,0.0004549999999999971,0.0896485,-0.0007550000000000057,-0.0004549999999999971,-0.1305515,-0.184075,-0.362605,0.11347850000000001,-0.19438499999999997,-0.357125,-0.1043975,-0.569645,-0.19517400000000001,0.1027785,-0.5959650000000001,-0.19015100000000001
79,0.003843500000000003,0.6337999999999999,-0.43904999999999994,-0.16606949999999998,0.46388,-0.353,-0.4151195,0.49453,-0.46021,0.17796050000000002,0.46608,-0.35866,0.4422005,0.51562,-0.46007,-0.6537795,0.53531,-0.58478,0.7009505,0.54513,-0.59648,-0.08947050000000001,0.0010000000000000009,0.0007999999999999952,0.08947050000000001,-0.0010000000000000009,-0.0007999999999999952,-0.1304295,-0.18017,-0.36441,0.11373050000000001,-0.19028,-0.36060000000000003,-0.10396949999999999,-0.567,-0.201739,0.10243050000000001,-0.58931,-0.191998
80,0.004485999999999997,0.625035,-0.45078,-0.165393,0.456515,-0.36318000000000006,-0.415203,0.484175,-0.47172000000000003,0.178507,0.457765,-0.36896000000000007,0.442987,0.5049250000000001,-0.47100000000000003,-0.6536329999999999,0.522985,-0.59425,0.702107,0.531215,-0.60686,-0.089237,0.0012449999999999961,0.0010699999999999876,0.089237,-0.0012449999999999961,-0.0010700000000000154,-0.13017299999999998,-0.176875,-0.36615000000000003,0.11413699999999999,-0.18661499999999998,-0.36382000000000003,-0.10337400000000001,-0.5647549999999999,-0.20816300000000004,0.102847,-0.5848949999999999,-0.19808600000000004
81,0.004816000000000001,0.61556,-0.46201000000000003,-0.164935,0.44884999999999997,-0.37349,-0.41568499999999997,0.47319999999999995,-0.48319,0.178615,0.4488,-0.37931000000000004,0.443695,0.49489,-0.48223000000000005,-0.6543650000000001,0.50839,-0.60422,0.702935,0.51869,-0.61787,-0.08884500000000001,0.0015499999999999958,0.00136,0.08884500000000001,-0.0015499999999999958,-0.00136,-0.130045,-0.17536000000000002,-0.3684,0.114425,-0.18487000000000003,-0.36721000000000004,-0.102887,-0.5629500000000001,-0.214877,0.103235,-0.58204,-0.20483
82,0.0048899999999999985,0.6059399999999999,-0.473205,-0.16458399999999998,0.44087999999999994,-0.383615,-0.415844,0.46263,-0.493535,0.17863600000000002,0.43988999999999995,-0.389305,0.444276,0.48475999999999997,-0.493095,-0.6550640000000001,0.49405,-0.613435,0.7035159999999999,0.5064799999999999,-0.628425,-0.08851600000000001,0.0017999999999999683,0.0015550000000000008,0.08851600000000001,-0.0018000000000000238,-0.0015550000000000008,-0.130034,-0.17418000000000006,-0.370885,0.114646,-0.18336000000000002,-0.370645,-0.102541,-0.56128,-0.221553,0.103606,-0.5794600000000001,-0.211413
83,0.0047709999999999975,0.59718,-0.48436500000000005,-0.164385,0.43315000000000003,-0.39366500000000004,-0.415345,0.45304,-0.5038549999999999,0.178215,0.43118,-0.39905500000000005,0.444635,0.47518000000000005,-0.503565,-0.653705,0.48115,-0.6225750000000001,0.704005,0.49527,-0.638585,-0.088335,0.0018700000000000383,0.001574999999999993,0.088335,-0.0018699999999999828,-0.0015750000000000208,-0.13000499999999998,-0.17256,-0.373575,0.115195,-0.18145999999999995,-0.37424500000000005,-0.10246,-0.55935,-0.22879300000000002,0.103945,-0.57723,-0.21849300000000002
84,0.0041559999999999965,0.58908,-0.49511499999999997,-0.164468,0.42655000000000004,-0.403365,-0.415678,0.44412000000000007,-0.513705,0.177272,0.42359,-0.408415,0.444292,0.46681000000000006,-0.513505,-0.652748,0.46938,-0.631945,0.704182,0.48578000000000005,-0.648305,-0.088112,0.0018000000000000238,0.0015550000000000008,0.088112,-0.0017999999999999683,-0.0015550000000000008,-0.129918,-0.16764999999999997,-0.375965,0.116172,-0.17657999999999996,-0.377125,-0.10222700000000001,-0.55645,-0.235187,0.10433200000000001,-0.57397,-0.22486499999999998
85,0.002965999999999998,0.58119,-0.5001,-0.165084,0.42001,-0.40764,-0.41655400000000004,0.43495999999999996,-0.51794,0.17570599999999997,0.41667999999999994,-0.41241,0.44323599999999996,0.45914,-0.51773,-0.652794,0.46041999999999994,-0.63597,0.7038059999999999,0.47639,-0.65233,-0.087866,0.0015899999999999803,0.0014200000000000046,0.087866,-0.0015900000000000358,-0.0014200000000000046,-0.130104,-0.16347000000000006,-0.3771,0.117486,-0.17287000000000002,-0.37819,-0.102395,-0.5534100000000001,-0.236042,0.104416,-0.57048,-0.225415
86,0.001734000000000003,0.574535,-0.50502,-0.16570000000000001,0.41475,-0.41186999999999996,-0.4178,0.426865,-0.52078,0.17391,0.411049,-0.41648,0.44155,0.45255500000000004,-0.5217,-0.6529200000000001,0.451265,-0.64,0.70268,0.468555,-0.65612,-0.08753,0.001475000000000004,0.0012999999999999956,0.08753,-0.001475000000000004,-0.0012999999999999956,-0.13036999999999999,-0.15907500000000002,-0.37824,0.11920999999999998,-0.168945,-0.37923,-0.102606,-0.550065,-0.237024,0.10436999999999999,-0.5663549999999999,-0.225825
87,0.0004615000000000001,0.567895,-0.509805,-0.1663995,0.409782,-0.415825,-0.4193395,0.419811,-0.524055,0.1718905,0.40563,-0.420455,0.4394705,0.446745,-0.525515,-0.6531595,0.442835,-0.643795,0.7009405,0.461625,-0.659705,-0.0871005,0.0014049999999999896,0.0011750000000000094,0.0871005,-0.0014049999999999896,-0.0011750000000000094,-0.1307395,-0.15536499999999998,-0.379355,0.1211905,-0.164715,-0.380235,-0.1028925,-0.545755,-0.23806300000000002,0.1043405,-0.561045,-0.226611
88,-0.0009359999999999993,0.56253,-0.51441,-0.167273,0.406456,-0.41957,-0.421533,0.413601,-0.52721,0.169707,0.40179299999999996,-0.42434,0.437797,0.44214,-0.52928,-0.653373,0.43540999999999996,-0.6476299999999999,0.699407,0.45561999999999997,-0.66315,-0.086927,0.0011299999999999644,0.0010199999999999931,0.086927,-0.0011300000000000199,-0.0010199999999999931,-0.131933,-0.15189000000000002,-0.38078,0.123167,-0.16052000000000005,-0.38163,-0.10350000000000001,-0.54047,-0.239062,0.10413700000000001,-0.55528,-0.227243
89,-0.002378999999999999,0.55796,-0.518645,-0.168189,0.403404,-0.423035,-0.424239,0.40764300000000003,-0.531145,0.167431,0.398506,-0.427945,0.436041,0.43814000000000003,-0.532965,-0.654359,0.427357,-0.6518349999999999,0.698021,0.45012,-0.666285,-0.086751,0.0009200000000000319,0.0009149999999999991,0.086751,-0.0009199999999999764,-0.0009149999999999991,-0.133379,-0.14855999999999997,-0.382165,0.124951,-0.15628999999999998,-0.382925,-0.10422599999999999,-0.5352399999999999,-0.23988,0.10384099999999999,-0.54966,-0.22804000000000002
90,-0.0037049999999999982,0.5531200000000001,-0.522465,-0.169103,0.399843,-0.426025,-0.427153,0.402488,-0.534995,0.165387,0.39577,-0.43108500000000005,0.434797,0.43376000000000003,-0.536005,-0.654373,0.42109800000000003,-0.655555,0.697017,0.44421,-0.668185,-0.086567,0.0005499999999999949,0.0008150000000000102,0.086567,-0.0005499999999999949,-0.0008150000000000102,-0.135093,-0.14560999999999996,-0.383405,0.126757,-0.15232,-0.384075,-0.104937,-0.53035,-0.24034,0.10355700000000001,-0.5443399999999999,-0.228313
91,-0.004990999999999994,0.54888,-0.525715,-0.170098,0.396839,-0.428615,-0.429548,0.397795,-0.5388550000000001,0.163272,0.393529,-0.433995,0.433482,0.429686,-0.538705,-0.654558,0.413961,-0.659015,0.695382,0.43822,-0.669675,-0.086382,0.000130000000000019,0.0007049999999999834,0.086382,-0.000130000000000019,-0.0007050000000000112,-0.137098,-0.14222,-0.384745,0.128442,-0.14822999999999997,-0.385285,-0.10574099999999999,-0.52529,-0.240649,0.103062,-0.53931,-0.22846300000000003
92,-0.0061380000000000046,0.54474,-0.528535,-0.171027,0.393821,-0.430825,-0.431507,0.392961,-0.542535,0.161493,0.391123,-0.43649499999999997,0.43228300000000003,0.425842,-0.540635,-0.655077,0.407433,-0.661945,0.693813,0.43202799999999997,-0.670555,-0.08619299999999999,-0.00028000000000000247,0.0006850000000000189,0.08619299999999999,0.00028000000000000247,-0.0006849999999999912,-0.139207,-0.139,-0.38593500000000003,0.130043,-0.14443,-0.38632500000000003,-0.10656299999999999,-0.5205500000000001,-0.24085499999999999,0.10226299999999999,-0.5352300000000001,-0.22853099999999998
93,-0.006891999999999997,0.5405549999999999,-0.5309699999999999,-0.171778,0.390748,-0.43274,-0.434188,0.38824099999999995,-0.5463199999999999,0.160162,0.38829499999999995,-0.43889,0.430952,0.421268,-0.54098,-0.655968,0.39995499999999995,-0.6643399999999999,0.692252,0.425743,-0.6709099999999999,-0.086022,-0.0005150000000000432,0.0006500000000000117,0.086022,0.0005149999999999877,-0.0006500000000000117,-0.141238,-0.13623500000000005,-0.38698,0.131692,-0.14121500000000003,-0.38727,-0.107207,-0.5163150000000001,-0.24110399999999998,0.101762,-0.531505,-0.228564
94,-0.007328999999999999,0.53713,-0.533135,-0.17225,0.38838,-0.43422499999999997,-0.43695,0.384817,-0.549975,0.15927,0.386094,-0.44103499999999995,0.43011,0.417171,-0.542045,-0.65682,0.393449,-0.666785,0.69046,0.420335,-0.671505,-0.08589,-0.0006099999999999994,0.0005549999999999999,0.08589,0.0006099999999999994,-0.0005549999999999999,-0.14326,-0.13327,-0.387695,0.13332,-0.13774999999999998,-0.387995,-0.10768900000000001,-0.5119800000000001,-0.24143399999999998,0.10142999999999999,-0.5276399999999999,-0.228811
95,-0.007512000000000001,0.533375,-0.53493,-0.172454,0.385482,-0.43555,-0.439394,0.381502,-0.55364,0.158926,0.383647,-0.44285,0.429936,0.41250400000000004,-0.54384,-0.657304,0.387703,-0.6692,0.689056,0.414729,-0.67212,-0.085776,-0.0006950000000000012,0.0004300000000000137,0.085776,0.0006950000000000012,-0.00042999999999998595,-0.14505400000000002,-0.13054499999999997,-0.38833,0.13491599999999998,-0.134685,-0.38863000000000003,-0.108152,-0.5077750000000001,-0.24175,0.101376,-0.5238749999999999,-0.229111
96,-0.0074484999999999985,0.530335,-0.536355,-0.1724005,0.382957,-0.436755,-0.4414405,0.37812599999999996,-0.556875,0.15896949999999999,0.381401,-0.444355,0.4300095,0.40700499999999995,-0.5454950000000001,-0.6568505,0.38226899999999997,-0.6715450000000001,0.6877495,0.40881599999999996,-0.672585,-0.08575949999999999,-0.0008150000000000102,0.00026499999999998747,0.08575949999999999,0.0008149999999999546,-0.0002650000000000152,-0.1467405,-0.12776500000000002,-0.389025,0.13656949999999998,-0.13190500000000005,-0.38915500000000003,-0.1083675,-0.5046050000000001,-0.24209600000000003,0.10162950000000001,-0.520655,-0.22964900000000002
97,-0.007305499999999998,0.527215,-0.5374,-0.1722855,0.380512,-0.43775,-0.4418955,0.375769,-0.5596,0.1590045,0.379091,-0.44569000000000003,0.4300845,0.401739,-0.54698,-0.6560755,0.377571,-0.67357,0.6865045000000001,0.403573,-0.6733100000000001,-0.0857545,-0.0008650000000000047,0.00018999999999999573,0.0857545,0.0008650000000000047,-0.00018999999999999573,-0.14850549999999998,-0.12490499999999999,-0.38980000000000004,0.1383645,-0.12904500000000002,-0.38977,-0.1085505,-0.501425,-0.24253,0.10194450000000001,-0.517255,-0.230194
98,-0.007069000000000002,0.524795,-0.53818,-0.17216800000000002,0.37817,-0.43867,-0.44183799999999995,0.37417,-0.56074,0.159022,0.37690599999999996,-0.44677,0.43082200000000004,0.397015,-0.54787,-0.6554180000000001,0.37533299999999997,-0.67525,0.685192,0.399128,-0.67368,-0.085752,-0.0009750000000000036,0.00010000000000001674,0.085752,0.0009750000000000036,-9.999999999998899e-05,-0.150348,-0.122195,-0.39064,0.140182,-0.12633500000000003,-0.39042,-0.108529,-0.49844499999999997,-0.24301599999999998,0.102242,-0.513995,-0.23084499999999997
99,-0.0066630000000000005,0.5234,-0.53902,-0.171905,0.377147,-0.43952,-0.44170499999999996,0.373151,-0.56162,0.159165,0.375178,-0.44784999999999997,0.431585,0.393637,-0.54869,-0.654615,0.373424,-0.67686,0.684275,0.395632,-0.67396,-0.08565500000000001,-0.0009100000000000219,-1.9999999999992246e-05,0.08565500000000001,0.0009099999999999664,1.9999999999992246e-05,-0.152015,-0.11963000000000001,-0.39149999999999996,0.14185499999999998,-0.12411,-0.3912,-0.10841400000000001,-0.49560000000000004,-0.24388300000000002,0.10255500000000001,-0.51163,-0.232176
100,-0.005840500000000002,0.522155,-0.53991,-0.1713155,0.37618,-0.44042000000000003,-0.4412755,0.372276,-0.56253,0.1595845,0.373296,-0.44876,0.4328245,0.39059,-0.54927,-0.6532955,0.373421,-0.6785300000000001,0.6846145,0.392948,-0.67401,-0.0855545,-0.0007550000000000057,-0.00012000000000000899,0.0855545,0.0007550000000000057,0.00011999999999998123,-0.15336550000000002,-0.11754499999999996,-0.39235000000000003,0.1434745,-0.12235499999999999,-0.39171,-0.10804749999999999,-0.49319499999999994,-0.24483000000000002,0.1030945,-0.509725,-0.233524
101,-0.0046949999999999995,0.521095,-0.540675,-0.170558,0.375379,-0.44127500000000003,-0.439328,0.37115,-0.5633250000000001,0.160142,0.372101,-0.449625,0.434202,0.387345,-0.549575,-0.652118,0.373167,-0.679325,0.685142,0.390579,-0.673745,-0.085452,-0.0006349999999999967,-0.00029500000000001747,0.085452,0.0006349999999999967,0.0002949999999999897,-0.154448,-0.11582500000000001,-0.392925,0.144862,-0.12100500000000003,-0.392095,-0.107614,-0.49110499999999996,-0.24575600000000003,0.103782,-0.5084550000000001,-0.23469300000000004
102,-0.0033964999999999967,0.52061,-0.5408949999999999,-0.1697055,0.374905,-0.44204499999999997,-0.4371155,0.37077,-0.564095,0.1608245,0.371484,-0.45046499999999995,0.4355145,0.385109,-0.549495,-0.6509455,0.375041,-0.680145,0.6856645,0.388687,-0.673465,-0.0853545,-0.0005399999999999849,-0.0004549999999999832,0.0853545,0.0005399999999999849,0.00045500000000001095,-0.1552755,-0.11365999999999998,-0.39346499999999995,0.1461245,-0.11964999999999998,-0.392335,-0.1072105,-0.48882000000000003,-0.24662699999999999,0.1044945,-0.50623,-0.23558399999999996
103,-0.0020035,0.520475,-0.54082,-0.1688085,0.374624,-0.4426,-0.4346485,0.37053400000000003,-0.56463,0.16157149999999998,0.370664,-0.45125000000000004,0.4368415,0.383021,-0.54924,-0.6496485,0.376649,-0.68168,0.6857015,0.38707800000000003,-0.67301,-0.08528150000000001,-0.0003549999999999942,-0.0005499999999999949,0.08528150000000001,0.0003549999999999942,0.0005499999999999949,-0.1557985,-0.111925,-0.39392,0.1473015,-0.11860500000000002,-0.39243,-0.1067745,-0.48703499999999994,-0.247565,0.10518150000000001,-0.504335,-0.236161
104,-0.0004910000000000019,0.52037,-0.54077,-0.167772,0.374531,-0.44335,-0.43177200000000004,0.370501,-0.56513,0.16247799999999998,0.36967,-0.45196000000000003,0.438748,0.381442,-0.54898,-0.6482519999999999,0.378267,-0.68188,0.685608,0.385626,-0.67249,-0.085202,-0.00015999999999999348,-0.0006300000000000194,0.085202,0.00015999999999999348,0.0006299999999999917,-0.15604200000000001,-0.11042999999999997,-0.39435,0.148638,-0.11770999999999998,-0.3925,-0.106216,-0.48547,-0.248691,0.10589799999999999,-0.50271,-0.23678300000000002
105,0.0009905,0.51999,-0.54071,-0.1667405,0.37421000000000004,-0.4442,-0.4285905,0.370332,-0.56549,0.16333950000000003,0.368693,-0.45250999999999997,0.4404095,0.380711,-0.54847,-0.6473405,0.379668,-0.68296,0.6853695,0.384291,-0.6720299999999999,-0.0851555,2.0000000000020002e-05,-0.0006599999999999939,0.0851555,-1.999999999996449e-05,0.0006600000000000217,-0.15614050000000002,-0.10935999999999996,-0.39466,0.1500595,-0.11719999999999997,-0.39250999999999997,-0.1057375,-0.48432,-0.24992799999999998,0.1069095,-0.5015,-0.237842
106,0.002577999999999997,0.519595,-0.5406,-0.165595,0.373794,-0.44516999999999995,-0.425165,0.370109,-0.56585,0.164305,0.367768,-0.45304,0.442215,0.37998,-0.54822,-0.646115,0.380848,-0.68414,0.685855,0.38271,-0.67096,-0.085119,0.00018499999999999073,-0.0006700000000000039,0.085119,-0.00018499999999999073,0.0006700000000000039,-0.156025,-0.108485,-0.39490000000000003,0.151425,-0.11676500000000001,-0.39244999999999997,-0.10523,-0.48354500000000006,-0.250959,0.10814499999999999,-0.5004249999999999,-0.23876599999999998
107,0.004127499999999996,0.519185,-0.54052,-0.16443649999999999,0.373357,-0.44616999999999996,-0.4216765,0.36984,-0.56626,0.16518349999999998,0.366788,-0.45347,0.4435835,0.379034,-0.54816,-0.6436265,0.381818,-0.6852400000000001,0.6852135,0.381134,-0.66931,-0.0850925,0.0003549999999999942,-0.0006799999999999862,0.0850925,-0.0003549999999999942,0.0006800000000000139,-0.15570650000000003,-0.10764499999999999,-0.39517,0.1527735,-0.11645500000000003,-0.39242,-0.1045505,-0.483055,-0.252177,0.10939349999999999,-0.499065,-0.23999299999999998
108,0.005435999999999996,0.518815,-0.54047,-0.16350800000000001,0.37279500000000004,-0.4471,-0.418378,0.369389,-0.56652,0.165912,0.366078,-0.45387,0.44472199999999995,0.37841500000000006,-0.5495099999999999,-0.640048,0.38259200000000004,-0.6858500000000001,0.686782,0.37955200000000006,-0.66873,-0.085088,0.0004650000000000487,-0.0006800000000000139,0.085088,-0.0004649999999999932,0.0006799999999999862,-0.155518,-0.10705499999999996,-0.39535000000000003,0.153952,-0.11616499999999996,-0.39236000000000004,-0.104023,-0.48299499999999995,-0.253784,0.110482,-0.49816499999999997,-0.24142600000000003
109,0.006634499999999998,0.51874,-0.54037,-0.16266150000000001,0.372549,-0.44801,-0.41514150000000005,0.36902,-0.56673,0.16662849999999998,0.36578700000000003,-0.45426,0.4457185,0.378102,-0.5499,-0.6393315,0.38419800000000004,-0.68675,0.6869584999999999,0.378494,-0.66647,-0.0850885,0.0005499999999999949,-0.0006800000000000139,0.0850885,-0.0005499999999999949,0.0006799999999999862,-0.1553115,-0.10646,-0.39544,0.1551885,-0.11580999999999997,-0.39233,-0.1035575,-0.483,-0.25532,0.11151849999999999,-0.49727999999999994,-0.24273000000000003
110,0.007667999999999998,0.51899,-0.5401849999999999,-0.161895,0.37244199999999994,-0.448825,-0.413025,0.36919399999999997,-0.567415,0.167195,0.36593999999999993,-0.454475,0.446445,0.378453,-0.5499149999999999,-0.6353150000000001,0.38523999999999997,-0.686475,0.687065,0.37777599999999995,-0.664405,-0.085086,0.0006299999999999639,-0.0006649999999999989,0.085086,-0.0006300000000000194,0.0006649999999999989,-0.155255,-0.10589000000000004,-0.395575,0.156385,-0.11535000000000006,-0.392205,-0.103158,-0.4831500000000001,-0.256789,0.112375,-0.49662000000000006,-0.244059
111,0.008533000000000006,0.51917,-0.5400050000000001,-0.16127,0.37239700000000003,-0.449395,-0.41144000000000003,0.36937400000000004,-0.568165,0.16763,0.36612,-0.454635,0.44708000000000003,0.37863300000000005,-0.550095,-0.6312,0.385072,-0.685905,0.68784,0.377578,-0.6624950000000001,-0.085077,0.0006700000000000039,-0.0006950000000000012,0.085077,-0.0006699999999999484,0.0006950000000000012,-0.15538,-0.10590999999999995,-0.395735,0.15735000000000002,-0.11524000000000001,-0.392075,-0.10270499999999999,-0.48341999999999996,-0.258463,0.11292,-0.4965299999999999,-0.245427
112,0.0093425,0.519325,-0.53954,-0.1606725,0.37255200000000005,-0.44972999999999996,-0.41004250000000003,0.36952900000000005,-0.56873,0.16817749999999998,0.366275,-0.45454000000000006,0.44758749999999997,0.37878800000000007,-0.54952,-0.6270825,0.38522700000000004,-0.68525,0.6887274999999999,0.37773300000000004,-0.66043,-0.0850745,0.0006750000000000367,-0.0007500000000000007,0.0850745,-0.0006749999999999812,0.0007500000000000007,-0.15549249999999998,-0.10575499999999993,-0.39582,0.15822750000000002,-0.11508499999999999,-0.39185000000000003,-0.1023565,-0.48355499999999996,-0.26005500000000004,0.1134775,-0.4963749999999999,-0.246867
113,0.009878500000000002,0.51941,-0.538535,-0.1602785,0.37263700000000005,-0.449645,-0.40923849999999995,0.36961400000000005,-0.568925,0.1686315,0.36636,-0.45421500000000004,0.44761150000000005,0.37887300000000007,-0.548665,-0.6231085000000001,0.38531200000000004,-0.683095,0.6893914999999999,0.37781800000000004,-0.658245,-0.08509549999999999,0.0006400000000000294,-0.0007750000000000257,0.08509549999999999,-0.0006399999999999739,0.0007749999999999979,-0.1558185,-0.10566999999999993,-0.395775,0.1588815,-0.11499999999999999,-0.39166500000000004,-0.10223850000000001,-0.48368,-0.261361,0.11379149999999999,-0.4962899999999999,-0.248087
114,0.01029,0.5197,-0.537145,-0.160014,0.372667,-0.44918499999999995,-0.408854,0.36965200000000004,-0.568855,0.169076,0.366535,-0.453545,0.447916,0.37911300000000003,-0.547665,-0.6191639999999999,0.38608200000000004,-0.680575,0.689706,0.377848,-0.656255,-0.085095,0.0006099999999999994,-0.0008350000000000024,0.085095,-0.0006099999999999994,0.0008350000000000024,-0.15617399999999998,-0.10544999999999999,-0.395775,0.159506,-0.11483999999999994,-0.391435,-0.10222799999999999,-0.48373999999999995,-0.262115,0.11410600000000001,-0.49634,-0.248854
115,0.010688,0.520705,-0.5354,-0.159774,0.373194,-0.44819,-0.408624,0.370014,-0.56841,0.16966599999999998,0.36729300000000004,-0.45244999999999996,0.448216,0.379803,-0.54634,-0.615244,0.38683300000000004,-0.67738,0.6896359999999999,0.37804000000000004,-0.65483,-0.08509,0.0006450000000000067,-0.0009299999999999864,0.08509,-0.0006450000000000067,0.0009300000000000141,-0.156174,-0.10528499999999996,-0.39585,0.160406,-0.11472499999999997,-0.39122,-0.10220499999999999,-0.48377499999999996,-0.26258899999999996,0.114486,-0.49636499999999995,-0.24943499999999996
116,0.011083500000000007,0.522285,-0.53338,-0.15954149999999998,0.374228,-0.44692000000000004,-0.4084115,0.370656,-0.5676000000000001,0.1704485,0.36878500000000003,-0.45122,0.4483085,0.381173,-0.54457,-0.6108815000000001,0.387972,-0.67468,0.6896184999999999,0.37916,-0.65378,-0.08508450000000001,0.0006950000000000012,-0.0010400000000000131,0.08508450000000001,-0.0006950000000000012,0.0010399999999999854,-0.1561715,-0.105155,-0.39594,0.16127850000000002,-0.11463500000000004,-0.39101,-0.1021945,-0.48384499999999997,-0.262803,0.1148785,-0.496285,-0.24980700000000003
117,0.011501499999999998,0.5248,-0.530925,-0.1593115,0.375716,-0.44543499999999997,-0.4084315,0.372045,-0.566345,0.1714185,0.371068,-0.449685,0.4484385,0.383303,-0.5427649999999999,-0.6081215,0.390228,-0.671575,0.6902585,0.381183,-0.652675,-0.0851305,0.0006900000000000239,-0.0011349999999999971,0.0851305,-0.0006899999999999684,0.0011349999999999971,-0.1562115,-0.10519,-0.396045,0.1618585,-0.11446999999999996,-0.390935,-0.1021705,-0.48346999999999996,-0.262884,0.1150785,-0.49604000000000004,-0.250206
118,0.011456000000000001,0.52818,-0.5283899999999999,-0.15956499999999998,0.377556,-0.44369,-0.408935,0.373789,-0.56499,0.17208500000000002,0.374152,-0.44769,0.448185,0.386431,-0.54059,-0.608625,0.392847,-0.6704399999999999,0.6922349999999999,0.384643,-0.65204,-0.085177,0.0005399999999999849,-0.0012199999999999989,0.085177,-0.0005399999999999849,0.0012199999999999989,-0.156545,-0.10519,-0.39615,0.161695,-0.11426999999999998,-0.39085,-0.10219900000000001,-0.48344,-0.263121,0.11510500000000001,-0.49617999999999995,-0.250452
119,0.0111565,0.53378,-0.52481,-0.16003849999999997,0.38194100000000003,-0.44101999999999997,-0.4096285,0.377628,-0.5624899999999999,0.17267149999999998,0.378827,-0.44503000000000004,0.4477915,0.39160000000000006,-0.53765,-0.6121084999999999,0.39811,-0.6697299999999999,0.6945915,0.38997000000000004,-0.6507999999999999,-0.0852295,0.00048000000000003595,-0.0012199999999999989,0.0852295,-0.00047999999999998044,0.0012199999999999989,-0.15743849999999998,-0.10494999999999993,-0.39619,0.16135149999999998,-0.11410999999999993,-0.39087,-0.1023665,-0.4825299999999999,-0.262787,0.1149215,-0.49527,-0.25005299999999997
120,0.010749500000000006,0.54029,-0.52108,-0.1605485,0.38705100000000003,-0.43857999999999997,-0.41041849999999996,0.38224600000000003,-0.5600799999999999,0.1732915,0.384296,-0.44204,0.4474615,0.397577,-0.53428,-0.6147485,0.40392,-0.6683699999999999,0.6966315,0.39642,-0.64899,-0.08530650000000001,0.00043999999999999595,-0.0012299999999999811,0.08530650000000001,-0.00043999999999999595,0.0012300000000000089,-0.1582585,-0.10463999999999996,-0.39624,0.1609715,-0.11401999999999995,-0.39088999999999996,-0.1025075,-0.48179,-0.262509,0.11467150000000001,-0.49428999999999995,-0.24926299999999998
121,0.010159999999999999,0.54766,-0.5171250000000001,-0.161197,0.393025,-0.435955,-0.411367,0.388164,-0.557435,0.173673,0.390639,-0.43884500000000004,0.447173,0.404713,-0.531045,-0.618357,0.411428,-0.6670849999999999,0.698463,0.404324,-0.646355,-0.08541399999999999,0.00039000000000000146,-0.0012349999999999861,0.08541399999999999,-0.00039000000000000146,0.0012350000000000139,-0.159077,-0.10442000000000001,-0.396275,0.160443,-0.11384,-0.390915,-0.10275200000000001,-0.48070999999999997,-0.262645,0.114143,-0.49324,-0.24848399999999998
122,0.009254500000000002,0.555445,-0.50888,-0.1621755,0.398743,-0.42944,-0.41266549999999996,0.394238,-0.5509,0.1736945,0.396475,-0.43171,0.4468245,0.412236,-0.52384,-0.6199855000000001,0.418115,-0.66229,0.7004045,0.412485,-0.6396,-0.08563950000000001,0.0003549999999999942,-0.0013299999999999979,0.08563950000000001,-0.0003549999999999942,0.0013299999999999979,-0.1596355,-0.10511500000000001,-0.39642,0.15974449999999998,-0.11469499999999999,-0.3912,-0.1031685,-0.48088499999999995,-0.258963,0.11345450000000001,-0.49328500000000003,-0.244169
123,0.00799,0.563475,-0.499695,-0.163365,0.405076,-0.422555,-0.414105,0.40100399999999997,-0.5441549999999999,0.173485,0.402577,-0.424385,0.446385,0.420588,-0.516315,-0.623565,0.425212,-0.657145,0.701945,0.421398,-0.631945,-0.085873,0.0002949999999999897,-0.001365000000000005,0.085873,-0.0002949999999999897,0.001365000000000005,-0.160245,-0.10602499999999998,-0.39624499999999996,0.158885,-0.11579499999999998,-0.391555,-0.10375899999999999,-0.481085,-0.254734,0.112655,-0.493795,-0.23979999999999999
124,0.0066265000000000004,0.572095,-0.49019500000000005,-0.1646075,0.41170500000000004,-0.415535,-0.4155775,0.408532,-0.537355,0.1731225,0.410073,-0.41657500000000003,0.4459425,0.43025100000000005,-0.508345,-0.6246175,0.43327800000000005,-0.651645,0.7035024999999999,0.43133600000000005,-0.623265,-0.0860495,0.0002750000000000252,-0.0013150000000000106,0.0860495,-0.0002749999999999697,0.0013150000000000106,-0.1609575,-0.10738499999999995,-0.395865,0.15794249999999999,-0.11732499999999996,-0.391815,-0.1043515,-0.481815,-0.250389,0.1117725,-0.494645,-0.235292
125,0.005260999999999998,0.58177,-0.48044,-0.165861,0.418818,-0.40797,-0.417161,0.41702,-0.5299499999999999,0.172679,0.41829700000000003,-0.40791999999999995,0.446149,0.44125200000000003,-0.49977,-0.628221,0.44208200000000003,-0.64589,0.705289,0.443672,-0.6145499999999999,-0.08621899999999999,0.000270000000000048,-0.0011699999999999766,0.08621899999999999,-0.00026999999999999247,0.0011700000000000044,-0.16190100000000002,-0.10865999999999998,-0.39478,0.156809,-0.11920999999999998,-0.3913,-0.10495499999999999,-0.48268999999999995,-0.245577,0.11094899999999999,-0.49590999999999996,-0.23061399999999999
126,0.003971000000000006,0.59196,-0.470045,-0.167037,0.427024,-0.39980499999999997,-0.41867699999999997,0.425962,-0.522655,0.172083,0.427143,-0.398645,0.446233,0.453114,-0.490375,-0.632417,0.45083700000000004,-0.639965,0.706793,0.456735,-0.605475,-0.086333,0.00023000000000000798,-0.0009349999999999914,0.086333,-0.00023000000000000798,0.0009350000000000191,-0.16285699999999997,-0.10999999999999999,-0.393185,0.155503,-0.12112999999999996,-0.39048499999999997,-0.10577,-0.4839,-0.24061499999999997,0.11022300000000002,-0.49751,-0.22589599999999999
127,0.0026464999999999995,0.601535,-0.45938,-0.1681125,0.434408,-0.39136000000000004,-0.4201825,0.43440600000000007,-0.51479,0.1715975,0.435553,-0.38926,0.4465075,0.46479600000000004,-0.48061,-0.6366725,0.45951500000000006,-0.63423,0.7080975,0.470071,-0.59587,-0.0865175,6.500000000003725e-05,-0.0007000000000000062,0.0865175,-6.499999999998174e-05,0.0007000000000000062,-0.1637625,-0.11189499999999997,-0.39088,0.15488749999999998,-0.12304499999999996,-0.38914000000000004,-0.10665150000000001,-0.486405,-0.23541800000000002,0.10959749999999999,-0.500195,-0.22099000000000002
128,0.0007330000000000045,0.6103799999999999,-0.44874500000000006,-0.16971399999999998,0.440409,-0.38278500000000004,-0.422984,0.442735,-0.507335,0.17056600000000002,0.44326899999999997,-0.379725,0.446386,0.47596,-0.470445,-0.641824,0.467622,-0.628085,0.7091160000000001,0.48323,-0.585355,-0.086806,-0.00020000000000003348,-0.0004649999999999932,0.086806,0.00019999999999997797,0.0004649999999999932,-0.16522399999999998,-0.11498000000000003,-0.38809499999999997,0.15413600000000002,-0.126,-0.387985,-0.10796800000000001,-0.49015,-0.230106,0.10852600000000001,-0.50412,-0.215953
129,-0.0017140000000000002,0.618955,-0.43759000000000003,-0.171624,0.446039,-0.37373,-0.426164,0.45085200000000003,-0.49943000000000004,0.169216,0.45055100000000003,-0.37026000000000003,0.445966,0.48623500000000003,-0.46038,-0.6480239999999999,0.475825,-0.62153,0.7098760000000001,0.495915,-0.57483,-0.087056,-0.0004250000000000087,-0.00020000000000000573,0.087056,0.0004250000000000087,0.00020000000000000573,-0.166984,-0.11887500000000001,-0.38503,0.153496,-0.12972499999999998,-0.38656999999999997,-0.109486,-0.49449499999999996,-0.2248,0.107266,-0.508885,-0.210806
130,-0.004466999999999999,0.62807,-0.42602,-0.173711,0.451875,-0.36423,-0.429411,0.45848700000000003,-0.49099,0.167649,0.458255,-0.36068,0.445269,0.49675,-0.4501,-0.651051,0.48295000000000005,-0.61453,0.710249,0.5080600000000001,-0.56437,-0.087259,-0.0006799999999999584,6.0000000000004494e-05,0.087259,0.0006800000000000139,-5.999999999997674e-05,-0.169291,-0.12374999999999997,-0.38177,0.152709,-0.13448,-0.38483999999999996,-0.11132,-0.4990899999999999,-0.219356,0.105799,-0.51394,-0.20572999999999997
131,-0.007268999999999996,0.63644,-0.41920500000000005,-0.17578899999999997,0.45716,-0.35867499999999997,-0.432699,0.46562,-0.48626499999999995,0.166091,0.46585,-0.355225,0.444351,0.50608,-0.443635,-0.6540790000000001,0.49049,-0.610815,0.710221,0.51951,-0.558265,-0.087421,-0.0011300000000000199,0.00033500000000000196,0.087421,0.0011300000000000199,-0.00033500000000000196,-0.171489,-0.12947999999999998,-0.380595,0.15346100000000001,-0.13833,-0.383525,-0.11330699999999999,-0.50421,-0.218248,0.10618100000000001,-0.5222199999999999,-0.211592
132,-0.010320499999999996,0.644925,-0.41252,-0.1777865,0.46188500000000005,-0.3529,-0.4361065,0.47236500000000003,-0.48107,0.1644835,0.47302500000000003,-0.3496,0.4434235,0.5145550000000001,-0.43706,-0.6571865,0.4973850000000001,-0.60638,0.7098135,0.5296850000000001,-0.55214,-0.0875735,-0.001664999999999972,0.0005499999999999949,0.0875735,0.0016650000000000276,-0.0005499999999999949,-0.1739565,-0.13567499999999993,-0.37927,0.1550635,-0.14285499999999995,-0.382,-0.11543149999999999,-0.509945,-0.21685100000000002,0.10584350000000001,-0.5285749999999999,-0.211037
133,-0.013409500000000005,0.65299,-0.405825,-0.1797455,0.46636,-0.34691500000000003,-0.4379455,0.47882,-0.47564500000000004,0.1628745,0.47867000000000004,-0.344115,0.4424045,0.5218700000000001,-0.430645,-0.6591955,0.5047,-0.600455,0.7089044999999999,0.53904,-0.5465150000000001,-0.0877545,-0.0020499999999999963,0.0008249999999999924,0.0877545,0.0020499999999999963,-0.0008250000000000202,-0.1768855,-0.14182,-0.377805,0.1573345,-0.14788999999999997,-0.38027500000000003,-0.11765850000000001,-0.51615,-0.21533800000000003,0.1056645,-0.53536,-0.211159
134,-0.0162735,0.65899,-0.39871999999999996,-0.1816445,0.46913000000000005,-0.34073,-0.4403945,0.48299000000000003,-0.46997999999999995,0.16127550000000002,0.48196000000000006,-0.33871,0.44064549999999997,0.52602,-0.42437,-0.6613045000000001,0.50921,-0.5939,0.7072554999999999,0.54476,-0.54061,-0.0879555,-0.0025099999999999567,0.0009500000000000064,0.0879555,0.0025100000000000122,-0.0009500000000000064,-0.1791645,-0.14864999999999995,-0.37412999999999996,0.15927550000000001,-0.15339999999999998,-0.3775,-0.1200735,-0.52415,-0.2141,0.1066155,-0.5458999999999999,-0.216442
135,-0.018866,0.66466,-0.391605,-0.183593,0.47148999999999996,-0.334375,-0.443643,0.48699000000000003,-0.463615,0.15956700000000001,0.48558,-0.333295,0.43871699999999997,0.5298,-0.418395,-0.664773,0.5132,-0.587045,0.705337,0.54983,-0.534945,-0.088187,-0.003060000000000007,0.0009649999999999936,0.088187,0.003060000000000007,-0.0009649999999999936,-0.18107299999999998,-0.15544000000000002,-0.370305,0.16141699999999998,-0.15886,-0.37416499999999997,-0.122637,-0.53211,-0.21282099999999998,0.107527,-0.55641,-0.221391
136,-0.021079,0.6707749999999999,-0.38449500000000003,-0.185513,0.47400499999999995,-0.327975,-0.446673,0.491475,-0.45623500000000006,0.15808699999999998,0.48882499999999995,-0.327745,0.436837,0.5330649999999999,-0.41244500000000006,-0.6679529999999999,0.5167149999999999,-0.579535,0.703477,0.553705,-0.529555,-0.088287,-0.0034250000000000114,0.0010050000000000059,0.088287,0.003424999999999956,-0.0010050000000000059,-0.182703,-0.162395,-0.366275,0.163597,-0.16436500000000004,-0.37072499999999997,-0.12512800000000002,-0.540205,-0.211622,0.10843699999999999,-0.566955,-0.226136
137,-0.022261999999999994,0.677305,-0.37666,-0.186643,0.47721499999999994,-0.32108000000000003,-0.448773,0.495025,-0.44866,0.15754700000000002,0.493035,-0.32169000000000003,0.435817,0.536295,-0.40637,-0.669373,0.520825,-0.57179,0.702437,0.557725,-0.52476,-0.08832699999999999,-0.003715000000000024,0.0010499999999999954,0.088327,0.0037149999999999683,-0.0010500000000000231,-0.183703,-0.16968500000000003,-0.36208,0.165727,-0.169095,-0.36719999999999997,-0.126658,-0.548345,-0.210123,0.110017,-0.577725,-0.23092400000000002
138,-0.022834,0.6844899999999999,-0.368375,-0.187006,0.48097999999999996,-0.313515,-0.449636,0.49957999999999997,-0.441265,0.15767399999999998,0.49698,-0.315305,0.435324,0.54016,-0.39973499999999995,-0.6698959999999999,0.52601,-0.564675,0.701754,0.5617699999999999,-0.519765,-0.088334,-0.003960000000000019,0.0010550000000000004,0.088334,0.0039599999999999635,-0.0010550000000000004,-0.18408600000000003,-0.17733000000000004,-0.35775500000000005,0.16753400000000002,-0.17413000000000006,-0.363475,-0.12695,-0.55703,-0.208458,0.11192400000000001,-0.5887600000000001,-0.23575000000000002
139,-0.0232655,0.691595,-0.35986,-0.1872675,0.485395,-0.30566000000000004,-0.4500275,0.504815,-0.43362,0.1583625,0.501665,-0.30812,0.43490249999999997,0.544055,-0.39305999999999996,-0.6702975,0.5320550000000001,-0.55675,0.7007725,0.5668150000000001,-0.51494,-0.08834249999999999,-0.004014999999999991,0.0010000000000000009,0.0883425,0.004015000000000046,-0.0010000000000000009,-0.1837575,-0.18517499999999998,-0.35344,0.1676425,-0.17998499999999995,-0.35916000000000003,-0.1270635,-0.5660149999999999,-0.206391,0.11332249999999999,-0.599985,-0.23977
140,-0.023611499999999994,0.6990099999999999,-0.34989000000000003,-0.18742749999999997,0.49137999999999993,-0.29722000000000004,-0.44991749999999997,0.51047,-0.42548,0.1592225,0.50542,-0.30035,0.4345125,0.5485099999999999,-0.38594,-0.6704475000000001,0.5399799999999999,-0.54871,0.6993824999999999,0.5727899999999999,-0.50958,-0.08834249999999999,-0.003760000000000041,0.0010199999999999931,0.0883425,0.0037599999999999856,-0.0010200000000000209,-0.18225750000000002,-0.19319000000000003,-0.34893,0.16741250000000002,-0.18841000000000002,-0.35444,-0.1271835,-0.5756300000000001,-0.20392900000000003,0.11352250000000001,-0.61155,-0.24268
141,-0.0235295,0.707385,-0.33926999999999996,-0.18733850000000002,0.49706500000000003,-0.28839000000000004,-0.4496385,0.5170750000000001,-0.41734000000000004,0.16013149999999998,0.509885,-0.29174,0.4339515,0.553445,-0.37787000000000004,-0.6708485,0.5500050000000001,-0.54066,0.6973315,0.5802750000000001,-0.50381,-0.08834149999999999,-0.003444999999999976,0.0009599999999999886,0.0883415,0.0034450000000000314,-0.0009599999999999886,-0.17969849999999998,-0.20158499999999996,-0.34429,0.16716150000000002,-0.19704499999999997,-0.34935,-0.1279245,-0.585905,-0.201291,0.1136715,-0.623355,-0.24422
142,-0.0228275,0.7165950000000001,-0.327415,-0.1870175,0.5023650000000001,-0.278885,-0.44923749999999996,0.524195,-0.408265,0.1612325,0.5146550000000001,-0.282565,0.43354250000000005,0.559355,-0.368765,-0.6710375000000001,0.561285,-0.532215,0.6952725,0.588695,-0.49743499999999996,-0.0883525,-0.0032649999999999624,0.0007449999999999957,0.0883525,0.003265000000000018,-0.0007449999999999957,-0.1764875,-0.21105499999999994,-0.33935499999999996,0.1672325,-0.20597499999999996,-0.343665,-0.1287055,-0.596565,-0.198303,0.11389250000000001,-0.634015,-0.241305
143,-0.021179,0.7251799999999999,-0.31450500000000003,-0.185944,0.50789,-0.26832500000000004,-0.447764,0.53186,-0.398305,0.163686,0.5207200000000001,-0.27192500000000003,0.433706,0.5654600000000001,-0.358765,-0.669954,0.57401,-0.523695,0.693616,0.59756,-0.49045500000000003,-0.088396,-0.0029800000000000104,0.00048499999999998544,0.088396,0.0029800000000000104,-0.0004850000000000132,-0.173354,-0.22135,-0.33394500000000005,0.166586,-0.21583999999999998,-0.337175,-0.128722,-0.60829,-0.194803,0.11478600000000001,-0.6440600000000001,-0.23664500000000002
144,-0.0186915,0.73476,-0.300785,-0.1845895,0.51334,-0.257545,-0.4456995,0.54094,-0.38827500000000004,0.16646049999999998,0.52535,-0.261335,0.4341405,0.57187,-0.347935,-0.6682295,0.58982,-0.514785,0.6921405,0.60774,-0.482515,-0.08840049999999999,-0.002569999999999989,0.00025499999999999134,0.08840049999999999,0.002569999999999989,-0.0002550000000000052,-0.1697095,-0.23054,-0.328295,0.1659105,-0.22607000000000002,-0.330295,-0.12860749999999999,-0.62176,-0.19524000000000002,0.11567050000000001,-0.6547000000000001,-0.232665
145,-0.015979999999999994,0.7437400000000001,-0.28572,-0.182983,0.519,-0.24617999999999998,-0.443543,0.54993,-0.37876999999999994,0.169437,0.5297000000000001,-0.2502,0.434807,0.57802,-0.33673,-0.6660929999999999,0.60673,-0.50598,0.6906370000000001,0.6185499999999999,-0.47402999999999995,-0.088367,-0.0021799999999999875,5.000000000000837e-05,0.088367,0.0021800000000000153,-4.999999999999449e-05,-0.16536299999999998,-0.23962,-0.32253,0.164777,-0.23564000000000002,-0.32304999999999995,-0.128312,-0.6357600000000001,-0.19532299999999997,0.11652700000000002,-0.6649099999999999,-0.22834
146,-0.013255000000000003,0.7530650000000001,-0.269705,-0.18138200000000002,0.524505,-0.234395,-0.441092,0.560745,-0.368305,0.17257799999999998,0.533515,-0.238655,0.436388,0.584905,-0.325005,-0.663632,0.6244149999999999,-0.49644499999999997,0.689478,0.630375,-0.465075,-0.088278,-0.0017350000000000143,-6.499999999999562e-05,0.088278,0.0017349999999999866,6.50000000000095e-05,-0.160702,-0.247855,-0.316675,0.162818,-0.24579499999999999,-0.315695,-0.128001,-0.6487750000000001,-0.19502399999999998,0.117458,-0.675195,-0.223735
147,-0.010123999999999998,0.759875,-0.25238,-0.179617,0.530125,-0.2223,-0.43822700000000003,0.571225,-0.35648,0.176263,0.5376449999999999,-0.22596,0.43815299999999996,0.5914649999999999,-0.31258,-0.660617,0.641995,-0.48557,0.688913,0.643025,-0.45531,-0.088133,-0.0012550000000000061,-0.0002400000000000041,0.088133,0.0012549999999999784,0.0002400000000000041,-0.156017,-0.256135,-0.31025,0.160393,-0.255155,-0.30775,-0.127087,-0.661355,-0.19379000000000002,0.120033,-0.6878650000000001,-0.21933
148,-0.006699500000000001,0.7647999999999999,-0.23352,-0.17754350000000002,0.5354,-0.20947,-0.43632350000000003,0.5824400000000001,-0.34368,0.17966649999999998,0.54045,-0.21303,0.4403065,0.5982000000000001,-0.29956,-0.6570235,0.66056,-0.47396000000000005,0.6878965,0.65591,-0.44425000000000003,-0.0879365,-0.0009000000000000119,-0.0003000000000000086,0.0879365,0.0008999999999999841,0.0002999999999999947,-0.1517535,-0.26434,-0.30293000000000003,0.15857649999999998,-0.26424000000000003,-0.29945,-0.1261005,-0.6736800000000001,-0.19268000000000002,0.12281650000000001,-0.70038,-0.21405000000000002
149,-0.0030574999999999943,0.767775,-0.214484,-0.1755125,0.539745,-0.19639800000000002,-0.4335825,0.5939450000000001,-0.330934,0.18311750000000002,0.545815,-0.19945400000000002,0.4436475,0.605485,-0.28660399999999997,-0.6524425,0.6789649999999999,-0.46223400000000003,0.6859974999999999,0.668095,-0.432384,-0.0876575,-0.0006349999999999967,-0.00038200000000000733,0.0876575,0.0006349999999999967,0.00038199999999999346,-0.14820250000000001,-0.27220500000000003,-0.295314,0.1577275,-0.272845,-0.290744,-0.1251425,-0.686345,-0.191542,0.12471750000000001,-0.710105,-0.208104
150,0.00035700000000000315,0.7717700000000001,-0.195322,-0.173838,0.54496,-0.182363,-0.43058799999999997,0.60484,-0.317502,0.186642,0.5499700000000001,-0.185699,0.446592,0.61119,-0.27413200000000004,-0.6473679999999999,0.6968000000000001,-0.449442,0.683252,0.67971,-0.419312,-0.087482,-0.0003599999999999992,-0.0003449999999999981,0.087482,0.0003599999999999992,0.0003449999999999981,-0.14571800000000001,-0.28012,-0.287182,0.157532,-0.2816,-0.281252,-0.124518,-0.69977,-0.190264,0.126482,-0.71993,-0.202142
151,0.0034479999999999997,0.77363,-0.176778,-0.17222300000000001,0.54958,-0.168984,-0.427273,0.6159399999999999,-0.304259,0.19027699999999997,0.55362,-0.171827,0.45031699999999997,0.6176900000000001,-0.261829,-0.641003,0.7141900000000001,-0.435649,0.680117,0.6919500000000001,-0.406049,-0.087327,1.0000000000010001e-05,-0.0003039999999999987,0.087327,-9.999999999982245e-06,0.0003039999999999987,-0.14319300000000001,-0.2869,-0.278819,0.15731699999999998,-0.28972,-0.271799,-0.123933,-0.7121200000000001,-0.18887900000000002,0.12820700000000002,-0.72905,-0.19583899999999999
152,0.006077999999999997,0.77469,-0.158124,-0.17096,0.55338,-0.15688,-0.42349,0.62887,-0.29141,0.19295,0.55566,-0.159302,0.45336,0.62524,-0.24957,-0.63336,0.73367,-0.42131,0.67573,0.70587,-0.39177,-0.08708,0.0002999999999999947,-0.00025699999999999334,0.08708,-0.0002999999999999947,0.0002570000000000072,-0.14102,-0.29272,-0.27088,0.15693000000000001,-0.29675,-0.26308,-0.12402,-0.72347,-0.18736,0.12961,-0.73694,-0.18941999999999998
153,0.008160499999999994,0.7772399999999999,-0.13996150000000002,-0.17008450000000003,0.55748,-0.1446965,-0.4199645,0.6410399999999999,-0.2786375,0.19524550000000002,0.55781,-0.14711649999999998,0.45585549999999997,0.63381,-0.23792750000000001,-0.6258545,0.75428,-0.4078075,0.6709855,0.72021,-0.3776975,-0.0868255,0.0006700000000000039,-0.00020449999999999635,0.0868255,-0.00066999999999999,0.00020449999999999635,-0.1393545,-0.29925,-0.2628975,0.15629549999999998,-0.30337000000000003,-0.2544075,-0.1238745,-0.7340300000000001,-0.18159750000000002,0.13053549999999997,-0.74442,-0.1826875
154,0.010034999999999999,0.77903,-0.12237399999999998,-0.169059,0.56081,-0.13268,-0.416179,0.65414,-0.264318,0.197751,0.56151,-0.13374599999999998,0.456811,0.64275,-0.226348,-0.617509,0.77447,-0.393838,0.665711,0.73567,-0.362638,-0.086641,0.0009600000000000025,-0.00012599999999998723,0.086641,-0.0009600000000000025,0.0001260000000000011,-0.138379,-0.30577,-0.254158,0.156411,-0.31151999999999996,-0.244968,-0.123949,-0.74425,-0.175688,0.131211,-0.75195,-0.17615799999999998
155,0.011921500000000002,0.778512,-0.1056355,-0.16852050000000002,0.563292,-0.1207545,-0.4121805,0.665732,-0.2498525,0.1999395,0.564432,-0.1204635,0.4573395,0.651182,-0.2142025,-0.6086505,0.794512,-0.3793125,0.6606195,0.751862,-0.3467925,-0.0863295,0.0013279999999999959,-0.0001974999999999963,0.0863295,-0.0013280000000000097,0.00019750000000000323,-0.13773049999999998,-0.317198,-0.2445025,0.15701949999999998,-0.322948,-0.2344725,-0.1231205,-0.755068,-0.1696025,0.1320095,-0.7600979999999999,-0.1692925
156,0.013415499999999997,0.7787045,-0.08974599999999999,-0.1681525,0.5650945,-0.109326,-0.4079325,0.6771345,-0.23587200000000003,0.2017075,0.5668645,-0.10771700000000001,0.4576875,0.6596545,-0.20224199999999998,-0.5994225,0.8158845,-0.365352,0.6546375,0.7684945,-0.330322,-0.0860375,0.0014485000000000053,-0.0003070000000000017,0.0860375,-0.0014484999999999915,0.0003070000000000017,-0.1370825,-0.3281855,-0.234562,0.1569275,-0.33393549999999994,-0.223532,-0.1225225,-0.7637655,-0.16276200000000002,0.1325875,-0.7688855,-0.162182
157,0.014192500000000004,0.7796035,-0.0693645,-0.1685255,0.5657234999999999,-0.0923655,-0.4039255,0.6870434999999999,-0.2166105,0.20287449999999999,0.5676835,-0.0894735,0.4574245,0.6668434999999999,-0.18331050000000002,-0.5903555,0.8368135,-0.3454905,0.6472245,0.7828835,-0.3074405,-0.0858045,0.0015364999999999962,-0.0004364999999999994,0.0858045,-0.0015364999999999962,0.0004364999999999994,-0.1366955,-0.3399465,-0.21698050000000002,0.1533845,-0.34569649999999996,-0.2026205,-0.1225455,-0.7733865000000001,-0.1486905,0.1308645,-0.7788265000000001,-0.1438685
158,0.014245,0.784175,-0.050549,-0.169066,0.566495,-0.075244,-0.400086,0.695845,-0.19778199999999999,0.20369400000000001,0.566045,-0.07193,0.456294,0.671615,-0.164232,-0.582146,0.855445,-0.326352,0.639564,0.796495,-0.28489200000000003,-0.085584,0.0016190000000000024,-0.0005549999999999999,0.085584,-0.0016189999999999954,0.0005549999999999999,-0.134946,-0.352225,-0.196382,0.14827400000000002,-0.360525,-0.179432,-0.121386,-0.783785,-0.13097799999999998,0.128134,-0.790005,-0.125205
159,0.014085499999999994,0.785832,-0.0329235,-0.1691545,0.566232,-0.0598745,-0.3953745,0.703782,-0.1794925,0.20420549999999998,0.565512,-0.0552395,0.4548855,0.677542,-0.1453725,-0.5727345,0.8734419999999999,-0.3077425,0.6320555,0.8105319999999999,-0.2629925,-0.0853155,0.0017199999999999993,-0.0006304999999999991,0.0853155,-0.0017199999999999993,0.0006304999999999991,-0.1335145,-0.363808,-0.1767625,0.1437355,-0.375478,-0.1575125,-0.12023450000000001,-0.794158,-0.1143025,0.12494549999999999,-0.8003480000000001,-0.10667750000000001
160,0.013933000000000001,0.787826,-0.0159905,-0.16913299999999998,0.5661459999999999,-0.0447505,-0.390343,0.7110259999999999,-0.16133750000000002,0.204717,0.564766,-0.0393105,0.453457,0.681496,-0.1267875,-0.562963,0.8908659999999999,-0.28956750000000003,0.624267,0.823816,-0.2415475,-0.08501700000000001,0.0017729999999999968,-0.0006655000000000012,0.08501700000000001,-0.0017730000000000037,0.0006654999999999994,-0.131943,-0.375524,-0.1574075,0.139107,-0.39107400000000003,-0.1359775,-0.119143,-0.804224,-0.0983445,0.12185700000000002,-0.810664,-0.0886665
161,0.013509999999999994,0.7907735,0.00010650000000000004,-0.16933800000000002,0.5659335,-0.030019499999999998,-0.385218,0.7162135,-0.1437615,0.204902,0.5645635,-0.0237905,0.450242,0.6849235,-0.10913149999999999,-0.553928,0.9058035,-0.2724015,0.616432,0.8361535,-0.2217915,-0.084702,0.001851499999999999,-0.0006295000000000001,0.084702,-0.001851499999999999,0.0006294999999999999,-0.130488,-0.3870165,-0.1377915,0.134312,-0.4062265,-0.1141915,-0.117868,-0.8127165,-0.08232249999999999,0.118732,-0.8193765,-0.0705355
162,0.0130515,0.790849,0.015407,-0.1693445,0.566209,-0.01568,-0.3799745,0.721249,-0.12676700000000002,0.20497549999999998,0.564559,-0.008561,0.4471855,0.687609,-0.091508,-0.5438945,0.918119,-0.254657,0.6074855,0.848469,-0.201987,-0.0842555,0.0018659999999999996,-0.0005770000000000011,0.0842555,-0.0018659999999999996,0.0005769999999999994,-0.1292045,-0.399001,-0.11799700000000002,0.1292755,-0.421781,-0.09240699999999999,-0.1169005,-0.820701,-0.06681899999999999,0.11566549999999999,-0.827721,-0.0525
163,0.012566999999999995,0.7909185,0.0300575,-0.169417,0.5667385,-0.001992500000000001,-0.374927,0.7254885,-0.11217049999999999,0.204663,0.5632485,0.0049935,0.443953,0.6906785,-0.0745455,-0.533757,0.9306085000000001,-0.2381305,0.598433,0.8594585,-0.18351050000000002,-0.083793,0.0020724999999999997,-0.0005935000000000003,0.083793,-0.0020724999999999997,0.0005935000000000003,-0.127867,-0.41078149999999997,-0.0988005,0.12426300000000001,-0.4367215,-0.0716855,-0.115677,-0.8280815,-0.05080749999999999,0.112643,-0.8355914999999999,-0.0356375
164,0.012143000000000001,0.7920895,0.0439055,-0.169189,0.5676295,0.010595500000000002,-0.369389,0.7303695,-0.0988095,0.204431,0.5622595,0.017472500000000002,0.44016099999999997,0.6940295000000001,-0.05920349999999999,-0.5227989999999999,0.9426595,-0.2230795,0.5880510000000001,0.8693395,-0.16605949999999997,-0.083401,0.0022155,-0.0005324999999999983,0.083401,-0.0022155000000000005,0.0005325000000000017,-0.126339,-0.4219105,-0.0802595,0.119391,-0.45223050000000004,-0.0521475,-0.11419499999999999,-0.8359705,-0.0355695,0.109761,-0.8438205,-0.0195455
165,0.011609000000000005,0.7939274999999999,0.0567015,-0.169235,0.5682775,0.022353500000000005,-0.363975,0.7359675,-0.08625849999999999,0.204165,0.5611174999999999,0.028898500000000008,0.43606500000000004,0.6976574999999999,-0.044857499999999995,-0.511295,0.9541575,-0.2086885,0.577265,0.8789374999999999,-0.1499185,-0.08304500000000001,0.0025335,-0.0003364999999999965,0.08304500000000001,-0.0025334999999999997,0.00033650000000000346,-0.12498499999999998,-0.4321425,-0.06258949999999999,0.11488500000000001,-0.4670525,-0.033576499999999995,-0.11261199999999999,-0.8431725000000001,-0.020955499999999995,0.107215,-0.8511725,-0.004395499999999997
166,0.011368000000000003,0.796576,0.06289,-0.169125,0.5696559999999999,0.026918,-0.357865,0.742336,-0.080832,0.20405500000000001,0.561496,0.033434,0.43252500000000005,0.702646,-0.038192000000000004,-0.49880499999999994,0.965256,-0.20168199999999997,0.567095,0.890306,-0.14111200000000002,-0.082735,0.00289,-0.0001779999999999976,0.082735,-0.0028899999999999993,0.0001779999999999976,-0.123295,-0.441244,-0.053222000000000005,0.11288500000000001,-0.480554,-0.025629,-0.110816,-0.848734,-0.014914999999999998,0.10711500000000002,-0.857004,-0.0011559999999999973
167,0.011089000000000002,0.7964065,0.06895799999999999,-0.169052,0.5703765,0.030242,-0.351312,0.7491965,-0.075886,0.203988,0.5621865,0.037182,0.428598,0.7091665,-0.032105999999999996,-0.485152,0.9774765,-0.194506,0.5569780000000001,0.9022965000000001,-0.133116,-0.082478,0.0032324999999999993,-0.00012000000000000205,0.082478,-0.003232500000000001,0.00012000000000000205,-0.12327199999999999,-0.4458535,-0.047128,0.11168799999999998,-0.4865935,-0.020386,-0.11066599999999999,-0.8528335,-0.012392,0.107148,-0.8613635,0.0016690000000000038
168,0.010799000000000007,0.7964095,0.0753365,-0.168906,0.5715795,0.0336435,-0.344836,0.7566094999999999,-0.0714765,0.204124,0.5619795,0.0403225,0.423754,0.7159895,-0.025530500000000005,-0.470886,0.9893494999999999,-0.18758650000000002,0.547714,0.9155995,-0.1266365,-0.08218400000000001,0.0035645000000000017,-0.00011350000000000249,0.08218400000000001,-0.0035645,0.00011350000000000249,-0.12317600000000001,-0.44973050000000003,-0.040938499999999996,0.11066400000000001,-0.4914605,-0.0148345,-0.110513,-0.8563805,-0.0095335,0.10731399999999999,-0.8653505,0.004409499999999997
169,0.0105015,0.7966585,0.081498,-0.1687515,0.5731485000000001,0.036863,-0.3384115,0.7638585,-0.067673,0.20426850000000002,0.5620285,0.043117,0.4184385,0.7228285000000001,-0.019378,-0.4566115,1.0003085,-0.18134299999999998,0.5385985,0.9299485000000001,-0.12064299999999999,-0.0818985,0.0037384999999999988,-6.0999999999998555e-05,0.0818985,-0.0037384999999999988,6.0999999999998555e-05,-0.1231215,-0.4529715,-0.034879999999999994,0.10977850000000001,-0.49488150000000003,-0.008827000000000002,-0.1103605,-0.8585115,-0.0068049999999999986,0.10746850000000001,-0.8685915,0.007006999999999999
170,0.010276500000000008,0.7963405,0.0869205,-0.16784849999999998,0.5749705,0.0401795,-0.33261850000000004,0.7707305000000001,-0.0645875,0.2045615,0.5615605,0.0455835,0.4126915,0.7289905000000001,-0.013462500000000002,-0.4415485,1.0112005,-0.17571750000000003,0.5270414999999999,0.9425205000000001,-0.1136275,-0.0815525,0.003919499999999999,-1.5000000000015001e-06,0.0815525,-0.003919499999999999,1.5000000000015001e-06,-0.1230685,-0.4532395,-0.0292665,0.1090815,-0.4973995,-0.003338500000000001,-0.11036249999999999,-0.8594894999999999,-0.004118500000000004,0.1078615,-0.8709095,0.009344499999999999
171,0.009996499999999995,0.7959579999999999,0.092142,-0.1671585,0.575558,0.042747,-0.3265885,0.777108,-0.061583000000000006,0.20479150000000002,0.561508,0.048659,0.40644149999999996,0.734908,-0.008208,-0.4261885,1.021408,-0.17047299999999999,0.5156415,0.953488,-0.10730299999999998,-0.0812325,0.004116999999999999,5.999999999999062e-06,0.0812325,-0.004116999999999999,-5.999999999999062e-06,-0.1230685,-0.45323199999999997,-0.024530000000000003,0.10864149999999999,-0.500502,0.001460999999999997,-0.1105025,-0.859662,-0.001465000000000001,0.1082315,-0.8726820000000001,0.011487999999999998
172,0.009689499999999993,0.795675,0.097026,-0.1664415,0.576275,0.045077,-0.3202315,0.782755,-0.058775999999999995,0.2050385,0.5611050000000001,0.051226,0.4000785,0.740145,-0.003355999999999998,-0.4107315,1.030635,-0.165286,0.5034884999999999,0.964075,-0.10127599999999999,-0.08096249999999999,0.004223999999999999,-9.000000000002062e-06,0.08096249999999999,-0.004224000000000002,9.000000000002062e-06,-0.12286150000000001,-0.454365,-0.020384,0.1082285,-0.503555,0.005948000000000002,-0.1106445,-0.859475,0.0009800000000000017,0.1085785,-0.873895,0.013459000000000002
173,0.009535999999999996,0.795154,0.101691,-0.16562100000000002,0.576644,0.047182999999999996,-0.31377099999999997,0.787504,-0.056035,0.20521899999999998,0.561474,0.054944,0.393749,0.744884,0.0016329999999999956,-0.394691,1.037884,-0.159135,0.490759,0.973684,-0.095635,-0.080734,0.0042169999999999985,-1.9000000000005124e-05,0.080734,-0.004217000000000002,1.8999999999998185e-05,-0.12279100000000001,-0.45372599999999996,-0.017157,0.107859,-0.5039560000000001,0.010074,-0.110852,-0.858536,0.0028929999999999997,0.10886900000000001,-0.8745459999999999,0.014781999999999997
174,0.009381000000000004,0.7945255,0.10612150000000001,-0.16472299999999998,0.5771155,0.0491925,-0.307023,0.7908854999999999,-0.053331500000000004,0.205317,0.5618955,0.0584115,0.387467,0.7489254999999999,0.005995500000000001,-0.379283,1.0429455,-0.1533585,0.477777,0.9825455,-0.0904685,-0.08052899999999999,0.004215500000000004,-8.149999999999824e-05,0.08052899999999999,-0.0042155000000000005,8.149999999999824e-05,-0.12276300000000001,-0.45238449999999997,-0.014371500000000002,0.10750699999999999,-0.5037445,0.0137245,-0.11074899999999999,-0.8583345,0.0044874999999999984,0.10907700000000001,-0.8750645,0.0159025
175,0.009225500000000001,0.7935260000000001,0.110237,-0.1637865,0.577576,0.051303,-0.3004465,0.7937160000000001,-0.050691999999999994,0.2052735,0.562226,0.061626,0.38147349999999997,0.752456,0.009660999999999996,-0.3640765,1.0469959999999998,-0.14773899999999998,0.4646935,0.9909960000000001,-0.086529,-0.0803025,0.004230999999999999,-0.0001789999999999986,0.0803025,-0.004231000000000002,0.0001789999999999986,-0.1227665,-0.45130400000000004,-0.012117000000000003,0.10727350000000001,-0.503804,0.01685,-0.1106375,-0.858174,0.006033999999999998,0.1092935,-0.875594,0.017037
176,0.009080500000000002,0.7926065,0.1142135,-0.1628925,0.5780464999999999,0.0532235,-0.2939925,0.7961564999999999,-0.0485965,0.2053375,0.5626165000000001,0.0647965,0.3756475,0.7559665,0.012291499999999997,-0.3491025,1.0502565000000001,-0.1427425,0.45086750000000003,0.9996565,-0.08346250000000001,-0.0800775,0.004214499999999996,-0.00024550000000000266,0.0800775,-0.004214500000000003,0.00024550000000000266,-0.1229025,-0.4514735,-0.010467499999999998,0.1070875,-0.5041635,0.0193935,-0.1107175,-0.8578735,0.007366499999999998,0.10946750000000001,-0.8763635000000001,0.0178875
177,0.009110000000000004,0.7923825000000001,0.11764250000000001,-0.161902,0.5783225000000001,0.05495850000000001,-0.287692,0.7986525000000001,-0.04661649999999999,0.205548,0.5628625,0.06801650000000001,0.370898,0.7594225,0.013652500000000005,-0.335602,1.0533325,-0.13857049999999999,0.436598,1.0057325000000001,-0.08095049999999998,-0.079869,0.004110500000000003,-0.00027249999999999497,0.079869,-0.0041105,0.0002725000000000019,-0.122912,-0.45169750000000003,-0.009120499999999997,0.107098,-0.5050175,0.021329500000000005,-0.11063100000000001,-0.8577775,0.008120500000000003,0.109798,-0.8765875,0.018762500000000005
