sb224sc-HT22-VT27/4dt907/src/data/kinect_good_preprocessed_A9_mediapipe/A89_kinect.csv
FrameNo,nose_3d_x,nose_3d_y,nose_3d_z,left_shoulder_3d_x,left_shoulder_3d_y,left_shoulder_3d_z,left_elbow_3d_x,left_elbow_3d_y,left_elbow_3d_z,right_shoulder_3d_x,right_shoulder_3d_y,right_shoulder_3d_z,right_elbow_3d_x,right_elbow_3d_y,right_elbow_3d_z,left_wrist_3d_x,left_wrist_3d_y,left_wrist_3d_z,right_wrist_3d_x,right_wrist_3d_y,right_wrist_3d_z,left_hip_3d_x,left_hip_3d_y,left_hip_3d_z,right_hip_3d_x,right_hip_3d_y,right_hip_3d_z,left_knee_3d_x,left_knee_3d_y,left_knee_3d_z,right_knee_3d_x,right_knee_3d_y,right_knee_3d_z,left_ankle_3d_x,left_ankle_3d_y,left_ankle_3d_z,right_ankle_3d_x,right_ankle_3d_y,right_ankle_3d_z
75,-0.009443,0.809933,0.1618145,-0.169542,0.563533,0.09543650000000001,-0.291642,0.719973,-0.0714155,0.165968,0.553773,0.10738049999999999,0.32134799999999997,0.703943,-0.034435499999999994,-0.186762,0.9932730000000001,-0.08416549999999999,0.237708,0.951713,-0.08538549999999999,-0.084697,0.0014949999999999998,0.00015550000000000286,0.084697,-0.0014949999999999998,-0.00015550000000000286,-0.11568200000000001,-0.463767,-0.020948499999999995,0.124028,-0.487787,0.0175585,-0.1026,-0.875937,-0.041609499999999994,0.14021799999999998,-0.887737,-0.006476500000000003
76,-0.0092605,0.809933,0.1607245,-0.1695375,0.563533,0.09522449999999999,-0.2917975,0.719973,-0.07155550000000001,0.16614250000000003,0.553773,0.1072895,0.3217425,0.703943,-0.03476850000000001,-0.1871375,0.9927729999999999,-0.0840055,0.2398925,0.949173,-0.08801550000000001,-0.0847475,0.0014949999999999998,0.00016849999999999504,0.0847475,-0.0014949999999999998,-0.00016850000000000198,-0.1153675,-0.463767,-0.0225765,0.12418249999999999,-0.487787,0.016177499999999997,-0.1024065,-0.875937,-0.04191750000000001,0.14028249999999998,-0.887737,-0.006768500000000004
77,-0.00904,0.809575,0.159194,-0.169499,0.5636450000000001,0.094905,-0.29191900000000004,0.719225,-0.071796,0.166221,0.553925,0.10704,0.322391,0.703295,-0.03518299999999999,-0.187459,0.992595,-0.083206,0.242081,0.945945,-0.090136,-0.084799,0.001471,0.00015400000000000136,0.084799,-0.001471,-0.00015399999999999442,-0.114929,-0.463515,-0.026021000000000002,0.124451,-0.48746500000000004,0.013461,-0.102292,-0.8756149999999999,-0.04218899999999999,0.140431,-0.8881049999999999,-0.007514999999999994
78,-0.0087915,0.8090585,0.157323,-0.16952450000000002,0.5638185,0.094369,-0.2920445,0.7185185,-0.07202700000000001,0.16640549999999998,0.5539685,0.106601,0.3231455,0.7025785,-0.035597000000000004,-0.1877145,0.9924585,-0.082437,0.24427549999999998,0.9426785,-0.09211699999999999,-0.0848225,0.0014305000000000012,0.00016599999999999948,0.0848225,-0.0014304999999999977,-0.00016600000000000642,-0.1144345,-0.4632815,-0.029625,0.12472549999999999,-0.48700150000000003,0.010239999999999999,-0.10216149999999999,-0.8755015,-0.042342000000000005,0.14053549999999998,-0.8886315,-0.008430000000000007
79,-0.008582999999999995,0.8084060000000001,0.15542899999999998,-0.16969299999999998,0.563956,0.09375,-0.292163,0.717736,-0.072321,0.166597,0.5539660000000001,0.106266,0.323987,0.701726,-0.036031999999999995,-0.188053,0.992376,-0.081641,0.246417,0.939316,-0.093791,-0.084839,0.0013590000000000026,0.00016599999999999948,0.084839,-0.001358999999999999,-0.00016599999999999948,-0.11411299999999999,-0.461464,-0.033815,0.125097,-0.485454,0.006279,-0.101922,-0.875224,-0.042757,0.140637,-0.8881439999999999,-0.009271000000000001
80,-0.0083245,0.807702,0.1531745,-0.16976650000000001,0.563972,0.09297949999999999,-0.29229649999999996,0.717002,-0.0726255,0.1667535,0.5539820000000001,0.1058325,0.32509350000000004,0.700322,-0.036572499999999994,-0.1904065,0.986712,-0.08104549999999999,0.24884349999999997,0.9354520000000001,-0.0951455,-0.08487449999999999,0.0012810000000000009,0.00013749999999999873,0.08487449999999999,-0.0012809999999999992,-0.00013749999999999873,-0.11353650000000001,-0.460598,-0.0386445,0.12555349999999998,-0.483898,0.0017035000000000036,-0.10166449999999999,-0.874768,-0.0430995,0.1407135,-0.887698,-0.010099499999999997
81,-0.0081315,0.8072195,0.1508075,-0.1699435,0.5640195,0.0920745,-0.2925635,0.7163395,-0.07313249999999999,0.1669265,0.5540495,0.10522050000000001,0.32618650000000005,0.6989695,-0.0371455,-0.1927935,0.9811095,-0.08054249999999999,0.2512765,0.9316295,-0.0965425,-0.0849965,0.0012095000000000005,8.750000000000424e-05,0.0849965,-0.0012095000000000005,-8.74999999999973e-05,-0.11298349999999999,-0.4595405,-0.044233499999999995,0.1260465,-0.4818305,-0.002987499999999997,-0.1015055,-0.8741105,-0.043996499999999994,0.1406965,-0.8864105,-0.010988499999999991
82,-0.007838000000000005,0.8064265,0.1477455,-0.170035,0.5638565,0.0908475,-0.29291500000000004,0.7157665000000001,-0.0740345,0.16714500000000002,0.5541165,0.1044335,0.327395,0.6974265000000001,-0.0378495,-0.194945,0.9753765,-0.07982449999999999,0.253785,0.9276465,-0.0977645,-0.085152,0.0011245000000000005,2.0499999999999685e-05,0.085152,-0.0011244999999999988,-2.0499999999999685e-05,-0.11243500000000001,-0.4580335,-0.0500155,0.12662500000000002,-0.47948349999999995,-0.007933500000000003,-0.101348,-0.8733635,-0.0449275,0.140645,-0.8850534999999999,-0.011944500000000004
83,-0.007766500000000003,0.8054205,0.14351049999999999,-0.1703495,0.5634805,0.08875849999999999,-0.2938895,0.7150805,-0.0755205,0.1672905,0.5540405,0.1030005,0.32866049999999997,0.6958805,-0.0391745,-0.1972495,0.9695705,-0.07894050000000001,0.2562905,0.9236805,-0.09878050000000001,-0.08536350000000001,0.0010015000000000007,-0.00011850000000000055,0.08536350000000001,-0.0010014999999999998,0.00011849999999999361,-0.11189950000000001,-0.4560095,-0.05700050000000001,0.1272405,-0.4764395,-0.013642500000000002,-0.10143950000000002,-0.8722095,-0.04610450000000001,0.1404005,-0.8823394999999999,-0.012545500000000001
84,-0.00782,0.8045924999999999,0.139214,-0.170763,0.5630824999999999,0.086506,-0.29503300000000005,0.7143925,-0.077205,0.167437,0.5539324999999999,0.101332,0.329947,0.6946125,-0.040387000000000006,-0.19947299999999998,0.9637825,-0.07791500000000001,0.25880699999999995,0.9197525,-0.09987499999999999,-0.08558199999999999,0.0008674999999999993,-0.00030400000000000565,0.08558199999999999,-0.0008675000000000002,0.0003039999999999987,-0.11147299999999999,-0.4534975,-0.063915,0.127907,-0.4731475,-0.019606,-0.10155900000000001,-0.8710075,-0.04732800000000001,0.13983700000000002,-0.8800675,-0.013170000000000001
85,-0.007941499999999999,0.8036795,0.1342875,-0.1713015,0.5624395,0.0837465,-0.2964115,0.7134094999999999,-0.07920450000000001,0.1674985,0.5537894999999999,0.0992845,0.3312385,0.6934095,-0.0416345,-0.20148149999999998,0.9580894999999999,-0.0765245,0.2593585,0.9190094999999999,-0.0996245,-0.08583650000000001,0.0007565,-0.0005365000000000023,0.08583650000000001,-0.0007564999999999999,0.0005365000000000023,-0.1110815,-0.4511205,-0.07116449999999999,0.1284785,-0.4696105,-0.025640500000000004,-0.1018625,-0.8696005,-0.0486145,0.1391185,-0.8774605000000001,-0.013867499999999998
86,-0.008165000000000006,0.8028675,0.1294545,-0.171936,0.5617574999999999,0.0807645,-0.29788600000000004,0.7125275,-0.08165149999999999,0.167484,0.5537574999999999,0.0971965,0.332654,0.6922575,-0.04328649999999999,-0.203386,0.9522575,-0.0751415,0.25984399999999996,0.9182275,-0.0993915,-0.08610999999999999,0.0006555000000000003,-0.0007514999999999952,0.08610999999999999,-0.0006554999999999998,0.0007515000000000022,-0.110896,-0.4486725,-0.0764415,0.12883399999999998,-0.4657125,-0.03047649999999999,-0.10225300000000001,-0.8680625000000001,-0.05018249999999999,0.13855399999999998,-0.8745025000000001,-0.014234499999999997
87,-0.008423000000000002,0.8022395,0.1243865,-0.172549,0.5607995,0.07713350000000001,-0.29930900000000005,0.7116495,-0.0845175,0.167511,0.5534795,0.0945755,0.33421100000000004,0.6911995,-0.0452685,-0.205169,0.9465595,-0.0735475,0.260381,0.9174895000000001,-0.0991175,-0.086399,0.0005774999999999999,-0.0009855000000000003,0.086399,-0.0005775000000000008,0.0009855000000000003,-0.110669,-0.44527049999999996,-0.0821075,0.129261,-0.46154049999999996,-0.0352345,-0.102771,-0.8658605,-0.0514985,0.137981,-0.8715305,-0.014752500000000002
88,-0.008620500000000005,0.8014060000000001,0.1178915,-0.1730985,0.559836,0.0727325,-0.3008185,0.710426,-0.08816550000000001,0.16760150000000001,0.553146,0.0911265,0.3362315,0.690006,-0.0480255,-0.20688850000000003,0.940486,-0.0719055,0.26081150000000003,0.916466,-0.0969555,-0.0867405,0.0004590000000000011,-0.0012215000000000004,0.0867405,-0.00045899999999999934,0.0012215000000000004,-0.1106085,-0.44206399999999996,-0.0877655,0.12949149999999998,-0.458794,-0.03997150000000001,-0.1035385,-0.863184,-0.052615499999999996,0.1373415,-0.8686539999999999,-0.015248499999999998
89,-0.008758999999999998,0.8002825,0.111149,-0.17359,0.5584925,0.068247,-0.30245,0.7083425,-0.09204299999999999,0.16772,0.5526825,0.087518,0.33823,0.6878825,-0.050747,-0.20934999999999998,0.9392725,-0.071833,0.26127999999999996,0.9145025,-0.095383,-0.08710999999999999,0.000311500000000001,-0.0014440000000000008,0.08710999999999999,-0.0003114999999999993,0.0014440000000000008,-0.11046999999999998,-0.4394375,-0.09307299999999999,0.12971000000000002,-0.4561675,-0.044424000000000005,-0.10436200000000001,-0.8605575,-0.053163,0.13651000000000002,-0.8660275,-0.015065999999999996
90,-0.008744000000000002,0.7990765,0.1037685,-0.1739,0.5570765,0.0632765,-0.30387000000000003,0.7058765,-0.0965875,0.16791,0.5521065000000001,0.08337649999999999,0.34054,0.6858965,-0.0539275,-0.21049,0.9375165,-0.0717175,0.26193,0.9124465,-0.0939375,-0.087417,0.00014250000000000027,-0.0016394999999999951,0.087417,-0.00014250000000000027,0.001639500000000002,-0.1103,-0.43687349999999997,-0.0980275,0.12996999999999997,-0.4536035,-0.0490095,-0.105035,-0.8579935,-0.053737499999999994,0.13584999999999997,-0.8634634999999999,-0.014865500000000004
91,-0.008812000000000006,0.7984,0.0963315,-0.174131,0.55615,0.0582495,-0.30550099999999997,0.70383,-0.1018835,0.168099,0.55166,0.0788885,0.342859,0.68414,-0.05745349999999999,-0.21139100000000002,0.93572,-0.07209349999999999,0.262569,0.91044,-0.0931435,-0.087721,-7.000000000000062e-05,-0.0018904999999999964,0.087721,6.999999999999715e-05,0.0018905000000000033,-0.110152,-0.43388,-0.1029935,0.13022899999999998,-0.45008,-0.05373349999999999,-0.10572100000000001,-0.85523,-0.05423349999999999,0.13516899999999998,-0.86041,-0.014732499999999996
92,-0.008613500000000003,0.797562,0.088933,-0.1740335,0.554882,0.053245999999999995,-0.3065235,0.7016819999999999,-0.10708999999999999,0.1685565,0.5513319999999999,0.074113,0.3454265,0.682052,-0.06103000000000001,-0.2116335,0.933102,-0.07241,0.2633165,0.908162,-0.0927,-0.08798149999999999,-0.00017,-0.002026,0.08798149999999999,0.00017,0.002026,-0.11000750000000001,-0.43080799999999997,-0.10665,0.1303365,-0.44623799999999997,-0.05754,-0.10618949999999999,-0.851738,-0.054240000000000003,0.1345465,-0.856458,-0.014878999999999996
93,-0.008324499999999997,0.7969725000000001,0.081398,-0.17381749999999999,0.5539125,0.048275000000000005,-0.3075675,0.6995425000000001,-0.11238799999999999,0.1690425,0.5510225000000001,0.069325,0.34803249999999997,0.6801625,-0.06487799999999999,-0.2112375,0.9308825000000001,-0.072828,0.2639325,0.9058925000000001,-0.092278,-0.0882525,-0.0003055000000000002,-0.0020839999999999956,0.0882525,0.0003055000000000002,0.0020840000000000025,-0.1098485,-0.4277275,-0.11021800000000001,0.13019250000000002,-0.4432275,-0.060878,-0.10658949999999999,-0.8481074999999999,-0.053978,0.13402250000000002,-0.8524075,-0.015025999999999998
94,-0.008041999999999997,0.7960894999999999,0.073524,-0.173619,0.5529894999999999,0.04309500000000001,-0.308499,0.6972894999999999,-0.11763599999999999,0.169551,0.5507894999999999,0.06446600000000001,0.350641,0.6781195,-0.068896,-0.21117899999999998,0.9284294999999999,-0.07457599999999999,0.26448099999999997,0.9036194999999999,-0.09179599999999999,-0.088511,-0.0005245000000000007,-0.002035999999999996,0.088511,0.0005245000000000007,0.002036000000000003,-0.10977799999999999,-0.4248305,-0.11308599999999999,0.130251,-0.43951049999999997,-0.06440599999999999,-0.106962,-0.8448405000000001,-0.053585999999999995,0.133721,-0.8483905,-0.015106999999999995
95,-0.007811000000000001,0.7954355,0.06490950000000001,-0.173517,0.5519854999999999,0.037387500000000004,-0.30968700000000005,0.6947654999999999,-0.12332850000000001,0.170003,0.5504754999999999,0.0589025,0.35291300000000003,0.6760054999999999,-0.0735085,-0.211307,0.9243655,-0.07725850000000001,0.26467300000000005,0.9010655,-0.0916885,-0.088753,-0.0006894999999999991,-0.0019124999999999975,0.088753,0.0006894999999999991,0.0019125000000000045,-0.109852,-0.4223145,-0.11636849999999999,0.130173,-0.43734449999999997,-0.0680885,-0.10743,-0.8418345,-0.0533585,0.133183,-0.8443145000000001,-0.015053499999999997
96,-0.0076335000000000005,0.7946115,0.056123,-0.1734885,0.5508215000000001,0.031417,-0.31101850000000003,0.6919615,-0.12913400000000003,0.1703715,0.5503815000000001,0.053208,0.3550215,0.6736715,-0.078444,-0.21149849999999998,0.9199815,-0.08081400000000001,0.2643815,0.8981615000000001,-0.09341400000000001,-0.0889815,-0.0008085000000000002,-0.0018499999999999975,0.0889815,0.0008085000000000002,0.0018499999999999975,-0.11002050000000001,-0.4204985,-0.11959399999999999,0.1300515,-0.43548849999999995,-0.07187400000000001,-0.1078935,-0.8396085,-0.053674,0.13259149999999997,-0.8405785,-0.015380000000000005
97,-0.007503500000000001,0.7942405,0.047802,-0.1734965,0.5501205,0.025774,-0.3122665,0.6897905,-0.13477,0.1706335,0.5504005,0.047696999999999996,0.35661349999999997,0.6717405,-0.0832,-0.21133649999999998,0.9157204999999999,-0.08545,0.2638735,0.8957205,-0.09558,-0.0891535,-0.0008765000000000023,-0.0018820000000000017,0.0891535,0.0008764999999999988,0.0018820000000000017,-0.11017750000000001,-0.4192195,-0.12266000000000002,0.1298535,-0.4339995,-0.07632,-0.10837350000000001,-0.8380295,-0.054200000000000005,0.1319935,-0.8368695,-0.015696999999999996
98,-0.007224499999999995,0.7936835,0.0387665,-0.1735395,0.5491934999999999,0.019531500000000004,-0.3133895,0.6872735000000001,-0.14166249999999997,0.17085050000000002,0.5504335,0.0413945,0.3580505,0.6704735,-0.0891925,-0.2108895,0.9108134999999999,-0.09251249999999998,0.26333049999999997,0.8937735,-0.09884249999999999,-0.0893105,-0.0009185000000000026,-0.0019044999999999965,0.0893105,0.0009184999999999957,0.0019045000000000034,-0.1101195,-0.4174865,-0.1253625,0.1296405,-0.4321965,-0.08044249999999999,-0.1088635,-0.8359764999999999,-0.0545325,0.13118049999999998,-0.8328964999999999,-0.015789499999999998
99,-0.007055500000000003,0.7935935,0.030005499999999997,-0.17369250000000003,0.5483034999999999,0.013026499999999996,-0.31469250000000004,0.6854735,-0.14850950000000002,0.1709775,0.5504435,0.0346915,0.3590675,0.6697035,-0.0955595,-0.21060250000000003,0.9067335,-0.10025950000000002,0.2627275,0.8922734999999999,-0.10313950000000001,-0.0895275,-0.0010044999999999984,-0.0018135000000000026,0.0895275,0.0010045000000000054,0.0018134999999999957,-0.1101155,-0.4149965,-0.1283495,0.12920749999999998,-0.42983649999999995,-0.08418950000000001,-0.10956250000000001,-0.8331365000000001,-0.0550495,0.13024750000000002,-0.8281765,-0.016017500000000004
100,-0.006890000000000002,0.793256,0.020869,-0.17397800000000002,0.5475359999999999,0.0064569999999999975,-0.315558,0.6835559999999999,-0.15509099999999998,0.170932,0.5507059999999999,0.027974,0.359912,0.669326,-0.102171,-0.21057800000000002,0.9028759999999999,-0.10893100000000001,0.262082,0.8911359999999999,-0.108091,-0.089812,-0.0009820000000000037,-0.0016400000000000026,0.089812,0.0009819999999999968,0.0016399999999999956,-0.110204,-0.412344,-0.131241,0.128412,-0.427324,-0.08750100000000001,-0.11035500000000001,-0.8298340000000001,-0.055271,0.12925199999999998,-0.823114,-0.016384999999999997
101,-0.006763499999999999,0.7930820000000001,0.012248500000000002,-0.1742985,0.547232,0.00011450000000000349,-0.3164885,0.6816920000000001,-0.16216049999999999,0.1706815,0.551222,0.021854500000000002,0.3604115,0.668902,-0.10937050000000001,-0.21083849999999998,0.899242,-0.11587049999999999,0.2607615,0.889582,-0.1137805,-0.09009149999999999,-0.0010679999999999995,-0.0014244999999999952,0.09009149999999999,0.0010679999999999995,0.0014245000000000022,-0.11034449999999998,-0.40967800000000004,-0.13449049999999999,0.1275115,-0.424648,-0.09145049999999999,-0.1113065,-0.826448,-0.0559805,0.12822150000000002,-0.819168,-0.017340499999999995
102,-0.0064129999999999986,0.7926015,0.0029930000000000026,-0.174272,0.5467215,-0.006780999999999995,-0.317062,0.6798815,-0.169966,0.170498,0.5516115,0.014809000000000003,0.360848,0.6683415,-0.11737600000000001,-0.210972,0.8953315,-0.12354599999999999,0.259078,0.8878915,-0.12034600000000001,-0.090398,-0.0010435000000000028,-0.001230999999999996,0.090398,0.0010434999999999958,0.001231000000000003,-0.110427,-0.4070285,-0.138066,0.126658,-0.4218285,-0.095946,-0.112178,-0.8231485,-0.057336,0.127228,-0.8150185,-0.018415
103,-0.005922499999999999,0.791501,-0.006143999999999997,-0.1741435,0.5461710000000001,-0.013454,-0.3174035,0.677751,-0.177949,0.1703765,0.551861,0.007452,0.3612465,0.667081,-0.12617899999999999,-0.2106335,0.891101,-0.130299,0.25701650000000004,0.885121,-0.128019,-0.0906765,-0.0010690000000000005,-0.0010659999999999975,0.0906765,0.0010690000000000005,0.0010660000000000044,-0.11037549999999999,-0.404609,-0.141839,0.1260165,-0.418109,-0.099989,-0.11298150000000001,-0.820009,-0.05889899999999999,0.1263665,-0.811179,-0.019733
104,-0.005245999999999997,0.790778,-0.015054999999999999,-0.173695,0.546448,-0.020067999999999996,-0.317515,0.676328,-0.186412,0.170375,0.552008,0.00026099999999999735,0.36129500000000003,0.666328,-0.135312,-0.208705,0.889128,-0.136822,0.25482499999999997,0.882898,-0.136022,-0.091035,-0.000903000000000001,-0.0009940000000000018,0.091035,0.000903000000000001,0.0009940000000000018,-0.110176,-0.40339200000000003,-0.145502,0.125675,-0.416782,-0.104272,-0.113622,-0.818202,-0.061211999999999996,0.125715,-0.806612,-0.021431
105,-0.004415000000000006,0.789705,-0.024440000000000003,-0.17318,0.547025,-0.026661000000000004,-0.31752,0.674545,-0.195469,0.1704,0.5521050000000001,-0.007164999999999998,0.36135,0.665265,-0.145199,-0.20627,0.887225,-0.143509,0.25236,0.880345,-0.143759,-0.09139,-0.0007780000000000009,-0.0008459999999999995,0.09139,0.0007780000000000009,0.0008459999999999995,-0.109958,-0.402155,-0.149579,0.12546000000000002,-0.415795,-0.10874900000000001,-0.114125,-0.816605,-0.064009,0.12524000000000002,-0.801945,-0.024003999999999998
106,-0.0035329999999999945,0.788543,-0.0338045,-0.172684,0.547593,-0.0331395,-0.31741400000000003,0.672543,-0.2051665,0.170496,0.552033,-0.014740499999999997,0.361516,0.664253,-0.1555965,-0.203434,0.885893,-0.1499365,0.24953599999999998,0.877603,-0.1523465,-0.09171599999999999,-0.0007049999999999973,-0.0007684999999999984,0.09171599999999999,0.0007049999999999973,0.0007685000000000053,-0.10977100000000001,-0.400837,-0.1539765,0.125166,-0.413867,-0.11237649999999999,-0.11446999999999999,-0.811847,-0.06637649999999999,0.12487599999999999,-0.796837,-0.026858499999999993
107,-0.002689999999999998,0.7869075,-0.042876,-0.172095,0.5483375,-0.039181999999999995,-0.31688500000000003,0.6699075,-0.213901,0.170595,0.5518575,-0.021717,0.361735,0.6621875,-0.165381,-0.20031500000000002,0.8854775,-0.15437099999999998,0.24689499999999998,0.8741875,-0.16147099999999998,-0.092015,-0.0006055000000000088,-0.0007390000000000035,0.092015,0.0006054999999999949,0.0007389999999999966,-0.109782,-0.3993725,-0.15875099999999998,0.125095,-0.4115025,-0.116241,-0.114716,-0.8064525,-0.068871,0.12472499999999999,-0.7917325,-0.030130000000000004
108,-0.0017870000000000004,0.784585,-0.05157250000000001,-0.17146,0.549195,-0.0445545,-0.316,0.666735,-0.22229949999999998,0.17065999999999998,0.5515749999999999,-0.027870500000000006,0.36186,0.659225,-0.1748495,-0.19715000000000002,0.880695,-0.1605395,0.245,0.870185,-0.1701295,-0.09226999999999999,-0.0004499999999999921,-0.0007764999999999994,0.09226999999999999,0.00045000000000000595,0.0007764999999999994,-0.10977500000000001,-0.397945,-0.1629995,0.12522,-0.409615,-0.12019950000000001,-0.114976,-0.801235,-0.0711295,0.12467,-0.787115,-0.0331645
109,-0.0009405000000000038,0.7823874999999999,-0.059467000000000006,-0.1705755,0.5495875,-0.049937999999999996,-0.3149055,0.6631475,-0.230548,0.1707645,0.5509875,-0.034089999999999995,0.36163449999999997,0.6553975,-0.184328,-0.1937055,0.8753774999999999,-0.167358,0.2431945,0.8655575,-0.179088,-0.09249450000000001,-0.00033049999999999746,-0.0007519999999999957,0.09249450000000001,0.00033049999999999746,0.0007520000000000027,-0.1096885,-0.3964825,-0.167278,0.1251045,-0.4081725,-0.12303800000000001,-0.11525650000000001,-0.7961925000000001,-0.073528,0.12461450000000002,-0.7828325,-0.035551
110,-0.00032849999999999893,0.780279,-0.0673565,-0.1696585,0.549999,-0.055307499999999996,-0.31397850000000005,0.659589,-0.2383715,0.1706615,0.549999,-0.0408675,0.36091150000000005,0.6518489999999999,-0.1932315,-0.1903385,0.8706389999999999,-0.1743815,0.24169149999999998,0.8614489999999999,-0.1875515,-0.0927115,-0.0001749999999999946,-0.0008184999999999998,0.0927115,0.00017500000000000848,0.0008184999999999998,-0.1098975,-0.394891,-0.1703315,0.1249515,-0.406811,-0.1280315,-0.11573649999999999,-0.7910710000000001,-0.0764615,0.12445149999999999,-0.778481,-0.0390185
111,0.00016299999999999995,0.7774115,-0.0754415,-0.16903400000000002,0.5500915,-0.0606755,-0.313044,0.6555615,-0.2462715,0.17041599999999998,0.5492115,-0.047220500000000006,0.359866,0.6477115,-0.2020615,-0.18746400000000002,0.8654715000000001,-0.18150149999999998,0.24075599999999997,0.8571215,-0.1959215,-0.092886,-0.00014650000000000774,-0.0008855000000000009,0.092886,0.00014649999999999386,0.0008854999999999974,-0.11022799999999999,-0.3933685,-0.1732515,0.124776,-0.40572850000000005,-0.1326815,-0.11633299999999999,-0.7857985,-0.07965150000000001,0.124196,-0.7744985,-0.04265650000000001
112,0.0004400000000000029,0.7750525,-0.0836275,-0.16819199999999998,0.5496525,-0.0667145,-0.312232,0.6510825,-0.2546175,0.169988,0.5486725,-0.0537855,0.358568,0.6435725,-0.21095750000000002,-0.185192,0.8601225,-0.1895675,0.240088,0.8530525,-0.2042675,-0.093078,-0.00013249999999999373,-0.0008624999999999987,0.093078,0.0001325000000000076,0.0008625000000000022,-0.110652,-0.3916075,-0.1766275,0.12448800000000002,-0.4044875,-0.1374975,-0.11713000000000001,-0.7798775,-0.0826475,0.12373800000000001,-0.7705274999999999,-0.0468325
113,0.0008394999999999965,0.7726299999999999,-0.0926555,-0.1674795,0.54943,-0.0730335,-0.3112695,0.6469,-0.2627855,0.16943049999999998,0.54764,-0.0610285,0.35715050000000004,0.6396499999999999,-0.2196855,-0.1831495,0.85499,-0.1983655,0.23972049999999998,0.84953,-0.2130155,-0.0932805,-9.999999999998899e-05,-0.0008804999999999993,0.0932805,0.00010000000000000286,0.0008804999999999993,-0.1109485,-0.39024000000000003,-0.1805155,0.1241005,-0.40253000000000005,-0.1424955,-0.11800050000000001,-0.77358,-0.0863455,0.1232405,-0.76647,-0.051532499999999995
114,0.0011719999999999994,0.76977,-0.1018095,-0.16685899999999998,0.54909,-0.0791265,-0.310149,0.64185,-0.2715195,0.16864099999999999,0.54642,-0.06835050000000001,0.35562099999999996,0.6348199999999999,-0.22859949999999998,-0.182529,0.84955,-0.2076895,0.23834099999999997,0.84534,-0.22179949999999998,-0.093381,0.0,-0.0010504999999999994,0.093381,0.0,0.0010504999999999994,-0.111321,-0.38688,-0.1844895,0.12358100000000001,-0.39908,-0.14647949999999998,-0.118882,-0.76727,-0.0896995,0.122631,-0.7628,-0.05608250000000001
115,0.0015510000000000003,0.76662,-0.111674,-0.166234,0.54888,-0.085762,-0.308784,0.63727,-0.280234,0.167816,0.54555,-0.075928,0.354256,0.62935,-0.23757399999999998,-0.18135400000000002,0.8427399999999999,-0.22201400000000002,0.237106,0.8409099999999999,-0.231074,-0.093386,9.999999999998899e-05,-0.001292999999999999,0.093386,-0.00010000000000000286,0.0012930000000000007,-0.112036,-0.38319000000000003,-0.190444,0.123336,-0.39539,-0.15246400000000002,-0.119844,-0.76261,-0.09476399999999999,0.12201599999999999,-0.7591100000000001,-0.061235000000000005
116,0.0018270000000000022,0.763675,-0.1221795,-0.16480899999999998,0.5471550000000001,-0.0939195,-0.307319,0.633285,-0.2895595,0.167071,0.544415,-0.08462950000000001,0.35300099999999995,0.624695,-0.24721949999999998,-0.179949,0.835775,-0.2369495,0.235801,0.837165,-0.2402995,-0.093281,0.00016499999999999848,-0.0017285000000000009,0.093281,-0.00016499999999999848,0.0017285,-0.112794,-0.37926499999999996,-0.1968895,0.12323100000000001,-0.39146499999999995,-0.15899950000000002,-0.12085599999999999,-0.757375,-0.10023950000000001,0.121421,-0.755185,-0.0669165
117,0.0024424999999999968,0.7611600000000001,-0.140391,-0.1633465,0.54628,-0.109341,-0.3056065,0.62862,-0.306931,0.1663435,0.5441199999999999,-0.10067999999999999,0.35199349999999996,0.62019,-0.264611,-0.1786465,0.83226,-0.257691,0.23457350000000002,0.83284,-0.260181,-0.0927635,0.00020000000000000573,-0.0019100000000000002,0.0927635,-0.00019999999999999185,0.0019100000000000002,-0.1134735,-0.37477,-0.210651,0.12317349999999999,-0.38697,-0.172871,-0.1218565,-0.7509399999999999,-0.11318099999999999,0.1208535,-0.7506900000000001,-0.080165
118,0.0035764999999999963,0.7588649999999999,-0.16013100000000002,-0.1607585,0.545255,-0.12701099999999999,-0.3033585,0.6258349999999999,-0.325171,0.1653815,0.543545,-0.118171,0.35140150000000003,0.617785,-0.28365100000000004,-0.1778685,0.830795,-0.278521,0.23320149999999998,0.8297749999999999,-0.281071,-0.0921815,0.0002249999999999891,-0.00213,0.0921815,-0.00022500000000000298,0.00213,-0.1144395,-0.36490500000000003,-0.22779100000000002,0.1256415,-0.373875,-0.195021,-0.12312250000000001,-0.744035,-0.132681,0.1219615,-0.7434449999999999,-0.103609
119,0.005025000000000002,0.75566,-0.1808035,-0.158161,0.54427,-0.1444335,-0.30085100000000004,0.6225499999999999,-0.3437335,0.16444899999999998,0.54316,-0.1350535,0.350949,0.6145499999999999,-0.3032235,-0.177431,0.82845,-0.2990235,0.231989,0.82613,-0.3024335,-0.09156900000000001,0.00025999999999998247,-0.0023035,0.09156900000000001,-0.0002600000000000102,0.0023035,-0.115392,-0.35502,-0.2445935,0.127989,-0.36118,-0.2160235,-0.124055,-0.7369100000000001,-0.1521535,0.123079,-0.73597,-0.1260915
120,0.006459500000000003,0.7523449999999999,-0.2014755,-0.15530449999999998,0.543005,-0.1624355,-0.2975045,0.619595,-0.3629255,0.16341550000000002,0.542415,-0.15273550000000002,0.35029550000000004,0.611655,-0.3235255,-0.17583449999999998,0.826265,-0.3201555,0.23067550000000003,0.822925,-0.3254255,-0.09099549999999999,0.0003049999999999997,-0.0024975000000000067,0.09099549999999999,-0.0003049999999999997,0.0024974999999999997,-0.1164235,-0.34414500000000003,-0.2609655,0.1303155,-0.34745499999999996,-0.2371555,-0.1248905,-0.729665,-0.1711655,0.12445549999999998,-0.727695,-0.1491855
121,0.008030999999999993,0.747795,-0.22200750000000002,-0.152393,0.541375,-0.1801575,-0.29405299999999995,0.615935,-0.3823275,0.16189699999999999,0.541495,-0.1708375,0.349667,0.608125,-0.34429750000000003,-0.172933,0.8224549999999999,-0.3434775,0.229087,0.818825,-0.3487075,-0.090377,0.00015499999999998848,-0.002849499999999998,0.090377,-0.00015499999999998848,0.002849500000000005,-0.117388,-0.33279499999999995,-0.2773575,0.132637,-0.33311500000000005,-0.2580475,-0.125649,-0.7221150000000001,-0.1907775,0.126017,-0.719155,-0.17187750000000002
122,0.009292999999999996,0.74253,-0.242509,-0.14962999999999999,0.53963,-0.198459,-0.29106,0.61191,-0.40212899999999996,0.15986999999999998,0.54079,-0.189039,0.34863999999999995,0.60378,-0.365719,-0.16972,0.81864,-0.36712900000000004,0.2271,0.8138799999999999,-0.372649,-0.08959,-4.000000000001225e-05,-0.0031800000000000023,0.08959,3.999999999998449e-05,0.0031800000000000023,-0.118685,-0.32128,-0.29374900000000004,0.13455,-0.32073,-0.277309,-0.126498,-0.71507,-0.210699,0.12716,-0.7128,-0.19325900000000001
123,0.010401,0.737165,-0.2632495,-0.14685700000000002,0.537445,-0.2165795,-0.288087,0.604975,-0.4215795,0.157573,0.5401750000000001,-0.2069995,0.347353,0.599735,-0.38657949999999996,-0.166737,0.811365,-0.3906895,0.22476300000000002,0.808495,-0.39597950000000004,-0.088893,-0.00013499999999999623,-0.003531499999999993,0.088893,0.00013499999999999623,0.003531500000000007,-0.120403,-0.309255,-0.31024949999999996,0.136273,-0.307595,-0.2963395,-0.127349,-0.708595,-0.23020949999999998,0.128193,-0.705895,-0.2147395
124,0.011158500000000002,0.731325,-0.28392,-0.1441935,0.5351049999999999,-0.23512,-0.2857435,0.598755,-0.44127,0.1548265,0.5371950000000001,-0.22560999999999998,0.34565650000000003,0.596255,-0.40801,-0.16433350000000002,0.8055950000000001,-0.41135,0.2217065,0.804055,-0.421,-0.0882065,-0.00023499999999998522,-0.0038499999999999923,0.0882065,0.00023500000000001298,0.003850000000000006,-0.12286050000000001,-0.295825,-0.32663,0.1379065,-0.292685,-0.31587,-0.1284855,-0.700925,-0.24992999999999999,0.1290865,-0.697435,-0.23663
125,0.011943000000000002,0.72531,-0.304205,-0.142415,0.53389,-0.252245,-0.283615,0.59244,-0.46037500000000003,0.152175,0.53464,-0.243155,0.343935,0.59116,-0.429025,-0.161705,0.79942,-0.431775,0.21841500000000003,0.7979799999999999,-0.445365,-0.087705,-0.00032999999999999696,-0.003935000000000008,0.087705,0.00032999999999999696,0.003934999999999994,-0.12556699999999998,-0.2821,-0.343785,0.13943499999999998,-0.2774,-0.33525499999999997,-0.12983699999999998,-0.6936100000000001,-0.26954500000000003,0.129925,-0.6891400000000001,-0.258425
126,0.012424000000000004,0.7184550000000001,-0.31781499999999996,-0.140315,0.528025,-0.263175,-0.280875,0.586985,-0.47240499999999996,0.150055,0.532355,-0.25426499999999996,0.34181500000000004,0.5864750000000001,-0.44310499999999997,-0.15948500000000002,0.794405,-0.44559499999999996,0.215455,0.7933950000000001,-0.460065,-0.087555,-0.0008849999999999969,-0.0042049999999999865,0.087555,0.0008849999999999969,0.004205000000000014,-0.128657,-0.269075,-0.35440499999999997,0.140945,-0.261975,-0.348395,-0.131298,-0.6848050000000001,-0.282545,0.130625,-0.6791750000000001,-0.273995
127,0.012992999999999998,0.71102,-0.33270999999999995,-0.139449,0.52245,-0.27166999999999997,-0.278719,0.57812,-0.48319,0.14793099999999998,0.52883,-0.2636,0.339571,0.57864,-0.45532,-0.157289,0.786,-0.45822999999999997,0.213061,0.78606,-0.47359,-0.08735100000000001,-0.0009699999999999986,-0.004459999999999992,0.087351,0.0009699999999999986,0.0044600000000000195,-0.129802,-0.26174,-0.36161,0.14048100000000002,-0.25368,-0.35555,-0.132142,-0.67833,-0.28973,0.12978099999999998,-0.67086,-0.28118
128,0.013556000000000006,0.7033349999999999,-0.34637,-0.138592,0.516955,-0.28004,-0.276742,0.5674349999999999,-0.49352,0.145918,0.525075,-0.27294,0.337158,0.570575,-0.46682,-0.154992,0.775425,-0.47316,0.210558,0.778095,-0.48703,-0.087178,-0.0009650000000000214,-0.0046700000000000075,0.087178,0.0009649999999999936,0.00466999999999998,-0.13084199999999999,-0.25417500000000004,-0.36887000000000003,0.140118,-0.245685,-0.36275999999999997,-0.132905,-0.6715450000000001,-0.29697,0.129018,-0.662895,-0.28842
129,0.014147,0.69214,-0.36036999999999997,-0.137942,0.51044,-0.28839000000000004,-0.275652,0.55625,-0.50342,0.14427800000000002,0.51834,-0.28191,0.335048,0.56121,-0.47800000000000004,-0.152352,0.76447,-0.48775,0.20729799999999998,0.76739,-0.49867,-0.08720800000000001,-0.0009200000000000041,-0.0047800000000000065,0.08720800000000001,0.0009200000000000041,0.004779999999999979,-0.131827,-0.24745,-0.37637,0.139778,-0.23873,-0.37021000000000004,-0.133775,-0.66516,-0.30446,0.12814799999999998,-0.6558900000000001,-0.29591
130,0.014667,0.682055,-0.38129,-0.137181,0.504905,-0.30344,-0.274141,0.543595,-0.51982,0.143899,0.510555,-0.29694,0.333609,0.549665,-0.49498,-0.14980100000000002,0.7528250000000001,-0.5064500000000001,0.20508900000000002,0.755015,-0.51822,-0.087079,-0.0008450000000000124,-0.004920000000000008,0.087079,0.0008450000000000124,0.004920000000000008,-0.132999,-0.23797500000000002,-0.38276,0.138689,-0.231735,-0.37575000000000003,-0.133056,-0.655965,-0.31162999999999996,0.12688899999999997,-0.649025,-0.30223
131,0.015236500000000007,0.67092,-0.401355,-0.1363085,0.49927,-0.31738500000000003,-0.2723445,0.5315799999999999,-0.535125,0.1437155,0.50267,-0.310795,0.3326355,0.5382100000000001,-0.510715,-0.14772449999999998,0.74072,-0.524435,0.2033855,0.74285,-0.535425,-0.0872155,-0.0005699999999999872,-0.004925000000000013,0.0872155,0.0005700000000000149,0.004925000000000013,-0.1340235,-0.22815999999999997,-0.38787499999999997,0.1378855,-0.22353,-0.380475,-0.13213049999999998,-0.64633,-0.317815,0.12583550000000002,-0.64108,-0.30789500000000003
132,0.014824000000000004,0.659895,-0.413225,-0.135731,0.49077499999999996,-0.328705,-0.27124000000000004,0.521305,-0.547105,0.14323,0.492325,-0.321695,0.33141,0.525985,-0.5231950000000001,-0.14594000000000001,0.7299650000000001,-0.539245,0.20093,0.7308250000000001,-0.5495749999999999,-0.08724,-0.00039500000000000646,-0.004264999999999991,0.08724,0.00039500000000000646,0.004264999999999991,-0.13599,-0.220475,-0.39437500000000003,0.13757,-0.217585,-0.38758499999999996,-0.132324,-0.638975,-0.326465,0.12535000000000002,-0.635505,-0.316665
133,0.014409000000000005,0.649715,-0.42335500000000004,-0.135064,0.482395,-0.339165,-0.269947,0.509855,-0.558005,0.142963,0.48348499999999994,-0.331415,0.330573,0.512655,-0.534395,-0.144677,0.718655,-0.551985,0.19910300000000003,0.717305,-0.561065,-0.08724299999999999,-0.00022500000000000298,-0.0036549999999999916,0.087243,0.00022500000000000298,0.0036549999999999916,-0.138077,-0.214525,-0.399745,0.137743,-0.213425,-0.39324499999999996,-0.13228,-0.6333650000000001,-0.33357499999999995,0.125243,-0.631745,-0.32459499999999997
134,0.014030500000000001,0.6391249999999999,-0.43237000000000003,-0.1341155,0.472235,-0.3491,-0.2688135,0.498205,-0.5683,0.1431065,0.474295,-0.34053,0.32972650000000003,0.49978500000000003,-0.5446,-0.1429735,0.7069650000000001,-0.56402,0.1972565,0.7041850000000001,-0.5718000000000001,-0.08719650000000001,7.50000000000195e-05,-0.0031300000000000217,0.08719650000000001,-7.499999999999174e-05,0.003129999999999994,-0.1401135,-0.20920499999999997,-0.40481,0.1383065,-0.210055,-0.40001000000000003,-0.1325675,-0.6283350000000001,-0.34071,0.12488649999999998,-0.6288050000000001,-0.33331
135,0.010965999999999997,0.63192,-0.448265,-0.133394,0.46882999999999997,-0.360595,-0.268904,0.48864,-0.580095,0.143626,0.46679000000000004,-0.351275,0.329606,0.48835,-0.556045,-0.142764,0.6967300000000001,-0.577755,0.19769599999999998,0.69173,-0.583905,-0.087226,0.0008799999999999919,-0.0027850000000000097,0.087226,-0.0008799999999999919,0.0027850000000000097,-0.141204,-0.20018000000000002,-0.407365,0.139456,-0.20351999999999998,-0.403435,-0.131924,-0.6196699999999999,-0.344655,0.124056,-0.6226499999999999,-0.338365
136,0.007307000000000001,0.62422,-0.46399,-0.13266699999999998,0.46293,-0.37182000000000004,-0.26894399999999996,0.47953,-0.59202,0.144666,0.45739,-0.36205,0.32951600000000003,0.47777000000000003,-0.5672,-0.141734,0.68694,-0.59165,0.197856,0.6801200000000001,-0.5976,-0.08726600000000001,0.0015000000000000013,-0.0023400000000000087,0.08726600000000001,-0.0015000000000000013,0.002339999999999981,-0.14194400000000001,-0.19159,-0.40999,0.141086,-0.19686,-0.40655,-0.13119599999999998,-0.6114700000000001,-0.34867000000000004,0.123526,-0.61644,-0.34365
137,0.0035875000000000004,0.617185,-0.47992,-0.1318005,0.45708499999999996,-0.38371,-0.2685205,0.472375,-0.60379,0.1457595,0.44847499999999996,-0.37291,0.3294995,0.466945,-0.57822,-0.1404705,0.6784250000000001,-0.60446,0.19863950000000002,0.668545,-0.61312,-0.08725949999999999,0.0017449999999999966,-0.0019100000000000228,0.0872595,-0.0017450000000000243,0.001909999999999995,-0.1425805,-0.183025,-0.41303,0.14274949999999997,-0.188485,-0.40967,-0.1304345,-0.6031850000000001,-0.35308,0.12342950000000001,-0.6082750000000001,-0.34988
138,7.099999999999468e-05,0.6126,-0.49578500000000003,-0.130491,0.45294,-0.395925,-0.26776900000000003,0.46011,-0.615635,0.146981,0.44266,-0.38388500000000003,0.329801,0.45365,-0.589075,-0.139329,0.6665,-0.617815,0.19928099999999999,0.65595,-0.628225,-0.087171,0.0020600000000000063,-0.0016150000000000053,0.087171,-0.0020600000000000063,0.0016150000000000053,-0.14274900000000001,-0.17462999999999998,-0.415975,0.144961,-0.18082,-0.41274500000000003,-0.129407,-0.59526,-0.35740500000000003,0.123701,-0.60067,-0.355695
139,-0.003529499999999991,0.6083700000000001,-0.50327,-0.12921850000000001,0.44813000000000003,-0.40319000000000005,-0.26738449999999997,0.45081000000000004,-0.62208,0.1477755,0.43651,-0.39006,0.3299655,0.44331,-0.5946800000000001,-0.1389745,0.65665,-0.62706,0.2003255,0.64627,-0.6374500000000001,-0.08689549999999999,0.0026500000000000135,-0.0018299999999999983,0.0868955,-0.0026499999999999857,0.0018299999999999983,-0.1429145,-0.16698999999999997,-0.41648,0.14706550000000002,-0.17329,-0.41216,-0.1287525,-0.58769,-0.35802,0.12357550000000002,-0.59328,-0.35585
140,-0.005136500000000002,0.606155,-0.51075,-0.12774950000000002,0.439835,-0.41039000000000003,-0.2663955,0.440995,-0.62827,0.1488345,0.430525,-0.39619000000000004,0.33080449999999995,0.43293499999999996,-0.60032,-0.1383655,0.646855,-0.63651,0.2006045,0.636495,-0.64334,-0.0867645,0.0030850000000000044,-0.0020000000000000018,0.0867645,-0.0030850000000000044,0.0020000000000000018,-0.1426955,-0.15985500000000002,-0.41685000000000005,0.1494145,-0.16789500000000002,-0.41184,-0.1278895,-0.580705,-0.358711,0.12375449999999999,-0.5879449999999999,-0.355412
141,-0.006379000000000003,0.604285,-0.51763,-0.12607200000000002,0.434415,-0.41720999999999997,-0.26516,0.432555,-0.6346499999999999,0.14997,0.42679500000000004,-0.40237,0.33185,0.423165,-0.60563,-0.136617,0.6388050000000001,-0.6453,0.20243,0.627365,-0.6465000000000001,-0.08655,0.003695000000000004,-0.0021900000000000253,0.08655,-0.003695000000000004,0.0021900000000000253,-0.14242,-0.153435,-0.41729,0.15244,-0.16184500000000002,-0.41156000000000004,-0.126639,-0.5742349999999999,-0.359759,0.12426000000000001,-0.581885,-0.354837
142,-0.0060155,0.5992200000000001,-0.5223249999999999,-0.1247475,0.4294,-0.422475,-0.2639375,0.42372000000000004,-0.639525,0.1508425,0.42212000000000005,-0.406985,0.3324025,0.41422000000000003,-0.609485,-0.1348385,0.6308400000000001,-0.652225,0.2045025,0.61906,-0.652295,-0.0865825,0.0038100000000000356,-0.0018349999999999755,0.08658249999999999,-0.00380999999999998,0.001835000000000031,-0.1436575,-0.14873999999999998,-0.419115,0.15572249999999999,-0.15844999999999998,-0.412995,-0.1264065,-0.5693699999999999,-0.362487,0.1251125,-0.57844,-0.357707
143,-0.005596999999999998,0.593985,-0.527595,-0.123774,0.425795,-0.427685,-0.262816,0.415095,-0.644595,0.151514,0.416985,-0.411545,0.333024,0.405885,-0.6133949999999999,-0.133639,0.622845,-0.6591849999999999,0.207404,0.6107750000000001,-0.6601349999999999,-0.086594,0.004074999999999995,-0.0016349999999999976,0.086594,-0.004074999999999995,0.0016349999999999976,-0.144846,-0.14454500000000003,-0.421305,0.159114,-0.15592500000000004,-0.414915,-0.12619,-0.5650250000000001,-0.364911,0.125504,-0.574085,-0.36097199999999996
144,-0.004625000000000001,0.58595,-0.532305,-0.122304,0.41920999999999997,-0.432145,-0.261015,0.40445,-0.649005,0.152585,0.40871,-0.41530500000000004,0.334495,0.39573,-0.616225,-0.131832,0.61244,-0.665125,0.210895,0.60111,-0.667505,-0.086475,0.004060000000000008,-0.0017449999999999966,0.086475,-0.004060000000000008,0.0017449999999999966,-0.145025,-0.14292,-0.423365,0.162795,-0.15578999999999998,-0.415515,-0.125632,-0.56337,-0.36741500000000005,0.12626500000000002,-0.57229,-0.36290700000000004
145,-0.003022999999999998,0.57506,-0.537505,-0.12068100000000001,0.41431,-0.436515,-0.259374,0.39463000000000004,-0.653535,0.15359599999999998,0.40315,-0.418855,0.336176,0.38584,-0.6187050000000001,-0.131144,0.6029500000000001,-0.671385,0.214456,0.59226,-0.674545,-0.086316,0.0041300000000000225,-0.00192500000000001,0.086316,-0.004129999999999967,0.00192500000000001,-0.145144,-0.14117999999999997,-0.425335,0.166166,-0.15517999999999998,-0.416585,-0.12474299999999999,-0.56147,-0.36942,0.12714599999999998,-0.56983,-0.364862
146,-0.001287499999999997,0.5650299999999999,-0.5418750000000001,-0.1190345,0.40946,-0.44022500000000003,-0.2573515,0.3855,-0.657745,0.1546685,0.39695,-0.42208500000000004,0.3380485,0.377232,-0.620445,-0.1295115,0.59537,-0.675635,0.2185685,0.5825899999999999,-0.684585,-0.0860785,0.004259999999999986,-0.002165000000000028,0.0860785,-0.004259999999999986,0.0021649999999999725,-0.14512150000000001,-0.13962000000000002,-0.42707500000000004,0.1695585,-0.15519,-0.41692500000000005,-0.12410049999999999,-0.56002,-0.37172600000000006,0.12778850000000003,-0.56785,-0.36262300000000003
147,0.004034000000000003,0.55627,-0.544805,-0.11766,0.40324,-0.443055,-0.255752,0.38081,-0.660505,0.155628,0.39022,-0.42401500000000003,0.339988,0.36785599999999996,-0.620385,-0.129443,0.59058,-0.678545,0.224248,0.57348,-0.691345,-0.085628,0.004390000000000005,-0.0024350000000000205,0.085628,-0.004390000000000005,0.0024350000000000205,-0.144542,-0.13842000000000004,-0.427885,0.172568,-0.15385000000000004,-0.41647500000000004,-0.123231,-0.55882,-0.372516,0.127898,-0.5653,-0.357867
148,0.010644,0.54627,-0.54759,-0.116398,0.39731000000000005,-0.44569000000000003,-0.254127,0.373784,-0.6635500000000001,0.156323,0.38435,-0.4257500000000001,0.34197299999999997,0.358731,-0.62028,-0.12873400000000002,0.5839700000000001,-0.68049,0.230063,0.56442,-0.6979200000000001,-0.085233,0.004720000000000002,-0.0028000000000000247,0.085233,-0.004720000000000002,0.002799999999999969,-0.143747,-0.13733,-0.42863000000000007,0.175693,-0.15134999999999998,-0.41636000000000006,-0.122246,-0.55773,-0.37325100000000005,0.128873,-0.5633699999999999,-0.35671100000000006
149,0.0174895,0.5359050000000001,-0.5503199999999999,-0.1149685,0.394115,-0.44806999999999997,-0.25211449999999996,0.36627,-0.6660699999999999,0.15716549999999999,0.378328,-0.42738,0.34414550000000005,0.350377,-0.62016,-0.1280415,0.577275,-0.68233,0.2358455,0.556025,-0.704,-0.0848655,0.005095000000000016,-0.0031300000000000217,0.0848655,-0.005095000000000016,0.0031300000000000217,-0.1425645,-0.13648500000000002,-0.42926,0.1788055,-0.149065,-0.41636,-0.12097150000000001,-0.556885,-0.373675,0.12996549999999998,-0.562165,-0.355898
150,0.024196500000000003,0.527525,-0.552955,-0.11370849999999999,0.392505,-0.450655,-0.25049150000000003,0.360714,-0.669025,0.1577485,0.37435999999999997,-0.42889499999999997,0.34557849999999996,0.34467,-0.620035,-0.12644350000000001,0.572165,-0.684825,0.24092850000000002,0.549985,-0.707375,-0.0845985,0.00520499999999996,-0.0033949999999999814,0.0845985,-0.005205000000000015,0.003395000000000037,-0.1426315,-0.13416500000000003,-0.43027499999999996,0.1815785,-0.146285,-0.41668499999999997,-0.1199885,-0.5545450000000001,-0.37477,0.1315485,-0.559095,-0.355174
151,0.029956999999999998,0.522445,-0.5558150000000001,-0.11266499999999999,0.390945,-0.45274500000000006,-0.249454,0.356415,-0.671035,0.158156,0.37269599999999997,-0.43012500000000004,0.347206,0.339821,-0.6198950000000001,-0.125394,0.567345,-0.686985,0.24560600000000002,0.544825,-0.709935,-0.084376,0.00523499999999999,-0.0035550000000000304,0.084376,-0.00523499999999999,0.003554999999999975,-0.142964,-0.131755,-0.431145,0.183746,-0.143225,-0.41669500000000004,-0.119199,-0.551985,-0.37547400000000003,0.132816,-0.555925,-0.353661
152,0.0340425,0.5179549999999999,-0.557715,-0.11178249999999999,0.38939799999999997,-0.45482500000000003,-0.2485495,0.352076,-0.672705,0.1585705,0.370711,-0.431355,0.34886049999999996,0.33508099999999996,-0.6197550000000001,-0.1249475,0.562845,-0.6881349999999999,0.24981050000000002,0.5405949999999999,-0.712105,-0.0841805,0.00522499999999998,-0.0035450000000000204,0.0841805,-0.005225000000000035,0.0035450000000000204,-0.1433495,-0.12939500000000004,-0.431725,0.1853905,-0.140235,-0.416585,-0.1185565,-0.549515,-0.37541599999999997,0.13405050000000002,-0.5529350000000001,-0.353219
153,0.0383705,0.5126250000000001,-0.559955,-0.1109905,0.38749400000000006,-0.45706500000000005,-0.2476105,0.34750100000000006,-0.674445,0.1588395,0.36942800000000003,-0.432825,0.3506095,0.33061700000000005,-0.619615,-0.1238805,0.5587550000000001,-0.689575,0.2528395,0.536625,-0.714345,-0.0839795,0.005155000000000021,-0.003505000000000036,0.0839795,-0.005154999999999965,0.0035049999999999804,-0.1437605,-0.12698499999999996,-0.43242500000000006,0.1865795,-0.13698499999999997,-0.41658500000000004,-0.1178395,-0.5469449999999999,-0.37547,0.1350695,-0.549105,-0.35233600000000004
154,0.0404575,0.51014,-0.56165,-0.11029649999999999,0.38621800000000006,-0.45911,-0.2469015,0.34292100000000003,-0.6760600000000001,0.15907849999999998,0.368614,-0.43428,0.3523485,0.32571700000000003,-0.61964,-0.12283350000000001,0.55471,-0.69127,0.2558685,0.5322100000000001,-0.71674,-0.08380850000000001,0.005070000000000019,-0.0034700000000000286,0.08380850000000001,-0.005069999999999963,0.003469999999999973,-0.1442515,-0.12467999999999996,-0.43336,0.1874285,-0.13543999999999995,-0.41665,-0.11733550000000001,-0.5445599999999999,-0.37560000000000004,0.1348185,-0.54499,-0.348563
155,0.042683000000000006,0.50764,-0.563275,-0.10947000000000001,0.385006,-0.460865,-0.246059,0.338534,-0.677465,0.15957100000000002,0.36743000000000003,-0.43574500000000005,0.35411099999999995,0.320961,-0.619265,-0.12162699999999999,0.55086,-0.693025,0.258131,0.5297000000000001,-0.716485,-0.083571,0.005049999999999999,-0.0035250000000000004,0.083571,-0.005049999999999999,0.0035250000000000004,-0.144449,-0.12245999999999996,-0.43423500000000004,0.188621,-0.13261999999999996,-0.417385,-0.11666599999999999,-0.54218,-0.37565000000000004,0.134861,-0.54055,-0.344492
156,0.0450715,0.504705,-0.56509,-0.10852450000000001,0.383621,-0.46240000000000003,-0.2450745,0.333738,-0.6791,0.1601155,0.364969,-0.43749,0.3551955,0.319777,-0.6191,-0.1209325,0.546165,-0.69705,0.25921550000000004,0.528775,-0.7163200000000001,-0.0833455,0.005304999999999949,-0.0035700000000000176,0.0833455,-0.005305000000000004,0.0035700000000000176,-0.1443945,-0.12050500000000003,-0.43496999999999997,0.1901855,-0.12955500000000003,-0.41820999999999997,-0.11586250000000001,-0.540115,-0.37616700000000003,0.1358455,-0.537405,-0.343764
157,0.047169,0.50251,-0.566935,-0.10733799999999999,0.382003,-0.463815,-0.244232,0.331376,-0.6802950000000001,0.160328,0.361901,-0.439085,0.356688,0.318272,-0.618735,-0.11999599999999999,0.54384,-0.700635,0.260458,0.52777,-0.715975,-0.083138,0.005559999999999954,-0.0036249999999999893,0.083138,-0.005560000000000009,0.0036249999999999893,-0.144262,-0.11847000000000002,-0.435535,0.191798,-0.12718000000000002,-0.419175,-0.11486099999999999,-0.53805,-0.376571,0.136058,-0.53368,-0.339771
158,0.049205000000000006,0.5002449999999999,-0.56875,-0.106159,0.37978799999999996,-0.46606000000000003,-0.243433,0.329777,-0.6819200000000001,0.160577,0.35912,-0.44056,0.357897,0.31628399999999995,-0.61831,-0.119372,0.541705,-0.70363,0.261487,0.526135,-0.71323,-0.082977,0.005774999999999975,-0.003630000000000022,0.082977,-0.00577500000000003,0.003630000000000022,-0.144243,-0.11637500000000006,-0.43609,0.193327,-0.12480500000000005,-0.42011,-0.113793,-0.535825,-0.376906,0.137047,-0.530815,-0.339779
159,0.0511595,0.49736,-0.5706450000000001,-0.1049665,0.377721,-0.468065,-0.2426645,0.32874000000000003,-0.683755,0.16083550000000002,0.356015,-0.442085,0.35904549999999996,0.314033,-0.618475,-0.11844350000000001,0.54005,-0.7057450000000001,0.26124549999999996,0.5243,-0.710645,-0.0828155,0.006199999999999983,-0.0035250000000000004,0.0828155,-0.006199999999999983,0.0035250000000000004,-0.14415450000000002,-0.11443999999999999,-0.436435,0.19482549999999998,-0.12091999999999997,-0.420945,-0.1127825,-0.5337799999999999,-0.377402,0.13908549999999997,-0.5279499999999999,-0.342974
160,0.053040500000000004,0.49366,-0.572605,-0.1036545,0.375529,-0.469955,-0.2416505,0.32751199999999997,-0.685565,0.16122950000000003,0.352719,-0.443605,0.3602195,0.310903,-0.619445,-0.1167285,0.53871,-0.707765,0.2608995,0.5216799999999999,-0.7078949999999999,-0.0826595,0.006679999999999964,-0.0033050000000000024,0.0826595,-0.006680000000000019,0.0033050000000000024,-0.1439005,-0.11266000000000004,-0.43657500000000005,0.19620949999999998,-0.1185,-0.42147500000000004,-0.1117425,-0.53203,-0.377844,0.1402095,-0.52554,-0.343193
161,0.0548245,0.48994,-0.574395,-0.1023535,0.373408,-0.472005,-0.2409265,0.326097,-0.6871849999999999,0.1614135,0.34968699999999997,-0.444855,0.3613435,0.308208,-0.620315,-0.1157435,0.53718,-0.709685,0.2604235,0.51926,-0.705275,-0.0825435,0.00713999999999998,-0.00304500000000002,0.0825435,-0.00713999999999998,0.00304500000000002,-0.1437365,-0.11126999999999998,-0.436605,0.1975335,-0.11628,-0.42178499999999997,-0.1107455,-0.53061,-0.3782,0.1415635,-0.5238100000000001,-0.343832
162,0.056249,0.48747500000000005,-0.5755399999999999,-0.10103799999999999,0.37162100000000003,-0.47403,-0.240201,0.325147,-0.68889,0.161499,0.34647000000000006,-0.44597,0.36245900000000003,0.30562500000000004,-0.62121,-0.11416200000000001,0.5359550000000001,-0.71148,0.25949900000000004,0.5167250000000001,-0.70272,-0.082448,0.007555000000000034,-0.002960000000000018,0.082448,-0.007554999999999978,0.0029599999999999627,-0.14350100000000002,-0.11011499999999996,-0.43669,0.198789,-0.11569499999999994,-0.42225,-0.10978299999999999,-0.529455,-0.378458,0.14257899999999998,-0.522115,-0.344115
163,0.057575,0.48559,-0.5765750000000001,-0.09974000000000001,0.36982000000000004,-0.47604500000000005,-0.239578,0.32476700000000003,-0.690065,0.16144199999999997,0.343328,-0.447035,0.363502,0.303752,-0.621865,-0.113208,0.5350900000000001,-0.713265,0.25841200000000003,0.51466,-0.7005950000000001,-0.082398,0.007950000000000013,-0.0029050000000000464,0.082398,-0.007950000000000013,0.002904999999999991,-0.143378,-0.10876999999999998,-0.43684500000000004,0.199772,-0.11557,-0.42269500000000004,-0.10880200000000001,-0.5280799999999999,-0.378776,0.142582,-0.5195000000000001,-0.340527
164,0.058597,0.48355499999999996,-0.5773649999999999,-0.09870000000000001,0.367932,-0.47782499999999994,-0.23955200000000001,0.32415499999999997,-0.690755,0.16111799999999998,0.34102,-0.44765499999999997,0.364278,0.301683,-0.6226849999999999,-0.11261499999999999,0.5341549999999999,-0.714655,0.25736800000000004,0.512655,-0.6988449999999999,-0.08243500000000001,0.008254999999999957,-0.0027349999999999874,0.08243500000000001,-0.008255000000000012,0.002735000000000043,-0.14353200000000002,-0.107715,-0.43686499999999995,0.200428,-0.11594500000000002,-0.42288499999999996,-0.108203,-0.5270050000000001,-0.379005,0.14218799999999998,-0.517325,-0.33662899999999996
165,0.0589365,0.48173999999999995,-0.5779299999999999,-0.0980435,0.367038,-0.47883,-0.2397725,0.3245,-0.69069,0.1614975,0.34102099999999996,-0.44780999999999993,0.36495750000000005,0.299743,-0.62352,-0.1124325,0.53425,-0.7144199999999999,0.25676750000000004,0.51119,-0.69801,-0.0825075,0.008299999999999974,-0.0026399999999999757,0.0825075,-0.00830000000000003,0.002640000000000031,-0.1439225,-0.10666000000000003,-0.43706,0.2006575,-0.1169,-0.42296,-0.1079715,-0.52596,-0.37939999999999996,0.1415275,-0.51546,-0.332736
166,0.0589915,0.48038500000000006,-0.578225,-0.0977995,0.36663500000000004,-0.4794649999999999,-0.2404215,0.324483,-0.690275,0.1614285,0.34209900000000004,-0.44774499999999995,0.36493849999999994,0.298329,-0.624355,-0.1124255,0.533935,-0.714085,0.2558085,0.509645,-0.696545,-0.0825905,0.008225000000000038,-0.0024949999999999695,0.0825905,-0.008224999999999982,0.002495000000000025,-0.1444615,-0.10568499999999997,-0.43723499999999993,0.2005785,-0.11765499999999995,-0.42305499999999996,-0.1078115,-0.524925,-0.37960499999999997,0.1410385,-0.513745,-0.329107
167,0.05889149999999999,0.479215,-0.5783449999999999,-0.0977875,0.367632,-0.47887499999999994,-0.2411035,0.324807,-0.6894849999999999,0.1614265,0.342974,-0.447615,0.3649665,0.29745,-0.625195,-0.1124705,0.534115,-0.713595,0.25501650000000003,0.508795,-0.695495,-0.0826575,0.008215000000000028,-0.0023649999999999505,0.0826575,-0.008214999999999972,0.002365000000000006,-0.14496350000000002,-0.10484499999999997,-0.43730499999999994,0.2004365,-0.11628499999999997,-0.42300499999999996,-0.10774149999999999,-0.523885,-0.379005,0.1410865,-0.513035,-0.328227
168,0.058695500000000005,0.47862499999999997,-0.57819,-0.0978725,0.368782,-0.47802,-0.24156650000000002,0.325172,-0.68865,0.16146349999999998,0.344124,-0.44745999999999997,0.3649935,0.296904,-0.62598,-0.1130245,0.534505,-0.7132099999999999,0.2541935,0.5082450000000001,-0.69429,-0.08270649999999999,0.008195000000000008,-0.0022599999999999842,0.08270649999999999,-0.008195000000000008,0.0022600000000000398,-0.1454465,-0.104105,-0.43733,0.2002835,-0.11612500000000003,-0.42291999999999996,-0.10776449999999999,-0.5227350000000001,-0.37814,0.1405035,-0.511885,-0.324592
169,0.058478999999999996,0.479545,-0.57748,-0.09798000000000001,0.36982200000000004,-0.47726999999999997,-0.24214,0.325604,-0.68794,0.16158,0.345164,-0.4471,0.36502,0.29741900000000004,-0.62605,-0.113737,0.534915,-0.71292,0.25340999999999997,0.508565,-0.6931499999999999,-0.08272099999999999,0.008115000000000039,-0.0021800000000000153,0.08272099999999999,-0.008114999999999983,0.0021800000000000153,-0.14592,-0.103375,-0.4374,0.20010999999999998,-0.11459499999999995,-0.42318,-0.10780799999999999,-0.521695,-0.37739,0.14085,-0.510845,-0.323812
170,0.058301500000000006,0.48031999999999997,-0.57691,-0.0981435,0.370597,-0.4767,-0.2427355,0.326347,-0.68709,0.1618045,0.345939,-0.44679,0.3648045,0.298194,-0.6254900000000001,-0.1143855,0.53556,-0.71279,0.2527545,0.50926,-0.69238,-0.0827415,0.008050000000000002,-0.0020900000000000363,0.0827415,-0.008050000000000002,0.0020899999999999808,-0.1462055,-0.10260999999999998,-0.43751,0.1999445,-0.11336999999999997,-0.42347,-0.1077865,-0.52088,-0.37681000000000003,0.1411945,-0.51007,-0.32330800000000004
171,0.0581725,0.48083,-0.57656,-0.0983975,0.37167,-0.4759,-0.2433265,0.326835,-0.6858500000000001,0.16201349999999998,0.34652700000000003,-0.44655,0.3648135,0.298704,-0.62513,-0.1149565,0.53593,-0.71269,0.2525635,0.5097700000000001,-0.6918,-0.0827655,0.008099999999999996,-0.0019399999999999973,0.0827655,-0.008099999999999996,0.0019399999999999973,-0.14633649999999998,-0.10209999999999997,-0.43750999999999995,0.20003349999999998,-0.11285999999999996,-0.42377,-0.1074825,-0.52037,-0.37553,0.1412335,-0.50972,-0.322948
172,0.057946000000000004,0.48105,-0.576445,-0.098719,0.372479,-0.475225,-0.24404399999999998,0.32698,-0.684545,0.162216,0.347098,-0.446395,0.364546,0.298924,-0.625015,-0.115654,0.53605,-0.7126049999999999,0.25245599999999996,0.5099899999999999,-0.6916450000000001,-0.082869,0.008080000000000032,-0.00189499999999998,0.082869,-0.008079999999999976,0.00189499999999998,-0.146514,-0.10187999999999997,-0.437585,0.19989600000000002,-0.11182999999999998,-0.42405499999999996,-0.10705300000000001,-0.52,-0.374185,0.14150600000000002,-0.50948,-0.322826
173,0.057665,0.48135,-0.57635,-0.09912099999999999,0.373536,-0.47424,-0.244557,0.327448,-0.6832,0.162603,0.348101,-0.44636000000000003,0.364203,0.299053,-0.6248400000000001,-0.116207,0.53626,-0.71264,0.252293,0.51004,-0.69153,-0.08296600000000001,0.008029999999999982,-0.0019000000000000128,0.08296600000000001,-0.008029999999999982,0.0018999999999999573,-0.14665699999999998,-0.10172999999999999,-0.43760000000000004,0.19970300000000002,-0.11043999999999998,-0.42407000000000006,-0.10658599999999999,-0.51939,-0.372738,0.141803,-0.50879,-0.322892
174,0.057374999999999995,0.48177000000000003,-0.576005,-0.099482,0.375006,-0.47275500000000004,-0.245113,0.327567,-0.681165,0.162947,0.349385,-0.44633500000000004,0.363947,0.299232,-0.6245050000000001,-0.116913,0.53626,-0.7126950000000001,0.252177,0.51017,-0.6911050000000001,-0.083035,0.008029999999999982,-0.00190499999999999,0.083035,-0.008029999999999982,0.00190499999999999,-0.146763,-0.10143999999999997,-0.437605,0.19955699999999998,-0.11082999999999998,-0.424075,-0.106089,-0.51873,-0.371377,0.14160699999999998,-0.508,-0.322599
175,0.0570395,0.48308,-0.57512,-0.09988150000000001,0.376843,-0.47071999999999997,-0.24570150000000002,0.327647,-0.6787799999999999,0.16356849999999998,0.35130300000000003,-0.44581,0.36374850000000003,0.299924,-0.62376,-0.11767150000000001,0.53626,-0.7127600000000001,0.2521085,0.51084,-0.6907,-0.0830835,0.008029999999999982,-0.0019099999999999673,0.0830835,-0.008029999999999982,0.0019100000000000228,-0.1468615,-0.10110999999999998,-0.43761,0.1994185,-0.10996,-0.42408999999999997,-0.1055545,-0.5180899999999999,-0.370469,0.14186849999999998,-0.50727,-0.322264
176,0.056685000000000006,0.48495,-0.57399,-0.100213,0.378742,-0.46875999999999995,-0.246198,0.32812800000000003,-0.6767799999999999,0.164212,0.353265,-0.44523,0.363392,0.301367,-0.62232,-0.11832799999999999,0.53678,-0.71271,0.252072,0.51209,-0.69048,-0.083119,0.007979999999999987,-0.0019899999999999918,0.083119,-0.007979999999999987,0.0019899999999999918,-0.146868,-0.10066999999999998,-0.43784,0.199372,-0.10822999999999999,-0.42433,-0.104913,-0.51729,-0.36999899999999997,0.14228200000000002,-0.50709,-0.322511
177,0.056159999999999995,0.48711999999999994,-0.5727599999999999,-0.10064899999999999,0.380246,-0.46709,-0.2467,0.32811199999999996,-0.6752,0.16463999999999998,0.353911,-0.44463,0.36311000000000004,0.3030189999999999,-0.62083,-0.119,0.53696,-0.71223,0.25199000000000005,0.5134799999999999,-0.6904300000000001,-0.083148,0.008019999999999972,-0.0019899999999999918,0.083148,-0.008020000000000027,0.0019899999999999918,-0.14686000000000002,-0.10043000000000007,-0.43792000000000003,0.19924999999999998,-0.10624000000000006,-0.42468000000000006,-0.104494,-0.5163800000000001,-0.36795900000000004,0.14351,-0.5067600000000001,-0.32649900000000004
178,0.055576,0.48924,-0.571365,-0.101126,0.381666,-0.46513499999999997,-0.247235,0.32903,-0.6739850000000001,0.164965,0.355159,-0.443905,0.362895,0.304492,-0.619375,-0.119485,0.53793,-0.711735,0.251965,0.51508,-0.690585,-0.083122,0.008000000000000007,-0.0020950000000000135,0.083122,-0.008000000000000007,0.0020950000000000135,-0.146895,-0.10038999999999998,-0.438095,0.199105,-0.10460999999999998,-0.425035,-0.104365,-0.51579,-0.366168,0.143465,-0.50645,-0.32723599999999997
179,0.05497849999999999,0.491615,-0.569785,-0.10147049999999999,0.3829,-0.46346499999999996,-0.24766449999999998,0.329513,-0.672685,0.1653755,0.35661,-0.44301499999999994,0.36260549999999997,0.306224,-0.6175649999999999,-0.1199045,0.538545,-0.711055,0.25202549999999996,0.516695,-0.6910449999999999,-0.08306749999999999,0.007925000000000015,-0.002214999999999967,0.08306749999999999,-0.007925000000000015,0.0022150000000000225,-0.1469345,-0.10035500000000003,-0.4382849999999999,0.1989955,-0.10375499999999999,-0.425515,-0.1043335,-0.515395,-0.365239,0.1434155,-0.506285,-0.32802
180,0.054417,0.49407,-0.5681149999999999,-0.101771,0.38383900000000004,-0.462095,-0.248171,0.330299,-0.671755,0.16555899999999998,0.358068,-0.442055,0.36222899999999997,0.307888,-0.615855,-0.120481,0.5394,-0.709915,0.252169,0.5182100000000001,-0.691295,-0.083016,0.007830000000000004,-0.0023150000000000115,0.083016,-0.007830000000000004,0.0023150000000000115,-0.146961,-0.10047,-0.438435,0.198929,-0.10274,-0.426065,-0.104211,-0.51545,-0.365482,0.144259,-0.50684,-0.332769
181,0.053928500000000004,0.49638000000000004,-0.566525,-0.1020415,0.384581,-0.460885,-0.2485865,0.331318,-0.670895,0.1660635,0.359928,-0.441155,0.3620135,0.30965600000000004,-0.6140650000000001,-0.1209765,0.54036,-0.708935,0.25241349999999996,0.51958,-0.691835,-0.0830805,0.007640000000000036,-0.002464999999999995,0.0830805,-0.00763999999999998,0.002464999999999995,-0.14689649999999999,-0.10075,-0.43857500000000005,0.1982235,-0.10187999999999997,-0.426375,-0.1040475,-0.51574,-0.36582400000000004,0.1450535,-0.50793,-0.33784400000000003
182,0.053291000000000005,0.500195,-0.56465,-0.10246,0.386054,-0.45943999999999996,-0.24894899999999998,0.333157,-0.66995,0.16645100000000002,0.362874,-0.44001,0.361591,0.312034,-0.61288,-0.121549,0.5420849999999999,-0.70804,0.253021,0.521925,-0.69245,-0.083179,0.007525000000000004,-0.0026399999999999757,0.083179,-0.007525000000000004,0.002640000000000031,-0.146839,-0.10086500000000004,-0.43876,0.19726100000000002,-0.10307500000000003,-0.42657999999999996,-0.10416,-0.515855,-0.367279,0.14397100000000002,-0.5080450000000001,-0.336265
183,0.052624,0.50431,-0.562585,-0.10291600000000001,0.387516,-0.45765500000000003,-0.249424,0.33506,-0.668925,0.16658599999999998,0.365481,-0.43876499999999996,0.36122600000000005,0.314232,-0.611305,-0.12224399999999999,0.54384,-0.706765,0.253606,0.5240900000000001,-0.692915,-0.083285,0.007250000000000034,-0.002794999999999992,0.083285,-0.007249999999999979,0.002794999999999992,-0.146674,-0.10119,-0.439015,0.196186,-0.10379,-0.42666499999999996,-0.10439999999999999,-0.51667,-0.370145,0.143666,-0.50908,-0.338279
184,0.051778000000000005,0.50777,-0.560535,-0.10355299999999999,0.388726,-0.456005,-0.250023,0.337138,-0.6681250000000001,0.16685699999999998,0.367504,-0.437705,0.360767,0.316029,-0.6097049999999999,-0.123203,0.54638,-0.7040150000000001,0.254697,0.5257700000000001,-0.6941550000000001,-0.083438,0.006969999999999976,-0.0028950000000000364,0.083438,-0.006969999999999976,0.002894999999999981,-0.146513,-0.10199999999999998,-0.439165,0.19498700000000002,-0.10469,-0.426945,-0.10474699999999999,-0.51802,-0.373163,0.14330700000000002,-0.51077,-0.34050600000000003
185,0.05093399999999999,0.511035,-0.55844,-0.10412500000000001,0.38999000000000006,-0.45405,-0.250468,0.33928300000000006,-0.6667000000000001,0.16703199999999999,0.369387,-0.43613,0.360602,0.31778000000000006,-0.60783,-0.123768,0.548925,-0.70097,0.254732,0.527315,-0.69469,-0.083675,0.0067050000000000165,-0.002929999999999988,0.083675,-0.006704999999999961,0.002929999999999988,-0.146328,-0.10282499999999994,-0.43923,0.193322,-0.10444499999999995,-0.42712,-0.105338,-0.5193949999999999,-0.374541,0.143372,-0.5134449999999999,-0.34538800000000003
186,0.050103499999999995,0.51396,-0.556335,-0.1049245,0.39102800000000004,-0.452095,-0.2510295,0.34115500000000004,-0.665265,0.1668205,0.371423,-0.43450500000000003,0.3601805,0.31928700000000004,-0.605745,-0.1245295,0.55185,-0.697085,0.2543205,0.52851,-0.695185,-0.0839385,0.006379999999999997,-0.002935000000000021,0.0839385,-0.006379999999999997,0.0029349999999999654,-0.1461795,-0.10400999999999999,-0.43912500000000004,0.1914905,-0.10594999999999999,-0.42730500000000005,-0.1062895,-0.52095,-0.37492800000000004,0.1425605,-0.51545,-0.346418
187,0.049441500000000006,0.51732,-0.5543,-0.10571349999999999,0.391787,-0.45076,-0.2515545,0.342881,-0.66397,0.1666055,0.37322999999999995,-0.43306,0.3600255,0.32217399999999996,-0.6041,-0.12516449999999998,0.55431,-0.6936,0.2541955,0.5306,-0.69589,-0.08415349999999999,0.00601999999999997,-0.002939999999999998,0.08415349999999999,-0.006020000000000025,0.002939999999999998,-0.1460245,-0.10533000000000003,-0.43887,0.18963549999999998,-0.10636000000000001,-0.42726,-0.10707449999999999,-0.523,-0.376716,0.14253549999999998,-0.5178200000000001,-0.35148399999999996
188,0.048684000000000005,0.520895,-0.55193,-0.10661,0.393553,-0.4492,-0.252081,0.34818,-0.66264,0.166239,0.374938,-0.43142,0.359919,0.325286,-0.60266,-0.125171,0.5591349999999999,-0.69035,0.253569,0.533945,-0.69279,-0.084369,0.005875000000000019,-0.002829999999999999,0.084369,-0.005875000000000019,0.002829999999999999,-0.145901,-0.106875,-0.43833,0.187699,-0.10692499999999999,-0.42712,-0.107683,-0.525375,-0.379209,0.142469,-0.520535,-0.356982
189,0.047892000000000004,0.52464,-0.549425,-0.10753,0.3951100000000001,-0.447795,-0.25283100000000003,0.35281100000000004,-0.661315,0.165949,0.37716700000000003,-0.42939499999999997,0.35975900000000005,0.32914600000000005,-0.600995,-0.125331,0.5635100000000001,-0.686965,0.252699,0.53768,-0.689225,-0.084589,0.005690000000000028,-0.0027249999999999774,0.084589,-0.005689999999999973,0.0027249999999999774,-0.145751,-0.10874999999999996,-0.437695,0.185729,-0.10755999999999993,-0.426725,-0.108336,-0.52781,-0.380353,0.142349,-0.52355,-0.362323
190,0.047127,0.527795,-0.5469299999999999,-0.108404,0.396204,-0.44604999999999995,-0.25366500000000003,0.35700099999999996,-0.65998,0.165695,0.37901399999999996,-0.42721999999999993,0.359745,0.334084,-0.59948,-0.126095,0.5676749999999999,-0.6835199999999999,0.252035,0.543395,-0.68425,-0.084795,0.005475000000000008,-0.0025399999999999867,0.084795,-0.005475000000000008,0.0025400000000000422,-0.145335,-0.11121500000000001,-0.43677999999999995,0.184195,-0.109705,-0.42669999999999997,-0.10903,-0.5306649999999999,-0.380799,0.141855,-0.526985,-0.366774
191,0.046361999999999993,0.530105,-0.54401,-0.109234,0.39744599999999997,-0.44419999999999993,-0.25454899999999997,0.361072,-0.65825,0.165541,0.381716,-0.42511,0.359701,0.338571,-0.5983799999999999,-0.126729,0.571785,-0.6796899999999999,0.250921,0.547955,-0.67943,-0.085041,0.004915000000000003,-0.0024099999999999677,0.085041,-0.004915000000000003,0.0024100000000000232,-0.144869,-0.114365,-0.4357599999999999,0.182591,-0.11323500000000003,-0.42628999999999995,-0.109956,-0.534175,-0.38159999999999994,0.14036099999999999,-0.530475,-0.3675149999999999
192,0.045113,0.532405,-0.540745,-0.11003500000000001,0.401468,-0.442805,-0.255113,0.365542,-0.656265,0.165387,0.38414099999999995,-0.423125,0.35961699999999996,0.344012,-0.5969949999999999,-0.126873,0.576155,-0.675855,0.250057,0.553165,-0.674365,-0.085257,0.004934999999999967,-0.002224999999999977,0.085257,-0.004935000000000023,0.0022250000000000325,-0.144513,-0.11817500000000003,-0.434295,0.181197,-0.11762500000000004,-0.425995,-0.110767,-0.5384950000000001,-0.383471,0.139407,-0.534865,-0.36835399999999996
193,0.043581999999999996,0.53496,-0.53686,-0.110974,0.40473400000000004,-0.44136,-0.255807,0.369862,-0.65433,0.165043,0.38776700000000003,-0.42057,0.359393,0.349382,-0.59578,-0.127427,0.57999,-0.67355,0.250383,0.55854,-0.67042,-0.085503,0.004610000000000003,-0.0021999999999999797,0.085503,-0.004610000000000003,0.0021999999999999797,-0.145467,-0.12253999999999998,-0.43311,0.18016300000000002,-0.12108999999999998,-0.42512,-0.111921,-0.5431999999999999,-0.385961,0.139063,-0.5398000000000001,-0.37111099999999997
194,0.041977,0.538785,-0.53291,-0.112093,0.407725,-0.43943,-0.256569,0.374957,-0.6523,0.16452100000000003,0.392615,-0.41820999999999997,0.359001,0.355575,-0.59438,-0.12772899999999998,0.584605,-0.67152,0.24868100000000004,0.564335,-0.6691,-0.085731,0.00411499999999998,-0.0022800000000000042,0.085731,-0.004115000000000035,0.0022800000000000042,-0.146509,-0.127205,-0.43213,0.17912099999999997,-0.12454500000000002,-0.4242,-0.113258,-0.548205,-0.388211,0.13870100000000002,-0.545135,-0.374313
195,0.040765499999999996,0.54827,-0.5291600000000001,-0.1131215,0.41339000000000004,-0.43735,-0.2572825,0.385266,-0.65044,0.1639775,0.39802000000000004,-0.41546000000000005,0.3585275,0.362786,-0.59255,-0.1278425,0.59336,-0.66986,0.24858750000000002,0.57157,-0.66713,-0.0858875,0.0038900000000000046,-0.0024100000000000232,0.0858875,-0.0038900000000000046,0.0024099999999999677,-0.1476825,-0.13205,-0.43128000000000005,0.1780175,-0.12886999999999998,-0.42331,-0.1147165,-0.55352,-0.39011100000000004,0.13764749999999998,-0.5497000000000001,-0.37409200000000004
196,0.039952,0.55678,-0.52406,-0.113727,0.41962,-0.43345999999999996,-0.258087,0.39517,-0.6469199999999999,0.163603,0.40366,-0.41119999999999995,0.358183,0.369309,-0.58829,-0.128167,0.60266,-0.66584,0.24772300000000003,0.57906,-0.66106,-0.086363,0.0039000000000000146,-0.002449999999999952,0.086363,-0.0039000000000000146,0.0024500000000000077,-0.148727,-0.13623999999999997,-0.43135999999999997,0.177463,-0.13605,-0.42334999999999995,-0.115965,-0.5582,-0.391269,0.137093,-0.5571600000000001,-0.37413199999999996
197,0.038551499999999995,0.5649,-0.51858,-0.1142845,0.42521,-0.42933,-0.2591975,0.4021,-0.64299,0.1633525,0.40979,-0.40690000000000004,0.3578425,0.37965000000000004,-0.5841000000000001,-0.1292875,0.61084,-0.6584099999999999,0.24567250000000002,0.5874,-0.6579900000000001,-0.0866325,0.003610000000000002,-0.0024700000000000277,0.0866325,-0.003610000000000002,0.0024699999999999722,-0.1497675,-0.13935999999999998,-0.43144000000000005,0.17784250000000001,-0.14216,-0.42332000000000003,-0.1170465,-0.5615399999999999,-0.39135200000000003,0.1374725,-0.5633699999999999,-0.376155
198,0.0375995,0.5738300000000001,-0.51264,-0.11470749999999999,0.43149000000000004,-0.42483,-0.2599725,0.41089000000000003,-0.6385099999999999,0.16310750000000002,0.41670000000000007,-0.40257,0.3576275,0.38970000000000005,-0.57982,-0.1302925,0.61947,-0.6503399999999999,0.24504750000000003,0.5966400000000001,-0.6547099999999999,-0.0869075,0.0033600000000000296,-0.0024899999999999922,0.0869075,-0.003359999999999974,0.0024899999999999922,-0.1509025,-0.14214,-0.43152999999999997,0.1785975,-0.14812999999999998,-0.42325999999999997,-0.11790049999999999,-0.56457,-0.39142,0.13801750000000002,-0.56934,-0.378417
199,0.0365395,0.586265,-0.501495,-0.1152795,0.438775,-0.416215,-0.2608415,0.42079500000000003,-0.6294949999999999,0.1626185,0.42462500000000003,-0.394099,0.3570185,0.399765,-0.571155,-0.13058150000000002,0.629255,-0.638145,0.2440485,0.606625,-0.645375,-0.0869085,0.003145000000000009,-0.0018549999999999955,0.0869085,-0.003145000000000009,0.0018549999999999955,-0.1539215,-0.144725,-0.428905,0.18090850000000003,-0.152225,-0.420315,-0.1205485,-0.567555,-0.389663,0.13939849999999998,-0.573235,-0.37668599999999997
200,0.035749,0.60028,-0.48885,-0.11580299999999999,0.44610000000000005,-0.40759,-0.261785,0.43295000000000006,-0.62036,0.161835,0.4333,-0.38494700000000004,0.356445,0.41145000000000004,-0.56202,-0.132125,0.6418,-0.62585,0.24281499999999998,0.61828,-0.63446,-0.08687500000000001,0.0031300000000000217,-0.0014500000000000068,0.08687500000000001,-0.003129999999999966,0.0014500000000000068,-0.157075,-0.14673999999999998,-0.42652,0.183145,-0.15566999999999998,-0.41607000000000005,-0.12334500000000001,-0.56989,-0.388803,0.140865,-0.57667,-0.375509
201,0.0350175,0.61493,-0.47631499999999993,-0.11648349999999999,0.45339,-0.397105,-0.2629345,0.44634,-0.6103449999999999,0.16115549999999998,0.44352,-0.37495199999999995,0.3559055,0.42515000000000003,-0.553145,-0.1333345,0.6555500000000001,-0.611405,0.2440855,0.63275,-0.6264149999999999,-0.0868855,0.002640000000000031,-0.0012849999999999806,0.0868855,-0.0026399999999999757,0.0012850000000000361,-0.16047450000000002,-0.14909,-0.42388499999999996,0.1858655,-0.15875,-0.411535,-0.1261245,-0.57244,-0.38890499999999995,0.14242549999999998,-0.57999,-0.374224
202,0.033935,0.6298349999999999,-0.46297,-0.117322,0.461605,-0.38593,-0.264297,0.462175,-0.59921,0.160333,0.454455,-0.364549,0.35529299999999997,0.439965,-0.5429900000000001,-0.135287,0.670855,-0.59629,0.244973,0.648405,-0.616,-0.086883,0.0024849999999999595,-0.0013299999999999979,0.086883,-0.002485000000000015,0.0013299999999999979,-0.16463699999999998,-0.15152500000000002,-0.42108999999999996,0.190923,-0.162335,-0.40576,-0.12955699999999998,-0.574865,-0.38738,0.14560299999999998,-0.583755,-0.37202999999999997
203,0.033231,0.643635,-0.44935,-0.117979,0.469255,-0.374498,-0.265392,0.476145,-0.58767,0.159858,0.463765,-0.353729,0.35492799999999997,0.45374499999999995,-0.53266,-0.13723200000000002,0.684685,-0.5802400000000001,0.245568,0.663645,-0.6018,-0.086658,0.0022549999999999792,-0.0013700000000000379,0.086658,-0.002255000000000007,0.0013699999999999823,-0.169392,-0.155335,-0.41769,0.196928,-0.16734500000000002,-0.39911,-0.133332,-0.5786150000000001,-0.3826,0.14950799999999997,-0.588835,-0.368212
204,0.032424999999999995,0.652695,-0.43352,-0.118586,0.47862499999999997,-0.362155,-0.266598,0.486605,-0.5746,0.15950199999999998,0.472295,-0.34184600000000004,0.354622,0.467015,-0.5214799999999999,-0.139038,0.694605,-0.5640400000000001,0.246612,0.678095,-0.5851500000000001,-0.086522,0.0021750000000000103,-0.0016300000000000203,0.086522,-0.0021750000000000103,0.0016299999999999648,-0.173828,-0.160435,-0.41387,0.20288199999999998,-0.173605,-0.39176,-0.136768,-0.583925,-0.38025000000000003,0.15376199999999998,-0.595015,-0.36341100000000004
205,0.0317375,0.66291,-0.4166,-0.1189585,0.48649999999999993,-0.34925,-0.26777449999999997,0.49727,-0.5603899999999999,0.1593755,0.48195,-0.32936200000000004,0.3545155,0.48144,-0.5095500000000001,-0.1392345,0.70516,-0.54478,0.24786550000000002,0.69334,-0.5664800000000001,-0.0862455,0.0017199999999999993,-0.0018200000000000438,0.0862455,-0.0017199999999999993,0.0018199999999999883,-0.17629450000000002,-0.1675,-0.40934000000000004,0.2081855,-0.18061000000000002,-0.38448000000000004,-0.1393045,-0.59099,-0.37439,0.1579755,-0.6021000000000001,-0.359184
206,0.03132000000000001,0.67398,-0.39914000000000005,-0.119351,0.4945,-0.335438,-0.268916,0.5080899999999999,-0.54531,0.159534,0.49096,-0.31623100000000004,0.354684,0.4915,-0.49660000000000004,-0.139756,0.71456,-0.52829,0.24868400000000002,0.70609,-0.54695,-0.085964,0.0014299999999999868,-0.0020000000000000018,0.085964,-0.0014300000000000146,0.0020000000000000018,-0.17782599999999998,-0.17502,-0.40443,0.212684,-0.18824000000000002,-0.37758,-0.141786,-0.59857,-0.37076,0.162474,-0.60986,-0.35476
207,0.031943,0.68455,-0.380615,-0.119868,0.50176,-0.320914,-0.27055599999999996,0.5180899999999999,-0.529285,0.160074,0.49959,-0.30230599999999996,0.35504399999999997,0.50164,-0.482615,-0.141396,0.72617,-0.510555,0.249844,0.71863,-0.526645,-0.085724,0.0011599999999999944,-0.002124999999999988,0.085724,-0.0011600000000000221,0.0021250000000000158,-0.178416,-0.18364000000000003,-0.398455,0.216444,-0.19711,-0.369575,-0.14399599999999999,-0.60734,-0.36689499999999997,0.166884,-0.61873,-0.34950499999999995
208,0.032567,0.693235,-0.36756,-0.120403,0.509455,-0.310336,-0.271641,0.531185,-0.5176000000000001,0.161049,0.507555,-0.292428,0.35561899999999996,0.511405,-0.47268,-0.142771,0.738175,-0.49683,0.24957900000000002,0.729065,-0.51199,-0.08527900000000001,0.0010149999999999881,-0.002960000000000018,0.08527900000000001,-0.0010150000000000159,0.0029599999999999904,-0.17791099999999999,-0.193145,-0.39363000000000004,0.218159,-0.20641500000000002,-0.36477000000000004,-0.144231,-0.616955,-0.36653,0.169899,-0.628105,-0.34757000000000005
209,0.0329655,0.70125,-0.354615,-0.12106149999999999,0.51758,-0.299106,-0.2729455,0.54222,-0.505715,0.16277450000000002,0.51462,-0.28219500000000003,0.3561245,0.5226000000000001,-0.46208499999999997,-0.1445755,0.7480800000000001,-0.482665,0.2514145,0.74077,-0.496965,-0.0849145,0.0009200000000000041,-0.0036550000000000193,0.0849145,-0.0009200000000000041,0.0036549999999999916,-0.17747549999999998,-0.20315999999999998,-0.38871500000000003,0.2188745,-0.21613000000000002,-0.359835,-0.1442155,-0.62706,-0.36534500000000003,0.1721245,-0.63828,-0.34375500000000003
210,0.0332915,0.709865,-0.34086500000000003,-0.12156549999999999,0.522295,-0.287875,-0.27429349999999997,0.552395,-0.492875,0.1645865,0.519845,-0.271187,0.3568565,0.532215,-0.450245,-0.1462335,0.7574150000000001,-0.469085,0.2512765,0.750425,-0.479845,-0.08486650000000001,0.0008550000000000224,-0.004045000000000021,0.08486650000000001,-0.0008549999999999947,0.004044999999999993,-0.1769635,-0.215335,-0.382945,0.21938649999999998,-0.22784499999999996,-0.354065,-0.1438635,-0.639265,-0.362745,0.1738765,-0.650415,-0.33803500000000003
211,0.033335,0.71898,-0.326725,-0.122254,0.52744,-0.275854,-0.27579400000000004,0.56028,-0.479815,0.166726,0.52365,-0.25979800000000003,0.357896,0.54079,-0.43849499999999997,-0.148254,0.76642,-0.452195,0.25128599999999995,0.759,-0.46187500000000004,-0.084946,0.0008999999999999841,-0.004135,0.084946,-0.0009000000000000119,0.004135,-0.175814,-0.22707,-0.376685,0.219606,-0.23913,-0.346245,-0.143294,-0.65135,-0.35936500000000005,0.17419600000000002,-0.66209,-0.331535
212,0.033468,0.727635,-0.311582,-0.123054,0.533135,-0.26366300000000004,-0.276814,0.5700149999999999,-0.46583,0.168876,0.528815,-0.24815800000000002,0.359046,0.5504249999999999,-0.42621,-0.149284,0.7757449999999999,-0.43556,0.252456,0.7685550000000001,-0.44662999999999997,-0.085216,0.0011050000000000226,-0.0042200000000000015,0.085216,-0.0011049999999999949,0.004219999999999974,-0.174204,-0.23828499999999997,-0.36970000000000003,0.219796,-0.249925,-0.33886,-0.142904,-0.662925,-0.35448999999999997,0.174516,-0.6732849999999999,-0.32579
213,0.033088,0.73675,-0.29611600000000005,-0.12412300000000001,0.53531,-0.25138900000000003,-0.277943,0.57909,-0.45181000000000004,0.170537,0.53383,-0.236712,0.359687,0.56174,-0.41407000000000005,-0.150903,0.78508,-0.41882,0.252507,0.7790900000000001,-0.43116,-0.085597,0.0010300000000000031,-0.004260000000000014,0.085597,-0.0010300000000000031,0.004259999999999986,-0.172043,-0.24932,-0.36259,0.218607,-0.26073999999999997,-0.33128,-0.14297300000000002,-0.67431,-0.34877,0.174447,-0.68462,-0.32003000000000004
214,0.032306499999999995,0.7466700000000001,-0.279725,-0.1255125,0.53845,-0.23840699999999998,-0.2794225,0.59143,-0.43737499999999996,0.1721375,0.53744,-0.224547,0.36082749999999997,0.57194,-0.40185499999999996,-0.1535325,0.79679,-0.40464500000000003,0.25251749999999995,0.78805,-0.416525,-0.08567749999999999,0.0012000000000000066,-0.004135,0.08567749999999999,-0.0012000000000000066,0.004135,-0.1692425,-0.26003,-0.355105,0.2141775,-0.27119000000000004,-0.323795,-0.1433325,-0.68535,-0.34267499999999995,0.1735075,-0.6958799999999999,-0.313805
215,0.031221000000000006,0.755755,-0.26259699999999997,-0.127005,0.541525,-0.225181,-0.281085,0.602475,-0.422335,0.174055,0.540835,-0.211751,0.361875,0.583375,-0.38887499999999997,-0.156685,0.808665,-0.387805,0.252255,0.798715,-0.398945,-0.085725,0.0012650000000000022,-0.003934999999999994,0.085725,-0.0012650000000000161,0.003934999999999994,-0.165605,-0.270895,-0.346655,0.208335,-0.281575,-0.316275,-0.143015,-0.696515,-0.335535,0.171715,-0.706725,-0.307195
216,0.029802499999999996,0.7646999999999999,-0.245291,-0.1288915,0.54454,-0.21175100000000002,-0.2828415,0.6140000000000001,-0.40696,0.17546849999999997,0.54457,-0.19892500000000002,0.36267849999999996,0.5955900000000001,-0.37508,-0.1598815,0.82114,-0.36922,0.2506585,0.80959,-0.3794,-0.0857985,0.0011499999999999982,-0.003740000000000021,0.0857985,-0.0011499999999999982,0.0037399999999999933,-0.16217150000000002,-0.28167,-0.33774000000000004,0.20205849999999997,-0.29377,-0.30852,-0.1424415,-0.7076100000000001,-0.32787,0.16947849999999998,-0.71919,-0.29988000000000004
217,0.028257000000000004,0.7732614999999999,-0.22710599999999997,-0.130925,0.5466615,-0.199036,-0.284485,0.6217315,-0.391815,0.176595,0.5476314999999999,-0.186516,0.36318500000000004,0.6075115,-0.361345,-0.16307500000000003,0.8310314999999999,-0.351175,0.25033500000000003,0.8204615,-0.36077499999999996,-0.085935,0.0008885000000000004,-0.003464999999999996,0.085935,-0.0008885000000000004,0.003464999999999996,-0.15841499999999997,-0.2920885,-0.328705,0.195365,-0.3057785,-0.300185,-0.14182499999999998,-0.7183585,-0.321075,0.166775,-0.7314085,-0.293075
218,0.027355999999999995,0.7815455,-0.209413,-0.132471,0.5486055,-0.18643099999999999,-0.285101,0.6306855,-0.37612,0.177919,0.5498955,-0.17432299999999998,0.36422899999999997,0.6184755000000001,-0.34752,-0.16597099999999998,0.8405955,-0.33361999999999997,0.24981899999999999,0.8306655000000001,-0.34238,-0.086239,0.0006945000000000007,-0.003129999999999994,0.086239,-0.0006945000000000007,0.0031300000000000217,-0.154171,-0.30241450000000003,-0.31942,0.189619,-0.3178645,-0.29170999999999997,-0.140831,-0.7290044999999999,-0.3143,0.164709,-0.7425444999999999,-0.28629
219,0.0264335,0.787674,-0.19192399999999998,-0.13404749999999999,0.551614,-0.17490699999999998,-0.2855475,0.6394839999999999,-0.361955,0.1792525,0.553604,-0.16300099999999998,0.36502249999999997,0.628644,-0.334195,-0.1695575,0.850474,-0.317855,0.2484125,0.8403940000000001,-0.327405,-0.0865725,0.0005200000000000066,-0.002945000000000003,0.0865725,-0.0005199999999999927,0.002945000000000003,-0.1503675,-0.313766,-0.311075,0.18198250000000002,-0.328936,-0.278975,-0.1399575,-0.740356,-0.306625,0.1599225,-0.7521359999999999,-0.27280499999999996
220,0.025376500000000003,0.7933030000000001,-0.17457499999999998,-0.13540750000000001,0.553763,-0.164648,-0.28649749999999996,0.6484430000000001,-0.34824499999999997,0.1804225,0.556353,-0.152886,0.36545249999999996,0.6401030000000001,-0.320845,-0.1724875,0.8597729999999999,-0.30515499999999995,0.2488025,0.8513029999999999,-0.313265,-0.0868725,0.0003590000000000121,-0.0029549999999999854,0.0868725,-0.0003589999999999982,0.002955000000000013,-0.1465775,-0.324507,-0.30315499999999995,0.1749125,-0.339677,-0.266565,-0.1389975,-0.751307,-0.301245,0.1554025,-0.762877,-0.260158
221,0.024486,0.7991674999999999,-0.15642599999999998,-0.13673,0.5552575,-0.15273399999999998,-0.28735,0.6584875,-0.33247499999999997,0.18155,0.5564074999999999,-0.141398,0.36557,0.6500775,-0.306015,-0.17511000000000002,0.8711375,-0.289775,0.24958999999999998,0.8637374999999999,-0.295205,-0.08704999999999999,0.0006224999999999981,-0.002904999999999991,0.08704999999999999,-0.0006224999999999981,0.0029050000000000187,-0.1424,-0.3360525,-0.29244499999999995,0.16829,-0.3512325,-0.251359,-0.13736,-0.7628525,-0.291185,0.15123,-0.7744525,-0.24526199999999998
222,0.0230155,0.8034414999999999,-0.135272,-0.1387555,0.5561915,-0.137183,-0.2888355,0.6675314999999999,-0.31315499999999996,0.1820445,0.5558114999999999,-0.126556,0.3649145,0.6582715,-0.287255,-0.1786655,0.8815814999999999,-0.27075499999999997,0.24958450000000001,0.8739414999999999,-0.274795,-0.0869945,0.0009764999999999982,-0.002945000000000003,0.0869945,-0.0009765000000000051,0.002945000000000003,-0.1381255,-0.3474885,-0.272725,0.1615045,-0.3627085,-0.231952,-0.1349755,-0.7743385,-0.273665,0.14698450000000002,-0.7859785,-0.227485
223,0.021155999999999994,0.8035425,-0.11002000000000002,-0.141687,0.5551325,-0.11684000000000001,-0.290737,0.6715325000000001,-0.289185,0.182423,0.5565925,-0.10623400000000002,0.363533,0.6643924999999999,-0.263405,-0.183207,0.8870925000000001,-0.24505500000000002,0.248903,0.8812225,-0.248865,-0.086973,0.001007499999999998,-0.0022950000000000192,0.086973,-0.0010075000000000014,0.0022949999999999915,-0.13503700000000002,-0.3699175,-0.24611500000000003,0.153783,-0.3838575,-0.20416900000000002,-0.133117,-0.7897875000000001,-0.251575,0.142143,-0.8022175,-0.20473800000000003
224,0.019152000000000006,0.8046150000000001,-0.08599600000000002,-0.144429,0.5544450000000001,-0.097639,-0.292199,0.677165,-0.266215,0.182801,0.557415,-0.08727000000000001,0.362421,0.670435,-0.240405,-0.187229,0.896815,-0.221385,0.24866099999999997,0.888105,-0.227005,-0.086811,0.0010170000000000005,-0.0016550000000000037,0.086811,-0.0010170000000000005,0.0016549999999999898,-0.132209,-0.39033500000000004,-0.22057500000000002,0.147011,-0.403675,-0.177031,-0.131419,-0.803905,-0.230725,0.137811,-0.817125,-0.182969
225,0.017247999999999996,0.8057505,-0.062863,-0.146805,0.5542105,-0.079203,-0.292745,0.6828105,-0.24413,0.18310500000000002,0.5568505,-0.069158,0.361645,0.6770205,-0.21845,-0.190985,0.9033105,-0.20157999999999998,0.249575,0.8953705000000001,-0.20631,-0.086535,0.0012424999999999997,-0.0010799999999999976,0.086535,-0.0012425000000000005,0.0010799999999999976,-0.129375,-0.4103295,-0.19505,0.14036500000000002,-0.4265895,-0.149377,-0.129545,-0.8176494999999999,-0.21042,0.133805,-0.8314294999999999,-0.161908
226,0.0153135,0.8062564999999999,-0.0408375,-0.1489885,0.5553965,-0.061261499999999997,-0.2933185,0.6893665,-0.2225415,0.18325149999999998,0.5561765,-0.0519155,0.3603815,0.6833265,-0.19730150000000002,-0.1943185,0.9106365,-0.1825445,0.2500815,0.9027065,-0.18591449999999998,-0.0860715,0.0015834999999999998,-0.0004925000000000068,0.0860715,-0.0015835,0.0004925000000000068,-0.1277785,-0.4326135,-0.1689215,0.1344715,-0.4489435,-0.1224325,-0.1277885,-0.8309035,-0.1903515,0.1302815,-0.8451735,-0.1413885
227,0.013567500000000003,0.8060315,-0.019763000000000003,-0.1509345,0.5566215,-0.043654,-0.2939745,0.6953914999999999,-0.20150400000000002,0.1832055,0.5550714999999999,-0.035196000000000005,0.3586855,0.6887314999999999,-0.176204,-0.1974245,0.9182914999999999,-0.164221,0.2504055,0.9093715,-0.16622399999999998,-0.08548549999999999,0.0018574999999999998,3.499999999999337e-05,0.08548549999999999,-0.0018574999999999998,-3.500000000000725e-05,-0.1262345,-0.4497885,-0.142442,0.1289055,-0.46608849999999996,-0.095614,-0.1260645,-0.8437885,-0.170369,0.1269055,-0.8589385,-0.120951
228,0.012854500000000005,0.806242,0.0007029999999999953,-0.15195050000000002,0.5577420000000001,-0.026404000000000004,-0.29380049999999996,0.702052,-0.18033,0.1838695,0.554042,-0.018472000000000002,0.35756950000000004,0.694122,-0.155193,-0.1987305,0.926052,-0.144779,0.25160950000000004,0.918682,-0.144369,-0.0849595,0.0021930000000000005,0.0005319999999999978,0.0849595,-0.0021930000000000005,-0.0005320000000000047,-0.12441150000000001,-0.471668,-0.115578,0.1265995,-0.486238,-0.072814,-0.12338750000000001,-0.856568,-0.15034799999999998,0.1270595,-0.872518,-0.106188
229,0.012596000000000003,0.8050865,0.020426,-0.152705,0.5591365,-0.008939000000000002,-0.292495,0.7091665,-0.15898400000000001,0.18479500000000001,0.5532165,-0.0014040000000000025,0.356275,0.6988065,-0.134501,-0.199795,0.9340765,-0.126382,0.253295,0.9264165,-0.12356400000000001,-0.084645,0.002534500000000002,0.0010849999999999957,0.084645,-0.0025344999999999986,-0.0010850000000000026,-0.122846,-0.4937735,-0.08788699999999999,0.12462500000000001,-0.5067535000000001,-0.049743,-0.12082899999999999,-0.8693935,-0.130361,0.127475,-0.8862735,-0.091313
230,0.011676000000000006,0.8036,0.038649499999999996,-0.154016,0.56134,0.006108500000000003,-0.291476,0.71517,-0.1409545,0.18488400000000002,0.5545599999999999,0.0136755,0.353864,0.70446,-0.1160785,-0.201516,0.94155,-0.1116415,0.25403400000000004,0.93151,-0.1078305,-0.08444399999999999,0.002461999999999999,0.0017775000000000013,0.08444399999999999,-0.002461999999999999,-0.0017774999999999978,-0.12253800000000001,-0.51429,-0.0631925,0.122114,-0.5212100000000001,-0.029682499999999997,-0.119339,-0.88063,-0.11409349999999999,0.12712400000000001,-0.8936400000000001,-0.0769115
231,0.011001999999999998,0.802163,0.052222,-0.154919,0.563413,0.016689999999999997,-0.28978899999999996,0.722183,-0.127211,0.18526099999999998,0.556853,0.024401,0.351401,0.7102930000000001,-0.102077,-0.202909,0.950833,-0.10222,0.255371,0.937343,-0.09723499999999999,-0.08411099999999999,0.002241,0.0026680000000000002,0.08411099999999999,-0.002241,-0.0026680000000000002,-0.122498,-0.526817,-0.048193,0.12007099999999998,-0.537587,-0.014603000000000001,-0.118836,-0.888267,-0.104967,0.127151,-0.902287,-0.06887499999999999
232,0.010792000000000003,0.8030955000000001,0.061152000000000005,-0.154919,0.5675855000000001,0.021703,-0.28667899999999996,0.7312055000000001,-0.118502,0.186151,0.5575355000000001,0.028990000000000002,0.349241,0.7176855000000001,-0.093478,-0.20121899999999998,0.9623555000000001,-0.098776,0.257201,0.9457255,-0.093779,-0.083681,0.002423500000000002,0.0027490000000000014,0.083681,-0.002423500000000002,-0.002748999999999998,-0.121808,-0.5339245,-0.04098399999999999,0.11943100000000001,-0.5443045,-0.008387999999999998,-0.11785699999999999,-0.8920944999999999,-0.101444,0.127861,-0.9074144999999999,-0.06695
