sb224sc-HT22-VT27/4dt907/src/data/kinect_good_preprocessed_A9_mediapipe/A91_kinect.csv
FrameNo,nose_3d_x,nose_3d_y,nose_3d_z,left_shoulder_3d_x,left_shoulder_3d_y,left_shoulder_3d_z,left_elbow_3d_x,left_elbow_3d_y,left_elbow_3d_z,right_shoulder_3d_x,right_shoulder_3d_y,right_shoulder_3d_z,right_elbow_3d_x,right_elbow_3d_y,right_elbow_3d_z,left_wrist_3d_x,left_wrist_3d_y,left_wrist_3d_z,right_wrist_3d_x,right_wrist_3d_y,right_wrist_3d_z,left_hip_3d_x,left_hip_3d_y,left_hip_3d_z,right_hip_3d_x,right_hip_3d_y,right_hip_3d_z,left_knee_3d_x,left_knee_3d_y,left_knee_3d_z,right_knee_3d_x,right_knee_3d_y,right_knee_3d_z,left_ankle_3d_x,left_ankle_3d_y,left_ankle_3d_z,right_ankle_3d_x,right_ankle_3d_y,right_ankle_3d_z
13,0.011742000000000002,0.8040999999999999,0.14234549999999999,-0.15262199999999998,0.6372399999999999,0.1145245,-0.212302,0.8740699999999999,0.0172115,0.173818,0.60817,0.11578250000000001,0.277628,0.8551,0.0376785,-0.194842,1.14944,-0.0467045,0.286898,1.10734,-0.0485445,-0.074604,0.002357,-0.0006704999999999975,0.074604,-0.002357,0.0006704999999999975,-0.112962,-0.46864,-0.014781500000000003,0.128328,-0.49767,0.004430499999999997,-0.100582,-0.8695900000000001,-0.019452499999999998,0.14527800000000002,-0.8970600000000001,-0.006114500000000002
14,0.0127055,0.8037985,0.141069,-0.1523505,0.6368685000000001,0.113383,-0.21179050000000002,0.8734185,0.015692,0.1745795,0.6082885,0.11550200000000001,0.2789395,0.8545185000000001,0.035849,-0.1939805,1.1488985,-0.04904599999999999,0.28878950000000003,1.1066985,-0.05165499999999999,-0.0747545,0.0023285,-0.0005220000000000016,0.0747545,-0.0023285,0.0005220000000000016,-0.1132705,-0.46829149999999997,-0.018353999999999995,0.1279595,-0.4967715,0.0009120000000000031,-0.1018105,-0.8691415,-0.019926,0.1439895,-0.8966715,-0.006442999999999997
15,0.0134505,0.8031174999999999,0.1396915,-0.1522415,0.6362875,0.1120835,-0.2116315,0.8733075,0.0141825,0.1750885,0.6083375,0.1152455,0.27982850000000004,0.8538775,0.0339675,-0.1934715,1.1484775,-0.0514115,0.2902385,1.1059775,-0.0546845,-0.0749425,0.0022785,-0.0003825000000000009,0.0749425,-0.0022785,0.0003825000000000009,-0.11395150000000001,-0.4680525,-0.0218545,0.1272885,-0.4954225,-0.0025944999999999996,-0.10340150000000001,-0.8687525,-0.020340499999999997,0.1422285,-0.8956725,-0.006790499999999998
16,0.0140215,0.8026055,0.138361,-0.1520865,0.6354955,0.11071500000000001,-0.21178650000000002,0.8730855,0.012621,0.1756135,0.6085655,0.115,0.2804535,0.8533955,0.032132,-0.1932565,1.1482554999999999,-0.053737999999999994,0.29129350000000004,1.1052555,-0.057203000000000004,-0.07517750000000001,0.0022475,-0.00023999999999999716,0.07517750000000001,-0.0022475,0.0002400000000000041,-0.11498649999999999,-0.4697345,-0.025394,0.1263435,-0.4937645,-0.005964999999999998,-0.1053635,-0.8703845,-0.020911,0.1401035,-0.8944545,-0.007482999999999997
17,0.014303,0.8024395,0.137114,-0.151864,0.6343295,0.10914,-0.21201399999999998,0.8729695000000001,0.010723999999999997,0.17616600000000002,0.6090195,0.114714,0.280896,0.8529695,0.030262999999999998,-0.19325399999999998,1.1481595,-0.056145,0.29215599999999997,1.1045595,-0.060041,-0.07539699999999999,0.0021985,-5.9000000000003494e-05,0.07539699999999999,-0.0021985,5.8999999999996555e-05,-0.116644,-0.4711705,-0.028984999999999997,0.125316,-0.4919405,-0.009172,-0.107742,-0.8717604999999999,-0.021881000000000005,0.13775600000000002,-0.8926204999999999,-0.007878000000000003
18,0.014263999999999995,0.80225,0.136107,-0.151881,0.63302,0.107603,-0.212331,0.87308,0.008947000000000004,0.176559,0.60944,0.11442100000000001,0.281179,0.85132,0.028774,-0.193781,1.14822,-0.058141,0.292369,1.10402,-0.06247799999999999,-0.075595,0.002154,0.00015199999999999936,0.075595,-0.0021539999999999997,-0.00015199999999999936,-0.118511,-0.47165,-0.031841999999999995,0.12439900000000001,-0.49055000000000004,-0.012387999999999996,-0.11027700000000001,-0.8721300000000001,-0.022856999999999995,0.135279,-0.89117,-0.008326999999999994
19,0.014384499999999998,0.802121,0.1348955,-0.1519235,0.6317609999999999,0.1060575,-0.2125435,0.873421,0.007116500000000005,0.1770565,0.609891,0.1140775,0.2814565,0.849711,0.027384500000000006,-0.1943335,1.148191,-0.06022849999999999,0.2927165,1.103091,-0.0652075,-0.0757805,0.002107,0.00033750000000000446,0.0757805,-0.0021070000000000004,-0.0003374999999999975,-0.12002349999999999,-0.471209,-0.0342485,0.12347649999999999,-0.489139,-0.015695499999999994,-0.1128725,-0.871529,-0.022954499999999996,0.1327065,-0.8897590000000001,-0.009004499999999992
20,0.014558500000000002,0.8019655,0.1334935,-0.1519165,0.6306754999999999,0.1043885,-0.2127865,0.8741855,0.0052875000000000005,0.1776835,0.6100455,0.1133815,0.2817635,0.8487454999999999,0.025871500000000002,-0.1948365,1.1484855,-0.0625425,0.2931635,1.1022855,-0.0682425,-0.0759845,0.0020585,0.0005225000000000021,0.0759845,-0.0020585,-0.0005224999999999952,-0.1218565,-0.4686345,-0.0367585,0.1224335,-0.48787450000000004,-0.0188725,-0.1155705,-0.8688045,-0.0229155,0.1301235,-0.8884445,-0.0101015
21,0.014909999999999996,0.802076,0.1317025,-0.151741,0.629596,0.1026035,-0.212641,0.875136,0.0034544999999999992,0.178669,0.609916,0.1123905,0.282139,0.847596,0.0240665,-0.19517099999999998,1.148846,-0.0652825,0.29388899999999996,1.1021459999999998,-0.07244249999999999,-0.076237,0.0020129999999999996,0.0007175000000000029,0.076237,-0.002013,-0.0007174999999999959,-0.123601,-0.465144,-0.039114499999999996,0.120989,-0.485964,-0.021857500000000002,-0.118588,-0.865174,-0.0234515,0.127309,-0.8865139999999999,-0.011167499999999997
22,0.014867000000000002,0.8023235000000001,0.12936999999999999,-0.151587,0.6291135,0.100454,-0.21271700000000002,0.8748635,0.0009370000000000003,0.179203,0.6095135,0.110507,0.282343,0.8464035000000001,0.020902999999999998,-0.196017,1.1492535,-0.06862,0.293773,1.1019535,-0.07688,-0.076477,0.0019464999999999994,0.0009860000000000008,0.076477,-0.0019465000000000003,-0.0009860000000000008,-0.125127,-0.4635765,-0.04160900000000001,0.11978300000000001,-0.4833065,-0.024644,-0.121415,-0.8633865,-0.024328000000000002,0.12466300000000001,-0.8837864999999999,-0.012255000000000002
23,0.015337500000000004,0.8022855,0.12661899999999998,-0.1514405,0.6287455,0.098545,-0.2126305,0.8739755,-0.0018250000000000002,0.1797995,0.6088255,0.108279,0.2829495,0.8450955,0.017236,-0.1968305,1.1495955,-0.072207,0.2937595,1.1017955000000001,-0.082107,-0.0766895,0.0018765000000000006,0.0012240000000000029,0.0766895,-0.0018764999999999997,-0.001223999999999996,-0.1265845,-0.4608645,-0.044190999999999994,0.1187995,-0.4806545,-0.027556999999999998,-0.1242095,-0.8605545,-0.025357000000000005,0.12216949999999999,-0.8809945,-0.013109000000000003
24,0.016202,0.8024169999999999,0.12378750000000001,-0.150993,0.628467,0.0967305,-0.21201299999999998,0.871877,-0.005011499999999995,0.180767,0.608067,0.1059485,0.28411699999999995,0.843517,0.013367500000000004,-0.197483,1.149837,-0.07606349999999999,0.29439699999999996,1.101437,-0.08770349999999999,-0.076827,0.0017729999999999994,0.0014955000000000038,0.076827,-0.0017730000000000003,-0.0014954999999999968,-0.127656,-0.459293,-0.0469695,0.117957,-0.478053,-0.030419499999999988,-0.12678,-0.8589330000000001,-0.026443499999999995,0.119637,-0.878263,-0.014209499999999993
25,0.017091999999999996,0.802483,0.12062350000000001,-0.151068,0.628593,0.0948475,-0.21093800000000001,0.8698629999999999,-0.008258499999999995,0.18181199999999997,0.607073,0.1029905,0.28532199999999996,0.841843,0.009087500000000002,-0.197948,1.149903,-0.0805105,0.295052,1.101003,-0.0938305,-0.076902,0.0016229999999999994,0.0019515000000000018,0.076902,-0.0016229999999999994,-0.001951499999999995,-0.128793,-0.457877,-0.0498865,0.11712199999999999,-0.47561699999999996,-0.033644499999999994,-0.129398,-0.857487,-0.0281705,0.116992,-0.875687,-0.015240499999999997
26,0.018032,0.802736,0.1171925,-0.151504,0.629446,0.0928595,-0.20990399999999998,0.8678159999999999,-0.011713500000000002,0.182506,0.6063259999999999,0.0998135,0.286506,0.840476,0.004407500000000002,-0.19827399999999998,1.1501860000000002,-0.0855515,0.295686,1.100886,-0.1001515,-0.07700599999999999,0.0013950000000000004,0.0025804999999999995,0.07700599999999999,-0.0013950000000000004,-0.0025804999999999995,-0.129985,-0.456294,-0.052839500000000005,0.11619600000000002,-0.472954,-0.036979500000000005,-0.131954,-0.855904,-0.029998500000000004,0.11446600000000001,-0.872824,-0.016670499999999998
27,0.019288499999999993,0.8030055,0.11282500000000001,-0.1522705,0.6306155,0.09096000000000001,-0.2092705,0.8657155,-0.014819999999999993,0.1833795,0.6053555,0.09589,0.2874495,0.8401055,-0.0008139999999999953,-0.1985305,1.1502455,-0.09137399999999998,0.2964395,1.1009455,-0.10744399999999998,-0.0771895,0.0012174999999999998,0.0033310000000000006,0.0771895,-0.0012175000000000016,-0.0033309999999999937,-0.1314065,-0.4541445,-0.05603899999999999,0.11519949999999998,-0.4698245,-0.040586,-0.1345705,-0.8535645,-0.032201999999999995,0.11183949999999998,-0.8693745,-0.018024
28,0.020557000000000006,0.8031815,0.1080555,-0.153212,0.6319715,0.0888565,-0.208722,0.8636315,-0.018258499999999997,0.184348,0.6040915,0.0914195,0.288458,0.8399314999999999,-0.006690500000000002,-0.198792,1.1502015,-0.09776949999999998,0.297698,1.0999015,-0.11552949999999998,-0.07741799999999999,0.0010915000000000005,0.0041034999999999995,0.077418,-0.0010915000000000005,-0.004103500000000003,-0.133367,-0.45187849999999996,-0.059296499999999995,0.114448,-0.46630849999999996,-0.0444705,-0.137264,-0.8511285000000001,-0.033387499999999994,0.109178,-0.8655685000000001,-0.0193075
29,0.0218965,0.8035344999999999,0.102877,-0.1536825,0.6330745,0.08637,-0.20782250000000002,0.8612645,-0.022476000000000003,0.18515749999999997,0.6034845,0.086899,0.2895975,0.8393744999999999,-0.013249999999999998,-0.19918249999999998,1.1502745,-0.10455700000000001,0.2987375,1.0988745,-0.12390699999999999,-0.0776675,0.0009195000000000002,0.0050019999999999995,0.0776675,-0.0009195000000000002,-0.0050019999999999995,-0.1353745,-0.44946549999999996,-0.062848,0.11382749999999998,-0.4625855,-0.048950999999999995,-0.13996350000000002,-0.8485155000000001,-0.034751000000000004,0.10647749999999999,-0.8614355,-0.020753
30,0.023083000000000006,0.80407,0.097603,-0.152685,0.63317,0.08323,-0.207095,0.85877,-0.027066,0.186305,0.60283,0.081564,0.290475,0.83913,-0.019832999999999996,-0.199845,1.1503100000000002,-0.11129999999999998,0.299355,1.0980100000000002,-0.13149,-0.077985,0.0009010000000000025,0.0058470000000000015,0.077985,-0.000900999999999999,-0.005846999999999998,-0.137203,-0.44623,-0.066084,0.113375,-0.45835,-0.05341099999999999,-0.14221,-0.84513,-0.036195,0.10405500000000001,-0.85684,-0.022487
31,0.024696499999999996,0.8045669999999999,0.091707,-0.15163949999999998,0.633207,0.079932,-0.2060855,0.857367,-0.03209,0.1874145,0.6023569999999999,0.076179,0.2916845,0.838587,-0.026542000000000003,-0.1998955,1.150097,-0.118921,0.30070450000000004,1.0961969999999999,-0.140111,-0.07829449999999999,0.0007919999999999976,0.006706,0.07829449999999999,-0.000792000000000001,-0.006706000000000004,-0.1392445,-0.441673,-0.069629,0.11253450000000001,-0.454393,-0.057954000000000006,-0.14467449999999998,-0.8403630000000001,-0.037487000000000006,0.1012545,-0.8524930000000001,-0.024218999999999997
32,0.02634199999999999,0.8050685000000001,0.0852495,-0.150963,0.6337485,0.0762445,-0.204649,0.8561085,-0.0381605,0.188661,0.6019385,0.07012550000000001,0.29295099999999996,0.8378085000000001,-0.034283499999999995,-0.199529,1.1498685,-0.1281405,0.30215099999999995,1.0942685,-0.1497105,-0.07866100000000001,0.0006954999999999982,0.007617500000000003,0.07866100000000001,-0.0006955000000000017,-0.007617499999999999,-0.14117600000000002,-0.4374815,-0.0734005,0.111571,-0.45009150000000003,-0.0628565,-0.147149,-0.8359015,-0.03952449999999999,0.09831100000000001,-0.8478815,-0.026339499999999995
33,0.027976000000000008,0.8054030000000001,0.0772805,-0.149641,0.6343530000000001,0.0710075,-0.20341,0.8566830000000001,-0.0454175,0.18989,0.6016630000000001,0.0628175,0.29391,0.8376830000000001,-0.043770500000000004,-0.19909000000000002,1.149883,-0.1388935,0.30369,1.091883,-0.1613135,-0.07914,0.0007160000000000014,0.008487499999999999,0.07913999999999999,-0.0007160000000000014,-0.008487499999999999,-0.143245,-0.432637,-0.0776135,0.11066999999999999,-0.44466700000000003,-0.0685865,-0.149995,-0.8308169999999999,-0.042153499999999997,0.09511999999999998,-0.842127,-0.029974499999999998
34,0.029531500000000002,0.8061054999999999,0.0687985,-0.14769349999999998,0.6352255,0.0649185,-0.2028085,0.8575254999999999,-0.05357049999999999,0.1908315,0.6016254999999999,0.0550135,0.2947415,0.8372655,-0.0540065,-0.1989085,1.1504855,-0.1501125,0.3053715,1.0896855,-0.1741325,-0.0796315,0.0008144999999999958,0.009296500000000003,0.0796315,-0.0008145000000000027,-0.0092965,-0.1453765,-0.4270545,-0.0821025,0.10946150000000002,-0.4386945,-0.0744455,-0.1529865,-0.8249945000000001,-0.0452535,0.0917415,-0.8358145,-0.0343875
35,0.031543,0.80646,0.060256500000000005,-0.14477099999999998,0.63522,0.0585615,-0.201789,0.8585799999999999,-0.0621245,0.19233100000000003,0.6010599999999999,0.0471785,0.296111,0.8367199999999999,-0.0643035,-0.19814900000000002,1.1508500000000002,-0.1613765,0.307551,1.08675,-0.18675650000000002,-0.080171,0.0010840000000000016,0.0099935,0.080171,-0.0010840000000000016,-0.009993499999999999,-0.14738400000000001,-0.42086,-0.0866465,0.108331,-0.43191999999999997,-0.0802435,-0.155782,-0.81854,-0.04844749999999999,0.088381,-0.8287500000000001,-0.038557499999999995
36,0.03338300000000001,0.8067200000000001,0.051794999999999994,-0.140948,0.6344700000000001,0.051630999999999996,-0.20042699999999997,0.8594200000000001,-0.0716,0.193633,0.6007100000000001,0.039509,0.297613,0.83602,-0.074949,-0.19722699999999999,1.15129,-0.173006,0.309873,1.0832899999999999,-0.199186,-0.08069299999999999,0.001334999999999996,0.010624999999999999,0.080693,-0.0013350000000000029,-0.010624999999999999,-0.149275,-0.41513,-0.091046,0.107003,-0.42526,-0.08569600000000001,-0.15844199999999997,-0.8126,-0.051702,0.08509300000000002,-0.8219000000000001,-0.043019
37,0.034653500000000004,0.8071845,0.043046,-0.1368095,0.6333245,0.043886999999999995,-0.1993065,0.8604645,-0.081461,0.1946135,0.6008045,0.031667,0.2989735,0.8352645,-0.086035,-0.1966065,1.1518244999999998,-0.18534699999999998,0.3117135,1.0804245,-0.21287699999999998,-0.0812135,0.0015495000000000023,0.011288000000000001,0.0812135,-0.0015495000000000023,-0.011288,-0.1512425,-0.4091955,-0.09561700000000001,0.10498350000000001,-0.4184955,-0.090947,-0.1614815,-0.8066255,-0.055092,0.08142350000000001,-0.8149255,-0.047363
38,0.03619699999999999,0.8073290000000001,0.033979,-0.13314,0.632329,0.036138,-0.19815300000000002,0.861649,-0.091778,0.195957,0.600139,0.023511,0.300517,0.834119,-0.097258,-0.19565300000000002,1.1520190000000001,-0.19836800000000002,0.313667,1.077619,-0.226818,-0.081717,0.0018410000000000024,0.011735,0.081717,-0.0018409999999999954,-0.011734999999999999,-0.153068,-0.403301,-0.100138,0.102917,-0.41190099999999996,-0.095748,-0.164466,-0.800731,-0.058544,0.07781699999999998,-0.808161,-0.051732
39,0.03790399999999999,0.807196,0.024809499999999998,-0.130838,0.632016,0.0286125,-0.196986,0.862816,-0.1025175,0.196814,0.599336,0.0158835,0.302514,0.832006,-0.1086575,-0.19445600000000002,1.152086,-0.2119175,0.316334,1.0719859999999999,-0.2413375,-0.082084,0.0020949999999999927,0.0121045,0.082084,-0.0020949999999999996,-0.0121045,-0.154785,-0.39767399999999997,-0.1045375,0.10093399999999998,-0.40588399999999997,-0.1004475,-0.167423,-0.795064,-0.061949500000000005,0.074394,-0.801904,-0.0561235
40,0.03976300000000001,0.8070185,0.0163115,-0.12879200000000002,0.6318684999999999,0.0217665,-0.195507,0.8634185,-0.1129445,0.19787299999999997,0.5981985,0.008552500000000001,0.304853,0.8286285,-0.1199645,-0.192677,1.1515985,-0.2251145,0.31898299999999996,1.0670085,-0.2545645,-0.082383,0.002415500000000001,0.0122635,0.082383,-0.002415500000000001,-0.0122635,-0.15619,-0.3926515,-0.1086145,0.099203,-0.40067149999999996,-0.1049245,-0.170062,-0.7898515,-0.0652075,0.071423,-0.7966415,-0.06036949999999999
41,0.04155950000000001,0.806967,0.0076565,-0.1259625,0.631267,0.0140815,-0.1942505,0.864517,-0.1233965,0.19862950000000001,0.597237,0.0014394999999999998,0.3070095,0.8253569999999999,-0.1304765,-0.19096049999999998,1.151197,-0.2380765,0.32163949999999997,1.061867,-0.2668465,-0.0826995,0.0028679999999999956,0.0121345,0.0826995,-0.0028679999999999956,-0.0121345,-0.1576325,-0.387613,-0.1128065,0.09756950000000002,-0.395373,-0.10924650000000001,-0.1725515,-0.7845930000000001,-0.0686185,0.0686595,-0.7913429999999999,-0.06471650000000001
42,0.043409500000000004,0.806883,-0.0001885000000000003,-0.1239675,0.630823,0.0077575000000000005,-0.1931505,0.864693,-0.1333025,0.19959950000000004,0.5959730000000001,-0.0050315,0.3096795,0.821453,-0.14020249999999998,-0.1889255,1.1502329999999998,-0.2505525,0.3244495,1.057553,-0.2785225,-0.0829495,0.0032849999999999963,0.0119005,0.0829495,-0.0032849999999999963,-0.0119005,-0.1587835,-0.383737,-0.1165725,0.09597950000000001,-0.390977,-0.11287249999999999,-0.17459449999999999,-0.7804669999999999,-0.0714245,0.06647950000000001,-0.7868069999999999,-0.0679835
43,0.045749999999999985,0.8059945,-0.0082555,-0.12199700000000001,0.6301945,0.0015534999999999993,-0.19164799999999999,0.8643145,-0.1432585,0.20108,0.5948844999999999,-0.011518500000000001,0.31281000000000003,0.8171145,-0.1496985,-0.186193,1.1486144999999999,-0.2634085,0.32745,1.0532445,-0.2896185,-0.08324000000000001,0.003680500000000003,0.011577500000000001,0.08324000000000001,-0.003680500000000003,-0.011577500000000001,-0.159528,-0.38033550000000005,-0.1202285,0.09486999999999998,-0.3865955,-0.11649849999999999,-0.176309,-0.7769255,-0.0746655,0.06475,-0.7824255,-0.07109449999999999
44,0.0480235,0.80532,-0.0170195,-0.1193115,0.629,-0.0062415,-0.19014350000000002,0.86334,-0.1540145,0.20264349999999998,0.5939,-0.0189105,0.3155235,0.81308,-0.1598245,-0.1837275,1.14698,-0.2766745,0.3308235,1.04838,-0.3019245,-0.08350350000000001,0.004023000000000013,0.011211500000000001,0.08350350000000001,-0.004022999999999999,-0.0112115,-0.16005350000000002,-0.37746,-0.12403449999999999,0.0939235,-0.38322,-0.1205445,-0.1779885,-0.77396,-0.0782115,0.06314349999999999,-0.77891,-0.0746495
45,0.050135999999999986,0.8045455,-0.0256915,-0.11667000000000001,0.6274955,-0.0146245,-0.18880200000000003,0.8621655,-0.1652565,0.204166,0.5929854999999999,-0.0263945,0.31818599999999997,0.8087555,-0.17007650000000002,-0.18116300000000002,1.1450455000000002,-0.2900565,0.33407600000000004,1.0432255000000001,-0.3140165,-0.08372600000000001,0.004339499999999996,0.0108625,0.083726,-0.00433950000000001,-0.0108625,-0.16059400000000001,-0.3753445,-0.1278565,0.093086,-0.38068450000000004,-0.1246765,-0.179647,-0.7717245,-0.0817195,0.061366000000000004,-0.7762645,-0.07795049999999999
46,0.05286400000000001,0.8034425,-0.0345615,-0.113735,0.6260224999999999,-0.0229925,-0.187378,0.8609924999999999,-0.17669949999999998,0.206154,0.5918125,-0.034188500000000004,0.32107399999999997,0.8044025,-0.1803195,-0.178085,1.1433525,-0.30337949999999997,0.337244,1.0387725,-0.3245995,-0.084034,0.004797499999999996,0.010427500000000001,0.08403400000000001,-0.004797499999999996,-0.0104275,-0.16091,-0.3731875,-0.13162949999999998,0.092764,-0.37866750000000005,-0.1293295,-0.180877,-0.7694975000000001,-0.0852345,0.06013400000000001,-0.7739675,-0.0813125
47,0.05555749999999998,0.801822,-0.0437115,-0.11049750000000001,0.624382,-0.0314005,-0.18626550000000003,0.859682,-0.1877255,0.20833749999999998,0.5905119999999999,-0.0419745,0.32394749999999994,0.799882,-0.1900855,-0.17465950000000002,1.141232,-0.3164455,0.3407975,1.034132,-0.3352455,-0.08440750000000001,0.005237999999999993,0.0100365,0.0844075,-0.0052380000000000065,-0.0100365,-0.1610225,-0.370978,-0.13537549999999998,0.09244749999999999,-0.376778,-0.1339455,-0.1817725,-0.767168,-0.0886555,0.059167499999999984,-0.771728,-0.0847445
48,0.05845149999999999,0.8000035,-0.053178500000000004,-0.10687150000000001,0.6225835,-0.0400635,-0.1850635,0.8575634999999999,-0.1988395,0.2108515,0.5889835,-0.049904500000000004,0.3267515,0.7960435,-0.1995595,-0.1708885,1.1390835000000001,-0.3292095,0.3441915,1.0312835,-0.3463195,-0.0848315,0.0057365000000000055,0.009597499999999998,0.0848315,-0.0057365000000000055,-0.0095975,-0.1612725,-0.36904650000000006,-0.13923950000000002,0.09245149999999999,-0.3752065,-0.1388195,-0.18220350000000002,-0.7650665,-0.0919045,0.05855149999999998,-0.7698565,-0.08852249999999999
49,0.061313999999999994,0.79823,-0.0629815,-0.102894,0.62095,-0.0491725,-0.184114,0.8558,-0.20986950000000001,0.213414,0.58759,-0.0579645,0.329244,0.79296,-0.2089395,-0.167243,1.1372600000000002,-0.34161949999999996,0.347514,1.0285,-0.3575595,-0.085184,0.0063499999999999945,0.009239499999999998,0.085184,-0.006350000000000008,-0.009239500000000001,-0.16120400000000001,-0.36668,-0.1431895,0.092064,-0.37381,-0.1440595,-0.182402,-0.76259,-0.09519749999999999,0.058134000000000005,-0.7680400000000001,-0.09195249999999999
50,0.06387650000000002,0.79578,-0.07244400000000001,-0.0991155,0.61881,-0.057859999999999995,-0.18330649999999998,0.8535200000000001,-0.219825,0.21611650000000004,0.5856399999999999,-0.065751,0.33156650000000004,0.79022,-0.217835,-0.1636175,1.1347999999999998,-0.35324500000000003,0.3506665,1.02435,-0.368435,-0.0853665,0.006850000000000009,0.009108999999999999,0.0853665,-0.006849999999999995,-0.009108999999999999,-0.1613665,-0.36502,-0.147125,0.0918365,-0.37290999999999996,-0.149365,-0.18252249999999998,-0.76076,-0.098197,0.05787650000000001,-0.76684,-0.09509200000000001
51,0.06624,0.793485,-0.08182049999999999,-0.09505,0.616565,-0.06669249999999999,-0.182286,0.851715,-0.2298855,0.21858000000000002,0.584035,-0.0732945,0.3335,0.788145,-0.2259955,-0.16017399999999998,1.131555,-0.3638255,0.35338,1.019905,-0.37848550000000003,-0.08537,0.007415000000000005,0.009021500000000002,0.08537,-0.007414999999999991,-0.009021499999999995,-0.161412,-0.36412500000000003,-0.1522955,0.09179000000000001,-0.372275,-0.15435549999999998,-0.182673,-0.7587849999999999,-0.1013135,0.057770000000000016,-0.7658849999999999,-0.0982325
52,0.068269,0.7914749999999999,-0.090417,-0.090984,0.613815,-0.075265,-0.181122,0.849885,-0.23896699999999998,0.220839,0.581745,-0.080317,0.33536900000000003,0.7852950000000001,-0.234977,-0.156941,1.127875,-0.373527,0.356229,1.0155750000000001,-0.388937,-0.085449,0.007855000000000015,0.008993000000000001,0.085449,-0.007855000000000001,-0.008993000000000001,-0.161373,-0.364575,-0.157247,0.091499,-0.371585,-0.159387,-0.182803,-0.757455,-0.10394400000000001,0.05767900000000001,-0.764785,-0.10120100000000001
53,0.07032499999999998,0.788445,-0.098677,-0.088256,0.612175,-0.082123,-0.180122,0.847465,-0.24720999999999999,0.222885,0.579065,-0.08663599999999999,0.337365,0.781795,-0.24346,-0.153836,1.123115,-0.3826,0.358735,1.011605,-0.39908,-0.085635,0.008465000000000014,0.008920999999999998,0.085635,-0.008465,-0.008920999999999998,-0.161228,-0.365715,-0.16196,0.09105499999999998,-0.371155,-0.16394999999999998,-0.1829,-0.756815,-0.1056,0.05764499999999999,-0.763935,-0.103558
54,0.0724385,0.785655,-0.1065015,-0.0859455,0.611285,-0.0884015,-0.1790095,0.8452949999999999,-0.25458349999999996,0.2249985,0.576265,-0.0928605,0.3394585,0.7781849999999999,-0.2515635,-0.1508935,1.1184749999999999,-0.3910635,0.3615085,1.007715,-0.4097235,-0.0859985,0.009145,0.008792500000000002,0.08599849999999999,-0.009145000000000014,-0.008792500000000002,-0.1610055,-0.36495500000000003,-0.1666635,0.0906685,-0.370375,-0.1685635,-0.1827635,-0.754945,-0.1070475,0.057908500000000016,-0.762715,-0.1057165
55,0.0734875,0.7832,-0.113497,-0.0846565,0.61067,-0.094163,-0.1783975,0.84262,-0.261605,0.22568750000000004,0.57316,-0.098498,0.3406475,0.7743,-0.259045,-0.1488935,1.1132300000000002,-0.398775,0.3637375,1.00278,-0.420705,-0.08616750000000001,0.009750000000000009,0.008624,0.0861675,-0.009749999999999981,-0.008624000000000003,-0.16165649999999998,-0.36103,-0.17106500000000002,0.08929749999999999,-0.36645,-0.17244500000000001,-0.1833765,-0.75102,-0.108727,0.0573075,-0.75879,-0.10771800000000001
56,0.07452650000000001,0.781545,-0.1201415,-0.08326249999999999,0.609235,-0.1001435,-0.17758049999999997,0.840355,-0.2685415,0.22593649999999998,0.570395,-0.10405249999999999,0.3418465,0.770675,-0.2671315,-0.14725349999999998,1.108705,-0.4063215,0.3662065,0.997325,-0.4320615,-0.08628649999999999,0.010405000000000025,0.0084365,0.0862865,-0.010404999999999998,-0.0084365,-0.1624505,-0.356555,-0.1755115,0.0880065,-0.361975,-0.1763115,-0.18399949999999998,-0.746545,-0.1105435,0.05685650000000002,-0.754315,-0.1097925
57,0.07589199999999999,0.780805,-0.13268000000000002,-0.081961,0.608915,-0.111874,-0.176484,0.839855,-0.281069,0.226042,0.568685,-0.115549,0.343282,0.7677149999999999,-0.281629,-0.145535,1.105135,-0.419909,0.36924199999999996,0.989795,-0.448269,-0.086232,0.011134999999999978,0.007990999999999998,0.086232,-0.011135000000000006,-0.007991000000000005,-0.16312,-0.35097500000000004,-0.18599900000000003,0.08685199999999998,-0.356395,-0.18617899999999998,-0.184343,-0.7409650000000001,-0.118443,0.056592,-0.7487349999999999,-0.117712
58,0.077306,0.783575,-0.1464995,-0.080563,0.609625,-0.1246435,-0.17532399999999998,0.842165,-0.2949605,0.22599600000000003,0.571155,-0.1282675,0.344976,0.767505,-0.2967805,-0.14394200000000001,1.104685,-0.43508050000000004,0.372386,0.985965,-0.46550050000000004,-0.085946,0.010605000000000003,0.008027500000000007,0.08594600000000001,-0.010605000000000003,-0.0080275,-0.164508,-0.338885,-0.2022605,0.085576,-0.344665,-0.20484049999999998,-0.185073,-0.7284149999999999,-0.1318925,0.05636600000000001,-0.736275,-0.1332905
59,0.07914799999999998,0.7868,-0.159939,-0.07916700000000002,0.61075,-0.13677,-0.17242000000000002,0.8445,-0.308673,0.226188,0.57456,-0.140604,0.347068,0.76704,-0.312403,-0.141932,1.10428,-0.45027300000000003,0.37613800000000003,0.98255,-0.48347300000000004,-0.08565800000000001,0.010319999999999996,0.007925000000000001,0.085658,-0.010319999999999996,-0.007924999999999995,-0.165792,-0.32616,-0.218313,0.08439799999999999,-0.33165,-0.223933,-0.18546600000000002,-0.71523,-0.145613,0.056337999999999985,-0.72255,-0.14978799999999998
60,0.0815155,0.78969,-0.1726875,-0.0773035,0.6115999999999999,-0.1486085,-0.16874250000000002,0.84629,-0.32152250000000004,0.2267055,0.57804,-0.1525835,0.3496255,0.76488,-0.3276125,-0.1394465,1.1020699999999999,-0.46584250000000005,0.3807255,0.9779800000000001,-0.5013925,-0.0855055,0.010029999999999983,0.007796499999999998,0.0855055,-0.010030000000000011,-0.007796500000000012,-0.1666265,-0.31299,-0.2329525,0.0836155,-0.31817,-0.2432225,-0.1856055,-0.7015800000000001,-0.1594945,0.0567255,-0.70841,-0.1662855
61,0.08413000000000001,0.79247,-0.18564999999999998,-0.07562899999999999,0.61219,-0.16033199999999997,-0.164995,0.84744,-0.33553,0.2267,0.58153,-0.164547,0.35212,0.76241,-0.34137,-0.136853,1.10039,-0.48139,0.3859,0.9717199999999999,-0.51903,-0.08528999999999999,0.00990000000000002,0.007555000000000006,0.08529,-0.009899999999999992,-0.007554999999999992,-0.167327,-0.29946,-0.24756999999999998,0.08350000000000002,-0.30402999999999997,-0.26210999999999995,-0.18575999999999998,-0.68763,-0.173612,0.057249999999999995,-0.6936,-0.182792
62,0.08668799999999999,0.795835,-0.19858399999999998,-0.073796,0.612865,-0.17185899999999998,-0.16063100000000002,0.849125,-0.349614,0.226458,0.584865,-0.17665599999999998,0.354518,0.759145,-0.355184,-0.133677,1.099355,-0.498004,0.39150799999999997,0.9625049999999999,-0.535744,-0.085038,0.009614999999999985,0.007396,0.085038,-0.009615000000000012,-0.007396,-0.16790100000000002,-0.285735,-0.262164,0.08351799999999998,-0.289435,-0.28065399999999996,-0.185905,-0.673455,-0.18797799999999998,0.05790799999999999,-0.6784250000000001,-0.198574
63,0.08927,0.798995,-0.2122595,-0.071683,0.612485,-0.1840075,-0.156081,0.850915,-0.3642395,0.22524,0.585525,-0.1906005,0.35702,0.756065,-0.3695995,-0.130158,1.098155,-0.5155095000000001,0.39688,0.9516950000000001,-0.5518894999999999,-0.08477,0.009415000000000007,0.007210500000000009,0.08477,-0.009415000000000007,-0.007210499999999995,-0.168713,-0.268185,-0.2783095,0.08367000000000001,-0.275335,-0.2991395,-0.18613,-0.656395,-0.2040795,0.05848000000000002,-0.663775,-0.2148995
64,0.09186949999999999,0.80148,-0.226375,-0.0693575,0.61159,-0.19652799999999998,-0.1516705,0.85217,-0.379515,0.22408949999999997,0.58657,-0.204318,0.3596895,0.75236,-0.384695,-0.12611050000000001,1.09598,-0.5337149999999999,0.40209949999999994,0.94158,-0.567325,-0.08448950000000001,0.00924999999999998,0.006875000000000006,0.0844895,-0.009250000000000008,-0.006874999999999992,-0.1695195,-0.25202,-0.294755,0.0838595,-0.26058000000000003,-0.31759499999999996,-0.1863355,-0.6407700000000001,-0.220345,0.0590195,-0.64859,-0.231385
65,0.09453899999999998,0.80306,-0.24009999999999998,-0.067252,0.61124,-0.208719,-0.14727200000000001,0.85272,-0.39449,0.222819,0.58777,-0.21776099999999998,0.362179,0.74872,-0.39922,-0.12165500000000001,1.09318,-0.55291,0.40772899999999995,0.9300700000000001,-0.5831,-0.084029,0.009000000000000008,0.0063600000000000045,0.08402899999999999,-0.009000000000000008,-0.006359999999999991,-0.170522,-0.23462999999999998,-0.31118,0.08388899999999999,-0.24828999999999998,-0.33455,-0.186606,-0.6253099999999999,-0.23642999999999997,0.059468999999999994,-0.6359699999999999,-0.24667
66,0.09730000000000001,0.8029999999999999,-0.247805,-0.06517499999999998,0.60999,-0.21469,-0.14274499999999998,0.85088,-0.405165,0.22184000000000004,0.58851,-0.22466,0.36492,0.7431,-0.40776500000000004,-0.117088,1.08847,-0.566025,0.41331000000000007,0.92014,-0.593855,-0.08354999999999999,0.008619999999999989,0.006064999999999987,0.08355,-0.008619999999999989,-0.006065000000000001,-0.171673,-0.21928,-0.321415,0.08376000000000001,-0.23617000000000002,-0.345895,-0.18698199999999998,-0.61061,-0.246145,0.059920000000000015,-0.62359,-0.256985
67,0.10045400000000002,0.798845,-0.25412999999999997,-0.063063,0.6071949999999999,-0.219372,-0.138462,0.8455550000000001,-0.41416,0.22149400000000002,0.585285,-0.22996,0.367604,0.733825,-0.41475,-0.112063,1.079225,-0.5774900000000001,0.41962400000000005,0.905785,-0.6046,-0.083004,0.009395000000000014,0.005220000000000002,0.083004,-0.009394999999999987,-0.0052199999999999885,-0.17219,-0.21387499999999998,-0.32572999999999996,0.08372399999999999,-0.23319499999999999,-0.34870999999999996,-0.186857,-0.605005,-0.25041,0.06035399999999999,-0.620735,-0.26022
68,0.1036025,0.7944199999999999,-0.26065499999999997,-0.060890499999999986,0.60459,-0.224149,-0.13479049999999998,0.8399099999999999,-0.423745,0.22198250000000003,0.58175,-0.235375,0.36998250000000005,0.72351,-0.421485,-0.10725149999999999,1.06911,-0.588605,0.4262525,0.8927099999999999,-0.616425,-0.08248249999999999,0.009830000000000005,0.004415000000000002,0.0824825,-0.009830000000000005,-0.004415000000000002,-0.1730705,-0.20854,-0.329935,0.08325250000000002,-0.23051,-0.351135,-0.18687549999999997,-0.5995699999999999,-0.254305,0.0607525,-0.61805,-0.263175
69,0.10661999999999999,0.790125,-0.26746499999999995,-0.059144,0.602055,-0.229124,-0.13131199999999998,0.8341350000000001,-0.433715,0.22230000000000003,0.578025,-0.24106499999999997,0.37221000000000004,0.713955,-0.428965,-0.102284,1.061045,-0.599865,0.4327500000000001,0.879825,-0.6287849999999999,-0.08212,0.010175000000000017,0.003805000000000003,0.08212,-0.01017499999999999,-0.003805000000000003,-0.174152,-0.20319499999999996,-0.334065,0.08251,-0.22790499999999997,-0.35362499999999997,-0.187104,-0.5941649999999999,-0.25770499999999996,0.06086,-0.615445,-0.265675
70,0.1109535,0.78481,-0.274265,-0.055876499999999996,0.60014,-0.233813,-0.1263665,0.82847,-0.443035,0.2239135,0.57509,-0.246545,0.3757435,0.70478,-0.436695,-0.0959705,1.0527,-0.611525,0.4398635,0.8668899999999999,-0.640485,-0.0818135,0.010509999999999992,0.003384999999999999,0.0818135,-0.01051000000000002,-0.003384999999999999,-0.1741805,-0.19816,-0.338075,0.08297349999999999,-0.22614,-0.355855,-0.1860975,-0.58909,-0.260905,0.0623635,-0.61378,-0.268575
71,0.1153695,0.77921,-0.28080000000000005,-0.052484499999999996,0.59807,-0.23858400000000002,-0.1219315,0.82258,-0.45206999999999997,0.2257095,0.5718300000000001,-0.25239,0.3791895,0.69538,-0.44375,-0.09008849999999999,1.0441,-0.6226,0.44668949999999996,0.85535,-0.65271,-0.0814495,0.01088,0.0030000000000000027,0.0814495,-0.01088,-0.0030000000000000027,-0.1743475,-0.19278999999999996,-0.34199999999999997,0.0835395,-0.2248,-0.35691,-0.1851495,-0.58362,-0.26417,0.0637195,-0.61269,-0.27038
72,0.11929500000000001,0.773195,-0.286775,-0.049955,0.597205,-0.242365,-0.11801299999999999,0.816205,-0.460865,0.22736499999999998,0.571615,-0.25605500000000003,0.382015,0.684625,-0.449835,-0.084726,1.035285,-0.633035,0.45326500000000003,0.845005,-0.665065,-0.081065,0.011094999999999994,0.002824999999999994,0.081065,-0.011095000000000022,-0.002824999999999994,-0.174758,-0.190185,-0.34375500000000003,0.083345,-0.224045,-0.357285,-0.18442599999999998,-0.5810150000000001,-0.265945,0.064605,-0.612185,-0.27166500000000005
73,0.1233025,0.76691,-0.29257500000000003,-0.0477065,0.59663,-0.245625,-0.1142465,0.8099500000000001,-0.46875500000000003,0.22970249999999998,0.57124,-0.259755,0.38461249999999997,0.67411,-0.455945,-0.0794745,1.0269599999999999,-0.643095,0.45989250000000004,0.83312,-0.677405,-0.0807725,0.01125000000000001,0.002915000000000001,0.08077250000000001,-0.011249999999999982,-0.002915000000000001,-0.1751955,-0.18756999999999996,-0.345305,0.0831225,-0.22399999999999998,-0.357675,-0.1836525,-0.5784,-0.267505,0.06545250000000001,-0.61246,-0.272465
74,0.1269885,0.76078,-0.29859,-0.04549249999999999,0.59547,-0.24917,-0.1107205,0.80309,-0.47667000000000004,0.2320085,0.57106,-0.26337,0.3868485,0.66356,-0.46181000000000005,-0.0746075,1.01843,-0.6523800000000001,0.4655685,0.8218799999999999,-0.6882,-0.0805785,0.011399999999999993,0.0032200000000000006,0.0805785,-0.011399999999999993,-0.0032200000000000006,-0.1757435,-0.18460999999999997,-0.34667000000000003,0.08242850000000002,-0.22374000000000002,-0.35826,-0.1829075,-0.5754400000000001,-0.26887,0.06613850000000002,-0.61246,-0.27384
75,0.13018149999999998,0.755695,-0.304035,-0.04313850000000001,0.592775,-0.253755,-0.10738850000000001,0.7979350000000001,-0.482415,0.23542149999999998,0.567165,-0.269335,0.38857149999999996,0.6535850000000001,-0.467905,-0.0699255,1.010465,-0.661535,0.4708515,0.8109250000000001,-0.698105,-0.08041150000000001,0.011635000000000006,0.0037349999999999883,0.0804115,-0.011635000000000006,-0.0037349999999999883,-0.1763595,-0.181875,-0.347725,0.08156149999999998,-0.22391499999999998,-0.358995,-0.1821415,-0.5726549999999999,-0.269585,0.06660149999999998,-0.6129249999999999,-0.275115
76,0.13330799999999998,0.75128,-0.309535,-0.04071300000000001,0.59022,-0.258365,-0.103747,0.79359,-0.487995,0.238778,0.56334,-0.275145,0.390238,0.64513,-0.474215,-0.06529100000000002,1.0038200000000002,-0.670705,0.475868,0.80059,-0.706625,-0.08028800000000001,0.012020000000000003,0.004375000000000018,0.080288,-0.01202000000000003,-0.00437499999999999,-0.176684,-0.17904000000000003,-0.348485,0.08129799999999998,-0.22299000000000002,-0.360145,-0.18113500000000002,-0.56962,-0.269445,0.067518,-0.61216,-0.276265
77,0.13640750000000001,0.7472300000000001,-0.31465,-0.03811449999999999,0.5872999999999999,-0.26306,-0.10044149999999999,0.78856,-0.49443000000000004,0.24167750000000002,0.55906,-0.28101,0.3921675,0.63761,-0.48042,-0.06045349999999999,0.99816,-0.68017,0.48039750000000003,0.78959,-0.71336,-0.0801075,0.012500000000000011,0.005089999999999983,0.0801075,-0.012500000000000011,-0.005090000000000011,-0.17644749999999998,-0.17702,-0.34864000000000006,0.08212750000000002,-0.22042,-0.36119,-0.1798035,-0.56742,-0.26878,0.06866750000000002,-0.60954,-0.27766
78,0.139033,0.74288,-0.319915,-0.03582200000000001,0.58432,-0.267835,-0.09784000000000001,0.7835799999999999,-0.500255,0.243453,0.55462,-0.28678499999999996,0.39374299999999995,0.62992,-0.48645499999999997,-0.056247000000000005,0.99261,-0.689345,0.484213,0.77867,-0.718935,-0.07999300000000001,0.013020000000000004,0.005695000000000006,0.07999300000000001,-0.013019999999999976,-0.005695000000000006,-0.176403,-0.17432999999999998,-0.349445,0.083043,-0.21826,-0.362105,-0.178993,-0.5644199999999999,-0.268625,0.06972300000000001,-0.6073599999999999,-0.279085
79,0.141177,0.73905,-0.32504,-0.033876,0.58131,-0.27257,-0.09581500000000001,0.7783199999999999,-0.50554,0.244467,0.54981,-0.29233,0.394947,0.6226400000000001,-0.49217999999999995,-0.05243500000000001,0.98645,-0.6985,0.487557,0.7683800000000001,-0.72417,-0.079947,0.013550000000000006,0.0062500000000000056,0.079947,-0.013550000000000006,-0.0062500000000000056,-0.176345,-0.17310999999999999,-0.34961,0.083767,-0.21483999999999998,-0.36379,-0.17833100000000002,-0.5630299999999999,-0.26819,0.07043699999999999,-0.6040300000000001,-0.28149
80,0.1432655,0.7354499999999999,-0.330585,-0.0314985,0.5769199999999999,-0.278145,-0.0939335,0.77349,-0.5103949999999999,0.24526549999999997,0.54491,-0.29776499999999995,0.3961155,0.61647,-0.49849499999999997,-0.0487245,0.9803,-0.706685,0.49052549999999995,0.7595,-0.7290449999999999,-0.0798755,0.013969999999999982,0.0068250000000000255,0.0798755,-0.013970000000000038,-0.006824999999999998,-0.1760485,-0.17158000000000007,-0.34985499999999997,0.08463550000000002,-0.21255000000000002,-0.366425,-0.17748150000000001,-0.5612400000000001,-0.267395,0.0715155,-0.6016,-0.284015
81,0.1453025,0.73222,-0.335785,-0.029083499999999998,0.5729299999999999,-0.28386500000000003,-0.0919845,0.7694,-0.514525,0.2461125,0.5396399999999999,-0.303345,0.3973025,0.61215,-0.504715,-0.045238499999999994,0.9736,-0.714115,0.4931825,0.75146,-0.7335849999999999,-0.0798825,0.014389999999999958,0.007424999999999987,0.07988250000000001,-0.014390000000000014,-0.007425000000000015,-0.17575849999999998,-0.1698,-0.35014500000000004,0.0855125,-0.20972000000000002,-0.369135,-0.1765825,-0.55916,-0.26671500000000004,0.07242250000000001,-0.59887,-0.286715
82,0.147026,0.7294050000000001,-0.340815,-0.026869999999999998,0.568865,-0.289655,-0.090113,0.765275,-0.518235,0.246836,0.534365,-0.309025,0.398206,0.608075,-0.509915,-0.042327,0.967255,-0.721065,0.49534599999999995,0.744395,-0.738155,-0.079886,0.014765000000000028,0.008005000000000012,0.079886,-0.014764999999999973,-0.008004999999999984,-0.175556,-0.167825,-0.350565,0.086156,-0.206795,-0.371885,-0.17566500000000002,-0.556825,-0.266265,0.073166,-0.596025,-0.289185
83,0.148509,0.7269399999999999,-0.34577,-0.024943,0.56602,-0.29485,-0.088296,0.76156,-0.5218700000000001,0.24683900000000003,0.52877,-0.31469,0.399059,0.6038,-0.51495,-0.039784999999999994,0.9611999999999999,-0.72719,0.497369,0.7381,-0.74279,-0.07987899999999999,0.01529999999999998,0.00850999999999999,0.079879,-0.015300000000000036,-0.00850999999999999,-0.17532599999999998,-0.16608,-0.35150000000000003,0.08674899999999999,-0.20414,-0.37422,-0.174957,-0.55472,-0.26607000000000003,0.07389899999999999,-0.59331,-0.29146
84,0.1497655,0.724745,-0.35109500000000005,-0.023399500000000004,0.562705,-0.299565,-0.08672450000000001,0.757455,-0.525675,0.24667550000000002,0.527025,-0.318325,0.3997355,0.600395,-0.5192950000000001,-0.03748150000000001,0.9556849999999999,-0.733725,0.4990255,0.7326550000000001,-0.747385,-0.07985550000000001,0.015585000000000016,0.009034999999999987,0.0798555,-0.015585000000000016,-0.009035000000000015,-0.1751185,-0.162375,-0.35260500000000006,0.08775549999999999,-0.20032499999999998,-0.377155,-0.17421750000000003,-0.5508249999999999,-0.266315,0.07484549999999998,-0.5894550000000001,-0.29425500000000004
85,0.15012799999999998,0.7222649999999999,-0.356215,-0.022868000000000006,0.558745,-0.30413500000000004,-0.08591700000000001,0.7524550000000001,-0.529425,0.24590800000000002,0.5247850000000001,-0.32211500000000004,0.400118,0.597005,-0.523035,-0.035828000000000006,0.9499249999999999,-0.740015,0.499818,0.726915,-0.751595,-0.079878,0.015685000000000004,0.009454999999999991,0.079878,-0.015685000000000004,-0.009454999999999991,-0.175118,-0.15879499999999996,-0.353835,0.08851799999999999,-0.19722499999999998,-0.379985,-0.17380800000000002,-0.5471349999999999,-0.26649500000000004,0.07544799999999999,-0.586425,-0.297075
86,0.1508255,0.71997,-0.36177000000000004,-0.022245499999999994,0.55576,-0.30857,-0.0849065,0.74902,-0.5322199999999999,0.2453655,0.52386,-0.32589999999999997,0.40070550000000005,0.59417,-0.5266500000000001,-0.03429549999999999,0.94489,-0.74636,0.5004554999999999,0.72238,-0.75542,-0.07993549999999999,0.015550000000000008,0.00964000000000001,0.07993549999999999,-0.015550000000000008,-0.00964000000000001,-0.1749325,-0.15477000000000002,-0.35525,0.0900955,-0.1911,-0.3831,-0.1731955,-0.5427900000000001,-0.26725,0.07640550000000002,-0.5801700000000001,-0.30008999999999997
87,0.15137699999999998,0.7175050000000001,-0.366765,-0.021688000000000013,0.552485,-0.31294500000000003,-0.08405400000000002,0.744865,-0.537235,0.244487,0.523345,-0.329505,0.401277,0.591645,-0.529645,-0.03317700000000001,0.940185,-0.752825,0.5010169999999999,0.7180850000000001,-0.759095,-0.07998700000000002,0.015394999999999992,0.009734999999999994,0.079987,-0.015394999999999992,-0.009734999999999994,-0.17478900000000003,-0.15018499999999996,-0.357815,0.09186699999999998,-0.185795,-0.386335,-0.172738,-0.5378350000000001,-0.268855,0.077487,-0.5747150000000001,-0.30339499999999997
88,0.1519435,0.715355,-0.37144,-0.021114499999999994,0.548145,-0.31706,-0.0834885,0.742155,-0.5423899999999999,0.2434135,0.5225850000000001,-0.33348999999999995,0.4017035,0.5902050000000001,-0.53234,-0.0323525,0.936305,-0.7587200000000001,0.5015935,0.7151050000000001,-0.7624599999999999,-0.0801235,0.01504500000000003,0.009730000000000016,0.0801235,-0.015044999999999975,-0.009729999999999989,-0.1746145,-0.144165,-0.35992999999999997,0.0935335,-0.17962499999999998,-0.38893,-0.1723335,-0.531605,-0.27015999999999996,0.07850349999999999,-0.568555,-0.30579999999999996
89,0.152399,0.713225,-0.37592000000000003,-0.020552999999999988,0.545215,-0.32012,-0.08291599999999999,0.739175,-0.54779,0.24282900000000002,0.522885,-0.33659,0.40191899999999997,0.588515,-0.53436,-0.03181899999999999,0.932515,-0.7652,0.502159,0.711885,-0.76546,-0.08024899999999999,0.014724999999999988,0.009589999999999987,0.080249,-0.014724999999999988,-0.009590000000000015,-0.17444099999999998,-0.138805,-0.36208,0.095009,-0.17402499999999999,-0.39134,-0.17188199999999998,-0.525965,-0.27088,0.07965900000000002,-0.562865,-0.30812
90,0.152713,0.7108399999999999,-0.380385,-0.020515,0.54228,-0.322805,-0.082328,0.73603,-0.553255,0.242583,0.52348,-0.33935499999999996,0.401903,0.58646,-0.536245,-0.031251,0.92923,-0.771985,0.502643,0.7085699999999999,-0.768085,-0.080303,0.014529999999999987,0.009385000000000004,0.08030300000000001,-0.014529999999999987,-0.009384999999999977,-0.174067,-0.13380000000000003,-0.36450499999999997,0.09637299999999999,-0.16663,-0.393595,-0.171473,-0.52058,-0.271935,0.08072299999999999,-0.55531,-0.310235
91,0.152752,0.7086399999999999,-0.38432,-0.021677999999999996,0.54149,-0.32531,-0.081813,0.73224,-0.55953,0.242262,0.52409,-0.34163,0.401722,0.58428,-0.53796,-0.030855999999999995,0.92587,-0.77817,0.5028520000000001,0.70553,-0.77027,-0.080272,0.014280000000000015,0.008840000000000015,0.08027200000000001,-0.014280000000000015,-0.008839999999999987,-0.173868,-0.12915,-0.36695,0.097692,-0.16083999999999998,-0.39557,-0.171273,-0.51529,-0.27303999999999995,0.081712,-0.5495399999999999,-0.31213
92,0.15257849999999998,0.706845,-0.38776,-0.02494450000000001,0.5419050000000001,-0.32774000000000003,-0.08130250000000001,0.729175,-0.56593,0.24196849999999998,0.522045,-0.34399,0.4015485,0.583145,-0.5396,-0.03089850000000001,0.9214150000000001,-0.78421,0.5029585,0.703225,-0.7725,-0.08018850000000001,0.014124999999999999,0.008480000000000015,0.0801885,-0.014124999999999999,-0.008479999999999988,-0.1737515,-0.124035,-0.36934,0.0991785,-0.15475499999999998,-0.39722999999999997,-0.17113250000000002,-0.509665,-0.27434,0.08280849999999998,-0.543455,-0.31401
93,0.15240550000000003,0.70434,-0.39081,-0.024187499999999994,0.5427299999999999,-0.32957000000000003,-0.0810275,0.726,-0.5721499999999999,0.2416955,0.52019,-0.34596000000000005,0.4014755,0.58158,-0.54122,-0.030605499999999994,0.9171,-0.7893000000000001,0.5031355,0.70067,-0.77475,-0.0802155,0.014110000000000011,0.007919999999999983,0.08021550000000001,-0.014110000000000011,-0.00792000000000001,-0.17353449999999998,-0.11965999999999999,-0.37112,0.1011055,-0.14797,-0.39937,-0.1708095,-0.50499,-0.27493,0.0842255,-0.53665,-0.31584
94,0.15214149999999999,0.701295,-0.393555,-0.023234500000000005,0.543735,-0.333735,-0.0809175,0.722645,-0.578335,0.2415715,0.517935,-0.347735,0.4015615,0.5794349999999999,-0.5430349999999999,-0.030265500000000008,0.9127049999999999,-0.7937749999999999,0.5034015,0.698105,-0.7769649999999999,-0.0801715,0.014124999999999999,0.007445000000000007,0.0801715,-0.014124999999999999,-0.007445000000000007,-0.1729385,-0.115985,-0.373445,0.1029715,-0.14265500000000003,-0.40080499999999997,-0.1701985,-0.501285,-0.27637500000000004,0.0857715,-0.5312250000000001,-0.316735
95,0.151689,0.6981250000000001,-0.395795,-0.022441000000000003,0.5439050000000001,-0.337395,-0.0812,0.718555,-0.5844849999999999,0.24125899999999997,0.5149050000000001,-0.34923499999999996,0.40142900000000004,0.576495,-0.544845,-0.030279,0.907705,-0.7978649999999999,0.503389,0.6944250000000001,-0.779165,-0.080119,0.014575000000000005,0.007235000000000019,0.080119,-0.014574999999999949,-0.0072349999999999914,-0.172461,-0.11269499999999999,-0.374895,0.105069,-0.13515499999999997,-0.402775,-0.169658,-0.49804499999999996,-0.277545,0.087249,-0.523555,-0.31781499999999996
96,0.15133799999999997,0.695165,-0.397505,-0.02140200000000001,0.543725,-0.340915,-0.08145100000000001,0.715325,-0.588595,0.24093799999999999,0.511505,-0.350645,0.401978,0.573655,-0.5464249999999999,-0.03022600000000001,0.902625,-0.801575,0.503358,0.690995,-0.781315,-0.07999800000000001,0.015054999999999985,0.007074999999999998,0.079998,-0.015054999999999985,-0.007075000000000026,-0.171992,-0.10985499999999998,-0.376215,0.10742799999999998,-0.12726500000000002,-0.40447500000000003,-0.169108,-0.495135,-0.278775,0.08888799999999998,-0.515425,-0.318695
97,0.1510775,0.69223,-0.399465,-0.021175499999999993,0.5425,-0.344075,-0.0815195,0.71064,-0.5928249999999999,0.24076750000000002,0.50838,-0.351655,0.4022875,0.5697800000000001,-0.5483549999999999,-0.030204499999999995,0.8966500000000001,-0.8054650000000001,0.5031874999999999,0.68662,-0.784135,-0.07983749999999999,0.015690000000000037,0.006704999999999989,0.0798375,-0.015689999999999982,-0.006704999999999989,-0.1716125,-0.10825999999999997,-0.37761500000000003,0.1103875,-0.11984999999999996,-0.405975,-0.16864849999999998,-0.49332,-0.278985,0.09080750000000001,-0.5077699999999999,-0.31911500000000004
98,0.1508645,0.68886,-0.40127999999999997,-0.0219525,0.5418999999999999,-0.34595,-0.0816865,0.70578,-0.59639,0.2404845,0.50512,-0.35302,0.4021645,0.56665,-0.55064,-0.0301105,0.89066,-0.80965,0.5028645,0.68219,-0.78742,-0.0798445,0.01641999999999999,0.006610000000000005,0.0798445,-0.016420000000000046,-0.006609999999999977,-0.1711955,-0.10601000000000005,-0.37817999999999996,0.1127945,-0.11243000000000003,-0.40717,-0.1679705,-0.48994000000000004,-0.27910999999999997,0.09248450000000001,-0.50019,-0.31969
99,0.15069000000000002,0.68421,-0.40306000000000003,-0.02259399999999999,0.54173,-0.34813000000000005,-0.08176499999999999,0.7005399999999999,-0.5999099999999999,0.24017,0.50044,-0.35467000000000004,0.40192,0.56425,-0.55291,-0.02982299999999999,0.88494,-0.8137800000000001,0.5023900000000001,0.6775899999999999,-0.7907000000000001,-0.07992999999999999,0.017110000000000014,0.00628999999999999,0.07993,-0.017110000000000014,-0.006290000000000018,-0.17087999999999998,-0.10392000000000001,-0.37916000000000005,0.11520000000000002,-0.10505999999999999,-0.40802000000000005,-0.16740899999999997,-0.48812999999999995,-0.28066,0.09410000000000002,-0.49267000000000005,-0.32041000000000003
100,0.1506625,0.6798900000000001,-0.40473499999999996,-0.02248450000000001,0.5404100000000001,-0.349855,-0.08150850000000001,0.6958300000000001,-0.602345,0.2399225,0.49597,-0.356085,0.40161250000000004,0.5626500000000001,-0.5548150000000001,-0.02958250000000001,0.87882,-0.818205,0.5018425,0.6729,-0.793955,-0.08002250000000001,0.017780000000000018,0.005785000000000012,0.0800225,-0.017779999999999963,-0.005784999999999985,-0.1706175,-0.10188999999999998,-0.379975,0.11783249999999998,-0.09822999999999998,-0.408545,-0.1666845,-0.48649999999999993,-0.282395,0.0956725,-0.48563999999999996,-0.320915
101,0.150685,0.677875,-0.407125,-0.022447999999999996,0.534325,-0.352605,-0.081331,0.692815,-0.605485,0.239425,0.495655,-0.358105,0.400315,0.563485,-0.557195,-0.029421999999999997,0.875945,-0.823515,0.501215,0.6701550000000001,-0.797735,-0.080125,0.017185000000000006,0.005555000000000004,0.080125,-0.017185000000000006,-0.005555000000000004,-0.170445,-0.097825,-0.381685,0.120315,-0.09120499999999998,-0.409535,-0.165881,-0.48262499999999997,-0.28386500000000003,0.097135,-0.478325,-0.321685
102,0.15045350000000002,0.6758,-0.40897,-0.021224499999999993,0.52705,-0.35583,-0.0810775,0.6897500000000001,-0.60883,0.2390135,0.49437000000000003,-0.36006,0.3991835,0.5645600000000001,-0.55932,-0.02899249999999999,0.87236,-0.8293299999999999,0.5006035,0.66676,-0.80135,-0.0801335,0.016589999999999994,0.005310000000000009,0.0801335,-0.016589999999999994,-0.005310000000000009,-0.1701065,-0.09417999999999999,-0.38338,0.12270350000000002,-0.08432999999999996,-0.41093999999999997,-0.1652535,-0.47919,-0.28539000000000003,0.0982835,-0.47119999999999995,-0.32272
103,0.15039399999999997,0.6738999999999999,-0.411295,-0.018614000000000006,0.52062,-0.358955,-0.08073400000000001,0.68723,-0.612215,0.23865400000000003,0.49334,-0.362185,0.398964,0.56586,-0.5615650000000001,-0.02836600000000001,0.86847,-0.835755,0.499884,0.66335,-0.8049550000000001,-0.080084,0.01602999999999999,0.005064999999999986,0.080084,-0.01602999999999999,-0.005065000000000014,-0.16965600000000003,-0.09026,-0.38527500000000003,0.12499399999999998,-0.07857000000000003,-0.412665,-0.164199,-0.47579000000000005,-0.28698500000000005,0.099454,-0.46520000000000006,-0.323805
104,0.150475,0.6710050000000001,-0.41374500000000003,-0.013881999999999992,0.515565,-0.362615,-0.080455,0.684655,-0.615165,0.238175,0.491705,-0.364255,0.39839500000000005,0.5657449999999999,-0.563275,-0.026910999999999997,0.863415,-0.842145,0.499035,0.659725,-0.807275,-0.080065,0.015234999999999999,0.004684999999999995,0.080065,-0.015234999999999999,-0.0046850000000000225,-0.169335,-0.08666499999999999,-0.387185,0.12729500000000002,-0.07397500000000001,-0.413875,-0.163514,-0.472255,-0.28998500000000005,0.100305,-0.460395,-0.324375
105,0.1510785,0.667195,-0.41613500000000003,-0.011814500000000006,0.511015,-0.366025,-0.0798645,0.682245,-0.618215,0.2382585,0.489475,-0.366475,0.3982285,0.5665250000000001,-0.565205,-0.024853500000000008,0.858455,-0.848295,0.49871850000000006,0.656665,-0.809835,-0.0800885,0.014615000000000045,0.003805000000000003,0.0800885,-0.014614999999999989,-0.003805000000000003,-0.1686215,-0.08263499999999996,-0.389425,0.1299285,-0.06897499999999995,-0.413985,-0.16233550000000002,-0.46833499999999995,-0.292845,0.10160849999999999,-0.45516499999999993,-0.32394500000000004
106,0.1516625,0.6637299999999999,-0.41863000000000006,-0.009641500000000004,0.50696,-0.36788,-0.0793765,0.6800299999999999,-0.62173,0.2383125,0.487432,-0.36858,0.3980625,0.5632999999999999,-0.56707,-0.022642500000000003,0.8535299999999999,-0.85432,0.4983525,0.6535299999999999,-0.8117099999999999,-0.0800425,0.014009999999999967,0.0031799999999999884,0.08004249999999999,-0.014010000000000022,-0.003180000000000016,-0.1681175,-0.07858000000000004,-0.39142,0.1322825,-0.06429000000000007,-0.4137,-0.1613185,-0.4644400000000001,-0.29497,0.1023725,-0.45045,-0.32345
107,0.1521765,0.6610149999999999,-0.42138000000000003,-0.009125500000000002,0.502675,-0.36967000000000005,-0.0788425,0.678045,-0.62599,0.2384365,0.48556499999999997,-0.37084000000000006,0.3979565,0.559455,-0.56874,-0.0203165,0.847955,-0.8601000000000001,0.4979365,0.649985,-0.8137000000000001,-0.0800065,0.013365000000000016,0.0028499999999999914,0.0800065,-0.013365000000000016,-0.002850000000000019,-0.1675935,-0.07443500000000003,-0.39361,0.1347465,-0.060065000000000035,-0.41366,-0.1604425,-0.46052499999999996,-0.2972,0.10322650000000001,-0.446225,-0.32321
108,0.15299649999999998,0.660105,-0.423735,-0.010104500000000002,0.49944500000000003,-0.37161500000000003,-0.0781365,0.674475,-0.630315,0.23874650000000003,0.48526500000000006,-0.37277499999999997,0.3981465,0.555405,-0.570085,-0.017876500000000003,0.842415,-0.865685,0.49795649999999997,0.646845,-0.815615,-0.0799565,0.01245500000000005,0.0022850000000000092,0.0799565,-0.012454999999999994,-0.0022850000000000092,-0.1669035,-0.070515,-0.395565,0.1377065,-0.05602499999999999,-0.412945,-0.1594445,-0.45669499999999996,-0.299665,0.10439649999999999,-0.44218499999999994,-0.322175
109,0.154345,0.659125,-0.4257,-0.011012000000000001,0.497531,-0.37351,-0.07688400000000001,0.672425,-0.63411,0.239115,0.484881,-0.37461,0.39854500000000004,0.551135,-0.57118,-0.015161,0.837305,-0.87071,0.498305,0.643995,-0.81705,-0.079935,0.011655000000000026,0.001669999999999977,0.079935,-0.011654999999999971,-0.0016700000000000048,-0.166305,-0.066575,-0.3976,0.140565,-0.05241499999999999,-0.41218,-0.15867,-0.452805,-0.30199,0.105355,-0.43840499999999993,-0.32151
110,0.15538000000000002,0.6559550000000001,-0.426475,-0.017254,0.498701,-0.374695,-0.075838,0.668805,-0.637245,0.23942000000000002,0.483256,-0.375655,0.39907000000000004,0.544795,-0.571545,-0.012782000000000002,0.830055,-0.874645,0.49865000000000004,0.639025,-0.8171849999999999,-0.07998,0.011855000000000004,0.0010249999999999981,0.07998000000000001,-0.011855000000000004,-0.0010249999999999981,-0.16604000000000002,-0.06525500000000001,-0.398745,0.14312000000000002,-0.052454999999999974,-0.41068499999999997,-0.158155,-0.45133500000000004,-0.303075,0.10626999999999999,-0.438145,-0.320215
111,0.15647450000000002,0.6536,-0.42732499999999995,-0.020878499999999994,0.49987899999999996,-0.375515,-0.07466149999999999,0.6658999999999999,-0.6403449999999999,0.23984450000000002,0.482095,-0.37648499999999996,0.39967450000000004,0.54081,-0.571915,-0.010552499999999992,0.82351,-0.877845,0.4992645,0.63531,-0.816815,-0.0800345,0.012039999999999995,0.0005950000000000122,0.0800345,-0.012039999999999995,-0.0005949999999999844,-0.1657155,-0.06396000000000002,-0.399625,0.14571450000000002,-0.052790000000000004,-0.409365,-0.1575515,-0.44995,-0.303955,0.10730450000000001,-0.4382,-0.31916500000000003
112,0.15758650000000002,0.65188,-0.428025,-0.023775499999999984,0.501035,-0.376715,-0.0731095,0.66393,-0.643915,0.24037650000000002,0.481551,-0.377145,0.39949650000000003,0.54493,-0.571755,-0.008425499999999989,0.81822,-0.879555,0.5000265,0.63288,-0.815535,-0.08002649999999999,0.012280000000000013,0.0003650000000000042,0.0800265,-0.012280000000000013,-0.0003650000000000042,-0.1652535,-0.06269999999999998,-0.399945,0.1483665,-0.05288999999999999,-0.408415,-0.15671649999999998,-0.44876,-0.304725,0.10851650000000002,-0.4382,-0.318425
113,0.15908650000000002,0.65157,-0.42838,-0.023536500000000002,0.502928,-0.37845,-0.0713115,0.6622,-0.6462,0.2416565,0.481533,-0.3774,0.4009065,0.54575,-0.57115,-0.006163500000000002,0.8152200000000001,-0.8800699999999999,0.5015465,0.6324,-0.81403,-0.0799565,0.012459999999999971,-0.00017000000000000348,0.0799565,-0.012460000000000027,0.00016999999999997573,-0.1641535,-0.062090000000000034,-0.40069,0.15138649999999998,-0.053570000000000007,-0.40726,-0.15558850000000002,-0.44806,-0.30544000000000004,0.11061649999999999,-0.43889,-0.31751
114,0.1604015,0.65167,-0.42774,-0.023315500000000003,0.5040009999999999,-0.37929,-0.0697725,0.66201,-0.64635,0.24289149999999998,0.481633,-0.37742,0.4033015,0.54409,-0.5701,-0.0043895000000000045,0.8145199999999999,-0.8802300000000001,0.5027014999999999,0.6325,-0.8117300000000001,-0.07995150000000001,0.012429999999999997,-0.0002999999999999947,0.07995150000000001,-0.012429999999999997,0.0002999999999999947,-0.1630585,-0.06203000000000003,-0.40091,0.1541115,-0.054720000000000046,-0.40642999999999996,-0.1542335,-0.44795000000000007,-0.3051,0.1125015,-0.44010000000000005,-0.31727
115,0.16156350000000003,0.65167,-0.426985,-0.022636499999999997,0.5048889999999999,-0.379375,-0.06850049999999999,0.66201,-0.6464449999999999,0.24409350000000002,0.481633,-0.37734500000000004,0.40575350000000004,0.54211,-0.5666249999999999,-0.0029274999999999926,0.8145199999999999,-0.880325,0.5038135,0.6325,-0.808855,-0.0799535,0.012429999999999997,-0.0003850000000000242,0.0799535,-0.012429999999999997,0.00038499999999999646,-0.16193649999999998,-0.06203000000000003,-0.400995,0.1559235,-0.05681000000000003,-0.40564500000000003,-0.1529975,-0.44779,-0.304395,0.1142635,-0.44226,-0.317365
116,0.1623015,0.65167,-0.425705,-0.021525500000000003,0.50591,-0.379555,-0.0677485,0.66201,-0.646615,0.2449215,0.481633,-0.377135,0.4069515,0.54204,-0.563565,-0.0017595000000000041,0.8145199999999999,-0.8804649999999999,0.5047214999999999,0.6325,-0.806435,-0.0800815,0.012429999999999997,-0.00027499999999999747,0.0800815,-0.012429999999999997,0.00027499999999999747,-0.16096850000000001,-0.06203000000000003,-0.401175,0.1571015,-0.05895,-0.404965,-0.1521835,-0.44779,-0.304575,0.1156115,-0.44442000000000004,-0.31754499999999997
117,0.1631125,0.6536249999999999,-0.42466000000000004,-0.0216335,0.506799,-0.37975000000000003,-0.0673825,0.662005,-0.6464,0.2454225,0.4824569999999999,-0.37676,0.4077925,0.5420349999999999,-0.56044,-0.0009265000000000037,0.8145149999999999,-0.88046,0.5052425,0.6330149999999999,-0.80316,-0.0801625,0.012434999999999974,-9.000000000000674e-05,0.0801625,-0.01243500000000003,9.000000000000674e-05,-0.1601575,-0.06200500000000003,-0.40132999999999996,0.1579325,-0.05982500000000007,-0.40493999999999997,-0.1516685,-0.44779500000000005,-0.30476000000000003,0.1164425,-0.44557500000000005,-0.31772999999999996
118,0.16310599999999997,0.65753,-0.42315499999999995,-0.022609999999999998,0.507315,-0.379865,-0.067265,0.6629,-0.645005,0.245716,0.484609,-0.375015,0.407856,0.54962,-0.557685,-0.0005679999999999991,0.81637,-0.8797949999999999,0.504826,0.6352800000000001,-0.797545,-0.080306,0.012400000000000022,-4.499999999998949e-05,0.080306,-0.012399999999999967,4.500000000001725e-05,-0.159474,-0.06208999999999998,-0.401555,0.15860600000000002,-0.06198999999999999,-0.405155,-0.151318,-0.44781000000000004,-0.304745,0.117126,-0.44804999999999995,-0.317345
119,0.1622615,0.66167,-0.42130999999999996,-0.023803500000000005,0.508503,-0.37812,-0.06796750000000001,0.6645300000000001,-0.6427499999999999,0.24560149999999997,0.48836999999999997,-0.37339,0.4076115,0.55686,-0.5550999999999999,-0.001193500000000007,0.8200000000000001,-0.87845,0.5038914999999999,0.6392100000000001,-0.79198,-0.0803915,0.012270000000000003,0.00015000000000001124,0.0803915,-0.012270000000000003,-0.00015000000000001124,-0.1592885,-0.06302000000000002,-0.40127,0.1586515,-0.06467,-0.40553,-0.15122750000000001,-0.44858000000000003,-0.30401,0.11726149999999999,-0.45110999999999996,-0.317
120,0.160808,0.666805,-0.419055,-0.025560000000000006,0.510015,-0.37607500000000005,-0.06873,0.667655,-0.638015,0.245118,0.49115299999999995,-0.37155499999999997,0.406978,0.5621149999999999,-0.551895,-0.002576000000000002,0.824195,-0.876105,0.502418,0.642895,-0.786415,-0.080388,0.012465000000000004,0.0005649999999999822,0.08038800000000001,-0.012465000000000004,-0.0005650000000000099,-0.15926200000000001,-0.06606500000000004,-0.400165,0.157698,-0.06934500000000005,-0.40559500000000004,-0.15126,-0.45145500000000005,-0.302125,0.11696799999999999,-0.456155,-0.317315
121,0.1589445,0.6721299999999999,-0.41684,-0.02619750000000001,0.5104599999999999,-0.37334999999999996,-0.06965650000000001,0.66997,-0.63289,0.24403449999999996,0.49658899999999995,-0.36972,0.40593450000000003,0.56821,-0.54852,-0.004550500000000006,0.8298399999999999,-0.8731800000000001,0.5008944999999999,0.6486299999999999,-0.78101,-0.08038450000000001,0.011739999999999973,0.0008900000000000019,0.0803845,-0.011740000000000028,-0.0008899999999999741,-0.15916550000000002,-0.07041000000000003,-0.39917,0.15605449999999998,-0.07530000000000003,-0.40464999999999995,-0.1512655,-0.45562,-0.30047999999999997,0.11617449999999999,-0.4624600000000001,-0.31738999999999995
122,0.15701149999999997,0.67675,-0.41469999999999996,-0.022260500000000003,0.51063,-0.37092,-0.07084850000000001,0.6731,-0.62764,0.24298149999999996,0.5012,-0.36771,0.40468149999999997,0.57515,-0.54547,-0.007040500000000005,0.83655,-0.86965,0.49896149999999995,0.65544,-0.7756,-0.08038150000000001,0.011280000000000012,0.0008900000000000019,0.08038150000000001,-0.011280000000000012,-0.0008900000000000019,-0.1588485,-0.07500000000000001,-0.3978,0.1539315,-0.08233999999999997,-0.40337999999999996,-0.15125349999999999,-0.46008000000000004,-0.29925999999999997,0.11530149999999999,-0.46995,-0.31766
123,0.15443,0.683445,-0.411405,-0.021238999999999994,0.512455,-0.368065,-0.072977,0.676755,-0.621975,0.24138000000000004,0.5061249999999999,-0.36550499999999997,0.40298,0.582545,-0.542425,-0.010913999999999993,0.844165,-0.8651949999999999,0.49644,0.6632549999999999,-0.769825,-0.08058,0.010624999999999996,0.0009049999999999891,0.08058,-0.010624999999999996,-0.0009049999999999891,-0.15875,-0.08094499999999999,-0.395895,0.15089999999999998,-0.09082499999999999,-0.401335,-0.151657,-0.466035,-0.29778499999999997,0.11370999999999999,-0.479035,-0.317195
124,0.151481,0.6894549999999999,-0.408125,-0.02142399999999999,0.519115,-0.365385,-0.076678,0.679975,-0.615015,0.239381,0.510445,-0.36263500000000004,0.400581,0.584455,-0.541665,-0.016601999999999992,0.8504849999999999,-0.858715,0.49241100000000004,0.671025,-0.764555,-0.08075099999999999,0.010774999999999979,0.0008249999999999924,0.08075099999999999,-0.010774999999999979,-0.0008249999999999924,-0.158659,-0.08831499999999998,-0.39375499999999997,0.147731,-0.09891500000000003,-0.399505,-0.152091,-0.473685,-0.29656499999999997,0.112091,-0.487235,-0.31650500000000004
125,0.14803750000000002,0.695655,-0.40448,-0.022545500000000003,0.525045,-0.36224,-0.0810715,0.684465,-0.6085,0.2368375,0.5144150000000001,-0.3593,0.3973675,0.587815,-0.54037,-0.023047500000000005,0.8571150000000001,-0.8520000000000001,0.4876575,0.6791050000000001,-0.7587999999999999,-0.0809575,0.010745000000000005,0.0005899999999999794,0.08095750000000002,-0.010745000000000005,-0.0005900000000000072,-0.1591025,-0.096275,-0.3913,0.14356750000000001,-0.10733499999999996,-0.39687,-0.1530505,-0.48189499999999996,-0.29508,0.1093875,-0.49607499999999993,-0.31532000000000004
126,0.1441745,0.702635,-0.400565,-0.024111500000000008,0.530725,-0.358115,-0.08582350000000001,0.6899649999999999,-0.603525,0.23380450000000003,0.517975,-0.35562499999999997,0.3943745,0.591375,-0.538875,-0.030270500000000006,0.864165,-0.843835,0.4824145,0.687865,-0.753725,-0.08120450000000001,0.010585000000000011,0.0003049999999999997,0.08120450000000001,-0.010585000000000011,-0.0003049999999999997,-0.15986250000000002,-0.10420499999999999,-0.388645,0.1393145,-0.11633500000000002,-0.393655,-0.1546355,-0.490155,-0.295165,0.10634450000000001,-0.505445,-0.313855
127,0.1399915,0.70962,-0.39600499999999994,-0.026194499999999996,0.53772,-0.354575,-0.09186549999999999,0.6951400000000001,-0.598565,0.22969150000000002,0.5208,-0.352205,0.39154150000000004,0.59546,-0.536585,-0.038447499999999996,0.87151,-0.835485,0.4766515,0.69721,-0.750915,-0.0813715,0.01047999999999999,0.000125000000000014,0.08137149999999999,-0.01047999999999999,-0.00012499999999998623,-0.1610335,-0.11296,-0.38597499999999996,0.13510149999999999,-0.12717,-0.390215,-0.1569105,-0.49928999999999996,-0.294755,0.10288149999999999,-0.5162800000000001,-0.312505
128,0.134957,0.71548,-0.39088999999999996,-0.029534000000000005,0.54253,-0.35187,-0.098052,0.70082,-0.59285,0.225127,0.52676,-0.34848,0.387837,0.6022799999999999,-0.53365,-0.047365000000000004,0.87797,-0.8264699999999999,0.47049699999999994,0.70694,-0.7479899999999999,-0.081627,0.009730000000000016,9.000000000000674e-05,0.081627,-0.009730000000000016,-9.000000000000674e-05,-0.16262300000000002,-0.12280999999999997,-0.383,0.130627,-0.13889999999999997,-0.38639,-0.159225,-0.50945,-0.29395,0.09903699999999999,-0.52822,-0.31122
129,0.1297195,0.7214,-0.385335,-0.0328915,0.5464199999999999,-0.34957499999999997,-0.1042855,0.7094799999999999,-0.588305,0.2206595,0.53289,-0.34475500000000003,0.38325950000000003,0.6114299999999999,-0.531575,-0.0568165,0.8863399999999999,-0.8165250000000001,0.46431950000000005,0.7201899999999999,-0.745085,-0.0818595,0.008689999999999976,9.500000000001174e-05,0.08185949999999999,-0.008690000000000031,-9.500000000001174e-05,-0.1642525,-0.13010000000000005,-0.380085,0.1266195,-0.14914000000000005,-0.382525,-0.1616465,-0.5175700000000001,-0.293755,0.09534949999999999,-0.5388700000000001,-0.309875
130,0.1240915,0.727785,-0.37861,-0.0382075,0.553785,-0.34575,-0.11051649999999999,0.718375,-0.58426,0.21686149999999998,0.536055,-0.34058,0.3784815,0.621395,-0.52959,-0.0665375,0.8958250000000001,-0.80715,0.45742150000000004,0.732075,-0.74197,-0.08207149999999999,0.008755000000000013,8.999999999997899e-05,0.08207149999999999,-0.008755000000000013,-9.000000000000674e-05,-0.1657865,-0.136505,-0.37717,0.12333150000000001,-0.15742499999999998,-0.37996,-0.1639775,-0.5248250000000001,-0.29361000000000004,0.0921015,-0.547515,-0.30932000000000004
131,0.11826850000000001,0.73535,-0.37107999999999997,-0.04291049999999999,0.56053,-0.34134,-0.11695149999999999,0.72836,-0.57971,0.2130785,0.53953,-0.33603,0.37379850000000003,0.63107,-0.52623,-0.07671549999999999,0.9058599999999999,-0.7974600000000001,0.4504985,0.7443299999999999,-0.7379,-0.08230849999999999,0.008730000000000016,-0.00010999999999999899,0.08230849999999999,-0.008730000000000016,0.00010999999999999899,-0.1673775,-0.14443,-0.37422999999999995,0.12057850000000002,-0.16585,-0.37729,-0.16609649999999998,-0.5336700000000001,-0.29283,0.0893685,-0.5564,-0.30895
132,0.11286750000000001,0.7412099999999999,-0.36472,-0.0474025,0.56551,-0.33641,-0.12294350000000001,0.7379899999999999,-0.57473,0.2095375,0.5439700000000001,-0.33121,0.3696775,0.6418900000000001,-0.52327,-0.0863285,0.91722,-0.7872,0.44355750000000005,0.75796,-0.73414,-0.0824475,0.00874999999999998,-0.00018999999999999573,0.0824475,-0.008750000000000036,0.00018999999999999573,-0.1685705,-0.15095999999999998,-0.37199,0.11864749999999999,-0.17421999999999999,-0.37559,-0.16770849999999998,-0.54093,-0.29231,0.0873775,-0.56542,-0.30852
133,0.107099,0.74878,-0.35758999999999996,-0.052289,0.5661400000000001,-0.33021999999999996,-0.12933,0.74802,-0.56938,0.205689,0.54939,-0.32644,0.365439,0.65396,-0.51854,-0.095114,0.93033,-0.7784599999999999,0.437009,0.77205,-0.72906,-0.082619,0.007840000000000014,0.00012000000000000899,0.082619,-0.007840000000000014,-0.00012000000000000899,-0.169854,-0.15705999999999998,-0.36983,0.116779,-0.17953999999999998,-0.37376,-0.169317,-0.54803,-0.29152,0.08562900000000001,-0.5713,-0.30809
134,0.101741,0.75808,-0.34994,-0.05743399999999999,0.56776,-0.32287,-0.13551,0.75772,-0.56328,0.201781,0.5556,-0.32133,0.361581,0.6654100000000001,-0.51404,-0.10414399999999999,0.94363,-0.7683800000000001,0.42945099999999997,0.788,-0.7237,-0.082781,0.007019999999999971,0.0007400000000000184,0.082781,-0.007020000000000026,-0.0007399999999999907,-0.170732,-0.16231,-0.3666,0.115071,-0.18455,-0.37166,-0.170558,-0.554,-0.29018999999999995,0.08419100000000002,-0.5768,-0.30745999999999996
135,0.09634,0.766425,-0.34199,-0.062342,0.569725,-0.31552,-0.142592,0.766335,-0.55526,0.19783999999999996,0.561895,-0.31571,0.35752999999999996,0.676615,-0.5093300000000001,-0.113343,0.955995,-0.7578199999999999,0.4221,0.802745,-0.7179800000000001,-0.08289,0.0063850000000000295,0.00138000000000002,0.08289,-0.006384999999999974,-0.0013799999999999923,-0.171369,-0.168445,-0.363,0.11350999999999999,-0.18976499999999996,-0.36936,-0.171685,-0.5609149999999999,-0.28947,0.08292000000000001,-0.582525,-0.30713
136,0.09144100000000001,0.773155,-0.334365,-0.067188,0.570775,-0.307165,-0.149111,0.775485,-0.544935,0.195021,0.567505,-0.310695,0.353771,0.689535,-0.504105,-0.122837,0.9715750000000001,-0.7471350000000001,0.415551,0.818005,-0.711635,-0.083081,0.005745,0.0018649999999999778,0.083081,-0.005745,-0.0018650000000000055,-0.171517,-0.17422499999999996,-0.358205,0.112531,-0.19530499999999995,-0.36697500000000005,-0.172244,-0.567465,-0.28881500000000004,0.082161,-0.588505,-0.306855
137,0.086935,0.7814099999999999,-0.32617,-0.072131,0.5745199999999999,-0.29851,-0.155898,0.78478,-0.53493,0.193475,0.56793,-0.30523,0.35030500000000003,0.70095,-0.49855,-0.132208,0.98729,-0.73545,0.408845,0.83405,-0.70418,-0.083195,0.005929999999999991,0.0024099999999999955,0.083195,-0.005929999999999991,-0.0024099999999999955,-0.171276,-0.17934,-0.35389000000000004,0.11212499999999999,-0.20065,-0.36455000000000004,-0.17247,-0.57324,-0.28849,0.08195499999999999,-0.5944,-0.30646
138,0.08252150000000001,0.78896,-0.317925,-0.0769975,0.57855,-0.289435,-0.16293950000000001,0.79202,-0.525215,0.1922315,0.57038,-0.298775,0.3468715,0.71192,-0.492565,-0.1410705,1.0000499999999999,-0.7241550000000001,0.4017015,0.84951,-0.6965749999999999,-0.0831515,0.005979999999999985,0.002945000000000003,0.0831515,-0.005980000000000013,-0.002945000000000003,-0.1710525,-0.18602000000000002,-0.349535,0.1118415,-0.20634000000000002,-0.361635,-0.1725985,-0.58059,-0.287555,0.0818115,-0.60066,-0.305535
139,0.0783185,0.79684,-0.310245,-0.08031049999999999,0.57908,-0.282553,-0.16981949999999998,0.79964,-0.515115,0.19133850000000002,0.57319,-0.292815,0.3434785,0.72239,-0.486605,-0.1505105,1.01294,-0.711765,0.3950485,0.8649800000000001,-0.689155,-0.08314849999999999,0.005640000000000006,0.0034150000000000014,0.0831485,-0.005640000000000006,-0.0034150000000000014,-0.1707385,-0.19271000000000002,-0.345305,0.11143850000000001,-0.21186000000000002,-0.35843499999999995,-0.1727105,-0.58739,-0.286715,0.08191850000000002,-0.60676,-0.304345
140,0.07397699999999999,0.80437,-0.30118,-0.08487000000000001,0.58224,-0.272981,-0.176427,0.806,-0.50307,0.189807,0.57884,-0.28507,0.339487,0.7329,-0.47951999999999995,-0.159408,1.02376,-0.6979,0.388217,0.87892,-0.68058,-0.08314700000000001,0.005170000000000008,0.0040000000000000036,0.083147,-0.005170000000000008,-0.0040000000000000036,-0.170267,-0.20009000000000002,-0.34029,0.11063699999999999,-0.21847999999999998,-0.35409,-0.17270200000000002,-0.59522,-0.28522,0.081977,-0.6138399999999999,-0.30279999999999996
141,0.069833,0.811465,-0.291715,-0.08913,0.5847549999999999,-0.263623,-0.182877,0.811865,-0.490575,0.18873299999999998,0.5844849999999999,-0.277458,0.335653,0.741855,-0.471715,-0.168257,1.032645,-0.683605,0.381163,0.891435,-0.670815,-0.083183,0.004744999999999999,0.004604999999999998,0.083183,-0.004744999999999999,-0.004604999999999998,-0.169782,-0.208385,-0.333525,0.10992299999999999,-0.22607500000000003,-0.34882500000000005,-0.172378,-0.604265,-0.282117,0.08244299999999999,-0.621905,-0.30101500000000003
142,0.06605799999999998,0.81773,-0.28193999999999997,-0.09294300000000001,0.58653,-0.255239,-0.188562,0.81839,-0.47694000000000003,0.188198,0.5888100000000001,-0.27016,0.33162800000000003,0.75153,-0.46385,-0.17702400000000001,1.0415299999999998,-0.66886,0.37445799999999996,0.90431,-0.66132,-0.08314800000000001,0.004400000000000015,0.005129999999999996,0.083148,-0.004399999999999987,-0.005129999999999996,-0.169187,-0.21685,-0.32682,0.10929799999999998,-0.23429,-0.34286,-0.17184100000000002,-0.6132,-0.279034,0.08309799999999998,-0.63067,-0.29796999999999996
143,0.06219050000000001,0.821515,-0.272182,-0.0967665,0.589375,-0.246608,-0.1938395,0.8246450000000001,-0.46364,0.18784050000000002,0.592205,-0.262299,0.3278005,0.7594350000000001,-0.45566,-0.1852695,1.049355,-0.6535,0.3685605,0.9144450000000001,-0.65188,-0.0831905,0.004415000000000002,0.005540000000000017,0.0831905,-0.004415000000000002,-0.005539999999999989,-0.1681765,-0.226185,-0.31981,0.10865050000000001,-0.24347499999999997,-0.33594,-0.1709795,-0.622865,-0.275788,0.0840805,-0.640385,-0.29413
144,0.0581715,0.82619,-0.261722,-0.1004815,0.5919,-0.237807,-0.1981485,0.8301499999999999,-0.45099,0.1880015,0.59543,-0.25419,0.32442150000000003,0.76644,-0.44692,-0.19296850000000002,1.05569,-0.63673,0.3622115,0.92984,-0.64177,-0.08323150000000001,0.004409999999999997,0.005909999999999999,0.0832315,-0.004409999999999997,-0.005909999999999999,-0.1667595,-0.23502,-0.31218,0.1084915,-0.25304,-0.3282,-0.1696185,-0.6324099999999999,-0.272084,0.08568149999999998,-0.65049,-0.28908
145,0.054795000000000024,0.8293200000000001,-0.25084300000000004,-0.10371399999999999,0.59337,-0.22865200000000002,-0.20136499999999996,0.8345400000000001,-0.43967,0.18884500000000004,0.59927,-0.24546600000000002,0.32123500000000005,0.77209,-0.43805000000000005,-0.199285,1.06172,-0.62005,0.35670500000000005,0.94347,-0.63152,-0.08324499999999999,0.004310000000000008,0.006379999999999997,0.083245,-0.004310000000000008,-0.006379999999999997,-0.16480299999999998,-0.24445999999999998,-0.30507,0.108835,-0.26344999999999996,-0.31891,-0.16769099999999998,-0.6426,-0.268527,0.08793500000000003,-0.6614,-0.2827
146,0.0525645,0.831035,-0.240058,-0.1054365,0.591845,-0.219667,-0.2027855,0.837425,-0.42708999999999997,0.19117449999999997,0.601635,-0.23673,0.3196445,0.776715,-0.42869999999999997,-0.2035755,1.066575,-0.60471,0.3526345,0.9557950000000001,-0.6216999999999999,-0.0831945,0.004365000000000008,0.0064800000000000135,0.0831945,-0.00436499999999998,-0.006479999999999986,-0.1616775,-0.25421499999999997,-0.29707,0.1103945,-0.274595,-0.30835,-0.1645905,-0.652645,-0.263652,0.09128449999999999,-0.673075,-0.27562
147,0.05068199999999999,0.83242,-0.228927,-0.10810700000000001,0.59274,-0.210644,-0.204468,0.84157,-0.413725,0.193382,0.6048800000000001,-0.227932,0.317802,0.7818,-0.41822499999999996,-0.207568,1.0723799999999999,-0.587775,0.348752,0.96629,-0.610175,-0.083232,0.004260000000000014,0.006385000000000002,0.083232,-0.004259999999999986,-0.006385000000000002,-0.158524,-0.26432,-0.289055,0.11211199999999999,-0.28561,-0.297455,-0.161443,-0.66316,-0.258442,0.09443199999999999,-0.68447,-0.267975
148,0.049074000000000007,0.83475,-0.217202,-0.110481,0.59457,-0.20119599999999999,-0.205866,0.8465,-0.400185,0.195964,0.60806,-0.218888,0.316434,0.78731,-0.406555,-0.210316,1.0787900000000001,-0.569825,0.345314,0.97857,-0.597495,-0.083344,0.004310000000000008,0.006195000000000006,0.083344,-0.004310000000000008,-0.006195000000000006,-0.155944,-0.2737,-0.280495,0.114014,-0.29686,-0.285775,-0.158739,-0.673,-0.252707,0.09773400000000002,-0.69602,-0.259738
149,0.048036999999999996,0.835915,-0.205306,-0.111026,0.593695,-0.193295,-0.206543,0.850255,-0.386165,0.198867,0.608195,-0.210638,0.31560699999999997,0.792745,-0.39419499999999996,-0.212623,1.085955,-0.551485,0.34261699999999995,0.992535,-0.583285,-0.08304700000000001,0.004304999999999989,0.006205000000000016,0.08304700000000001,-0.004305000000000003,-0.006204999999999988,-0.152499,-0.285065,-0.271455,0.116117,-0.307425,-0.272265,-0.154784,-0.6846049999999999,-0.24634099999999998,0.10141700000000001,-0.707055,-0.24903199999999998
150,0.0475675,0.834924,-0.19136699999999998,-0.1114275,0.591734,-0.183417,-0.2064125,0.852504,-0.370035,0.20107750000000002,0.609774,-0.19884,0.3148975,0.797614,-0.379325,-0.2138425,1.092214,-0.531725,0.3407275,1.005304,-0.566885,-0.0825575,0.004316,0.006115000000000009,0.08255749999999999,-0.004316,-0.0061149999999999816,-0.14819749999999998,-0.298746,-0.260945,0.11854750000000001,-0.321106,-0.256305,-0.15025650000000002,-0.698286,-0.23831199999999997,0.10552750000000001,-0.720736,-0.23519999999999996
151,0.04673249999999999,0.8329850000000001,-0.17707,-0.11201250000000001,0.591005,-0.173073,-0.2066405,0.854955,-0.35441500000000004,0.2035495,0.611635,-0.18685000000000002,0.3147295,0.800675,-0.36472499999999997,-0.2144205,1.0986749999999998,-0.511765,0.3389095,1.017075,-0.550205,-0.08204950000000001,0.004299000000000011,0.006225000000000008,0.0820495,-0.004298999999999997,-0.006225000000000008,-0.1440095,-0.31233500000000003,-0.249455,0.11957949999999998,-0.33452499999999996,-0.237453,-0.1459385,-0.712065,-0.229782,0.1091395,-0.734155,-0.221684
152,0.0460145,0.8305685,-0.156507,-0.1119885,0.5880285,-0.156899,-0.2063925,0.8563585,-0.332025,0.2050275,0.6135285,-0.16918,0.31357749999999995,0.8083184999999999,-0.343635,-0.2146425,1.1052685,-0.485755,0.33729750000000003,1.0291085,-0.526275,-0.08125750000000001,0.004071499999999992,0.006315000000000015,0.08125750000000001,-0.004071500000000006,-0.006314999999999987,-0.1399845,-0.3263015,-0.227617,0.1205675,-0.3474315,-0.21273399999999998,-0.1416555,-0.7261415,-0.212861,0.11253750000000001,-0.7470615,-0.20227699999999998
153,0.04622749999999999,0.829447,-0.135415,-0.11304750000000001,0.593697,-0.138434,-0.20616250000000003,0.8589370000000001,-0.30894,0.20564749999999998,0.614287,-0.150377,0.3130075,0.813937,-0.32094,-0.21410250000000003,1.113667,-0.45967,0.3367075,1.034727,-0.5001599999999999,-0.08070750000000002,0.0039009999999999947,0.0068000000000000005,0.0807075,-0.0039010000000000017,-0.0068000000000000005,-0.13588050000000002,-0.34768299999999996,-0.202684,0.12165749999999999,-0.367803,-0.18455,-0.1371725,-0.743823,-0.194582,0.11621749999999999,-0.7615529999999999,-0.182042
154,0.04580949999999999,0.830117,-0.113907,-0.1140675,0.599797,-0.12094099999999999,-0.20662350000000002,0.862057,-0.28684,0.2054665,0.6146469999999999,-0.132224,0.31252650000000004,0.818917,-0.29838,-0.2133835,1.117817,-0.43259,0.33559649999999996,1.0413670000000002,-0.47337,-0.0802465,0.003800999999999999,0.00698,0.0802465,-0.003800999999999999,-0.00698,-0.1324605,-0.367753,-0.177848,0.12222649999999999,-0.386803,-0.15779300000000002,-0.1332135,-0.760053,-0.176585,0.11925649999999999,-0.775853,-0.16303299999999998
155,0.044713,0.8316344999999999,-0.09232950000000001,-0.116076,0.6069644999999999,-0.1031335,-0.207905,0.8658944999999999,-0.2645145,0.204025,0.6165244999999999,-0.1139845,0.310845,0.8246245,-0.2754345,-0.213795,1.1233845,-0.4038745,0.333735,1.0481845,-0.4456245,-0.079765,0.003529499999999998,0.007586499999999996,0.079765,-0.003529500000000005,-0.00758650000000001,-0.130278,-0.3859855,-0.1532535,0.121445,-0.4041955,-0.1314385,-0.130544,-0.7747355,-0.1597325,0.121365,-0.7897155,-0.1438565
156,0.0437755,0.8333085,-0.07056299999999999,-0.11695049999999999,0.6119384999999999,-0.08492799999999999,-0.2081985,0.8683685000000001,-0.24163099999999998,0.2032115,0.6159984999999999,-0.09615399999999999,0.3094315,0.8301084999999999,-0.252971,-0.21386850000000002,1.1288585,-0.375891,0.3322415,1.0550585000000001,-0.418181,-0.0791715,0.0036374999999999984,0.008209000000000008,0.0791715,-0.003637500000000002,-0.008208999999999994,-0.12802449999999999,-0.4060615,-0.12767399999999998,0.12081149999999999,-0.4223115,-0.10508299999999998,-0.1275565,-0.7915315,-0.141488,0.12311149999999998,-0.8043715,-0.12465199999999999
157,0.04299249999999999,0.8334284999999999,-0.0484905,-0.1180245,0.6166484999999999,-0.0660975,-0.2080965,0.8691685,-0.21875650000000002,0.2022335,0.6158385,-0.07770250000000001,0.3081935,0.8341084999999999,-0.2304465,-0.21358649999999998,1.1322885,-0.3483465,0.3306535,1.0607885000000001,-0.3900665,-0.0785235,0.003779499999999998,0.008900500000000006,0.0785235,-0.0037795000000000016,-0.008900499999999999,-0.1256745,-0.4279215,-0.1014625,0.1203635,-0.4416915,-0.0788325,-0.12475950000000001,-0.8094714999999999,-0.1235595,0.12500350000000002,-0.8190915000000001,-0.10546549999999999
158,0.0422675,0.834085,-0.027704,-0.1193755,0.6221450000000001,-0.047967,-0.2080495,0.870695,-0.197471,0.2010205,0.615735,-0.059569,0.3071705,0.837475,-0.208721,-0.2129395,1.139775,-0.320251,0.32928050000000003,1.0648749999999998,-0.363691,-0.0782205,0.003926000000000001,0.009328000000000003,0.0782205,-0.003925999999999999,-0.009327999999999996,-0.1233165,-0.449125,-0.075403,0.12032050000000001,-0.460655,-0.055307,-0.1222515,-0.827185,-0.106483,0.12685049999999998,-0.833915,-0.088866
159,0.0412275,0.8363585,-0.008967,-0.1208805,0.6294085,-0.031868,-0.20851550000000002,0.8736985,-0.178587,0.1998745,0.6132885,-0.044922000000000004,0.3058945,0.8410185,-0.189377,-0.2123855,1.1445585,-0.29514700000000005,0.3276345,1.0687585,-0.34010700000000005,-0.0781145,0.004200499999999999,0.009924000000000002,0.0781145,-0.004200499999999999,-0.009923999999999999,-0.1213415,-0.46870150000000005,-0.051698999999999995,0.12010449999999999,-0.4772615,-0.034783,-0.11992950000000001,-0.8433714999999999,-0.091533,0.1285445,-0.8463915,-0.075732
160,0.040791499999999994,0.839523,0.009719000000000002,-0.1221825,0.6354730000000001,-0.015557000000000001,-0.2085625,0.875343,-0.159183,0.1986475,0.611633,-0.029878000000000002,0.3051275,0.8442230000000001,-0.170243,-0.2117125,1.1478329999999999,-0.27037300000000003,0.32641749999999997,1.072533,-0.316043,-0.0779875,0.004549,0.010563,0.0779875,-0.004549,-0.010563000000000001,-0.11866550000000001,-0.487137,-0.028730000000000002,0.12108749999999999,-0.492977,-0.017538,-0.11675250000000001,-0.858507,-0.076492,0.1306075,-0.859557,-0.063168
161,0.0405595,0.843449,0.0221925,-0.12370049999999999,0.642679,-0.0052335,-0.2090305,0.877479,-0.14576050000000002,0.1975095,0.610229,-0.0208945,0.3051295,0.843859,-0.15692050000000002,-0.2109705,1.1504489999999998,-0.2521105,0.3254095,1.0757489999999998,-0.2979405,-0.07798250000000001,0.004852,0.0111255,0.07798250000000001,-0.004852,-0.0111255,-0.11603050000000001,-0.501741,-0.0165755,0.1221595,-0.507161,-0.0066795,-0.1135245,-0.870301,-0.0702455,0.1328595,-0.871351,-0.0568655
162,0.040055999999999994,0.8449439999999999,0.0337375,-0.12354599999999999,0.641524,0.0023335000000000005,-0.20910600000000001,0.877884,-0.1333415,0.196934,0.610204,-0.0131885,0.304674,0.8451139999999999,-0.14484149999999998,-0.211266,1.151694,-0.2349615,0.324504,1.079694,-0.2821315,-0.07774500000000001,0.005102,0.0109945,0.07774500000000001,-0.005102,-0.0109945,-0.11380200000000001,-0.504096,-0.0079415,0.12281399999999998,-0.5094460000000001,0.0001794999999999991,-0.110816,-0.8730060000000001,-0.0647625,0.134784,-0.875876,-0.0516425
163,0.0395545,0.8453245,0.0446255,-0.1236665,0.6410345,0.010002499999999998,-0.2089565,0.8780545,-0.12068949999999999,0.1970135,0.6100945,-0.005772500000000001,0.3043035,0.8460045,-0.1332395,-0.2115265,1.1523545000000002,-0.2183295,0.3239135,1.0825545,-0.2671195,-0.0774545,0.0053005,0.0109735,0.0774545,-0.0053005000000000005,-0.0109735,-0.1117375,-0.5056055,0.0002854999999999993,0.1234835,-0.5110955,0.006933499999999999,-0.1081515,-0.8753555,-0.059340500000000004,0.1370435,-0.8797755,-0.046717499999999995
164,0.038969000000000004,0.8455065,0.0548545,-0.12393,0.6412165,0.016969500000000002,-0.20887,0.8780765,-0.1094265,0.1975,0.6103965,0.0010205000000000001,0.30423,0.8468265,-0.1228365,-0.21154,1.1529265,-0.2035365,0.32371,1.0850265,-0.25362650000000003,-0.07722,0.005429499999999999,0.010853499999999999,0.07722,-0.005429499999999999,-0.010853499999999999,-0.110669,-0.5059335,0.007604500000000001,0.12472000000000001,-0.5115035,0.0125925,-0.106309,-0.8769735,-0.0548835,0.13889,-0.8822535,-0.0414975
165,0.0382845,0.8451620000000001,0.06428,-0.1242595,0.6412920000000001,0.023477,-0.2093295,0.878042,-0.098656,0.1978705,0.610982,0.007529999999999999,0.3040705,0.847232,-0.113206,-0.2118195,1.153182,-0.189826,0.3236105,1.086382,-0.241206,-0.0770655,0.0055379999999999995,0.010641999999999999,0.0770655,-0.0055379999999999995,-0.010641999999999999,-0.1099495,-0.5055179999999999,0.013940000000000001,0.12578050000000002,-0.511168,0.016974,-0.1049505,-0.877748,-0.050019,0.14039049999999997,-0.884048,-0.036381000000000004
166,0.037407499999999996,0.8449945000000001,0.072678,-0.1254425,0.6413045,0.02951,-0.2102725,0.8782045,-0.088873,0.1982475,0.6118645,0.013129,0.3037475,0.8475945,-0.10453699999999999,-0.2124425,1.1531145,-0.177367,0.3237175,1.0874145,-0.23089700000000002,-0.0768215,0.0056225,0.010409999999999999,0.0768215,-0.0056225,-0.010409999999999999,-0.1093625,-0.5049155,0.019122,0.1268375,-0.5105955,0.020881,-0.1038035,-0.8783455,-0.045644000000000004,0.1418275,-0.8856155,-0.031575000000000006
167,0.036374000000000004,0.8449155,0.080152,-0.126818,0.6411755,0.034797999999999996,-0.211718,0.8782555,-0.079929,0.197642,0.6127855,0.018177,0.303212,0.8479455,-0.096986,-0.213738,1.1530355,-0.167516,0.323492,1.0884355,-0.221726,-0.07664,0.0056895,0.010203,0.07664,-0.0056895,-0.010203,-0.109058,-0.5045345,0.022554,0.127552,-0.5098145000000001,0.02431,-0.102838,-0.8778545,-0.041752,0.142892,-0.8870245,-0.027350999999999997
168,0.0355325,0.8447979999999999,0.087291,-0.12830249999999999,0.640728,0.040046,-0.2131325,0.8778779999999999,-0.071732,0.1969475,0.613468,0.023164999999999998,0.3027675,0.848268,-0.089959,-0.21526250000000002,1.1529980000000002,-0.157699,0.32348750000000004,1.089498,-0.213159,-0.0765185,0.005772,0.009895999999999999,0.0765185,-0.005772,-0.009896,-0.1086725,-0.504172,0.025980999999999997,0.1278975,-0.509572,0.027643,-0.1018605,-0.877822,-0.037787,0.1439975,-0.888412,-0.023417
169,0.034234499999999994,0.8444014999999999,0.093272,-0.1300075,0.6405415,0.044497999999999996,-0.2148875,0.8774615,-0.065077,0.1958325,0.6141915,0.027474,0.3019025,0.8483815,-0.083884,-0.2170975,1.1531115,-0.149264,0.3231925,1.0906115,-0.206114,-0.0764795,0.0058855,0.009467999999999999,0.0764795,-0.0058855,-0.009468,-0.1082475,-0.5035185,0.029123999999999997,0.1281025,-0.5079485,0.030245,-0.1009225,-0.8773585,-0.034224,0.1451125,-0.8884985000000001,-0.019999000000000003
170,0.032549499999999995,0.843926,0.0987075,-0.1320515,0.640316,0.048715499999999995,-0.21647149999999998,0.8767959999999999,-0.05932849999999999,0.1945185,0.6138859999999999,0.0314055,0.3008785,0.848476,-0.0785385,-0.21905149999999998,1.148606,-0.1419185,0.3228485,1.091506,-0.20032850000000002,-0.07650850000000001,0.00598,0.0090225,0.07650850000000001,-0.00598,-0.0090225,-0.10799149999999999,-0.503634,0.0316525,0.1281985,-0.508244,0.0326285,-0.1000375,-0.8788140000000001,-0.0312505,0.1459985,-0.888494,-0.0168625
171,0.030840000000000003,0.843542,0.1037585,-0.134164,0.640132,0.0527495,-0.217984,0.8763420000000001,-0.054059499999999996,0.193456,0.6137020000000001,0.0350795,0.299876,0.8485720000000001,-0.0737145,-0.219964,1.1472019999999998,-0.1360615,0.322386,1.092002,-0.19510149999999998,-0.07645199999999999,0.006056,0.008829499999999999,0.07645199999999999,-0.006056,-0.0088295,-0.10783399999999999,-0.5035379999999999,0.0329835,0.12842599999999998,-0.508728,0.034673499999999996,-0.09911500000000001,-0.879308,-0.028179500000000003,0.146956,-0.888528,-0.014301500000000002
172,0.029431499999999996,0.8435115,0.108372,-0.1362495,0.6402815000000001,0.056512,-0.2194295,0.8763215,-0.049360999999999995,0.1921005,0.6143115,0.038827,0.2989005,0.8487815,-0.069388,-0.2208695,1.1465714999999999,-0.13103599999999999,0.3219505,1.0927715,-0.190686,-0.0764205,0.0060145,0.008604999999999998,0.0764205,-0.0060145,-0.008605000000000002,-0.10753950000000001,-0.5033485,0.034376,0.1286205,-0.5082285,0.036709,-0.09826850000000001,-0.8786484999999999,-0.024749,0.1479005,-0.8882785,-0.011018
173,0.028115500000000005,0.8435885,0.112754,-0.13808349999999997,0.6403785,0.060127,-0.22094350000000001,0.8759185,-0.04501300000000001,0.1909165,0.6149985,0.042369,0.2978365,0.8490085,-0.065537,-0.22189350000000002,1.1463284999999999,-0.12651600000000002,0.3215265,1.0933285,-0.186566,-0.0764335,0.0060574999999999995,0.008329,0.0764335,-0.0060574999999999995,-0.008329,-0.10721349999999999,-0.5027115,0.035473,0.12873650000000003,-0.5076515,0.038305,-0.0974685,-0.8784315,-0.021791,0.14870650000000002,-0.8878615,-0.007816
174,0.026787,0.8436545,0.1169925,-0.140089,0.6403145,0.0635105,-0.222189,0.8755245,-0.0414355,0.189951,0.6155845,0.045756500000000006,0.296981,0.8491545,-0.062093499999999996,-0.22278900000000001,1.1461744999999999,-0.12250849999999999,0.321181,1.0938744999999999,-0.1827285,-0.076449,0.0061115,0.0080415,0.076449,-0.0061115,-0.0080415,-0.10685900000000001,-0.5020755,0.0364115,0.128881,-0.5062455,0.0396485,-0.09665900000000001,-0.8777055,-0.018839499999999995,0.149561,-0.8869555,-0.0047174999999999995
175,0.0256455,0.8433094999999999,0.12091199999999999,-0.1413415,0.6401695,0.06637799999999999,-0.22317150000000002,0.8751595,-0.03868,0.18890849999999998,0.6158395,0.049089,0.29646849999999997,0.8488895,-0.059219,-0.22339150000000002,1.1458095,-0.118999,0.3209685,1.0939094999999999,-0.179119,-0.0765045,0.0062015,0.007765999999999999,0.0765045,-0.0062015,-0.007766000000000002,-0.1066815,-0.5018205,0.03669,0.1290385,-0.5058405,0.040978,-0.0957315,-0.8779505000000001,-0.016048,0.15038849999999998,-0.8866505,-0.0018729999999999997
176,0.024456000000000002,0.842798,0.1249395,-0.142652,0.6399680000000001,0.0690615,-0.223972,0.8748480000000001,-0.0360405,0.18890800000000002,0.6158180000000001,0.05180849999999999,0.29616800000000004,0.848578,-0.05658250000000001,-0.22365200000000002,1.145498,-0.11608349999999999,0.320948,1.0936979999999998,-0.1761835,-0.076521,0.006331000000000001,0.007614499999999996,0.076521,-0.006331,-0.007614500000000003,-0.106382,-0.501482,0.037066499999999995,0.129028,-0.505462,0.042241499999999994,-0.094862,-0.877562,-0.013114500000000001,0.151208,-0.886632,0.0009944999999999954
177,0.023263,0.8421745,0.1287995,-0.14394099999999999,0.6397145000000001,0.07158049999999999,-0.22470099999999998,0.8745645000000001,-0.0335255,0.18882900000000002,0.6156345000000001,0.054317500000000005,0.295999,0.8481745,-0.054072499999999996,-0.22381099999999998,1.1450945,-0.11349150000000001,0.321169,1.0932944999999998,-0.1736815,-0.076565,0.0063445,0.007412499999999999,0.076565,-0.0063444999999999994,-0.007412500000000002,-0.106031,-0.5013155,0.0373995,0.129279,-0.5052854999999999,0.0440395,-0.094081,-0.8774354999999999,-0.010479500000000003,0.151879,-0.8870254999999999,0.0033475000000000033
178,0.022139,0.8416830000000001,0.13276,-0.14506799999999997,0.639163,0.074142,-0.22537800000000002,0.874313,-0.030976999999999998,0.188942,0.615433,0.056869,0.296172,0.847763,-0.051522000000000005,-0.223858,1.144683,-0.11094600000000002,0.321632,1.0928829999999998,-0.171126,-0.076599,0.006365,0.00723,0.076599,-0.006365,-0.00723,-0.10567800000000001,-0.501127,0.037816999999999996,0.129782,-0.505127,0.045782,-0.093308,-0.877037,-0.0075840000000000005,0.152642,-0.887147,0.005963000000000003
179,0.021153000000000005,0.841317,0.136478,-0.145907,0.638657,0.07657900000000001,-0.226187,0.874127,-0.02879799999999999,0.188843,0.615057,0.059300000000000005,0.29624300000000003,0.847277,-0.049242999999999995,-0.223947,1.144307,-0.10851,0.322203,1.092507,-0.1687,-0.076675,0.0063750000000000005,0.006937000000000006,0.076675,-0.0063750000000000005,-0.006936999999999999,-0.10661699999999999,-0.494913,0.038864,0.130023,-0.504943,0.047164000000000005,-0.092947,-0.873403,-0.004794999999999994,0.153093,-0.887283,0.008451000000000007
