sb224sc-HT22-VT27/4dt907/src/data/kinect_good_preprocessed_A9_mediapipe/A95_kinect_mirrored.csv
FrameNo,nose_3d_x,nose_3d_y,nose_3d_z,left_shoulder_3d_x,left_shoulder_3d_y,left_shoulder_3d_z,left_elbow_3d_x,left_elbow_3d_y,left_elbow_3d_z,right_shoulder_3d_x,right_shoulder_3d_y,right_shoulder_3d_z,right_elbow_3d_x,right_elbow_3d_y,right_elbow_3d_z,left_wrist_3d_x,left_wrist_3d_y,left_wrist_3d_z,right_wrist_3d_x,right_wrist_3d_y,right_wrist_3d_z,left_hip_3d_x,left_hip_3d_y,left_hip_3d_z,right_hip_3d_x,right_hip_3d_y,right_hip_3d_z,left_knee_3d_x,left_knee_3d_y,left_knee_3d_z,right_knee_3d_x,right_knee_3d_y,right_knee_3d_z,left_ankle_3d_x,left_ankle_3d_y,left_ankle_3d_z,right_ankle_3d_x,right_ankle_3d_y,right_ankle_3d_z
35,1.01055,0.7892954999999999,0.1206385,0.824399,0.5834555,0.0571205,0.687559,0.7878255,-0.0203145,1.169429,0.5816454999999999,0.0472105,1.274399,0.7792855,-0.0709045,0.596229,0.9997655,-0.0888245,1.320269,1.0001655,-0.1742245,0.917459,-0.0007534999999999,0.0003604999999999,1.082541,0.0007535,-0.0003604999999999,0.8355589999999999,-0.5935745,-0.0084135,1.1554289999999998,-0.5558945000000001,-0.0204364999999999,0.762049,-0.9848445,-0.0723645,1.1852889999999998,-0.9255045,0.0158905
36,1.010033,0.789277,0.120673,0.823848,0.583137,0.057409,0.686698,0.786957,-0.0202609999999999,1.169218,0.581517,0.047695,1.273708,0.778497,-0.0708639999999999,0.5951280000000001,0.999667,-0.0897039999999999,1.319288,0.999867,-0.174474,0.917483,-0.000792,0.000354,1.082517,0.0007919999999999,-0.0003539999999999,0.835468,-0.593033,-0.0094109999999999,1.155738,-0.555833,-0.0212609999999999,0.762038,-0.984203,-0.0719139999999999,1.1854879999999999,-0.925373,0.015844
37,1.009385,0.789231,0.120616,0.823231,0.582821,0.057539,0.685801,0.786021,-0.0206389999999999,1.1689910000000001,0.581751,0.047781,1.272961,0.777631,-0.0709209999999999,0.593901,0.999361,-0.0911009999999999,1.3181910000000001,0.999561,-0.175261,0.917507,-0.000824,0.000259,1.082493,0.0008239999999999,-0.0002589999999999,0.835321,-0.5924590000000001,-0.0102709999999999,1.1560409999999999,-0.555569,-0.0220439999999999,0.761861,-0.983609,-0.0721709999999999,1.1857309999999999,-0.925179,0.015628
38,1.0086475,0.7891325,0.120477,0.8226545000000001,0.5824825,0.057515,0.6848345,0.7848925,-0.021333,1.1686545,0.5819624999999999,0.047431,1.2723345,0.7772625,-0.0710209999999999,0.5925245,0.9988425,-0.093091,1.3169945,0.9992425,-0.1765109999999999,0.9175505,-0.0008435,0.0001189999999999,1.0824495,0.0008435,-0.0001189999999999,0.8351045,-0.5920475000000001,-0.010995,1.1563044999999998,-0.5551475,-0.022756,0.7620245,-0.9830775,-0.072001,1.1859944999999998,-0.9246275,0.015411
39,1.0079315,0.7890119999999999,0.1201,0.8220465,0.5821419999999999,0.0574639999999999,0.6838965,0.783872,-0.022331,1.1682565,0.582122,0.0466879999999999,1.2717565,0.7769119999999999,-0.071296,0.5913065,0.998332,-0.095446,1.3157364999999999,0.998932,-0.178086,0.9175615,-0.000865,-7.100000000000162e-05,1.0824385,0.000865,7.100000000000162e-05,0.8349965,-0.5916980000000001,-0.01167,1.1566465,-0.554538,-0.023419,0.7622665,-0.982658,-0.072326,1.1862365,-0.924058,0.0151589999999999
40,1.0071835,0.7888909999999999,0.1193605,0.8213765,0.581831,0.0570834999999999,0.6828865,0.7830309999999999,-0.0238495,1.1677265000000001,0.582341,0.0458094999999999,1.2710465,0.776581,-0.0722075,0.5902265,0.997641,-0.0984675,1.3141064999999998,0.998641,-0.1803175,0.9175584999999999,-0.000895,-0.0003464999999999,1.0824415,0.000895,0.0003464999999999,0.8348565,-0.5913390000000001,-0.0125855,1.1566565,-0.553829,-0.0242575,0.7624865000000001,-0.982459,-0.0731675,1.1863365,-0.923509,0.0147194999999999
41,1.006443,0.7887639999999999,0.1182815,0.82071,0.5815739999999999,0.0565105,0.68189,0.782134,-0.0255935,1.16719,0.582544,0.0448994999999999,1.27023,0.7761739999999999,-0.0737335,0.58927,0.996944,-0.1018335,1.31229,0.998244,-0.1829035,0.917543,-0.000927,-0.0005985,1.082457,0.000927,0.0005985,0.83474,-0.5910460000000001,-0.0136504999999999,1.1566699999999999,-0.553126,-0.0250034999999999,0.76275,-0.981756,-0.0730835,1.1864,-0.922906,0.0140085
42,1.0056085,0.788595,0.1168849999999999,0.8200585,0.581355,0.0557919999999999,0.6809285,0.781285,-0.027871,1.1666785,0.582665,0.0436449999999999,1.2692785,0.775775,-0.075514,0.5885885,0.996325,-0.105314,1.3103785000000001,0.997825,-0.1857039999999999,0.9175045,-0.0009619999999999,-0.0007629999999999,1.0824955,0.000962,0.0007629999999999,0.8346485000000001,-0.590855,-0.0148179999999999,1.1566985,-0.552445,-0.0258,0.7628085,-0.980935,-0.073044,1.1864385,-0.922475,0.0131939999999999
43,1.0047629999999999,0.7880895,0.114936,0.819508,0.5812095,0.054965,0.680138,0.7806095000000001,-0.030447,1.166178,0.5826495,0.0422,1.268318,0.7754595,-0.07749,0.588258,0.9957095,-0.1092799999999999,1.308568,0.9974095,-0.1886999999999999,0.917484,-0.0010004999999999,-0.0009109999999999,1.082516,0.0010005,0.0009109999999999,0.834568,-0.5910704999999999,-0.015949,1.156688,-0.5511505,-0.026866,0.762908,-0.9801305,-0.07306,1.186508,-0.9221905,0.012337
44,1.0038479999999999,0.7874475,0.112662,0.819002,0.5810275,0.054054,0.679442,0.7799575,-0.0331609999999999,1.165702,0.5826075000000001,0.040902,1.267312,0.7751475,-0.079511,0.588022,0.9949675,-0.113421,1.306642,0.9970675,-0.1918309999999999,0.9174420000000001,-0.0010414999999999,-0.0010899999999999,1.082558,0.0010415,0.00109,0.834472,-0.5908125,-0.0171739999999999,1.156662,-0.5500225,-0.0280739999999999,0.762872,-0.9796625,-0.0735809999999999,1.1865919999999999,-0.9219325,0.011397
45,1.0029085,0.7867755,0.110243,0.8188375,0.5809355,0.05298,0.6789675,0.7794055,-0.0362539999999999,1.1652375,0.5826055,0.039617,1.2667675,0.7748955,-0.0817639999999999,0.5877775000000001,0.9942455,-0.1174839999999999,1.3046875,0.9967455,-0.195164,0.9173875,-0.0010895,-0.0012579999999999,1.0826125,0.0010895,0.0012579999999999,0.8343875000000001,-0.5909945,-0.018445,1.1565875,-0.5494745,-0.029169,0.7628075,-0.9798045,-0.0745239999999999,1.1864575,-0.9221145,0.010424
46,1.0020674999999999,0.786071,0.1076515,0.8187525,0.580931,0.0516755,0.6785425,0.7789510000000001,-0.0397364999999999,1.1646524999999999,0.5825710000000001,0.0383785,1.2663725000000001,0.7745110000000001,-0.0844965,0.5875225,0.993541,-0.1220364999999999,1.3028925,0.996141,-0.1987965,0.9173344999999999,-0.0011059999999999,-0.0015294999999999,1.0826655,0.0011059999999999,0.0015295,0.8342125000000001,-0.590809,-0.0197974999999999,1.1565625,-0.548799,-0.0302754999999999,0.7623525,-0.980079,-0.0763464999999999,1.1862424999999999,-0.922159,0.0094095
47,1.001282,0.7853345,0.104177,0.8186230000000001,0.5802045,0.049841,0.678133,0.7788145,-0.04425,1.164093,0.5825845000000001,0.036819,1.266133,0.7742745,-0.0883099999999999,0.587413,0.9928345,-0.12812,1.301143,0.9954345,-0.20355,0.917217,-0.0011765,-0.0018029999999999,1.082783,0.0011765,0.001803,0.834003,-0.5902755,-0.021747,1.156453,-0.5474455,-0.031752,0.761763,-0.9798555,-0.0783499999999999,1.186083,-0.9214355,0.008042
48,1.000583,0.7844884999999999,0.1005685,0.8185470000000001,0.5799285,0.0477864999999999,0.677817,0.7782485,-0.0490725,1.163687,0.5824284999999999,0.0352404999999999,1.265937,0.7737885,-0.0923725,0.587947,0.9923585,-0.1345625,1.299647,0.9942585,-0.2087125,0.917072,-0.0011795,-0.0020564999999999,1.082928,0.0011795,0.0020564999999999,0.833577,-0.5892015,-0.0238245,1.1563970000000001,-0.5453315000000001,-0.0336315,0.7612070000000001,-0.9788415,-0.0803424999999999,1.185777,-0.9201015,0.0066444999999999
49,1.0000805,0.7836655,0.096533,0.8185875,0.5789455,0.0454489999999999,0.6775375,0.7773255,-0.054362,1.1635175,0.5825255,0.0336459999999999,1.2657975000000001,0.7730755,-0.096732,0.5887175,0.9915255,-0.141922,1.2985875,0.9930255,-0.2144019999999999,0.9169625,-0.0012305,-0.002204,1.0830375,0.0012305,0.0022039999999999,0.8332675,-0.5870645,-0.026206,1.1563875,-0.5431245,-0.035878,0.7610375,-0.9774845,-0.082262,1.1855274999999998,-0.9184245,0.0052109999999999
50,0.9996820000000001,0.7825920000000001,0.0919285,0.818684,0.5777220000000001,0.0426815,0.677254,0.776352,-0.0603345,1.163464,0.582092,0.0315175,1.265634,0.772392,-0.1018345,0.589634,0.990672,-0.1499245,1.297544,0.991872,-0.2208045,0.916812,-0.001306,-0.0023354999999999,1.083188,0.0013059999999999,0.0023355,0.8329139999999999,-0.584608,-0.0289605,1.156434,-0.5405679999999999,-0.0386794999999999,0.760954,-0.975728,-0.0839044999999999,1.185324,-0.916268,0.0036105
51,0.9994715000000001,0.7816685,0.0871315,0.8189915,0.5765585000000001,0.0397645,0.6769815,0.7753685,-0.0665965,1.1634115,0.5818185,0.0294605,1.2656315,0.7714685,-0.1077365,0.5905515,0.9899585,-0.1586065,1.2967214999999999,0.9906585,-0.2282364999999999,0.9166105,-0.0013635,-0.0024884999999999,1.0833895,0.0013634999999999,0.0024884999999999,0.8327215,-0.5815615,-0.0323045,1.1565515,-0.5376215,-0.0418225,0.7608715,-0.9734815,-0.0858365,1.1851315,-0.9138615,0.0018875
52,0.9992940000000001,0.7808595,0.082175,0.819484,0.5752795,0.036678,0.6768540000000001,0.7740295,-0.073645,1.163374,0.5811095000000001,0.027129,1.265924,0.7703295,-0.114175,0.5914440000000001,0.9891795,-0.167835,1.296044,0.9896195,-0.2365149999999999,0.9162980000000001,-0.0013755,-0.0026429999999999,1.083702,0.0013755,0.0026429999999999,0.832554,-0.5772505,-0.036819,1.156724,-0.5343405,-0.045395,0.760954,-0.9706305,-0.087295,1.184854,-0.9110705,-7.200000000000262e-05
53,0.9989585000000001,0.7799425000000001,0.076981,0.8200635000000001,0.5731925000000001,0.033129,0.6766735000000001,0.7726825,-0.080871,1.1632535,0.5803925000000001,0.024646,1.2663134999999999,0.7693925,-0.121321,0.5923435,0.9884325,-0.177591,1.2955035,0.9888825,-0.245481,0.9159525,-0.0013594999999999,-0.0027459999999999,1.0840475,0.0013595,0.0027459999999999,0.8322335,-0.5722275,-0.04155,1.1568735,-0.5305774999999999,-0.049361,0.7610535,-0.9670275,-0.088621,1.1845135,-0.9080075,-0.001972
54,0.9986755,0.7787919999999999,0.0714475,0.8208055,0.571372,0.0296804999999999,0.6766255,0.770922,-0.0885325,1.1631955,0.5794619999999999,0.0219884999999999,1.2670555000000001,0.768142,-0.1292325,0.5933055,0.987822,-0.1878925,1.2951055,0.988162,-0.2549025,0.9156664999999999,-0.001298,-0.0028205,1.0843335,0.001298,0.0028204999999999,0.8319855,-0.566868,-0.0465075,1.1571055,-0.5267780000000001,-0.0537425,0.7612655,-0.962978,-0.0896325,1.1842355,-0.904728,-0.0038705
55,0.9985660000000001,0.777744,0.065517,0.821638,0.569864,0.026101,0.676698,0.768724,-0.096146,1.163098,0.578564,0.018922,1.268088,0.766534,-0.137096,0.5943080000000001,0.987534,-0.198426,1.294718,0.987944,-0.264876,0.91534,-0.00127,-0.0026029999999999,1.08466,0.0012699999999999,0.002603,0.8317680000000001,-0.560616,-0.0517559999999999,1.157458,-0.522286,-0.0583559999999999,0.761548,-0.958196,-0.090646,1.1839879999999998,-0.900716,-0.0057499999999999
56,0.9985580000000001,0.7768554999999999,0.0602305,0.8225220000000001,0.5693855,0.0228755,0.676992,0.7657955,-0.1031755,1.163112,0.5778454999999999,0.0161245,1.269402,0.7646354999999999,-0.1443555,0.5951820000000001,0.9873655,-0.2080754999999999,1.294372,0.9879755,-0.2743355,0.915006,-0.0011544999999999,-0.0023864999999999,1.084994,0.0011544999999999,0.0023864999999999,0.8318420000000001,-0.5538945000000001,-0.0568554999999999,1.157862,-0.5173445000000001,-0.0631055,0.761872,-0.9538245,-0.0915655,1.183862,-0.8964245000000001,-0.0072935
57,0.9986745,0.7761905,0.054679,0.8231595,0.5683404999999999,0.019401,0.6774095,0.7632405,-0.1101169999999999,1.1629995,0.5772505000000001,0.0131329999999999,1.2703395,0.7627005,-0.1519569999999999,0.5956395,0.9874405,-0.217807,1.2940695,0.9886805,-0.284567,0.9144805,-0.0010804999999999,-0.0021499999999999,1.0855195,0.0010805,0.0021499999999999,0.8318695,-0.5471695000000001,-0.0618369999999999,1.1583495,-0.5126295000000001,-0.0677369999999999,0.7623895,-0.9487095,-0.0925169999999999,1.1840295,-0.8915095,-0.00891
58,0.9989095000000001,0.7751245,0.049488,0.8237335,0.5679845,0.0163579999999999,0.6777035,0.7606945,-0.116758,1.1628735,0.5764645,0.0100849999999999,1.2712135,0.7606645,-0.159088,0.5964335000000001,0.9816145,-0.227658,1.2938635,0.9895245,-0.294698,0.9139445,-0.0010375,-0.001723,1.0860555,0.0010375,0.0017229999999999,0.8319835000000001,-0.5401855,-0.066588,1.1587935,-0.5075355,-0.072068,0.7627535,-0.9432055,-0.093578,1.1841735,-0.8864455,-0.010221
59,0.999218,0.7739915,0.044378,0.8244790000000001,0.5678915,0.0134769999999999,0.678169,0.7577915000000001,-0.123327,1.162849,0.5759215,0.006751,1.271989,0.7584415,-0.1660869999999999,0.597299,0.9766415,-0.236997,1.293729,0.9900515,-0.305247,0.913494,-0.0009774999999999,-0.001294,1.086506,0.0009774999999999,0.0012939999999999,0.8321689999999999,-0.5336285,-0.071427,1.159219,-0.5017785,-0.076567,0.7630790000000001,-0.9371785,-0.0943669999999999,1.184409,-0.8808485,-0.011386
60,0.9993515,0.7732509999999999,0.0393614999999999,0.8254334999999999,0.565761,0.0101054999999999,0.6784235000000001,0.755001,-0.1298655,1.1624335000000001,0.575191,0.0034314999999999,1.2724935,0.7561310000000001,-0.1727255,0.5979135,0.972231,-0.2460655,1.2932534999999998,0.990831,-0.3155055,0.9131465,-0.0009779999999999,-0.0009795,1.0868535,0.0009779999999999,0.0009794999999999,0.8324135,-0.526089,-0.0763855,1.1594735,-0.495229,-0.0809155,0.7634835,-0.930519,-0.0946855,1.1843235,-0.874889,-0.0123975
61,0.9990345,0.7725080000000001,0.0347085,0.8261725,0.563748,0.0068215,0.6783825,0.752208,-0.1361765,1.1616525,0.574458,0.0002834999999999,1.2723125,0.753688,-0.1791065,0.5977224999999999,0.968008,-0.2548665,1.2924324999999999,0.991178,-0.3257865,0.9130975,-0.001058,-0.0008724999999999,1.0869024999999999,0.0010579999999999,0.0008724999999999,0.8324425,-0.5190819999999999,-0.0807965,1.1595024999999999,-0.488732,-0.0851464999999999,0.7637625,-0.923422,-0.0948664999999999,1.1842325,-0.868532,-0.0130995
62,0.9986705000000001,0.7718944999999999,0.0299375,0.8268215000000001,0.5625045,0.0038865,0.6783715,0.7491045,-0.1425985,1.1608015,0.5735844999999999,-0.0029245,1.2720815,0.7507745,-0.1853685,0.5975815,0.9634845,-0.2639185,1.2916315,0.9880445,-0.3355984999999999,0.9130345,-0.0010604999999999,-0.0007445,1.0869655,0.0010604999999999,0.0007444999999999,0.8324615,-0.5116855,-0.0853884999999999,1.1594815,-0.4822454999999999,-0.0893985,0.7639415,-0.9158055,-0.0953985,1.1840515,-0.8620355000000001,-0.0137135
63,0.9983315000000001,0.7710595,0.025223,0.8273375000000001,0.5608595,0.000862,0.6783475,0.7454394999999999,-0.148243,1.1597775,0.5729995,-0.0060179999999999,1.2716175,0.7479994999999999,-0.190913,0.5973375000000001,0.9575895,-0.2730829999999999,1.2907275,0.9841595,-0.3446929999999999,0.9128205,-0.0011784999999999,-0.0006089999999999,1.0871795,0.0011784999999999,0.0006089999999999,0.8324975,-0.5036505,-0.090183,1.1592375,-0.4752205,-0.093693,0.7639575000000001,-0.9074805,-0.095773,1.1836975,-0.8548705,-0.0141589999999999
64,0.9975870000000001,0.7704314999999999,0.0208905,0.827611,0.5589415,-0.0021764999999999,0.6781710000000001,0.7410315000000001,-0.1533195,1.158401,0.5729614999999999,-0.0088525,1.270941,0.7461315,-0.1964695,0.5967910000000001,0.9521815,-0.2815495,1.289051,0.9806115,-0.3531295,0.912365,-0.0014225,-0.0003304999999999,1.087635,0.0014224999999999,0.0003304999999999,0.8325009999999999,-0.4958484999999999,-0.0951294999999999,1.158721,-0.4676285,-0.0979195,0.7636410000000001,-0.8983485,-0.0959894999999999,1.183021,-0.8471485000000001,-0.0145105
65,0.996745,0.7692175,0.016762,0.82782,0.5563475,-0.005048,0.6779200000000001,0.7367075,-0.157798,1.15706,0.5717875,-0.011616,1.2702499999999999,0.7439475,-0.201598,0.59625,0.9457875,-0.2890979999999999,1.2872,0.9769275,-0.360968,0.911944,-0.0016015,0.0001719999999999,1.088056,0.0016014999999999,-0.0001719999999999,0.83257,-0.4880725,-0.099868,1.1581299999999999,-0.4621625,-0.102518,0.76325,-0.8893225,-0.096318,1.1821,-0.8394225,-0.0145789999999999
66,0.995514,0.7681015,0.0129115,0.827742,0.5538915,-0.0074754999999999,0.677322,0.7330215,-0.1621345,1.155462,0.5711515,-0.0140054999999999,1.269182,0.7420114999999999,-0.2061845,0.595362,0.9394515,-0.2961745,1.284832,0.9740715,-0.3676345,0.911513,-0.0019674999999999,0.0007005,1.088487,0.0019674999999999,-0.0007004999999999,0.8324320000000001,-0.4799484999999999,-0.1047844999999999,1.157112,-0.4564885,-0.1068344999999999,0.762602,-0.8797785,-0.0961544999999999,1.180812,-0.8312285,-0.0143974999999999
67,0.9943085,0.7670539999999999,0.0094119999999999,0.8276025,0.5518639999999999,-0.009683,0.6764825,0.730254,-0.165387,1.1540124999999999,0.570214,-0.016248,1.2679525,0.7400739999999999,-0.210417,0.5943825,0.939524,-0.301357,1.2822125,0.970704,-0.373907,0.9110655,-0.002203,0.0010959999999999,1.0889345,0.0022029999999999,-0.001096,0.8322025,-0.471746,-0.109667,1.1558725,-0.4502759999999999,-0.110757,0.7616925,-0.8692960000000001,-0.0961569999999999,1.1792625,-0.8218160000000001,-0.01376
68,0.993269,0.7660950000000001,0.0063145,0.827718,0.548585,-0.0119914999999999,0.675568,0.7278950000000001,-0.1679255,1.152498,0.569035,-0.0181475,1.266488,0.7384350000000001,-0.2140454999999999,0.593248,0.939655,-0.3060455,1.279388,0.968335,-0.3789555,0.910624,-0.002415,0.0013685,1.089376,0.002415,-0.0013685,0.831998,-0.463615,-0.1143754999999999,1.1544780000000001,-0.4448149999999999,-0.1147254999999999,0.760698,-0.858155,-0.0949954999999999,1.177428,-0.812705,-0.0128254999999999
69,0.992026,0.764715,0.0034049999999999,0.827429,0.547195,-0.0135969999999999,0.675699,0.721195,-0.169893,1.150779,0.567985,-0.019864,1.264909,0.737205,-0.217363,0.591979,0.938485,-0.310623,1.276299,0.963665,-0.383373,0.910265,-0.0025249999999999,0.0018149999999999,1.089735,0.0025249999999999,-0.001815,0.8316790000000001,-0.456145,-0.118723,1.152789,-0.4403249999999999,-0.119493,0.7594790000000001,-0.8466750000000001,-0.094023,1.175129,-0.803385,-0.011591
70,0.9910665,0.76344,0.0005795,0.8271995,0.54611,-0.0151224999999999,0.6758895,0.71612,-0.1711215,1.1490995,0.56712,-0.0214044999999999,1.2634295,0.73623,-0.2205315,0.5909495,0.93744,-0.3146314999999999,1.2732495,0.96073,-0.3864714999999999,0.9099405,-0.00242,0.0020415,1.0900595,0.00242,-0.0020414999999999,0.8316295000000001,-0.44916,-0.1229815,1.1508895,-0.43628,-0.1246915,0.7584394999999999,-0.83495,-0.0929514999999999,1.1727995,-0.79325,-0.0099945
71,0.9902265,0.761415,-0.001979,0.8270035,0.5447949999999999,-0.016502,0.6762535000000001,0.712005,-0.1714939999999999,1.1476435,0.566315,-0.022729,1.2620835000000001,0.733695,-0.222774,0.5901535,0.936415,-0.318024,1.2701335,0.959625,-0.389264,0.9096595000000001,-0.0025249999999999,0.0023509999999999,1.0903405,0.0025249999999999,-0.002351,0.8319135,-0.4428749999999999,-0.127764,1.1489435000000001,-0.432575,-0.130004,0.7575635000000001,-0.822965,-0.0916439999999999,1.1703435,-0.7827949999999999,-0.00841
72,0.989568,0.760415,-0.0042465,0.827036,0.543595,-0.0178305,0.676636,0.709685,-0.1724685,1.146876,0.565515,-0.0240475,1.261006,0.732055,-0.2244485,0.589816,0.937195,-0.3202184999999999,1.267096,0.960845,-0.3914585,0.909252,-0.002455,0.0026615,1.090748,0.002455,-0.0026614999999999,0.832346,-0.436855,-0.1325985,1.147116,-0.429685,-0.1355285,0.7570160000000001,-0.810195,-0.0899484999999999,1.168146,-0.771615,-0.0068334999999999
73,0.9894495,0.75912,-0.0066074999999999,0.8275745000000001,0.5421400000000001,-0.0192824999999999,0.6770145000000001,0.70848,-0.1746484999999999,1.1465845,0.56425,-0.0253874999999999,1.2604045,0.72964,-0.2262985,0.5903445,0.93395,-0.3231585,1.2652644999999998,0.96064,-0.3938885,0.9087875,-0.00225,0.0031035,1.0912125,0.00225,-0.0031034999999999,0.8331045,-0.43188,-0.1376684999999999,1.1456345,-0.42808,-0.1414285,0.7569045,-0.79789,-0.0886884999999999,1.1663945,-0.76096,-0.0056234999999999
74,0.9893855000000001,0.7578699999999999,-0.0095519999999999,0.8281065,0.5412,-0.0212009999999999,0.6775065,0.7077,-0.177433,1.1463665,0.56249,-0.0270189999999999,1.2599365,0.72737,-0.228713,0.5909665,0.93425,-0.3263029999999999,1.2633765000000001,0.96025,-0.397263,0.9082645,-0.00209,0.003093,1.0917355,0.00209,-0.0030929999999999,0.8341765000000001,-0.42752,-0.1428829999999999,1.1440165,-0.42483,-0.1473129999999999,0.7566565000000001,-0.78372,-0.086243,1.1638265,-0.74981,-0.0047419999999999
75,0.9897735000000001,0.75619,-0.012956,0.8288725,0.54013,-0.023566,0.6783224999999999,0.7060299999999999,-0.180922,1.1463325,0.5605899999999999,-0.029076,1.2598225,0.72504,-0.231812,0.5923125,0.93432,-0.330772,1.2619225,0.95861,-0.401292,0.9077405000000001,-0.00184,0.0030629999999999,1.0922595,0.0018399999999999,-0.003063,0.8355125,-0.42456,-0.148182,1.1427425,-0.42245,-0.153882,0.7566225,-0.77074,-0.085482,1.1620425,-0.7384000000000001,-0.004244
76,0.990285,0.755015,-0.0170479999999999,0.8297,0.538705,-0.026698,0.67921,0.704585,-0.186807,1.14668,0.558945,-0.031997,1.26,0.723155,-0.2355169999999999,0.59396,0.932605,-0.337397,1.26113,0.955635,-0.406227,0.907219,-0.0016049999999999,0.003045,1.092781,0.0016049999999999,-0.0030449999999999,0.8370000000000001,-0.422305,-0.1538769999999999,1.1412200000000001,-0.4210050000000001,-0.161247,0.7565700000000001,-0.7572150000000001,-0.0846369999999999,1.15979,-0.725925,-0.0042529999999999
77,0.990782,0.75368,-0.0215344999999999,0.830058,0.53881,-0.0298425,0.6803180000000001,0.70164,-0.1930395,1.147038,0.55768,-0.0352495,1.260098,0.7219,-0.2411295,0.5956680000000001,0.93094,-0.3446195,1.260378,0.95282,-0.4114195,0.906772,-0.00146,0.0031844999999999,1.093228,0.0014599999999999,-0.0031845,0.838488,-0.42059,-0.1598295,1.1395279999999999,-0.41947,-0.1682895,0.756448,-0.74409,-0.0846395,1.157918,-0.71423,-0.0047055
78,0.9913385,0.75161,-0.026425,0.8302545,0.53831,-0.033639,0.6802545,0.70274,-0.199559,1.1475945,0.55576,-0.038829,1.2603244999999998,0.71862,-0.246729,0.5970845,0.92715,-0.353009,1.2595745,0.95156,-0.417089,0.9063955,-0.0012999999999999,0.003124,1.0936045,0.0012999999999999,-0.003124,0.8402944999999999,-0.4191,-0.165889,1.1377845,-0.41805,-0.174419,0.7564145,-0.73194,-0.085159,1.1563845,-0.70293,-0.005762
79,0.9920105000000001,0.750205,-0.0318375,0.8305755000000001,0.537445,-0.0381775,0.6804955000000001,0.7030350000000001,-0.2065975,1.1478555,0.554415,-0.0429175,1.2604655,0.716005,-0.2523575,0.5991555,0.923725,-0.3614975,1.2587955,0.947395,-0.4236275,0.9059445,-0.001335,0.0029824999999999,1.0940555,0.001335,-0.0029824999999999,0.8418654999999999,-0.4178949999999999,-0.1715475,1.1356055,-0.4166549999999999,-0.1798175,0.7560655000000001,-0.7205349999999999,-0.0857275,1.1548655,-0.692385,-0.0072745
80,0.9928245,0.7490749999999999,-0.0371299999999999,0.8310195,0.536455,-0.0428599999999999,0.6808595,0.7021649999999999,-0.21453,1.1479795,0.552605,-0.0472299999999999,1.2605795,0.714145,-0.25815,0.6013695,0.920045,-0.36935,1.2581695,0.943835,-0.43024,0.9054105000000001,-0.001255,0.002952,1.0945894999999999,0.001255,-0.0029519999999999,0.8433295000000001,-0.416545,-0.17649,1.1333294999999999,-0.415355,-0.1848599999999999,0.7557695,-0.7098150000000001,-0.08596,1.1533995,-0.6828049999999999,-0.008757
81,0.9936320000000001,0.746845,-0.042487,0.831697,0.5352349999999999,-0.0477269999999999,0.680887,0.700565,-0.222027,1.147847,0.551155,-0.051397,1.260777,0.711595,-0.264167,0.6036170000000001,0.915815,-0.377657,1.257687,0.938905,-0.437207,0.904873,-0.001265,0.0029819999999999,1.095127,0.0012649999999999,-0.0029819999999999,0.844777,-0.415215,-0.180867,1.130957,-0.4139550000000001,-0.189147,0.755497,-0.699805,-0.086607,1.153037,-0.673915,-0.010173
82,0.9944085000000001,0.74456,-0.0479234999999999,0.8324165,0.53375,-0.0526735,0.6815165000000001,0.69832,-0.2289935,1.1476465,0.54931,-0.0557535,1.2610165,0.70885,-0.2701335,0.6056365,0.91375,-0.3860935,1.2572965,0.93392,-0.4445735,0.9043335,-0.0011999999999999,0.0030125,1.0956665,0.0011999999999999,-0.0030125,0.8462965,-0.41395,-0.1847535,1.1286965,-0.4125799999999999,-0.1930635,0.7552265,-0.69018,-0.0871735,1.1517765,-0.66708,-0.0101015
83,0.9955105,0.7429699999999999,-0.0529864999999999,0.8335915,0.5321899999999999,-0.0573365,0.6826915,0.6963999999999999,-0.2360065,1.1477415,0.54841,-0.0602265,1.2614115,0.70605,-0.2755565,0.6081415,0.90791,-0.3946265,1.2574115,0.92888,-0.4514265,0.9039385,-0.00119,0.0027044999999999,1.0960615,0.0011899999999999,-0.0027044999999999,0.8477615000000001,-0.41259,-0.1883964999999999,1.1267114999999999,-0.41119,-0.1961164999999999,0.7549815,-0.6828500000000001,-0.0880164999999999,1.1506515,-0.6610400000000001,-0.0103685
84,0.9965815,0.741365,-0.0584499999999999,0.8348585,0.530575,-0.0625599999999999,0.6841685,0.694245,-0.24324,1.1478685,0.547225,-0.06509,1.2617985,0.702665,-0.2814,0.6104385,0.902115,-0.4025499999999999,1.2576185,0.923245,-0.4585499999999999,0.9035115,-0.001145,0.002359,1.0964885,0.001145,-0.002359,0.8492785,-0.411175,-0.1920699999999999,1.1246285,-0.409875,-0.1992299999999999,0.7545885,-0.6757150000000001,-0.0893399999999999,1.1496785,-0.654325,-0.0113299999999999
85,0.9980135000000001,0.73966,-0.064079,0.8364785,0.52889,-0.0678689999999999,0.6858285,0.6916,-0.2494389999999999,1.1482385,0.54616,-0.069909,1.2623285,0.69895,-0.286829,0.6128385000000001,0.8981699999999999,-0.409539,1.2579285,0.9189,-0.4660189999999999,0.9030615,-0.00107,0.001865,1.0969385,0.0010699999999999,-0.0018649999999999,0.8509885,-0.4097700000000001,-0.195739,1.1227585,-0.4086200000000001,-0.202249,0.7542785,-0.6682800000000001,-0.090749,1.1488085,-0.64795,-0.0125949999999999
86,0.9995820000000001,0.738515,-0.0699359999999999,0.838346,0.527225,-0.0735459999999999,0.687836,0.689905,-0.255906,1.148756,0.544745,-0.075146,1.263086,0.694585,-0.291276,0.615246,0.8941650000000001,-0.417616,1.258346,0.913845,-0.474406,0.902464,-0.0008549999999999,0.0017739999999999,1.097536,0.0008549999999999,-0.0017739999999999,0.852786,-0.408205,-0.199606,1.121106,-0.407345,-0.205786,0.754076,-0.6607350000000001,-0.092486,1.147996,-0.639505,-0.0140919999999999
87,1.001363,0.737475,-0.0755344999999999,0.840365,0.526305,-0.0786745,0.6899650000000002,0.688325,-0.2620245,1.149575,0.543605,-0.0800844999999999,1.263725,0.691505,-0.2957345,0.618395,0.890745,-0.4238245,1.2587549999999998,0.908945,-0.4827344999999999,0.901825,-0.000695,0.0017905,1.098175,0.000695,-0.0017905,0.854195,-0.406755,-0.2029544999999999,1.119545,-0.405955,-0.2092045,0.753865,-0.652995,-0.0935345,1.147215,-0.630915,-0.0156535
88,1.0026264999999999,0.73525,-0.0813825,0.8417665,0.52512,-0.0834925,0.6927464999999999,0.68248,-0.2677024999999999,1.1501265,0.54184,-0.0850225,1.2640065,0.68445,-0.2999425,0.6206265,0.8862399999999999,-0.4304025,1.2590565,0.90296,-0.4909025,0.9018135,-0.00045,0.0016345,1.0981865,0.00045,-0.0016344999999999,0.8553765,-0.40414,-0.2067325,1.1182064999999999,-0.4039099999999999,-0.2133524999999999,0.7534265,-0.64578,-0.0947724999999999,1.1461165,-0.6225799999999999,-0.0174464999999999
89,1.0040399999999998,0.73348,-0.087152,0.843315,0.52451,-0.088272,0.695735,0.67798,-0.272622,1.1512049999999998,0.53996,-0.089932,1.2644250000000001,0.67894,-0.304202,0.623005,0.88224,-0.437592,1.259595,0.89803,-0.498842,0.901585,-0.00018,0.001465,1.098415,0.00018,-0.0014649999999999,0.856635,-0.39627,-0.210492,1.118175,-0.3960399999999999,-0.2177719999999999,0.753255,-0.63791,-0.0959419999999999,1.145565,-0.6132,-0.01961
90,1.005635,0.732235,-0.0922474999999999,0.844779,0.523965,-0.0923674999999999,0.6988989999999999,0.673405,-0.2768775,1.152459,0.537865,-0.0944974999999999,1.265139,0.673385,-0.3079475,0.625529,0.875415,-0.4444874999999999,1.260359,0.892655,-0.5065075,0.901211,2.4999999999997247e-05,0.0013235,1.098789,-2.4999999999997247e-05,-0.0013234999999999,0.858039,-0.3888549999999999,-0.2140675,1.118319,-0.3886349999999999,-0.2218075,0.753279,-0.630505,-0.0972875,1.145459,-0.603735,-0.0212474999999999
91,1.0073124999999998,0.7325600000000001,-0.1021605,0.8459875,0.52514,-0.1013505,0.7015175,0.67126,-0.2856705,1.1537374999999999,0.53772,-0.1038005,1.2656675,0.6699,-0.3161805,0.6277475,0.87153,-0.4553104999999999,1.2610175,0.88953,-0.5185605,0.9011025,0.00012,0.0017225,1.0988975,-0.0001199999999999,-0.0017225,0.8591775,-0.3799199999999999,-0.2240304999999999,1.1182575,-0.3796999999999999,-0.2321904999999999,0.7534375,-0.62192,-0.1038305,1.1456175,-0.59468,-0.0276835
92,1.008797,0.733175,-0.1135019999999999,0.846862,0.524715,-0.111732,0.7042520000000001,0.669355,-0.295242,1.155312,0.536355,-0.114072,1.2661120000000001,0.667595,-0.325642,0.629462,0.869915,-0.467342,1.2618719999999999,0.886275,-0.5319119999999999,0.901128,0.000345,0.0017399999999999,1.098872,-0.0003449999999999,-0.0017399999999999,0.861342,-0.3681749999999999,-0.243422,1.118172,-0.365795,-0.253392,0.752822,-0.622845,-0.124452,1.146032,-0.584735,-0.036051
93,1.0105909999999998,0.7336,-0.1249724999999999,0.847755,0.5249,-0.1219825,0.707015,0.6675800000000001,-0.3045624999999999,1.156925,0.5346,-0.1243324999999999,1.2668949999999999,0.66586,-0.3353325,0.631255,0.86816,-0.4795725,1.263055,0.88358,-0.5453025,0.901295,0.0006599999999999,0.0017935,1.098705,-0.0006599999999999,-0.0017934999999999,0.8636550000000001,-0.3559699999999999,-0.2631124999999999,1.1185649999999998,-0.35105,-0.2748325,0.753065,-0.61442,-0.1320425,1.146725,-0.5762,-0.0445594999999999
94,1.0122455,0.7331749999999999,-0.1360914999999999,0.8485125,0.525315,-0.1317515,0.7097925,0.665245,-0.3132615,1.1584725,0.532785,-0.1341115,1.2676625000000001,0.6642250000000001,-0.3449915,0.6328425000000001,0.866135,-0.4913015,1.2642125,0.881165,-0.5576015,0.9015875,0.000935,0.0019334999999999,1.0984125,-0.000935,-0.0019334999999999,0.8661025,-0.342825,-0.2827415,1.1192525,-0.335195,-0.2961415,0.7537125,-0.605625,-0.1395815,1.1464825,-0.565235,-0.0530755
95,1.0138765,0.7331300000000001,-0.147154,0.8492705,0.52501,-0.141784,0.7121905,0.66395,-0.322194,1.1599405,0.53162,-0.143654,1.2685205,0.66309,-0.354944,0.6343505,0.8638399999999999,-0.502354,1.2653505,0.8792599999999999,-0.569494,0.9019695000000001,0.0010299999999999,0.002083,1.0980305,-0.00103,-0.0020829999999999,0.8685005,-0.32859,-0.302834,1.1202005,-0.31837,-0.317524,0.7535005000000001,-0.60432,-0.1620039999999999,1.1460605,-0.55398,-0.064127
96,1.0152005,0.7337549999999999,-0.1579955,0.8496735000000001,0.524695,-0.1518155,0.7142735,0.662905,-0.3313155,1.1610435,0.530615,-0.1530255,1.2693035,0.662975,-0.3648455,0.6350035,0.8639049999999999,-0.5138054999999999,1.2663935,0.877515,-0.5810154999999999,0.9023365,0.001205,0.0022395,1.0976635,-0.001205,-0.0022394999999999,0.8709335,-0.313315,-0.3229055,1.1212935,-0.301265,-0.3390755,0.7539635,-0.603865,-0.1845555,1.1460135,-0.543065,-0.0731304999999999
97,1.0163579999999999,0.73482,-0.1682305,0.8500179999999999,0.52451,-0.1616405,0.715128,0.66551,-0.3405505,1.162078,0.52981,-0.1619005,1.270208,0.666,-0.3750004999999999,0.6354679999999999,0.86424,-0.5248705,1.267458,0.87747,-0.5924505,0.902692,0.00123,0.0023095,1.097308,-0.0012299999999999,-0.0023095,0.873368,-0.29754,-0.3428104999999999,1.122668,-0.2840199999999999,-0.3599805,0.7545380000000002,-0.6039599999999999,-0.2067705,1.147608,-0.5344,-0.0852194999999999
98,1.0174465,0.735845,-0.178167,0.8502525,0.524805,-0.171027,0.7160225,0.667095,-0.349927,1.1627925000000001,0.529625,-0.170197,1.2710325,0.668455,-0.384947,0.6357225,0.864595,-0.535367,1.2683925,0.8774649999999999,-0.603507,0.9031575000000001,0.0012449999999999,0.002388,1.0968425,-0.0012449999999999,-0.002388,0.8769225,-0.281535,-0.363127,1.1240425,-0.267265,-0.380027,0.7552725,-0.6050150000000001,-0.228867,1.1511725,-0.526425,-0.0971669999999999
99,1.0185259999999998,0.73693,-0.1881169999999999,0.850438,0.52565,-0.180397,0.7170380000000001,0.66835,-0.359237,1.163498,0.5292399999999999,-0.1784369999999999,1.271908,0.67085,-0.395007,0.6358280000000001,0.86772,-0.545517,1.269538,0.87705,-0.614367,0.903582,0.0013699999999999,0.00246,1.096418,-0.00137,-0.00246,0.880198,-0.26609,-0.382777,1.1255879999999998,-0.2505699999999999,-0.400057,0.755558,-0.6070399999999999,-0.251407,1.153948,-0.52879,-0.121637
100,1.0197005,0.7362449999999999,-0.1927935,0.8509025,0.525295,-0.1844135,0.7184025,0.667535,-0.3636535,1.1642725,0.527125,-0.1814435,1.2731824999999999,0.671295,-0.4003035,0.6361924999999999,0.8687349999999999,-0.5506835,1.2708925,0.874835,-0.6199735,0.9037775,0.0015549999999999,0.0020865,1.0962225,-0.001555,-0.0020865,0.8836125,-0.2529950000000001,-0.3957035,1.1272325,-0.235845,-0.4132535,0.7561325,-0.611475,-0.2689735,1.1567925,-0.533455,-0.1405134999999999
101,1.0208815,0.73484,-0.195399,0.8514315,0.52653,-0.186519,0.7196015,0.66608,-0.366369,1.1647415,0.5266000000000001,-0.182729,1.2744315,0.6707700000000001,-0.403809,0.6367315,0.86833,-0.554009,1.2721515,0.87276,-0.623339,0.9039085,0.0017,0.002183,1.0960915,-0.0016999999999999,-0.002183,0.8856215000000001,-0.2483499999999999,-0.398249,1.1279415,-0.23195,-0.415009,0.7568015,-0.61718,-0.284709,1.1593815,-0.5400699999999999,-0.157619
102,1.0218615,0.7342,-0.1974074999999999,0.8519985,0.52742,-0.1881775,0.7206684999999999,0.6650200000000001,-0.3687675,1.1652085,0.52624,-0.1836475,1.2755285,0.67014,-0.4063775,0.6372884999999999,0.8675900000000001,-0.5568875,1.2735285,0.8702700000000001,-0.6262875,0.9040115,0.0018799999999999,0.0021765,1.0959885,-0.0018799999999999,-0.0021764999999999,0.8872385,-0.24403,-0.4002975,1.1284785,-0.22859,-0.4161475,0.7573885,-0.6230200000000001,-0.2992475,1.1619585,-0.5486500000000001,-0.1742975
103,1.0228735,0.73431,-0.1991699999999999,0.8526205,0.52852,-0.18993,0.7217905,0.66417,-0.3708,1.1657804999999999,0.52572,-0.18456,1.2767505,0.66936,-0.4089,0.6380205,0.8665,-0.55969,1.2750705,0.8675900000000001,-0.6289699999999999,0.9040195,0.0021499999999999,0.002131,1.0959805,-0.0021499999999999,-0.0021309999999999,0.8885205,-0.2416,-0.40167,1.1290205,-0.22704,-0.41699,0.7582705000000001,-0.6231699999999999,-0.30095,1.1631905,-0.54777,-0.17518
104,1.023769,0.733725,-0.2004145,0.8530949999999999,0.528755,-0.1911445,0.722815,0.6630050000000001,-0.3722844999999999,1.166305,0.524885,-0.1851845,1.277755,0.6678649999999999,-0.4103745,0.638795,0.8647050000000001,-0.5619744999999999,1.276595,0.864065,-0.6311045,0.904025,0.0023849999999999,0.0021154999999999,1.095975,-0.002385,-0.0021155,0.889145,-0.2411649999999999,-0.4023044999999999,1.129165,-0.2275549999999999,-0.4175945,0.7589049999999999,-0.6227349999999999,-0.3004245,1.164375,-0.549125,-0.1757745
105,1.0247165,0.733725,-0.2011605,0.8535725000000001,0.528755,-0.1919205,0.7238525,0.662895,-0.3729205,1.1668125,0.524885,-0.1857605,1.2786625,0.666675,-0.4112005,0.6396625,0.864615,-0.5631905,1.2779924999999999,0.861765,-0.6326605,0.9041275,0.0023849999999999,0.0021195,1.0958725,-0.002385,-0.0021195,0.8892825,-0.2410649999999999,-0.4028305,1.1292825,-0.228095,-0.4181205,0.7590725,-0.622535,-0.2999805,1.1649825,-0.550815,-0.1762805
106,1.0257405,0.733725,-0.2017325,0.8542175,0.528755,-0.1924725,0.7250175,0.662895,-0.3734925,1.1675075,0.524885,-0.1863725,1.2796475,0.666655,-0.4117725,0.6407375,0.864615,-0.5637525,1.2792575,0.861765,-0.6335725,0.9041825,0.0023849999999999,0.0021614999999999,1.0958174999999999,-0.002385,-0.0021615,0.8894875,-0.2399949999999999,-0.4033525,1.1295475,-0.228435,-0.4183725,0.7593675,-0.622235,-0.3005025,1.1655875,-0.551255,-0.1771725
107,1.0267555,0.7336050000000001,-0.2025385,0.8548884999999999,0.530035,-0.1932384999999999,0.7262785,0.662775,-0.3741684999999999,1.1684185,0.524765,-0.1870085,1.2804385,0.666535,-0.4124285,0.6419485,0.864495,-0.5644385000000001,1.2807485,0.861645,-0.6344385,0.9042015,0.0025049999999999,0.0021755,1.0957985,-0.002505,-0.0021754999999999,0.8898085,-0.239345,-0.4033985,1.1298885,-0.228765,-0.4180284999999999,0.7600185,-0.621855,-0.2992185,1.1636985,-0.550445,-0.1757085
108,1.027306,0.73265,-0.20322,0.855063,0.5311,-0.19401,0.7264830000000001,0.66177,-0.3749,1.169033,0.52436,-0.18771,1.280853,0.66553,-0.4131,0.643033,0.8634900000000001,-0.56515,1.281603,0.8606400000000001,-0.63514,0.9041770000000001,0.00267,0.0021539999999999,1.095823,-0.00267,-0.002154,0.889713,-0.23942,-0.40316,1.129633,-0.2297699999999999,-0.41679,0.759543,-0.62296,-0.29984,1.162053,-0.5402100000000001,-0.16044
109,1.0278829999999999,0.731585,-0.203731,0.85531,0.532455,-0.194681,0.7264000000000002,0.660815,-0.376411,1.16977,0.5237750000000001,-0.188421,1.28125,0.663545,-0.413041,0.6442,0.864125,-0.565681,1.28255,0.858705,-0.635861,0.9041800000000001,0.002995,0.002124,1.0958199999999998,-0.0029949999999999,-0.0021239999999999,0.8894,-0.2405149999999999,-0.402261,1.12955,-0.2317549999999999,-0.414941,0.75919,-0.624945,-0.3005009999999999,1.16232,-0.5428149999999999,-0.158251
110,1.028591,0.7311749999999999,-0.2042465,0.855808,0.533005,-0.1955865,0.726368,0.659795,-0.3778765,1.170588,0.522725,-0.1894365,1.281708,0.660875,-0.4125165,0.645168,0.864455,-0.5658765,1.2835079999999999,0.8556349999999999,-0.6368865,0.904292,0.0034649999999999,0.0020704999999999,1.095708,-0.0034649999999999,-0.0020705,0.887908,-0.244415,-0.3994264999999999,1.129248,-0.235655,-0.4125065,0.7586180000000001,-0.6288450000000001,-0.2979465,1.162728,-0.5476449999999999,-0.1565965
111,1.029531,0.73054,-0.205255,0.856708,0.53336,-0.197095,0.726668,0.6611199999999999,-0.379425,1.171788,0.52238,-0.191095,1.284248,0.6567,-0.413165,0.646318,0.86347,-0.565965,1.284538,0.85301,-0.6382650000000001,0.904392,0.0035699999999999,0.002034,1.095608,-0.00357,-0.0020339999999999,0.885728,-0.25027,-0.395595,1.128838,-0.24225,-0.408595,0.758478,-0.6356,-0.295185,1.163828,-0.56527,-0.168635
112,1.0303205,0.73,-0.2064274999999999,0.8575095,0.5334,-0.1988575,0.7264395,0.66496,-0.3803875,1.1728394999999998,0.52216,-0.1929675,1.2870195,0.65238,-0.4137375,0.6470795,0.8629899999999999,-0.5659175,1.2853195,0.8509599999999999,-0.6390575,0.9044405000000001,0.00368,0.0019585,1.0955594999999998,-0.00368,-0.0019584999999999,0.8832095000000001,-0.25659,-0.3911975,1.1281495,-0.24942,-0.4040275,0.7581895,-0.6433,-0.2927675,1.1625295,-0.56195,-0.1543375
113,1.0312869999999998,0.72977,-0.2073984999999999,0.858483,0.53323,-0.2004785,0.726273,0.6684,-0.3812885,1.174073,0.52244,-0.1945385,1.290653,0.64847,-0.4143185,0.6476930000000001,0.8640399999999999,-0.5656385,1.286193,0.8496699999999999,-0.6397385,0.904507,0.00373,0.0020175,1.095493,-0.00373,-0.0020174999999999,0.880713,-0.26307,-0.3864085,1.127643,-0.25638,-0.3991385,0.758103,-0.6513500000000001,-0.2901685,1.1614529999999998,-0.5586,-0.1400485
114,1.03199,0.729295,-0.2080405,0.859241,0.532975,-0.2017905,0.7257910000000001,0.671705,-0.3816805,1.175111,0.522205,-0.1958505,1.291221,0.6464449999999999,-0.4138604999999999,0.648081,0.866135,-0.5646905,1.286871,0.851075,-0.6396205,0.904669,0.0038949999999999,0.0021395,1.095331,-0.0038949999999999,-0.0021394999999999,0.877931,-0.269375,-0.3807905,1.126911,-0.2637449999999999,-0.3937305,0.7578210000000001,-0.658955,-0.2872205,1.161371,-0.5669850000000001,-0.1339705
115,1.032573,0.73061,-0.207986,0.859868,0.53227,-0.202506,0.725078,0.67444,-0.382956,1.175958,0.52313,-0.196406,1.291608,0.64388,-0.412976,0.648298,0.86748,-0.5632860000000001,1.287578,0.8525,-0.6388860000000001,0.9048430000000001,0.0037099999999999,0.002204,1.095157,-0.0037099999999999,-0.0022039999999999,0.8751180000000001,-0.2770699999999999,-0.373826,1.126198,-0.27247,-0.386676,0.757498,-0.6681199999999999,-0.282956,1.161398,-0.57765,-0.1321959999999999
116,1.0330445,0.732065,-0.207705,0.8601925,0.5337750000000001,-0.202785,0.7242925,0.677285,-0.383895,1.1766225,0.5238750000000001,-0.196565,1.2917925000000001,0.641945,-0.411545,0.6485125,0.871415,-0.561435,1.2879425,0.854325,-0.637925,0.9050895,0.003825,0.002254,1.0949105,-0.0038249999999999,-0.0022539999999999,0.8727024999999999,-0.285335,-0.365765,1.1257425,-0.2820349999999999,-0.378455,0.7572425,-0.6780749999999999,-0.277815,1.1611325,-0.589305,-0.132495
117,1.0331335,0.733665,-0.2069765,0.8604785,0.5350349999999999,-0.2028365,0.7231085000000002,0.6797249999999999,-0.3844165,1.1769985,0.526365,-0.1964265,1.2921885,0.643915,-0.4105465,0.6486485,0.873725,-0.5599164999999999,1.2880585,0.855815,-0.6366565,0.9054085000000001,0.0037949999999999,0.0023444999999999,1.0945915,-0.003795,-0.0023445,0.8700485,-0.294445,-0.3567265,1.1253784999999998,-0.292375,-0.3693865,0.7575685,-0.6888449999999999,-0.2717665,1.1609485,-0.601875,-0.1326465
118,1.0331819999999998,0.7353350000000001,-0.2060564999999999,0.860493,0.535785,-0.2024765,0.7207129999999999,0.6864250000000001,-0.3839665,1.177023,0.5288550000000001,-0.1960565,1.294903,0.645465,-0.4091565,0.648453,0.875035,-0.5586165,1.288143,0.8578650000000001,-0.6351265,0.905641,0.003695,0.0025384999999999,1.094359,-0.003695,-0.0025384999999999,0.867243,-0.303395,-0.3477265,1.125003,-0.3026849999999999,-0.3601465,0.757763,-0.699435,-0.2659165,1.1620329999999999,-0.624925,-0.1400465
119,1.033418,0.73664,-0.2048565,0.86071,0.53775,-0.2016265,0.71821,0.69302,-0.3831164999999999,1.17723,0.53173,-0.1952365,1.29782,0.64756,-0.4075965,0.64798,0.8768400000000001,-0.5570665,1.28843,0.8606,-0.6329465000000001,0.905981,0.0034399999999999,0.0027204999999999,1.094019,-0.0034399999999999,-0.0027205,0.86435,-0.3119399999999999,-0.3388465,1.12486,-0.31243,-0.3508165,0.7579000000000001,-0.7095,-0.2603965,1.16309,-0.64548,-0.1485064999999999
120,1.0339,0.7381800000000001,-0.2022975,0.861288,0.53923,-0.2006275,0.7166980000000001,0.69818,-0.3824275,1.177798,0.53393,-0.1942775,1.301498,0.6544300000000001,-0.4058374999999999,0.6472180000000001,0.88131,-0.5557275,1.2889680000000001,0.86729,-0.6308275,0.9062310000000001,0.00346,0.0026534999999999,1.093769,-0.00346,-0.0026534999999999,0.862748,-0.3188,-0.3316875,1.125448,-0.32022,-0.3431674999999999,0.758798,-0.71765,-0.2552775,1.164178,-0.66289,-0.1558175
121,1.033595,0.7384,-0.1990555,0.8611400000000001,0.54219,-0.1989455,0.71524,0.70022,-0.3821854999999999,1.17756,0.53718,-0.1927655,1.30467,0.66065,-0.4038555,0.6456299999999999,0.8852599999999999,-0.5540455,1.28864,0.8736299999999999,-0.6286355,0.906624,0.0034699999999999,0.0026315,1.093376,-0.00347,-0.0026314999999999,0.8604200000000001,-0.3259200000000001,-0.3240355,1.1255899999999999,-0.3285,-0.3362155,0.7590700000000001,-0.72594,-0.2497855,1.16429,-0.6812900000000001,-0.1618554999999999
122,1.0328899999999999,0.738455,-0.1953774999999999,0.8605389999999999,0.545005,-0.1972975,0.7137789999999999,0.7032449999999999,-0.3817075,1.177049,0.540365,-0.1913774999999999,1.3046389999999999,0.6667649999999999,-0.4018775,0.643929,0.890745,-0.5511775,1.2879489999999998,0.880635,-0.6250574999999999,0.90679,0.0033849999999999,0.0026225,1.09321,-0.003385,-0.0026225,0.8579490000000001,-0.332995,-0.3165975,1.125579,-0.335535,-0.3285375,0.7592289999999999,-0.734155,-0.2443874999999999,1.164399,-0.7002550000000001,-0.1668974999999999
123,1.0322085,0.7374400000000001,-0.1909145,0.8601245000000001,0.54795,-0.1947445,0.7129845,0.7058500000000001,-0.3790845,1.1767245,0.54383,-0.1892345,1.3032245,0.6697200000000001,-0.3994845,0.6427944999999999,0.89458,-0.5476645,1.2876545,0.88487,-0.6208745,0.9071755,0.00319,0.0027434999999999,1.0928245,-0.0031899999999999,-0.0027435,0.8562945000000001,-0.34031,-0.3085845,1.1264044999999998,-0.34317,-0.3202645,0.7606945,-0.74261,-0.2376745,1.1645745,-0.71917,-0.1713945
124,1.0313195,0.7348,-0.185772,0.8593525,0.55093,-0.191662,0.7122325,0.7092100000000001,-0.3741219999999999,1.1761925,0.54708,-0.186612,1.3009825,0.6740900000000001,-0.3956619999999999,0.6415925,0.89929,-0.543162,1.2873425,0.89022,-0.6161019999999999,0.9074885,0.00313,0.002797,1.0925115,-0.0031299999999999,-0.0027969999999999,0.8543825,-0.3464699999999999,-0.3008619999999999,1.1267525,-0.34973,-0.312222,0.7623425,-0.74857,-0.226922,1.1646824999999998,-0.73627,-0.175192
125,1.030213,0.7322500000000001,-0.1802214999999999,0.858236,0.55193,-0.1882114999999999,0.710726,0.71298,-0.3678515,1.175166,0.55062,-0.1836614999999999,1.297626,0.68231,-0.3910515,0.640306,0.90177,-0.5375915,1.286516,0.8973,-0.6099914999999999,0.908032,0.00269,0.0026104999999999,1.091968,-0.00269,-0.0026105,0.851816,-0.3521399999999999,-0.2935015,1.127296,-0.35537,-0.3044915,0.763956,-0.7542199999999999,-0.2163014999999999,1.164836,-0.74552,-0.1772515
126,1.028513,0.729415,-0.1744175,0.856823,0.553455,-0.1845675,0.7090430000000001,0.716985,-0.3612875,1.173743,0.552405,-0.1804975,1.293943,0.6860850000000001,-0.3860774999999999,0.638413,0.909035,-0.5306775,1.285473,0.904325,-0.6030375,0.908799,0.002455,0.0022795,1.091201,-0.0024549999999999,-0.0022795,0.848503,-0.356915,-0.2865975,1.127303,-0.3603449999999999,-0.2973274999999999,0.7649230000000001,-0.759415,-0.2066075,1.163673,-0.7501150000000001,-0.1723275
127,1.0265335,0.72611,-0.168443,0.8553195,0.55592,-0.180933,0.7083094999999999,0.71959,-0.355253,1.1722995,0.55443,-0.177403,1.2898795,0.6906300000000001,-0.382053,0.6366295,0.91599,-0.5234230000000001,1.2843395,0.91232,-0.595863,0.9096665,0.00212,0.001947,1.0903335,-0.0021199999999999,-0.0019469999999999,0.8454195000000001,-0.3619499999999999,-0.279113,1.1276095,-0.36523,-0.290483,0.7654595000000001,-0.7648000000000001,-0.197473,1.1637595,-0.7593000000000001,-0.171883
128,1.023986,0.72227,-0.1617779999999999,0.853449,0.5574600000000001,-0.177068,0.706449,0.72117,-0.348738,1.170409,0.55748,-0.173968,1.285849,0.69818,-0.378158,0.634729,0.92261,-0.515408,1.282839,0.92083,-0.588728,0.910192,0.00171,0.0016809999999999,1.089808,-0.0017099999999999,-0.001681,0.8417390000000001,-0.3671799999999999,-0.270628,1.1271390000000001,-0.36927,-0.283308,0.7666189999999999,-0.76999,-0.188138,1.163439,-0.76919,-0.170258
129,1.021707,0.717775,-0.155804,0.851145,0.562095,-0.172964,0.7039850000000001,0.721595,-0.342344,1.168495,0.5604450000000001,-0.170144,1.284335,0.702875,-0.373824,0.632625,0.929855,-0.506594,1.281245,0.926775,-0.580704,0.910684,0.001345,0.0014419999999999,1.089316,-0.0013449999999999,-0.001442,0.837845,-0.372565,-0.261574,1.126735,-0.373785,-0.2744439999999999,0.767495,-0.775555,-0.178364,1.162105,-0.7755350000000001,-0.165114
130,1.0200045,0.7147699999999999,-0.1500485,0.8498845000000002,0.56514,-0.1695885,0.7023444999999999,0.7281900000000001,-0.3353985,1.1675645000000001,0.56277,-0.1665585,1.2834145,0.70943,-0.3696985,0.6312645,0.93707,-0.4977185,1.2803745,0.93348,-0.5725285,0.9111045000000001,0.0009699999999999,0.0011455,1.0888955,-0.0009699999999999,-0.0011455,0.8350045,-0.3774399999999999,-0.2530285,1.1269445,-0.3777,-0.2657885,0.7692345,-0.7802,-0.1690685,1.1613545,-0.7809699999999999,-0.1603885
131,1.0175005,0.710885,-0.1446019999999999,0.8479675,0.567565,-0.166352,0.7005775000000001,0.734095,-0.329502,1.1658675,0.564795,-0.163022,1.2821075,0.7187950000000001,-0.366462,0.6291075000000002,0.945045,-0.488692,1.2785175,0.940725,-0.564762,0.9115515,0.0004149999999999,0.000861,1.0884485,-0.0004149999999999,-0.000861,0.8311575,-0.3818749999999999,-0.2443219999999999,1.1269975,-0.3833449999999999,-0.257752,0.7693175,-0.784995,-0.1595619999999999,1.1606575000000001,-0.787775,-0.155432
132,1.0162495,0.70875,-0.1413685,0.8469175,0.56982,-0.1634785,0.6991075,0.74193,-0.3242985,1.1651075,0.56755,-0.1596385,1.2807175,0.73017,-0.3622185,0.6277575,0.95466,-0.4795585,1.2771875,0.94978,-0.5566985,0.9119855,-0.00025,0.0006125,1.0880144999999999,0.00025,-0.0006125,0.8289875,-0.38757,-0.2359585,1.1273975,-0.38882,-0.2471684999999999,0.7699275,-0.78902,-0.1510485,1.1603075,-0.7930999999999999,-0.1480785
133,1.015177,0.70807,-0.1381485,0.845664,0.57197,-0.1602585,0.6972940000000001,0.74819,-0.3194585,1.164434,0.56977,-0.1561885,1.2766739999999999,0.7399399999999999,-0.3573385,0.626124,0.96334,-0.4704885,1.275704,0.95656,-0.5479284999999999,0.912245,-0.0004,0.0005764999999999,1.087755,0.0003999999999999,-0.0005765,0.8271740000000001,-0.3962799999999999,-0.2268184999999999,1.127734,-0.39579,-0.2355585,0.7702740000000001,-0.79716,-0.1471385,1.160344,-0.79957,-0.1400084999999999
134,1.014295,0.7050749999999999,-0.129164,0.8447439999999999,0.5720149999999999,-0.151674,0.695444,0.753225,-0.309994,1.164264,0.570495,-0.147124,1.275924,0.744985,-0.348334,0.624904,0.969595,-0.456434,1.274444,0.961025,-0.533774,0.912513,-0.001325,0.000797,1.087487,0.0013249999999999,-0.000797,0.8263240000000001,-0.407045,-0.210354,1.128534,-0.404375,-0.217414,0.770974,-0.807275,-0.138594,1.160834,-0.807045,-0.126134
135,1.0134255,0.709485,-0.1186509999999999,0.8435785,0.570065,-0.141541,0.6927885,0.756625,-0.299031,1.1640785,0.5715950000000001,-0.136201,1.2748685,0.747165,-0.337181,0.6238285,0.971575,-0.439861,1.2728485,0.963885,-0.517351,0.9125695,-0.0009049999999999,0.000763,1.0874305,0.0009049999999999,-0.0007629999999999,0.8263485,-0.4223949999999999,-0.188701,1.1295285,-0.4169049999999999,-0.195271,0.7701585000000001,-0.821365,-0.128411,1.1613285,-0.815545,-0.108511
136,1.0129925,0.7155100000000001,-0.1078365,0.8427285,0.56833,-0.1317265,0.6909685000000001,0.7576799999999999,-0.2882265,1.1641485,0.5727599999999999,-0.1253765,1.2740385,0.7506599999999999,-0.3250665,0.6229985,0.97328,-0.4237765,1.2711585,0.96657,-0.5008165,0.9128455,-0.00052,0.0007285,1.0871545,0.0005199999999999,-0.0007285,0.8268785,-0.4369099999999999,-0.1678965,1.1311485000000001,-0.42867,-0.1731365,0.7694685,-0.83498,-0.1184665,1.1624385,-0.82358,-0.0914965
137,1.013002,0.7217849999999999,-0.097145,0.842313,0.5676950000000001,-0.122045,0.690503,0.7599750000000001,-0.277115,1.164573,0.573735,-0.1145349999999999,1.273093,0.752265,-0.312585,0.6225230000000002,0.974395,-0.407795,1.269483,0.968735,-0.483315,0.913134,-0.0002449999999999,0.0004429999999999,1.086866,0.000245,-0.0004429999999999,0.827923,-0.452715,-0.148345,1.133203,-0.441475,-0.151495,0.7692330000000001,-0.849415,-0.1089049999999999,1.163843,-0.8321749999999999,-0.074332
138,1.0133619999999999,0.729062,-0.0863405,0.842477,0.564002,-0.1123605,0.690807,0.762992,-0.2654005,1.165207,0.575222,-0.1039005,1.271907,0.7538619999999999,-0.2992705,0.622607,0.973482,-0.3917205,1.267787,0.972272,-0.4652105,0.913294,2.999999999998837e-05,0.0001294999999999,1.086706,-3.0000000000002247e-05,-0.0001295,0.8293070000000001,-0.4687680000000001,-0.1290005,1.135527,-0.4538380000000001,-0.1311705,0.768937,-0.864248,-0.0995505,1.165757,-0.8408180000000001,-0.0572955
139,1.013608,0.7368055,-0.075688,0.8424910000000001,0.5607655,-0.102488,0.691271,0.7611255,-0.252968,1.165961,0.5771255,-0.093468,1.269991,0.7563555,-0.285718,0.6226510000000001,0.9726055,-0.375268,1.265781,0.9757255,-0.446858,0.913437,0.0001585,-0.00017,1.086563,-0.0001584999999999,0.0001699999999999,0.830771,-0.4848645,-0.109498,1.137961,-0.4660445,-0.1102379999999999,0.768711,-0.8801845,-0.090668,1.167851,-0.8500145,-0.040036
140,1.013805,0.745635,-0.0649795,0.842364,0.558575,-0.0923995,0.692104,0.761155,-0.2401194999999999,1.166744,0.579415,-0.0830694999999999,1.267894,0.757455,-0.2710595,0.6226240000000001,0.969155,-0.3591395,1.263914,0.978955,-0.4282295,0.913621,0.000417,-0.0004664999999999,1.086379,-0.000417,0.0004665,0.832314,-0.500785,-0.0895995,1.140004,-0.478395,-0.0893795,0.768894,-0.896935,-0.0826194999999999,1.169864,-0.859075,-0.0223484999999999
141,1.0136475,0.7537275,-0.0542575,0.8419015,0.5567975,-0.0821375,0.6926315000000001,0.7605575,-0.2270775,1.1671715,0.5818274999999999,-0.0725575,1.2655015,0.7583274999999999,-0.2561575,0.6222115000000001,0.9657675,-0.3426275,1.2619615,0.9811075,-0.4092175,0.9136935,0.0007784999999999,-0.0007614999999999,1.0863065,-0.0007785,0.0007614999999999,0.8339615,-0.5174625,-0.0695775,1.1419915,-0.4911824999999999,-0.0710775,0.7694115,-0.9129525,-0.0726175,1.1721015,-0.8688225,-0.0069455
142,1.0132975,0.760444,-0.0440435,0.8415595,0.5552239999999999,-0.0720835,0.6929495,0.761914,-0.2135834999999999,1.1673494999999998,0.584004,-0.0620234999999999,1.2626294999999998,0.7606539999999999,-0.2405235,0.6218895,0.964014,-0.3253835,1.2597195,0.985384,-0.3896834999999999,0.9136425,0.000732,-0.0011514999999999,1.0863575,-0.0007319999999999,0.0011514999999999,0.8354295,-0.5326460000000001,-0.0503234999999999,1.1435195,-0.5022260000000001,-0.0542335,0.7698995,-0.926286,-0.0628234999999999,1.1737595,-0.8775160000000001,0.0072885
143,1.012246,0.7691600000000001,-0.039337,0.840821,0.5552300000000001,-0.067257,0.692951,0.7638,-0.204507,1.166641,0.58795,-0.056887,1.258941,0.7645599999999999,-0.2302269999999999,0.621221,0.96585,-0.311187,1.257121,0.99188,-0.3753869999999999,0.91394,0.001521,-0.0017039999999999,1.08606,-0.0015209999999999,0.0017039999999999,0.8370510000000001,-0.54715,-0.0386969999999999,1.144991,-0.51197,-0.0440769999999999,0.7696810000000001,-0.93807,-0.059657,1.175141,-0.8854500000000001,0.015755
144,1.010952,0.7709085,-0.03625,0.840007,0.5573385,-0.06414,0.693137,0.7687885000000001,-0.19693,1.165367,0.5914385,-0.0537,1.254807,0.7723985,-0.2218199999999999,0.620297,0.9684485,-0.30049,1.254327,1.0000085,-0.36321,0.914216,0.0009955,-0.001917,1.085784,-0.0009954999999999,0.001917,0.837897,-0.5552014999999999,-0.03247,1.146167,-0.5172215,-0.0383,0.769767,-0.9454415,-0.0582,1.176057,-0.8919115,0.019925
145,1.0092875,0.771773,-0.032718,0.8390285,0.558363,-0.060838,0.6931285,0.773383,-0.188738,1.1636285,0.594963,-0.050268,1.2503785,0.779413,-0.2140079999999999,0.6191985,0.971393,-0.288808,1.2515785,1.008333,-0.350968,0.9144445,0.000604,-0.0021219999999999,1.0855555,-0.000604,0.0021219999999999,0.8385184999999999,-0.5628569999999999,-0.0260279999999999,1.1471085,-0.5234169999999999,-0.032488,0.7696985000000001,-0.953027,-0.056398,1.1768485,-0.898377,0.024423
146,1.0077705,0.772706,-0.0296444999999999,0.8383415000000001,0.557906,-0.0577945,0.6932615,0.7786860000000001,-0.1806344999999999,1.1619515,0.597736,-0.0469544999999999,1.2461715,0.786246,-0.2061545,0.6177015,0.975436,-0.2771045,1.2491315,1.017426,-0.3393645,0.9146855,0.000368,-0.0020324999999999,1.0853145,-0.000368,0.0020325,0.8392415,-0.5692539999999999,-0.0199344999999999,1.1476515,-0.529914,-0.0269844999999999,0.7697415000000001,-0.959424,-0.0538644999999999,1.1773015,-0.904104,0.0282285
147,1.0060165,0.7733145,-0.0250385,0.8370865000000001,0.5589945,-0.0542985,0.6932365,0.7838845,-0.1727685,1.1596265,0.6008345,-0.0435985,1.2421365,0.7929645,-0.1989385,0.6159365,0.9797945,-0.2653985,1.2469365,1.0239145,-0.3284385,0.9149575,0.0001165,-0.0018925,1.0850425,-0.0001165,0.0018924999999999,0.8395565,-0.5753655,-0.0140485,1.1485665,-0.5346355,-0.0218985,0.7699865,-0.9655355,-0.0514985,1.1780765,-0.9095755,0.0319524999999999
148,1.004405,0.7734985,-0.0207324999999999,0.836118,0.5595785,-0.0505624999999999,0.692778,0.7894885,-0.1640524999999999,1.157588,0.6029185,-0.0400124999999999,1.238688,0.8006485,-0.1920924999999999,0.6141380000000001,0.9853885,-0.2523925,1.245108,1.0314985,-0.3164325,0.9151420000000001,2.1499999999999814e-05,-0.0018794999999999,1.0848579999999999,-2.1499999999999814e-05,0.0018795,0.839848,-0.5803415,-0.0088524999999999,1.149268,-0.5393915,-0.0169624999999999,0.770008,-0.9707515,-0.0490024999999999,1.178718,-0.9141515,0.0355725
149,1.0028789999999999,0.7734135,-0.0164259999999999,0.835228,0.5599135,-0.046716,0.692328,0.7937535,-0.1548959999999999,1.155648,0.6044035,-0.0365159999999999,1.235568,0.8070235,-0.185226,0.612698,0.9906535,-0.239226,1.243568,1.0380535,-0.304946,0.915227,0.0001034999999999,-0.002072,1.084773,-0.0001034999999999,0.002072,0.8400480000000001,-0.5845665,-0.0044089999999999,1.149848,-0.5441365,-0.012176,0.769958,-0.9754065,-0.0461759999999999,1.179218,-0.9183365,0.0388359999999999
150,1.001609,0.772696,-0.012354,0.834517,0.5602560000000001,-0.042804,0.692167,0.796906,-0.145594,1.153697,0.606736,-0.032974,1.232887,0.813396,-0.178744,0.6116170000000001,0.9946660000000002,-0.226184,1.242317,1.044366,-0.293734,0.91531,1.5000000000001124e-05,-0.002434,1.08469,-1.4999999999997654e-05,0.0024339999999999,0.840297,-0.587924,-0.000523,1.150377,-0.548634,-0.007654,0.770207,-0.979914,-0.043514,1.179727,-0.922784,0.0419569999999999
151,1.000607,0.771642,-0.0086264999999999,0.8338400000000001,0.5610620000000001,-0.0390265,0.6921400000000001,0.799542,-0.1366865,1.15187,0.6086320000000001,-0.0296564999999999,1.23092,0.820102,-0.1731964999999999,0.61068,0.998192,-0.2134264999999999,1.24156,1.050292,-0.2835465,0.915464,-3.699999999999884e-05,-0.0027464999999999,1.084536,3.700000000000231e-05,0.0027464999999999,0.8406,-0.590858,0.0026604999999999,1.1509800000000001,-0.552708,-0.0035764999999999,0.77032,-0.984268,-0.0411665,1.18033,-0.926858,0.0446745
152,0.9998970000000001,0.771138,-0.00529,0.833325,0.562128,-0.03572,0.6922349999999999,0.8027979999999999,-0.12852,1.150605,0.6103379999999999,-0.02663,1.2295749999999999,0.8260179999999999,-0.16821,0.6099050000000001,1.001238,-0.20165,1.241385,1.055038,-0.27407,0.915577,-9.800000000000086e-05,-0.00309,1.084423,9.79999999999974e-05,0.0030899999999999,0.8410150000000001,-0.592202,0.0053529999999999,1.151595,-0.5562520000000001,9.999999999996125e-06,0.7705250000000001,-0.987482,-0.03924,1.181055,-0.930212,0.0467779999999999
153,0.9993370000000001,0.7705305,-0.0021749999999999,0.8325629999999999,0.5636705,-0.0319849999999999,0.692463,0.8045605,-0.1205449999999999,1.149763,0.6118905,-0.023625,1.228823,0.8315805,-0.163595,0.609353,1.0038705,-0.190125,1.241693,1.0600705,-0.264855,0.915679,-9.84999999999979e-05,-0.0034249999999999,1.084321,9.850000000000136e-05,0.0034249999999999,0.841513,-0.5931195,0.007694,1.152243,-0.5596095000000001,0.003365,0.770743,-0.9906495,-0.037465,1.181743,-0.9335995,0.048757
154,0.9989840000000001,0.7696765,0.000605,0.8318610000000001,0.5653065,-0.0284949999999999,0.692731,0.8059865,-0.1124749999999999,1.149311,0.6132665,-0.0208649999999999,1.228631,0.8363065000000001,-0.1588949999999999,0.608921,1.0078765,-0.1785449999999999,1.242361,1.0629765,-0.255845,0.915818,-8.74999999999973e-05,-0.0037149999999999,1.084182,8.750000000000077e-05,0.003715,0.841971,-0.5934035,0.009683,1.152931,-0.5629635,0.006235,0.7710310000000001,-0.9937435,-0.0359249999999999,1.182571,-0.9367835,0.050421
155,0.998844,0.7690205,0.00311,0.831354,0.5676305,-0.02521,0.693164,0.8069405,-0.10469,1.148984,0.6148605,-0.01782,1.228974,0.8404305,-0.1546,0.609294,1.0116805,-0.16777,1.243454,1.0653805,-0.24704,0.915981,-7.950000000000318e-05,-0.00395,1.084019,7.949999999999624e-05,0.0039499999999999,0.842514,-0.5932995,0.0113829999999999,1.153804,-0.5659995,0.00866,0.771674,-0.9964395,-0.03478,1.183524,-0.9394295,0.051827
156,0.998937,0.7684225,0.00528,0.83129,0.5685025,-0.0221799999999999,0.69382,0.8079625,-0.09727,1.14904,0.6160725,-0.0147999999999999,1.2297,0.8448025,-0.1503299999999999,0.61009,1.0157025,-0.15742,1.24476,1.0683025,-0.2378799999999999,0.9160840000000001,-5.6500000000000994e-05,-0.0042399999999999,1.0839159999999999,5.6500000000000994e-05,0.00424,0.8429800000000001,-0.5931675000000001,0.012811,1.15467,-0.5684675,0.010701,0.77242,-0.9988175,-0.0339999999999999,1.18453,-0.9415475,0.05294
157,0.9992735000000001,0.7676805,0.007065,0.8312094999999999,0.5697304999999999,-0.0190549999999999,0.6946895,0.8085705,-0.0908249999999999,1.1490695,0.6176205,-0.0118549999999999,1.2307394999999999,0.8467205,-0.146205,0.6112695,1.0187405,-0.1488449999999999,1.2459895,1.0694405,-0.230315,0.9161975,-7.250000000000312e-05,-0.0044049999999999,1.0838025,7.249999999999618e-05,0.004405,0.8434495,-0.5930795,0.0141799999999999,1.1554995,-0.5705095,0.012091,0.7732795,-1.0009495,-0.033245,1.1855595,-0.9435395,0.053651
158,0.9995940000000001,0.7670675,0.0087949999999999,0.83118,0.5711575,-0.016175,0.69553,0.8090375,-0.084995,1.14918,0.6194775,-0.008995,1.23179,0.8484075,-0.141725,0.6124499999999999,1.0214975,-0.141125,1.24726,1.0700975,-0.223065,0.916335,-0.0001704999999999,-0.0043549999999999,1.083665,0.0001705,0.0043549999999999,0.8439099999999999,-0.5930825,0.015422,1.1562999999999999,-0.5721225,0.01302,0.77423,-1.0022525,-0.032155,1.18649,-0.9455725,0.054271
159,0.9998585000000001,0.767076,0.010885,0.8312525,0.5722659999999999,-0.013615,0.6962825,0.8100459999999999,-0.079335,1.1495725,0.6202059999999999,-0.006605,1.2328525,0.849946,-0.136965,0.6136524999999999,1.024686,-0.1338349999999999,1.2484525,1.070986,-0.216085,0.9164505000000001,-0.000176,-0.004125,1.0835495,0.000176,0.004125,0.8443125,-0.5930340000000001,0.016571,1.1570624999999999,-0.573034,0.01348,0.7751825,-1.002714,-0.031305,1.1874225,-0.946874,0.054671
160,1.000099,0.767158,0.0130269999999999,0.8314900000000001,0.572818,-0.01098,0.6970200000000001,0.8108280000000001,-0.0741899999999999,1.15003,0.621078,-0.0039399999999999,1.23398,0.8506180000000001,-0.13195,0.6149300000000001,1.027698,-0.12703,1.24973,1.071898,-0.20933,0.91651,-0.000259,-0.0039399999999999,1.08349,0.0002589999999999,0.0039399999999999,0.8446600000000001,-0.5930519999999999,0.017567,1.15766,-0.5738319999999999,0.0137409999999999,0.77623,-1.003522,-0.03018,1.18833,-0.948052,0.0548599999999999
161,1.0002425,0.766979,0.0152769999999999,0.8315995,0.5735389999999999,-0.008495,0.6978695000000001,0.811029,-0.068985,1.1503695,0.622119,-0.001335,1.2350595,0.851019,-0.126685,0.6160995,1.030069,-0.121605,1.2508495,1.072369,-0.202595,0.9165995,-0.0002869999999999,-0.003805,1.0834005,0.000287,0.0038049999999999,0.8450095,-0.5930110000000001,0.0184789999999999,1.1580795,-0.574581,0.0138839999999999,0.7772295000000001,-1.004661,-0.029195,1.1891595,-0.949151,0.0548219999999999
162,1.0003445,0.766708,0.018028,0.8319004999999999,0.573768,-0.00576,0.6985505000000001,0.811188,-0.0638,1.1505305,0.622918,0.0020199999999999,1.2360505,0.850278,-0.12104,0.6172605,1.032428,-0.11576,1.2519605,1.072628,-0.19564,0.9167405,-0.00035,-0.00377,1.0832595,0.0003499999999999,0.0037699999999999,0.8453405,-0.593002,0.0194659999999999,1.1584305,-0.575312,0.01399,0.7782905,-1.005662,-0.02804,1.1898605,-0.950282,0.0547789999999999
163,1.000472,0.7666099999999999,0.02158,0.832383,0.57358,-0.0025899999999999,0.699083,0.81167,-0.05867,1.150583,0.62357,0.0059,1.236843,0.84976,-0.1155099999999999,0.618473,1.03331,-0.11018,1.253063,1.07301,-0.18862,0.916893,-0.000452,-0.00378,1.083107,0.000452,0.00378,0.8457930000000001,-0.5930000000000001,0.02057,1.158743,-0.57596,0.0141599999999999,0.7793230000000001,-1.00647,-0.0271,1.190543,-0.951,0.054717
164,1.0005075,0.7664265,0.0253919999999999,0.8324955,0.5737165,0.0005249999999999,0.6993955000000001,0.8120664999999999,-0.053325,1.1505655,0.6236065,0.009465,1.2373555,0.8492565,-0.110065,0.6193455000000001,1.0343065,-0.103465,1.2540054999999999,1.0735065,-0.1813749999999999,0.9170355,-0.0005374999999999,-0.003775,1.0829645,0.0005375,0.003775,0.8462555,-0.5929635000000001,0.0219749999999999,1.1588554999999998,-0.5765235000000001,0.0142609999999999,0.7802555,-1.0074035,-0.026565,1.1909954999999999,-0.9517335,0.054587
165,1.0006884999999999,0.7662255,0.029518,0.8327035,0.5739154999999999,0.003305,0.6996835,0.8125155,-0.0481149999999999,1.1506635,0.6240255,0.012585,1.2374235,0.8489954999999999,-0.103355,0.6202335,1.0353855,-0.0968649999999999,1.2546335,1.0739855,-0.1748249999999999,0.9172135,-0.0006235,-0.0036049999999999,1.0827865,0.0006234999999999,0.003605,0.8468535,-0.5929245000000001,0.023553,1.1589435,-0.5769445000000001,0.014078,0.7811335,-1.0078845,-0.026175,1.1914035,-0.9521545,0.054383
166,1.000928,0.7660625000000001,0.034016,0.8328260000000001,0.5744425000000001,0.0056999999999999,0.700116,0.8126625000000001,-0.0430999999999999,1.150766,0.6244025000000001,0.015396,1.237476,0.8490725,-0.09696,0.6212260000000001,1.0364525,-0.09036,1.2550759999999999,1.0744525,-0.1683899999999999,0.9174059999999999,-0.0006645,-0.0033299999999999,1.082594,0.0006644999999999,0.0033299999999999,0.847476,-0.5928875,0.024901,1.159046,-0.5772974999999999,0.013828,0.781956,-1.0080675,-0.0258999999999999,1.191836,-0.9522875,0.054118
167,1.001256,0.765595,0.0386629999999999,0.8328139999999999,0.575875,0.0108499999999999,0.700464,0.812405,-0.03812,1.150874,0.624005,0.0186499999999999,1.237524,0.848655,-0.09126,0.622204,1.037705,-0.08346,1.255164,1.075005,-0.16172,0.917654,-0.0006079999999999,-0.00299,1.082346,0.000608,0.0029899999999999,0.848074,-0.592835,0.0258019999999999,1.1591339999999999,-0.577955,0.0129079999999999,0.7827640000000001,-1.008725,-0.02629,1.192234,-0.952715,0.0531259999999999
168,1.0016055,0.76473,0.0425189999999999,0.8327975,0.57699,0.0155049999999999,0.7002475,0.8123900000000001,-0.03343,1.1508175,0.62297,0.0220129999999999,1.2373675,0.84728,-0.0866,0.6230775,1.03917,-0.07722,1.2548675,1.07557,-0.15602,0.9178975,-0.0005339999999999,-0.00288,1.0821025,0.0005339999999999,0.0028799999999999,0.8485775,-0.59276,0.0263769999999999,1.1593575,-0.57899,0.0117239999999999,0.7834975,-1.00944,-0.02679,1.1925775,-0.95376,0.0517209999999999
169,1.0020165,0.7640395,0.046435,0.8326925000000001,0.5778495,0.0195619999999999,0.6999525,0.8124495,-0.028545,1.1507125,0.6220795,0.0250699999999999,1.2371625,0.8453695,-0.082255,0.6239125,1.0383495,-0.071185,1.2546125,1.0756495,-0.150195,0.9180725,-0.0004474999999999,-0.002665,1.0819275,0.0004475,0.002665,0.8490725,-0.5926605,0.0270139999999999,1.1597025,-0.5798105,0.01091,0.7843825,-1.0102605,-0.027685,1.1929925,-0.9545105,0.050183
170,1.002457,0.7635175,0.050141,0.832572,0.5783275,0.023622,0.6995819999999999,0.8123475,-0.024635,1.150522,0.6211975,0.028446,1.236992,0.8436575,-0.078355,0.624742,1.0377775,-0.065515,1.254312,1.0759775,-0.144845,0.918292,-0.0003894999999999,-0.0024649999999999,1.081708,0.0003895,0.0024649999999999,0.849592,-0.5925925,0.0275679999999999,1.160222,-0.5804925,0.0110419999999999,0.784922,-1.0105325,-0.0290949999999999,1.193412,-0.9550425,0.048578
171,1.0028925,0.7631255,0.053494,0.8323825,0.5795955,0.0267759999999999,0.7001025000000001,0.8117955,-0.0209,1.1504425,0.6206755,0.030895,1.2368725,0.8416555,-0.07526,0.6256125,1.0373655,-0.0602999999999999,1.2541225,1.0765654999999998,-0.14047,0.9184325,-0.0002684999999999,-0.00246,1.0815675,0.0002684999999999,0.00246,0.8500925,-0.5924745,0.0278999999999999,1.1607025,-0.5815545,0.011077,0.7853525,-1.0108445,-0.03078,1.1938625,-0.9553245,0.047397
172,1.0032445,0.7629710000000001,0.056011,0.8322105000000001,0.5808610000000001,0.0295629999999999,0.7000005,0.8111409999999999,-0.01804,1.1505505,0.619791,0.0328499999999999,1.2368805,0.8393010000000001,-0.07156,0.6261505,1.036321,-0.05619,1.2540605,1.076921,-0.13672,0.9185405,-0.000144,-0.0024399999999999,1.0814595,0.0001439999999999,0.0024399999999999,0.8504905,-0.592349,0.028154,1.1611805,-0.582689,0.0111549999999999,0.7857405,-1.011189,-0.03268,1.1942205,-0.955449,0.0458979999999999
173,1.0035075,0.755247,0.0593229999999999,0.8310945000000001,0.577217,0.0363149999999999,0.6971445000000001,0.812677,-0.012173,1.1500445,0.613927,0.0358109999999999,1.2364445,0.8339669999999999,-0.070133,0.6267345,1.043967,-0.051663,1.2510945,1.076567,-0.131553,0.9191445,-0.00123,-0.001863,1.0808555,0.0012299999999999,0.0018629999999999,0.8510945,-0.593623,0.0280139999999999,1.1601445,-0.5900430000000001,0.0087269999999999,0.7850645,-1.019193,-0.038813,1.1932545,-0.963313,0.0413849999999999
174,1.004492,0.7562395,0.0606525,0.8315870000000001,0.5805994999999999,0.0372795,0.6944870000000001,0.8211594999999999,-0.0127674999999999,1.148767,0.6125094999999999,0.0397825,1.237117,0.8342395,-0.0682275,0.6272870000000002,1.0459295,-0.0468675,1.251837,1.0790295,-0.1276375,0.919037,-0.0009254999999999,-0.0016824999999999,1.080963,0.0009255,0.0016825,0.8518970000000001,-0.5934305,0.0279935,1.161417,-0.5910105,0.0167515,0.785977,-1.0186405,-0.0407074999999999,1.194587,-0.9612305,0.0403965
175,1.004869,0.7595285,0.062747,0.8318670000000001,0.5851785,0.0368049999999999,0.697127,0.8125285,-0.009535,1.149537,0.6118485,0.0398039999999999,1.237777,0.8371185,-0.068615,0.6270570000000001,1.0516285,-0.044885,1.252717,1.0833285,-0.128375,0.918607,0.0003345,-0.003299,1.081393,-0.0003345,0.0032989999999999,0.8520470000000001,-0.5921115,0.0270209999999999,1.163437,-0.5922915,0.0151489999999999,0.786637,-1.0152015,-0.044255,1.185487,-1.0053115,0.0555589999999999
176,1.003882,0.7600385,0.0635469999999999,0.831681,0.5820985,0.0379349999999999,0.696841,0.8128385,-0.0108879999999999,1.149981,0.6149285,0.041073,1.238081,0.8263785,-0.058778,0.6148910000000001,1.0193585,-0.045768,1.2554910000000001,1.0744585,-0.125888,0.918491,9.849999999999444e-05,-0.0033159999999999,1.081509,-9.850000000000136e-05,0.0033159999999999,0.851471,-0.5922015,0.0274459999999999,1.163671,-0.5921615,0.01378,0.787971,-1.0178515,-0.045888,1.199151,-0.9547015,0.04252
177,1.003166,0.762181,0.0626594999999999,0.8327470000000001,0.579681,0.0355505,0.696727,0.811961,-0.0116875,1.150927,0.6159410000000001,0.0410744999999999,1.238647,0.829481,-0.0607775,0.616087,1.018771,-0.0486775,1.2553269999999999,1.078171,-0.1264675,0.918307,-0.0001399999999999,-0.0030585,1.081693,0.00014,0.0030584999999999,0.851297,-0.5925389999999999,0.0265854999999999,1.164637,-0.591579,0.0121985,0.7866770000000001,-1.012279,-0.0455175,1.197757,-0.953419,0.0387024999999999
178,1.0043515,0.7620695000000001,0.0627104999999999,0.8317425,0.5838595000000001,0.0375154999999999,0.7059425000000001,0.7765995,-0.0045245,1.1510925,0.6167895,0.0418844999999999,1.2389025,0.8273695000000001,-0.0593645,0.6293225,0.9844295,-0.0469845,1.2555525,1.0775295,-0.1259245,0.9180225,0.0002474999999999,-0.0038135,1.0819775,-0.0002475,0.0038134999999999,0.8510325,-0.5921004999999999,0.0261024999999999,1.1641325,-0.5888705,0.0113494999999999,0.7866525,-1.0116005,-0.0472245,1.1973425,-0.9532105,0.0364424999999999
179,1.0034459999999998,0.76467,0.064192,0.830908,0.58607,0.037416,0.7006680000000001,0.7905,-0.0074009999999999,1.151578,0.61648,0.041019,1.238998,0.8256600000000001,-0.0586099999999999,0.623668,0.99789,-0.0513899999999999,1.255978,1.07719,-0.12558,0.9178580000000001,0.000278,-0.0046649999999999,1.082142,-0.000278,0.004665,0.850638,-0.59195,0.025865,1.164038,-0.58798,0.009563,0.786648,-1.01207,-0.0501899999999999,1.1963879999999998,-0.95297,0.033095
