sb224sc-HT22-VT27/4dt907/src/data/kinect_good_preprocessed_A9_mediapipe/A98_kinect_mirrored.csv
FrameNo,nose_3d_x,nose_3d_y,nose_3d_z,left_shoulder_3d_x,left_shoulder_3d_y,left_shoulder_3d_z,left_elbow_3d_x,left_elbow_3d_y,left_elbow_3d_z,right_shoulder_3d_x,right_shoulder_3d_y,right_shoulder_3d_z,right_elbow_3d_x,right_elbow_3d_y,right_elbow_3d_z,left_wrist_3d_x,left_wrist_3d_y,left_wrist_3d_z,right_wrist_3d_x,right_wrist_3d_y,right_wrist_3d_z,left_hip_3d_x,left_hip_3d_y,left_hip_3d_z,right_hip_3d_x,right_hip_3d_y,right_hip_3d_z,left_knee_3d_x,left_knee_3d_y,left_knee_3d_z,right_knee_3d_x,right_knee_3d_y,right_knee_3d_z,left_ankle_3d_x,left_ankle_3d_y,left_ankle_3d_z,right_ankle_3d_x,right_ankle_3d_y,right_ankle_3d_z
0,1.034192,0.7712549999999999,0.1195249999999999,0.826703,0.5640149999999999,0.114706,0.698643,0.800095,0.057845,1.190883,0.577375,0.103125,1.2799129999999999,0.8099649999999999,0.017581,0.667833,1.032215,-0.0329709999999999,1.280273,1.076915,-0.0444349999999999,0.921551,-0.001167,-0.001117,1.078449,0.001167,0.001117,0.865193,-0.514375,0.034382,1.129953,-0.472995,-0.013835,0.841943,-0.909065,0.023465,1.138443,-0.856835,0.014746
1,1.0341765,0.7712615,0.1193684999999999,0.8266945,0.5641415000000001,0.1145925,0.6985445,0.8001515,0.0572594999999999,1.1909144999999999,0.5778615,0.1031864999999999,1.2798245,0.8099915,0.0173224999999999,0.6679345,1.0321815,-0.0335275,1.2804645,1.0765815,-0.0454825,0.9215805,-0.0012715,-0.0010375,1.0784195,0.0012715,0.0010374999999999,0.8650445,-0.5144985,0.0341974999999999,1.1301545,-0.4716185,-0.0145405,0.8422445000000001,-0.9109285,0.0216634999999999,1.1382945,-0.8577184999999999,0.0145714999999999
2,1.0342115,0.771164,0.1192705,0.8266085,0.564034,0.1144205,0.6983785,0.799964,0.0567405,1.1909285,0.577814,0.1031455,1.2798985,0.809884,0.0172705,0.6679485000000001,1.032194,-0.0339545,1.2806185,1.076294,-0.0456894999999999,0.9216115,-0.000984,-0.0011535,1.0783885,0.000984,0.0011535,0.8650385,-0.514136,0.0345445,1.1302485,-0.4716059999999999,-0.0147055,0.8423285,-0.910096,0.0237085,1.1381185,-0.859686,0.0147564999999999
3,1.034178,0.7713085000000001,0.1191685,0.826269,0.5641585,0.1141975,0.698179,0.8000685000000001,0.0564915,1.190939,0.5780585,0.1032825,1.279839,0.8096985,0.0172525,0.6677489999999999,1.0330285,-0.0353644999999999,1.280559,1.0764285,-0.0458714999999999,0.921596,-0.0008845,-0.0013014999999999,1.078404,0.0008845,0.0013015,0.864769,-0.5140115,0.0344095,1.131079,-0.5023915,-0.0092854999999999,0.842479,-0.9117315,0.0243385,1.137039,-0.8625915,0.0129095
4,1.034133,0.7714005,0.1190515,0.8262430000000001,0.5640905,0.1141095,0.697973,0.8001105000000001,0.0561035,1.190903,0.5782105000000001,0.1032635,1.279893,0.8098505,0.0171445,0.6675230000000001,1.0328405,-0.0362285,1.280703,1.0764405,-0.0462215,0.921561,-0.0008265,-0.0013564999999999,1.078439,0.0008265,0.0013565,0.864133,-0.5139294999999999,0.0340555,1.130223,-0.4810795,-0.0136004999999999,0.841653,-0.9069395,0.0273255,1.137083,-0.8625195,0.0128785
5,1.034144,0.7714885,0.118968,0.8261499999999999,0.5641085,0.113999,0.6978200000000001,0.7999785,0.0559459999999999,1.1908,0.5782285,0.103307,1.27992,0.8099285,0.017085,0.6674100000000001,1.0334285,-0.036975,1.28085,1.0761284999999998,-0.046567,0.9215510000000001,-0.0009525,-0.0013309999999999,1.078449,0.0009525,0.0013309999999999,0.86423,-0.5140615,0.034129,1.13042,-0.4796215,-0.013712,0.8404,-0.9069315,0.023576,1.13884,-0.8564014999999999,0.0151199999999999
6,1.034293,0.7716215,0.1185865,0.825875,0.5640515,0.1134795,0.697595,0.7998015,0.0554674999999999,1.190885,0.5785115,0.1032145,1.279995,0.8099715,0.0168084999999999,0.667285,1.0336515,-0.0376805,1.281455,1.0769515,-0.0476515,0.921529,-0.0011185,-0.0011295,1.078471,0.0011185,0.0011294999999999,0.864375,-0.5143584999999999,0.0335464999999999,1.130675,-0.4793385,-0.0138955,0.8421850000000001,-0.9069085,0.0257344999999999,1.138775,-0.8685485,0.0047944999999999
7,1.034171,0.771519,0.118491,0.825914,0.564179,0.113413,0.6974640000000001,0.7998789999999999,0.054909,1.190944,0.5785589999999999,0.102924,1.279984,0.809989,0.016408,0.667294,1.033409,-0.037895,1.281184,1.076609,-0.048139,0.9215250000000001,-0.00105,-0.0011249999999999,1.0784749999999999,0.00105,0.001125,0.864484,-0.5142310000000001,0.033973,1.131064,-0.480941,-0.0132239999999999,0.8417940000000002,-0.908651,0.023042,1.138824,-0.861221,0.012285
8,1.0341615,0.7715135,0.1182749999999999,0.8258415,0.5641735,0.1132,0.6972915,0.7998734999999999,0.0544059999999999,1.1909515,0.5786235,0.102776,1.2800115,0.8099835,0.01604,0.6672015,1.0335035,-0.038588,1.2812415,1.0766035,-0.049036,0.9215195,-0.0010445,-0.00109,1.0784805,0.0010444999999999,0.00109,0.8644515,-0.5142165000000001,0.033907,1.1312515,-0.4809865,-0.013064,0.8418915,-0.9084465,0.023226,1.1388515,-0.8612265,0.012218
9,1.0341459999999998,0.7717045,0.117672,0.8257829999999999,0.5643644999999999,0.112737,0.697103,0.7994545,0.053576,1.190973,0.5789245,0.102444,1.280083,0.8096544999999999,0.015283,0.667003,1.0332045,-0.0398959999999999,1.281293,1.0763045,-0.0505779999999999,0.921504,-0.0010475,-0.001034,1.078496,0.0010475,0.001034,0.8645030000000001,-0.5142455,0.033984,1.131433,-0.4819355,-0.0129379999999999,0.841993,-0.9085755,0.023475,1.138923,-0.8616655,0.012142
10,1.034109,0.771912,0.117022,0.825717,0.564602,0.112207,0.6968970000000001,0.799042,0.0526279999999999,1.190977,0.5792320000000001,0.102074,1.280217,0.809292,0.0143789999999999,0.666767,1.032652,-0.041405,1.281317,1.075852,-0.052362,0.921485,-0.001095,-0.001001,1.078515,0.001095,0.0010009999999999,0.864527,-0.514338,0.0340009999999999,1.131557,-0.482788,-0.013005,0.841897,-0.908688,0.0231259999999999,1.139027,-0.861848,0.0120179999999999
11,1.0340675,0.7720465,0.116268,0.8256615,0.5648765,0.11169,0.6966315000000001,0.7985064999999999,0.051479,1.1909815,0.5794665,0.101659,1.2804515,0.8090164999999999,0.013253,0.6664815,1.0318165,-0.043054,1.2813015,1.0751165,-0.054476,0.9214535000000001,-0.0011385,-0.0009699999999999,1.0785464999999999,0.0011385,0.0009699999999999,0.8645415000000001,-0.5144535,0.033945,1.1316614999999999,-0.4824035,-0.0133729999999999,0.8418415000000001,-0.9084635,0.022556,1.1391715,-0.8616535000000001,0.012104
12,1.0340155,0.772129,0.115373,0.8256055,0.565269,0.111065,0.6963355,0.797969,0.050156,1.1910055,0.579399,0.101183,1.2807555,0.808219,0.011712,0.6660855,1.031079,-0.045086,1.2812554999999999,1.074279,-0.0574399999999999,0.9214154999999999,-0.001187,-0.0009169999999999,1.0785845,0.001187,0.000917,0.8645955,-0.514611,0.033865,1.1317955,-0.482871,-0.0134589999999999,0.8418555,-0.908551,0.021618,1.1393355,-0.861321,0.012239
13,1.03399,0.7720815,0.114296,0.825605,0.5658415,0.110399,0.696035,0.7973415,0.048464,1.191095,0.5792915000000001,0.100652,1.2811949999999999,0.8075215,0.009875,0.665555,1.0303715,-0.047531,1.281285,1.0735715,-0.061145,0.921343,-0.0012144999999999,-0.0008659999999999,1.078657,0.0012144999999999,0.0008659999999999,0.864725,-0.5147885,0.033662,1.132025,-0.4834084999999999,-0.013573,0.842035,-0.9087585,0.020927,1.139515,-0.8619285,0.012166
14,1.0338115,0.7721705,0.112735,0.8255605,0.5664505000000001,0.109558,0.6956905000000001,0.7966805,0.046489,1.1911205,0.5791405000000001,0.09991,1.2817805,0.8068805,0.007233,0.6647805000000001,1.0297505,-0.050787,1.2814105,1.0727505,-0.065633,0.9212705,-0.0012125,-0.0008079999999999,1.0787295,0.0012125,0.000808,0.8648405,-0.5149395,0.033426,1.1322905,-0.4847295,-0.0137149999999999,0.8421105,-0.9085395,0.020437,1.1396804999999999,-0.8615995,0.012527
15,1.033557,0.772227,0.110765,0.82556,0.567027,0.1085619999999999,0.6952400000000001,0.796087,0.04409,1.1909399999999999,0.578797,0.0987339999999999,1.28246,0.8061269999999999,0.004144,0.66393,1.028987,-0.054678,1.2817,1.071987,-0.071542,0.921171,-0.00121,-0.000701,1.078829,0.0012099999999999,0.000701,0.86504,-0.515113,0.033121,1.13258,-0.485193,-0.014279,0.84224,-0.908253,0.019827,1.1399,-0.861553,0.01251
16,1.0330785,0.7725110000000001,0.108204,0.8256425000000001,0.567751,0.1074779999999999,0.6945525,0.795631,0.041154,1.1906824999999999,0.578461,0.097274,1.2831925,0.8048810000000001,0.0005039999999999,0.6629325000000001,1.028061,-0.059341,1.2821425,1.0710609999999998,-0.07854,0.9210695,-0.001216,-0.000569,1.0789305,0.001216,0.000569,0.8652725,-0.5153289999999999,0.032671,1.1329025,-0.485639,-0.014799,0.8425425,-0.907549,0.019298,1.1401124999999999,-0.8612489999999999,0.012456
17,1.032382,0.7728775,0.105234,0.825583,0.5686175,0.106072,0.693523,0.7953975,0.037652,1.190263,0.5783275,0.095486,1.283983,0.8036975000000001,-0.0038609999999999,0.661573,1.0253275,-0.064669,1.282653,1.0698275,-0.0862769999999999,0.920956,-0.0011765,-0.000439,1.0790440000000001,0.0011764999999999,0.000439,0.865453,-0.5154825,0.032089,1.133143,-0.4864524999999999,-0.0152329999999999,0.842983,-0.9067225,0.019005,1.1403329999999998,-0.8607425,0.012369
18,1.0313679999999998,0.7728775,0.101716,0.825442,0.5686175,0.104407,0.692392,0.7952375,0.0337439999999999,1.189642,0.5783075,0.093442,1.284812,0.8022075000000001,-0.008629,0.660092,1.0226274999999998,-0.070112,1.283252,1.0678275,-0.094972,0.92084,-0.0011765,-0.000292,1.07916,0.0011764999999999,0.000292,0.865622,-0.5151924999999999,0.031382,1.133362,-0.4874825,-0.015756,0.8435720000000001,-0.9064725,0.018906,1.140502,-0.8607425,0.0119149999999999
19,1.0298485,0.7728775,0.0971735,0.8253145,0.5686175,0.1026995,0.6911445,0.7949875000000001,0.0292075,1.1887444999999999,0.5781975,0.0907615,1.2855745,0.8004275000000001,-0.0140145,0.6583345,1.0196275,-0.0767815,1.2836245,1.0654275,-0.1044615,0.9206995,-0.0011765,-0.0001334999999999,1.0793005,0.0011764999999999,0.0001335,0.8657945000000001,-0.5150224999999999,0.0304695,1.1335945,-0.4888625,-0.0164645,0.8441145,-0.9062125,0.0184145,1.1406545,-0.8607425,0.0113885
20,1.0281159999999998,0.7728775,0.091881,0.825188,0.5686175,0.100344,0.689998,0.7946775,0.024145,1.1876879999999999,0.5778275,0.087499,1.286448,0.7986375,-0.02021,0.656668,1.0166275,-0.084067,1.283898,1.0628274999999998,-0.1141869999999999,0.920557,-0.0011765,-1.6999999999999654e-05,1.079443,0.0011764999999999,1.6999999999999654e-05,0.866048,-0.5150224999999999,0.029344,1.133888,-0.4899125,-0.017614,0.8444579999999999,-0.9062125,0.017496,1.140888,-0.8607425,0.010746
21,1.0260835,0.773245,0.0851275,0.8250985,0.569395,0.0966865,0.6885985,0.7943549999999999,0.0176725,1.1863485,0.576965,0.0828885,1.2872584999999999,0.7968149999999999,-0.0279145,0.6548085,1.013335,-0.0930335,1.2840185,1.059835,-0.1251535,0.9203715000000001,-0.001116,0.0001045,1.0796284999999999,0.0011159999999999,-0.0001045,0.8663784999999999,-0.514735,0.0273715,1.1342685000000001,-0.490035,-0.0193095,0.8449985,-0.904555,0.0166785,1.1411385,-0.860515,0.0097695
22,1.0239539999999998,0.7737055,0.077795,0.825025,0.5702855,0.092707,0.687085,0.7940055,0.0108169999999999,1.184825,0.5761555,0.077695,1.287995,0.7948555,-0.036277,0.6530750000000001,1.0102555,-0.102487,1.283915,1.0569555,-0.136677,0.920199,-0.0010255,0.0002179999999999,1.079801,0.0010255,-0.000218,0.8667050000000001,-0.5144545,0.0251619999999999,1.134675,-0.4903245,-0.02104,0.845585,-0.9032645,0.0153989999999999,1.141345,-0.8602044999999999,0.0085459999999999
23,1.0216575,0.7741415,0.069215,0.8249305,0.5714015,0.088495,0.6854104999999999,0.7934615,0.0025129999999999,1.1831505,0.5752615,0.071343,1.2884905,0.7926815,-0.045609,0.6512405,1.0074615,-0.11314,1.2835705,1.0535615,-0.15001,0.9199535000000001,-0.0009435,0.0003739999999999,1.0800465,0.0009435,-0.0003739999999999,0.8668605,-0.5137885,0.022157,1.1349805,-0.4904585,-0.0239519999999999,0.8460005000000002,-0.9016985,0.0139669999999999,1.1413605,-0.8603685,0.007171
24,1.0192255,0.774437,0.0601975,0.8245995,0.572277,0.0828764999999999,0.6836795,0.792707,-0.0066294999999999,1.1816295,0.574647,0.0645335,1.2887995,0.7910670000000001,-0.0556025,0.6493595,1.004537,-0.1243595,1.2832895,1.050337,-0.1628494999999999,0.9196945,-0.000889,0.0005485,1.0803055,0.0008889999999999,-0.0005484999999999,0.8669895000000001,-0.512033,0.0186415,1.1353895,-0.490193,-0.0276775,0.8464695,-0.8998229999999999,0.0128285,1.1413294999999999,-0.860653,0.0056015
25,1.0166405,0.7744449999999999,0.050625,0.8240485,0.572605,0.076128,0.6819785,0.791975,-0.016277,1.1800085,0.574085,0.05711,1.2891085,0.789995,-0.0667,0.6475185,1.001535,-0.136509,1.2829285000000001,1.046955,-0.176059,0.9193975,-0.0008749999999999,0.0007549999999999,1.0806025,0.0008749999999999,-0.0007549999999999,0.8670685,-0.510385,0.0145849999999999,1.1357385,-0.489155,-0.031791,0.8472085,-0.897805,0.0122309999999999,1.1413585,-0.860625,0.0034399999999999
26,1.014046,0.7741895,0.0406915,0.823474,0.5728694999999999,0.0690415,0.6803940000000002,0.7909394999999999,-0.0266175,1.178504,0.5737295,0.0499015,1.2892839999999999,0.7886595,-0.0778755,0.6457040000000001,1.0000595,-0.1494355,1.282324,1.0436295,-0.1895655,0.919113,-0.0008615,0.0009995,1.080887,0.0008615,-0.0009995,0.867094,-0.5086905,0.0099724999999999,1.136074,-0.4869805,-0.0362025,0.848024,-0.8957005,0.0116234999999999,1.141364,-0.8604905,0.0013115
27,1.0114645,0.773713,0.03049,0.8228235,0.5730230000000001,0.0614109999999999,0.6786835,0.789813,-0.037649,1.1769335,0.572683,0.041453,1.2893435,0.787143,-0.089733,0.6436135000000001,0.996063,-0.163013,1.2813634999999999,1.040863,-0.2038529999999999,0.9187875000000001,-0.0008999999999999,0.0013249999999999,1.0812125,0.0008999999999999,-0.0013249999999999,0.8669235,-0.506687,0.0042139999999999,1.1363735,-0.484447,-0.041061,0.8486635000000001,-0.893307,0.010492,1.1414235,-0.8598669999999999,-0.0007769999999999
28,1.009167,0.773161,0.0201625,0.8220430000000001,0.5730109999999999,0.0527675,0.676983,0.788701,-0.0490935,1.175593,0.5717409999999999,0.0326375,1.290203,0.784721,-0.1029605,0.641733,0.992951,-0.1768805,1.280103,1.038491,-0.2186505,0.918417,-0.00093,0.0017045,1.081583,0.00093,-0.0017044999999999,0.8667730000000001,-0.504179,-0.0018355,1.136813,-0.481419,-0.0468235,0.849333,-0.890279,0.0092335,1.141563,-0.858959,-0.0032454999999999
29,1.0068845,0.771954,0.0092614999999999,0.8212505,0.572994,0.0441275,0.6752505,0.785864,-0.0613234999999999,1.1743705,0.5705840000000001,0.0234935,1.2902304999999998,0.781814,-0.1162765,0.6397805,0.989614,-0.1915565,1.2786304999999998,1.035614,-0.2346665,0.9180365,-0.000935,0.0020885,1.0819635,0.000935,-0.0020885,0.8666205000000001,-0.5014959999999999,-0.0080325,1.1373005,-0.478056,-0.0528525,0.8499405000000001,-0.8875759999999999,0.0076084999999999,1.1417405,-0.857846,-0.0056865
30,1.004885,0.770705,-0.0014745,0.820416,0.572495,0.0351465,0.673766,0.783135,-0.0731185,1.173206,0.569535,0.0141584999999999,1.289946,0.778815,-0.1294815,0.6379159999999999,0.986815,-0.2068315,1.277006,1.032685,-0.2511915,0.9176400000000001,-0.0008769999999999,0.0023835,1.08236,0.0008769999999999,-0.0023835,0.866466,-0.498255,-0.0143365,1.137906,-0.473275,-0.0594085,0.850536,-0.884265,0.0056564999999999,1.1419959999999998,-0.855815,-0.0082525
31,1.0028105,0.7688235,-0.0130685,0.8194825,0.5718135,0.0255145,0.6723224999999999,0.7799435,-0.0858975,1.1720825,0.5682735,0.0043734999999999,1.2895725,0.7753435,-0.1440075,0.6356925,0.9835735,-0.2237775,1.2753225,1.0276335,-0.2689475,0.9172525,-0.0008385,0.0027335,1.0827475,0.0008384999999999,-0.0027335,0.8662825000000001,-0.4945065,-0.0210185,1.1384825,-0.4685865,-0.0665585,0.8511225,-0.8805665,0.0037865,1.1423125,-0.8533465,-0.0108375
32,1.0009169999999998,0.766829,-0.0244334999999999,0.818616,0.570789,0.0151285,0.6709160000000001,0.776709,-0.0986245,1.171096,0.567049,-0.0052415,1.289266,0.772449,-0.1577744999999999,0.6336660000000001,0.980039,-0.2405844999999999,1.273816,1.021639,-0.2861545,0.916826,-0.000827,0.0030395,1.083174,0.000827,-0.0030395,0.8662560000000001,-0.490441,-0.0274775,1.139116,-0.4638009999999999,-0.0731385,0.851566,-0.876861,0.0011485,1.142826,-0.849691,-0.0135885
33,0.9992400000000001,0.7641635,-0.037261,0.8179810000000001,0.5698835,0.005101,0.6697310000000001,0.7729435,-0.1120699999999999,1.170121,0.5654735000000001,-0.015285,1.288691,0.7694035,-0.17268,0.631751,0.9762535,-0.2591799999999999,1.272451,1.0148635,-0.30439,0.916422,-0.0007534999999999,0.003268,1.083578,0.0007535,-0.003268,0.866331,-0.4861964999999999,-0.034121,1.139871,-0.4587164999999999,-0.0794619999999999,0.852051,-0.8724664999999999,-0.0017499999999999,1.143501,-0.8453164999999999,-0.016655
34,0.9979050000000002,0.7617615,-0.050041,0.817559,0.5689814999999999,-0.004898,0.668749,0.7685615,-0.125971,1.169179,0.5634515,-0.025847,1.287969,0.7659015,-0.187811,0.630109,0.9676915,-0.276981,1.2711890000000001,1.0068515,-0.324311,0.9160010000000001,-0.0006574999999999,0.003402,1.083999,0.0006575,-0.0034019999999999,0.866549,-0.4815784999999999,-0.0405989999999999,1.140669,-0.4533485,-0.086076,0.8526190000000001,-0.8681385,-0.005114,1.144319,-0.8401585,-0.019591
35,0.9964625,0.7591755,-0.0638005,0.8172755,0.5678255,-0.0152675,0.6680355,0.7638054999999999,-0.1400205,1.1681854999999999,0.5610855,-0.0374845,1.2870854999999999,0.7621855,-0.2039405,0.6286655,0.9598055,-0.2948405,1.2699555,0.9978655,-0.3450805,0.9155455,-0.0005935,0.0035304999999999,1.0844545,0.0005934999999999,-0.0035305,0.8668955,-0.4763645000000001,-0.0469385,1.1415454999999999,-0.4475145,-0.0928105,0.8535355,-0.8632245000000001,-0.0087625,1.1452555,-0.8347745000000001,-0.0228235
36,0.995325,0.7565069999999999,-0.0778005,0.817164,0.5663469999999999,-0.0259255,0.667544,0.7587969999999999,-0.1542735,1.167084,0.559167,-0.0486215,1.286024,0.7583869999999999,-0.2201135,0.6276539999999999,0.953567,-0.3134135,1.2688139999999999,0.988707,-0.3652235,0.9150739999999999,-0.000502,0.0035655,1.084926,0.000502,-0.0035654999999999,0.867494,-0.471173,-0.0526994999999999,1.142374,-0.441753,-0.0996835,0.854394,-0.858423,-0.0130475,1.146304,-0.8290430000000001,-0.0263104999999999
37,0.9943455000000001,0.7535975,-0.0920175,0.8171984999999999,0.5648975,-0.0364225,0.6671885,0.7532275,-0.1687074999999999,1.1658385,0.5567675,-0.0596635,1.2849385,0.7549975,-0.2360374999999999,0.6267785,0.9457475,-0.3316575,1.2675385000000001,0.9785175,-0.3859975,0.9146585,-0.0003475,0.0036065,1.0853415,0.0003475,-0.0036064999999999,0.8681685,-0.4659925,-0.0586475,1.1431585,-0.4359024999999999,-0.1058675,0.8553085,-0.8534525,-0.0171245,1.1473785,-0.8230425,-0.0294965
38,0.993137,0.7505655,-0.1067935,0.817338,0.5629355,-0.0479305,0.666938,0.7475555,-0.1830935,1.164208,0.5549055,-0.0713184999999999,1.283108,0.7506055,-0.2529635,0.6258779999999999,0.9365855,-0.3510835,1.2659479999999999,0.9676655,-0.4078035,0.9142780000000001,-0.0002665,0.0036344999999999,1.0857219999999999,0.0002664999999999,-0.0036344999999999,0.868768,-0.4587245,-0.0663245,1.143958,-0.4280445,-0.1130235,0.8562879999999999,-0.8469145,-0.0222365,1.148738,-0.8153045,-0.0337495
39,0.991781,0.7474105000000001,-0.120984,0.817477,0.5609705,-0.058598,0.666657,0.7416805000000001,-0.198414,1.162667,0.5515505,-0.082611,1.281267,0.7458805000000001,-0.269314,0.625047,0.9259605,-0.369494,1.264227,0.9565405,-0.428784,0.913937,-0.0003854999999999,0.003735,1.086063,0.0003855,-0.003735,0.869297,-0.4518795,-0.073528,1.144687,-0.4202795,-0.119504,0.856997,-0.8398095,-0.026875,1.149917,-0.8075595,-0.037728
40,0.9906585,0.7444655,-0.134586,0.8179275,0.5591055,-0.069221,0.6667175000000001,0.7357155,-0.212886,1.1612575,0.5486355,-0.093573,1.2783674999999999,0.7417055,-0.284566,0.6245674999999999,0.9154755,-0.386576,1.2626675,0.9470455,-0.4488959999999999,0.9136075,-0.0004735,0.003772,1.0863925,0.0004735,-0.0037719999999999,0.8698375,-0.4445345,-0.081436,1.1455375,-0.4126444999999999,-0.125836,0.8577075000000001,-0.8322545,-0.031604,1.1511575,-0.7990645000000001,-0.041908
41,0.9895245000000001,0.740281,-0.148613,0.8182545,0.556341,-0.079948,0.6665445,0.729291,-0.227113,1.1598745,0.546511,-0.103588,1.2759744999999998,0.7358709999999999,-0.300693,0.6240745,0.902211,-0.4030729999999999,1.2611945,0.939141,-0.469503,0.9133344999999999,-0.0006189999999999,0.0039169999999999,1.0866655,0.000619,-0.0039169999999999,0.8702445,-0.437309,-0.089175,1.1463145,-0.405209,-0.132683,0.8583145,-0.824689,-0.03614,1.1520645,-0.790909,-0.045929
42,0.98846,0.7376699999999999,-0.161133,0.818651,0.55349,-0.090427,0.6665110000000001,0.72327,-0.240593,1.158221,0.54254,-0.114743,1.274241,0.72959,-0.315663,0.6239510000000001,0.88949,-0.417633,1.260011,0.93205,-0.490053,0.9130510000000001,-0.00073,0.004061,1.086949,0.0007299999999999,-0.0040609999999999,0.8704810000000001,-0.42935,-0.097448,1.146951,-0.39748,-0.139463,0.858921,-0.81652,-0.0411949999999999,1.153121,-0.78196,-0.050002
43,0.9874045,0.7348399999999999,-0.174055,0.8188115,0.5506,-0.100702,0.6663915,0.7177,-0.253965,1.1567115000000001,0.53918,-0.125195,1.2727215,0.72324,-0.330055,0.6237015,0.8814099999999999,-0.433545,1.2593614999999998,0.92475,-0.508915,0.9127815,-0.00081,0.0043199999999999,1.0872185,0.0008099999999999,-0.00432,0.8706214999999999,-0.41803,-0.105701,1.1475515,-0.3862,-0.146305,0.8591015000000001,-0.80647,-0.047004,1.1542615,-0.7722,-0.054471
44,0.9867955,0.73156,-0.186248,0.8190695,0.54737,-0.110901,0.6664895,0.7104999999999999,-0.266408,1.1553095,0.53572,-0.135098,1.2715795,0.71648,-0.343878,0.6234495,0.8724099999999999,-0.451118,1.2589695,0.91762,-0.527208,0.9124795,-0.0008299999999999,0.004588,1.0875205000000001,0.00083,-0.004588,0.8705595,-0.4062699999999999,-0.114418,1.1481195,-0.3745799999999999,-0.153438,0.8591895,-0.7959099999999999,-0.052646,1.1553495,-0.7621199999999999,-0.059279
45,0.9861335000000001,0.728885,-0.20229,0.8191865,0.5447249999999999,-0.12491,0.6664865000000001,0.704045,-0.28288,1.1540765,0.533045,-0.14876,1.2707665000000001,0.709625,-0.36121,0.6231565,0.8646750000000001,-0.47214,1.2584365,0.909135,-0.54961,0.9125065,-0.000805,0.004725,1.0874935,0.000805,-0.004725,0.8702165,-0.393615,-0.12789,1.1485265,-0.362265,-0.16458,0.8588065000000001,-0.784575,-0.06295,1.1561765,-0.7511049999999999,-0.068679
46,0.9855245000000001,0.72902,-0.21921,0.8190405000000001,0.5423100000000001,-0.14006,0.6663105,0.7003300000000001,-0.30072,1.1523705,0.5308,-0.16374,1.2696105,0.7055,-0.37879,0.6225905,0.85937,-0.49458,1.2578105,0.9018,-0.57255,0.9126105,-0.0008199999999999,0.004896,1.0873895,0.00082,-0.004896,0.8674005,-0.3743399999999999,-0.15275,1.1502005,-0.3474099999999999,-0.18373,0.8571005,-0.77043,-0.082158,1.1577705,-0.7409299999999999,-0.083886
47,0.985242,0.7288250000000001,-0.23506,0.8190680000000001,0.539245,-0.15375,0.666068,0.697765,-0.31751,1.151048,0.5287649999999999,-0.17737,1.269018,0.7015549999999999,-0.39473,0.622118,0.8537950000000001,-0.51544,1.257188,0.894015,-0.59327,0.9126680000000001,-0.000905,0.0050559999999999,1.087332,0.0009049999999999,-0.005056,0.864338,-0.359835,-0.17608,1.152108,-0.334715,-0.20209,0.855278,-0.758105,-0.099534,1.158678,-0.727905,-0.094081
48,0.9850165000000001,0.7275900000000001,-0.25054,0.8192335,0.5372,-0.16705,0.6661035,0.69501,-0.33335,1.1497735,0.52798,-0.19026,1.2687335,0.69793,-0.40988,0.6219535,0.8467,-0.53471,1.2569035,0.88658,-0.61307,0.9127435,-0.0007399999999999,0.005191,1.0872565,0.00074,-0.005191,0.8611535,-0.34494,-0.19983,1.1544735,-0.3216,-0.22115,0.8532935,-0.7453,-0.117139,1.1596035,-0.7145699999999999,-0.104282
49,0.9848395000000001,0.7266949999999999,-0.265164,0.8195075,0.534815,-0.179994,0.6661575,0.6906749999999999,-0.3490839999999999,1.1485775,0.526485,-0.202794,1.2686175,0.6905749999999999,-0.423834,0.6218075000000001,0.838735,-0.553214,1.2571875000000001,0.8788050000000001,-0.631974,0.9128275,-0.000565,0.0052419999999999,1.0871725,0.0005649999999999,-0.005242,0.8579475000000001,-0.329875,-0.222304,1.1572675000000001,-0.308375,-0.240264,0.8510375,-0.7321550000000001,-0.134376,1.1605174999999999,-0.701095,-0.114163
50,0.984833,0.7267600000000001,-0.2783815,0.819994,0.53155,-0.1923415,0.666264,0.68758,-0.3634015,1.147624,0.5235,-0.2155615,1.268634,0.68529,-0.4365414999999999,0.622144,0.8333400000000001,-0.5707815,1.258384,0.86793,-0.6487615000000001,0.912914,-0.0004,0.0052374999999999,1.087086,0.0004,-0.0052374999999999,0.854434,-0.3136099999999999,-0.2447915,1.160394,-0.29335,-0.2593115,0.848674,-0.7200099999999999,-0.1509135,1.161474,-0.68538,-0.1238205
51,0.9852585,0.7260850000000001,-0.2912955,0.8207245000000001,0.5286649999999999,-0.2039055,0.6669445,0.684655,-0.3766555,1.1473645000000001,0.522105,-0.2262455,1.2690445000000001,0.680815,-0.4482955,0.6232245000000001,0.8285450000000001,-0.5888955,1.2601944999999999,0.8580749999999999,-0.6637955,0.9130445,-0.0001049999999999,0.0052055,1.0869555,0.000105,-0.0052055,0.8512245,-0.2979249999999999,-0.2663055,1.1641045,-0.278635,-0.2787555,0.8466345,-0.707975,-0.1675555,1.1624945,-0.670255,-0.1329945
52,0.9858355,0.72488,-0.3029334999999999,0.8215335,0.5262899999999999,-0.2145835,0.6688035,0.67936,-0.3891035,1.1473735,0.5212399999999999,-0.2362435,1.2697535,0.6754899999999999,-0.4592435,0.6249135,0.8228099999999999,-0.6047935,1.2625335,0.8481799999999999,-0.6775835,0.9132035000000001,9.999999999982244e-06,0.0050754999999999,1.0867965,-1.000000000001e-05,-0.0050754999999999,0.8479935000000001,-0.2833799999999999,-0.2879335,1.1678435,-0.26438,-0.2977935,0.8466635,-0.69393,-0.1754135,1.1637235,-0.65569,-0.1416895
53,0.9869535,0.72424,-0.313731,0.8226685,0.52413,-0.224801,0.6711485000000001,0.67645,-0.401671,1.1475685,0.51915,-0.246321,1.2708685,0.67127,-0.469161,0.6271885000000001,0.81647,-0.617631,1.2656785,0.83935,-0.6901109999999999,0.9133085,0.0002699999999999,0.0048089999999999,1.0866915,-0.0002699999999999,-0.004809,0.8450885,-0.26841,-0.308941,1.1718184999999999,-0.24961,-0.316851,0.8469885,-0.67906,-0.182791,1.1651385,-0.6410399999999999,-0.14991
54,0.9884395,0.7227950000000001,-0.3199075,0.8241255000000001,0.521245,-0.2302374999999999,0.6738055000000001,0.6724950000000001,-0.4086774999999999,1.1479755,0.5162450000000001,-0.2516775,1.2721955,0.667325,-0.4743075,0.6295155,0.8083750000000001,-0.6257975,1.2691655,0.831925,-0.6967175,0.9131454999999999,0.0005749999999999,0.0047394999999999,1.0868545,-0.0005749999999999,-0.0047394999999999,0.8424655,-0.253685,-0.3247575,1.1758855,-0.235145,-0.3316774999999999,0.8476755,-0.664685,-0.1850175,1.1665855,-0.6273249999999999,-0.1528985
55,0.9903345,0.71812,-0.324264,0.8256905,0.51721,-0.233974,0.6765605,0.66605,-0.413934,1.1488805,0.5136499999999999,-0.255184,1.2740605,0.65832,-0.477354,0.6326105,0.7977299999999999,-0.6311140000000001,1.2734005,0.82206,-0.701204,0.9128505,0.0008199999999999,0.0046409999999999,1.0871495,-0.0008199999999999,-0.004641,0.8420905,-0.24092,-0.329724,1.1789605,-0.22243,-0.339224,0.8487205,-0.65042,-0.185464,1.1677905,-0.61494,-0.153901
56,0.9923755000000001,0.714415,-0.327825,0.8272395,0.515065,-0.237535,0.6795795,0.6597850000000001,-0.419135,1.1498995,0.511555,-0.258495,1.2763295000000001,0.650015,-0.479925,0.6360395,0.788725,-0.635895,1.2779895,0.813465,-0.704975,0.9126995,0.0011049999999999,0.004515,1.0873005,-0.001105,-0.004515,0.8418795,-0.227905,-0.334625,1.1822395,-0.209415,-0.3464049999999999,0.8499395000000001,-0.635755,-0.185855,1.1690395,-0.601815,-0.154827
57,0.9944580000000001,0.7119150000000001,-0.330972,0.828827,0.511455,-0.241152,0.682527,0.653995,-0.423442,1.150857,0.508235,-0.261612,1.278607,0.641895,-0.482112,0.639267,0.7831250000000001,-0.641722,1.282667,0.804835,-0.7082620000000001,0.912617,0.001265,0.004416,1.087383,-0.001265,-0.004416,0.841357,-0.214455,-0.339952,1.185347,-0.195965,-0.353302,0.8511070000000001,-0.6209849999999999,-0.186362,1.170117,-0.588595,-0.156548
58,0.996684,0.7088399999999999,-0.3342905,0.8310109999999999,0.50745,-0.2446605,0.6857409999999999,0.6490199999999999,-0.4270005,1.152171,0.50545,-0.2644205,1.280441,0.63706,-0.4843205,0.6429309999999999,0.77772,-0.6473905000000001,1.287301,0.79681,-0.7107105,0.9124210000000001,0.0013799999999999,0.0042885,1.0875789999999999,-0.0013799999999999,-0.0042885,0.8407709999999999,-0.20637,-0.3456005,1.188541,-0.18395,-0.3596304999999999,0.8533410000000001,-0.6076900000000001,-0.1799184999999999,1.170711,-0.57181,-0.1545125
59,0.9989120000000001,0.7059899999999999,-0.3374379999999999,0.833142,0.50554,-0.247878,0.689172,0.6432199999999999,-0.430728,1.153592,0.5035499999999999,-0.267088,1.282162,0.63188,-0.4861479999999999,0.646432,0.77223,-0.653258,1.292092,0.79101,-0.7132080000000001,0.912332,0.0015799999999999,0.004182,1.087668,-0.00158,-0.004182,0.8406720000000001,-0.19671,-0.351138,1.1917019999999998,-0.17289,-0.365118,0.855682,-0.59443,-0.17303,1.171752,-0.55906,-0.154756
60,1.000789,0.702175,-0.3407865,0.8348990000000001,0.503475,-0.2511664999999999,0.692419,0.636715,-0.4357165,1.154869,0.502195,-0.2695965,1.283269,0.6264149999999999,-0.4876065,0.649489,0.765105,-0.6588265,1.296589,0.783955,-0.7158665,0.912259,0.0016249999999999,0.0041595,1.087741,-0.0016249999999999,-0.0041594999999999,0.840389,-0.1874349999999999,-0.3567465,1.194329,-0.1625549999999999,-0.3697565,0.8580289999999999,-0.581925,-0.1672305,1.172559,-0.5471250000000001,-0.1550004999999999
61,1.0026499999999998,0.698385,-0.3444669999999999,0.836739,0.499835,-0.255247,0.694909,0.633275,-0.440077,1.1560089999999998,0.499425,-0.272947,1.284379,0.6214550000000001,-0.4898869999999999,0.652099,0.758665,-0.6644369999999999,1.300419,0.777885,-0.7185469999999999,0.912189,0.001645,0.004111,1.087811,-0.0016449999999999,-0.004111,0.839909,-0.177975,-0.362077,1.196879,-0.152235,-0.3739969999999999,0.860569,-0.568905,-0.161186,1.173379,-0.535015,-0.155421
62,1.0042389999999999,0.69486,-0.348678,0.8382499999999999,0.4968599999999999,-0.259368,0.6970000000000001,0.6286,-0.444988,1.15707,0.4971,-0.275918,1.2849300000000001,0.61622,-0.492068,0.6548700000000001,0.75298,-0.670208,1.30376,0.77118,-0.7216680000000001,0.91218,0.0015999999999999,0.003955,1.0878199999999998,-0.0015999999999999,-0.003955,0.8392999999999999,-0.16798,-0.367448,1.1992,-0.1425499999999999,-0.377698,0.8629100000000001,-0.55429,-0.155611,1.17408,-0.52553,-0.156977
63,1.0058075,0.69142,-0.3528325,0.8397365,0.49422,-0.2636925,0.6988565,0.6245,-0.4511025,1.1581365,0.49476,-0.2789224999999999,1.2862965,0.61084,-0.4939825,0.6580064999999999,0.74739,-0.6760225,1.3068065,0.76388,-0.7256225000000001,0.9121565,0.0015,0.0036665,1.0878435,-0.0015,-0.0036664999999999,0.8386565,-0.15702,-0.3729325,1.2014965,-0.1320299999999999,-0.3809125,0.8649565000000001,-0.5392600000000001,-0.1501584999999999,1.1748064999999999,-0.51457,-0.1580575
64,1.007287,0.6886699999999999,-0.3567965,0.841254,0.4926299999999999,-0.2676765,0.7006840000000001,0.6196999999999999,-0.4561765,1.159154,0.4923299999999999,-0.2815365,1.287744,0.60703,-0.4959665,0.660884,0.74237,-0.6828365,1.308984,0.75688,-0.7291964999999999,0.912174,0.0014799999999999,0.0033974999999999,1.087826,-0.00148,-0.0033974999999999,0.8382140000000001,-0.14765,-0.3773365,1.203724,-0.12302,-0.3828265,0.8655840000000001,-0.52847,-0.1505885,1.175444,-0.5052000000000001,-0.1592265
65,1.0090644999999998,0.68491,-0.3606585,0.8429685,0.489417,-0.2719985,0.7036285,0.6157,-0.4610085,1.1603085,0.487789,-0.2842185,1.2893685,0.60224,-0.4978585,0.6638585,0.73572,-0.6897985,1.3109885000000001,0.74904,-0.7328285,0.9120485,0.00168,0.0032295,1.0879515,-0.0016799999999999,-0.0032294999999999,0.8379485,-0.13898,-0.3814984999999999,1.2059585,-0.1147199999999999,-0.3844585,0.8662685,-0.51855,-0.1511505,1.1761085,-0.49653,-0.1602715
66,1.0111735,0.680945,-0.3649975,0.8453995,0.487235,-0.2761274999999999,0.7069095000000001,0.6113850000000001,-0.4663275,1.1620295,0.484936,-0.2868875,1.2916295,0.5957950000000001,-0.4996975,0.6670295000000002,0.7284349999999999,-0.6967275,1.3135595,0.739455,-0.7363975,0.9118895,0.001925,0.0029084999999999,1.0881105,-0.001925,-0.0029085,0.8382495,-0.131325,-0.3846775,1.2080695,-0.107855,-0.3855475,0.8672095,-0.510065,-0.1518295,1.1770095,-0.488795,-0.1613375
67,1.01361,0.6774899999999999,-0.3690095,0.847992,0.485824,-0.2799095,0.710392,0.60713,-0.4717695,1.163962,0.481363,-0.2895995,1.2943120000000001,0.58945,-0.5013095,0.670322,0.72109,-0.7033095,1.316382,0.72973,-0.7399195000000001,0.911732,0.0021399999999999,0.0025415,1.088268,-0.00214,-0.0025415,0.838932,-0.12406,-0.3875295,1.209952,-0.1015599999999999,-0.3864895,0.868242,-0.5030600000000001,-0.1530045,1.177982,-0.48162,-0.1624215
68,1.016092,0.6739850000000001,-0.372922,0.850723,0.48383,-0.283692,0.713633,0.6028749999999999,-0.478752,1.165793,0.4777749999999999,-0.292332,1.296553,0.582395,-0.502942,0.673583,0.7138249999999999,-0.710412,1.318833,0.720175,-0.743212,0.911543,0.0024649999999999,0.002236,1.088457,-0.002465,-0.002236,0.839593,-0.1166249999999999,-0.390392,1.211413,-0.095565,-0.387452,0.869053,-0.496275,-0.154748,1.178883,-0.474535,-0.163687
69,1.0185555,0.67118,-0.3765639999999999,0.8535755,0.481317,-0.287634,0.7165954999999999,0.5997399999999999,-0.484624,1.1676255,0.474292,-0.295254,1.2987155000000001,0.57511,-0.504464,0.6770855,0.70661,-0.716424,1.3213154999999999,0.70992,-0.7463339999999999,0.9113355,0.0026999999999999,0.001958,1.0886645,-0.0026999999999999,-0.001958,0.8402855000000001,-0.10983,-0.393184,1.2126255,-0.0899599999999999,-0.3885639999999999,0.8698155000000001,-0.48999,-0.156272,1.1798755,-0.46761,-0.1650519999999999
70,1.0210089999999998,0.66877,-0.3797635,0.856247,0.4802809999999999,-0.2907035,0.7192270000000001,0.59578,-0.4904535,1.169507,0.4714549999999999,-0.2973135,1.300647,0.5683,-0.5057134999999999,0.6806770000000001,0.6998,-0.7221835000000001,1.323917,0.70008,-0.7491734999999999,0.911147,0.0031299999999999,0.0018255,1.0888529999999998,-0.00313,-0.0018254999999999,0.841087,-0.10382,-0.3954135,1.2137069999999999,-0.08527,-0.3896035,0.870637,-0.48497,-0.1574165,1.180817,-0.46138,-0.1659665
71,1.0234785,0.665975,-0.3824435,0.8589655,0.478822,-0.2935235,0.7218154999999999,0.592265,-0.4953735,1.1711254999999998,0.469447,-0.2991534999999999,1.3028755,0.561245,-0.5066135,0.6839855,0.692995,-0.7279935,1.3265055000000001,0.690535,-0.7513635,0.9109955000000001,0.003455,0.0017174999999999,1.0890045,-0.0034549999999999,-0.0017174999999999,0.8419755000000001,-0.0986349999999999,-0.3971935,1.2146655,-0.0813349999999999,-0.3904535,0.8714855,-0.481085,-0.1581785,1.1817055,-0.456515,-0.1667374999999999
72,1.025665,0.662685,-0.3846739999999999,0.86131,0.4770189999999999,-0.295914,0.72418,0.588165,-0.498934,1.17242,0.4678799999999999,-0.300674,1.30514,0.554105,-0.507504,0.6869000000000001,0.686805,-0.732794,1.32889,0.6815549999999999,-0.752714,0.9108100000000001,0.003525,0.0017179999999999,1.0891899999999999,-0.003525,-0.001718,0.84259,-0.094855,-0.398514,1.21539,-0.078605,-0.390864,0.8717400000000001,-0.477635,-0.158952,1.18256,-0.452495,-0.167078
73,1.0273439999999998,0.658635,-0.3867265,0.863146,0.4746829999999999,-0.2981565,0.7260759999999999,0.584105,-0.5023765,1.173116,0.466187,-0.3020365,1.307286,0.547775,-0.5084765,0.689616,0.6803049999999999,-0.7374164999999999,1.330976,0.673635,-0.7537864999999999,0.9106460000000001,0.0034049999999999,0.0017305,1.089354,-0.0034049999999999,-0.0017304999999999,0.842716,-0.092615,-0.3991565,1.215666,-0.077065,-0.3911665,0.871646,-0.475765,-0.1594265,1.183086,-0.450235,-0.1674005
74,1.0285819999999999,0.656345,-0.388743,0.864443,0.474359,-0.299853,0.726953,0.579905,-0.505513,1.1735229999999999,0.466187,-0.303153,1.309213,0.543275,-0.509373,0.6919930000000001,0.675495,-0.740583,1.3328929999999999,0.667125,-0.755193,0.910603,0.0034049999999999,0.0017189999999999,1.089397,-0.0034049999999999,-0.0017189999999999,0.842643,-0.090935,-0.399473,1.2156729999999998,-0.075885,-0.391383,0.871253,-0.474335,-0.159923,1.183323,-0.449405,-0.167888
75,1.0295575,0.655045,-0.3904364999999999,0.8654325,0.474359,-0.3013465,0.7277225,0.578075,-0.5079665,1.1735725,0.466187,-0.3040365,1.3096225000000001,0.541275,-0.5097865,0.6942325,0.671385,-0.7427665,1.3342225,0.663265,-0.7564665,0.9105925,0.0034049999999999,0.0015814999999999,1.0894075,-0.0034049999999999,-0.0015814999999999,0.8426225,-0.090225,-0.3997365,1.2155624999999999,-0.075305,-0.3915665,0.8710225,-0.473915,-0.1601245,1.1835125,-0.449245,-0.1683445
76,1.030611,0.655045,-0.3924415,0.86652,0.474359,-0.3030715,0.72846,0.577955,-0.5102115,1.17383,0.466187,-0.3050115,1.31041,0.540355,-0.5104015,0.69623,0.669295,-0.7454015,1.33566,0.660595,-0.7580815000000001,0.9104800000000001,0.0034049999999999,0.0013945,1.0895199999999998,-0.0034049999999999,-0.0013944999999999,0.84282,-0.0894349999999999,-0.4003015,1.21559,-0.0744849999999999,-0.3917815,0.8710100000000001,-0.473405,-0.1609634999999999,1.18383,-0.449155,-0.1693575
77,1.0314065,0.65381,-0.3945625,0.8672675,0.473124,-0.3048025,0.7290975,0.57672,-0.5109725,1.1740175,0.464979,-0.3060225,1.3110775000000001,0.53912,-0.5113825000000001,0.6977975000000001,0.66759,-0.7462325,1.3368475,0.65813,-0.7598425,0.9104575,0.0033,0.0012454999999999,1.0895425,-0.0033,-0.0012454999999999,0.8429875,-0.0896499999999999,-0.4006625,1.2153375,-0.0745999999999999,-0.3918225,0.8709775000000001,-0.47464,-0.1620005,1.1842075,-0.45019,-0.1717705
78,1.0318355,0.65202,-0.3970715,0.8674455,0.471678,-0.3066115,0.7296455,0.5749299999999999,-0.5120015,1.1739355,0.463837,-0.3071515,1.3110955,0.53733,-0.5129015,0.6982655,0.6658,-0.7472615,1.3372755,0.6563399999999999,-0.7614115,0.9103455,0.00329,0.0012255,1.0896545,-0.00329,-0.0012254999999999,0.8429854999999999,-0.09042,-0.4005515,1.2146255,-0.07521,-0.3920715,0.8705455,-0.47623,-0.1634025,1.1840855,-0.45254,-0.1747325
79,1.0316685,0.649205,-0.3995329999999999,0.8672565,0.469645,-0.308153,0.7292865,0.572265,-0.513193,1.1734965,0.462387,-0.308453,1.3107465,0.533915,-0.514223,0.6976165000000001,0.662385,-0.748753,1.3367565,0.652925,-0.763803,0.9102165,0.0033449999999999,0.0013589999999999,1.0897835,-0.0033449999999999,-0.0013589999999999,0.8430565,-0.0925149999999999,-0.399903,1.2136465,-0.076685,-0.3922529999999999,0.8696465,-0.479645,-0.164986,1.1837765,-0.456635,-0.177864
80,1.0311215,0.645985,-0.4018165,0.8670275000000001,0.468281,-0.3094065,0.7285775000000001,0.567965,-0.5140565,1.1729675,0.460458,-0.3098864999999999,1.3104675000000001,0.529655,-0.5156765,0.6968875000000001,0.657575,-0.7498365,1.3359275,0.648115,-0.7661465,0.9101375,0.003475,0.0014885,1.0898625,-0.003475,-0.0014884999999999,0.8431975,-0.0959749999999999,-0.3988165,1.2126375,-0.0792249999999999,-0.3921464999999999,0.8684075,-0.484385,-0.1668355,1.1833775,-0.4621749999999999,-0.1810034999999999
81,1.030237,0.64276,-0.4035094999999999,0.866683,0.466794,-0.3108895,0.727703,0.56315,-0.5155395,1.172283,0.458083,-0.3115095,1.310023,0.52525,-0.5176795,0.6960230000000001,0.65176,-0.7512595,1.334963,0.64185,-0.7688595,0.910083,0.00359,0.0015835,1.089917,-0.0035899999999999,-0.0015835,0.8434429999999999,-0.1016699999999999,-0.3968795,1.211513,-0.0825299999999999,-0.3920895,0.8669830000000001,-0.49156,-0.1690075,1.183073,-0.4699,-0.1843354999999999
82,1.0289404999999998,0.639745,-0.40609,0.8656565,0.464945,-0.3131,0.7264665,0.558205,-0.51737,1.1711765,0.455758,-0.31372,1.3092264999999998,0.521015,-0.52047,0.6946764999999999,0.646695,-0.7533000000000001,1.3335865,0.637535,-0.77252,0.9099365000000001,0.003415,0.0014799999999999,1.0900634999999999,-0.003415,-0.00148,0.8436365,-0.1094649999999999,-0.39497,1.2095065,-0.088085,-0.3913,0.8650265,-0.501225,-0.172298,1.1824765,-0.480225,-0.188494
83,1.027496,0.63702,-0.40892,0.8643020000000001,0.463083,-0.31584,0.725102,0.5536300000000001,-0.51918,1.169602,0.453918,-0.31646,1.3080720000000001,0.51693,-0.52375,0.692242,0.6412599999999999,-0.75543,1.331952,0.63329,-0.77642,0.909892,0.0031499999999999,0.0013299999999999,1.090108,-0.0031499999999999,-0.00133,0.843812,-0.11766,-0.39322,1.206842,-0.0949599999999999,-0.39007,0.8617520000000001,-0.5125,-0.182939,1.183272,-0.49293,-0.197955
84,1.026093,0.63463,-0.412045,0.863088,0.4612679999999999,-0.318655,0.723468,0.5516099999999999,-0.521255,1.168168,0.4516559999999999,-0.319365,1.306918,0.51401,-0.526885,0.689028,0.6371,-0.757405,1.3301180000000001,0.62958,-0.7806949999999999,0.9100080000000002,0.0032299999999999,0.001455,1.0899919999999998,-0.00323,-0.0014549999999999,0.844278,-0.12499,-0.389765,1.2040980000000001,-0.10239,-0.388935,0.858648,-0.52536,-0.193925,1.183938,-0.50625,-0.207775
85,1.0244084999999998,0.6326099999999999,-0.41536,0.8617475,0.4606869999999999,-0.32103,0.7215775,0.54869,-0.52284,1.1666375,0.44936,-0.32233,1.3054475,0.5104799999999999,-0.53023,0.6849075,0.6321,-0.75851,1.3278175,0.62486,-0.78513,0.9101175,0.0036999999999999,0.0018299999999999,1.0898825,-0.0037,-0.0018299999999999,0.8448475,-0.13365,-0.38585,1.2010675,-0.11152,-0.38713,0.8553975,-0.53984,-0.204496,1.1842575,-0.52161,-0.2173999999999999
86,1.0224689999999999,0.63113,-0.41852,0.860232,0.45954,-0.32314,0.719482,0.54665,-0.5239199999999999,1.1648619999999998,0.447445,-0.32509,1.303742,0.50725,-0.53344,0.680292,0.62695,-0.75922,1.325172,0.62037,-0.7882800000000001,0.910302,0.0038599999999999,0.0021599999999999,1.089698,-0.00386,-0.00216,0.8452919999999999,-0.14266,-0.38174,1.197762,-0.1207,-0.38522,0.8521920000000001,-0.55525,-0.21323,1.1840119999999998,-0.53741,-0.22454
87,1.0205125,0.63,-0.421515,0.8586205,0.45892,-0.324995,0.7172205,0.54308,-0.524165,1.1632205,0.44616,-0.327765,1.3020005000000001,0.50455,-0.536725,0.6756005,0.62235,-0.760105,1.3222405,0.6167100000000001,-0.791725,0.9105805,0.00397,0.002505,1.0894195,-0.0039699999999999,-0.0025049999999999,0.8457605000000001,-0.1524399999999999,-0.377255,1.1941905,-0.13038,-0.382995,0.8495105000000001,-0.5713199999999999,-0.2198149999999999,1.1837205,-0.5536,-0.230295
88,1.0180245,0.629385,-0.4241749999999999,0.8565625,0.459295,-0.3259849999999999,0.7146125000000001,0.540455,-0.524295,1.1613925,0.446115,-0.329995,1.3000924999999999,0.502245,-0.539475,0.6708525000000001,0.618285,-0.760765,1.3190025,0.613075,-0.794795,0.9110625,0.0037449999999999,0.0027949999999999,1.0889375000000001,-0.0037449999999999,-0.002795,0.8455025,-0.162665,-0.372185,1.1902025,-0.141175,-0.380375,0.8468225,-0.588025,-0.225585,1.1829025,-0.569965,-0.235375
89,1.01518,0.6294550000000001,-0.4257499999999999,0.854704,0.460955,-0.32772,0.711514,0.538745,-0.52364,1.159474,0.447595,-0.33239,1.297634,0.501055,-0.54118,0.6658040000000001,0.613975,-0.7612,1.315524,0.609035,-0.79749,0.9115440000000001,0.003625,0.0031599999999999,1.088456,-0.0036249999999999,-0.00316,0.845134,-0.1756249999999999,-0.36466,1.185714,-0.1547549999999999,-0.37576,0.844384,-0.6071949999999999,-0.23064,1.181804,-0.588905,-0.24111
90,1.0123419999999999,0.630505,-0.4270799999999999,0.852576,0.461895,-0.32969,0.707686,0.538015,-0.5226299999999999,1.157426,0.448725,-0.33502,1.295606,0.501065,-0.54291,0.659816,0.611495,-0.7619199999999999,1.311846,0.6079950000000001,-0.7999700000000001,0.911976,0.003485,0.00359,1.0880239999999999,-0.003485,-0.0035899999999999,0.8444659999999999,-0.188515,-0.35636,1.180946,-0.1696349999999999,-0.37009,0.842286,-0.6257649999999999,-0.23518,1.180876,-0.6075649999999999,-0.2458499999999999
91,1.0098989999999999,0.632425,-0.425435,0.8505170000000001,0.465215,-0.327895,0.703837,0.539775,-0.519425,1.155737,0.450125,-0.334765,1.294827,0.5042949999999999,-0.541925,0.654667,0.6115349999999999,-0.760035,1.309037,0.606625,-0.799725,0.912607,0.0036249999999999,0.0045449999999999,1.087393,-0.0036249999999999,-0.0045449999999999,0.8441270000000001,-0.2034849999999999,-0.344425,1.177727,-0.1861149999999999,-0.361965,0.840197,-0.644085,-0.237405,1.1808969999999999,-0.626015,-0.248165
92,1.0080275,0.635375,-0.423555,0.8490535,0.4684549999999999,-0.325785,0.7004235000000001,0.5422549999999999,-0.516445,1.1549435,0.452725,-0.333765,1.2943935,0.506705,-0.541105,0.6508135000000002,0.612865,-0.757655,1.3069335,0.607235,-0.799685,0.9130935,0.003755,0.0053649999999999,1.0869065,-0.003755,-0.005365,0.8449035,-0.2198149999999999,-0.331455,1.1751135,-0.2024449999999999,-0.3531849999999999,0.8393035,-0.660415,-0.239625,1.1800035,-0.6423449999999999,-0.250495
93,1.0061505,0.639985,-0.421365,0.8470665,0.472655,-0.323245,0.6973465,0.543995,-0.512165,1.1533665,0.455745,-0.332375,1.2938064999999999,0.508775,-0.539955,0.6473865,0.615475,-0.754885,1.3047765,0.609365,-0.7999450000000001,0.9135265,0.0037149999999999,0.0057349999999999,1.0864735,-0.0037149999999999,-0.005735,0.8450765,-0.2351649999999999,-0.318505,1.1725865,-0.218475,-0.343135,0.8379465,-0.679225,-0.242285,1.1794665,-0.659945,-0.253335
94,1.0042365,0.64622,-0.416225,0.8454915000000001,0.47682,-0.317835,0.6945315000000001,0.55062,-0.505375,1.1520615,0.4603399999999999,-0.327625,1.2926015,0.51476,-0.535725,0.6444615,0.6243000000000001,-0.749895,1.3028115,0.6181,-0.795975,0.9141015,0.0032399999999999,0.0060049999999999,1.0858985,-0.0032399999999999,-0.006005,0.8460415,-0.2506,-0.302045,1.1707415,-0.23391,-0.330295,0.8371615,-0.69466,-0.242355,1.1793015,-0.67648,-0.253505
95,1.0026745,0.6505449999999999,-0.4108199999999999,0.8441495,0.479815,-0.31285,0.6916595,0.556495,-0.4998,1.1514195,0.464255,-0.32303,1.2921195,0.520815,-0.53174,0.6419195000000001,0.633065,-0.74539,1.3012795,0.6261950000000001,-0.7923,0.9144695,0.0029649999999999,0.0062699999999999,1.0855305,-0.002965,-0.0062699999999999,0.8475795,-0.270615,-0.28209,1.1695795,-0.251125,-0.31386,0.8379595,-0.712695,-0.234952,1.1784295,-0.6929150000000001,-0.24851
96,1.0006095,0.6577649999999999,-0.403505,0.8427804999999999,0.4827349999999999,-0.308435,0.6887905000000001,0.563215,-0.493915,1.1506905,0.468125,-0.318285,1.2911805,0.527835,-0.5265949999999999,0.6394305,0.645505,-0.738345,1.3000305,0.6379049999999999,-0.786695,0.9148105,0.0024049999999999,0.0063249999999999,1.0851895,-0.002405,-0.0063249999999999,0.8496105,-0.284475,-0.260005,1.1686605,-0.265575,-0.297995,0.8402705,-0.727125,-0.223794,1.1775305,-0.708755,-0.243275
97,0.9987890000000001,0.66559,-0.3958199999999999,0.840761,0.48841,-0.3023599999999999,0.6853010000000002,0.57222,-0.48678,1.150181,0.47318,-0.31278,1.289811,0.5390900000000001,-0.5219199999999999,0.637081,0.65961,-0.7311599999999999,1.2986710000000001,0.65314,-0.7805599999999999,0.915031,0.00232,0.0063799999999999,1.084969,-0.0023199999999999,-0.0063799999999999,0.851461,-0.2993099999999999,-0.238891,1.167721,-0.28109,-0.27992,0.8427709999999999,-0.7396,-0.213196,1.176941,-0.72307,-0.236371
98,0.9972615000000001,0.6716949999999999,-0.38802,0.8389835000000001,0.4899949999999999,-0.29589,0.6820035,0.580505,-0.48042,1.1497235,0.476805,-0.30673,1.2882635,0.548185,-0.5183,0.6354535,0.676025,-0.72416,1.2976334999999999,0.671275,-0.77433,0.9152635,0.0016849999999999,0.0063799999999999,1.0847365,-0.0016849999999999,-0.0063799999999999,0.8534135,-0.315125,-0.218213,1.1654135,-0.2975649999999999,-0.2621,0.8453035,-0.752225,-0.204117,1.1745835,-0.736515,-0.227932
99,0.9956440000000001,0.6808049999999999,-0.378145,0.837288,0.4943349999999999,-0.287645,0.679358,0.590395,-0.472835,1.149538,0.482535,-0.299415,1.287188,0.5608150000000001,-0.512575,0.634748,0.694615,-0.714325,1.297158,0.6899649999999999,-0.765975,0.915408,0.0010749999999999,0.0063549999999999,1.084592,-0.001075,-0.0063549999999999,0.855618,-0.330535,-0.198787,1.163408,-0.313095,-0.243949,0.848238,-0.7614750000000001,-0.194369,1.172478,-0.748205,-0.220128
100,0.9941320000000001,0.6897500000000001,-0.3663349999999999,0.836047,0.49672,-0.280975,0.677797,0.60294,-0.463555,1.149287,0.48959,-0.291725,1.286287,0.57516,-0.505565,0.634297,0.71288,-0.701245,1.296457,0.7123600000000001,-0.755415,0.915707,0.00038,0.0062649999999999,1.084293,-0.0003799999999999,-0.0062649999999999,0.8579470000000001,-0.34445,-0.181248,1.161607,-0.32725,-0.226649,0.851047,-0.76908,-0.185365,1.170567,-0.75755,-0.212482
101,0.992466,0.697465,-0.3509649999999999,0.834624,0.499745,-0.272855,0.676194,0.616315,-0.451795,1.1490339999999999,0.494855,-0.283275,1.286644,0.593175,-0.496715,0.6335740000000001,0.7323850000000001,-0.6855150000000001,1.295564,0.738815,-0.741905,0.916094,-0.0001449999999999,0.0063349999999999,1.083906,0.000145,-0.006335,0.859944,-0.356965,-0.162814,1.1599739999999998,-0.340945,-0.209047,0.853604,-0.775205,-0.17519,1.168684,-0.765275,-0.202758
102,0.990736,0.7025049999999999,-0.333165,0.8319700000000001,0.5057149999999999,-0.261235,0.67433,0.628875,-0.438945,1.14938,0.502985,-0.271395,1.28711,0.6119749999999999,-0.485185,0.6330899999999999,0.752085,-0.667055,1.29461,0.764975,-0.724855,0.91643,-0.000355,0.006475,1.08357,0.0003549999999999,-0.0064749999999999,0.8620099999999999,-0.371645,-0.144915,1.15833,-0.355315,-0.1915299999999999,0.8557000000000001,-0.786965,-0.1670199999999999,1.16692,-0.773555,-0.19299
103,0.988813,0.70599,-0.31256,0.829455,0.51049,-0.24974,0.672285,0.64017,-0.42475,1.149665,0.50866,-0.25998,1.288545,0.62935,-0.47147,0.632825,0.76954,-0.64619,1.293655,0.78958,-0.70398,0.9168050000000001,-0.00044,0.00654,1.083195,0.0004399999999999,-0.0065399999999999,0.8643149999999999,-0.3898,-0.127891,1.1568749999999999,-0.36981,-0.173874,0.8579750000000002,-0.79823,-0.1581509999999999,1.165545,-0.78186,-0.182306
104,0.9868425000000001,0.710322,-0.292255,0.8265795000000001,0.518432,-0.236758,0.6702595,0.652262,-0.407955,1.1498595,0.513622,-0.248335,1.2898394999999998,0.645962,-0.456045,0.6326995,0.7885220000000001,-0.6228750000000001,1.2926695,0.8150820000000001,-0.6810449999999999,0.9170195,-0.0005889999999999,0.006315,1.0829805,0.000589,-0.0063149999999999,0.8664295000000001,-0.4067379999999999,-0.114476,1.1550894999999999,-0.3829979999999999,-0.159509,0.8599695,-0.8079379999999999,-0.150282,1.1643094999999999,-0.788338,-0.171607
105,0.9857615,0.717575,-0.266055,0.8241015,0.524555,-0.217183,0.6683414999999999,0.663725,-0.385375,1.1507215,0.522435,-0.228411,1.2903215,0.661905,-0.433635,0.6330715,0.806205,-0.593815,1.2915115,0.839265,-0.649655,0.9171615,-0.0006329999999999,0.005885,1.0828385,0.0006329999999999,-0.005885,0.8681815000000002,-0.424505,-0.098037,1.1538015,-0.397045,-0.138683,0.8607915000000002,-0.819155,-0.140361,1.1633115,-0.796015,-0.155037
106,0.9842205,0.7249194999999999,-0.240635,0.8214025,0.5285895,-0.199957,0.6660625,0.6756495,-0.361975,1.1513025,0.5300795,-0.210261,1.2897725,0.6771794999999999,-0.410085,0.6330325,0.8259894999999999,-0.561215,1.2899325,0.8657294999999999,-0.615315,0.9173125,-0.0009464999999999,0.005015,1.0826875,0.0009465,-0.005015,0.8695425,-0.4403005,-0.083993,1.1526125,-0.4099005,-0.122265,0.8612124999999999,-0.8299405,-0.132205,1.1619225,-0.8036705000000001,-0.142411
107,0.9827040000000001,0.7341185,-0.2140659999999999,0.818737,0.5354885,-0.181006,0.663837,0.6882085,-0.33655,1.151777,0.5378685,-0.1911709999999999,1.289237,0.6980485000000001,-0.3828,0.632827,0.8452485000000001,-0.5257,1.288217,0.8915885,-0.57841,0.917547,-0.0008324999999999,0.00424,1.082453,0.0008324999999999,-0.0042399999999999,0.870087,-0.4460015,-0.07219,1.153127,-0.4180215,-0.10774,0.8615570000000001,-0.8398015,-0.123001,1.162427,-0.8126715,-0.131461
108,0.9817285,0.7401004999999999,-0.18642,0.8163595,0.5405905,-0.161694,0.6615095,0.7000605,-0.30898,1.1525195,0.5447505,-0.170282,1.2886994999999999,0.7147605,-0.35535,0.6329695,0.8626005,-0.4890799999999999,1.2866395,0.9167505,-0.53928,0.9179195,-0.0007195,0.0036999999999999,1.0820805,0.0007194999999999,-0.0037,0.8713394999999999,-0.4570095,-0.059119,1.1536295,-0.4263095,-0.093392,0.8619695,-0.8466295,-0.112429,1.1628995,-0.8191995000000001,-0.119043
109,0.9809145,0.7456674999999999,-0.161265,0.8136435,0.5462275,-0.141712,0.6591834999999999,0.7077374999999999,-0.283083,1.1533235,0.5499474999999999,-0.150731,1.2888235,0.7271475,-0.329073,0.6332735,0.8799775,-0.455183,1.2854335,0.9374475,-0.502003,0.9182735,-0.0005584999999999,0.003107,1.0817265,0.0005585,-0.0031069999999999,0.8725134999999999,-0.4660825,-0.0475329999999999,1.1541435,-0.4348125,-0.0810699999999999,0.8622035,-0.8558925000000001,-0.102099,1.1632635,-0.8258725,-0.108052
110,0.9800425000000001,0.7515925,-0.136309,0.8105735000000001,0.5517425,-0.119696,0.6569435,0.7146925000000001,-0.255367,1.1542235,0.5555025,-0.129094,1.2889935000000001,0.7373725,-0.300827,0.6335835000000001,0.8961725,-0.419967,1.2842035,0.9538725,-0.4629169999999999,0.9185335,-0.0005435,0.002556,1.0814664999999999,0.0005434999999999,-0.002556,0.8731835,-0.4705375,-0.0360039999999999,1.1544135,-0.4409475,-0.067971,0.8621635,-0.8627475,-0.090767,1.1634035,-0.8325475,-0.096195
111,0.979703,0.7591015,-0.111122,0.808976,0.5538715,-0.099155,0.655166,0.7223815,-0.22709,1.155126,0.5582515,-0.1085489999999999,1.2890959999999998,0.7467315,-0.27236,0.634036,0.9101415,-0.38401,1.283486,0.9691115,-0.42402,0.918836,-0.0009045,0.002008,1.081164,0.0009045,-0.0020079999999999,0.874196,-0.4819085,-0.0237769999999999,1.154756,-0.4499485,-0.0545119999999999,0.8619559999999999,-0.8736285,-0.079648,1.163606,-0.8390985000000001,-0.0830229999999999
112,0.980097,0.767026,-0.087295,0.807268,0.556326,-0.077914,0.653698,0.728886,-0.19818,1.155958,0.561836,-0.086963,1.288838,0.754806,-0.24435,0.634358,0.922656,-0.34735,1.283338,0.981526,-0.38607,0.919068,-0.001159,0.0014749999999999,1.080932,0.001159,-0.001475,0.875068,-0.492544,-0.010917,1.154868,-0.458134,-0.041592,0.861898,-0.880544,-0.068768,1.163768,-0.844814,-0.06985
113,0.980674,0.7754915,-0.06455,0.806011,0.5569515,-0.059299,0.6526609999999999,0.7355115,-0.171917,1.1568209999999999,0.5667015,-0.066806,1.2885010000000001,0.7637115,-0.2186169999999999,0.6346609999999999,0.9362115,-0.313967,1.283401,0.9944015,-0.350417,0.919171,-0.0014445,0.0011929999999999,1.080829,0.0014444999999999,-0.0011929999999999,0.875871,-0.5014785,0.00028,1.1549909999999999,-0.4643785,-0.030341,0.861591,-0.8897685,-0.059017,1.163821,-0.8490585,-0.058414
114,0.9809865,0.7785055,-0.0490274999999999,0.8043155,0.5594155,-0.0469664999999999,0.6516255,0.7430654999999999,-0.1518554999999999,1.1573355,0.5679155,-0.0548824999999999,1.2877855,0.7726255,-0.1999155,0.6343755000000001,0.9477455,-0.2872455,1.2835455,1.0054855,-0.3237455,0.9192355,-0.0017145,0.0011345,1.0807645,0.0017144999999999,-0.0011344999999999,0.8761455,-0.5064545,0.0050435,1.1546555,-0.4685845,-0.0251764999999999,0.8609855,-0.8968045,-0.0539604999999999,1.1633955,-0.8515345,-0.0531214999999999
115,0.9813125,0.7797445000000001,-0.0341525,0.8032175,0.5604445,-0.0361025,0.6514175,0.7479145,-0.1348265,1.1578175,0.5685045000000001,-0.0434735,1.2872775,0.7783745000000001,-0.1831865,0.6340775000000001,0.9553045,-0.2651065,1.2841375,1.0118144999999998,-0.3010164999999999,0.9192975,-0.0020245,0.0010834999999999,1.0807025,0.0020244999999999,-0.0010835,0.8763275000000001,-0.5110454999999999,0.0088484999999999,1.1542375,-0.4713455,-0.0198835,0.8605375,-0.9003455,-0.0486845,1.1629475,-0.8548355,-0.0476605
116,0.981539,0.780774,-0.0201755,0.802181,0.561094,-0.0260884999999999,0.651341,0.752654,-0.1184494999999999,1.1583109999999999,0.569244,-0.0326614999999999,1.287131,0.779884,-0.1687925,0.633901,0.961504,-0.2443725,1.284771,1.016954,-0.2807925,0.919401,-0.002366,0.0012085,1.080599,0.002366,-0.0012084999999999,0.876321,-0.515166,0.0119075,1.153701,-0.473276,-0.0156625,0.8600110000000001,-0.903306,-0.0442175,1.162461,-0.857626,-0.0424854999999999
117,0.9818290000000001,0.7815409999999999,-0.007176,0.80131,0.562031,-0.01626,0.6516300000000002,0.7564409999999999,-0.103874,1.15877,0.569561,-0.02279,1.28724,0.781481,-0.15464,0.634,0.966631,-0.22479,1.28542,1.020881,-0.26277,0.91948,-0.002703,0.0014009999999999,1.08052,0.0027029999999999,-0.001401,0.8762300000000001,-0.515529,0.0141529999999999,1.15332,-0.4746289999999999,-0.012771,0.85978,-0.904289,-0.038747,1.16209,-0.8590190000000001,-0.037746
118,0.9825420000000001,0.782281,0.0049244999999999,0.800766,0.5623710000000001,-0.0082625,0.651986,0.759491,-0.0904095,1.159466,0.569831,-0.0136065,1.287446,0.782581,-0.1419585,0.634036,0.968691,-0.2073385,1.286086,1.024351,-0.2460185,0.919536,-0.003025,0.0015055,1.080464,0.003025,-0.0015055,0.876086,-0.516139,0.0164724999999999,1.152926,-0.476799,-0.0111985,0.859776,-0.905069,-0.0336165,1.161746,-0.859359,-0.0335125
119,0.9834250000000001,0.7828875,0.016466,0.800475,0.5625074999999999,-0.001322,0.6522950000000001,0.7618375,-0.078278,1.160355,0.5700275,-0.005278,1.2876750000000001,0.7832275,-0.13024,0.6339950000000001,0.9700975,-0.19146,1.286705,1.0266475000000002,-0.23089,0.919585,-0.0032765,0.0014289999999999,1.080415,0.0032765,-0.0014289999999999,0.8758650000000001,-0.5180525,0.018138,1.152615,-0.4789025,-0.009692,0.859815,-0.9063225,-0.028802,1.161355,-0.8601025,-0.029588
120,0.9844605000000001,0.7834325,0.027286,0.8003265000000002,0.5628525,0.005986,0.6526365000000001,0.7628425,-0.066742,1.1613265,0.5700624999999999,0.0024619999999999,1.2880365,0.7837824999999999,-0.119509,0.6339965000000001,0.9715725,-0.177289,1.2874265,1.0291825,-0.217229,0.9196865,-0.0033405,0.001268,1.0803135,0.0033405,-0.001268,0.8756765000000001,-0.5185175000000001,0.0191789999999999,1.1523665,-0.4795675,-0.0083379999999999,0.8598565000000001,-0.9067475,-0.024453,1.1610365,-0.8600375,-0.0260919999999999
121,0.985568,0.783898,0.0370005,0.80042,0.563198,0.0141794999999999,0.65296,0.763128,-0.0562365,1.16245,0.570098,0.0096494999999999,1.28837,0.784028,-0.1101695,0.63405,0.972188,-0.1648765,1.28811,1.031558,-0.2055965,0.91981,-0.003451,0.0011474999999999,1.08019,0.003451,-0.0011475,0.87557,-0.518802,0.0200335,1.15221,-0.480452,-0.0073285,0.86,-0.906862,-0.0204955,1.16073,-0.860132,-0.0229225
122,0.9867530000000001,0.784483,0.046005,0.800535,0.5635530000000001,0.022033,0.653235,0.763013,-0.0469119999999999,1.163565,0.570053,0.016039,1.288645,0.784173,-0.101892,0.634055,0.972073,-0.153723,1.288695,1.033843,-0.1952529999999999,0.920005,-0.003439,0.001133,1.079995,0.003439,-0.001133,0.875515,-0.518917,0.020876,1.152065,-0.4805669999999999,-0.006619,0.860195,-0.906897,-0.0172,1.160465,-0.8600369999999999,-0.019928
123,0.987877,0.7847869999999999,0.0545365,0.800655,0.5637669999999999,0.0293644999999999,0.653435,0.762937,-0.0387234999999999,1.164665,0.569977,0.0218225,1.288955,0.784207,-0.0949064999999999,0.6339250000000001,0.971997,-0.1453655,1.289205,1.035767,-0.1866555,0.920165,-0.003415,0.0011765,1.079835,0.003415,-0.0011764999999999,0.875485,-0.519143,0.0218425,1.151965,-0.483873,-0.0059965,0.860425,-0.906973,-0.0142985,1.160405,-0.8596830000000001,-0.0173675
124,0.9889090000000001,0.7847869999999999,0.062612,0.8008990000000001,0.5637669999999999,0.036735,0.653689,0.762937,-0.031544,1.165589,0.569977,0.027071,1.289439,0.784207,-0.088307,0.633699,0.971997,-0.13861,1.2896589999999999,1.037067,-0.17958,0.920319,-0.003415,0.001222,1.079681,0.003415,-0.0012219999999999,0.875489,-0.5192730000000001,0.022809,1.1516790000000001,-0.484263,-0.0057389999999999,0.860439,-0.907023,-0.012153,1.160229,-0.8596830000000001,-0.015241
125,0.989944,0.7847869999999999,0.070293,0.801145,0.5637669999999999,0.043695,0.653735,0.7621669999999999,-0.025612,1.166445,0.569977,0.031873,1.289975,0.784207,-0.082593,0.633005,0.970887,-0.134738,1.290095,1.038067,-0.173418,0.920455,-0.003415,0.0012829999999999,1.079545,0.003415,-0.0012829999999999,0.875475,-0.519383,0.023732,1.151425,-0.484503,-0.005417,0.860545,-0.906803,-0.009841,1.160055,-0.8596830000000001,-0.013219
126,0.9908290000000001,0.7847869999999999,0.077345,0.801428,0.5637669999999999,0.050816,0.6537380000000002,0.7601969999999999,-0.020401,1.1671179999999999,0.5698169999999999,0.036149,1.290548,0.7841769999999999,-0.077619,0.631838,0.969307,-0.132496,1.290468,1.038867,-0.168146,0.920588,-0.003415,0.001349,1.079412,0.003415,-0.001349,0.8754280000000001,-0.519433,0.024503,1.151148,-0.483663,-0.005357,0.860608,-0.906843,-0.007703,1.159838,-0.8596830000000001,-0.011302
127,0.9916625,0.7854515,0.0839599999999999,0.8016785,0.5640415,0.057615,0.6536685,0.7574715,-0.016114,1.1677084999999998,0.5695515,0.0399739999999999,1.2912085,0.7838514999999999,-0.073145,0.6305285,0.9675715,-0.130519,1.2909085,1.0400515,-0.163739,0.9207285000000001,-0.0034335,0.00149,1.0792715,0.0034335,-0.00149,0.8753485,-0.5192785000000001,0.024999,1.1509984999999998,-0.4834785,-0.005503,0.8603285,-0.9066285,-0.005567,1.1595885,-0.8594585,-0.009654
128,0.9924940000000001,0.7863135,0.0902635,0.8018689999999999,0.5641035000000001,0.0637945,0.652979,0.7526435,-0.0125715,1.168239,0.5691735,0.0435325,1.291979,0.7831035000000001,-0.0688825,0.628429,0.9654735,-0.1285675,1.291339,1.0411835,-0.1599275,0.920889,-0.0034755,0.0017945,1.079111,0.0034755,-0.0017945,0.875339,-0.5191564999999999,0.0261785,1.150879,-0.4827865,-0.0055014999999999,0.860249,-0.9060965,-0.0034704999999999,1.159329,-0.8592265,-0.0080005
129,0.9932600000000001,0.7871205,0.096513,0.80191,0.5641204999999999,0.068709,0.65221,0.7478604999999999,-0.009905,1.16867,0.5687905,0.046733,1.29268,0.7823405,-0.064978,0.62561,0.9627405,-0.126788,1.29181,1.0421905,-0.156388,0.92099,-0.0034665,0.0021819999999999,1.07901,0.0034665,-0.002182,0.8752600000000001,-0.5190195000000001,0.02744,1.15071,-0.4817895,-0.005395,0.8602,-0.9053695,-0.001552,1.15896,-0.8601095000000001,-0.006344
