sb224sc-HT22-VT27/4dt907/src/data/kinect_good_preprocessed_A9_mediapipe/A9_kinect.csv
FrameNo,nose_3d_x,nose_3d_y,nose_3d_z,left_shoulder_3d_x,left_shoulder_3d_y,left_shoulder_3d_z,left_elbow_3d_x,left_elbow_3d_y,left_elbow_3d_z,right_shoulder_3d_x,right_shoulder_3d_y,right_shoulder_3d_z,right_elbow_3d_x,right_elbow_3d_y,right_elbow_3d_z,left_wrist_3d_x,left_wrist_3d_y,left_wrist_3d_z,right_wrist_3d_x,right_wrist_3d_y,right_wrist_3d_z,left_hip_3d_x,left_hip_3d_y,left_hip_3d_z,right_hip_3d_x,right_hip_3d_y,right_hip_3d_z,left_knee_3d_x,left_knee_3d_y,left_knee_3d_z,right_knee_3d_x,right_knee_3d_y,right_knee_3d_z,left_ankle_3d_x,left_ankle_3d_y,left_ankle_3d_z,right_ankle_3d_x,right_ankle_3d_y,right_ankle_3d_z
41,0.007661000000000001,0.7273955,0.0643155,-0.139909,0.5022555,0.0668735,-0.24190899999999999,0.7373855,0.0407845,0.15809099999999998,0.4752455,0.056514499999999995,0.259821,0.7111855,0.035394499999999995,-0.273619,0.9692255000000001,-0.0017235000000000028,0.29008100000000003,0.9581255,-0.007779500000000002,-0.071519,0.002425500000000004,0.0038214999999999985,0.071519,-0.002425499999999997,-0.003821500000000002,-0.121369,-0.4021545,-0.0072365,0.119001,-0.4432045,0.011571499999999998,-0.12948900000000002,-0.7906945,-0.009932500000000004,0.131081,-0.7963945,-0.011873500000000002
42,0.0073345000000000025,0.7274809999999999,0.0646925,-0.1402305,0.502751,0.0671875,-0.2424105,0.736621,0.042971499999999996,0.1581495,0.474981,0.056862499999999996,0.2592995,0.709971,0.0368075,-0.27415049999999996,0.970511,0.0009825000000000007,0.28961950000000003,0.958911,-0.006097499999999999,-0.0715935,0.0024919999999999942,0.0039415000000000006,0.0715935,-0.002492000000000001,-0.0039415000000000006,-0.12155049999999999,-0.402049,-0.007504499999999997,0.1187295,-0.443359,0.0116055,-0.1298405,-0.790869,-0.010286499999999997,0.1307395,-0.796319,-0.012001499999999998
43,0.0070030000000000005,0.727466,0.06518850000000001,-0.140547,0.503166,0.06746550000000001,-0.242977,0.735656,0.0449835,0.158233,0.47475599999999996,0.057177500000000006,0.258983,0.708946,0.0379605,-0.274787,0.971526,0.003370500000000002,0.289223,0.959726,-0.0046614999999999955,-0.071682,0.0025529999999999997,0.004050500000000002,0.071682,-0.0025529999999999997,-0.0040504999999999985,-0.12167700000000001,-0.401924,-0.007739499999999996,0.118533,-0.443484,0.011633500000000003,-0.130107,-0.791014,-0.010695499999999997,0.130453,-0.796254,-0.012212499999999994
44,0.006693499999999995,0.727383,0.0656875,-0.1408395,0.503513,0.0677115,-0.2438595,0.734743,0.046605499999999994,0.15821049999999998,0.474673,0.0574665,0.2586305,0.707813,0.039056499999999994,-0.27606949999999997,0.972383,0.005408499999999997,0.2887205,0.960583,-0.0033745000000000025,-0.0717555,0.002574,0.004178499999999998,0.0717555,-0.002574,-0.004178500000000002,-0.12178950000000001,-0.401767,-0.007989500000000004,0.1185705,-0.444057,0.011694499999999997,-0.13024950000000002,-0.791377,-0.011091500000000004,0.13018049999999998,-0.796347,-0.012394500000000003
45,0.00643,0.7275475,0.066386,-0.141042,0.5029374999999999,0.067608,-0.244512,0.7337874999999999,0.048171,0.15804800000000002,0.4746975,0.057743,0.258348,0.7070175,0.040006,-0.277572,0.9733175,0.007144999999999999,0.288298,0.9616174999999999,-0.002146000000000002,-0.071824,0.0025745000000000004,0.004313000000000001,0.071824,-0.0025745000000000004,-0.004313000000000001,-0.121852,-0.4014225,-0.008188999999999998,0.118678,-0.44445250000000003,0.011748999999999999,-0.13036199999999998,-0.7915925,-0.011621000000000003,0.129928,-0.7962925000000001,-0.012694
46,0.006212000000000006,0.7275665,0.067094,-0.14123599999999997,0.5026465,0.067416,-0.245276,0.7329765,0.049593,0.157924,0.47469649999999997,0.057988000000000005,0.258134,0.7065065,0.040883,-0.279126,0.9744265,0.008701000000000004,0.28799399999999997,0.9628264999999999,-0.0009659999999999981,-0.071924,0.0025724999999999984,0.004388000000000003,0.071924,-0.0025725000000000053,-0.0043879999999999995,-0.121876,-0.4010235,-0.008383999999999996,0.118854,-0.44469349999999996,0.011773000000000002,-0.13040600000000002,-0.7915035,-0.012045,0.129764,-0.7959835,-0.012846999999999997
47,0.005976999999999998,0.7274385,0.0677875,-0.141429,0.5023085,0.06737749999999999,-0.246319,0.7320485,0.050810499999999995,0.157861,0.47466850000000005,0.0581435,0.257961,0.7060885,0.0417035,-0.280559,0.9755185,0.010102499999999999,0.287811,0.9637184999999999,0.00018750000000000017,-0.072026,0.0025855000000000045,0.0043955,0.072026,-0.0025854999999999975,-0.0043955,-0.12189900000000001,-0.4007315,-0.0086355,0.119031,-0.4449615,0.011705499999999999,-0.13045900000000002,-0.7916215,-0.012580499999999998,0.129611,-0.7957815,-0.013007500000000002
48,0.005708000000000002,0.727327,0.068372,-0.141604,0.502127,0.067391,-0.247274,0.731177,0.051684,0.157826,0.474577,0.05823,0.257826,0.705777,0.042388999999999996,-0.281934,0.9763769999999999,0.011209,0.28764599999999996,0.9644769999999999,0.0013160000000000012,-0.072106,0.002611000000000002,0.004394000000000002,0.072106,-0.0026109999999999953,-0.004393999999999999,-0.121894,-0.40047299999999997,-0.009126999999999996,0.119196,-0.445283,0.011443,-0.130444,-0.791783,-0.013464999999999998,0.129516,-0.795683,-0.013608999999999996
49,0.005403500000000001,0.727275,0.0690375,-0.1418025,0.502065,0.0673275,-0.24808249999999998,0.7303649999999999,0.0521685,0.1578175,0.47454500000000005,0.058202500000000004,0.2577075,0.705665,0.0430085,-0.2831825,0.9773649999999999,0.012000499999999999,0.28749749999999996,0.9652649999999999,0.0024104999999999994,-0.0721755,0.0026580000000000006,0.0043774999999999994,0.0721755,-0.0026580000000000006,-0.0043774999999999994,-0.1218925,-0.400225,-0.009740500000000003,0.1193275,-0.445565,0.011070499999999999,-0.1304125,-0.791915,-0.014370499999999998,0.1294475,-0.795605,-0.0142265
50,0.005122999999999998,0.727146,0.06934399999999999,-0.14198899999999998,0.502056,0.066855,-0.24827900000000003,0.728856,0.052093,0.157781,0.474576,0.057821,0.257631,0.7055359999999999,0.043207999999999996,-0.284319,0.9773959999999999,0.012105,0.287391,0.9652959999999999,0.002921,-0.072245,0.002688999999999997,0.004437,0.072245,-0.002689000000000004,-0.004437,-0.121909,-0.40019400000000005,-0.010382000000000002,0.119441,-0.44588400000000006,0.010608999999999999,-0.130359,-0.792004,-0.015042,0.129421,-0.795914,-0.014859999999999998
51,0.0048550000000000025,0.727116,0.0696,-0.14213399999999998,0.502056,0.066502,-0.248434,0.727746,0.051754999999999995,0.157756,0.474576,0.057397000000000004,0.257616,0.705476,0.043369,-0.285304,0.9773959999999999,0.012044,0.287396,0.9652959999999999,0.0033690000000000005,-0.072293,0.002688999999999997,0.004477999999999999,0.072293,-0.002689000000000004,-0.004477999999999999,-0.12188399999999999,-0.40019400000000005,-0.011071000000000001,0.11954600000000001,-0.446184,0.010082999999999998,-0.130264,-0.792184,-0.015819000000000003,0.12943600000000002,-0.796234,-0.015590000000000003
52,0.004598999999999996,0.727116,0.0696825,-0.14222100000000001,0.502056,0.0661255,-0.248561,0.7268859999999999,0.0512935,0.157719,0.474576,0.0569615,0.257699,0.705446,0.0436125,-0.28619100000000003,0.9773959999999999,0.011904499999999997,0.287489,0.9652959999999999,0.003660499999999997,-0.07234299999999999,0.002688999999999997,0.004466499999999998,0.07234299999999999,-0.002689000000000004,-0.004466500000000002,-0.121831,-0.40019400000000005,-0.0118025,0.11965899999999999,-0.446454,0.009486499999999997,-0.130141,-0.7923640000000001,-0.016684500000000005,0.12947899999999998,-0.796494,-0.0163675
53,0.004335999999999998,0.7271115,0.069709,-0.142283,0.5020515,0.06589,-0.24851299999999998,0.7261115,0.050776,0.157617,0.47471149999999995,0.05681,0.257797,0.7054215,0.043811,-0.287083,0.9776914999999999,0.011732,0.28769700000000004,0.9655914999999999,0.0037930000000000012,-0.07238,0.0026935000000000014,0.004410000000000001,0.07238,-0.0026935000000000014,-0.004410000000000001,-0.121753,-0.4000785,-0.012539000000000002,0.119737,-0.4464585,0.008756,-0.130033,-0.7925785,-0.017755,0.12954700000000002,-0.7966585,-0.017231000000000003
54,0.004106499999999999,0.7270195,0.0695105,-0.1423875,0.5021995,0.0658545,-0.24860749999999998,0.7253895,0.0501235,0.15743249999999998,0.4748895000000001,0.0567105,0.2579825,0.7053295,0.0440325,-0.2878975,0.9778994999999999,0.011414499999999998,0.2880225,0.9657994999999999,0.003802499999999997,-0.0724355,0.002745499999999998,0.004389499999999998,0.0724355,-0.002745500000000005,-0.004389500000000001,-0.1216475,-0.4001705,-0.013387500000000004,0.1198525,-0.44655049999999996,0.007878499999999998,-0.12986750000000002,-0.7926705,-0.018847500000000003,0.12963249999999998,-0.7969705,-0.018298500000000002
55,0.003908500000000006,0.727398,0.069268,-0.1424675,0.502428,0.065818,-0.2487675,0.7247480000000001,0.049446000000000004,0.15722250000000002,0.475178,0.056705000000000005,0.2582025,0.7052080000000001,0.04425,-0.2886475,0.9781780000000001,0.011012999999999998,0.28848250000000003,0.9659780000000001,0.003821999999999999,-0.0725195,0.002799000000000003,0.004357999999999999,0.0725195,-0.002798999999999996,-0.004358000000000001,-0.12147749999999999,-0.400292,-0.014286000000000004,0.12001250000000001,-0.44667199999999996,0.006841999999999999,-0.1296375,-0.7927919999999999,-0.020022,0.1297525,-0.797322,-0.019446
56,0.0036994999999999953,0.727745,0.06899849999999999,-0.14257050000000002,0.502665,0.0657095,-0.2489605,0.724425,0.048744499999999996,0.1570095,0.47548500000000005,0.0567685,0.2584895,0.705165,0.0444205,-0.28937050000000003,0.978435,0.0105915,0.2890895,0.9661350000000001,0.0038034999999999996,-0.07260849999999999,0.0028569999999999984,0.0042495,0.07260849999999999,-0.0028570000000000054,-0.0042495,-0.12128050000000001,-0.400435,-0.015399500000000003,0.12014949999999999,-0.44681499999999996,0.0057255,-0.1294105,-0.7929149999999999,-0.0212715,0.1298395,-0.797685,-0.0206135
57,0.003510999999999995,0.7281620000000001,0.0688315,-0.14267800000000003,0.502932,0.0657215,-0.24920799999999999,0.7242120000000001,0.0482705,0.156802,0.47584200000000004,0.0569345,0.258782,0.7051120000000001,0.044644500000000004,-0.289938,0.978662,0.010263500000000002,0.289752,0.9661620000000001,0.0037064999999999997,-0.072684,0.002905000000000005,0.0041095,0.072684,-0.002904999999999998,-0.004109499999999999,-0.12110800000000001,-0.40067800000000003,-0.016355500000000002,0.120252,-0.446988,0.0047565,-0.12913800000000003,-0.793018,-0.022287500000000002,0.129932,-0.798048,-0.0216335
58,0.003362999999999998,0.7285865,0.0684655,-0.142805,0.5033365000000001,0.0658555,-0.249535,0.7240265,0.0478285,0.156585,0.4762165,0.0571995,0.259065,0.7050765,0.0448185,-0.29041500000000003,0.9788865,0.009885500000000002,0.29039499999999996,0.9661865000000001,0.0034305000000000013,-0.072719,0.0029155000000000014,0.0039235,0.072719,-0.0029155000000000014,-0.0039235,-0.12093500000000001,-0.4011635,-0.0173465,0.120335,-0.4472735,0.0036725000000000004,-0.128865,-0.7931334999999999,-0.0233345,0.130015,-0.7983635,-0.0226315
59,0.0031155,0.729252,0.068016,-0.1431485,0.503772,0.066053,-0.2502485,0.7239319999999999,0.047398,0.15629150000000003,0.476782,0.057469,0.2592915,0.7052419999999999,0.04488,-0.2909685,0.9791619999999999,0.009387,0.2909315,0.9663619999999999,0.0029569999999999996,-0.0727115,0.0028909999999999977,0.003573,0.0727115,-0.0028910000000000047,-0.003573,-0.1206985,-0.402588,-0.018591999999999997,0.1203615,-0.447438,0.0019310000000000004,-0.1287085,-0.793228,-0.024638,0.1300115,-0.7985880000000001,-0.023943
60,0.0029394999999999977,0.7298795,0.067497,-0.14345249999999998,0.5042195,0.066065,-0.2509725,0.7238795,0.046855999999999995,0.15601749999999998,0.47747949999999995,0.057650999999999994,0.2595475,0.7056395,0.044795,-0.2914825,0.9794195000000001,0.008754,0.29145750000000004,0.9666195,0.002357999999999999,-0.0726945,0.0029075000000000004,0.003271999999999999,0.0726945,-0.0029075000000000004,-0.0032720000000000006,-0.1204525,-0.4044705,-0.020089,0.12042749999999999,-0.4475105,-0.00023800000000000036,-0.12856250000000002,-0.7933305,-0.025995,0.1300675,-0.7987905,-0.025412
61,0.002834000000000002,0.7303695,0.06696,-0.143748,0.5044595,0.06618399999999999,-0.251678,0.7236795,0.046268000000000004,0.15567199999999998,0.4782195,0.05792799999999999,0.259752,0.7058595,0.044524999999999995,-0.291958,0.9796195000000001,0.008045,0.291952,0.9668194999999999,0.0017149999999999995,-0.072682,0.0029075000000000004,0.0030159999999999996,0.072682,-0.0029075000000000004,-0.0030160000000000013,-0.120198,-0.4065205,-0.021842000000000004,0.120542,-0.4477205,-0.0027570000000000008,-0.12835799999999997,-0.7935405,-0.027486,0.130162,-0.7990605,-0.026975000000000002
62,0.0028214999999999994,0.730652,0.065719,-0.1439985,0.5046219999999999,0.065522,-0.25239849999999997,0.723532,0.044588,0.1554015,0.478702,0.057752,0.2599515,0.7059019999999999,0.043102,-0.2924985,0.979592,0.006244000000000001,0.29217150000000003,0.9666919999999999,-3.099999999999804e-05,-0.0726605,0.0028779999999999986,0.0027430000000000006,0.0726605,-0.0028779999999999986,-0.002742999999999999,-0.1197485,-0.409468,-0.024475,0.1208115,-0.44778799999999996,-0.006232999999999999,-0.1280085,-0.793498,-0.029480999999999997,0.1304515,-0.799238,-0.02925
63,0.002817000000000004,0.730772,0.064465,-0.144212,0.504842,0.064545,-0.253092,0.723402,0.042613000000000005,0.155208,0.479072,0.057252000000000004,0.260158,0.705932,0.041428,-0.293072,0.979422,0.004275,0.292398,0.9665219999999999,-0.0019419999999999993,-0.072642,0.0028490000000000043,0.002477,0.072642,-0.0028489999999999974,-0.002477,-0.119452,-0.412128,-0.027451999999999997,0.121018,-0.447928,-0.010094,-0.12764199999999998,-0.793558,-0.031896999999999995,0.130768,-0.799398,-0.031668
64,0.0027455000000000027,0.73101,0.062946,-0.1444765,0.5048400000000001,0.06326899999999999,-0.25385650000000004,0.7235900000000001,0.040351,0.1549535,0.47963,0.056441,0.2603035,0.70625,0.039554,-0.29378649999999995,0.9795200000000001,0.002019,0.2925635,0.9666199999999999,-0.004135999999999999,-0.0726175,0.0028349999999999972,0.002236,0.0726175,-0.0028349999999999972,-0.002236,-0.11920649999999999,-0.4144,-0.030876,0.1212435,-0.44781,-0.014463,-0.1273065,-0.79353,-0.034964,0.1309935,-0.7994,-0.034673
65,0.0024550000000000036,0.7311125,0.061324,-0.14482599999999998,0.5049425000000001,0.061956,-0.254886,0.7236925000000001,0.03803,0.15454400000000001,0.4797625,0.055525,0.26034399999999996,0.7069325000000001,0.037673,-0.294816,0.9805225,-0.0005609999999999999,0.292674,0.9678225,-0.006491,-0.072609,0.002732499999999999,0.002122,0.072609,-0.002732499999999999,-0.0021219999999999998,-0.11896599999999999,-0.41571749999999996,-0.034354,0.121554,-0.4474975,-0.018866,-0.127076,-0.7935375,-0.038165000000000004,0.131394,-0.7989575,-0.037785
66,0.0022040000000000046,0.7314235,0.05909,-0.145098,0.5051635,0.059976999999999996,-0.255988,0.7239935,0.035067,0.154362,0.48007349999999993,0.053876,0.26052200000000003,0.7072435,0.035037,-0.295948,0.9808334999999999,-0.004005,0.292642,0.9684335,-0.009651,-0.072602,0.0025885000000000005,0.002058,0.072602,-0.0025885000000000005,-0.002058,-0.118628,-0.41629649999999996,-0.039312,0.121922,-0.44669650000000005,-0.024256,-0.126738,-0.7931765000000001,-0.042173,0.131632,-0.7982965000000001,-0.04177
67,0.0019274999999999978,0.731925,0.056333,-0.14512049999999999,0.505325,0.057619000000000004,-0.2571005,0.724455,0.031528,0.15412949999999997,0.480575,0.05188,0.2607495,0.7077450000000001,0.03191,-0.2971405,0.981335,-0.008226,0.2924095,0.968935,-0.013467,-0.0725725,0.0025089999999999973,0.002124,0.0725725,-0.0025089999999999973,-0.002124,-0.1183105,-0.416135,-0.045091,0.1223495,-0.445645,-0.030892,-0.1263205,-0.792565,-0.046743999999999994,0.1317995,-0.797405,-0.046248
68,0.0016215000000000047,0.732013,0.0535895,-0.1450725,0.5051030000000001,0.0551365,-0.2577425,0.7249730000000001,0.027910499999999998,0.1537775,0.48116299999999995,0.0499475,0.26092750000000003,0.7083330000000001,0.028525500000000002,-0.29807249999999996,0.981823,-0.0126245,0.2919975,0.969523,-0.0174795,-0.0725745,0.002351000000000006,0.0022135,0.0725745,-0.002350999999999999,-0.0022135,-0.11801249999999999,-0.415977,-0.0515945,0.12274750000000001,-0.444657,-0.0376745,-0.1259225,-0.791777,-0.0513575,0.1319075,-0.796237,-0.0506335
69,0.0014445000000000026,0.731154,0.0500875,-0.14503749999999999,0.504374,0.0515115,-0.2581675,0.725064,0.023024500000000003,0.1534825,0.481584,0.0470135,0.26109249999999995,0.709494,0.0239515,-0.2985875,0.983854,-0.018527500000000002,0.29180249999999996,0.971954,-0.022718500000000003,-0.0726395,0.002255,0.0022255,0.0726395,-0.002255,-0.0022255,-0.1179875,-0.413666,-0.060816499999999996,0.1235425,-0.44196599999999997,-0.047335499999999996,-0.12574749999999998,-0.789196,-0.0572815,0.13202250000000001,-0.793116,-0.0564285
70,0.0011860000000000045,0.7306809999999999,0.04633,-0.145087,0.503251,0.04781200000000001,-0.258577,0.7255809999999999,0.017568,0.15313300000000002,0.48166100000000006,0.043774,0.261233,0.7111409999999999,0.018698,-0.298977,0.9867409999999999,-0.025099999999999997,0.291773,0.975641,-0.028721999999999998,-0.072764,0.002114999999999999,0.0022170000000000002,0.072764,-0.002114999999999999,-0.0022169999999999985,-0.118147,-0.410149,-0.071321,0.124503,-0.43771899999999997,-0.058704,-0.125667,-0.784769,-0.06376899999999999,0.132103,-0.7883490000000001,-0.062973
71,0.0008369999999999946,0.7298115,0.042935,-0.145297,0.5020215,0.044477,-0.259017,0.7247515,0.012130000000000002,0.15262299999999998,0.4817214999999999,0.040748,0.261273,0.7126715,0.013470000000000003,-0.299767,0.9885215,-0.031687,0.291553,0.9792215,-0.034829,-0.072977,0.0020114999999999994,0.002270000000000001,0.072977,-0.002011500000000003,-0.0022699999999999977,-0.118577,-0.40657849999999995,-0.082248,0.12539299999999998,-0.43136850000000004,-0.069899,-0.125837,-0.7789585,-0.069604,0.131953,-0.7819885000000001,-0.069487
72,0.0005255000000000049,0.7287235000000001,0.039429000000000006,-0.1455745,0.5009735000000001,0.04098,-0.2594245,0.7240835,0.006408999999999998,0.1523155,0.48170350000000006,0.037532,0.2615555,0.7137135,0.007934999999999998,-0.3005145,0.9904634999999999,-0.038772,0.2913655,0.9824634999999999,-0.041736999999999996,-0.0731835,0.001910499999999999,0.0022789999999999998,0.0731835,-0.001910499999999999,-0.0022789999999999998,-0.11916449999999999,-0.4013765,-0.093803,0.12642550000000002,-0.4251665,-0.08144599999999999,-0.1259245,-0.7715865,-0.07599700000000001,0.1312855,-0.7744265,-0.076113
73,0.00012850000000000177,0.7273649999999999,0.036124,-0.1458085,0.499815,0.038022,-0.2598685,0.722765,0.0009419999999999984,0.1520415,0.48161499999999996,0.034514,0.26188150000000004,0.714185,0.00264,-0.3011485,0.991755,-0.045555,0.2911615,0.980015,-0.048631,-0.07337250000000001,0.0018080000000000006,0.002314,0.07337250000000001,-0.0018080000000000006,-0.002314,-0.11978849999999999,-0.39615500000000003,-0.105418,0.1275915,-0.418655,-0.092939,-0.1260485,-0.763775,-0.081966,0.1305815,-0.766485,-0.082439
74,-7.099999999999587e-05,0.7256545,0.0327355,-0.146072,0.4984845,0.0350645,-0.260192,0.7212245,-0.004072499999999996,0.151778,0.4808445,0.0312905,0.262278,0.7156945,-0.0027194999999999962,-0.30164199999999997,0.9916845000000001,-0.0521885,0.291088,0.9781545,-0.055014499999999994,-0.073602,0.0017025000000000009,0.0022705000000000017,0.073602,-0.0017024999999999992,-0.0022704999999999947,-0.12037199999999999,-0.3884655,-0.1183245,0.129108,-0.4104155,-0.1060035,-0.126062,-0.7545855,-0.0882765,0.129938,-0.7579055,-0.0888725
75,-0.00044849999999999795,0.7233655,0.029835,-0.14647649999999998,0.4973655,0.032349,-0.2606765,0.7197455,-0.008890999999999996,0.15137350000000002,0.4801255,0.028570000000000012,0.2625235,0.7153255,-0.007792999999999994,-0.30251649999999997,0.9838255,-0.058707999999999996,0.2908835,0.9748855,-0.061237,-0.0737765,0.0016945,0.002017000000000005,0.0737765,-0.0016945,-0.002016999999999998,-0.12113650000000001,-0.3789445,-0.130763,0.1304835,-0.4008945,-0.119602,-0.1262265,-0.7440445,-0.09417999999999999,0.1290635,-0.7478145,-0.094752
76,-0.0008364999999999968,0.7201685,0.027663499999999994,-0.1468455,0.49638849999999995,0.0300155,-0.2611255,0.7174985,-0.013156500000000005,0.1509845,0.4793985,0.02614749999999999,0.2623145,0.7141985000000001,-0.011695500000000005,-0.3032755,0.9750885,-0.0645015,0.2909145,0.9713785,-0.0668735,-0.0739785,0.0015884999999999996,0.0016954999999999956,0.0739785,-0.0015884999999999996,-0.0016955000000000026,-0.1218855,-0.36939150000000004,-0.1425455,0.1317645,-0.3913415,-0.1318205,-0.12649549999999998,-0.7333814999999999,-0.0993955,0.12816450000000001,-0.7376915,-0.1001765
77,-0.001089999999999995,0.7182919999999999,0.025332,-0.146973,0.49487200000000003,0.027671999999999995,-0.261483,0.716422,-0.017469,0.150707,0.478102,0.023485,0.262437,0.714032,-0.015382,-0.303993,0.966692,-0.070467,0.291137,0.967992,-0.072667,-0.074162,0.0014850000000000002,0.001451000000000001,0.074162,-0.0014850000000000002,-0.001451000000000001,-0.12260299999999999,-0.358488,-0.153929,0.13309700000000002,-0.380598,-0.144204,-0.12692299999999998,-0.720518,-0.104796,0.126997,-0.725518,-0.10575899999999999
78,-0.0013814999999999973,0.7163585,0.023811499999999992,-0.1471175,0.4935185,0.026436499999999995,-0.2616675,0.7122085,-0.020692500000000003,0.1505425,0.4781285,0.021842499999999994,0.2624525,0.7135585,-0.017941500000000003,-0.3046375,0.9560485,-0.0749745,0.2913025,0.9637685,-0.07742450000000001,-0.07432849999999999,0.0010314999999999977,0.0014015,0.07432849999999999,-0.0010315000000000046,-0.0014015,-0.1230975,-0.3493615,-0.1632325,0.1341625,-0.3712315,-0.1540725,-0.1274775,-0.7088814999999999,-0.1091015,0.1261725,-0.7136315,-0.1098905
79,-0.0016135000000000012,0.7146214999999999,0.02236400000000001,-0.1473845,0.4930215,0.025206000000000006,-0.2617045,0.7087114999999999,-0.023581999999999995,0.1502655,0.4768315,0.02018500000000001,0.2625555,0.7102615,-0.020363999999999993,-0.3051245,0.9456215,-0.079202,0.2915755,0.9544315,-0.081744,-0.07440050000000001,0.0008675000000000002,0.0013150000000000037,0.07440050000000001,-0.0008675000000000002,-0.0013149999999999967,-0.1234545,-0.3406185,-0.17149399999999998,0.1351555,-0.3626185,-0.162414,-0.1279045,-0.6973785,-0.113382,0.1255155,-0.7018585,-0.11343899999999998
80,-0.0018365000000000057,0.713006,0.02080649999999999,-0.14764850000000002,0.492596,0.023675499999999988,-0.26160849999999997,0.7064360000000001,-0.026624500000000006,0.15003149999999998,0.47626599999999997,0.01823849999999999,0.2627415,0.707526,-0.022968500000000006,-0.3054785,0.9371360000000001,-0.0839995,0.29190150000000004,0.946366,-0.0862165,-0.07445550000000001,0.0006189999999999946,0.0011414999999999967,0.07445550000000001,-0.0006190000000000015,-0.0011415000000000036,-0.12371850000000001,-0.333474,-0.17930649999999998,0.13629149999999998,-0.354014,-0.1709765,-0.12830850000000002,-0.686024,-0.11773850000000001,0.1250115,-0.6901339999999999,-0.11686650000000001
81,-0.0023094999999999947,0.711935,0.019532499999999994,-0.1482495,0.49175500000000005,0.022103499999999998,-0.2616695,0.7043349999999999,-0.029416500000000005,0.1495405,0.475525,0.01674049999999999,0.2628005,0.705915,-0.025316500000000006,-0.3061495,0.929265,-0.0883845,0.2921405,0.939005,-0.0898965,-0.0745875,0.00028500000000000747,0.0008714999999999973,0.0745875,-0.0002849999999999936,-0.0008715000000000042,-0.12380949999999999,-0.326735,-0.1864555,0.1374505,-0.345425,-0.17915550000000002,-0.1286495,-0.674565,-0.12142750000000001,0.1250905,-0.678385,-0.1201335
82,-0.0026865000000000053,0.7106809999999999,0.018121999999999992,-0.1482735,0.490921,0.019881000000000003,-0.2614935,0.7028909999999999,-0.032272999999999996,0.1491365,0.47452099999999997,0.015143999999999998,0.2626965,0.704661,-0.027865,-0.3068935,0.922541,-0.093172,0.2923865,0.937921,-0.093468,-0.0747385,-2.0000000000006124e-05,0.0005220000000000016,0.0747385,1.9999999999992246e-05,-0.0005220000000000016,-0.12384350000000001,-0.315069,-0.193395,0.1384665,-0.33375900000000003,-0.187175,-0.12894350000000002,-0.6628590000000001,-0.125352,0.1251965,-0.666329,-0.12315799999999999
83,-0.003063500000000003,0.7096724999999999,0.016699499999999992,-0.1481865,0.4895925,0.0178455,-0.26178650000000003,0.7012925000000001,-0.0351085,0.1488735,0.4745025,0.0137105,0.2626435,0.7021225,-0.030220500000000004,-0.3078465,0.9180124999999999,-0.09768850000000001,0.2927835,0.9367325,-0.0969845,-0.0748955,-0.0002965000000000051,0.00012849999999999667,0.0748955,0.0002965000000000051,-0.0001285000000000036,-0.1235465,-0.3033875,-0.1994265,0.1394835,-0.3220775,-0.19390649999999998,-0.1287365,-0.6511775,-0.12885649999999998,0.12544349999999999,-0.6542075,-0.1257165
84,-0.003175999999999999,0.711005,0.010678500000000007,-0.147503,0.48991500000000004,0.011592500000000006,-0.26172300000000004,0.701815,-0.0422005,0.148947,0.47547500000000004,0.007694500000000007,0.262687,0.703675,-0.0366455,-0.30795300000000003,0.923805,-0.1062765,0.293257,0.939385,-0.1045925,-0.07519500000000001,-0.00044500000000000095,-0.0002945000000000031,0.07519500000000001,0.00044500000000000095,0.0002945000000000031,-0.122923,-0.291325,-0.2092595,0.14086700000000002,-0.30849499999999996,-0.2038695,-0.128043,-0.638465,-0.13646550000000002,0.12609700000000001,-0.640675,-0.1324845
85,-0.0031159999999999972,0.713145,0.004344499999999987,-0.146749,0.48773500000000003,0.005219499999999988,-0.261479,0.700525,-0.04931350000000001,0.148991,0.47541500000000003,0.0014264999999999833,0.262691,0.704765,-0.04315450000000001,-0.307909,0.930655,-0.11506350000000001,0.293711,0.942845,-0.11223750000000002,-0.07545,-0.0006549999999999889,-0.0007175000000000098,0.07545,0.0006550000000000028,0.0007174999999999959,-0.12284899999999999,-0.278255,-0.2227345,0.142531,-0.293265,-0.2164045,-0.127209,-0.625115,-0.14395950000000002,0.126801,-0.626205,-0.1391405
86,-0.003077000000000004,0.7144900000000001,-0.001707000000000014,-0.146111,0.48700000000000004,-0.0011180000000000079,-0.261221,0.69841,-0.056284000000000015,0.14908899999999997,0.47622000000000003,-0.004621000000000014,0.262749,0.7039300000000001,-0.04920400000000001,-0.307861,0.93643,-0.12370700000000001,0.294209,0.9452,-0.11956000000000001,-0.075711,-0.0006799999999999862,-0.0012680000000000052,0.075711,0.0006800000000000139,0.0012679999999999914,-0.122911,-0.26652,-0.235734,0.143999,-0.28089,-0.22815400000000002,-0.12639100000000003,-0.61369,-0.15107600000000002,0.127379,-0.61353,-0.145418
87,-0.0027125000000000014,0.71733,-0.0076374999999999915,-0.14520450000000001,0.48674,-0.007957499999999992,-0.2609845,0.7017800000000001,-0.0631795,0.1492355,0.47481,-0.010567499999999994,0.2632555,0.7033499999999999,-0.05527349999999999,-0.3076845,0.9442999999999999,-0.1328645,0.2949255,0.94848,-0.1267535,-0.0759305,-0.0005300000000000027,-0.0019874999999999893,0.0759305,0.0005300000000000027,0.001987500000000003,-0.12269450000000001,-0.25434,-0.24880149999999998,0.1455255,-0.26713000000000003,-0.2401415,-0.1256045,-0.6011,-0.15826849999999998,0.1280755,-0.5994299999999999,-0.15171849999999998
88,-0.002250499999999998,0.71917,-0.013561500000000004,-0.14423049999999998,0.48588,-0.015003500000000003,-0.2602005,0.70172,-0.0701695,0.1496695,0.47534999999999994,-0.016419500000000004,0.2639895,0.70522,-0.0614515,-0.30753050000000004,0.95049,-0.14206649999999998,0.29576949999999996,0.9559099999999999,-0.1345615,-0.07615949999999999,-0.0005499999999999949,-0.002773499999999998,0.07615949999999999,0.0005499999999999949,0.002773499999999998,-0.1223505,-0.24205000000000002,-0.2622135,0.14706950000000002,-0.25325,-0.2522635,-0.12478049999999999,-0.58833,-0.16502250000000002,0.1287495,-0.58516,-0.1579125
89,-0.0016404999999999979,0.721115,-0.019601500000000008,-0.14306449999999998,0.48433499999999996,-0.022510500000000003,-0.2593345,0.7016249999999999,-0.07726550000000001,0.1500555,0.475465,-0.022329500000000002,0.2647055,0.706745,-0.0678585,-0.3071745,0.955975,-0.1508645,0.2965855,0.957195,-0.1418155,-0.0763645,-0.0005749999999999922,-0.0034865000000000035,0.0763645,0.0005749999999999922,0.0034864999999999896,-0.1221845,-0.230965,-0.2751115,0.1483655,-0.240785,-0.2635715,-0.1238245,-0.575755,-0.1715645,0.1294455,-0.572145,-0.1639365
90,-0.0007395000000000023,0.7217950000000001,-0.026732000000000006,-0.1416055,0.482965,-0.030915000000000012,-0.2583955,0.701885,-0.085968,0.1506645,0.47494500000000006,-0.02938800000000001,0.2657045,0.707585,-0.07590200000000001,-0.3061355,0.9578650000000001,-0.161914,0.29775450000000003,0.959935,-0.150043,-0.0764985,-0.00038499999999999646,-0.0040000000000000036,0.0764985,0.00038499999999999646,0.00399999999999999,-0.1216555,-0.218075,-0.28858,0.14989449999999999,-0.22577499999999998,-0.27545,-0.12252550000000001,-0.561515,-0.178426,0.1303245,-0.557645,-0.170383
91,0.00015050000000000393,0.72249,-0.034185999999999994,-0.1400035,0.4813,-0.039534,-0.25757349999999996,0.69839,-0.094892,0.15119649999999998,0.47439,-0.036633,0.26701650000000005,0.7083699999999999,-0.084871,-0.3049635,0.95884,-0.172709,0.2987865,0.96056,-0.15876099999999999,-0.0765895,-0.00018000000000001348,-0.004470000000000002,0.0765895,0.00017999999999998573,0.004470000000000002,-0.12117349999999999,-0.20518000000000003,-0.30202,0.1513965,-0.21094000000000002,-0.28724,-0.1209935,-0.54734,-0.18536,0.13113650000000002,-0.54318,-0.176954
92,0.0013159999999999977,0.72441,-0.041615,-0.13805,0.48112,-0.048141,-0.25670000000000004,0.6964,-0.10375899999999999,0.15204,0.47221,-0.044199,0.26871999999999996,0.70958,-0.094096,-0.30356,0.9601500000000001,-0.183302,0.29999,0.96116,-0.167358,-0.076658,0.00025999999999998247,-0.004915000000000003,0.076658,-0.0002600000000000102,0.004915000000000003,-0.12033999999999999,-0.19084,-0.315395,0.15314,-0.19522,-0.299085,-0.11924,-0.5330600000000001,-0.192275,0.13205,-0.528,-0.183411
93,0.0022019999999999965,0.72374,-0.045279,-0.136301,0.47914999999999996,-0.053113999999999995,-0.255961,0.6929799999999999,-0.10900699999999999,0.152599,0.46929,-0.048152,0.269359,0.70915,-0.099853,-0.302431,0.95967,-0.19036,0.301009,0.95971,-0.172655,-0.07674800000000001,0.00043999999999999595,-0.005135000000000001,0.07674800000000001,-0.00043999999999999595,0.005135000000000001,-0.12005099999999999,-0.17687999999999998,-0.324715,0.154469,-0.17998999999999998,-0.306935,-0.117901,-0.51931,-0.195373,0.13244899999999998,-0.51326,-0.185635
94,0.003128000000000004,0.72167,-0.04889200000000002,-0.135223,0.47914999999999996,-0.057636000000000014,-0.255113,0.6924,-0.11463100000000001,0.153307,0.46735000000000004,-0.052163000000000015,0.270137,0.70982,-0.10576900000000002,-0.301243,0.95909,-0.197695,0.302147,0.95737,-0.178127,-0.07688600000000001,0.0006400000000000017,-0.0053500000000000075,0.07688600000000001,-0.0006400000000000017,0.005349999999999994,-0.11916299999999999,-0.16254,-0.3304,0.155657,-0.16501999999999997,-0.31227000000000005,-0.116363,-0.5055499999999999,-0.19847800000000002,0.132877,-0.49839999999999995,-0.187901
95,0.004205,0.71943,-0.05253300000000001,-0.134133,0.47842000000000007,-0.062359000000000005,-0.254013,0.6919000000000001,-0.120552,0.154057,0.46559000000000006,-0.056288000000000005,0.271047,0.7110400000000001,-0.11216000000000001,-0.299803,0.95884,-0.205346,0.303477,0.9543200000000001,-0.184083,-0.077074,0.0008000000000000229,-0.005464999999999998,0.077074,-0.0007999999999999674,0.005464999999999998,-0.11828300000000001,-0.14753999999999995,-0.335935,0.156897,-0.14962999999999993,-0.317585,-0.11498299999999999,-0.4912599999999999,-0.20106200000000002,0.13322699999999998,-0.48336999999999997,-0.190061
96,0.005433999999999999,0.71706,-0.056916999999999995,-0.132985,0.47755000000000003,-0.06709799999999999,-0.252745,0.68896,-0.127575,0.154605,0.46382,-0.06109,0.271995,0.7088099999999999,-0.118883,-0.298245,0.95761,-0.213744,0.304925,0.9498800000000001,-0.190963,-0.077266,0.0010899999999999799,-0.005604999999999999,0.077266,-0.0010899999999999799,0.005604999999999999,-0.11738499999999999,-0.13206,-0.341045,0.158005,-0.13412999999999997,-0.322395,-0.113595,-0.47717,-0.203548,0.13355499999999998,-0.4685,-0.192374
97,0.006527999999999996,0.715055,-0.06120099999999999,-0.13191599999999998,0.476395,-0.071709,-0.252016,0.688755,-0.134514,0.15515400000000001,0.462375,-0.06568199999999999,0.273104,0.7066950000000001,-0.12520499999999998,-0.296856,0.956715,-0.222237,0.306214,0.9456549999999999,-0.197286,-0.077572,0.0012550000000000061,-0.005579999999999988,0.077572,-0.0012550000000000061,0.005580000000000002,-0.116386,-0.12168499999999999,-0.34541999999999995,0.15905399999999997,-0.123145,-0.32676,-0.112386,-0.46383499999999994,-0.20568599999999998,0.133834,-0.454875,-0.19482
98,0.007553,0.713055,-0.06525900000000001,-0.130871,0.475565,-0.076131,-0.250721,0.6888449999999999,-0.14130800000000002,0.155689,0.460065,-0.07028400000000001,0.274369,0.7046749999999999,-0.131111,-0.29535100000000003,0.953285,-0.23086500000000001,0.30743899999999996,0.944995,-0.20417400000000002,-0.077869,0.0015450000000000186,-0.005525000000000016,0.077869,-0.0015450000000000186,0.005525000000000002,-0.11525099999999999,-0.111095,-0.34957499999999997,0.160089,-0.111595,-0.33109500000000003,-0.111091,-0.45045500000000005,-0.20781700000000003,0.133909,-0.441515,-0.19728400000000001
99,0.0083995,0.7128749999999999,-0.06890300000000002,-0.1301825,0.474835,-0.07942900000000001,-0.24948249999999997,0.688355,-0.14658400000000002,0.15611750000000002,0.45855500000000005,-0.07363200000000002,0.2753575,0.7020649999999999,-0.13512100000000002,-0.29414250000000003,0.953125,-0.23712,0.3084475,0.942995,-0.210156,-0.0782505,0.001725000000000032,-0.005620000000000014,0.0782505,-0.0017249999999999766,0.005619999999999986,-0.11418249999999999,-0.101495,-0.35295,0.16088750000000002,-0.10081499999999999,-0.33453,-0.1099425,-0.43896500000000005,-0.20947400000000002,0.1336875,-0.43054499999999996,-0.199131
100,0.009238500000000005,0.71231,-0.07258800000000001,-0.1295295,0.47411000000000003,-0.08323200000000001,-0.2486395,0.69105,-0.152821,0.1565005,0.45805000000000007,-0.07737200000000001,0.2761305,0.70004,-0.139684,-0.2930395,0.95448,-0.2445,0.3094905,0.94396,-0.21661400000000003,-0.0786325,0.0018000000000000238,-0.005630000000000024,0.0786325,-0.0017999999999999683,0.005629999999999996,-0.1131395,-0.08928999999999992,-0.35643,0.1614305,-0.08737999999999996,-0.33814,-0.1083595,-0.42572999999999994,-0.211351,0.13280050000000002,-0.41779999999999995,-0.20128800000000002
101,0.009837000000000002,0.709645,-0.076378,-0.129247,0.472585,-0.087208,-0.247607,0.6890350000000001,-0.159073,0.156673,0.458735,-0.080839,0.27648300000000003,0.697735,-0.144587,-0.292137,0.952105,-0.252545,0.310063,0.9447749999999999,-0.22366,-0.078944,0.001684999999999992,-0.005574999999999997,0.078944,-0.001684999999999992,0.005574999999999997,-0.112407,-0.07697500000000002,-0.35951500000000003,0.161513,-0.07354500000000003,-0.341095,-0.106407,-0.41296499999999997,-0.212392,0.131843,-0.40479499999999996,-0.203285
102,0.010315499999999998,0.7062299999999999,-0.07960300000000002,-0.1291415,0.47118,-0.09019700000000003,-0.2462915,0.6866099999999999,-0.164227,0.1568585,0.45907,-0.08363100000000002,0.2765485,0.69505,-0.14869900000000003,-0.2913015,0.9492,-0.25954,0.3102585,0.94224,-0.229698,-0.0791215,0.0016100000000000003,-0.005560000000000009,0.0791215,-0.0016100000000000003,0.005559999999999982,-0.1118015,-0.0655,-0.36189000000000004,0.1613985,-0.06079000000000001,-0.34312000000000004,-0.1046415,-0.40140000000000003,-0.21246900000000002,0.1308785,-0.39301,-0.20470800000000003
103,0.010414500000000005,0.703805,-0.082865,-0.1292005,0.469205,-0.09308599999999999,-0.24574049999999997,0.684955,-0.168984,0.15699950000000001,0.458522,-0.08632399999999998,0.2765995,0.692095,-0.152934,-0.2906805,0.946795,-0.266945,0.31026950000000003,0.9409750000000001,-0.235755,-0.0793885,0.0016249999999999876,-0.005604999999999999,0.0793885,-0.0016249999999999876,0.005604999999999999,-0.1110705,-0.05278499999999997,-0.363935,0.1611595,-0.046485,-0.345005,-0.1029305,-0.388635,-0.212362,0.1298795,-0.380345,-0.206021
104,0.010364999999999996,0.702005,-0.08574499999999999,-0.129376,0.46759,-0.095493,-0.245426,0.679975,-0.173222,0.156964,0.457675,-0.08883899999999999,0.276464,0.689745,-0.156656,-0.290436,0.940785,-0.27376,0.31002399999999997,0.939155,-0.24115999999999999,-0.07967099999999999,0.0016249999999999876,-0.005639999999999978,0.07967099999999999,-0.0016249999999999876,0.005640000000000006,-0.110266,-0.039654999999999996,-0.36563,0.160814,-0.03190500000000002,-0.3466,-0.10134599999999999,-0.375765,-0.211569,0.128834,-0.36743499999999996,-0.20676099999999997
105,0.010184499999999999,0.700005,-0.087323,-0.1295575,0.466434,-0.096842,-0.2455675,0.676115,-0.175715,0.1571025,0.457779,-0.090113,0.2763725,0.690815,-0.15889999999999999,-0.2906375,0.9358550000000001,-0.278845,0.3096925,0.937365,-0.245035,-0.0799495,0.001695000000000002,-0.005745,0.0799495,-0.001695000000000002,0.005745,-0.1096075,-0.02724500000000002,-0.366355,0.1602425,-0.018645000000000023,-0.347255,-0.1008475,-0.36405499999999996,-0.210719,0.12783250000000002,-0.35642500000000005,-0.20669500000000002
106,0.009801499999999998,0.696845,-0.08878999999999998,-0.1299245,0.464753,-0.09803999999999999,-0.24578450000000002,0.672405,-0.17811,0.1571555,0.456923,-0.09138499999999998,0.2761755,0.691945,-0.16102899999999998,-0.2910145,0.931675,-0.28361499999999995,0.3093155,0.935975,-0.248765,-0.0800805,0.001725000000000032,-0.005754999999999982,0.0800805,-0.0017249999999999766,0.00575500000000001,-0.10911449999999999,-0.014654999999999974,-0.36689499999999997,0.1594955,-0.005324999999999969,-0.34757499999999997,-0.1009145,-0.352475,-0.21003499999999997,0.12665549999999998,-0.34555499999999995,-0.20641099999999998
107,0.009306999999999998,0.6937599999999999,-0.09025699999999999,-0.130453,0.46341699999999997,-0.099135,-0.245943,0.66884,-0.18049199999999999,0.157097,0.456652,-0.09246099999999999,0.275957,0.69327,-0.16343,-0.29153300000000004,0.93052,-0.288015,0.308677,0.9367300000000001,-0.252025,-0.080219,0.0017300000000000093,-0.005764999999999992,0.080219,-0.0017300000000000093,0.00576500000000002,-0.108843,-0.0020700000000000163,-0.36734500000000003,0.158897,0.008169999999999955,-0.347955,-0.101053,-0.34092000000000006,-0.21004499999999998,0.126517,-0.33461,-0.206436
108,0.008615000000000001,0.6896800000000001,-0.09113399999999998,-0.131154,0.462073,-0.10053699999999999,-0.246284,0.66593,-0.18309999999999998,0.156936,0.456182,-0.09367399999999998,0.275086,0.68919,-0.16596699999999998,-0.29221400000000003,0.92946,-0.29259,0.307876,0.93499,-0.25503,-0.08045,0.0016499999999999848,-0.00577999999999998,0.08045,-0.0016499999999999848,0.005780000000000007,-0.10853399999999999,0.01207999999999998,-0.36730999999999997,0.158476,0.022509999999999974,-0.34797999999999996,-0.10133400000000001,-0.32787000000000005,-0.21005999999999997,0.12481600000000001,-0.3229,-0.20557699999999998
109,0.007935500000000002,0.6863,-0.09204099999999998,-0.1318775,0.46045200000000003,-0.101736,-0.24692750000000002,0.6639200000000001,-0.185378,0.1567125,0.455339,-0.09463099999999999,0.2741725,0.68562,-0.167601,-0.2927575,0.9257299999999999,-0.296475,0.3071225,0.92842,-0.257385,-0.0807285,0.0016700000000000048,-0.005834999999999979,0.0807285,-0.0016700000000000048,0.005835000000000007,-0.1081775,0.024260000000000004,-0.367255,0.1581925,0.03478999999999999,-0.34796499999999997,-0.10034749999999999,-0.31687999999999994,-0.20793899999999998,0.1245325,-0.31253,-0.205602
110,0.007123499999999998,0.6832199999999999,-0.09219400000000001,-0.1325815,0.459038,-0.10228600000000002,-0.24784150000000002,0.6661,-0.187807,0.15649849999999998,0.45420900000000003,-0.09500700000000001,0.27286849999999996,0.68298,-0.16807300000000003,-0.29334150000000003,0.9251400000000001,-0.299155,0.30631850000000005,0.92146,-0.25856500000000004,-0.0809575,0.0017199999999999993,-0.005805000000000005,0.0809575,-0.0017199999999999993,0.005804999999999977,-0.1079915,0.036239999999999994,-0.366625,0.1578085,0.04687000000000002,-0.347185,-0.0995815,-0.30577,-0.20515100000000003,0.1241785,-0.3024,-0.20503300000000002
111,0.006186500000000003,0.68118,-0.092248,-0.13321650000000002,0.457772,-0.10296,-0.2492265,0.66988,-0.19140600000000002,0.1560735,0.45365900000000003,-0.09506,0.27148350000000004,0.68103,-0.168187,-0.2938765,0.92252,-0.30229,0.3054235,0.91902,-0.25936000000000003,-0.0811145,0.0017400000000000193,-0.005730000000000013,0.0811145,-0.0017399999999999638,0.005729999999999985,-0.1080265,0.04929,-0.36583,0.1572635,0.061319999999999986,-0.34557000000000004,-0.09888649999999999,-0.29352,-0.202922,0.1254135,-0.29125999999999996,-0.20755200000000001
112,0.005459500000000001,0.6794199999999999,-0.09173199999999998,-0.13378449999999997,0.457622,-0.10313699999999999,-0.25050449999999996,0.6722699999999999,-0.195452,0.1555555,0.454022,-0.09467399999999998,0.27014550000000004,0.67864,-0.16769499999999998,-0.29418449999999996,0.9191199999999999,-0.304165,0.3044555,0.91652,-0.25936499999999996,-0.0811795,0.0017399999999999638,-0.00572499999999998,0.0811795,-0.0017400000000000193,0.005725000000000008,-0.1082445,0.06085999999999997,-0.36411499999999997,0.1566655,0.07439999999999997,-0.342865,-0.0962745,-0.28533,-0.198687,0.1276255,-0.2824,-0.212575
113,0.004706500000000001,0.6772050000000001,-0.09104399999999999,-0.1344415,0.457328,-0.10302599999999998,-0.2520815,0.677645,-0.199118,0.1548685,0.454786,-0.09392199999999998,0.2686485,0.676245,-0.16696899999999998,-0.2945815,0.919165,-0.30571499999999996,0.3033685,0.915675,-0.258885,-0.0812135,0.001635000000000053,-0.005654999999999993,0.0812135,-0.001634999999999942,0.005655000000000021,-0.1085115,0.07231500000000002,-0.36195499999999997,0.1562485,0.086895,-0.339705,-0.0943215,-0.27749499999999994,-0.19538999999999998,0.1299585,-0.273945,-0.21753499999999998
114,0.003967999999999999,0.674955,-0.09028,-0.135125,0.45623499999999995,-0.102807,-0.25344500000000003,0.682385,-0.20268799999999998,0.15413500000000002,0.455881,-0.09303199999999999,0.267235,0.674455,-0.166208,-0.294985,0.918905,-0.30715499999999996,0.302325,0.915665,-0.258165,-0.081248,0.001354999999999995,-0.005604999999999999,0.081248,-0.001354999999999995,0.005604999999999999,-0.108705,0.08365499999999998,-0.359445,0.155935,0.09916499999999995,-0.336265,-0.092275,-0.2699250000000001,-0.191865,0.132345,-0.26527500000000004,-0.22267399999999998
115,0.0031519999999999986,0.67362,-0.08923400000000001,-0.135899,0.45649300000000004,-0.10242100000000001,-0.25456900000000005,0.68699,-0.20606100000000002,0.153191,0.456815,-0.09199800000000002,0.265611,0.67293,-0.16519100000000003,-0.29524900000000004,0.91822,-0.30842,0.301071,0.91542,-0.25712,-0.081182,0.0012600000000000389,-0.00545000000000001,0.081182,-0.0012600000000000389,0.005449999999999983,-0.10896900000000001,0.09497,-0.35662000000000005,0.155661,0.11152000000000001,-0.33262,-0.09029899999999999,-0.26283999999999996,-0.18797200000000003,0.134561,-0.25680000000000003,-0.227807
116,0.002485499999999998,0.67254,-0.08857099999999998,-0.1365535,0.456168,-0.10221899999999999,-0.2558335,0.69093,-0.20954299999999998,0.1523165,0.457919,-0.09118499999999999,0.2641965,0.6714600000000001,-0.164152,-0.2956735,0.91749,-0.3097,0.2998265,0.91489,-0.25633,-0.0810595,0.0010499999999999954,-0.00535999999999999,0.0810595,-0.0010499999999999954,0.005360000000000004,-0.1091435,0.10618,-0.35385,0.1555665,0.12364000000000003,-0.32907,-0.0881235,-0.25622,-0.18412099999999998,0.1368465,-0.24859999999999993,-0.2334
117,0.002003999999999999,0.67145,-0.088289,-0.13707799999999998,0.456031,-0.10216700000000001,-0.256768,0.69416,-0.21315800000000001,0.15155200000000002,0.459369,-0.09088700000000001,0.263492,0.67635,-0.16348500000000002,-0.295878,0.9166300000000001,-0.31113500000000005,0.298672,0.91692,-0.25622500000000004,-0.080841,0.0008399999999999519,-0.005145000000000011,0.080841,-0.0008399999999999519,0.005144999999999983,-0.109218,0.11624000000000001,-0.351225,0.155592,0.13474999999999998,-0.325805,-0.085855,-0.25061999999999995,-0.18071900000000002,0.13962200000000002,-0.24106000000000005,-0.240125
118,0.0016524999999999995,0.67033,-0.08820399999999999,-0.1374385,0.456602,-0.10200599999999999,-0.2570785,0.69708,-0.216434,0.1510815,0.460571,-0.09067999999999998,0.26313149999999996,0.6781,-0.16327,-0.2957885,0.9173899999999999,-0.31244,0.2977615,0.92241,-0.25627,-0.0806945,0.0006500000000000394,-0.0049999999999999906,0.0806945,-0.0006500000000000394,0.0050000000000000044,-0.1091785,0.12473000000000001,-0.3489,0.1557115,0.14516,-0.32219,-0.0834185,-0.24575999999999998,-0.177311,0.1422215,-0.23387999999999998,-0.2464
119,0.0013914999999999986,0.670235,-0.08843300000000001,-0.1377155,0.45672500000000005,-0.102021,-0.2572555,0.698955,-0.219082,0.1507045,0.46166500000000005,-0.090662,0.2628545,0.679185,-0.163285,-0.2956855,0.917195,-0.314035,0.2971545,0.927355,-0.256575,-0.0806095,0.0004250000000000087,-0.0049949999999999994,0.0806095,-0.0004249999999998977,0.0049949999999999994,-0.1090455,0.13306500000000004,-0.346165,0.1557745,0.15429500000000007,-0.318245,-0.0808235,-0.240815,-0.174087,0.1449145,-0.22725499999999998,-0.252855
120,0.0012019999999999982,0.6706300000000001,-0.088628,-0.13788699999999998,0.45675,-0.102047,-0.257407,0.69882,-0.220609,0.150333,0.46227,-0.090428,0.263003,0.67942,-0.163644,-0.29553700000000005,0.91845,-0.315475,0.296863,0.9302699999999999,-0.256675,-0.080593,0.00017999999999995797,-0.0049949999999999994,0.080593,-0.00017999999999995797,0.0049949999999999994,-0.108707,0.13942,-0.343515,0.155763,0.16029,-0.314875,-0.077317,-0.23753000000000002,-0.169687,0.145153,-0.22282999999999997,-0.255625
121,0.001096999999999999,0.671203,-0.088661,-0.13793899999999998,0.45662499999999995,-0.10206100000000001,-0.257569,0.6989749999999999,-0.22140500000000002,0.149941,0.46279499999999996,-0.090111,0.263451,0.680225,-0.164095,-0.295329,0.919665,-0.316915,0.296761,0.9321349999999999,-0.257015,-0.080581,-3.500000000000725e-05,-0.0049949999999999994,0.080581,3.500000000000725e-05,0.0049949999999999994,-0.108389,0.14395499999999994,-0.34269499999999997,0.155901,0.16534499999999996,-0.31189500000000003,-0.077097,-0.23422500000000002,-0.167909,0.14520100000000002,-0.21867500000000006,-0.25578500000000004
122,0.0013354999999999947,0.671727,-0.089063,-0.1378605,0.45657999999999993,-0.10226400000000001,-0.2575205,0.6989799999999999,-0.222734,0.14969949999999999,0.46316999999999997,-0.090076,0.2637095,0.6803899999999999,-0.16473300000000002,-0.29503050000000003,0.9204899999999999,-0.319015,0.2967295,0.93336,-0.257385,-0.0805275,-0.000200000000000089,-0.004964999999999997,0.0805275,0.00019999999999997797,0.004964999999999997,-0.10812050000000001,0.14828999999999992,-0.340865,0.1561595,0.16969999999999996,-0.309525,-0.07685550000000001,-0.2307300000000001,-0.166549,0.1454095,-0.21500000000000008,-0.25609499999999996
123,0.0015139999999999997,0.672122,-0.08942,-0.137918,0.45687500000000003,-0.10227900000000001,-0.257088,0.699095,-0.22407500000000002,0.149402,0.46337500000000004,-0.09020500000000001,0.263842,0.680003,-0.165274,-0.29493800000000003,0.921125,-0.3214,0.29660200000000003,0.934015,-0.25802,-0.08059,-0.0003149999999999542,-0.004930000000000018,0.08059,0.00031500000000006523,0.00492999999999999,-0.108098,0.15157500000000002,-0.34027,0.156362,0.17336500000000005,-0.30755,-0.076759,-0.22831499999999993,-0.165628,0.145422,-0.21202500000000002,-0.25645
124,0.0017055000000000056,0.6726559999999999,-0.08996900000000002,-0.1379915,0.45665,-0.10233300000000002,-0.2566915,0.6986,-0.22512200000000004,0.1492385,0.46401,-0.09033200000000002,0.2641685,0.679003,-0.166005,-0.2949015,0.9214199999999999,-0.32413000000000003,0.2965585,0.93409,-0.25882000000000005,-0.0806575,-0.00047000000000008146,-0.0049000000000000155,0.0806575,0.00046999999999997044,0.004899999999999988,-0.10810149999999999,0.15382999999999997,-0.33904,0.1565385,0.17630999999999997,-0.30593000000000004,-0.0767025,-0.22671000000000008,-0.16511800000000001,0.1454085,-0.20931,-0.25679
125,0.0019215000000000013,0.6729390000000001,-0.090582,-0.1380825,0.45684,-0.10253499999999999,-0.2565425,0.6982900000000001,-0.226493,0.14907749999999997,0.46445000000000003,-0.090532,0.2645675,0.678328,-0.16669499999999998,-0.29481250000000003,0.92122,-0.32703,0.29660749999999997,0.9337000000000001,-0.25975,-0.0807235,-0.0005799999999999139,-0.0048900000000000055,0.0807235,0.0005800000000000249,0.0048900000000000055,-0.1080925,0.15590000000000004,-0.33767,0.1567175,0.17846000000000006,-0.30467,-0.0766155,-0.22499999999999998,-0.165111,0.14534750000000002,-0.20729999999999993,-0.25711
126,0.0021764999999999996,0.673145,-0.091218,-0.1381755,0.45694499999999993,-0.102839,-0.2565755,0.697695,-0.228131,0.1489345,0.464705,-0.090786,0.2649545,0.677639,-0.167311,-0.2946855,0.920355,-0.3301,0.29680449999999997,0.932545,-0.26081,-0.0808065,-0.0006249999999999867,-0.0048699999999999855,0.0808065,0.0006249999999999867,0.004870000000000013,-0.10795550000000001,0.15720499999999998,-0.33664,0.1568745,0.17979499999999998,-0.30385,-0.0765055,-0.2238650000000001,-0.165245,0.14517449999999998,-0.206025,-0.25734
127,0.0024355000000000054,0.673038,-0.09188700000000001,-0.1382815,0.45682999999999996,-0.10304300000000001,-0.25664149999999997,0.69602,-0.22929100000000002,0.1488185,0.46463,-0.09099000000000002,0.2653885,0.677644,-0.16779100000000002,-0.2944915,0.91879,-0.333195,0.29714850000000004,0.93089,-0.261925,-0.0808595,-0.0006199999999999539,-0.004934999999999995,0.0808595,0.0006199999999999539,0.004934999999999995,-0.1079015,0.15704,-0.336115,0.1570085,0.17978,-0.303895,-0.07663149999999999,-0.22350000000000003,-0.16545,0.1451885,-0.20565999999999995,-0.257475
128,0.0027750000000000058,0.673038,-0.092437,-0.138247,0.45682999999999996,-0.10304300000000001,-0.25653699999999996,0.69602,-0.230234,0.148883,0.46463,-0.09098700000000001,0.26615300000000003,0.677644,-0.168495,-0.294257,0.91879,-0.335965,0.297773,0.93089,-0.263135,-0.080894,-0.0006199999999999539,-0.004934999999999995,0.080894,0.0006199999999999539,0.004934999999999995,-0.10786699999999999,0.15646,-0.336115,0.157043,0.17978,-0.303895,-0.076597,-0.22255999999999998,-0.16545,0.145183,-0.20508000000000004,-0.257255
129,0.003172000000000004,0.673038,-0.093195,-0.1382,0.45682999999999996,-0.103038,-0.25662,0.69602,-0.230835,0.14898,0.46463,-0.090979,0.26699,0.677644,-0.16927,-0.29411,0.91879,-0.33777,0.29845,0.93089,-0.26437,-0.080941,-0.0006199999999999539,-0.00494,0.080941,0.0006199999999999539,0.00494,-0.10779999999999999,0.15567999999999999,-0.33642,0.15709,0.17978,-0.30389,-0.07654999999999999,-0.22152000000000005,-0.165445,0.14517000000000002,-0.20448,-0.25699
130,0.0035695000000000006,0.673113,-0.094203,-0.1381445,0.45682999999999996,-0.103199,-0.2565745,0.69602,-0.23082999999999998,0.1490555,0.46463,-0.091003,0.2678355,0.680167,-0.170145,-0.2940345,0.91879,-0.339325,0.2992155,0.93089,-0.26566500000000004,-0.08098649999999999,-0.0006199999999999539,-0.004945000000000005,0.08098649999999999,0.0006199999999999539,0.004945000000000005,-0.10773450000000001,0.15477000000000002,-0.337465,0.15713549999999998,0.17953999999999998,-0.30388499999999996,-0.08048849999999999,-0.21804,-0.16980699999999999,0.1451255,-0.20360999999999996,-0.256735
131,0.003894499999999995,0.672542,-0.09462400000000001,-0.1382195,0.45678,-0.10349,-0.2565595,0.6955,-0.22992,0.1492305,0.46417,-0.09079200000000001,0.2683005,0.679635,-0.170241,-0.2942095,0.91512,-0.338425,0.29997050000000003,0.9296,-0.265895,-0.0807745,-0.00047999999999992493,-0.005104999999999998,0.0807745,0.00048000000000003595,0.005104999999999998,-0.1078895,0.14804000000000006,-0.340325,0.15736050000000001,0.17316000000000004,-0.306945,-0.0834555,-0.21921999999999997,-0.17281000000000002,0.1438005,-0.20767000000000002,-0.25178500000000004
132,0.004607999999999998,0.6723809999999999,-0.09609399999999998,-0.138017,0.45724999999999993,-0.10484199999999998,-0.256677,0.69404,-0.230043,0.149703,0.46292999999999995,-0.09165099999999998,0.269023,0.68329,-0.171116,-0.294267,0.91713,-0.33855,0.301033,0.9292,-0.26657,-0.08072499999999999,-0.000140000000000029,-0.005089999999999983,0.08072499999999999,0.00013999999999991797,0.005090000000000011,-0.10746700000000001,0.13934999999999997,-0.34373,0.15803299999999998,0.16470999999999997,-0.31123999999999996,-0.085986,-0.22206000000000004,-0.17754599999999998,0.142223,-0.21315000000000006,-0.24672
133,0.0055149999999999965,0.67352,-0.09717700000000001,-0.13767000000000001,0.45885000000000004,-0.10585200000000002,-0.25651,0.69153,-0.22906900000000002,0.15042,0.46363000000000004,-0.09258100000000002,0.26968,0.6871400000000001,-0.17156200000000002,-0.29412,0.9179900000000001,-0.33840000000000003,0.30213,0.9310400000000001,-0.26635000000000003,-0.080505,7.00000000000145e-05,-0.005040000000000017,0.080505,-7.00000000000145e-05,0.005039999999999989,-0.10661999999999999,0.13015000000000004,-0.34588,0.15872999999999998,0.15303000000000005,-0.31583000000000006,-0.088234,-0.22676999999999992,-0.181935,0.14040999999999998,-0.22097,-0.24075000000000002
134,0.0062595,0.6786650000000001,-0.09782299999999998,-0.1375605,0.46144100000000005,-0.10664899999999998,-0.25666049999999996,0.690045,-0.22743199999999997,0.1509695,0.467828,-0.09317699999999998,0.27080950000000004,0.691825,-0.17194899999999996,-0.29430049999999996,0.9207350000000001,-0.33758999999999995,0.30289950000000004,0.9376450000000001,-0.26589999999999997,-0.08023849999999999,3.500000000000725e-05,-0.005089999999999983,0.08023849999999999,-3.500000000000725e-05,0.005090000000000011,-0.10604050000000001,0.11502500000000004,-0.34892999999999996,0.1593695,0.13667500000000005,-0.3203,-0.09078049999999999,-0.23717500000000002,-0.18586299999999997,0.1385295,-0.23239500000000002,-0.23454999999999998
135,0.006703999999999999,0.6814749999999999,-0.097706,-0.137666,0.461856,-0.107018,-0.257146,0.688715,-0.22548200000000002,0.151244,0.46734699999999996,-0.093529,0.27195400000000003,0.694665,-0.172234,-0.295346,0.920395,-0.33615,0.30346399999999996,0.937835,-0.26533,-0.079946,0.0002949999999999342,-0.005100000000000007,0.079946,-0.0002950000000000452,0.005099999999999993,-0.105656,0.09225499999999998,-0.3514,0.159904,0.11297499999999999,-0.32445999999999997,-0.093506,-0.25561500000000004,-0.189755,0.13656400000000002,-0.251495,-0.228159
136,0.007064500000000002,0.6839050000000001,-0.097367,-0.1378735,0.46249200000000007,-0.1068,-0.2575335,0.6867350000000001,-0.222828,0.1514065,0.4670910000000001,-0.093456,0.2730865,0.696185,-0.171878,-0.2965135,0.9188550000000001,-0.33407,0.3038965,0.9389850000000001,-0.26422999999999996,-0.07964550000000001,0.00016500000000008175,-0.005099999999999993,0.07964550000000001,-0.00016499999999997073,0.005099999999999993,-0.10540350000000001,0.0696750000000001,-0.35155000000000003,0.16032649999999998,0.08712500000000006,-0.32797,-0.0969035,-0.2753849999999999,-0.193484,0.1346665,-0.272705,-0.221402
137,0.007514000000000002,0.686855,-0.096836,-0.138145,0.463623,-0.106308,-0.25745500000000004,0.687205,-0.219719,0.151545,0.46702899999999997,-0.09323999999999999,0.27386499999999997,0.7004349999999999,-0.170785,-0.29779500000000003,0.919265,-0.331595,0.304235,0.940465,-0.262735,-0.07930899999999999,0.00023499999999998522,-0.005144999999999997,0.07930899999999999,-0.00023500000000004073,0.005145000000000011,-0.10519500000000001,0.043935,-0.352835,0.160645,0.060004999999999975,-0.33064499999999997,-0.10031499999999999,-0.296905,-0.197017,0.132925,-0.29503500000000005,-0.2145
138,0.007756500000000001,0.690025,-0.09568100000000002,-0.1383625,0.465235,-0.10559700000000001,-0.25805249999999996,0.686015,-0.216067,0.15180749999999998,0.467041,-0.092298,0.2742175,0.703965,-0.169622,-0.29951249999999996,0.922775,-0.32869000000000004,0.3044675,0.943615,-0.26047,-0.0789545,0.0002550000000000052,-0.005260000000000015,0.0789545,-0.0002550000000000052,0.005259999999999987,-0.1048325,0.01744499999999999,-0.35276,0.1608575,0.031245000000000023,-0.33249,-0.1038525,-0.320145,-0.200434,0.13135750000000002,-0.319195,-0.207512
139,0.008034,0.693875,-0.09440600000000002,-0.138389,0.46714999999999995,-0.10464900000000002,-0.258669,0.684425,-0.21182900000000002,0.15201099999999998,0.467406,-0.09118800000000002,0.274651,0.706395,-0.168336,-0.301109,0.925155,-0.32513000000000003,0.304601,0.945965,-0.25799000000000005,-0.07861699999999999,0.0002849999999999797,-0.005290000000000017,0.07861699999999999,-0.0002850000000000352,0.005289999999999989,-0.10466900000000001,-0.011645000000000016,-0.35283,0.161051,0.001654999999999962,-0.33337000000000006,-0.10447899999999999,-0.347475,-0.20018800000000003,0.129791,-0.344865,-0.20032500000000003
140,0.007938000000000002,0.69888,-0.09302400000000001,-0.138518,0.468574,-0.10333300000000001,-0.259478,0.68128,-0.20756600000000003,0.151732,0.46746,-0.090034,0.274362,0.71061,-0.16628700000000002,-0.303228,0.92888,-0.32123,0.304332,0.94927,-0.25466,-0.078538,0.00017000000000000348,-0.005400000000000002,0.078538,-0.00017000000000000348,0.005400000000000002,-0.104798,-0.037839999999999985,-0.35145,0.160732,-0.025270000000000015,-0.33201,-0.105358,-0.37242,-0.19892100000000001,0.129442,-0.36859,-0.19653500000000002
141,0.007772999999999997,0.703265,-0.09157,-0.13867600000000002,0.469275,-0.102048,-0.260056,0.6822550000000001,-0.203503,0.151534,0.47062499999999996,-0.088754,0.273774,0.710485,-0.16342,-0.305036,0.925215,-0.31767500000000004,0.30415400000000004,0.951765,-0.250725,-0.078475,-0.0003350000000000297,-0.005424999999999999,0.078475,0.0003349999999999742,0.005425000000000013,-0.10495600000000001,-0.064575,-0.350095,0.160234,-0.053505000000000025,-0.330675,-0.106156,-0.39846500000000007,-0.197612,0.12908399999999998,-0.393485,-0.193795
142,0.007596999999999998,0.706905,-0.089842,-0.138821,0.46914500000000003,-0.100817,-0.260961,0.683065,-0.200608,0.151459,0.470715,-0.08745900000000001,0.272849,0.710845,-0.160003,-0.30689099999999997,0.927335,-0.313615,0.303829,0.954975,-0.246425,-0.07842199999999999,-0.0005749999999999922,-0.0054550000000000015,0.07842199999999999,0.0005749999999999922,0.0054550000000000015,-0.10528100000000001,-0.089665,-0.348825,0.159769,-0.081005,-0.329405,-0.10592100000000002,-0.423675,-0.195865,0.128799,-0.417875,-0.19176300000000002
143,0.006946000000000004,0.707375,-0.08843999999999999,-0.139095,0.46806499999999995,-0.099665,-0.261525,0.682855,-0.198542,0.150975,0.46794499999999994,-0.086596,0.27209500000000003,0.7101649999999999,-0.15732,-0.308825,0.927295,-0.311975,0.303155,0.9533349999999999,-0.24284499999999998,-0.078016,-0.0006650000000000267,-0.0053450000000000025,0.078016,0.0006649999999999712,0.0053450000000000025,-0.105695,-0.11092500000000005,-0.345955,0.158915,-0.10418500000000003,-0.326925,-0.106365,-0.446295,-0.194625,0.12867499999999998,-0.440175,-0.19053599999999998
144,0.005921499999999996,0.710465,-0.08580399999999999,-0.1398795,0.469575,-0.09744299999999999,-0.2626695,0.684235,-0.195098,0.1500705,0.47031500000000004,-0.08452899999999999,0.2708505,0.712005,-0.152642,-0.31095950000000006,0.9298150000000001,-0.30834,0.30199050000000005,0.957725,-0.23724,-0.0774985,-0.0010749999999999926,-0.005089999999999997,0.0774985,0.0010749999999999926,0.005090000000000011,-0.1068095,-0.127515,-0.3409,0.1577505,-0.12293499999999996,-0.32177999999999995,-0.1072295,-0.466195,-0.192583,0.12772050000000001,-0.46033499999999994,-0.18782
145,0.004573999999999999,0.71461,-0.08260299999999998,-0.140928,0.47098999999999996,-0.09475099999999999,-0.264058,0.68669,-0.1911,0.148952,0.47263,-0.08166199999999998,0.269542,0.7149399999999999,-0.147168,-0.313318,0.93584,-0.30337000000000003,0.300662,0.9611099999999999,-0.23143999999999998,-0.077293,-0.0010700000000000154,-0.0047699999999999965,0.077293,0.0010699999999999599,0.00477000000000001,-0.10811799999999999,-0.14242000000000005,-0.33531999999999995,0.156422,-0.13999000000000006,-0.31571,-0.10830799999999999,-0.48535000000000006,-0.190294,0.127292,-0.47968,-0.1851
146,0.0034044999999999995,0.7187399999999999,-0.079727,-0.1415035,0.47201,-0.09226300000000001,-0.26534349999999995,0.6868,-0.187981,0.1480665,0.47502,-0.079095,0.26904649999999997,0.71393,-0.141938,-0.31540349999999995,0.9393,-0.29897,0.2995565,0.96421,-0.22576000000000002,-0.0771045,-0.0012000000000000066,-0.00470000000000001,0.0771045,0.0011999999999999789,0.004699999999999996,-0.1090635,-0.15652,-0.32948,0.1553265,-0.15627000000000002,-0.30946,-0.1097335,-0.50517,-0.188577,0.1269365,-0.49960000000000004,-0.182008
147,0.002037500000000001,0.722735,-0.075557,-0.1421395,0.472865,-0.08844199999999999,-0.26675950000000004,0.6881550000000001,-0.18209399999999998,0.14729050000000002,0.476825,-0.075051,0.2685005,0.716465,-0.135299,-0.3175595,0.9407350000000001,-0.29198,0.2982505,0.965535,-0.21886,-0.07677149999999999,-0.0012649999999999884,-0.0045499999999999985,0.07677149999999999,0.0012650000000000161,0.0045499999999999985,-0.11037949999999999,-0.169705,-0.322,0.1542905,-0.171815,-0.30156,-0.11139950000000001,-0.5242149999999999,-0.184839,0.1263405,-0.518905,-0.177615
148,0.0006790000000000051,0.72628,-0.071417,-0.14270899999999997,0.47333000000000003,-0.08476099999999999,-0.267959,0.68992,-0.176259,0.146841,0.47967,-0.070864,0.267911,0.7187,-0.12839699999999998,-0.31955900000000004,0.94302,-0.28435,0.29711099999999996,0.96954,-0.21191,-0.07647899999999999,-0.0013999999999999846,-0.004349999999999993,0.07647899999999999,0.0014000000000000123,0.004350000000000007,-0.111539,-0.18236999999999998,-0.31408,0.153211,-0.18636999999999998,-0.29289,-0.11266899999999999,-0.54327,-0.18101899999999999,0.12571100000000002,-0.53779,-0.173177
149,-0.0010295,0.7293149999999999,-0.06595899999999999,-0.1435765,0.476245,-0.07972,-0.2693165,0.694415,-0.16891699999999998,0.1462235,0.48405499999999996,-0.065235,0.2665235,0.721065,-0.120565,-0.3221565,0.947605,-0.27463499999999996,0.2958135,0.971725,-0.20388099999999998,-0.0758605,-0.0016550000000000176,-0.003794999999999993,0.0758605,0.0016549999999999898,0.0037950000000000067,-0.1129465,-0.19722500000000004,-0.30284500000000003,0.15146349999999997,-0.20214500000000002,-0.28163499999999997,-0.1143465,-0.564405,-0.175451,0.1248035,-0.560225,-0.167542
150,-0.0024594999999999947,0.73197,-0.060661999999999994,-0.1444655,0.47859999999999997,-0.07461399999999999,-0.2706655,0.69556,-0.161331,0.14571450000000002,0.48491999999999996,-0.05988999999999999,0.2648545,0.7245199999999999,-0.113254,-0.3243855,0.9546,-0.26462399999999997,0.2946245,0.9777899999999999,-0.19605299999999998,-0.07518849999999999,-0.0015400000000000136,-0.0034359999999999946,0.07518849999999999,0.0015399999999999858,0.0034360000000000085,-0.11422550000000001,-0.21092000000000005,-0.291554,0.14951450000000002,-0.21653,-0.27051400000000003,-0.1159655,-0.58406,-0.16993599999999998,0.12397450000000002,-0.58129,-0.161613
151,-0.003684000000000006,0.735475,-0.05533850000000001,-0.145293,0.480265,-0.0695275,-0.27209300000000003,0.697985,-0.1533815,0.145417,0.486835,-0.05467550000000001,0.263487,0.726585,-0.10607550000000002,-0.326253,0.956935,-0.2549795,0.29363700000000004,0.980755,-0.1883595,-0.074308,-0.001554999999999973,-0.0030605000000000077,0.074308,0.0015550000000000008,0.0030604999999999938,-0.115223,-0.224595,-0.2797895,0.147847,-0.23019499999999998,-0.2591295,-0.117413,-0.603965,-0.1643095,0.123347,-0.601835,-0.1560735
152,-0.005094000000000002,0.737455,-0.050130499999999995,-0.14638099999999998,0.481605,-0.0641875,-0.27370099999999997,0.701465,-0.14530749999999998,0.144899,0.488045,-0.04938349999999999,0.262259,0.729335,-0.09884549999999999,-0.328191,0.959875,-0.24474849999999998,0.292549,0.983775,-0.18044349999999998,-0.073755,-0.0015249999999999986,-0.0024974999999999997,0.073755,0.0015249999999999986,0.0024975000000000136,-0.116471,-0.24183500000000002,-0.2674485,0.14565899999999998,-0.251195,-0.2476885,-0.118871,-0.623925,-0.1584715,0.122109,-0.622325,-0.1502095
153,-0.006349500000000002,0.7393974999999999,-0.045011499999999996,-0.1472755,0.4834475,-0.058943499999999996,-0.2746355,0.7022275,-0.1370635,0.1446945,0.49043749999999997,-0.04418149999999999,0.2614745,0.7312675,-0.0923605,-0.3298955,0.9633875000000001,-0.23445449999999998,0.29181450000000003,0.9860975000000001,-0.17347849999999998,-0.07306850000000001,-0.0015465000000000062,-0.0022065,0.07306850000000001,0.0015464999999999923,0.0022065,-0.11767549999999999,-0.2580425,-0.2546845,0.1435945,-0.2688125,-0.2360545,-0.12014549999999999,-0.6410024999999999,-0.1529525,0.1210745,-0.6399425000000001,-0.1446215
154,-0.0077865000000000035,0.7408765,-0.03561699999999999,-0.1484815,0.4842365,-0.04932099999999999,-0.2755815,0.7023265,-0.12465699999999999,0.1442285,0.49152650000000003,-0.034697999999999986,0.2604585,0.7342365,-0.08176399999999999,-0.3317915,0.9641265,-0.220485,0.2909285,0.9880765,-0.162315,-0.07252549999999999,-0.0016704999999999914,-0.0012419999999999931,0.07252549999999999,0.0016705000000000053,0.001242000000000007,-0.1190715,-0.2745435,-0.23735499999999998,0.1412785,-0.2860835,-0.219825,-0.1217615,-0.6582735,-0.143223,0.1199885,-0.6572135,-0.134606
155,-0.009108,0.741375,-0.025896999999999996,-0.149707,0.485935,-0.039306999999999995,-0.276567,0.702715,-0.112349,0.143963,0.492015,-0.024895999999999995,0.260043,0.737765,-0.070775,-0.333677,0.9640449999999999,-0.205686,0.290193,0.988225,-0.150865,-0.072013,-0.0014950000000000033,-0.00044099999999999695,0.072013,0.0014949999999999963,0.00044099999999999695,-0.119547,-0.292245,-0.215916,0.137823,-0.30396500000000004,-0.199126,-0.123507,-0.6761250000000001,-0.131938,0.118803,-0.675085,-0.12326
156,-0.0100395,0.742362,-0.016279500000000002,-0.1509535,0.487202,-0.0294895,-0.27707350000000003,0.704522,-0.10016449999999999,0.1436765,0.49339200000000005,-0.015177499999999997,0.2593065,0.7377819999999999,-0.0599365,-0.3349035,0.963252,-0.1908155,0.2895965,0.989122,-0.1392785,-0.07154949999999999,-0.0014209999999999987,0.0002915000000000001,0.07154949999999999,0.0014210000000000056,-0.0002915000000000001,-0.11992349999999999,-0.308588,-0.1947055,0.1345465,-0.322658,-0.1786155,-0.1251735,-0.6929080000000001,-0.1207905,0.1178765,-0.691938,-0.1121745
157,-0.010706000000000002,0.742928,-0.006506000000000005,-0.152163,0.489138,-0.019245000000000005,-0.277313,0.706828,-0.08771000000000001,0.14337699999999998,0.493898,-0.0052370000000000055,0.258247,0.737338,-0.048945,-0.33553299999999997,0.962298,-0.175717,0.288947,0.987428,-0.12697,-0.071045,-0.0012169999999999993,0.0008699999999999958,0.071045,0.0012169999999999993,-0.0008700000000000027,-0.120073,-0.324482,-0.172837,0.131257,-0.341472,-0.15795700000000001,-0.126773,-0.709412,-0.10942,0.116927,-0.708802,-0.100914
158,-0.0108335,0.7428125,0.002187500000000002,-0.15292250000000002,0.48947250000000003,-0.010328499999999997,-0.27708249999999995,0.7071725,-0.0770365,0.1432175,0.4935725,0.003320500000000004,0.2575575,0.7370125,-0.0395335,-0.3354425,0.9599025,-0.1626755,0.2884775,0.9867125,-0.11591749999999999,-0.0708745,-0.0008375000000000014,0.001072500000000004,0.0708745,0.0008374999999999997,-0.001072499999999997,-0.12023249999999999,-0.33522749999999996,-0.1540155,0.1285175,-0.35566749999999997,-0.1400455,-0.1279125,-0.7208975000000001,-0.0993675,0.1164075,-0.7208475000000001,-0.09106449999999999
159,-0.010857000000000002,0.743166,0.010745499999999998,-0.153675,0.490246,-0.001624500000000001,-0.276865,0.7075359999999999,-0.0665445,0.143075,0.494276,0.011756499999999996,0.25670499999999996,0.7359359999999999,-0.0301395,-0.335195,0.956796,-0.1497585,0.28798500000000005,0.9822059999999999,-0.10493250000000001,-0.070827,-0.0005670000000000007,0.0014015,0.070827,0.0005669999999999998,-0.0014015,-0.120465,-0.345654,-0.1350485,0.125625,-0.369044,-0.12216950000000001,-0.129055,-0.7320040000000001,-0.0894845,0.115825,-0.7325440000000001,-0.08150450000000001
160,-0.010706499999999999,0.742144,0.019299000000000004,-0.1543455,0.491464,0.0069130000000000025,-0.2765655,0.707944,-0.056486,0.1428845,0.49505400000000005,0.019835,0.2558045,0.7346539999999999,-0.020815999999999998,-0.3347555,0.953604,-0.137022,0.2875145,0.9779439999999999,-0.093858,-0.0707865,-0.00024499999999999956,0.0017020000000000021,0.0707865,0.0002450000000000004,-0.0017019999999999987,-0.12071549999999999,-0.35647599999999996,-0.116321,0.12277450000000001,-0.38229599999999997,-0.104442,-0.1300355,-0.742456,-0.07967199999999999,0.1152345,-0.743916,-0.072281
161,-0.010315,0.741868,0.027638999999999997,-0.15490400000000001,0.49282800000000004,0.015186999999999999,-0.276084,0.707548,-0.04663,0.142846,0.49596799999999996,0.027817,0.255166,0.7330679999999999,-0.011657,-0.333614,0.949998,-0.12459799999999999,0.287066,0.974938,-0.08219399999999999,-0.070804,0.00014899999999999983,0.0019179999999999996,0.070804,-0.00014899999999999983,-0.0019179999999999996,-0.120794,-0.368752,-0.09783800000000001,0.11977600000000001,-0.397322,-0.086841,-0.130894,-0.754022,-0.069993,0.114716,-0.754662,-0.062888
162,-0.009660499999999999,0.7414219999999999,0.035178999999999995,-0.1553115,0.493272,0.022913000000000003,-0.2756415,0.708042,-0.037747,0.1427985,0.495052,0.035132,0.2546885,0.7317819999999999,-0.0028439999999999997,-0.3320415,0.9465119999999999,-0.11320999999999999,0.2864985,0.972702,-0.07128,-0.0709165,0.0006250000000000006,0.002051,0.0709165,-0.0006250000000000006,-0.002051,-0.1206015,-0.379088,-0.081232,0.1169685,-0.41043799999999997,-0.070366,-0.1314815,-0.763548,-0.060762000000000004,0.11441849999999999,-0.763328,-0.054076
163,-0.008810499999999999,0.740786,0.038273,-0.1553965,0.494596,0.026149,-0.2750865,0.7088559999999999,-0.033297,0.14307350000000002,0.49521600000000005,0.037901000000000004,0.2545535,0.7297859999999999,0.0014140000000000003,-0.3301565,0.943626,-0.106489,0.2862435,0.970746,-0.06492,-0.0710055,0.0011500000000000017,0.0015020000000000007,0.0710055,-0.0011499999999999982,-0.0015019999999999999,-0.1204365,-0.38861399999999996,-0.06943,0.1145635,-0.422764,-0.058795,-0.1320365,-0.771244,-0.05549,0.1142635,-0.7709640000000001,-0.050126000000000004
164,-0.007899999999999997,0.7405905,0.0403945,-0.155525,0.49505050000000006,0.028853499999999997,-0.274435,0.7091005,-0.0294545,0.143245,0.49551049999999996,0.0400395,0.254195,0.7277305000000001,0.0051325,-0.328175,0.9421105,-0.1007735,0.285945,0.9705205,-0.059271500000000005,-0.071083,0.0013314999999999994,0.0011614999999999998,0.071083,-0.0013314999999999994,-0.0011615,-0.121065,-0.3930295,-0.0621555,0.113755,-0.4271195,-0.0522275,-0.132385,-0.7756595,-0.0520935,0.11409499999999999,-0.7755295,-0.0480345
165,-0.007063,0.739782,0.042836,-0.15573399999999998,0.49559200000000003,0.031559000000000004,-0.27367400000000003,0.708402,-0.025688000000000002,0.143536,0.49539200000000005,0.042458,0.254056,0.725682,0.008916,-0.326154,0.940272,-0.095712,0.285736,0.9696220000000001,-0.053963,-0.07119,0.0016240000000000004,0.000776,0.07119,-0.0016240000000000004,-0.000776,-0.121444,-0.397128,-0.055068,0.113186,-0.431218,-0.045807,-0.132494,-0.779828,-0.048714,0.11425600000000001,-0.779978,-0.045985
166,-0.0061105,0.7393895,0.044482999999999995,-0.1559295,0.4957295,0.033643,-0.2731095,0.7082195,-0.022468,0.1436405,0.4951195,0.044576,0.2539805,0.7253595,0.012823,-0.3242895,0.9394495,-0.09153499999999999,0.2856105,0.9698195000000001,-0.049358,-0.0713725,0.0018104999999999996,0.00045799999999999997,0.0713725,-0.0018104999999999996,-0.0004580000000000001,-0.12166949999999999,-0.3996305,-0.049058000000000004,0.1126105,-0.4337205,-0.040216,-0.1325095,-0.7823605,-0.04565,0.1141405,-0.7825805,-0.04445
167,-0.005327499999999997,0.73906,0.0465985,-0.15584849999999997,0.49561,0.0356585,-0.27266850000000004,0.70804,-0.019401500000000002,0.1437015,0.4949,0.0466705,0.25348149999999997,0.72491,0.0169035,-0.3226385,0.9389,-0.0875575,0.2855115,0.97012,-0.0450115,-0.0715705,0.001915,0.00015949999999999992,0.0715705,-0.001915,-0.00015949999999999992,-0.1220485,-0.4007,-0.0435285,0.1120315,-0.43385,-0.034764500000000004,-0.1326985,-0.78446,-0.0424345,0.1143115,-0.78468,-0.0429295
168,-0.004699499999999998,0.7387385000000001,0.048665,-0.15571549999999998,0.4956085,0.037516999999999995,-0.2723255,0.7079385,-0.016409,0.14382450000000002,0.4944685,0.048708999999999995,0.2529945,0.7244585,0.020677,-0.3211655,0.9386585000000001,-0.083572,0.2853945,0.9705085,-0.040753000000000004,-0.07176249999999999,0.001980500000000003,-0.00012399999999999998,0.07176249999999999,-0.001980500000000003,0.00012399999999999998,-0.1225155,-0.4017315,-0.03869,0.1114045,-0.4335915,-0.029620999999999998,-0.1328455,-0.7861715,-0.039283000000000005,0.11449449999999999,-0.7863915,-0.04177
169,-0.0041735000000000045,0.738329,0.050589499999999996,-0.15542450000000002,0.495399,0.0393385,-0.2719845,0.707669,-0.013388499999999998,0.1440955,0.49381899999999995,0.050817499999999995,0.25258549999999996,0.7238990000000001,0.024275500000000002,-0.3197145,0.938659,-0.0796095,0.2853755,0.971109,-0.036568500000000004,-0.0719275,0.002003999999999999,-0.0003684999999999999,0.0719275,-0.002003999999999999,0.0003684999999999999,-0.1229945,-0.40260100000000004,-0.0342495,0.1107655,-0.433051,-0.0243975,-0.13269450000000002,-0.787281,-0.0364835,0.11482550000000001,-0.787891,-0.0405225
170,-0.003709000000000003,0.737804,0.052445,-0.15502200000000002,0.49525399999999997,0.041093,-0.271542,0.707284,-0.010586000000000002,0.14446799999999999,0.493244,0.052941,0.252318,0.723544,0.027843,-0.31831200000000004,0.938844,-0.07570500000000001,0.285578,0.970744,-0.032949,-0.072094,0.002026,-0.0005970000000000003,0.072094,-0.002026,0.0005970000000000003,-0.123452,-0.403246,-0.030393999999999997,0.110318,-0.43252599999999997,-0.019462999999999998,-0.132462,-0.787806,-0.033641,0.115358,-0.788876,-0.039312
171,-0.0029360000000000002,0.737164,0.054134499999999995,-0.154439,0.495104,0.042678499999999994,-0.270839,0.706974,-0.0079345,0.144911,0.49274400000000007,0.0549005,0.25231099999999995,0.7233240000000001,0.0310845,-0.317149,0.939244,-0.0720415,0.28591099999999997,0.970854,-0.0290125,-0.07228000000000001,0.002041999999999995,-0.0007575000000000004,0.07228000000000001,-0.002042000000000002,0.0007575000000000004,-0.12381900000000001,-0.403516,-0.027566499999999997,0.11016100000000001,-0.432586,-0.015386499999999997,-0.132069,-0.787866,-0.031084499999999998,0.116091,-0.789476,-0.0380945
172,-0.0019910000000000014,0.7365674999999999,0.0557405,-0.15379299999999999,0.49505749999999993,0.0441685,-0.269963,0.7067175,-0.0052925,0.145347,0.49224749999999995,0.0569635,0.252337,0.7231775,0.0344355,-0.316213,0.9398875,-0.0683775,0.28624700000000003,0.9710975000000001,-0.024843499999999998,-0.07246,0.0021084999999999993,-0.0009405000000000004,0.07246,-0.0021084999999999993,0.0009404999999999995,-0.124173,-0.40365249999999997,-0.025202500000000003,0.110207,-0.4327525,-0.011514500000000002,-0.131573,-0.7878225,-0.029337500000000002,0.116897,-0.7899225,-0.036991500000000004
173,-0.0009925000000000012,0.736061,0.0572615,-0.1531435,0.49480100000000005,0.045338500000000004,-0.26902349999999997,0.706681,-0.0028504999999999997,0.1457565,0.491911,0.0588625,0.25231649999999994,0.723081,0.0377195,-0.31535349999999995,0.940791,-0.06488550000000001,0.2866065,0.9707910000000001,-0.0206125,-0.0725695,0.002146999999999996,-0.0010825000000000001,0.0725695,-0.002147000000000003,0.0010825000000000001,-0.1244935,-0.40352899999999997,-0.0234255,0.1103565,-0.432759,-0.008032500000000001,-0.1310535,-0.787489,-0.027680499999999997,0.1177065,-0.790089,-0.0359475
174,-0.0004269999999999942,0.7357705,0.058467,-0.152762,0.49443050000000005,0.046098,-0.26823199999999997,0.7066304999999999,-0.0005919999999999996,0.145968,0.4916605,0.060655,0.252068,0.7231204999999999,0.041072,-0.31452199999999997,0.9418704999999999,-0.061464000000000005,0.28661800000000004,0.9715204999999999,-0.016205999999999998,-0.072644,0.0021484999999999976,-0.0011800000000000005,0.072644,-0.0021484999999999976,0.0011800000000000005,-0.124792,-0.4034295,-0.022167,0.11053800000000001,-0.4326595,-0.00486,-0.13059199999999999,-0.7870195000000001,-0.026109,0.118508,-0.7901395,-0.034967000000000005
