sb224sc-HT22-VT27/4dt907/src/data/kinect_good_preprocessed_A9_mediapipe/B14_kinect_mirrored.csv
FrameNo,nose_3d_x,nose_3d_y,nose_3d_z,left_shoulder_3d_x,left_shoulder_3d_y,left_shoulder_3d_z,left_elbow_3d_x,left_elbow_3d_y,left_elbow_3d_z,right_shoulder_3d_x,right_shoulder_3d_y,right_shoulder_3d_z,right_elbow_3d_x,right_elbow_3d_y,right_elbow_3d_z,left_wrist_3d_x,left_wrist_3d_y,left_wrist_3d_z,right_wrist_3d_x,right_wrist_3d_y,right_wrist_3d_z,left_hip_3d_x,left_hip_3d_y,left_hip_3d_z,right_hip_3d_x,right_hip_3d_y,right_hip_3d_z,left_knee_3d_x,left_knee_3d_y,left_knee_3d_z,right_knee_3d_x,right_knee_3d_y,right_knee_3d_z,left_ankle_3d_x,left_ankle_3d_y,left_ankle_3d_z,right_ankle_3d_x,right_ankle_3d_y,right_ankle_3d_z
113,1.0185135,0.7098835,0.0181105,0.8411545000000001,0.5144035,0.0098765,0.7275545,0.6974235,-0.0598405,1.1675845,0.5140335,-0.0244344999999999,1.2959045,0.7187135,-0.1112585,0.6823845,0.8791435,-0.0992575,1.3713845,0.9433135,-0.1499785,0.9253445,0.0010375,0.0026384999999999,1.0746555,-0.0010374999999999,-0.0026385,0.8889245,-0.3694665,-0.0227265,1.1018645,-0.3795465,-0.0546265,0.8982145,-0.7077265,0.0211745,1.1005745,-0.7249065,0.0052795
114,1.0183,0.7080259999999999,0.0127845,0.842411,0.5128959999999999,0.0046285,0.7276210000000001,0.697796,-0.0670274999999999,1.167231,0.5128659999999999,-0.0286165,1.294841,0.7168359999999999,-0.1178285,0.683531,0.879316,-0.1077195,1.369761,0.941976,-0.1587285,0.924863,0.001169,0.0027165,1.075137,-0.0011689999999999,-0.0027165,0.886711,-0.364064,-0.0326535,1.103141,-0.3739139999999999,-0.0640365,0.898151,-0.702214,0.0135745,1.101071,-0.719684,-0.0020995
115,1.0181054999999999,0.7061465,0.0074544999999999,0.8437965000000001,0.5110165,-0.0006945,0.7277365,0.6973265000000001,-0.0741525,1.1669064999999998,0.5121465000000001,-0.0327325,1.2937565,0.7152665,-0.1241454999999999,0.6849265,0.8789465,-0.1164145,1.3680765,0.9411665,-0.1671855,0.9244065,0.0012134999999999,0.0028635,1.0755935,-0.0012134999999999,-0.0028634999999999,0.8844865000000001,-0.3581135,-0.0428295,1.1045165,-0.3675934999999999,-0.0732994999999999,0.8981265,-0.6957835,0.0060645,1.1016865,-0.7135535,-0.0092614999999999
116,1.0179305,0.70573,0.002107,0.8452985,0.5097100000000001,-0.0061149999999999,0.7280685,0.6971099999999999,-0.0812529999999999,1.1665585,0.5099199999999999,-0.036553,1.2923285,0.7135800000000001,-0.130483,0.6865285,0.8791,-0.125193,1.3663984999999998,0.94089,-0.176013,0.9239195,0.001432,0.002901,1.0760805,-0.001432,-0.002901,0.8822285,-0.35127,-0.0532669999999999,1.1060985,-0.36053,-0.0828049999999999,0.8981885000000001,-0.68822,-0.0013899999999999,1.1024185,-0.7059200000000001,-0.016742
117,1.0178185,0.7036775,-0.0032445,0.8469234999999999,0.5083975000000001,-0.0114185,0.7285135,0.6965675,-0.0882345,1.1663234999999998,0.5076075,-0.0401785,1.2910435,0.7121975,-0.1368504999999999,0.6886935000000001,0.8779775,-0.1339605,1.3644735,0.9403975,-0.1846305,0.9234355,0.0016825,0.0029815,1.0765645,-0.0016825,-0.0029815,0.8799935000000001,-0.3440325,-0.0641285,1.1079235,-0.3530525,-0.0928265,0.8985635000000001,-0.6796625,-0.0086095,1.1032635,-0.6969925,-0.0242645
118,1.0177874999999998,0.7018905,-0.0085735,0.8486575000000001,0.5065105,-0.0167225,0.7290475000000001,0.6965405,-0.0952855,1.1661775,0.5047005,-0.0435525,1.2897174999999999,0.7105105,-0.1428905,0.6910775,0.8781505000000001,-0.1422805,1.3621075,0.9392605,-0.1929705,0.9229134999999999,0.0019224999999999,0.0030234999999999,1.0770865,-0.0019225,-0.0030234999999999,0.8776174999999999,-0.3363394999999999,-0.0753935,1.1098875,-0.3447194999999999,-0.1031685,0.8990675,-0.6700195,-0.0158145,1.1041074999999998,-0.6866895,-0.0320125
119,1.0176939999999999,0.699754,-0.0135354999999999,0.8502040000000001,0.504464,-0.0217444999999999,0.7296039999999999,0.6958340000000001,-0.1020015,1.165964,0.5035040000000001,-0.0472024999999999,1.288274,0.709314,-0.1486605,0.6936439999999999,0.877664,-0.1500705,1.359664,0.938244,-0.2008305,0.922417,0.002163,0.0030395,1.077583,-0.002163,-0.0030395,0.875224,-0.328626,-0.0865475,1.111704,-0.336486,-0.1136655,0.899564,-0.659806,-0.0228544999999999,1.104874,-0.675846,-0.0396614999999999
120,1.017682,0.6981080000000001,-0.0183385,0.8518450000000001,0.502378,-0.0266365,0.730505,0.6956680000000001,-0.1085484999999999,1.165825,0.501918,-0.0507095,1.287205,0.707898,-0.1541195,0.6963349999999999,0.878098,-0.1574495,1.3568349999999998,0.934058,-0.2082595,0.921923,0.0024589999999999,0.0031604999999999,1.078077,-0.002459,-0.0031605,0.873015,-0.320112,-0.0977495,1.113535,-0.327672,-0.1243355,0.900035,-0.6485519999999999,-0.0297465,1.105705,-0.663522,-0.0473335
121,1.0176135,0.6959255,-0.0216169999999999,0.8531955,0.5003455,-0.030483,0.7314455,0.6932855,-0.113172,1.1655954999999998,0.4996855,-0.053359,1.2861755000000001,0.7067155,-0.158024,0.6989055,0.8766155,-0.162674,1.3554655,0.9353555,-0.212714,0.9216135,0.0025775,0.003207,1.0783865,-0.0025774999999999,-0.003207,0.8716055,-0.3131445,-0.106768,1.1147155,-0.3202945,-0.13285,0.9003855000000001,-0.6384245,-0.0351299999999999,1.1062555,-0.6526045,-0.053418
122,1.01763,0.6932245,-0.0250699999999999,0.854302,0.4987045,-0.0342269999999999,0.732422,0.6914145,-0.117656,1.165592,0.4985445,-0.0560529999999999,1.285302,0.7053945,-0.161721,0.701262,0.8747345,-0.168161,1.353962,0.9363945,-0.2168209999999999,0.921352,0.0026965,0.003293,1.078648,-0.0026964999999999,-0.0032929999999999,0.870242,-0.3059655,-0.1157919999999999,1.115822,-0.3127755,-0.141207,0.900622,-0.6278455,-0.0406339999999999,1.106712,-0.6409755,-0.0593509999999999
123,1.017872,0.6909190000000001,-0.028627,0.855299,0.496829,-0.03791,0.733509,0.689449,-0.122319,1.165709,0.496879,-0.058666,1.2845689999999998,0.7045790000000001,-0.16523,0.703619,0.872859,-0.17353,1.352549,0.937259,-0.22067,0.921092,0.002833,0.0033279999999999,1.078908,-0.002833,-0.003328,0.869309,-0.294421,-0.12467,1.116979,-0.3014509999999999,-0.149586,0.900989,-0.616511,-0.046075,1.107249,-0.628741,-0.06506
124,1.0180935,0.68821,-0.0320644999999999,0.8561105,0.49461,-0.0415524999999999,0.7344904999999999,0.68827,-0.1268715,1.1657705,0.4956699999999999,-0.0613325,1.2838205,0.7036600000000001,-0.1685645,0.7054405,0.87138,-0.1786145,1.3511505,0.93828,-0.2243745,0.9208725000000001,0.002984,0.0032205,1.0791274999999998,-0.002984,-0.0032204999999999,0.8685305,-0.28235,-0.1331685,1.1179205,-0.28991,-0.1577454999999999,0.9012705,-0.6048,-0.0512934999999999,1.1077105,-0.61596,-0.0706695
125,1.018279,0.6855330000000001,-0.0400125,0.8567570000000001,0.4938829999999999,-0.0497625,0.7354070000000001,0.687343,-0.1359715,1.1656469999999999,0.493723,-0.0689615,1.282947,0.7018530000000001,-0.1763725,0.706847,0.870263,-0.1882825,1.348857,0.933713,-0.2333325,0.920771,0.003128,0.0032824999999999,1.079229,-0.0031279999999999,-0.0032825,0.867537,-0.2686769999999999,-0.1464375,1.118577,-0.2765269999999999,-0.1700905,0.901537,-0.591347,-0.0610835,1.108057,-0.601437,-0.0804365
126,1.018486,0.6863699999999999,-0.048919,0.857715,0.49155,-0.0588119999999999,0.7361850000000001,0.688,-0.1461029999999999,1.164845,0.49266,-0.0776019999999999,1.281585,0.70122,-0.184967,0.7080150000000001,0.8724000000000001,-0.199137,1.346765,0.93199,-0.2430169999999999,0.920682,0.00306,0.003444,1.079318,-0.0030599999999999,-0.003444,0.8650050000000001,-0.25264,-0.1638919999999999,1.119285,-0.26084,-0.186127,0.901815,-0.5753699999999999,-0.071866,1.108305,-0.5845499999999999,-0.0910339999999999
127,1.0187395,0.6866650000000001,-0.0578814999999999,0.8585754999999999,0.490745,-0.0678685,0.7368954999999999,0.688925,-0.1561275,1.1637655,0.491265,-0.0862315,1.2801755,0.7001949999999999,-0.1932875,0.7089955,0.873815,-0.2099675,1.3450955,0.930795,-0.2528475,0.9206505,0.003195,0.0037044999999999,1.0793495,-0.003195,-0.0037044999999999,0.8626155,-0.236935,-0.1807405,1.1199255,-0.245885,-0.2017975,0.9020954999999999,-0.559645,-0.0824805,1.1082955,-0.568095,-0.1010534999999999
128,1.0189875,0.6865600000000001,-0.066672,0.8594335,0.4895,-0.076743,0.7375935,0.6896100000000001,-0.165864,1.1627135,0.48909,-0.094883,1.2787335,0.6986100000000001,-0.201478,0.7097035,0.8761300000000001,-0.221048,1.3433135,0.9291,-0.262448,0.9206575,0.00325,0.0038219999999999,1.0793425,-0.00325,-0.003822,0.8604935,-0.22099,-0.197563,1.1205934999999998,-0.23067,-0.217208,0.9024335,-0.54325,-0.092786,1.1081935,-0.55106,-0.110666
129,1.0191489999999999,0.686775,-0.075581,0.8603810000000001,0.488405,-0.085866,0.738201,0.690055,-0.175778,1.161601,0.4870949999999999,-0.103782,1.277161,0.697435,-0.20986,0.710331,0.876645,-0.23243,1.3418109999999999,0.930745,-0.27231,0.920646,0.003275,0.00382,1.079354,-0.003275,-0.00382,0.8585510000000001,-0.205825,-0.21442,1.121221,-0.215245,-0.23249,0.902731,-0.526015,-0.1033029999999999,1.107891,-0.533695,-0.120237
130,1.0194405,0.687065,-0.084257,0.8616715,0.487075,-0.09469,0.7390115000000002,0.691285,-0.185435,1.1607215,0.485935,-0.112389,1.2759615,0.694855,-0.217975,0.7111115,0.877865,-0.243875,1.3406514999999999,0.929065,-0.281815,0.9205825,0.0033549999999999,0.003835,1.0794175,-0.0033549999999999,-0.003835,0.8569515,-0.1903049999999999,-0.231005,1.1219915,-0.199955,-0.247445,0.9031715,-0.508385,-0.113494,1.1077815,-0.515925,-0.129337
131,1.019928,0.687335,-0.092912,0.863003,0.486915,-0.103285,0.739913,0.691935,-0.195201,1.159913,0.4849449999999999,-0.120803,1.274793,0.693525,-0.225719,0.712143,0.878475,-0.254795,1.3396029999999999,0.927575,-0.291475,0.920618,0.0035649999999999,0.0038249999999999,1.079382,-0.003565,-0.003825,0.855593,-0.174945,-0.247165,1.122783,-0.184455,-0.262035,0.903673,-0.490835,-0.123394,1.107713,-0.498365,-0.138135
132,1.0201875,0.68777,-0.101541,0.8640765,0.48578,-0.111999,0.7405565000000001,0.69289,-0.204465,1.1587865,0.48311,-0.129233,1.2733865,0.6921999999999999,-0.23342,0.7130164999999999,0.87906,-0.265505,1.3382065,0.92577,-0.301065,0.9206305,0.00358,0.0038349999999999,1.0793695,-0.00358,-0.003835,0.8539565,-0.15846,-0.262875,1.1232965,-0.16805,-0.276365,0.9037265,-0.4724799999999999,-0.132982,1.1073665,-0.47996,-0.146621
133,1.0206315,0.688445,-0.1099559999999999,0.8651255,0.485655,-0.1201509999999999,0.7414054999999999,0.693075,-0.2135709999999999,1.1577155000000001,0.480805,-0.1374339999999999,1.2721755,0.687675,-0.2407389999999999,0.7142355,0.8790450000000001,-0.27595,1.3369055,0.920935,-0.31038,0.9206795,0.0036549999999999,0.00395,1.0793205,-0.003655,-0.0039499999999999,0.8525555000000001,-0.140875,-0.27829,1.1241055,-0.1509849999999999,-0.29035,0.9039755,-0.4540949999999999,-0.1430719999999999,1.1072255,-0.4612449999999999,-0.1547859999999999
134,1.0212154999999998,0.6859299999999999,-0.113212,0.8663135,0.48383,-0.123485,0.7424535,0.69233,-0.217631,1.1569734999999999,0.48123,-0.140652,1.2717735000000001,0.68438,-0.243563,0.7156635,0.87791,-0.28105,1.3366635,0.91669,-0.31408,0.9206555,0.00339,0.0038999999999999,1.0793445,-0.00339,-0.0039,0.8517735,-0.1254199999999999,-0.2880399999999999,1.1251635,-0.13583,-0.29895,0.9044135,-0.43825,-0.147955,1.1072235,-0.44503,-0.157684
135,1.0216715,0.681805,-0.115007,0.8671285,0.484625,-0.125575,0.7432785,0.689805,-0.220225,1.1567285,0.481245,-0.142502,1.2715485,0.680515,-0.2449739999999999,0.7169384999999999,0.875775,-0.28451,1.3362985,0.910885,-0.31618,0.9206605,0.0034449999999999,0.00374,1.0793395,-0.0034449999999999,-0.0037399999999999,0.8517385,-0.111435,-0.29295,1.1258585,-0.122215,-0.3033599999999999,0.9049385,-0.424475,-0.1514319999999999,1.1070985,-0.430805,-0.1591709999999999
136,1.0219515,0.67991,-0.116476,0.8676545,0.4827199999999999,-0.127346,0.7440344999999999,0.6878599999999999,-0.222191,1.1564945,0.47917,-0.144068,1.2712044999999998,0.6792199999999999,-0.246063,0.7181645,0.8775,-0.287465,1.3357245,0.90881,-0.317885,0.9206465,0.0035299999999999,0.0034949999999999,1.0793535,-0.00353,-0.003495,0.8514645000000001,-0.09424,-0.297745,1.1264144999999999,-0.10504,-0.307725,0.9053145,-0.40753,-0.154425,1.1068145,-0.41351,-0.160302
137,1.0223895,0.6781349999999999,-0.117737,0.8683485,0.481965,-0.128967,0.7450384999999999,0.686475,-0.224042,1.1565085,0.477975,-0.145397,1.2712685000000001,0.678075,-0.246965,0.7196485,0.8787450000000001,-0.28994,1.3354385,0.907035,-0.3194099999999999,0.9206945,0.0036149999999999,0.00328,1.0793055,-0.0036149999999999,-0.00328,0.8513885,-0.077175,-0.30194,1.1271485,-0.088115,-0.31144,0.9058984999999999,-0.391445,-0.1571,1.1067225,-0.397215,-0.161217
138,1.0227164999999998,0.675635,-0.118507,0.8686895,0.481035,-0.129915,0.7455695,0.685515,-0.225364,1.1564595,0.476995,-0.146123,1.2712295,0.677135,-0.247603,0.7216195000000001,0.877125,-0.291795,1.3351495,0.905015,-0.320135,0.9206945,0.003665,0.0032849999999999,1.0793055,-0.0036649999999999,-0.003285,0.8520695,-0.064485,-0.305235,1.1277495,-0.0753949999999999,-0.314515,0.9062995,-0.3754149999999999,-0.159042,1.1065315,-0.3808749999999999,-0.16158
139,1.022858,0.67284,-0.119206,0.8688359999999999,0.47946,-0.130536,0.7465459999999999,0.68429,-0.226565,1.156386,0.47567,-0.146728,1.271156,0.6777299999999999,-0.248291,0.723346,0.87586,-0.29327,1.3347959999999999,0.90606,-0.3209,0.920659,0.0035899999999999,0.0031799999999999,1.0793409999999999,-0.00359,-0.00318,0.8528160000000001,-0.05222,-0.30798,1.128356,-0.063,-0.3171,0.906736,-0.35925,-0.159284,1.1063109999999998,-0.36551,-0.161838
140,1.0229855,0.6712,-0.119624,0.8690825,0.47763,-0.130935,0.7476525,0.68419,-0.227244,1.1564424999999998,0.4750899999999999,-0.146858,1.2709625,0.6784399999999999,-0.2489029999999999,0.7249125000000001,0.8765299999999999,-0.29452,1.3345625,0.90796,-0.32123,0.9207415,0.0033499999999999,0.00314,1.0792585,-0.00335,-0.00314,0.8536125,-0.03845,-0.31008,1.1291025000000001,-0.04889,-0.31904,0.9071635000000001,-0.34265,-0.160854,1.1061895,-0.34876,-0.162005
141,1.0232094999999999,0.669575,-0.11972,0.8694655,0.477935,-0.131199,0.7487055,0.6828449999999999,-0.22791,1.1566655,0.4757749999999999,-0.146887,1.2713155,0.6788649999999999,-0.2497249999999999,0.7263855,0.875985,-0.295495,1.3341255,0.904845,-0.3214249999999999,0.9208695000000001,0.0034349999999999,0.003115,1.0791305,-0.003435,-0.003115,0.8543555,-0.024725,-0.311675,1.1298955,-0.035465,-0.320295,0.9077025,-0.327145,-0.162138,1.1061205,-0.3330850000000001,-0.162055
142,1.0232505,0.667645,-0.119725,0.8697005,0.47647,-0.131216,0.7495605000000001,0.682235,-0.228391,1.1566905,0.476029,-0.146892,1.2715105,0.681835,-0.25027,0.7274505,0.876385,-0.2963099999999999,1.3334905,0.904295,-0.32153,0.9210755,0.003205,0.0030999999999999,1.0789245,-0.0032049999999999,-0.0030999999999999,0.8549505,-0.011465,-0.3126299999999999,1.1305304999999999,-0.0225549999999999,-0.32099,0.9080295,-0.312265,-0.163208,1.1059295,-0.3180349999999999,-0.162073
143,1.0231735,0.66864,-0.119515,0.8697755,0.475774,-0.13115,0.7501755,0.68239,-0.228612,1.1568155,0.474707,-0.146605,1.2716355,0.68479,-0.250705,0.7281955,0.8774200000000001,-0.297095,1.3327655,0.90957,-0.321565,0.9211595,0.0033699999999999,0.003025,1.0788405,-0.0033699999999999,-0.003025,0.8554455000000001,0.00396,-0.313115,1.1309855,-0.0073599999999999,-0.321385,0.9082365,-0.2950699999999999,-0.163298,1.1056305,-0.30106,-0.162031
144,1.0229884999999999,0.66918,-0.1192399999999999,0.8696405,0.473917,-0.1307859999999999,0.7506205,0.68292,-0.2286939999999999,1.1568805,0.472923,-0.1458219999999999,1.2712805,0.68693,-0.25028,0.7282705,0.87827,-0.29771,1.3318905,0.91344,-0.32152,0.9211385,0.00339,0.0029,1.0788615,-0.00339,-0.0028999999999999,0.8558905,0.0189699999999999,-0.31287,1.1311905,0.00755,-0.3211299999999999,0.9082835,-0.2783099999999999,-0.163036,1.1052485,-0.2846499999999999,-0.1617549999999999
145,1.0228935,0.66849,-0.1187719999999999,0.8695634999999999,0.47428,-0.130185,0.7509235000000001,0.68282,-0.228636,1.1570835,0.4747709999999999,-0.1449679999999999,1.2711835,0.688,-0.2499799999999999,0.7286235000000001,0.87732,-0.29842,1.3313234999999999,0.9123,-0.32141,0.9210285,0.0033199999999999,0.00286,1.0789715,-0.00332,-0.00286,0.8564134999999999,0.03147,-0.31256,1.1312735,0.0203799999999999,-0.32079,0.9083965,-0.2639600000000001,-0.1626979999999999,1.1049585,-0.27069,-0.1613679999999999
146,1.022583,0.6678649999999999,-0.1181639999999999,0.869253,0.4746419999999999,-0.129499,0.750813,0.682395,-0.228472,1.1569829999999999,0.47633,-0.1441319999999999,1.270893,0.689165,-0.2497599999999999,0.7286429999999999,0.8769549999999999,-0.2991,1.3303729999999998,0.910895,-0.32122,0.920988,0.0033849999999999,0.0027999999999999,1.079012,-0.003385,-0.0027999999999999,0.856503,0.0438749999999999,-0.31222,1.131133,0.0331549999999999,-0.32044,0.908292,-0.249955,-0.162349,1.10447,-0.256975,-0.1609499999999999
147,1.0223595,0.6678949999999999,-0.117486,0.8691675,0.4741729999999999,-0.128751,0.7510675000000001,0.6818649999999999,-0.228257,1.1569775,0.4770659999999999,-0.143359,1.2705674999999998,0.686475,-0.24953,0.7287675,0.8816149999999999,-0.2997499999999999,1.3293975,0.909485,-0.32121,0.9209775,0.0034349999999999,0.0027999999999999,1.0790225,-0.003435,-0.0027999999999999,0.8564475,0.0558849999999999,-0.31181,1.1311475,0.0454349999999999,-0.31982,0.9083435,-0.236905,-0.16189,1.1041855,-0.2440650000000001,-0.160541
148,1.021802,0.6679849999999999,-0.11663,0.868846,0.4746839999999999,-0.127995,0.750666,0.681755,-0.2279,1.156776,0.4775999999999999,-0.142243,1.2701959999999999,0.6844349999999999,-0.2491249999999999,0.728326,0.880385,-0.300135,1.328036,0.906685,-0.321845,0.9209130000000001,0.0036549999999999,0.002725,1.079087,-0.003655,-0.002725,0.8560960000000001,0.0674749999999999,-0.310625,1.131016,0.0572549999999999,-0.318315,0.908137,-0.224435,-0.161041,1.103681,-0.231435,-0.159964
149,1.0213335,0.668345,-0.1153609999999999,0.8686125,0.4750839999999999,-0.126516,0.7503625,0.681615,-0.2271889999999999,1.1566625,0.478002,-0.140699,1.2696125,0.682635,-0.2481149999999999,0.7279825,0.879885,-0.300065,1.3266925,0.902245,-0.322125,0.9207695,0.0038049999999999,0.002765,1.0792305,-0.003805,-0.0027649999999999,0.8558625,0.0780749999999999,-0.3085449999999999,1.1311225,0.0679549999999999,-0.316435,0.9080445,-0.213005,-0.159502,1.1032915,-0.219735,-0.159013
150,1.0210685,0.66795,-0.114017,0.8685525000000001,0.473386,-0.124645,0.7502625,0.68157,-0.2265039999999999,1.1567725,0.477898,-0.139109,1.2694225000000001,0.67979,-0.2471249999999999,0.7277325,0.88078,-0.299965,1.3259925,0.90184,-0.3224749999999999,0.9206265,0.00373,0.002785,1.0793735,-0.00373,-0.002785,0.8558525,0.0876299999999999,-0.306355,1.1315225,0.07743,-0.3143249999999999,0.9081575,-0.20241,-0.157868,1.1032055,-0.20926,-0.158006
151,1.0210275,0.66828,-0.1124469999999999,0.8687905,0.474143,-0.1227169999999999,0.7501805,0.68236,-0.225711,1.1571105,0.4777749999999999,-0.137232,1.2695005,0.67852,-0.246095,0.7276104999999999,0.8825099999999999,-0.299855,1.3256204999999999,0.90194,-0.322715,0.9207335000000001,0.00385,0.002805,1.0792665,-0.00385,-0.002805,0.8560405,0.0978699999999999,-0.303565,1.1322205,0.0876199999999999,-0.3118849999999999,0.9084625,-0.19137,-0.156007,1.1033575,-0.19828,-0.15659
152,1.020465,0.66745,-0.110975,0.8685039999999999,0.473444,-0.120798,0.7493540000000001,0.68198,-0.224642,1.156944,0.477999,-0.135826,1.269184,0.67692,-0.245055,0.726904,0.88368,-0.299685,1.324754,0.89964,-0.322815,0.920641,0.00385,0.0028249999999999,1.079359,-0.00385,-0.002825,0.855644,0.1056599999999999,-0.301035,1.132644,0.09544,-0.309595,0.908349,-0.18283,-0.153996,1.103077,-0.18981,-0.154931
153,1.0202034999999998,0.667245,-0.1093449999999999,0.8685935000000001,0.4730769999999999,-0.1188049999999999,0.7486135,0.6816249999999999,-0.2235319999999999,1.1571535,0.4779369999999999,-0.1343649999999999,1.2690735,0.675565,-0.2439899999999999,0.7264235,0.883815,-0.2994799999999999,1.3244634999999998,0.8971849999999999,-0.3228799999999999,0.9206125000000001,0.0039749999999999,0.00287,1.0793875,-0.003975,-0.0028699999999999,0.8555035,0.1128349999999999,-0.29844,1.1334935,0.1027449999999999,-0.3072,0.9090485,-0.174965,-0.1508419999999999,1.1032885,-0.1821250000000001,-0.153217
154,1.019774,0.66605,-0.1075349999999999,0.868476,0.472866,-0.1167029999999999,0.7476659999999999,0.68144,-0.2222299999999999,1.157236,0.477938,-0.1327229999999999,1.2688959999999998,0.67412,-0.242805,0.725726,0.88323,-0.298775,1.323896,0.89661,-0.322665,0.9206890000000001,0.00385,0.002915,1.079311,-0.0038499999999999,-0.002915,0.855106,0.11951,-0.295525,1.134196,0.10948,-0.304685,0.909529,-0.1677199999999999,-0.147583,1.103336,-0.1750999999999999,-0.151274
155,1.0192755,0.66526,-0.105449,0.8680695,0.4729629999999999,-0.114409,0.7464595,0.6822999999999999,-0.220827,1.1570095,0.4775499999999999,-0.130695,1.2688595,0.6730799999999999,-0.241675,0.7247995,0.8823599999999999,-0.2976149999999999,1.3230595,0.8964599999999999,-0.322115,0.9207295,0.0036999999999999,0.003145,1.0792705,-0.0037,-0.003145,0.8542995000000001,0.1266299999999999,-0.292075,1.1350195,0.1165899999999999,-0.301975,0.9100115,-0.16011,-0.143763,1.1033365,-0.16782,-0.148733
156,1.0187689999999998,0.66404,-0.1033039999999999,0.867633,0.4740909999999999,-0.112397,0.745113,0.6817799999999999,-0.219377,1.156863,0.4777809999999999,-0.1286199999999999,1.2684630000000001,0.67567,-0.2405399999999999,0.723833,0.8800899999999999,-0.29641,1.3221829999999999,0.89643,-0.32155,0.920849,0.0035799999999999,0.00334,1.079151,-0.00358,-0.0033399999999999,0.8533729999999999,0.1328299999999999,-0.28871,1.135763,0.1227899999999999,-0.29938,0.910531,-0.15306,-0.140033,1.103338,-0.16149,-0.1462379999999999
157,1.0182805,0.663295,-0.1011709999999999,0.8671975000000001,0.475761,-0.1105809999999999,0.7437875,0.681475,-0.217889,1.1568075,0.478696,-0.1265609999999999,1.2680575,0.678415,-0.2394549999999999,0.7228375,0.883815,-0.295255,1.3215474999999999,0.897995,-0.320405,0.9209665,0.003395,0.0036049999999999,1.0790335,-0.003395,-0.0036049999999999,0.8523475,0.138955,-0.285415,1.1363975,0.128985,-0.296815,0.9109805,-0.1460749999999999,-0.1363879999999999,1.1032974999999998,-0.155325,-0.1438559999999999
158,1.017862,0.661755,-0.099447,0.866844,0.476634,-0.10929,0.742624,0.680085,-0.216739,1.156884,0.478294,-0.124801,1.267744,0.679835,-0.238645,0.721894,0.8860250000000001,-0.294485,1.3210739999999999,0.899295,-0.319695,0.9211469999999999,0.003305,0.0037849999999999,1.078853,-0.003305,-0.003785,0.851444,0.143565,-0.282705,1.137004,0.133625,-0.294535,0.9114470000000001,-0.1406049999999999,-0.133251,1.103279,-0.1506549999999999,-0.14188
159,1.0175225,0.660985,-0.0975779999999999,0.8665385,0.479121,-0.1082489999999999,0.7416285,0.679955,-0.215517,1.1570984999999998,0.478135,-0.1231289999999999,1.2679685,0.682135,-0.2386049999999999,0.7213285,0.8880950000000001,-0.2935649999999999,1.3206385,0.901175,-0.3190349999999999,0.9212765,0.0032649999999999,0.004005,1.0787235,-0.0032649999999999,-0.0040049999999999,0.8506485,0.148315,-0.279945,1.1376184999999999,0.138375,-0.2922249999999999,0.9119555,-0.1348049999999999,-0.1302549999999999,1.1032995,-0.1458049999999999,-0.1399989999999999
160,1.0172614999999998,0.6600050000000001,-0.095922,0.8663065,0.480376,-0.1074249999999999,0.7408365,0.679,-0.2144309999999999,1.1572465,0.477944,-0.121882,1.2682565000000001,0.68322,-0.238725,0.7205565,0.88897,-0.293025,1.3202665,0.90198,-0.318565,0.9214445,0.0033199999999999,0.0041849999999999,1.0785555,-0.0033199999999999,-0.0041849999999999,0.8498965,0.1517,-0.277705,1.1382765,0.14184,-0.290335,0.9125395000000001,-0.13034,-0.127593,1.1034665,-0.1423999999999999,-0.138589
161,1.0171245,0.658979,-0.094356,0.8661385,0.4821629999999999,-0.10671,0.7402584999999999,0.679055,-0.213763,1.1575085,0.4782899999999999,-0.120758,1.2684985,0.684615,-0.238885,0.7198585,0.8897849999999999,-0.292505,1.3199485,0.903125,-0.318105,0.9216075,0.0033149999999999,0.0044249999999999,1.0783925,-0.003315,-0.004425,0.8491785000000001,0.1549049999999999,-0.275485,1.1387785,0.1452749999999999,-0.288655,0.9131345,-0.126055,-0.12514,1.1036584999999999,-0.139155,-0.137428
162,1.0170015,0.657738,-0.093154,0.8659335,0.483933,-0.106119,0.7397735,0.6795150000000001,-0.21359,1.1577235,0.478814,-0.119733,1.2686435,0.6859350000000001,-0.239055,0.7192035,0.890665,-0.292075,1.3195934999999999,0.904245,-0.317675,0.9217815,0.003205,0.004645,1.0782185,-0.003205,-0.004645,0.8484435,0.157925,-0.273335,1.1392735,0.148455,-0.287145,0.9132555,-0.1224449999999999,-0.123923,1.1036535,-0.136205,-0.136319
163,1.0170035,0.657184,-0.092304,0.8658855,0.485092,-0.1058139999999999,0.7394655,0.67947,-0.213385,1.1579555,0.47849,-0.1189529999999999,1.2688955,0.6865300000000001,-0.239385,0.7187855000000001,0.8907400000000001,-0.291885,1.3193355,0.90444,-0.317615,0.9218095,0.00324,0.0048249999999999,1.0781905,-0.00324,-0.0048249999999999,0.8477955,0.15984,-0.271825,1.1397855,0.15051,-0.286095,0.9134515,-0.12002,-0.1229339999999999,1.1037754999999998,-0.13444,-0.135455
164,1.0169485,0.656882,-0.092041,0.8657874999999999,0.485597,-0.105767,0.7390775,0.679085,-0.213355,1.1578975,0.478375,-0.118754,1.2689074999999999,0.686635,-0.23981,0.7185075000000001,0.890745,-0.29196,1.3189875,0.904345,-0.3177999999999999,0.9218505,0.0032149999999999,0.00486,1.0781495,-0.0032149999999999,-0.00486,0.8472275000000001,0.160735,-0.271,1.1400475,0.151565,-0.28544,0.9134355,-0.118665,-0.122542,1.1038475,-0.133665,-0.135208
165,1.0168905,0.657096,-0.092017,0.8656885,0.485809,-0.105765,0.7387385,0.6795300000000001,-0.213444,1.1578385,0.478454,-0.118754,1.2688285000000001,0.68665,-0.24029,0.7182385,0.89119,-0.2920399999999999,1.3186385,0.90424,-0.31811,0.9218735,0.00314,0.00486,1.0781265,-0.0031399999999999,-0.00486,0.8466585,0.16119,-0.27034,1.1403185,0.15223,-0.2849899999999999,0.9133905,-0.1180899999999999,-0.122308,1.1039185,-0.1332799999999999,-0.135077
166,1.0168625,0.657096,-0.092015,0.8655785,0.485809,-0.105758,0.7384385,0.6795300000000001,-0.213625,1.1578385,0.478454,-0.118754,1.2688085,0.68662,-0.24075,0.7179885000000001,0.89119,-0.29208,1.3183385,0.90424,-0.31854,0.9218735,0.00314,0.00486,1.0781265,-0.0031399999999999,-0.00486,0.8461585,0.16127,-0.27014,1.1406285,0.15243,-0.28474,0.9133975,-0.1180899999999999,-0.122186,1.1040085,-0.1333099999999999,-0.134992
167,1.0168324999999998,0.657096,-0.092034,0.8654575,0.485809,-0.105788,0.7382475,0.6795300000000001,-0.213782,1.1578075,0.478454,-0.1187719999999999,1.2687775000000001,0.68662,-0.2412099999999999,0.7176374999999999,0.89119,-0.29217,1.3180575,0.90424,-0.31919,0.9218745,0.00314,0.0048799999999999,1.0781255,-0.0031399999999999,-0.0048799999999999,0.8456675000000001,0.1614,-0.27013,1.1409174999999998,0.15262,-0.28478,0.9133965,-0.1180899999999999,-0.122206,1.1040774999999998,-0.1333099999999999,-0.135017
168,1.0167755,0.657096,-0.09208,0.8653445000000001,0.485809,-0.105886,0.7382145,0.67995,-0.214578,1.1576645,0.478454,-0.11886,1.2687545,0.68662,-0.24172,0.7171244999999999,0.8913800000000001,-0.29262,1.3178045,0.90424,-0.3200699999999999,0.9218765,0.00314,0.0049099999999999,1.0781235,-0.0031399999999999,-0.0049099999999999,0.8452445,0.16154,-0.27015,1.1411145,0.15279,-0.28484,0.9132545,-0.1180899999999999,-0.122248,1.1041445,-0.1332999999999999,-0.135071
169,1.0167745,0.6575820000000001,-0.092593,0.8653155,0.48534,-0.106201,0.7382355,0.6807700000000001,-0.215484,1.1574754999999999,0.478047,-0.119208,1.2686155000000001,0.68615,-0.242425,0.7165954999999999,0.8914700000000001,-0.293375,1.3176155,0.90385,-0.321355,0.9219185,0.00318,0.0048549999999999,1.0780815,-0.0031799999999999,-0.0048549999999999,0.8450055,0.16133,-0.270325,1.1411855,0.1524600000000001,-0.285025,0.9132095000000001,-0.1185999999999999,-0.122427,1.1043455,-0.1337699999999999,-0.135264
170,1.0168365,0.658968,-0.093472,0.8653525,0.4845009999999999,-0.106727,0.7383725000000001,0.6815749999999999,-0.216361,1.1570025,0.478495,-0.12018,1.2683725,0.685505,-0.24322,0.7160625,0.891275,-0.29457,1.3175525000000001,0.903285,-0.32298,0.9219955,0.003055,0.00472,1.0780045,-0.003055,-0.00472,0.8449525,0.1601849999999999,-0.27075,1.1413525,0.1513649999999999,-0.28535,0.9129245,-0.120325,-0.12331,1.1046725,-0.135055,-0.135605
171,1.0169054999999998,0.661331,-0.095114,0.8654215000000001,0.483221,-0.107615,0.7382215,0.68231,-0.217996,1.1565215,0.479228,-0.121734,1.2677815,0.68453,-0.244315,0.7154315,0.89147,-0.296325,1.3174615,0.90474,-0.325585,0.9220755,0.0029,0.004635,1.0779245,-0.0029,-0.004635,0.8449815,0.1578,-0.271795,1.1415515,0.14898,-0.286345,0.9126185,-0.1233199999999999,-0.124737,1.1049815,-0.13742,-0.136234
172,1.0168655,0.6638599999999999,-0.097326,0.8653824999999999,0.4815419999999999,-0.1088819999999999,0.7379525,0.6827949999999999,-0.219955,1.1557825,0.4804909999999999,-0.123736,1.2667025,0.684075,-0.24574,0.7147125,0.890895,-0.29849,1.3171325,0.906475,-0.32855,0.9220575,0.002695,0.00453,1.0779425,-0.002695,-0.00453,0.8450625,0.1539949999999999,-0.27361,1.1415825,0.1453049999999999,-0.288,0.9121795,-0.127785,-0.126658,1.1051925,-0.141195,-0.137326
173,1.016881,0.66723,-0.099818,0.865282,0.478445,-0.110375,0.7376520000000001,0.68183,-0.221675,1.154982,0.480392,-0.125973,1.2655319999999999,0.68469,-0.24766,0.713662,0.89293,-0.30146,1.316622,0.90857,-0.33213,0.922009,0.0024,0.0048499999999999,1.077991,-0.0023999999999999,-0.00485,0.845072,0.14767,-0.2761,1.141432,0.13898,-0.29008,0.9116510000000001,-0.13471,-0.128914,1.105282,-0.1475299999999999,-0.138492
174,1.0167665,0.6671149999999999,-0.1030519999999999,0.8650875,0.477475,-0.1132389999999999,0.7371475000000001,0.6797549999999999,-0.224401,1.1539475,0.4790379999999999,-0.129189,1.2642674999999999,0.683345,-0.25102,0.7125775,0.8901349999999999,-0.30486,1.3160675,0.907385,-0.33641,0.9218465,0.0024949999999999,0.00519,1.0781535,-0.002495,-0.00519,0.8450175,0.1360249999999999,-0.28015,1.1410875,0.1271049999999999,-0.29356,0.9110685000000001,-0.147195,-0.131939,1.1053674999999998,-0.159405,-0.1401299999999999
175,1.0164525,0.6682650000000001,-0.106317,0.8644275,0.476447,-0.116042,0.7365775,0.678485,-0.22722,1.1527775,0.478095,-0.132728,1.2626675,0.682655,-0.254435,0.7115675,0.889835,-0.308575,1.3154675,0.909225,-0.340645,0.9216565,0.002375,0.0054049999999999,1.0783435,-0.0023749999999999,-0.0054049999999999,0.8449675,0.122805,-0.284455,1.1404775,0.113775,-0.298205,0.9104995,-0.1612249999999999,-0.135181,1.1054575,-0.1727849999999999,-0.141676
176,1.0158915,0.67116,-0.109507,0.8636415,0.4747199999999999,-0.1189779999999999,0.7360915,0.67767,-0.229898,1.1513214999999999,0.4772189999999999,-0.1365139999999999,1.2612014999999999,0.6818,-0.258215,0.7105315,0.8869199999999999,-0.312265,1.3145615,0.91077,-0.345255,0.9215765,0.0026399999999999,0.005405,1.0784235,-0.00264,-0.0054049999999999,0.8448415,0.1066999999999999,-0.288775,1.1397315,0.0975799999999999,-0.301995,0.9097605,-0.1781800000000001,-0.1384639999999999,1.1054015,-0.1890900000000001,-0.143199
177,1.0153805,0.671745,-0.112951,0.8630595,0.47354,-0.12236,0.7357695,0.675075,-0.232759,1.1500595,0.4756519999999999,-0.14046,1.2596295,0.680925,-0.261685,0.7096395000000001,0.887785,-0.315535,1.3135295,0.909775,-0.349515,0.9213614999999999,0.0025749999999999,0.0053549999999999,1.0786385,-0.0025749999999999,-0.0053549999999999,0.8449495000000001,0.087525,-0.2927349999999999,1.1389995,0.078285,-0.305455,0.9091895,-0.1980449999999999,-0.1419629999999999,1.1055095,-0.208495,-0.1448229999999999
178,1.014804,0.673045,-0.115756,0.862483,0.47262,-0.125273,0.735483,0.673955,-0.235208,1.148573,0.475052,-0.144043,1.257973,0.680305,-0.264515,0.7088230000000001,0.887645,-0.317825,1.312393,0.910535,-0.353325,0.921156,0.002285,0.005385,1.078844,-0.0022849999999999,-0.005385,0.845043,0.0676249999999999,-0.295945,1.137913,0.0578549999999999,-0.308085,0.908588,-0.219025,-0.14509,1.105553,-0.2290849999999999,-0.145948
179,1.0141485,0.6727449999999999,-0.1177209999999999,0.8618545000000001,0.4712659999999999,-0.127468,0.7352345,0.671455,-0.23681,1.1474245,0.4760459999999999,-0.146739,1.2565945,0.679045,-0.267,0.7081045,0.885655,-0.31887,1.3111045,0.910155,-0.356,0.9209905,0.001815,0.00561,1.0790095,-0.001815,-0.00561,0.8452745,0.0454149999999999,-0.29782,1.1364545,0.0346249999999999,-0.30992,0.9083885,-0.242695,-0.146953,1.1055644999999998,-0.252675,-0.146345
180,1.0135835,0.672875,-0.119063,0.8612934999999999,0.472449,-0.129538,0.7350535,0.672285,-0.238069,1.1463135,0.474759,-0.148887,1.2555135,0.677285,-0.268415,0.7076135,0.883185,-0.318945,1.3100735000000001,0.908375,-0.356595,0.9208355,0.002105,0.005725,1.0791645,-0.002105,-0.005725,0.8456335,0.0223949999999999,-0.298925,1.1351135,0.0102249999999999,-0.310825,0.9083265,-0.268105,-0.148333,1.1055635,-0.277995,-0.146448
181,1.0128285,0.67318,-0.119959,0.8604785,0.472263,-0.131429,0.7344185,0.67187,-0.239255,1.1450685,0.473163,-0.150937,1.2547785,0.67789,-0.27044,0.7068485,0.88164,-0.31889,1.3091884999999999,0.90805,-0.35769,0.9206595,0.0019799999999999,0.00573,1.0793405,-0.00198,-0.0057299999999999,0.8458585000000001,-0.00078,-0.29893,1.1337285,-0.01413,-0.31074,0.9081224999999999,-0.29441,-0.149394,1.1052385,-0.30419,-0.146397
182,1.01206,0.6729149999999999,-0.1204659999999999,0.859654,0.475145,-0.133235,0.733624,0.6738949999999999,-0.240473,1.143724,0.47272,-0.152926,1.2537939999999999,0.676795,-0.27149,0.706204,0.8771749999999999,-0.31886,1.308424,0.907385,-0.35827,0.9204289999999999,0.0022149999999999,0.00575,1.079571,-0.002215,-0.00575,0.846044,-0.023865,-0.29894,1.132344,-0.037875,-0.31066,0.907897,-0.321035,-0.150152,1.105034,-0.330955,-0.1464379999999999
183,1.011187,0.6771149999999999,-0.120491,0.8587670000000001,0.475545,-0.133994,0.733117,0.676705,-0.240583,1.142577,0.473725,-0.154299,1.252737,0.6787449999999999,-0.271775,0.705517,0.881045,-0.318625,1.307247,0.911555,-0.358215,0.920195,0.0019949999999999,0.0058749999999999,1.079805,-0.001995,-0.005875,0.846167,-0.042555,-0.298835,1.130897,-0.057385,-0.310465,0.907599,-0.3443549999999999,-0.150588,1.104847,-0.354305,-0.14638
184,1.0105765,0.680035,-0.120007,0.8585505,0.476715,-0.134357,0.7330305000000001,0.679395,-0.23995,1.1418504999999999,0.474995,-0.154789,1.2518905,0.679835,-0.27103,0.7049405,0.879815,-0.31782,1.3062105,0.912575,-0.35745,0.9200815,0.001875,0.0060999999999999,1.0799185,-0.001875,-0.0060999999999999,0.8462805,-0.062025,-0.2980899999999999,1.1296105,-0.077255,-0.3096299999999999,0.9074115,-0.3690849999999999,-0.150275,1.1047505,-0.379235,-0.14574
185,1.0101335,0.681385,-0.1183559999999999,0.8584155,0.479155,-0.1336899999999999,0.7330055000000001,0.681025,-0.2382599999999999,1.1415255,0.4758449999999999,-0.1539069999999999,1.2516155,0.6812549999999999,-0.26932,0.7045055,0.885805,-0.3145199999999999,1.3053055,0.913155,-0.3557099999999999,0.9199675,0.0015249999999999,0.00626,1.0800325,-0.0015249999999999,-0.0062599999999999,0.8465055000000001,-0.080185,-0.2953399999999999,1.1282555,-0.095335,-0.3071399999999999,0.9073185,-0.393265,-0.1489089999999999,1.1046955,-0.403335,-0.14458
186,1.009635,0.6856,-0.116255,0.8581920000000001,0.4812,-0.132371,0.7325820000000001,0.68519,-0.2360539999999999,1.140852,0.47825,-0.152367,1.251042,0.68373,-0.267005,0.704172,0.88598,-0.310645,1.304922,0.91616,-0.352895,0.919915,0.00139,0.0061049999999999,1.080085,-0.0013899999999999,-0.0061049999999999,0.846672,-0.09641,-0.290725,1.126972,-0.1110199999999999,-0.302985,0.906457,-0.41598,-0.148457,1.104472,-0.4255,-0.143356
187,1.009061,0.6899850000000001,-0.113274,0.8578180000000001,0.483475,-0.130532,0.7319880000000001,0.688495,-0.233072,1.140278,0.479555,-0.150063,1.250038,0.685045,-0.26372,0.7037180000000001,0.885305,-0.30547,1.304068,0.918695,-0.34874,0.919994,0.0013949999999999,0.0059899999999999,1.080006,-0.0013949999999999,-0.0059899999999999,0.846908,-0.1133049999999999,-0.28444,1.125828,-0.1268949999999999,-0.29652,0.905429,-0.4397049999999999,-0.147475,1.104208,-0.448175,-0.141687
188,1.008388,0.69514,-0.109916,0.857245,0.48527,-0.1285939999999999,0.731095,0.69249,-0.2299439999999999,1.139515,0.47907,-0.14751,1.248845,0.68784,-0.259935,0.703055,0.88691,-0.300265,1.303005,0.92317,-0.3437949999999999,0.920255,0.0014099999999999,0.005615,1.079745,-0.0014099999999999,-0.005615,0.846785,-0.1278299999999999,-0.278035,1.124655,-0.13973,-0.290845,0.903867,-0.46064,-0.146593,1.103865,-0.46776,-0.140759
189,1.0079365,0.6984349999999999,-0.105496,0.8568155,0.488405,-0.125492,0.7305555,0.694225,-0.225105,1.1390655,0.482745,-0.143892,1.2479755,0.693425,-0.25438,0.7024555,0.893295,-0.29305,1.3020855,0.927205,-0.33686,0.9205365000000001,0.0010049999999999,0.0052899999999999,1.0794635,-0.001005,-0.00529,0.8468154999999999,-0.143185,-0.26972,1.1235255,-0.152815,-0.28341,0.9025455,-0.481875,-0.144531,1.1038155,-0.487255,-0.138515
190,1.0071565,0.7024400000000001,-0.100323,0.8557945,0.49323,-0.1219,0.7296545,0.69781,-0.219661,1.1384345,0.48562,-0.139657,1.2472145000000001,0.69704,-0.24849,0.7016645,0.8983,-0.28558,1.3014245,0.9322,-0.3286,0.9207285000000001,0.001,0.0052099999999999,1.0792715,-0.001,-0.0052099999999999,0.8468545000000001,-0.1576399999999999,-0.2609,1.1220945,-0.1651399999999999,-0.27543,0.9004845,-0.50164,-0.142366,1.1036845,-0.5054799999999999,-0.136423
191,1.006598,0.70766,-0.095134,0.854998,0.49536,-0.118409,0.7290179999999999,0.70078,-0.214493,1.138158,0.48774,-0.135547,1.246638,0.70036,-0.24278,0.701228,0.90292,-0.27837,1.301028,0.93635,-0.32049,0.921061,0.00064,0.0050399999999999,1.078939,-0.00064,-0.00504,0.847218,-0.17043,-0.25236,1.120948,-0.17627,-0.2676199999999999,0.898308,-0.5193300000000001,-0.140266,1.103978,-0.52162,-0.134841
192,1.005676,0.71209,-0.089582,0.8536560000000001,0.50081,-0.114436,0.7282759999999999,0.70497,-0.208634,1.137586,0.4888,-0.131046,1.245596,0.70208,-0.2367199999999999,0.700406,0.9036,-0.27102,1.300246,0.93848,-0.31218,0.921486,0.00053,0.00482,1.078514,-0.00053,-0.00482,0.847186,-0.1828499999999999,-0.243,1.119366,-0.18709,-0.25934,0.895576,-0.5360499999999999,-0.137821,1.104176,-0.53689,-0.132192
193,1.004613,0.715115,-0.0837919999999999,0.851881,0.504365,-0.10991,0.727461,0.707395,-0.202442,1.137181,0.492995,-0.1263709999999999,1.245001,0.7060949999999999,-0.23029,0.699551,0.906865,-0.26295,1.299131,0.942385,-0.30327,0.922131,0.0002349999999999,0.00473,1.077869,-0.0002349999999999,-0.0047299999999999,0.847291,-0.1944949999999999,-0.23291,1.117661,-0.197395,-0.25017,0.892741,-0.5512450000000001,-0.134664,1.104331,-0.550485,-0.129124
194,1.0037465,0.71755,-0.0781725,0.8504955000000001,0.50894,-0.1053485,0.7268455,0.7105400000000001,-0.1962985,1.1369955,0.49758,-0.1217345,1.2441855,0.71035,-0.2238235,0.6989255,0.91041,-0.2555135,1.2982755,0.9469,-0.2945235,0.9228555,-9.000000000000674e-05,0.0046364999999999,1.0771445,8.999999999999286e-05,-0.0046365,0.8476954999999999,-0.20496,-0.2227735,1.1162655,-0.2072,-0.2406935,0.8901355,-0.56478,-0.1317865,1.1045655,-0.56285,-0.1246225
195,1.0028335,0.7212379999999999,-0.0726705,0.8486895,0.513548,-0.1006065,0.7261795000000001,0.7124079999999999,-0.1904315,1.1369095,0.503878,-0.1171365,1.2438695,0.713758,-0.2176505,0.6983195,0.914188,-0.2481105,1.2976495,0.950948,-0.2860905,0.9235895000000001,-0.0003709999999999,0.0044695,1.0764105,0.000371,-0.0044695,0.8482295,-0.215112,-0.2121005,1.1145094999999998,-0.217112,-0.2300505,0.8878595,-0.577612,-0.1273405,1.1047095,-0.5753820000000001,-0.1194245
196,1.001885,0.725249,-0.067961,0.847611,0.518359,-0.096564,0.7256009999999999,0.714659,-0.185478,1.136941,0.510379,-0.113333,1.243161,0.719979,-0.2120719999999999,0.697751,0.920179,-0.241482,1.296621,0.953799,-0.279072,0.923978,-0.0006709999999999,0.004182,1.076022,0.000671,-0.004182,0.849021,-0.223611,-0.202342,1.112601,-0.2255209999999999,-0.219632,0.885941,-0.588071,-0.122574,1.104581,-0.585871,-0.114762
197,1.001217,0.729099,-0.0633335,0.846495,0.523739,-0.0923915,0.725295,0.717879,-0.1804454999999999,1.137305,0.515189,-0.1094074999999999,1.243055,0.724769,-0.2072835,0.6977450000000001,0.924889,-0.2348835,1.296035,0.954829,-0.2722434999999999,0.924143,-0.0003869999999999,0.0037625,1.075857,0.0003869999999999,-0.0037625,0.8507350000000001,-0.2356009999999999,-0.1920135,1.110845,-0.238081,-0.2079735,0.885835,-0.599721,-0.1177855,1.104475,-0.598901,-0.1099735
198,1.0005089999999999,0.734257,-0.0599555,0.845122,0.525477,-0.0889705,0.7249019999999999,0.721607,-0.1768245,1.1377220000000001,0.518737,-0.1064045,1.2429819999999998,0.727657,-0.2036784999999999,0.697702,0.924847,-0.2300585,1.2954620000000001,0.955317,-0.2668185,0.924342,-0.000475,0.0035484999999999,1.075658,0.000475,-0.0035484999999999,0.8524820000000001,-0.2454529999999999,-0.1834255,1.109062,-0.248913,-0.1971284999999999,0.885742,-0.609253,-0.1138175,1.104362,-0.610083,-0.1063685
199,0.9999485,0.7387845000000001,-0.0559305,0.8437705,0.5274645,-0.0850265,0.7247304999999999,0.7240945,-0.1726255,1.1381705,0.5244945,-0.1028645,1.2431205,0.7304945,-0.1994915,0.6977905,0.9244645,-0.2248115,1.2949605,0.9511845,-0.2615615,0.9245355,-0.0005374999999999,0.0031934999999999,1.0754645,0.0005374999999999,-0.0031935,0.8549905,-0.2569855,-0.1729985,1.1072105,-0.2614955,-0.1844115,0.8857705,-0.6206254999999999,-0.1096305,1.1044405,-0.6228954999999999,-0.1013705
200,1.0000325,0.735481,-0.044813,0.8421745,0.528671,-0.073889,0.7252345,0.719921,-0.161571,1.1391445,0.5261410000000001,-0.092162,1.2444645,0.7313510000000001,-0.188932,0.6986145,0.923321,-0.211902,1.2952345,0.944651,-0.248972,0.9248925,-0.0003899999999999,0.002651,1.0751075,0.0003899999999999,-0.002651,0.8608945,-0.274449,-0.151442,1.1057045,-0.280009,-0.161931,0.8867345000000001,-0.6378889999999999,-0.0941019999999999,1.1050945,-0.641579,-0.086726
201,1.0001559999999998,0.732258,-0.034052,0.841139,0.526908,-0.063111,0.725909,0.715318,-0.1506,1.140269,0.529068,-0.081879,1.245389,0.732978,-0.17841,0.6997990000000001,0.922538,-0.19983,1.295509,0.944258,-0.23679,0.925168,-0.0004339999999999,0.0021199999999999,1.074832,0.0004339999999999,-0.00212,0.866669,-0.2910419999999999,-0.130899,1.104249,-0.2969219999999999,-0.140088,0.887749,-0.654362,-0.079205,1.105789,-0.658892,-0.072427
202,1.0002,0.731013,-0.0241795,0.8406,0.526333,-0.0531984999999999,0.7264200000000001,0.712563,-0.1404095,1.14126,0.528153,-0.0720755,1.24685,0.732973,-0.1688525,0.7008100000000002,0.921773,-0.1887325,1.29565,0.943293,-0.2254425,0.925273,-0.0001489999999999,0.0014725,1.074727,0.0001489999999999,-0.0014725,0.8726900000000001,-0.305257,-0.1115775,1.10261,-0.310737,-0.1193404999999999,0.88927,-0.668997,-0.0637935,1.10613,-0.673587,-0.0576524999999999
203,1.0003469999999999,0.730412,-0.0144325,0.840267,0.524102,-0.0434455,0.7269570000000001,0.7101719999999999,-0.1308155,1.142227,0.527762,-0.0624375,1.248227,0.732742,-0.1595225,0.7019569999999999,0.916042,-0.1779725,1.295967,0.942532,-0.2143825,0.925484,-1.6999999999996185e-05,0.0009604999999999,1.074516,1.7000000000003124e-05,-0.0009605,0.878977,-0.3184579999999999,-0.0921535,1.100881,-0.323218,-0.0986085,0.891327,-0.682608,-0.0483105,1.106347,-0.6871980000000001,-0.0423745
204,1.000468,0.728078,-0.0048584999999999,0.840033,0.521848,-0.0339905,0.727533,0.7084280000000001,-0.1213325,1.1429829999999999,0.524558,-0.0528745,1.249473,0.732318,-0.1506525,0.703093,0.912038,-0.1674425,1.296493,0.942298,-0.2036325,0.925665,0.0002599999999999,0.0003685,1.074335,-0.00026,-0.0003685,0.885253,-0.330222,-0.0730765,1.099071,-0.3343319999999999,-0.0785305,0.893763,-0.694402,-0.0326995,1.106233,-0.699322,-0.0278365
