sb224sc-HT22-VT27/4dt907/src/data/kinect_good_preprocessed_A9_mediapipe/B19_kinect_mirrored.csv
FrameNo,nose_3d_x,nose_3d_y,nose_3d_z,left_shoulder_3d_x,left_shoulder_3d_y,left_shoulder_3d_z,left_elbow_3d_x,left_elbow_3d_y,left_elbow_3d_z,right_shoulder_3d_x,right_shoulder_3d_y,right_shoulder_3d_z,right_elbow_3d_x,right_elbow_3d_y,right_elbow_3d_z,left_wrist_3d_x,left_wrist_3d_y,left_wrist_3d_z,right_wrist_3d_x,right_wrist_3d_y,right_wrist_3d_z,left_hip_3d_x,left_hip_3d_y,left_hip_3d_z,right_hip_3d_x,right_hip_3d_y,right_hip_3d_z,left_knee_3d_x,left_knee_3d_y,left_knee_3d_z,right_knee_3d_x,right_knee_3d_y,right_knee_3d_z,left_ankle_3d_x,left_ankle_3d_y,left_ankle_3d_z,right_ankle_3d_x,right_ankle_3d_y,right_ankle_3d_z
101,1.0209605,0.714284,0.0282479999999999,0.8436905,0.516664,0.0154109999999999,0.7256705,0.702784,-0.038073,1.1702505,0.520274,-0.014947,1.2788405,0.723714,-0.090149,0.6756405000000001,0.899364,-0.0560159999999999,1.3437405,0.936444,-0.123999,0.9253745,0.0009659999999999,0.0031509999999999,1.0746255,-0.000966,-0.003151,0.8938505,-0.371506,-0.001577,1.0975565,-0.377506,-0.036068,0.9006205,-0.717506,0.041646,1.0985585,-0.720396,0.0356099999999999
102,1.020401,0.713491,0.02343,0.844312,0.5145810000000001,0.010621,0.725292,0.702701,-0.044113,1.1698520000000001,0.5201910000000001,-0.0187689999999999,1.2777020000000001,0.722821,-0.095953,0.675712,0.902061,-0.0632259999999999,1.3418219999999998,0.932351,-0.131403,0.9250220000000001,0.0009199999999999,0.003078,1.074978,-0.00092,-0.0030779999999999,0.892332,-0.367579,-0.0102459999999999,1.098168,-0.3739789999999999,-0.045054,0.900742,-0.713459,0.035214,1.09866,-0.717029,0.028954
103,1.0197215,0.7116635,0.018653,0.8449185,0.5137535000000001,0.005822,0.7247685000000001,0.7019935,-0.050219,1.1693585,0.5209035000000001,-0.022592,1.2762985,0.7210835000000001,-0.101733,0.6757085,0.9044035,-0.070674,1.3397785,0.9282235,-0.138793,0.9247135,0.0009605,0.00295,1.0752865,-0.0009605,-0.0029499999999999,0.8905185,-0.3635665,-0.019041,1.0987635,-0.3708965,-0.0536,0.9008185,-0.7092864999999999,0.028977,1.0986295,-0.7141065,0.021954
104,1.0190135,0.7102134999999999,0.013567,0.8454425,0.5125435,0.000753,0.7241925,0.7017435,-0.057035,1.1680725,0.5197035,-0.0266719999999999,1.2748724999999999,0.7199835,-0.10782,0.6758425,0.9028035,-0.079615,1.3376525,0.9250635,-0.14664,0.9243655,0.0009964999999999,0.002837,1.0756345,-0.0009965,-0.002837,0.8886225000000001,-0.3585565,-0.028152,1.0994184999999999,-0.3666265,-0.062401,0.9009325,-0.7036565,0.022489,1.0986954999999998,-0.7101065,0.014135
105,1.0184235,0.7083435,0.008487,0.8459685,0.5114735,-0.004249,0.7237285,0.7015635,-0.0637969999999999,1.1667885,0.5189735,-0.030688,1.2734885,0.7188535,-0.113836,0.6761085,0.9019835,-0.088467,1.3355985,0.9225035,-0.154486,0.9240125,0.0011045,0.002588,1.0759875,-0.0011045,-0.002588,0.8867985,-0.3534965,-0.037278,1.1000115,-0.3621265,-0.071114,0.9011785000000001,-0.6972965,0.016123,1.0988725,-0.7055565,0.006051
106,1.0179375,0.7063515,0.003544,0.8463495,0.5103315,-0.008769,0.7233495,0.7005015,-0.07041,1.1654595,0.5180915,-0.034395,1.2720695,0.7177415,-0.119701,0.6765295,0.9007715,-0.0973059999999999,1.3334995,0.9205215,-0.1620609999999999,0.9236425,0.0012285,0.002515,1.0763575,-0.0012285,-0.002515,0.8850895,-0.3479784999999999,-0.046293,1.1006215,-0.3570485,-0.079717,0.9016395,-0.6907584999999999,0.009765,1.0991215,-0.7000385,-0.002162
107,1.0174455,0.704183,-0.0012079999999999,0.8465805,0.509503,-0.01326,0.7231605000000001,0.699323,-0.076907,1.1641205000000001,0.5178630000000001,-0.0380449999999999,1.2705405,0.715883,-0.125294,0.6771105,0.898853,-0.106028,1.3318005,0.923623,-0.1679139999999999,0.9233085,0.00133,0.002513,1.0766915,-0.0013299999999999,-0.0025129999999999,0.8833405,-0.342797,-0.055387,1.1012605,-0.352437,-0.088669,0.9020705,-0.684117,0.0031839999999999,1.0993415,-0.694257,-0.010386
108,1.0170945,0.701312,-0.0056665,0.8472105,0.509472,-0.0180445,0.7232405,0.697242,-0.0834435,1.1631305,0.518002,-0.0418945,1.2691805,0.7140920000000001,-0.1307795,0.6778605,0.896672,-0.1148275,1.3300705,0.926352,-0.1735495,0.9229735,0.0015249999999999,0.0024264999999999,1.0770265,-0.001525,-0.0024265,0.8816705000000001,-0.337998,-0.0646315,1.1019945,-0.3477179999999999,-0.0976785,0.9027205000000001,-0.677058,-0.0032955,1.0996995,-0.688088,-0.0184815
109,1.016958,0.6991175,-0.0097675,0.848083,0.5071574999999999,-0.0225725,0.723643,0.6960275,-0.0898114999999999,1.162433,0.5151775,-0.0450625,1.268053,0.7130575,-0.1358695,0.6788530000000002,0.8954375,-0.1233735,1.329483,0.9330075,-0.1790594999999999,0.9225780000000001,0.0016035,0.0023494999999999,1.0774219999999999,-0.0016034999999999,-0.0023495,0.880043,-0.3326425,-0.0739075,1.102951,-0.3421025,-0.1067765,0.903493,-0.6687625,-0.0096675,1.100225,-0.6805725,-0.0264205
110,1.017037,0.697627,-0.0138219999999999,0.8490940000000001,0.505407,-0.026885,0.724314,0.694877,-0.0960959999999999,1.161594,0.512657,-0.048071,1.2671839999999999,0.712767,-0.140886,0.680184,0.892717,-0.131966,1.328444,0.938877,-0.184336,0.922192,0.001662,0.002318,1.077808,-0.001662,-0.002318,0.878354,-0.327153,-0.083457,1.103817,-0.335743,-0.116087,0.9043140000000001,-0.659703,-0.0158589999999999,1.100787,-0.671863,-0.034126
111,1.0173709999999998,0.69539,-0.017366,0.850118,0.50375,-0.030608,0.7251879999999999,0.6934699999999999,-0.101612,1.161138,0.5102,-0.050946,1.266738,0.7127199999999999,-0.145407,0.6818580000000001,0.88984,-0.139727,1.327378,0.94382,-0.189057,0.921827,0.001877,0.0023529999999999,1.078173,-0.0018769999999999,-0.002353,0.877028,-0.32117,-0.092355,1.104803,-0.3293,-0.124833,0.905308,-0.6503,-0.021476,1.101526,-0.6627500000000001,-0.041247
112,1.0177745,0.6934235,-0.0208879999999999,0.8511005,0.5023535,-0.0344339999999999,0.7260805,0.6922635,-0.1071169999999999,1.1607205,0.5065135,-0.0539109999999999,1.2664605,0.7129235,-0.149943,0.6837605,0.8864535,-0.147303,1.3262805,0.9451735,-0.1943929999999999,0.9214565,0.0021445,0.002446,1.0785435,-0.0021445,-0.0024459999999999,0.8759205,-0.3144465,-0.101052,1.1057505,-0.3220365,-0.133674,0.9063305000000001,-0.6400065,-0.0271639999999999,1.1021995,-0.6518865,-0.0479909999999999
113,1.018341,0.6911165,-0.023996,0.851994,0.5007765000000001,-0.037624,0.7270040000000001,0.6904465,-0.111842,1.161114,0.5051065,-0.056356,1.266164,0.7116965,-0.153912,0.6860040000000001,0.8846465,-0.153612,1.325214,0.9463165,-0.198732,0.9211469999999999,0.0024005,0.002431,1.078853,-0.0024005,-0.002431,0.874914,-0.3080635,-0.1093379999999999,1.10671,-0.3151135,-0.141683,0.907354,-0.6299735,-0.032375,1.102879,-0.6400735,-0.053523
114,1.0188455,0.688932,-0.0270925,0.8528595,0.499102,-0.0406915,0.7279895000000001,0.688242,-0.1167415,1.1615595,0.503692,-0.0586945,1.2658395,0.710822,-0.1576395,0.6883495,0.881732,-0.1598695,1.3239895,0.946922,-0.2030495,0.9209515,0.0024689999999999,0.0024994999999999,1.0790485,-0.0024689999999999,-0.0024995,0.8738195,-0.298278,-0.1173415,1.1076394999999999,-0.304628,-0.1495395,0.9081795,-0.619548,-0.0373415,1.1033985,-0.627858,-0.0585805
115,1.0192865,0.6868065,-0.03042,0.8536595,0.4973165,-0.043825,0.7289895,0.6865065,-0.121589,1.1619495,0.5016565,-0.061122,1.2655995,0.7099065,-0.1614249999999999,0.6905695000000001,0.8786465,-0.165955,1.3228095,0.9477265,-0.207305,0.9208145000000001,0.0025705,0.002396,1.0791855,-0.0025705,-0.002396,0.8726695,-0.2879235,-0.125359,1.1084445,-0.2936935,-0.157105,0.9090895,-0.6083035,-0.042176,1.1038505,-0.6156335000000001,-0.063222
116,1.019657,0.6849475,-0.0377519999999999,0.854357,0.4970175,-0.051125,0.730017,0.6854675,-0.130421,1.162067,0.5009075000000001,-0.0682229999999999,1.265387,0.7085075,-0.1689109999999999,0.692367,0.8771875,-0.175751,1.3215970000000001,0.9477975,-0.215561,0.920848,0.0026324999999999,0.0024139999999999,1.0791520000000001,-0.0026325,-0.0024139999999999,0.871387,-0.2760325,-0.137282,1.1091820000000001,-0.2811725,-0.168961,0.9099070000000001,-0.5954525,-0.050705,1.104206,-0.6019625,-0.071731
117,1.0198699999999998,0.6879249999999999,-0.0468314999999999,0.854815,0.494095,-0.0601764999999999,0.7311650000000001,0.688145,-0.1408495,1.161985,0.498785,-0.0767875,1.264715,0.710135,-0.1779865,0.694015,0.8807149999999999,-0.1872565,1.320275,0.950335,-0.2258565,0.920889,0.002535,0.0026125,1.079111,-0.0025349999999999,-0.0026124999999999,0.8679749999999999,-0.259075,-0.1550785,1.110273,-0.264365,-0.1851664999999999,0.910475,-0.578085,-0.0609314999999999,1.104265,-0.583955,-0.0817394999999999
118,1.0200325,0.6884349999999999,-0.055364,0.8551435000000001,0.494205,-0.068719,0.7323435,0.6890149999999999,-0.150731,1.1617235,0.499055,-0.0851929999999999,1.2643335,0.708005,-0.186749,0.6955635,0.8833850000000001,-0.198259,1.3189435,0.948375,-0.235749,0.9210115000000001,0.002535,0.002878,1.0789885,-0.0025349999999999,-0.0028779999999999,0.8646235,-0.243415,-0.171953,1.1112545,-0.2492349999999999,-0.200479,0.9109135,-0.562265,-0.070533,1.1041685,-0.567755,-0.091128
119,1.020323,0.6892400000000001,-0.063624,0.856117,0.4924499999999999,-0.077024,0.7335870000000001,0.69028,-0.160283,1.161007,0.49666,-0.093388,1.263917,0.7071700000000001,-0.195299,0.696987,0.88586,-0.209649,1.318247,0.94633,-0.245929,0.9210260000000001,0.0026799999999999,0.0030239999999999,1.0789739999999999,-0.0026799999999999,-0.0030239999999999,0.861517,-0.22733,-0.188979,1.112567,-0.23334,-0.215629,0.911417,-0.5452699999999999,-0.079841,1.104162,-0.55076,-0.100077
120,1.0205929999999999,0.68979,-0.0720235,0.857158,0.49224,-0.0851655,0.734848,0.69128,-0.1700885,1.160428,0.49497,-0.1014255,1.263478,0.70652,-0.2036335,0.6984779999999999,0.88783,-0.2209035,1.317988,0.94533,-0.2561135,0.92104,0.0027399999999999,0.0031694999999999,1.07896,-0.0027399999999999,-0.0031695,0.858488,-0.21185,-0.2061135,1.113988,-0.21801,-0.2305935,0.911978,-0.5282899999999999,-0.0889335,1.104193,-0.5341699999999999,-0.1087605
121,1.020773,0.69004,-0.0803865,0.858287,0.4918099999999999,-0.0934265,0.7361270000000001,0.69161,-0.1796335,1.159697,0.49514,-0.1097995,1.263437,0.70631,-0.2117145,0.699847,0.8882,-0.2318245,1.317787,0.94811,-0.2656545,0.9211090000000001,0.00261,0.0033055,1.0788909999999998,-0.00261,-0.0033055,0.855677,-0.19687,-0.2228645,1.115407,-0.2033799999999999,-0.2450345,0.912467,-0.5114000000000001,-0.0978335,1.104197,-0.5177,-0.1169515
122,1.0209035,0.690835,-0.088901,0.8593595,0.490935,-0.102292,0.7370995,0.6928650000000001,-0.189238,1.1588095,0.493285,-0.118021,1.2633295,0.705145,-0.21984,0.7006795,0.892075,-0.24234,1.3175495,0.948325,-0.27501,0.9211455,0.0026349999999999,0.0034899999999999,1.0788545,-0.0026349999999999,-0.00349,0.8529095000000001,-0.181365,-0.23945,1.1166095,-0.187325,-0.25986,0.9127295,-0.4935349999999999,-0.106775,1.1040555,-0.500305,-0.125099
123,1.020826,0.69101,-0.097316,0.860164,0.49088,-0.11069,0.737834,0.6935800000000001,-0.198467,1.1577339999999998,0.49108,-0.126095,1.262734,0.7039,-0.22765,0.701384,0.89406,-0.2531,1.316784,0.94592,-0.28476,0.921081,0.00298,0.0036199999999999,1.078919,-0.0029799999999999,-0.0036199999999999,0.850144,-0.16658,-0.25528,1.117544,-0.17217,-0.27413,0.912764,-0.47604,-0.115516,1.103746,-0.48314,-0.132993
124,1.0204215,0.6913,-0.1058829999999999,0.8607925000000001,0.48971,-0.119014,0.7383325000000001,0.69518,-0.207546,1.1567425,0.49057,-0.134149,1.2619625,0.70278,-0.2353199999999999,0.7018625000000001,0.897,-0.26385,1.3157325,0.94298,-0.29446,0.9211175,0.00281,0.0036599999999999,1.0788825,-0.00281,-0.0036599999999999,0.8472625,-0.15072,-0.2707699999999999,1.1182425,-0.15579,-0.2881,0.9125405,-0.45803,-0.1242519999999999,1.1031225,-0.46536,-0.14068
125,1.0201495,0.6920999999999999,-0.110084,0.8615505,0.486,-0.123108,0.7390205000000001,0.69633,-0.212426,1.1562305,0.48775,-0.13753,1.2614305,0.70338,-0.23867,0.7025805,0.89967,-0.27036,1.3149505,0.94032,-0.30004,0.9211095,0.00273,0.00353,1.0788905,-0.00273,-0.00353,0.8448605000000001,-0.13474,-0.28202,1.1189305,-0.1394099999999999,-0.29716,0.9123665,-0.44046,-0.128943,1.1026275,-0.44797,-0.144104
126,1.0201375,0.687945,-0.112174,0.8622775,0.484655,-0.1250939999999999,0.7396875,0.694515,-0.215191,1.1555175,0.486085,-0.13916,1.2611375,0.697315,-0.23985,0.7037875,0.896225,-0.27469,1.3144475,0.934235,-0.30308,0.9210935,0.002705,0.00328,1.0789065,-0.002705,-0.0032799999999999,0.8445374999999999,-0.1221249999999999,-0.287,1.1192175,-0.126595,-0.30144,0.9125025000000001,-0.427125,-0.131386,1.1022315,-0.434705,-0.145679
127,1.0200714999999998,0.686225,-0.114232,0.8629805,0.4831149999999999,-0.127323,0.7401705000000001,0.6915849999999999,-0.217833,1.1548105,0.483865,-0.141052,1.2610005,0.696325,-0.240995,0.7049405,0.893845,-0.278965,1.3140805,0.928655,-0.306455,0.9210335000000001,0.0026049999999999,0.0031049999999999,1.0789665,-0.002605,-0.003105,0.8442405,-0.106925,-0.292265,1.1195705,-0.111585,-0.306005,0.9127585,-0.4118549999999999,-0.13379,1.1019205,-0.419435,-0.147327
128,1.0199425,0.68338,-0.115948,0.8628505000000001,0.48193,-0.128828,0.7406405,0.6892199999999999,-0.220459,1.1542605,0.48406,-0.14225,1.2608705,0.6953100000000001,-0.24203,0.7059705000000001,0.89306,-0.28205,1.3141805,0.92483,-0.30907,0.9207465,0.0022699999999999,0.003,1.0792535,-0.0022699999999999,-0.003,0.8439505,-0.0921599999999999,-0.29627,1.1196905,-0.09681,-0.3096,0.9129385000000001,-0.3979499999999999,-0.135999,1.1015325,-0.40543,-0.148748
129,1.0198725,0.6813,-0.117406,0.8626475,0.4806799999999999,-0.129909,0.7409975000000001,0.68774,-0.222393,1.1538074999999999,0.4825799999999999,-0.143271,1.2610575,0.69367,-0.243095,0.7073075000000001,0.89286,-0.284885,1.3139875,0.92176,-0.311145,0.9205955000000001,0.0020799999999999,0.0028449999999999,1.0794044999999999,-0.00208,-0.002845,0.8441175,-0.08053,-0.299735,1.1195775000000001,-0.08511,-0.312895,0.9131115,-0.38236,-0.136667,1.1010635,-0.39049,-0.149901
130,1.0197945,0.6790149999999999,-0.118943,0.8627145,0.479265,-0.131179,0.7412945,0.686615,-0.2246719999999999,1.1536445,0.479905,-0.144236,1.2607545,0.6914549999999999,-0.244275,0.7082945,0.8906149999999999,-0.287895,1.3138945,0.918455,-0.313085,0.9202725,0.0020749999999999,0.0027449999999999,1.0797275,-0.0020749999999999,-0.0027449999999999,0.8445644999999999,-0.069435,-0.303165,1.1194544999999998,-0.073655,-0.3162049999999999,0.9132355,-0.3681649999999999,-0.138586,1.1006415,-0.375955,-0.151172
131,1.0195025,0.67662,-0.1202499999999999,0.8627475,0.4774199999999999,-0.1320879999999999,0.7412775,0.6847,-0.226674,1.1536675,0.4790799999999999,-0.144867,1.2604975,0.69086,-0.2453,0.7090475,0.8884599999999999,-0.29071,1.3133575,0.91745,-0.31472,0.9201325,0.0018499999999999,0.00265,1.0798675,-0.00185,-0.0026499999999999,0.8452275,-0.05823,-0.30595,1.1192875,-0.06245,-0.31872,0.9133155,-0.35468,-0.140198,1.1001334999999999,-0.3620500000000001,-0.1521459999999999
132,1.0192795,0.6751050000000001,-0.121493,0.8629065,0.475025,-0.132919,0.7413065,0.682175,-0.228345,1.1536565,0.478295,-0.145323,1.2602965,0.6891750000000001,-0.246205,0.7097165,0.887015,-0.292925,1.3128965,0.918175,-0.316015,0.9200325,0.001425,0.0025449999999999,1.0799675,-0.001425,-0.002545,0.8460965,-0.0470349999999999,-0.308465,1.1190765,-0.052145,-0.320345,0.9134995,-0.341705,-0.141603,1.0996615,-0.3486249999999999,-0.153024
133,1.019025,0.6739299999999999,-0.122402,0.8629720000000001,0.474372,-0.133441,0.741502,0.6814,-0.229727,1.153622,0.476804,-0.145641,1.259732,0.68883,-0.246995,0.7102120000000001,0.88753,-0.294685,1.312422,0.91953,-0.317055,0.91991,0.0011799999999999,0.0025749999999999,1.08009,-0.00118,-0.0025749999999999,0.8472920000000002,-0.0332399999999999,-0.310165,1.118892,-0.03966,-0.321245,0.9136950000000001,-0.32685,-0.142834,1.0992639999999998,-0.33335,-0.1537879999999999
134,1.0188804999999999,0.672515,-0.123348,0.8630665,0.474742,-0.133962,0.7414165000000001,0.681015,-0.2311389999999999,1.1537865,0.475681,-0.146039,1.2594865,0.688065,-0.2478449999999999,0.7105465,0.886125,-0.2963949999999999,1.3123565,0.921695,-0.318005,0.9199165,0.001055,0.002675,1.0800835,-0.0010549999999999,-0.0026749999999999,0.8487665,-0.019915,-0.311235,1.1188265,-0.0275549999999999,-0.321635,0.9140295,-0.3125249999999999,-0.143875,1.0990245,-0.318775,-0.154608
135,1.0187635,0.671185,-0.124576,0.8631745,0.475053,-0.134738,0.7413145,0.679155,-0.2328,1.1538745,0.47355,-0.146511,1.2593045,0.688245,-0.24888,0.7104345000000001,0.8856850000000001,-0.29817,1.3114045,0.919905,-0.31915,0.9199095,0.001055,0.0025699999999999,1.0800905,-0.0010549999999999,-0.00257,0.8503845000000001,-0.0070149999999999,-0.312,1.1187745,-0.0158749999999999,-0.32229,0.9142415000000002,-0.298515,-0.144831,1.0988845,-0.3046649999999999,-0.155487
136,1.018532,0.669745,-0.124805,0.8629370000000001,0.47367,-0.134504,0.741097,0.679805,-0.233605,1.153727,0.472314,-0.146208,1.258627,0.6881349999999999,-0.249025,0.710207,0.884215,-0.299065,1.310327,0.922135,-0.319445,0.9198030000000001,0.0006849999999999,0.0024449999999999,1.0801969999999999,-0.0006849999999999,-0.002445,0.851997,0.005535,-0.312085,1.118597,-0.004395,-0.322485,0.914291,-0.2849649999999999,-0.144832,1.098688,-0.291105,-0.155497
137,1.0182705,0.668875,-0.124863,0.8628005,0.473481,-0.134261,0.7408405,0.680195,-0.233945,1.1537105,0.471352,-0.145879,1.2581105,0.688145,-0.248885,0.7101205000000002,0.882825,-0.299905,1.3095705,0.924245,-0.3197149999999999,0.9196765000000001,0.000645,0.0022449999999999,1.0803235,-0.000645,-0.0022449999999999,0.8537605,0.0185949999999999,-0.312135,1.1186305,0.0075649999999999,-0.322395,0.9144725,-0.271105,-0.144745,1.0986395,-0.277335,-0.155572
138,1.0179795,0.6677949999999999,-0.1249909999999999,0.8627665000000001,0.472948,-0.134259,0.7409065,0.679685,-0.2343799999999999,1.1538765,0.471576,-0.145503,1.2579865,0.6883549999999999,-0.2490299999999999,0.7101465,0.8806449999999999,-0.30055,1.3090465,0.925015,-0.32023,0.9195945000000001,0.0002649999999999,0.0021,1.0804055,-0.000265,-0.0020999999999999,0.8553165,0.0303949999999999,-0.3123899999999999,1.1186965,0.0184449999999999,-0.32237,0.9147925000000001,-0.258145,-0.144913,1.0987585,-0.264715,-0.1558469999999999
139,1.017822,0.66832,-0.1250389999999999,0.8630249999999999,0.4735709999999999,-0.1340029999999999,0.740865,0.68073,-0.2344949999999999,1.154075,0.4723819999999999,-0.145224,1.257905,0.68919,-0.249135,0.710245,0.88391,-0.300905,1.308775,0.92678,-0.320725,0.919309,0.0001899999999999,0.001965,1.080691,-0.00019,-0.0019649999999999,0.8567250000000001,0.0436399999999999,-0.312185,1.119085,0.0306399999999999,-0.321405,0.9153249999999999,-0.24423,-0.14506,1.099105,-0.25103,-0.1560119999999999
140,1.0175165,0.6678000000000001,-0.1249349999999999,0.8630715000000001,0.47541,-0.1335869999999999,0.7407315,0.68126,-0.234395,1.1539415,0.472811,-0.144931,1.2571415,0.68635,-0.249085,0.7100415,0.88462,-0.300805,1.3075515,0.92418,-0.321095,0.9192755,0.00019,0.001835,1.0807245,-0.0001899999999999,-0.001835,0.8577515,0.0556,-0.311515,1.1193915,0.04164,-0.320065,0.9157075000000001,-0.2315999999999999,-0.144991,1.0993115,-0.2385899999999999,-0.155942
141,1.017202,0.668125,-0.124638,0.863263,0.476284,-0.133068,0.740583,0.683685,-0.23411,1.153723,0.4735179999999999,-0.144157,1.2562929999999999,0.6854549999999999,-0.24886,0.7095930000000001,0.887135,-0.3005,1.306203,0.920245,-0.32159,0.9193439999999999,0.0002149999999999,0.00153,1.080656,-0.000215,-0.00153,0.858523,0.0684649999999999,-0.3103599999999999,1.119703,0.0542649999999999,-0.31821,0.916049,-0.217935,-0.144537,1.09957,-0.225205,-0.155681
142,1.016752,0.66732,-0.12405,0.8635200000000001,0.475449,-0.13228,0.7403900000000001,0.6827700000000001,-0.23356,1.15343,0.4734400000000001,-0.14339,1.2556,0.6828700000000001,-0.24863,0.70884,0.88663,-0.3002,1.30471,0.91481,-0.32215,0.919452,0.0004400000000001,0.00117,1.080548,-0.0004399999999999,-0.00117,0.85892,0.07776,-0.30903,1.11996,0.06322,-0.31624,0.916345,-0.2079899999999999,-0.143702,1.099856,-0.2155099999999999,-0.155424
143,1.0163855,0.66716,-0.123141,0.8638375,0.47522,-0.131636,0.7400575,0.68276,-0.232865,1.1531875,0.474703,-0.142787,1.2548975,0.68171,-0.248485,0.7078675,0.8886499999999999,-0.299945,1.3032175,0.91049,-0.322855,0.9195445,0.0006899999999999,0.000805,1.0804555,-0.0006899999999999,-0.000805,0.8591475,0.08792,-0.307285,1.1202975,0.0729199999999999,-0.313745,0.9166195,-0.19726,-0.142954,1.1002585,-0.20503,-0.155207
144,1.016062,0.6677500000000001,-0.1218729999999999,0.864087,0.47524,-0.1308659999999999,0.7395970000000001,0.68461,-0.2319799999999999,1.152907,0.476584,-0.1420659999999999,1.254237,0.68352,-0.24821,0.7065870000000001,0.8911100000000001,-0.2995099999999999,1.302137,0.91121,-0.3237,0.919583,0.00097,0.00054,1.080417,-0.00097,-0.0005399999999999,0.859327,0.09804,-0.3054,1.120697,0.08278,-0.3115799999999999,0.916875,-0.18638,-0.141505,1.100699,-0.1946,-0.1549189999999999
145,1.015881,0.66779,-0.120243,0.864323,0.477029,-0.129553,0.739243,0.68592,-0.23085,1.152803,0.478386,-0.14115,1.253673,0.68335,-0.247875,0.7052229999999999,0.89339,-0.2985649999999999,1.301073,0.91035,-0.324285,0.919615,0.0016599999999999,7.499999999999174e-05,1.080385,-0.0016599999999999,-7.499999999999174e-05,0.859573,0.10677,-0.303375,1.121303,0.09137,-0.309145,0.917219,-0.1767799999999999,-0.139643,1.101314,-0.1852899999999999,-0.154343
146,1.0157415,0.6676200000000001,-0.118573,0.8644795000000001,0.477672,-0.12788,0.7388895000000001,0.68628,-0.229522,1.1527095,0.479912,-0.1403,1.2531195,0.6826800000000001,-0.247615,0.7037495,0.89553,-0.297695,1.2999295,0.90871,-0.325075,0.9196895,0.00201,-0.000345,1.0803105,-0.0020099999999999,0.0003449999999999,0.8596995000000001,0.11482,-0.301255,1.1219395,0.09917,-0.306585,0.9175245,-0.16781,-0.137706,1.1019255000000001,-0.17684,-0.153713
147,1.015602,0.6675300000000001,-0.116341,0.86438,0.478582,-0.125742,0.7381500000000001,0.68676,-0.227866,1.1526399999999999,0.480797,-0.138949,1.25245,0.6820900000000001,-0.24701,0.7021,0.89731,-0.2962,1.29864,0.90645,-0.32536,0.919836,0.00268,-0.00062,1.080164,-0.00268,0.0006199999999999,0.8594300000000001,0.12236,-0.29858,1.12265,0.10636,-0.3036,0.917713,-0.1594999999999999,-0.135012,1.102363,-0.16908,-0.152352
148,1.015538,0.6668499999999999,-0.114408,0.864243,0.4783689999999999,-0.123875,0.737603,0.6864999999999999,-0.2266119999999999,1.152613,0.4819629999999999,-0.137966,1.2519529999999999,0.6815199999999999,-0.24687,0.7004630000000001,0.8979599999999999,-0.29495,1.2973329999999998,0.90332,-0.32602,0.920018,0.0029899999999999,-0.00081,1.079982,-0.00299,0.00081,0.858943,0.1287799999999999,-0.29616,1.123443,0.1123799999999999,-0.3014799999999999,0.91798,-0.15234,-0.1327289999999999,1.102804,-0.1625200000000001,-0.151164
149,1.0154569999999998,0.66639,-0.112472,0.864063,0.478461,-0.122106,0.736883,0.6857,-0.224709,1.152553,0.483056,-0.136942,1.251833,0.68429,-0.24678,0.698893,0.89949,-0.29363,1.2966229999999999,0.90348,-0.32654,0.92012,0.0033199999999999,-0.0009399999999999,1.07988,-0.0033199999999999,0.0009399999999999,0.858133,0.1348499999999999,-0.2938199999999999,1.124223,0.11808,-0.29935,0.918209,-0.14554,-0.130536,1.103227,-0.1563299999999999,-0.149929
150,1.015418,0.6650800000000001,-0.110779,0.863738,0.4790230000000001,-0.120367,0.7361679999999999,0.684825,-0.223088,1.152508,0.484001,-0.135878,1.251728,0.6860950000000001,-0.246675,0.697478,0.9007050000000001,-0.292595,1.295908,0.905605,-0.326745,0.920215,0.003665,-0.0009949999999999,1.079785,-0.0036649999999999,0.0009949999999999,0.857288,0.139925,-0.291495,1.124998,0.122925,-0.297335,0.918453,-0.1398249999999999,-0.128465,1.1035869999999999,-0.1512249999999999,-0.148825
151,1.0155315,0.6644680000000001,-0.109289,0.8636135,0.4808030000000001,-0.119043,0.7355235,0.68505,-0.221809,1.1526835,0.4853510000000001,-0.134816,1.2517535,0.6882300000000001,-0.246685,0.6964135,0.90238,-0.291795,1.2953735,0.9079,-0.326965,0.9203915,0.00414,-0.001115,1.0796085,-0.0041399999999999,0.0011149999999999,0.8565935,0.14494,-0.289245,1.1258635,0.1278,-0.295315,0.9188225,-0.1341899999999999,-0.126941,1.1039715,-0.1461299999999999,-0.147828
152,1.0156984999999998,0.6632269999999999,-0.108076,0.8635695,0.4816359999999999,-0.117978,0.7349795,0.68429,-0.22052,1.1531395,0.4853569999999999,-0.133765,1.2518995,0.6888799999999999,-0.24712,0.6956795,0.90293,-0.29098,1.2949994999999999,0.90899,-0.32702,0.9204885,0.0044199999999999,-0.00115,1.0795115,-0.00442,0.0011499999999999,0.8558795,0.1482099999999999,-0.28747,1.1267395,0.1310699999999999,-0.29371,0.9192775,-0.13034,-0.125407,1.1043535,-0.14278,-0.146856
153,1.01583,0.662315,-0.106883,0.863552,0.482163,-0.116932,0.7347220000000001,0.6831750000000001,-0.219184,1.1536819999999999,0.485502,-0.132733,1.2520120000000001,0.6894950000000001,-0.247295,0.695222,0.902935,-0.289965,1.294642,0.909935,-0.326875,0.920546,0.004615,-0.001125,1.079454,-0.0046149999999999,0.0011249999999999,0.855192,0.151015,-0.285835,1.127552,0.133865,-0.292235,0.919608,-0.1271549999999999,-0.124482,1.104663,-0.1399249999999999,-0.145757
154,1.0161175,0.661328,-0.1058149999999999,0.8635685000000001,0.482559,-0.115951,0.7344385,0.682355,-0.217796,1.1543285,0.485432,-0.1317539999999999,1.2522585,0.690215,-0.247255,0.6951285,0.902635,-0.2889049999999999,1.2943685,0.910595,-0.3267649999999999,0.9206295,0.0047449999999999,-0.001085,1.0793705,-0.0047449999999999,0.001085,0.8545185000000001,0.153265,-0.284425,1.1283785,0.136085,-0.290925,0.9199395,-0.1245049999999999,-0.123666,1.1049025,-0.137575,-0.144598
155,1.016417,0.660675,-0.1049169999999999,0.863656,0.483391,-0.1153039999999999,0.734236,0.6819240000000001,-0.2166239999999999,1.155016,0.485369,-0.1307859999999999,1.252566,0.6905800000000001,-0.2472049999999999,0.695306,0.90218,-0.2879549999999999,1.294206,0.91094,-0.326685,0.920648,0.00495,-0.0010249999999999,1.079352,-0.0049499999999998,0.001025,0.8539260000000001,0.155,-0.283375,1.129256,0.13778,-0.289875,0.9203040000000001,-0.1226399999999999,-0.1230189999999999,1.105149,-0.13571,-0.1436249999999999
156,1.016708,0.660214,-0.104035,0.863727,0.4839,-0.114658,0.734147,0.682284,-0.215601,1.155607,0.4860449999999999,-0.129984,1.252877,0.69086,-0.247155,0.695477,0.90198,-0.287045,1.294087,0.91104,-0.326545,0.920641,0.0050099999999999,-0.000985,1.079359,-0.00501,0.000985,0.853417,0.1564499999999999,-0.282405,1.130067,0.1391099999999999,-0.288875,0.920616,-0.12129,-0.122518,1.105311,-0.13435,-0.142888
157,1.016916,0.659742,-0.103329,0.8636920000000001,0.483995,-0.114328,0.734022,0.6823990000000001,-0.214691,1.155932,0.48597,-0.129405,1.253152,0.6904950000000001,-0.247165,0.695592,0.901525,-0.286155,1.293992,0.910375,-0.326265,0.920627,0.004895,-0.000985,1.079373,-0.0048949999999999,0.000985,0.852932,0.157015,-0.281675,1.130692,0.139525,-0.288085,0.920741,-0.1210149999999999,-0.122137,1.105403,-0.134065,-0.142314
158,1.017021,0.659742,-0.102828,0.863662,0.483995,-0.114001,0.7340420000000001,0.6823990000000001,-0.214354,1.156152,0.48597,-0.128959,1.253352,0.6904950000000001,-0.247175,0.695702,0.901525,-0.285255,1.294012,0.910125,-0.325955,0.920627,0.004895,-0.000985,1.079373,-0.0048949999999999,0.000985,0.852492,0.157545,-0.280945,1.131182,0.139885,-0.287525,0.9207730000000001,-0.1209249999999999,-0.12164,1.105405,-0.1339249999999999,-0.141731
159,1.017158,0.659742,-0.10243,0.863672,0.483995,-0.113932,0.734062,0.6823990000000001,-0.214154,1.156222,0.48597,-0.128685,1.253472,0.6904950000000001,-0.2470149999999999,0.6960820000000001,0.901525,-0.284395,1.294032,0.910125,-0.3256449999999999,0.920627,0.004895,-0.000985,1.079373,-0.0048949999999999,0.000985,0.852062,0.158305,-0.280765,1.131532,0.140325,-0.287545,0.920784,-0.1209249999999999,-0.121465,1.105394,-0.1338149999999999,-0.141082
160,1.0172745,0.659737,-0.102365,0.8636355,0.48399,-0.1140719999999999,0.7340855,0.682704,-0.214146,1.1562255,0.486378,-0.128766,1.2534555,0.69049,-0.246915,0.6966355,0.90152,-0.283775,1.2940155,0.91012,-0.325555,0.9206335,0.00489,-0.0010449999999999,1.0793665,-0.0048899999999999,0.0010449999999999,0.8517155000000001,0.15908,-0.280965,1.1315855,0.14084,-0.287775,0.9207475,-0.1209299999999999,-0.121685,1.1053945,-0.13371,-0.140746
161,1.017276,0.660198,-0.1026219999999999,0.863478,0.4837879999999999,-0.114478,0.734048,0.684175,-0.2143,1.156118,0.4859239999999999,-0.129051,1.253408,0.689985,-0.24734,0.696798,0.901355,-0.28398,1.293858,0.909465,-0.32605,0.920575,0.004645,-0.0011199999999999,1.079425,-0.004645,0.00112,0.8514079999999999,0.1592349999999999,-0.28145,1.131418,0.1407049999999999,-0.28827,0.92057,-0.121585,-0.12218,1.105221,-0.134245,-0.140687
162,1.0172215,0.661254,-0.1033219999999999,0.8635565000000001,0.4842769999999999,-0.1149029999999999,0.7337665,0.68565,-0.2148029999999999,1.1559165,0.4852109999999999,-0.129741,1.2532465,0.68832,-0.248035,0.6967265,0.9002600000000001,-0.284675,1.2936165,0.90699,-0.326735,0.9204565,0.00431,-0.0011449999999999,1.0795435,-0.00431,0.001145,0.8509865,0.1574499999999999,-0.282135,1.1311265,0.13876,-0.289025,0.9200725,-0.12433,-0.1228509999999999,1.1048955,-0.13672,-0.1409409999999999
163,1.017146,0.6622789999999998,-0.103933,0.8637239999999999,0.4845259999999999,-0.115309,0.733204,0.6865599999999998,-0.215748,1.155694,0.4842049999999999,-0.1303419999999999,1.253074,0.68607,-0.24864,0.696434,0.8983099999999999,-0.28527,1.293714,0.90723,-0.32736,0.92039,0.0038899999999999,-0.0008299999999999,1.07961,-0.00389,0.0008299999999999,0.850624,0.1531499999999999,-0.28319,1.130754,0.1349799999999998,-0.29046,0.91942,-0.1292500000000001,-0.123754,1.104526,-0.1410200000000001,-0.141191
164,1.0170715,0.664557,-0.1044889999999999,0.8638585,0.4840529999999999,-0.1157849999999999,0.7329985,0.68755,-0.216074,1.1554585,0.4848329999999999,-0.1308879999999999,1.2527485,0.68799,-0.2491799999999999,0.6961085,0.8992,-0.28581,1.2942084999999999,0.90922,-0.3283399999999999,0.9203195,0.00322,-0.0003699999999999,1.0796805,-0.00322,0.00037,0.8502585,0.14843,-0.28432,1.1301085,0.1305,-0.29217,0.9187535,-0.1349099999999999,-0.1249349999999999,1.1041505,-0.14604,-0.1414269999999999
165,1.0170825,0.66698,-0.105362,0.8641575000000001,0.481722,-0.116502,0.7332575,0.6870700000000001,-0.216538,1.1551974999999999,0.485219,-0.13188,1.2527175,0.68859,-0.25005,0.6961675,0.8999600000000001,-0.28666,1.2949175,0.9104,-0.32967,0.9204085,0.0020499999999999,0.0,1.0795915,-0.0020499999999999,0.0,0.8499975000000001,0.14085,-0.28646,1.1294275,0.12299,-0.29517,0.9182455,-0.1435299999999999,-0.126394,1.1038725,-0.15403,-0.141902
166,1.0170899999999998,0.66774,-0.1064889999999999,0.864494,0.4813559999999999,-0.1173269999999999,0.7331639999999999,0.68658,-0.217337,1.154964,0.4834639999999999,-0.133175,1.253014,0.68768,-0.2513149999999999,0.696114,0.89967,-0.287645,1.295704,0.90731,-0.331395,0.920539,0.00173,0.000605,1.079461,-0.00173,-0.0006049999999999,0.849694,0.1281799999999999,-0.289635,1.128514,0.1105399999999999,-0.2996649999999999,0.917789,-0.15726,-0.1279409999999999,1.103598,-0.16714,-0.142334
167,1.016876,0.67012,-0.1075449999999999,0.864765,0.480879,-0.118028,0.733045,0.6871700000000001,-0.218021,1.154595,0.480926,-0.1345009999999999,1.2530350000000001,0.68689,-0.252585,0.696025,0.90005,-0.288715,1.296595,0.90886,-0.3331849999999999,0.920725,0.00136,0.001225,1.079275,-0.00136,-0.0012249999999999,0.849275,0.11478,-0.292935,1.127395,0.09731,-0.3040549999999999,0.9172629999999999,-0.1719399999999999,-0.1294449999999999,1.103186,-0.18118,-0.142615
168,1.0163835,0.673025,-0.109289,0.8644775,0.479259,-0.1192339999999999,0.7324075,0.686515,-0.2198129999999999,1.1537675,0.482599,-0.136434,1.2525175,0.688835,-0.25436,0.6957074999999999,0.903085,-0.29044,1.2968175,0.912335,-0.33535,0.9207045000000001,0.000835,0.00164,1.0792955,-0.000835,-0.00164,0.8488975,0.099675,-0.2946499999999999,1.1261275,0.082565,-0.30666,0.9164985,-0.1882349999999999,-0.1316669999999999,1.1025155,-0.196875,-0.143501
169,1.0157545,0.675845,-0.11114,0.8641235,0.4818570000000001,-0.120829,0.7317135,0.6875950000000001,-0.22141,1.1528035,0.4841540000000001,-0.138474,1.2518035,0.6901250000000001,-0.25648,0.6951035000000001,0.905345,-0.29231,1.2974135,0.914515,-0.33827,0.9206775000000001,0.000605,0.0018799999999999,1.0793225,-0.0006049999999999,-0.0018799999999999,0.8484735,0.0822150000000001,-0.29647,1.1247635,0.065595,-0.30925,0.9156124999999999,-0.2066049999999999,-0.133951,1.1017175,-0.2148149999999999,-0.144343
170,1.0150739999999998,0.68207,-0.113113,0.863472,0.483528,-0.122386,0.731042,0.68844,-0.223047,1.151742,0.485741,-0.140386,1.251342,0.6923600000000001,-0.25862,0.6944320000000002,0.90704,-0.29427,1.297832,0.91601,-0.34102,0.920491,0.00063,0.0020799999999999,1.079509,-0.0006299999999999,-0.0020799999999999,0.848012,0.06324,-0.2978699999999999,1.123312,0.04695,-0.31154,0.914724,-0.2267399999999999,-0.13627,1.100877,-0.23463,-0.145089
171,1.0137485,0.681835,-0.1146669999999999,0.8622164999999999,0.482726,-0.1240379999999999,0.7297265,0.687715,-0.2245349999999999,1.1501465,0.484998,-0.1422999999999999,1.2499064999999998,0.690365,-0.2603499999999999,0.6932765000000001,0.905575,-0.29594,1.2973965,0.917215,-0.34319,0.9202905,0.0005249999999999,0.00248,1.0797095,-0.0005249999999999,-0.0024799999999999,0.8470265000000001,0.0398649999999999,-0.29867,1.1208065,0.023915,-0.3126299999999999,0.9134355,-0.2517649999999999,-0.1380409999999999,1.0995165,-0.259655,-0.145555
172,1.0121765,0.683135,-0.115645,0.8610835,0.482405,-0.125178,0.7285135,0.6875150000000001,-0.225602,1.1485835,0.485883,-0.143675,1.2487935000000001,0.6934450000000001,-0.261795,0.6921135,0.907635,-0.297025,1.2966935,0.918795,-0.344615,0.9201625,0.000445,0.002805,1.0798375,-0.0004449999999999,-0.002805,0.8461135,0.017635,-0.298805,1.1186535,0.0021349999999999,-0.312685,0.9122025,-0.2762749999999999,-0.138738,1.0983005,-0.284165,-0.1453279999999999
173,1.010584,0.68423,-0.116289,0.8599500000000001,0.482197,-0.12593,0.72706,0.68698,-0.226439,1.14698,0.485029,-0.144728,1.24754,0.69223,-0.2625699999999999,0.69095,0.90441,-0.29716,1.29581,0.91733,-0.34519,0.9200560000000001,0.00065,0.0030499999999999,1.0799439999999998,-0.0006499999999999,-0.0030499999999999,0.8453200000000001,-0.00605,-0.29851,1.11692,-0.02076,-0.31234,0.9110050000000001,-0.30354,-0.138705,1.097231,-0.31096,-0.145002
174,1.008827,0.684985,-0.116712,0.8586860000000001,0.484805,-0.126858,0.725916,0.6885749999999999,-0.22711,1.145346,0.484315,-0.1455,1.246406,0.692285,-0.26317,0.689986,0.904305,-0.29686,1.294806,0.914765,-0.34567,0.920083,0.001425,0.00336,1.079917,-0.001425,-0.00336,0.844726,-0.0285849999999999,-0.29783,1.115336,-0.0424149999999999,-0.31192,0.909893,-0.329985,-0.138597,1.096277,-0.337235,-0.144622
175,1.0069629999999998,0.688155,-0.1168739999999999,0.8572649999999999,0.485245,-0.1277329999999999,0.724695,0.690085,-0.227815,1.143695,0.486965,-0.146059,1.245335,0.6941949999999999,-0.26327,0.6890350000000001,0.903955,-0.29651,1.293825,0.921325,-0.34557,0.920122,0.0011749999999999,0.00374,1.079878,-0.001175,-0.0037399999999999,0.844145,-0.048075,-0.29623,1.113865,-0.061095,-0.31074,0.908917,-0.3539650000000001,-0.138532,1.095326,-0.361425,-0.1441819999999999
176,1.005075,0.689255,-0.116739,0.8558120000000001,0.486445,-0.128293,0.723042,0.690025,-0.228382,1.1420819999999998,0.489375,-0.146382,1.243972,0.6956549999999999,-0.26249,0.688402,0.901295,-0.29578,1.292842,0.921445,-0.34481,0.920099,0.0009449999999999,0.0044299999999999,1.079901,-0.000945,-0.00443,0.8436620000000001,-0.068805,-0.29355,1.1123219999999998,-0.080375,-0.30877,0.907307,-0.380115,-0.139812,1.094403,-0.387045,-0.143432
177,1.0031775,0.690465,-0.116242,0.8542915,0.489475,-0.128912,0.7217914999999999,0.6905749999999999,-0.228415,1.1406915,0.487925,-0.146424,1.2422715,0.6953750000000001,-0.26141,0.6876715,0.8997850000000001,-0.29474,1.2916915,0.918885,-0.34356,0.9199965,0.001045,0.0051299999999999,1.0800035000000001,-0.001045,-0.00513,0.8434215,-0.0887749999999999,-0.28925,1.1109015,-0.0993149999999999,-0.30517,0.9057065,-0.406645,-0.140823,1.0936085,-0.412475,-0.142752
178,1.001187,0.691405,-0.115273,0.852767,0.489135,-0.128924,0.720637,0.689365,-0.227996,1.139167,0.4872149999999999,-0.145943,1.240567,0.693705,-0.25987,0.686977,0.896355,-0.29336,1.290157,0.915225,-0.34169,0.920229,0.0008349999999999,0.0052299999999999,1.079771,-0.000835,-0.00523,0.843427,-0.107665,-0.28281,1.109557,-0.117555,-0.29888,0.903919,-0.432735,-0.14137,1.092896,-0.437555,-0.141948
179,0.999055,0.6897899999999999,-0.1138889999999999,0.850865,0.48958,-0.128628,0.718865,0.68907,-0.227302,1.137345,0.4863099999999999,-0.1454389999999999,1.2389350000000001,0.6909099999999999,-0.258005,0.686015,0.89226,-0.291365,1.287595,0.916,-0.339725,0.920408,0.0004299999999999,0.005115,1.0795919999999999,-0.00043,-0.0051149999999999,0.842975,-0.12604,-0.2753649999999999,1.107945,-0.13449,-0.2918349999999999,0.90141,-0.45776,-0.141623,1.091957,-0.46147,-0.1413869999999999
180,0.997603,0.694395,-0.1117669999999999,0.8496859999999999,0.492455,-0.127625,0.7177960000000001,0.690395,-0.2256349999999999,1.135866,0.489855,-0.1441899999999999,1.237276,0.697655,-0.255105,0.685686,0.895625,-0.288885,1.285706,0.920395,-0.336055,0.9206390000000001,0.0002649999999999,0.005055,1.079361,-0.0002649999999999,-0.0050549999999999,0.843156,-0.1396849999999999,-0.269165,1.1072559999999998,-0.146725,-0.286095,0.899326,-0.477245,-0.1414949999999999,1.091789,-0.4800150000000001,-0.1405209999999999
181,0.9964530000000001,0.6986600000000001,-0.1092359999999999,0.848508,0.49511,-0.126278,0.7167479999999999,0.69206,-0.2235189999999999,1.134588,0.49169,-0.142598,1.235708,0.69833,-0.2521299999999999,0.6854180000000001,0.89568,-0.28562,1.283998,0.92014,-0.33176,0.9208560000000001,2.000000000002e-05,0.005,1.0791439999999999,-1.999999999999225e-05,-0.0049999999999999,0.843448,-0.1540699999999999,-0.2621799999999999,1.106538,-0.1596599999999999,-0.27968,0.897038,-0.4971199999999999,-0.141149,1.091622,-0.49879,-0.1394379999999999
182,0.9959595,0.70289,-0.105906,0.8473185,0.50024,-0.124562,0.7159285,0.69559,-0.220992,1.1332785,0.49202,-0.140564,1.2341885,0.7000500000000001,-0.248735,0.6851285,0.90111,-0.282035,1.2823185,0.92461,-0.326685,0.9210865,9.000000000000674e-05,0.0049049999999999,1.0789135,-9.000000000000674e-05,-0.004905,0.8436985000000001,-0.1666,-0.255105,1.1056685,-0.1714699999999999,-0.272805,0.8940485,-0.51494,-0.14107,1.0915605,-0.51578,-0.139498
183,0.9948825000000001,0.707515,-0.10133,0.8461855,0.503125,-0.1214799999999999,0.7152455,0.6971649999999999,-0.217092,1.1321155,0.496085,-0.137527,1.2326855,0.702495,-0.244025,0.6848655,0.901375,-0.277075,1.2807155,0.931725,-0.320705,0.9215465,-0.000335,0.004845,1.0784535,0.000335,-0.004845,0.8437855000000001,-0.179415,-0.245815,1.1046855,-0.183125,-0.263805,0.8910055,-0.532525,-0.139687,1.0915135,-0.532185,-0.138008
184,0.9938695,0.711015,-0.096773,0.8443855,0.507435,-0.118097,0.7144255000000002,0.700265,-0.213215,1.1312555,0.498005,-0.134273,1.2310655,0.705205,-0.238545,0.6844255,0.903445,-0.271635,1.2788255,0.933755,-0.313875,0.9221815,-0.0003549999999999,0.0047749999999999,1.0778185,0.0003549999999999,-0.004775,0.8441155,-0.191215,-0.235805,1.1033454999999999,-0.194205,-0.254335,0.8878955,-0.548335,-0.138303,1.0912415,-0.547245,-0.134891
185,0.993044,0.715765,-0.0924069999999999,0.842533,0.510085,-0.114934,0.713563,0.704175,-0.20936,1.130293,0.502535,-0.131389,1.229293,0.709395,-0.2333299999999999,0.684153,0.911165,-0.26619,1.2767929999999998,0.937355,-0.30748,0.9227980000000001,-0.000575,0.0046199999999999,1.077202,0.0005749999999999,-0.0046199999999999,0.844433,-0.201725,-0.22652,1.101813,-0.204475,-0.24469,0.8854029999999999,-0.5620050000000001,-0.13533,1.0907419999999999,-0.560635,-0.1311459999999999
186,0.9931030000000001,0.7203355,-0.0883525,0.8417120000000001,0.5120755,-0.1116735,0.7137020000000001,0.7085454999999999,-0.2057785,1.130372,0.5056955,-0.1287055,1.228552,0.7128955,-0.2285585,0.684802,0.9144755,-0.2610985,1.275772,0.9411355,-0.3011085,0.922943,-0.0007455,0.0044015,1.077057,0.0007454999999999,-0.0044015,0.845602,-0.2104845,-0.2177184999999999,1.101212,-0.2141645,-0.2349585,0.883732,-0.5733545,-0.1308915,1.091285,-0.5731945,-0.1268505
187,0.9930775000000001,0.7264615000000001,-0.083484,0.8409775000000002,0.5166815,-0.107817,0.7137275000000001,0.7110815,-0.201407,1.1303375,0.5116515,-0.1252349999999999,1.2286275,0.7174815,-0.223447,0.6854775,0.9183615,-0.255367,1.2750375,0.9451915,-0.294157,0.9231835,-0.0009585,0.004163,1.0768165,0.0009585,-0.004163,0.8466675000000001,-0.2227184999999999,-0.207417,1.1001775,-0.2281685,-0.223267,0.8834075000000001,-0.5866785,-0.125754,1.0913605,-0.5883885,-0.121739
188,0.993125,0.7310424999999999,-0.0789285,0.840509,0.5212825,-0.1041885,0.713939,0.7137525,-0.1972935,1.130559,0.5177025,-0.1218005,1.228749,0.7228424999999999,-0.2186435,0.6861889999999999,0.9231625,-0.2499635,1.274489,0.9456625,-0.2877735,0.9234680000000001,-0.0010154999999999,0.0040354999999999,1.0765319999999998,0.0010155,-0.0040355,0.8480990000000002,-0.2344274999999999,-0.1972135,1.098709,-0.2417375,-0.2109035,0.883499,-0.5994575000000001,-0.1207775,1.091482,-0.6029475000000001,-0.1169355
189,0.993689,0.734168,-0.0694274999999999,0.8406359999999999,0.523408,-0.0953405,0.7146760000000001,0.717048,-0.1885164999999999,1.131346,0.5201479999999999,-0.1132114999999999,1.229416,0.722268,-0.2088864999999999,0.687466,0.922998,-0.2395465,1.274496,0.942018,-0.2765165,0.923567,-0.000722,0.0039095,1.076433,0.000722,-0.0039094999999999,0.851356,-0.247612,-0.1797045,1.097826,-0.256382,-0.1924564999999999,0.884186,-0.613682,-0.1106365,1.092188,-0.6184419999999999,-0.1065754999999999
190,0.9944425,0.731934,-0.0569989999999999,0.8407295,0.522264,-0.0841819999999999,0.7154495000000001,0.7141540000000001,-0.176816,1.1322195,0.523044,-0.101774,1.2301495,0.725564,-0.197146,0.6892195,0.922074,-0.2263259999999999,1.2744795,0.940514,-0.262486,0.9236695,-0.0005129999999999,0.0033259999999999,1.0763305,0.0005129999999999,-0.0033259999999999,0.8573395,-0.2657859999999999,-0.156504,1.0963844999999999,-0.275786,-0.169145,0.8851694999999999,-0.632826,-0.094775,1.0929754999999999,-0.638896,-0.091289
191,0.9954035,0.7288884999999999,-0.0447549999999999,0.8412775,0.5193985,-0.073493,0.7166375,0.7103785,-0.165414,1.1331975,0.5274085,-0.090737,1.2315274999999999,0.7281585,-0.186274,0.6911175,0.9182585,-0.213524,1.2750875,0.9398285,-0.246934,0.9239965,-0.0006384999999999,0.002746,1.0760035000000001,0.0006385,-0.0027459999999999,0.8635075,-0.2839715,-0.133651,1.0951935,-0.2940315,-0.146177,0.8863275,-0.6515415,-0.0791119999999999,1.0938394999999999,-0.6580115,-0.0757009999999999
192,0.996146,0.7269369999999999,-0.0332445,0.8416710000000001,0.518737,-0.0634535,0.717761,0.708237,-0.1546055,1.134611,0.528177,-0.0799025,1.232311,0.730017,-0.1757255,0.692861,0.916647,-0.2012755,1.274341,0.938187,-0.2319955,0.924323,-0.0004459999999999,0.0021665,1.075677,0.000446,-0.0021665,0.869711,-0.300353,-0.1118335,1.093938,-0.308073,-0.1241555,0.887641,-0.667913,-0.0630815,1.094407,-0.673873,-0.0601905
193,0.9970090000000001,0.7252744999999999,-0.0217144999999999,0.842422,0.5169445,-0.0536544999999999,0.719082,0.7046344999999999,-0.1438424999999999,1.136102,0.5299745,-0.0690824999999999,1.233342,0.7310845,-0.1652225,0.694782,0.9140445,-0.1894424999999999,1.273872,0.9362345,-0.2172625,0.924696,-0.0004804999999999,0.0015165,1.075304,0.0004805,-0.0015164999999999,0.876292,-0.3155755,-0.0901055,1.092859,-0.3212655,-0.1022764999999999,0.889362,-0.6831355,-0.0466694999999999,1.095137,-0.6886855000000001,-0.0444505
194,0.9975740000000001,0.7230435,-0.0102694999999999,0.842921,0.5164534999999999,-0.0438625,0.7201310000000001,0.7006935000000001,-0.1328925,1.137331,0.5305435000000001,-0.0580635,1.234491,0.7311034999999999,-0.1548525,0.696411,0.9074735,-0.1777524999999999,1.273951,0.9343335,-0.2032525,0.925028,-0.0003415,0.0009224999999999,1.074972,0.0003415,-0.0009224999999999,0.882641,-0.3300665,-0.0677335,1.091486,-0.3332565,-0.0801824999999999,0.891531,-0.6975865000000001,-0.0287805,1.095443,-0.7023765,-0.0269535
195,0.9984655,0.7200825,0.0014194999999999,0.8437405,0.5158325,-0.0338445,0.7215005,0.6962825,-0.1216695,1.1388605,0.5321225,-0.0467395,1.2356105,0.7309225,-0.1437495,0.6984405,0.9012425,-0.1658295,1.2738105,0.9329925,-0.1881595,0.9252454999999999,-0.0004115,0.0003474999999999,1.0747545,0.0004114999999999,-0.0003475,0.8893905,-0.3438475,-0.0447805,1.0903205,-0.3462975,-0.0576225,0.8942005,-0.7113875,-0.0105385,1.0961615,-0.7166475,-0.0091435
