sb224sc-HT22-VT27/4dt907/src/data/kinect_good_preprocessed_A9_mediapipe/B20_kinect.csv
FrameNo,nose_3d_x,nose_3d_y,nose_3d_z,left_shoulder_3d_x,left_shoulder_3d_y,left_shoulder_3d_z,left_elbow_3d_x,left_elbow_3d_y,left_elbow_3d_z,right_shoulder_3d_x,right_shoulder_3d_y,right_shoulder_3d_z,right_elbow_3d_x,right_elbow_3d_y,right_elbow_3d_z,left_wrist_3d_x,left_wrist_3d_y,left_wrist_3d_z,right_wrist_3d_x,right_wrist_3d_y,right_wrist_3d_z,left_hip_3d_x,left_hip_3d_y,left_hip_3d_z,right_hip_3d_x,right_hip_3d_y,right_hip_3d_z,left_knee_3d_x,left_knee_3d_y,left_knee_3d_z,right_knee_3d_x,right_knee_3d_y,right_knee_3d_z,left_ankle_3d_x,left_ankle_3d_y,left_ankle_3d_z,right_ankle_3d_x,right_ankle_3d_y,right_ankle_3d_z
98,-0.015251499999999998,0.7041875,0.047226500000000005,-0.1680755,0.5199375,0.0050745,-0.2832055,0.7186675,-0.050171499999999994,0.1618145,0.5167175,0.0344495,0.27798449999999997,0.6960775,0.0015814999999999996,-0.34906550000000003,0.9128575,-0.0694645,0.32031450000000006,0.8987375,-0.0025234999999999997,-0.0732105,-0.0017634999999999942,-0.001527500000000001,0.0732105,0.0017635000000000012,0.0015274999999999993,-0.0984895,-0.3927025,-0.026538500000000003,0.1012445,-0.3842325,-0.0043795000000000014,-0.1039855,-0.7403125,0.0275675,0.09284250000000001,-0.7399725,0.0361625
99,-0.015343500000000006,0.7028665,0.044467999999999994,-0.1679045,0.5203265,0.0024670000000000004,-0.2830745,0.7174465,-0.053374000000000005,0.1611755,0.5158564999999999,0.031109,0.2787755,0.6957065,-0.0021659999999999995,-0.34832450000000004,0.9081365,-0.074403,0.3203955,0.9000365,-0.0067220000000000005,-0.0734555,-0.001625499999999995,-0.0015589999999999996,0.0734555,0.001625500000000002,0.0015590000000000005,-0.09946450000000001,-0.3909435,-0.033923999999999996,0.10287549999999998,-0.38209350000000003,-0.011633000000000001,-0.10373450000000001,-0.7396235,0.022815000000000002,0.09297149999999998,-0.7378635,0.031406
100,-0.0153205,0.7013565,0.0415295,-0.16768450000000001,0.5209265,-0.0003204999999999996,-0.2828945,0.7156965,-0.0568415,0.1604255,0.5152765,0.027506500000000003,0.27968550000000003,0.6949365,-0.006224499999999999,-0.3474945,0.9041765,-0.0795595,0.32053550000000003,0.9016965,-0.0113605,-0.0737785,-0.0014344999999999983,-0.0016414999999999997,0.0737785,0.0014344999999999983,0.0016415000000000006,-0.10041449999999999,-0.3886535,-0.0417975,0.1047255,-0.3791635,-0.0195245,-0.10346449999999999,-0.7384935,0.0177555,0.09316150000000001,-0.7350035,0.0262905
101,-0.015194999999999997,0.7005104999999999,0.0380645,-0.16726599999999997,0.5193205,-0.0025464999999999997,-0.282476,0.7146305,-0.060878499999999995,0.15976400000000002,0.5130905,0.0235575,0.28060399999999996,0.6952404999999999,-0.010789499999999999,-0.346646,0.9032405,-0.0846725,0.32068399999999997,0.9005205,-0.017375500000000002,-0.074169,-0.0013395000000000004,-0.0017675,0.074169,0.0013395000000000004,0.0017675,-0.10141599999999999,-0.3851295,-0.0501565,0.10673400000000001,-0.3748395,-0.0278885,-0.103156,-0.7355095,0.0123395,0.093431,-0.7305295,0.0207555
102,-0.014954000000000002,0.6994619999999999,0.034437,-0.166714,0.518432,-0.005035,-0.28183400000000003,0.713592,-0.06518,0.159486,0.5107619999999999,0.019625999999999998,0.281486,0.695442,-0.015581999999999999,-0.346204,0.9075719999999999,-0.089138,0.320896,0.899992,-0.023714000000000002,-0.074571,-0.0011569999999999983,-0.0019400000000000003,0.074571,0.0011569999999999983,0.0019399999999999999,-0.10244400000000001,-0.381168,-0.058767,0.108816,-0.369788,-0.036441,-0.102824,-0.731468,0.006691999999999999,0.093757,-0.725268,0.015001999999999998
103,-0.014635500000000006,0.698118,0.030657999999999998,-0.1659795,0.517278,-0.007704,-0.2810995,0.712878,-0.06954199999999999,0.15893049999999997,0.508988,0.015679000000000002,0.2822505,0.6953079999999999,-0.020678000000000002,-0.3455995,0.912978,-0.09368699999999999,0.3210205,0.8995179999999999,-0.030487,-0.0748985,-0.0010620000000000004,-0.002005,0.0748985,0.0010620000000000004,0.002005,-0.10342950000000001,-0.376522,-0.067166,0.11115049999999999,-0.364452,-0.045344,-0.1025095,-0.7267020000000001,0.0008400000000000005,0.0941265,-0.718952,0.009195000000000002
104,-0.014265499999999997,0.6964225,0.026832,-0.16514949999999998,0.5156225000000001,-0.010207999999999998,-0.2802195,0.7121125,-0.073837,0.1585205,0.5090725,0.011755000000000002,0.2828305,0.6940525000000001,-0.025721,-0.34500949999999997,0.9188425,-0.097798,0.3209705,0.8985525000000001,-0.037375,-0.0751905,-0.0010495000000000018,-0.002076999999999999,0.0751905,0.0010494999999999949,0.0020770000000000007,-0.10423949999999998,-0.37199750000000004,-0.075683,0.1135805,-0.3595775,-0.05425,-0.10210949999999999,-0.7217374999999999,-0.005162999999999999,0.09442249999999999,-0.7122474999999999,0.003549
105,-0.0138975,0.6949985,0.023079500000000003,-0.1642855,0.5141184999999999,-0.0126155,-0.27918550000000003,0.7110785,-0.0782795,0.1581845,0.5080785,0.007866499999999998,0.2832745,0.6930284999999999,-0.0308485,-0.34436550000000005,0.9254285,-0.1023165,0.32089449999999997,0.8979385,-0.044609499999999996,-0.0754955,-0.0010465000000000023,-0.002127500000000001,0.0754955,0.0010464999999999988,0.002127500000000001,-0.10501550000000001,-0.3669515,-0.08420849999999999,0.1157945,-0.3542015,-0.0629455,-0.10165550000000001,-0.7156015,-0.0113145,0.0947605,-0.7053015,-0.0022435000000000007
106,-0.013500500000000006,0.694156,0.019419,-0.16346750000000002,0.512636,-0.014829000000000002,-0.27817749999999997,0.7117060000000001,-0.082621,0.1579725,0.506306,0.004079999999999997,0.2836825,0.692566,-0.035904000000000005,-0.34377749999999996,0.932596,-0.106683,0.32046250000000004,0.8961760000000001,-0.051946000000000006,-0.0757865,-0.0011090000000000006,-0.002197000000000001,0.0757865,0.0011089999999999989,0.0021969999999999976,-0.10587750000000001,-0.361354,-0.092654,0.1177425,-0.348584,-0.071415,-0.10129750000000001,-0.7083539999999999,-0.017328000000000003,0.09513749999999999,-0.6977639999999999,-0.008015000000000001
107,-0.0131545,0.693174,0.0158045,-0.16286650000000003,0.5109440000000001,-0.0169015,-0.2772565,0.7128540000000001,-0.0868585,0.15768349999999998,0.504664,0.0005994999999999993,0.2839735,0.692264,-0.0412845,-0.34310650000000004,0.939794,-0.11093549999999999,0.3196735,0.893724,-0.0596915,-0.0759195,-0.001202,-0.0023325000000000012,0.0759195,0.001202,0.0023325000000000012,-0.1068765,-0.355256,-0.10137850000000001,0.1195935,-0.342746,-0.0798445,-0.1010565,-0.699846,-0.0233365,0.0954335,-0.689036,-0.013577500000000001
108,-0.012770000000000004,0.6923005,0.012516,-0.162387,0.5087205,-0.018841999999999998,-0.276447,0.7135305,-0.090869,0.157473,0.5028605,-0.0025839999999999995,0.284143,0.6917105,-0.046533,-0.342117,0.9460204999999999,-0.11493500000000001,0.318743,0.8913004999999999,-0.06733,-0.07602600000000001,-0.0013054999999999994,-0.0024059999999999984,0.07602600000000001,0.0013055000000000002,0.0024059999999999984,-0.107797,-0.3487395,-0.10994100000000001,0.12157299999999999,-0.33684949999999997,-0.088114,-0.10103700000000002,-0.6906795,-0.029317,0.095578,-0.6801095,-0.018897999999999998
109,-0.012363500000000003,0.691067,0.009301999999999998,-0.1618775,0.506517,-0.020587,-0.2757875,0.714927,-0.09481200000000001,0.1568725,0.500467,-0.005947000000000004,0.28420249999999997,0.691487,-0.051627000000000006,-0.3407875,0.947387,-0.119232,0.31772249999999996,0.8900170000000001,-0.074603,-0.07620650000000001,-0.0014340000000000012,-0.002371000000000005,0.07620650000000001,0.0014340000000000012,0.002370999999999998,-0.1086075,-0.341783,-0.11826,0.12356249999999999,-0.330793,-0.095967,-0.1009475,-0.680623,-0.035161000000000005,0.09566150000000001,-0.670393,-0.023930000000000003
110,-0.012172,0.689588,0.0064690000000000025,-0.161626,0.506218,-0.023149,-0.275366,0.716168,-0.098718,0.155894,0.499598,-0.008927999999999998,0.284124,0.690828,-0.056403999999999996,-0.339546,0.9486979999999999,-0.123245,0.31629399999999996,0.8891979999999999,-0.080832,-0.076521,-0.0014990000000000003,-0.002375000000000002,0.076521,0.0014990000000000003,0.002375000000000002,-0.109286,-0.335322,-0.12642799999999998,0.125244,-0.32487200000000005,-0.10327,-0.10092599999999999,-0.670182,-0.040908,0.095603,-0.660312,-0.028615
111,-0.011944999999999996,0.6879695,0.0037899999999999948,-0.161379,0.5044895,-0.025446000000000003,-0.274989,0.7168295,-0.102384,0.155211,0.49813949999999996,-0.011815000000000003,0.28386100000000003,0.6894295,-0.061242000000000005,-0.338259,0.9497694999999999,-0.12717499999999998,0.31491100000000005,0.8868395,-0.086952,-0.07683000000000001,-0.0016695000000000043,-0.0023019999999999985,0.07683000000000001,0.0016694999999999974,0.0023019999999999985,-0.10979900000000001,-0.3286105,-0.13416,0.126921,-0.31929050000000003,-0.110468,-0.100879,-0.6591405,-0.046516,0.095502,-0.6501005,-0.033043
112,-0.0117515,0.6863184999999999,0.001243000000000001,-0.1613985,0.5030985,-0.027557999999999996,-0.2746885,0.7159785,-0.105975,0.1544915,0.4961785,-0.014492999999999995,0.2834515,0.6881284999999999,-0.065803,-0.3369785,0.9506785,-0.130955,0.3137915,0.8844084999999999,-0.09257099999999999,-0.0770425,-0.001751500000000003,-0.002333999999999996,0.0770425,0.0017514999999999961,0.0023340000000000027,-0.1102685,-0.32208149999999997,-0.141764,0.1284215,-0.3134515,-0.117183,-0.1008885,-0.6477015,-0.051928999999999996,0.0953285,-0.6397415000000001,-0.037214
113,-0.011640500000000003,0.684763,-0.0015725000000000044,-0.16166350000000002,0.502353,-0.029916500000000006,-0.2744035,0.715593,-0.10977450000000001,0.1540165,0.49330300000000005,-0.017319500000000005,0.2829965,0.687563,-0.0707445,-0.3357435,0.9515330000000001,-0.1349325,0.31286650000000005,0.8837130000000001,-0.09839250000000001,-0.0772245,-0.0018079999999999902,-0.002202500000000003,0.0772245,0.001808000000000004,0.002202499999999996,-0.1107635,-0.31470699999999996,-0.1491825,0.1297965,-0.30673700000000004,-0.12414850000000001,-0.10097350000000001,-0.635277,-0.057217500000000004,0.0950555,-0.6284369999999999,-0.0415915
114,-0.011675499999999998,0.682483,-0.004536499999999999,-0.16205550000000002,0.501693,-0.0322155,-0.27428549999999996,0.715533,-0.1135915,0.15332449999999997,0.49172299999999997,-0.020065500000000003,0.28260450000000004,0.686083,-0.0755985,-0.33446549999999997,0.9518930000000001,-0.1388585,0.3119345,0.8835729999999999,-0.1039725,-0.0773625,-0.0017660000000000037,-0.0021375000000000005,0.0773625,0.0017659999999999898,0.0021375000000000005,-0.1113455,-0.307707,-0.15661750000000002,0.13107449999999998,-0.299777,-0.1310215,-0.1010255,-0.6225670000000001,-0.0618185,0.0946795,-0.6164970000000001,-0.045867500000000005
115,-0.011707499999999996,0.6788595000000001,-0.0073650000000000035,-0.16220749999999998,0.5018395,-0.034564,-0.27412749999999997,0.7124795,-0.116652,0.1525725,0.49064949999999996,-0.022770000000000002,0.2822025,0.6837795,-0.080248,-0.3332575,0.9492595,-0.142625,0.3115425,0.8798095,-0.110095,-0.07754749999999999,-0.001630499999999993,-0.002048000000000001,0.07754749999999999,0.001630500000000007,0.002048000000000001,-0.1116875,-0.29772049999999994,-0.163551,0.1324925,-0.2901405,-0.13766,-0.10079749999999998,-0.6107205,-0.066029,0.0943705,-0.6049905,-0.049693
116,-0.011916500000000003,0.67635,-0.010089500000000001,-0.16243249999999998,0.49876,-0.036902500000000005,-0.2740225,0.7102599999999999,-0.1197985,0.1518675,0.48863,-0.025461499999999998,0.2817475,0.68221,-0.0845225,-0.3323625,0.9427000000000001,-0.1478695,0.3113775,0.8782399999999999,-0.1157335,-0.0776945,-0.0016200000000000103,-0.0019305000000000017,0.0776945,0.0016199999999999964,0.0019305000000000017,-0.1119825,-0.28647,-0.1701835,0.1337275,-0.27903,-0.1441855,-0.10057250000000001,-0.5982799999999999,-0.0699405,0.09405949999999999,-0.5928,-0.0533465
117,-0.0118835,0.675405,-0.017674499999999996,-0.1623115,0.49850500000000003,-0.04405049999999999,-0.2736015,0.709455,-0.12799349999999998,0.1515485,0.487865,-0.0332935,0.2816185,0.682075,-0.09353249999999999,-0.3315615,0.939605,-0.1581245,0.3113585,0.8788849999999999,-0.1260045,-0.0778325,-0.0015349999999999808,-0.0018804999999999933,0.0778325,0.0015350000000000086,0.0018805000000000072,-0.1119715,-0.273265,-0.1812805,0.1350585,-0.26570499999999997,-0.15530650000000001,-0.1000415,-0.5840749999999999,-0.0784585,0.0940965,-0.578255,-0.061712499999999997
118,-0.011692500000000002,0.67824,-0.026543999999999998,-0.1614375,0.49694000000000005,-0.052753999999999995,-0.2727975,0.7090799999999999,-0.137239,0.1509125,0.48665,-0.042106000000000005,0.2816525,0.68336,-0.10363,-0.3312375,0.9435199999999999,-0.168743,0.3114725,0.8814,-0.137598,-0.0778885,-0.0014500000000000068,-0.0019419999999999993,0.0778885,0.0014500000000000068,0.0019419999999999993,-0.11254750000000001,-0.25654,-0.19617600000000002,0.1380725,-0.24874,-0.171618,-0.0993275,-0.56671,-0.08777,0.0943095,-0.56043,-0.071109
119,-0.011466500000000001,0.6791,-0.035427999999999994,-0.1605155,0.49586,-0.061198999999999996,-0.2719455,0.70817,-0.14627,0.15017450000000002,0.48567,-0.050741999999999995,0.28175449999999996,0.68387,-0.113893,-0.33076550000000005,0.94587,-0.17924099999999998,0.3115445,0.88575,-0.149333,-0.0780225,-0.00136,-0.002014000000000002,0.0780225,0.00136,0.002014000000000002,-0.11309549999999999,-0.24012,-0.210324,0.1410245,-0.23264,-0.18751400000000001,-0.09866549999999999,-0.55053,-0.096501,0.09454950000000001,-0.54385,-0.080242
120,-0.011184500000000002,0.679975,-0.044707,-0.1596175,0.49584500000000004,-0.069669,-0.2712075,0.7077549999999999,-0.155188,0.14942249999999999,0.485175,-0.059484999999999996,0.2818525,0.6846749999999999,-0.12412100000000001,-0.3303375,0.947565,-0.189725,0.3115925,0.889745,-0.16128,-0.07817450000000001,-0.001224999999999976,-0.0021120000000000028,0.07817450000000001,0.0012250000000000039,0.0021120000000000028,-0.11364750000000001,-0.22364499999999998,-0.224505,0.1438325,-0.216505,-0.203375,-0.0980675,-0.5340849999999999,-0.105001,0.09474450000000001,-0.526945,-0.089363
121,-0.010955500000000002,0.680955,-0.054322,-0.1585945,0.494445,-0.07841100000000001,-0.2710045,0.707535,-0.164317,0.1487355,0.485085,-0.0684,0.2820055,0.685485,-0.134608,-0.3300245,0.947335,-0.200799,0.3115655,0.8935850000000001,-0.173543,-0.0783565,-0.0011649999999999994,-0.0022039999999999976,0.0783565,0.0011649999999999994,0.0022039999999999976,-0.1142245,-0.207065,-0.23861900000000003,0.1464455,-0.200235,-0.219179,-0.0976045,-0.517145,-0.113678,0.0948605,-0.5096750000000001,-0.098699
122,-0.01076,0.681915,-0.063724,-0.157817,0.493165,-0.087004,-0.27025699999999997,0.707055,-0.173233,0.148133,0.483975,-0.07686899999999999,0.282113,0.686005,-0.144683,-0.329667,0.944065,-0.21261,0.311763,0.895105,-0.185668,-0.07846800000000001,-0.0010350000000000081,-0.0024399999999999977,0.07846800000000001,0.0010350000000000081,0.0024399999999999977,-0.11476700000000001,-0.190685,-0.2526,0.148893,-0.18416500000000002,-0.23443999999999998,-0.09722800000000001,-0.500195,-0.122081,0.094945,-0.49255499999999997,-0.107653
123,-0.010573499999999996,0.6832,-0.073484,-0.1569265,0.49224,-0.09576,-0.26960649999999997,0.7057,-0.182358,0.1475235,0.48358,-0.085559,0.2821335,0.6872499999999999,-0.154971,-0.3292865,0.94173,-0.224595,0.3121035,0.89555,-0.198222,-0.0785795,-0.0010400000000000131,-0.0025550000000000017,0.0785795,0.0010399999999999854,0.0025550000000000017,-0.11534649999999999,-0.17443999999999998,-0.266245,0.1513035,-0.16852,-0.249655,-0.09680649999999999,-0.48322,-0.130744,0.0950845,-0.47535000000000005,-0.116654
124,-0.010360499999999996,0.6855249999999999,-0.08327500000000002,-0.1563175,0.490645,-0.10410400000000002,-0.26886750000000004,0.707505,-0.191689,0.1468825,0.483645,-0.09416400000000001,0.2819325,0.688655,-0.16537700000000002,-0.3286875,0.942285,-0.23668500000000003,0.3125425,0.8984650000000001,-0.21024400000000001,-0.07857249999999999,-0.0011049999999999671,-0.0027450000000000113,0.07857249999999999,0.0011050000000000226,0.0027449999999999974,-0.11584749999999999,-0.15757499999999997,-0.27981500000000004,0.1536325,-0.15185499999999996,-0.264465,-0.09644349999999999,-0.46599499999999994,-0.139078,0.0952885,-0.457755,-0.12562600000000002
125,-0.010102000000000005,0.6857150000000001,-0.09307099999999999,-0.155734,0.491155,-0.11270999999999999,-0.268004,0.707885,-0.201372,0.146346,0.481925,-0.103154,0.281756,0.688245,-0.175754,-0.328024,0.946785,-0.247635,0.31291599999999997,0.900365,-0.22249799999999997,-0.078598,-0.0009850000000000136,-0.0027749999999999997,0.078598,0.0009850000000000136,0.0027749999999999997,-0.11625400000000001,-0.140795,-0.29312499999999997,0.156036,-0.13481500000000002,-0.27924499999999997,-0.095984,-0.448935,-0.14737299999999998,0.09557299999999999,-0.44032499999999997,-0.13463499999999998
126,-0.009975000000000001,0.68395,-0.097799,-0.154928,0.48969999999999997,-0.11676700000000001,-0.267358,0.70777,-0.20584200000000002,0.145702,0.47897,-0.107044,0.281352,0.6847799999999999,-0.181291,-0.327598,0.94736,-0.25356,0.312862,0.8983,-0.229973,-0.078598,-0.0009000000000000119,-0.00274000000000002,0.078598,0.0008999999999999564,0.0027399999999999924,-0.116768,-0.12564000000000003,-0.30125,0.158042,-0.11997000000000002,-0.28878000000000004,-0.095699,-0.43420000000000003,-0.150739,0.095653,-0.4254800000000001,-0.138661
127,-0.009979999999999994,0.68073,-0.10144000000000002,-0.15476199999999998,0.48812999999999995,-0.11994300000000002,-0.266902,0.70663,-0.209511,0.145688,0.47798999999999997,-0.10975300000000002,0.28094800000000003,0.68255,-0.185836,-0.327442,0.94582,-0.25866500000000003,0.312438,0.8947299999999999,-0.23658800000000002,-0.078625,-0.0007500000000000284,-0.0027650000000000174,0.078625,0.0007499999999999729,0.0027649999999999897,-0.11673199999999999,-0.11127000000000004,-0.305515,0.158138,-0.10560000000000003,-0.29286500000000004,-0.095524,-0.42018,-0.153262,0.09559300000000001,-0.41174,-0.14190100000000003
128,-0.009764499999999999,0.67727,-0.10508099999999998,-0.1543845,0.48616000000000004,-0.12306399999999998,-0.26654449999999996,0.7016100000000001,-0.213219,0.1457755,0.47685,-0.11237199999999997,0.28068550000000003,0.67964,-0.19015799999999997,-0.32699449999999997,0.9398500000000001,-0.26455999999999996,0.31205550000000004,0.8912500000000001,-0.24281999999999998,-0.0786305,-0.0007599999999999829,-0.002679999999999988,0.0786305,0.0007599999999999829,0.0026800000000000157,-0.1165145,-0.09736,-0.30967,0.1583655,-0.09169,-0.29679,-0.0952195,-0.4066,-0.15567199999999998,0.0956135,-0.39855999999999997,-0.14504599999999998
129,-0.009648,0.675055,-0.10819400000000001,-0.153954,0.484365,-0.125919,-0.266194,0.699225,-0.216773,0.145546,0.476255,-0.11488500000000001,0.280476,0.6786449999999999,-0.194025,-0.326464,0.936825,-0.26997000000000004,0.311566,0.891525,-0.24836000000000003,-0.07860700000000001,-0.0009049999999999891,-0.0030799999999999994,0.07860700000000001,0.0009049999999999891,0.0030799999999999994,-0.116344,-0.081795,-0.31335999999999997,0.158536,-0.076125,-0.29963,-0.094949,-0.39134500000000005,-0.157756,0.095576,-0.38370499999999996,-0.147875
130,-0.009520499999999998,0.672925,-0.110896,-0.1539705,0.48350499999999996,-0.128243,-0.2661305,0.697855,-0.22024,0.1453995,0.475225,-0.117056,0.2804395,0.677475,-0.197554,-0.3262005,0.9353849999999999,-0.274775,0.3107295,0.8873850000000001,-0.253405,-0.0785775,-0.0010450000000000181,-0.0035650000000000126,0.0785775,0.0010450000000000181,0.0035650000000000126,-0.11620050000000001,-0.06922499999999998,-0.31649499999999997,0.1585395,-0.063695,-0.301885,-0.0947025,-0.37664499999999995,-0.159513,0.0954785,-0.369435,-0.150261
131,-0.009137,0.6703049999999999,-0.11314,-0.15389799999999998,0.48112499999999997,-0.129876,-0.265858,0.695375,-0.222992,0.145452,0.47483499999999995,-0.118678,0.280402,0.675535,-0.200612,-0.32545799999999997,0.935565,-0.27807499999999996,0.310102,0.8844449999999999,-0.257585,-0.078682,-0.0013450000000000406,-0.004175000000000012,0.078682,0.001344999999999985,0.004174999999999984,-0.115848,-0.05703500000000006,-0.31906500000000004,0.158702,-0.05156500000000003,-0.30339499999999997,-0.094243,-0.36253500000000005,-0.160866,0.095576,-0.3556950000000001,-0.152197
132,-0.008528000000000006,0.66979,-0.11447600000000001,-0.153382,0.48053,-0.130769,-0.265052,0.69594,-0.224994,0.145658,0.47380500000000003,-0.119562,0.280638,0.67529,-0.202796,-0.32446200000000003,0.9368500000000001,-0.28069500000000003,0.309708,0.88303,-0.26071500000000003,-0.07867199999999999,-0.0013400000000000079,-0.004875000000000018,0.07867199999999999,0.0013400000000000079,0.0048749999999999905,-0.11533200000000002,-0.042259999999999964,-0.321295,0.159028,-0.03667999999999999,-0.304245,-0.093553,-0.3459,-0.161519,0.09590099999999999,-0.33945000000000003,-0.153431
133,-0.007770000000000003,0.66811,-0.115488,-0.15282400000000002,0.47892500000000005,-0.13136699999999998,-0.264254,0.69503,-0.226577,0.146266,0.471955,-0.120096,0.280756,0.67488,-0.204583,-0.323244,0.9368500000000001,-0.28297,0.30982600000000005,0.88384,-0.26306,-0.078648,-0.0014799999999999813,-0.005459999999999993,0.078648,0.0014800000000000368,0.005459999999999993,-0.114814,-0.027619999999999978,-0.32319,0.159526,-0.021989999999999954,-0.30479999999999996,-0.092771,-0.32963999999999993,-0.162024,0.096401,-0.32365999999999995,-0.15434799999999999
134,-0.006912,0.667875,-0.11626699999999998,-0.152318,0.47884899999999997,-0.13181299999999999,-0.263478,0.694455,-0.227647,0.14734199999999997,0.4729,-0.12013999999999998,0.281462,0.675505,-0.206111,-0.321878,0.932925,-0.285045,0.310172,0.883515,-0.265165,-0.078575,-0.0015550000000000286,-0.005824999999999997,0.078575,0.001554999999999973,0.005825000000000025,-0.114408,-0.01291500000000001,-0.324625,0.160012,-0.0072450000000000014,-0.305085,-0.091912,-0.31369500000000006,-0.162289,0.097091,-0.308175,-0.15506799999999998
135,-0.006009999999999996,0.66769,-0.117012,-0.151737,0.477294,-0.13211,-0.262557,0.69279,-0.228687,0.148543,0.474497,-0.12016500000000001,0.282403,0.67759,-0.20749700000000001,-0.320497,0.9308000000000001,-0.28703,0.310863,0.88349,-0.26715,-0.07855000000000001,-0.0018900000000000028,-0.006170000000000009,0.07855000000000001,0.0018900000000000028,0.006170000000000009,-0.11401700000000001,0.0023299999999999987,-0.32575,0.160533,0.007850000000000024,-0.3054,-0.090953,-0.29741,-0.16251000000000002,0.097909,-0.29231,-0.155669
136,-0.005132500000000003,0.66673,-0.117122,-0.15130549999999998,0.477973,-0.13181199999999998,-0.2617955,0.69242,-0.229216,0.1496845,0.474004,-0.119837,0.2831845,0.6779299999999999,-0.20848,-0.3193255,0.92828,-0.288495,0.31168450000000003,0.8830899999999999,-0.268655,-0.0786395,-0.0016900000000000248,-0.006324999999999997,0.0786395,0.0016899999999999693,0.006324999999999997,-0.1138455,0.01637999999999995,-0.325875,0.1607245,0.02176,-0.304695,-0.0901395,-0.28243000000000007,-0.162263,0.0986355,-0.27761,-0.155604
137,-0.0043900000000000015,0.667545,-0.11705199999999999,-0.151085,0.47862400000000005,-0.13125299999999998,-0.261255,0.6959550000000001,-0.229576,0.150295,0.47392900000000004,-0.11941099999999999,0.28412499999999996,0.679295,-0.209089,-0.31864499999999996,0.931395,-0.289035,0.31227499999999997,0.882255,-0.269735,-0.078697,-0.0013849999999999696,-0.006704999999999989,0.078697,0.001385000000000025,0.0067050000000000165,-0.113965,0.03196500000000008,-0.325545,0.160655,0.03669500000000003,-0.303335,-0.089552,-0.2663049999999999,-0.161736,0.099136,-0.26175499999999996,-0.15523399999999998
138,-0.0036640000000000006,0.66688,-0.11654500000000002,-0.150831,0.478455,-0.13060700000000003,-0.260711,0.69648,-0.22957200000000003,0.15101900000000001,0.47283200000000003,-0.11852500000000002,0.284699,0.67847,-0.20949700000000002,-0.318031,0.9314100000000001,-0.28952,0.312869,0.8789899999999999,-0.27071,-0.078747,-0.0010499999999999954,-0.00718000000000002,0.078747,0.0010499999999999954,0.007179999999999992,-0.114111,0.04493999999999998,-0.32509,0.160729,0.048960000000000004,-0.30181,-0.088976,-0.25281000000000003,-0.16099900000000003,0.099634,-0.24838999999999994,-0.15474000000000002
139,-0.0028234999999999996,0.66682,-0.11575600000000001,-0.1502115,0.47900800000000004,-0.12976700000000002,-0.2600815,0.69728,-0.22936600000000001,0.1519885,0.472599,-0.11720300000000002,0.28547849999999997,0.67854,-0.209381,-0.3173515,0.9295500000000001,-0.28971,0.31367849999999997,0.88079,-0.27165,-0.07873250000000001,-0.00043999999999999595,-0.007980000000000015,0.07873250000000001,0.00043999999999999595,0.007979999999999987,-0.11415149999999999,0.05843000000000004,-0.32429,0.1609285,0.061870000000000036,-0.2995,-0.08837249999999999,-0.23891999999999997,-0.15987600000000002,0.10007750000000001,-0.23437999999999998,-0.15391000000000002
140,-0.002214500000000003,0.6669050000000001,-0.115087,-0.1497465,0.48027800000000004,-0.129104,-0.25960649999999996,0.6985750000000001,-0.22925600000000002,0.1528235,0.472937,-0.11596000000000001,0.28624350000000004,0.6797150000000001,-0.20913199999999998,-0.3169165,0.9252750000000001,-0.290675,0.3145135,0.882135,-0.272835,-0.0785035,0.00020500000000001073,-0.008674999999999988,0.0785035,-0.00020499999999995522,0.008674999999999988,-0.1144065,0.07167500000000004,-0.32342499999999996,0.1610035,0.07448500000000002,-0.297165,-0.0879325,-0.22523499999999996,-0.158919,0.1003695,-0.22057499999999997,-0.153136
141,-0.001761500000000001,0.664405,-0.11408800000000001,-0.1496425,0.479366,-0.127946,-0.2593925,0.697555,-0.228857,0.1533675,0.473211,-0.11450500000000001,0.2869675,0.678165,-0.20837300000000003,-0.3166125,0.918445,-0.29137500000000005,0.3153275,0.881495,-0.273635,-0.0784075,0.0005749999999999922,-0.008904999999999996,0.0784075,-0.0005749999999999922,0.008904999999999996,-0.11481250000000001,0.08113500000000001,-0.322345,0.1611475,0.083515,-0.294775,-0.0876315,-0.21528499999999995,-0.15771300000000002,0.1005325,-0.21042499999999997,-0.151732
142,-0.0013310000000000023,0.663925,-0.112586,-0.149459,0.480071,-0.126372,-0.259239,0.698295,-0.227912,0.15369100000000002,0.47361200000000003,-0.112512,0.287781,0.678135,-0.20692300000000002,-0.316309,0.9140250000000001,-0.291565,0.316631,0.882035,-0.273995,-0.078287,0.001554999999999973,-0.009005000000000013,0.078287,-0.001554999999999973,0.009004999999999985,-0.11517899999999999,0.09191500000000002,-0.32045500000000005,0.16124100000000002,0.093775,-0.29151499999999997,-0.087343,-0.20413499999999996,-0.15614,0.100686,-0.19898499999999997,-0.14935800000000002
143,-0.0009475000000000022,0.6632149999999999,-0.11099600000000001,-0.1493605,0.48048699999999994,-0.124892,-0.25905049999999996,0.698885,-0.227112,0.1539895,0.47420399999999996,-0.110568,0.2887595,0.676955,-0.205524,-0.31600049999999996,0.913095,-0.291495,0.3180695,0.8828449999999999,-0.274045,-0.0781375,0.002314999999999956,-0.009044999999999997,0.0781375,-0.002315000000000067,0.009044999999999997,-0.1154205,0.10138499999999995,-0.31832499999999997,0.1614195,0.10281499999999993,-0.288265,-0.0871725,-0.1942750000000001,-0.154645,0.10085949999999999,-0.18879500000000005,-0.14686300000000002
144,-0.0007725000000000024,0.6626050000000001,-0.10967400000000001,-0.1495505,0.48191400000000006,-0.123619,-0.2591505,0.700165,-0.22662,0.1544895,0.4740420000000001,-0.10866500000000001,0.2894795,0.6758050000000001,-0.204317,-0.31596050000000003,0.9110450000000001,-0.29164500000000004,0.3192995,0.884455,-0.274045,-0.0780615,0.003275000000000028,-0.008995000000000003,0.0780615,-0.003274999999999917,0.008995000000000003,-0.11592050000000001,0.10998500000000005,-0.315915,0.1613995,0.11119500000000004,-0.285195,-0.0873495,-0.18534499999999998,-0.15329700000000002,0.1007605,-0.17923499999999992,-0.144226
145,-0.0005969999999999986,0.661365,-0.10855899999999999,-0.149555,0.48169,-0.12244799999999999,-0.259085,0.697335,-0.226441,0.154755,0.474675,-0.10713999999999999,0.290305,0.674185,-0.203318,-0.315695,0.909135,-0.29188499999999995,0.320475,0.885085,-0.273985,-0.07795099999999999,0.0036450000000000093,-0.008874999999999994,0.07795099999999999,-0.0036450000000000093,0.008875000000000022,-0.11630499999999999,0.117095,-0.313365,0.161475,0.11800500000000003,-0.282385,-0.087594,-0.17786499999999994,-0.15215599999999999,0.10067600000000002,-0.17107499999999998,-0.14154899999999998
146,-0.0002924999999999976,0.660215,-0.10726399999999998,-0.1493985,0.4819779999999999,-0.12139499999999999,-0.2587885,0.695025,-0.22624299999999997,0.1550515,0.47469799999999995,-0.10570399999999999,0.2912215,0.6724549999999999,-0.202075,-0.3156485,0.905605,-0.29205,0.3216315,0.8869849999999999,-0.2737,-0.0778225,0.004124999999999934,-0.008789999999999992,0.0778225,-0.004125000000000045,0.00879000000000002,-0.11653849999999999,0.12343499999999996,-0.31071,0.1617015,0.12417499999999992,-0.27936,-0.0877785,-0.17122500000000007,-0.15098299999999998,0.1005475,-0.163505,-0.13860699999999998
147,-9.049999999999857e-05,0.659327,-0.10586400000000003,-0.1494835,0.481993,-0.12015700000000003,-0.25876350000000004,0.69345,-0.22613000000000003,0.15526649999999997,0.47573899999999997,-0.10454000000000002,0.2919465,0.6715,-0.20064000000000004,-0.3156135,0.90187,-0.29217000000000004,0.3225665,0.88869,-0.27308,-0.0776855,0.0045999999999999375,-0.008700000000000013,0.0776855,-0.0046000000000000485,0.008699999999999986,-0.1169535,0.12983,-0.30817000000000005,0.16182649999999998,0.13039999999999996,-0.27625,-0.0880305,-0.16462,-0.14957600000000001,0.10021050000000001,-0.15592000000000006,-0.13562400000000002
148,-2.5000000000004186e-05,0.658015,-0.10437399999999997,-0.149654,0.481936,-0.11895599999999998,-0.258764,0.69179,-0.22605599999999998,0.155386,0.47595699999999996,-0.10341099999999998,0.29254600000000003,0.66994,-0.19926899999999997,-0.31563399999999997,0.89928,-0.29228,0.323106,0.89001,-0.27221999999999996,-0.07766,0.00490999999999997,-0.008589999999999987,0.07766,-0.00490999999999997,0.008590000000000014,-0.11760399999999999,0.13504,-0.30582,0.162046,0.13543999999999995,-0.27344999999999997,-0.088364,-0.15918,-0.14818099999999998,0.099551,-0.14882000000000006,-0.13264299999999998
149,-9.750000000000557e-05,0.65746,-0.10292000000000001,-0.1499495,0.48250400000000004,-0.11770900000000002,-0.2588795,0.6908650000000001,-0.22588200000000003,0.1553805,0.47580900000000004,-0.10228500000000001,0.2929005,0.668887,-0.197666,-0.3156495,0.900385,-0.291805,0.3234605,0.891325,-0.271385,-0.0775845,0.005325000000000024,-0.00847500000000001,0.0775845,-0.005324999999999913,0.008474999999999983,-0.11841950000000001,0.14005500000000004,-0.303515,0.1622505,0.140245,-0.27059500000000003,-0.08881950000000001,-0.15400499999999995,-0.14674500000000001,0.0986615,-0.142015,-0.12966400000000003
150,-8.499999999998092e-06,0.657664,-0.101547,-0.15006550000000002,0.48285500000000003,-0.116542,-0.25868549999999996,0.6900350000000001,-0.225819,0.1554245,0.475465,-0.10125500000000001,0.29327450000000005,0.66846,-0.196001,-0.3154455,0.901575,-0.29161000000000004,0.32406450000000003,0.8903350000000001,-0.27066,-0.0773945,0.00576500000000002,-0.008360000000000006,0.0773945,-0.005764999999999909,0.008360000000000006,-0.11906550000000002,0.14522500000000005,-0.3012,0.1626345,0.14510500000000004,-0.26772,-0.0891355,-0.14878499999999995,-0.145149,0.09788849999999999,-0.1352549999999999,-0.126952
151,3.500000000000204e-05,0.656933,-0.10059599999999999,-0.15019700000000002,0.48240000000000005,-0.11586199999999999,-0.258707,0.6884300000000001,-0.226218,0.155333,0.47544000000000003,-0.100848,0.293433,0.6670290000000001,-0.194639,-0.315297,0.90147,-0.29193,0.324503,0.8879,-0.27026,-0.077414,0.005760000000000098,-0.008390000000000009,0.077414,-0.005759999999999987,0.008390000000000009,-0.119797,0.14884000000000003,-0.29935999999999996,0.16307300000000002,0.14839000000000002,-0.26566,-0.08935699999999999,-0.14498999999999995,-0.143988,0.097237,-0.13044,-0.125207
152,6.199999999999956e-05,0.656311,-0.09979400000000002,-0.150434,0.4819299999999999,-0.11516000000000001,-0.25875400000000004,0.6869799999999999,-0.22667900000000002,0.155176,0.4750899999999999,-0.10056400000000001,0.29359599999999997,0.66679,-0.193397,-0.315144,0.90157,-0.292345,0.32489599999999996,0.8856799999999999,-0.269755,-0.077414,0.005819999999999936,-0.008365000000000011,0.077414,-0.005820000000000047,0.008364999999999984,-0.120584,0.1522199999999999,-0.297565,0.163536,0.15137999999999996,-0.26366500000000004,-0.089454,-0.14155000000000006,-0.14295000000000002,0.096602,-0.12599000000000005,-0.12367200000000002
153,7.349999999999544e-05,0.656386,-0.09902999999999999,-0.1506945,0.4814,-0.114505,-0.2587745,0.685666,-0.226983,0.1550055,0.47483,-0.10022499999999998,0.2937055,0.667059,-0.192344,-0.3150145,0.90196,-0.29273,0.3252655,0.88394,-0.26924,-0.07743749999999999,0.005920000000000036,-0.008330000000000004,0.07743749999999999,-0.005920000000000036,0.008330000000000004,-0.1213845,0.1557,-0.29568,0.1639155,0.15449000000000002,-0.26161999999999996,-0.0894845,-0.13805,-0.14190599999999998,0.09610450000000001,-0.12180999999999997,-0.122455
154,7.850000000000218e-05,0.65606,-0.09839899999999999,-0.1508815,0.481465,-0.11397299999999999,-0.2587615,0.68763,-0.22713899999999998,0.1548485,0.474585,-0.099935,0.2937985,0.66697,-0.191527,-0.3148215,0.901965,-0.29313999999999996,0.3255985,0.881625,-0.26863000000000004,-0.0774435,0.006005000000000038,-0.008330000000000004,0.0774435,-0.006005000000000038,0.008330000000000004,-0.1223215,0.158225,-0.29410000000000003,0.16432850000000002,0.156825,-0.25999,-0.0895215,-0.135525,-0.14077599999999998,0.0957315,-0.11880500000000005,-0.12153299999999999
155,0.0001025000000000019,0.655759,-0.09788500000000003,-0.1509795,0.4813,-0.11347600000000002,-0.25874949999999997,0.689114,-0.227308,0.1547805,0.47458,-0.09958700000000004,0.29391049999999996,0.666873,-0.19090100000000004,-0.31449950000000004,0.90249,-0.29357,0.32582049999999996,0.88043,-0.26808000000000004,-0.0774505,0.006060000000000065,-0.008340000000000014,0.0774505,-0.006059999999999954,0.008339999999999986,-0.1232595,0.16028000000000003,-0.29276,0.1648005,0.1588,-0.25860000000000005,-0.0895295,-0.13337999999999994,-0.13974300000000003,0.0955505,-0.11641999999999997,-0.12092000000000003
156,0.00013699999999999823,0.655764,-0.09747499999999998,-0.150927,0.48194000000000004,-0.11322899999999998,-0.258687,0.6901120000000001,-0.227489,0.154833,0.47464000000000006,-0.099266,0.294003,0.666775,-0.190409,-0.314187,0.90364,-0.293985,0.326003,0.87958,-0.267545,-0.07744000000000001,0.006180000000000074,-0.008364999999999984,0.07744000000000001,-0.006179999999999963,0.008365000000000011,-0.12409699999999999,0.16181000000000006,-0.291725,0.165303,0.16033000000000003,-0.257405,-0.089497,-0.1316799999999999,-0.13904,0.09545799999999999,-0.1146799999999999,-0.12039399999999999
157,0.0001674999999999975,0.655732,-0.09715499999999999,-0.1508875,0.4817849999999999,-0.11307399999999998,-0.2586375,0.690294,-0.22759599999999997,0.15486250000000001,0.47509499999999993,-0.09902499999999999,0.29407249999999996,0.666526,-0.189967,-0.31377750000000004,0.9040949999999999,-0.294375,0.3261425,0.8784749999999999,-0.267015,-0.0774595,0.005994999999999973,-0.008394999999999986,0.0774595,-0.005995000000000084,0.008395000000000014,-0.1248075,0.16235499999999992,-0.29105499999999995,0.1658325,0.1607849999999999,-0.25654499999999997,-0.08938750000000001,-0.13103500000000012,-0.138396,0.09547749999999999,-0.11422500000000002,-0.11987599999999998
158,0.00015850000000000065,0.655732,-0.096997,-0.1508855,0.4817849999999999,-0.11310899999999999,-0.2586355,0.690294,-0.227651,0.1548445,0.47509499999999993,-0.09876599999999999,0.2941045,0.666526,-0.189958,-0.31338550000000004,0.9040949999999999,-0.29471,0.3262545,0.8784649999999999,-0.26646000000000003,-0.0774575,0.005994999999999973,-0.008429999999999993,0.0774575,-0.005995000000000084,0.00843000000000002,-0.12549549999999998,0.16254499999999994,-0.29089,0.1663345,0.1607849999999999,-0.25617999999999996,-0.0893855,-0.13082500000000008,-0.13779999999999998,0.0954565,-0.11422500000000002,-0.11953399999999999
159,0.00015400000000000136,0.655732,-0.09692400000000002,-0.150835,0.4817849999999999,-0.11312600000000003,-0.258635,0.690294,-0.22765600000000003,0.154845,0.47509499999999993,-0.09864600000000003,0.294175,0.666526,-0.18995900000000002,-0.312905,0.9040949999999999,-0.29486500000000004,0.326355,0.8784649999999999,-0.266115,-0.077458,0.005994999999999973,-0.008425000000000016,0.077458,-0.005995000000000084,0.008424999999999988,-0.126115,0.1628449999999999,-0.290925,0.166855,0.16082499999999994,-0.256155,-0.089415,-0.13061500000000004,-0.13743300000000003,0.095457,-0.11422500000000002,-0.11953900000000002
160,0.00018100000000000234,0.655732,-0.097073,-0.15073599999999998,0.4817849999999999,-0.11327000000000001,-0.25858600000000004,0.690294,-0.227804,0.155034,0.47549499999999995,-0.09870000000000001,0.294284,0.666526,-0.189898,-0.31231600000000004,0.9047749999999999,-0.295005,0.326464,0.8784649999999999,-0.26583500000000004,-0.07744899999999999,0.005994999999999973,-0.008575,0.07744899999999999,-0.005995000000000084,0.008575,-0.126746,0.1632849999999999,-0.291115,0.16742400000000002,0.1610049999999999,-0.256265,-0.089416,-0.13043500000000008,-0.137335,0.09554599999999999,-0.11477500000000007,-0.11968400000000001
161,0.00020850000000000035,0.655489,-0.097548,-0.15046949999999998,0.48144499999999996,-0.11382999999999999,-0.2584495,0.689411,-0.228273,0.1550105,0.47609499999999993,-0.09917899999999999,0.29437050000000003,0.666688,-0.19036999999999998,-0.3117495,0.905005,-0.295595,0.3265105,0.877385,-0.26585499999999995,-0.0774495,0.00572499999999998,-0.008874999999999994,0.0774495,-0.005725000000000091,0.008875000000000022,-0.1273595,0.16268499999999997,-0.291625,0.1681205,0.16018499999999997,-0.25670499999999996,-0.08946950000000001,-0.13136500000000007,-0.137589,0.0956565,-0.11641500000000005,-0.12015499999999998
162,0.0001320000000000019,0.655829,-0.09831500000000001,-0.14999,0.481215,-0.11486000000000002,-0.25827,0.688071,-0.229126,0.15481,0.476525,-0.09995300000000001,0.29441,0.667434,-0.19121100000000002,-0.31132,0.9047149999999999,-0.29672,0.3263,0.879095,-0.26602000000000003,-0.07733899999999999,0.005415000000000059,-0.009210000000000024,0.07733899999999999,-0.005414999999999948,0.009209999999999996,-0.12764,0.160565,-0.29252,0.16872,0.15802500000000003,-0.25758000000000003,-0.08973,-0.13363499999999995,-0.138219,0.096023,-0.11943499999999996,-0.12130400000000001
163,0.0002260000000000005,0.6581130000000001,-0.09917699999999999,-0.149399,0.48146000000000005,-0.11616099999999999,-0.257679,0.686604,-0.22968699999999997,0.154601,0.4766,-0.10076699999999998,0.294231,0.6690360000000001,-0.19181399999999998,-0.310399,0.9069100000000001,-0.29745999999999995,0.326131,0.88092,-0.26608,-0.077131,0.00501000000000007,-0.009539999999999993,0.077131,-0.005009999999999959,0.00954000000000002,-0.127769,0.15689000000000003,-0.2941,0.169371,0.15443000000000007,-0.25915,-0.089979,-0.13746999999999998,-0.139007,0.09662299999999999,-0.12403999999999993,-0.12273199999999998
164,0.0003249999999999989,0.659413,-0.100584,-0.148382,0.48166500000000007,-0.11794000000000002,-0.257052,0.6876850000000001,-0.23087200000000002,0.15479800000000002,0.47744500000000006,-0.10208400000000001,0.294358,0.6709280000000001,-0.193335,-0.309482,0.908755,-0.29903,0.326108,0.8842450000000001,-0.26648000000000005,-0.077184,0.004495000000000027,-0.009950000000000014,0.077184,-0.004494999999999916,0.009949999999999987,-0.127852,0.15048500000000004,-0.29649000000000003,0.170048,0.14813500000000007,-0.26128,-0.090192,-0.143775,-0.14017100000000002,0.097466,-0.131235,-0.12501900000000002
165,0.0003265000000000004,0.6615420000000001,-0.103186,-0.1474405,0.48042200000000007,-0.121098,-0.2562305,0.68715,-0.233219,0.1548295,0.47763100000000003,-0.104686,0.2943395,0.672517,-0.196003,-0.3087305,0.91093,-0.30191,0.32593950000000005,0.8867800000000001,-0.26791,-0.0771475,0.003630000000000022,-0.01050000000000001,0.0771475,-0.003629999999999911,0.01050000000000001,-0.1280705,0.14130000000000004,-0.30024,0.1705795,0.13921000000000006,-0.2649,-0.0905405,-0.15286,-0.14255,0.0981545,-0.14125999999999994,-0.12862400000000002
166,0.00034849999999999985,0.663915,-0.10591300000000001,-0.14638849999999998,0.479136,-0.12451899999999999,-0.25540850000000004,0.687405,-0.23583300000000001,0.15486149999999999,0.47779000000000005,-0.107659,0.2943915,0.674465,-0.198841,-0.3078785,0.914405,-0.30518999999999996,0.3259315,0.890325,-0.26932,-0.0771395,0.002855000000000052,-0.01064000000000001,0.0771395,-0.002854999999999941,0.01064000000000001,-0.1279885,0.131035,-0.30339,0.17112149999999998,0.12893500000000002,-0.26914,-0.0909485,-0.16334499999999996,-0.145205,0.0987965,-0.15252500000000002,-0.13267099999999998
167,0.0004869999999999961,0.66364,-0.10857599999999999,-0.145261,0.478219,-0.128045,-0.25434100000000004,0.68603,-0.238195,0.154879,0.477188,-0.110791,0.294369,0.67347,-0.20151999999999998,-0.30713100000000004,0.91642,-0.307845,0.325909,0.88957,-0.270885,-0.077129,0.0019700000000000273,-0.010804999999999981,0.077129,-0.0019700000000000273,0.010805000000000009,-0.127951,0.11412,-0.306145,0.171619,0.11207,-0.27407499999999996,-0.091431,-0.1805,-0.147915,0.09938,-0.17028999999999994,-0.136867
168,0.0008365000000000004,0.66538,-0.111533,-0.1441695,0.477201,-0.131925,-0.2532895,0.6859599999999999,-0.240884,0.1547505,0.47545799999999994,-0.11429299999999999,0.2944505,0.6741699999999999,-0.2045,-0.3059195,0.91788,-0.31086,0.3260005,0.8893,-0.27276,-0.0771575,0.0013299999999999423,-0.01035999999999998,0.0771575,-0.0013300000000000534,0.010360000000000008,-0.1274895,0.09645999999999999,-0.30912,0.1720505,0.09444999999999998,-0.27934000000000003,-0.0918895,-0.19854000000000005,-0.150942,0.0999295,-0.18883000000000005,-0.141448
169,0.0006984999999999995,0.66778,-0.113924,-0.1438005,0.477341,-0.135076,-0.2527305,0.68616,-0.24298799999999998,0.1539295,0.47386,-0.11721799999999999,0.29393949999999996,0.67534,-0.206902,-0.3054005,0.91814,-0.31320000000000003,0.32546949999999997,0.8901600000000001,-0.27413,-0.07729050000000001,0.0008000000000000229,-0.009679999999999994,0.07729050000000001,-0.0008000000000000229,0.009679999999999994,-0.1272405,0.07380000000000003,-0.31150999999999995,0.1716995,0.07280999999999999,-0.28383,-0.09303049999999999,-0.22146,-0.15334,0.0998375,-0.21216000000000002,-0.145643
170,0.00020650000000000703,0.67008,-0.11557700000000001,-0.14375949999999998,0.477981,-0.13709600000000002,-0.2524395,0.68557,-0.24434100000000003,0.1530605,0.472761,-0.11933400000000001,0.2931205,0.67473,-0.208632,-0.3051395,0.92006,-0.31484,0.3247505,0.8893500000000001,-0.27459,-0.0776115,0.00023000000000000798,-0.008890000000000009,0.0776115,-0.00023000000000000798,0.008889999999999981,-0.1270095,0.04909000000000002,-0.3133,0.1708805,0.04998999999999998,-0.28731,-0.09438949999999999,-0.24678,-0.15515900000000002,0.0994855,-0.23775000000000002,-0.149436
171,-0.0004049999999999974,0.6721900000000001,-0.11638399999999999,-0.144087,0.47857700000000003,-0.13828,-0.252377,0.68841,-0.24487699999999998,0.151993,0.47344400000000003,-0.12079999999999999,0.292193,0.67536,-0.20975499999999997,-0.304937,0.92491,-0.31571,0.323903,0.88947,-0.27426,-0.077818,-0.00029000000000001247,-0.008219999999999977,0.077818,0.00029000000000001247,0.008220000000000005,-0.126757,0.02401000000000003,-0.3143,0.169813,0.026980000000000004,-0.28933,-0.09583699999999999,-0.27315,-0.156409,0.098653,-0.26439,-0.152001
172,-0.001377499999999995,0.673085,-0.11638400000000002,-0.1443385,0.478223,-0.139023,-0.2528585,0.690385,-0.245009,0.1505715,0.47417,-0.121717,0.2909415,0.675655,-0.21013,-0.3055885,0.925135,-0.316145,0.3228415,0.890145,-0.273305,-0.0781385,-0.0008750000000000147,-0.007505000000000012,0.0781385,0.0008750000000000147,0.007504999999999984,-0.1265985,-0.001695000000000002,-0.314545,0.1685015,0.003354999999999997,-0.290145,-0.09745849999999999,-0.300705,-0.157234,0.0975095,-0.29232499999999995,-0.15393
173,-0.0022279999999999965,0.67555,-0.11541299999999999,-0.145451,0.477904,-0.139307,-0.25362100000000004,0.69004,-0.24420799999999998,0.149259,0.475069,-0.12201299999999998,0.289759,0.67645,-0.20939899999999997,-0.306331,0.92356,-0.315485,0.321639,0.89039,-0.270935,-0.078315,-0.0013400000000000079,-0.007304999999999978,0.078315,0.0013400000000000079,0.007305000000000006,-0.12626099999999998,-0.026480000000000004,-0.31376499999999996,0.166939,-0.019509999999999972,-0.290455,-0.098991,-0.32867999999999997,-0.157545,0.09628800000000001,-0.32070999999999994,-0.154994
174,-0.0028074999999999992,0.677895,-0.11363500000000001,-0.1460675,0.47948500000000005,-0.139027,-0.25419749999999997,0.691995,-0.242987,0.1484825,0.47597500000000004,-0.12205100000000002,0.2886925,0.677565,-0.20811400000000002,-0.30674749999999995,0.926315,-0.31270000000000003,0.3207325,0.891425,-0.26770000000000005,-0.0783855,-0.0013749999999999596,-0.007310000000000011,0.0783855,0.001375000000000015,0.007309999999999983,-0.1259175,-0.050104999999999955,-0.3124,0.1657225,-0.04155499999999995,-0.29052,-0.1002375,-0.35623499999999997,-0.15771400000000002,0.0954075,-0.348905,-0.155731
175,-0.0034970000000000027,0.680035,-0.11127000000000001,-0.146704,0.480935,-0.138695,-0.254644,0.692375,-0.241931,0.147626,0.47804500000000005,-0.121977,0.28759599999999996,0.679145,-0.206543,-0.30710400000000004,0.926925,-0.31009,0.31958600000000004,0.890555,-0.26422999999999996,-0.078318,-0.0015350000000000086,-0.007179999999999992,0.078318,0.0015350000000000086,0.007179999999999992,-0.125894,-0.07453499999999996,-0.3097,0.164266,-0.06448499999999996,-0.29042999999999997,-0.101524,-0.385535,-0.157685,0.09482399999999999,-0.378535,-0.157153
176,-0.004358,0.68423,-0.10792800000000002,-0.147222,0.48490999999999995,-0.13692400000000002,-0.255312,0.6967099999999999,-0.23972600000000002,0.146888,0.48083,-0.12110100000000001,0.286598,0.6825399999999999,-0.204133,-0.307392,0.9278,-0.306515,0.31842800000000004,0.8928,-0.25990500000000005,-0.078227,-0.0013299999999999979,-0.006565000000000015,0.078227,0.0013299999999999979,0.0065649999999999875,-0.125842,-0.09440000000000004,-0.305935,0.162678,-0.08301000000000003,-0.288735,-0.102762,-0.41075,-0.15718400000000002,0.094416,-0.40417,-0.15824600000000003
177,-0.005343,0.688235,-0.102973,-0.147692,0.48829500000000003,-0.133633,-0.25598200000000004,0.698585,-0.23566399999999998,0.146308,0.484475,-0.118783,0.285608,0.686185,-0.200289,-0.30862199999999995,0.927485,-0.30122499999999997,0.317218,0.896615,-0.253635,-0.077946,-0.001324999999999965,-0.005534999999999984,0.077946,0.0013250000000000206,0.005535000000000012,-0.126082,-0.11297499999999999,-0.300765,0.161368,-0.10141499999999998,-0.285885,-0.103962,-0.43559499999999995,-0.155948,0.09446,-0.429875,-0.158339
178,-0.0059774999999999984,0.69238,-0.096865,-0.1477035,0.49007,-0.12923500000000002,-0.2567035,0.69925,-0.23034300000000002,0.14622649999999998,0.48677000000000004,-0.11518000000000002,0.2851965,0.6888700000000001,-0.195645,-0.3093535,0.9265300000000001,-0.29517000000000004,0.3164965,0.89737,-0.24610800000000002,-0.0775885,-0.0012299999999999534,-0.0047800000000000065,0.0775885,0.0012300000000000089,0.004779999999999979,-0.1259635,-0.12805,-0.29459,0.16030650000000002,-0.11732999999999999,-0.28139000000000003,-0.10466349999999999,-0.45704999999999996,-0.153871,0.0949905,-0.45233,-0.157151
179,-0.006738499999999997,0.696555,-0.09028800000000001,-0.1479555,0.49240500000000004,-0.124475,-0.2572755,0.704785,-0.223953,0.1454245,0.491995,-0.111664,0.28474449999999996,0.6938150000000001,-0.190473,-0.31034550000000005,0.9244350000000001,-0.288015,0.31555449999999996,0.8993550000000001,-0.238152,-0.0775425,-0.0011249999999999871,-0.003945000000000004,0.0775425,0.0011250000000000149,0.003945000000000004,-0.1260055,-0.141065,-0.288285,0.1585945,-0.13242499999999996,-0.274925,-0.1056255,-0.4760849999999999,-0.15179,0.0953105,-0.47310499999999994,-0.155852
180,-0.007285,0.70129,-0.08332900000000001,-0.148233,0.49499000000000004,-0.11922600000000001,-0.258013,0.70657,-0.217039,0.144847,0.49515,-0.107577,0.284057,0.69713,-0.184579,-0.311153,0.92637,-0.280075,0.315127,0.90239,-0.229645,-0.077527,-0.0011099999999999999,-0.0036349999999999993,0.077527,0.0011099999999999999,0.0036349999999999993,-0.125783,-0.15328,-0.281275,0.157107,-0.1468,-0.267475,-0.106453,-0.49402,-0.14949500000000002,0.096129,-0.49265000000000003,-0.154014
181,-0.007486499999999997,0.705525,-0.07670699999999998,-0.14852549999999998,0.497885,-0.11424899999999998,-0.2583455,0.710465,-0.21031499999999997,0.14501450000000002,0.49978500000000003,-0.10342199999999999,0.2842345,0.7011649999999999,-0.17890599999999998,-0.31177550000000004,0.928215,-0.272485,0.31505449999999996,0.905745,-0.221076,-0.07753750000000001,-0.0008849999999999969,-0.003454999999999986,0.07753750000000001,0.0008849999999999969,0.0034550000000000136,-0.1251255,-0.16453500000000001,-0.27412499999999995,0.15550450000000002,-0.160185,-0.259715,-0.1070255,-0.510895,-0.148193,0.0972345,-0.5108050000000001,-0.15213799999999997
182,-0.0074619999999999955,0.70977,-0.06984800000000001,-0.148566,0.5004200000000001,-0.109016,-0.258436,0.7133,-0.203774,0.145514,0.50204,-0.098881,0.284624,0.70362,-0.172791,-0.312876,0.93508,-0.263565,0.315324,0.90799,-0.21268900000000002,-0.077271,-0.0008199999999999874,-0.0033350000000000046,0.077271,0.0008200000000000152,0.0033350000000000046,-0.12407599999999999,-0.17641,-0.265745,0.153704,-0.17375999999999997,-0.250705,-0.10736599999999999,-0.5272,-0.145867,0.09859400000000001,-0.52838,-0.150067
183,-0.007289499999999996,0.7140150000000001,-0.063356,-0.1486265,0.503825,-0.10393999999999999,-0.25841650000000005,0.716575,-0.197428,0.14612350000000002,0.504065,-0.09439499999999999,0.2851435,0.706395,-0.167051,-0.31354649999999995,0.938245,-0.256335,0.31581349999999997,0.911255,-0.20494199999999999,-0.0768885,-0.0006249999999999867,-0.003055000000000002,0.0768885,0.0006250000000000144,0.003055000000000002,-0.12279649999999999,-0.18717499999999998,-0.257245,0.1517135,-0.186375,-0.24173499999999998,-0.1076565,-0.541915,-0.14332,0.1002035,-0.5442549999999999,-0.148168
184,-0.0066915,0.71864,-0.056963,-0.14841949999999998,0.50812,-0.098776,-0.2579295,0.7198200000000001,-0.19080999999999998,0.1480205,0.50972,-0.089309,0.2860305,0.7093100000000001,-0.161401,-0.3136995,0.9412800000000001,-0.249025,0.3166605,0.91384,-0.19725700000000002,-0.07632749999999999,-0.0004099999999999937,-0.003004999999999994,0.07632749999999999,0.00041000000000002146,0.0030050000000000077,-0.1208495,-0.19774999999999998,-0.247925,0.1496105,-0.19828999999999997,-0.23139500000000002,-0.10753950000000001,-0.55549,-0.139879,0.1018705,-0.5589500000000001,-0.145177
185,-0.005773000000000002,0.72409,-0.05113000000000001,-0.148035,0.51147,-0.094818,-0.257135,0.7214900000000001,-0.184832,0.150025,0.51414,-0.084951,0.28700499999999995,0.71309,-0.156494,-0.313645,0.9445,-0.24224,0.31775499999999995,0.91673,-0.190447,-0.075798,-0.0002999999999999947,-0.002829999999999999,0.075798,0.0003000000000000086,0.002829999999999999,-0.11832500000000001,-0.20726999999999998,-0.23803000000000002,0.14799500000000002,-0.20830999999999997,-0.222079,-0.10714499999999999,-0.56821,-0.1364,0.104525,-0.5714199999999999,-0.141911
186,-0.004322499999999998,0.728034,-0.045601,-0.1468525,0.514844,-0.091016,-0.25599249999999996,0.724224,-0.179045,0.1517375,0.517694,-0.081119,0.2883275,0.715214,-0.151754,-0.31256249999999997,0.948614,-0.23550500000000002,0.31916750000000005,0.920024,-0.18448900000000001,-0.0752835,-0.0002420000000000061,-0.002585000000000004,0.0752835,0.00024199999999999222,0.002585000000000004,-0.11523249999999999,-0.217706,-0.227035,0.1468075,-0.218206,-0.212039,-0.1059525,-0.580886,-0.132599,0.1072475,-0.583406,-0.138018
187,-0.0032015000000000017,0.7334040000000001,-0.0411,-0.1466575,0.520664,-0.087972,-0.2553175,0.729714,-0.17597200000000002,0.1537425,0.521524,-0.07796700000000001,0.2891225,0.718264,-0.147965,-0.31197749999999996,0.954584,-0.230155,0.31996250000000004,0.925204,-0.17960900000000002,-0.0749305,-0.00013799999999999923,-0.002475000000000005,0.0749305,0.00013799999999999923,0.002475000000000005,-0.1125475,-0.23165599999999997,-0.216395,0.14532250000000002,-0.231076,-0.202652,-0.1051575,-0.5944659999999999,-0.129519,0.1080425,-0.596096,-0.134938
188,-0.0021900000000000005,0.738775,-0.037365999999999996,-0.14601799999999998,0.525045,-0.085092,-0.254588,0.7320249999999999,-0.173087,0.155562,0.522365,-0.075235,0.289952,0.7204349999999999,-0.144649,-0.311348,0.960625,-0.22549000000000002,0.320622,0.9308949999999999,-0.175568,-0.074511,-1.000000000001e-06,-0.0024399999999999977,0.074511,1.000000000001e-06,0.0024399999999999977,-0.109878,-0.245195,-0.204642,0.143732,-0.24306499999999998,-0.19339800000000001,-0.10442799999999999,-0.6080650000000001,-0.126634,0.10877200000000001,-0.607715,-0.132053
189,-0.001439000000000004,0.743147,-0.030169,-0.145895,0.529787,-0.078933,-0.254245,0.732827,-0.166701,0.157335,0.5243869999999999,-0.069062,0.290375,0.7206670000000001,-0.138258,-0.311085,0.958097,-0.21783999999999998,0.32099500000000003,0.932077,-0.168448,-0.07402600000000001,0.00016999999999999654,-0.0020000000000000018,0.07402600000000001,-0.00017000000000000348,0.0020000000000000018,-0.10736500000000002,-0.260393,-0.188186,0.141415,-0.257263,-0.178655,-0.10405500000000001,-0.623283,-0.117994,0.109045,-0.621313,-0.123932
190,-0.0007795000000000011,0.7409555,-0.018655000000000005,-0.14607250000000002,0.5309755,-0.068206,-0.25473250000000003,0.7323755000000001,-0.155832,0.1592775,0.5224855,-0.058372,0.2906275,0.7147555,-0.127271,-0.3109325,0.9539255,-0.205653,0.3212475,0.9261155,-0.157461,-0.07371050000000001,0.0001904999999999997,-0.001455999999999999,0.07371050000000001,-0.0001904999999999997,0.001455999999999999,-0.10463249999999999,-0.28006450000000005,-0.165432,0.13562749999999998,-0.27712450000000005,-0.156339,-0.1038625,-0.6431445,-0.104252,0.10881750000000001,-0.6408545,-0.109078
191,-0.00018900000000000123,0.7390235,-0.008112500000000009,-0.146536,0.5325835,-0.05839950000000001,-0.255206,0.7326335,-0.1462485,0.161104,0.5223735,-0.04831150000000001,0.29049400000000003,0.7104635,-0.11712550000000001,-0.310776,0.9470235,-0.1954895,0.321364,0.9205035,-0.1472925,-0.073596,0.0003654999999999995,-0.0008945000000000064,0.073596,-0.0003655000000000004,0.0008944999999999925,-0.10217599999999999,-0.2964565,-0.1441035,0.13012400000000002,-0.29399650000000005,-0.1355335,-0.10366600000000001,-0.6600165,-0.09079050000000001,0.108404,-0.6576465,-0.0949735
192,0.000324499999999996,0.7371495,0.0019134999999999985,-0.1470125,0.5329095,-0.04883849999999999,-0.2555825,0.7321695,-0.1369075,0.16266750000000002,0.5232295,-0.038474499999999995,0.2903575,0.7067195,-0.1072375,-0.3107025,0.9391395,-0.1855575,0.3209475,0.9142695,-0.1373905,-0.0735295,0.00033249999999999946,-0.0003024999999999972,0.0735295,-0.0003325000000000012,0.0003024999999999972,-0.0998125,-0.3119305,-0.1223785,0.1243775,-0.30997050000000004,-0.1148865,-0.1033125,-0.6763205,-0.07666049999999999,0.1074875,-0.6735705,-0.0803975
193,0.0007534999999999977,0.7351205000000001,0.011355000000000004,-0.14765050000000002,0.5324305,-0.039873000000000006,-0.25605049999999996,0.7327105,-0.12867,0.16365949999999999,0.5192805,-0.029456000000000003,0.2899295,0.7023805000000001,-0.09822600000000001,-0.3108605,0.9323305000000001,-0.17616700000000002,0.32003950000000003,0.9116205000000001,-0.128044,-0.0734455,0.00037850000000000036,0.00028300000000000547,0.0734455,-0.00037850000000000036,-0.00028300000000000547,-0.0977915,-0.3260295,-0.101582,0.11853949999999999,-0.32376950000000004,-0.095277,-0.10308049999999999,-0.6906995,-0.062157000000000004,0.1062295,-0.6869595,-0.066355
194,0.0010849999999999976,0.7329454999999999,0.020867999999999998,-0.148098,0.5299855,-0.030747000000000003,-0.256558,0.7327855,-0.120029,0.163792,0.5167355,-0.020356,0.28936199999999995,0.6988955,-0.089519,-0.310668,0.9267255,-0.16686,0.318832,0.9083255,-0.118916,-0.073403,0.00026850000000000485,0.0008260000000000003,0.073403,-0.0002684999999999979,-0.0008260000000000003,-0.096053,-0.3395245,-0.08106000000000001,0.112432,-0.3374145,-0.07522100000000001,-0.102968,-0.7044645,-0.047963000000000006,0.10478199999999999,-0.6993845000000001,-0.051877
195,0.001331500000000002,0.7304955000000001,0.030191999999999997,-0.14844949999999998,0.5279655,-0.022015000000000003,-0.25676950000000004,0.7331755,-0.111559,0.1638805,0.5149555,-0.011530000000000006,0.2891805,0.6952155,-0.08105100000000001,-0.3102095,0.9218155,-0.157335,0.3176505,0.9019055,-0.110309,-0.0733715,0.0001964999999999953,0.0012429999999999941,0.0733715,-0.00019650000000000223,-0.001243000000000001,-0.09433849999999999,-0.35229449999999995,-0.06123700000000001,0.10635050000000001,-0.3500445,-0.055628000000000004,-0.1029195,-0.7173145,-0.034022000000000004,0.1031705,-0.7105745,-0.037217
196,0.0014519999999999997,0.726,0.039672000000000006,-0.148637,0.52451,-0.0131,-0.257017,0.73238,-0.103165,0.163823,0.51353,-0.0030820000000000014,0.288713,0.69132,-0.072461,-0.309817,0.91714,-0.147705,0.316303,0.89549,-0.10195299999999999,-0.073337,0.00010999999999999899,0.0016380000000000006,0.073337,-0.00011000000000000593,-0.0016380000000000006,-0.09288,-0.36523,-0.04203,0.100372,-0.36315000000000003,-0.036191,-0.102827,-0.73015,-0.020426,0.101593,-0.72201,-0.02284
