sb224sc-HT22-VT27/4dt907/src/data/kinect_good_preprocessed_A9_mediapipe/B4_kinect_mirrored.csv
FrameNo,nose_3d_x,nose_3d_y,nose_3d_z,left_shoulder_3d_x,left_shoulder_3d_y,left_shoulder_3d_z,left_elbow_3d_x,left_elbow_3d_y,left_elbow_3d_z,right_shoulder_3d_x,right_shoulder_3d_y,right_shoulder_3d_z,right_elbow_3d_x,right_elbow_3d_y,right_elbow_3d_z,left_wrist_3d_x,left_wrist_3d_y,left_wrist_3d_z,right_wrist_3d_x,right_wrist_3d_y,right_wrist_3d_z,left_hip_3d_x,left_hip_3d_y,left_hip_3d_z,right_hip_3d_x,right_hip_3d_y,right_hip_3d_z,left_knee_3d_x,left_knee_3d_y,left_knee_3d_z,right_knee_3d_x,right_knee_3d_y,right_knee_3d_z,left_ankle_3d_x,left_ankle_3d_y,left_ankle_3d_z,right_ankle_3d_x,right_ankle_3d_y,right_ankle_3d_z
0,1.033353,0.7304935,0.0420165,0.841992,0.4710335,0.0050655,0.6380720000000001,0.5147135,-0.0215425,1.206922,0.5198735,0.0264275,1.3439320000000001,0.6108935,0.0573425,0.799152,0.6690335000000001,-0.0256904999999999,1.190522,0.7037335,0.0510865,0.925794,-0.0003655,-0.0049104999999999,1.074206,0.0003654999999999,0.0049105,0.921278,-0.3376165,0.1318175,1.080714,-0.3663865,-0.1602225,0.97356,-0.6633165,0.2755375,1.102197,-0.6703965,-0.3157225
1,1.033512,0.7306145000000001,0.0416965,0.842028,0.4711945,0.0049525,0.638058,0.5152045,-0.0218424999999999,1.2070779999999999,0.5199145000000001,0.0263005,1.3444379999999998,0.6109145,0.0571765,0.797388,0.6666945,-0.0266104999999999,1.1914179999999999,0.7039645,0.0565595,0.925845,-0.0003084999999999,-0.0046924999999999,1.074155,0.0003085,0.0046925,0.921226,-0.3374455,0.1316975,1.080656,-0.3663655,-0.1602985,0.973496,-0.6631555,0.2753514999999999,1.102239,-0.6707355,-0.3160885
2,1.0336985,0.7304204999999999,0.0412225,0.8420555000000001,0.4711005,0.0047624999999999,0.6379555,0.5155004999999999,-0.0224305,1.2071355,0.5197505,0.0261125,1.3448455,0.6106005,0.0569515,0.7957955,0.6650604999999999,-0.0275564999999999,1.1901755,0.7010105,0.0567045,0.9258335,-0.0003735,-0.0048214999999999,1.0741665,0.0003735,0.0048214999999999,0.9213425,-0.3375395,0.1316815,1.0806155,-0.3664595,-0.1604685,0.9735245,-0.6634695,0.2752215,1.1016635,-0.6688395,-0.3149285
3,1.033684,0.730211,0.0408925,0.842048,0.471071,0.0046304999999999,0.6379079999999999,0.5155310000000001,-0.0227435,1.207228,0.519621,0.0259214999999999,1.3454380000000001,0.610221,0.0566794999999999,0.797108,0.6667810000000001,-0.0279154999999999,1.189668,0.6982510000000001,0.0608365,0.925853,-0.000433,-0.0048385,1.074147,0.000433,0.0048384999999999,0.921302,-0.337419,0.1314985,1.080607,-0.366609,-0.1604935,0.973507,-0.6635489999999999,0.2750965,1.101969,-0.6696089999999999,-0.3156035
4,1.033728,0.730065,0.040441,0.8421390000000001,0.471015,0.004338,0.637819,0.515515,-0.0230469999999999,1.207389,0.5195449999999999,0.025736,1.345549,0.6100949999999999,0.056343,0.7953490000000001,0.6646449999999999,-0.0293169999999999,1.189679,0.6977749999999999,0.061509,0.925831,-0.000475,-0.0050619999999999,1.074169,0.0004749999999999,0.005062,0.921223,-0.337785,0.131663,1.080649,-0.366805,-0.160588,0.973531,-0.6635350000000001,0.274872,1.101729,-0.668305,-0.314828
5,1.033641,0.7298720000000001,0.040189,0.842091,0.470732,0.004227,0.6377110000000001,0.515252,-0.0231839999999999,1.207341,0.519232,0.025584,1.345461,0.609832,0.056166,0.797741,0.667042,-0.0292589999999999,1.191541,0.701652,0.053675,0.925805,-0.000517,-0.0052559999999999,1.074195,0.0005169999999999,0.005256,0.921068,-0.338048,0.131565,1.080542,-0.367048,-0.160571,0.973625,-0.664098,0.274949,1.101362,-0.667478,-0.3144909999999999
6,1.03396,0.7300225,0.040243,0.842193,0.4708825,0.0042069999999999,0.637723,0.5153925,-0.023195,1.207423,0.5193025,0.0255429999999999,1.345573,0.6099225,0.05602,0.794863,0.6631425000000001,-0.030476,1.191383,0.7014725,0.051424,0.925804,-0.0004375,-0.005126,1.074196,0.0004374999999999,0.0051259999999999,0.921061,-0.3376775,0.131604,1.080595,-0.3669475,-0.160362,0.973679,-0.6639275,0.274958,1.101775,-0.6688974999999999,-0.3154519999999999
7,1.0337325,0.730207,0.0403025,0.8422594999999999,0.470947,0.0044275,0.6375795,0.515197,-0.0229694999999999,1.2075395,0.519397,0.0255935,1.3452894999999998,0.610297,0.0555465,0.7956894999999999,0.664917,-0.0291025,1.1902595,0.701607,0.0497675,0.9258675000000001,-0.000495,-0.0048684999999999,1.0741325,0.000495,0.0048685,0.9210245,-0.337313,0.1315184999999999,1.0807645,-0.3667229999999999,-0.1601904999999999,0.9737055,-0.663793,0.2751795,1.1019675,-0.670053,-0.3160505
8,1.03375,0.7301755,0.040145,0.8423220000000001,0.4709255,0.004397,0.6374620000000001,0.5151555,-0.022993,1.207622,0.5193555,0.02552,1.345232,0.6102555,0.055151,0.7954320000000001,0.6645055,-0.029315,1.189902,0.7009155,0.049292,0.925871,-0.0005075,-0.0048699999999999,1.0741290000000001,0.0005074999999999,0.00487,0.920938,-0.3371645,0.131506,1.080818,-0.3667845,-0.160121,0.9737800000000001,-0.6638445,0.275189,1.102,-0.6701445,-0.316101
9,1.0337865,0.730151,0.0399884999999999,0.8423905,0.470921,0.0043395,0.6372605,0.5150809999999999,-0.0230915,1.2076705,0.5193209999999999,0.0254194999999999,1.3451705,0.6102209999999999,0.0546885,0.7952905,0.6641309999999999,-0.0296255,1.1898905,0.700881,0.0479695,0.9258635,-0.000515,-0.0048675,1.0741365,0.0005149999999999,0.0048675,0.9208265,-0.336959,0.1314735,1.0808725,-0.366829,-0.1600855,0.9738455,-0.663879,0.2751945,1.1020675,-0.6701990000000001,-0.3161555
10,1.0337839999999998,0.730167,0.039791,0.84245,0.470907,0.004289,0.63704,0.514947,-0.0232,1.20776,0.519277,0.025326,1.34512,0.610197,0.054199,0.79522,0.6639970000000001,-0.0299699999999999,1.19027,0.701347,0.046722,0.92586,-0.000529,-0.004843,1.07414,0.000529,0.004843,0.920715,-0.3367529999999999,0.131405,1.080938,-0.3668929999999999,-0.160038,0.973912,-0.663913,0.275202,1.102155,-0.670473,-0.316338
11,1.033798,0.7301785000000001,0.0396475,0.8425170000000001,0.4708785,0.0042655,0.636807,0.5147885000000001,-0.0233224999999999,1.207867,0.5192185,0.0252595,1.345027,0.6101985000000001,0.0537415,0.795157,0.6637985000000001,-0.0302774999999999,1.191267,0.7025085000000001,0.0458655,0.9258530000000001,-0.0005445,-0.0048155,1.074147,0.0005445,0.0048155,0.920601,-0.3365115,0.1313525,1.08102,-0.3669615,-0.1599765,0.974002,-0.6639415,0.2752435,1.102248,-0.6706915,-0.3164665
12,1.0337085,0.7301885,0.0394435,0.8425914999999999,0.4708485,0.0042755,0.6365715000000001,0.5145985000000001,-0.0234424999999999,1.2080115,0.5191585000000001,0.0252095,1.3449415,0.6102285000000001,0.0533325,0.7951115,0.6635785000000001,-0.0305164999999999,1.1913015,0.7024085,0.0454875,0.9258525,-0.0005575,-0.0047605,1.0741475,0.0005575,0.0047605,0.9204835000000001,-0.3362815,0.1312955,1.0811185,-0.3670315,-0.1599025,0.9740665,-0.6639615,0.2753375,1.1024144999999999,-0.6709815,-0.3165925
13,1.0335995,0.7302230000000001,0.0392265,0.8426615,0.470833,0.0042854999999999,0.6363615,0.5144230000000001,-0.0235895,1.2081515,0.519113,0.0251644999999999,1.3448715,0.610263,0.0529495,0.7950315,0.6633030000000001,-0.0307245,1.1912415,0.7022830000000001,0.0454604999999999,0.9258554999999999,-0.000568,-0.0047065,1.0741445,0.0005679999999999,0.0047064999999999,0.9203935,-0.336077,0.1312625,1.0812175,-0.367107,-0.1598145,0.9741155000000001,-0.663917,0.2754255,1.1026135,-0.671267,-0.3167045
14,1.033474,0.7302445000000001,0.0390169999999999,0.842713,0.4707945,0.0043069999999999,0.6361330000000001,0.5142245,-0.0237189999999999,1.208293,0.5190645,0.025145,1.3447930000000001,0.6102845,0.052655,0.794983,0.6632045,-0.030846,1.191263,0.7023845000000001,0.04543,0.925856,-0.0005825,-0.004656,1.074144,0.0005825,0.004656,0.920313,-0.3358954999999999,0.131246,1.081312,-0.3671855,-0.159721,0.974162,-0.6639155,0.275539,1.102816,-0.6715355,-0.316791
15,1.0333365,0.7302535,0.038814,0.8427325,0.4707635,0.004324,0.6358925,0.5140535,-0.02386,1.2084025,0.5190435,0.025132,1.3447025,0.6103535,0.052388,0.7950725000000001,0.6632735,-0.0308979999999999,1.1906925,0.7019135,0.045579,0.9258535,-0.0005884999999999,-0.004608,1.0741465,0.0005885,0.004608,0.9202475,-0.3357565,0.13123,1.0813945,-0.3672665,-0.159629,0.9741975,-0.6638865,0.275641,1.1029754999999999,-0.6717965,-0.316859
16,1.0331695,0.7302215,0.038615,0.8427205,0.4707415,0.004333,0.6356505,0.5138915000000001,-0.024006,1.2084705,0.5190215,0.025116,1.3446305,0.6104215000000001,0.052229,0.7950405,0.6631215,-0.0310529999999999,1.1910405,0.7026715,0.045253,0.9258355,-0.0005765,-0.0045989999999999,1.0741645,0.0005765,0.004599,0.9202255,-0.3357084999999999,0.131222,1.0814815,-0.3673285,-0.159569,0.9742325000000001,-0.6638585,0.275721,1.1030785,-0.6720585,-0.3169389999999999
17,1.032935,0.730182,0.0384425,0.842652,0.4707119999999999,0.0043474999999999,0.635432,0.513792,-0.0241925,1.208472,0.519012,0.0250984999999999,1.344522,0.6104820000000001,0.0521294999999999,0.7951420000000001,0.663282,-0.0311455,1.191042,0.702632,0.0449404999999999,0.925812,-0.000556,-0.0046115,1.074188,0.0005559999999999,0.0046114999999999,0.920208,-0.335718,0.1312364999999999,1.081535,-0.367368,-0.1595245,0.974217,-0.663858,0.2757954999999999,1.103088,-0.672248,-0.3169845
18,1.0327305,0.7301565,0.038245,0.8425775,0.4706864999999999,0.004378,0.6353275,0.5136865,-0.0243029999999999,1.2084575,0.5190065,0.025112,1.3444075,0.6105565000000001,0.052087,0.7950875,0.6629765000000001,-0.0312249999999999,1.1908275,0.7027465,0.044861,0.9258125000000001,-0.0005304999999999,-0.0046109999999999,1.0741874999999999,0.0005304999999999,0.004611,0.9202095,-0.3357435,0.131242,1.0815475,-0.3673835,-0.159486,0.9742065,-0.6638835,0.275884,1.1030475,-0.6721735,-0.316846
19,1.032662,0.730135,0.038062,0.842561,0.470665,0.0044019999999999,0.635291,0.5135850000000001,-0.024407,1.208461,0.519005,0.0251179999999999,1.344361,0.6106550000000001,0.0520449999999999,0.795051,0.662755,-0.031332,1.191371,0.703715,0.044424,0.925817,-0.0005089999999999,-0.004597,1.074183,0.0005089999999999,0.0045969999999999,0.920219,-0.335765,0.13127,1.08154,-0.3673949999999999,-0.159513,0.9742210000000001,-0.663905,0.2759669999999999,1.103007,-0.672065,-0.316713
20,1.0326,0.7301209999999999,0.0378705,0.842566,0.470651,0.0044284999999999,0.635276,0.5134909999999999,-0.0244595,1.208456,0.519011,0.0251235,1.3443559999999999,0.610741,0.0520295,0.795016,0.662431,-0.0314355,1.1919259999999998,0.704421,0.0437645,0.925818,-0.000495,-0.0045935,1.074182,0.0004949999999999,0.0045934999999999,0.920228,-0.335779,0.1312975,1.081613,-0.367289,-0.1597555,0.974242,-0.663919,0.2760245,1.103032,-0.6720790000000001,-0.3166355
21,1.0325295,0.7301155,0.0377875,0.8425365,0.4706455,0.0044665,0.6351965000000002,0.5133955,-0.0245785,1.2084265,0.5190155000000001,0.0251595,1.3443265,0.6107455,0.0520725,0.7950165000000001,0.6621855,-0.0317665,1.1924765,0.7048955,0.0429635,0.9258005,-0.0004904999999999,-0.0045945,1.0741995,0.0004905,0.0045945,0.9202825,-0.3357645,0.1313345,1.0818175,-0.3669945,-0.1603895,0.9742275000000001,-0.6639345,0.2761205,1.1027915,-0.6714144999999999,-0.3159495
22,1.032273,0.730066,0.0375775,0.8423970000000001,0.470646,0.0046175,0.635027,0.513316,-0.0250525,1.208277,0.519036,0.0253365,1.3441670000000001,0.610766,0.0521815,0.794987,0.661986,-0.0324374999999999,1.192697,0.704416,0.0424225,0.925766,-0.00047,-0.0046114999999999,1.074234,0.0004699999999999,0.0046115,0.92033,-0.3356639999999999,0.1313785,1.082103,-0.366544,-0.1614315,0.974128,-0.663974,0.2763985,1.102396,-0.670554,-0.3150115
23,1.0319379999999998,0.729969,0.0371515,0.84212,0.470639,0.0049594999999999,0.63483,0.5132289999999999,-0.0257285,1.20798,0.519069,0.0257715,1.34402,0.610799,0.0522085,0.79468,0.661839,-0.0330875,1.19343,0.7045389999999999,0.0414945,0.925722,-0.000437,-0.0047135,1.074278,0.0004369999999999,0.0047135,0.920394,-0.335661,0.1313845,1.082464,-0.3658409999999999,-0.1628605,0.973894,-0.6639710000000001,0.2770095,1.1017649999999999,-0.6691710000000001,-0.3136604999999999
24,1.0316905,0.7298515,0.0364139999999999,0.8413865,0.4702415,0.0033549999999999,0.6345864999999999,0.5130615000000001,-0.026819,1.2075565,0.5191315000000001,0.0265999999999999,1.3439065000000001,0.6108615000000001,0.0520179999999999,0.7945465,0.6615515000000001,-0.033963,1.1927165,0.7034615000000001,0.041523,0.9257195,-0.0003994999999999,-0.004849,1.0742805,0.0003994999999999,0.0048489999999999,0.9204435000000001,-0.3355485,0.131496,1.0829925,-0.3644985,-0.1646,0.9735755000000001,-0.6638485,0.27804,1.1011705,-0.6673285,-0.31224
25,1.031406,0.7296965,0.035465,0.8406910000000001,0.4698965,0.001467,0.6343310000000001,0.5128365,-0.028286,1.206791,0.5191965,0.02763,1.343471,0.6108865,0.051654,0.793991,0.6611165,-0.035474,1.191261,0.7024965,0.040686,0.925759,-0.0003725,-0.0049919999999999,1.074241,0.0003725,0.004992,0.920327,-0.3352135,0.131621,1.0836459999999999,-0.3624835,-0.166723,0.9730600000000001,-0.6635035,0.279797,1.100557,-0.6653035,-0.310353
26,1.031117,0.7295535000000001,0.034707,0.839725,0.4695735,-0.000225,0.634115,0.5125135000000001,-0.029759,1.205545,0.5192435000000001,0.0288749999999999,1.342925,0.6108735000000001,0.051676,0.793515,0.6607435,-0.036503,1.1901950000000001,0.7021235,0.039841,0.925802,-0.0003585,-0.005025,1.074198,0.0003585,0.005025,0.92014,-0.3346165,0.132081,1.084218,-0.3596665,-0.168852,0.972259,-0.6629465,0.282478,1.099754,-0.6631265,-0.307392
27,1.03081,0.729254,0.0341345,0.838925,0.469184,-0.0021675,0.633985,0.512154,-0.0313825,1.204015,0.519234,0.0304065,1.342615,0.610344,0.0516815,0.7928649999999999,0.660504,-0.0376175,1.190485,0.702904,0.0396605,0.925846,-0.000385,-0.0055144999999999,1.074154,0.000385,0.0055144999999999,0.91989,-0.334016,0.1325345,1.084867,-0.356456,-0.1719575,0.971101,-0.661976,0.2858925,1.098657,-0.660696,-0.3032475
28,1.0302385,0.72899,0.033913,0.8378955000000001,0.46852,-0.004208,0.6335655,0.5118900000000001,-0.032974,1.2023855,0.51913,0.032363,1.3420855,0.6094200000000001,0.052133,0.7913455,0.65957,-0.03894,1.1905255,0.70301,0.0393759999999999,0.9258845,-0.0004469999999999,-0.005977,1.0741155,0.000447,0.0059769999999999,0.9194715,-0.33313,0.132803,1.0852665,-0.35279,-0.175155,0.9692925,-0.66027,0.290035,1.0969595,-0.65814,-0.2978449999999999
29,1.0295025,0.7284355,0.0337645,0.8365265,0.4679055,-0.0053884999999999,0.6326765,0.5111255,-0.0350784999999999,1.2004865,0.5192355,0.0352675,1.3412264999999999,0.6085555,0.0531135,0.7891565,0.6583855,-0.0400865,1.1900665,0.7029055,0.0395175,0.9259315,-0.0006305,-0.0066244999999999,1.0740685,0.0006305,0.0066244999999999,0.9189895,-0.3320045,0.1332885,1.0853865,-0.3487845,-0.1786605,0.9671315,-0.6581545,0.2950095,1.0947565,-0.6555945,-0.2916205
30,1.0284475,0.7276159999999999,0.0336799999999999,0.8349415,0.466796,-0.00722,0.6314915,0.5102059999999999,-0.03722,1.1983915,0.518786,0.0377239999999999,1.3398914999999998,0.607416,0.05441,0.7859915,0.6561159999999999,-0.04153,1.1892015,0.7023459999999999,0.040308,0.9260355,-0.000994,-0.0073399999999999,1.0739645,0.000994,0.0073399999999999,0.9185805,-0.330484,0.133745,1.0850315,-0.344064,-0.18159,0.9645635,-0.6553140000000001,0.3009,1.0921025,-0.653524,-0.28413
31,1.026897,0.7269075,0.0340869999999999,0.832835,0.4656475,-0.009021,0.6299250000000001,0.5094675,-0.038914,1.195915,0.5186275,0.0406159999999999,1.338435,0.6060575,0.0561809999999999,0.7815150000000001,0.6533975,-0.042874,1.186755,0.7006775,0.0417769999999999,0.926121,-0.0014215,-0.008095,1.073879,0.0014215,0.0080949999999999,0.918126,-0.3288625,0.1336449999999999,1.0842049999999999,-0.3382225,-0.184044,0.961295,-0.6512925,0.307466,1.089004,-0.6503625,-0.275924
32,1.0251405,0.7258819999999999,0.034659,0.8306305,0.464612,-0.0107199999999999,0.6291005000000001,0.509072,-0.0405929999999999,1.1932405,0.518362,0.043385,1.3367605,0.6045119999999999,0.05833,0.7765105,0.650492,-0.0442329999999999,1.1842205,0.698172,0.043825,0.9262545000000001,-0.001897,-0.0088329999999999,1.0737454999999998,0.0018969999999999,0.008833,0.9177145,-0.326998,0.132388,1.0836025,-0.332158,-0.186863,0.9577655,-0.646128,0.313847,1.0857945,-0.646138,-0.267393
33,1.0234904999999999,0.7250135,0.0358805,0.8285615,0.4636635,-0.0105104999999999,0.6279715,0.5087834999999999,-0.0418204999999999,1.1903315,0.5180634999999999,0.0459105,1.3348415,0.6030534999999999,0.0611745,0.7715215,0.6482034999999999,-0.0451504999999999,1.1821615,0.6966834999999999,0.0464665,0.9263245,-0.0025265,-0.0096804999999999,1.0736755,0.0025264999999999,0.0096805,0.9174125,-0.3241865,0.1296945,1.0829965,-0.3251765,-0.1898905,0.9537395,-0.6403565,0.3198095,1.0824915,-0.6405365000000001,-0.2588104999999999
34,1.0216955,0.7243295000000001,0.038025,0.8265575000000001,0.4621794999999999,-0.0101099999999999,0.6267575000000001,0.5079795,-0.0425899999999999,1.1874575,0.5177995,0.048639,1.3329975,0.6017895000000001,0.064647,0.7670775000000001,0.6465595000000001,-0.0441699999999999,1.1801375,0.6963795,0.049982,0.9263125,-0.0031694999999999,-0.0106199999999999,1.0736875,0.0031695,0.01062,0.9178195,-0.3199105,0.124958,1.0823515,-0.3171705,-0.1929199999999999,0.9491105,-0.6325905,0.32474,1.0790075,-0.6339705,-0.24984
35,1.0194965,0.7226545000000001,0.040364,0.8243625,0.4610745,-0.0089599999999999,0.6251325,0.5068245,-0.0429499999999999,1.1849625,0.5180945,0.05228,1.3318325,0.5987345000000001,0.068594,0.7626025000000001,0.6444945000000001,-0.04327,1.1785725,0.6937045000000001,0.053781,0.9263945,-0.0038054999999999,-0.01166,1.0736055,0.0038055,0.01166,0.9189435000000001,-0.3156155,0.117935,1.0822025,-0.3086455,-0.198,0.9448435,-0.6241654999999999,0.32941,1.0754945,-0.6271055,-0.2414199999999999
36,1.0170985,0.7212765,0.0437849999999999,0.8214985,0.4591265,-0.00715,0.6226285,0.5059465,-0.04234,1.1830985,0.5168465,0.056488,1.3296685,0.5966764999999999,0.0739219999999999,0.7594885,0.6434165,-0.04084,1.1759485,0.6915765,0.0584919999999999,0.9263945,-0.0044965,-0.01245,1.0736055,0.0044965,0.0124499999999999,0.9195305,-0.3137635,0.111816,1.0819285,-0.2981535,-0.2019,0.9398715,-0.6137935,0.33275,1.0713485,-0.6186235,-0.23251
37,1.0144734999999998,0.719907,0.04775,0.8185635,0.457707,-0.0046599999999999,0.6203335000000001,0.504637,-0.0410099999999999,1.1807234999999998,0.516277,0.0610239999999999,1.3271535,0.595577,0.079464,0.7587835,0.644427,-0.03811,1.1729435,0.6889069999999999,0.063522,0.9262965,-0.005157,-0.01386,1.0737035,0.005157,0.01386,0.9203615,-0.313183,0.102962,1.0819635,-0.286013,-0.20597,0.9345275,-0.602633,0.33418,1.0672435,-0.608653,-0.2235
38,1.0113375,0.718691,0.0520999999999999,0.8154645,0.455621,-0.003,0.6182345,0.503831,-0.0388199999999999,1.1783545,0.5151209999999999,0.064986,1.3242945,0.594661,0.085022,0.7584945,0.645461,-0.03482,1.1692545,0.686711,0.069353,0.9262455,-0.005582,-0.01508,1.0737545,0.005582,0.0150799999999999,0.9204525,-0.310699,0.09344,1.0821145,-0.273319,-0.2103,0.9271685000000001,-0.590279,0.33621,1.0631105,-0.597219,-0.2143499999999999
39,1.0080155,0.7173674999999999,0.0567749999999999,0.8122435,0.4538575,-0.000435,0.6161335,0.5026675,-0.036345,1.1758434999999998,0.5139675,0.0697749999999999,1.3218135,0.5907074999999999,0.0911999999999999,0.7561435000000001,0.6474774999999999,-0.029395,1.1656935,0.6833675,0.0755049999999999,0.9260865,-0.0059054999999999,-0.016305,1.0739135,0.0059055,0.0163049999999999,0.9203185,-0.3081024999999999,0.0829429999999999,1.0824935,-0.2606325,-0.215045,0.9188425,-0.5788525,0.336215,1.0588454999999999,-0.5844925,-0.205645
40,1.005068,0.7157405,0.0611199999999999,0.809582,0.4528304999999999,0.0023199999999999,0.614382,0.5008205,-0.03405,1.173592,0.5131405,0.0744199999999999,1.319212,0.5883605000000001,0.0974159999999999,0.756602,0.6492505,-0.02436,1.163902,0.6817905,0.0820799999999999,0.925938,-0.0061295,-0.01716,1.0740619999999999,0.0061294999999999,0.0171599999999999,0.9203020000000001,-0.3058595,0.0721999999999999,1.083432,-0.2486595,-0.22073,0.9106339999999999,-0.5671495,0.33518,1.054834,-0.5706295,-0.19717
41,1.0020425,0.71451,0.06602,0.8072245,0.45059,0.0046599999999999,0.6114945,0.49885,-0.03135,1.1712845,0.51177,0.07919,1.3168045,0.5876,0.1035359999999999,0.7576145,0.6510400000000001,-0.0189799999999999,1.1621245,0.6815300000000001,0.089,0.9256155000000001,-0.0062899999999999,-0.01821,1.0743844999999999,0.00629,0.01821,0.9199155,-0.3037999999999999,0.0622599999999999,1.0840345,-0.2367999999999999,-0.22645,0.9042405,-0.55474,0.3343899999999999,1.0504745,-0.55512,-0.18876
42,0.9986285,0.7122649999999999,0.070615,0.8048005,0.449025,0.007255,0.6090105,0.496035,-0.029015,1.1692105,0.510605,0.084115,1.3143704999999999,0.587185,0.109821,0.7559605,0.648335,-0.0151749999999999,1.1596505,0.680345,0.0950749999999999,0.9253495,-0.0063149999999999,-0.0193349999999999,1.0746505,0.0063149999999999,0.0193349999999999,0.9196525,-0.3029349999999999,0.052565,1.0845105,-0.2257849999999999,-0.232225,0.8994645,-0.5422250000000001,0.332615,1.0462505,-0.539015,-0.181175
43,0.9951265000000001,0.7097249999999999,0.0747849999999999,0.8021765000000001,0.4488749999999999,0.010275,0.6064665,0.4938349999999999,-0.026745,1.1674065,0.5102249999999999,0.089255,1.3115765,0.584415,0.1163449999999999,0.7553865000000001,0.6466350000000001,-0.012965,1.1565265,0.677955,0.101325,0.9251635,-0.006195,-0.020625,1.0748365,0.0061949999999999,0.020625,0.9189035,-0.303535,0.0446749999999999,1.0848265,-0.215835,-0.238235,0.8947245,-0.5273950000000001,0.331405,1.0422075,-0.522235,-0.174195
44,0.99249,0.709025,0.079065,0.8006610000000001,0.447515,0.011935,0.605021,0.493295,-0.024515,1.166361,0.508305,0.0933749999999999,1.308541,0.584955,0.1225149999999999,0.755151,0.6475150000000001,-0.011215,1.152941,0.6776449999999999,0.1075349999999999,0.924959,-0.005975,-0.0219349999999999,1.075041,0.0059749999999999,0.0219349999999999,0.917893,-0.304125,0.0391449999999999,1.085231,-0.204425,-0.243485,0.887591,-0.510805,0.321183,1.038814,-0.503535,-0.1668049999999999
45,0.9902645,0.7081599999999999,0.0822,0.8000925,0.44701,0.0131199999999999,0.6045925,0.4917499999999999,-0.02338,1.1647625,0.5082,0.09669,1.3063225,0.58548,0.1273399999999999,0.7538024999999999,0.6443300000000001,-0.01031,1.1503425,0.67762,0.1124699999999999,0.9248975,-0.00559,-0.0229199999999999,1.0751024999999998,0.0055899999999999,0.0229199999999999,0.9179815,-0.30254,0.03222,1.0855625,-0.19408,-0.24974,0.8818875,-0.49518,0.3116569999999999,1.0361025,-0.48544,-0.16019
46,0.9883315000000001,0.7075750000000001,0.084235,0.7998345,0.446375,0.0133349999999999,0.6039045000000001,0.491055,-0.0231049999999999,1.1634445,0.507765,0.098995,1.3041645,0.586425,0.131315,0.7526145000000001,0.641505,-0.010415,1.1482045,0.679025,0.116505,0.9250255000000001,-0.0053749999999999,-0.023465,1.0749745,0.005375,0.0234649999999999,0.9182505000000001,-0.300525,0.0277349999999999,1.0856145,-0.183435,-0.256445,0.8771315000000001,-0.4800149999999999,0.303504,1.0332645,-0.467295,-0.154725
47,0.9869875,0.70707,0.08559,0.8000754999999999,0.44638,0.0133299999999999,0.6036355,0.49045,-0.02333,1.1623755,0.50789,0.1006899999999999,1.3025155,0.58752,0.1344099999999999,0.7514055,0.63994,-0.01062,1.1463655,0.67988,0.1192299999999999,0.9251145000000001,-0.0051599999999999,-0.02389,1.0748855,0.0051599999999999,0.0238899999999999,0.9192335,-0.3003399999999999,0.0238299999999999,1.0858555,-0.17277,-0.26302,0.8718965,-0.46494,0.294409,1.0306855,-0.44936,-0.15041
48,0.986162,0.70662,0.0864649999999999,0.800686,0.44633,0.0130749999999999,0.603766,0.4898,-0.023745,1.161586,0.50944,0.1022149999999999,1.301316,0.59223,0.136675,0.749806,0.6384000000000001,-0.011645,1.145036,0.68194,0.1210549999999999,0.925334,-0.0049099999999999,-0.024175,1.074666,0.00491,0.0241749999999999,0.92036,-0.2996099999999999,0.0211449999999999,1.086416,-0.1622199999999999,-0.269685,0.869051,-0.4503199999999999,0.28485,1.028301,-0.4324399999999999,-0.145755
49,0.9855565000000001,0.70614,0.08748,0.8013375,0.44565,0.0126499999999999,0.6039875,0.48965,-0.0236799999999999,1.1610975,0.51023,0.1033,1.3001274999999999,0.5952500000000001,0.13857,0.7490175,0.6378699999999999,-0.01206,1.1429875,0.68312,0.12289,0.9255825,-0.0046599999999999,-0.0247299999999999,1.0744175,0.0046599999999999,0.02473,0.9212355,-0.298,0.0191399999999999,1.0869775,-0.15177,-0.27575,0.8682075,-0.43695,0.260727,1.0264055,-0.41604,-0.14216
50,0.985623,0.70572,0.088175,0.802067,0.44634,0.0126249999999999,0.6049370000000001,0.48971,-0.0235049999999999,1.1612369999999999,0.5105,0.103795,1.2991869999999999,0.5960300000000001,0.140075,0.748827,0.63756,-0.012405,1.141597,0.68448,0.1240349999999999,0.925773,-0.0043099999999999,-0.024955,1.074227,0.0043099999999999,0.024955,0.922673,-0.29627,0.0176449999999999,1.088017,-0.14204,-0.281325,0.868524,-0.4250899999999999,0.2355529999999999,1.025477,-0.40135,-0.139085
51,0.9862160000000001,0.7061299999999999,0.08912,0.8033140000000001,0.4468799999999999,0.01273,0.6060040000000001,0.4909,-0.0226399999999999,1.161654,0.51033,0.1043,1.298244,0.59625,0.14132,0.749984,0.64141,-0.01078,1.140094,0.68573,0.12612,0.9258860000000001,-0.0039899999999999,-0.0250299999999999,1.074114,0.0039899999999999,0.0250299999999999,0.924268,-0.2943,0.0175299999999999,1.089394,-0.13295,-0.28636,0.867316,-0.41494,0.210474,1.025004,-0.38795,-0.13621
52,0.9873490000000001,0.7067300000000001,0.0900649999999999,0.804822,0.4464599999999999,0.0126949999999999,0.607522,0.4922999999999999,-0.021525,1.162342,0.50907,0.1041049999999999,1.297942,0.5982799999999999,0.1419649999999999,0.751452,0.64331,-0.008965,1.139482,0.6850700000000001,0.1274949999999999,0.925908,-0.0038,-0.025015,1.0740919999999998,0.0038,0.0250149999999999,0.925869,-0.29228,0.0178649999999999,1.091122,-0.1245399999999999,-0.290755,0.866429,-0.4053,0.1845969999999999,1.025962,-0.37609,-0.136005
53,0.9883,0.70679,0.0908499999999999,0.805778,0.44728,0.01339,0.608548,0.49312,-0.0204799999999999,1.162298,0.5080100000000001,0.10358,1.297668,0.59879,0.14205,0.752678,0.64391,-0.0069799999999999,1.139708,0.68579,0.12844,0.925842,-0.0035199999999999,-0.0250199999999999,1.074158,0.00352,0.0250199999999999,0.927199,-0.29016,0.0181,1.0926779999999998,-0.1171899999999999,-0.2941399999999999,0.8697,-0.3996999999999999,0.16644,1.0268979999999999,-0.3663999999999999,-0.13617
54,0.9890580000000001,0.70653,0.091495,0.806284,0.44828,0.014185,0.609524,0.49459,-0.019245,1.162544,0.50698,0.103195,1.297674,0.59816,0.142175,0.7537739999999999,0.64605,-0.0043249999999999,1.139794,0.68537,0.129365,0.9257060000000001,-0.0033199999999999,-0.025245,1.074294,0.0033199999999999,0.025245,0.9279820000000001,-0.28863,0.0185649999999999,1.094404,-0.11065,-0.296715,0.872864,-0.39473,0.148135,1.027954,-0.35822,-0.1366549999999999
55,0.9901565,0.705875,0.09232,0.8068875,0.449165,0.01532,0.6108475,0.495265,-0.0180299999999999,1.1631475,0.505715,0.10302,1.2972575,0.596395,0.14286,0.7551775000000001,0.646495,-0.0028,1.1392375,0.6840550000000001,0.13084,0.9254725,-0.002915,-0.0252899999999999,1.0745275,0.002915,0.0252899999999999,0.9285734999999999,-0.286875,0.0192899999999999,1.0964975,-0.1059549999999999,-0.2986,0.8763755,-0.390675,0.12972,1.0295875,-0.352075,-0.13717
56,0.9913795,0.70527,0.0933749999999999,0.8075625000000001,0.45003,0.016625,0.6120924999999999,0.49588,-0.016685,1.1641124999999999,0.50467,0.1034749999999999,1.2982125,0.5947,0.143945,0.7562325,0.64598,-0.0012949999999999,1.1399425,0.68282,0.132295,0.9252475,-0.00263,-0.025455,1.0747525,0.0026299999999999,0.025455,0.9293705,-0.28528,0.0197049999999999,1.0986125,-0.10223,-0.299845,0.8792545,-0.38883,0.1119149999999999,1.0316425,-0.34702,-0.1374449999999999
57,0.9924555,0.7050449999999999,0.094645,0.8080705,0.451075,0.017975,0.6129905,0.497025,-0.0152249999999999,1.1651605,0.502845,0.103845,1.2989305,0.5929249999999999,0.145065,0.7578104999999999,0.645405,0.000975,1.1405805,0.681575,0.133785,0.9250795,-0.002305,-0.0256649999999999,1.0749205,0.002305,0.025665,0.9300815,-0.284495,0.019955,1.1005205,-0.099185,-0.300725,0.8826155,-0.386235,0.095675,1.0339405,-0.3427449999999999,-0.137785
58,0.9931705,0.705295,0.0959,0.8084545000000001,0.452085,0.01915,0.6134744999999999,0.4980449999999999,-0.0142299999999999,1.1657644999999999,0.501315,0.10437,1.2996045,0.591035,0.14652,0.7583245000000001,0.644665,0.00212,1.1416344999999999,0.680735,0.13497,0.9249755,-0.0020249999999999,-0.02598,1.0750245,0.0020249999999999,0.02598,0.9306985,-0.2841149999999999,0.02038,1.1020645,-0.096325,-0.30126,0.8825275,-0.385365,0.09527,1.0360945,-0.338885,-0.13848
59,0.993506,0.70556,0.09693,0.808727,0.45286,0.0199699999999999,0.613677,0.49863,-0.0136,1.166027,0.5009,0.10516,1.300077,0.58995,0.14797,0.758707,0.6439699999999999,0.00303,1.1423969999999999,0.6795599999999999,0.13588,0.9248730000000001,-0.00185,-0.02631,1.075127,0.00185,0.02631,0.930971,-0.28394,0.0205899999999999,1.103157,-0.09388,-0.3014999999999999,0.8823650000000001,-0.3853399999999999,0.09476,1.037947,-0.33568,-0.13937
60,0.9938155000000001,0.7059,0.0975999999999999,0.8089495,0.4533,0.0203799999999999,0.6137795000000001,0.49867,-0.01361,1.1662795,0.50077,0.10565,1.3004995,0.58897,0.1489899999999999,0.7589095000000001,0.6430400000000001,0.0033599999999999,1.1430695,0.67808,0.1365799999999999,0.9247005000000001,-0.0016199999999999,-0.02654,1.0752995,0.00162,0.02654,0.9309895000000001,-0.2837499999999999,0.0203599999999999,1.1038395,-0.0919499999999999,-0.30174,0.8826175,-0.38454,0.0952599999999999,1.0396195,-0.3329,-0.14054
61,0.9943995000000001,0.706275,0.0978599999999999,0.8092755,0.453775,0.0205699999999999,0.6141655000000001,0.4985549999999999,-0.01415,1.1669155,0.500965,0.1060799999999999,1.3010755,0.588285,0.1495699999999999,0.7593455,0.642695,0.0031699999999999,1.1441055,0.678205,0.1370099999999999,0.9245045000000001,-0.001365,-0.02661,1.0754955,0.001365,0.0266099999999999,0.9313105,-0.2837749999999999,0.0198099999999999,1.1044855,-0.090385,-0.30201,0.8824065000000001,-0.383655,0.0966999999999999,1.0404855,-0.331105,-0.1403
62,0.9949040000000001,0.70609,0.0979749999999999,0.8094660000000001,0.45407,0.020465,0.614456,0.49789,-0.015145,1.167436,0.50152,0.1060749999999999,1.3016459999999999,0.58767,0.1499049999999999,0.759636,0.6415299999999999,0.0025649999999999,1.144536,0.67767,0.137095,0.9244940000000001,-0.00128,-0.026765,1.075506,0.00128,0.0267649999999999,0.9315820000000001,-0.28423,0.0188649999999999,1.105056,-0.08977,-0.302035,0.8825910000000001,-0.3836599999999999,0.0969449999999999,1.041096,-0.3303099999999999,-0.140195
63,0.995272,0.706235,0.09807,0.809608,0.454345,0.02039,0.614778,0.4973149999999999,-0.0161999999999999,1.167758,0.501915,0.10616,1.302128,0.5877049999999999,0.15038,0.7597780000000001,0.6416850000000001,0.00221,1.144758,0.6772849999999999,0.13717,0.924532,-0.001195,-0.0268899999999999,1.075468,0.001195,0.02689,0.931936,-0.284235,0.01812,1.105768,-0.089315,-0.3020899999999999,0.883277,-0.3838749999999999,0.09693,1.041818,-0.329725,-0.1402299999999999
64,0.9954825,0.706455,0.098205,0.8097255,0.454565,0.020415,0.6150455,0.497125,-0.0169949999999999,1.1680955,0.502135,0.106255,1.3026155,0.587925,0.151085,0.7599255,0.641795,0.002185,1.1454355,0.677475,0.137355,0.9245545,-0.0011349999999999,-0.0270349999999999,1.0754455,0.0011349999999999,0.027035,0.9325255,-0.284205,0.017745,1.1064954999999999,-0.088975,-0.3021349999999999,0.8838505,-0.383905,0.096955,1.0423954999999998,-0.329535,-0.139835
65,0.9954740000000001,0.706455,0.09821,0.8099450000000001,0.454565,0.02033,0.615325,0.497125,-0.0177499999999999,1.168925,0.502555,0.10665,1.303075,0.587925,0.15219,0.760265,0.641795,0.00208,1.145755,0.677475,0.1374,0.9245950000000001,-0.0011349999999999,-0.0270499999999999,1.075405,0.0011349999999999,0.02705,0.9332110000000001,-0.284205,0.01752,1.106975,-0.088835,-0.3022899999999999,0.884137,-0.383355,0.09807,1.043005,-0.329575,-0.1397199999999999
66,0.9956005,0.706455,0.098315,0.8102735,0.4547049999999999,0.0202249999999999,0.6156235,0.497125,-0.0181349999999999,1.1695134999999999,0.502935,0.107055,1.3034135,0.588275,0.153365,0.7607035000000001,0.641795,0.002035,1.1457635,0.677475,0.137545,0.9246165000000001,-0.0011349999999999,-0.0270549999999999,1.0753835,0.0011349999999999,0.0270549999999999,0.9339295000000001,-0.284205,0.017295,1.1074035,-0.088705,-0.302425,0.8853625,-0.382845,0.099035,1.0436935,-0.329575,-0.139575
67,0.995649,0.706615,0.09855,0.810519,0.454835,0.02011,0.6159589999999999,0.497125,-0.01829,1.169999,0.503315,0.1073899999999999,1.303759,0.588875,0.15448,0.761019,0.641795,0.00189,1.145659,0.677475,0.13793,0.924661,-0.0011349999999999,-0.02704,1.075339,0.0011349999999999,0.02704,0.934555,-0.284115,0.01705,1.1076789999999999,-0.088555,-0.3025199999999999,0.88646,-0.383235,0.09991,1.043889,-0.329835,-0.13938
68,0.9956710000000001,0.706715,0.098915,0.810727,0.454635,0.019845,0.616117,0.496695,-0.0185449999999999,1.170377,0.503645,0.107685,1.303897,0.589985,0.155055,0.761387,0.642135,0.001665,1.1454469999999999,0.677175,0.138275,0.924663,-0.0011249999999999,-0.027185,1.075337,0.0011249999999999,0.027185,0.935165,-0.283955,0.0168849999999999,1.107667,-0.088905,-0.3021649999999999,0.8863840000000001,-0.3835949999999999,0.101035,1.043347,-0.331685,-0.138285
69,0.9957420000000001,0.70702,0.09963,0.810984,0.4542,0.01955,0.616134,0.49671,-0.01906,1.170914,0.50434,0.10868,1.3046339999999998,0.59173,0.15527,0.761484,0.64284,0.00169,1.146294,0.67828,0.13851,0.924676,-0.00109,-0.0272299999999999,1.075324,0.0010899999999999,0.0272299999999999,0.935789,-0.2839400000000001,0.01688,1.107334,-0.09032,-0.30161,0.886611,-0.38508,0.10225,1.0426639999999998,-0.3342200000000001,-0.13742
70,0.9956465000000001,0.707605,0.09992,0.8111145000000001,0.4534249999999999,0.01876,0.6156245,0.497155,-0.02004,1.1708945,0.5039549999999999,0.1089,1.3043845,0.5931649999999999,0.15445,0.7610745,0.643725,0.00136,1.1467445,0.6796249999999999,0.13796,0.9247655,-0.001275,-0.0272,1.0752345,0.0012749999999999,0.0272,0.9360395,-0.282945,0.01651,1.1061845,-0.093675,-0.30042,0.8875115000000001,-0.387405,0.10515,1.0417845,-0.337845,-0.1374099999999999
71,0.9951665,0.7073499999999999,0.09991,0.8106545000000001,0.45252,0.0180899999999999,0.6147445,0.49676,-0.02115,1.1705045,0.50372,0.1094499999999999,1.3042245000000001,0.59277,0.15368,0.7604145,0.64373,0.00108,1.1468245,0.6828000000000001,0.13771,0.9248755,-0.0015899999999999,-0.0271899999999999,1.0751245,0.0015899999999999,0.0271899999999999,0.9363125,-0.28467,0.01622,1.1048045,-0.09947,-0.29802,0.8863835,-0.39254,0.12195,1.0410244999999998,-0.34579,-0.1376399999999999
72,0.9944125,0.70642,0.09994,0.8099615,0.4508,0.0175899999999999,0.6135615,0.49612,-0.02189,1.1699115,0.5033700000000001,0.1104999999999999,1.3038815000000001,0.58968,0.15337,0.7595715000000001,0.64337,0.0005399999999999,1.1478815,0.6823600000000001,0.13735,0.9248585,-0.0022499999999999,-0.02734,1.0751415,0.00225,0.0273399999999999,0.9360005,-0.28696,0.0158699999999999,1.1028315,-0.1079799999999999,-0.29379,0.8871925,-0.39856,0.14485,1.0396515,-0.3582299999999999,-0.13873
73,0.9932535000000001,0.7059599999999999,0.0996149999999999,0.8082235,0.45004,0.0175849999999999,0.6122535,0.49545,-0.022795,1.1688935,0.50376,0.1115849999999999,1.3036035,0.59014,0.1522149999999999,0.7589735,0.6431899999999999,0.0002649999999999,1.1480435,0.68508,0.1365549999999999,0.9248565000000001,-0.00278,-0.027165,1.0751435,0.00278,0.0271649999999999,0.9352885000000001,-0.28878,0.0168549999999999,1.1008635,-0.1187599999999999,-0.288535,0.8846805000000001,-0.40755,0.1700349999999999,1.0385435,-0.37423,-0.140955
74,0.992347,0.705855,0.099385,0.806469,0.448495,0.0171149999999999,0.610929,0.495145,-0.0235749999999999,1.167839,0.504115,0.112245,1.303039,0.590935,0.151025,0.758449,0.644625,0.000365,1.148639,0.686515,0.135145,0.924981,-0.0032849999999999,-0.0267749999999999,1.075019,0.0032849999999999,0.026775,0.934503,-0.290995,0.016925,1.098699,-0.132195,-0.2813749999999999,0.882345,-0.421265,0.194663,1.037809,-0.393065,-0.144625
75,0.9916745000000001,0.70675,0.0986699999999999,0.8048695000000001,0.44701,0.0162599999999999,0.6096695000000001,0.49521,-0.02475,1.1674195,0.50513,0.1127999999999999,1.3035995,0.5909,0.1493099999999999,0.7569795000000001,0.64486,-0.00071,1.1495495,0.68955,0.1335499999999999,0.9252605,-0.00374,-0.02626,1.0747395,0.0037399999999999,0.0262599999999999,0.9334875000000001,-0.29372,0.0179599999999999,1.0967295,-0.14699,-0.2729500000000001,0.8809475000000001,-0.43667,0.2187459999999999,1.0376095,-0.41533,-0.15012
76,0.9910765,0.70755,0.0971649999999999,0.8033465,0.44555,0.0150049999999999,0.6082965,0.49559,-0.026395,1.1671065,0.50645,0.1129949999999999,1.3050165,0.59025,0.1467549999999999,0.7565465,0.64599,-0.001775,1.1510965,0.68944,0.1308049999999999,0.9256735,-0.00436,-0.025495,1.0743265,0.00436,0.0254949999999999,0.9318685,-0.2984399999999999,0.0194449999999999,1.0949665,-0.16371,-0.263775,0.8801975,-0.4547799999999999,0.241135,1.0385065,-0.4410699999999999,-0.156515
77,0.9912495,0.709125,0.09529,0.8023075,0.445075,0.01395,0.6074775,0.496395,-0.0279399999999999,1.1666275,0.507425,0.11209,1.3064475,0.588615,0.144043,0.7549975,0.646365,-0.0038499999999999,1.1536875,0.690455,0.12782,0.9259925,-0.004805,-0.02437,1.0740075,0.004805,0.02437,0.9306155,-0.303635,0.02583,1.0937275,-0.181055,-0.25453,0.8813085,-0.473975,0.266694,1.0410875,-0.469035,-0.1655999999999999
78,0.9918225,0.71094,0.09262,0.8016365,0.44583,0.01281,0.6074364999999999,0.49752,-0.0296499999999999,1.1664365,0.50871,0.1099,1.3075565,0.5884199999999999,0.14071,0.7537265,0.64612,-0.00683,1.1552365,0.69081,0.12424,0.9262835,-0.0053699999999999,-0.02329,1.0737165,0.00537,0.02329,0.9290815,-0.30686,0.0304,1.0923065,-0.2001899999999999,-0.24304,0.8832075,-0.49517,0.291548,1.0447464999999998,-0.49856,-0.17582
79,0.99339,0.7125250000000001,0.08962,0.8016570000000001,0.447365,0.01177,0.6083970000000001,0.498465,-0.0315499999999999,1.166537,0.510465,0.1072,1.309797,0.587245,0.136956,0.754077,0.6471450000000001,-0.0090299999999999,1.158397,0.690965,0.120266,0.926473,-0.0057249999999999,-0.0223299999999999,1.073527,0.005725,0.02233,0.927497,-0.312405,0.03694,1.092057,-0.220215,-0.2320999999999999,0.885107,-0.518235,0.31243,1.049777,-0.5276049999999999,-0.1873499999999999
80,0.9951260000000001,0.71509,0.0865,0.802391,0.44776,0.00914,0.609011,0.50027,-0.0335499999999999,1.166971,0.51162,0.10302,1.310801,0.58865,0.1326439999999999,0.754571,0.64825,-0.0118399999999999,1.159991,0.69005,0.1156,0.926589,-0.0059599999999999,-0.02223,1.0734110000000001,0.00596,0.02223,0.925121,-0.31535,0.04428,1.0914609999999998,-0.23997,-0.22143,0.890085,-0.5408,0.31877,1.055001,-0.5529,-0.20046
81,0.9973835,0.7183714999999999,0.083006,0.8032795,0.4501815,0.0075999999999999,0.6101695,0.5026014999999999,-0.03551,1.1680095,0.5131715,0.0983759999999999,1.3121895000000001,0.5924315,0.127106,0.7564895,0.6510015,-0.01391,1.1600694999999999,0.6925015000000001,0.111552,0.9267805000000001,-0.0054185,-0.0208099999999999,1.0732195,0.0054184999999999,0.0208099999999999,0.9234825000000001,-0.3182485,0.0523899999999999,1.0918095,-0.2586685,-0.21231,0.8940785,-0.5627285,0.31798,1.0613095,-0.5751885000000001,-0.21362
82,1.0001695,0.7211575,0.0799509999999999,0.8052435,0.4513875,0.0055699999999999,0.6115035000000001,0.5051275,-0.03708,1.1698035,0.5141775,0.0937659999999999,1.3138334999999999,0.5937874999999999,0.1222019999999999,0.7585435,0.6534675,-0.01605,1.1610235,0.6913975,0.1075989999999999,0.9270565,-0.0050125,-0.01961,1.0729435,0.0050125,0.0196099999999999,0.9219025,-0.3217525,0.0599749999999999,1.0923135,-0.2762725,-0.20366,0.9021125000000001,-0.5832725000000001,0.3142699999999999,1.0676835,-0.5945625,-0.22617
83,1.002611,0.7236484999999999,0.0770619999999999,0.8070660000000001,0.4534785,0.004365,0.612946,0.5073084999999999,-0.038085,1.171636,0.5153485,0.089613,1.315796,0.5947785,0.1172769999999999,0.760266,0.6540785,-0.018215,1.161836,0.6917985,0.104327,0.927184,-0.0046394999999999,-0.018525,1.072816,0.0046394999999999,0.018525,0.9202710000000001,-0.3252914999999999,0.069078,1.092996,-0.2920215,-0.196195,0.910354,-0.6032115,0.310945,1.074296,-0.6107915,-0.237925
84,1.004044,0.7254094999999999,0.0749,0.8086180000000001,0.4554295,0.004245,0.614178,0.5086695,-0.0378949999999999,1.172788,0.5164394999999999,0.086153,1.317228,0.5962695,0.11285,0.762908,0.6558495,-0.018625,1.162958,0.6906194999999999,0.100883,0.927234,-0.0042825,-0.017375,1.072766,0.0042824999999999,0.017375,0.9188020000000001,-0.3283105,0.077754,1.093538,-0.3068405,-0.1896649999999999,0.918032,-0.6171105,0.307895,1.080858,-0.6237405,-0.2486249999999999
85,1.005408,0.727596,0.074119,0.810081,0.457146,0.004834,0.615361,0.509436,-0.036666,1.1738009999999999,0.517536,0.083518,1.317931,0.598376,0.109494,0.764321,0.6567959999999999,-0.018236,1.163651,0.6924359999999999,0.098677,0.927226,-0.003769,-0.016356,1.072774,0.0037689999999999,0.016356,0.917849,-0.3291539999999999,0.085894,1.093681,-0.319494,-0.183586,0.92527,-0.627614,0.306314,1.086721,-0.6334540000000001,-0.259076
86,1.005267,0.7294645,0.0741925,0.810972,0.4582845,0.0057264999999999,0.6160220000000001,0.5099945,-0.0351075,1.174942,0.5191645,0.0821735,1.318642,0.6015145,0.1070445,0.766892,0.6584045,-0.0161775,1.1631420000000001,0.6936745,0.0979245,0.927343,-0.0034475,-0.0154775,1.072657,0.0034474999999999,0.0154774999999999,0.91646,-0.3293954999999999,0.0892284999999999,1.093462,-0.3290555,-0.1775775,0.9308750000000001,-0.6356955000000001,0.3016425,1.091863,-0.6403655,-0.2680275
87,1.00424,0.730947,0.0750435,0.8116,0.458577,0.0070765,0.61619,0.509797,-0.0328974999999999,1.17586,0.520247,0.0817615,1.31978,0.602637,0.1055735,0.76982,0.660477,-0.0127674999999999,1.16374,0.6944170000000001,0.0976155,0.927505,-0.003029,-0.0146474999999999,1.072495,0.003029,0.0146475,0.915345,-0.3314729999999999,0.0945635,1.093681,-0.335793,-0.1738574999999999,0.935603,-0.641703,0.2970525,1.096155,-0.645003,-0.2756975
88,1.002341,0.7321305,0.07713,0.8116289999999999,0.4586004999999999,0.009078,0.615819,0.5095505,-0.0297209999999999,1.176709,0.5218605,0.082703,1.319839,0.6050305,0.105696,0.769849,0.6597505,-0.0133039999999999,1.162849,0.6951404999999999,0.098693,0.927692,-0.0026035,-0.0137529999999999,1.072308,0.0026035,0.013753,0.914647,-0.3323095,0.098541,1.0933259999999998,-0.3405095,-0.169781,0.939357,-0.6452695,0.294259,1.099312,-0.6476595,-0.2813609999999999
89,1.0007245,0.7331765,0.079793,0.8116275,0.4597965,0.012538,0.6161375,0.5093365,-0.0260269999999999,1.1772575,0.5238765000000001,0.084817,1.3207075,0.6061565,0.106263,0.7695675000000001,0.6598765,-0.01331,1.1631775,0.6953565,0.100401,0.9279525,-0.0021644999999999,-0.0119029999999999,1.0720475,0.0021644999999999,0.011903,0.9148285,-0.3328635,0.102029,1.0935415,-0.3454534999999999,-0.166511,0.9425305,-0.6470935,0.2917389999999999,1.1022115,-0.6492435,-0.285471
90,0.999015,0.7340785,0.082908,0.811749,0.4598785,0.014867,0.616159,0.5091085,-0.0223889999999999,1.177409,0.5254985,0.086674,1.3213689999999998,0.6074185,0.107365,0.767739,0.6586884999999999,-0.0143379999999999,1.164729,0.6956785,0.101416,0.9282660000000001,-0.0021294999999999,-0.0112229999999999,1.071734,0.0021295,0.011223,0.915021,-0.3329715,0.10544,1.093376,-0.3492715,-0.163321,0.94478,-0.6482815000000001,0.289989,1.104368,-0.6501015,-0.288661
91,0.9974655,0.7348765,0.085848,0.8118525,0.4600765,0.017061,0.6161425,0.5087365,-0.0189219999999999,1.1773525,0.5269265,0.088212,1.3217725,0.6084465,0.108435,0.7610925,0.6582965,-0.014159,1.1655625,0.6967765,0.102736,0.9285045000000001,-0.0021075,-0.0105439999999999,1.0714955,0.0021075,0.0105439999999999,0.9155935,-0.3328135,0.108219,1.0932035,-0.3519735,-0.160767,0.9464795,-0.6483435,0.288543,1.1061705,-0.6504935,-0.291547
92,0.996203,0.7355165,0.088159,0.812053,0.4600865,0.018886,0.616023,0.5087565000000001,-0.0159379999999999,1.1773829999999998,0.5281065,0.089686,1.322153,0.6094265,0.1093659999999999,0.754623,0.6582965,-0.014531,1.165653,0.6972065,0.103931,0.928809,-0.0021075,-0.009867,1.071191,0.0021075,0.009867,0.916262,-0.3322535,0.110498,1.0931019999999998,-0.3540135,-0.159075,0.94773,-0.6483435,0.287095,1.107524,-0.6504935,-0.293975
93,0.9958475000000001,0.7357565,0.0900895,0.8123305000000001,0.4600865,0.0200455,0.6160105,0.5087765,-0.0136764999999999,1.1774805,0.5286365,0.0904965,1.3222705000000001,0.6101265,0.1099835,0.7485305,0.6582865,-0.0145784999999999,1.1654205,0.6972565000000001,0.1049265,0.9290565000000001,-0.0021075,-0.0093784999999999,1.0709434999999998,0.0021075,0.0093785,0.9169845000000001,-0.3317735,0.1123015,1.0929635,-0.3558035,-0.1577275,0.9485645,-0.6483435,0.2857125,1.1084805,-0.6504935,-0.2958774999999999
94,0.9956165000000001,0.7357565,0.0912669999999999,0.8125875000000001,0.4600865,0.0207859999999999,0.6162075,0.5087365,-0.012087,1.1776875,0.5288265,0.0907299999999999,1.3224475,0.6105365,0.11018,0.7430775000000001,0.6573765,-0.01447,1.1652275,0.6972565000000001,0.1056049999999999,0.9292355,-0.0021075,-0.008994,1.0707645,0.0021075,0.0089939999999999,0.9177385,-0.3313635,0.1140289999999999,1.0930185,-0.3572435,-0.156658,0.9492065,-0.6479735,0.284402,1.1092564999999999,-0.6508235,-0.297408
95,0.9962860000000001,0.7358395,0.092006,0.812979,0.4601495,0.02113,0.616539,0.5082694999999999,-0.0109389999999999,1.178149,0.5289094999999999,0.090523,1.322849,0.6107794999999999,0.109835,0.744769,0.6577095,-0.0123189999999999,1.165379,0.6973395,0.105372,0.929356,-0.0020875,-0.0087939999999999,1.070644,0.0020875,0.008794,0.918487,-0.3310605,0.115587,1.093137,-0.3582705,-0.155882,0.9497050000000001,-0.6471105,0.283208,1.109904,-0.6514605000000001,-0.298682
96,0.997273,0.7360185,0.092441,0.8133319999999999,0.4601085,0.0211009999999999,0.616942,0.5081985,-0.010445,1.178462,0.5290985,0.089877,1.3230819999999999,0.6110985,0.109072,0.741422,0.6567685,-0.0112929999999999,1.165552,0.6975185,0.1047609999999999,0.929403,-0.0021134999999999,-0.008609,1.070597,0.0021135,0.0086089999999999,0.919145,-0.3306215,0.116988,1.09327,-0.3588215,-0.155373,0.950069,-0.6461515,0.282047,1.110339,-0.6519115,-0.299923
97,0.9979415,0.7362035,0.092402,0.8136625,0.4602135,0.020804,0.6173425,0.5083335,-0.010488,1.1789025,0.5293734999999999,0.089104,1.3234025,0.6115035,0.107965,0.7376925000000001,0.6557135,-0.0114219999999999,1.1657625,0.6976535,0.103611,0.9294344999999999,-0.0021574999999999,-0.008473,1.0705655,0.0021575,0.008473,0.9197204999999999,-0.3301065,0.118201,1.0933655,-0.3594265,-0.155299,0.9502985,-0.6452665,0.280951,1.1106284999999998,-0.6524665000000001,-0.301129
98,0.998389,0.7362139999999999,0.092124,0.813776,0.460364,0.020386,0.617696,0.508494,-0.010921,1.179166,0.5296139999999999,0.088252,1.323596,0.611924,0.106893,0.734036,0.654544,-0.012627,1.1659359999999999,0.697734,0.10247,0.929468,-0.002116,-0.008388,1.070532,0.002116,0.008388,0.920077,-0.329646,0.119085,1.093354,-0.3598059999999999,-0.1554789999999999,0.950411,-0.644416,0.279951,1.110756,-0.6530360000000001,-0.302379
