sb224sc-HT22-VT27/4dt907/src/data/kinect_good_preprocessed_A9_mediapipe/B6_kinect.csv
FrameNo,nose_3d_x,nose_3d_y,nose_3d_z,left_shoulder_3d_x,left_shoulder_3d_y,left_shoulder_3d_z,left_elbow_3d_x,left_elbow_3d_y,left_elbow_3d_z,right_shoulder_3d_x,right_shoulder_3d_y,right_shoulder_3d_z,right_elbow_3d_x,right_elbow_3d_y,right_elbow_3d_z,left_wrist_3d_x,left_wrist_3d_y,left_wrist_3d_z,right_wrist_3d_x,right_wrist_3d_y,right_wrist_3d_z,left_hip_3d_x,left_hip_3d_y,left_hip_3d_z,right_hip_3d_x,right_hip_3d_y,right_hip_3d_z,left_knee_3d_x,left_knee_3d_y,left_knee_3d_z,right_knee_3d_x,right_knee_3d_y,right_knee_3d_z,left_ankle_3d_x,left_ankle_3d_y,left_ankle_3d_z,right_ankle_3d_x,right_ankle_3d_y,right_ankle_3d_z
157,-0.013986500000000006,0.721438,0.004789500000000002,-0.1666365,0.526088,-0.021521499999999995,-0.29053650000000003,0.724488,-0.11068449999999999,0.1578635,0.5284580000000001,-0.0012554999999999927,0.2907435,0.7018580000000001,-0.0649695,-0.3529065,0.936338,-0.1670965,0.3385335,0.9055080000000001,-0.1104175,-0.0772515,-9.699999999999986e-05,-0.0006604999999999944,0.0772515,9.699999999999986e-05,0.0006605000000000014,-0.1038265,-0.36715200000000003,-0.0638455,0.11326349999999999,-0.358692,-0.0452625,-0.0876325,-0.7087519999999999,-0.006016499999999994,0.10045849999999999,-0.707062,0.006776500000000005
158,-0.014140500000000004,0.719413,0.0036659999999999957,-0.16685950000000002,0.524633,-0.021746,-0.2900995,0.723283,-0.111878,0.1573405,0.525953,-0.002829000000000005,0.2902805,0.702413,-0.067082,-0.3520395,0.934703,-0.169216,0.3367705,0.904713,-0.112623,-0.0775895,-0.0002390000000000031,-0.0005259999999999987,0.0775895,0.00023899999999999616,0.0005259999999999987,-0.1052795,-0.361347,-0.074291,0.1151005,-0.35310700000000006,-0.053746,-0.0878505,-0.703177,-0.011540000000000002,0.1000575,-0.7007570000000001,0.002152999999999995
159,-0.014537000000000005,0.717432,0.002807999999999998,-0.167316,0.5229119999999999,-0.022121000000000002,-0.289856,0.722522,-0.112946,0.156564,0.523772,-0.004423000000000003,0.28963399999999995,0.703962,-0.069182,-0.35129600000000005,0.9340419999999999,-0.171089,0.334754,0.904562,-0.114492,-0.077957,-0.0003939999999999985,-0.00044500000000000095,0.077957,0.0003939999999999985,0.00044500000000000095,-0.106866,-0.354778,-0.084464,0.11698399999999999,-0.346838,-0.062634,-0.08812,-0.6963980000000001,-0.017408,0.099575,-0.693238,-0.0023859999999999992
160,-0.015111499999999996,0.715352,0.002128999999999999,-0.16790950000000002,0.521142,-0.022216,-0.28976949999999996,0.722132,-0.11393,0.1554205,0.521702,-0.005579000000000001,0.2888105,0.705462,-0.070899,-0.35081949999999995,0.934562,-0.17258400000000002,0.33250050000000003,0.904042,-0.11591199999999999,-0.07828550000000001,-0.0005930000000000032,-0.00044399999999999995,0.07828550000000001,0.0005929999999999998,0.00044399999999999995,-0.10842949999999998,-0.347748,-0.094565,0.11878050000000001,-0.339998,-0.071148,-0.0884025,-0.688788,-0.023178,0.0990875,-0.684988,-0.0066970000000000016
161,-0.015667,0.71364,0.001505499999999993,-0.168466,0.51963,-0.022583500000000003,-0.289886,0.72174,-0.1148675,0.154144,0.51947,-0.006686500000000005,0.287814,0.7066,-0.07229350000000001,-0.350466,0.93626,-0.1738825,0.33002400000000004,0.90323,-0.1170185,-0.078608,-0.0007800000000000003,-0.0005045000000000049,0.078608,0.0007799999999999994,0.000504499999999998,-0.109736,-0.34038999999999997,-0.1046775,0.12059399999999999,-0.33271,-0.0797535,-0.088605,-0.68019,-0.029015500000000003,0.098658,-0.67588,-0.010953500000000005
162,-0.016146000000000004,0.7116020000000001,0.0010289999999999952,-0.16894800000000001,0.518202,-0.023188,-0.28993800000000003,0.721422,-0.115473,0.15293199999999998,0.518282,-0.007824000000000005,0.28674199999999994,0.707732,-0.073186,-0.35021800000000003,0.9386620000000001,-0.174796,0.32772199999999996,0.9030520000000001,-0.117974,-0.078862,-0.0010110000000000002,-0.0005949999999999983,0.078862,0.0010110000000000002,0.0005949999999999983,-0.110528,-0.334158,-0.113674,0.12234199999999999,-0.325598,-0.087371,-0.088688,-0.6713279999999999,-0.03426,0.098324,-0.6666179999999999,-0.014787000000000002
163,-0.016503499999999997,0.7099924999999999,0.0006244999999999931,-0.1693105,0.5169524999999999,-0.023574500000000005,-0.2901805,0.7214824999999999,-0.1162465,0.1516995,0.5167725,-0.008809500000000005,0.2856995,0.7080325,-0.07403950000000001,-0.3502505,0.9424425,-0.1750215,0.3258395,0.9039925,-0.1190385,-0.0790785,-0.0012694999999999998,-0.0007035000000000027,0.0790785,0.0012694999999999998,0.0007034999999999958,-0.1109105,-0.32750749999999995,-0.1221965,0.12405949999999999,-0.31841749999999996,-0.0948435,-0.08853349999999999,-0.6617375,-0.03938850000000001,0.09812950000000001,-0.6566975,-0.018745500000000005
164,-0.017025000000000002,0.708712,0.0003029999999999977,-0.169937,0.515842,-0.023916,-0.290477,0.722472,-0.11742,0.150353,0.514702,-0.009887,0.284563,0.7077720000000001,-0.075004,-0.350367,0.9464020000000001,-0.17533100000000001,0.323843,0.9046620000000001,-0.120122,-0.079244,-0.001472000000000001,-0.0008820000000000008,0.079244,0.0014719999999999976,0.0008820000000000008,-0.111257,-0.32058800000000004,-0.130393,0.125753,-0.31158800000000003,-0.10236200000000001,-0.088436,-0.6513979999999999,-0.044308,0.09791899999999999,-0.646268,-0.022484999999999998
165,-0.0175835,0.7071035,4.4999999999975615e-06,-0.1707265,0.5144935,-0.024557500000000003,-0.2907465,0.7223634999999999,-0.1186525,0.1490835,0.5134135,-0.010985500000000002,0.2834435,0.7073435,-0.0760575,-0.3503965,0.9500135,-0.1759185,0.3219135,0.9050834999999999,-0.1212915,-0.0793265,-0.0016624999999999973,-0.0010825000000000001,0.0793265,0.0016625000000000043,0.0010825000000000001,-0.11161650000000001,-0.3136065,-0.1382025,0.1272935,-0.30491650000000003,-0.1094305,-0.0882625,-0.6408265000000001,-0.04872750000000001,0.09774550000000001,-0.6354865000000001,-0.0262345
166,-0.018277500000000002,0.7056105,-0.00021900000000000391,-0.1716355,0.5134205000000001,-0.025315999999999998,-0.29093549999999996,0.7224305000000001,-0.120062,0.1478745,0.5113005,-0.011972000000000003,0.2823545,0.7070005,-0.077206,-0.35033549999999997,0.9523605,-0.176587,0.3200545,0.9056005,-0.12256700000000001,-0.07937849999999999,-0.0018224999999999977,-0.0012539999999999982,0.07937849999999999,0.0018225000000000047,0.0012539999999999982,-0.1119355,-0.3065195,-0.145658,0.1290245,-0.2984895,-0.116622,-0.08799950000000001,-0.6296795,-0.052913,0.09761349999999999,-0.6240494999999999,-0.029888000000000005
167,-0.019009500000000002,0.7039255,-0.0005470000000000058,-0.17254150000000001,0.5118855,-0.02589500000000001,-0.29131150000000006,0.7215955000000001,-0.121641,0.1469385,0.5102755,-0.012922000000000003,0.28142849999999997,0.7066954999999999,-0.07821900000000001,-0.3501615,0.9534455,-0.177201,0.31841850000000005,0.9058655,-0.123869,-0.0793985,-0.0019414999999999988,-0.0015150000000000025,0.0793985,0.0019415000000000057,0.0015149999999999886,-0.1120915,-0.2993845,-0.15244400000000002,0.13095849999999998,-0.2925045,-0.123696,-0.0876995,-0.6182645,-0.05645700000000001,0.0976095,-0.6124645,-0.033275000000000006
168,-0.019642,0.702245,-0.001288499999999998,-0.173365,0.510495,-0.026841499999999997,-0.291515,0.7208249999999999,-0.1233765,0.146335,0.509675,-0.014112499999999993,0.280515,0.705255,-0.07961449999999999,-0.349855,0.953815,-0.1786025,0.316895,0.905485,-0.1255075,-0.079351,-0.0020579999999999904,-0.0016894999999999966,0.079351,0.0020580000000000043,0.0016895000000000104,-0.112105,-0.29276499999999994,-0.15937849999999998,0.133015,-0.28710499999999994,-0.1308625,-0.087295,-0.606965,-0.059747499999999995,0.097652,-0.600935,-0.03687449999999999
169,-0.02028,0.7006725,-0.0020659999999999984,-0.173638,0.5088825,-0.027981,-0.291478,0.7201525,-0.12498899999999999,0.145812,0.5086825,-0.015400999999999998,0.27952200000000005,0.7035125,-0.08119799999999999,-0.349518,0.9529725,-0.180195,0.31528199999999995,0.9039125,-0.127019,-0.07935,-0.0021585000000000076,-0.0017189999999999983,0.07935,0.0021584999999999938,0.0017189999999999983,-0.112138,-0.28371749999999996,-0.165958,0.135302,-0.2784875,-0.138235,-0.087223,-0.5954674999999999,-0.06271,0.097801,-0.5891275,-0.040299
170,-0.020933499999999997,0.6984819999999999,-0.002980499999999997,-0.1738215,0.507092,-0.029204499999999994,-0.2915115,0.719862,-0.1266415,0.1453885,0.508402,-0.01682249999999999,0.27861850000000005,0.701722,-0.08306449999999999,-0.3492015,0.9510719999999999,-0.1819075,0.3137185,0.9020619999999999,-0.1287255,-0.07936850000000001,-0.0022980000000000084,-0.0017084999999999878,0.07936850000000001,0.0022979999999999945,0.0017085000000000017,-0.11220150000000001,-0.27419800000000005,-0.1719675,0.1379185,-0.269578,-0.1454615,-0.08717849999999999,-0.583918,-0.0653145,0.09793850000000001,-0.577358,-0.04370249999999999
171,-0.021245,0.69844,-0.009313500000000002,-0.173687,0.50774,-0.0357915,-0.291427,0.72011,-0.13351849999999998,0.144583,0.50823,-0.023725499999999997,0.277883,0.7021999999999999,-0.0903585,-0.348607,0.9466,-0.1888955,0.312413,0.90271,-0.1356935,-0.079376,-0.0023799999999999932,-0.0015874999999999917,0.079376,0.002380000000000007,0.0015875000000000056,-0.112107,-0.26186,-0.18286550000000001,0.140573,-0.25803,-0.1574545,-0.086984,-0.56999,-0.0732085,0.098275,-0.56331,-0.0523615
172,-0.0212915,0.7003849999999999,-0.016309500000000005,-0.17337149999999998,0.5070250000000001,-0.0430545,-0.29134150000000003,0.719595,-0.1402045,0.1435585,0.508115,-0.031338500000000005,0.2773285,0.7042849999999999,-0.09825450000000001,-0.3480015,0.948085,-0.19630550000000002,0.3113785,0.905585,-0.1432035,-0.07934749999999999,-0.0025050000000000072,-0.0015605000000000063,0.07934749999999999,0.0025050000000000072,0.0015604999999999924,-0.11326149999999999,-0.248015,-0.19819550000000002,0.14545850000000002,-0.244335,-0.1743715,-0.08634349999999999,-0.554745,-0.0818845,0.10046050000000001,-0.5498350000000001,-0.06621750000000001
173,-0.021306499999999996,0.70184,-0.02367899999999999,-0.1730525,0.50637,-0.050566999999999994,-0.2913025,0.71971,-0.147092,0.1426175,0.50844,-0.03919999999999999,0.2767575,0.70651,-0.10618799999999999,-0.3474725,0.94976,-0.203707,0.3105375,0.90762,-0.151008,-0.0793615,-0.0027399999999999924,-0.0013849999999999973,0.0793615,0.0027399999999999924,0.0013850000000000112,-0.1142325,-0.23414999999999997,-0.213567,0.1501375,-0.22981000000000001,-0.19108599999999998,-0.08576349999999999,-0.53984,-0.090336,0.10252950000000001,-0.53662,-0.08047399999999999
174,-0.021336,0.703615,-0.031356999999999996,-0.172803,0.506275,-0.058348,-0.291303,0.721175,-0.15406399999999998,0.141507,0.5088550000000001,-0.047171,0.27611699999999995,0.708605,-0.114147,-0.347013,0.951735,-0.211195,0.309897,0.910165,-0.158968,-0.079333,-0.002904999999999991,-0.00122499999999999,0.079333,0.0029050000000000187,0.0012250000000000039,-0.115243,-0.21947499999999998,-0.228955,0.154377,-0.21376499999999998,-0.207975,-0.085331,-0.524495,-0.098702,0.10437,-0.5228349999999999,-0.095117
175,-0.021089999999999998,0.705015,-0.039444999999999994,-0.172413,0.505335,-0.06646099999999999,-0.291363,0.722545,-0.161543,0.140447,0.509205,-0.055354,0.275567,0.710585,-0.122319,-0.34651299999999996,0.9537249999999999,-0.219455,0.30956700000000004,0.9117850000000001,-0.167134,-0.079297,-0.0030949999999999867,-0.0010649999999999965,0.079297,0.0030950000000000144,0.0010649999999999965,-0.11610299999999998,-0.204615,-0.24412499999999998,0.158107,-0.19827499999999998,-0.22464499999999998,-0.084927,-0.509385,-0.107295,0.10597799999999999,-0.509495,-0.10968699999999999
176,-0.020737000000000005,0.70635,-0.04799300000000001,-0.171719,0.5050399999999999,-0.075017,-0.291379,0.725,-0.169457,0.139431,0.50915,-0.06395200000000001,0.275001,0.71204,-0.130993,-0.346149,0.95683,-0.22815000000000002,0.309601,0.91376,-0.175706,-0.079295,-0.003269999999999995,-0.0008299999999999974,0.079295,0.003269999999999995,0.0008299999999999974,-0.11695900000000001,-0.18955,-0.25921,0.161301,-0.18230999999999997,-0.24135,-0.084446,-0.49422999999999995,-0.116309,0.10731199999999999,-0.49568,-0.124275
177,-0.02044,0.707795,-0.05658500000000001,-0.170804,0.504945,-0.08359400000000002,-0.291474,0.726685,-0.17761300000000002,0.138376,0.508695,-0.07275600000000002,0.274746,0.714165,-0.13993000000000003,-0.345774,0.9587450000000001,-0.23710000000000003,0.309926,0.915865,-0.18451900000000002,-0.07929,-0.0033949999999999814,-0.0006700000000000039,0.07929,0.003395000000000009,0.0006699999999999762,-0.11765400000000001,-0.174365,-0.27384000000000003,0.164066,-0.16635499999999998,-0.25752,-0.08396600000000001,-0.478955,-0.12522200000000003,0.10847399999999999,-0.481695,-0.13844900000000002
178,-0.020138500000000004,0.7087600000000001,-0.065175,-0.1698925,0.50543,-0.09217,-0.2916225,0.72684,-0.186214,0.1372575,0.50861,-0.081623,0.2748675,0.71568,-0.149102,-0.3454625,0.9599,-0.24604,0.3102375,0.91914,-0.193357,-0.0792145,-0.003470000000000001,-0.0005999999999999894,0.0792145,0.003470000000000001,0.0005999999999999894,-0.11833250000000001,-0.15999999999999998,-0.28797,0.1662375,-0.15109,-0.27286,-0.0835785,-0.46469000000000005,-0.13417,0.1094775,-0.46894,-0.152366
179,-0.019734,0.7113149999999999,-0.07453499999999998,-0.16869699999999999,0.506235,-0.10175799999999999,-0.291237,0.7283649999999999,-0.19550199999999998,0.136293,0.507985,-0.09137699999999999,0.27525299999999997,0.7187950000000001,-0.15916899999999998,-0.345077,0.962415,-0.25578,0.310633,0.923105,-0.20306799999999997,-0.079088,-0.0034450000000000036,-0.0006499999999999839,0.079088,0.0034450000000000036,0.0006500000000000117,-0.118747,-0.143445,-0.30256,0.16779300000000003,-0.13337500000000002,-0.28835,-0.083156,-0.44891499999999995,-0.14382799999999998,0.110453,-0.454665,-0.166763
180,-0.019285,0.711665,-0.07898500000000001,-0.167682,0.504645,-0.10653300000000002,-0.291122,0.728755,-0.199795,0.135858,0.507475,-0.09630100000000001,0.275598,0.719115,-0.164216,-0.344792,0.965745,-0.260425,0.31097800000000003,0.924045,-0.208231,-0.078987,-0.003485000000000016,-0.0007150000000000212,0.078987,0.0034849999999999604,0.0007149999999999934,-0.119092,-0.128815,-0.311705,0.169108,-0.11745500000000003,-0.298365,-0.082816,-0.43591500000000005,-0.148267,0.110788,-0.44208500000000006,-0.171382
181,-0.0188725,0.7087650000000001,-0.08311999999999999,-0.16712749999999998,0.504605,-0.110762,-0.2906475,0.730045,-0.20313499999999998,0.13579249999999998,0.507175,-0.10074599999999999,0.2757425,0.717245,-0.168892,-0.3444975,0.965265,-0.264625,0.31146250000000003,0.921535,-0.213084,-0.0788655,-0.0034749999999999504,-0.0006549999999999889,0.0788655,0.003475000000000006,0.0006550000000000167,-0.11887750000000001,-0.11777499999999996,-0.315525,0.1693325,-0.10641499999999998,-0.302645,-0.08260150000000001,-0.425385,-0.152077,0.1110025,-0.4310649999999999,-0.17521399999999998
182,-0.018352499999999997,0.7068000000000001,-0.087613,-0.16665750000000001,0.50301,-0.115413,-0.2899375,0.73061,-0.207038,0.1357725,0.5062,-0.10563600000000001,0.2760225,0.71627,-0.174143,-0.3441575,0.96411,-0.26938,0.3122025,0.9203399999999999,-0.218487,-0.07870550000000001,-0.0034399999999999986,-0.0006400000000000017,0.07870550000000001,0.0034399999999999986,0.0006400000000000017,-0.11861750000000001,-0.10614999999999997,-0.31967,0.1695925,-0.09471999999999997,-0.30679,-0.08234150000000001,-0.41412999999999994,-0.156222,0.1112525,-0.41949999999999993,-0.179473
183,-0.017949,0.7045600000000001,-0.09213400000000002,-0.166256,0.50124,-0.11997700000000003,-0.289376,0.72809,-0.21113400000000002,0.135834,0.5055000000000001,-0.11053300000000002,0.27632399999999996,0.71509,-0.17937300000000003,-0.344136,0.96146,-0.27420500000000003,0.312984,0.9181999999999999,-0.22409300000000004,-0.07861699999999999,-0.0034299999999999886,-0.0007350000000000134,0.07861699999999999,0.0034299999999999886,0.0007349999999999857,-0.118396,-0.09538999999999997,-0.32377500000000003,0.16981400000000002,-0.08395999999999998,-0.31089500000000003,-0.08213999999999999,-0.4038,-0.16032700000000003,0.11063500000000001,-0.40873999999999994,-0.18363000000000002
184,-0.017524500000000002,0.70217,-0.09664800000000001,-0.1658225,0.50027,-0.12431700000000001,-0.2889925,0.72394,-0.215921,0.13598749999999998,0.5054799999999999,-0.11526,0.27680750000000004,0.7114199999999999,-0.184448,-0.3440225,0.95827,-0.279105,0.31388750000000004,0.91652,-0.22975600000000002,-0.0784375,-0.003589999999999982,-0.0008350000000000024,0.0784375,0.003589999999999982,0.0008350000000000024,-0.11734250000000002,-0.08551000000000003,-0.327735,0.16870749999999998,-0.07402000000000003,-0.314905,-0.08178750000000001,-0.39344,-0.164018,0.1082755,-0.39756,-0.18317
185,-0.0170725,0.70115,-0.101381,-0.1653185,0.49945000000000006,-0.128912,-0.28848850000000004,0.72053,-0.220694,0.1362815,0.50502,-0.120181,0.27746149999999997,0.70981,-0.18969,-0.3438585,0.95563,-0.2843,0.3147915,0.9160900000000001,-0.235724,-0.0782455,-0.0035199999999999676,-0.0011400000000000021,0.0782455,0.003520000000000023,0.0011400000000000021,-0.1163285,-0.07469999999999999,-0.33126,0.1674415,-0.06347999999999998,-0.31856,-0.08139750000000001,-0.38242,-0.167978,0.1060295,-0.38547,-0.182449
186,-0.016553000000000002,0.6998249999999999,-0.105956,-0.164728,0.498745,-0.133294,-0.287858,0.7176849999999999,-0.225464,0.13664199999999999,0.504255,-0.124803,0.278262,0.708125,-0.194715,-0.343588,0.950925,-0.28997,0.31569200000000003,0.915605,-0.241518,-0.07808200000000001,-0.003495000000000026,-0.0013100000000000056,0.07808200000000001,0.0034949999999999704,0.0013100000000000056,-0.115318,-0.06442500000000001,-0.33398,0.16633199999999998,-0.053615000000000024,-0.32141,-0.08094799999999999,-0.37200500000000003,-0.171515,0.10400400000000001,-0.3739950000000001,-0.181169
187,-0.015991,0.69938,-0.11093700000000001,-0.164046,0.49799,-0.13811,-0.287066,0.71656,-0.230432,0.137044,0.50331,-0.129746,0.27918400000000004,0.7078800000000001,-0.19992100000000002,-0.343286,0.94836,-0.29616,0.316674,0.9157,-0.24777,-0.077789,-0.0034399999999999986,-0.0014200000000000046,0.077789,0.0034399999999999986,0.0014200000000000046,-0.11438600000000002,-0.053259999999999974,-0.33666,0.165414,-0.04310000000000003,-0.32416,-0.08046899999999998,-0.36124999999999996,-0.175406,0.102273,-0.36167000000000005,-0.18035500000000002
188,-0.015292999999999998,0.69737,-0.115164,-0.16318899999999997,0.49641,-0.142171,-0.28596900000000003,0.71338,-0.234818,0.13761099999999998,0.5027200000000001,-0.133878,0.280381,0.70631,-0.204589,-0.342839,0.94472,-0.301765,0.317701,0.9156200000000001,-0.253408,-0.077615,-0.0034600000000000186,-0.0013849999999999973,0.077615,0.0034600000000000186,0.0013849999999999973,-0.11347900000000001,-0.04414000000000001,-0.338445,0.164821,-0.03445999999999999,-0.325675,-0.07983799999999999,-0.35239000000000004,-0.178543,0.101065,-0.35125,-0.17918
189,-0.0144355,0.6957,-0.11930399999999998,-0.16217350000000003,0.49546,-0.14576899999999998,-0.2847335,0.71082,-0.23910299999999998,0.1384165,0.50177,-0.13749599999999998,0.2817565,0.70496,-0.209217,-0.3421935,0.9425,-0.30718999999999996,0.3188865,0.91614,-0.258788,-0.0775005,-0.0034199999999999786,-0.001459999999999989,0.0775005,0.003420000000000034,0.0014600000000000168,-0.11258349999999999,-0.03493000000000002,-0.3398,0.16443649999999999,-0.02560000000000001,-0.32677,-0.0790635,-0.34341,-0.18143499999999999,0.1001855,-0.34075,-0.17815899999999998
190,-0.013877000000000004,0.6951700000000001,-0.12325299999999999,-0.16148700000000002,0.49441,-0.14907099999999998,-0.28380700000000003,0.7085,-0.243245,0.138983,0.5007699999999999,-0.14084,0.282713,0.70416,-0.213558,-0.341777,0.94143,-0.312515,0.319853,0.91793,-0.264053,-0.07771600000000001,-0.0033199999999999896,-0.001585000000000003,0.07771600000000001,0.0033199999999999896,0.001585000000000003,-0.112157,-0.02482000000000001,-0.34114500000000003,0.163933,-0.01606000000000002,-0.327725,-0.07866700000000001,-0.33363,-0.184143,0.09914400000000001,-0.32965,-0.17712
191,-0.013357,0.69417,-0.126774,-0.16087400000000002,0.49481,-0.15198699999999998,-0.28305400000000003,0.70638,-0.247039,0.13949599999999998,0.49994000000000005,-0.143618,0.283666,0.70291,-0.217213,-0.341414,0.94032,-0.3176,0.320836,0.91973,-0.26884399999999997,-0.077929,-0.0030599999999999516,-0.0017399999999999916,0.077929,0.003060000000000007,0.0017399999999999916,-0.11183400000000002,-0.015519999999999978,-0.34206000000000003,0.163526,-0.00712999999999997,-0.32819,-0.07831099999999999,-0.32426999999999995,-0.186794,0.098161,-0.31911999999999996,-0.175769
192,-0.012928499999999996,0.692875,-0.129776,-0.1602445,0.493745,-0.154393,-0.2825645,0.706095,-0.250203,0.1401155,0.498105,-0.145827,0.2846755,0.701265,-0.22022200000000003,-0.3410445,0.9393849999999999,-0.32179500000000005,0.32187550000000004,0.9213549999999999,-0.272951,-0.0782725,-0.002904999999999991,-0.0017550000000000066,0.0782725,0.002904999999999991,0.0017549999999999788,-0.1114945,-0.0070149999999999935,-0.342595,0.1632955,0.0009149999999999991,-0.32843500000000003,-0.07793149999999999,-0.315595,-0.18899700000000003,0.0985405,-0.309935,-0.17798400000000003
193,-0.012465999999999998,0.6927700000000001,-0.132186,-0.159583,0.49240000000000006,-0.156644,-0.282133,0.70747,-0.253031,0.14080700000000002,0.49544000000000005,-0.147877,0.285727,0.70235,-0.223035,-0.340563,0.93996,-0.325615,0.322927,0.92134,-0.276739,-0.078401,-0.00268999999999997,-0.0018249999999999933,0.078401,0.0026900000000000257,0.0018249999999999933,-0.111153,0.0015300000000000313,-0.342855,0.163137,0.009150000000000047,-0.32864499999999996,-0.077571,-0.30672,-0.190979,0.09892200000000001,-0.3006399999999999,-0.17999400000000002
194,-0.011974499999999999,0.69185,-0.13350799999999996,-0.15914650000000002,0.490226,-0.15768499999999996,-0.2817465,0.7072,-0.25531899999999996,0.1414435,0.493869,-0.14895499999999998,0.2866935,0.7005399999999999,-0.22483299999999998,-0.3400265,0.93849,-0.32844999999999996,0.32391349999999997,0.91972,-0.279234,-0.0785235,-0.0028699999999999837,-0.001789999999999986,0.0785235,0.0028699999999999837,0.0017900000000000138,-0.1109865,0.008390000000000009,-0.34234,0.16307349999999998,0.01583000000000001,-0.32844999999999996,-0.0774685,-0.29944000000000004,-0.19207,0.0992785,-0.29302000000000006,-0.181079
195,-0.011502000000000002,0.69058,-0.134301,-0.15875699999999998,0.489016,-0.158424,-0.28136700000000003,0.7071799999999999,-0.257472,0.142133,0.493909,-0.149632,0.287543,0.6992499999999999,-0.22625499999999998,-0.33953700000000003,0.94113,-0.33043,0.32487299999999997,0.9184599999999999,-0.281153,-0.07861399999999999,-0.003080000000000027,-0.0019500000000000073,0.07861399999999999,0.0030799999999999716,0.0019500000000000073,-0.111127,0.01580999999999999,-0.34172,0.16301300000000002,0.023260000000000003,-0.32794999999999996,-0.07750199999999999,-0.29136000000000006,-0.192819,0.09973299999999999,-0.2847700000000001,-0.182034
196,-0.010917500000000004,0.69054,-0.13451300000000002,-0.1582175,0.489406,-0.15863100000000002,-0.28095749999999997,0.7086600000000001,-0.258815,0.1429425,0.494333,-0.14974400000000002,0.28858249999999996,0.7002600000000001,-0.22704400000000002,-0.3389175,0.9418500000000001,-0.33187500000000003,0.3258225,0.91847,-0.28213900000000003,-0.0786215,-0.003029999999999977,-0.0021750000000000103,0.0786215,0.0030300000000000327,0.0021749999999999825,-0.1113375,0.025480000000000058,-0.340495,0.16313249999999999,0.032940000000000025,-0.326525,-0.0774865,-0.28113,-0.19290700000000002,0.10026349999999999,-0.27439,-0.18243900000000002
197,-0.010342500000000004,0.69079,-0.134583,-0.15743949999999998,0.490282,-0.158891,-0.28052950000000004,0.71113,-0.25982,0.1437705,0.494711,-0.14936100000000002,0.2894505,0.70126,-0.22734200000000002,-0.3383295,0.94291,-0.33297,0.3266305,0.9191,-0.282648,-0.0785435,-0.003049999999999997,-0.002260000000000012,0.0785435,0.0030500000000000527,0.0022599999999999842,-0.1117595,0.03509000000000001,-0.33916999999999997,0.1633205,0.042810000000000015,-0.32517,-0.07763850000000001,-0.27073,-0.19290500000000002,0.1007525,-0.26385000000000003,-0.182706
198,-0.0097905,0.6911700000000001,-0.134505,-0.1567275,0.490892,-0.159024,-0.2801775,0.7140500000000001,-0.260565,0.1445825,0.495381,-0.148851,0.29018249999999995,0.70234,-0.227332,-0.33768750000000003,0.9439,-0.33365,0.3272825,0.9201699999999999,-0.28264,-0.0784745,-0.0031200000000000117,-0.002260000000000012,0.0784745,0.0031200000000000117,0.0022599999999999842,-0.11234749999999999,0.044830000000000036,-0.33795,0.1636125,0.052570000000000006,-0.32369000000000003,-0.0778025,-0.26014999999999994,-0.193107,0.1011725,-0.25315000000000004,-0.182917
199,-0.0093775,0.691225,-0.13447099999999998,-0.15625450000000002,0.491515,-0.158989,-0.27992449999999997,0.715635,-0.261082,0.1452155,0.49590199999999995,-0.14821399999999998,0.2909155,0.7037549999999999,-0.22729099999999997,-0.3371745,0.944305,-0.33402999999999994,0.3277455,0.921105,-0.282605,-0.07846449999999999,-0.003165000000000029,-0.0022899999999999865,0.07846449999999999,0.0031649999999999734,0.0022900000000000142,-0.11316449999999999,0.05414499999999994,-0.33670999999999995,0.1638155,0.062124999999999986,-0.32214999999999994,-0.0782095,-0.250065,-0.19329999999999997,0.1014905,-0.24272500000000008,-0.18309499999999998
200,-0.009009000000000003,0.691055,-0.134247,-0.156034,0.491917,-0.158752,-0.279744,0.716885,-0.261217,0.14576599999999998,0.49678,-0.147361,0.291536,0.704955,-0.227044,-0.336684,0.9445749999999999,-0.333905,0.328066,0.921055,-0.282366,-0.078535,-0.003344999999999987,-0.0025149999999999895,0.078535,0.003344999999999987,0.0025150000000000172,-0.11411400000000001,0.06292500000000001,-0.335515,0.163906,0.07106499999999999,-0.320465,-0.0787,-0.24039500000000003,-0.19327,0.101738,-0.23283500000000001,-0.183083
201,-0.008686499999999996,0.6908150000000001,-0.133574,-0.15580349999999998,0.49325300000000005,-0.158313,-0.2797135,0.718365,-0.2613,0.1462765,0.49851500000000004,-0.14650000000000002,0.2921065,0.7057150000000001,-0.22651100000000002,-0.3360735,0.9440550000000001,-0.333545,0.3284865,0.9194550000000001,-0.28196,-0.0786445,-0.003554999999999975,-0.0028950000000000087,0.0786445,0.0035550000000000304,0.002894999999999981,-0.1151235,0.07169500000000006,-0.334145,0.16400650000000003,0.07994500000000004,-0.318605,-0.0791125,-0.23062499999999997,-0.19314800000000001,0.10201350000000001,-0.2229549999999999,-0.182894
202,-0.008500499999999998,0.690425,-0.133016,-0.1557735,0.49527099999999996,-0.15751199999999999,-0.27983349999999996,0.719835,-0.261175,0.1465865,0.500189,-0.145571,0.2925165,0.7073149999999999,-0.22575399999999998,-0.3355335,0.944255,-0.333115,0.3288265,0.920975,-0.281181,-0.0788645,-0.0034250000000000114,-0.0032149999999999956,0.0788645,0.003424999999999956,0.0032149999999999956,-0.1163035,0.08067499999999994,-0.33279499999999995,0.1640165,0.08902499999999997,-0.316305,-0.0795695,-0.22038500000000005,-0.192887,0.1021145,-0.21263500000000002,-0.182506
203,-0.008567000000000002,0.68987,-0.131724,-0.155805,0.49746799999999997,-0.156259,-0.27996499999999996,0.72197,-0.260644,0.14676499999999998,0.501836,-0.14431300000000002,0.29285500000000003,0.71022,-0.22465700000000002,-0.335055,0.94489,-0.33235000000000003,0.329085,0.92168,-0.279943,-0.07885500000000001,-0.0032200000000000006,-0.003610000000000002,0.07885500000000001,0.0032200000000000006,0.0036099999999999743,-0.117585,0.08988999999999997,-0.33107,0.164025,0.09827999999999998,-0.31363,-0.07983599999999999,-0.20998000000000006,-0.19209600000000002,0.10211200000000001,-0.20201999999999998,-0.181767
204,-0.008598000000000001,0.690675,-0.13025199999999998,-0.155947,0.498711,-0.15500999999999998,-0.27996699999999997,0.723895,-0.260355,0.146773,0.502436,-0.14306,0.293093,0.712575,-0.223484,-0.33463699999999996,0.943945,-0.33157,0.329253,0.922215,-0.278497,-0.07875499999999999,-0.0029050000000000464,-0.004049999999999998,0.07875499999999999,0.002904999999999991,0.004049999999999998,-0.11877700000000002,0.098335,-0.32924,0.16394299999999998,0.10656500000000002,-0.31071,-0.08011299999999999,-0.20047499999999996,-0.191181,0.10200400000000001,-0.19215499999999996,-0.180997
205,-0.008526500000000003,0.6899299999999999,-0.128823,-0.1556485,0.497793,-0.153812,-0.2795785,0.72402,-0.260024,0.1471215,0.502132,-0.141795,0.2935215,0.7117,-0.22223299999999999,-0.33411850000000004,0.94373,-0.33075,0.3296515,0.9203399999999999,-0.27697,-0.0785245,-0.0029799999999999827,-0.004479999999999984,0.0785245,0.0029799999999999827,0.004480000000000012,-0.11961849999999999,0.10382000000000002,-0.32779,0.1642615,0.11185,-0.30841999999999997,-0.0801045,-0.19406999999999996,-0.190217,0.1022255,-0.18528999999999995,-0.180137
206,-0.0084685,0.68848,-0.127669,-0.1554545,0.49713199999999996,-0.152718,-0.27944450000000004,0.72371,-0.25988900000000004,0.1472955,0.5013789999999999,-0.14077,0.2938955,0.71044,-0.221322,-0.3338145,0.9426699999999999,-0.33025499999999997,0.3298755,0.9175199999999999,-0.275754,-0.0781655,-0.0029400000000000537,-0.004755000000000009,0.0781655,0.0029399999999999427,0.004755000000000009,-0.12053449999999999,0.10833999999999994,-0.32660500000000003,0.1644155,0.11626999999999993,-0.306255,-0.08011549999999999,-0.18864000000000003,-0.1894,0.1023395,-0.17918,-0.179372
207,-0.008428499999999998,0.6873750000000001,-0.12612800000000002,-0.1554255,0.497165,-0.15116200000000002,-0.2792355,0.7236450000000001,-0.259351,0.1474145,0.501564,-0.139395,0.2941645,0.709945,-0.220024,-0.3334755,0.9414450000000001,-0.32943,0.3301245,0.914995,-0.27423600000000004,-0.0777965,-0.002595000000000014,-0.004860000000000003,0.0777965,0.002595000000000014,0.004860000000000003,-0.1215155,0.11335500000000004,-0.32484999999999997,0.16446449999999999,0.12141500000000005,-0.30378,-0.0801915,-0.182755,-0.188129,0.1023825,-0.17262499999999992,-0.178207
208,-0.008341999999999999,0.6864549999999999,-0.12463199999999999,-0.15543200000000001,0.4973249999999999,-0.149526,-0.278972,0.7248849999999999,-0.25876699999999997,0.147588,0.501991,-0.138046,0.294318,0.7092449999999999,-0.21875299999999998,-0.33306199999999997,0.9387749999999999,-0.32872999999999997,0.330428,0.912555,-0.27301,-0.07767299999999999,-0.0022850000000000925,-0.00494,0.07767299999999999,0.0022849999999999815,0.00494,-0.122422,0.11828499999999992,-0.32296,0.164618,0.1264849999999999,-0.30129,-0.080401,-0.1771250000000001,-0.186362,0.102436,-0.16623500000000002,-0.177028
209,-0.0083405,0.6850800000000001,-0.123186,-0.1555415,0.49761800000000006,-0.147975,-0.2785915,0.7261700000000001,-0.258192,0.14777849999999998,0.5021040000000001,-0.136793,0.2945185,0.70845,-0.21765600000000002,-0.3326615,0.93601,-0.328245,0.3306885,0.91029,-0.271911,-0.0775555,-0.0019299999999999873,-0.004934999999999995,0.0775555,0.0019300000000000983,0.004934999999999995,-0.12321149999999999,0.12282000000000004,-0.321135,0.16475849999999997,0.13113000000000008,-0.299005,-0.0805965,-0.1720799999999999,-0.184679,0.1023555,-0.16038999999999992,-0.17591400000000001
210,-0.008381,0.68417,-0.121786,-0.155719,0.49774799999999997,-0.14646,-0.278219,0.72734,-0.256949,0.14794100000000002,0.502107,-0.135598,0.294641,0.70855,-0.21663400000000002,-0.33237900000000004,0.9338599999999999,-0.327955,0.330771,0.9103699999999999,-0.270891,-0.07747000000000001,-0.0014199999999999768,-0.004875000000000018,0.07747000000000001,0.0014199999999999768,0.0048749999999999905,-0.12401899999999999,0.12763999999999998,-0.319135,0.164861,0.13615,-0.296585,-0.08065800000000001,-0.16666999999999998,-0.18305500000000002,0.10219900000000001,-0.15429000000000004,-0.17474900000000002
211,-0.008423,0.683095,-0.12046799999999999,-0.155899,0.497594,-0.145145,-0.277879,0.728505,-0.255845,0.147971,0.5023420000000001,-0.134384,0.29473099999999997,0.707935,-0.215617,-0.332129,0.931125,-0.3277,0.330831,0.909875,-0.269874,-0.077343,-0.0010449999999999626,-0.004830000000000001,0.077343,0.0010449999999999626,0.004830000000000001,-0.12479900000000001,0.13222499999999998,-0.31709,0.164901,0.14069500000000001,-0.29424,-0.080658,-0.16190499999999997,-0.181497,0.101964,-0.14887499999999998,-0.17351
212,-0.008471999999999997,0.682185,-0.11909400000000002,-0.155947,0.497763,-0.14396200000000003,-0.277597,0.729465,-0.25467,0.148013,0.502518,-0.133199,0.29485300000000003,0.707195,-0.21466600000000002,-0.331827,0.9285950000000001,-0.32755,0.33093300000000003,0.910455,-0.26902000000000004,-0.07719200000000001,-0.0006450000000000067,-0.0046800000000000175,0.07719200000000001,0.0006450000000000067,0.00467999999999999,-0.12551700000000002,0.13664500000000002,-0.31496,0.16497299999999998,0.14503500000000003,-0.29197,-0.08082500000000001,-0.15759499999999993,-0.17990200000000003,0.10172700000000001,-0.14388499999999993,-0.17222500000000002
213,-0.008470500000000002,0.6801950000000001,-0.117872,-0.1559625,0.49791500000000005,-0.142808,-0.2768925,0.725865,-0.253316,0.1480475,0.5025590000000001,-0.132058,0.2949975,0.706065,-0.213794,-0.3315125,0.926185,-0.32732,0.3310375,0.9106750000000001,-0.268482,-0.07704749999999999,-0.0002949999999999342,-0.004489999999999994,0.07704749999999999,0.0002950000000000452,0.004489999999999994,-0.1262525,0.14047500000000007,-0.31289,0.1649975,0.14883500000000005,-0.28985,-0.08103550000000001,-0.15386499999999992,-0.178009,0.1014815,-0.13948499999999997,-0.17094800000000002
214,-0.00843,0.6785,-0.116595,-0.15592299999999998,0.49841799999999997,-0.141715,-0.276183,0.72221,-0.252166,0.148217,0.503018,-0.13101200000000002,0.295127,0.70539,-0.213029,-0.331183,0.92423,-0.32708000000000004,0.331117,0.91154,-0.268027,-0.076904,0.00012000000000000899,-0.004360000000000003,0.076904,-0.00012000000000000899,0.004360000000000003,-0.12700299999999998,0.14421,-0.31095,0.165107,0.15252,-0.2879,-0.081226,-0.15022999999999997,-0.176149,0.101279,-0.13522,-0.16977
215,-0.008392999999999998,0.67774,-0.115259,-0.155848,0.49857299999999993,-0.140553,-0.27544799999999997,0.7188899999999999,-0.250942,0.148492,0.5042,-0.129858,0.295242,0.7047699999999999,-0.212139,-0.330908,0.92297,-0.32659,0.331212,0.91283,-0.267606,-0.07674,0.0005899999999999794,-0.0042300000000000115,0.07674,-0.0005900000000000905,0.0042300000000000115,-0.127718,0.14843999999999996,-0.30882,0.165262,0.15643999999999997,-0.28569,-0.081457,-0.14622000000000002,-0.173907,0.10105,-0.13067000000000006,-0.168472
216,-0.008280000000000003,0.6768000000000001,-0.11443599999999998,-0.155775,0.49798200000000004,-0.139783,-0.274445,0.71482,-0.24939499999999998,0.14877500000000002,0.504375,-0.12911899999999998,0.29535500000000003,0.70326,-0.21161399999999997,-0.330575,0.9218500000000001,-0.32642,0.331335,0.9132100000000001,-0.26777599999999996,-0.076641,0.0008299999999999974,-0.0041999999999999815,0.076641,-0.0008299999999999974,0.004200000000000009,-0.128435,0.15147000000000005,-0.30721999999999994,0.165465,0.15912000000000004,-0.2839,-0.081695,-0.14337,-0.17209699999999997,0.10081799999999999,-0.1274099999999999,-0.167591
217,-0.0081325,0.676075,-0.11375400000000001,-0.1555025,0.49716,-0.13920100000000002,-0.2733925,0.710865,-0.24797000000000002,0.14920750000000002,0.5043799999999999,-0.12858,0.2956275,0.702075,-0.21124,-0.3300825,0.9224950000000001,-0.326105,0.3316475,0.9136249999999999,-0.268129,-0.0764785,0.0010449999999999626,-0.004165000000000002,0.0764785,-0.0010449999999999626,0.004165000000000002,-0.12896249999999998,0.15408499999999997,-0.305805,0.1658175,0.16135499999999997,-0.28230500000000003,-0.0816855,-0.140745,-0.170973,0.1006955,-0.12458500000000006,-0.166805
218,-0.007720999999999999,0.6759899999999999,-0.11318500000000001,-0.155169,0.49645399999999995,-0.138664,-0.272389,0.70693,-0.246488,0.14972100000000002,0.5046829999999999,-0.128054,0.29594099999999995,0.701,-0.21093800000000001,-0.329529,0.92307,-0.325705,0.332001,0.91452,-0.26845600000000003,-0.076315,0.0012599999999999278,-0.004135,0.076315,-0.0012600000000000389,0.004135,-0.12944899999999998,0.1567599999999999,-0.304375,0.166221,0.16361999999999993,-0.28065,-0.08165900000000001,-0.13805000000000012,-0.169858,0.100689,-0.12152000000000007,-0.166101
219,-0.007321499999999995,0.6759649999999999,-0.112643,-0.1547715,0.49725499999999995,-0.138199,-0.2713615,0.703355,-0.245024,0.1502685,0.5046309999999999,-0.127585,0.2963185,0.699835,-0.210591,-0.3289015,0.9238449999999999,-0.325345,0.3324085,0.914885,-0.268711,-0.0761075,0.001534999999999953,-0.004085000000000005,0.0761075,-0.001535000000000064,0.004085000000000005,-0.1297415,0.1589649999999999,-0.303435,0.1667185,0.16542499999999993,-0.279262,-0.08148149999999998,-0.1358450000000001,-0.168733,0.10077550000000002,-0.11906500000000009,-0.165467
220,-0.0068065,0.67586,-0.112185,-0.1544165,0.49832200000000004,-0.13779,-0.2703965,0.69964,-0.243709,0.1508235,0.5047200000000001,-0.127172,0.29678350000000003,0.69908,-0.21032800000000001,-0.3282265,0.924,-0.32503000000000004,0.3329035,0.9147500000000001,-0.268916,-0.0759325,0.0017300000000000093,-0.004040000000000016,0.0759325,-0.0017300000000000093,0.004039999999999988,-0.12999650000000001,0.16032000000000002,-0.30289,0.1672535,0.16657000000000005,-0.278308,-0.0812065,-0.13442999999999994,-0.16779,0.10087750000000001,-0.11746000000000001,-0.164916
221,-0.0061849999999999995,0.67612,-0.111841,-0.153973,0.49888200000000005,-0.137451,-0.269343,0.69587,-0.24237799999999998,0.15143700000000002,0.5042880000000001,-0.12684499999999999,0.297347,0.6990200000000001,-0.210134,-0.32750300000000004,0.92395,-0.32476499999999997,0.333437,0.9144800000000001,-0.26906399999999997,-0.075744,0.001960000000000073,-0.004035000000000011,0.075744,-0.0019599999999999618,0.004035000000000011,-0.13025299999999998,0.16088000000000002,-0.302565,0.167827,0.16709000000000007,-0.277732,-0.080907,-0.13381999999999994,-0.167035,0.10100100000000001,-0.1167999999999999,-0.164425
222,-0.005374500000000001,0.67612,-0.11140699999999999,-0.1531895,0.49888200000000005,-0.137144,-0.2684095,0.69587,-0.24179499999999998,0.1522905,0.5042880000000001,-0.12641,0.2980405,0.6990200000000001,-0.209892,-0.3264895,0.92395,-0.32445,0.3341305,0.9142300000000001,-0.26909099999999997,-0.0757465,0.001960000000000073,-0.00408,0.0757465,-0.0019599999999999618,0.00408,-0.1304095,0.16089000000000003,-0.30215,0.16860050000000001,0.16709000000000007,-0.277298,-0.0803745,-0.13376,-0.166607,0.1013135,-0.11682999999999999,-0.163933
223,-0.004389499999999998,0.67612,-0.11134200000000001,-0.1522945,0.49888200000000005,-0.13714900000000002,-0.2673045,0.69587,-0.24152,0.1533155,0.5042880000000001,-0.126372,0.29894550000000003,0.6990200000000001,-0.210014,-0.3253845,0.92395,-0.32443,0.3348855,0.9142300000000001,-0.269388,-0.0757205,0.001960000000000073,-0.004180000000000017,0.0757205,-0.0019599999999999618,0.004179999999999989,-0.1304145,0.16100000000000003,-0.30205000000000004,0.16943550000000002,0.16709000000000007,-0.27717,-0.0798255,-0.13376,-0.16636,0.10172650000000001,-0.11695999999999995,-0.163808
224,-0.0034819999999999955,0.67612,-0.11153000000000002,-0.151595,0.49965100000000007,-0.137329,-0.26622500000000004,0.69587,-0.24149900000000002,0.154005,0.5042880000000001,-0.12646500000000002,0.299695,0.6990200000000001,-0.210458,-0.324415,0.92395,-0.32461,0.335425,0.9142300000000001,-0.269658,-0.075863,0.001960000000000073,-0.004180000000000017,0.075863,-0.0019599999999999618,0.004179999999999989,-0.130685,0.16123000000000004,-0.3023,0.17003500000000002,0.16709000000000007,-0.277161,-0.07949099999999999,-0.13376,-0.166357,0.10193600000000001,-0.11710999999999994,-0.163808
225,-0.002298999999999999,0.67721,-0.11171800000000001,-0.15079199999999998,0.500479,-0.137529,-0.264992,0.69603,-0.24152400000000002,0.154818,0.5039980000000001,-0.126639,0.30058799999999997,0.69912,-0.21088600000000002,-0.32336200000000004,0.92744,-0.324955,0.336128,0.9138,-0.269752,-0.075943,0.0020099999999999563,-0.004184999999999994,0.075943,-0.0020099999999999563,0.004184999999999994,-0.13081199999999998,0.16108,-0.302835,0.170728,0.16674,-0.27732,-0.079178,-0.13422,-0.166352,0.102249,-0.11765000000000003,-0.163803
226,-0.001008499999999999,0.6788050000000001,-0.11203600000000001,-0.1499685,0.50094,-0.13776500000000003,-0.2637485,0.696215,-0.241572,0.15570150000000002,0.5037990000000001,-0.126901,0.3015315,0.6995750000000001,-0.21130200000000002,-0.3221885,0.930625,-0.32544,0.33691150000000003,0.913065,-0.26987300000000003,-0.07609350000000001,0.0020250000000000545,-0.004200000000000009,0.07609350000000001,-0.0020249999999999435,0.0041999999999999815,-0.1309285,0.16015500000000005,-0.30354000000000003,0.17143150000000001,0.16560500000000006,-0.277619,-0.0788635,-0.13551499999999994,-0.16636800000000002,0.1025625,-0.11909499999999995,-0.163808
227,0.0004415000000000044,0.6795100000000001,-0.113122,-0.14880549999999998,0.500915,-0.138781,-0.2624855,0.69972,-0.242913,0.15676450000000003,0.5029910000000001,-0.127876,0.3029745,0.70043,-0.21254,-0.32081550000000003,0.9325100000000001,-0.32655999999999996,0.3380645,0.9115200000000001,-0.27094,-0.0762945,0.0017300000000000093,-0.004239999999999994,0.0762945,-0.0017300000000000093,0.004239999999999994,-0.13074550000000001,0.15657000000000004,-0.30512,0.17196450000000002,0.16189000000000003,-0.27935699999999997,-0.0783205,-0.13945999999999992,-0.167323,0.1029115,-0.12309999999999999,-0.16452
228,0.0017029999999999997,0.6814150000000001,-0.114557,-0.147724,0.5019520000000001,-0.140202,-0.261644,0.702675,-0.24468,0.157556,0.5023500000000001,-0.129269,0.304156,0.7019050000000001,-0.214115,-0.319654,0.9354850000000001,-0.327945,0.339446,0.9140750000000001,-0.272186,-0.076292,0.001535000000000064,-0.0043350000000000055,0.076292,-0.001534999999999953,0.0043350000000000055,-0.130964,0.1518150000000001,-0.307485,0.172246,0.15708500000000009,-0.28185499999999997,-0.07811900000000001,-0.1446949999999999,-0.168502,0.102974,-0.1284249999999999,-0.165601
229,0.0029460000000000007,0.683415,-0.11627700000000002,-0.146368,0.502746,-0.141932,-0.260598,0.705515,-0.246915,0.158362,0.501682,-0.131064,0.305342,0.702975,-0.21596,-0.318368,0.938245,-0.32972,0.340872,0.914925,-0.273679,-0.076295,0.0015249999999999986,-0.004200000000000009,0.076295,-0.0015249999999999986,0.0041999999999999815,-0.130908,0.14470499999999997,-0.30964,0.172322,0.15009499999999998,-0.28527,-0.07798000000000001,-0.15219499999999997,-0.17000400000000002,0.10306499999999999,-0.13624500000000006,-0.16704000000000002
230,0.004195000000000001,0.6864250000000001,-0.11859199999999999,-0.144935,0.503336,-0.144256,-0.259515,0.709905,-0.24972099999999997,0.159125,0.500005,-0.13347299999999998,0.306495,0.704855,-0.218466,-0.316905,0.945155,-0.33251,0.342305,0.916685,-0.275949,-0.076319,0.001655000000000073,-0.0038799999999999946,0.076319,-0.001654999999999962,0.0038800000000000223,-0.13084500000000002,0.13636500000000007,-0.31291,0.172405,0.14195500000000005,-0.28932,-0.077831,-0.16086499999999992,-0.172152,0.103157,-0.1453549999999999,-0.16904599999999997
231,0.0047455,0.68766,-0.121046,-0.1440555,0.503129,-0.146875,-0.25916550000000005,0.71224,-0.253129,0.1590945,0.500031,-0.13616,0.30680450000000004,0.70475,-0.221228,-0.31631549999999997,0.94841,-0.33552000000000004,0.34315450000000003,0.91634,-0.27844,-0.0765665,0.0010499999999999954,-0.003700000000000009,0.0765665,-0.0010499999999999954,0.003699999999999981,-0.1316355,0.12350000000000005,-0.31621,0.1717845,0.12940000000000007,-0.29428,-0.0784015,-0.17394999999999994,-0.17451,0.1025455,-0.15889999999999993,-0.171267
232,0.0046925000000000005,0.6882,-0.12303500000000002,-0.1437135,0.5004890000000001,-0.14920900000000004,-0.2594035,0.71348,-0.255745,0.1585065,0.49759600000000004,-0.13843900000000003,0.3063665,0.70342,-0.22344800000000004,-0.3161835,0.95028,-0.33831500000000003,0.3436665,0.91455,-0.28064300000000003,-0.07681650000000001,0.0006400000000000849,-0.0034550000000000136,0.07681650000000001,-0.0006399999999999739,0.003454999999999986,-0.13280350000000002,0.10774000000000006,-0.31918500000000005,0.17045649999999998,0.11397000000000002,-0.29930500000000004,-0.07948050000000001,-0.18967999999999996,-0.17648900000000003,0.10144349999999999,-0.17523999999999995,-0.17318700000000004
233,0.004515499999999997,0.689815,-0.12450599999999999,-0.1434225,0.49796999999999997,-0.15136899999999998,-0.25978249999999997,0.716225,-0.258635,0.1579175,0.497673,-0.14067,0.3058575,0.702585,-0.224997,-0.31600249999999996,0.952655,-0.340645,0.3440575,0.917535,-0.282707,-0.0768855,0.00011499999999997623,-0.003244999999999998,0.0768855,-0.00011500000000003174,0.003244999999999998,-0.13394250000000002,0.09163499999999997,-0.321855,0.1690475,0.09849499999999994,-0.303965,-0.0806275,-0.20599500000000004,-0.17821599999999999,0.1003505,-0.19233500000000003,-0.174977
234,0.004561999999999997,0.690625,-0.126081,-0.142616,0.496996,-0.15372399999999997,-0.259916,0.717935,-0.26140399999999997,0.15773399999999999,0.497081,-0.143062,0.305784,0.700975,-0.22655999999999998,-0.315376,0.951385,-0.342925,0.34467400000000004,0.918345,-0.284612,-0.076797,-0.00020500000000001073,-0.003134999999999999,0.076797,0.00020500000000001073,0.0031350000000000267,-0.134446,0.07322499999999998,-0.324995,0.167964,0.08041500000000001,-0.308795,-0.08137100000000001,-0.22480500000000003,-0.180111,0.09966299999999999,-0.21193499999999998,-0.176887
235,0.004732999999999998,0.691815,-0.127322,-0.141602,0.49658099999999994,-0.155917,-0.259732,0.719185,-0.263812,0.157518,0.49644299999999997,-0.145059,0.30585799999999996,0.699935,-0.227804,-0.31475200000000003,0.952645,-0.34453500000000004,0.345378,0.919365,-0.285916,-0.077008,-0.0004050000000000442,-0.002794999999999992,0.077008,0.0004049999999999887,0.002794999999999992,-0.134682,0.054424999999999946,-0.327145,0.166988,0.06198499999999996,-0.31288499999999997,-0.08195,-0.24449500000000002,-0.181662,0.09915099999999999,-0.232205,-0.178406
236,0.004288,0.695595,-0.127743,-0.141177,0.499133,-0.15713899999999997,-0.259847,0.721295,-0.26456799999999997,0.15673299999999998,0.495757,-0.14609,0.30502300000000004,0.701505,-0.22816899999999998,-0.314847,0.954575,-0.34497,0.345233,0.923095,-0.28633,-0.077304,-0.00011499999999997623,-0.0025399999999999867,0.077304,0.00011499999999997623,0.0025400000000000145,-0.13525700000000002,0.03736499999999998,-0.32811999999999997,0.16544299999999998,0.04535499999999998,-0.31545999999999996,-0.082998,-0.26316500000000004,-0.182413,0.098166,-0.25174499999999994,-0.179084
237,0.004125500000000002,0.697465,-0.12784500000000001,-0.14065249999999999,0.497571,-0.15780200000000003,-0.2598725,0.721765,-0.264805,0.1561475,0.497621,-0.14646800000000001,0.3045675,0.700875,-0.22826100000000002,-0.3147225,0.954785,-0.345065,0.34484750000000003,0.921475,-0.28643700000000005,-0.0777665,-0.0006050000000000222,-0.0024550000000000127,0.0777665,0.0006050000000000222,0.002454999999999985,-0.1353525,0.01847500000000002,-0.328525,0.16396750000000002,0.02674500000000002,-0.317175,-0.08375049999999999,-0.28402499999999997,-0.18286000000000002,0.09751750000000001,-0.273505,-0.179297
238,0.003904999999999997,0.69821,-0.12743899999999997,-0.140382,0.49653,-0.15811699999999998,-0.260422,0.7205900000000001,-0.26481699999999997,0.155388,0.49652,-0.14648599999999998,0.303908,0.6995899999999999,-0.22818899999999998,-0.314872,0.95197,-0.345005,0.344198,0.91974,-0.286452,-0.07822699999999999,-0.0005399999999999849,-0.002464999999999995,0.07822699999999999,0.0005399999999999849,0.0024650000000000227,-0.135412,-0.0013600000000000279,-0.328515,0.162128,0.006670000000000009,-0.318015,-0.084838,-0.30659,-0.18464399999999997,0.096698,-0.29663,-0.17935299999999998
239,0.004019000000000002,0.698325,-0.126825,-0.140305,0.49538499999999996,-0.158134,-0.260365,0.7190449999999999,-0.264721,0.155035,0.496885,-0.146399,0.303475,0.698135,-0.22794599999999998,-0.314965,0.951055,-0.34489499999999995,0.34391499999999997,0.9180349999999999,-0.285756,-0.07866200000000001,-0.0011050000000000226,-0.0023849999999999982,0.07866200000000001,0.0011050000000000226,0.0023849999999999982,-0.135355,-0.021955000000000002,-0.32842499999999997,0.160105,-0.014095000000000024,-0.318465,-0.08585399999999999,-0.33032500000000004,-0.18625599999999998,0.09679499999999999,-0.320915,-0.181917
240,0.004464500000000003,0.7000500000000001,-0.12589399999999998,-0.14012249999999998,0.49414,-0.15808299999999997,-0.2599125,0.71932,-0.264664,0.1550975,0.49567000000000005,-0.14635199999999998,0.3034175,0.69817,-0.22749499999999998,-0.3146625,0.95164,-0.34484499999999996,0.3438075,0.9184,-0.28470799999999996,-0.0789095,-0.0006899999999999684,-0.002344999999999986,0.0789095,0.0006900000000000239,0.0023450000000000137,-0.13495249999999998,-0.03976999999999997,-0.327885,0.15833750000000002,-0.03199999999999997,-0.318465,-0.08647749999999998,-0.35141,-0.187904,0.0975425,-0.34317,-0.18496999999999997
241,0.005050000000000006,0.702725,-0.12427,-0.139512,0.49558499999999994,-0.157428,-0.259412,0.720555,-0.263499,0.15532800000000002,0.49699499999999996,-0.145642,0.303468,0.699975,-0.226387,-0.314442,0.9528949999999999,-0.343845,0.343748,0.9193749999999999,-0.282835,-0.078936,-0.0005750000000000477,-0.0022350000000000148,0.078936,0.0005749999999999922,0.002234999999999987,-0.134232,-0.05607500000000004,-0.32637499999999997,0.156888,-0.04861500000000002,-0.317855,-0.086892,-0.371305,-0.188981,0.098527,-0.364375,-0.187642
242,0.0054575000000000005,0.704215,-0.12162200000000001,-0.13887249999999998,0.497405,-0.155749,-0.25906250000000003,0.7192749999999999,-0.261104,0.1556075,0.497115,-0.143792,0.3035675,0.699905,-0.223999,-0.3143425,0.952545,-0.341285,0.3437575,0.916655,-0.280138,-0.07884450000000001,-0.0003450000000000397,-0.002265000000000017,0.07884450000000001,0.0003449999999999842,0.0022649999999999892,-0.1336125,-0.07317500000000005,-0.323905,0.1552875,-0.06665500000000002,-0.31623500000000004,-0.0875525,-0.39202500000000007,-0.189474,0.09946350000000001,-0.3863150000000001,-0.18943400000000002
243,0.0063745,0.70594,-0.118461,-0.13793850000000002,0.49761,-0.15343099999999998,-0.25827849999999997,0.7201299999999999,-0.257726,0.1564915,0.49758,-0.141432,0.3040215,0.70165,-0.221089,-0.31399849999999996,0.95523,-0.33793,0.3441515,0.9171199999999999,-0.276562,-0.0789965,-9.00000000000345e-05,-0.0022099999999999898,0.0789965,8.999999999997899e-05,0.0022099999999999898,-0.1324185,-0.08871000000000001,-0.32028,0.1540715,-0.08255000000000001,-0.31301999999999996,-0.0877185,-0.41112000000000004,-0.189527,0.10094049999999999,-0.40637,-0.190268
244,0.0077870000000000005,0.708065,-0.11543400000000001,-0.13649299999999998,0.497545,-0.151083,-0.257053,0.7209650000000001,-0.254251,0.15786699999999998,0.49757500000000005,-0.13897700000000002,0.305087,0.7031050000000001,-0.218159,-0.313143,0.9562050000000001,-0.33423,0.345007,0.917455,-0.272576,-0.07914,0.00015500000000001624,-0.0022000000000000075,0.07914,-0.00015499999999996072,0.0022000000000000075,-0.13071300000000002,-0.10354499999999994,-0.31737000000000004,0.15330700000000003,-0.09794499999999995,-0.31018999999999997,-0.087503,-0.429295,-0.18992900000000001,0.10312,-0.425735,-0.191581
245,0.009217,0.70985,-0.11223299999999999,-0.135164,0.4955,-0.148363,-0.256164,0.71713,-0.250972,0.15926600000000002,0.49803,-0.136285,0.306136,0.70372,-0.215175,-0.312274,0.95773,-0.32994,0.345766,0.9189799999999999,-0.26805599999999996,-0.079451,9.999999999998899e-05,-0.0021599999999999953,0.079451,-9.999999999998899e-05,0.0021599999999999953,-0.129054,-0.11846000000000001,-0.31362,0.152506,-0.11387999999999998,-0.30645,-0.087364,-0.44704000000000005,-0.190161,0.105328,-0.44497000000000003,-0.19293
246,0.0105875,0.710635,-0.10865000000000001,-0.13396650000000002,0.498195,-0.14511400000000002,-0.2553965,0.717255,-0.24730000000000002,0.1602535,0.497995,-0.133303,0.3073135,0.7032750000000001,-0.211936,-0.3115865,0.957555,-0.32539,0.3464235,0.9183250000000001,-0.263341,-0.0795855,0.0007650000000000157,-0.0020799999999999985,0.0795855,-0.0007649999999999879,0.0020799999999999985,-0.1273165,-0.13383499999999998,-0.30745,0.1511435,-0.13053499999999996,-0.30019,-0.0874965,-0.46513499999999997,-0.19071300000000002,0.1076645,-0.46469499999999997,-0.193918
247,0.0116345,0.7129049999999999,-0.10501600000000001,-0.1329805,0.5003949999999999,-0.141849,-0.2550205,0.7189749999999999,-0.243461,0.16121950000000002,0.5003150000000001,-0.13042700000000002,0.3083395,0.7051749999999999,-0.208513,-0.3111105,0.9597549999999999,-0.320715,0.3468795,0.9203650000000001,-0.25857,-0.0795225,0.0007049999999999834,-0.0019750000000000045,0.0795225,-0.0007050000000000112,0.0019749999999999768,-0.12597049999999999,-0.14610499999999998,-0.301385,0.14983950000000001,-0.144185,-0.293925,-0.0876605,-0.47973499999999997,-0.189809,0.1098585,-0.481405,-0.19464800000000002
248,0.012370500000000003,0.71509,-0.10094500000000001,-0.1326455,0.50285,-0.13795400000000002,-0.2545655,0.72099,-0.23917300000000002,0.1620045,0.50302,-0.126836,0.3090845,0.70627,-0.20472400000000002,-0.3111655,0.96184,-0.315855,0.3471145,0.9222,-0.25368,-0.0793235,0.0011299999999999921,-0.0018249999999999933,0.0793235,-0.0011300000000000199,0.0018249999999999933,-0.12483549999999999,-0.15748,-0.294955,0.1486345,-0.15759,-0.286705,-0.0882955,-0.49327,-0.188496,0.1112655,-0.49750000000000005,-0.192229
249,0.012829,0.717945,-0.09688300000000001,-0.132639,0.505765,-0.134052,-0.254509,0.722375,-0.234867,0.162791,0.505895,-0.12309400000000001,0.309521,0.7087049999999999,-0.201219,-0.311569,0.964515,-0.31125,0.347091,0.924215,-0.248878,-0.079241,0.0012750000000000261,-0.0016599999999999948,0.079241,-0.0012749999999999984,0.0016599999999999948,-0.12406900000000001,-0.16835499999999998,-0.28806,0.147111,-0.17061499999999996,-0.27878000000000003,-0.089359,-0.5063850000000001,-0.187192,0.1122,-0.512545,-0.18928
250,0.013366000000000003,0.7212850000000001,-0.09293100000000001,-0.132993,0.507915,-0.130524,-0.25434300000000004,0.724305,-0.23095100000000002,0.163777,0.509645,-0.11944400000000001,0.310007,0.710495,-0.197715,-0.311873,0.9675050000000001,-0.306855,0.34707699999999997,0.927005,-0.24439100000000002,-0.079065,0.001475000000000004,-0.0014949999999999963,0.079065,-0.0014749999999999763,0.0014949999999999963,-0.123283,-0.178475,-0.281045,0.145727,-0.18272499999999997,-0.270555,-0.090483,-0.5188349999999999,-0.185009,0.11321,-0.526405,-0.185763
251,0.014365000000000003,0.7245649999999999,-0.08967900000000002,-0.13279600000000003,0.511825,-0.12732200000000002,-0.253436,0.727425,-0.22743300000000002,0.16510400000000003,0.5125649999999999,-0.11621500000000001,0.310784,0.713285,-0.19449900000000003,-0.311186,0.9707349999999999,-0.303415,0.347524,0.928315,-0.24077800000000002,-0.078766,0.0017149999999999943,-0.0012650000000000161,0.078766,-0.0017150000000000082,0.0012649999999999884,-0.12180599999999998,-0.188145,-0.273515,0.14468399999999998,-0.194245,-0.261876,-0.090686,-0.530605,-0.181817,0.114663,-0.539865,-0.18253100000000003
252,0.015090999999999997,0.7278979999999999,-0.08660800000000002,-0.132834,0.515008,-0.12426900000000002,-0.252614,0.729448,-0.22392700000000001,0.16649599999999998,0.517118,-0.113127,0.311276,0.716348,-0.19160500000000003,-0.31079399999999996,0.970488,-0.300345,0.347716,0.932068,-0.23772000000000001,-0.07857600000000001,0.0018520000000000064,-0.0010550000000000004,0.07857600000000001,-0.0018519999999999925,0.0010550000000000004,-0.120454,-0.197172,-0.265895,0.143236,-0.20525200000000002,-0.252869,-0.091114,-0.541702,-0.17877300000000002,0.11587900000000001,-0.5526920000000001,-0.17894100000000002
253,0.015434499999999997,0.7292814999999999,-0.083532,-0.13308150000000002,0.5207315,-0.121208,-0.2520915,0.7311515,-0.220416,0.1675485,0.5214215,-0.110195,0.31128849999999997,0.7187015,-0.188659,-0.3108515,0.9681415,-0.29728,0.3475785,0.9347915,-0.234656,-0.0785605,0.0019985000000000003,-0.0007199999999999984,0.0785605,-0.0019985000000000003,0.0007199999999999984,-0.1191315,-0.20704849999999997,-0.256724,0.1411985,-0.21687849999999997,-0.242677,-0.09153150000000002,-0.5538785,-0.175716,0.11662249999999999,-0.5659985000000001,-0.175321
254,0.015788499999999997,0.730755,-0.079496,-0.1328405,0.524915,-0.117407,-0.25164050000000004,0.732465,-0.21626299999999998,0.1684195,0.525755,-0.106772,0.3112695,0.718315,-0.185045,-0.3110005,0.969225,-0.29322499999999996,0.34727949999999996,0.932835,-0.230604,-0.0785155,0.002230999999999997,-0.00044500000000000095,0.0785155,-0.002230999999999997,0.00044500000000000095,-0.1169805,-0.21947499999999998,-0.24380000000000002,0.1385595,-0.229945,-0.229786,-0.0917005,-0.568205,-0.17079,0.11709149999999999,-0.580715,-0.170777
255,0.015947999999999997,0.7351665,-0.075813,-0.132967,0.5273665,-0.114014,-0.251647,0.7321865,-0.21241300000000002,0.16930299999999998,0.5272965,-0.10347700000000001,0.311083,0.7215965,-0.181846,-0.311167,0.9725165,-0.28941,0.346923,0.9342765,-0.227085,-0.07841899999999999,0.002299499999999996,-0.00014000000000000123,0.07841899999999999,-0.002299500000000003,0.00014000000000000123,-0.11494700000000002,-0.2323435,-0.23164600000000002,0.136483,-0.24246350000000003,-0.21852500000000002,-0.09192700000000001,-0.5827135,-0.16567,0.116863,-0.5944835,-0.16561
256,0.016008,0.7390715,-0.07225300000000001,-0.133433,0.5298815,-0.11059300000000001,-0.251863,0.7317115,-0.208686,0.170117,0.5294015,-0.10020900000000002,0.310867,0.7240015,-0.178987,-0.311133,0.9762215,-0.28576500000000005,0.346617,0.9346415,-0.22374500000000003,-0.07836699999999999,0.002177499999999999,8.500000000000174e-05,0.07836699999999999,-0.002177499999999999,-8.500000000000174e-05,-0.112593,-0.2459285,-0.21850000000000003,0.13411700000000001,-0.25511849999999997,-0.20716700000000002,-0.092223,-0.5970785,-0.15982200000000002,0.11656,-0.6084685,-0.15937300000000001
257,0.015599999999999998,0.740818,-0.06369400000000001,-0.134403,0.5341180000000001,-0.10239900000000002,-0.252633,0.730998,-0.20000800000000002,0.170517,0.532648,-0.09223400000000001,0.310257,0.7249779999999999,-0.17091,-0.311623,0.971538,-0.27749999999999997,0.345797,0.932598,-0.215476,-0.07845099999999999,0.0020520000000000017,0.0004200000000000037,0.07845099999999999,-0.0020519999999999983,-0.0004200000000000037,-0.11030299999999998,-0.260712,-0.198268,0.131097,-0.268832,-0.188587,-0.092783,-0.6118619999999999,-0.146702,0.11557799999999999,-0.6232519999999999,-0.146381
258,0.014462,0.7386484999999999,-0.053380999999999984,-0.135872,0.5346385,-0.09261199999999999,-0.25347200000000003,0.7285885,-0.190116,0.170168,0.5319984999999999,-0.08271099999999998,0.308928,0.7217684999999999,-0.16166999999999998,-0.312392,0.9642784999999999,-0.26739,0.344238,0.9278185,-0.206199,-0.07797499999999999,0.0023485,0.0006099999999999994,0.07797499999999999,-0.0023485000000000003,-0.0006099999999999856,-0.10770199999999999,-0.2779715,-0.17488299999999998,0.125858,-0.2858615,-0.16566799999999998,-0.093582,-0.6293615,-0.13089099999999998,0.11383099999999999,-0.6405115,-0.130384
259,0.013289500000000001,0.736343,-0.043837,-0.1374355,0.535743,-0.083026,-0.2543655,0.726293,-0.18065900000000001,0.1697245,0.530533,-0.07342100000000001,0.30756449999999996,0.718753,-0.152735,-0.31311550000000005,0.957533,-0.25754,0.3425745,0.923553,-0.197302,-0.0775575,0.002662000000000001,0.0006899999999999962,0.0775575,-0.0026619999999999994,-0.00069000000000001,-0.10509550000000001,-0.293987,-0.152002,0.1206245,-0.301727,-0.143418,-0.0940755,-0.646227,-0.11425600000000001,0.11168349999999999,-0.656527,-0.113801
260,0.012091000000000001,0.733997,-0.03439699999999998,-0.139154,0.534547,-0.073484,-0.25507399999999997,0.7243470000000001,-0.17114799999999997,0.16921599999999998,0.529467,-0.06416599999999999,0.306216,0.715947,-0.143814,-0.313594,0.951507,-0.24784499999999998,0.340876,0.920317,-0.18863399999999997,-0.07712,0.0028150000000000015,0.0007150000000000073,0.07712,-0.0028150000000000015,-0.0007149999999999934,-0.102574,-0.30879300000000004,-0.12955299999999997,0.115396,-0.31600300000000003,-0.12164499999999999,-0.094304,-0.662503,-0.09718699999999998,0.109395,-0.670933,-0.09710599999999998
261,0.010793,0.7322955,-0.0247015,-0.14075500000000002,0.5346855,-0.0635405,-0.25605500000000003,0.7232855,-0.16132249999999998,0.168055,0.5273055,-0.0546435,0.30455499999999996,0.7125455,-0.1342765,-0.314135,0.9461455,-0.2374025,0.33902499999999997,0.9142755,-0.17970350000000002,-0.076861,0.002968499999999999,0.0007584999999999953,0.076861,-0.002968499999999999,-0.0007584999999999953,-0.099865,-0.32332449999999996,-0.1056475,0.109978,-0.3291345,-0.0991275,-0.094465,-0.6784344999999999,-0.0796435,0.106868,-0.6847745,-0.0798075
262,0.009536499999999998,0.73146,-0.014980500000000008,-0.14232850000000002,0.5326299999999999,-0.05351650000000001,-0.2571985,0.7228699999999999,-0.1515575,0.16684149999999998,0.52625,-0.04501350000000001,0.30287149999999996,0.7094999999999999,-0.12469250000000001,-0.3144985,0.94222,-0.2268455,0.3371415,0.9098999999999999,-0.17069850000000003,-0.0766145,0.0030060000000000017,0.0007014999999999938,0.0766145,-0.0030060000000000017,-0.0007015000000000077,-0.0973785,-0.33642,-0.08285450000000001,0.1049015,-0.34082999999999997,-0.0772705,-0.0944585,-0.69269,-0.0625175,0.1043315,-0.6974400000000001,-0.06302550000000001
