sb224sc-HT22-VT27/4dt907/src/data/kinect_good_preprocessed_A9_mediapipe/B8_kinect_mirrored.csv
FrameNo,nose_3d_x,nose_3d_y,nose_3d_z,left_shoulder_3d_x,left_shoulder_3d_y,left_shoulder_3d_z,left_elbow_3d_x,left_elbow_3d_y,left_elbow_3d_z,right_shoulder_3d_x,right_shoulder_3d_y,right_shoulder_3d_z,right_elbow_3d_x,right_elbow_3d_y,right_elbow_3d_z,left_wrist_3d_x,left_wrist_3d_y,left_wrist_3d_z,right_wrist_3d_x,right_wrist_3d_y,right_wrist_3d_z,left_hip_3d_x,left_hip_3d_y,left_hip_3d_z,right_hip_3d_x,right_hip_3d_y,right_hip_3d_z,left_knee_3d_x,left_knee_3d_y,left_knee_3d_z,right_knee_3d_x,right_knee_3d_y,right_knee_3d_z,left_ankle_3d_x,left_ankle_3d_y,left_ankle_3d_z,right_ankle_3d_x,right_ankle_3d_y,right_ankle_3d_z
108,1.0086485,0.7135555,0.015141,0.8442375,0.5191755,-0.0006969999999999,0.7289574999999999,0.7128555,-0.069932,1.1578475,0.5311455,-0.0056589999999999,1.2606374999999999,0.7293755,-0.084102,0.7041775,0.9208455,-0.104321,1.3047175,0.9595955,-0.119831,0.9226395000000001,0.0006475,-0.005263,1.0773605,-0.0006475,0.005263,0.8958975000000001,-0.3487645,-0.036216,1.1026935,-0.3603845,-0.055506,0.9058145,-0.7152445,0.014802,1.1046974999999999,-0.7263845,0.014985
109,1.0097269999999998,0.7116410000000001,0.012008,0.845942,0.518181,-0.00365,0.7304920000000001,0.713021,-0.074576,1.158222,0.5289710000000001,-0.007804,1.260832,0.727761,-0.08753,0.7073320000000001,0.920781,-0.109356,1.304732,0.957731,-0.124876,0.922153,0.0006119999999999,-0.005014,1.077847,-0.000612,0.005014,0.894292,-0.344729,-0.047273,1.104502,-0.355449,-0.065616,0.906878,-0.709469,0.008346,1.105792,-0.720499,0.0080509999999999
110,1.010762,0.7094195000000001,0.0092909999999999,0.847444,0.5173795,-0.006323,0.731894,0.7124195,-0.078599,1.158644,0.5275695,-0.009861,1.260954,0.7262295000000001,-0.090658,0.710484,0.9190295,-0.11416,1.304774,0.9562995,-0.12946,0.921704,0.0006405,-0.00481,1.078296,-0.0006404999999999,0.00481,0.8925540000000001,-0.3406205,-0.057924,1.106184,-0.3503005,-0.075374,0.9079000000000002,-0.7031805,0.00219,1.106864,-0.7138605,0.00152
111,1.01188,0.7072385,0.0067489999999999,0.8491569999999999,0.5156584999999999,-0.008762,0.733427,0.7128585,-0.082615,1.1591969999999998,0.5252285,-0.011688,1.261287,0.7249985,-0.0938539999999999,0.713787,0.9167985,-0.1189689999999999,1.3049469999999999,0.9566685,-0.133919,0.9212180000000001,0.0007404999999999,-0.004693,1.078782,-0.0007405,0.0046929999999999,0.890997,-0.3347914999999999,-0.068398,1.1080269999999999,-0.3439915,-0.0853289999999999,0.9090590000000001,-0.6951715,-0.003988,1.108047,-0.7052615000000001,-0.004817
112,1.012986,0.7054295,0.00439,0.8505860000000001,0.5137995,-0.0111689999999999,0.734856,0.7125695,-0.086205,1.159756,0.5237495,-0.013339,1.261636,0.7244794999999999,-0.096813,0.716656,0.9164395,-0.123332,1.305236,0.9582695,-0.138012,0.9207730000000001,0.0007924999999999,-0.0044969999999999,1.079227,-0.0007924999999999,0.004497,0.8893759999999999,-0.3286505,-0.078615,1.109766,-0.3378205,-0.095316,0.9100890000000001,-0.6863805,-0.009883,1.109176,-0.6957805,-0.011163
113,1.0141015,0.704285,0.0021504999999999,0.8521955,0.513225,-0.0136145,0.7363155,0.712085,-0.0895435,1.1602255,0.521105,-0.0147795,1.2620255,0.723305,-0.0998325,0.7195955,0.915085,-0.1278615,1.3051555000000001,0.955905,-0.1420715,0.9202685,0.0009729999999999,-0.0043225,1.0797315,-0.0009729999999999,0.0043225,0.8880855,-0.321685,-0.0883545,1.1114555,-0.330675,-0.1049365,0.9111915,-0.6762050000000001,-0.0156775,1.1102755,-0.684685,-0.0177355
114,1.015172,0.7025565,-2.1499999999997216e-05,0.853611,0.5113465,-0.0157625,0.7376210000000001,0.7112765,-0.0925235,1.160671,0.5193265,-0.0160364999999999,1.262411,0.7224465,-0.1028314999999999,0.722171,0.9130165,-0.1326205,1.305021,0.9538865,-0.1458205,0.919834,0.0011774999999999,-0.0041424999999999,1.080166,-0.0011774999999999,0.0041425,0.886921,-0.3150035,-0.0977784999999999,1.1132209999999998,-0.3246734999999999,-0.1143134999999999,0.912283,-0.6655535,-0.0213044999999999,1.1112009999999999,-0.6730134999999999,-0.0237454999999999
115,1.0161535,0.700829,-0.002032,0.8547245,0.511009,-0.017808,0.7388345000000001,0.710969,-0.095656,1.1612144999999998,0.517189,-0.018066,1.2633045,0.724329,-0.106516,0.7248445,0.911429,-0.136763,1.3050145,0.952159,-0.149393,0.9194805,0.0016649999999999,-0.003961,1.0805195,-0.0016649999999999,0.0039609999999999,0.8858145,-0.307991,-0.106891,1.1149944999999999,-0.318581,-0.123311,0.9132865,-0.654331,-0.026601,1.1119845,-0.660731,-0.02942
116,1.0168705,0.6994100000000001,-0.0041314999999999,0.8555375000000001,0.50966,-0.0201195,0.7397875,0.7102900000000001,-0.0988275,1.1614675,0.51513,-0.0202124999999999,1.2639575,0.7256900000000001,-0.1099695,0.7272175000000001,0.91076,-0.1408705,1.3048075,0.95395,-0.1535105,0.9192435,0.0021149999999999,-0.0038595,1.0807565,-0.0021149999999999,0.0038595,0.8846275000000001,-0.30035,-0.1155055,1.1165775,-0.31183,-0.1318265,0.9140055,-0.64227,-0.0320125,1.1124975,-0.6476299999999999,-0.0349854999999999
117,1.0175745,0.697344,-0.0065119999999999,0.8563725,0.508724,-0.0226419999999999,0.7407925,0.709704,-0.10235,1.1619225,0.512914,-0.0226279999999999,1.2646225,0.726584,-0.1134999999999999,0.7295324999999999,0.910024,-0.144903,1.3045225,0.954644,-0.1578629999999999,0.9189765,0.002471,-0.0039999999999999,1.0810235,-0.002471,0.004,0.8837125,-0.2924759999999999,-0.1237829999999999,1.1181524999999999,-0.305056,-0.140146,0.9148445000000001,-0.629606,-0.037263,1.1129625,-0.6341760000000001,-0.0403669999999999
118,1.0180505,0.695203,-0.0088055,0.8567935,0.506883,-0.0250945,0.7415835,0.707903,-0.1059415,1.1622535,0.5108630000000001,-0.0250115,1.2650235,0.726113,-0.1168595,0.7310035000000001,0.906163,-0.1487355,1.3039535,0.953113,-0.1624455,0.9188165000000001,0.0027749999999999,-0.0041985,1.0811834999999999,-0.0027749999999999,0.0041985,0.8827935000000001,-0.282167,-0.1316594999999999,1.1194235,-0.295697,-0.1479155,0.9153015,-0.616967,-0.0421815,1.1131555,-0.6208370000000001,-0.0455125
119,1.0184844999999998,0.6930685000000001,-0.0114025,0.8572245000000001,0.5043685,-0.0276335,0.7423545,0.7072185,-0.1098285,1.1624845,0.5090185,-0.0274975,1.2649344999999999,0.7238285,-0.1203415,0.7323945000000001,0.9055185,-0.1525805,1.3032745000000001,0.9476485,-0.1662105,0.9186415,0.0029234999999999,-0.0043335,1.0813585,-0.0029235,0.0043334999999999,0.8818745,-0.2702615,-0.1395755,1.1205845,-0.2844315,-0.1553405,0.9157695,-0.6030314999999999,-0.0470785,1.1132865,-0.6063415000000001,-0.0506555
120,1.018653,0.6921999999999999,-0.0192479999999999,0.857602,0.50426,-0.0354269999999999,0.7429319999999999,0.70624,-0.1185119999999999,1.162592,0.50946,-0.0352939999999999,1.264432,0.7228399999999999,-0.128567,0.733402,0.90803,-0.1613979999999999,1.302422,0.94398,-0.174588,0.91856,0.00289,-0.0044719999999999,1.08144,-0.00289,0.004472,0.8808920000000001,-0.25717,-0.152127,1.1214520000000001,-0.27171,-0.167068,0.916045,-0.58802,-0.0568989999999999,1.113157,-0.59062,-0.0606179999999999
121,1.018768,0.69329,-0.0281544999999999,0.8579559999999999,0.50446,-0.0444054999999999,0.743506,0.7077,-0.1282395,1.161726,0.50656,-0.0443004999999999,1.263496,0.72126,-0.1372145,0.734186,0.90848,-0.1716065,1.301526,0.94261,-0.1836165,0.918508,0.00285,-0.0041775,1.081492,-0.0028499999999999,0.0041775,0.8779260000000001,-0.2411499999999999,-0.1703065,1.123636,-0.25565,-0.1823265,0.916403,-0.57013,-0.0678874999999999,1.11297,-0.57256,-0.0711754999999999
122,1.018876,0.69333,-0.037012,0.8582609999999999,0.50498,-0.053458,0.744171,0.7076500000000001,-0.1376109999999999,1.1608209999999999,0.50488,-0.05335,1.262521,0.7204299999999999,-0.14546,0.734811,0.90856,-0.181289,1.300981,0.94484,-0.193249,0.9184559999999999,0.00295,-0.0038959999999999,1.081544,-0.00295,0.0038959999999999,0.874941,-0.22648,-0.187799,1.125881,-0.2405,-0.197239,0.916735,-0.5533399999999999,-0.078523,1.112769,-0.55568,-0.081005
123,1.018999,0.695145,-0.0463765,0.8589490000000001,0.5041450000000001,-0.0631275,0.7449790000000001,0.709045,-0.1474315,1.1598089999999999,0.502675,-0.0628935,1.261539,0.7207450000000001,-0.1545155,0.7352890000000001,0.911945,-0.1919835,1.300279,0.947615,-0.2036835,0.918461,0.002915,-0.0034374999999999,1.081539,-0.002915,0.0034374999999999,0.871969,-0.2095749999999999,-0.2055934999999999,1.128309,-0.222625,-0.2126934999999999,0.917232,-0.534825,-0.0894495,1.112605,-0.537295,-0.0911875
124,1.019108,0.69538,-0.0557964999999999,0.859701,0.50343,-0.0727024999999999,0.745811,0.7099099999999999,-0.1573494999999999,1.158871,0.50084,-0.0724614999999999,1.2604009999999999,0.71964,-0.1638775,0.735781,0.91162,-0.2025305,1.299411,0.95022,-0.2141405,0.918439,0.0028199999999999,-0.0030894999999999,1.081561,-0.00282,0.0030895,0.8692610000000001,-0.19281,-0.2229305,1.130661,-0.20551,-0.2279805,0.917829,-0.51674,-0.1000134999999999,1.112812,-0.51922,-0.1009814999999999
125,1.019169,0.695495,-0.065314,0.860603,0.5033350000000001,-0.08244,0.746633,0.710685,-0.16778,1.157893,0.498725,-0.082205,1.259193,0.718305,-0.17337,0.736163,0.910175,-0.21304,1.298733,0.948435,-0.22483,0.9184680000000001,0.002735,-0.00272,1.081532,-0.0027349999999999,0.00272,0.8668629999999999,-0.176095,-0.23998,1.132973,-0.1887249999999999,-0.24322,0.918426,-0.4984449999999999,-0.110516,1.113114,-0.5009950000000001,-0.110721
126,1.019169,0.69602,-0.074939,0.8614720000000001,0.50282,-0.092199,0.7473719999999999,0.71129,-0.178474,1.156752,0.4967,-0.09197,1.257882,0.71555,-0.183075,0.736502,0.90693,-0.22321,1.298112,0.94789,-0.2355999999999999,0.918521,0.00272,-0.0021999999999999,1.081479,-0.00272,0.0022,0.8646120000000002,-0.15984,-0.25664,1.135182,-0.1715799999999999,-0.2581299999999999,0.919045,-0.48014,-0.1210239999999999,1.113393,-0.48275,-0.1204809999999999
127,1.0189055,0.696385,-0.084825,0.8621905,0.502925,-0.1019849999999999,0.7478605,0.712755,-0.1889529999999999,1.1556605,0.496065,-0.101959,1.2561205,0.715285,-0.192579,0.7365305,0.908285,-0.233565,1.2972505,0.949615,-0.246375,0.9186015,0.0026549999999999,-0.001685,1.0813985,-0.002655,0.0016849999999999,0.8621905,-0.143085,-0.273075,1.1371305,-0.154155,-0.2730249999999999,0.9194025,-0.461505,-0.13154,1.1134015,-0.464575,-0.130366
128,1.018806,0.69641,-0.0944609999999999,0.862804,0.50305,-0.1114219999999999,0.7483240000000001,0.71284,-0.1991919999999999,1.154674,0.49395,-0.1116939999999999,1.254834,0.7168300000000001,-0.2022179999999999,0.736684,0.90762,-0.24405,1.296654,0.95504,-0.25688,0.9186799999999999,0.00274,-0.0011499999999999,1.08132,-0.0027399999999999,0.00115,0.860264,-0.1271899999999999,-0.2888799999999999,1.139134,-0.1371899999999999,-0.28747,0.919811,-0.4434899999999999,-0.1418459999999999,1.113477,-0.44733,-0.1399569999999999
129,1.018659,0.694715,-0.0987479999999999,0.8634850000000001,0.501625,-0.1154339999999999,0.7486550000000001,0.711745,-0.204002,1.153265,0.491225,-0.1160519999999999,1.253585,0.717365,-0.2062009999999999,0.736765,0.903915,-0.24927,1.296005,0.958235,-0.26191,0.91873,0.0028249999999999,-0.0005799999999999,1.08127,-0.002825,0.00058,0.858375,-0.112395,-0.29935,1.141105,-0.121525,-0.2965,0.920099,-0.426845,-0.1466039999999999,1.113514,-0.431605,-0.1440419999999999
130,1.0183975,0.6921200000000001,-0.101734,0.8640295,0.49908,-0.118081,0.7488995,0.71007,-0.207535,1.1526494999999999,0.49046,-0.119388,1.2532295,0.7175,-0.209106,0.7367895,0.90406,-0.253315,1.2952795,0.95868,-0.265405,0.9188355,0.0029899999999999,-0.0005749999999999,1.0811645,-0.0029899999999999,0.0005749999999999,0.8582795,-0.0979599999999999,-0.303525,1.1418395000000001,-0.10658,-0.301185,0.9203565,-0.41159,-0.149799,1.1135905,-0.4169499999999999,-0.146736
131,1.0183845,0.6888700000000001,-0.104596,0.8644485,0.49604,-0.120703,0.7490585000000001,0.7086,-0.210967,1.1521485,0.4899,-0.122532,1.2530085,0.71799,-0.211867,0.7369585000000001,0.90522,-0.257375,1.2948485,0.95251,-0.269385,0.9188545,0.00281,-0.000545,1.0811455,-0.0028099999999999,0.0005449999999999,0.8582784999999999,-0.0821399999999999,-0.307505,1.1426685,-0.0910199999999999,-0.305465,0.9207105,-0.39635,-0.152803,1.1138025,-0.4023599999999999,-0.149177
132,1.018079,0.6861200000000001,-0.106956,0.864143,0.4959099999999999,-0.122885,0.748813,0.70787,-0.2140139999999999,1.151353,0.4866399999999999,-0.125303,1.252593,0.7155,-0.214525,0.7369330000000001,0.90587,-0.2608749999999999,1.294483,0.94771,-0.273065,0.918961,0.0030499999999999,-0.0005949999999999,1.081039,-0.0030499999999999,0.000595,0.857973,-0.06601,-0.3104449999999999,1.142983,-0.07489,-0.308585,0.920614,-0.38083,-0.155361,1.113862,-0.38685,-0.1515359999999999
133,1.0182339999999999,0.684175,-0.109103,0.8645820000000001,0.495345,-0.125245,0.748982,0.7067950000000001,-0.21677,1.151192,0.485365,-0.127698,1.252672,0.7119150000000001,-0.217743,0.7372719999999999,0.904725,-0.26429,1.2945820000000001,0.944005,-0.27646,0.918954,0.0031149999999999,-0.0005499999999999,1.081046,-0.0031149999999999,0.0005499999999999,0.858442,-0.054255,-0.31265,1.143712,-0.0622349999999999,-0.31079,0.920902,-0.364865,-0.157551,1.114381,-0.3717149999999999,-0.153783
134,1.018403,0.682545,-0.110849,0.8648899999999999,0.494465,-0.127044,0.7492099999999999,0.706455,-0.218961,1.1510799999999999,0.484605,-0.129578,1.2523900000000001,0.7101850000000001,-0.22032,0.73769,0.903675,-0.26737,1.2946900000000001,0.946865,-0.27949,0.91887,0.003395,-0.0004899999999999,1.08113,-0.0033949999999999,0.0004899999999999,0.85898,-0.0416149999999999,-0.31439,1.14442,-0.049485,-0.31253,0.921199,-0.348855,-0.159252,1.114981,-0.3564549999999999,-0.155676
135,1.018799,0.68086,-0.112228,0.8652730000000001,0.4942,-0.128323,0.749593,0.70531,-0.2206159999999999,1.151093,0.48368,-0.1308939999999999,1.252333,0.71058,-0.22214,0.7382029999999999,0.90401,-0.2700349999999999,1.294893,0.94862,-0.282165,0.9188570000000001,0.0036499999999999,-0.0004049999999999,1.081143,-0.0036499999999999,0.000405,0.8598130000000002,-0.029,-0.315705,1.145353,-0.03714,-0.313845,0.92156,-0.33332,-0.1605019999999999,1.115711,-0.3416099999999999,-0.157236
136,1.0193994999999998,0.679505,-0.1138899999999999,0.8659755,0.4926049999999999,-0.129552,0.7501555,0.7046250000000001,-0.222488,1.1512555,0.482615,-0.1323939999999999,1.2526955,0.709765,-0.2241189999999999,0.7388555,0.903645,-0.272895,1.2956155,0.949165,-0.285045,0.9189385,0.0039549999999999,-7.499999999999174e-05,1.0810615,-0.0039549999999999,7.50000000000195e-05,0.8609955,-0.016235,-0.316075,1.1464455,-0.024625,-0.314915,0.9219225,-0.3179949999999999,-0.162124,1.1163954999999999,-0.3263649999999999,-0.1586499999999999
137,1.020051,0.67953,-0.1149989999999999,0.8668130000000001,0.49284,-0.130205,0.7508230000000001,0.70562,-0.2239209999999999,1.151573,0.482928,-0.1335039999999999,1.253523,0.70612,-0.225667,0.7395430000000001,0.90447,-0.275015,1.296473,0.94504,-0.288205,0.919073,0.0041499999999999,0.000195,1.080927,-0.0041499999999999,-0.0001949999999999,0.8622529999999999,-0.0022699999999999,-0.315995,1.147663,-0.0106899999999999,-0.314965,0.9222980000000001,-0.30166,-0.1632729999999999,1.1170930000000001,-0.31017,-0.1595639999999999
138,1.0207255,0.6795599999999999,-0.1156869999999999,0.8674465,0.492202,-0.1303679999999999,0.7513164999999999,0.70607,-0.225158,1.1520865,0.482044,-0.13401,1.2537965,0.70253,-0.226858,0.7400964999999999,0.90423,-0.27658,1.2972065,0.94053,-0.29084,0.9191845,0.0042299999999999,0.0005,1.0808155,-0.00423,-0.0005,0.8633265,0.0111599999999999,-0.31543,1.1487965,0.0027299999999999,-0.31455,0.9224815000000001,-0.2861100000000001,-0.1639979999999999,1.1176465,-0.2945500000000001,-0.159966
139,1.0218189999999998,0.678805,-0.116285,0.868541,0.493112,-0.130703,0.752221,0.705995,-0.22631,1.152861,0.482284,-0.134448,1.254341,0.701125,-0.227902,0.7409410000000001,0.902925,-0.278305,1.298131,0.937085,-0.2935149999999999,0.919223,0.004155,0.000805,1.080777,-0.0041549999999999,-0.000805,0.8647210000000001,0.024415,-0.314805,1.150061,0.015705,-0.314105,0.922986,-0.2712249999999999,-0.164713,1.118501,-0.2796349999999999,-0.160487
140,1.0229255,0.67972,-0.116926,0.8696445000000002,0.493986,-0.130854,0.7531945,0.7075,-0.226964,1.1538045000000001,0.481875,-0.134433,1.2554245,0.69946,-0.228894,0.7418545000000001,0.90309,-0.27998,1.2988845,0.94078,-0.29551,0.9192575000000001,0.0042599999999999,0.00112,1.0807425,-0.0042599999999999,-0.00112,0.8659045,0.03894,-0.31401,1.1512645,0.02978,-0.3133599999999999,0.9235265,-0.25557,-0.165368,1.1193545,-0.2639499999999999,-0.161141
141,1.0238675,0.678995,-0.1171819999999999,0.8707155,0.494589,-0.1307149999999999,0.7540755,0.7077450000000001,-0.2273569999999999,1.1544755,0.4838,-0.1341349999999999,1.2558855,0.700015,-0.2296099999999999,0.7423854999999999,0.902215,-0.2817349999999999,1.2992555000000001,0.942445,-0.297165,0.9193495,0.0040649999999999,0.001285,1.0806505,-0.0040649999999999,-0.0012849999999999,0.8668255,0.0519149999999999,-0.312725,1.1521855,0.042345,-0.312215,0.9239195,-0.2418149999999999,-0.1656439999999999,1.1200355,-0.250095,-0.1615349999999999
142,1.0250485,0.6778949999999999,-0.11718,0.8721015,0.494992,-0.130436,0.7551415000000001,0.706735,-0.227596,1.1550814999999999,0.485132,-0.133802,1.2566215,0.702415,-0.230743,0.7431415,0.905075,-0.283225,1.3000015,0.943155,-0.298715,0.9193255,0.0039249999999999,0.001395,1.0806745,-0.003925,-0.001395,0.8678715,0.0637049999999999,-0.311045,1.1533515,0.0536949999999999,-0.3104449999999999,0.9245755,-0.2293049999999999,-0.165777,1.1209715,-0.237585,-0.161615
143,1.026279,0.67653,-0.1169419999999999,0.8735710000000001,0.495937,-0.1300359999999999,0.7563310000000001,0.70312,-0.227677,1.155811,0.486158,-0.133289,1.257311,0.70341,-0.231593,0.7439009999999999,0.90702,-0.2843799999999999,1.300701,0.94163,-0.29998,0.9193709999999999,0.0036499999999999,0.0014699999999999,1.080629,-0.0036499999999999,-0.0014699999999999,0.8689910000000001,0.0738099999999999,-0.3091899999999999,1.154641,0.06377,-0.30837,0.925286,-0.2182699999999999,-0.1655589999999999,1.121931,-0.22663,-0.161525
144,1.0275385,0.675905,-0.1162599999999999,0.8753525,0.4961259999999999,-0.1294179999999999,0.7574225,0.702995,-0.2277739999999999,1.1573925,0.4874179999999999,-0.1325059999999999,1.2581525,0.704835,-0.232217,0.7447825,0.906285,-0.28542,1.3015525000000001,0.941575,-0.30122,0.9194725,0.0032849999999999,0.0014699999999999,1.0805275,-0.0032849999999999,-0.0014699999999999,0.8701525,0.0854149999999999,-0.3063599999999999,1.1559425,0.0754349999999999,-0.30562,0.9261275,-0.205615,-0.164677,1.1230025,-0.214045,-0.1613139999999999
145,1.0281515,0.67496,-0.1155429999999999,0.8764015,0.497294,-0.1288699999999999,0.7578215,0.7014900000000001,-0.227983,1.1584315,0.4888930000000001,-0.1318499999999999,1.2580515,0.7063600000000001,-0.2330249999999999,0.7451215,0.90637,-0.2863949999999999,1.3018915,0.93482,-0.3031149999999999,0.9196315,0.00284,0.001485,1.0803685,-0.0028399999999999,-0.0014849999999999,0.8704815000000001,0.09575,-0.304755,1.1566615,0.08608,-0.3036949999999999,0.9264745,-0.1944499999999999,-0.1632179999999999,1.1233715,-0.2028799999999999,-0.1611189999999999
146,1.0286879999999998,0.6738600000000001,-0.11456,0.877246,0.497641,-0.128052,0.758096,0.70035,-0.228088,1.159666,0.489161,-0.130778,1.258426,0.71048,-0.233738,0.745396,0.90669,-0.287245,1.302036,0.93367,-0.3040049999999999,0.9197760000000001,0.00268,0.001615,1.0802239999999999,-0.0026799999999999,-0.001615,0.870756,0.10521,-0.302765,1.157346,0.09579,-0.3020549999999999,0.9269890000000001,-0.1840899999999999,-0.16085,1.123646,-0.1923799999999998,-0.160744
147,1.0291489999999999,0.6733100000000001,-0.113408,0.87808,0.4989430000000001,-0.127112,0.7583700000000001,0.7005800000000001,-0.227955,1.16094,0.4898570000000001,-0.129742,1.25869,0.7138300000000001,-0.234324,0.7456600000000001,0.90876,-0.28791,1.30202,0.93244,-0.30487,0.91989,0.00274,0.0018199999999999,1.08011,-0.0027399999999999,-0.00182,0.871,0.11482,-0.30056,1.1580300000000001,0.10549,-0.30033,0.92754,-0.1737999999999999,-0.158158,1.1239,-0.1822099999999998,-0.159644
148,1.0294014999999999,0.6722899999999999,-0.11168,0.8784065,0.499731,-0.125444,0.7583865,0.70017,-0.2273919999999999,1.1620165,0.490432,-0.12821,1.2587865,0.7153,-0.23436,0.7456665,0.91004,-0.2877849999999999,1.3018265,0.93008,-0.3050549999999999,0.9200565,0.0029599999999999,0.0017749999999999,1.0799435,-0.0029599999999999,-0.0017749999999999,0.8709365,0.1231899999999999,-0.297495,1.1586165,0.1139799999999999,-0.298355,0.9279165,-0.1648,-0.154882,1.1239465,-0.17328,-0.157996
149,1.0298695,0.6704,-0.110263,0.8791435,0.500416,-0.124222,0.7586835000000001,0.69901,-0.226864,1.1632735,0.490945,-0.127047,1.2595235,0.7127,-0.23475,0.7458935000000001,0.90985,-0.287795,1.3017235,0.92677,-0.3054949999999999,0.9200935,0.00312,0.001705,1.0799065,-0.00312,-0.0017049999999999,0.8711735,0.13023,-0.294685,1.1595035,0.12112,-0.296035,0.9285915,-0.15713,-0.151464,1.1241335,-0.1657499999999999,-0.156269
150,1.0303325,0.668185,-0.109209,0.8798205,0.501007,-0.123348,0.7588305,0.696815,-0.226828,1.1645205,0.4910629999999999,-0.126272,1.2602505,0.709605,-0.235355,0.7461205,0.908125,-0.28792,1.3016405,0.922325,-0.30639,0.9201105,0.003295,0.0017099999999999,1.0798895,-0.003295,-0.0017099999999999,0.8713905,0.1361649999999999,-0.29215,1.1605405,0.1271749999999999,-0.29402,0.9292945,-0.150625,-0.148396,1.1243005,-0.1593149999999999,-0.154677
151,1.03079,0.66722,-0.108236,0.8804930000000001,0.50185,-0.1226,0.758933,0.6967,-0.226673,1.165743,0.490856,-0.125552,1.260853,0.70761,-0.235621,0.7463230000000001,0.90701,-0.288065,1.301693,0.91916,-0.307455,0.920153,0.0035199999999999,0.0017149999999999,1.079847,-0.0035199999999999,-0.0017149999999999,0.871633,0.14281,-0.289205,1.161803,0.13385,-0.291965,0.930044,-0.1433999999999999,-0.145346,1.124443,-0.15203,-0.15325
152,1.0310485,0.666291,-0.107406,0.8809785000000001,0.502112,-0.122044,0.7588885,0.698295,-0.226564,1.1667584999999998,0.490687,-0.124943,1.2611585,0.705665,-0.235931,0.7462485,0.905915,-0.288755,1.3016885,0.916805,-0.308605,0.9203185,0.003645,0.0017149999999999,1.0796815,-0.003645,-0.0017149999999999,0.8716984999999999,0.1495449999999999,-0.286195,1.1629085,0.1406049999999999,-0.290025,0.9306295,-0.1360749999999999,-0.142499,1.1243285,-0.1446049999999999,-0.151801
153,1.0312845,0.665197,-0.107051,0.8814745000000002,0.503019,-0.121755,0.7590045000000001,0.697535,-0.226389,1.1676045,0.490519,-0.124348,1.2615045,0.7031449999999999,-0.236188,0.7463045000000001,0.906865,-0.28957,1.3017645,0.912615,-0.30986,0.9204945,0.0038749999999999,0.0017099999999999,1.0795055,-0.003875,-0.00171,0.8717445,0.1537949999999999,-0.2841,1.1640345,0.145015,-0.28893,0.9312565,-0.131265,-0.140216,1.1242845,-0.1397749999999999,-0.150258
154,1.031462,0.6645449999999999,-0.106886,0.881888,0.504195,-0.12159,0.759028,0.6977049999999999,-0.226493,1.1684379999999999,0.4899319999999999,-0.1238459999999999,1.261638,0.7001449999999999,-0.236401,0.746348,0.907455,-0.290365,1.301858,0.914575,-0.310745,0.920668,0.0042449999999999,0.001765,1.079332,-0.004245,-0.0017649999999999,0.871768,0.1574149999999999,-0.282355,1.165058,0.1487249999999999,-0.287865,0.93181,-0.127205,-0.138514,1.124318,-0.135595,-0.1489359999999999
155,1.031584,0.66393,-0.106836,0.8822220000000001,0.504756,-0.121539,0.758852,0.696975,-0.226942,1.168782,0.489719,-0.123795,1.2617720000000001,0.697055,-0.236654,0.746352,0.907045,-0.291325,1.301882,0.915135,-0.311835,0.9208020000000001,0.004345,0.0017749999999999,1.0791979999999999,-0.004345,-0.0017749999999999,0.871732,0.1592449999999999,-0.281285,1.165842,0.150605,-0.287035,0.932048,-0.1252649999999999,-0.137897,1.124202,-0.133495,-0.147741
156,1.031923,0.6639309999999999,-0.1068259999999999,0.882765,0.5049819999999999,-0.121528,0.758915,0.696255,-0.2275729999999999,1.1691049999999998,0.489289,-0.1237849999999999,1.262665,0.693935,-0.2372909999999999,0.7465649999999999,0.906045,-0.292545,1.3021749999999999,0.914675,-0.312975,0.9208149999999999,0.0044349999999999,0.001785,1.079185,-0.004435,-0.0017849999999999,0.871915,0.159765,-0.2808549999999999,1.166625,0.1510849999999999,-0.286435,0.9324209999999999,-0.124715,-0.137674,1.124245,-0.132815,-0.14676
157,1.0322565,0.6639309999999999,-0.1068969999999999,0.8832275,0.5049819999999999,-0.1215909999999999,0.7588975,0.696255,-0.228323,1.1693375,0.489289,-0.1237849999999999,1.2632475,0.691835,-0.237834,0.7467475,0.905635,-0.2937849999999999,1.3023875,0.914025,-0.3141549999999999,0.9208275,0.0044349999999999,0.001785,1.0791725,-0.004435,-0.0017849999999999,0.8721175000000001,0.159765,-0.2808549999999999,1.1669375,0.1510349999999999,-0.285995,0.9326535,-0.124715,-0.137674,1.1242175,-0.1327249999999999,-0.1461319999999999
158,1.0323225,0.6639309999999999,-0.1075179999999999,0.8835175000000001,0.5049819999999999,-0.122,0.7587775,0.696255,-0.229256,1.1693775,0.489289,-0.1239519999999999,1.2632875000000001,0.691835,-0.2383989999999999,0.7467275,0.905635,-0.29528,1.3024275,0.914025,-0.3155,0.9207875,0.0044349999999999,0.0018299999999999,1.0792125,-0.004435,-0.0018299999999999,0.8721575,0.1595749999999999,-0.2809399999999999,1.1669775,0.1510649999999999,-0.28598,0.9326935,-0.124785,-0.137759,1.1240775,-0.1327249999999999,-0.146037
159,1.0324065,0.6639309999999999,-0.108634,0.8837875,0.5049819999999999,-0.12264,0.7588175,0.696255,-0.230422,1.1694075,0.489289,-0.12445,1.2633174999999999,0.691835,-0.239117,0.7466775,0.905635,-0.296865,1.3024974999999999,0.914025,-0.316875,0.9207575,0.0044349999999999,0.001845,1.0792424999999999,-0.004435,-0.0018449999999999,0.8721875,0.1594749999999999,-0.281085,1.1670075,0.1511249999999999,-0.2861249999999999,0.9327035,-0.124885,-0.137913,1.1239375,-0.1327249999999999,-0.146182
160,1.0324259999999998,0.664984,-0.110175,0.884021,0.504802,-0.123691,0.758811,0.695535,-0.231673,1.169351,0.4887229999999999,-0.125474,1.263311,0.690785,-0.240001,0.746631,0.904585,-0.29879,1.302521,0.912975,-0.31829,0.920751,0.0044549999999999,0.0018299999999999,1.079249,-0.0044549999999999,-0.0018299999999999,0.8721909999999999,0.1583649999999999,-0.28167,1.167001,0.1501449999999999,-0.28647,0.932616,-0.126145,-0.138604,1.123821,-0.1337749999999999,-0.146527
161,1.0324229999999999,0.6653610000000001,-0.113324,0.8841800000000001,0.503021,-0.126373,0.75858,0.6937700000000001,-0.234267,1.1689,0.4872550000000001,-0.128355,1.26309,0.6890100000000001,-0.242092,0.7464500000000001,0.9013600000000002,-0.30167,1.3024499999999999,0.91286,-0.32111,0.92067,0.00445,0.0017199999999999,1.07933,-0.0044499999999999,-0.0017199999999999,0.87233,0.15375,-0.28391,1.16659,0.1458000000000001,-0.28806,0.932083,-0.1307899999999999,-0.141673,1.1235899999999999,-0.1384299999999999,-0.148108
162,1.0323055,0.66811,-0.1167679999999999,0.8841065,0.501307,-0.1290339999999999,0.7582365000000001,0.6946399999999999,-0.2369419999999999,1.1684265,0.485552,-0.131262,1.2626665,0.69129,-0.244665,0.7458065,0.90301,-0.305115,1.3022965,0.91581,-0.324725,0.9205365,0.0044699999999999,0.0016349999999999,1.0794635,-0.0044699999999999,-0.0016349999999999,0.8726065000000001,0.1490099999999999,-0.286265,1.1657365,0.1412999999999999,-0.2897849999999999,0.9315015,-0.1355699999999999,-0.145147,1.1233465,-0.14351,-0.149558
163,1.031845,0.67073,-0.121157,0.883656,0.497368,-0.132266,0.757816,0.69324,-0.240132,1.167366,0.486741,-0.1351399999999999,1.261756,0.6936100000000001,-0.248905,0.744756,0.90263,-0.309235,1.301586,0.91581,-0.329045,0.920536,0.0037599999999999,0.001365,1.079464,-0.0037599999999999,-0.001365,0.872656,0.14099,-0.2897349999999999,1.164076,0.13349,-0.292415,0.930565,-0.14368,-0.149281,1.122796,-0.1519699999999999,-0.151662
164,1.0313455,0.6704150000000001,-0.125393,0.8831595,0.4947020000000001,-0.136031,0.7570495000000002,0.6914450000000001,-0.243567,1.1657895,0.484128,-0.139273,1.2605895,0.692675,-0.252937,0.7434395,0.9000750000000001,-0.3133,1.3008295,0.912135,-0.33346,0.9205395,0.003615,0.0012699999999999,1.0794605,-0.0036149999999999,-0.00127,0.8727495000000001,0.1265150000000001,-0.29383,1.1622495,0.119115,-0.29519,0.9295835,-0.1583449999999999,-0.153289,1.1221895,-0.1670949999999998,-0.153678
165,1.0307864999999998,0.671285,-0.129161,0.8826075,0.491802,-0.139504,0.7558775,0.690525,-0.247023,1.1643375,0.482592,-0.14307,1.2592175,0.692625,-0.256837,0.7419074999999999,0.8982950000000001,-0.317065,1.3000275,0.914725,-0.338155,0.9205875,0.003545,0.0012549999999999,1.0794125,-0.003545,-0.001255,0.8729275,0.111105,-0.297805,1.1603475,0.103825,-0.297805,0.9285395,-0.173945,-0.157243,1.1215075,-0.183305,-0.155702
166,1.0302395,0.6741649999999999,-0.132348,0.8821675,0.4886979999999999,-0.142426,0.7549575,0.690325,-0.249418,1.1628875,0.4805219999999999,-0.146555,1.2580175,0.692655,-0.259663,0.7405075,0.902185,-0.320265,1.2994175000000001,0.917245,-0.342475,0.9208775,0.0035149999999999,0.0011849999999999,1.0791225,-0.003515,-0.0011849999999999,0.8732875,0.0955449999999999,-0.301245,1.1587075,0.0883749999999999,-0.300295,0.9277065,-0.190295,-0.160801,1.1210535,-0.2002250000000001,-0.157233
167,1.0289499999999998,0.674945,-0.134175,0.881233,0.4872579999999999,-0.144251,0.7532930000000001,0.689855,-0.250422,1.161043,0.480066,-0.148896,1.2562229999999999,0.6926749999999999,-0.260904,0.7385730000000001,0.902565,-0.322195,1.298273,0.917325,-0.345435,0.920742,0.0034549999999999,0.001085,1.079258,-0.0034549999999999,-0.001085,0.873093,0.076245,-0.304175,1.156623,0.0692149999999999,-0.302345,0.926479,-0.2106549999999999,-0.16318,1.12014,-0.220895,-0.157672
168,1.027469,0.67724,-0.135005,0.8801860000000001,0.486434,-0.145887,0.751626,0.68998,-0.25133,1.159136,0.4809759999999999,-0.151033,1.254336,0.69375,-0.262764,0.736266,0.90367,-0.3233749999999999,1.296906,0.91805,-0.348445,0.9205650000000001,0.0032899999999999,0.0010249999999999,1.079435,-0.00329,-0.0010249999999999,0.872896,0.0573499999999999,-0.306745,1.154556,0.0500899999999999,-0.304465,0.925181,-0.23134,-0.165381,1.119127,-0.24158,-0.15807
169,1.0258745,0.6792050000000001,-0.135582,0.8790625,0.487987,-0.147235,0.7499425,0.689835,-0.251989,1.1570825,0.48424,-0.152721,1.2525525,0.694545,-0.264512,0.7337525,0.903945,-0.323695,1.2951825,0.921765,-0.3499649999999999,0.9203705000000001,0.003145,0.0010249999999999,1.0796294999999998,-0.003145,-0.0010249999999999,0.8726825,0.037785,-0.308925,1.1524825,0.030135,-0.306425,0.9240145,-0.253555,-0.166856,1.1181305,-0.263845,-0.158246
170,1.0239025,0.6794800000000001,-0.135641,0.8776285,0.486981,-0.147923,0.7479085000000001,0.6900900000000001,-0.252496,1.1553285,0.483431,-0.153777,1.2507285000000001,0.69352,-0.266173,0.7307285,0.90483,-0.323705,1.2932785,0.92028,-0.351605,0.9200045,0.00305,0.0010249999999999,1.0799954999999999,-0.0030499999999999,-0.0010249999999999,0.8720985,0.01618,-0.310705,1.1502985,0.00827,-0.308395,0.9228315,-0.27805,-0.167649,1.1168735,-0.28855,-0.158464
171,1.021931,0.680955,-0.135648,0.876238,0.487749,-0.1483229999999999,0.745788,0.689805,-0.252611,1.1533479999999998,0.484239,-0.154655,1.249268,0.693935,-0.266908,0.728038,0.901945,-0.32371,1.291448,0.919365,-0.35199,0.919739,0.0029949999999999,0.00102,1.080261,-0.002995,-0.0010199999999999,0.871388,-0.004865,-0.31161,1.148328,-0.013705,-0.3096799999999999,0.921679,-0.3032250000000001,-0.168089,1.115615,-0.313875,-0.1588679999999999
172,1.0199859999999998,0.68154,-0.134886,0.874391,0.49099,-0.148107,0.743681,0.69138,-0.25185,1.151531,0.48317,-0.154358,1.247811,0.69389,-0.266332,0.725511,0.90315,-0.322955,1.289861,0.92397,-0.351225,0.91931,0.0033799999999999,0.000945,1.08069,-0.0033799999999999,-0.000945,0.8706610000000001,-0.02606,-0.311115,1.146531,-0.0356199999999999,-0.309345,0.920572,-0.32877,-0.167858,1.114492,-0.33965,-0.158435
173,1.0180535,0.685935,-0.1324489999999999,0.8719265,0.493675,-0.1458559999999999,0.7414065000000001,0.6943549999999999,-0.249413,1.1501265,0.4858049999999999,-0.151919,1.2467565,0.6966749999999999,-0.263892,0.7231164999999999,0.905725,-0.320195,1.2882065,0.931795,-0.348785,0.9188715000000001,0.0033249999999999,0.0009049999999999,1.0811285,-0.003325,-0.0009049999999999,0.8698565,-0.042255,-0.308675,1.1446665,-0.052315,-0.306915,0.9194835000000001,-0.3500150000000001,-0.165881,1.1134385,-0.3608950000000001,-0.156396
174,1.0160794999999998,0.6893050000000001,-0.129002,0.8694485000000001,0.497735,-0.143349,0.7393385,0.6960550000000001,-0.246516,1.1485884999999998,0.487815,-0.149145,1.2455384999999999,0.698075,-0.261117,0.7205985000000001,0.906325,-0.3157,1.2863384999999998,0.931035,-0.34602,0.9184734999999999,0.003065,0.00104,1.0815265,-0.0030649999999999,-0.00104,0.8690285,-0.0597349999999999,-0.3059,1.1425085,-0.0706049999999999,-0.3041399999999999,0.9179245,-0.3739449999999999,-0.16433,1.1122845,-0.384545,-0.154062
175,1.014131,0.69099,-0.123953,0.8665030000000001,0.50122,-0.1399719999999999,0.7371030000000001,0.6972499999999999,-0.2429589999999999,1.146903,0.49053,-0.145586,1.2441229999999999,0.7006600000000001,-0.256746,0.717803,0.905,-0.3097999999999999,1.284213,0.92968,-0.34221,0.918064,0.0027499999999999,0.00134,1.081936,-0.00275,-0.0013399999999999,0.868243,-0.0783099999999999,-0.30234,1.140063,-0.08949,-0.3005799999999999,0.916243,-0.3987699999999999,-0.1621729999999999,1.111078,-0.40869,-0.151076
176,1.0126825,0.6940949999999999,-0.1180499999999999,0.8637635000000001,0.5025949999999999,-0.1357449999999999,0.7353035,0.697985,-0.2376709999999999,1.1454135,0.4918849999999999,-0.141259,1.2425935,0.702155,-0.251577,0.7153235,0.904545,-0.3030699999999999,1.2824635,0.928935,-0.3371699999999999,0.9179285000000001,0.0023349999999999,0.0016,1.0820714999999999,-0.002335,-0.0015999999999999,0.8678035,-0.094565,-0.2973599999999999,1.1376935,-0.106195,-0.29622,0.9147405,-0.421385,-0.159548,1.1101175,-0.4307850000000001,-0.148222
177,1.0112935,0.69624,-0.1119749999999999,0.8609345000000002,0.5044,-0.131346,0.7334645,0.70028,-0.2326889999999999,1.1439445,0.49184,-0.1367109999999999,1.2409945,0.70423,-0.2458759999999999,0.7130845,0.90348,-0.2961049999999999,1.2808545,0.92649,-0.3308149999999999,0.9180524999999999,0.00206,0.001705,1.0819475,-0.00206,-0.0017049999999999,0.8674045000000001,-0.11129,-0.2921049999999999,1.1352445,-0.1231599999999999,-0.291375,0.9130685000000001,-0.44419,-0.1574189999999999,1.1092625,-0.45306,-0.145563
178,1.0097075,0.69721,-0.105395,0.8576265000000001,0.50613,-0.126555,0.7314465,0.70184,-0.227193,1.1421265,0.49043,-0.131671,1.2400865,0.70643,-0.239923,0.7106565,0.90278,-0.288335,1.2793765,0.92188,-0.323435,0.9180695,0.0018299999999999,0.0017449999999999,1.0819305,-0.00183,-0.0017449999999999,0.8667665,-0.12802,-0.286035,1.1327065,-0.13978,-0.285355,0.9109975,-0.4662699999999999,-0.154864,1.1081195,-0.4745399999999999,-0.142575
179,1.0084485,0.70262,-0.099384,0.8546805,0.51181,-0.122168,0.7298605,0.70491,-0.222195,1.1407005,0.49511,-0.127166,1.2391005,0.7153700000000001,-0.23426,0.7086905,0.90772,-0.28099,1.2784205,0.92846,-0.31515,0.9183045,0.00151,0.0016999999999999,1.0816955,-0.0015099999999999,-0.0017,0.8665805,-0.14044,-0.27958,1.1304705,-0.15176,-0.2791,0.9090825,-0.48389,-0.153176,1.1075005,-0.49115,-0.140651
180,1.0072245,0.70556,-0.093012,0.8517065,0.51524,-0.117184,0.7284765,0.70743,-0.216206,1.1394564999999999,0.49748,-0.1222579999999999,1.2381265,0.71785,-0.228024,0.7069065,0.91031,-0.273405,1.2775565,0.93311,-0.306475,0.9185475,0.00114,0.001535,1.0814525,-0.00114,-0.001535,0.8665665,-0.1543199999999999,-0.272375,1.1282665,-0.16458,-0.271735,0.9068235,-0.5021,-0.152036,1.1071265,-0.50846,-0.138104
181,1.00594,0.710295,-0.086861,0.849291,0.519985,-0.1122989999999999,0.727121,0.710115,-0.210474,1.138121,0.5011650000000001,-0.117168,1.237251,0.721005,-0.2221739999999999,0.705151,0.912335,-0.26614,1.276921,0.936635,-0.29838,0.918981,0.000905,0.00152,1.081019,-0.0009049999999999,-0.0015199999999999,0.866691,-0.1665749999999999,-0.26456,1.126101,-0.176145,-0.26383,0.904441,-0.518635,-0.15113,1.106991,-0.524215,-0.1361119999999999
182,1.004562,0.71385,-0.080627,0.847047,0.52362,-0.107408,0.725717,0.71256,-0.204769,1.136707,0.5057400000000001,-0.112038,1.236407,0.72405,-0.216602,0.703357,0.91449,-0.25912,1.276397,0.93971,-0.29049,0.919638,0.0005,0.0015099999999999,1.080362,-0.0005,-0.00151,0.866357,-0.17847,-0.2561,1.123597,-0.1876499999999999,-0.25513,0.9018470000000001,-0.53431,-0.150213,1.106827,-0.53922,-0.133987
183,1.0034385,0.71772,-0.074595,0.8450195,0.5252600000000001,-0.102532,0.7245895,0.7151799999999999,-0.198991,1.1354294999999999,0.5097200000000001,-0.106864,1.2356995,0.72729,-0.209811,0.7018195,0.91732,-0.25234,1.2758494999999999,0.94379,-0.28234,0.9202565,0.00027,0.00124,1.0797435,-0.0002699999999999,-0.00124,0.8661095,-0.1894899999999999,-0.2473199999999999,1.1210295,-0.19807,-0.24566,0.8995795,-0.54799,-0.148192,1.1068794999999998,-0.5525100000000001,-0.130448
184,1.0021715,0.722675,-0.068837,0.8434095,0.527725,-0.097645,0.7235294999999999,0.718675,-0.193359,1.1342995,0.5131950000000001,-0.101783,1.2348295,0.730355,-0.203294,0.7004395,0.922335,-0.2462499999999999,1.2755395,0.948865,-0.27443,0.9208085,5.000000000005e-06,0.0010099999999999,1.0791915,-5.000000000005e-06,-0.0010099999999999,0.8655695,-0.199605,-0.239,1.1184295,-0.207855,-0.2364399999999999,0.8972995,-0.560395,-0.14599,1.1068695,-0.564855,-0.126326
185,1.0009284999999999,0.7277545,-0.063967,0.8417095,0.5308745,-0.093409,0.7224794999999999,0.7237345000000001,-0.188413,1.1330594999999999,0.5162145,-0.097396,1.2340795,0.7352745,-0.197242,0.6990795000000001,0.9292345,-0.2407699999999999,1.2748495,0.9561345,-0.26713,0.9214665,-0.0001614999999999,0.0006199999999999,1.0785335,0.0001614999999999,-0.0006199999999999,0.8651995,-0.2075555,-0.23137,1.1158795,-0.2162454999999999,-0.22746,0.8942195,-0.5705455,-0.144147,1.1065295,-0.5755055,-0.121945
186,1.000065,0.731938,-0.059192,0.8406359999999999,0.535728,-0.089466,0.721966,0.724768,-0.183465,1.132566,0.524958,-0.092859,1.233636,0.737008,-0.19163,0.698326,0.933708,-0.23541,1.274676,0.962798,-0.26022,0.921921,-0.000535,0.0002999999999999,1.078079,0.0005349999999999,-0.0002999999999999,0.865476,-0.2161519999999999,-0.22263,1.1136759999999999,-0.225102,-0.21682,0.8923260000000001,-0.581052,-0.140139,1.106716,-0.586642,-0.117843
187,0.99944,0.737072,-0.0555789999999999,0.8400480000000001,0.538362,-0.086334,0.7216279999999999,0.727452,-0.179852,1.132658,0.5325920000000001,-0.0892439999999999,1.233868,0.740452,-0.187826,0.697928,0.939192,-0.2314449999999999,1.274798,0.969442,-0.255065,0.922026,-0.000938,0.000105,1.077974,0.000938,-0.0001049999999999,0.8661179999999999,-0.226288,-0.214575,1.111708,-0.236848,-0.206575,0.892418,-0.592298,-0.1365239999999999,1.106808,-0.597738,-0.114228
188,0.9990045000000001,0.741436,-0.052406,0.8394855,0.541006,-0.083623,0.7212355000000001,0.729706,-0.176678,1.1327455,0.538416,-0.086194,1.2339555,0.744196,-0.184651,0.6976255,0.940056,-0.22807,1.2749755,0.968266,-0.25113,0.9221235,-0.001235,1.999999999999225e-05,1.0778765,0.001235,-2.0000000000006124e-05,0.8667655,-0.2360939999999999,-0.20657,1.1096055,-0.248554,-0.195844,0.8925055000000001,-0.6031139999999999,-0.133349,1.1069055,-0.6092839999999999,-0.111053
189,0.998972,0.7443385,-0.0487565,0.83935,0.5420685,-0.0802985,0.72115,0.7302885,-0.1730825,1.1332,0.5432285,-0.0827515,1.23491,0.7468484999999999,-0.1811605,0.69771,0.9404985,-0.2243085,1.2754299999999998,0.9636485,-0.2468185,0.92259,-0.0008635,-0.0002275,1.07741,0.0008634999999999,0.0002274999999999,0.86824,-0.2472115,-0.1962665,1.10792,-0.2611415,-0.1841655,0.89296,-0.6147715,-0.1296975,1.10736,-0.6220115,-0.1068865
190,0.999805,0.742125,-0.038335,0.839466,0.5396150000000001,-0.069964,0.721606,0.7258650000000001,-0.162192,1.134706,0.542815,-0.072303,1.236216,0.744075,-0.170247,0.698546,0.937085,-0.213384,1.2765360000000001,0.952735,-0.235244,0.9229670000000001,-0.0006099999999999,-0.000811,1.077033,0.00061,0.0008109999999999,0.872426,-0.263955,-0.174353,1.106466,-0.278165,-0.162863,0.894246,-0.6318349999999999,-0.11478,1.108466,-0.639705,-0.092851
191,1.0005635,0.740491,-0.0283839999999999,0.8398605,0.537991,-0.0601459999999999,0.7220405000000001,0.7219209999999999,-0.15191,1.1363105,0.5420309999999999,-0.0623709999999999,1.2380905,0.742761,-0.160055,0.6994005000000001,0.934971,-0.202935,1.2775705,0.949121,-0.2229249999999999,0.9233565,-0.000304,-0.0013719999999999,1.0766435,0.000304,0.001372,0.8766005,-0.2796289999999999,-0.153272,1.1052875,-0.293469,-0.142365,0.8957605,-0.647679,-0.09983,1.1093905,-0.655819,-0.078497
192,1.0012219999999998,0.73867,-0.019333,0.840226,0.53677,-0.050973,0.7224560000000001,0.71862,-0.142736,1.1378059999999999,0.54196,-0.053086,1.239806,0.74153,-0.1503519999999999,0.7002360000000001,0.93375,-0.193031,1.278526,0.94664,-0.211011,0.923674,-4.800000000000117e-05,-0.0018989999999999,1.076326,4.799999999999943e-05,0.0018989999999999,0.880846,-0.29401,-0.1332539999999999,1.104194,-0.30698,-0.122538,0.8975760000000002,-0.66211,-0.084162,1.110096,-0.67025,-0.064316
193,1.002152,0.7356315,-0.010264,0.841092,0.5354615,-0.041969,0.723142,0.7145815,-0.133775,1.1399119999999998,0.5422415,-0.043883,1.240972,0.7397515,-0.140539,0.7014020000000001,0.9271715,-0.183518,1.279512,0.9440815,-0.199148,0.923947,0.0002325,-0.002429,1.076053,-0.0002325,0.002429,0.885462,-0.3078385,-0.112667,1.103435,-0.3201985,-0.102528,0.899972,-0.6760185,-0.067844,1.110822,-0.6842285,-0.049605
194,1.0032025,0.7324419999999999,-0.0013144999999999,0.8422815000000001,0.5339119999999999,-0.0332094999999999,0.7239915,0.709812,-0.1247824999999999,1.1421815,0.542782,-0.0347484999999999,1.2425215,0.738132,-0.1312025,0.7026615,0.921372,-0.1737915,1.2808115,0.941332,-0.1872915,0.9240405,0.000493,-0.0029364999999999,1.0759595,-0.000493,0.0029365,0.8902015,-0.320968,-0.0917355,1.1026545,-0.333418,-0.0825545,0.9026215000000001,-0.689288,-0.0514595,1.1115715,-0.6978380000000001,-0.0346335
195,1.004268,0.729033,0.0074784999999999,0.843486,0.529853,-0.0242235,0.724896,0.7069230000000001,-0.1161255,1.1443159999999999,0.5381830000000001,-0.0256705,1.2442559999999998,0.7384130000000001,-0.1224455,0.703866,0.918003,-0.1640755,1.281916,0.940603,-0.1758855,0.924131,0.0008939999999999,-0.0034175,1.075869,-0.0008939999999999,0.0034174999999999,0.894916,-0.331737,-0.0715805,1.101869,-0.344557,-0.0639155,0.905376,-0.7001269999999999,-0.0354075,1.112266,-0.708907,-0.0205805
