sb224sc-HT22-VT27/4dt907/src/ml-research/a11/datafiles/labeled_files/A101_kinect.csv
FrameNo,nose_3d_x,nose_3d_y,nose_3d_z,left_shoulder_3d_x,left_shoulder_3d_y,left_shoulder_3d_z,left_elbow_3d_x,left_elbow_3d_y,left_elbow_3d_z,right_shoulder_3d_x,right_shoulder_3d_y,right_shoulder_3d_z,right_elbow_3d_x,right_elbow_3d_y,right_elbow_3d_z,left_wrist_3d_x,left_wrist_3d_y,left_wrist_3d_z,right_wrist_3d_x,right_wrist_3d_y,right_wrist_3d_z,left_hip_3d_x,left_hip_3d_y,left_hip_3d_z,right_hip_3d_x,right_hip_3d_y,right_hip_3d_z,left_knee_3d_x,left_knee_3d_y,left_knee_3d_z,right_knee_3d_x,right_knee_3d_y,right_knee_3d_z,left_ankle_3d_x,left_ankle_3d_y,left_ankle_3d_z,right_ankle_3d_x,right_ankle_3d_y,right_ankle_3d_z,activity_label
2,-0.010137,0.759861,0.129068,-0.171075,0.566941,0.1163469999999999,-0.251925,0.829221,0.0244819999999999,0.173335,0.566031,0.128775,0.275805,0.801441,0.07293,-0.241875,1.096941,-0.022396,0.293515,1.0496409999999998,0.0006599999999999,-0.077881,-3.699999999999992e-05,0.0006989999999999,0.077881,3.700000000000003e-05,-0.000699,-0.1362249999999999,-0.481759,-0.017396,0.124955,-0.524159,0.0230999999999999,-0.148995,-0.876029,0.0098229999999999,0.139875,-0.913939,0.0198119999999999,1
3,-0.0104034999999999,0.7596145,0.12845,-0.1704864999999999,0.5667745000000001,0.118534,-0.2518265,0.8169645,0.026201,0.1732535,0.5661445,0.128991,0.2754735,0.8013945,0.073373,-0.2419065,1.0963744999999998,-0.022219,0.2929135,1.0497744999999998,0.000572,-0.0778685,-1.7500000000000046e-05,0.0005029999999999,0.0778685,1.7499999999999937e-05,-0.000503,-0.1394365,-0.5210355,-0.010695,0.1250735,-0.5241454999999999,0.023439,-0.1480965,-0.8776455,0.008501,0.1391135,-0.9147855,0.021636,1
4,-0.0105785,0.7592705,0.1280275,-0.1701285,0.5670905,0.1206585,-0.2517385,0.8222005,0.0246044999999999,0.1732314999999999,0.5661805,0.1289064999999999,0.2750615,0.8014305,0.0735545,-0.2419485,1.0963005,-0.0221735,0.2925115,1.0500005,0.0006064999999999,-0.0778405,-6.550000000000002e-05,0.0005534999999999,0.0778405,6.550000000000002e-05,-0.0005535,-0.1364385,-0.4848895,-0.0167605,0.1249114999999999,-0.5240995,0.0234855,-0.1484285,-0.8774695,0.0088894999999999,0.1383515,-0.9150295,0.0216675,1
5,-0.010695,0.758921,0.1277435,-0.169962,0.567201,0.1220815,-0.252442,0.8245709999999999,0.0245025,0.173248,0.566101,0.1286495,0.274558,0.801071,0.0737255,-0.241952,1.096081,-0.0223714999999999,0.292188,1.050781,0.0006864999999999,-0.077819,0.000195,0.0006785,0.077819,-0.000195,-0.0006784999999999,-0.137812,-0.500919,-0.0130524999999999,0.1247179999999999,-0.524359,0.0234945,-0.147432,-0.880839,0.0096005,0.138668,-0.914929,0.0217025,1
6,-0.0107005,0.758423,0.1276255,-0.1716355,0.567233,0.1164045,-0.2519655,0.815793,0.0257104999999999,0.1732145,0.566233,0.1284415,0.2743345,0.801103,0.0737945,-0.2420155,1.095993,-0.0224985,0.2919645,1.050793,0.0008014999999999,-0.0778215,0.000214,0.0006674999999999,0.0778215,-0.000214,-0.0006675,-0.1382255,-0.5091870000000001,-0.0126065,0.1247345,-0.5243570000000001,0.0236134999999999,-0.1475455,-0.880347,0.0104814999999999,0.1382545,-0.915797,0.0202114999999999,1
7,-0.010943,0.7591385,0.1280315,-0.171495,0.5663485,0.1163265,-0.252885,0.8253685000000001,0.0246225,0.172175,0.5664985,0.1288025,0.274305,0.8014685,0.0741015,-0.242365,1.0965085,-0.0227764999999999,0.2919049999999999,1.0507085,0.0010895,-0.077782,3.150000000000006e-05,0.0005254999999999,0.077782,-3.149999999999995e-05,-0.0005254999999999,-0.139015,-0.4992014999999999,-0.0140825,0.1246549999999999,-0.5241915,0.0238105,-0.148665,-0.8767015,0.0106985,0.139445,-0.9163515,0.0187024999999999,1
8,-0.0110659999999999,0.759027,0.1280555,-0.171698,0.566187,0.1157625,-0.253268,0.824147,0.0246305,0.171872,0.566507,0.1288155,0.274142,0.801427,0.0742765,-0.242528,1.0964170000000002,-0.0228734999999999,0.291832,1.050717,0.0012324999999999,-0.077769,3.1999999999999965e-05,0.0004994999999999,0.077769,-3.200000000000002e-05,-0.0004994999999999,-0.1390179999999999,-0.499193,-0.0141524999999999,0.124652,-0.5241830000000001,0.0237925,-0.1488379999999999,-0.8772530000000001,0.0105345,0.139292,-0.916403,0.0185835,1
9,-0.0111669999999999,0.7589085,0.1280775,-0.1719879999999999,0.5660285,0.1151615,-0.253798,0.8229785,0.0247225,0.171562,0.5665185,0.1288254999999999,0.2740519999999999,0.8014185,0.0745065,-0.242698,1.0962385,-0.0229634999999999,0.2918219999999999,1.0507385,0.0014405,-0.077765,5.050000000000004e-05,0.0004704999999999,0.077765,-5.049999999999998e-05,-0.0004704999999999,-0.1390179999999999,-0.4991715,-0.0141234999999999,0.124622,-0.5241915,0.0238055,-0.148998,-0.8778215,0.0104315,0.139212,-0.9168815,0.0178595,1
10,-0.0112629999999999,0.758741,0.1281095,-0.1721059999999999,0.565831,0.1152465,-0.254336,0.822711,0.0248545,0.171274,0.566591,0.1290125,0.274014,0.801711,0.0749315,-0.242836,1.096011,-0.0230584999999999,0.291814,1.0508110000000002,0.0019635,-0.07774,-7.10000000000001e-05,0.0004455,0.07774,7.10000000000001e-05,-0.0004454999999999,-0.139086,-0.498539,-0.0142414999999999,0.124554,-0.524069,0.0238035,-0.1490959999999999,-0.877689,0.0104565,0.139124,-0.917419,0.0172015,1
11,-0.0113604999999999,0.7585729999999999,0.128285,-0.1722335,0.565663,0.114928,-0.2548335,0.823813,0.0248229999999999,0.1710165,0.566653,0.129218,0.2740165,0.802023,0.0753659999999999,-0.2429735,1.0957830000000002,-0.0231509999999999,0.2918165,1.050883,0.0025209999999999,-0.0777055,-0.0001459999999999,0.0004209999999999,0.0777055,0.000146,-0.0004209999999999,-0.1391635,-0.495527,-0.014904,0.1245064999999999,-0.523997,0.023808,-0.1492935,-0.877347,0.0105339999999999,0.1391765,-0.917987,0.0164069999999999,1
12,-0.0114589999999999,0.7584190000000001,0.1285835,-0.172407,0.565579,0.1144085,-0.255367,0.824459,0.0249385,0.170813,0.566729,0.1294425,0.274023,0.8023290000000001,0.0758225,-0.243087,1.095479,-0.0232384999999999,0.291813,1.050979,0.0031215,-0.0776709999999999,-0.000223,0.0003855,0.0776709999999999,0.0002229999999999,-0.0003854999999999,-0.139407,-0.497961,-0.0144714999999999,0.124453,-0.523921,0.0238125,-0.149497,-0.8770009999999999,0.0106125,0.1393029999999999,-0.918511,0.0155115,1
13,-0.011529,0.7582575,0.1288935,-0.172368,0.5655075,0.1144195,-0.255818,0.8249375,0.0249625,0.1708019999999999,0.5667875,0.1296905,0.274052,0.8026475000000001,0.0762765,-0.243178,1.0951875,-0.0233294999999999,0.291862,1.0508875,0.0037265,-0.077648,-0.0002954999999999,0.0003225,0.077648,0.0002955,-0.0003224999999999,-0.139578,-0.4952925,-0.0150285,0.1243819999999999,-0.5238524999999999,0.0237985,-0.149748,-0.8761025,0.0106265,0.1393319999999999,-0.9186325,0.0149605,1
14,-0.011531,0.7581755,0.129194,-0.172374,0.5655755,0.11425,-0.256114,0.8262355,0.024777,0.170856,0.5668755,0.129939,0.274096,0.8029955,0.076714,-0.243144,1.0952255,-0.0235449999999999,0.2919759999999999,1.0508255,0.00434,-0.0776419999999999,-0.0003725,0.0002759999999999,0.0776419999999999,0.0003725,-0.0002759999999999,-0.1397439999999999,-0.4919945,-0.015585,0.124336,-0.5237845,0.023726,-0.149924,-0.8754645000000001,0.010552,0.139406,-0.9185045,0.014676,1
15,-0.0114894999999999,0.7580100000000001,0.1295275,-0.1723335,0.56569,0.1142665,-0.2562735,0.8272,0.0246544999999999,0.1709365,0.56691,0.1301795,0.2741765,0.8033,0.0771594999999999,-0.2430334999999999,1.09526,-0.0238335,0.2921665,1.05076,0.0050404999999999,-0.0776425,-0.0004499999999999,0.0002344999999999,0.0776425,0.00045,-0.0002345,-0.1399235,-0.48844,-0.0161955,0.1243065,-0.52372,0.0236394999999999,-0.1500135,-0.8750199999999999,0.0104014999999999,0.1394565,-0.91875,0.0141714999999999,1
16,-0.0114035,0.757757,0.1298825,-0.1723335,0.5657970000000001,0.1138204999999999,-0.2563434999999999,0.8276570000000001,0.0246524999999999,0.1710265,0.5668970000000001,0.1303945,0.2743164999999999,0.803597,0.0776284999999999,-0.2429135,1.096197,-0.0241535,0.2924065,1.050697,0.0057544999999999,-0.0776565,-0.000525,0.0001834999999999,0.0776565,0.000525,-0.0001835,-0.1400835,-0.488543,-0.0161455,0.1242765,-0.523663,0.0235044999999999,-0.1500835,-0.874593,0.0102854999999999,0.1394465,-0.918913,0.0140844999999999,1
17,-0.011298,0.7575200000000001,0.1302295,-0.172173,0.5659500000000001,0.1141065,-0.256233,0.8280500000000001,0.0245395,0.171167,0.5668700000000001,0.1305735,0.274517,0.80388,0.0781554999999999,-0.242763,1.09603,-0.0245705,0.292817,1.05063,0.0064204999999999,-0.077683,-0.000575,0.0001014999999999,0.077683,0.000575,-0.0001014999999999,-0.140173,-0.48954,-0.0160874999999999,0.124237,-0.52365,0.0233045,-0.150063,-0.8742599999999999,0.0101265,0.139357,-0.91869,0.0139975,1
18,-0.0111839999999999,0.757284,0.1305625,-0.171938,0.5660839999999999,0.1139935,-0.256098,0.828754,0.0243935,0.171412,0.566894,0.1306425,0.274732,0.804234,0.0785765,-0.242568,1.095634,-0.0250205,0.293322,1.050534,0.0069284999999999,-0.07771,-0.0005479999999999,-2.4500000000003685e-05,0.07771,0.0005479999999999,2.4499999999996747e-05,-0.140408,-0.493346,-0.0153845,0.124202,-0.523726,0.0230914999999999,-0.150038,-0.8744160000000001,0.0099504999999999,0.139292,-0.917986,0.0138725,1
19,-0.0110135,0.7571545,0.130703,-0.1718055,0.5661444999999999,0.113904,-0.2559555,0.8281345,0.024188,0.1715644999999999,0.5669845,0.130641,0.2749545,0.8043545,0.078726,-0.2420455,1.0948945,-0.0256849999999999,0.2938845,1.0506945,0.007056,-0.0777595,-0.0004135,-0.000182,0.0777595,0.0004134999999999,0.000182,-0.1406455,-0.4963955,-0.0150819999999999,0.1242345,-0.5239055,0.0229,-0.1499955,-0.8744055000000001,0.009774,0.1391345,-0.9178255,0.014085,1
20,-0.0107715,0.7571545,0.1305315,-0.1714695,0.5661444999999999,0.1136195,-0.2557994999999999,0.8274245,0.0239724999999999,0.1718205,0.5669845,0.1304705,0.2752305,0.8043545,0.0785575,-0.2414695,1.0948945,-0.0267805,0.2946105,1.0506945,0.0069144999999999,-0.0778205,-0.0004135,-0.0003355,0.0778205,0.0004134999999999,0.0003354999999999,-0.1408395,-0.4986655,-0.0144665,0.1242605,-0.5239055,0.0227155,-0.1499495,-0.8744055000000001,0.0095904999999999,0.1389705,-0.9177355,0.0144264999999999,1
21,-0.010508,0.7571545,0.130352,-0.171073,0.5661444999999999,0.113449,-0.255453,0.8277245,0.0233419999999999,0.172107,0.5669845,0.130293,0.275537,0.8043545,0.078381,-0.2409029999999999,1.0948945,-0.0279639999999999,0.295427,1.0506945,0.0067689999999999,-0.077874,-0.0004135,-0.0004919999999999,0.077874,0.0004134999999999,0.0004919999999999,-0.1409429999999999,-0.4976955,-0.014669,0.124277,-0.5239055,0.022522,-0.149953,-0.8744055000000001,0.0093949999999999,0.138787,-0.9177155,0.0144159999999999,1
22,-0.010288,0.7571505000000001,0.1301189999999999,-0.170663,0.5662205,0.112713,-0.254783,0.8282005,0.022545,0.172377,0.5669305,0.1300629999999999,0.275877,0.8043205,0.078155,-0.2402929999999999,1.0961305,-0.0294719999999999,0.296377,1.0506305,0.00658,-0.077917,-0.0004105,-0.0006699999999999,0.077917,0.0004105,0.00067,-0.140923,-0.4977595,-0.0146649999999999,0.124327,-0.5238995,0.022299,-0.149903,-0.8743095,0.009368,0.138677,-0.9169495,0.014928,1
23,-0.0098775,0.757144,0.1296709999999999,-0.1700974999999999,0.566644,0.111727,-0.2537975,0.826934,0.021221,0.1726825,0.567034,0.129723,0.2764225,0.804334,0.077805,-0.2394475,1.098384,-0.0316349999999999,0.2976425,1.0503840000000002,0.00599,-0.0779505,-0.0001889999999999,-0.000883,0.0779505,0.0001889999999999,0.000883,-0.1408975,-0.494796,-0.0153509999999999,0.1243225,-0.524206,0.022229,-0.1499575,-0.874156,0.009349,0.1386525,-0.916256,0.015244,1
24,-0.009401,0.7570975,0.1291014999999999,-0.169564,0.5672175,0.1107055,-0.252544,0.8256475,0.0193324999999999,0.172976,0.5672075000000001,0.1293395,0.277016,0.8043775000000001,0.0773655,-0.238254,1.1005975,-0.0338845,0.298976,1.0501975,0.0052644999999999,-0.077977,8.550000000000007e-05,-0.0011025,0.077977,-8.550000000000007e-05,0.0011024999999999,-0.140784,-0.4924225,-0.0158655,0.124306,-0.5245725,0.0221374999999999,-0.1500139999999999,-0.8738925,0.0093024999999999,0.1386959999999999,-0.9158625,0.0151834999999999,1
25,-0.0089285,0.757201,0.1284825,-0.1690985,0.567891,0.1089705,-0.2513085,0.824871,0.0174605,0.1731714999999999,0.567411,0.1289135,0.2776015,0.804401,0.0768645,-0.2367185,1.103251,-0.0361074999999999,0.3003715,1.049851,0.0044214999999999,-0.0780194999999999,0.0003859999999999,-0.0012674999999999,0.0780194999999999,-0.000386,0.0012674999999999,-0.1407785,-0.494939,-0.0157465,0.1242415,-0.5250090000000001,0.0220005,-0.1501585,-0.873789,0.0090195,0.1386814999999999,-0.915289,0.0153405,1
26,-0.008481,0.7572939999999999,0.127813,-0.168561,0.568604,0.107296,-0.250141,0.823124,0.015593,0.173399,0.567634,0.128453,0.278229,0.804414,0.076297,-0.235181,1.105314,-0.038339,0.301769,1.049414,0.003386,-0.07805,0.0006709999999999,-0.0014489999999999,0.07805,-0.0006709999999999,0.0014489999999999,-0.140881,-0.497216,-0.015702,0.1242089999999999,-0.5254260000000001,0.021806,-0.150251,-0.873846,0.008639,0.138629,-0.915026,0.015231,1
27,-0.0080055,0.7575489999999999,0.1269535,-0.1680465,0.569279,0.1055165,-0.2490965,0.822089,0.0135475,0.1736634999999999,0.5678789999999999,0.1279215,0.2789435,0.8043089999999999,0.0756415,-0.2336865,1.108279,-0.0405635,0.3031935,1.048779,0.0021375,-0.0780415,0.000964,-0.0016484999999999,0.0780415,-0.000964,0.0016484999999999,-0.1407665,-0.497621,-0.0163825,0.1242434999999999,-0.525891,0.0213615,-0.1504165,-0.873801,0.0082104999999999,0.1385434999999999,-0.914531,0.0152915,1
28,-0.0075765,0.7578655000000001,0.1259704999999999,-0.1676045,0.5699055000000001,0.1031275,-0.2481644999999999,0.8201055,0.0104324999999999,0.1739355,0.5681555,0.1273355,0.2798055,0.8041755,0.0748745,-0.2327945,1.1077755,-0.0430675,0.3046554999999999,1.0479755,0.0006074999999999,-0.0780375,0.0012305,-0.0019335,0.0780375,-0.0012305,0.0019334999999999,-0.1407445,-0.4988245,-0.0169665,0.1242655,-0.5263445,0.0207504999999999,-0.1505245,-0.8740545,0.0077024999999999,0.1384455,-0.9138345,0.0154095,1
29,-0.007102,0.7582285,0.124879,-0.167208,0.5704085,0.100755,-0.2473979999999999,0.8187684999999999,0.007476,0.174272,0.5684984999999999,0.126755,0.280802,0.8039985,0.07384,-0.231948,1.1065985,-0.045248,0.306282,1.0471985,-0.001183,-0.078038,0.0014995,-0.0022519999999999,0.078038,-0.0014995,0.0022519999999999,-0.140908,-0.5022515000000001,-0.017547,0.124282,-0.5267915000000001,0.020155,-0.150788,-0.8741215,0.007168,0.138272,-0.9131015,0.01533,1
30,-0.006539,0.758669,0.123458,-0.1669,0.570879,0.098106,-0.24666,0.817809,0.003732,0.1747,0.568849,0.126021,0.28198,0.803779,0.072632,-0.23101,1.106529,-0.049417,0.30823,1.046429,-0.0034869999999999,-0.0780609999999999,0.001739,-0.0026379999999999,0.0780609999999999,-0.0017389999999999,0.002638,-0.14109,-0.505881,-0.0182859999999999,0.12428,-0.527211,0.019424,-0.1510699999999999,-0.873841,0.006562,0.13811,-0.912761,0.015139,1
31,-0.0059905,0.7591455,0.12195,-0.1667965,0.5713355,0.095567,-0.2463265,0.8170655,-3.9999999999970615e-06,0.1751335,0.5692255,0.125126,0.2832535,0.8034755,0.071325,-0.2300465,1.1027455,-0.054664,0.3101435,1.0454455,-0.005954,-0.0780985,0.0019475,-0.0030239999999999,0.0780985,-0.0019474999999999,0.003024,-0.1411164999999999,-0.5070645,-0.019482,0.1242635,-0.5274945,0.018715,-0.1512164999999999,-0.8739945,0.0058929999999999,0.1379734999999999,-0.9125645,0.014994,1
32,-0.005581,0.7593315,0.1207195,-0.166697,0.5713315,0.0932865,-0.246167,0.8174315,-0.0037035,0.175503,0.5692615,0.1244385,0.2843529999999999,0.8034715,0.0703505,-0.229237,1.1036415,-0.0595825,0.311813,1.0454415,-0.0079985,-0.078135,0.0019515,-0.0033574999999999,0.078135,-0.0019515,0.0033574999999999,-0.140977,-0.5034485,-0.0206335,0.124233,-0.5274985,0.0179914999999999,-0.151277,-0.8736484999999999,0.0053564999999999,0.1378329999999999,-0.9123885,0.0147764999999999,1
33,-0.0051889999999999,0.7595715000000001,0.1193095,-0.166605,0.5713315,0.0909735,-0.245995,0.8165015,-0.0072015,0.175835,0.5692915000000001,0.1237274999999999,0.285405,0.8034715,0.0693435,-0.228835,1.1036415,-0.0646954999999999,0.313415,1.0454415,-0.0101025,-0.0781699999999999,0.0019515,-0.0037314999999999,0.0781699999999999,-0.0019515,0.0037314999999999,-0.140935,-0.4999685,-0.0216005,0.1241849999999999,-0.5274985,0.0172025,-0.151395,-0.8736484999999999,0.0047705,0.137885,-0.9123385,0.0139195,1
34,-0.0047529999999999,0.7595715000000001,0.1176895,-0.166551,0.5713315,0.0888335,-0.245701,0.8165015,-0.0108064999999999,0.176209,0.5692915000000001,0.1230645,0.286429,0.8034715,0.0683334999999999,-0.228211,1.1036415,-0.0700715,0.3149889999999999,1.0454415,-0.0122164999999999,-0.078209,0.0019515,-0.0041624999999999,0.078209,-0.0019515,0.0041624999999999,-0.140861,-0.4970485,-0.0230355,0.124029,-0.5274985,0.0162825,-0.1515309999999999,-0.8736484999999999,0.0040135,0.137709,-0.9123385,0.0130835,1
35,-0.0042454999999999,0.7598050000000001,0.115785,-0.1665545,0.5715950000000001,0.086474,-0.2454645,0.8165950000000001,-0.014521,0.1765255,0.5695950000000001,0.122449,0.2874055,0.8032250000000001,0.067303,-0.2275545,1.1031449999999998,-0.0757,0.3164455,1.0447449999999998,-0.014261,-0.0782435,0.002112,-0.004636,0.0782435,-0.002112,0.0046359999999999,-0.1409145,-0.4970449999999999,-0.024596,0.1238954999999999,-0.527795,0.0150909999999999,-0.1516445,-0.873675,0.0030819999999999,0.1376555,-0.912595,0.0118209999999999,1
36,-0.0038235,0.7600079999999999,0.113987,-0.1665575,0.5716979999999999,0.084153,-0.2454275,0.8153079999999999,-0.018033,0.1767925,0.569878,0.121893,0.2882625,0.8029679999999999,0.06632,-0.2269175,1.100628,-0.081171,0.3177825,1.044128,-0.0162439999999999,-0.0782785,0.002235,-0.0050319999999999,0.0782785,-0.0022349999999999,0.0050319999999999,-0.1409875,-0.497192,-0.0261239999999999,0.1237325,-0.5280720000000001,0.013972,-0.1518175,-0.873842,0.002238,0.1375525,-0.912802,0.010824,1
37,-0.0032754999999999,0.7605839999999999,0.1123065,-0.1665215,0.571824,0.0820885,-0.2454815,0.8155439999999999,-0.0207085,0.1771085,0.570044,0.1214234999999999,0.2890985,0.8025939999999999,0.0653795,-0.2263715,1.099114,-0.0862624999999999,0.3190885,1.043414,-0.0180575,-0.0782775,0.002292,-0.0053215,0.0782775,-0.002292,0.0053214999999999,-0.1412315,-0.499626,-0.0273735,0.1235985,-0.528096,0.0127164999999999,-0.1519515,-0.873916,0.0014034999999999,0.1373685,-0.912786,0.0098774999999999,1
38,-0.0027735,0.7611469999999999,0.1105235,-0.1664775,0.5719569999999999,0.0800585,-0.2456875,0.816187,-0.0234045,0.1773425,0.570257,0.1209175,0.2897625,0.802277,0.0644875,-0.2259175,1.097847,-0.0911405,0.3200825,1.042947,-0.0197924999999999,-0.0782785,0.002302,-0.0055715,0.0782785,-0.002302,0.0055715,-0.1414475,-0.501233,-0.0287135,0.1234624999999999,-0.5282030000000001,0.0113184999999999,-0.1520675,-0.874163,0.0004245,0.1371425,-0.912713,0.0089585,1
39,-0.0023585,0.7617645,0.1089355,-0.1664695,0.5720545,0.0781815,-0.2459895,0.8164445,-0.0256375,0.1774205,0.5704545,0.1204605,0.2902205,0.8020845,0.0636815,-0.2255895,1.0965745,-0.0943515,0.3206704999999999,1.0425745,-0.0210705,-0.0782925,0.0023205,-0.0057704999999999,0.0782925,-0.0023205,0.0057704999999999,-0.1416695,-0.5016555,-0.0300415,0.1233505,-0.5282155000000001,0.0099815,-0.1521995,-0.8744255,-0.0004515,0.1368705,-0.9121055,0.0085005,1
40,-0.0020194999999999,0.762378,0.107321,-0.1664334999999999,0.572188,0.076354,-0.2462835,0.815268,-0.027825,0.1773265,0.570638,0.12,0.2905565,0.801968,0.062998,-0.2254735,1.096718,-0.0966239999999999,0.3211165,1.042318,-0.022202,-0.0783175,0.002366,-0.005974,0.0783175,-0.002366,0.005974,-0.1418235,-0.501162,-0.031722,0.1232264999999999,-0.5282519999999999,0.008617,-0.1522435,-0.8746619999999999,-0.001316,0.1365565,-0.911822,0.008294,1
41,-0.001719,0.762859,0.1056535,-0.166427,0.572369,0.0746594999999999,-0.246567,0.815739,-0.0300695,0.177223,0.570779,0.1195865,0.290813,0.801809,0.0622795,-0.225467,1.096199,-0.0987665,0.3214329999999999,1.041899,-0.0231795,-0.078335,0.002404,-0.0061995,0.078335,-0.002404,0.0061995,-0.141927,-0.500091,-0.0339255,0.123103,-0.528421,0.0070985,-0.152197,-0.874851,-0.0020835,0.136343,-0.911301,0.0078445,1
42,-0.0014939999999999,0.7632885,0.1039755,-0.166354,0.5726085,0.0728645,-0.246824,0.8152685,-0.0321515,0.177136,0.5709185,0.1190375,0.291096,0.8016385,0.0613055,-0.225124,1.0952485,-0.1015824999999999,0.321726,1.0413485,-0.0244835,-0.078364,0.0024395,-0.0063975,0.078364,-0.0024395,0.0063975,-0.142004,-0.4985115,-0.0364425,0.122916,-0.5285015,0.0051845,-0.152164,-0.8750515,-0.0028765,0.136186,-0.9113315,0.0070745,1
43,-0.0013365,0.763527,0.1022155,-0.1662685,0.572827,0.0709515,-0.2469985,0.8159369999999999,-0.0342275,0.1770215,0.570897,0.1181555,0.2913715,0.801487,0.0600615,-0.2244785,1.094847,-0.1042895,0.3219915,1.040747,-0.0259595,-0.0784025,0.002449,-0.0065605,0.0784025,-0.002449,0.0065605,-0.1421585,-0.4997029999999999,-0.0388904999999999,0.1228915,-0.528343,0.0029875,-0.1521885,-0.875143,-0.0036275,0.1360915,-0.911523,0.0060724999999999,1
44,-0.0013305,0.76368,0.100698,-0.1661925,0.5729500000000001,0.069156,-0.2470425,0.81592,-0.036709,0.1769175,0.57091,0.117276,0.2916175,0.80132,0.058601,-0.2239325,1.09489,-0.106832,0.3222675,1.04009,-0.0276659999999999,-0.0784515,0.0024459999999999,-0.0067129999999999,0.0784515,-0.002446,0.006713,-0.1421625,-0.49856,-0.0415959999999999,0.1229275,-0.52816,0.000525,-0.1523025,-0.8753,-0.0044999999999999,0.1360475,-0.91156,0.004404,1
45,-0.0013369999999999,0.7637225,0.098979,-0.166218,0.5730325,0.067483,-0.247048,0.8160625,-0.039428,0.176832,0.5709025,0.116337,0.291912,0.8011825,0.056923,-0.223418,1.0942625,-0.109782,0.322742,1.0394625,-0.029601,-0.078542,0.0024495,-0.0069079999999999,0.078542,-0.0024495,0.006908,-0.142168,-0.4977775,-0.044632,0.122952,-0.5276975,-0.002141,-0.152328,-0.8754675000000001,-0.005579,0.136032,-0.9114575,0.0028679999999999,1
46,-0.0013639999999999,0.763591,0.0971085,-0.166242,0.572991,0.0656775,-0.247022,0.815631,-0.0421405,0.176618,0.570891,0.1152455,0.2921479999999999,0.801141,0.0550564999999999,-0.223382,1.092671,-0.1127835,0.323268,1.038471,-0.0318785,-0.078657,0.0024169999999999,-0.0070785,0.078657,-0.002417,0.0070784999999999,-0.142262,-0.4962689999999999,-0.0483015,0.1230079999999999,-0.526989,-0.0053065,-0.152372,-0.875509,-0.0063875,0.135988,-0.911809,0.0012544999999999,1
47,-0.0014259999999999,0.7634305,0.0952845,-0.166303,0.5727905,0.0637675,-0.247123,0.8152305,-0.0451415,0.176227,0.5707405,0.1141615,0.292367,0.8010404999999999,0.0531405,-0.223353,1.0909905,-0.1159854999999999,0.323927,1.0372905,-0.0341765,-0.0787799999999999,0.0024194999999999,-0.0072415,0.0787799999999999,-0.0024194999999999,0.0072415,-0.142533,-0.4957594999999999,-0.0521994999999999,0.123137,-0.5262395000000001,-0.0086254999999999,-0.152513,-0.8755795000000001,-0.0070074999999999,0.135877,-0.9120595,-0.0001684999999999,1
48,-0.0014555,0.763378,0.0932435,-0.1663395,0.572608,0.0618365,-0.2473995,0.813018,-0.0479854999999999,0.1758105,0.570688,0.1129645,0.2924805,0.801048,0.0510155,-0.2232895,1.088928,-0.1196944999999999,0.3246805,1.036128,-0.0368025,-0.0789255,0.002347,-0.0073505,0.0789255,-0.002347,0.0073504999999999,-0.1428095,-0.494692,-0.0566855,0.1233404999999999,-0.5251020000000001,-0.0121684999999999,-0.1525895,-0.8755820000000001,-0.0080515,0.1357505,-0.911472,-0.0010714999999999,1
49,-0.0016384999999999,0.763351,0.091165,-0.1664825,0.5723410000000001,0.059823,-0.2478325,0.811191,-0.0508869999999999,0.1752375,0.570621,0.111652,0.2925875,0.8010510000000001,0.048652,-0.2232425,1.086551,-0.123505,0.3254275,1.034751,-0.039819,-0.0790984999999999,0.002236,-0.007391,0.0790984999999999,-0.002236,0.007391,-0.1431125,-0.493489,-0.061525,0.1236475,-0.5235989999999999,-0.015898,-0.1526425,-0.875409,-0.0090449999999999,0.1356175,-0.910379,-0.0017409999999999,1
50,-0.0018889999999999,0.7633125000000001,0.089006,-0.16686,0.5719125,0.057715,-0.24822,0.8097925,-0.053442,0.17459,0.5705325,0.110173,0.29268,0.8010125,0.045973,-0.22326,1.0852125,-0.1275669999999999,0.3261199999999999,1.0334124999999998,-0.0432459999999999,-0.079284,0.0021615,-0.0074219999999999,0.079284,-0.0021615,0.007422,-0.14344,-0.4911675,-0.066065,0.1240599999999999,-0.5218575,-0.0197969999999999,-0.15266,-0.8752274999999999,-0.0099869999999999,0.13534,-0.9090075,-0.0021689999999999,1
51,-0.0023454999999999,0.7630975,0.086566,-0.1673325,0.5714375,0.055563,-0.2485525,0.8077275,-0.056462,0.1738075,0.5704275000000001,0.108553,0.2927875,0.8002075000000001,0.042863,-0.2238325,1.0840275,-0.1316959999999999,0.3267475,1.0323275,-0.047318,-0.0794865,0.0019605,-0.007497,0.0794865,-0.0019605,0.007497,-0.1437725,-0.4886525,-0.071103,0.1246775,-0.5197525,-0.02415,-0.1526225,-0.8747725,-0.0111279999999999,0.1351375,-0.9075025,-0.0028919999999999,1
52,-0.0028075,0.763003,0.0841075,-0.1678045,0.570923,0.0533525,-0.2490045,0.806303,-0.0595734999999999,0.1731055,0.570503,0.1070815,0.2930355,0.799673,0.0397605,-0.2245145,1.082773,-0.1361685,0.3273155,1.031273,-0.0513984999999999,-0.0797075,0.0017259999999999,-0.0075884999999999,0.0797075,-0.001726,0.0075885,-0.1440845,-0.486137,-0.0758484999999999,0.1253655,-0.516957,-0.0283824999999999,-0.1525445,-0.874417,-0.0122854999999999,0.1350255,-0.905897,-0.0038744999999999,1
53,-0.0032275,0.762881,0.0814205,-0.1683505,0.570291,0.0511785,-0.2495205,0.804541,-0.0624585,0.1722995,0.570291,0.1051525,0.2932595,0.7994709999999999,0.0366885,-0.2251905,1.081391,-0.1408675,0.3277895,1.030391,-0.0557825,-0.0799685,0.001452,-0.0076265,0.0799685,-0.0014519999999999,0.0076264999999999,-0.1443405,-0.483449,-0.0805175,0.1261495,-0.513899,-0.0325285,-0.1523805,-0.873519,-0.0132975,0.1349195,-0.903979,-0.0045035,1
54,-0.003698,0.76285,0.0786804999999999,-0.168939,0.56981,0.0490194999999999,-0.250139,0.80306,-0.0654545,0.171481,0.57031,0.1031965,0.293501,0.79958,0.0335334999999999,-0.2259789999999999,1.08031,-0.1453755,0.327981,1.02921,-0.0600195,-0.080242,0.00118,-0.0076335,0.080242,-0.0011799999999999,0.0076334999999999,-0.1445789999999999,-0.4805,-0.0852355,0.127051,-0.51063,-0.0369205,-0.152289,-0.87237,-0.0141795,0.134921,-0.90176,-0.0049585,1
55,-0.0040839999999999,0.763384,0.0756395,-0.1694979999999999,0.568734,0.0463645,-0.250918,0.802584,-0.0690655,0.170672,0.569884,0.1005605,0.293922,0.8003439999999999,0.0296975,-0.227008,1.079384,-0.1506424999999999,0.328262,1.028884,-0.0649515,-0.080565,0.0009189999999999,-0.0076374999999999,0.080565,-0.0009189999999999,0.0076375,-0.144598,-0.4773159999999999,-0.0901025,0.128002,-0.506366,-0.0411475,-0.152018,-0.870376,-0.0149945,0.135052,-0.898866,-0.0054374999999999,1
56,-0.0044345,0.7639060000000001,0.072414,-0.1700315,0.568006,0.043852,-0.2517315,0.8014060000000001,-0.072609,0.1698785,0.5694560000000001,0.097916,0.2943785,0.800076,0.025797,-0.2281615,1.078796,-0.1558379999999999,0.3285785,1.028786,-0.069862,-0.0808795,0.0006309999999999,-0.0075329999999999,0.0808795,-0.0006309999999999,0.007533,-0.1445215,-0.473724,-0.094868,0.1289384999999999,-0.502014,-0.0453489999999999,-0.1517615,-0.867814,-0.0157249999999999,0.1350885,-0.895694,-0.0057309999999999,1
57,-0.0048989999999999,0.7642610000000001,0.0692995,-0.170758,0.567121,0.0415085,-0.252638,0.803261,-0.0762645,0.169032,0.5691510000000001,0.0954695,0.294782,0.799681,0.0221125,-0.229628,1.078521,-0.1605045,0.328882,1.029071,-0.0747645,-0.081235,0.0003239999999999,-0.0074144999999999,0.081235,-0.000324,0.0074145,-0.144448,-0.469689,-0.0991645,0.129802,-0.4974189999999999,-0.0493524999999999,-0.151448,-0.8648589999999999,-0.0160654999999999,0.135142,-0.8923789999999999,-0.0060334999999999,1
58,-0.0052874999999999,0.7645395,0.0656135,-0.1716345,0.5655895000000001,0.0385995,-0.2535245,0.8051695000000001,-0.0808435,0.1682855,0.5689095000000001,0.0924524999999999,0.2952455,0.7989695,0.0178084999999999,-0.2312445,1.0782695,-0.1658535,0.3291455,1.0295495,-0.0806235,-0.0815495,4.149999999999987e-05,-0.0073434999999999,0.0815495,-4.149999999999987e-05,0.0073434999999999,-0.1443144999999999,-0.4657705,-0.1031735,0.1306755,-0.4931205,-0.0537065,-0.1511045,-0.8614904999999999,-0.0165624999999999,0.1352055,-0.8886004999999999,-0.0064254999999999,1
59,-0.0057309999999999,0.7650675,0.062042,-0.172536,0.5641375,0.035672,-0.254436,0.8061975,-0.085762,0.167604,0.5687375,0.089373,0.295694,0.7983574999999999,0.013575,-0.233106,1.0778675000000002,-0.171412,0.329254,1.0300175,-0.086532,-0.081867,-0.0003114999999999,-0.0073529999999999,0.081867,0.0003114999999999,0.007353,-0.144136,-0.4617725,-0.107532,0.1314239999999999,-0.4887825,-0.057992,-0.150716,-0.8578725,-0.017104,0.135294,-0.8850125,-0.0072179999999999,1
60,-0.0060494999999999,0.7656394999999999,0.058534,-0.1733874999999999,0.5625294999999999,0.03281,-0.2553475,0.8067894999999999,-0.0902379999999999,0.1670924999999999,0.5684895,0.08618,0.2961825,0.7983994999999999,0.009597,-0.2349175,1.0778195000000002,-0.1763279999999999,0.3292325,1.0303995,-0.092118,-0.0822045,-0.0005065,-0.007369,0.0822045,0.0005065,0.007369,-0.1440075,-0.4579205,-0.111178,0.1319525,-0.4847305,-0.0615449999999999,-0.1504875,-0.8543205,-0.0174739999999999,0.1353325,-0.8816205,-0.0081419999999999,1
61,-0.0063714999999999,0.7660039999999999,0.054413,-0.1740485,0.561044,0.029672,-0.2567085,0.8070839999999999,-0.095312,0.1667914999999999,0.5680839999999999,0.082449,0.2967615,0.797844,0.004874,-0.2368885,1.077684,-0.182162,0.3294915,1.029094,-0.0985019999999999,-0.0825795,-0.000694,-0.007316,0.0825795,0.000694,0.007316,-0.1438585,-0.453756,-0.114782,0.1323715,-0.480166,-0.065054,-0.1501985,-0.8501960000000001,-0.01792,0.1354115,-0.877646,-0.009086,1
62,-0.0066075,0.766493,0.049989,-0.1745835,0.559713,0.026208,-0.2580435,0.8074129999999999,-0.1007249999999999,0.1667664999999999,0.5679529999999999,0.078501,0.2973665,0.797083,-0.0003609999999999,-0.2386635,1.077733,-0.188335,0.3298665,1.027873,-0.1049249999999999,-0.0829065,-0.0008909999999999,-0.007148,0.0829065,0.000891,0.007148,-0.1436935,-0.449257,-0.1184049999999999,0.1327364999999999,-0.475477,-0.068656,-0.1501235,-0.845867,-0.018603,0.1355465,-0.8734970000000001,-0.010699,1
63,-0.0065715,0.7671785,0.045239,-0.1749295,0.5582885,0.022264,-0.2592495,0.8074585,-0.106553,0.1668505,0.5678285,0.073891,0.2984004999999999,0.7955384999999999,-0.006371,-0.2400195,1.0774285,-0.195653,0.3305105,1.0267585,-0.1123029999999999,-0.0831235,-0.0011045,-0.006828,0.0831235,0.0011045,0.006828,-0.1433395,-0.4450314999999999,-0.121943,0.1331605,-0.4707415,-0.07235,-0.1499095,-0.8414715,-0.019822,0.1358504999999999,-0.8700315000000001,-0.013248,1
64,-0.0065395,0.767341,0.0400035,-0.1752025,0.557271,0.0182745,-0.2601525,0.806781,-0.1122955,0.1671575,0.568231,0.0691615,0.2993975,0.793361,-0.0124065,-0.2409425,1.076941,-0.2029555,0.3311075,1.025221,-0.1195755,-0.0833055,-0.001256,-0.0064945,0.0833055,0.0012559999999999,0.0064945,-0.1431125,-0.441119,-0.1250155,0.1335375,-0.4665289999999999,-0.0759405,-0.1496325,-0.837249,-0.0216405,0.1361475,-0.866819,-0.0156075,1
65,-0.0063765,0.767538,0.0342685,-0.1753255,0.556208,0.0137325,-0.2608155,0.8060980000000001,-0.1186265,0.1676145,0.568818,0.0637175,0.3005645,0.792158,-0.0191474999999999,-0.2415555,1.076378,-0.2111365,0.3318145,1.023018,-0.1275765,-0.0835424999999999,-0.0013179999999999,-0.0062345,0.0835424999999999,0.0013179999999999,0.0062345,-0.1428455,-0.436732,-0.1283265,0.1339945,-0.462092,-0.0797565,-0.1492455,-0.8328519999999999,-0.0243845,0.1366145,-0.8631519999999999,-0.0184054999999999,1
66,-0.0059079999999999,0.767584,0.0279715,-0.174955,0.555584,0.0088515,-0.261235,0.8049839999999999,-0.1253765,0.168215,0.568794,0.0572825,0.302085,0.7906439999999999,-0.0265774999999999,-0.2416549999999999,1.076014,-0.2197665,0.332795,1.020024,-0.1362165,-0.083863,-0.00124,-0.0060144999999999,0.083863,0.0012399999999999,0.0060145,-0.142505,-0.4331259999999999,-0.1318765,0.134525,-0.457966,-0.0837364999999999,-0.148855,-0.828676,-0.0277585,0.137175,-0.8594759999999999,-0.0216594999999999,1
67,-0.005339,0.7676455,0.0213045,-0.174303,0.5555055,0.0036865,-0.261553,0.8039155,-0.1321325,0.168867,0.5687255,0.0505085,0.3036569999999999,0.7887755000000001,-0.0344155,-0.241473,1.0756855,-0.2286625,0.3338569999999999,1.0163255,-0.1447425,-0.084207,-0.0012154999999999,-0.0057805,0.084207,0.0012155,0.0057804999999999,-0.142183,-0.4295344999999999,-0.1354325,0.134937,-0.4536844999999999,-0.0877525,-0.148473,-0.8243045,-0.0313675,0.137657,-0.8557045,-0.0252505,1
68,-0.0045829999999999,0.7675565,0.0141215,-0.173566,0.5557165,-0.0016594999999999,-0.261796,0.8035465,-0.1389455,0.169644,0.5684865,0.0433235,0.305354,0.7868065,-0.0426345,-0.240876,1.0757965,-0.2377755,0.335094,1.0124765,-0.1534255,-0.084574,-0.0011175,-0.0055674999999999,0.084574,0.0011174999999999,0.0055675,-0.141916,-0.4256434999999999,-0.1387854999999999,0.135294,-0.4493635,-0.0918954999999999,-0.147996,-0.8197835,-0.0353524999999999,0.138244,-0.8517335,-0.0290795,1
69,-0.0036185,0.7670790000000001,0.0065835,-0.1727225,0.555929,-0.0071665,-0.2619125,0.803349,-0.1460594999999999,0.1705675,0.568179,0.0358485,0.3071175,0.784519,-0.0508905,-0.2398525,1.075799,-0.2472694999999999,0.3365375,1.008519,-0.1621294999999999,-0.0849355,-0.001075,-0.0053065,0.0849355,0.0010749999999999,0.0053065,-0.1415525,-0.421601,-0.1422995,0.1357075,-0.445071,-0.0962395,-0.1472825,-0.815021,-0.0393625,0.1389075,-0.847611,-0.0330195,1
70,-0.0026965,0.766851,-0.0002869999999999,-0.1719095,0.556071,-0.012351,-0.2614095,0.803271,-0.152609,0.1714305,0.567661,0.028779,0.3088705,0.782431,-0.058695,-0.2388595,1.075891,-0.255849,0.3378205,1.006141,-0.1704089999999999,-0.0852084999999999,-0.000945,-0.005108,0.0852084999999999,0.000945,0.005108,-0.1410995,-0.418029,-0.145649,0.1361105,-0.441029,-0.100449,-0.1465795,-0.810599,-0.043312,0.1395005,-0.843849,-0.036961,1
71,-0.001803,0.7665595000000001,-0.0069064999999999,-0.170691,0.5560395,-0.0172515,-0.260811,0.8029795000000001,-0.1590095,0.1722989999999999,0.5670595,0.0219975,0.3106089999999999,0.7801995,-0.0662295,-0.237901,1.0758395,-0.2641095,0.339019,1.0027695,-0.1790395,-0.085446,-0.0008225,-0.0048684999999999,0.085446,0.0008225,0.0048685,-0.140651,-0.4146504999999999,-0.1489395,0.1364989999999999,-0.4371705,-0.1046695,-0.145931,-0.8064705,-0.0472395,0.1400489999999999,-0.8404805,-0.0405675,1
72,-0.0009934999999999,0.7658634999999999,-0.0134919999999999,-0.1694605,0.5558935,-0.021966,-0.2601905,0.8025534999999999,-0.165146,0.1730695,0.5661635,0.01541,0.3121995,0.7783835,-0.073409,-0.2371305,1.0757935,-0.271756,0.3400795,0.9994935,-0.187416,-0.0856045,-0.0006295,-0.004747,0.0856045,0.0006295,0.004747,-0.1403005,-0.4113665000000001,-0.152176,0.1366995,-0.4345865,-0.108966,-0.1454105,-0.8024965000000001,-0.051126,0.1404794999999999,-0.8369465,-0.043766,1
73,-0.0001745,0.76498,-0.0196229999999999,-0.1683635,0.55569,-0.026336,-0.2597735,0.8020200000000001,-0.170979,0.1735865,0.5651700000000001,0.0093169999999999,0.3135465,0.77613,-0.080359,-0.2364335,1.07542,-0.279129,0.3407865,0.99621,-0.195599,-0.0857025,-0.0004399999999999,-0.004637,0.0857025,0.00044,0.004637,-0.1400235,-0.4082099999999999,-0.155259,0.1366365,-0.4333899999999999,-0.1129889999999999,-0.1451035,-0.79875,-0.054754,0.1407365,-0.83361,-0.046937,1
74,0.0004654999999999,0.76387,-0.025527,-0.1674425,0.5553400000000001,-0.0304569999999999,-0.2595524999999999,0.8012100000000001,-0.176528,0.1739575,0.5640000000000001,0.0036069999999999,0.3146175,0.7738700000000001,-0.086976,-0.2359625,1.07499,-0.286188,0.3413175,0.99334,-0.203578,-0.0857545,-0.0003299999999999,-0.00447,0.0857545,0.0003299999999999,0.00447,-0.1398825,-0.4053,-0.158178,0.1364075,-0.4316,-0.116638,-0.1448725,-0.7952699999999999,-0.057798,0.1408174999999999,-0.8304699999999999,-0.050002,1
75,0.001029,0.7630349999999999,-0.0311364999999999,-0.166565,0.5548850000000001,-0.0345075,-0.2593649999999999,0.8005850000000001,-0.1817824999999999,0.1742449999999999,0.5631550000000001,-0.0016005,0.315435,0.7721450000000001,-0.0937025,-0.235535,1.074565,-0.2932425,0.341795,0.991055,-0.2115525,-0.085769,-0.0002449999999999,-0.0042405,0.085769,0.0002449999999999,0.0042404999999999,-0.139705,-0.401995,-0.1609925,0.136205,-0.4299449999999999,-0.1202525,-0.144695,-0.791785,-0.0607815,0.140795,-0.8273250000000001,-0.0532665,1
76,0.0015715,0.7623599999999999,-0.0365645,-0.1656455,0.55447,-0.0382795,-0.2591955,0.79955,-0.1867815,0.1745145,0.5623100000000001,-0.0066795,0.3162144999999999,0.7708299999999999,-0.1000975,-0.2351155,1.07421,-0.3001715,0.3422545,0.98876,-0.2193415,-0.0857845,-0.0001499999999999,-0.0039805,0.0857845,0.0001499999999999,0.0039805,-0.1395255,-0.39889,-0.1640115,0.1360645,-0.4281299999999999,-0.1237315,-0.1444955,-0.7883500000000001,-0.0639815,0.1407745,-0.8243100000000001,-0.0567535,1
77,0.0019385,0.7608849999999999,-0.0418315,-0.1647735,0.552725,-0.0419105,-0.2590835,0.7970649999999999,-0.1915504999999999,0.1746965,0.561425,-0.0115805,0.3168765,0.7683949999999999,-0.1064485,-0.2348434999999999,1.072435,-0.3069405,0.3426364999999999,0.985125,-0.2270605,-0.0858154999999999,-0.000175,-0.0037175,0.0858154999999999,0.0001749999999999,0.0037174999999999,-0.1393635,-0.396735,-0.1669405,0.1360965,-0.425975,-0.1268205,-0.1441434999999999,-0.786035,-0.0670125,0.1409765,-0.8221550000000001,-0.0598314999999999,1
78,0.0020499999999999,0.759605,-0.046722,-0.164214,0.551275,-0.0453699999999999,-0.259204,0.794945,-0.19603,0.174676,0.560945,-0.016135,0.317196,0.766655,-0.112784,-0.235544,1.067805,-0.3132,0.342586,0.981715,-0.2347,-0.085928,-0.000165,-0.0034359999999999,0.085928,0.0001649999999999,0.003436,-0.139364,-0.394745,-0.16926,0.135986,-0.4272749999999999,-0.12984,-0.143914,-0.783905,-0.069633,0.140956,-0.820185,-0.063146,1
79,0.0019235,0.7587600000000001,-0.0519849999999999,-0.1639355,0.55004,-0.0489939999999999,-0.2596155,0.7928599999999999,-0.2007499999999999,0.1743545,0.56052,-0.020807,0.3171845,0.76501,-0.119094,-0.2365855,1.06323,-0.31941,0.3419945,0.97836,-0.2427599999999999,-0.0860085,-0.00024,-0.0031039999999999,0.0860085,0.0002399999999999,0.0031039999999999,-0.1395255,-0.39236,-0.17181,0.1355845,-0.42841,-0.13313,-0.1439955,-0.78163,-0.072469,0.1406144999999999,-0.81799,-0.066458,1
80,0.0015374999999999,0.75777,-0.057802,-0.1641535,0.5489999999999999,-0.052983,-0.2605635,0.79076,-0.205932,0.1737465,0.56011,-0.0259189999999999,0.3168665,0.76349,-0.125962,-0.2382035,1.0583900000000002,-0.326332,0.3409365,0.97612,-0.251132,-0.0860675,-0.0001599999999999,-0.00289,0.0860675,0.00016,0.00289,-0.1397535,-0.3896699999999999,-0.174012,0.1349665,-0.42972,-0.136292,-0.1440535,-0.77788,-0.07526,0.1400065,-0.81446,-0.069639,1
81,0.0009154999999999,0.757075,-0.0636145,-0.1646585,0.547895,-0.0570144999999999,-0.2617885,0.788675,-0.2113395,0.1729315,0.559705,-0.0308475,0.3162715,0.762035,-0.1327995,-0.2401485,1.053675,-0.3333695,0.3395915,0.973655,-0.2594995,-0.0860665,-0.0001749999999999,-0.0027364999999999,0.0860665,0.0001749999999999,0.0027364999999999,-0.1401685,-0.3869549999999999,-0.1758795,0.1341215,-0.431485,-0.1390495,-0.1444485,-0.7742049999999999,-0.0780665,0.1391915,-0.810975,-0.0728285,1
82,7.600000000000326e-05,0.756165,-0.069499,-0.16548,0.5468149999999999,-0.0610909999999999,-0.2631,0.786805,-0.2169319999999999,0.17203,0.559405,-0.036077,0.31549,0.7607050000000001,-0.139702,-0.2422699999999999,1.048935,-0.340652,0.33814,0.970495,-0.268332,-0.086131,-0.000365,-0.0025889999999999,0.086131,0.000365,0.002589,-0.14081,-0.384675,-0.1777719999999999,0.1331,-0.432775,-0.141822,-0.14493,-0.770795,-0.081171,0.13821,-0.807595,-0.076104,1
83,-0.0008819999999999,0.75569,-0.075687,-0.166406,0.54562,-0.06556,-0.264536,0.7849999999999999,-0.2228349999999999,0.170874,0.5594,-0.041796,0.314564,0.7597700000000001,-0.147005,-0.244586,1.04387,-0.348315,0.336514,0.96703,-0.277125,-0.086219,-0.0003599999999999,-0.002429,0.086219,0.0003599999999999,0.002429,-0.141586,-0.3825099999999999,-0.179815,0.131984,-0.4336199999999999,-0.144675,-0.145706,-0.7673099999999999,-0.0846359999999999,0.1371339999999999,-0.80399,-0.079645,1
84,-0.0019569999999999,0.7549600000000001,-0.0820505,-0.167347,0.54355,-0.0700965,-0.265897,0.78274,-0.2288925,0.169593,0.5591700000000001,-0.0475435,0.313553,0.7583000000000001,-0.1544725,-0.246987,1.0378,-0.3561225,0.334703,0.96365,-0.2856425,-0.086325,-0.0005,-0.0023455,0.086325,0.0005,0.0023455,-0.142407,-0.3804599999999999,-0.1817025,0.130713,-0.43438,-0.1471825,-0.146557,-0.76364,-0.0880285,0.136133,-0.8004899999999999,-0.0836505,1
85,-0.0030055,0.7541249999999999,-0.088528,-0.1681625,0.541865,-0.07471,-0.2670025,0.7805150000000001,-0.235184,0.1683675,0.558335,-0.053295,0.3126375,0.7574350000000001,-0.162014,-0.2490925,1.031725,-0.363734,0.3330275,0.960885,-0.294784,-0.0864595,-0.000535,-0.002454,0.0864595,0.000535,0.0024539999999999,-0.1431625,-0.3778649999999999,-0.183284,0.1297974999999999,-0.433575,-0.149534,-0.1473025,-0.7597750000000001,-0.091472,0.1352275,-0.796605,-0.087507,1
86,-0.0040059999999999,0.753015,-0.095164,-0.168923,0.540115,-0.079498,-0.2679629999999999,0.7785249999999999,-0.241744,0.167097,0.557535,-0.059132,0.311727,0.756475,-0.1698339999999999,-0.2509929999999999,1.025575,-0.371444,0.331277,0.958735,-0.304304,-0.086593,-0.000675,-0.002565,0.086593,0.000675,0.0025649999999999,-0.143933,-0.375285,-0.184854,0.1288669999999999,-0.432615,-0.151954,-0.148123,-0.7553449999999999,-0.094599,0.134217,-0.7923450000000001,-0.090906,1
87,-0.0049394999999999,0.7516149999999999,-0.1021035,-0.1696675,0.537795,-0.0847535,-0.2689175,0.775755,-0.2486304999999999,0.1658425,0.5566850000000001,-0.0652355,0.3107225,0.7551650000000001,-0.1779204999999999,-0.2520275,1.022005,-0.3798205,0.3295225,0.956755,-0.3144205,-0.0866935,-0.0007949999999999,-0.0026505,0.0866935,0.000795,0.0026505,-0.1448275,-0.372775,-0.1869805,0.1278824999999999,-0.430675,-0.1546205,-0.1489875,-0.750775,-0.0978885,0.1333725,-0.788025,-0.0951045,1
88,-0.0057135,0.750315,-0.108741,-0.1701665,0.535755,-0.090127,-0.2697165,0.773325,-0.255476,0.1647335,0.555635,-0.071354,0.3098335,0.754005,-0.185966,-0.2528065,1.019035,-0.388356,0.3279535,0.954825,-0.323906,-0.0868275,-0.0008949999999999,-0.002825,0.0868275,0.000895,0.002825,-0.1456265,-0.369895,-0.1888959999999999,0.1270635,-0.4292049999999999,-0.1573459999999999,-0.1497265,-0.745685,-0.101028,0.1325835,-0.783205,-0.0988189999999999,1
89,-0.0064094999999999,0.748735,-0.1149885,-0.1705075,0.533575,-0.0952554999999999,-0.2703875,0.770805,-0.2618435,0.1637325,0.5549850000000001,-0.0768675,0.3089925,0.752725,-0.1935235,-0.2534274999999999,1.016425,-0.3962035,0.3266825,0.953175,-0.3331334999999999,-0.0869755,-0.0011449999999999,-0.0028945,0.0869755,0.001145,0.0028945,-0.1463875,-0.367075,-0.1910535,0.1262724999999999,-0.4282549999999999,-0.1604935,-0.1505275,-0.742015,-0.1044205,0.1317225,-0.779625,-0.1024445,1
90,-0.0070665,0.74613,-0.1215209999999999,-0.1706055,0.53121,-0.1005649999999999,-0.2708955,0.76823,-0.268075,0.1628845,0.55475,-0.082407,0.3081745,0.75131,-0.200735,-0.2540354999999999,1.0137,-0.403725,0.3255245,0.95048,-0.341945,-0.0871535,-0.00137,-0.0029179999999999,0.0871535,0.0013699999999999,0.002918,-0.1470955,-0.36352,-0.193525,0.1255145,-0.42596,-0.1638649999999999,-0.1512455,-0.73846,-0.1081159999999999,0.1310445,-0.77607,-0.106347,1
91,-0.007723,0.74362,-0.1280485,-0.170735,0.52859,-0.1059855,-0.271205,0.76534,-0.2741885,0.162055,0.55454,-0.0875155,0.307235,0.74814,-0.2075885,-0.2546549999999999,1.01109,-0.4107484999999999,0.3243749999999999,0.94765,-0.3498684999999999,-0.087336,-0.00163,-0.0029455,0.087336,0.0016299999999999,0.0029455,-0.147815,-0.35996,-0.1959584999999999,0.124745,-0.4233599999999999,-0.1672285,-0.151965,-0.7349,-0.1116875,0.130455,-0.77251,-0.1102855,1
92,-0.007852,0.7418,-0.1340589999999999,-0.170428,0.52678,-0.111319,-0.270808,0.7632800000000001,-0.2800249999999999,0.161652,0.55253,-0.0925729999999999,0.306622,0.74531,-0.213815,-0.254578,1.00932,-0.417055,0.323942,0.94614,-0.357595,-0.08729,-0.0017199999999999,-0.003001,0.08729,0.0017199999999999,0.003001,-0.148308,-0.35538,-0.199455,0.124302,-0.4187299999999999,-0.170715,-0.152498,-0.7303999999999999,-0.115186,0.129992,-0.76791,-0.114475,1
93,-0.007828,0.740805,-0.1396855,-0.170007,0.525605,-0.1166845,-0.270427,0.762005,-0.2856355,0.1614129999999999,0.550765,-0.0974755,0.306133,0.743255,-0.2192555,-0.254197,1.008945,-0.4228255,0.323853,0.945145,-0.3649855,-0.087187,-0.001805,-0.0030435,0.087187,0.001805,0.0030434999999999,-0.148637,-0.3503349999999999,-0.2028955,0.124103,-0.4136649999999999,-0.1741555,-0.152847,-0.725455,-0.1186275,0.129523,-0.763805,-0.1180615,1
94,-0.007488,0.74037,-0.1495905,-0.169265,0.5251300000000001,-0.1265455,-0.269935,0.76185,-0.2957685,0.161385,0.5502100000000001,-0.1067775,0.305845,0.7415700000000001,-0.2289185,-0.253525,1.00901,-0.4329285,0.323945,0.9452,-0.3761285,-0.086989,-0.0018299999999999,-0.0031024999999999,0.086989,0.00183,0.0031024999999999,-0.148745,-0.34456,-0.2108785,0.124105,-0.4078499999999999,-0.1821285,-0.1530949999999999,-0.71966,-0.1266195,0.129435,-0.7589,-0.1268065,1
95,-0.0067394999999999,0.742565,-0.1600355,-0.1683255,0.526615,-0.1371365,-0.2693855,0.763255,-0.3068794999999999,0.1619445,0.5501050000000001,-0.1167145,0.3055845,0.742725,-0.2390695,-0.2524155,1.010945,-0.4435194999999999,0.3240245,0.947305,-0.3876395,-0.0868505,-0.001815,-0.0033134999999999,0.0868505,0.001815,0.0033134999999999,-0.1501855,-0.334115,-0.2241995,0.1258945,-0.390965,-0.1975895,-0.1532955,-0.710815,-0.1355895,0.1294145,-0.749855,-0.1389314999999999,1
96,-0.0058199999999999,0.744755,-0.1698589999999999,-0.167468,0.528455,-0.14706,-0.268988,0.764035,-0.317724,0.162502,0.550155,-0.1261,0.305322,0.743085,-0.248574,-0.251388,1.011755,-0.453354,0.324032,0.948455,-0.397984,-0.086696,-0.0017749999999999,-0.003586,0.086696,0.0017749999999999,0.0035859999999999,-0.151718,-0.324105,-0.237274,0.127632,-0.374525,-0.212714,-0.153538,-0.7024050000000001,-0.144202,0.129332,-0.742395,-0.150803,1
97,-0.0046269999999999,0.746275,-0.179544,-0.166625,0.5303249999999999,-0.156623,-0.268705,0.764435,-0.328695,0.163165,0.550785,-0.135067,0.305175,0.743555,-0.257875,-0.250635,1.011085,-0.462905,0.324115,0.949795,-0.408285,-0.086544,-0.001835,-0.003765,0.086544,0.0018349999999999,0.0037649999999999,-0.153305,-0.314265,-0.250545,0.129355,-0.357925,-0.227725,-0.1537549999999999,-0.694205,-0.152604,0.129495,-0.735275,-0.163166,1
98,-0.0034175,0.748105,-0.1891749999999999,-0.1655845,0.530975,-0.166499,-0.2683244999999999,0.7649650000000001,-0.34013,0.1638754999999999,0.5507850000000001,-0.144342,0.3050255,0.7443550000000001,-0.26737,-0.2503745,1.010205,-0.47282,0.3242255,0.950965,-0.41833,-0.0862894999999999,-0.0018949999999999,-0.00404,0.0862894999999999,0.001895,0.00404,-0.1549945,-0.3040449999999999,-0.26405,0.1309654999999999,-0.341145,-0.24274,-0.1539045,-0.685945,-0.161486,0.1296155,-0.7279450000000001,-0.175786,1
99,-0.00225,0.75016,-0.198631,-0.164713,0.53182,-0.176071,-0.267943,0.76519,-0.351705,0.1647269999999999,0.55037,-0.153563,0.3048769999999999,0.74509,-0.277355,-0.250393,1.00896,-0.483285,0.324567,0.95344,-0.429095,-0.086064,-0.0019499999999999,-0.0043149999999999,0.086064,0.00195,0.004315,-0.156723,-0.29403,-0.277565,0.132497,-0.32474,-0.257765,-0.154033,-0.6778,-0.17034,0.129417,-0.72082,-0.187549,1
100,-0.0011335,0.751765,-0.208055,-0.1639035,0.5330550000000001,-0.1855329999999999,-0.2676234999999999,0.765015,-0.3631999999999999,0.1655065,0.549175,-0.1628859999999999,0.3046665,0.7472449999999999,-0.28783,-0.2504435,1.007225,-0.49448,0.3249465,0.956065,-0.44076,-0.0859065,-0.001925,-0.0046099999999999,0.0859065,0.001925,0.00461,-0.1585935,-0.2838949999999999,-0.2914299999999999,0.1339565,-0.308405,-0.27296,-0.1542035,-0.6697649999999999,-0.1792069999999999,0.1293665,-0.713875,-0.200061,1
101,-9.20000000000018e-05,0.75299,-0.217488,-0.163175,0.53437,-0.194691,-0.267735,0.7641500000000001,-0.374305,0.166205,0.5497799999999999,-0.171584,0.304345,0.74919,-0.298565,-0.250515,1.00479,-0.506235,0.3252649999999999,0.95827,-0.452655,-0.085753,-0.0019099999999999,-0.005005,0.085753,0.00191,0.0050049999999999,-0.160555,-0.2739799999999999,-0.305225,0.135355,-0.2929,-0.287885,-0.1544249999999999,-0.6622300000000001,-0.187837,0.129355,-0.70791,-0.212757,1
102,0.0008749999999999,0.7537200000000001,-0.227253,-0.162485,0.5341199999999999,-0.203837,-0.267845,0.76321,-0.38554,0.166825,0.5488,-0.180422,0.3040549999999999,0.7510600000000001,-0.30973,-0.250565,1.0018,-0.51877,0.3252549999999999,0.96023,-0.46523,-0.085508,-0.0019699999999999,-0.00529,0.085508,0.0019699999999999,0.0052899999999999,-0.162515,-0.26395,-0.319,0.136705,-0.27829,-0.30259,-0.154635,-0.65435,-0.196468,0.129305,-0.70142,-0.225261,1
103,0.0014014999999999,0.7538050000000001,-0.232585,-0.1619904999999999,0.532745,-0.208251,-0.2682905,0.7613049999999999,-0.391995,0.1670995,0.546955,-0.184604,0.3034695,0.752335,-0.316835,-0.2511105,0.998335,-0.5269349999999999,0.3249995,0.961275,-0.473835,-0.0852255,-0.002195,-0.005425,0.0852255,0.002195,0.0054249999999999,-0.1647404999999999,-0.254525,-0.327615,0.1378495,-0.264625,-0.312385,-0.1551005,-0.647275,-0.2004179999999999,0.1290495,-0.6957150000000001,-0.233256,1
104,0.0012389999999999,0.75134,-0.23724,-0.161903,0.52935,-0.2118519999999999,-0.269073,0.75694,-0.3978549999999999,0.166527,0.54469,-0.188004,0.302477,0.75003,-0.323295,-0.252183,0.99291,-0.534485,0.324557,0.96003,-0.4819549999999999,-0.08501,-0.0025,-0.005335,0.08501,0.0025,0.005335,-0.165793,-0.25036,-0.330735,0.137207,-0.26046,-0.315475,-0.155803,-0.64339,-0.203516,0.128197,-0.69155,-0.236363,1
105,0.0009874999999999,0.74846,-0.242339,-0.1616465,0.52596,-0.2157,-0.2698065,0.75349,-0.40367,0.1661235,0.54196,-0.191692,0.3015535,0.7481800000000001,-0.32977,-0.2531465,0.98846,-0.54253,0.3243434999999999,0.95917,-0.49114,-0.0847354999999999,-0.0027099999999999,-0.00531,0.0847354999999999,0.0027099999999999,0.00531,-0.1666765,-0.24595,-0.33409,0.1367435,-0.25605,-0.31881,-0.1563365,-0.6393,-0.206741,0.1274735,-0.6871400000000001,-0.239707,1
106,0.00061,0.745855,-0.247962,-0.16139,0.522355,-0.219868,-0.27048,0.7505550000000001,-0.409285,0.1656699999999999,0.538965,-0.195749,0.30017,0.745375,-0.336465,-0.25432,0.984915,-0.550895,0.32393,0.958505,-0.501005,-0.084419,-0.0028449999999999,-0.0052149999999999,0.084419,0.002845,0.0052149999999999,-0.16745,-0.241445,-0.337815,0.1363899999999999,-0.251545,-0.322505,-0.15678,-0.634875,-0.210402,0.12683,-0.682635,-0.243422,1
107,-2.400000000000145e-05,0.74274,-0.253495,-0.1618609999999999,0.52014,-0.223621,-0.271521,0.74693,-0.41425,0.164929,0.53638,-0.199462,0.298299,0.7419100000000001,-0.34294,-0.256341,0.97961,-0.5594,0.322729,0.9571,-0.51073,-0.084468,-0.00296,-0.00518,0.084468,0.0029599999999999,0.0051799999999999,-0.168511,-0.23823,-0.34035,0.1355489999999999,-0.24922,-0.3247,-0.157381,-0.631,-0.213428,0.1254989999999999,-0.67776,-0.2416309999999999,1
108,-0.0006399999999999,0.7397549999999999,-0.259111,-0.162208,0.517965,-0.227401,-0.272698,0.741455,-0.419405,0.164192,0.5338749999999999,-0.203202,0.296352,0.737895,-0.3491149999999999,-0.258278,0.974165,-0.567495,0.321202,0.955295,-0.519825,-0.084508,-0.003095,-0.0052049999999999,0.084508,0.0030949999999999,0.005205,-0.169588,-0.235175,-0.342765,0.134712,-0.247045,-0.326585,-0.157968,-0.6273350000000001,-0.2162369999999999,0.124222,-0.672015,-0.240336,1
109,-0.0015824999999999,0.7362150000000001,-0.265218,-0.1625585,0.515745,-0.231207,-0.2738885,0.736675,-0.424585,0.1634815,0.532095,-0.207043,0.2941815,0.7339150000000001,-0.355465,-0.2602885,0.967735,-0.575575,0.3193115,0.948005,-0.528455,-0.0845715,-0.0032949999999999,-0.005135,0.0845715,0.003295,0.005135,-0.1706685,-0.2320449999999999,-0.344865,0.1339415,-0.244965,-0.328775,-0.1585685,-0.623715,-0.218962,0.1229715,-0.665755,-0.239012,1
110,-0.002663,0.73281,-0.271474,-0.162888,0.51242,-0.235345,-0.274998,0.73121,-0.430135,0.162402,0.52815,-0.211538,0.291912,0.73016,-0.3621149999999999,-0.261978,0.96205,-0.583505,0.317432,0.94054,-0.5371049999999999,-0.084682,-0.0035,-0.004975,0.084682,0.0035,0.004975,-0.171688,-0.2283,-0.347295,0.133322,-0.2422599999999999,-0.3319149999999999,-0.159128,-0.6195900000000001,-0.222087,0.121682,-0.65924,-0.237313,1
111,-0.003695,0.729075,-0.277471,-0.1630909999999999,0.510255,-0.239477,-0.276021,0.725515,-0.435425,0.161209,0.525515,-0.216018,0.2894989999999999,0.725765,-0.368805,-0.263471,0.955405,-0.591465,0.315579,0.933045,-0.545605,-0.084809,-0.0036049999999999,-0.0048549999999999,0.084809,0.003605,0.0048549999999999,-0.1725809999999999,-0.2246049999999999,-0.349705,0.132949,-0.2396749999999999,-0.334885,-0.159561,-0.615675,-0.22501,0.120569,-0.652345,-0.235725,1
112,-0.0053315,0.72434,-0.285157,-0.1635545,0.50842,-0.245071,-0.2770445,0.71719,-0.443035,0.1593155,0.52242,-0.222375,0.2865655,0.7194400000000001,-0.377415,-0.2652245,0.94651,-0.601665,0.3133054999999999,0.92258,-0.555295,-0.0850455,-0.0036899999999999,-0.004655,0.0850455,0.00369,0.0046549999999999,-0.1739145,-0.2186099999999999,-0.353375,0.1329354999999999,-0.23507,-0.338945,-0.1600545,-0.60937,-0.229286,0.1193554999999999,-0.64304,-0.234927,1
113,-0.0064594999999999,0.719475,-0.29291,-0.1633224999999999,0.505715,-0.25081,-0.2775425,0.710785,-0.45003,0.1579975,0.518845,-0.228924,0.2847575,0.7138249999999999,-0.38591,-0.2660625,0.938685,-0.61189,0.3118174999999999,0.910595,-0.5644100000000001,-0.0851774999999999,-0.0037449999999999,-0.0043799999999999,0.0851774999999999,0.0037449999999999,0.0043799999999999,-0.1745125,-0.211945,-0.3573699999999999,0.1337975,-0.2295249999999999,-0.34347,-0.1599124999999999,-0.6023850000000001,-0.233567,0.1189675,-0.632745,-0.2343609999999999,1
114,-0.007644,0.714545,-0.30031,-0.163194,0.503225,-0.256151,-0.2782239999999999,0.7043649999999999,-0.45677,0.156596,0.5157349999999999,-0.23509,0.282966,0.708015,-0.39426,-0.267094,0.929375,-0.62217,0.310516,0.898505,-0.5725,-0.0853859999999999,-0.003915,-0.0040999999999999,0.0853859999999999,0.0039149999999999,0.0040999999999999,-0.175294,-0.205425,-0.36116,0.134606,-0.223835,-0.34757,-0.159854,-0.5951850000000001,-0.237665,0.118506,-0.622355,-0.233333,1
115,-0.008711,0.71011,-0.30733,-0.163043,0.49969,-0.261254,-0.278713,0.6976,-0.46359,0.1553069999999999,0.51332,-0.241001,0.2817469999999999,0.7026,-0.40229,-0.268063,0.91904,-0.6323300000000001,0.309577,0.88629,-0.5802,-0.085467,-0.0041699999999999,-0.004,0.085467,0.00417,0.004,-0.1760129999999999,-0.1986299999999999,-0.36517,0.135537,-0.21755,-0.35158,-0.159673,-0.58783,-0.241336,0.117807,-0.61142,-0.231382,1
116,-0.0095229999999999,0.70672,-0.31413,-0.162781,0.4963999999999999,-0.266338,-0.2787509999999999,0.68982,-0.47075,0.154209,0.50949,-0.246947,0.280949,0.6980299999999999,-0.41035,-0.268751,0.91083,-0.64184,0.309129,0.87475,-0.58796,-0.085659,-0.00407,-0.00378,0.085659,0.0040699999999999,0.00378,-0.176491,-0.19101,-0.36921,0.136879,-0.21044,-0.35551,-0.159291,-0.57959,-0.244958,0.117939,-0.60336,-0.235385,1
117,-0.0102875,0.703165,-0.32063,-0.1625605,0.492925,-0.271348,-0.2782505,0.684675,-0.47727,0.1532195,0.504905,-0.252913,0.2804295,0.6931050000000001,-0.41835,-0.2693705,0.902325,-0.65137,0.3091095,0.862905,-0.59622,-0.0858495,-0.0039449999999999,-0.00345,0.0858495,0.003945,0.0034499999999999,-0.1768704999999999,-0.1832549999999999,-0.37313,0.1382594999999999,-0.2030949999999999,-0.35954,-0.1588705,-0.5711849999999999,-0.248619,0.1181495,-0.595115,-0.238855,1
118,-0.010724,0.70074,-0.326785,-0.162336,0.49026,-0.276281,-0.278006,0.6798,-0.483715,0.152354,0.5006,-0.258735,0.280174,0.68876,-0.425745,-0.269876,0.89474,-0.6603950000000001,0.309734,0.85678,-0.604555,-0.0860539999999999,-0.0036399999999999,-0.003345,0.0860539999999999,0.00364,0.0033449999999999,-0.177236,-0.1748999999999999,-0.376915,0.1398239999999999,-0.19504,-0.363715,-0.158466,-0.56211,-0.252217,0.118584,-0.58624,-0.2427,1
119,-0.0110049999999999,0.6982550000000001,-0.3324499999999999,-0.162188,0.4874549999999999,-0.280599,-0.277708,0.675875,-0.48956,0.151862,0.498115,-0.263722,0.280142,0.6837249999999999,-0.43239,-0.2702279999999999,0.887135,-0.66907,0.310502,0.8499650000000001,-0.61271,-0.0863319999999999,-0.0034649999999999,-0.0032699999999999,0.0863319999999999,0.0034649999999999,0.00327,-0.1776579999999999,-0.167125,-0.38002,0.141432,-0.187395,-0.36755,-0.158098,-0.553285,-0.255227,0.119312,-0.5777650000000001,-0.24623,1
120,-0.0113539999999999,0.6954549999999999,-0.33782,-0.161998,0.4850449999999999,-0.284481,-0.2774979999999999,0.671345,-0.49527,0.151262,0.4953349999999999,-0.268352,0.280162,0.677265,-0.4381,-0.2705479999999999,0.8796249999999999,-0.67683,0.311082,0.841675,-0.6204500000000001,-0.0866919999999999,-0.003305,-0.00323,0.0866919999999999,0.003305,0.00323,-0.178278,-0.159925,-0.38305,0.143012,-0.180145,-0.37156,-0.157898,-0.5454749999999999,-0.258298,0.119842,-0.5701050000000001,-0.249559,1
121,-0.010899,0.6936249999999999,-0.34123,-0.161714,0.482705,-0.28675,-0.277234,0.667815,-0.49881,0.1513759999999999,0.4930449999999999,-0.270995,0.280646,0.672425,-0.44152,-0.270354,0.874045,-0.68219,0.311716,0.8354550000000001,-0.62646,-0.087036,-0.0031249999999999,-0.00328,0.087036,0.0031249999999999,0.00328,-0.178484,-0.155275,-0.38498,0.144486,-0.175145,-0.3739099999999999,-0.157604,-0.539735,-0.260017,0.120636,-0.564725,-0.251834,1
122,-0.0102719999999999,0.691545,-0.34416,-0.16111,0.481075,-0.288721,-0.27645,0.6627749999999999,-0.50204,0.15186,0.4909749999999999,-0.273224,0.28128,0.6673749999999999,-0.44449,-0.26986,0.867105,-0.68712,0.31268,0.829885,-0.63243,-0.08732,-0.002935,-0.00343,0.08732,0.0029349999999999,0.0034299999999999,-0.1784599999999999,-0.151675,-0.38664,0.14626,-0.171265,-0.37542,-0.15708,-0.535485,-0.261502,0.1217,-0.560315,-0.253884,1
123,-0.0096905,0.6905950000000001,-0.347,-0.1606594999999999,0.479615,-0.290782,-0.2757695,0.658215,-0.50516,0.1523105,0.489005,-0.275655,0.2818704999999999,0.662855,-0.44745,-0.2691895,0.862025,-0.69166,0.3138304999999999,0.8245750000000001,-0.63859,-0.0875005,-0.0027449999999999,-0.00361,0.0875005,0.0027449999999999,0.00361,-0.1785295,-0.147525,-0.38832,0.1481505,-0.1666649999999999,-0.37701,-0.1565794999999999,-0.530565,-0.263057,0.1227705,-0.555385,-0.255703,1
124,-0.0091405,0.68872,-0.349705,-0.1601864999999999,0.47949,-0.292551,-0.2752665,0.6534,-0.507725,0.1527335,0.4863,-0.277814,0.2826835,0.6586700000000001,-0.450225,-0.2685365,0.85785,-0.695995,0.3154835,0.81898,-0.6444449999999999,-0.0874534999999999,-0.00246,-0.0036549999999999,0.0874534999999999,0.00246,0.0036549999999999,-0.1785765,-0.1438199999999999,-0.389785,0.1504535,-0.1629899999999999,-0.378335,-0.1562164999999999,-0.52705,-0.264293,0.1238535,-0.55126,-0.257355,1
125,-0.0087079999999999,0.68617,-0.352265,-0.160082,0.47938,-0.29414,-0.2751719999999999,0.65023,-0.509705,0.152828,0.4849699999999999,-0.279783,0.283318,0.65371,-0.452635,-0.268262,0.85286,-0.7005750000000001,0.316938,0.81281,-0.650225,-0.087448,-0.00246,-0.003725,0.087448,0.0024599999999999,0.003725,-0.179102,-0.14076,-0.391135,0.1532079999999999,-0.16009,-0.379535,-0.156252,-0.52449,-0.265389,0.1245479999999999,-0.54803,-0.258837,1
126,-0.0082319999999999,0.684435,-0.35472,-0.159988,0.479726,-0.295727,-0.275048,0.646425,-0.51172,0.152882,0.484495,-0.281682,0.283882,0.649375,-0.45488,-0.267988,0.848365,-0.70508,0.3185219999999999,0.806875,-0.65547,-0.0874419999999999,-0.0023949999999999,-0.00384,0.0874419999999999,0.0023949999999999,0.00384,-0.179928,-0.1378749999999999,-0.39242,0.157082,-0.157205,-0.38015,-0.156348,-0.522055,-0.266449,0.1252319999999999,-0.544975,-0.260216,1
127,-0.0075214999999999,0.682685,-0.3566499999999999,-0.1599075,0.479262,-0.2970509999999999,-0.2749474999999999,0.6421650000000001,-0.51343,0.1529425,0.483775,-0.283317,0.2845625,0.644685,-0.4569999999999999,-0.2673974999999999,0.844185,-0.7091099999999999,0.3200825,0.8006150000000001,-0.66003,-0.0874425,-0.0025749999999999,-0.0038399999999999,0.0874425,0.0025749999999999,0.00384,-0.1812975,-0.1359149999999999,-0.39297,0.1619325,-0.155245,-0.3801,-0.1565275,-0.5204850000000001,-0.267104,0.1260825,-0.5429550000000001,-0.261136,1
128,-0.0071319999999999,0.68086,-0.358655,-0.160203,0.47978,-0.298481,-0.2750129999999999,0.63815,-0.515355,0.152557,0.48345,-0.285053,0.284777,0.64032,-0.459195,-0.267213,0.8399300000000001,-0.712825,0.321287,0.79471,-0.664105,-0.087227,-0.00268,-0.003775,0.087227,0.00268,0.003775,-0.183563,-0.1342199999999999,-0.393005,0.1670269999999999,-0.15362,-0.379685,-0.157113,-0.51925,-0.26813,0.126387,-0.5411600000000001,-0.2618209999999999,1
129,-0.006488,0.67944,-0.36073,-0.160286,0.480422,-0.299913,-0.275036,0.63466,-0.51722,0.152304,0.483538,-0.286763,0.285064,0.63748,-0.46159,-0.266906,0.83664,-0.7164200000000001,0.322424,0.7898700000000001,-0.6677500000000001,-0.086984,-0.0027999999999999,-0.00374,0.086984,0.0028,0.0037399999999999,-0.186486,-0.13249,-0.39288,0.173294,-0.1512299999999999,-0.37922,-0.157646,-0.51794,-0.269175,0.126774,-0.53927,-0.262531,1
130,-0.0061125,0.678255,-0.362625,-0.1606305,0.481012,-0.3013409999999999,-0.2754005,0.633115,-0.518895,0.1517494999999999,0.483628,-0.288433,0.2849695,0.634905,-0.4639149999999999,-0.2667405,0.8339449999999999,-0.7196750000000001,0.3229795,0.785855,-0.6711050000000001,-0.0866794999999999,-0.002865,-0.0037049999999999,0.0866794999999999,0.002865,0.003705,-0.1898705,-0.130675,-0.392495,0.1791095,-0.1492849999999999,-0.378545,-0.1586105,-0.516815,-0.270288,0.1265195,-0.5376749999999999,-0.2638709999999999,1
131,-0.0056914999999999,0.67746,-0.364325,-0.1608755,0.4819989999999999,-0.302707,-0.2757555,0.63217,-0.520455,0.1511144999999999,0.4840529999999999,-0.289927,0.2848445,0.63278,-0.466225,-0.2665355,0.83187,-0.722745,0.3233845,0.78253,-0.674105,-0.0863845,-0.0029299999999999,-0.0036849999999999,0.0863845,0.0029299999999999,0.003685,-0.1932755,-0.12866,-0.3920749999999999,0.1845744999999999,-0.14725,-0.377805,-0.1597555,-0.5158,-0.271441,0.1260144999999999,-0.5359200000000001,-0.264302,1
132,-0.0052749999999999,0.67638,-0.365915,-0.161354,0.482206,-0.304064,-0.276184,0.6308900000000001,-0.522055,0.150436,0.484218,-0.291322,0.2846059999999999,0.63049,-0.468475,-0.266454,0.82976,-0.725585,0.323586,0.7793000000000001,-0.676835,-0.086076,-0.0029199999999999,-0.0036049999999999,0.086076,0.00292,0.0036049999999999,-0.1964739999999999,-0.12746,-0.391425,0.189616,-0.14603,-0.3769949999999999,-0.160924,-0.5156499999999999,-0.272494,0.125416,-0.5354099999999999,-0.265196,1
133,-0.0048115,0.675825,-0.36738,-0.1616115,0.482245,-0.305544,-0.2761315,0.6299750000000001,-0.52353,0.1499885,0.484309,-0.292876,0.2845785,0.6283650000000001,-0.47075,-0.2661814999999999,0.828195,-0.72817,0.3239685,0.776195,-0.6793,-0.0858785,-0.0028949999999999,-0.00356,0.0858785,0.002895,0.00356,-0.1993815,-0.126255,-0.3908399999999999,0.1942285,-0.144945,-0.37629,-0.1615915,-0.5156149999999999,-0.273759,0.1250685,-0.535015,-0.265746,1
134,-0.0036079999999999,0.6750750000000001,-0.368805,-0.161582,0.482034,-0.306914,-0.275772,0.629325,-0.525075,0.1498479999999999,0.484598,-0.294423,0.2847679999999999,0.626715,-0.472945,-0.265702,0.8273250000000001,-0.730325,0.324528,0.773745,-0.681295,-0.085618,-0.0029249999999999,-0.003565,0.085618,0.002925,0.0035649999999999,-0.2017419999999999,-0.1248249999999999,-0.390275,0.197788,-0.1436649999999999,-0.375675,-0.161902,-0.5152749999999999,-0.275046,0.125068,-0.534365,-0.266421,1
135,-0.0021685,0.6745450000000001,-0.3702,-0.1614034999999999,0.482034,-0.308295,-0.2752535,0.629325,-0.52661,0.1499364999999999,0.484547,-0.295946,0.2851365,0.625405,-0.47526,-0.2651335,0.8264450000000001,-0.73224,0.3251465,0.771385,-0.68326,-0.0853765,-0.0029249999999999,-0.00359,0.0853765,0.002925,0.0035899999999999,-0.2035135,-0.123475,-0.38984,0.2003364999999999,-0.142455,-0.3754699999999999,-0.1620635,-0.5151549999999999,-0.276356,0.1252464999999999,-0.533905,-0.266911,1
136,-0.000664,0.673535,-0.37137,-0.161065,0.482034,-0.309622,-0.274555,0.629325,-0.5280199999999999,0.1502349999999999,0.484377,-0.297453,0.285645,0.6239650000000001,-0.47757,-0.264515,0.825635,-0.73419,0.325985,0.7689950000000001,-0.68519,-0.0853049999999999,-0.0029249999999999,-0.00358,0.0853049999999999,0.002925,0.00358,-0.204475,-0.1220249999999999,-0.3896,0.2018549999999999,-0.1412749999999999,-0.37543,-0.161795,-0.5151549999999999,-0.277655,0.1255049999999999,-0.533445,-0.267312,1
137,0.000698,0.672515,-0.37313,-0.16014,0.481053,-0.311555,-0.27359,0.629215,-0.53005,0.15103,0.484182,-0.299808,0.28613,0.622845,-0.48059,-0.26414,0.824845,-0.73682,0.32663,0.767045,-0.68776,-0.0853,-0.0027949999999999,-0.0036899999999999,0.0853,0.0027949999999999,0.0036899999999999,-0.20504,-0.120325,-0.39014,0.20243,-0.1398049999999999,-0.37583,-0.1619499999999999,-0.514675,-0.279566,0.12557,-0.532875,-0.268424,1
138,0.002031,0.6712899999999999,-0.375075,-0.159216,0.479421,-0.3136069999999999,-0.2724959999999999,0.62881,-0.532565,0.151724,0.482478,-0.302335,0.2867039999999999,0.62156,-0.484035,-0.2639559999999999,0.82379,-0.739845,0.327364,0.76486,-0.690235,-0.085294,-0.0027099999999999,-0.0037649999999999,0.085294,0.0027099999999999,0.0037649999999999,-0.205046,-0.11754,-0.390845,0.202504,-0.1378499999999999,-0.376085,-0.162006,-0.5125200000000001,-0.2813839999999999,0.125664,-0.5312300000000001,-0.269804,1
139,0.0037265,0.669815,-0.377175,-0.1579415,0.477196,-0.315818,-0.2710415,0.628105,-0.535255,0.1527184999999999,0.480394,-0.305215,0.2876984999999999,0.619945,-0.4880649999999999,-0.2634515,0.8223050000000001,-0.743085,0.3284685,0.761995,-0.693085,-0.0852385,-0.0026849999999999,-0.0038249999999999,0.0852385,0.0026849999999999,0.003825,-0.2049315,-0.1154349999999999,-0.391955,0.2030485,-0.1358549999999999,-0.376695,-0.1617314999999999,-0.510505,-0.2833489999999999,0.1260685,-0.529765,-0.271316,1
140,0.0057479999999999,0.66836,-0.37954,-0.156317,0.474919,-0.3181319999999999,-0.269217,0.6274,-0.53808,0.154033,0.4783729999999999,-0.308397,0.289083,0.61851,-0.49231,-0.2625969999999999,0.82054,-0.74656,0.329973,0.7587299999999999,-0.69614,-0.085183,-0.00259,-0.0038999999999999,0.085183,0.0025899999999999,0.0038999999999999,-0.204547,-0.1133199999999999,-0.39325,0.203983,-0.1336899999999999,-0.37746,-0.161127,-0.5084500000000001,-0.285456,0.126823,-0.5282100000000001,-0.273041,1
141,0.0078504999999999,0.66694,-0.38192,-0.1545385,0.472558,-0.320376,-0.2677085,0.62676,-0.5410299999999999,0.1553514999999999,0.476485,-0.311508,0.2906114999999999,0.61661,-0.4964499999999999,-0.2618385,0.81738,-0.75034,0.3318115,0.75526,-0.69958,-0.0851065,-0.00235,-0.0039499999999999,0.0851065,0.0023499999999999,0.00395,-0.2039785,-0.1111099999999999,-0.39461,0.2044714999999999,-0.1314199999999999,-0.37822,-0.1602785,-0.50656,-0.2873549999999999,0.1275914999999999,-0.5266,-0.274777,1
142,0.0107774999999999,0.665785,-0.38427,-0.1518965,0.4703759999999999,-0.3225289999999999,-0.2654665,0.626395,-0.54404,0.1575635,0.474728,-0.3145369999999999,0.2931534999999999,0.6145349999999999,-0.50083,-0.2603465,0.813985,-0.7542199999999999,0.3345634999999999,0.751555,-0.7033,-0.0848705,-0.002035,-0.0039999999999999,0.0848705,0.0020349999999999,0.004,-0.2022864999999999,-0.108895,-0.39592,0.2058435,-0.128875,-0.37878,-0.1586265,-0.504285,-0.289207,0.1293134999999999,-0.524645,-0.276119,1
143,0.0134039999999999,0.664755,-0.386505,-0.149065,0.467833,-0.32463,-0.263095,0.6260749999999999,-0.547325,0.159625,0.473159,-0.3175149999999999,0.295875,0.612205,-0.505235,-0.258895,0.810585,-0.758215,0.337505,0.747525,-0.707295,-0.084689,-0.001805,-0.0039949999999999,0.084689,0.001805,0.003995,-0.200375,-0.106445,-0.3972049999999999,0.2074949999999999,-0.126085,-0.3793249999999999,-0.156805,-0.5017149999999999,-0.2910079999999999,0.131215,-0.522445,-0.2774159999999999,1
144,0.0162294999999999,0.66438,-0.388745,-0.1458915,0.464914,-0.326795,-0.2603615,0.62366,-0.550645,0.1619685,0.471433,-0.320594,0.2990485,0.61,-0.5099750000000001,-0.2573115,0.80706,-0.7624650000000001,0.3407785,0.74315,-0.711255,-0.0844985,-0.00145,-0.0039649999999999,0.0844985,0.00145,0.0039649999999999,-0.1981615,-0.10364,-0.398525,0.2095485,-0.12311,-0.379885,-0.1546115,-0.49884,-0.292669,0.1334885,-0.52043,-0.279616,1
145,0.0188105,0.66406,-0.3906999999999999,-0.1428334999999999,0.462086,-0.3288859999999999,-0.2579335,0.62088,-0.55386,0.1641965,0.469634,-0.323574,0.3020365,0.60778,-0.5145,-0.2558835,0.8033399999999999,-0.76655,0.3439164999999999,0.7389699999999999,-0.7151399999999999,-0.0842385,-0.00115,-0.0039299999999999,0.0842385,0.0011499999999999,0.00393,-0.1962034999999999,-0.10105,-0.3995999999999999,0.2113765,-0.12014,-0.3803299999999999,-0.1525135,-0.49593,-0.294307,0.1358965,-0.51841,-0.282049,1
146,0.0211955,0.663725,-0.39216,-0.1406585,0.460208,-0.330366,-0.2558485,0.618315,-0.55644,0.1662515,0.468041,-0.325704,0.3047514999999999,0.605575,-0.51816,-0.2547085,0.799515,-0.77027,0.3469915,0.734855,-0.7185600000000001,-0.0840375,-0.000925,-0.00379,0.0840375,0.000925,0.00379,-0.1945185,-0.098685,-0.40026,0.2128615,-0.117295,-0.38054,-0.1505785,-0.492865,-0.295411,0.1381715,-0.516345,-0.283669,1
147,0.0234979999999999,0.66364,-0.393605,-0.13853,0.458953,-0.3316789999999999,-0.25376,0.61635,-0.5587949999999999,0.16831,0.468189,-0.3275849999999999,0.30738,0.60319,-0.521215,-0.25361,0.7955099999999999,-0.773705,0.35009,0.7305900000000001,-0.721735,-0.083781,-0.0007099999999999,-0.0037049999999999,0.083781,0.0007099999999999,0.003705,-0.19284,-0.09736,-0.400995,0.21447,-0.11593,-0.3808249999999999,-0.14861,-0.4913399999999999,-0.296458,0.14035,-0.5151300000000001,-0.284929,1
148,0.025526,0.6635500000000001,-0.394875,-0.136629,0.45805,-0.3326369999999999,-0.2518289999999999,0.61509,-0.560825,0.170081,0.468564,-0.328911,0.309691,0.6006400000000001,-0.523385,-0.252649,0.79171,-0.776715,0.352971,0.72655,-0.724405,-0.08355,-0.0006299999999999,-0.0036149999999999,0.08355,0.00063,0.0036149999999999,-0.191329,-0.0962499999999999,-0.401505,0.215951,-0.1147899999999999,-0.380795,-0.146919,-0.4897199999999999,-0.297218,0.142231,-0.51405,-0.285587,1
149,0.027391,0.66291,-0.39593,-0.134813,0.457414,-0.333485,-0.250183,0.61354,-0.56262,0.171257,0.468464,-0.329891,0.311877,0.59735,-0.5253,-0.251683,0.78774,-0.77912,0.355777,0.72268,-0.72673,-0.08337,-0.00045,-0.0035399999999999,0.08337,0.00045,0.0035399999999999,-0.190043,-0.0957799999999999,-0.4018899999999999,0.217647,-0.11429,-0.38059,-0.145343,-0.48865,-0.297758,0.143977,-0.51358,-0.286054,1
150,0.02919,0.66288,-0.3969399999999999,-0.133045,0.456572,-0.3342969999999999,-0.248775,0.61205,-0.56451,0.1725249999999999,0.468893,-0.3308379999999999,0.314095,0.59533,-0.52722,-0.250515,0.78583,-0.78089,0.3584549999999999,0.7196,-0.72861,-0.083237,-0.0004099999999999,-0.0034799999999999,0.083237,0.00041,0.00348,-0.188975,-0.0951199999999999,-0.4022899999999999,0.2192349999999999,-0.11334,-0.38032,-0.143765,-0.48722,-0.2982749999999999,0.145705,-0.51297,-0.286691,1
151,0.0304749999999999,0.6622950000000001,-0.397565,-0.13175,0.455275,-0.335015,-0.24805,0.610695,-0.566495,0.17328,0.468065,-0.331729,0.31571,0.5933350000000001,-0.528745,-0.24996,0.783755,-0.7818350000000001,0.36067,0.716715,-0.730145,-0.0833069999999999,-0.0004249999999999,-0.003415,0.0833069999999999,0.000425,0.003415,-0.18823,-0.0947949999999999,-0.402655,0.22032,-0.112785,-0.380165,-0.14265,-0.4863149999999999,-0.298699,0.14708,-0.512645,-0.287586,1
152,0.0317815,0.6618600000000001,-0.398395,-0.1305464999999999,0.454048,-0.335689,-0.2476664999999999,0.60954,-0.568485,0.1740335,0.46715,-0.332687,0.3172835,0.59177,-0.530135,-0.2500065,0.78216,-0.7825249999999999,0.3629435,0.71424,-0.731085,-0.0833204999999999,-0.0003399999999999,-0.003365,0.0833204999999999,0.00034,0.003365,-0.1874065,-0.0945399999999999,-0.403015,0.2213935,-0.1124499999999999,-0.379965,-0.1415165,-0.48541,-0.299102,0.1485035,-0.5122399999999999,-0.288716,1
153,0.0328605,0.66124,-0.399005,-0.1295215,0.45394,-0.336167,-0.2472714999999999,0.6094999999999999,-0.5703050000000001,0.1746885,0.466385,-0.333374,0.3184185,0.5902499999999999,-0.530525,-0.2508114999999999,0.78084,-0.7830250000000001,0.3650685,0.71234,-0.731875,-0.0833445,-0.00028,-0.0032949999999999,0.0833445,0.00028,0.0032949999999999,-0.1866514999999999,-0.09448,-0.403225,0.2221785,-0.1123,-0.379675,-0.1406215,-0.48445,-0.299282,0.1496885,-0.5121100000000001,-0.289589,1
154,0.0339675,0.660255,-0.39961,-0.1285185,0.453934,-0.33698,-0.2470485,0.609115,-0.5723400000000001,0.1754315,0.4655249999999999,-0.334321,0.3197915,0.589015,-0.53098,-0.2522985,0.7798350000000001,-0.78366,0.3674415,0.710935,-0.73277,-0.0833615,-0.0001849999999999,-0.00318,0.0833615,0.0001849999999999,0.00318,-0.1857385,-0.0936449999999999,-0.40356,0.2228915,-0.112215,-0.37964,-0.1395785,-0.483265,-0.299539,0.1507915,-0.5119849999999999,-0.290221,1
155,0.0346675,0.659575,-0.400175,-0.1276634999999999,0.453491,-0.337774,-0.2470534999999999,0.608455,-0.5743050000000001,0.1763365,0.46462,-0.335319,0.3210465,0.5878950000000001,-0.5313749999999999,-0.2545435,0.779375,-0.7841849999999999,0.3699565,0.709885,-0.733595,-0.0833555,-0.0001149999999999,-0.003085,0.0833555,0.000115,0.003085,-0.1850435,-0.092735,-0.403735,0.2234165,-0.112125,-0.379625,-0.1386635,-0.482105,-0.299798,0.1518565,-0.511815,-0.291021,1
156,0.035204,0.658165,-0.400615,-0.127045,0.453146,-0.338483,-0.2475149999999999,0.607765,-0.575725,0.177115,0.463647,-0.336299,0.322035,0.586105,-0.531415,-0.257615,0.779185,-0.784215,0.372425,0.7092449999999999,-0.734315,-0.083375,7.499999999999174e-05,-0.002845,0.083375,-7.499999999999174e-05,0.0028449999999999,-0.184505,-0.091855,-0.403725,0.223735,-0.112265,-0.379725,-0.137855,-0.481005,-0.299955,0.1529249999999999,-0.511405,-0.291617,1
157,0.0357045,0.656405,-0.40107,-0.1264655,0.452935,-0.339168,-0.2482355,0.6075250000000001,-0.57704,0.1780044999999999,0.462238,-0.33733,0.3229945,0.583345,-0.53137,-0.2618755,0.777495,-0.78359,0.3751445,0.708435,-0.73523,-0.0833625,0.000275,-0.00262,0.0833625,-0.0002749999999999,0.00262,-0.1840155,-0.0908849999999999,-0.4037,0.2241145,-0.1124149999999999,-0.37988,-0.1370355,-0.4802849999999999,-0.30014,0.1539745,-0.5112549999999999,-0.292197,1
158,0.0360194999999999,0.654265,-0.40153,-0.1259855,0.453132,-0.34014,-0.2492354999999999,0.607335,-0.57843,0.1788145,0.460927,-0.338475,0.3239245,0.580525,-0.53121,-0.2667455,0.7748550000000001,-0.78229,0.3779345,0.706935,-0.7360500000000001,-0.0833494999999999,0.0005249999999999,-0.00236,0.0833494999999999,-0.0005249999999999,0.0023599999999999,-0.1835355,-0.0901049999999999,-0.40369,0.2245945,-0.112745,-0.38006,-0.1362354999999999,-0.480185,-0.300259,0.1548345,-0.5111049999999999,-0.292483,1
159,0.036247,0.651715,-0.40199,-0.125556,0.453092,-0.3410849999999999,-0.250556,0.606885,-0.57884,0.179534,0.459582,-0.339558,0.324844,0.577705,-0.5311600000000001,-0.272296,0.771485,-0.78054,0.380754,0.704545,-0.73722,-0.083321,0.000715,-0.00211,0.083321,-0.0007149999999999,0.00211,-0.183126,-0.089275,-0.4036,0.225044,-0.1129949999999999,-0.38033,-0.135526,-0.480025,-0.300404,0.1554539999999999,-0.510555,-0.292481,1
160,0.036258,0.64924,-0.4025299999999999,-0.125325,0.4532369999999999,-0.3420029999999999,-0.252225,0.6068199999999999,-0.57922,0.180075,0.4583739999999999,-0.340582,0.325655,0.57487,-0.5311999999999999,-0.278545,0.76766,-0.77839,0.383385,0.7021999999999999,-0.73883,-0.083296,0.0008599999999999,-0.0018699999999999,0.083296,-0.00086,0.00187,-0.182985,-0.08842,-0.40351,0.225315,-0.11306,-0.38059,-0.134965,-0.4798800000000001,-0.30049,0.155905,-0.5097,-0.292429,1
161,0.036125,0.6464300000000001,-0.4030249999999999,-0.125209,0.453497,-0.342865,-0.254389,0.6069100000000001,-0.579595,0.180451,0.456757,-0.3417219999999999,0.326441,0.57192,-0.531365,-0.285049,0.7633300000000001,-0.7763150000000001,0.386021,0.6995,-0.740435,-0.083319,0.00112,-0.001655,0.083319,-0.00112,0.001655,-0.183069,-0.0874099999999999,-0.403425,0.2254509999999999,-0.1129099999999999,-0.380815,-0.134629,-0.47955,-0.300506,0.1562909999999999,-0.50903,-0.292201,1
162,0.035898,0.64329,-0.4035449999999999,-0.125162,0.453178,-0.3441029999999999,-0.256752,0.60507,-0.579995,0.180718,0.454774,-0.3429559999999999,0.327208,0.5689500000000001,-0.531615,-0.291502,0.75892,-0.7745449999999999,0.388538,0.69667,-0.742345,-0.083337,0.00143,-0.0014349999999999,0.083337,-0.0014299999999999,0.001435,-0.183292,-0.0862699999999999,-0.4033549999999999,0.225538,-0.1126599999999999,-0.3810749999999999,-0.134472,-0.47922,-0.3005859999999999,0.1566479999999999,-0.50844,-0.292002,1
163,0.035597,0.6405700000000001,-0.404075,-0.12517,0.452026,-0.345384,-0.25969,0.6012500000000001,-0.579895,0.18084,0.453289,-0.343869,0.32788,0.56585,-0.531925,-0.29779,0.75455,-0.773355,0.39098,0.6938500000000001,-0.744365,-0.083359,0.0017699999999999,-0.001255,0.083359,-0.0017699999999999,0.0012549999999999,-0.18357,-0.0857,-0.403205,0.22553,-0.1123599999999999,-0.381395,-0.1344199999999999,-0.47833,-0.300692,0.15688,-0.5078400000000001,-0.292136,1
164,0.035468,0.637895,-0.404545,-0.1252329999999999,0.450597,-0.346736,-0.2625429999999999,0.596955,-0.5793349999999999,0.180887,0.451767,-0.344768,0.328457,0.562855,-0.532145,-0.303763,0.750035,-0.7723850000000001,0.393167,0.691145,-0.746235,-0.083396,0.002105,-0.001085,0.083396,-0.002105,0.001085,-0.1837929999999999,-0.085025,-0.403125,0.225527,-0.1119449999999999,-0.381755,-0.134303,-0.477805,-0.300834,0.157017,-0.507205,-0.291895,1
165,0.0354049999999999,0.635985,-0.40498,-0.125315,0.44902,-0.34804,-0.265155,0.592665,-0.57854,0.180925,0.4503979999999999,-0.3455209999999999,0.328995,0.5609649999999999,-0.53242,-0.309255,0.7456849999999999,-0.77168,0.3951949999999999,0.688415,-0.7480100000000001,-0.083427,0.002415,-0.0009699999999999,0.083427,-0.002415,0.00097,-0.184075,-0.084325,-0.4030399999999999,0.2254749999999999,-0.111305,-0.38215,-0.134285,-0.477115,-0.300851,0.157135,-0.506505,-0.291331,1
166,0.035285,0.634555,-0.405295,-0.125417,0.447472,-0.349305,-0.268097,0.5878950000000001,-0.577345,0.180933,0.449382,-0.34611,0.329473,0.5604750000000001,-0.532385,-0.313737,0.742935,-0.771325,0.396823,0.6863250000000001,-0.749315,-0.083464,0.002475,-0.000825,0.083464,-0.002475,0.000825,-0.184507,-0.083455,-0.402905,0.225463,-0.1107949999999999,-0.382415,-0.134387,-0.476585,-0.300717,0.157353,-0.505485,-0.291137,1
167,0.0352254999999999,0.633375,-0.4056099999999999,-0.1254664999999999,0.44596,-0.3502569999999999,-0.2709965,0.582925,-0.57582,0.1808834999999999,0.448471,-0.346585,0.3298835,0.559335,-0.5322899999999999,-0.3177765,0.740875,-0.7711,0.3982135,0.684385,-0.7503799999999999,-0.0834945,0.0024649999999999,-0.0007599999999999,0.0834945,-0.0024649999999999,0.00076,-0.1850665,-0.082515,-0.4028699999999999,0.2254735,-0.1102749999999999,-0.3826099999999999,-0.1344665,-0.4763449999999999,-0.300687,0.1573835,-0.504945,-0.2905319999999999,1
168,0.0350965,0.6325299999999999,-0.405975,-0.1255875,0.4443709999999999,-0.351355,-0.2737675,0.57856,-0.5746150000000001,0.1806825,0.4476139999999999,-0.347068,0.3302525,0.5582199999999999,-0.5329349999999999,-0.3212975,0.73949,-0.7710250000000001,0.3993825,0.68331,-0.751295,-0.0835765,0.0023599999999999,-0.0007449999999999,0.0835765,-0.00236,0.0007449999999999,-0.1857875,-0.08172,-0.402895,0.2255025,-0.10984,-0.382745,-0.1345675,-0.47621,-0.300678,0.1573225,-0.50441,-0.289964,1
169,0.034939,0.63202,-0.406265,-0.125741,0.442781,-0.352457,-0.276301,0.5742700000000001,-0.573605,0.180469,0.446926,-0.347526,0.330579,0.55732,-0.533555,-0.324281,0.7383900000000001,-0.771105,0.400409,0.68231,-0.751995,-0.083646,0.00219,-0.000725,0.083646,-0.0021899999999999,0.0007249999999999,-0.1865409999999999,-0.0810699999999999,-0.402915,0.225499,-0.1093399999999999,-0.382835,-0.134571,-0.4761999999999999,-0.300759,0.157309,-0.50345,-0.289364,1
170,0.0347114999999999,0.63179,-0.406505,-0.1259325,0.441275,-0.353475,-0.2780424999999999,0.57083,-0.5726249999999999,0.1801174999999999,0.4461159999999999,-0.347954,0.3306675,0.55689,-0.534055,-0.3265225,0.73794,-0.771135,0.4011375,0.68218,-0.752605,-0.0837035,0.002,-0.0006849999999999,0.0837035,-0.002,0.0006849999999999,-0.1873524999999999,-0.08034,-0.402895,0.2255475,-0.1086099999999999,-0.382985,-0.1345425,-0.47604,-0.300818,0.1570575,-0.50198,-0.28881,1
171,0.0344165,0.631875,-0.40675,-0.1262035,0.4402669999999999,-0.35417,-0.2794035,0.568435,-0.57211,0.1796765,0.4452899999999999,-0.348484,0.3307265,0.556655,-0.53447,-0.3283735,0.737495,-0.77112,0.4017165,0.682265,-0.75309,-0.0837705,0.0018449999999999,-0.0006399999999999,0.0837705,-0.0018449999999999,0.00064,-0.1882135,-0.0796049999999999,-0.40284,0.2255365,-0.107815,-0.38324,-0.1345635,-0.475645,-0.3009,0.1567465,-0.5007550000000001,-0.2882989999999999,1
172,0.034023,0.63203,-0.406985,-0.126489,0.439966,-0.3545319999999999,-0.280039,0.56757,-0.5716049999999999,0.179111,0.444454,-0.3488909999999999,0.330731,0.55664,-0.534815,-0.329789,0.7371300000000001,-0.771475,0.401991,0.68248,-0.753215,-0.083817,0.0018299999999999,-0.0005749999999999,0.083817,-0.0018299999999999,0.0005749999999999,-0.189079,-0.07888,-0.402795,0.225521,-0.1070799999999999,-0.383565,-0.134599,-0.47529,-0.300952,0.156401,-0.49981,-0.28774,1
173,0.033634,0.631975,-0.40728,-0.126699,0.439921,-0.354787,-0.280999,0.566995,-0.5708500000000001,0.178541,0.443937,-0.349196,0.330721,0.556615,-0.53503,-0.3311489999999999,0.737015,-0.7719400000000001,0.401951,0.682615,-0.7529399999999999,-0.083841,0.0017849999999999,-0.00057,0.083841,-0.0017849999999999,0.00057,-0.189969,-0.0781149999999999,-0.4028,0.225521,-0.1062849999999999,-0.38389,-0.1348089999999999,-0.4745049999999999,-0.301118,0.156181,-0.498765,-0.287725,1
174,0.0331729999999999,0.63186,-0.407435,-0.126927,0.440085,-0.354967,-0.281787,0.56662,-0.570085,0.177933,0.443558,-0.349508,0.330553,0.55675,-0.535115,-0.332507,0.73698,-0.7723450000000001,0.4018629999999999,0.683,-0.752575,-0.083881,0.0016999999999999,-0.000585,0.083881,-0.0016999999999999,0.000585,-0.190807,-0.07715,-0.402855,0.225483,-0.10531,-0.384145,-0.135067,-0.47355,-0.30112,0.156073,-0.4973499999999999,-0.287741,1
175,0.0326705,0.631675,-0.40759,-0.1272035,0.440605,-0.355111,-0.2821035,0.567345,-0.56944,0.1772465,0.443341,-0.349837,0.3302465,0.557015,-0.53515,-0.3339635,0.737325,-0.77254,0.4017365,0.6834549999999999,-0.7521599999999999,-0.0839805,0.001715,-0.0006099999999999,0.0839805,-0.001715,0.0006099999999999,-0.1915435,-0.075795,-0.40297,0.2254065,-0.1039649999999999,-0.38459,-0.1353935,-0.4714549999999999,-0.301095,0.1558965,-0.495545,-0.287751,1
176,0.0320475,0.631405,-0.4076499999999999,-0.1275165,0.441055,-0.355229,-0.2824565,0.567565,-0.56875,0.1765235,0.4432979999999999,-0.350074,0.3298034999999999,0.557615,-0.53497,-0.3355965,0.737635,-0.77251,0.4014335,0.682105,-0.75011,-0.0840785,0.001705,-0.0006599999999999,0.0840785,-0.001705,0.0006599999999999,-0.1922465,-0.074425,-0.40307,0.2252735,-0.102565,-0.38504,-0.1358065,-0.469715,-0.3011,0.1554035,-0.493695,-0.287339,1
177,0.031401,0.631115,-0.40768,-0.12785,0.441531,-0.35529,-0.28272,0.568315,-0.56802,0.17579,0.44334,-0.350334,0.3292,0.558205,-0.53476,-0.33732,0.7380450000000001,-0.7724899999999999,0.4012199999999999,0.680875,-0.7482500000000001,-0.084186,0.001705,-0.00067,0.084186,-0.001705,0.00067,-0.19288,-0.073155,-0.40315,0.2250299999999999,-0.100795,-0.38561,-0.13628,-0.467405,-0.301127,0.15495,-0.491725,-0.286753,1
178,0.030767,0.630605,-0.407605,-0.128218,0.442142,-0.355291,-0.2829979999999999,0.569555,-0.567245,0.174992,0.443392,-0.350596,0.328552,0.558675,-0.534425,-0.339058,0.738715,-0.772305,0.400972,0.679665,-0.746055,-0.084306,0.001695,-0.000705,0.084306,-0.001695,0.000705,-0.193458,-0.071475,-0.403345,0.224792,-0.0988249999999999,-0.386265,-0.136668,-0.464735,-0.301083,0.154452,-0.489635,-0.28593,1
179,0.0301345,0.62992,-0.407285,-0.1286465,0.44255,-0.355162,-0.2831865,0.57016,-0.566635,0.1741435,0.443503,-0.350915,0.3277335,0.5583899999999999,-0.5340450000000001,-0.3408665,0.73924,-0.7719050000000001,0.4007135,0.67789,-0.743885,-0.0844515,0.0016499999999999,-0.000715,0.0844515,-0.0016499999999999,0.0007149999999999,-0.1940465,-0.06971,-0.403535,0.2244735,-0.09697,-0.386945,-0.1370065,-0.46276,-0.300914,0.1539735,-0.4877499999999999,-0.28545,1
180,0.029497,0.629355,-0.40682,-0.129099,0.443024,-0.354987,-0.2833989999999999,0.570965,-0.5661400000000001,0.173321,0.443741,-0.351096,0.326871,0.557895,-0.53362,-0.342759,0.739895,-0.77136,0.400471,0.676145,-0.7417100000000001,-0.0845809999999999,0.001585,-0.00073,0.0845809999999999,-0.001585,0.00073,-0.194619,-0.067845,-0.40378,0.2240909999999999,-0.095025,-0.38762,-0.137429,-0.460575,-0.300857,0.153441,-0.485885,-0.285477,1
181,0.0289395,0.62867,-0.40641,-0.1295425,0.443503,-0.354794,-0.2835925,0.5718799999999999,-0.56572,0.1725775,0.44408,-0.351198,0.3261174999999999,0.55732,-0.5332399999999999,-0.3446525,0.74046,-0.77099,0.4003075,0.67425,-0.73966,-0.0847165,0.0014399999999999,-0.00078,0.0847165,-0.0014399999999999,0.00078,-0.1950325,-0.0658699999999999,-0.4040899999999999,0.2236775,-0.09292,-0.3882799999999999,-0.1379425,-0.4583399999999999,-0.300828,0.1530975,-0.48391,-0.2851479999999999,1
182,0.0283415,0.62812,-0.406065,-0.1300505,0.444138,-0.35457,-0.2838505,0.57218,-0.5648850000000001,0.1718895,0.444593,-0.351077,0.3255495,0.5565100000000001,-0.532885,-0.3465205,0.74091,-0.7707050000000001,0.4000095,0.67229,-0.737285,-0.0848735,0.00131,-0.000795,0.0848735,-0.0013099999999999,0.0007949999999999,-0.1953805,-0.0634,-0.404375,0.2231995,-0.0904599999999999,-0.388985,-0.1382905,-0.45599,-0.30046,0.1528995,-0.4815699999999999,-0.285461,1
183,0.0278829999999999,0.627775,-0.405745,-0.130519,0.444673,-0.354281,-0.284069,0.572475,-0.5641050000000001,0.171261,0.445161,-0.350773,0.325061,0.555705,-0.532575,-0.348179,0.741205,-0.770475,0.399761,0.670225,-0.7347750000000001,-0.085003,0.001255,-0.000825,0.085003,-0.001255,0.0008249999999999,-0.195689,-0.0612449999999999,-0.404655,0.222681,-0.088285,-0.389775,-0.138529,-0.453935,-0.300115,0.152791,-0.4793949999999999,-0.285862,1
184,0.0275979999999999,0.627875,-0.405225,-0.130889,0.444907,-0.354027,-0.284219,0.5728150000000001,-0.563195,0.170841,0.445609,-0.350522,0.324781,0.555455,-0.532235,-0.349659,0.741325,-0.770105,0.399631,0.668345,-0.7323550000000001,-0.085143,0.001145,-0.000835,0.085143,-0.001145,0.0008349999999999,-0.1959189999999999,-0.059605,-0.405085,0.222231,-0.0865549999999999,-0.3904849999999999,-0.138769,-0.452115,-0.299853,0.152791,-0.477695,-0.286512,1
185,0.0273995,0.62878,-0.40442,-0.1311065,0.445125,-0.353885,-0.2842865,0.57408,-0.5624199999999999,0.1706235,0.445837,-0.350381,0.3246234999999999,0.55617,-0.53196,-0.3508165,0.7420100000000001,-0.7696099999999999,0.3997035,0.66961,-0.73193,-0.0852935,0.00114,-0.0008199999999999,0.0852935,-0.0011399999999999,0.0008199999999999,-0.1958765,-0.0585999999999999,-0.40559,0.2218535,-0.0850999999999999,-0.3912299999999999,-0.1387165,-0.45072,-0.299694,0.1528235,-0.47644,-0.287009,1
186,0.0272089999999999,0.629275,-0.4035749999999999,-0.1313,0.445025,-0.3538229999999999,-0.28445,0.5745750000000001,-0.561545,0.17048,0.445682,-0.3502929999999999,0.32445,0.5566650000000001,-0.5314349999999999,-0.35146,0.742505,-0.7689549999999999,0.39975,0.6701050000000001,-0.731605,-0.085427,0.001115,-0.0008149999999999,0.085427,-0.0011149999999999,0.000815,-0.19566,-0.0583849999999999,-0.4061849999999999,0.22136,-0.0844949999999999,-0.3919649999999999,-0.13872,-0.4499449999999999,-0.299585,0.15259,-0.4759649999999999,-0.287143,1
187,0.0271334999999999,0.629275,-0.4023,-0.1313975,0.445025,-0.3537269999999999,-0.2844475,0.5745750000000001,-0.56028,0.1703724999999999,0.445682,-0.3499099999999999,0.3244025,0.5566650000000001,-0.53082,-0.3515975,0.742505,-0.7681899999999999,0.3998025,0.6701050000000001,-0.7311799999999999,-0.0855114999999999,0.001115,-0.0008399999999999,0.0855114999999999,-0.0011149999999999,0.00084,-0.1952175,-0.0586349999999999,-0.40668,0.2206924999999999,-0.0843649999999999,-0.39241,-0.1386075,-0.4498149999999999,-0.299624,0.1524724999999999,-0.4762149999999999,-0.2876399999999999,1
188,0.0271665,0.629275,-0.400655,-0.1314665,0.445025,-0.353431,-0.2839365,0.5759850000000001,-0.5588850000000001,0.1702935,0.445682,-0.349433,0.3246535,0.5566650000000001,-0.529645,-0.3517065,0.742505,-0.767055,0.4000935,0.672645,-0.730305,-0.0855805,0.001115,-0.000815,0.0855805,-0.0011149999999999,0.0008149999999999,-0.1941765,-0.0589749999999999,-0.406845,0.2197035,-0.084395,-0.392605,-0.1381665,-0.4498949999999999,-0.29953,0.1522935,-0.476375,-0.288165,1
189,0.0273725,0.630685,-0.398275,-0.1315395,0.445025,-0.352966,-0.2834995,0.578265,-0.557095,0.1702205,0.445682,-0.348846,0.3249405,0.557365,-0.5278750000000001,-0.3518695,0.7440450000000001,-0.765275,0.3999805,0.675705,-0.729355,-0.0856635,0.001115,-0.000825,0.0856635,-0.0011149999999999,0.0008249999999999,-0.1926695,-0.0589749999999999,-0.406745,0.2183705,-0.0843749999999999,-0.392685,-0.1377195,-0.4499849999999999,-0.299455,0.1519905,-0.476595,-0.288534,1
190,0.0277059999999999,0.633375,-0.39539,-0.131629,0.446856,-0.350651,-0.2832389999999999,0.580365,-0.55528,0.170871,0.447927,-0.345894,0.325481,0.559545,-0.52537,-0.351809,0.746665,-0.7625299999999999,0.400021,0.680485,-0.72829,-0.085773,0.001155,-0.0008499999999999,0.085773,-0.001155,0.00085,-0.1906189999999999,-0.0597349999999999,-0.4065999999999999,0.216731,-0.0849549999999999,-0.39276,-0.1371689999999999,-0.451155,-0.2991439999999999,0.1517609999999999,-0.4772749999999999,-0.288751,1
191,0.0281569999999999,0.637725,-0.392325,-0.131495,0.449109,-0.348254,-0.283125,0.583495,-0.553105,0.171825,0.4498769999999999,-0.342575,0.3264249999999999,0.564665,-0.523055,-0.351225,0.750255,-0.759055,0.399985,0.686735,-0.726515,-0.085922,0.0014149999999999,-0.000895,0.085922,-0.0014149999999999,0.0008949999999999,-0.187995,-0.061865,-0.406575,0.214575,-0.086685,-0.393025,-0.136545,-0.453705,-0.299174,0.151775,-0.479255,-0.289434,1
192,0.0286525,0.6415949999999999,-0.38893,-0.1310535,0.4515499999999999,-0.345393,-0.2832735,0.5859049999999999,-0.5504100000000001,0.1728365,0.4515809999999999,-0.33882,0.3275865,0.569595,-0.52041,-0.3500135,0.754215,-0.75502,0.4001564999999999,0.692865,-0.7227300000000001,-0.0861395,0.0016549999999999,-0.0009,0.0861395,-0.001655,0.0008999999999999,-0.1846335,-0.066385,-0.40646,0.2118165,-0.090655,-0.39282,-0.1358335,-0.458535,-0.299158,0.1518965,-0.483475,-0.29015,1
193,0.0289885,0.6465299999999999,-0.38505,-0.1307054999999999,0.454638,-0.342153,-0.2829554999999999,0.58924,-0.54694,0.1738545,0.4535229999999999,-0.33436,0.3287045,0.57541,-0.51708,-0.3486555,0.76122,-0.7507900000000001,0.4001045,0.70015,-0.71828,-0.0862725,0.0019699999999999,-0.00086,0.0862725,-0.00197,0.0008599999999999,-0.1809454999999999,-0.07272,-0.40594,0.2083745,-0.09632,-0.39203,-0.1352555,-0.46495,-0.298874,0.1518945,-0.48946,-0.290515,1
194,0.0293555,0.6523650000000001,-0.38054,-0.1304045,0.456267,-0.338878,-0.2824844999999999,0.5939450000000001,-0.54314,0.1747955,0.454152,-0.329934,0.3298955,0.583105,-0.5129600000000001,-0.3469445,0.769215,-0.74607,0.4000055,0.709335,-0.7130000000000001,-0.0863605,0.002185,-0.00087,0.0863605,-0.0021849999999999,0.0008699999999999,-0.1769945,-0.0802949999999999,-0.40488,0.2041955,-0.103615,-0.39079,-0.1350245,-0.472715,-0.298597,0.1517755,-0.497035,-0.290628,1
195,0.0297485,0.659545,-0.374805,-0.1299265,0.46129,-0.334171,-0.2823565,0.5993850000000001,-0.538225,0.1756235,0.458652,-0.324132,0.3309535,0.591045,-0.507425,-0.3450265,0.778455,-0.739455,0.3997435,0.720495,-0.7066250000000001,-0.0864925,0.002485,-0.000875,0.0864925,-0.002485,0.000875,-0.1724365,-0.0895949999999999,-0.4030749999999999,0.1994334999999999,-0.112905,-0.389135,-0.1347765,-0.482475,-0.298457,0.1515735,-0.5064649999999999,-0.290796,1
196,0.029902,0.666175,-0.368955,-0.129591,0.465163,-0.32937,-0.282831,0.6087049999999999,-0.533455,0.176709,0.462308,-0.3183,0.331889,0.599645,-0.501275,-0.343111,0.7893049999999999,-0.731705,0.399199,0.732415,-0.699605,-0.086685,0.0026649999999999,-0.000885,0.086685,-0.002665,0.0008849999999999,-0.1676909999999999,-0.100815,-0.400545,0.194199,-0.124245,-0.386635,-0.1344909999999999,-0.494105,-0.298336,0.150949,-0.5178550000000001,-0.290839,1
197,0.0294094999999999,0.67485,-0.3619079999999999,-0.1298605,0.4686169999999999,-0.324138,-0.2840005,0.61634,-0.52818,0.1771395,0.464642,-0.3120999999999999,0.3323195,0.60874,-0.4948899999999999,-0.3419605,0.79892,-0.7227699999999999,0.3978895,0.7426999999999999,-0.6914399999999999,-0.0869824999999999,0.0027399999999999,-0.0009799999999999,0.0869824999999999,-0.00274,0.00098,-0.1637705,-0.114,-0.3974,0.1882994999999999,-0.13723,-0.3833299999999999,-0.1349505,-0.5071,-0.2978659999999999,0.1500795,-0.53118,-0.2904739999999999,1
198,0.0284919999999999,0.68201,-0.354385,-0.130465,0.4745699999999999,-0.317573,-0.285425,0.62254,-0.52254,0.177695,0.4712099999999999,-0.304159,0.332685,0.61913,-0.48751,-0.341295,0.8112999999999999,-0.71397,0.396565,0.75346,-0.68173,-0.087062,0.0025999999999999,-0.0011299999999999,0.087062,-0.0026,0.00113,-0.160205,-0.12881,-0.3933999999999999,0.182465,-0.15171,-0.37944,-0.135685,-0.5217700000000001,-0.2969819999999999,0.148945,-0.54627,-0.28967,1
199,0.027522,0.68954,-0.346078,-0.1311159999999999,0.47863,-0.312104,-0.286516,0.62993,-0.51561,0.177674,0.475,-0.297761,0.332884,0.62885,-0.47925,-0.341136,0.8233,-0.70497,0.394814,0.76657,-0.67001,-0.087096,0.00242,-0.0013799999999999,0.087096,-0.0024199999999999,0.0013799999999999,-0.1568959999999999,-0.14415,-0.38869,0.177004,-0.16676,-0.37447,-0.136476,-0.53716,-0.295644,0.147764,-0.56206,-0.288472,1
200,0.0263829999999999,0.696565,-0.337252,-0.131946,0.483255,-0.306134,-0.288156,0.6376850000000001,-0.507955,0.177394,0.479615,-0.290629,0.332844,0.637545,-0.469425,-0.341126,0.836155,-0.6959150000000001,0.392424,0.7787649999999999,-0.658115,-0.087121,0.002145,-0.0016249999999999,0.087121,-0.002145,0.0016249999999999,-0.153886,-0.1591949999999999,-0.383605,0.171964,-0.179485,-0.368895,-0.137446,-0.552495,-0.293858,0.147094,-0.5800649999999999,-0.292137,1
201,0.025363,0.70441,-0.327102,-0.1329219999999999,0.4899599999999999,-0.2996459999999999,-0.2902019999999999,0.64669,-0.499015,0.1774279999999999,0.4867599999999999,-0.282719,0.333038,0.6472199999999999,-0.458535,-0.341502,0.8496999999999999,-0.685295,0.390218,0.79172,-0.646225,-0.087022,0.00189,-0.001925,0.087022,-0.00189,0.001925,-0.151652,-0.1724,-0.377915,0.1679379999999999,-0.1915699999999999,-0.363135,-0.138112,-0.5677300000000001,-0.291373,0.146928,-0.5972500000000001,-0.295203,1
202,0.0245285,0.712555,-0.3162239999999999,-0.1338485,0.495735,-0.2924319999999999,-0.2922085,0.660015,-0.489425,0.1776015,0.493285,-0.274738,0.3337315,0.658935,-0.447665,-0.3416685,0.8634949999999999,-0.673145,0.3883614999999999,0.8067850000000001,-0.634325,-0.0868454999999999,0.001655,-0.0021049999999999,0.0868454999999999,-0.001655,0.002105,-0.1500385,-0.185445,-0.3718749999999999,0.1647515,-0.2033149999999999,-0.3569449999999999,-0.1387185,-0.581995,-0.288133,0.1469715,-0.613685,-0.2971979999999999,1
203,0.02392,0.72098,-0.304586,-0.134568,0.5029399999999999,-0.283905,-0.294128,0.67081,-0.479555,0.178032,0.50199,-0.265455,0.334462,0.6689,-0.436235,-0.341918,0.8762000000000001,-0.660115,0.387162,0.82389,-0.621895,-0.086584,0.00146,-0.0023749999999999,0.086584,-0.00146,0.002375,-0.148758,-0.19861,-0.365245,0.162492,-0.2153999999999999,-0.350163,-0.1394379999999999,-0.59816,-0.284752,0.147182,-0.62988,-0.298244,1
204,0.0231009999999999,0.7285949999999999,-0.293102,-0.13545,0.507705,-0.275554,-0.29574,0.6806349999999999,-0.4698299999999999,0.17859,0.5068649999999999,-0.256691,0.33531,0.6793849999999999,-0.42435,-0.34232,0.8894449999999999,-0.64693,0.38647,0.838075,-0.6099,-0.086196,0.0011249999999999,-0.0026,0.086196,-0.001125,0.0026,-0.14827,-0.210335,-0.35874,0.1608899999999999,-0.2264750000000001,-0.342793,-0.14006,-0.613855,-0.281065,0.14748,-0.645325,-0.298478,1
205,0.0224689999999999,0.73736,-0.280015,-0.13632,0.51442,-0.26582,-0.29706,0.68824,-0.45913,0.1788799999999999,0.51163,-0.247224,0.3361,0.68852,-0.41156,-0.34255,0.90244,-0.63296,0.38511,0.85224,-0.5959399999999999,-0.085898,0.0011499999999999,-0.0028699999999999,0.085898,-0.0011499999999999,0.00287,-0.14819,-0.22122,-0.35169,0.16011,-0.23711,-0.334893,-0.1406,-0.62915,-0.276869,0.14792,-0.66067,-0.297783,1
206,0.0220889999999999,0.743525,-0.267101,-0.136776,0.522015,-0.255489,-0.298196,0.697165,-0.446585,0.179424,0.519795,-0.23668,0.336964,0.697945,-0.397935,-0.342566,0.917865,-0.617835,0.384164,0.864765,-0.581335,-0.085896,0.0011349999999999,-0.0029049999999999,0.085896,-0.0011349999999999,0.0029049999999999,-0.148346,-0.231825,-0.344105,0.159534,-0.2471149999999999,-0.326693,-0.141236,-0.643675,-0.273673,0.148664,-0.675985,-0.296352,1
207,0.021675,0.7513400000000001,-0.253631,-0.137402,0.5280100000000001,-0.2451789999999999,-0.299192,0.7072400000000001,-0.4327149999999999,0.179718,0.5247900000000001,-0.226738,0.337628,0.7069000000000001,-0.384665,-0.342612,0.92986,-0.600465,0.383388,0.8779000000000001,-0.566045,-0.085899,0.00134,-0.0028549999999999,0.085899,-0.0013399999999999,0.0028549999999999,-0.148822,-0.2416399999999999,-0.3362549999999999,0.158988,-0.25639,-0.317654,-0.142042,-0.65768,-0.27052,0.149448,-0.69102,-0.294633,1
208,0.0212385,0.756785,-0.239483,-0.1382385,0.5332049999999999,-0.234424,-0.3001485,0.718145,-0.417635,0.1799215,0.529215,-0.216361,0.3383115,0.716135,-0.371195,-0.3428184999999999,0.943875,-0.580935,0.3825115,0.8941250000000001,-0.551695,-0.0856005,0.001605,-0.0027449999999999,0.0856005,-0.0016049999999999,0.0027449999999999,-0.1493685,-0.251075,-0.327866,0.1583915,-0.265265,-0.308462,-0.1431785,-0.671485,-0.267221,0.1501915,-0.705625,-0.2922329999999999,1
209,0.0211455,0.7631000000000001,-0.224365,-0.1385585,0.53999,-0.221792,-0.3005985,0.7276100000000001,-0.4017,0.1811915,0.53395,-0.204761,0.3396315,0.7240599999999999,-0.35699,-0.3424785,0.95657,-0.55955,0.3819615,0.90937,-0.53681,-0.0850075,0.00193,-0.00265,0.0850075,-0.0019299999999999,0.0026499999999999,-0.1494485,-0.2606699999999999,-0.318241,0.1586715,-0.27691,-0.29796,-0.1438585,-0.6858599999999999,-0.263324,0.1507815,-0.7201899999999999,-0.286382,1
210,0.0212634999999999,0.76799,-0.208987,-0.1385095,0.5435099999999999,-0.209456,-0.3005795,0.7372,-0.385775,0.1825304999999999,0.5353399999999999,-0.193706,0.3409405,0.73228,-0.342805,-0.3418595,0.96924,-0.538205,0.3816305,0.92488,-0.521285,-0.0845095,0.0022099999999999,-0.002485,0.0845095,-0.00221,0.0024849999999999,-0.1493095,-0.27067,-0.308565,0.1588304999999999,-0.28928,-0.286954,-0.1445295,-0.69904,-0.258734,0.1512505,-0.73353,-0.280467,1
211,0.0215495,0.76988,-0.193031,-0.1382415,0.5454399999999999,-0.197193,-0.3003415,0.7435999999999999,-0.36727,0.1838985,0.54035,-0.181171,0.3419985,0.7372299999999999,-0.32779,-0.3415115,0.97644,-0.51451,0.3814685,0.93656,-0.50465,-0.0839574999999999,0.0022099999999999,-0.0023299999999999,0.0839574999999999,-0.00221,0.0023299999999999,-0.1488914999999999,-0.28021,-0.298275,0.1591385,-0.30279,-0.2751,-0.1456315,-0.7125400000000001,-0.253539,0.1518985,-0.7474000000000001,-0.274292,1
212,0.021834,0.769425,-0.176529,-0.138373,0.550595,-0.183372,-0.299663,0.751275,-0.348465,0.185297,0.5436350000000001,-0.168838,0.343087,0.742125,-0.312565,-0.341213,0.985915,-0.491135,0.381687,0.947945,-0.488265,-0.0834719999999999,0.002425,-0.002095,0.0834719999999999,-0.0024249999999999,0.0020949999999999,-0.148533,-0.289365,-0.287213,0.159307,-0.317835,-0.262429,-0.1466829999999999,-0.7263149999999999,-0.247403,0.152077,-0.758825,-0.264496,1
213,0.0215645,0.767695,-0.159826,-0.1388915,0.554075,-0.170403,-0.2997115,0.7598449999999999,-0.32971,0.1863484999999999,0.546665,-0.156979,0.3438885,0.747025,-0.298232,-0.3410315,0.993605,-0.46918,0.3814085,0.959675,-0.47144,-0.0829815,0.0026149999999999,-0.00185,0.0829815,-0.002615,0.0018499999999999,-0.1484714999999999,-0.304665,-0.275942,0.1583284999999999,-0.333135,-0.247138,-0.1468515,-0.740075,-0.240622,0.1515885,-0.772405,-0.251907,1
