sb224sc-HT22-VT27/4dt907/src/ml-research/a11/datafiles/labeled_files/A10_kinect.csv
FrameNo,nose_3d_x,nose_3d_y,nose_3d_z,left_shoulder_3d_x,left_shoulder_3d_y,left_shoulder_3d_z,left_elbow_3d_x,left_elbow_3d_y,left_elbow_3d_z,right_shoulder_3d_x,right_shoulder_3d_y,right_shoulder_3d_z,right_elbow_3d_x,right_elbow_3d_y,right_elbow_3d_z,left_wrist_3d_x,left_wrist_3d_y,left_wrist_3d_z,right_wrist_3d_x,right_wrist_3d_y,right_wrist_3d_z,left_hip_3d_x,left_hip_3d_y,left_hip_3d_z,right_hip_3d_x,right_hip_3d_y,right_hip_3d_z,left_knee_3d_x,left_knee_3d_y,left_knee_3d_z,right_knee_3d_x,right_knee_3d_y,right_knee_3d_z,left_ankle_3d_x,left_ankle_3d_y,left_ankle_3d_z,right_ankle_3d_x,right_ankle_3d_y,right_ankle_3d_z,activity_label
0,0.0132159999999999,0.75339,0.0522815,-0.152821,0.4608899999999999,0.0506665,-0.183261,0.20291,0.0681745,0.164749,0.4592699999999999,0.0474885,0.196999,0.21368,0.0655265,-0.203751,-0.01107,-0.0117185,0.206739,0.005838,-0.0020825,-0.072034,0.002952,0.0004585,0.072034,-0.002952,-0.0004585,-0.125031,-0.376,-0.0056005,0.1226189999999999,-0.40764,0.0089035,-0.127021,-0.74266,-0.0029985,0.1342789999999999,-0.75209,-0.0157324999999999,0
1,0.013463,0.7533719999999999,0.0525625,-0.152432,0.460712,0.0513675,-0.1833219999999999,0.202892,0.0681715,0.1650579999999999,0.459232,0.0488905,0.196908,0.212982,0.0653445,-0.205932,-0.05384,-0.0389304999999999,0.206638,0.005176,-0.0023924999999999,-0.072046,0.002965,0.0003935,0.072046,-0.0029649999999999,-0.0003934999999999,-0.125012,-0.376178,-0.0056205,0.122718,-0.407758,0.0090065,-0.1269819999999999,-0.741908,-0.0035564999999999,0.134188,-0.752048,-0.0157905,0
2,0.0134899999999999,0.753413,0.052998,-0.152108,0.460513,0.051904,-0.183258,0.202893,0.0679319999999999,0.1651719999999999,0.459323,0.049302,0.196762,0.212813,0.06495,-0.199398,-0.003717,-0.001986,0.206582,0.005024,-0.0028279999999999,-0.0720119999999999,0.002943,0.0003949999999999,0.0720119999999999,-0.002943,-0.0003949999999999,-0.124898,-0.378137,-0.00495,0.1224119999999999,-0.410327,0.009283,-0.126628,-0.7428070000000001,-0.003979,0.134232,-0.7520870000000001,-0.015966,0
3,0.0137195,0.753342,0.053592,-0.1520855,0.4606019999999999,0.051565,-0.1830055,0.202922,0.067158,0.1654045,0.4592119999999999,0.050445,0.1970645,0.211822,0.062915,-0.2053655,-0.011682,-0.014057,0.2066145,0.003714,-0.003733,-0.0720055,0.002946,0.000466,0.0720055,-0.002946,-0.000466,-0.1248155,-0.379358,-0.005452,0.1225045,-0.410578,0.0091529999999999,-0.1262555,-0.7406780000000001,-0.004451,0.1349845,-0.753148,-0.017587,0
4,0.0139439999999999,0.753047,0.054855,-0.152123,0.460117,0.0530289999999999,-0.184323,0.203437,0.065196,0.165717,0.459167,0.0514089999999999,0.197017,0.211397,0.058163,-0.204133,-0.009733,-0.01787,0.2055969999999999,0.001192,-0.010747,-0.07196,0.003081,0.0003499999999999,0.07196,-0.003081,-0.00035,-0.124743,-0.379003,-0.005609,0.122197,-0.411323,0.0091159999999999,-0.126323,-0.740063,-0.004263,0.1350469999999999,-0.7527630000000001,-0.01784,0
5,0.014254,0.753184,0.0558469999999999,-0.1525409999999999,0.459904,0.0552769999999999,-0.1856709999999999,0.205174,0.062649,0.1655289999999999,0.459324,0.052024,0.197689,0.212594,0.053286,-0.203571,-0.032751,-0.050642,0.204739,-0.000155,-0.019749,-0.071922,0.0031479999999999,0.00025,0.071922,-0.0031479999999999,-0.00025,-0.124701,-0.3784459999999999,-0.005796,0.121749,-0.412996,0.0096209999999999,-0.126181,-0.7399060000000001,-0.004362,0.1350589999999999,-0.7526660000000001,-0.018501,0
6,0.014074,0.7530655,0.0601665,-0.153709,0.4602355,0.0590415,-0.197679,0.2193854999999999,0.0419865,0.165791,0.4597055,0.0530835,0.203561,0.2248955,0.0345645,-0.221449,0.0037235,-0.0680105,0.218801,0.0302765,-0.0671705,-0.071856,0.0033485,1.3499999999999623e-05,0.071856,-0.0033485,-1.3499999999999623e-05,-0.124869,-0.3767445,-0.0059974999999999,0.121721,-0.4136545,0.0096865,-0.1252889999999999,-0.7389344999999999,-0.0039065,0.135371,-0.7515545,-0.0187275,0
7,0.0132639999999999,0.752881,0.061935,-0.151727,0.461381,0.057311,-0.218607,0.248571,0.0132559999999999,0.161223,0.461151,0.051363,0.222373,0.249021,0.0079049999999999,-0.242027,0.08546,-0.129309,0.232593,0.08575,-0.119159,-0.0723409999999999,0.002893,0.000694,0.0723409999999999,-0.0028929999999999,-0.000694,-0.125467,-0.372089,-0.0054529999999999,0.121333,-0.412369,0.0090449999999999,-0.1246569999999999,-0.736939,-0.001541,0.135173,-0.7524989999999999,-0.018572,0
8,0.0130525,0.752841,0.064223,-0.1510125,0.461761,0.05785,-0.2290525,0.266671,-0.0050789999999999,0.1595675,0.4618409999999999,0.051057,0.2303774999999999,0.2640309999999999,-0.0108029999999999,-0.2541624999999999,0.122261,-0.1620829999999999,0.2405475,0.117851,-0.155833,-0.0724715,0.002893,0.000852,0.0724715,-0.0028929999999999,-0.0008519999999999,-0.1255025,-0.370669,-0.0053309999999999,0.1210775,-0.412679,0.008833,-0.1241825,-0.735829,-0.0010699999999999,0.1353075,-0.7525689999999999,-0.0191819999999999,0
9,0.0127955,0.7528294999999999,0.066449,-0.1502215,0.4622294999999999,0.058024,-0.2400815,0.2870895,-0.0239229999999999,0.1578485,0.4626395,0.05047,0.2388185,0.2813394999999999,-0.030232,-0.2672515,0.1650295,-0.193501,0.2508685,0.1554995,-0.194111,-0.0726445,0.0028815,0.001072,0.0726445,-0.0028815,-0.001072,-0.1255015,-0.3691105,-0.005242,0.1208585,-0.4126905,0.008574,-0.1236714999999999,-0.7347605,-0.0007039999999999,0.1354584999999999,-0.7525805,-0.0197409999999999,0
10,0.012522,0.752699,0.0685475,-0.149231,0.463139,0.0578525,-0.251411,0.316709,-0.0419665,0.156209,0.463749,0.0497665,0.248669,0.306619,-0.0493384999999999,-0.2794109999999999,0.218969,-0.2231795,0.262319,0.207109,-0.2321195,-0.072831,0.002836,0.0013555,0.072831,-0.002836,-0.0013554999999999,-0.125531,-0.367451,-0.0051794999999999,0.1206889999999999,-0.412821,0.0081155,-0.123141,-0.733791,-0.0001164999999999,0.135619,-0.7527109999999999,-0.0204374999999999,0
11,0.0122315,0.752474,0.0702505,-0.1484745,0.464084,0.0572165,-0.2613345,0.347994,-0.0576685,0.1551355,0.465354,0.0489285,0.2580854999999999,0.334914,-0.0646205,-0.2885845,0.279484,-0.2444075,0.2714455,0.261164,-0.2587575,-0.0729775,0.002799,0.0017164999999999,0.0729775,-0.002799,-0.0017164999999999,-0.1254845,-0.365836,-0.0050514999999999,0.1205255,-0.4130459999999999,0.0077055,-0.1226444999999999,-0.732986,0.0002295,0.1356855,-0.7528659999999999,-0.0208955,0
12,0.0119574999999999,0.751935,0.071688,-0.1476845,0.465075,0.056311,-0.2706545,0.381795,-0.072695,0.1542454999999999,0.467175,0.0480639999999999,0.2669855,0.364695,-0.078965,-0.2957945,0.346365,-0.266105,0.2797955,0.325265,-0.282145,-0.0730815,0.00272,0.00202,0.0730815,-0.0027199999999999,-0.00202,-0.1253645,-0.365025,-0.005046,0.1203255,-0.413475,0.0072179999999999,-0.1221545,-0.732795,0.000279,0.1357255,-0.753495,-0.0214909999999999,0
13,0.011711,0.7510725,0.0727885,-0.146764,0.4664825,0.0552685,-0.275854,0.4186125,-0.0822675,0.153586,0.4689625,0.0472575,0.273896,0.3995025,-0.0885975,-0.300004,0.4170425,-0.2769175,0.284606,0.3864025,-0.2934974999999999,-0.073185,0.0026155,0.0022875,0.073185,-0.0026155,-0.0022874999999999,-0.125224,-0.3649274999999999,-0.0051544999999999,0.120166,-0.4137375,0.0066425,-0.121714,-0.7333775,0.0001395,0.135786,-0.7544474999999999,-0.0220184999999999,0
14,0.0115235,0.749762,0.073444,-0.1458595,0.4683219999999999,0.054376,-0.2795895,0.458812,-0.088684,0.1533905,0.470832,0.046707,0.2786605,0.4371319999999999,-0.0951839999999999,-0.3026894999999999,0.4874219999999999,-0.280234,0.2884905,0.461022,-0.297914,-0.0733065,0.002521,0.002449,0.0733065,-0.002521,-0.002449,-0.1251795,-0.365718,-0.005159,0.1199805,-0.414198,0.006286,-0.1215795,-0.734618,-0.0005569999999999,0.1357805,-0.756018,-0.0222299999999999,0
15,0.011402,0.748278,0.07381,-0.145416,0.4702179999999999,0.053842,-0.279436,0.4959579999999999,-0.089364,0.153514,0.472248,0.046467,0.280224,0.473008,-0.095814,-0.302796,0.556618,-0.280914,0.291634,0.528238,-0.2984839999999999,-0.073438,0.002462,0.0025009999999999,0.073438,-0.002462,-0.0025009999999999,-0.125106,-0.367092,-0.0050149999999999,0.119784,-0.414892,0.006159,-0.1214259999999999,-0.736132,-0.000961,0.135774,-0.757752,-0.02226,0
16,0.011477,0.746598,0.0737319999999999,-0.145248,0.472368,0.053422,-0.279268,0.5344779999999999,-0.089895,0.153642,0.473358,0.0464269999999999,0.281122,0.5117579999999999,-0.096315,-0.302628,0.623528,-0.281445,0.293742,0.595698,-0.2989449999999999,-0.07353,0.002423,0.0025769999999999,0.07353,-0.002423,-0.0025769999999999,-0.1249579999999999,-0.369072,-0.0049419999999999,0.119622,-0.4157119999999999,0.006095,-0.121268,-0.7381920000000001,-0.0013629999999999,0.135582,-0.7598520000000001,-0.022022,0
17,0.011685,0.7445995,0.0734705,-0.145016,0.4749895,0.0532185,-0.279026,0.5704994999999999,-0.0902075,0.1537639999999999,0.4746195,0.0466725,0.281364,0.5488195,-0.0966275,-0.302386,0.6879894999999999,-0.2817575,0.295104,0.6624295,-0.2992174999999999,-0.073555,0.0024405,0.0025564999999999,0.073555,-0.0024405,-0.0025564999999999,-0.124706,-0.3717505,-0.0048354999999999,0.119564,-0.4170204999999999,0.0060734999999999,-0.1211859999999999,-0.7412805,-0.0014405,0.135404,-0.7625305,-0.0216735,0
18,0.011971,0.742469,0.0733775,-0.144716,0.478039,0.0532475,-0.278466,0.604929,-0.0887895,0.154274,0.475859,0.0471054999999999,0.281644,0.5842890000000001,-0.0960095,-0.302376,0.7494090000000001,-0.2738095,0.2951539999999999,0.7254290000000001,-0.2909195,-0.073479,0.0024919999999999,0.0024914999999999,0.073479,-0.002492,-0.0024915,-0.124376,-0.374911,-0.0046745,0.119624,-0.418681,0.0061274999999999,-0.1209959999999999,-0.7445609999999999,-0.0011715,0.135324,-0.765631,-0.0213375,0
19,0.0123014999999999,0.740425,0.0733895,-0.1444105,0.480745,0.0533495,-0.2772405,0.6303150000000001,-0.0855775,0.1550095,0.476935,0.0475535,0.2819095,0.612315,-0.0939275,-0.3004305,0.800185,-0.2617175,0.2951094999999999,0.775385,-0.2791075,-0.0733695,0.002482,0.0024955,0.0733695,-0.002482,-0.0024955,-0.1239805,-0.378035,-0.0045975,0.1197594999999999,-0.420355,0.0062615,-0.1208105,-0.747695,-0.0009184999999999,0.1352295,-0.768775,-0.0209795,0
20,0.0125765,0.738378,0.0733999999999999,-0.1441985,0.483418,0.053495,-0.2753485,0.653478,-0.078264,0.1557414999999999,0.477658,0.047989,0.2818615,0.637298,-0.086104,-0.2968085,0.844628,-0.244184,0.2937615,0.822088,-0.259114,-0.0732255,0.002481,0.0025009999999999,0.0732255,-0.0024809999999999,-0.0025009999999999,-0.1235785,-0.381372,-0.0045819999999999,0.1199715,-0.422132,0.006287,-0.1205484999999999,-0.751022,-0.000828,0.1351715,-0.772002,-0.020651,0
21,0.0128655,0.7368195,0.073083,-0.1441115,0.4862495,0.053683,-0.2725615,0.6729295,-0.0695939999999999,0.1564785,0.4784595,0.048274,0.2811485,0.6590095,-0.076132,-0.2921614999999999,0.8781395,-0.223471,0.2933885,0.8584395,-0.234301,-0.0730815,0.0025034999999999,0.002506,0.0730815,-0.0025035,-0.0025059999999999,-0.1231815,-0.3844405,-0.0045679999999999,0.1202585,-0.4239405,0.006297,-0.1202915,-0.7541805,-0.0008049999999999,0.1351784999999999,-0.7750305,-0.0204089999999999,0
22,0.0131669999999999,0.735614,0.072618,-0.1442459999999999,0.488664,0.053974,-0.269186,0.685794,-0.0610919999999999,0.156994,0.479304,0.048575,0.277914,0.6739240000000001,-0.065712,-0.2886559999999999,0.902564,-0.202343,0.290884,0.8937240000000001,-0.207693,-0.072906,0.002508,0.0024139999999999,0.072906,-0.002508,-0.0024139999999999,-0.122816,-0.387216,-0.004479,0.120584,-0.425806,0.0063849999999999,-0.120136,-0.757146,-0.0008489999999999,0.135184,-0.7779159999999999,-0.020164,0
23,0.0134205,0.73488,0.071957,-0.1442215,0.49078,0.054454,-0.2657415,0.69535,-0.051701,0.1572785,0.47992,0.049003,0.2754884999999999,0.6854100000000001,-0.055337,-0.2863115,0.92377,-0.183087,0.2893485,0.91136,-0.1850069999999999,-0.0727395,0.0024869999999999,0.0022909999999999,0.0727395,-0.0024869999999999,-0.002291,-0.1225115,-0.38952,-0.004326,0.1208785,-0.42755,0.0065509999999999,-0.1200715,-0.75964,-0.0008219999999999,0.1351885,-0.7804,-0.019877,0
24,0.0135705,0.734377,0.071283,-0.1441245,0.492787,0.055186,-0.2622845,0.703197,-0.0418689999999999,0.1575254999999999,0.480587,0.049638,0.2722055,0.694367,-0.044609,-0.2842045,0.937987,-0.165769,0.2881655,0.926717,-0.162799,-0.0725835,0.002457,0.002195,0.0725835,-0.0024569999999999,-0.0021949999999999,-0.1222545,-0.3916229999999999,-0.0040319999999999,0.1211355,-0.4290929999999999,0.006823,-0.1200445,-0.761973,-0.0005529999999999,0.1351755,-0.782683,-0.019373,0
25,0.013533,0.734321,0.070656,-0.144024,0.494401,0.055826,-0.259784,0.7090209999999999,-0.032443,0.157726,0.481421,0.050169,0.269316,0.6993309999999999,-0.033652,-0.282784,0.948871,-0.147496,0.287486,0.936121,-0.142406,-0.072469,0.0024419999999999,0.002148,0.072469,-0.0024419999999999,-0.002148,-0.122044,-0.3933089999999999,-0.0037949999999999,0.1213559999999999,-0.4308389999999999,0.007044,-0.120054,-0.764209,-0.000257,0.135286,-0.784869,-0.019013,0
26,0.0132644999999999,0.7345185,0.0701805,-0.1439845,0.4953984999999999,0.0562355,-0.2582645,0.7131185,-0.0250705,0.1574055,0.4820784999999999,0.0505125,0.2670855,0.7014885,-0.0246495,-0.2819645,0.9540785,-0.1316575,0.2866855,0.9427585,-0.1246875,-0.0723824999999999,0.0024064999999999,0.0021895,0.0723824999999999,-0.0024064999999999,-0.0021895,-0.1219045,-0.3944715,-0.0037394999999999,0.1215054999999999,-0.4319915,0.0071325,-0.1200644999999999,-0.7654115,-0.0001594999999999,0.1353955,-0.7860315,-0.0187785,0
27,0.012771,0.7348399999999999,0.069692,-0.144019,0.49606,0.05662,-0.257329,0.7165999999999999,-0.019205,0.156841,0.4826299999999999,0.050714,0.265401,0.70312,-0.017089,-0.2816289999999999,0.95626,-0.1181259999999999,0.285901,0.94857,-0.1103559999999999,-0.072347,0.0023689999999999,0.002271,0.072347,-0.002369,-0.0022709999999999,-0.1218089999999999,-0.39529,-0.0038339999999999,0.121571,-0.43279,0.007107,-0.120029,-0.7661100000000001,-1.8999999999998185e-05,0.135421,-0.78685,-0.0186829999999999,0
28,0.0122019999999999,0.7351535,0.0692265,-0.144016,0.4966435,0.0570895,-0.256476,0.7196834999999999,-0.0136055,0.156224,0.4830835,0.0510265,0.263984,0.7041634999999999,-0.0099155,-0.281396,0.9574035,-0.1050145,0.285124,0.9536335,-0.0964645,-0.0723449999999999,0.0023545,0.0023305,0.0723449999999999,-0.0023545,-0.0023304999999999,-0.121686,-0.3960864999999999,-0.0039464999999999,0.1216239999999999,-0.4335865,0.0070545,-0.119986,-0.7668565,0.0002085,0.135464,-0.7877365000000001,-0.0187555,0
29,0.011477,0.735492,0.0687845,-0.1439929999999999,0.4971919999999999,0.0575325,-0.255553,0.721722,-0.0079995,0.155687,0.483382,0.0513115,0.2629169999999999,0.704022,-0.0039864999999999,-0.281413,0.957782,-0.0928155,0.2844069999999999,0.957052,-0.0842555,-0.072354,0.002321,0.0023785,0.072354,-0.0023209999999999,-0.0023784999999999,-0.121543,-0.396748,-0.0040254999999999,0.121707,-0.434328,0.0070575,-0.119863,-0.767918,0.0003675,0.135517,-0.788948,-0.0188165,0
30,0.0106494999999999,0.73563,0.0684525,-0.1439285,0.49772,0.0580305,-0.2546084999999999,0.72329,-0.0030015,0.1551815,0.48338,0.0515775,0.2620415,0.7039300000000001,0.0011075,-0.2814385,0.95806,-0.0827165,0.2839315,0.95875,-0.0742154999999999,-0.0723465,0.0022959999999999,0.0024334999999999,0.0723465,-0.002296,-0.0024335,-0.1214185,-0.39726,-0.0040805,0.1217615,-0.43499,0.0070705,-0.1197584999999999,-0.76898,0.0004814999999999,0.1355414999999999,-0.79005,-0.0188405,0
31,0.0097669999999999,0.7356735,0.0681905,-0.14378,0.4985835,0.0587515,-0.25353,0.7247935,0.0021645,0.15477,0.4832935,0.0518765,0.26099,0.7038135,0.0064535,-0.28147,0.9586235,-0.0725555,0.2834,0.9603135,-0.0641195,-0.072331,0.0023105,0.0025135,0.072331,-0.0023105,-0.0025134999999999,-0.12125,-0.3977265,-0.0041344999999999,0.12186,-0.4356765,0.0070465,-0.11966,-0.7698165,0.0004795,0.1356,-0.7911665,-0.0188884999999999,0
32,0.0089465,0.7355824999999999,0.0679455,-0.1436115,0.4991224999999999,0.0592795,-0.2523815,0.7256625,0.0065904999999999,0.1544185,0.4832425000000001,0.0520054999999999,0.2600585,0.7035524999999999,0.0106255,-0.2815614999999999,0.9591925,-0.0636035,0.2829385,0.9613625,-0.0560065,-0.0722995,0.0023185,0.0027345,0.0722995,-0.0023185,-0.0027345,-0.1210815,-0.3982675,-0.0043004999999999,0.1219585,-0.4364675,0.0069124999999999,-0.1196214999999999,-0.7708375000000001,0.0002374999999999,0.1356284999999999,-0.7923175,-0.0190385,0
33,0.0081879999999999,0.73547,0.0677605,-0.143531,0.50012,0.0601175,-0.251311,0.7262099999999999,0.0110605,0.154089,0.48319,0.0521164999999999,0.259159,0.70332,0.0144114999999999,-0.281661,0.95982,-0.0547695,0.282479,0.96239,-0.0489115,-0.072277,0.002318,0.0029775,0.072277,-0.002318,-0.0029775,-0.1208809999999999,-0.3988,-0.0044785,0.122069,-0.43731,0.0067524999999999,-0.119601,-0.7718,-0.0001465,0.135689,-0.79344,-0.0192145,0
34,0.0074799999999999,0.735382,0.0675865,-0.143472,0.5012220000000001,0.0610015,-0.250202,0.725982,0.0148924999999999,0.153818,0.483162,0.0522285,0.258258,0.7031120000000001,0.0172814999999999,-0.281852,0.960052,-0.0471825,0.2820479999999999,0.963252,-0.0439364999999999,-0.072244,0.00232,0.0032104999999999,0.072244,-0.0023199999999999,-0.0032105,-0.120702,-0.3993279999999999,-0.0046205,0.122178,-0.438108,0.0065894999999999,-0.119612,-0.772988,-0.0005495,0.1358079999999999,-0.794508,-0.0194375,0
35,0.0068849999999999,0.7352394999999999,0.067413,-0.1433749999999999,0.5023695,0.061961,-0.249075,0.7256195,0.018722,0.153605,0.4831094999999999,0.052334,0.257375,0.7027194999999999,0.019943,-0.281985,0.9593395,-0.039981,0.281565,0.9629895,-0.039158,-0.072208,0.0023485,0.003469,0.072208,-0.0023484999999999,-0.003469,-0.120485,-0.3999005,-0.004765,0.122315,-0.4389805,0.0064309999999999,-0.119555,-0.7743005000000001,-0.000951,0.135975,-0.7955905,-0.0197339999999999,0
36,0.0064164999999999,0.7350565,0.0672685,-0.1432865,0.5036465,0.0631595,-0.2480165,0.7252365,0.0223565,0.1533935,0.4829765,0.0524595,0.2564935,0.7023364999999999,0.0223405,-0.2820965,0.9584865,-0.0332065,0.2810335,0.9624065,-0.0347415,-0.0721625,0.0023755,0.0037355,0.0721625,-0.0023755,-0.0037354999999999,-0.1203065,-0.4004835,-0.0049164999999999,0.1224534999999999,-0.4399035,0.0062605,-0.1194965,-0.7753835,-0.0011905,0.1361435,-0.7966035,-0.0200494999999999,0
37,0.0059664999999999,0.734781,0.067205,-0.1431875,0.504911,0.064282,-0.2469974999999999,0.724871,0.025786,0.1531825,0.482691,0.052466,0.2556225,0.701971,0.024297,-0.2822075,0.957521,-0.0273969999999999,0.2803825,0.963441,-0.0310949999999999,-0.0721135,0.002396,0.0039749999999999,0.0721135,-0.0023959999999999,-0.0039749999999999,-0.1201075,-0.401119,-0.005013,0.1226025,-0.440339,0.006117,-0.1193575,-0.776099,-0.001451,0.1363525,-0.797029,-0.020297,0
38,0.0055185,0.734488,0.0671775,-0.1431275,0.506238,0.0654245,-0.2461175,0.7245680000000001,0.0283635,0.1529424999999999,0.482428,0.0524905,0.2546725,0.701678,0.0261925,-0.2823575,0.957228,-0.0227644999999999,0.2799325,0.9635479999999998,-0.0282685,-0.0720595,0.0024269999999999,0.0041945,0.0720595,-0.0024269999999999,-0.0041945,-0.1199375,-0.401602,-0.0050584999999999,0.1227425,-0.440682,0.0059755,-0.1192474999999999,-0.7766519999999999,-0.0015125,0.1365025,-0.797412,-0.0205775,0
39,0.0050895,0.73422,0.067149,-0.1431325,0.50739,0.066531,-0.2453225,0.72407,0.030885,0.1525975,0.48216,0.052538,0.2536975,0.70143,0.027924,-0.2826925,0.95696,-0.018053,0.2794875,0.96348,-0.02563,-0.0720065,0.0024389999999999,0.004404,0.0720065,-0.002439,-0.0044039999999999,-0.1197625,-0.40206,-0.0051219999999999,0.1228775,-0.44098,0.005838,-0.1191525,-0.77711,-0.0016619999999999,0.1366175,-0.79777,-0.0208029999999999,0
40,0.0045909999999999,0.7340785,0.0671104999999999,-0.1432399999999999,0.5079385,0.0673894999999999,-0.2450999999999999,0.7236585,0.0330575,0.1521799999999999,0.4822085,0.0525855,0.25286,0.7017385,0.0291174999999999,-0.28318,0.9566185,-0.0142095,0.27918,0.9634385,-0.0241505,-0.071993,0.0023675,0.0045574999999999,0.071993,-0.0023675,-0.0045575,-0.11969,-0.4024715,-0.0051045,0.12291,-0.4411615,0.0057374999999999,-0.119,-0.7777015,-0.0016915,0.13668,-0.7980315,-0.0209645,0
41,0.0040695,0.7340085,0.0671505,-0.1433394999999999,0.5085185,0.0682905,-0.2449895,0.7232685,0.0350935,0.1517905,0.4823284999999999,0.0526765,0.2520605,0.7020585,0.0301805,-0.2835795,0.9580785,-0.0109534999999999,0.2788805,0.9632685,-0.0228745,-0.0719875,0.0022975,0.0046305,0.0719875,-0.0022975,-0.0046304999999999,-0.1196194999999999,-0.4028315,-0.0050694999999999,0.1229405,-0.4412715,0.0056655,-0.1188694999999999,-0.7782515,-0.0015814999999999,0.1368105,-0.7982715,-0.0210954999999999,0
42,0.0035965,0.7339105,0.0672514999999999,-0.1434375,0.5086605000000001,0.0688815,-0.2450375,0.7229505,0.0369335,0.1514424999999999,0.4824004999999999,0.0528005,0.2512825,0.7022905,0.0312125,-0.2839775,0.9593705,-0.0079634999999999,0.2785725,0.9632705,-0.0217045,-0.0719815,0.0022365,0.0047075,0.0719815,-0.0022364999999999,-0.0047075,-0.1195475,-0.4032295,-0.0051135,0.1229725,-0.4413995,0.0055955,-0.1188275,-0.7787795,-0.0016514999999999,0.1369425,-0.7985295,-0.0212575,1
43,0.0028129999999999,0.73369,0.0674714999999999,-0.143774,0.50863,0.0696335,-0.245134,0.7222500000000001,0.0389215,0.150886,0.4824699999999999,0.0530655,0.250246,0.70251,0.0322864999999999,-0.284834,0.96039,-0.0051725,0.277806,0.96319,-0.0204765,-0.0719549999999999,0.0021899999999999,0.0047934999999999,0.0719549999999999,-0.00219,-0.0047935,-0.119214,-0.40374,-0.0051785,0.123286,-0.44162,0.0054864999999999,-0.118574,-0.77921,-0.0019755,0.137346,-0.79877,-0.0212955,1
44,0.002026,0.7334275,0.067767,-0.144154,0.5085575,0.070491,-0.245244,0.7215275,0.0409319999999999,0.150356,0.4824975,0.0534199999999999,0.249306,0.7027074999999999,0.033289,-0.285684,0.9612175,-0.002418,0.277016,0.9630175,-0.019347,-0.07192,0.0021564999999999,0.0048559999999999,0.07192,-0.0021564999999999,-0.004856,-0.118904,-0.4042425,-0.005242,0.123596,-0.4418725,0.0053869999999999,-0.118294,-0.7796525,-0.002311,0.137766,-0.7990125,-0.021296,1
45,0.0012144999999999,0.7331825,0.068053,-0.1445035,0.5085225,0.07118,-0.2453735,0.7208625,0.042894,0.1498065,0.4825224999999999,0.053799,0.2484465,0.7029325,0.034189,-0.2865235,0.9617825,4.300000000000137e-05,0.2762165,0.9629825,-0.0183099999999999,-0.0718755,0.0021454999999999,0.004934,0.0718755,-0.0021455,-0.004934,-0.1186235,-0.4046674999999999,-0.005308,0.1239065,-0.4420975,0.005278,-0.1180335,-0.7800375,-0.0026319999999999,0.1382665,-0.7990475,-0.021532,1
46,0.0004215,0.7329155,0.068409,-0.1448134999999999,0.5085055,0.071795,-0.2456235,0.7202455,0.04473,0.1492865,0.4825854999999999,0.054239,0.2476565,0.7030755000000001,0.03494,-0.2873435,0.9622655,0.002365,0.2754465,0.9630655,-0.0174429999999999,-0.0718325,0.0021144999999999,0.004999,0.0718325,-0.0021144999999999,-0.004999,-0.1183734999999999,-0.4048845,-0.0053789999999999,0.1242165,-0.4423445,0.005171,-0.1177034999999999,-0.7805344999999999,-0.0028909999999999,0.1387065,-0.7990244999999999,-0.021688,1
47,-0.0003319999999999,0.732707,0.068744,-0.145122,0.508417,0.072414,-0.246032,0.719677,0.046226,0.149058,0.482637,0.054643,0.246978,0.703187,0.035503,-0.2881319999999999,0.962717,0.0043679999999999,0.2747279999999999,0.963217,-0.016779,-0.071796,0.002063,0.005075,0.071796,-0.0020629999999999,-0.005075,-0.118132,-0.4050129999999999,-0.005479,0.124518,-0.442513,0.0050279999999999,-0.117382,-0.780923,-0.003043,0.139118,-0.799053,-0.021862,1
48,-0.0010505,0.732534,0.069099,-0.1454125,0.508104,0.07302,-0.2464825,0.719204,0.047625,0.1488775,0.4827439999999999,0.055055,0.2463375,0.703294,0.036011,-0.2889025,0.963224,0.0061839999999999,0.2740775,0.963324,-0.016221,-0.0717705,0.001986,0.005141,0.0717705,-0.001986,-0.005141,-0.1179125,-0.405036,-0.005605,0.1248175,-0.442576,0.0048759999999999,-0.1170425,-0.780976,-0.003226,0.1394975,-0.798926,-0.021971,1
49,-0.0017165,0.7324365,0.0694674999999999,-0.1456785,0.5077665,0.0736645,-0.2470085,0.7189065,0.0489594999999999,0.1487015,0.4829065,0.0554025,0.2457814999999999,0.7035165,0.0364014999999999,-0.2896985,0.9637465,0.0078624999999999,0.2734815,0.9636465,-0.0157555,-0.0717555,0.0019204999999999,0.0052154999999999,0.0717555,-0.0019204999999999,-0.0052155,-0.1176985,-0.4049335,-0.0058015,0.1251014999999999,-0.4425435,0.0046944999999999,-0.1166485,-0.7807535,-0.0033555,0.1398715,-0.7986935,-0.0220705,1
50,-0.0023305,0.732358,0.0698485,-0.1459134999999999,0.507448,0.0742665,-0.2475735,0.7187279999999999,0.0501755,0.1485165,0.4827579999999999,0.0557685,0.2452765,0.703768,0.0367165,-0.2904835,0.964298,0.0094245,0.2729565,0.963998,-0.0153505,-0.0717455,0.001861,0.0052854999999999,0.0717455,-0.0018609999999999,-0.0052854999999999,-0.1174835,-0.404802,-0.0060335,0.1254065,-0.442532,0.0045075,-0.1162435,-0.780432,-0.0034964999999999,0.1401664999999999,-0.798432,-0.0221955,1
51,-0.002913,0.732298,0.0702025,-0.146124,0.507158,0.0748405,-0.248164,0.718668,0.0512225,0.1483359999999999,0.482658,0.0560854999999999,0.2448159999999999,0.704028,0.0369155,-0.291224,0.964868,0.0108545,0.2724959999999999,0.964368,-0.0150045,-0.071743,0.0018159999999999,0.0053384999999999,0.071743,-0.001816,-0.0053384999999999,-0.117284,-0.404672,-0.0062625,0.125696,-0.442492,0.0043254999999999,-0.115744,-0.7803920000000001,-0.0037974999999999,0.140436,-0.7982020000000001,-0.0222475,1
52,-0.0029654999999999,0.7322955,0.0704495,-0.1461825,0.5069755,0.0752035,-0.2483625,0.7187455,0.0520415,0.1482875,0.4823155,0.0562695,0.2447675,0.7040155,0.0370115,-0.2914025,0.9652455,0.0119354999999999,0.2724375,0.9644455,-0.0148055,-0.0717474999999999,0.0018225,0.0053934999999999,0.0717474999999999,-0.0018224999999999,-0.0053935,-0.1173124999999999,-0.4046645,-0.0065175,0.1256975,-0.4424944999999999,0.0041455,-0.1156325,-0.7803145,-0.0039655,0.1403975,-0.7982644999999999,-0.0223275,1
53,-0.0030249999999999,0.7322845,0.0706525,-0.1462389999999999,0.5067845,0.0753765,-0.248549,0.7187945,0.0526315,0.148231,0.4820145,0.0564095,0.244721,0.7040045,0.0370255,-0.291549,0.9658145,0.0127275,0.272381,0.9645145,-0.0145665,-0.071746,0.0018275,0.0054715,0.071746,-0.0018274999999999,-0.0054715,-0.1173589999999999,-0.4047455,-0.0067314999999999,0.125691,-0.4425055,0.0039515,-0.115519,-0.7802455,-0.0042444999999999,0.140381,-0.7982855,-0.0224485,1
54,-0.0030869999999999,0.7322675,0.070876,-0.146297,0.5066674999999999,0.07557,-0.248707,0.7188675,0.053175,0.148173,0.4817175,0.056572,0.244663,0.7040575,0.037058,-0.291707,0.9664875,0.0135349999999999,0.2723129999999999,0.9646875,-0.014203,-0.071745,0.0018325,0.00554,0.071745,-0.0018325,-0.00554,-0.117407,-0.4048225,-0.006909,0.125663,-0.4425025,0.00374,-0.115437,-0.7801725,-0.004463,0.140363,-0.7982425,-0.022616,1
55,-0.0030829999999999,0.7322365,0.071159,-0.146152,0.5065365,0.07578,-0.2488319999999999,0.7189464999999999,0.053692,0.148348,0.4813864999999999,0.056724,0.244748,0.7040664999999999,0.037134,-0.291832,0.9671065,0.014281,0.272538,0.9648065,-0.0136579999999999,-0.071748,0.0018514999999999,0.005621,0.071748,-0.0018514999999999,-0.0056209999999999,-0.117432,-0.4048035,-0.007101,0.125668,-0.4425635,0.003532,-0.1153619999999999,-0.7801235,-0.004652,0.140348,-0.7981035,-0.0227209999999999,1
56,-0.0029855,0.7322475,0.071553,-0.1459694999999999,0.5065075,0.076231,-0.2489495,0.7190675000000001,0.05428,0.1485405,0.4810674999999999,0.056958,0.2449405,0.7040875,0.037257,-0.2919595,0.9679275,0.01508,0.2728105,0.9650275,-0.0130819999999999,-0.0717565,0.0018724999999999,0.005679,0.0717565,-0.0018724999999999,-0.005679,-0.1174495,-0.4050025,-0.0072599999999999,0.1256705,-0.4426125,0.003342,-0.1152595,-0.7800024999999999,-0.0048069999999999,0.1403305,-0.7979725,-0.0228799999999999,1
57,-0.002818,0.732284,0.0719799999999999,-0.145814,0.506494,0.07677,-0.249064,0.719234,0.05493,0.1487259999999999,0.480774,0.057159,0.245216,0.704154,0.037385,-0.292104,0.968694,0.015864,0.273116,0.965294,-0.012526,-0.071771,0.0018999999999999,0.0057079999999999,0.071771,-0.0018999999999999,-0.005708,-0.117464,-0.405246,-0.0074,0.125666,-0.442666,0.0031479999999999,-0.115244,-0.780326,-0.005156,0.140316,-0.797796,-0.023028,1
58,-0.0025664999999999,0.7323655,0.072421,-0.1456835,0.5065054999999999,0.0772559999999999,-0.2492035,0.7194254999999999,0.0554869999999999,0.1489465,0.4804855,0.057357,0.2455365,0.7042354999999999,0.037568,-0.2922234999999999,0.9694755,0.0165479999999999,0.2734465,0.9654755,-0.011975,-0.0717815,0.0019204999999999,0.0057079999999999,0.0717815,-0.0019204999999999,-0.005708,-0.1174935,-0.4054945,-0.007518,0.1256665,-0.4426545,0.0029079999999999,-0.1151534999999999,-0.7801545000000001,-0.005456,0.1402465,-0.7975945000000001,-0.023175,1
59,-0.0022675,0.7324065000000001,0.0728645,-0.1455595,0.5064965,0.0778035,-0.2493495,0.7195665,0.0560525,0.1490105,0.4804965,0.0575515,0.2459104999999999,0.7042765,0.0378015,-0.2923495,0.9702165,0.0172155,0.2738204999999999,0.9657165,-0.0114244999999999,-0.0717935,0.0019354999999999,0.0057065,0.0717935,-0.0019354999999999,-0.0057065,-0.1174895,-0.4059635,-0.0075874999999999,0.1256904999999999,-0.4426535,0.0026765,-0.1151195,-0.7801135,-0.0057434999999999,0.1401704999999999,-0.7974335,-0.0233244999999999,1
60,-0.0019409999999999,0.7324590000000001,0.0733585,-0.145451,0.5064690000000001,0.0782145,-0.2495109999999999,0.719719,0.0566055,0.149069,0.4805489999999999,0.0577354999999999,0.246339,0.7043590000000001,0.0380785,-0.292481,0.970869,0.0177695,0.274189,0.965969,-0.0109154999999999,-0.071802,0.0019519999999999,0.0057035,0.071802,-0.001952,-0.0057035,-0.117481,-0.406411,-0.0076855,0.125719,-0.442661,0.0024414999999999,-0.115151,-0.780121,-0.0061224999999999,0.140109,-0.7972809999999999,-0.0234695,1
61,-0.001577,0.7325904999999999,0.073854,-0.145344,0.5064305,0.078607,-0.249724,0.7198605,0.057125,0.149096,0.4806104999999999,0.057883,0.246826,0.7044805,0.038404,-0.292634,0.9715305,0.018256,0.274576,0.9661305,-0.0104449999999999,-0.071808,0.0019645,0.005664,0.071808,-0.0019644999999999,-0.0056639999999999,-0.117494,-0.4068994999999999,-0.0078459999999999,0.125776,-0.4426795,0.002172,-0.115214,-0.7800595,-0.0064939999999999,0.1400259999999999,-0.7971195,-0.0236489999999999,1
62,-0.0012065,0.732708,0.0743015,-0.1452635,0.506328,0.0789835,-0.2499635,0.719978,0.0575615,0.1490965,0.480728,0.0580035,0.2473064999999999,0.704618,0.0387534999999999,-0.2928335,0.972088,0.0185705,0.2749565,0.966188,-0.0101214999999999,-0.0718265,0.0019769999999999,0.0055745,0.0718265,-0.0019769999999999,-0.0055745,-0.1174835,-0.407412,-0.0080695,0.1258165,-0.442722,0.0018654999999999,-0.1153135,-0.780002,-0.0067214999999999,0.1399365,-0.797022,-0.0238515,1
63,-0.000823,0.732837,0.074716,-0.145124,0.506257,0.07923,-0.250284,0.720017,0.0578889999999999,0.149176,0.4808469999999999,0.058075,0.247906,0.7047869999999999,0.03904,-0.293064,0.972317,0.018671,0.275406,0.966317,-0.010001,-0.0718699999999999,0.0019759999999999,0.005432,0.0718699999999999,-0.0019759999999999,-0.0054319999999999,-0.117464,-0.4079529999999999,-0.008341,0.125906,-0.4427629999999999,0.001242,-0.115464,-0.780263,-0.0069989999999999,0.139786,-0.797023,-0.0241309999999999,1
64,-0.000648,0.7330135,0.0749605,-0.14514,0.5061535,0.0793815,-0.25067,0.7200635000000001,0.0580065,0.14917,0.4810435,0.0580845,0.2483199999999999,0.7049835,0.0392195,-0.29339,0.9725635,0.0185765,0.2757199999999999,0.9664635,-0.0101555,-0.0719289999999999,0.0019784999999999,0.0052074999999999,0.0719289999999999,-0.0019785,-0.0052075,-0.11748,-0.4083765,-0.0086965,0.12596,-0.4427864999999999,0.0002514999999999,-0.11573,-0.7807965,-0.0074825,0.13957,-0.7970565,-0.0244925,1
65,-0.0005379999999999,0.7330395,0.0750145,-0.145214,0.5061194999999999,0.0791345,-0.2510239999999999,0.7201195,0.0579284999999999,0.149106,0.4810995,0.0580175,0.248616,0.7050394999999999,0.0392654999999999,-0.2936539999999999,0.9726195,0.0182845,0.276016,0.9665195,-0.0104305,-0.072008,0.0019834999999999,0.0049124999999999,0.072008,-0.0019834999999999,-0.0049125,-0.117464,-0.4088104999999999,-0.0092325,0.125926,-0.4428204999999999,-0.0010805,-0.1160939999999999,-0.7813705000000001,-0.0081505,0.139256,-0.7970805000000001,-0.0249995,1
66,-0.000486,0.733037,0.075066,-0.145318,0.506037,0.078757,-0.2514079999999999,0.720157,0.057741,0.149062,0.481107,0.0580119999999999,0.248872,0.705097,0.0393069999999999,-0.2939079999999999,0.972677,0.017886,0.276342,0.966577,-0.010737,-0.072105,0.0019829999999999,0.0046219999999999,0.072105,-0.0019829999999999,-0.004622,-0.117418,-0.4092429999999999,-0.009855,0.125902,-0.442833,-0.002724,-0.116518,-0.782283,-0.009379,0.138902,-0.7971429999999999,-0.025675,1
67,-0.0004824999999999,0.7330734999999999,0.074916,-0.1454855,0.5061034999999999,0.078155,-0.2518455,0.7201934999999999,0.057303,0.1490245,0.4811735,0.057873,0.2491145,0.7051634999999999,0.039139,-0.2942455,0.9727435,0.017227,0.2767545,0.9666435,-0.011202,-0.0721985,0.0019864999999999,0.004377,0.0721985,-0.0019865,-0.0043769999999999,-0.1173355,-0.4096965,-0.0107459999999999,0.1259045,-0.4428465,-0.0049279999999999,-0.1169355,-0.7833165,-0.0110239999999999,0.1385845,-0.7970765,-0.026578,1
68,-0.0003674999999999,0.733467,0.074954,-0.1454825,0.506107,0.077597,-0.2522725,0.7203569999999999,0.056929,0.1490475,0.481757,0.0578339999999999,0.2494875,0.705687,0.039049,-0.2945925,0.973087,0.016703,0.2773975,0.966787,-0.011518,-0.0722965,0.0019849999999999,0.004125,0.0722965,-0.001985,-0.004125,-0.1172925,-0.410493,-0.0122199999999999,0.1258575,-0.442963,-0.0076049999999999,-0.1176425,-0.7844530000000001,-0.0135899999999999,0.1380974999999999,-0.7971130000000001,-0.0280019999999999,1
69,-0.0002885,0.7340085000000001,0.0745484999999999,-0.1454345,0.5060884999999999,0.0765875,-0.2527345,0.7206485,0.0560305,0.1491055,0.4824584999999999,0.0574995,0.2499155,0.7063085,0.0383105,-0.2949445,0.9734885,0.0154995,0.2781855,0.9670885,-0.0125285,-0.0724145,0.0019465,0.0039694999999999,0.0724145,-0.0019464999999999,-0.0039695,-0.1172345,-0.4116315,-0.0145255,0.1256855,-0.4430115,-0.0110635,-0.1184145,-0.7851815,-0.0166515,0.1375455,-0.7970915000000001,-0.0303035,1
70,-0.0001869999999999,0.7345095,0.0739035,-0.14531,0.5060595,0.0755335,-0.25313,0.7209595,0.0549285,0.14925,0.4831395,0.0571035,0.25057,0.7069295,0.0372725,-0.29523,0.9738995,0.0139855,0.27912,0.9672995,-0.0138935,-0.072495,0.0019125,0.0037964999999999,0.072495,-0.0019124999999999,-0.0037965,-0.11712,-0.4129805,-0.0171535,0.12549,-0.4432304999999999,-0.0148774999999999,-0.11912,-0.7859305,-0.0199975,0.13704,-0.7971905,-0.0329865,1
71,-5.450000000000084e-05,0.7349665,0.073099,-0.1451625,0.5060665,0.07422,-0.2534524999999999,0.7212665,0.053571,0.1495274999999999,0.4838365,0.056622,0.2513975,0.7076065,0.035961,-0.2954425,0.9744565,0.012183,0.2801675,0.9674565,-0.015594,-0.0725725,0.0018875,0.003627,0.0725725,-0.0018875,-0.003627,-0.1169925,-0.4146635,-0.02019,0.1253274999999999,-0.4434635,-0.019007,-0.1198225,-0.7869235,-0.023792,0.1366075,-0.7972835,-0.03596,1
72,3.449999999999829e-05,0.735485,0.071996,-0.1451385,0.506265,0.072817,-0.2537585,0.7216750000000001,0.0518779999999999,0.1498015,0.484575,0.0559459999999999,0.2520915,0.708325,0.0343129999999999,-0.2956284999999999,0.974945,0.0099999999999999,0.2811715,0.967845,-0.017692,-0.0726375,0.001861,0.0035249999999999,0.0726375,-0.001861,-0.003525,-0.1169385,-0.4165549999999999,-0.023652,0.1251715,-0.443695,-0.023312,-0.1205285,-0.787885,-0.027968,0.1361115,-0.797365,-0.0394039999999999,1
73,0.0001795,0.7360785,0.0706475,-0.1450435,0.5066284999999999,0.0713555,-0.2539835,0.7222284999999999,0.0499785,0.1501365,0.4854885,0.0550675,0.2529365,0.7091485,0.0323935,-0.2957134999999999,0.9757085,0.0073574999999999,0.2822565,0.9683085,-0.0202095,-0.0727065,0.0018395,0.0034824999999999,0.0727065,-0.0018395,-0.0034824999999999,-0.1169234999999999,-0.4184715,-0.0274895,0.1251165,-0.4436915,-0.0277125,-0.1212635,-0.7886215,-0.0325815,0.1357765,-0.7974215,-0.0431255,1
74,0.0003644999999999,0.736669,0.069161,-0.1447905,0.507019,0.069759,-0.2541105,0.722989,0.047684,0.1505595,0.486489,0.053929,0.2539395,0.710129,0.030164,-0.2956905,0.976669,0.004413,0.2834495,0.968969,-0.023112,-0.0727495,0.00179,0.003581,0.0727495,-0.00179,-0.003581,-0.1169304999999999,-0.419741,-0.031561,0.1252795,-0.4428809999999999,-0.0322369999999999,-0.1219005,-0.789171,-0.037436,0.1356095,-0.797221,-0.0471749999999999,1
75,0.000578,0.7373715,0.06726,-0.144462,0.5073515,0.067878,-0.254212,0.7239015,0.04504,0.150978,0.4874815,0.0524889999999999,0.255018,0.7112615,0.02754,-0.295612,0.9777615,0.001123,0.284738,0.9697915,-0.026359,-0.072779,0.0017385,0.003646,0.072779,-0.0017385,-0.003646,-0.1169119999999999,-0.4207785,-0.03603,0.125398,-0.4416985,-0.036911,-0.122502,-0.7892485,-0.042298,0.135588,-0.7967385,-0.051443,1
76,0.0008184999999999,0.737823,0.065098,-0.1440405,0.507133,0.065883,-0.2543305,0.724853,0.042037,0.1513795,0.4880829999999999,0.050982,0.2562695,0.7126629999999999,0.024462,-0.2954505,0.979053,-0.002453,0.2860795,0.970713,-0.029892,-0.0728105,0.0016709999999999,0.003695,0.0728105,-0.0016709999999999,-0.003695,-0.1168505,-0.420667,-0.041183,0.1254994999999999,-0.440127,-0.041802,-0.1230905,-0.788957,-0.047737,0.1355795,-0.7958970000000001,-0.0560709999999999,1
77,0.000984,0.737653,0.0622815,-0.143696,0.5066930000000001,0.0633335,-0.254426,0.7251730000000001,0.0381875,0.151724,0.487893,0.0489535,0.257584,0.713603,0.0206265,-0.295386,0.980323,-0.0066124999999999,0.287344,0.971603,-0.0338435,-0.072831,0.001583,0.0037755,0.072831,-0.001583,-0.0037754999999999,-0.1168259999999999,-0.419157,-0.0474145,0.125654,-0.438357,-0.0475725,-0.1233759999999999,-0.7878269999999999,-0.0527805,0.135604,-0.7945369999999999,-0.0608155,1
78,0.0011094999999999,0.7371335,0.05966,-0.1434025,0.5059935,0.061025,-0.2545225,0.7254535,0.034657,0.1519875,0.4873834999999999,0.047041,0.2588475,0.7145535000000001,0.017144,-0.2953425,0.9816935,-0.0105029999999999,0.2885375,0.9724535,-0.037513,-0.0728885,0.0015385,0.003699,0.0728885,-0.0015384999999999,-0.0036989999999999,-0.1169025,-0.4171864999999999,-0.053384,0.1258675,-0.4363865,-0.053177,-0.1236125,-0.7864265,-0.057463,0.1355974999999999,-0.7927365,-0.065248,1
79,0.0013134999999999,0.7367024999999999,0.0571464999999999,-0.1430395,0.5051525,0.0585855,-0.2545395,0.7252925,0.0312014999999999,0.1523505,0.4867224999999999,0.0450234999999999,0.2600205,0.7156925,0.0137315,-0.2951095,0.9832125,-0.0144325,0.2897305,0.9735625,-0.0412345,-0.0728895,0.0014535,0.0037004999999999,0.0728895,-0.0014535,-0.0037005,-0.1171295,-0.4158375,-0.0599195,0.1262505,-0.4340675,-0.0591345,-0.1237795,-0.7848075,-0.0621255,0.1355305,-0.7904575,-0.0696195,1
80,0.0014579999999999,0.7359610000000001,0.054689,-0.142801,0.5040910000000001,0.056218,-0.254631,0.725131,0.0278989999999999,0.1524289999999999,0.486181,0.0429419999999999,0.261109,0.7170110000000001,0.0103369999999999,-0.294961,0.984811,-0.018914,0.290919,0.974731,-0.045487,-0.072891,0.001361,0.003723,0.072891,-0.001361,-0.003723,-0.117431,-0.414069,-0.066618,0.126779,-0.431139,-0.065223,-0.123901,-0.7824089999999999,-0.066456,0.135689,-0.788189,-0.073956,1
81,0.0016225,0.7351935,0.0523305,-0.1426365,0.5029635,0.0537975,-0.2546965,0.7248635,0.0245434999999999,0.1525835,0.4853834999999999,0.0408155,0.2623135,0.7181235,0.0070054999999999,-0.2946265,0.9861635,-0.0232785,0.2921635,0.9759135,-0.0496255,-0.0728805,0.0012685,0.0036724999999999,0.0728805,-0.0012684999999999,-0.0036725,-0.1177464999999999,-0.4124065,-0.0733035,0.1274235,-0.4267465,-0.0718695,-0.1236864999999999,-0.7797565,-0.0705455,0.1358035,-0.7856465,-0.0780065,1
82,0.0018064999999999,0.7334139999999999,0.049869,-0.1424295,0.500834,0.0507909999999999,-0.2547195,0.722804,0.020501,0.1527804999999999,0.484684,0.038028,0.2634505,0.718634,0.002859,-0.2942495,0.986954,-0.028144,0.2931405,0.978294,-0.0545859999999999,-0.0729335,0.0011439999999999,0.003596,0.0729335,-0.001144,-0.0035959999999999,-0.1184095,-0.408846,-0.081594,0.1281804999999999,-0.421336,-0.080091,-0.1236895,-0.775266,-0.074767,0.1358904999999999,-0.7814460000000001,-0.082734,1
83,0.0021249999999999,0.732187,0.0471795,-0.142105,0.499177,0.0476325,-0.254595,0.721087,0.0161185,0.153075,0.483637,0.0350824999999999,0.264575,0.719387,-0.0016205,-0.293795,0.987937,-0.0334475,0.294115,0.981067,-0.0598874999999999,-0.073083,0.001075,0.0034184999999999,0.073083,-0.0010749999999999,-0.0034184999999999,-0.119085,-0.4036229999999999,-0.0909625,0.129185,-0.4148929999999999,-0.0895605,-0.123485,-0.769183,-0.0790164999999999,0.1360549999999999,-0.775853,-0.0875135,1
84,0.0022909999999999,0.7303514999999999,0.0444905,-0.141795,0.4978415,0.0447105,-0.254565,0.7189215,0.0114184999999999,0.153125,0.4820815,0.0319305,0.265615,0.7189015,-0.0065754999999999,-0.293355,0.9884715,-0.0390915,0.2948349999999999,0.9831915,-0.0652935,-0.073229,0.0008885,0.0031834999999999,0.073229,-0.0008885,-0.0031834999999999,-0.119935,-0.3962185,-0.1013555,0.130335,-0.4072185,-0.1002625,-0.123265,-0.7611185,-0.0834235,0.136225,-0.7682085000000001,-0.0925305,1
85,0.002336,0.7288945,0.041824,-0.1415819999999999,0.4968145,0.0417459999999999,-0.254592,0.7169645,0.0067229999999999,0.152978,0.4808345,0.0287749999999999,0.266418,0.7185245,-0.011625,-0.292972,0.9890445,-0.04475,0.295228,0.9828245,-0.071097,-0.073401,0.0007605,0.0028689999999999,0.073401,-0.0007604999999999,-0.002869,-0.120932,-0.3879555,-0.112351,0.131528,-0.3978455,-0.111897,-0.123192,-0.7514155,-0.088198,0.135938,-0.7589555,-0.097368,1
86,0.0022504999999999,0.726727,0.0396654999999999,-0.1415275,0.496207,0.0392415,-0.2546875,0.715237,0.0023974999999999,0.1527925,0.480227,0.0259065,0.2667325,0.7171470000000001,-0.0159575,-0.2926875,0.989217,-0.0499145,0.2957525,0.982307,-0.0763105,-0.0736285,0.000595,0.0025844999999999,0.0736285,-0.0005949999999999,-0.0025845,-0.1219275,-0.380063,-0.1223535,0.1325225,-0.388533,-0.1227915,-0.1231575,-0.741683,-0.0924645,0.1355724999999999,-0.749713,-0.1017485,1
87,0.0020564999999999,0.7252475,0.0376119999999999,-0.1415745,0.4957175,0.0367629999999999,-0.2547445,0.7140375,-0.001951,0.1526055,0.4789775,0.0232059999999999,0.2670754999999999,0.7163475,-0.020185,-0.2931445,0.9854775,-0.055696,0.2962355,0.9810875,-0.081454,-0.0739175,0.0004305,0.0023559999999999,0.0739175,-0.0004305,-0.002356,-0.1228545,-0.3720525,-0.132542,0.1335155,-0.3786725,-0.133698,-0.1232345,-0.7312725,-0.097013,0.1353055,-0.7395725,-0.105883,1
88,0.001911,0.7239009999999999,0.0354534999999999,-0.141642,0.494331,0.0342334999999999,-0.254632,0.713391,-0.0063875,0.152448,0.478191,0.0202945,0.2675579999999999,0.716051,-0.0243545,-0.293762,0.976871,-0.0615425,0.296768,0.976291,-0.0867575,-0.0741489999999999,0.0002319999999999,0.0020184999999999,0.0741489999999999,-0.000232,-0.0020184999999999,-0.1234519999999999,-0.362699,-0.1429215,0.134658,-0.367569,-0.1447265,-0.123112,-0.7191890000000001,-0.1016565,0.135028,-0.7278690000000001,-0.1100454999999999,1
89,0.0017104999999999,0.7226644999999999,0.0333585,-0.1417545,0.4931345,0.0316705,-0.2545245,0.7098745,-0.0107874999999999,0.1521654999999999,0.4769945,0.0171945,0.2679155,0.7133845,-0.0286125,-0.2944045,0.9674445,-0.0672435,0.2973055,0.9675345,-0.0918675,-0.0743695,-4.950000000000093e-05,0.0016634999999999,0.0743695,4.950000000000093e-05,-0.0016634999999999,-0.1239145,-0.3523254999999999,-0.1534295,0.1361055,-0.3570255,-0.1567795,-0.1231445,-0.7052655,-0.1066045,0.1346755,-0.7140555000000001,-0.1141455,1
90,0.0014614999999999,0.7216775,0.0312295,-0.1419735,0.4918575,0.0290555,-0.2545734999999999,0.7070275,-0.0150785,0.1517965,0.4761375,0.0141195,0.2680965,0.7113775,-0.0329415,-0.2951235,0.9588675,-0.0731215,0.2976465,0.9597075,-0.0968995,-0.0746755,-0.0003365,0.0013545,0.0746755,0.0003365,-0.0013545,-0.1244635,-0.3414724999999999,-0.1638065,0.1374165,-0.3462125,-0.1680965,-0.1232635,-0.6906825,-0.1116465,0.1341564999999999,-0.6995525,-0.1181685,1
91,0.0011774999999999,0.7208915,0.0293439999999999,-0.1420525,0.4922915,0.026762,-0.2545425,0.7063315,-0.0186949999999999,0.1514474999999999,0.4748314999999999,0.0115859999999999,0.2680075,0.7093515,-0.0364059999999999,-0.2958625,0.9518915,-0.078396,0.2978675,0.9522115,-0.10105,-0.0749865,-0.0005635,0.0011029999999999,0.0749865,0.0005634999999999,-0.0011029999999999,-0.1247025,-0.3280984999999999,-0.1727719999999999,0.1386375,-0.3310785,-0.178282,-0.1234425,-0.6766085,-0.1162639999999999,0.1337374999999999,-0.6853184999999999,-0.121544,1
92,0.0008929999999999,0.7197034999999999,0.0277019999999999,-0.141867,0.4914535,0.024693,-0.254457,0.7051735,-0.021764,0.151163,0.4735935,0.0093939999999999,0.2677529999999999,0.7073935,-0.039407,-0.296697,0.9468435,-0.083175,0.297933,0.9467135,-0.104616,-0.07522,-0.0009564999999999,0.000909,0.07522,0.0009564999999999,-0.000909,-0.124847,-0.3143965,-0.1815459999999999,0.1397429999999999,-0.3156065,-0.187466,-0.123307,-0.6613165,-0.120876,0.133433,-0.6698465,-0.124856,1
93,0.0010114999999999,0.72039,0.0217025,-0.1412905,0.4923099999999999,0.0183915,-0.2542704999999999,0.70655,-0.0289084999999999,0.1512895,0.4747,0.0028725,0.2675695,0.70921,-0.0464275,-0.2973405,0.94534,-0.0920785,0.2981395,0.94435,-0.1128245,-0.0753355,-0.00105,0.0003605,0.0753355,0.0010499999999999,-0.0003604999999999,-0.1247004999999999,-0.29997,-0.1935974999999999,0.1411095,-0.30078,-0.2002175,-0.1230604999999999,-0.6446500000000001,-0.1295565,0.1333595,-0.65284,-0.1321715,1
94,0.0011529999999999,0.720935,0.015645,-0.140827,0.4913949999999999,0.012333,-0.2542069999999999,0.706255,-0.0356329999999999,0.151383,0.474735,-0.0034779999999999,0.267393,0.707615,-0.0535039999999999,-0.2982169999999999,0.944265,-0.1005129999999999,0.298343,0.944715,-0.1203779999999999,-0.075556,-0.001205,-0.0001979999999999,0.075556,0.0012049999999999,0.000198,-0.125597,-0.286605,-0.209302,0.142493,-0.286985,-0.214582,-0.122707,-0.628855,-0.1372789999999999,0.133703,-0.636095,-0.139152,1
95,0.0013305,0.722485,0.0095765,-0.1403345,0.490815,0.0060655,-0.2539944999999999,0.704685,-0.0421555,0.1513155,0.4744649999999999,-0.0103444999999999,0.2673255,0.708435,-0.0608654999999999,-0.2988544999999999,0.942105,-0.1092515,0.2985055,0.946245,-0.1287035,-0.0757954999999999,-0.0013249999999999,-0.0008465,0.0757954999999999,0.0013249999999999,0.0008465,-0.1268045,-0.269665,-0.2259195,0.1439855,-0.270165,-0.2294995,-0.1223745,-0.610995,-0.1450075,0.1339455,-0.616385,-0.1462304999999999,1
96,0.0016455,0.72351,0.003737,-0.1397034999999999,0.48994,-0.000938,-0.2534335,0.70382,-0.048583,0.1512465,0.4747,-0.017066,0.2674565,0.7086600000000001,-0.068255,-0.2990535,0.94492,-0.117553,0.2987665,0.9455,-0.136937,-0.0760214999999999,-0.00136,-0.0014379999999999,0.0760214999999999,0.00136,0.0014379999999999,-0.1280734999999999,-0.2520099999999999,-0.242531,0.1455565,-0.25244,-0.244451,-0.1217935,-0.5922299999999999,-0.152095,0.1342165,-0.59556,-0.153037,1
97,0.0020459999999999,0.72424,-0.001712,-0.139145,0.48971,-0.007553,-0.252895,0.7029700000000001,-0.054988,0.151225,0.47442,-0.023465,0.267715,0.7081500000000001,-0.075417,-0.298975,0.95261,-0.125537,0.299075,0.94833,-0.144894,-0.0762579999999999,-0.00136,-0.00206,0.0762579999999999,0.00136,0.0020599999999999,-0.129315,-0.23541,-0.25829,0.147055,-0.23582,-0.2588,-0.121165,-0.5744800000000001,-0.158674,0.134545,-0.5755600000000001,-0.159509,1
98,0.0024525,0.72499,-0.0074405,-0.1384725,0.48983,-0.0140645,-0.2524425,0.70102,-0.0614175,0.1513975,0.47485,-0.0297425,0.2683974999999999,0.7099000000000001,-0.0826805,-0.2989225,0.95723,-0.1335605,0.2994375,0.95471,-0.1529525,-0.0764585,-0.00123,-0.0026335,0.0764585,0.00123,0.0026334999999999,-0.1305325,-0.21995,-0.2734975,0.1483675,-0.22055,-0.2716375,-0.1205225,-0.5583699999999999,-0.1649695,0.1348775,-0.55723,-0.1658075,1
99,0.0027635,0.725585,-0.013447,-0.1378475,0.488535,-0.021169,-0.2520475,0.698305,-0.06788,0.1515325,0.475725,-0.035882,0.2686625,0.7111149999999999,-0.090291,-0.2992475,0.960145,-0.142852,0.3000025,0.959855,-0.16114,-0.0767025,-0.001245,-0.003185,0.0767025,0.0012449999999999,0.0031849999999999,-0.1317675,-0.204795,-0.288643,0.1497325,-0.205475,-0.284493,-0.1195775,-0.542875,-0.171039,0.1352725,-0.539415,-0.171966,1
100,0.00307,0.726375,-0.0194435,-0.137229,0.487025,-0.0283995,-0.251539,0.696075,-0.0741865,0.151561,0.474515,-0.0425865,0.269091,0.713215,-0.0979555,-0.299159,0.963095,-0.1519955,0.300631,0.963135,-0.1695985,-0.076897,-0.001115,-0.0037665,0.076897,0.001115,0.0037664999999999,-0.133049,-0.190155,-0.3036635,0.151111,-0.190935,-0.2967835,-0.1187389999999999,-0.5276649999999999,-0.1767635,0.135621,-0.5220349999999999,-0.1777915,1
101,0.003214,0.72757,-0.0256089999999999,-0.136701,0.48626,-0.0359249999999999,-0.251551,0.69445,-0.0813289999999999,0.151389,0.47378,-0.0495399999999999,0.269699,0.71469,-0.10636,-0.299751,0.96444,-0.161184,0.301009,0.96471,-0.178194,-0.077034,-0.00081,-0.0043799999999999,0.077034,0.0008099999999999,0.00438,-0.134391,-0.17686,-0.31783,0.152519,-0.17625,-0.30882,-0.117781,-0.5139900000000001,-0.182091,0.135879,-0.50684,-0.183041,1
102,0.003145,0.7264600000000001,-0.027325,-0.136386,0.48408,-0.039058,-0.251676,0.6913800000000001,-0.084409,0.1507939999999999,0.47112,-0.052348,0.269914,0.71353,-0.110111,-0.300296,0.96342,-0.166019,0.3014239999999999,0.96389,-0.182295,-0.077081,-0.0007399999999999,-0.004585,0.077081,0.00074,0.0045849999999999,-0.135576,-0.1650499999999999,-0.327675,0.1538739999999999,-0.1629199999999999,-0.316065,-0.116846,-0.5016499999999999,-0.182808,0.136154,-0.4936999999999999,-0.183746,1
103,0.0029219999999999,0.725535,-0.029168,-0.13593,0.483045,-0.042239,-0.25206,0.6900850000000001,-0.087722,0.1502,0.470275,-0.05508,0.2705599999999999,0.7161250000000001,-0.113814,-0.30097,0.962115,-0.171223,0.30195,0.960775,-0.186547,-0.077249,-0.0007749999999999,-0.00467,0.077249,0.000775,0.0046699999999999,-0.13571,-0.1538149999999999,-0.33248,0.15502,-0.1498849999999999,-0.32013,-0.11597,-0.4896049999999999,-0.183347,0.1363499999999999,-0.4806649999999999,-0.184409,1
104,0.0024714999999999,0.72504,-0.031298,-0.1356335,0.48127,-0.045307,-0.2526635,0.6907300000000001,-0.091442,0.1497264999999999,0.47031,-0.057325,0.2708465,0.71811,-0.117672,-0.3017335,0.9626,-0.176207,0.3021965,0.95731,-0.190009,-0.0775335,-0.00089,-0.004735,0.0775335,0.00089,0.0047349999999999,-0.1355235,-0.1426699999999999,-0.336055,0.1556364999999999,-0.1387399999999999,-0.3233749999999999,-0.1152935,-0.47938,-0.183878,0.1360565,-0.4695199999999999,-0.184907,1
105,0.0019315,0.7236149999999999,-0.033346,-0.1353835,0.4802849999999999,-0.0478769999999999,-0.2535535,0.690755,-0.0954899999999999,0.1494265,0.4692749999999999,-0.0599219999999999,0.2708065,0.7189049999999999,-0.121458,-0.3029334999999999,0.957365,-0.1815379999999999,0.3023265,0.957715,-0.193506,-0.0776874999999999,-0.000945,-0.00483,0.0776874999999999,0.0009449999999999,0.00483,-0.1352435,-0.132375,-0.33936,0.1559665,-0.127865,-0.32634,-0.1146934999999999,-0.4695450000000001,-0.184074,0.1356765,-0.4586650000000001,-0.184668,1
106,0.0011694999999999,0.722465,-0.035354,-0.1356775,0.479455,-0.050574,-0.2550975,0.691135,-0.099563,0.1489125,0.468735,-0.06251,0.2709625,0.7196450000000001,-0.125441,-0.3039575,0.951875,-0.186916,0.3024025,0.957855,-0.197097,-0.0777765,-0.0009549999999999,-0.0049249999999999,0.0777765,0.000955,0.0049249999999999,-0.1350375,-0.1246849999999999,-0.342515,0.1561625,-0.1192749999999999,-0.329255,-0.1141675,-0.459665,-0.184144,0.1351824999999999,-0.4485049999999999,-0.184774,1
107,0.0002664999999999,0.721375,-0.037864,-0.1361264999999999,0.477805,-0.053923,-0.2566465,0.693855,-0.104252,0.1484134999999999,0.468295,-0.065464,0.2707434999999999,0.718675,-0.129421,-0.3055565,0.952685,-0.192743,0.3025835,0.956085,-0.201805,-0.0778415,-0.001085,-0.004975,0.0778415,0.001085,0.0049749999999999,-0.1348464999999999,-0.1143449999999999,-0.346055,0.1563435,-0.1077549999999999,-0.332395,-0.1137565,-0.447155,-0.184261,0.1341335,-0.4361949999999999,-0.184944,1
108,-0.00071,0.71994,-0.0412219999999999,-0.1366959999999999,0.47729,-0.057423,-0.257426,0.69583,-0.110048,0.147804,0.46653,-0.069116,0.270404,0.71594,-0.133997,-0.306846,0.95408,-0.198294,0.302454,0.95381,-0.2074949999999999,-0.078049,-0.0010299999999999,-0.005045,0.078049,0.00103,0.0050449999999999,-0.1345859999999999,-0.10441,-0.3496249999999999,0.156384,-0.09675,-0.335375,-0.112766,-0.43515,-0.18469,0.132714,-0.4243399999999999,-0.185808,1
109,-0.0014894999999999,0.7185250000000001,-0.044939,-0.1370915,0.476375,-0.0613369999999999,-0.2577715,0.698115,-0.116168,0.1474285,0.466405,-0.072836,0.2702185,0.712845,-0.138684,-0.3080814999999999,0.955315,-0.204318,0.3023285,0.953285,-0.2135099999999999,-0.0781915,-0.001085,-0.0051699999999999,0.0781915,0.001085,0.00517,-0.1341415,-0.094005,-0.35253,0.1565285,-0.085085,-0.33784,-0.1114215,-0.4229949999999999,-0.184976,0.1315085,-0.412515,-0.186943,1
110,-0.0023029999999999,0.716415,-0.048752,-0.137516,0.475465,-0.065297,-0.258656,0.699695,-0.12221,0.147214,0.466365,-0.07647,0.269704,0.709695,-0.143366,-0.309416,0.955875,-0.210385,0.302044,0.952435,-0.219645,-0.07837,-0.001215,-0.005365,0.07837,0.001215,0.0053649999999999,-0.133736,-0.083705,-0.355025,0.156444,-0.073685,-0.339905,-0.110036,-0.411275,-0.18523,0.130334,-0.401185,-0.188295,1
111,-0.002921,0.71499,-0.052549,-0.137834,0.47404,-0.069007,-0.259274,0.69655,-0.127783,0.147166,0.466412,-0.079611,0.269106,0.70639,-0.147905,-0.310554,0.95267,-0.216055,0.301656,0.95138,-0.225615,-0.078497,-0.0012699999999999,-0.005605,0.078497,0.0012699999999999,0.0056049999999999,-0.133214,-0.07424,-0.356965,0.156246,-0.0629899999999999,-0.341425,-0.108614,-0.40099,-0.18541,0.128766,-0.39121,-0.189167,1
112,-0.0035785,0.71187,-0.056608,-0.1382585,0.473583,-0.072961,-0.2590584999999999,0.69384,-0.13356,0.1471414999999999,0.464607,-0.083268,0.2683215,0.70297,-0.152855,-0.3117385,0.94938,-0.223335,0.3010315,0.95266,-0.232505,-0.0786975,-0.00109,-0.0057849999999999,0.0786975,0.0010899999999999,0.0057849999999999,-0.1325885,-0.06366,-0.359215,0.1557515,-0.05149,-0.343335,-0.1073585,-0.38998,-0.185963,0.1270815,-0.38047,-0.19044,1
113,-0.0040695,0.709155,-0.06048,-0.1385515,0.472451,-0.076836,-0.2587315,0.691255,-0.139509,0.1473384999999999,0.462003,-0.086938,0.2678085,0.698135,-0.157658,-0.3129115,0.946055,-0.230995,0.3003285,0.953515,-0.2396249999999999,-0.0789175,-0.0008549999999999,-0.005945,0.0789175,0.0008549999999999,0.005945,-0.1317715,-0.052435,-0.361425,0.1551985,-0.039745,-0.345155,-0.1062015,-0.378665,-0.186552,0.1272685,-0.3687149999999999,-0.192733,1
114,-0.004484,0.70669,-0.0644849999999999,-0.138678,0.47056,-0.0808229999999999,-0.2584079999999999,0.6883699999999999,-0.1452399999999999,0.147612,0.460989,-0.090178,0.267622,0.69331,-0.162485,-0.313508,0.94751,-0.238315,0.299282,0.95225,-0.246635,-0.079147,-0.0007699999999999,-0.0061149999999999,0.079147,0.0007699999999999,0.006115,-0.1308379999999999,-0.04125,-0.363345,0.154602,-0.02856,-0.3471349999999999,-0.104878,-0.36791,-0.1871749999999999,0.126082,-0.3586999999999999,-0.1951999999999999,1
115,-0.004611,0.704285,-0.068074,-0.138626,0.468468,-0.084623,-0.258376,0.681345,-0.150608,0.147914,0.4599979999999999,-0.093316,0.267504,0.688645,-0.166769,-0.314036,0.945025,-0.246005,0.298284,0.951075,-0.253505,-0.079403,-0.0007949999999999,-0.006265,0.079403,0.0007949999999999,0.0062649999999999,-0.129806,-0.030795,-0.365255,0.1540939999999999,-0.017845,-0.349095,-0.103996,-0.357985,-0.188341,0.125474,-0.349495,-0.197786,1
116,-0.004604,0.701805,-0.071019,-0.138561,0.466989,-0.087849,-0.258231,0.676875,-0.1552319999999999,0.148209,0.458196,-0.0961489999999999,0.267409,0.686705,-0.170773,-0.314031,0.940905,-0.25326,0.297199,0.950625,-0.2592799999999999,-0.079774,-0.0006549999999999,-0.0064999999999999,0.079774,0.000655,0.0065,-0.128931,-0.0221549999999999,-0.36716,0.153759,-0.0086849999999999,-0.35091,-0.103421,-0.349905,-0.189598,0.124939,-0.3430149999999999,-0.201757,1
117,-0.0046035,0.69971,-0.0727839999999999,-0.1385845,0.466043,-0.0901599999999999,-0.2581045,0.6738,-0.1586399999999999,0.1484855,0.45689,-0.0981519999999999,0.2672755,0.68708,-0.1735249999999999,-0.3141345,0.93763,-0.259295,0.2959455,0.94746,-0.2638749999999999,-0.0801385,-0.0005399999999999,-0.0066949999999999,0.0801385,0.00054,0.006695,-0.1283445,-0.0123699999999999,-0.368425,0.1534455,0.00104,-0.3516049999999999,-0.1032045,-0.34092,-0.191029,0.1242755,-0.33573,-0.2030659999999999,1
118,-0.0046395,0.69644,-0.0734519999999999,-0.1387355,0.464775,-0.091416,-0.2580955,0.6700699999999999,-0.161304,0.1487745,0.455759,-0.098913,0.2666245,0.68364,-0.175224,-0.3141354999999999,0.93415,-0.264615,0.2950445,0.94376,-0.266845,-0.0804795,-0.0004299999999999,-0.0068649999999999,0.0804795,0.0004299999999999,0.0068649999999999,-0.1277855,-0.00289,-0.368825,0.1530945,0.01052,-0.351205,-0.1030555,-0.3324,-0.191689,0.1236545,-0.32847,-0.202982,1
119,-0.0047509999999999,0.69331,-0.073722,-0.139076,0.463021,-0.091942,-0.258146,0.66664,-0.1635289999999999,0.148814,0.454384,-0.099245,0.2658339999999999,0.6797300000000001,-0.176277,-0.314266,0.9309,-0.26954,0.294164,0.94006,-0.26908,-0.0806959999999999,-0.0003699999999999,-0.0069999999999999,0.0806959999999999,0.00037,0.007,-0.1273659999999999,0.00639,-0.36841,0.152734,0.0198,-0.35025,-0.103026,-0.3237,-0.191954,0.123584,-0.3179499999999999,-0.202173,1
120,-0.0047334999999999,0.69059,-0.073722,-0.1392715,0.461761,-0.092148,-0.2579915,0.66787,-0.165587,0.1489484999999999,0.45283,-0.09924,0.2655585,0.67618,-0.177039,-0.3142815,0.93043,-0.274125,0.2933885,0.93662,-0.270955,-0.0809025,-0.0003199999999999,-0.0070049999999999,0.0809025,0.0003199999999999,0.0070049999999999,-0.1268915,0.01577,-0.367905,0.1526285,0.02915,-0.349305,-0.1037314999999999,-0.31539,-0.1919799999999999,0.1232785,-0.31148,-0.202192,1
121,-0.0047199999999999,0.689295,-0.073723,-0.1395199999999999,0.460212,-0.092193,-0.25794,0.669005,-0.167675,0.1490099999999999,0.452835,-0.099239,0.26532,0.672775,-0.177526,-0.31442,0.925725,-0.277035,0.29268,0.929535,-0.271885,-0.081051,-0.0004049999999999,-0.0070049999999999,0.081051,0.0004049999999999,0.0070049999999999,-0.12656,0.0260949999999999,-0.367655,0.15261,0.0387649999999999,-0.348835,-0.10545,-0.306725,-0.192857,0.12386,-0.304555,-0.206208,1
122,-0.0048409999999999,0.687445,-0.073623,-0.139928,0.459362,-0.092245,-0.258108,0.669945,-0.169499,0.148982,0.452814,-0.099152,0.264982,0.670465,-0.177949,-0.314718,0.920895,-0.2793,0.291952,0.922735,-0.27262,-0.0811689999999999,-0.0004149999999999,-0.00701,0.0811689999999999,0.0004149999999999,0.00701,-0.126438,0.0360349999999999,-0.36765,0.152492,0.0481249999999999,-0.34884,-0.108578,-0.298195,-0.195416,0.1231019999999999,-0.298605,-0.204124,1
123,-0.005058,0.68607,-0.073165,-0.140408,0.458879,-0.091986,-0.259538,0.67091,-0.171218,0.1489619999999999,0.452804,-0.098731,0.264762,0.6695800000000001,-0.17801,-0.315208,0.91593,-0.28076,0.291512,0.91781,-0.27294,-0.081369,-0.0002699999999999,-0.00702,0.081369,0.0002699999999999,0.0070199999999999,-0.126438,0.04619,-0.36736,0.152282,0.05763,-0.34855,-0.112338,-0.28957,-0.197495,0.122312,-0.29325,-0.207756,1
124,-0.0053065,0.68449,-0.072235,-0.1409605,0.458548,-0.0911199999999999,-0.2612804999999999,0.67547,-0.172451,0.1488795,0.452608,-0.097733,0.2644695,0.66858,-0.177366,-0.3158105,0.91443,-0.281045,0.2911595,0.9121,-0.2724649999999999,-0.0816395,-0.00014,-0.007035,0.0816395,0.00014,0.007035,-0.1265105,0.0563699999999999,-0.366195,0.1519295,0.06717,-0.347195,-0.1161205,-0.28112,-0.199214,0.1213694999999999,-0.2877499999999999,-0.203799,1
125,-0.005628,0.683225,-0.070376,-0.141658,0.457899,-0.0894889999999999,-0.263528,0.6794150000000001,-0.173224,0.148812,0.452863,-0.0959599999999999,0.264032,0.6668350000000001,-0.17587,-0.316538,0.912375,-0.280395,0.290722,0.908025,-0.271065,-0.081921,-0.0001349999999999,-0.0069349999999999,0.081921,0.0001349999999999,0.006935,-0.126718,0.066005,-0.364295,0.151502,0.076305,-0.345145,-0.120028,-0.2729049999999999,-0.200117,0.119542,-0.281315,-0.199247,1
126,-0.0059344999999999,0.68173,-0.068262,-0.1423245,0.457126,-0.087552,-0.2658445,0.68276,-0.173745,0.1487554999999999,0.453262,-0.093964,0.2639455,0.66405,-0.174312,-0.3171544999999999,0.90953,-0.279285,0.2902955,0.90728,-0.269505,-0.0822125,-0.0001299999999999,-0.006805,0.0822125,0.0001299999999999,0.0068049999999999,-0.1268545,0.07476,-0.362255,0.1510755,0.0845599999999999,-0.342765,-0.1239645,-0.26536,-0.20082,0.1195755,-0.27584,-0.20149,1
127,-0.0060834999999999,0.6813799999999999,-0.066019,-0.1429015,0.4569539999999999,-0.085491,-0.2686515,0.6864899999999999,-0.174112,0.1488884999999999,0.4535329999999999,-0.091894,0.2639285,0.6654399999999999,-0.172703,-0.3179115,0.90686,-0.277765,0.2899184999999999,0.90657,-0.267935,-0.0825115,0.0002099999999999,-0.006725,0.0825115,-0.00021,0.0067249999999999,-0.1268115,0.0835699999999999,-0.360205,0.1506585,0.0928299999999999,-0.340445,-0.1274814999999999,-0.2574200000000001,-0.200953,0.1207085,-0.2700500000000001,-0.205906,1
128,-0.0063005,0.681115,-0.0640129999999999,-0.1435285,0.457389,-0.0835829999999999,-0.2715685,0.689805,-0.174609,0.1488715,0.453344,-0.0899609999999999,0.2637715,0.666965,-0.171061,-0.3186985,0.903315,-0.2762599999999999,0.2894515,0.905435,-0.26621,-0.0825755,0.000635,-0.0064699999999999,0.0825755,-0.0006349999999999,0.00647,-0.1267385,0.091575,-0.35833,0.1501015,0.100445,-0.3383699999999999,-0.1310785,-0.2500749999999999,-0.2011939999999999,0.1186015,-0.2639249999999999,-0.200282,1
129,-0.006486,0.680805,-0.062306,-0.144033,0.45746,-0.081877,-0.274403,0.692345,-0.175327,0.1488169999999999,0.45299,-0.088271,0.263577,0.668345,-0.169621,-0.319573,0.8998550000000001,-0.27502,0.289727,0.904085,-0.26494,-0.082598,0.0010449999999999,-0.0061299999999999,0.082598,-0.0010449999999999,0.0061299999999999,-0.126533,0.098665,-0.35677,0.149727,0.1072949999999999,-0.3367,-0.134453,-0.244135,-0.201627,0.116277,-0.258285,-0.1919799999999999,1
130,-0.0067445,0.680755,-0.0612309999999999,-0.1445415,0.457939,-0.080727,-0.2762715,0.694195,-0.1762439999999999,0.1486485,0.452228,-0.0871069999999999,0.2642985,0.6692750000000001,-0.1688569999999999,-0.3207314999999999,0.9003950000000001,-0.2744,0.2899684999999999,0.905925,-0.2641599999999999,-0.0826545,0.001545,-0.0055699999999999,0.0826545,-0.001545,0.00557,-0.1263515,0.103295,-0.35592,0.1492385,0.111825,-0.33567,-0.1372515,-0.240325,-0.20243,0.1134585,-0.2557349999999999,-0.185082,1
131,-0.0069045,0.67981,-0.060325,-0.1449125,0.458444,-0.0797,-0.2778724999999999,0.69554,-0.177234,0.1485375,0.452073,-0.086143,0.2654175,0.67086,-0.168713,-0.3221524999999999,0.9013,-0.27401,0.2904675,0.90804,-0.26352,-0.0827195,0.00208,-0.005,0.0827195,-0.0020799999999999,0.0049999999999999,-0.1259125,0.10838,-0.3544,0.1488475,0.11691,-0.33404,-0.1387325,-0.2363299999999999,-0.202514,0.1106875,-0.25368,-0.178777,1
132,-0.007213,0.67906,-0.0595209999999999,-0.1453819999999999,0.458702,-0.078924,-0.278322,0.69654,-0.176914,0.148248,0.45203,-0.085448,0.266298,0.67247,-0.1686619999999999,-0.324002,0.90262,-0.27374,0.2909279999999999,0.90985,-0.26298,-0.082686,0.0024899999999999,-0.0046699999999999,0.082686,-0.0024899999999999,0.00467,-0.125392,0.11331,-0.35296,0.148348,0.12234,-0.33253,-0.142332,-0.23331,-0.203727,0.108184,-0.25125,-0.176234,1
133,-0.0076344999999999,0.678495,-0.058838,-0.1458455,0.4581649999999999,-0.078279,-0.2802455,0.6967549999999999,-0.178076,0.1477945,0.4522849999999999,-0.084812,0.2663145,0.6742049999999999,-0.168382,-0.3259855,0.904665,-0.27365,0.2912045,0.913795,-0.26269,-0.0825615,0.0028749999999999,-0.00438,0.0825615,-0.002875,0.0043799999999999,-0.1249255,0.1191849999999999,-0.35064,0.1477545,0.1288349999999999,-0.33049,-0.1460755,-0.2293750000000001,-0.204956,0.1069295,-0.248125,-0.176151,1
134,-0.008072,0.67773,-0.0584789999999999,-0.146255,0.45783,-0.077887,-0.281905,0.69664,-0.179386,0.147305,0.45228,-0.084419,0.266125,0.67567,-0.168387,-0.328025,0.90892,-0.273565,0.291565,0.91703,-0.262675,-0.082399,0.0033,-0.0043749999999999,0.082399,-0.0032999999999999,0.004375,-0.124375,0.1243,-0.348535,0.1471549999999999,0.13443,-0.328665,-0.149795,-0.2258099999999999,-0.206029,0.1038289999999999,-0.2455199999999999,-0.1763009999999999,1
135,-0.008533,0.67706,-0.058321,-0.146699,0.45801,-0.07772,-0.282389,0.69688,-0.179606,0.146801,0.45262,-0.084162,0.265731,0.6779200000000001,-0.168604,-0.329769,0.91074,-0.273885,0.291991,0.91946,-0.262655,-0.082218,0.0037,-0.004165,0.082218,-0.0036999999999999,0.004165,-0.1238389999999999,0.12999,-0.346265,0.1464209999999999,0.14036,-0.326635,-0.153459,-0.2217699999999999,-0.20739,0.101938,-0.2416299999999999,-0.174893,1
136,-0.00898,0.6769550000000001,-0.058218,-0.147036,0.4576950000000001,-0.077558,-0.282826,0.6961350000000001,-0.179791,0.146344,0.453165,-0.083952,0.2652839999999999,0.6775650000000001,-0.168371,-0.330716,0.911175,-0.27401,0.292414,0.920365,-0.26238,-0.08206,0.0037449999999999,-0.00399,0.08206,-0.0037449999999999,0.0039899999999999,-0.123636,0.133395,-0.34412,0.145724,0.144645,-0.32462,-0.157036,-0.219615,-0.208673,0.098967,-0.2388349999999999,-0.168957,1
137,-0.0092534999999999,0.676601,-0.058411,-0.1472684999999999,0.456785,-0.077715,-0.2826085,0.6897150000000001,-0.178639,0.1460615,0.453995,-0.084114,0.2653215,0.677265,-0.16854,-0.3314985,0.910915,-0.27419,0.2929615,0.921145,-0.26247,-0.0818185,0.003805,-0.0036199999999999,0.0818185,-0.0038049999999999,0.0036199999999999,-0.1231185,0.137435,-0.34218,0.1451515,0.148775,-0.32294,-0.1602785,-0.2179749999999999,-0.21006,0.0970155,-0.2370149999999999,-0.169518,1
138,-0.0095985,0.676191,-0.0587659999999999,-0.1476115,0.455825,-0.078036,-0.2819014999999999,0.6836450000000001,-0.177423,0.1456085,0.455145,-0.0844959999999999,0.2651485,0.677482,-0.168866,-0.3323815,0.911325,-0.2730249999999999,0.2931885,0.922695,-0.2629249999999999,-0.0815714999999999,0.003815,-0.0032549999999999,0.0815714999999999,-0.003815,0.003255,-0.1229515,0.141195,-0.340555,0.1444385,0.153275,-0.321275,-0.1636215,-0.215955,-0.2110349999999999,0.0944535,-0.233615,-0.1698609999999999,1
139,-0.0102394999999999,0.6755800000000001,-0.059223,-0.1481005,0.4545,-0.078372,-0.2802105,0.675377,-0.175011,0.1448195,0.45631,-0.084869,0.2646995,0.6777810000000001,-0.169286,-0.3332605,0.90203,-0.27175,0.2930595,0.92461,-0.26373,-0.0814205,0.00374,-0.0028699999999999,0.0814205,-0.0037399999999999,0.0028699999999999,-0.1231904999999999,0.14587,-0.33884,0.1435495,0.15789,-0.31962,-0.1670505,-0.2119899999999999,-0.21323,0.0931265,-0.2307499999999999,-0.1705269999999999,1
140,-0.0109169999999999,0.675674,-0.059775,-0.148629,0.453535,-0.078818,-0.2783489999999999,0.667348,-0.1721909999999999,0.143981,0.456885,-0.085141,0.264091,0.677366,-0.169598,-0.334429,0.891785,-0.270515,0.292781,0.925925,-0.264475,-0.081278,0.003615,-0.002555,0.081278,-0.003615,0.002555,-0.123719,0.149035,-0.338025,0.142701,0.161725,-0.318515,-0.1706389999999999,-0.2108449999999999,-0.214345,0.091905,-0.228645,-0.1706909999999999,1
141,-0.0113794999999999,0.675464,-0.060218,-0.1489324999999999,0.45281,-0.079128,-0.2762925,0.6592709999999999,-0.169043,0.1434175,0.45719,-0.085292,0.2635675,0.676689,-0.169564,-0.3356725,0.8813,-0.2691,0.2926575,0.92685,-0.26504,-0.0811225,0.0034999999999999,-0.0021899999999999,0.0811225,-0.0034999999999999,0.0021899999999999,-0.1240025,0.15047,-0.3371,0.1420975,0.1644,-0.31723,-0.1714025,-0.21191,-0.21525,0.0914295,-0.2261999999999999,-0.170758,1
142,-0.0117894999999999,0.675015,-0.06049,-0.1490894999999999,0.45335,-0.0792519999999999,-0.2746595,0.652014,-0.165827,0.1429805,0.45714,-0.085241,0.2630805,0.6758930000000001,-0.169209,-0.3366395,0.8702799999999999,-0.26755,0.2926005,0.92748,-0.2654,-0.0810485,0.0035,-0.0020199999999999,0.0810485,-0.0034999999999999,0.0020199999999999,-0.1240994999999999,0.15084,-0.33693,0.1416105,0.16686,-0.31602,-0.1723295,-0.2131199999999999,-0.2158,0.0910635,-0.2239599999999999,-0.17063,1
143,-0.0122124999999999,0.6746829999999999,-0.060916,-0.1492105,0.4547199999999999,-0.079345,-0.2734705,0.644708,-0.162799,0.1425295,0.45779,-0.085153,0.2623795,0.675308,-0.168695,-0.3374305,0.85945,-0.265945,0.2925494999999999,0.92823,-0.265775,-0.0809925,0.0034799999999999,-0.001855,0.0809925,-0.00348,0.0018549999999999,-0.1245004999999999,0.1507799999999999,-0.336905,0.1411995,0.1695299999999999,-0.314705,-0.1733805,-0.21438,-0.216075,0.0907034999999999,-0.22153,-0.170465,1
144,-0.0126554999999999,0.6746239999999999,-0.0610809999999999,-0.1494205,0.45585,-0.0793819999999999,-0.2728505,0.6372849999999999,-0.159995,0.1421395,0.4586299999999999,-0.0850949999999999,0.2618295,0.6739919999999999,-0.168346,-0.3379405,0.84786,-0.2641949999999999,0.2925295,0.9283,-0.266105,-0.0809855,0.0034999999999999,-0.0017949999999999,0.0809855,-0.0035,0.001795,-0.1248704999999999,0.1524599999999999,-0.336225,0.1407295,0.1714299999999999,-0.313745,-0.1744005,-0.21321,-0.215835,0.0902255,-0.2200200000000001,-0.170336,1
145,-0.0131135,0.674497,-0.061461,-0.1496595,0.4569149999999999,-0.079433,-0.2723195,0.62968,-0.157189,0.1418005,0.459965,-0.085036,0.2618104999999999,0.674938,-0.168481,-0.3384295,0.836285,-0.26241,0.2925204999999999,0.928985,-0.26649,-0.0809845,0.003445,-0.00174,0.0809845,-0.003445,0.00174,-0.1252895,0.154525,-0.33526,0.1402905,0.173195,-0.31289,-0.1752895,-0.211605,-0.21574,0.0897715,-0.218615,-0.170114,1
146,-0.0135714999999999,0.6745280000000001,-0.061854,-0.1498715,0.4584650000000001,-0.079451,-0.2723414999999999,0.6278530000000001,-0.156626,0.1415085,0.461385,-0.0850269999999999,0.2617485,0.6759310000000001,-0.168593,-0.3388914999999999,0.8257750000000001,-0.26105,0.2925185,0.929905,-0.2669,-0.0809925,0.003385,-0.0016899999999999,0.0809925,-0.0033849999999999,0.0016899999999999,-0.1258215,0.156955,-0.33418,0.1399085,0.1749050000000001,-0.31207,-0.1761915,-0.2092549999999999,-0.2160699999999999,0.0893815,-0.2172349999999999,-0.169841,1
147,-0.0140819999999999,0.67442,-0.062293,-0.150065,0.4598150000000001,-0.079387,-0.272935,0.625588,-0.156052,0.141315,0.462735,-0.084964,0.261555,0.675953,-0.168524,-0.339605,0.8148350000000001,-0.26097,0.292395,0.930405,-0.2674499999999999,-0.080996,0.003365,-0.00171,0.080996,-0.0033649999999999,0.0017099999999999,-0.126415,0.158655,-0.33289,0.139645,0.175945,-0.31157,-0.177085,-0.207685,-0.21629,0.089011,-0.2165749999999999,-0.169551,1
148,-0.014605,0.674291,-0.062716,-0.150247,0.460685,-0.07934,-0.272947,0.6255109999999999,-0.156072,0.141103,0.4636049999999999,-0.08494,0.261503,0.675655,-0.168621,-0.340067,0.813325,-0.2607899999999999,0.292143,0.930645,-0.26822,-0.081008,0.0033649999999999,-0.0017299999999999,0.081008,-0.003365,0.00173,-0.127027,0.1594649999999999,-0.33172,0.139413,0.1765149999999999,-0.31134,-0.177917,-0.207085,-0.21625,0.088651,-0.216355,-0.169344,1
149,-0.0151074999999999,0.6741119999999999,-0.0632089999999999,-0.1504025,0.460955,-0.079265,-0.2729425,0.6257809999999999,-0.156072,0.1409975,0.4638749999999999,-0.084933,0.2614775,0.674875,-0.16863,-0.3400525,0.813595,-0.26108,0.2917975,0.930485,-0.26896,-0.0810035,0.0034149999999999,-0.0017299999999999,0.0810035,-0.003415,0.00173,-0.1274225,0.159485,-0.3308299999999999,0.1392275,0.1764649999999999,-0.31134,-0.1785325,-0.207265,-0.21615,0.0883345,-0.216695,-0.169296,1
150,-0.0154525,0.6741119999999999,-0.063745,-0.1504484999999999,0.4609749999999999,-0.079181,-0.2727785,0.6257809999999999,-0.156033,0.1410115,0.4638749999999999,-0.0849,0.2618015,0.674875,-0.168764,-0.3408585,0.812265,-0.260815,0.2914315,0.930375,-0.269565,-0.0810035,0.0034149999999999,-0.001695,0.0810035,-0.003415,0.001695,-0.1276285,0.1592849999999999,-0.330695,0.1391315,0.1761249999999999,-0.311315,-0.1785085,-0.207265,-0.215245,0.0883984999999999,-0.216695,-0.169261,1
151,-0.0155295,0.6741119999999999,-0.064247,-0.1504785,0.461595,-0.0790879999999999,-0.2742185,0.6257809999999999,-0.156359,0.1409815,0.4642949999999999,-0.084825,0.2620814999999999,0.674885,-0.168886,-0.3420285,0.812265,-0.26093,0.2909814999999999,0.930375,-0.26985,-0.0809765,0.0034149999999999,-0.0016899999999999,0.0809765,-0.003415,0.0016899999999999,-0.1277485,0.161315,-0.33062,0.1391015,0.1761749999999999,-0.3112399999999999,-0.1784885,-0.204895,-0.2142899999999999,0.0883684999999999,-0.216695,-0.169186,1
152,-0.0155285,0.6741119999999999,-0.064558,-0.1504944999999999,0.4629149999999999,-0.078933,-0.2756045,0.626195,-0.156611,0.1409655,0.4652449999999999,-0.08467,0.2621255,0.674885,-0.168872,-0.3432745,0.812265,-0.261095,0.2905355,0.930375,-0.269895,-0.0809645,0.0034149999999999,-0.001735,0.0809645,-0.003415,0.001735,-0.1277245,0.1616349999999999,-0.331555,0.1390854999999999,0.1762649999999999,-0.311155,-0.1783745,-0.204005,-0.213245,0.0883525,-0.216695,-0.169031,1
153,-0.015383,0.67416,-0.064878,-0.150477,0.46424,-0.078752,-0.2769669999999999,0.628101,-0.157858,0.141093,0.46624,-0.084511,0.262413,0.674807,-0.168985,-0.344387,0.8164899999999999,-0.2622,0.290223,0.93016,-0.26983,-0.081005,0.0034499999999999,-0.00186,0.081005,-0.0034499999999999,0.00186,-0.127587,0.16415,-0.33149,0.139233,0.17569,-0.31145,-0.176957,-0.19967,-0.21301,0.090509,-0.2168799999999999,-0.168897,1
154,-0.0152119999999999,0.674371,-0.065269,-0.150405,0.46437,-0.078647,-0.279055,0.635321,-0.160623,0.141495,0.4661900000000001,-0.084468,0.262825,0.6750140000000001,-0.169471,-0.345995,0.8256100000000001,-0.264635,0.289955,0.92865,-0.269985,-0.081068,0.00328,-0.001975,0.081068,-0.0032799999999999,0.0019749999999999,-0.127365,0.15998,-0.333545,0.139405,0.17169,-0.313555,-0.1746349999999999,-0.2031999999999999,-0.211532,0.092975,-0.2184799999999999,-0.169748,1
155,-0.0149469999999999,0.67427,-0.0656839999999999,-0.150357,0.463585,-0.0786429999999999,-0.280227,0.642416,-0.162472,0.141593,0.465685,-0.084608,0.263483,0.6758500000000001,-0.170077,-0.347567,0.834595,-0.266375,0.289623,0.929225,-0.270305,-0.081126,0.003105,-0.0020349999999999,0.081126,-0.003105,0.0020349999999999,-0.1267569999999999,0.158475,-0.3346949999999999,0.139513,0.167405,-0.316175,-0.1714669999999999,-0.202195,-0.210683,0.0948529999999999,-0.220535,-0.169625,1
156,-0.0145324999999999,0.6748799999999999,-0.06641,-0.1505264999999999,0.4630399999999999,-0.078684,-0.2819264999999999,0.649006,-0.164667,0.1417235,0.46334,-0.084923,0.2642635,0.6754899999999999,-0.171001,-0.3490665,0.8422399999999999,-0.268345,0.2893535,0.92748,-0.270735,-0.0811855,0.0028199999999999,-0.002195,0.0811855,-0.00282,0.002195,-0.1263564999999999,0.1512599999999999,-0.337035,0.1397335,0.1601899999999999,-0.319315,-0.1674064999999999,-0.20651,-0.20899,0.0973585,-0.2249700000000001,-0.170814,1
157,-0.0140055,0.6753020000000001,-0.067528,-0.1506525,0.46208,-0.079055,-0.2832925,0.654765,-0.167139,0.1419875,0.46097,-0.085856,0.2649775,0.678193,-0.172967,-0.3505225,0.84897,-0.27052,0.2892774999999999,0.92721,-0.27161,-0.0810605,0.00234,-0.00288,0.0810605,-0.00234,0.0028799999999999,-0.1258525,0.14258,-0.33969,0.1400875,0.15083,-0.32315,-0.1629425,-0.21265,-0.207448,0.1000295,-0.2307899999999999,-0.172434,1
158,-0.0134514999999999,0.6787449999999999,-0.069036,-0.1507385,0.462775,-0.079527,-0.2847785,0.659748,-0.169797,0.1422315,0.460225,-0.087176,0.2652615,0.681955,-0.174861,-0.3520385,0.8620749999999999,-0.27291,0.2891815,0.930595,-0.27298,-0.0808385,0.0017049999999999,-0.00365,0.0808385,-0.0017049999999999,0.0036499999999999,-0.1254185,0.131915,-0.34251,0.1403915,0.1390949999999999,-0.32698,-0.1565085,-0.2210849999999999,-0.205316,0.1025745,-0.2386049999999999,-0.174157,1
159,-0.012894,0.681845,-0.07039,-0.150944,0.464062,-0.0801149999999999,-0.286224,0.668995,-0.172566,0.142486,0.460863,-0.0884409999999999,0.2653459999999999,0.685735,-0.176567,-0.3535439999999999,0.8746050000000001,-0.2752449999999999,0.289346,0.932405,-0.2745849999999999,-0.080584,0.0009949999999999,-0.0042249999999999,0.080584,-0.0009949999999999,0.004225,-0.124884,0.118055,-0.345905,0.140646,0.124485,-0.331095,-0.148494,-0.232005,-0.202536,0.105507,-0.247985,-0.176271,1
160,-0.012063,0.686645,-0.0713049999999999,-0.150908,0.466987,-0.080453,-0.287388,0.678085,-0.174807,0.1430219999999999,0.46071,-0.0893079999999999,0.265512,0.690445,-0.1777909999999999,-0.354898,0.8878550000000001,-0.2769549999999999,0.289872,0.933415,-0.275605,-0.080438,0.0005249999999999,-0.0045849999999999,0.080438,-0.0005249999999999,0.004585,-0.124008,0.102895,-0.349095,0.141172,0.109005,-0.334605,-0.140318,-0.243525,-0.199658,0.108742,-0.257665,-0.1781169999999999,1
161,-0.011046,0.692145,-0.0717519999999999,-0.15075,0.470359,-0.0806689999999999,-0.28838,0.687795,-0.1762709999999999,0.1437,0.459438,-0.090058,0.26593,0.694795,-0.178855,-0.35588,0.902215,-0.27779,0.2905899999999999,0.939105,-0.27632,-0.080237,0.0001349999999999,-0.0048599999999999,0.080237,-0.0001349999999999,0.00486,-0.12294,0.086045,-0.3519,0.14188,0.092645,-0.33776,-0.13197,-0.256185,-0.1964079999999999,0.11259,-0.268035,-0.181278,1
162,-0.009807,0.69705,-0.07166,-0.150754,0.4717009999999999,-0.080556,-0.288494,0.6964199999999999,-0.176214,0.144176,0.4595509999999999,-0.090085,0.267586,0.69768,-0.179805,-0.356944,0.90958,-0.277765,0.291506,0.94133,-0.276565,-0.080037,-0.0002,-0.005105,0.080037,0.0001999999999999,0.0051049999999999,-0.121774,0.0619799999999999,-0.353805,0.142776,0.0694099999999999,-0.339945,-0.125504,-0.27616,-0.194275,0.114896,-0.2857700000000001,-0.184032,1
163,-0.0080394999999999,0.70211,-0.071589,-0.1501595,0.474551,-0.080269,-0.2869395,0.6977,-0.17615,0.1451805,0.4597139999999999,-0.0901609999999999,0.2695505,0.70112,-0.179726,-0.3564795,0.91033,-0.27774,0.2929205,0.94417,-0.27651,-0.0797625,-0.0003299999999999,-0.00508,0.0797625,0.0003299999999999,0.00508,-0.1200795,0.0381099999999999,-0.35373,0.1442505,0.0453199999999999,-0.34016,-0.1189494999999999,-0.29794,-0.192353,0.1176305,-0.30633,-0.186491,1
164,-0.006127,0.7066600000000001,-0.071207,-0.149058,0.477814,-0.079562,-0.285248,0.6986,-0.175161,0.1463219999999999,0.458616,-0.089807,0.271212,0.7028,-0.179353,-0.354778,0.9169,-0.276785,0.2944319999999999,0.94491,-0.276145,-0.0793659999999999,-0.0003,-0.005335,0.0793659999999999,0.0003,0.0053349999999999,-0.118278,0.01395,-0.353355,0.1458219999999999,0.0210299999999999,-0.339795,-0.113258,-0.32054,-0.190586,0.120702,-0.3277,-0.187925,1
165,-0.004343,0.711375,-0.07072,-0.147817,0.479498,-0.078742,-0.283837,0.698485,-0.174688,0.147403,0.461785,-0.089346,0.272333,0.707665,-0.17889,-0.353567,0.923285,-0.276325,0.295803,0.948985,-0.275665,-0.078965,-0.000555,-0.0055349999999999,0.078965,0.0005549999999999,0.0055349999999999,-0.1166369999999999,-0.009675,-0.352875,0.147213,-0.002945,-0.339325,-0.108537,-0.343125,-0.189364,0.1222729999999999,-0.348595,-0.186896,1
166,-0.0025384999999999,0.71542,-0.070247,-0.1464775,0.481462,-0.078079,-0.2823075,0.6987300000000001,-0.171809,0.1480725,0.463077,-0.0892589999999999,0.2729425,0.70825,-0.178633,-0.3520075,0.93009,-0.274045,0.2971325,0.95098,-0.275175,-0.0787155,-0.0002099999999999,-0.0054649999999999,0.0787155,0.00021,0.005465,-0.1150675,-0.03436,-0.352225,0.1484925,-0.0276299999999999,-0.339215,-0.1036775,-0.3654699999999999,-0.18818,0.1252825,-0.36973,-0.187629,1
167,-0.0008964999999999,0.71723,-0.069283,-0.1450765,0.4818789999999999,-0.077074,-0.2810665,0.69817,-0.168589,0.1492035,0.464022,-0.088589,0.2734335,0.70729,-0.176946,-0.3504665,0.9302,-0.270815,0.2983035,0.95197,-0.273665,-0.0784535,6.999999999995898e-05,-0.005205,0.0784535,-7.00000000000145e-05,0.0052049999999999,-0.1136264999999999,-0.06,-0.3507949999999999,0.1497735,-0.0536,-0.338425,-0.1012764999999999,-0.389,-0.187205,0.1283235,-0.39168,-0.18731,1
168,0.000684,0.721065,-0.067199,-0.14382,0.4816849999999999,-0.075611,-0.27986,0.6976749999999999,-0.164727,0.1501199999999999,0.463205,-0.08729,0.27395,0.707225,-0.174632,-0.34925,0.934015,-0.26682,0.29887,0.955345,-0.2718399999999999,-0.078043,0.0002749999999999,-0.00463,0.078043,-0.000275,0.0046299999999999,-0.1124599999999999,-0.084165,-0.34724,0.15084,-0.077955,-0.33593,-0.09997,-0.413485,-0.18583,0.13115,-0.414035,-0.186313,1
169,0.0017604999999999,0.72269,-0.063723,-0.1430135,0.48139,-0.072696,-0.2791234999999999,0.69911,-0.159486,0.1509065,0.46323,-0.084438,0.2741065,0.70556,-0.169731,-0.3481935,0.93765,-0.26114,0.2990765,0.95857,-0.26864,-0.0774155,0.00052,-0.00399,0.0774155,-0.00052,0.0039899999999999,-0.1118435,-0.1082799999999999,-0.34214,0.1515065,-0.1022799999999999,-0.33206,-0.0990735,-0.4385099999999999,-0.183065,0.1335865,-0.43754,-0.184047,1
170,0.002976,0.724025,-0.057912,-0.142131,0.479885,-0.068211,-0.2784109999999999,0.699365,-0.152878,0.151769,0.465555,-0.0792,0.274469,0.7046049999999999,-0.162387,-0.346921,0.940125,-0.253585,0.299289,0.957215,-0.261965,-0.077046,0.000435,-0.003495,0.077046,-0.000435,0.0034949999999999,-0.111481,-0.1345449999999999,-0.334235,0.151889,-0.128245,-0.325235,-0.098171,-0.467455,-0.178484,0.136069,-0.465365,-0.180436,1
171,0.0043279999999999,0.726285,-0.052206,-0.141001,0.480075,-0.063611,-0.276981,0.699265,-0.145907,0.152559,0.466165,-0.074052,0.274959,0.704555,-0.154888,-0.345151,0.944025,-0.24568,0.299569,0.959265,-0.25482,-0.077074,0.000255,-0.00296,0.077074,-0.000255,0.0029599999999999,-0.110851,-0.153395,-0.32688,0.152469,-0.147005,-0.31787,-0.0977609999999999,-0.490255,-0.174876,0.138209,-0.487195,-0.176728,1
172,0.0048409999999999,0.728785,-0.0463515,-0.140654,0.480805,-0.0589255,-0.2763839999999999,0.699515,-0.1377015,0.1525659999999999,0.4696249999999999,-0.0685355,0.274806,0.707885,-0.1471945,-0.344114,0.951175,-0.2370645,0.298836,0.960915,-0.2470545,-0.076941,0.0001049999999999,-0.0025055,0.076941,-0.0001049999999999,0.0025054999999999,-0.111194,-0.169625,-0.3182245,0.152086,-0.1635049999999999,-0.3095345,-0.098114,-0.511895,-0.1710385,0.139506,-0.507915,-0.1734255,1
173,0.0052839999999999,0.73229,-0.040615,-0.140788,0.48096,-0.054025,-0.275708,0.7,-0.129824,0.1524019999999999,0.47369,-0.06306,0.274542,0.71133,-0.139431,-0.343178,0.95216,-0.228916,0.297892,0.96713,-0.239276,-0.07669,-0.00017,-0.0020609999999999,0.07669,0.00017,0.002061,-0.111638,-0.1849999999999999,-0.309016,0.151612,-0.17949,-0.300786,-0.0988479999999999,-0.53349,-0.167126,0.140402,-0.52894,-0.169809,1
174,0.0057505,0.73492,-0.0345815,-0.1404995,0.4823199999999999,-0.0486145,-0.2756595,0.70183,-0.1219835,0.1523904999999999,0.47407,-0.0574395,0.2740605,0.7127699999999999,-0.1313905,-0.3416495,0.95495,-0.2203555,0.2967905,0.97198,-0.2311555,-0.0763775,4.999999999999449e-05,-0.0020645,0.0763775,-5.000000000002225e-05,0.0020644999999999,-0.1122595,-0.19841,-0.2995155,0.1512505,-0.19384,-0.2919155,-0.0995495,-0.5537000000000001,-0.1623545,0.1412105,-0.5481800000000001,-0.1645855,1
175,0.0060435,0.7384999999999999,-0.0286074999999999,-0.1402344999999999,0.4836,-0.0432175,-0.2755545,0.70344,-0.1142855,0.1524855,0.47628,-0.0517655,0.2738255,0.71482,-0.1233354999999999,-0.3402845,0.95763,-0.2117095,0.2956155,0.97744,-0.2226695,-0.0759725,-0.00014,-0.0020084999999999,0.0759725,0.00014,0.0020084999999999,-0.1128345,-0.2119,-0.2901395,0.1507555,-0.20719,-0.2827095,-0.0998945,-0.5740500000000001,-0.1569575,0.1417955,-0.5671700000000001,-0.1589944999999999,1
176,0.006202,0.740915,-0.0229655,-0.1401039999999999,0.486255,-0.0379715,-0.275544,0.705605,-0.1065865,0.152576,0.478215,-0.0465925,0.2736159999999999,0.716735,-0.1156995,-0.339694,0.959045,-0.2035605,0.294666,0.979365,-0.2147205,-0.075499,-0.0001749999999999,-0.0022095,0.075499,0.000175,0.0022095,-0.1134139999999999,-0.224595,-0.2800005,0.150086,-0.219235,-0.2729605,-0.1000639999999999,-0.593295,-0.1514525,0.142256,-0.585825,-0.1534275,1
177,0.0062504999999999,0.74278,-0.017499,-0.1400405,0.48916,-0.033033,-0.2760905,0.7082,-0.099326,0.1525195,0.48107,-0.041366,0.2728695,0.71872,-0.108279,-0.3397405,0.95772,-0.19561,0.2941395,0.98148,-0.20627,-0.0749895,-3.0000000000002247e-05,-0.002438,0.0749895,3.0000000000002247e-05,0.0024379999999999,-0.1140905,-0.23582,-0.27041,0.1494295,-0.23016,-0.26364,-0.1004305,-0.60996,-0.145832,0.1426595,-0.6025699999999999,-0.14813,1
178,0.0063585,0.74459,-0.0119414999999999,-0.1399085,0.49011,-0.0281604999999999,-0.2768985,0.70778,-0.0920505,0.1526115,0.48296,-0.0360944999999999,0.2721415,0.72045,-0.1008754999999999,-0.3397185,0.95488,-0.1875375,0.2937815,0.98386,-0.1973975,-0.0744245,-0.00014,-0.0025135,0.0744245,0.00014,0.0025135,-0.1147585,-0.2469,-0.2604075,0.1490515,-0.2408099999999999,-0.2540075,-0.1007785,-0.6268,-0.1406945,0.1431015,-0.61966,-0.1430015,1
179,0.0065509999999999,0.746225,-0.0078845,-0.1399139999999999,0.491565,-0.0242575,-0.277634,0.706885,-0.0860185,0.152916,0.483665,-0.0323435,0.271426,0.722215,-0.0952035,-0.340464,0.951225,-0.1804165,0.2938559999999999,0.986325,-0.1903365,-0.0738699999999999,-2.5000000000011124e-05,-0.0023775,0.0738699999999999,2.4999999999997247e-05,0.0023774999999999,-0.1147239999999999,-0.258765,-0.2517465,0.148876,-0.2541449999999999,-0.2459365,-0.100714,-0.6391749999999999,-0.1365125,0.1434959999999999,-0.632595,-0.1384525,1
180,0.0065205,0.7483424999999999,-0.0037335,-0.1399155,0.4930724999999999,-0.0202504999999999,-0.2787255,0.7057424999999999,-0.0797905,0.1531045,0.4860725,-0.0286005,0.2708545,0.7239225,-0.0893805,-0.3404255,0.9533125,-0.1731305,0.2939145,0.9889325,-0.1833305,-0.0733925,1.7500000000003624e-05,-0.0022004999999999,0.0733925,-1.7500000000003624e-05,0.0022004999999999,-0.1147455,-0.2708775,-0.2426505,0.1486445,-0.2673075,-0.2374005,-0.1006055,-0.6514975000000001,-0.1322525,0.1435445,-0.6457575,-0.1339175,1
181,0.006158,0.7479635,0.0049584999999999,-0.140256,0.4917935,-0.0116245,-0.279606,0.7049235,-0.0700475,0.153204,0.4849735,-0.0203075,0.270304,0.7200335,-0.0788875,-0.340886,0.9525135,-0.1619415,0.293704,0.9911435,-0.1721115,-0.072866,-4.849999999999299e-05,-0.0020555,0.072866,4.850000000000687e-05,0.0020554999999999,-0.1150259999999999,-0.2831665,-0.2293915,0.148214,-0.2795964999999999,-0.2245215,-0.100816,-0.6630265,-0.1233085,0.143364,-0.6580465,-0.1247565,1
182,0.0056264999999999,0.7479939999999999,0.0134805,-0.1420135,0.4935239999999999,-0.0033545,-0.2797835,0.705674,-0.0605445,0.1527765,0.484824,-0.0122925,0.2700665,0.7186939999999999,-0.0684105,-0.3423735,0.952924,-0.1506285,0.2936364999999999,0.989304,-0.1606485,-0.0724445,-1.5000000000001124e-05,-0.0018444999999999,0.0724445,1.5000000000001124e-05,0.0018444999999999,-0.1145434999999999,-0.295176,-0.2124885,0.1466965,-0.292286,-0.2076385,-0.1012035,-0.674436,-0.1136875,0.1432165,-0.6701360000000001,-0.1154005,1
183,0.00501,0.7476590000000001,0.0215124999999999,-0.143842,0.494629,0.0046864999999999,-0.2800419999999999,0.706329,-0.0513945,0.152278,0.485559,-0.0043694999999999,0.269658,0.717779,-0.0580215,-0.344282,0.953329,-0.1390515,0.293488,0.987379,-0.1488375,-0.072134,-0.00017,-0.0013594999999999,0.072134,0.0001699999999999,0.0013594999999999,-0.113922,-0.307441,-0.1954375,0.145188,-0.305771,-0.1903975,-0.101542,-0.6864809999999999,-0.1040055,0.143098,-0.6831210000000001,-0.1063524999999999,1
184,0.0043575,0.7477705,0.0291789999999999,-0.1456295,0.4957105,0.0120629999999999,-0.2807595,0.7081405000000001,-0.042777,0.1518005,0.4860204999999999,0.003032,0.2687205,0.7181905000000001,-0.04807,-0.3462395,0.9547905,-0.127743,0.2931404999999999,0.9854605,-0.137605,-0.0719785,-0.0002785,-0.000916,0.0719785,0.0002785,0.000916,-0.1131395,-0.3189595,-0.1784049999999999,0.1438405,-0.3190095,-0.1733549999999999,-0.1018795,-0.6973594999999999,-0.09458,0.1431605,-0.6952695,-0.097399,1
185,0.0036084999999999,0.7479485,0.0365885,-0.1473625,0.4949985,0.0193205,-0.2818025,0.7104985,-0.0349904999999999,0.1512675,0.4856685,0.0101475,0.2678575,0.7194985,-0.0390555,-0.3478624999999999,0.9568985,-0.1172135,0.2923675,0.9834285,-0.1267725,-0.0717935,-0.0002225,-0.0004974999999999,0.0717935,0.0002224999999999,0.0004975,-0.1123425,-0.3293514999999999,-0.1615125,0.1425975,-0.3318815,-0.1562525,-0.1021125,-0.7070514999999999,-0.0850694999999999,0.1431975,-0.7068015,-0.0888964999999999,1
186,0.0025675,0.7469625,0.0441815,-0.1492645,0.4944225,0.0268824999999999,-0.2825045,0.7080025,-0.0268925,0.1507155,0.4850425,0.0172485,0.2670555,0.7190325,-0.0302285,-0.3494045,0.9580225,-0.1065875,0.2915655,0.9796925,-0.1162685,-0.0716225,-0.0001605,-5.8500000000002994e-05,0.0716225,0.0001605,5.849999999999953e-05,-0.1113545,-0.3408175,-0.1435185,0.1412955,-0.3455075,-0.1378585,-0.1021545,-0.7177175,-0.0754375,0.1433655,-0.7194175,-0.0802155,1
187,0.0015579999999999,0.7467739999999999,0.051461,-0.151075,0.494334,0.034133,-0.283095,0.706734,-0.019116,0.150195,0.4853739999999999,0.023905,0.266265,0.719164,-0.022016,-0.3507849999999999,0.960004,-0.09672,0.291135,0.979004,-0.106277,-0.0714819999999999,-0.0001279999999999,0.000408,0.0714819999999999,0.000128,-0.000408,-0.110295,-0.352126,-0.125258,0.140015,-0.358566,-0.119278,-0.102125,-0.727286,-0.065652,0.1434949999999999,-0.730336,-0.070892,1
188,0.0005719999999999,0.7463475,0.058476,-0.152838,0.4944275,0.040989,-0.283538,0.7055875,-0.011343,0.1498519999999999,0.4858075,0.030438,0.265552,0.7188275000000001,-0.0141979999999999,-0.352068,0.9621675,-0.087408,0.290642,0.9777775,-0.096624,-0.071337,-0.0001015,0.000892,0.071337,0.0001015,-0.000892,-0.109088,-0.3642125,-0.106808,0.138842,-0.3723925,-0.100543,-0.102118,-0.7367325,-0.056001,0.143702,-0.7419625,-0.061763,1
189,-0.00038,0.7452394999999999,0.064917,-0.1545889999999999,0.4947495,0.047539,-0.283999,0.7048194999999999,-0.003885,0.149441,0.4849995,0.036528,0.264821,0.7183394999999999,-0.0068469999999999,-0.352879,0.9587595,-0.078515,0.2901209999999999,0.9765595,-0.087426,-0.071161,-9.49999999999996e-06,0.001323,0.071161,9.49999999999996e-06,-0.001323,-0.107849,-0.3754004999999999,-0.089034,0.137661,-0.3857804999999999,-0.082168,-0.102119,-0.7452105,-0.046645,0.1439409999999999,-0.7527305000000001,-0.052894,1
190,-0.0012344999999999,0.7460845,0.0660705,-0.1562075,0.4969044999999999,0.0490365,-0.2843775,0.7053445,-0.0015435,0.1492325,0.4857945,0.0374795,0.2642124999999999,0.7191645,-0.0047705,-0.3534275,0.9567345,-0.0748305,0.2896925,0.9766845,-0.0835895,-0.0711215,0.0001924999999999,0.0017414999999999,0.0711215,-0.0001924999999999,-0.0017415,-0.1064874999999999,-0.3847555,-0.0766865,0.1366525,-0.3979054999999999,-0.0692245,-0.1020475,-0.7523755,-0.0423044999999999,0.1442825,-0.7613555,-0.0491905,1
191,-0.0020784999999999,0.7461180000000001,0.067114,-0.1567055,0.496118,0.050496,-0.2848655,0.704408,0.0007159999999999,0.1488045,0.485998,0.0383849999999999,0.2635945,0.718198,-0.002923,-0.3539755,0.953798,-0.071621,0.2891645,0.976078,-0.080157,-0.0712145,0.0002489999999999,0.0021019999999999,0.0712145,-0.0002489999999999,-0.0021019999999999,-0.1062255,-0.3910119999999999,-0.06845,0.1359344999999999,-0.404902,-0.060584,-0.1019954999999999,-0.757772,-0.038085,0.1445445,-0.768662,-0.047214,1
192,-0.0027645,0.746352,0.0680235,-0.1571505,0.495812,0.0518325,-0.2853205,0.703882,0.0026654999999999,0.1484695,0.485602,0.0390785,0.2631195,0.7171620000000001,-0.0013185,-0.3544605,0.951432,-0.0689505,0.2887195,0.976282,-0.0773565,-0.0713145,0.0004499999999999,0.0022445,0.0713145,-0.0004499999999999,-0.0022445,-0.1061805,-0.395638,-0.0607945,0.1350695,-0.410348,-0.0523524999999999,-0.1022305,-0.762018,-0.0341075,0.1444695,-0.773528,-0.0454515,1
193,-0.0032855,0.746065,0.0689015,-0.1574585,0.495765,0.0531145,-0.2855784999999999,0.7029449999999999,0.0045555,0.1482615,0.485475,0.0397365,0.2628215,0.715505,0.0002745,-0.3548185,0.948875,-0.0663884999999999,0.2883415,0.976455,-0.0746795,-0.0715845,0.0006229999999999,0.0023485,0.0715845,-0.000623,-0.0023485,-0.1060784999999999,-0.399745,-0.0533125,0.1343715,-0.415415,-0.0441595,-0.1023385,-0.7648750000000001,-0.0299475,0.1443114999999999,-0.778085,-0.0437535,1
194,-0.003848,0.7461385,0.069622,-0.157812,0.4960385,0.053844,-0.285512,0.7025585000000001,0.0061959999999999,0.147888,0.4850684999999999,0.0403619999999999,0.2625079999999999,0.7137185,0.001556,-0.354882,0.9473185,-0.064131,0.2876479999999999,0.9775185,-0.072371,-0.071764,0.0006934999999999,0.0023999999999999,0.071764,-0.0006934999999999,-0.0024,-0.106062,-0.4010915,-0.046715,0.134218,-0.4178815,-0.0372949999999999,-0.102512,-0.7667115,-0.0265959999999999,0.144698,-0.7812115,-0.0422479999999999,1
195,-0.0042999999999999,0.7461485,0.0702325,-0.158157,0.4959985,0.0543435,-0.285557,0.7023685000000001,0.0073675,0.147453,0.4845885,0.0406865,0.261823,0.7127285,0.0028824999999999,-0.354777,0.9464485,-0.0620005,0.2869029999999999,0.9793185,-0.0700695,-0.071863,0.0007155,0.0024194999999999,0.071863,-0.0007155,-0.0024194999999999,-0.106447,-0.4014115,-0.0408945,0.133983,-0.4194615,-0.0316505,-0.102977,-0.7676014999999999,-0.0236065,0.144733,-0.7837415,-0.0408785,1
196,-0.0047829999999999,0.7459085,0.0707635,-0.158534,0.4959285,0.0548055,-0.285814,0.7022984999999999,0.0082205,0.146976,0.4841884999999999,0.0410165,0.261186,0.7118384999999999,0.0040945,-0.3548139999999999,0.9457885,-0.0601605,0.286336,0.9787885,-0.0682445,-0.071964,0.0007355,0.0023525,0.071964,-0.0007355,-0.0023524999999999,-0.1068839999999999,-0.4016215,-0.0363255,0.133616,-0.4206015,-0.0272504999999999,-0.103504,-0.7682315000000001,-0.0208445,0.144436,-0.7855915,-0.0396694999999999,1
197,-0.0052705,0.7457940000000001,0.071103,-0.1589325,0.495704,0.0550859999999999,-0.2862325,0.7023240000000001,0.008696,0.1465775,0.4841239999999999,0.0412929999999999,0.2607175,0.711604,0.00469,-0.3550325,0.945424,-0.0588579999999999,0.2858275,0.978664,-0.066747,-0.0720794999999999,0.0007399999999999,0.002251,0.0720794999999999,-0.0007399999999999,-0.0022509999999999,-0.1074425,-0.401636,-0.032861,0.1332075,-0.421226,-0.0238959999999999,-0.1040425,-0.767836,-0.01842,0.1441675,-0.786886,-0.038852,1
198,-0.0057315,0.7456915,0.0714125,-0.1592395,0.4954415,0.0552765,-0.2867594999999999,0.7024214999999999,0.0092005,0.1461605,0.4842915,0.0416005,0.2601605,0.7115214999999999,0.0053255,-0.3553794999999999,0.9450615,-0.0576604999999999,0.2852504999999999,0.9785115,-0.0652524999999999,-0.0721825,0.0007464999999999,0.0021205,0.0721825,-0.0007465,-0.0021204999999999,-0.1080495,-0.4014785,-0.0297134999999999,0.1327105,-0.4216884999999999,-0.0210684999999999,-0.1046595,-0.7675985000000001,-0.0160044999999999,0.1437705,-0.7879985,-0.0380125,1
199,-0.0061745,0.7456210000000001,0.0716985,-0.1595455,0.4953709999999999,0.0553855,-0.2871955,0.7025910000000001,0.0097065,0.1458245,0.484651,0.0417675,0.2596445,0.7116410000000001,0.0058325,-0.3557154999999999,0.944781,-0.0568255,0.2847045,0.9785310000000002,-0.0639325,-0.0723085,0.000708,0.0020425,0.0723085,-0.000708,-0.0020424999999999,-0.1085955,-0.401249,-0.0270794999999999,0.1322445,-0.422109,-0.0185895,-0.1052355,-0.7673589999999999,-0.0139724999999999,0.1433745,-0.788909,-0.0372195,1
200,-0.00655,0.745572,0.072061,-0.159798,0.495362,0.055281,-0.287578,0.702712,0.010216,0.1455119999999999,0.484852,0.041757,0.259462,0.712192,0.006423,-0.356048,0.944522,-0.056194,0.284322,0.978772,-0.0627419999999999,-0.072393,0.0006369999999999,0.001897,0.072393,-0.0006369999999999,-0.0018969999999999,-0.1091179999999999,-0.401098,-0.024659,0.131822,-0.422638,-0.016148,-0.105798,-0.767528,-0.0126539999999999,0.143002,-0.789808,-0.036336,1
201,-0.0069635,0.7455674999999999,0.0723185,-0.1600865,0.4953774999999999,0.0550165,-0.2879965,0.7027675,0.0106465,0.1451535,0.4847475,0.0416825,0.2593034999999999,0.7127375,0.0070615,-0.3564465,0.9442975,-0.0555634999999999,0.2839434999999999,0.9789475,-0.0617924999999999,-0.0724315,0.0005684999999999,0.0017895,0.0724315,-0.0005685,-0.0017895,-0.1096765,-0.4009325,-0.0224035,0.1313635,-0.4238125,-0.0140224999999999,-0.1064265,-0.7677525000000001,-0.0114705,0.1426635,-0.7905625000000001,-0.0353785,1
202,-0.0074645,0.7455445,0.0723305,-0.1604034999999999,0.4953645,0.0542015,-0.2884835,0.7028945000000001,0.0107475,0.1447065,0.4846044999999999,0.0415435,0.2591365,0.7130845,0.0078805,-0.3567735,0.9438345,-0.0547455,0.2835264999999999,0.9792145,-0.0609785,-0.0724465,0.0004914999999999,0.0017755,0.0724465,-0.0004914999999999,-0.0017754999999999,-0.1103535,-0.4008455,-0.0207555,0.1308165,-0.4245555,-0.0122805,-0.1072135,-0.7679855,-0.0103404999999999,0.1421865,-0.7912655,-0.0342465,1
203,-0.0080414999999999,0.745779,0.0720935,-0.1607055,0.495529,0.0531335,-0.2890255,0.7030289999999999,0.0106425,0.1442845,0.4846189999999999,0.0413495,0.2590345,0.713719,0.0084525,-0.3571054999999999,0.943419,-0.0537885,0.2831245,0.979629,-0.0600244999999999,-0.0724555,0.0004699999999999,0.0017734999999999,0.0724555,-0.0004699999999999,-0.0017735,-0.1109855,-0.4006909999999999,-0.0197265,0.1302345,-0.424941,-0.0106555,-0.1080755,-0.769011,-0.0092515,0.1417344999999999,-0.791691,-0.0329885,0
204,-0.0086094999999999,0.7458295,0.071824,-0.1611095,0.4956195,0.052301,-0.2895495,0.7030495,0.010385,0.1438105,0.4846495,0.041369,0.2588605,0.7143095,0.009108,-0.3576695,0.9424595,-0.053187,0.2825805,0.9799495,-0.058826,-0.0724605,0.0004675,0.00168,0.0724605,-0.0004675,-0.0016799999999999,-0.1116294999999999,-0.4005105,-0.018532,0.1296105,-0.4249205,-0.0092319999999999,-0.1087694999999999,-0.7694304999999999,-0.008058,0.1412405,-0.7916704999999999,-0.031616,0
205,-0.0089695,0.745605,0.071422,-0.1614175,0.495525,0.051235,-0.2899575,0.7028249999999999,0.009892,0.1435725,0.4848049999999999,0.04123,0.2589625,0.714285,0.009866,-0.3580575,0.941355,-0.052812,0.2822625,0.979595,-0.057377,-0.0724515,0.0004419999999999,0.001629,0.0724515,-0.000442,-0.0016289999999999,-0.1120775,-0.400535,-0.017061,0.1291925,-0.424875,-0.0077599999999999,-0.1092675,-0.7697050000000001,-0.0065879999999999,0.1408124999999999,-0.791625,-0.0299059999999999,0
206,-0.0091635,0.745424,0.070256,-0.1615745,0.4953039999999999,0.04947,-0.2901844999999999,0.702554,0.0088909999999999,0.1435355,0.485084,0.0406679999999999,0.2593255,0.7140340000000001,0.0103769999999999,-0.3582545,0.939524,-0.053755,0.2820855,0.979174,-0.056409,-0.0724365,0.000412,0.0015169999999999,0.0724365,-0.000412,-0.001517,-0.1124045,-0.400636,-0.0153669999999999,0.1288355,-0.424796,-0.006067,-0.1096145,-0.770046,-0.004895,0.1405555,-0.791546,-0.028016,0
207,-0.009174,0.7454044999999999,0.0681519999999999,-0.161501,0.4952844999999999,0.04746,-0.290301,0.7023944999999999,0.0072179999999999,0.143789,0.4858245,0.0398339999999999,0.260059,0.7140145,0.010166,-0.358231,0.9374045,-0.055742,0.282199,0.9791545,-0.056441,-0.072432,0.0003925,0.001395,0.072432,-0.0003924999999999,-0.001395,-0.112431,-0.4004955,-0.014241,0.128769,-0.4244354999999999,-0.004206,-0.109691,-0.7705955,-0.003265,0.140749,-0.7914755,-0.026103,0
208,-0.0091789999999999,0.7454044999999999,0.0653115,-0.161411,0.4952844999999999,0.0449945,-0.2914409999999999,0.7021645,0.0042265,0.1442989999999999,0.4863845,0.0391735,0.261969,0.7140145,0.0093724999999999,-0.358471,0.9345745,-0.0595055,0.283659,0.9736545,-0.0584255,-0.072429,0.0003925,0.0013034999999999,0.072429,-0.0003924999999999,-0.0013034999999999,-0.1124709999999999,-0.4003255,-0.0130775,0.128679,-0.4240655,-0.0017894999999999,-0.1097809999999999,-0.7710955,-0.0012174999999999,0.140889,-0.7913955,-0.0235465,0
209,-0.0093064999999999,0.7452145,0.061902,-0.1613265,0.4952844999999999,0.042177,-0.2937965,0.6994845,0.0004989999999999,0.1443235,0.4863845,0.038494,0.2646635,0.7125745,0.007982,-0.3589365,0.9307445,-0.064247,0.2843335,0.9678545,-0.06054,-0.0724245,0.0003925,0.001188,0.0724245,-0.0003924999999999,-0.0011879999999999,-0.1125065,-0.4001355,-0.0120779999999999,0.1286035,-0.4235255,0.0004739999999999,-0.1099065,-0.7716055,0.0008839999999999,0.1407935,-0.7913355000000001,-0.02103,0
210,-0.0094175,0.7449245,0.058322,-0.1612675,0.4950645,0.0392629999999999,-0.2976675,0.6945045,-0.003884,0.1443824999999999,0.4864545,0.03791,0.2687525,0.7086345,0.0061259999999999,-0.3584075,0.9253345,-0.069557,0.2844425,0.9565645,-0.062542,-0.0724325,0.0003225,0.0009369999999999,0.0724325,-0.0003224999999999,-0.000937,-0.1125075,-0.3998855,-0.010923,0.1285525,-0.4229555,0.0027399999999999,-0.1100275,-0.7720955,0.0032189999999999,0.1407324999999999,-0.7912255,-0.018209,0
