sb224sc-HT22-VT27/4dt907/src/ml-research/a11/datafiles/labeled_files/A114_kinect.csv
FrameNo,nose_3d_x,nose_3d_y,nose_3d_z,left_shoulder_3d_x,left_shoulder_3d_y,left_shoulder_3d_z,left_elbow_3d_x,left_elbow_3d_y,left_elbow_3d_z,right_shoulder_3d_x,right_shoulder_3d_y,right_shoulder_3d_z,right_elbow_3d_x,right_elbow_3d_y,right_elbow_3d_z,left_wrist_3d_x,left_wrist_3d_y,left_wrist_3d_z,right_wrist_3d_x,right_wrist_3d_y,right_wrist_3d_z,left_hip_3d_x,left_hip_3d_y,left_hip_3d_z,right_hip_3d_x,right_hip_3d_y,right_hip_3d_z,left_knee_3d_x,left_knee_3d_y,left_knee_3d_z,right_knee_3d_x,right_knee_3d_y,right_knee_3d_z,left_ankle_3d_x,left_ankle_3d_y,left_ankle_3d_z,right_ankle_3d_x,right_ankle_3d_y,right_ankle_3d_z,activity_label
0,-0.0339485,0.791545,0.0473455,-0.1951815,0.510705,0.0083214999999999,-0.2474215,0.247665,-0.0084875,0.1519184999999999,0.516065,-0.0018904999999999,0.2124885,0.253745,-0.0312084999999999,-0.2184615,0.032652,-0.0946994999999999,0.2004485,0.036236,-0.1225894999999999,-0.0735715,-0.001411,-0.0001494999999999,0.0735715,0.001411,0.0001494999999999,-0.1198714999999999,-0.573185,0.0285255,0.1338885,-0.574925,0.0303785,-0.1424015,-0.892795,-0.0194184999999999,0.1543385,-0.913765,-0.0487695,0
1,-0.0363725,0.79218,0.048858,-0.1951115,0.51099,0.008528,-0.2470815,0.2473999999999999,-0.0086769999999999,0.1519984999999999,0.5164300000000001,-0.0017399999999999,0.2126984999999999,0.25414,-0.0309859999999999,-0.2183115,0.033346,-0.095267,0.2002485,0.036572,-0.122127,-0.0736185,-0.0013909999999999,-3.199999999999731e-05,0.0736185,0.0013909999999999,3.199999999999731e-05,-0.1197715,-0.57324,0.028854,0.1338784999999999,-0.57401,0.030399,-0.1413615,-0.89464,-0.02296,0.1533884999999999,-0.90395,-0.038416,0
2,-0.0413404999999999,0.7933105,0.0519745,-0.1950175,0.5110105,0.0084204999999999,-0.2470775,0.2481505,-0.0087785,0.1516925,0.5166405000000001,-0.0020645,0.2130025,0.2544805,-0.0309785,-0.2183275,0.0339535,-0.0959184999999999,0.2000625,0.0364505,-0.1220785,-0.0736855,-0.0014694999999999,-2.7499999999999747e-05,0.0736855,0.0014694999999999,2.7499999999999747e-05,-0.1197174999999999,-0.5727895,0.0288015,0.1338925,-0.5734595,0.0302635,-0.1412575,-0.8951195,-0.0226175,0.1529725,-0.9020195,-0.0310265,0
3,-0.043838,0.7929174999999999,0.0529825,-0.19471,0.5110875,0.0084554999999999,-0.2467899999999999,0.2484275,-0.0087835,0.15117,0.5169675,-0.0027305,0.21277,0.2548475,-0.0309025,-0.21809,0.0343775,-0.0959275,0.1995,0.0354755,-0.1212875,-0.073802,-0.0016345,-1.4500000000000624e-05,0.073802,0.0016345,1.4500000000000624e-05,-0.11926,-0.5709625,0.0287014999999999,0.13415,-0.5730325000000001,0.0303434999999999,-0.14089,-0.8949125,-0.0226475,0.1543,-0.8913525,-0.0242485,0
4,-0.0484125,0.793136,0.0563105,-0.1946885,0.511106,0.0085575,-0.2465885,0.248446,-0.0088094999999999,0.1505814999999999,0.517636,-0.0037114999999999,0.2128715,0.255636,-0.0309004999999999,-0.2179385,0.034453,-0.0960495,0.1991915,0.03523,-0.1205594999999999,-0.0738395,-0.001549,3.150000000000375e-05,0.0738395,0.001549,-3.149999999999681e-05,-0.1191985,-0.570814,0.0287845,0.1343115,-0.573604,0.0304155,-0.1407685,-0.894454,-0.0217114999999999,0.1536914999999999,-0.891134,-0.0235525,0
5,-0.0508365,0.7928425,0.059741,-0.1944435,0.5111924999999999,0.008899,-0.2459934999999999,0.2491425,-0.0086849999999999,0.1502565,0.5180125,-0.0044439999999999,0.2132565,0.2561625,-0.030906,-0.2175735,0.0360855,-0.095427,0.1985865,0.0340264999999999,-0.118567,-0.0739275,-0.0015955,0.000341,0.0739275,0.0015955,-0.000341,-0.1191835,-0.5721475,0.029385,0.1346365,-0.5731275,0.030461,-0.1403835,-0.8974175000000001,-0.0264019999999999,0.1539965,-0.8904975,-0.0235159999999999,0
6,-0.053909,0.791426,0.0620855,-0.194697,0.510936,0.0090554999999999,-0.245677,0.249406,-0.0085755,0.149553,0.518866,-0.0055494999999999,0.213343,0.257166,-0.0309445,-0.217977,0.037395,-0.0959115,0.198363,0.033426,-0.1179015,-0.073927,-0.001584,0.0003704999999999,0.073927,0.001584,-0.0003705,-0.119167,-0.572004,0.0294485,0.134713,-0.572484,0.0305334999999999,-0.139927,-0.897994,-0.0260815,0.153993,-0.893434,-0.0269535,0
7,-0.0538935,0.790129,0.062578,-0.1942975,0.510509,0.0101719999999999,-0.2444675,0.247079,-0.0081029999999999,0.1497325,0.5185289999999999,-0.006332,0.2137925,0.257059,-0.0311,-0.2173275,0.037287,-0.0949749999999999,0.1991225,0.033218,-0.117655,-0.0739415,-0.001717,0.0007689999999999,0.0739415,0.001717,-0.000769,-0.1184274999999999,-0.5725910000000001,0.0292739999999999,0.1339225,-0.565401,0.0297619999999999,-0.1400375,-0.8950910000000001,-0.023261,0.1541925,-0.8926510000000001,-0.0247249999999999,0
8,-0.055684,0.78957,0.0643145,-0.194232,0.51029,0.0107314999999999,-0.243782,0.2465699999999999,-0.0078635,0.1494079999999999,0.51909,-0.0071305,0.214108,0.25777,-0.0311955,-0.217162,0.037919,-0.0948835,0.199208,0.0329109999999999,-0.1171735,-0.073961,-0.001763,0.0009704999999999,0.073961,0.001763,-0.0009704999999999,-0.118162,-0.57263,0.0293734999999999,0.134118,-0.5648399999999999,0.0297474999999999,-0.139762,-0.8950499999999999,-0.0236105,0.154358,-0.89198,-0.0243055,0
9,-0.0570655,0.7889145,0.0657355,-0.1942315,0.5100245,0.0114725,-0.2430715,0.2461145,-0.0074644999999999,0.1491084999999999,0.5196945000000001,-0.0078895,0.2144185,0.2584645,-0.0313445,-0.2170915,0.0384745,-0.0944375,0.1993484999999999,0.0327075,-0.1169075,-0.0739785,-0.0018175,0.0011914999999999,0.0739785,0.0018174999999999,-0.0011914999999999,-0.1179014999999999,-0.5726355,0.0294294999999999,0.1343385,-0.5643954999999999,0.0296805,-0.1396615,-0.8951355,-0.0239864999999999,0.1546685,-0.8911855,-0.0242895,0
10,-0.0582715,0.7882220000000001,0.0668065,-0.1942565,0.509792,0.0122525,-0.2423665,0.245562,-0.0068695,0.1487635,0.520302,-0.0086605,0.2146934999999999,0.259152,-0.0315525,-0.2170465,0.038922,-0.0938015,0.1995835,0.032722,-0.1168915,-0.0739885,-0.001865,0.0014205,0.0739885,0.001865,-0.0014204999999999,-0.1176365,-0.5726979999999999,0.0294905,0.1345434999999999,-0.563958,0.0296755,-0.1396165,-0.895118,-0.0243604999999999,0.1549935,-0.890408,-0.0242735,0
11,-0.0592784999999999,0.7876875,0.067687,-0.1943055,0.5095974999999999,0.013158,-0.2415955,0.2451075,-0.0061859999999999,0.1484045,0.5208974999999999,-0.0094669999999999,0.2150545,0.2598575,-0.031886,-0.2169755,0.0393875,-0.0930979999999999,0.1998645,0.0329905,-0.116918,-0.0739975,-0.0019294999999999,0.001706,0.0739975,0.0019295,-0.0017059999999999,-0.1173755,-0.5729425,0.029506,0.1347245,-0.5635525,0.029624,-0.1395755,-0.8950925000000001,-0.0247629999999999,0.1552745,-0.8899825,-0.024607,0
12,-0.060121,0.7872735,0.068349,-0.194356,0.5094434999999999,0.014054,-0.240806,0.2447435,-0.0054419999999999,0.147944,0.5215235,-0.0103539999999999,0.2154539999999999,0.2606535,-0.0323189999999999,-0.216946,0.0398635,-0.0923699999999999,0.200114,0.0333985,-0.1169399999999999,-0.073986,-0.0019965,0.0019769999999999,0.073986,0.0019965,-0.0019769999999999,-0.117146,-0.5731565000000001,0.029501,0.134954,-0.5630765,0.029593,-0.139486,-0.8950965000000001,-0.025332,0.1555539999999999,-0.8896465,-0.0252699999999999,0
13,-0.060929,0.786972,0.0688479999999999,-0.194462,0.509272,0.0149369999999999,-0.240072,0.244282,-0.004507,0.147418,0.522142,-0.0112589999999999,0.215868,0.261432,-0.032808,-0.2169519999999999,0.040171,-0.091627,0.200338,0.033867,-0.1170969999999999,-0.073995,-0.002058,0.0022739999999999,0.073995,0.002058,-0.0022739999999999,-0.116922,-0.573098,0.029399,0.135178,-0.562758,0.0294439999999999,-0.139392,-0.8947780000000001,-0.0254159999999999,0.155808,-0.889178,-0.025485,0
14,-0.0616284999999999,0.78678,0.0693065,-0.1945595,0.50909,0.0158864999999999,-0.2393795,0.24427,-0.0034175,0.1469005,0.5226500000000001,-0.0122085,0.2163405,0.26223,-0.0334104999999999,-0.2169495,0.040261,-0.0907655,0.2005805,0.034305,-0.1174455,-0.0739964999999999,-0.002085,0.0026214999999999,0.0739964999999999,0.002085,-0.0026214999999999,-0.1166794999999999,-0.57305,0.0292694999999999,0.1352404999999999,-0.56133,0.0291975,-0.1391595,-0.89447,-0.0252104999999999,0.1560804999999999,-0.88841,-0.0253464999999999,0
15,-0.0623515,0.7866635,0.069672,-0.1947225,0.5089735,0.016889,-0.2387125,0.2441935,-0.0022499999999999,0.1462975,0.5228035,-0.0132979999999999,0.2167875,0.2626835,-0.0340579999999999,-0.2170025,0.0400725,-0.0897779999999999,0.2007675,0.0342714999999999,-0.118048,-0.0739995,-0.0020895,0.002993,0.0739995,0.0020894999999999,-0.0029929999999999,-0.1164824999999999,-0.5730365,0.02915,0.1355375,-0.5617665,0.028986,-0.1388825,-0.8946864999999999,-0.025324,0.1563975,-0.8879765,-0.025423,0
16,-0.0630385,0.78651,0.0699925,-0.1948435,0.509,0.0179444999999999,-0.2381335,0.24422,-0.0009805,0.1457065,0.52285,-0.0144035,0.2172565,0.26309,-0.0347545,-0.2170835,0.039816,-0.0886894999999999,0.2009565,0.034206,-0.1187695,-0.0740005,-0.0020629999999999,0.0034004999999999,0.0740005,0.0020629999999999,-0.0034005,-0.1162335,-0.5730299999999999,0.0290114999999999,0.1358965,-0.56258,0.0287974999999999,-0.1385735,-0.8948799999999999,-0.0254725,0.1567465,-0.8876,-0.0256435,0
17,-0.0637875,0.786308,0.0703739999999999,-0.1950095,0.5090279999999999,0.019119,-0.2375595,0.244248,0.0003949999999999,0.1451605,0.522888,-0.015555,0.2177605,0.263478,-0.035496,-0.2172695,0.03951,-0.087362,0.2011805,0.034161,-0.119552,-0.0739885,-0.0020559999999999,0.0038759999999999,0.0739885,0.002056,-0.0038759999999999,-0.1159295,-0.573002,0.028835,0.1362405,-0.563102,0.028562,-0.1383395,-0.895032,-0.025781,0.1570805,-0.887542,-0.025853,0
18,-0.0645185,0.7861015,0.0707435,-0.1950915,0.5090414999999999,0.0201355,-0.2369915,0.2442615,0.0017065,0.1446385,0.5231414999999999,-0.0167835,0.2182585,0.2640115,-0.0363104999999999,-0.2174515,0.0392065,-0.0861245,0.2014185,0.0344685,-0.1204245,-0.0739795,-0.0020595,0.0043695,0.0739795,0.0020594999999999,-0.0043694999999999,-0.1156215,-0.5729485000000001,0.0286955,0.1365885,-0.5638885,0.0284695,-0.1383015,-0.8952185,-0.0264694999999999,0.1574984999999999,-0.8875385,-0.0266624999999999,0
19,-0.0651865,0.7859254999999999,0.071079,-0.1952134999999999,0.5090755,0.021375,-0.2364735,0.2441755,0.002986,0.1441865,0.5234255,-0.0180339999999999,0.2186265,0.2645655,-0.0371959999999999,-0.2176634999999999,0.0388815,-0.084936,0.2016565,0.0347355,-0.1213359999999999,-0.0739625,-0.0020694999999999,0.004885,0.0739625,0.0020695,-0.0048849999999999,-0.1153034999999999,-0.5729645,0.028496,0.1368265,-0.5638845,0.028178,-0.1381335,-0.8953045000000001,-0.0267509999999999,0.1579065,-0.8874945000000001,-0.027516,0
20,-0.0657175,0.7857554999999999,0.071387,-0.1952555,0.5090855,0.02246,-0.2359955,0.2441855,0.00427,0.1438144999999999,0.5237455,-0.019211,0.2189445,0.2650955,-0.03805,-0.2178655,0.0386405,-0.083628,0.2019045,0.0349555,-0.122168,-0.0739335,-0.0020805,0.005411,0.0739335,0.0020805,-0.0054109999999999,-0.1149655,-0.5729745,0.028312,0.1371945,-0.5638645,0.02793,-0.1379055,-0.8953545,-0.02702,0.1583745,-0.8875845,-0.02856,0
21,-0.0662575,0.7855890000000001,0.071725,-0.1953475,0.509059,0.023633,-0.2355875,0.244189,0.005612,0.1435125,0.524039,-0.0202829999999999,0.2191924999999999,0.265549,-0.038844,-0.2181575,0.038397,-0.082273,0.2021425,0.03508,-0.1229329999999999,-0.0739205,-0.0020939999999999,0.005942,0.0739205,0.002094,-0.0059419999999999,-0.1146475,-0.5730909999999999,0.028109,0.1375325,-0.5638409999999999,0.027625,-0.1375375,-0.895311,-0.026729,0.1586225,-0.8875609999999999,-0.0290209999999999,0
22,-0.066822,0.785446,0.0720915,-0.195426,0.509036,0.0247034999999999,-0.235146,0.244106,0.0068814999999999,0.143254,0.524396,-0.0212645,0.219404,0.266026,-0.0396535,-0.218536,0.038022,-0.0809125,0.202294,0.035172,-0.1236124999999999,-0.073877,-0.00211,0.0064444999999999,0.073877,0.00211,-0.0064444999999999,-0.114366,-0.573254,0.0279434999999999,0.1378339999999999,-0.564044,0.0273344999999999,-0.137166,-0.895424,-0.0268855,0.158834,-0.887524,-0.0297475,0
23,-0.067448,0.785293,0.072548,-0.195533,0.509033,0.025782,-0.234783,0.244123,0.008032,0.143047,0.524743,-0.022125,0.2195669999999999,0.266453,-0.0403809999999999,-0.218953,0.037638,-0.079717,0.202337,0.035204,-0.124217,-0.073832,-0.0020939999999999,0.006899,0.073832,0.002094,-0.006899,-0.114123,-0.573207,0.027813,0.137867,-0.562947,0.026916,-0.137003,-0.895167,-0.026928,0.158997,-0.887607,-0.030385,0
24,-0.0680115,0.785155,0.0729535,-0.1956014999999999,0.509035,0.0269415,-0.2344315,0.2441549999999999,0.0090945,0.1429385,0.525155,-0.0229524999999999,0.2196985,0.266915,-0.0411244999999999,-0.2194015,0.037218,-0.0787524999999999,0.2023285,0.035246,-0.1248124999999999,-0.0737775,-0.002093,0.0073795,0.0737775,0.002093,-0.0073794999999999,-0.1138615,-0.573155,0.0276615,0.1379385,-0.561925,0.0264565,-0.1368615,-0.894965,-0.0271965,0.1590085,-0.888125,-0.0300985,0
25,-0.0685504999999999,0.785023,0.0733945,-0.1956555,0.508933,0.0280115,-0.2340955,0.244153,0.0101745,0.1428645,0.525573,-0.0238065,0.2198044999999999,0.267353,-0.0418775,-0.2198555,0.036795,-0.0779125,0.2022644999999999,0.035254,-0.1253725,-0.0737164999999999,-0.002059,0.0078525,0.0737164999999999,0.002059,-0.0078524999999999,-0.1136554999999999,-0.573147,0.0274755,0.1381045,-0.561217,0.0260905,-0.1366855,-0.894957,-0.0274705,0.1589045,-0.888307,-0.0298914999999999,0
26,-0.068993,0.7849465,0.073795,-0.195599,0.5088265,0.028994,-0.233769,0.2438765,0.011074,0.1428009999999999,0.5259965,-0.0246319999999999,0.219861,0.2678065,-0.0426389999999999,-0.220209,0.0364355,-0.077296,0.202151,0.0351435,-0.1258659999999999,-0.073664,-0.0020455,0.008294,0.073664,0.0020454999999999,-0.0082939999999999,-0.113469,-0.5731335,0.027302,0.138281,-0.5612035,0.025775,-0.136529,-0.8950835,-0.027573,0.1587609999999999,-0.8886835,-0.0294819999999999,0
27,-0.069425,0.7848665,0.074242,-0.195493,0.5087865,0.0300609999999999,-0.233443,0.2434965,0.0120619999999999,0.142747,0.5263965,-0.025398,0.219917,0.2682365,-0.043354,-0.220493,0.0360345,-0.076852,0.202047,0.0350205,-0.126362,-0.073596,-0.0020455,0.0087679999999999,0.073596,0.0020454999999999,-0.008768,-0.113283,-0.5731335,0.0271579999999999,0.138447,-0.5612035,0.0254789999999999,-0.136443,-0.8952135,-0.027829,0.158757,-0.8887935,-0.028983,0
28,-0.069909,0.7848040000000001,0.0747645,-0.195367,0.508724,0.0309445,-0.233117,0.243244,0.0130524999999999,0.142703,0.526804,-0.0261235,0.219983,0.268694,-0.0440305,-0.220797,0.035682,-0.0764685,0.201863,0.034821,-0.1268385,-0.07352,-0.002063,0.0092194999999999,0.07352,0.0020629999999999,-0.0092194999999999,-0.113097,-0.573406,0.0270364999999999,0.138463,-0.560376,0.0251595,-0.136417,-0.8954259999999999,-0.0280545,0.158743,-0.889286,-0.0290624999999999,0
29,-0.0704125,0.78479,0.075282,-0.1952525,0.50876,0.031936,-0.2328124999999999,0.24298,0.0139859999999999,0.1426175,0.5272399999999999,-0.0268399999999999,0.2200075,0.26914,-0.044709,-0.2210925,0.035314,-0.076252,0.2016374999999999,0.03464,-0.1273119999999999,-0.0734475,-0.002071,0.009634,0.0734475,0.002071,-0.009634,-0.1129525,-0.5736800000000001,0.0269739999999999,0.1387475,-0.56008,0.0248919999999999,-0.1365625,-0.8953500000000001,-0.0286989999999999,0.1587275,-0.88966,-0.029091,0
30,-0.0708665,0.7847585,0.0757355,-0.1951105,0.5087585,0.0327905,-0.2325205,0.2426985,0.0147814999999999,0.1424795,0.5276185,-0.0275925,0.2200595,0.2695885,-0.0454465,-0.2213105,0.0350125,-0.0761455,0.2013695,0.0344105,-0.1278254999999999,-0.0733605,-0.0020794999999999,0.0100724999999999,0.0733605,0.0020795,-0.0100725,-0.1127905,-0.5740014999999999,0.0268954999999999,0.1390195,-0.5595815,0.0246015,-0.1365405,-0.8952815,-0.0289704999999999,0.1586895,-0.8899815,-0.0293375,0
31,-0.0713325,0.784764,0.076261,-0.1949985,0.508594,0.033688,-0.2323184999999999,0.2425739999999999,0.015464,0.1423515,0.527994,-0.0283119999999999,0.2201215,0.270014,-0.0462259999999999,-0.2215185,0.034907,-0.076075,0.2010915,0.034218,-0.128345,-0.0732785,-0.002107,0.010469,0.0732785,0.002107,-0.010469,-0.1126485,-0.574246,0.026832,0.1392215,-0.558776,0.02433,-0.1364985,-0.895226,-0.029178,0.1584815,-0.8903260000000001,-0.030009,0
32,-0.0717565,0.7847594999999999,0.076777,-0.1948555,0.5085195,0.0345199999999999,-0.2320855,0.2423695,0.0163339999999999,0.1422045,0.5283194999999999,-0.02909,0.2202145,0.2704094999999999,-0.047068,-0.2217055,0.0348395,-0.076011,0.2008645,0.0340515,-0.128931,-0.0731925,-0.0021035,0.0109279999999999,0.0731925,0.0021035,-0.010928,-0.1124755,-0.5744405,0.0266889999999999,0.1394345,-0.5578605,0.0239819999999999,-0.1363655,-0.8949905,-0.029301,0.1583745,-0.8907705,-0.030731,0
33,-0.072168,0.7847255,0.0772785,-0.194692,0.5085155,0.0350655,-0.231862,0.2421855,0.0171915,0.142068,0.5285854999999999,-0.0298034999999999,0.2202879999999999,0.2707355,-0.0478964999999999,-0.221852,0.0346905,-0.0756535,0.200638,0.0338865,-0.1295535,-0.07311,-0.0021085,0.0113555,0.07311,0.0021084999999999,-0.0113554999999999,-0.112292,-0.5745345000000001,0.0265365,0.139618,-0.5568645,0.0236645,-0.136072,-0.8946745,-0.0291384999999999,0.158378,-0.8907845000000001,-0.0307984999999999,0
34,-0.0725595,0.784695,0.077759,-0.1945225,0.5084650000000001,0.0355819999999999,-0.2316625,0.242065,0.018083,0.1419274999999999,0.528765,-0.0304289999999999,0.2203474999999999,0.271025,-0.048744,-0.2219725,0.034472,-0.075136,0.2004075,0.0337649999999999,-0.130256,-0.0730345,-0.0021009999999999,0.0117649999999999,0.0730345,0.002101,-0.011765,-0.1121325,-0.574495,0.0263899999999999,0.1398275,-0.5568249999999999,0.0234619999999999,-0.1359625,-0.894485,-0.029342,0.1584375,-0.8911349999999999,-0.030852,0
35,-0.072922,0.784695,0.0781375,-0.194363,0.5084650000000001,0.0359775,-0.231453,0.242065,0.0189465,0.141767,0.528895,-0.0310065,0.220377,0.2712549999999999,-0.0495674999999999,-0.222063,0.0344519999999999,-0.0746334999999999,0.200127,0.0337649999999999,-0.1310235,-0.072961,-0.0021009999999999,0.0121245,0.072961,0.002101,-0.0121244999999999,-0.111993,-0.574495,0.0262635,0.1399669999999999,-0.5565749999999999,0.0233095,-0.135883,-0.894515,-0.0300135,0.158487,-0.891165,-0.0309155,0
36,-0.07322,0.784695,0.078387,-0.1942,0.5084650000000001,0.036263,-0.23127,0.2421549999999999,0.0196599999999999,0.14157,0.529015,-0.03156,0.22039,0.271485,-0.050376,-0.22215,0.034385,-0.074067,0.19981,0.03377,-0.131847,-0.072896,-0.0021009999999999,0.0124439999999999,0.072896,0.002101,-0.012444,-0.11187,-0.574495,0.0261039999999999,0.14012,-0.556175,0.0231429999999999,-0.13579,-0.894415,-0.030777,0.15855,-0.891065,-0.030695,0
37,-0.0734625,0.784695,0.0785619999999999,-0.1940175,0.508495,0.03643,-0.2310875,0.2422649999999999,0.020227,0.1413825,0.5290950000000001,-0.032088,0.2203925,0.271655,-0.051139,-0.2222175,0.034308,-0.073346,0.1995425,0.03377,-0.132696,-0.0728405,-0.0021009999999999,0.012746,0.0728405,0.002101,-0.012746,-0.1117175,-0.574275,0.025942,0.1402425,-0.556325,0.023002,-0.1356275,-0.894415,-0.0313919999999999,0.1587024999999999,-0.8904949999999999,-0.030457,0
38,-0.0737,0.7845975000000001,0.078714,-0.193857,0.5084875,0.0364889999999999,-0.230927,0.2422675,0.0208739999999999,0.141233,0.5292275000000001,-0.032616,0.220383,0.2718974999999999,-0.051861,-0.222267,0.0339025,-0.072462,0.199243,0.0336945,-0.133602,-0.072781,-0.0021325,0.0130389999999999,0.072781,0.0021325,-0.013039,-0.111577,-0.5739925,0.0257919999999999,0.140343,-0.5574025,0.0229259999999999,-0.135327,-0.8946324999999999,-0.031879,0.1588129999999999,-0.8902924999999999,-0.030236,0
39,-0.073911,0.784579,0.0788545,-0.193737,0.508529,0.0365605,-0.230797,0.242179,0.0215385,0.141123,0.529359,-0.0330585,0.220353,0.272109,-0.0524874999999999,-0.222297,0.033521,-0.0715534999999999,0.198953,0.033745,-0.1344634999999999,-0.072725,-0.0021789999999999,0.0132805,0.072725,0.002179,-0.0132805,-0.111457,-0.5737009999999999,0.0256585,0.140453,-0.5576509999999999,0.0228985,-0.135097,-0.8950009999999999,-0.0323985,0.158943,-0.8902509999999999,-0.0302294999999999,0
40,-0.074114,0.784566,0.078896,-0.193666,0.508516,0.036582,-0.230716,0.241946,0.022205,0.141024,0.529486,-0.0334629999999999,0.220344,0.272336,-0.0529889999999999,-0.2223159999999999,0.033185,-0.0706789999999999,0.198674,0.034018,-0.1353089999999999,-0.072667,-0.0022509999999999,0.01352,0.072667,0.002251,-0.0135199999999999,-0.1113359999999999,-0.573284,0.025522,0.140564,-0.557844,0.022761,-0.134786,-0.895184,-0.032329,0.159064,-0.890614,-0.0303869999999999,0
41,-0.074277,0.7845095,0.0788545,-0.193631,0.5085095000000001,0.0365845,-0.230711,0.2419695,0.0226185,0.140939,0.5295495,-0.0337484999999999,0.220319,0.2724795,-0.0533675,-0.222321,0.0327925,-0.0697405,0.198379,0.0342665,-0.1360405,-0.072627,-0.0022925,0.0136815,0.072627,0.0022925,-0.0136815,-0.111261,-0.5728205,0.0254465,0.140709,-0.5581705,0.0227964999999999,-0.134381,-0.8951005,-0.0323695,0.159119,-0.8908705,-0.0304675,0
42,-0.0744365,0.7844220000000001,0.0787805,-0.1936265,0.508482,0.0366335,-0.2307165,0.241982,0.0230155,0.1408434999999999,0.529602,-0.0339865,0.2203034999999999,0.272612,-0.0536575,-0.2223265,0.032442,-0.0690424999999999,0.1981234999999999,0.034488,-0.1366425,-0.0725845,-0.002331,0.0138235,0.0725845,0.002331,-0.0138234999999999,-0.1112265,-0.572458,0.0254025,0.1406935,-0.557918,0.0228765,-0.1341565,-0.894928,-0.0321414999999999,0.1590434999999999,-0.891268,-0.0304934999999999,0
43,-0.074563,0.7843575,0.078705,-0.193634,0.5084675000000001,0.036742,-0.230734,0.2420375,0.023234,0.140736,0.5296775,-0.034197,0.220296,0.2727375,-0.053825,-0.222334,0.0321275,-0.068504,0.197926,0.0347004999999999,-0.137084,-0.072547,-0.0023854999999999,0.01395,0.072547,0.0023855,-0.0139499999999999,-0.111184,-0.5722225,0.025354,0.140726,-0.5588525,0.023052,-0.134074,-0.8947425,-0.031638,0.158976,-0.8915624999999999,-0.0304959999999999,0
44,-0.074697,0.784288,0.0786445,-0.193661,0.508408,0.0368825,-0.230721,0.241908,0.0233805,0.140629,0.529758,-0.0343425,0.220269,0.272858,-0.0539475,-0.222351,0.031818,-0.0679565,0.197789,0.034878,-0.1373165,-0.07252,-0.0024419999999999,0.0140714999999999,0.07252,0.002442,-0.0140715,-0.111181,-0.572022,0.0253294999999999,0.140679,-0.5593720000000001,0.0232555,-0.134101,-0.894552,-0.0313115,0.158879,-0.892232,-0.0311405,0
45,-0.0748284999999999,0.7842235,0.078577,-0.1936915,0.5083734999999999,0.037021,-0.2307215,0.2418635,0.0234759999999999,0.1405585,0.5298335,-0.03445,0.2202385,0.2729635,-0.054056,-0.2223615,0.0316165,-0.067495,0.1977385,0.0350044999999999,-0.137425,-0.0724895,-0.0024934999999999,0.014175,0.0724895,0.0024935,-0.014175,-0.1111514999999999,-0.5717965,0.025325,0.1406385,-0.5597965,0.023492,-0.1341315,-0.8950165,-0.031993,0.1588485,-0.8927965,-0.03152,0
46,-0.074928,0.784133,0.0785059999999999,-0.193758,0.508333,0.037146,-0.230748,0.241773,0.023515,0.140502,0.529903,-0.034557,0.220212,0.273053,-0.0541629999999999,-0.222368,0.03153,-0.0672339999999999,0.197712,0.035076,-0.137532,-0.072464,-0.002544,0.014258,0.072464,0.002544,-0.014258,-0.111158,-0.571927,0.025349,0.140602,-0.560607,0.023716,-0.134168,-0.8951169999999999,-0.0324839999999999,0.158822,-0.8931169999999999,-0.0316269999999999,0
47,-0.075021,0.7841065,0.078415,-0.19384,0.5083665,0.0372819999999999,-0.23083,0.2418465,0.0234309999999999,0.14046,0.5298965,-0.034667,0.22019,0.2730465,-0.054186,-0.22237,0.0316445,-0.067271,0.19768,0.0350395,-0.137642,-0.072433,-0.0025315,0.0143009999999999,0.072433,0.0025315,-0.014301,-0.1111699999999999,-0.5719635,0.0253089999999999,0.1405799999999999,-0.5612535,0.0237659999999999,-0.13422,-0.8950335,-0.033053,0.15879,-0.8929035,-0.031502,0
48,-0.0751189999999999,0.784074,0.078315,-0.1939169999999999,0.508374,0.037431,-0.230957,0.242014,0.023359,0.140423,0.529914,-0.0347489999999999,0.220163,0.273054,-0.054157,-0.222387,0.031761,-0.0673429999999999,0.197643,0.035007,-0.137655,-0.072415,-0.002522,0.014339,0.072415,0.002522,-0.0143389999999999,-0.111187,-0.571996,0.025271,0.140533,-0.561896,0.023791,-0.134097,-0.8948659999999999,-0.0330819999999999,0.158803,-0.892566,-0.031494,0
49,-0.0751665,0.7840375,0.0781915,-0.1939324999999999,0.5083875,0.0373074999999999,-0.2310525,0.2421775,0.0232354999999999,0.1403975,0.5299275,-0.0348225,0.2201875,0.2730574999999999,-0.0540795,-0.2223725,0.0319155,-0.0674665,0.1976575,0.0350035,-0.1375285,-0.0724035,-0.0025555,0.0143714999999999,0.0724035,0.0025554999999999,-0.0143715,-0.1112124999999999,-0.5720324999999999,0.0252284999999999,0.1405175,-0.5625325,0.0238035,-0.1340724999999999,-0.8950325,-0.0332055,0.1587775,-0.8922224999999999,-0.0315045,0
50,-0.075169,0.7840010000000001,0.0780645,-0.193935,0.5083610000000001,0.0371805,-0.231125,0.242301,0.0231095,0.140395,0.5299510000000001,-0.0347935,0.220245,0.2730809999999999,-0.0538704999999999,-0.222375,0.032026,-0.0675935,0.1977249999999999,0.035142,-0.1371655,-0.0723959999999999,-0.002592,0.0144075,0.0723959999999999,0.0025919999999999,-0.0144074999999999,-0.111235,-0.5720689999999999,0.0251865,0.140395,-0.562759,0.0237445,-0.134205,-0.894519,-0.0325964999999999,0.158745,-0.892029,-0.0315245,0
51,-0.0751755,0.783958,0.077944,-0.1939415,0.508378,0.0370599999999999,-0.2311915,0.242528,0.022971,0.1403885,0.5299780000000001,-0.0347429999999999,0.2202985,0.273098,-0.053619,-0.2223815,0.032233,-0.067714,0.1978585,0.035213,-0.136666,-0.0723985,-0.0026349999999999,0.014414,0.0723985,0.002635,-0.014414,-0.1112615,-0.572112,0.0251589999999999,0.1403285,-0.5633819999999999,0.0236979999999999,-0.1343715,-0.894012,-0.031886,0.1587085,-0.892072,-0.031867,0
52,-0.075176,0.7839295000000001,0.077841,-0.193882,0.5084395,0.036972,-0.231242,0.2428095,0.02274,0.1404079999999999,0.5300395,-0.034707,0.220358,0.2731095,-0.053374,-0.222382,0.0324915,-0.06788,0.198098,0.0351645,-0.135922,-0.072398,-0.0026835,0.014416,0.072398,0.0026834999999999,-0.0144159999999999,-0.111282,-0.5721005,0.025127,0.140198,-0.5635905,0.023653,-0.134552,-0.8935405,-0.0312169999999999,0.1587279999999999,-0.8919604999999999,-0.032579,0
53,-0.0750995,0.7839045,0.0777505,-0.1937315,0.5084945,0.0367425,-0.2312815,0.2429245,0.0223525,0.1404385,0.5301245,-0.0346844999999999,0.2204385,0.2731245,-0.0531124999999999,-0.2223915,0.0326635,-0.0681774999999999,0.1983784999999999,0.0349415,-0.1351865,-0.0723975,-0.0027004999999999,0.0144085,0.0723975,0.0027004999999999,-0.0144084999999999,-0.1113815,-0.5724955,0.0251135,0.1401585,-0.5639855,0.0236295,-0.1346215,-0.8934155,-0.0306574999999999,0.1587785,-0.8917855,-0.0332264999999999,0
54,-0.0749995,0.7838555,0.0776415,-0.1934775,0.5085355,0.0363845,-0.2312975,0.2429555,0.0218575,0.1404825,0.5301855,-0.0346735,0.2204725,0.2731355,-0.0528505,-0.2224175,0.0327305,-0.0685405,0.1986325,0.0347005,-0.1345005,-0.0723975,-0.0027085,0.0143655,0.0723975,0.0027085,-0.0143654999999999,-0.1114775,-0.5728445,0.0250625,0.1401325,-0.5648145,0.0236065,-0.1347075,-0.8933245,-0.0301424999999999,0.1587025,-0.8921545,-0.0337835,0
55,-0.074877,0.7838185000000001,0.077545,-0.19324,0.5086285,0.035955,-0.2312799999999999,0.2429685,0.021384,0.14053,0.5302685,-0.03464,0.22052,0.2731685,-0.052527,-0.22244,0.0327815,-0.068893,0.19895,0.0344735,-0.133773,-0.072412,-0.0027165,0.014308,0.072412,0.0027165,-0.014308,-0.11155,-0.5732214999999999,0.025023,0.14014,-0.5653414999999999,0.02363,-0.13491,-0.8935715,-0.0302619999999999,0.15865,-0.8918214999999999,-0.033935,0
56,-0.074765,0.7838280000000001,0.0775,-0.192998,0.5086980000000001,0.035518,-0.231278,0.242898,0.02098,0.140582,0.530348,-0.034601,0.220542,0.273198,-0.052208,-0.222448,0.032749,-0.069324,0.199282,0.034267,-0.133054,-0.072432,-0.002723,0.014255,0.072432,0.002723,-0.014255,-0.111618,-0.5736319999999999,0.025011,0.140162,-0.5657819999999999,0.023673,-0.135108,-0.8937419999999999,-0.030327,0.158572,-0.891392,-0.033911,0
57,-0.0746479999999999,0.78384,0.0774695,-0.192848,0.50878,0.0351804999999999,-0.2312779999999999,0.24275,0.0205995,0.140622,0.53043,-0.0345405,0.220572,0.27325,-0.0518255,-0.222488,0.032716,-0.0697965,0.199602,0.034143,-0.1323965,-0.0724559999999999,-0.0027359999999999,0.0142065,0.0724559999999999,0.0027359999999999,-0.0142065,-0.111658,-0.57392,0.0249894999999999,0.140172,-0.56627,0.0236625,-0.135208,-0.89401,-0.0304845,0.158502,-0.89096,-0.0340535,0
58,-0.074542,0.7838769999999999,0.0774595,-0.192664,0.5088469999999999,0.0348235,-0.231304,0.242787,0.0202225,0.140676,0.530517,-0.0344584999999999,0.2206059999999999,0.2732969999999999,-0.0514355,-0.222514,0.032637,-0.0702405,0.1999159999999999,0.034071,-0.1317505,-0.072475,-0.002715,0.0141505,0.072475,0.002715,-0.0141505,-0.111714,-0.574053,0.0249735,0.140156,-0.566553,0.0236195,-0.135314,-0.894073,-0.0306574999999999,0.1583959999999999,-0.890503,-0.0341865,0
59,-0.0744415,0.7840035000000001,0.0775145,-0.1924985,0.5089035000000001,0.0345055,-0.2313485,0.2427234999999999,0.0199265,0.1407215,0.5306035,-0.0344024999999999,0.2206615,0.2733135,-0.0510494999999999,-0.2225285,0.0324955,-0.0705625,0.2002315,0.0340505,-0.1312225,-0.0724905,-0.0026885,0.0140825,0.0724905,0.0026885,-0.0140824999999999,-0.1117585,-0.5741864999999999,0.0249685,0.1401715,-0.5670364999999999,0.0236125,-0.1353685,-0.8941565,-0.0303634999999999,0.1583415,-0.8899365,-0.0336084999999999,0
60,-0.0743465,0.784147,0.0775795,-0.1923305,0.508957,0.0341225,-0.2314004999999999,0.2426569999999999,0.0196295,0.1407695,0.5306770000000001,-0.0343464999999999,0.2206995,0.273347,-0.0506155,-0.2225504999999999,0.0323129999999999,-0.0708635,0.2005695,0.034065,-0.1306834999999999,-0.0725045,-0.002655,0.0140285,0.0725045,0.002655,-0.0140285,-0.1118105,-0.5743229999999999,0.0249595,0.1401695,-0.5674429999999999,0.0235605,-0.1353005,-0.894293,-0.0304744999999999,0.1582895,-0.889713,-0.0332025,0
61,-0.07427,0.784309,0.0776695,-0.19229,0.508939,0.0340295,-0.23144,0.242449,0.0193904999999999,0.14081,0.530729,-0.0342735,0.22072,0.273369,-0.0501724999999999,-0.22257,0.03202,-0.0710365,0.20077,0.034073,-0.1302665,-0.0725079999999999,-0.0026119999999999,0.0139735,0.0725079999999999,0.0026119999999999,-0.0139735,-0.11187,-0.574321,0.0249615,0.14011,-0.5678409999999999,0.0234755,-0.13516,-0.894691,-0.0305674999999999,0.1583,-0.889501,-0.0328765,0
62,-0.0742315,0.7844215,0.0777505,-0.1922535,0.5088915,0.0339375,-0.2314435,0.2423815,0.0192795,0.1408365,0.5307515,-0.0341785,0.2207165,0.2733915,-0.0497294999999999,-0.2225835,0.0319534999999999,-0.0711685,0.2009765,0.0341115,-0.1298385,-0.0725165,-0.0026045,0.0139155,0.0725165,0.0026045,-0.0139155,-0.1118535,-0.5741585,0.0249455,0.1400365,-0.5675785,0.0234525,-0.1351035,-0.8946584999999999,-0.0306594999999999,0.1582765,-0.8894185,-0.0324955,0
63,-0.0741935,0.7845504999999999,0.077854,-0.1922164999999999,0.5088404999999999,0.0338819999999999,-0.2314165,0.2423205,0.0191959999999999,0.1408235,0.5307704999999999,-0.0340549999999999,0.2206635,0.2734105,-0.049282,-0.2225665,0.0319295,-0.0712339999999999,0.2011735,0.0341575,-0.129364,-0.0725224999999999,-0.0025934999999999,0.0138819999999999,0.0725224999999999,0.0025935,-0.0138819999999999,-0.1118164999999999,-0.5740295000000001,0.0249619999999999,0.1400135,-0.5674595,0.0234629999999999,-0.1351465,-0.8947195,-0.031166,0.1581335,-0.8893795000000001,-0.031902,0
64,-0.0741585,0.7846585,0.0779595,-0.1924715,0.5087985,0.0339955,-0.2314315,0.2422385,0.0190784999999999,0.1408185,0.5307585,-0.0338985,0.2205885,0.2733784999999999,-0.0488605,-0.2225415,0.0318685,-0.0712975,0.2013484999999999,0.0341715,-0.1288274999999999,-0.0725145,-0.0025805,0.0138535,0.0725145,0.0025805,-0.0138535,-0.1118115,-0.5739314999999999,0.0249825,0.1399385,-0.5671115,0.0234335,-0.1352014999999999,-0.8948014999999999,-0.0318915,0.1579785,-0.8892915,-0.0312555,0
65,-0.0741895,0.7847545,0.0780035,-0.1926835,0.5087444999999999,0.0341585,-0.2314435,0.2421145,0.0189565,0.1407765,0.5307744999999999,-0.0337154999999999,0.2204965,0.2733645,-0.0484545,-0.2225035,0.0317495,-0.0713655,0.2014965,0.0342084999999999,-0.1283055,-0.0725035,-0.0025654999999999,0.0138175,0.0725035,0.0025655,-0.0138175,-0.1118035,-0.5739855,0.0249865,0.1398465,-0.5668755,0.0234155,-0.1352835,-0.8949955,-0.0327444999999999,0.1578165,-0.8896555,-0.0305825,0
66,-0.074241,0.784819,0.077915,-0.192937,0.5086390000000001,0.034254,-0.231497,0.241979,0.01884,0.140733,0.530729,-0.033565,0.220433,0.273319,-0.048116,-0.222467,0.031654,-0.0714549999999999,0.201633,0.03421,-0.1277849999999999,-0.07249,-0.0025809999999999,0.013776,0.07249,0.002581,-0.013776,-0.111757,-0.574081,0.024971,0.1397729999999999,-0.5660109999999999,0.02337,-0.135247,-0.8953409999999999,-0.033683,0.1578429999999999,-0.889941,-0.029897,0
67,-0.074255,0.78488,0.0778254999999999,-0.193173,0.5085400000000001,0.0342795,-0.231553,0.24187,0.0187135,0.140677,0.53071,-0.0333895,0.220377,0.2733,-0.0477835,-0.222433,0.031565,-0.0715445,0.201807,0.034274,-0.1272845,-0.072472,-0.002599,0.0137285,0.072472,0.0025989999999999,-0.0137284999999999,-0.111723,-0.57416,0.0249545,0.139647,-0.5649,0.0232575,-0.135203,-0.8957299999999999,-0.0343315,0.157877,-0.89025,-0.0299865,0
68,-0.0742555,0.784851,0.077719,-0.1936135,0.508491,0.03448,-0.2316135,0.241751,0.01859,0.1406764999999999,0.530701,-0.033176,0.2203764999999999,0.273301,-0.047486,-0.2223935,0.031486,-0.0716209999999999,0.2019564999999999,0.034344,-0.126791,-0.0724725,-0.0026119999999999,0.013673,0.0724725,0.002612,-0.013673,-0.1117035,-0.574229,0.024918,0.1394965,-0.563599,0.023135,-0.1352135,-0.896119,-0.0348659999999999,0.1578764999999999,-0.890589,-0.0300929999999999,0
69,-0.0742585,0.784806,0.0775755,-0.1940464999999999,0.508426,0.0345045,-0.2317265,0.2416859999999999,0.0185045,0.1406735,0.5306960000000001,-0.0329524999999999,0.2203735,0.273306,-0.0471945,-0.2223764999999999,0.031505,-0.0716415,0.2020835,0.034469,-0.1264115,-0.0724705,-0.002661,0.0135855,0.0724705,0.002661,-0.0135855,-0.1116965,-0.574334,0.0248495,0.1394935,-0.5633739999999999,0.0229945,-0.1351365,-0.8964639999999999,-0.0351854999999999,0.1579135,-0.8907039999999999,-0.0302344999999999,0
70,-0.074268,0.7848820000000001,0.076962,-0.194494,0.5083120000000001,0.03445,-0.231844,0.241562,0.018425,0.140676,0.5307120000000001,-0.032652,0.220376,0.273332,-0.046734,-0.222344,0.031668,-0.071647,0.202316,0.034782,-0.1259469999999999,-0.072472,-0.002715,0.013485,0.072472,0.002715,-0.0134849999999999,-0.111694,-0.574468,0.024767,0.139486,-0.5632879999999999,0.0228389999999999,-0.135064,-0.896728,-0.035439,0.157996,-0.8911079999999999,-0.0310189999999999,0
71,-0.0741015,0.7851065,0.0758535,-0.1949295,0.5082065,0.0343135,-0.2319495,0.2413965,0.0183144999999999,0.1406704999999999,0.5307165,-0.0320855,0.2204205,0.2733665,-0.0458755,-0.2222595,0.0317655,-0.0715745,0.2027004999999999,0.0352785,-0.1252545,-0.0724694999999999,-0.0027805,0.0133315,0.0724694999999999,0.0027805,-0.0133315,-0.1116795,-0.5746335,0.0246795,0.1394705,-0.5632334999999999,0.0226815,-0.1349795,-0.8969035,-0.0355975,0.1580504999999999,-0.8914335,-0.0315605,0
72,-0.0736489999999999,0.7854709999999999,0.07447,-0.195414,0.508041,0.034134,-0.232304,0.241271,0.01831,0.140756,0.530621,-0.031299,0.220536,0.273411,-0.044528,-0.222164,0.031504,-0.071505,0.203476,0.035031,-0.124005,-0.072472,-0.002861,0.013151,0.072472,0.002861,-0.013151,-0.111724,-0.574909,0.024574,0.139526,-0.563469,0.0226789999999999,-0.134914,-0.897139,-0.035779,0.158116,-0.891889,-0.032187,0
73,-0.0726345,0.785817,0.0724674999999999,-0.1959834999999999,0.5078469999999999,0.0338975,-0.2328135,0.241067,0.0184125,0.1408665,0.530277,-0.0303785,0.2209165,0.273297,-0.0422564999999999,-0.2220535,0.0311049999999999,-0.0714735,0.2047165,0.034647,-0.1220435,-0.0725205,-0.0030369999999999,0.0129095,0.0725205,0.003037,-0.0129094999999999,-0.1118935,-0.575593,0.0244355,0.1395165,-0.5641130000000001,0.0226045,-0.1349735,-0.897483,-0.0360175,0.1580165,-0.8924030000000001,-0.0328815,0
74,-0.0711285,0.786155,0.0698405,-0.1967545,0.507685,0.0336325,-0.2334745,0.240885,0.0185155,0.1409055,0.5298050000000001,-0.0293794999999999,0.2213155,0.2729049999999999,-0.0395785,-0.2219845,0.030547,-0.0714004999999999,0.2064655,0.034149,-0.1191004999999999,-0.0725625,-0.0032089999999999,0.0126415,0.0725625,0.003209,-0.0126415,-0.1122345,-0.5764549999999999,0.0242555,0.1392655,-0.564585,0.0224475,-0.1352145,-0.897955,-0.0362855,0.1577055,-0.893015,-0.0333925,0
75,-0.0691265,0.7867824999999999,0.066868,-0.1974925,0.5075925,0.0332919999999999,-0.2342925,0.2407725,0.0183479999999999,0.1410575,0.5292725,-0.028184,0.2218175,0.2723724999999999,-0.036381,-0.2218825,0.0299285,-0.071032,0.2089675,0.0335725,-0.114952,-0.0725955,-0.0033374999999999,0.012301,0.0725955,0.0033375,-0.012301,-0.1127525,-0.5773675,0.024092,0.1389274999999999,-0.5658275,0.0223359999999999,-0.1357025,-0.8986975,-0.036697,0.1571975,-0.8936875,-0.033778,0
76,-0.0666305,0.7874485,0.0636425,-0.1982715,0.5076285,0.0324025,-0.2352615,0.2408185,0.0179524999999999,0.1412985,0.5287485,-0.0268385,0.2223784999999999,0.2718784999999999,-0.0328445,-0.2223715,0.0289905,-0.0699595,0.2120884999999999,0.0324305,-0.1095064999999999,-0.0726395,-0.0034385,0.0118605,0.0726395,0.0034385,-0.0118605,-0.1133615,-0.5781515,0.0238985,0.1384584999999999,-0.5675015,0.0221705,-0.1363715,-0.8991615000000001,-0.0372605,0.1564684999999999,-0.8945115,-0.0340995,0
77,-0.06389,0.788277,0.0605789999999999,-0.198957,0.507967,0.0312409999999999,-0.236327,0.2412069999999999,0.017511,0.1416329999999999,0.528127,-0.025401,0.2230629999999999,0.271447,-0.030583,-0.223047,0.028055,-0.070306,0.216203,0.030869,-0.1059929999999999,-0.0727059999999999,-0.003495,0.01134,0.0727059999999999,0.003495,-0.01134,-0.1140569999999999,-0.578593,0.023663,0.137873,-0.568543,0.021965,-0.137207,-0.899503,-0.038163,0.155823,-0.895313,-0.03462,0
78,-0.0609045,0.789331,0.057942,-0.1996595,0.5083310000000001,0.029488,-0.2373395,0.241751,0.016963,0.1421205,0.5274110000000001,-0.023896,0.2238705,0.2714209999999999,-0.030182,-0.2237495,0.026979,-0.0707599999999999,0.2209205,0.030419,-0.106467,-0.0727885,-0.003459,0.010705,0.0727885,0.003459,-0.010705,-0.1147895,-0.5788989999999999,0.023314,0.1371705,-0.569479,0.021661,-0.1380095,-0.8995489999999999,-0.038487,0.1552305,-0.895979,-0.035424,0
79,-0.0576959999999999,0.790375,0.055992,-0.200357,0.508765,0.027257,-0.238537,0.242325,0.015386,0.142723,0.526555,-0.0224539999999999,0.225003,0.271425,-0.030791,-0.224437,0.027087,-0.071361,0.2266429999999999,0.030668,-0.1070979999999999,-0.072852,-0.0034359999999999,0.01011,0.072852,0.003436,-0.01011,-0.1155369999999999,-0.579205,0.022824,0.136543,-0.570655,0.021225,-0.138807,-0.899795,-0.0389859999999999,0.1545929999999999,-0.896555,-0.036039,0
80,-0.0544255,0.791335,0.0550845,-0.2008875,0.509215,0.0243485,-0.2402075,0.242985,0.0114545,0.1433124999999999,0.526025,-0.0213345,0.2267725,0.271535,-0.0315385,-0.2266175,0.027252,-0.0729485,0.2351025,0.031098,-0.1078745,-0.0729124999999999,-0.003388,0.0093725,0.0729124999999999,0.003388,-0.0093724999999999,-0.1162175,-0.579495,0.0222075,0.1359425,-0.572165,0.0206515,-0.1395875,-0.899995,-0.0391834999999999,0.1539724999999999,-0.897075,-0.0367855,0
81,-0.051026,0.792335,0.0540309999999999,-0.201089,0.509925,0.020697,-0.243159,0.245425,0.0031609999999999,0.143901,0.525625,-0.020594,0.229631,0.271895,-0.03259,-0.231209,0.027618,-0.080081,0.246361,0.031799,-0.110581,-0.072984,-0.003388,0.0083559999999999,0.072984,0.003388,-0.008356,-0.116909,-0.579705,0.0213289999999999,0.135371,-0.573165,0.01969,-0.140459,-0.899855,-0.039667,0.153391,-0.897435,-0.037829,0
82,-0.0479725,0.793095,0.052798,-0.2009065,0.510585,0.016559,-0.2470565,0.2488449999999999,-0.008915,0.1444534999999999,0.525315,-0.020078,0.2337634999999999,0.273465,-0.036653,-0.2374065,0.028287,-0.094508,0.2596935,0.03465,-0.119778,-0.0730255,-0.003388,0.007306,0.0730255,0.003388,-0.007306,-0.1175065,-0.579885,0.020277,0.1349135,-0.574085,0.018505,-0.1412665,-0.899695,-0.040666,0.1528935,-0.897435,-0.0388679999999999,0
83,-0.0450104999999999,0.7938569999999999,0.051285,-0.2003795,0.511027,0.012154,-0.2524795,0.255947,-0.025672,0.1450705,0.5253869999999999,-0.019255,0.2394405,0.2782869999999999,-0.044717,-0.2465895,0.033788,-0.117167,0.2750505,0.043038,-0.137047,-0.0730855,-0.00336,0.006198,0.0730855,0.00336,-0.0061979999999999,-0.1179995,-0.580103,0.019014,0.1345905,-0.575043,0.017056,-0.1419395,-0.899563,-0.041926,0.1525705,-0.8976930000000001,-0.0403669999999999,0
84,-0.042433,0.7940269999999999,0.0503995,-0.199165,0.511187,0.0080415,-0.257885,0.2684269999999999,-0.0448274999999999,0.1455749999999999,0.5251669999999999,-0.0183925,0.245085,0.288157,-0.0546025,-0.257465,0.0485359999999999,-0.1464795,0.290445,0.062467,-0.1589195,-0.073134,-0.0033299999999999,0.0050324999999999,0.073134,0.0033299999999999,-0.0050324999999999,-0.118395,-0.580543,0.0175625,0.134305,-0.575263,0.0153575,-0.142395,-0.899813,-0.0435664999999999,0.152355,-0.8983530000000001,-0.0420794999999999,0
85,-0.0402325,0.794228,0.0503744999999999,-0.1974805,0.511398,0.0043294999999999,-0.2634805,0.286118,-0.0650295,0.1459794999999999,0.524948,-0.0176365,0.2507295,0.303698,-0.0664595,-0.2700504999999999,0.0776169999999999,-0.1777425,0.3056995,0.0922419999999999,-0.1842825,-0.0731875,-0.003311,0.0038864999999999,0.0731875,0.0033109999999999,-0.0038865,-0.1187005,-0.580522,0.0160545,0.1340894999999999,-0.576542,0.0136174999999999,-0.1429004999999999,-0.900102,-0.0459005,0.1522295,-0.8990319999999999,-0.0438324999999999,0
86,-0.0381264999999999,0.7942755,0.0512305,-0.1954765,0.5117855,0.0007764999999999,-0.2697765,0.3062855,-0.0864865,0.1463235,0.5252455,-0.0161625,0.2567635,0.3237955,-0.0800005,-0.2845965,0.1206455,-0.2114265,0.3202735,0.1312654999999999,-0.2118165,-0.0732115,-0.0032845,0.0028314999999999,0.0732115,0.0032844999999999,-0.0028315,-0.1189765,-0.5803645,0.0144734999999999,0.1339035,-0.5773645,0.0118424999999999,-0.1433765,-0.9003445,-0.0481625,0.1523535,-0.8996645,-0.0462905,0
87,-0.0362305,0.794308,0.0526149999999999,-0.1930295,0.513108,-0.0025819999999999,-0.2768595,0.333548,-0.107847,0.1465405,0.526158,-0.0145849999999999,0.2635705,0.349098,-0.094737,-0.3004895,0.168398,-0.2457269999999999,0.3338605,0.181998,-0.241857,-0.0732445,-0.0032799999999999,0.001873,0.0732445,0.00328,-0.0018729999999999,-0.1192795,-0.580222,0.012855,0.1336605,-0.578052,0.010375,-0.1437695,-0.9005219999999999,-0.050473,0.1523905,-0.899992,-0.048677,0
88,-0.034471,0.7942944999999999,0.0543079999999999,-0.19051,0.5145945,-0.0055429999999999,-0.2841599999999999,0.3644445,-0.1285919999999999,0.14673,0.5278845,-0.012711,0.27095,0.3806545,-0.111672,-0.31633,0.2260445,-0.281282,0.344,0.2438745,-0.2725619999999999,-0.073264,-0.0030864999999999,0.0009729999999999,0.073264,0.0030865,-0.0009729999999999,-0.1196,-0.5803755,0.0112789999999999,0.13337,-0.5789155,0.009068,-0.14406,-0.9009655,-0.0532229999999999,0.15236,-0.9004855,-0.0510429999999999,0
89,-0.0329015,0.7939314999999999,0.0560555,-0.1877424999999999,0.5162015,-0.0078205,-0.2921225,0.4013115,-0.1455245,0.1469675,0.5302115,-0.0103954999999999,0.2777075,0.4169815,-0.1263745,-0.3304025,0.2949115,-0.3120145,0.3493175,0.3177615,-0.2999345,-0.0733005,-0.0027765,0.0001864999999999,0.0733005,0.0027765,-0.0001864999999999,-0.1199425,-0.5809085,0.0098675,0.1330775,-0.5801185000000001,0.0079294999999999,-0.1443924999999999,-0.9017885,-0.0559505,0.1523275,-0.9013185,-0.0534695,0
90,-0.0316295,0.7932760000000001,0.05776,-0.1852995,0.5178360000000001,-0.0093529999999999,-0.2991295,0.442326,-0.156075,0.1473205,0.5330060000000001,-0.007741,0.2818105,0.458756,-0.136665,-0.3416995,0.3744159999999999,-0.332945,0.3495105,0.401936,-0.316935,-0.0732675,-0.0026159999999999,-0.000299,0.0732675,0.002616,0.000299,-0.1202795,-0.581764,0.00878,0.1328105,-0.581664,0.007141,-0.1446994999999999,-0.902644,-0.057451,0.1521305,-0.902504,-0.055334,0
91,-0.0305145,0.792101,0.0593215,-0.1831125,0.520111,-0.0104614999999999,-0.3042324999999999,0.487091,-0.1609215,0.1480175,0.5362410000000001,-0.0048554999999999,0.2822275,0.504471,-0.1414615,-0.3507925,0.462171,-0.3412314999999999,0.3492475,0.488261,-0.3227115,-0.0731775,-0.002314,-0.0007514999999999,0.0731775,0.002314,0.0007515,-0.1206025,-0.5832189999999999,0.0080155,0.1325075,-0.583789,0.0067595,-0.1450425,-0.904569,-0.0593315,0.1518874999999999,-0.904199,-0.0569415,0
92,-0.0298375,0.7897585,0.0603775,-0.1812805,0.5218885,-0.0111175,-0.3076505,0.5298285,-0.1614315,0.1483995,0.5392485,-0.0024965,0.2818695,0.5489185,-0.1419915,-0.3569005,0.5504885,-0.3417415,0.3488895,0.5772885,-0.3232415,-0.0731175,-0.0027174999999999,-0.0012835,0.0731175,0.0027174999999999,0.0012835,-0.1210205,-0.5859515,0.0076765,0.1321195,-0.5869715,0.0069055,-0.1454805,-0.9069615,-0.0598225,0.1515195,-0.9072415,-0.0579455,0
93,-0.029258,0.787374,0.0606655,-0.180013,0.5242840000000001,-0.0114904999999999,-0.310793,0.5696640000000001,-0.1617475,0.148737,0.542164,-0.0002754999999999,0.281477,0.591064,-0.1423174999999999,-0.361253,0.6341140000000001,-0.3420475,0.348497,0.6596040000000001,-0.3235675,-0.073052,-0.0031,-0.0016115,0.073052,0.0031,0.0016115,-0.121453,-0.588896,0.0074965,0.131717,-0.590326,0.0072315,-0.145943,-0.909506,-0.0597855,0.151187,-0.910216,-0.0585625,0
94,-0.0286605,0.7848595,0.0606865,-0.1790685,0.5264895,-0.0112094999999999,-0.3135885,0.6057595,-0.1617964999999999,0.1491615,0.5451695,0.0021925,0.2810915,0.6296795000000001,-0.1423765,-0.3640485,0.7073295,-0.3420964999999999,0.3437914999999999,0.7357795,-0.3236064999999999,-0.0730285,-0.0035525,-0.0016725,0.0730285,0.0035525,0.0016725,-0.1218585,-0.5920504999999999,0.0075545,0.1313315,-0.5934605,0.0077765,-0.1464485,-0.9121205,-0.0595564999999999,0.1508515,-0.9130805,-0.0586885,0
95,-0.0281359999999999,0.7819280000000001,0.0606914999999999,-0.178399,0.528638,-0.0108135,-0.315869,0.640288,-0.1596975,0.149471,0.547528,0.0037815,0.279011,0.664948,-0.1417775,-0.365249,0.7682680000000001,-0.3390375,0.334931,0.805338,-0.3173375,-0.072941,-0.0038099999999999,-0.0016804999999999,0.072941,0.00381,0.0016805,-0.122289,-0.595362,0.0076315,0.130911,-0.596952,0.0083045,-0.146879,-0.915332,-0.0595474999999999,0.1504909999999999,-0.916152,-0.0587085,0
96,-0.0275705,0.779142,0.0609735,-0.1783015,0.529612,-0.0104835,-0.3178315,0.668342,-0.1537115,0.1497085,0.549192,0.0052235,0.2757385,0.695992,-0.1383915,-0.3662215,0.826982,-0.3241415,0.3239985,0.865372,-0.3040215,-0.0727575,-0.004188,-0.0019655,0.0727575,0.004188,0.0019655,-0.1227015,-0.598958,0.0079175,0.1304985,-0.600818,0.0086865,-0.1472115,-0.918958,-0.0592614999999999,0.1500685,-0.919938,-0.0585355,0
97,-0.0271299999999999,0.776401,0.061378,-0.178308,0.530281,-0.010078,-0.320288,0.6930609999999999,-0.145434,0.149842,0.550531,0.006144,0.271792,0.7217509999999999,-0.133214,-0.368128,0.876751,-0.305604,0.311662,0.916071,-0.285224,-0.072585,-0.004774,-0.0023719999999999,0.072585,0.004774,0.002372,-0.123048,-0.602599,0.008332,0.130142,-0.604599,0.009163,-0.147468,-0.922739,-0.0588549999999999,0.149752,-0.923669,-0.058128,0
98,-0.0267939999999999,0.7738115,0.0616085,-0.178695,0.5308115,-0.0093985,-0.3225449999999999,0.7111815,-0.1342645,0.149775,0.5517215,0.0070805,0.266615,0.7437015,-0.1256644999999999,-0.370025,0.9155015,-0.2815645,0.297615,0.9563715,-0.2628344999999999,-0.072297,-0.0052285,-0.0029695,0.072297,0.0052284999999999,0.0029695,-0.123475,-0.6060884999999999,0.0090115,0.129745,-0.6082784999999999,0.0098424999999999,-0.147805,-0.9262985,-0.0581825,0.149255,-0.9269285,-0.0568874999999999,0
99,-0.026509,0.7713745,0.061663,-0.179064,0.5313745,-0.0084479999999999,-0.324884,0.7223445,-0.1224119999999999,0.149666,0.5531645,0.008112,0.259886,0.7608945,-0.116572,-0.372704,0.9434245,-0.256112,0.283106,0.9864245,-0.240832,-0.071989,-0.0054194999999999,-0.0035969999999999,0.071989,0.0054195,0.003597,-0.123874,-0.6094555,0.01004,0.129376,-0.6118555,0.010875,-0.148234,-0.9295555,-0.057071,0.148776,-0.9304855,-0.055365,0
100,-0.026292,0.7691545000000001,0.061632,-0.179395,0.5311045,-0.007316,-0.327445,0.7258145,-0.10928,0.149415,0.5542545,0.009373,0.251715,0.7730445,-0.10482,-0.374515,0.9585845,-0.22768,0.270035,1.0116045,-0.21533,-0.071725,-0.0059605,-0.004087,0.071725,0.0059605,0.0040869999999999,-0.124135,-0.6132055,0.011136,0.1291149999999999,-0.6153155,0.0120609999999999,-0.148565,-0.9335855,-0.055741,0.1483749999999999,-0.9340855,-0.0537879999999999,0
101,-0.026083,0.7675665,0.061655,-0.179625,0.5309765,-0.0059719999999999,-0.330435,0.7266065,-0.095668,0.149235,0.5553465,0.010839,0.243245,0.7832765,-0.0932379999999999,-0.374965,0.9671765,-0.199268,0.258585,1.0283765,-0.189978,-0.071461,-0.0059845,-0.0044529999999999,0.071461,0.0059844999999999,0.004453,-0.124315,-0.6162335,0.012454,0.128915,-0.6178735,0.013464,-0.148755,-0.9371735,-0.054627,0.1479649999999999,-0.9366235,-0.0518729999999999,0
102,-0.0259635,0.7659415,0.0615465,-0.1799875,0.5300015,-0.0045254999999999,-0.3334575,0.7238115,-0.0830315,0.1490625,0.5578115,0.0120795,0.2362725,0.7920615,-0.0835544999999999,-0.3767574999999999,0.9701115,-0.1725185,0.2488625,1.0421115,-0.1682185,-0.0711475,-0.0061485,-0.0048255,0.0711475,0.0061485,0.0048255,-0.1244575,-0.6193985,0.0137745,0.1287425,-0.6203585,0.0148165,-0.1489975,-0.9406085,-0.0533214999999999,0.1476025,-0.9399885,-0.0503634999999999,0
103,-0.0260419999999999,0.764127,0.061592,-0.180392,0.528897,-0.003209,-0.338322,0.720727,-0.0703449999999999,0.148678,0.5602269999999999,0.013283,0.231368,0.798697,-0.075046,-0.380132,0.968627,-0.1490699999999999,0.241068,1.051927,-0.15016,-0.07081,-0.006225,-0.005166,0.07081,0.0062249999999999,0.0051659999999999,-0.124662,-0.622453,0.015135,0.128538,-0.622743,0.016145,-0.1493519999999999,-0.943393,-0.050691,0.147218,-0.943403,-0.04894,0
104,-0.0263279999999999,0.762478,0.061724,-0.180817,0.5277179999999999,-0.002019,-0.344097,0.717908,-0.058954,0.148253,0.562688,0.01434,0.227113,0.8045779999999999,-0.067224,-0.3860869999999999,0.965808,-0.127357,0.234603,1.059908,-0.134087,-0.070502,-0.006511,-0.0052879999999999,0.070502,0.006511,0.005288,-0.1248469999999999,-0.6252420000000001,0.01638,0.1283129999999999,-0.6247520000000001,0.017362,-0.149657,-0.945762,-0.048756,0.1467129999999999,-0.945562,-0.0473219999999999,0
105,-0.0267089999999999,0.7610195000000001,0.0617765,-0.181018,0.5267795000000001,-0.0009665,-0.350708,0.7154995000000001,-0.0489314999999999,0.147822,0.5655595,0.0152754999999999,0.223982,0.8097995,-0.0607824999999999,-0.393708,0.9633995,-0.1100645,0.229392,1.0666995,-0.1207745,-0.070181,-0.0066285,-0.0052605,0.070181,0.0066285,0.0052604999999999,-0.125018,-0.6276205,0.0174024999999999,0.128092,-0.6263405,0.0184014999999999,-0.149918,-0.9477405,-0.0469815,0.146442,-0.9472005,-0.0457015,0
106,-0.0272055,0.759759,0.061794,-0.1812705,0.525989,-8.499999999999827e-05,-0.3585105,0.711719,-0.039823,0.1473295,0.568269,0.016066,0.2214195,0.814409,-0.054968,-0.4030505,0.961459,-0.093764,0.2250395,1.0724589999999998,-0.1091939999999999,-0.0698874999999999,-0.0064899999999999,-0.0053659999999999,0.0698874999999999,0.00649,0.005366,-0.1252305,-0.629271,0.018249,0.1278695,-0.627501,0.019226,-0.1502005,-0.949261,-0.045407,0.1460695,-0.948331,-0.0442579999999999,0
107,-0.027662,0.758591,0.0618084999999999,-0.181543,0.525151,0.0007324999999999,-0.366533,0.706801,-0.0314795,0.1470769999999999,0.570681,0.0170475,0.219377,0.8183210000000001,-0.0498505,-0.4133529999999999,0.959091,-0.0791555,0.222007,1.077191,-0.0994115,-0.069744,-0.006564,-0.0053115,0.069744,0.006564,0.0053114999999999,-0.125403,-0.6307389999999999,0.0190235,0.127727,-0.6284689999999999,0.0199785,-0.150533,-0.951169,-0.0439485,0.145737,-0.949419,-0.0429885,0
108,-0.0281195,0.7575259999999999,0.061985,-0.1818455,0.5241859999999999,0.0014239999999999,-0.3741755,0.7011259999999999,-0.023659,0.1467945,0.5725359999999999,0.017835,0.2179845,0.821356,-0.045483,-0.4247455,0.950756,-0.065563,0.2196545,1.080856,-0.090892,-0.0696664999999999,-0.0068189999999999,-0.005087,0.0696664999999999,0.0068189999999999,0.0050869999999999,-0.1255455,-0.632104,0.0197269999999999,0.1276045,-0.629214,0.020668,-0.1508455,-0.953234,-0.042899,0.1454545,-0.950344,-0.041804,0
109,-0.0286114999999999,0.7567025,0.062247,-0.1822805,0.5233025,0.0022759999999999,-0.3805305,0.6952825,-0.016895,0.1464694999999999,0.5743825,0.0184049999999999,0.2170895,0.8240425,-0.041864,-0.4350305,0.9427925,-0.054532,0.2181595,1.0839925,-0.08422,-0.0696365,-0.0068825,-0.004948,0.0696365,0.0068825,0.0049479999999999,-0.1257205,-0.6329675,0.020311,0.1273895,-0.6295875000000001,0.0213,-0.1511604999999999,-0.9547275,-0.041789,0.1451295,-0.9508975,-0.040841,0
110,-0.0291845,0.7560754999999999,0.0623434999999999,-0.1827514999999999,0.5230454999999999,0.0029124999999999,-0.3857615,0.6903655,-0.0113135,0.1460985,0.5771054999999999,0.0185695,0.2163885,0.8273554999999999,-0.0389225,-0.4443115,0.9344355,-0.0454135,0.2170385,1.0875655,-0.0786335,-0.0696145,-0.0066904999999999,-0.0048435,0.0696145,0.0066904999999999,0.0048435,-0.1259415,-0.6337045,0.0206925,0.1271385,-0.6297645000000001,0.0217415,-0.1515314999999999,-0.9560145,-0.0415715,0.1448085,-0.9512545,-0.0399865,0
111,-0.0298485,0.7553365,0.0624295,-0.1832025,0.5227865,0.0035064999999999,-0.3897525,0.6861965,-0.0066895,0.1457175,0.5782065,0.0188035,0.2157075,0.8288665,-0.0365264999999999,-0.4517525,0.9261165,-0.0389765,0.2161975,1.0893865,-0.0740405,-0.0696515,-0.0064495,-0.0047304999999999,0.0696515,0.0064495,0.0047304999999999,-0.1261725,-0.6345835,0.0210355,0.1268975,-0.6299935,0.0221545,-0.1519025,-0.9573435,-0.0414125,0.1446275,-0.9521335,-0.0394674999999999,0
112,-0.030514,0.7550884999999999,0.0622665,-0.183561,0.5227485,0.0038515,-0.391351,0.6845285,-0.0039704999999999,0.145379,0.5792284999999999,0.0188465,0.215109,0.8302185,-0.0347945,-0.4578509999999999,0.9201385,-0.0345295,0.215579,1.0908385,-0.0707074999999999,-0.069716,-0.0062015,-0.0047724999999999,0.069716,0.0062014999999999,0.0047724999999999,-0.126411,-0.6349715,0.0210935,0.126589,-0.6302415,0.0223315,-0.152401,-0.9580115,-0.0415865,0.144349,-0.9532915,-0.0408265,0
113,-0.0312385,0.7549199999999999,0.061948,-0.1838415,0.52264,0.0040089999999999,-0.3928815,0.6832499999999999,-0.001686,0.1450685,0.58004,0.018649,0.2145685,0.83124,-0.033782,-0.4625215,0.91464,-0.031115,0.2151485,1.09187,-0.069224,-0.0697415,-0.006033,-0.004778,0.0697415,0.006033,0.004778,-0.1266315,-0.6353300000000001,0.020969,0.1262185,-0.63041,0.022287,-0.1527815,-0.95861,-0.042001,0.1441285,-0.95464,-0.042296,0
114,-0.031904,0.7548865,0.061609,-0.184075,0.5225465,0.0040979999999999,-0.3938649999999999,0.6825565,5.899999999999656e-05,0.144835,0.5807565,0.0183609999999999,0.2141549999999999,0.8321365,-0.033228,-0.465615,0.9099765,-0.028681,0.2147949999999999,1.0928465,-0.068261,-0.0697899999999999,-0.0060095,-0.004778,0.0697899999999999,0.0060095,0.0047779999999999,-0.126775,-0.6355635000000001,0.020782,0.125925,-0.6304335,0.022163,-0.153135,-0.9591235,-0.042497,0.144085,-0.9553235,-0.042702,0
115,-0.03261,0.754675,0.0612385,-0.1842099999999999,0.522575,0.0039974999999999,-0.39441,0.682045,0.0009524999999999,0.14462,0.5813250000000001,0.0180725,0.21386,0.832765,-0.0332265,-0.46741,0.906055,-0.0272065,0.21448,1.093555,-0.0677115,-0.069867,-0.0059009999999999,-0.0047775,0.069867,0.005901,0.0047775,-0.12693,-0.6354150000000001,0.0205655,0.12566,-0.6305749999999999,0.0219735,-0.15331,-0.959155,-0.0426465,0.14402,-0.955895,-0.0431465,0
116,-0.0333124999999999,0.754408,0.060782,-0.1845025,0.522658,0.003994,-0.3949525,0.681488,0.001336,0.1444775,0.5816979999999999,0.0177809999999999,0.2136675,0.832988,-0.033226,-0.4676924999999999,0.902428,-0.026677,0.2142875,1.093748,-0.067711,-0.0699025,-0.005808,-0.004777,0.0699025,0.005808,0.004777,-0.1270224999999999,-0.635322,0.020233,0.1254475,-0.630042,0.021431,-0.1535125,-0.958522,-0.042607,0.1440775,-0.956662,-0.044282,0
117,-0.0341745,0.7539585,0.0598765,-0.1847695,0.5226585,0.0036694999999999,-0.3954995,0.6809585,0.0010294999999999,0.1442804999999999,0.5818285,0.0171775,0.2134405,0.8330685,-0.0335334999999999,-0.4679195,0.9016385,-0.0269844999999999,0.2140905,1.0938285,-0.0680185,-0.0698715,-0.0057275,-0.0046835,0.0698715,0.0057274999999999,0.0046835,-0.1272595,-0.6351015,0.0191495,0.1251005,-0.6294715,0.0196045,-0.1538195,-0.9580515,-0.0429835,0.1440604999999999,-0.9560515,-0.0438925,0
118,-0.035148,0.7537765,0.0584965,-0.184993,0.5223965,0.0028625,-0.396163,0.6802965,0.0003265,0.144087,0.5822765,0.0161154999999999,0.213217,0.8335165,-0.0342975,-0.468143,0.9020865,-0.0276895,0.213887,1.0942765,-0.0687235,-0.0698469999999999,-0.0056374999999999,-0.0047075,0.0698469999999999,0.0056375,0.0047075,-0.127493,-0.6343435,0.0166475,0.124817,-0.6285135,0.0162285,-0.154103,-0.9571835,-0.0434905,0.143957,-0.9542735,-0.0439575,0
119,-0.036348,0.753116,0.0565345,-0.185449,0.522146,0.0016225,-0.396809,0.679666,-0.0007454999999999,0.143901,0.582886,0.0148015,0.213321,0.834126,-0.0362435,-0.468369,0.901966,-0.0287634999999999,0.213701,1.094886,-0.0701894999999999,-0.06983,-0.005531,-0.0046444999999999,0.06983,0.005531,0.0046445,-0.127739,-0.6273139999999999,0.0107805,0.124591,-0.6227739999999999,0.0091715,-0.154389,-0.956284,-0.0449865,0.143841,-0.953664,-0.0457954999999999,0
120,-0.037633,0.7523005,0.053688,-0.185853,0.5217505,-0.000277,-0.397363,0.6785805,-0.002588,0.143707,0.5838605,0.0128139999999999,0.213137,0.8348705000000001,-0.039034,-0.466853,0.9025405,-0.030903,0.2134569999999999,1.0957605,-0.072535,-0.0698739999999999,-0.0053125,-0.004575,0.0698739999999999,0.0053125,0.0045749999999999,-0.128173,-0.6241595,0.0040009999999999,0.124417,-0.6156995,0.0009939999999999,-0.154643,-0.9552595,-0.0475219999999999,0.1436569999999999,-0.9525695,-0.048523,0
121,-0.0388725,0.7507775,0.049654,-0.1861345,0.5208975,-0.0029709999999999,-0.3975345,0.6766475,-0.005634,0.1434855,0.5850275,0.010232,0.2131655,0.8344675,-0.0430679999999999,-0.4647945,0.9022975,-0.0343,0.2132855,1.0953375,-0.075846,-0.0699225,-0.0051275,-0.0043599999999999,0.0699225,0.0051275,0.00436,-0.1289644999999999,-0.6159525,-0.0045959999999999,0.1242254999999999,-0.6074325,-0.008885,-0.1549745,-0.9536625,-0.050508,0.1434855,-0.9510425,-0.0517559999999999,0
122,-0.040151,0.7467845000000001,0.0450145,-0.186559,0.5187445,-0.0060505,-0.397779,0.6733145,-0.0097005,0.143181,0.5855145,0.0055644999999999,0.213281,0.8321045,-0.0479985,-0.462889,0.8990245,-0.0388175,0.213071,1.0930845,-0.0795335,-0.069939,-0.0050185,-0.0040005,0.069939,0.0050185,0.0040004999999999,-0.130119,-0.6063255,-0.0138645,0.124251,-0.5988055,-0.0203865,-0.155529,-0.9508855,-0.0533945,0.143291,-0.9490055,-0.0553505,0
123,-0.0418295,0.7444065,0.03993,-0.1869855,0.5169065,-0.010841,-0.3978255,0.6713365,-0.0143329999999999,0.1421545,0.5790565,-0.0016439999999999,0.2134345,0.8258865,-0.053092,-0.4611055,0.8982865,-0.043451,0.2128845,1.0869565,-0.083294,-0.0699115,-0.0050414999999999,-0.003445,0.0699115,0.0050414999999999,0.003445,-0.1328755,-0.5933235,-0.025331,0.1243445,-0.5866135,-0.03303,-0.1562055,-0.9446035,-0.056161,0.1430944999999999,-0.9431635,-0.058253,0
124,-0.043519,0.7404155,0.0347485,-0.1873449999999999,0.5147155,-0.0153445,-0.3978049999999999,0.6672055,-0.0187875,0.141675,0.5732455,-0.0080525,0.213715,0.8199854999999999,-0.0576165,-0.459605,0.8963455,-0.0478615,0.212775,1.0812055,-0.0865655,-0.069882,-0.0049624999999999,-0.0030115,0.069882,0.0049625,0.0030115,-0.136015,-0.5793345000000001,-0.0376424999999999,0.124625,-0.5733245,-0.0458735,-0.156955,-0.9368545,-0.0583085,0.1428249999999999,-0.9361945,-0.0603885,0
125,-0.045425,0.7363795000000001,0.0298254999999999,-0.187724,0.5130495,-0.0194115,-0.398354,0.6631995,-0.0232505,0.140266,0.5684395000000001,-0.0139685,0.213116,0.8150395,-0.0619975,-0.4584939999999999,0.8943895000000001,-0.0525305,0.2124859999999999,1.0764095,-0.0898525,-0.070003,-0.0048474999999999,-0.0026215,0.070003,0.0048474999999999,0.0026215,-0.139664,-0.5666304999999999,-0.0497335,0.124636,-0.5612305,-0.0602344999999999,-0.157964,-0.9299605,-0.0599245,0.1423259999999999,-0.9295405,-0.0616904999999999,1
126,-0.0472925,0.730819,0.0251895,-0.1883445,0.511809,-0.0234044999999999,-0.3990545,0.658919,-0.0280004999999999,0.1386155,0.564599,-0.0195715,0.2123054999999999,0.810959,-0.0666875,-0.4576345,0.893249,-0.0575295,0.2120054999999999,1.072439,-0.0932885,-0.0701625,-0.00469,-0.0026204999999999,0.0701625,0.00469,0.0026204999999999,-0.1441045,-0.554551,-0.0619475,0.1246755,-0.549741,-0.0742715,-0.1594245,-0.922561,-0.0611155,0.1415755,-0.921911,-0.0616864999999999,1
127,-0.0487139999999999,0.724058,0.0196114999999999,-0.189261,0.506868,-0.0281485,-0.3999209999999999,0.655048,-0.0333535,0.1367789999999999,0.560458,-0.0252855,0.210989,0.805638,-0.0718185,-0.456671,0.889048,-0.0638374999999999,0.211419,1.067118,-0.0983545,-0.070492,-0.004957,-0.0026195,0.070492,0.004957,0.0026194999999999,-0.149471,-0.541422,-0.0742434999999999,0.125159,-0.536122,-0.0889745,-0.161431,-0.912992,-0.0625455,0.140909,-0.912132,-0.0628364999999999,1
128,-0.04985,0.7195835,0.0140785,-0.19046,0.5029235,-0.0338645,-0.40011,0.6502735,-0.0395164999999999,0.13484,0.5520235,-0.0334205,0.21058,0.7974935,-0.0766505,-0.45588,0.8865235,-0.0700835,0.21082,1.0590735,-0.1029895,-0.070772,-0.0048005,-0.0024374999999999,0.070772,0.0048004999999999,0.0024375,-0.15583,-0.5284665,-0.0852275,0.12649,-0.5231665,-0.1020595,-0.16405,-0.9004465,-0.0641525,0.14063,-0.8991765,-0.0647795,1
129,-0.0504789999999999,0.714912,0.0088099999999999,-0.1915869999999999,0.498442,-0.0403,-0.399847,0.6471020000000001,-0.045472,0.133153,0.542062,-0.041646,0.209593,0.787872,-0.081503,-0.454947,0.885722,-0.075931,0.210243,1.049592,-0.107159,-0.070939,-0.004733,-0.001967,0.070939,0.004733,0.0019669999999999,-0.162297,-0.5134479999999999,-0.097059,0.128883,-0.5081479999999999,-0.115599,-0.1666669999999999,-0.885968,-0.064906,0.140933,-0.884648,-0.067756,1
130,-0.0511795,0.7092175000000001,0.0038374999999999,-0.1930015,0.4944275,-0.0457435,-0.3996615,0.6447675,-0.0508975,0.1311685,0.5334175000000001,-0.0490964999999999,0.2084385,0.7808375000000001,-0.0851955,-0.4544215,0.8857775,-0.0812855,0.2099985,1.0426675,-0.1107755,-0.0711805,-0.0046054999999999,-0.0012225,0.0711805,0.0046055,0.0012224999999999,-0.1694415,-0.4972724999999999,-0.1090454999999999,0.1316385,-0.4919725,-0.1298755,-0.1699814999999999,-0.8710024999999999,-0.0665635,0.1412185,-0.8691025,-0.0706795,1
131,-0.0519025,0.7069845,-0.0004819999999999,-0.1944304999999999,0.4918345,-0.050653,-0.3992005,0.6433645,-0.0558789999999999,0.1291395,0.5268545,-0.0540929999999999,0.2069595,0.7769545,-0.088449,-0.4531205,0.8887545,-0.085699,0.2095795,1.0388845,-0.114069,-0.0712035,-0.0047785,-0.0006949999999999,0.0712035,0.0047784999999999,0.000695,-0.1771605,-0.4840655,-0.121479,0.1339995,-0.4761655,-0.145419,-0.1739905,-0.8567454999999999,-0.0698979999999999,0.1416695,-0.8510255,-0.0734829999999999,1
132,-0.05269,0.7040035,-0.006907,-0.1961,0.4906535,-0.0561749999999999,-0.39879,0.6424035,-0.063109,0.12718,0.5235135,-0.060003,0.20551,0.7735935,-0.0939329999999999,-0.45171,0.8910735,-0.093093,0.2090399999999999,1.0356335,-0.119573,-0.071342,-0.0044165,-0.000243,0.071342,0.0044165,0.000243,-0.18416,-0.4715564999999999,-0.137013,0.1368899999999999,-0.4640164999999999,-0.163353,-0.17809,-0.8428765,-0.075516,0.1424099999999999,-0.8354965,-0.0794319999999999,1
133,-0.053524,0.701736,-0.0125965,-0.197043,0.488556,-0.0614174999999999,-0.398553,0.642566,-0.0705204999999999,0.125667,0.520776,-0.0657145,0.203377,0.771066,-0.0995185,-0.449883,0.893106,-0.1002685,0.208097,1.033136,-0.1262985,-0.071601,-0.004538,3.550000000000081e-05,0.071601,0.004538,-3.549999999999734e-05,-0.191843,-0.453704,-0.1522785,0.140007,-0.447364,-0.1809985,-0.183033,-0.821824,-0.0815785,0.143367,-0.814494,-0.0857785,1
134,-0.0542345,0.6995125000000001,-0.0191089999999999,-0.1971375,0.4869624999999999,-0.0672879999999999,-0.3982175,0.6428725000000001,-0.0782289999999999,0.1243025,0.5167425,-0.072135,0.2011625,0.7672025,-0.1056479999999999,-0.4478175,0.8956125,-0.1080279999999999,0.2075925,1.0293525,-0.132688,-0.0714945,-0.0048175,0.000213,0.0714945,0.0048175,-0.0002129999999999,-0.2007875,-0.4337375,-0.1689679999999999,0.1438825,-0.4273575,-0.1986679999999999,-0.1893675,-0.7984675,-0.0886879999999999,0.1447525,-0.7901174999999999,-0.093478,1
135,-0.0539505,0.69981,-0.027022,-0.1967404999999999,0.48651,-0.073998,-0.3973005,0.64454,-0.086981,0.1237394999999999,0.51373,-0.0796419999999999,0.2009595,0.76466,-0.1126609999999999,-0.4452605,0.8982800000000001,-0.1165509999999999,0.2075495,1.02688,-0.140561,-0.0715635,-0.00511,-0.000118,0.0715635,0.00511,0.000118,-0.2086505,-0.4055599999999999,-0.187991,0.1484194999999999,-0.4051699999999999,-0.217911,-0.1968905,-0.77154,-0.099241,0.1469095,-0.76442,-0.1033009999999999,1
136,-0.0532675,0.7030000000000001,-0.0350535,-0.1959185,0.48933,-0.0822485,-0.3958385,0.64883,-0.0959695,0.1236014999999999,0.50928,-0.0892595,0.2001514999999999,0.76176,-0.1206694999999999,-0.4427385,0.90611,-0.1257395,0.2075914999999999,1.0241600000000002,-0.1478795,-0.0716145,-0.0053199999999999,-4.749999999999893e-05,0.0716145,0.00532,4.750000000000067e-05,-0.2195984999999999,-0.3797899999999999,-0.2174195,0.1537414999999999,-0.37929,-0.2478695,-0.2049685,-0.74358,-0.1194695,0.1503215,-0.73458,-0.1236095,1
137,-0.052652,0.70407,-0.0440005,-0.195051,0.49215,-0.0905855,-0.395541,0.65344,-0.1059755,0.123329,0.51039,-0.0973955,0.200049,0.763,-0.1297755,-0.440461,0.91187,-0.1361055,0.207499,1.02536,-0.1582155,-0.071491,-0.0055199999999999,-0.0004475,0.071491,0.00552,0.0004475,-0.2299409999999999,-0.35475,-0.2467855,0.158749,-0.3536,-0.2773255,-0.212781,-0.71733,-0.1403855,0.153619,-0.70784,-0.1433855,1
138,-0.051867,0.70607,-0.0548555,-0.1939739999999999,0.49591,-0.0995665,-0.394204,0.6589700000000001,-0.1172065,0.123156,0.51503,-0.1064065,0.199886,0.76784,-0.1400565,-0.438564,0.91762,-0.1485264999999999,0.207656,1.0302,-0.1699264999999999,-0.071415,-0.0057599999999999,-0.0012605,0.071415,0.00576,0.0012604999999999,-0.239624,-0.32714,-0.2772565,0.163726,-0.32586,-0.3070665,-0.220384,-0.68925,-0.1625965,0.156966,-0.6793899999999999,-0.1634665,1
139,-0.0508615,0.708975,-0.0647875,-0.1916715,0.499175,-0.1086294999999999,-0.3924515,0.663515,-0.1282994999999999,0.1234084999999999,0.516255,-0.1153194999999999,0.2000585,0.769315,-0.1504295,-0.4362215,0.922335,-0.1608895,0.2078984999999999,1.031705,-0.1814194999999999,-0.0715385,-0.0058549999999999,-0.0018205,0.0715385,0.0058549999999999,0.0018204999999999,-0.2482915,-0.2996949999999999,-0.3057795,0.1686385,-0.2988349999999999,-0.3344795,-0.2272315,-0.659905,-0.1836195,0.1606584999999999,-0.650825,-0.1832695,1
140,-0.050356,0.7113149999999999,-0.0743685,-0.190585,0.502165,-0.1173135,-0.390965,0.667025,-0.1388135,0.123705,0.516575,-0.1239735,0.200755,0.769655,-0.1603235,-0.435085,0.926085,-0.1728535,0.208455,1.032035,-0.1932535,-0.071445,-0.005975,-0.0026815,0.071445,0.005975,0.0026815,-0.256615,-0.274295,-0.3335835,0.173865,-0.274085,-0.3590235,-0.233345,-0.629375,-0.2025535,0.163655,-0.619645,-0.2024135,1
141,-0.0497115,0.71271,-0.0837635,-0.1899755,0.5031,-0.1258825,-0.3901055,0.66963,-0.1487625,0.1243745,0.51969,-0.1311725,0.2015144999999999,0.77264,-0.1700025,-0.4344154999999999,0.928,-0.1855925,0.2090845,1.0349499999999998,-0.2053625,-0.0710955,-0.0063,-0.0033755,0.0710955,0.0062999999999999,0.0033755,-0.2647555,-0.2487600000000001,-0.3589625,0.1785745,-0.25021,-0.3829525,-0.2398455,-0.5988100000000001,-0.2215925,0.1662145,-0.58911,-0.2203725,1
142,-0.0491749999999999,0.714995,-0.093067,-0.189235,0.504925,-0.134555,-0.389595,0.673165,-0.158155,0.124785,0.521265,-0.138665,0.202035,0.774265,-0.179345,-0.434435,0.931065,-0.197925,0.2095949999999999,1.0365449999999998,-0.215935,-0.070744,-0.006315,-0.004167,0.070744,0.006315,0.0041669999999999,-0.272155,-0.221995,-0.383895,0.183165,-0.225555,-0.4070249999999999,-0.245695,-0.566945,-0.240195,0.1684149999999999,-0.557965,-0.237835,1
143,-0.0484509999999999,0.717585,-0.1005875,-0.187477,0.506795,-0.1419145,-0.388317,0.6774249999999999,-0.1663745,0.125123,0.522995,-0.1447445,0.201783,0.776115,-0.1872945,-0.434107,0.934945,-0.2083245,0.210263,1.038345,-0.2258945,-0.070456,-0.0062249999999999,-0.0053945,0.070456,0.0062249999999999,0.0053945,-0.277957,-0.1941949999999999,-0.4070745,0.187633,-0.200915,-0.4287345,-0.249907,-0.533695,-0.2569545,0.170573,-0.527825,-0.2528645,1
144,-0.048174,0.7188749999999999,-0.104101,-0.185986,0.507925,-0.145799,-0.387416,0.680835,-0.170559,0.1256239999999999,0.523695,-0.147249,0.202514,0.7766649999999999,-0.191329,-0.434206,0.938005,-0.214929,0.211364,1.038765,-0.231679,-0.070252,-0.006025,-0.005483,0.070252,0.006025,0.005483,-0.2838259999999999,-0.166125,-0.425209,0.191374,-0.1752349999999999,-0.445799,-0.252496,-0.501835,-0.267969,0.1721039999999999,-0.496015,-0.263109,1
145,-0.047983,0.71841,-0.1067,-0.186169,0.5091,-0.147266,-0.386519,0.6810400000000001,-0.173796,0.126181,0.52529,-0.147626,0.203181,0.7781100000000001,-0.193876,-0.434569,0.93843,-0.219666,0.212521,1.0400900000000002,-0.2364959999999999,-0.070158,-0.0056699999999999,-0.005512,0.070158,0.00567,0.0055119999999999,-0.285049,-0.1471799999999999,-0.432606,0.193891,-0.1560399999999999,-0.451086,-0.253579,-0.48212,-0.269276,0.172461,-0.47382,-0.263426,1
146,-0.048028,0.7178199999999999,-0.1092045,-0.186384,0.50835,-0.1488835,-0.386684,0.68167,-0.1761035,0.126716,0.52648,-0.1481235,0.204366,0.77923,-0.1962335,-0.435144,0.93875,-0.2240235,0.213716,1.04124,-0.2393635,-0.070223,-0.00597,-0.0055124999999999,0.070223,0.0059699999999999,0.0055125,-0.285804,-0.12797,-0.4401835,0.195636,-0.13683,-0.4567934999999999,-0.254424,-0.46284,-0.2707535,0.172256,-0.45302,-0.2636934999999999,1
147,-0.047769,0.716245,-0.109685,-0.186716,0.507531,-0.1490719999999999,-0.386956,0.680525,-0.177242,0.127324,0.524775,-0.1475619999999999,0.205344,0.777175,-0.197332,-0.435486,0.937615,-0.226542,0.215264,1.039205,-0.241342,-0.0705269999999999,-0.0059449999999999,-0.0064909999999999,0.0705269999999999,0.0059449999999999,0.006491,-0.286156,-0.111595,-0.445742,0.197144,-0.120395,-0.461762,-0.254766,-0.446245,-0.272772,0.172194,-0.435745,-0.263072,1
148,-0.04733,0.7161299999999999,-0.1112115,-0.187156,0.507296,-0.1502405,-0.387696,0.68068,-0.1792605,0.127954,0.523828,-0.1482405,0.207154,0.77562,-0.1991205,-0.435906,0.93749,-0.2301105,0.217224,1.03748,-0.2451005,-0.070528,-0.00605,-0.0067165,0.070528,0.00605,0.0067165,-0.285176,-0.0962499999999999,-0.4521805,0.198764,-0.1051499999999999,-0.4678805,-0.254056,-0.42869,-0.2756505,0.172314,-0.4179199999999999,-0.2626104999999999,1
149,-0.0468825,0.713965,-0.1118535,-0.1875814999999999,0.507174,-0.1504835,-0.3877015,0.6816949999999999,-0.1805535,0.1284085,0.52156,-0.1479535,0.2081085,0.773365,-0.2005335,-0.4363615,0.938065,-0.2330135,0.2189385,1.034865,-0.2492335,-0.0705275,-0.005875,-0.0067195,0.0705275,0.0058749999999999,0.0067195,-0.2845915,-0.082735,-0.4566135,0.1994885,-0.092875,-0.4725435,-0.2536915,-0.412765,-0.2774635,0.1724385,-0.402045,-0.2611735,1
150,-0.047249,0.7127749999999999,-0.1114015,-0.188199,0.507147,-0.1493614999999999,-0.388989,0.681925,-0.1811614999999999,0.128021,0.519734,-0.1468014999999999,0.208481,0.771155,-0.2011214999999999,-0.4379389999999999,0.938425,-0.2347415,0.220031,1.032375,-0.2518215,-0.070554,-0.005815,-0.0065235,0.070554,0.0058149999999999,0.0065235,-0.285599,-0.069535,-0.4585915,0.199541,-0.0820349999999999,-0.4749514999999999,-0.254309,-0.398465,-0.2777715,0.172111,-0.386855,-0.2586915,1
151,-0.0474259999999999,0.710855,-0.112376,-0.188732,0.506756,-0.149096,-0.390172,0.681095,-0.182976,0.1277579999999999,0.5187769999999999,-0.146556,0.209248,0.769515,-0.203266,-0.440092,0.937135,-0.238846,0.221558,1.030295,-0.256556,-0.070579,-0.005905,-0.006255,0.070579,0.0059049999999999,0.006255,-0.287122,-0.0578049999999999,-0.459756,0.199658,-0.072135,-0.476986,-0.2553519999999999,-0.385415,-0.278446,0.1718879999999999,-0.373075,-0.257356,1
152,-0.047394,0.7082550000000001,-0.1143489999999999,-0.18897,0.505054,-0.149569,-0.3904,0.6785950000000001,-0.185469,0.12766,0.517866,-0.147169,0.20978,0.768095,-0.206479,-0.44232,0.933975,-0.2443789999999999,0.22356,1.028425,-0.262689,-0.070642,-0.0059649999999999,-0.0060279999999999,0.070642,0.0059649999999999,0.006028,-0.28814,-0.046565,-0.460129,0.20023,-0.0629449999999999,-0.478769,-0.25604,-0.374685,-0.279259,0.17203,-0.3617949999999999,-0.256809,1
153,-0.047312,0.706235,-0.1167489999999999,-0.18956,0.5024869999999999,-0.150039,-0.39094,0.6763049999999999,-0.187629,0.12766,0.515852,-0.1477989999999999,0.21104,0.765315,-0.209719,-0.44373,0.930395,-0.250129,0.2253,1.025125,-0.269039,-0.070642,-0.005985,-0.0060279999999999,0.070642,0.0059849999999999,0.006028,-0.28866,-0.036735,-0.460129,0.2009999999999999,-0.054675,-0.479559,-0.25634,-0.3656250000000001,-0.279259,0.17239,-0.352335,-0.256809,1
154,-0.047404,0.70424,-0.1186489999999999,-0.1902,0.50161,-0.150039,-0.39218,0.6749299999999999,-0.189209,0.12766,0.516844,-0.1477989999999999,0.21232,0.7646999999999999,-0.212909,-0.44571,0.92747,-0.255369,0.2270499999999999,1.02427,-0.273919,-0.070642,-0.0060999999999999,-0.0060279999999999,0.070642,0.0060999999999999,0.006028,-0.2888,-0.03129,-0.460129,0.2017,-0.05036,-0.479559,-0.25647,-0.36108,-0.279259,0.1728299999999999,-0.34721,-0.256309,1
155,-0.047596,0.703485,-0.1202965,-0.190566,0.50249,-0.1502565,-0.3931759999999999,0.675425,-0.1896065,0.1277239999999999,0.516695,-0.1480165,0.213524,0.763065,-0.2148365,-0.447936,0.927075,-0.2577565,0.2288439999999999,1.022345,-0.2775165,-0.070566,-0.005815,-0.0058105,0.070566,0.005815,0.0058105,-0.289576,-0.0289249999999999,-0.4603365,0.2021839999999999,-0.0478549999999999,-0.4797765,-0.257116,-0.359135,-0.2794665,0.1732639999999999,-0.345475,-0.2559065,1
156,-0.047769,0.703485,-0.1223355,-0.190939,0.50249,-0.1511455,-0.3939789999999999,0.675425,-0.1906255,0.127751,0.516695,-0.1490054999999999,0.2140409999999999,0.761715,-0.2160854999999999,-0.450499,0.926845,-0.2601955,0.230491,1.020585,-0.2806254999999999,-0.070545,-0.005815,-0.0054955,0.070545,0.005815,0.0054954999999999,-0.290939,-0.0289249999999999,-0.4605855,0.202541,-0.0478549999999999,-0.4807955,-0.257929,-0.359795,-0.2803855,0.173431,-0.346495,-0.2559055,1
157,-0.047452,0.703485,-0.1245955,-0.190936,0.50249,-0.1532055,-0.393736,0.675425,-0.1928855,0.127994,0.516695,-0.1505955,0.214524,0.761715,-0.2183455,-0.453056,0.926845,-0.2624455,0.2309739999999999,1.020585,-0.2828854999999999,-0.070368,-0.005815,-0.0052885,0.070368,0.005815,0.0052885,-0.292716,-0.0289249999999999,-0.4599755,0.203764,-0.0478549999999999,-0.4813354999999999,-0.258766,-0.359795,-0.2820755,0.174394,-0.3481149999999999,-0.2569754999999999,1
158,-0.0470499999999999,0.703485,-0.1279035,-0.190774,0.50249,-0.1553135,-0.393494,0.675425,-0.1961935,0.128296,0.516695,-0.1532435,0.215316,0.761715,-0.2216634999999999,-0.454964,0.926845,-0.2657535,0.233246,1.020585,-0.2862035,-0.069988,-0.005815,-0.0048535,0.069988,0.005815,0.0048535,-0.294734,-0.0289249999999999,-0.4586035,0.205806,-0.0478549999999999,-0.4813935,-0.259644,-0.359795,-0.2830135,0.176166,-0.3489949999999999,-0.2588735,1
159,-0.046629,0.703785,-0.131342,-0.19023,0.50341,-0.157172,-0.39326,0.675405,-0.199102,0.1285,0.516086,-0.156172,0.21593,0.760845,-0.225102,-0.45686,0.925975,-0.269182,0.23415,1.019715,-0.2896419999999999,-0.069656,-0.005465,-0.004598,0.069656,0.0054649999999999,0.0045979999999999,-0.29773,-0.0297549999999999,-0.455922,0.20877,-0.047985,-0.480402,-0.2607,-0.360665,-0.2822019999999999,0.17847,-0.350055,-0.261142,1
160,-0.0467725,0.70457,-0.1345205,-0.1900165,0.505347,-0.1580305,-0.3925965,0.67699,-0.1998204999999999,0.1283035,0.51783,-0.1579805,0.2159235,0.75985,-0.2268504999999999,-0.4588565,0.92643,-0.2712905,0.2358235,1.01846,-0.2913905,-0.0693355,-0.0052699999999999,-0.0044065,0.0693355,0.0052699999999999,0.0044064999999999,-0.3024565,-0.0324099999999999,-0.4523005,0.2123435,-0.0515499999999999,-0.4783505,-0.2622765,-0.36454,-0.2811205,0.1806935,-0.3544199999999999,-0.2631505,1
161,-0.0470164999999999,0.708,-0.137063,-0.1898545,0.507108,-0.158773,-0.3918945,0.6793,-0.199023,0.1277655,0.519142,-0.159703,0.2151055,0.76149,-0.226073,-0.4612445,0.92754,-0.271183,0.2364955,1.01961,-0.290393,-0.0690585,-0.00509,-0.0041969999999999,0.0690585,0.0050899999999999,0.0041969999999999,-0.3077245,-0.0363799999999999,-0.448173,0.2166555,-0.05641,-0.475643,-0.2641945,-0.36975,-0.279983,0.1831955,-0.36077,-0.264193,1
162,-0.0476175,0.70814,-0.1388405,-0.1900705,0.507517,-0.1593105,-0.3918005,0.67936,-0.1970104999999999,0.1267595,0.5183409999999999,-0.1614805,0.2148095,0.76135,-0.2246705,-0.4642604999999999,0.9267,-0.2686105,0.2384194999999999,1.0169899999999998,-0.2869605,-0.0684555,-0.00489,-0.0042225,0.0684555,0.00489,0.0042224999999999,-0.3127105,-0.04639,-0.4435505,0.2212495,-0.06694,-0.4717005,-0.2651905,-0.38117,-0.2783605,0.1856894999999999,-0.37402,-0.2657305,1
163,-0.0489914999999999,0.711135,-0.138818,-0.1905195,0.507567,-0.159668,-0.3919595,0.680825,-0.193028,0.1252605,0.518952,-0.1625879999999999,0.2141805,0.762065,-0.222178,-0.4678795,0.926915,-0.262188,0.2400604999999999,1.016325,-0.282268,-0.0680085,-0.004895,-0.004431,0.0680085,0.0048949999999999,0.0044309999999999,-0.3172895,-0.057875,-0.439048,0.2251605,-0.078375,-0.467598,-0.2667595,-0.394235,-0.277338,0.1882605,-0.389245,-0.267518,1
164,-0.050653,0.714825,-0.138061,-0.190944,0.506993,-0.160011,-0.391514,0.682485,-0.1883709999999999,0.1236859999999999,0.518129,-0.163751,0.213486,0.762405,-0.2181809999999999,-0.4714239999999999,0.927305,-0.253801,0.2415159999999999,1.015525,-0.274771,-0.06759,-0.004905,-0.004434,0.06759,0.0049049999999999,0.004434,-0.3206139999999999,-0.070035,-0.434611,0.228396,-0.090075,-0.463041,-0.2673339999999999,-0.408665,-0.276641,0.190696,-0.405555,-0.269361,1
165,-0.0522575,0.71628,-0.1361135,-0.1917275,0.5085010000000001,-0.1581955,-0.3916675,0.68337,-0.1826555,0.1225824999999999,0.519588,-0.1635055,0.2139625,0.76424,-0.2133654999999999,-0.4759475,0.9254,-0.2439454999999999,0.2435324999999999,1.01666,-0.2658155,-0.0673035,-0.0049099999999999,-0.0043235,0.0673035,0.00491,0.0043235,-0.3225175,-0.08677,-0.4284855,0.2303825,-0.1057399999999999,-0.4575255,-0.2669175,-0.4269299999999999,-0.2752455,0.1920825,-0.42564,-0.2711155,1
166,-0.053762,0.718885,-0.132681,-0.1927559999999999,0.508795,-0.155866,-0.392276,0.6842250000000001,-0.175206,0.121174,0.518385,-0.162966,0.214224,0.764025,-0.207266,-0.480266,0.922375,-0.232046,0.245394,1.015705,-0.256776,-0.0671809999999999,-0.004805,-0.0040409999999999,0.0671809999999999,0.004805,0.004041,-0.324166,-0.102735,-0.422166,0.230534,-0.1198949999999999,-0.452806,-0.267026,-0.4445749999999999,-0.2721559999999999,0.192464,-0.4448449999999999,-0.271566,1
167,-0.054818,0.721605,-0.1289515,-0.193584,0.507155,-0.1538895,-0.392714,0.683325,-0.1682695,0.1198859999999999,0.517935,-0.1619695,0.214506,0.764245,-0.2018995,-0.484634,0.920435,-0.2210995,0.247746,1.015885,-0.2481595,-0.067058,-0.004965,-0.0039515,0.067058,0.0049649999999999,0.0039514999999999,-0.324524,-0.118785,-0.4160095,0.230656,-0.1351149999999999,-0.4482695,-0.266904,-0.462145,-0.2694995,0.192986,-0.463785,-0.2715295,1
168,-0.0547895,0.721395,-0.1247679999999999,-0.1938445,0.507665,-0.151078,-0.3921044999999999,0.683805,-0.160808,0.1190455,0.520905,-0.159288,0.2142155,0.767845,-0.197288,-0.4882245,0.918775,-0.211158,0.2505955,1.019515,-0.241098,-0.0669045,-0.0053449999999999,-0.0038289999999999,0.0669045,0.0053449999999999,0.0038289999999999,-0.3239245,-0.135905,-0.409668,0.2312555,-0.151005,-0.4426879999999999,-0.2663145,-0.480135,-0.265228,0.1943455,-0.483405,-0.273418,1
169,-0.054579,0.71879,-0.120264,-0.193539,0.50833,-0.147902,-0.391049,0.6827,-0.15392,0.118301,0.52211,-0.15681,0.213971,0.77069,-0.19343,-0.491329,0.91403,-0.2017999999999999,0.2529909999999999,1.02231,-0.2358299999999999,-0.066997,-0.0055399999999999,-0.003828,0.066997,0.0055399999999999,0.0038279999999999,-0.323509,-0.15458,-0.40248,0.231591,-0.1681599999999999,-0.43637,-0.265689,-0.50012,-0.26074,0.194741,-0.50382,-0.27415,1
170,-0.054419,0.715085,-0.115776,-0.193731,0.507895,-0.144899,-0.391361,0.681915,-0.1474659999999999,0.117629,0.523055,-0.15456,0.213729,0.770635,-0.19046,-0.493521,0.909295,-0.19293,0.255469,1.022765,-0.23012,-0.067024,-0.005565,-0.0037669999999999,0.067024,0.0055649999999999,0.0037669999999999,-0.323331,-0.174025,-0.39474,0.2308589999999999,-0.185115,-0.43004,-0.264791,-0.520925,-0.25647,0.194879,-0.5251750000000001,-0.27543,1
171,-0.0543715,0.71755,-0.1106515,-0.1938575,0.50875,-0.1418025,-0.3904875,0.68387,-0.1411905,0.1170925,0.5261100000000001,-0.1518225,0.2136625,0.7725299999999999,-0.1867835,-0.4946075,0.9068,-0.1831735,0.2581325,1.02686,-0.2265635,-0.0671485,-0.0053999999999999,-0.0034814999999999,0.0671485,0.0054,0.0034814999999999,-0.3217775,-0.1924799999999999,-0.3868235,0.2295725,-0.1999699999999999,-0.4242035,-0.2633475,-0.54136,-0.2524135,0.1948925,-0.54462,-0.2757235,1
172,-0.0541389999999999,0.71784,-0.105958,-0.194105,0.50943,-0.138241,-0.389915,0.68367,-0.135673,0.1168049999999999,0.5271399999999999,-0.148928,0.213885,0.77293,-0.183212,-0.494365,0.90201,-0.175072,0.258915,1.02842,-0.222642,-0.06736,-0.00515,-0.0031559999999999,0.06736,0.0051499999999999,0.0031559999999999,-0.319035,-0.21199,-0.3777319999999999,0.226925,-0.21746,-0.416562,-0.260995,-0.56354,-0.247932,0.194815,-0.56606,-0.275912,1
173,-0.0536875,0.7138899999999999,-0.1009025,-0.1939365,0.51076,-0.1333335,-0.3888665,0.68311,-0.1292785,0.1166934999999999,0.52817,-0.1453695,0.2128934999999999,0.7722800000000001,-0.1799685,-0.4939865,0.90177,-0.1667985,0.2597435,1.02852,-0.2203185,-0.0676965,-0.00472,-0.0030994999999999,0.0676965,0.00472,0.0030994999999999,-0.3136965,-0.23652,-0.3658685,0.2226635,-0.23864,-0.4062185,-0.2586765,-0.59006,-0.2423785,0.1944634999999999,-0.5912600000000001,-0.2755785,1
174,-0.0527735,0.714205,-0.095178,-0.1935885,0.509665,-0.130302,-0.3867285,0.683955,-0.123063,0.1165015,0.527335,-0.1430219999999999,0.2132015,0.770745,-0.177124,-0.4936585,0.904245,-0.158828,0.2601415,1.027715,-0.2177239999999999,-0.0677545,-0.004385,-0.0029719999999999,0.0677545,0.004385,0.002972,-0.3079584999999999,-0.255645,-0.3542039999999999,0.2179515,-0.255025,-0.396954,-0.2558485,-0.612615,-0.237334,0.1936915,-0.6121850000000001,-0.275164,1
175,-0.0503625,0.715015,-0.090395,-0.1920725,0.512325,-0.12691,-0.3845825,0.687695,-0.117948,0.1173174999999999,0.524895,-0.141566,0.2130975,0.768605,-0.174488,-0.4918924999999999,0.911735,-0.151138,0.2614375,1.025835,-0.215628,-0.0678235,-0.0031749999999999,-0.002713,0.0678235,0.003175,0.002713,-0.2993725,-0.276375,-0.341168,0.2135874999999999,-0.273845,-0.386098,-0.2516425,-0.6369449999999999,-0.233398,0.1933775,-0.6352949999999999,-0.274688,1
176,-0.0473275,0.7144950000000001,-0.0848595,-0.1910115,0.515395,-0.1228195,-0.3816215,0.692385,-0.1124585,0.1184584999999999,0.521345,-0.1401995,0.2146885,0.7655750000000001,-0.1717595,-0.4885715,0.916555,-0.1442905,0.2637885,1.022405,-0.2135294999999999,-0.0676735,-0.0020749999999999,-0.0023605,0.0676735,0.002075,0.0023605,-0.2904615,-0.2968449999999999,-0.3272994999999999,0.2094885,-0.2958949999999999,-0.3742395,-0.2473515,-0.6615850000000001,-0.2299695,0.1931685,-0.660785,-0.2732095,1
177,-0.043812,0.71621,-0.0779115,-0.189417,0.51457,-0.1185814999999999,-0.376567,0.69685,-0.1066635,0.119453,0.5163800000000001,-0.1393384999999999,0.215063,0.76145,-0.1679765,-0.481017,0.91973,-0.1356204999999999,0.265413,1.01782,-0.2090365,-0.067728,-0.00117,-0.0023605,0.067728,0.00117,0.0023605,-0.280887,-0.31658,-0.3116065,0.205473,-0.3146899999999999,-0.3601565,-0.242707,-0.68515,-0.2268365,0.193023,-0.68328,-0.2694465,1
178,-0.0395965,0.71875,-0.0718215,-0.1869185,0.51026,-0.1149005,-0.3713285,0.6994400000000001,-0.1016175,0.1223515,0.50931,-0.1381605,0.2192015,0.7549100000000001,-0.1647465,-0.4707985,0.9232,-0.1269015,0.2685214999999999,1.01085,-0.2041875,-0.0683695,0.0004299999999999,-0.0023575,0.0683695,-0.0004299999999999,0.0023574999999999,-0.2676985,-0.34113,-0.2936275,0.2017715,-0.33924,-0.3431375,-0.2349185,-0.7097,-0.2218875,0.1934215,-0.70783,-0.2623775,1
179,-0.035708,0.720993,-0.065536,-0.184366,0.511603,-0.10945,-0.365346,0.704843,-0.094707,0.1253939999999999,0.501973,-0.137091,0.2231139999999999,0.748223,-0.160736,-0.460296,0.933113,-0.11743,0.272224,1.003733,-0.198989,-0.0688759999999999,0.0016889999999999,-0.002355,0.0688759999999999,-0.001689,0.0023549999999999,-0.253896,-0.3638869999999999,-0.275159,0.195094,-0.361997,-0.318269,-0.226776,-0.732457,-0.216249,0.192014,-0.730587,-0.247749,1
180,-0.0326859999999999,0.716707,-0.0564535,-0.182492,0.518097,-0.0988805,-0.358882,0.713727,-0.0840245,0.127578,0.493097,-0.1326365,0.225368,0.739347,-0.1535775,-0.449782,0.946907,-0.1058705,0.275538,0.994617,-0.1899485,-0.0690149999999999,0.002533,-0.0024075,0.0690149999999999,-0.0025329999999999,0.0024074999999999,-0.236652,-0.3865229999999999,-0.2461585,0.186668,-0.384633,-0.2879585,-0.215922,-0.7560129999999999,-0.2009785,0.188538,-0.754613,-0.2302985,1
181,-0.030129,0.7182115,-0.044454,-0.180844,0.5211515,-0.08503,-0.351524,0.7188515000000001,-0.070399,0.131396,0.4970515,-0.118793,0.228826,0.7429015,-0.141764,-0.439424,0.9584515,-0.090904,0.279546,0.9979615,-0.177461,-0.069185,0.0024445,-0.001936,0.069185,-0.0024445,0.001936,-0.218254,-0.4180685,-0.212861,0.177556,-0.4145485,-0.249931,-0.2044639999999999,-0.7887385,-0.182611,0.184076,-0.7857385,-0.208401,1
182,-0.027652,0.724122,-0.0317965,-0.179538,0.524802,-0.0718555,-0.344298,0.726502,-0.0577005,0.135042,0.501692,-0.1046965,0.232072,0.747452,-0.1300515,-0.429008,0.967322,-0.0769795,0.2835419999999999,1.002812,-0.1647575,-0.069232,0.00209,-0.0014175,0.069232,-0.0020899999999999,0.0014174999999999,-0.201728,-0.4492779999999999,-0.1806875,0.169792,-0.444338,-0.2126375,-0.193408,-0.816098,-0.1646075,0.179542,-0.811998,-0.1858075,1
183,-0.025536,0.727904,-0.019793,-0.178324,0.5293140000000001,-0.058052,-0.337074,0.735494,-0.045476,0.138876,0.506304,-0.090331,0.236486,0.751834,-0.118014,-0.418574,0.977814,-0.063592,0.287406,1.0072139999999998,-0.152577,-0.069287,0.001684,-0.0007489999999999,0.069287,-0.0016839999999999,0.0007489999999999,-0.185544,-0.480056,-0.149867,0.162126,-0.476066,-0.174547,-0.182734,-0.842786,-0.146897,0.175446,-0.840596,-0.163327,1
184,-0.0239445,0.7300695,-0.0075485,-0.1781235,0.5305695,-0.0447295,-0.3310135,0.7415695,-0.0335225,0.1421665,0.5128895,-0.0759265,0.2401065,0.7572795,-0.1059445,-0.4085735,0.9849195,-0.0517565,0.2902165,1.0129395,-0.1399655,-0.0692285,0.0004425,-8.950000000000624e-05,0.0692285,-0.0004425,8.94999999999993e-05,-0.1711735,-0.5090405,-0.1202155,0.1548565,-0.5042405,-0.1380555,-0.1730735,-0.8675105,-0.1292645,0.1709165,-0.8652405,-0.1405255,1
185,-0.0225865,0.73279,0.0040944999999999,-0.1782345,0.5331100000000001,-0.0311175,-0.3255145,0.7476400000000001,-0.0221725,0.1454955,0.52005,-0.0619085,0.2433455,0.7632,-0.0938095,-0.3987345,0.99198,-0.0409035,0.2920155,1.01908,-0.1273355,-0.0694325,-0.000649,0.0005024999999999,0.0694325,0.000649,-0.0005025,-0.1569944999999999,-0.53887,-0.0908595,0.1477055,-0.53314,-0.1025355,-0.1635945,-0.8914099999999999,-0.1124675,0.1662855,-0.8902399999999999,-0.1187365,1
186,-0.021258,0.7357205,0.0154234999999999,-0.178292,0.5374304999999999,-0.0170665,-0.320042,0.7535004999999999,-0.0107145,0.148708,0.5264605,-0.0476945,0.246728,0.7684405000000001,-0.0814965,-0.3899019999999999,1.0010705,-0.0307255,0.294568,1.0246705,-0.1150505,-0.069669,-0.0016235,0.0010795,0.069669,0.0016235,-0.0010795,-0.143702,-0.5639295,-0.0628775,0.141618,-0.5591895,-0.0693795,-0.154632,-0.9127595,-0.0952175,0.162058,-0.9135095,-0.0978825,0
187,-0.0208325,0.7394085,0.02724,-0.1789115,0.5443785,-0.0031659999999999,-0.3151915,0.7614084999999999,0.000676,0.1512885,0.5360885,-0.0332019999999999,0.2517985,0.7771985,-0.069179,-0.3824915,1.0122285000000002,-0.021447,0.2978985,1.0338285,-0.103577,-0.0693855,-0.0031995,0.001557,0.0693855,0.0031995,-0.0015569999999999,-0.1342315,-0.5875115,-0.03836,0.1363685,-0.5830915,-0.0401119999999999,-0.1487015,-0.9307515,-0.079903,0.1579485,-0.9327015,-0.079771,0
188,-0.0207475,0.7436625,0.0384715,-0.1794224999999999,0.5467125,0.0088605,-0.3112125,0.7663625,0.0094835,0.1537575,0.5460125,-0.0188055,0.2569575,0.7861025,-0.0582084999999999,-0.3748125,1.0168725,-0.0138265,0.3011075,1.0429725,-0.0936154999999999,-0.0691695,-0.0046035,0.0020815,0.0691695,0.0046034999999999,-0.0020815,-0.1259025,-0.6104075,-0.0156644999999999,0.1342575,-0.6048375,-0.0195085,-0.1433325,-0.9475375,-0.0655285,0.1558975,-0.9489775,-0.0699885,0
189,-0.0211045,0.7508755,0.0449395,-0.1797665,0.5443255,0.0141475,-0.3099665,0.7674355,0.0126895,0.1565835,0.5583955,-0.0091245,0.2619335,0.7976555,-0.0525625,-0.3649664999999999,1.0191355,-0.0109485,0.3036335,1.0548355,-0.0892775,-0.0689535,-0.0059175,0.0030045,0.0689535,0.0059174999999999,-0.0030045,-0.1221765,-0.6300745,-0.0057185,0.1337735,-0.6213145,-0.0063315,-0.1418165,-0.9603245,-0.0626145,0.1554034999999999,-0.9602745,-0.0652655,0
190,-0.0221134999999999,0.7511755,0.048864,-0.1804035,0.5454655,0.016444,-0.3096334999999999,0.7728254999999999,0.012752,0.1565765,0.5583955,-0.008733,0.2622565,0.7976555,-0.05163,-0.3566634999999999,1.0250355,-0.01092,0.3041165,1.0548355,-0.088906,-0.0689365,-0.0059175,0.003068,0.0689365,0.0059174999999999,-0.003068,-0.1202135,-0.6363745,-0.000876,0.1334865,-0.6258145,-0.002381,-0.1410035,-0.9623845,-0.062531,0.1553665,-0.9625745,-0.064778,0
191,-0.0229974999999999,0.7513155,0.051925,-0.1807835,0.5465655,0.018613,-0.3061235,0.7770355,0.012737,0.1565765,0.5583955,-0.008401,0.2626165,0.7976555,-0.050924,-0.3471935,1.0301355,-0.011674,0.3049465,1.0548355,-0.088909,-0.0689365,-0.0059175,0.003068,0.0689365,0.0059174999999999,-0.003068,-0.1185235,-0.6384445,0.002026,0.1333565,-0.6272145,-0.000711,-0.1402335,-0.9638845,-0.062535,0.1553565,-0.9641745,-0.064604,0
192,-0.0237994999999999,0.7514055,0.054747,-0.1811535,0.5474455,0.020467,-0.3042435,0.7791855,0.012564,0.1565765,0.5583955,-0.008105,0.2630865,0.7976555,-0.050923,-0.3380534999999999,1.0335355,-0.012724,0.3060965,1.0548355,-0.0889139999999999,-0.0689365,-0.0059175,0.003068,0.0689365,0.0059174999999999,-0.003068,-0.1169035,-0.6394945,0.004747,0.1333665,-0.6280245,0.000197,-0.1396035,-0.9652445,-0.062771,0.1553565,-0.9641745,-0.064552,0
193,-0.0240755,0.752569,0.056864,-0.1811075,0.549409,0.0216629999999999,-0.3019575,0.782389,0.011648,0.1565325,0.558069,-0.008286,0.2643324999999999,0.796799,-0.0513519999999999,-0.3296475,1.037689,-0.0154089999999999,0.3064525,1.054289,-0.089339,-0.0686654999999999,-0.00605,0.00349,0.0686654999999999,0.00605,-0.00349,-0.1154975,-0.639471,0.006101,0.1340525,-0.6276309999999999,0.000557,-0.1387475,-0.964451,-0.063475,0.1558324999999999,-0.963161,-0.065521,0
194,-0.0244165,0.7534934999999999,0.058695,-0.1809625,0.5508934999999999,0.0232059999999999,-0.2997525,0.7846535,0.010612,0.1565775,0.5572935,-0.007975,0.2655875,0.7951735,-0.051776,-0.3222625,1.0408735,-0.0186199999999999,0.3067075,1.0525735,-0.090058,-0.0685035,-0.0060785,0.003868,0.0685035,0.0060785,-0.003868,-0.1145924999999999,-0.6395765,0.006567,0.1346175,-0.6271165000000001,0.000732,-0.1382225,-0.9639765,-0.0643919999999999,0.1561374999999999,-0.9624765,-0.066512,0
195,-0.024841,0.7542155,0.0600654999999999,-0.180999,0.5520555,0.0245365,-0.2981189999999999,0.7854855000000001,0.0096395,0.156531,0.5564355,-0.0077445,0.268591,0.7914355000000001,-0.0522625,-0.316559,1.0428054999999998,-0.0223815,0.306961,1.0489054999999998,-0.0920435,-0.068455,-0.0060125,0.0042065,0.068455,0.0060124999999999,-0.0042065,-0.113999,-0.6397444999999999,0.0066355,0.134961,-0.6267745,0.0008525,-0.137869,-0.9635545,-0.0651245,0.156361,-0.9616445,-0.0669855,0
196,-0.0252665,0.7548279999999999,0.0609209999999999,-0.1810715,0.553028,0.025851,-0.2967315,0.786238,0.008014,0.1564085,0.555318,-0.007358,0.2725585,0.786248,-0.053318,-0.3115715,1.043558,-0.027023,0.3079885,1.043758,-0.095611,-0.0684535,-0.005949,0.004461,0.0684535,0.0059489999999999,-0.004461,-0.1134815,-0.639822,0.0064069999999999,0.1352485,-0.6267520000000001,0.0009369999999999,-0.1375115,-0.963162,-0.065563,0.1564485,-0.960892,-0.067479,0
197,-0.0258445,0.7556440000000001,0.061596,-0.1812745,0.554054,0.027045,-0.2955445,0.7872140000000001,0.005176,0.1562154999999999,0.5531440000000001,-0.006696,0.2792355,0.778784,-0.056516,-0.3071045,1.044534,-0.033087,0.3116555,1.035934,-0.103252,-0.0684525,-0.0059309999999999,0.004708,0.0684525,0.005931,-0.004708,-0.1129345,-0.6394059999999999,0.0059349999999999,0.1355154999999999,-0.626506,0.000897,-0.1371745,-0.962316,-0.066231,0.1565655,-0.959966,-0.068017,0
198,-0.026588,0.757027,0.0622275,-0.181457,0.555567,0.0281435,-0.294897,0.788667,0.0015804999999999,0.156003,0.551247,-0.0059735,0.287733,0.7696970000000001,-0.0601595,-0.304637,1.046047,-0.0404295,0.315743,1.026347,-0.1124085,-0.068452,-0.0055969999999999,0.0047954999999999,0.068452,0.005597,-0.0047954999999999,-0.112617,-0.6380629999999999,0.0052964999999999,0.135893,-0.625863,0.0006715,-0.136777,-0.961003,-0.0668715,0.156593,-0.958443,-0.0686254999999999,0
199,-0.0274514999999999,0.758198,0.0626375,-0.1817865,0.556948,0.0292485,-0.2950065,0.789238,-0.0024885,0.1557035,0.549118,-0.0051785,0.2978834999999999,0.753808,-0.0638795,-0.3021465,1.047228,-0.0490205,0.3207035,1.009228,-0.1239265,-0.0684465,-0.005364,0.0048245,0.0684465,0.005364,-0.0048245,-0.1123464999999999,-0.636422,0.0047374999999999,0.1362535,-0.625582,0.0005774999999999,-0.1364864999999999,-0.959672,-0.0674715,0.1565835,-0.956982,-0.0691835,0
200,-0.0287315,0.7594105,0.0634565,-0.1822285,0.5585205,0.0303125,-0.2952385,0.7891205,-0.0071415,0.1550915,0.5470005,-0.0043005,0.3081715,0.7327005,-0.0653715,-0.2999085,1.0473405,-0.0601135,0.3275114999999999,0.9853405,-0.1375835,-0.0683395,-0.0053274999999999,0.0047545,0.0683395,0.0053274999999999,-0.0047545,-0.1122285,-0.6349695,0.0044484999999999,0.1366215,-0.6254995,0.0007164999999999,-0.1363184999999999,-0.9577895,-0.0672774999999999,0.1564415,-0.9552295,-0.0692884999999999,0
201,-0.0306295,0.7607389999999999,0.065009,-0.1828615,0.560169,0.031533,-0.2955515,0.787729,-0.012724,0.1537685,0.543949,-0.0033419999999999,0.3186285,0.707939,-0.066478,-0.2978415,1.044579,-0.072781,0.3345885,0.954579,-0.153202,-0.0682504999999999,-0.0054379999999999,0.00464,0.0682504999999999,0.0054379999999999,-0.0046399999999999,-0.1121615,-0.633521,0.004122,0.1368785,-0.625391,0.000853,-0.1363214999999999,-0.956071,-0.067789,0.1562385,-0.953191,-0.069578,0
202,-0.0328559999999999,0.761965,0.0666665,-0.183669,0.561715,0.0328995,-0.2963389999999999,0.7847449999999999,-0.0195355,0.152351,0.540925,-0.0022874999999999,0.326001,0.6774049999999999,-0.0666515,-0.2961689999999999,1.037955,-0.0889825,0.342941,0.915695,-0.1693214999999999,-0.068139,-0.005566,0.0044985,0.068139,0.005566,-0.0044984999999999,-0.112189,-0.6319950000000001,0.0033135,0.137061,-0.625035,0.0009565,-0.136469,-0.954275,-0.0682785,0.155931,-0.951135,-0.0696655,0
203,-0.03563,0.7636705,0.068642,-0.185068,0.5603905,0.033328,-0.298568,0.7804405000000001,-0.0277719999999999,0.150522,0.5383005000000001,-0.0019739999999999,0.331652,0.6430805,-0.066676,-0.296618,1.0305505,-0.1060789999999999,0.351932,0.8667505000000001,-0.181329,-0.068084,-0.0057465,0.004498,0.068084,0.0057465,-0.0044979999999999,-0.112498,-0.6296295,0.002459,0.136982,-0.6235594999999999,0.001117,-0.136828,-0.9517295,-0.0685969999999999,0.155272,-0.9484695,-0.0691519999999999,0
204,-0.038552,0.7655485,0.0707095,-0.186164,0.5592885,0.0334465,-0.302544,0.7723085,-0.0371485,0.148846,0.5362585,-0.0016875,0.3336059999999999,0.6058985,-0.0666845,-0.297444,1.0191985,-0.1253455,0.3605359999999999,0.8094985,-0.1910955,-0.068128,-0.0056654999999999,0.0044985,0.068128,0.0056655,-0.0044985,-0.1129439999999999,-0.6267015,0.0015645,0.136766,-0.6219815,0.0012534999999999,-0.137574,-0.9486815,-0.0685934999999999,0.154556,-0.9452215,-0.0685475,0
205,-0.041166,0.7672375,0.072918,-0.187086,0.5578375,0.033487,-0.308146,0.7608375,-0.047026,0.147454,0.5346774999999999,-0.001646,0.333534,0.5663775,-0.064497,-0.2984259999999999,1.0029975,-0.146906,0.363924,0.7421575,-0.200456,-0.0682,-0.0056635,0.004463,0.0682,0.0056634999999999,-0.004463,-0.113546,-0.6235025000000001,0.000768,0.136434,-0.6205324999999999,0.001309,-0.138326,-0.9454825,-0.0684859999999999,0.153664,-0.9418625,-0.0678609999999999,0
206,-0.0429355,0.7690185,0.0752455,-0.1880515,0.5562185000000001,0.0336385,-0.3153815,0.7441485,-0.0573645,0.1463084999999999,0.5329885,-0.0014935,0.3325785,0.5263185,-0.0617585,-0.2994914999999999,0.9796285,-0.1684445,0.3629585,0.6661885,-0.2003045,-0.0683225,-0.0054005,0.0043595,0.0683225,0.0054005,-0.0043595,-0.1142715,-0.6200715,8.350000000000024e-05,0.1360185,-0.6186115,0.0014574999999999,-0.1392515,-0.9419915,-0.0681954999999999,0.1527285,-0.9381915,-0.0670625,0
207,-0.04389,0.7708349999999999,0.0777085,-0.189015,0.552955,0.0339865,-0.321515,0.723445,-0.0662205,0.145345,0.5312549999999999,-0.0011454999999999,0.331635,0.484155,-0.0579955,-0.300695,0.950555,-0.1913065,0.361995,0.588845,-0.1999565,-0.068521,-0.005377,0.0042805,0.068521,0.005377,-0.0042805,-0.115135,-0.6163150000000001,-0.0003725,0.135325,-0.615855,0.0018045,-0.1402149999999999,-0.938335,-0.0678214999999999,0.151605,-0.934415,-0.0660335,0
208,-0.0448754999999999,0.7732325,0.080445,-0.1900105,0.5501525,0.034485,-0.3247105,0.6976724999999999,-0.070668,0.1443495,0.5294924999999999,-0.000759,0.3306495,0.4455325,-0.053655,-0.3043405,0.9130425,-0.210743,0.3609995,0.5054225000000001,-0.199403,-0.0688005,-0.0052045,0.004188,0.0688005,0.0052045,-0.004188,-0.1161405,-0.6119874999999999,-0.000533,0.1344995,-0.6123675,0.002357,-0.1412105,-0.9340975,-0.06738,0.1505295,-0.9299975,-0.064786,0
209,-0.0457725,0.775899,0.0831325,-0.1906765,0.547199,0.0348685,-0.3278764999999999,0.666269,-0.0735965,0.1434435,0.527529,-0.0008334999999999,0.3254835,0.410049,-0.0469555,-0.3104865,0.8652190000000001,-0.2259895,0.3593935,0.423519,-0.1969995,-0.0691745,-0.0048279999999999,0.0040704999999999,0.0691745,0.0048279999999999,-0.0040704999999999,-0.1170365,-0.607621,-0.0005654999999999,0.1336235,-0.6084609999999999,0.0029215,-0.1422665,-0.929961,-0.0664835,0.1495535,-0.925431,-0.0635215,0
210,-0.0459915,0.7786080000000001,0.084823,-0.1899735,0.543888,0.034533,-0.3301935,0.6337980000000001,-0.073711,0.1428765,0.5262380000000001,-0.0006779999999999,0.3158765,0.3764679999999999,-0.0398,-0.3160835,0.8083480000000001,-0.234403,0.3539365,0.341988,-0.189593,-0.0695615,-0.0042719999999999,0.003931,0.0695615,0.0042719999999999,-0.003931,-0.1179135,-0.6032519999999999,-0.0003549999999999,0.1326864999999999,-0.6045419999999999,0.003352,-0.1433935,-0.925882,-0.0656259999999999,0.1485564999999999,-0.921032,-0.0625479999999999,0
211,-0.044745,0.781764,0.0860375,-0.188852,0.540684,0.0338155,-0.331282,0.596554,-0.0728975,0.1427479999999999,0.524754,-0.0003125,0.3008679999999999,0.347434,-0.0316985,-0.320132,0.743774,-0.2337605,0.342808,0.269334,-0.1737605,-0.070009,-0.0035269999999999,0.0037105,0.070009,0.003527,-0.0037105,-0.118822,-0.598556,0.0001134999999999,0.131758,-0.600316,0.0036335,-0.144622,-0.921476,-0.0647745,0.147598,-0.916516,-0.0616825,0
212,-0.041919,0.7845555000000001,0.0866755,-0.186699,0.5400255,0.0316305,-0.332139,0.5606255,-0.0722435,0.143641,0.5232855000000001,0.0002544999999999,0.284871,0.3226055,-0.0247465,-0.320989,0.6795355000000001,-0.2331065,0.3285409999999999,0.2074255,-0.1521865,-0.070422,-0.0026534999999999,0.0034354999999999,0.070422,0.0026534999999999,-0.0034354999999999,-0.119679,-0.5945045,0.0005595,0.130901,-0.5967045,0.0036894999999999,-0.145629,-0.9173145,-0.0639105,0.146651,-0.9125845,-0.0610275,0
213,-0.0375045,0.787322,0.0873665,-0.1844305,0.538982,0.0290735,-0.3330205,0.522352,-0.0715295,0.1460695,0.520852,0.0009544999999999,0.2686695,0.302492,-0.0160895,-0.3218705,0.603142,-0.2323925,0.3148395,0.155442,-0.1273025,-0.0707204999999999,-0.002069,0.0030875,0.0707204999999999,0.0020689999999999,-0.0030875,-0.1206005,-0.590538,0.0010414999999999,0.1299695,-0.593408,0.0037545,-0.1466605,-0.913878,-0.0632895,0.1457895,-0.909088,-0.0603174999999999,0
