sb224sc-HT22-VT27/4dt907/src/ml-research/a11/datafiles/labeled_files/A118_kinect.csv
FrameNo,nose_3d_x,nose_3d_y,nose_3d_z,left_shoulder_3d_x,left_shoulder_3d_y,left_shoulder_3d_z,left_elbow_3d_x,left_elbow_3d_y,left_elbow_3d_z,right_shoulder_3d_x,right_shoulder_3d_y,right_shoulder_3d_z,right_elbow_3d_x,right_elbow_3d_y,right_elbow_3d_z,left_wrist_3d_x,left_wrist_3d_y,left_wrist_3d_z,right_wrist_3d_x,right_wrist_3d_y,right_wrist_3d_z,left_hip_3d_x,left_hip_3d_y,left_hip_3d_z,right_hip_3d_x,right_hip_3d_y,right_hip_3d_z,left_knee_3d_x,left_knee_3d_y,left_knee_3d_z,right_knee_3d_x,right_knee_3d_y,right_knee_3d_z,left_ankle_3d_x,left_ankle_3d_y,left_ankle_3d_z,right_ankle_3d_x,right_ankle_3d_y,right_ankle_3d_z,activity_label
0,-0.0099825,0.735167,0.0481519999999999,-0.1767105,0.5594669999999999,0.0504429999999999,-0.2906805,0.726687,-0.035581,0.1693195,0.559707,0.0416769999999999,0.2739595,0.7391369999999999,-0.027356,-0.3180505,0.907677,-0.109511,0.3043695,0.945267,-0.085961,-0.0706435,0.000472,0.0003759999999999,0.0706435,-0.0004719999999999,-0.000376,-0.0999595,-0.358153,0.0295599999999999,0.1099695,-0.357773,0.0314319999999999,-0.1212905,-0.827113,0.112827,0.1402895,-0.843403,0.12228,1
1,-0.0102004999999999,0.7350825000000001,0.0483629999999999,-0.1769934999999999,0.5595525,0.050731,-0.2908835,0.7266525,-0.035706,0.1690364999999999,0.5596725,0.0419309999999999,0.2736365,0.7390625000000001,-0.027282,-0.3182335,0.9070125,-0.10975,0.3038865,0.9451625,-0.08614,-0.0706745,0.0003865,0.0002309999999999,0.0706745,-0.0003864999999999,-0.000231,-0.1000605,-0.3581975,0.0296219999999999,0.1098865,-0.3576675,0.031762,-0.1212935,-0.8263475,0.1127499999999999,0.1398964999999999,-0.8431774999999999,0.1229209999999999,1
2,-0.0101199999999999,0.7350025,0.0487025,-0.1769919999999999,0.5596025,0.0509925,-0.290842,0.7265725,-0.0358435,0.169018,0.5596125,0.0421885,0.273618,0.7389525,-0.0271864999999999,-0.318012,0.9067825,-0.1097484999999999,0.303238,0.9451325,-0.0860785,-0.070803,0.0003625,8.650000000000324e-05,0.070803,-0.0003625,-8.64999999999963e-05,-0.099828,-0.3581675,0.0299205,0.110138,-0.3576175,0.0319595,-0.121222,-0.8264075000000001,0.1133505,0.141088,-0.8399475000000001,0.1249135,1
3,-0.010324,0.735245,0.0488599999999999,-0.177264,0.559705,0.051092,-0.2909239999999999,0.726585,-0.036273,0.168656,0.559715,0.0419569999999999,0.273316,0.739075,-0.027242,-0.318004,0.906525,-0.109941,0.302836,0.945275,-0.086141,-0.070753,0.0002309999999999,-1.0000000000003062e-05,0.070753,-0.000231,9.999999999996125e-06,-0.0991509999999999,-0.358395,0.0295699999999999,0.109966,-0.357475,0.032191,-0.121894,-0.827245,0.11313,0.140956,-0.838695,0.123761,1
4,-0.010402,0.7353145000000001,0.0487565,-0.177393,0.5601645000000001,0.0507805,-0.291143,0.7268845,-0.0367885,0.168547,0.5596145,0.0420855,0.273237,0.7389245000000001,-0.0272584999999999,-0.317983,0.9057645,-0.1101155,0.302247,0.9451445,-0.0863755,-0.070801,0.0002044999999999,0.0001485,0.070801,-0.0002044999999999,-0.0001484999999999,-0.099229,-0.3584355,0.0296695,0.1099169999999999,-0.3573755,0.0324735,-0.121923,-0.8272255,0.1133455,0.141027,-0.8387755,0.1243455,1
5,-0.0101755,0.735492,0.0480975,-0.1773535,0.560032,0.0506025,-0.2910135,0.7269920000000001,-0.0365395,0.1684765,0.559772,0.0418355,0.2730365,0.739182,-0.0274014999999999,-0.3176835,0.905822,-0.1101745,0.3004064999999999,0.945492,-0.0870845,-0.0708405,0.0001519999999999,0.0002025,0.0708405,-0.000152,-0.0002025,-0.0992744999999999,-0.358418,0.0300805,0.1100865,-0.357238,0.0327455,-0.1218735,-0.827328,0.1139575,0.1416764999999999,-0.836588,0.1242735,1
6,-0.0101595,0.7352095,0.0478755,-0.1773425,0.5603295,0.0505465,-0.2911924999999999,0.7271295,-0.0366725,0.1683075,0.5596495,0.0417795,0.2720275,0.7393395,-0.0281454999999999,-0.3173525,0.9053095,-0.1105055,0.2994375,0.9457195,-0.0875155,-0.0708685,0.0001915,0.0002134999999999,0.0708685,-0.0001914999999999,-0.0002134999999999,-0.0993425,-0.3583604999999999,0.0301365,0.1100275,-0.3572405,0.0329435,-0.1221725,-0.8258105,0.1142785,0.1417375,-0.8368305,0.1246954999999999,1
7,-0.0104719999999999,0.735321,0.0479994999999999,-0.17717,0.560241,0.0502154999999999,-0.29098,0.727121,-0.0373245,0.16812,0.5597610000000001,0.0418415,0.27155,0.739441,-0.0284695,-0.31711,0.905591,-0.1109774999999999,0.29873,0.946001,-0.0871575,-0.070963,0.0001889999999999,0.0004484999999999,0.070963,-0.0001889999999999,-0.0004485,-0.09969,-0.358359,0.0303704999999999,0.10991,-0.3572289999999999,0.0331334999999999,-0.12225,-0.825629,0.1145854999999999,0.14175,-0.839329,0.1251485,1
8,-0.0104974999999999,0.7353845,0.047872,-0.1770924999999999,0.5603545,0.049943,-0.2909125,0.7271745,-0.037594,0.1679475,0.5598145,0.041804,0.2711874999999999,0.7395244999999999,-0.0286779999999999,-0.3169025,0.9054645,-0.1112509999999999,0.2979374999999999,0.9461545,-0.087261,-0.0709895,0.0001794999999999,0.0005479999999999,0.0709895,-0.0001794999999999,-0.0005479999999999,-0.0996995,-0.3583455,0.030531,0.1098975,-0.3571654999999999,0.03325,-0.1223325,-0.8252955000000001,0.11492,0.1418875,-0.8389055000000001,0.125488,1
9,-0.010527,0.7354875,0.047749,-0.176982,0.5603975,0.049603,-0.290812,0.7271974999999999,-0.037798,0.167798,0.5598974999999999,0.041724,0.270838,0.7396575,-0.028867,-0.316682,0.9054675,-0.1115569999999999,0.297158,0.9463575,-0.087307,-0.071032,0.0001975,0.000639,0.071032,-0.0001974999999999,-0.000639,-0.099696,-0.3583125,0.030685,0.1099079999999999,-0.3571325,0.033365,-0.122412,-0.8249925,0.115269,0.142058,-0.8386225,0.125807,1
10,-0.0105825,0.7356014999999999,0.047753,-0.1769065,0.5604214999999999,0.049334,-0.2907165,0.7272215,-0.038002,0.1676135,0.5599715,0.041714,0.2705034999999999,0.7397815,-0.028996,-0.3164865,0.9054415,-0.1118569999999999,0.2965735,0.9465515,-0.087227,-0.0710735,0.0002205,0.000731,0.0710735,-0.0002205,-0.000731,-0.0997065,-0.3582785,0.030833,0.1098935,-0.3571185,0.033444,-0.1224764999999999,-0.8246185,0.115632,0.1421535,-0.8383385000000001,0.126104,1
11,-0.010637,0.7357509999999999,0.047797,-0.176836,0.560481,0.049095,-0.290656,0.727271,-0.0382189999999999,0.167454,0.560091,0.041727,0.270274,0.739931,-0.029029,-0.316316,0.905461,-0.1121519999999999,0.296074,0.946751,-0.087062,-0.071134,0.000232,0.000822,0.071134,-0.0002319999999999,-0.0008219999999999,-0.099794,-0.358249,0.030988,0.109884,-0.357089,0.033515,-0.122516,-0.8241890000000001,0.116033,0.142254,-0.838109,0.126413,1
12,-0.0107015,0.735922,0.0478585,-0.1767595,0.560492,0.0488455,-0.2905895,0.727272,-0.0384715,0.1672805,0.560192,0.0417135,0.2701705,0.740092,-0.0289505,-0.3161895,0.905512,-0.1124075,0.2956905,0.946952,-0.0868775,-0.0711915,0.0002409999999999,0.0008914999999999,0.0711915,-0.0002409999999999,-0.0008915,-0.0998765,-0.358228,0.0310914999999999,0.1098705,-0.357068,0.0335474999999999,-0.1225295,-0.823798,0.1163655,0.1423404999999999,-0.837858,0.1266355,1
13,-0.010759,0.7361344999999999,0.0479955,-0.176678,0.5605545,0.0487075,-0.2905279999999999,0.7272945,-0.0386274999999999,0.167122,0.5603445,0.0417775,0.270142,0.7402645,-0.0287974999999999,-0.316058,0.9056045,-0.1125265,0.295462,0.9472045,-0.0866464999999999,-0.071265,0.0002515,0.0009815,0.071265,-0.0002515,-0.0009814999999999,-0.0999569999999999,-0.3581955,0.0312665,0.109852,-0.3570354999999999,0.0336635,-0.1225179999999999,-0.8234055,0.1167855,0.1424119999999999,-0.8377055,0.1269325,1
14,-0.010821,0.736331,0.0481385,-0.176607,0.560581,0.0485904999999999,-0.290467,0.727271,-0.0387755,0.1669729999999999,0.560521,0.0418665,0.270143,0.740401,-0.0286835,-0.315917,0.905661,-0.1126745,0.295213,0.947421,-0.0864544999999999,-0.071334,0.0002449999999999,0.0010534999999999,0.071334,-0.000245,-0.0010535,-0.100034,-0.3581789999999999,0.0314695,0.109833,-0.356999,0.0337784999999999,-0.122527,-0.823029,0.1172165,0.142473,-0.837519,0.1271844999999999,1
15,-0.010862,0.736531,0.0482705,-0.1765479999999999,0.560551,0.0485585,-0.290408,0.7271610000000001,-0.0390234999999999,0.166852,0.560701,0.0419505,0.2701719999999999,0.740511,-0.0286074999999999,-0.315738,0.905711,-0.1128565,0.2949819999999999,0.947581,-0.0863164999999999,-0.071375,0.000231,0.0011115,0.071375,-0.000231,-0.0011114999999999,-0.100081,-0.3581589999999999,0.0316605,0.109832,-0.3569589999999999,0.0338865,-0.122508,-0.822669,0.1176445,0.142582,-0.8372189999999999,0.1274835,1
16,-0.0109269999999999,0.7367185,0.0483684999999999,-0.1765109999999999,0.5605785,0.0484625,-0.290351,0.7270685,-0.0393955,0.166739,0.5608685,0.0420274999999999,0.270159,0.7405885,-0.0285795,-0.315581,0.9058185,-0.1131295,0.2946789999999999,0.9476985,-0.0863095,-0.071419,0.0002054999999999,0.0011584999999999,0.071419,-0.0002054999999999,-0.0011584999999999,-0.100128,-0.3581514999999999,0.0318395,0.109829,-0.3569015,0.0339895,-0.122471,-0.8223615,0.1180934999999999,0.142619,-0.8368415,0.1278005,1
17,-0.0110525,0.73686,0.0482854999999999,-0.1764835,0.56058,0.0483055,-0.2903235,0.72695,-0.0398325,0.1666165,0.5610299999999999,0.0420825,0.2701365,0.74062,-0.0286244999999999,-0.3153935,0.90591,-0.1135555,0.2943564999999999,0.94776,-0.0864455,-0.0714585,0.000183,0.0011834999999999,0.0714585,-0.000183,-0.0011835,-0.1001965,-0.35815,0.0319685,0.1098065,-0.35686,0.0340885,-0.1224635,-0.82215,0.1185035,0.1426365,-0.83648,0.1281115,1
18,-0.0111804999999999,0.736957,0.0481525,-0.1764775,0.560647,0.0481545,-0.2902774999999999,0.7268669999999999,-0.0404615,0.1664824999999999,0.561147,0.0421155,0.2701125,0.740597,-0.0287894999999999,-0.3151374999999999,0.905947,-0.1141934999999999,0.2940125,0.947757,-0.0866735,-0.0715065,0.000131,0.0011945,0.0715065,-0.000131,-0.0011945,-0.1002484999999999,-0.358183,0.0320955,0.1097925,-0.356803,0.0341185,-0.1224775,-0.821983,0.1189195,0.1426625,-0.8361430000000001,0.1283705,1
19,-0.0113234999999999,0.73707,0.047838,-0.1765285,0.56071,0.047885,-0.2902685,0.72679,-0.0412449999999999,0.1663115,0.56125,0.042012,0.2701015,0.74053,-0.0291239999999999,-0.3148785,0.90611,-0.114986,0.2935615,0.94772,-0.0871059999999999,-0.0715504999999999,8.200000000000048e-05,0.001182,0.0715504999999999,-8.199999999999961e-05,-0.0011819999999999,-0.1002984999999999,-0.35821,0.03217,0.1098015,-0.35676,0.034131,-0.1225185,-0.82179,0.119146,0.1426815,-0.83586,0.128537,1
20,-0.011468,0.737211,0.0473005,-0.176582,0.560781,0.0474755,-0.290252,0.726761,-0.0421114999999999,0.1661079999999999,0.5613309999999999,0.0418085,0.2700579999999999,0.740451,-0.0295425,-0.314592,0.906251,-0.1159455,0.293008,0.947651,-0.0877355,-0.071599,4.0000000000000105e-05,0.0011405,0.071599,-4.0000000000000105e-05,-0.0011404999999999,-0.100353,-0.358229,0.0322125,0.109828,-0.356729,0.0341035,-0.122542,-0.8216190000000001,0.1193255,0.142668,-0.835539,0.1287175,1
21,-0.011656,0.737327,0.046459,-0.176671,0.560887,0.046954,-0.290241,0.726787,-0.043014,0.165849,0.561367,0.041329,0.269969,0.740337,-0.030155,-0.314221,0.906387,-0.1172459999999999,0.292299,0.947557,-0.088556,-0.071631,2.999999999999531e-06,0.001049,0.071631,-3.000000000000398e-06,-0.001049,-0.100386,-0.358243,0.0322,0.109839,-0.356703,0.034028,-0.122571,-0.8214830000000001,0.11948,0.142629,-0.8353430000000001,0.128835,1
22,-0.0118804999999999,0.7373455,0.0453735,-0.1767955,0.5609455,0.0462075,-0.2902755,0.7267855,-0.0440905,0.1654745,0.5613355,0.0405714999999999,0.2697445,0.7401855,-0.0309785,-0.3136255,0.9086355,-0.1194835,0.2913945,0.9474155,-0.0896334999999999,-0.0716465,-3.450000000000068e-05,0.0009964999999999,0.0716465,3.449999999999981e-05,-0.0009965,-0.1004205,-0.3582645,0.0321414999999999,0.1098145,-0.3567145,0.0339005,-0.1226054999999999,-0.8214845,0.1194925,0.1425845,-0.8352245,0.1289265,1
23,-0.0121079999999999,0.737348,0.04407,-0.176926,0.560978,0.045323,-0.290306,0.726698,-0.045329,0.165094,0.561278,0.039684,0.269384,0.740038,-0.032053,-0.313016,0.910798,-0.121832,0.290404,0.947298,-0.090962,-0.071666,-5.5999999999999626e-05,0.0009949999999999,0.071666,5.6000000000000494e-05,-0.000995,-0.1004529999999999,-0.358302,0.031952,0.1098339999999999,-0.356742,0.033643,-0.122646,-0.821502,0.119446,0.142544,-0.835142,0.128877,1
24,-0.01234,0.737372,0.042407,-0.177087,0.561002,0.04422,-0.290317,0.726642,-0.0467029999999999,0.164623,0.561212,0.038628,0.268943,0.739892,-0.033388,-0.312467,0.912662,-0.124261,0.289153,0.947152,-0.092621,-0.071718,-8.700000000000027e-05,0.000994,0.071718,8.700000000000027e-05,-0.000994,-0.100542,-0.358418,0.03142,0.109823,-0.356778,0.033372,-0.122657,-0.821588,0.119396,0.142503,-0.8350179999999999,0.128771,1
25,-0.0125284999999999,0.7372595000000001,0.0402229999999999,-0.1772455,0.5610295,0.0429709999999999,-0.2902855,0.7265995000000001,-0.048221,0.1641145,0.5610995,0.037237,0.2684145,0.7397495000000001,-0.034996,-0.3119254999999999,0.9138295,-0.126944,0.2877745,0.9469395,-0.094814,-0.0717665,-0.0001125,0.0009189999999999,0.0717665,0.0001124999999999,-0.000919,-0.1007075,-0.3586105,0.0303159999999999,0.1099044999999999,-0.3568805,0.032837,-0.1226954999999999,-0.8223205,0.1190639999999999,0.1424745,-0.8349705,0.128635,1
26,-0.0127059999999999,0.7369705,0.0375239999999999,-0.177409,0.5612105000000001,0.04145,-0.290329,0.7266805000000001,-0.050209,0.163521,0.5608605,0.0354629999999999,0.267751,0.7394805,-0.037105,-0.311579,0.9142705,-0.130096,0.286241,0.9465505,-0.097746,-0.071841,-0.0002205,0.0008349999999999,0.071841,0.0002205,-0.000835,-0.100979,-0.3590994999999999,0.0279309999999999,0.110011,-0.3569994999999999,0.0317389999999999,-0.122829,-0.8231395,0.11843,0.142481,-0.8348194999999999,0.128508,1
27,-0.0129215,0.7363999999999999,0.034235,-0.1775825,0.56146,0.039781,-0.2903825,0.72658,-0.052728,0.1629074999999999,0.56051,0.033396,0.2669575,0.73905,-0.0397889999999999,-0.3114025,0.91463,-0.133739,0.2845675,0.94592,-0.1015489999999999,-0.0719305,-0.000347,0.000768,0.0719305,0.000347,-0.0007679999999999,-0.1012525,-0.3597499999999999,0.024192,0.1101875,-0.35729,0.029545,-0.1227225,-0.82386,0.11768,0.1425074999999999,-0.8345600000000001,0.128217,1
28,-0.0131574999999999,0.7359935,0.0304855,-0.1778705,0.5618035,0.0375465,-0.2904505,0.7266335,-0.0557825,0.1622195,0.5601535,0.0308375,0.2658795,0.7386334999999999,-0.0432035,-0.3112605,0.9156135,-0.1384185,0.2827695,0.9452735,-0.1061385,-0.0721105,-0.0005354999999999,0.0007855,0.0721105,0.0005355,-0.0007855,-0.1015905,-0.3605365,0.0197305,0.1103794999999999,-0.3576165,0.0264775,-0.1226505,-0.8241365,0.1165785,0.1424995,-0.8335765,0.1277565,1
29,-0.01339,0.7355735,0.0261124999999999,-0.178326,0.5620235,0.0349075,-0.290536,0.7264635,-0.0596765,0.161454,0.5596935000000001,0.0278005,0.264654,0.7381135,-0.0472465,-0.311066,0.9171935,-0.1440305,0.280884,0.9444135,-0.1117205,-0.072364,-0.0006765,0.0008405,0.072364,0.0006765,-0.0008405,-0.101936,-0.3613464999999999,0.0144094999999999,0.110634,-0.3580965,0.0221685,-0.122536,-0.8239664999999999,0.1152094999999999,0.142534,-0.8320465,0.1270445,1
30,-0.0136844999999999,0.734939,0.0214229999999999,-0.1788005,0.562039,0.0318059999999999,-0.2907305,0.725899,-0.064416,0.1607295,0.559339,0.024678,0.2634895,0.737439,-0.052039,-0.3108505,0.918349,-0.150896,0.2791795,0.943229,-0.118556,-0.0726695,-0.000781,0.0008829999999999,0.0726695,0.0007809999999999,-0.000883,-0.1023304999999999,-0.362161,0.0080289999999999,0.1110495,-0.358701,0.0167499999999999,-0.1226305,-0.824691,0.113524,0.1425495,-0.830891,0.126012,1
31,-0.0139734999999999,0.7341835,0.0161035,-0.1788914999999999,0.5621035,0.0281815,-0.2907915,0.7250435000000001,-0.0702135,0.1599985,0.5590235,0.0213545,0.2622985,0.7367335,-0.0572824999999999,-0.3107115,0.9170735,-0.1590335,0.2777085,0.9418835,-0.1261634999999999,-0.0730115,-0.0009125,0.0009354999999999,0.0730115,0.0009125,-0.0009354999999999,-0.1029015,-0.3629965,0.0007614999999999,0.1117485,-0.3592765,0.0103955,-0.1227115,-0.8245465,0.1116735,0.1426485,-0.8288365,0.1246414999999999,1
32,-0.0142534999999999,0.7331885,0.0102135,-0.1790115,0.5618785,0.0239475,-0.2906515,0.7237285,-0.0765855,0.1592485,0.5585485,0.0174705,0.2611785,0.7357985,-0.0631155,-0.3106715,0.9164385,-0.1674955,0.2763685,0.9401785,-0.1346955,-0.0734255,-0.0010235,0.0009305,0.0734255,0.0010235,-0.0009305,-0.1036715,-0.3637615,-0.0072914999999999,0.1125885,-0.3598815,0.0027734999999999,-0.1227715,-0.8236715,0.1094105,0.1427685,-0.8258815,0.1231585,1
33,-0.014301,0.7319530000000001,0.0035975,-0.179054,0.5614330000000001,0.0190445,-0.2905939999999999,0.721963,-0.0837065,0.158646,0.557843,0.0129965,0.260306,0.734533,-0.0696065,-0.310424,0.916013,-0.1769965,0.275456,0.938023,-0.1441764999999999,-0.073755,-0.0010679999999999,0.0008855,0.073755,0.0010679999999999,-0.0008854999999999,-0.104504,-0.3643269999999999,-0.0161375,0.113936,-0.360467,-0.0056434999999999,-0.122714,-0.8216169999999999,0.1064905,0.143056,-0.821897,0.1211535,1
34,-0.0143115,0.7303575000000001,-0.0041315,-0.1788705,0.5600975,0.0129754999999999,-0.2901105,0.7190275,-0.0926895,0.1580794999999999,0.5564175,0.0072624999999999,0.2595395,0.7323975,-0.0778995,-0.3098605,0.9120675,-0.1884595,0.2747295,0.9348275,-0.1557595,-0.0740605,-0.0012015,0.0008994999999999,0.0740605,0.0012015,-0.0008995,-0.1057205,-0.3646025,-0.0270555,0.1162095,-0.3606225,-0.0166935,-0.1226605,-0.8163824999999999,0.1028564999999999,0.1434694999999999,-0.8159225,0.1176914999999999,1
35,-0.0141979999999999,0.728376,-0.0121805,-0.178388,0.558466,0.0063914999999999,-0.289578,0.716126,-0.1019664999999999,0.157472,0.554676,0.0010615,0.258922,0.729596,-0.0867864999999999,-0.309258,0.907986,-0.2004265,0.274162,0.931166,-0.1673965,-0.074391,-0.0011569999999999,0.0008864999999999,0.074391,0.0011569999999999,-0.0008864999999999,-0.1072979999999999,-0.364214,-0.0382744999999999,0.119182,-0.360544,-0.0284705,-0.1227979999999999,-0.809274,0.0986475,0.144212,-0.808484,0.1136095,1
36,-0.014022,0.726502,-0.0206184999999999,-0.177883,0.557202,-0.0005814999999999,-0.289023,0.713292,-0.1118015,0.1569269999999999,0.553782,-0.0052224999999999,0.258337,0.727662,-0.0956614999999999,-0.308663,0.904142,-0.2126914999999999,0.273837,0.928212,-0.1793015,-0.074755,-0.000937,0.0008055,0.074755,0.000937,-0.0008055,-0.109403,-0.3631979999999999,-0.0494505,0.122807,-0.3600879999999999,-0.0403104999999999,-0.123213,-0.800408,0.0941665,0.145237,-0.799248,0.1094435,1
37,-0.0134705,0.724664,-0.029119,-0.1773095,0.555464,-0.007829,-0.2884395,0.7102740000000001,-0.121721,0.1565905,0.551914,-0.0119929999999999,0.2580905,0.7249140000000001,-0.104701,-0.3079395,0.899764,-0.225601,0.2735205,0.924494,-0.1912809999999999,-0.0752174999999999,-0.000672,0.00064,0.0752174999999999,0.0006719999999999,-0.00064,-0.1120195,-0.361666,-0.061394,0.1270305,-0.359116,-0.052857,-0.1236195,-0.7895760000000001,0.089671,0.1465305,-0.7882560000000001,0.104877,1
38,-0.0126244999999999,0.7215295,-0.0386585,-0.1764215,0.5528495,-0.0158305,-0.2873515,0.7064595,-0.1321075,0.1566985,0.5493095,-0.0194305,0.2581485,0.7214195,-0.1147374999999999,-0.3063214999999999,0.8947695,-0.2387075,0.2735885,0.9195395,-0.2051575,-0.0757175,-0.0004274999999999,0.0004124999999999,0.0757175,0.0004274999999999,-0.0004124999999999,-0.1158915,-0.3574405,-0.0752675,0.1322384999999999,-0.3567504999999999,-0.0672445,-0.1240715,-0.7745004999999999,0.0842924999999999,0.1483685,-0.7730705,0.0997415,1
39,-0.0118835,0.71837,-0.048458,-0.1755765,0.5505599999999999,-0.023878,-0.2862565,0.70221,-0.143322,0.1567135,0.54694,-0.026973,0.2580435,0.71776,-0.125282,-0.3046665,0.88948,-0.252282,0.2733534999999999,0.91497,-0.218302,-0.0763185,-0.00031,5.3999999999998494e-05,0.0763185,0.0003099999999999,-5.400000000000196e-05,-0.1201765,-0.35141,-0.088602,0.1372735,-0.35248,-0.081552,-0.1247665,-0.75618,0.0788649999999999,0.1501434999999999,-0.75535,0.094022,1
40,-0.011811,0.7142,-0.0583385,-0.175283,0.5493399999999999,-0.0316505,-0.285653,0.6984600000000001,-0.1544565,0.156137,0.54287,-0.0348575,0.257557,0.7123900000000001,-0.1363465,-0.303593,0.88652,-0.2655465,0.272407,0.90835,-0.2325665,-0.0764239999999999,0.0,-0.0001925,0.0764239999999999,0.0,0.0001924999999999,-0.125403,-0.34358,-0.1022465,0.141417,-0.34589,-0.0957365,-0.126313,-0.7356799999999999,0.0730015,0.151237,-0.7349000000000001,0.0882745,1
41,-0.0116535,0.71089,-0.068239,-0.1746765,0.54554,-0.039307,-0.2848165,0.69375,-0.165201,0.1557135,0.5400400000000001,-0.042549,0.2570335,0.70764,-0.147841,-0.3017465,0.88081,-0.279251,0.2714135,0.90255,-0.246831,-0.0764725,-3.999999999998449e-05,-0.0002169999999999,0.0764725,4.000000000001225e-05,0.000217,-0.1312765,-0.3329999999999999,-0.1164909999999999,0.1455634999999999,-0.33609,-0.1093309999999999,-0.1286365,-0.71227,0.06645,0.1524635,-0.71207,0.082227,1
42,-0.0108235,0.70757,-0.0821605,-0.1733635,0.54345,-0.0507744999999999,-0.2825135,0.68918,-0.1801605,0.1560165,0.53793,-0.0543625,0.2570665,0.70411,-0.1631505,-0.2990335,0.87453,-0.2980605,0.2708465,0.89747,-0.2657204999999999,-0.0765305,-9.999999999982244e-06,-4.34999999999984e-05,0.0765305,1.000000000001e-05,4.350000000000187e-05,-0.1372634999999999,-0.31875,-0.1352005,0.1500965,-0.32258,-0.1276605,-0.1305434999999999,-0.68611,0.0558085,0.1545165,-0.68646,0.0719205,1
43,-0.0102979999999999,0.708145,-0.095706,-0.1720269999999999,0.5425949999999999,-0.0620569999999999,-0.279837,0.6879949999999999,-0.194106,0.156213,0.5383249999999999,-0.0656249999999999,0.256933,0.702075,-0.178446,-0.2963369999999999,0.871255,-0.315176,0.270153,0.8944449999999999,-0.283506,-0.07661,-0.000225,-9.699999999999986e-05,0.07661,0.0002249999999999,9.699999999999986e-05,-0.145077,-0.299385,-0.154976,0.154003,-0.304135,-0.147866,-0.132677,-0.656875,0.045178,0.156283,-0.6573950000000001,0.061477,1
44,-0.0097784999999999,0.709175,-0.1085059999999999,-0.1705455,0.5419050000000001,-0.072268,-0.2774455,0.685875,-0.207326,0.1565345,0.540475,-0.076227,0.2566445,0.702135,-0.193106,-0.2934955,0.866525,-0.332656,0.2695945,0.8924650000000001,-0.302266,-0.0766825,0.000155,-8.299999999999974e-05,0.0766825,-0.0001549999999999,8.299999999999974e-05,-0.1525955,-0.277385,-0.173286,0.1573445,-0.2832749999999999,-0.166816,-0.1346055,-0.6262949999999999,0.035588,0.1575045,-0.626805,0.051514,1
45,-0.0091849999999999,0.710005,-0.1205825,-0.1689339999999999,0.540695,-0.0820075,-0.274964,0.683895,-0.2193225,0.156936,0.538555,-0.0865065,0.256506,0.698705,-0.2071325,-0.290674,0.861745,-0.3491925,0.268936,0.887565,-0.3195925,-0.076725,9.500000000001174e-05,-1.1500000000000008e-05,0.076725,-9.499999999995624e-05,1.1500000000000008e-05,-0.159934,-0.253335,-0.1909225,0.160826,-0.2597149999999999,-0.1857725,-0.136384,-0.594275,0.0267285,0.158166,-0.594945,0.0419075,1
46,-0.008892,0.71014,-0.1324595,-0.167631,0.53922,-0.0910755,-0.273181,0.6809000000000001,-0.2311395,0.157019,0.53948,-0.0958615,0.256019,0.69699,-0.2212195,-0.288571,0.85643,-0.3646195,0.268309,0.8836900000000001,-0.3378695,-0.076796,-0.0001099999999999,6.349999999999932e-05,0.076796,0.0001099999999999,-6.350000000000019e-05,-0.167031,-0.22808,-0.2076595,0.163659,-0.2349199999999999,-0.2041595,-0.138371,-0.56237,0.0180894999999999,0.158409,-0.5633300000000001,0.0326045,1
47,-0.0086435,0.710965,-0.143112,-0.1662654999999999,0.539225,-0.099148,-0.2713655,0.678865,-0.242072,0.1568345,0.539435,-0.104927,0.2558945,0.6948449999999999,-0.234062,-0.2869855,0.852075,-0.379172,0.2675245,0.880265,-0.353212,-0.0768875,-0.000175,0.0002349999999999,0.0768875,0.0001749999999999,-0.000235,-0.1725354999999999,-0.202565,-0.222172,0.1659545,-0.209675,-0.220882,-0.1399155,-0.5325150000000001,0.010453,0.1587245,-0.5337350000000001,0.0236809999999999,1
48,-0.0085959999999999,0.71139,-0.153355,-0.1650329999999999,0.53817,-0.107055,-0.2695929999999999,0.67693,-0.251705,0.156537,0.53999,-0.114069,0.255357,0.6925300000000001,-0.246335,-0.285693,0.84769,-0.392445,0.266777,0.87625,-0.369405,-0.077037,-0.0002699999999999,0.000376,0.077037,0.0002699999999999,-0.0003759999999999,-0.177813,-0.17736,-0.236955,0.168327,-0.1847399999999999,-0.237335,-0.141703,-0.5032300000000001,0.002989,0.158887,-0.5044500000000001,0.015197,1
49,-0.0086804999999999,0.713495,-0.1630105,-0.1640605,0.5367850000000001,-0.1150485,-0.2681505,0.674975,-0.2610305,0.1558294999999999,0.539695,-0.1229005,0.2543795,0.6910149999999999,-0.2583705,-0.2846905,0.843255,-0.4048105,0.2657994999999999,0.873075,-0.3837905,-0.0771625,-0.0003549999999999,0.0003655,0.0771625,0.0003549999999999,-0.0003654999999999,-0.1828005,-0.151115,-0.2514605,0.1709195,-0.1591349999999999,-0.2538805,-0.1436505,-0.473285,-0.0040914999999999,0.1591695,-0.4743949999999999,0.0067835,1
50,-0.0087275,0.713285,-0.1722425,-0.1630625,0.537435,-0.1229365,-0.2670825,0.6736249999999999,-0.2704025,0.1550475,0.539435,-0.1316825,0.2533575,0.688395,-0.2697325,-0.2843325,0.840475,-0.4167325,0.2645475,0.868775,-0.3984324999999999,-0.0773015,-0.000245,0.0002194999999999,0.0773015,0.0002449999999999,-0.0002195,-0.1869225,-0.126465,-0.2653625,0.1733975,-0.135195,-0.2701025,-0.1449225,-0.444865,-0.0102925,0.1592575,-0.445755,-0.0015465,1
51,-0.008855,0.7125600000000001,-0.1774214999999999,-0.161992,0.536139,-0.1265955,-0.267072,0.67186,-0.2752715,0.154118,0.5374990000000001,-0.1362215,0.252148,0.68485,-0.2767615,-0.284282,0.83672,-0.4236015,0.263418,0.86378,-0.4075815,-0.077527,-0.00018,8.750000000000077e-05,0.077527,0.00018,-8.750000000000077e-05,-0.190062,-0.1034199999999999,-0.2741515,0.176228,-0.1130499999999999,-0.2811115,-0.146342,-0.4180699999999999,-0.0121184999999999,0.159298,-0.4188499999999999,-0.0051094999999999,1
52,-0.009076,0.707545,-0.1821829999999999,-0.160908,0.533706,-0.130373,-0.267128,0.666815,-0.280463,0.153232,0.533259,-0.140923,0.251652,0.679685,-0.283213,-0.284298,0.830465,-0.431003,0.262822,0.8566050000000001,-0.417253,-0.07768,0.000165,9.999999999999593e-06,0.07768,-0.0001649999999999,-9.999999999999593e-06,-0.190808,-0.084365,-0.279933,0.178692,-0.094835,-0.287973,-0.147638,-0.3955149999999999,-0.013659,0.159442,-0.396485,-0.007609,1
53,-0.009255,0.702095,-0.1873255,-0.159873,0.531177,-0.1346155,-0.267183,0.6612750000000001,-0.2865555,0.152277,0.526696,-0.1455255,0.251477,0.671375,-0.2899355,-0.284343,0.8238650000000001,-0.4384955,0.2625369999999999,0.847395,-0.4255955,-0.077852,2.4999999999997247e-05,-0.0002985,0.077852,-2.4999999999997247e-05,0.0002985,-0.1912829999999999,-0.067115,-0.2855355,0.180967,-0.0779649999999999,-0.2944955,-0.148913,-0.3750249999999999,-0.0152794999999999,0.159607,-0.375865,-0.0099845,1
54,-0.009436,0.6965549999999999,-0.1929805,-0.15861,0.5273669999999999,-0.1387905,-0.26729,0.6536649999999999,-0.2926705,0.1513,0.522905,-0.1498405,0.25154,0.665175,-0.2967005,-0.28441,0.8148949999999999,-0.4463105,0.26252,0.8383149999999999,-0.4360805,-0.078019,8.500000000000174e-05,-0.0006125,0.078019,-8.500000000000174e-05,0.0006124999999999,-0.19143,-0.050265,-0.2897705,0.18253,-0.062965,-0.2990005,-0.15,-0.356375,-0.0169055,0.15949,-0.357245,-0.0121075,1
55,-0.0090109999999999,0.691325,-0.1972705,-0.156775,0.524098,-0.1419605,-0.267425,0.6464249999999999,-0.2977605,0.150865,0.516902,-0.1531505,0.252005,0.656725,-0.3020005,-0.284045,0.805245,-0.4540305,0.2630349999999999,0.8274949999999999,-0.4444005,-0.078214,0.0003249999999999,-0.0007834999999999,0.078214,-0.000325,0.0007834999999999,-0.191025,-0.036385,-0.2921304999999999,0.184465,-0.049105,-0.3011304999999999,-0.1504349999999999,-0.3397450000000001,-0.0174105,0.160025,-0.3408850000000001,-0.0129304999999999,1
56,-0.0087925,0.6858150000000001,-0.202158,-0.1551925,0.519628,-0.145938,-0.2677525,0.637908,-0.303748,0.1505275,0.512489,-0.156478,0.2522775,0.648235,-0.308238,-0.2844125,0.793245,-0.463428,0.2633875,0.815315,-0.455048,-0.0785245,0.000175,-0.001296,0.0785245,-0.000175,0.0012959999999999,-0.1908225,-0.0251749999999999,-0.294628,0.1860475,-0.037235,-0.3024779999999999,-0.1509525,-0.326455,-0.018548,0.1603675,-0.3275249999999999,-0.01431,1
57,-0.0085609999999999,0.680755,-0.2075315,-0.1537589999999999,0.5156930000000001,-0.1504615,-0.268199,0.629035,-0.3105314999999999,0.150191,0.506818,-0.1602015,0.252891,0.639745,-0.3146915,-0.285189,0.780965,-0.4734615,0.263801,0.802555,-0.4654515,-0.0788379999999999,0.000215,-0.0017285,0.0788379999999999,-0.0002149999999999,0.0017285,-0.190409,-0.0156449999999999,-0.2968815,0.187291,-0.0270349999999999,-0.3042215,-0.150969,-0.3153049999999999,-0.0203245,0.160701,-0.3164549999999999,-0.0160805,1
58,-0.0081584999999999,0.675,-0.2133135,-0.1522985,0.5110140000000001,-0.1553935,-0.2684884999999999,0.619997,-0.3174535,0.1501815,0.503538,-0.1642335,0.2533915,0.6323810000000001,-0.3210735,-0.2861984999999999,0.76881,-0.4836135,0.2645915,0.7918000000000001,-0.4764535,-0.0790754999999999,0.00014,-0.0021095,0.0790754999999999,-0.00014,0.0021095,-0.1896385,-0.0090299999999999,-0.2992935,0.1881915,-0.01988,-0.3066335,-0.1506984999999999,-0.3077599999999999,-0.0227475,0.1611115,-0.30913,-0.0184995,1
59,-0.0076545,0.6710940000000001,-0.2199405,-0.1509835,0.5069670000000001,-0.1609905,-0.2688135,0.6121,-0.3250705,0.1500065,0.498857,-0.1694605,0.2544365,0.626051,-0.3277405,-0.2874635,0.758055,-0.4936405,0.2659565,0.782325,-0.4863905,-0.0792985,0.000155,-0.0026844999999999,0.0792985,-0.000155,0.0026844999999999,-0.1887435,-0.0038549999999999,-0.3025305,0.1889365,-0.014475,-0.3098805,-0.1504035,-0.3023749999999999,-0.0259945,0.1618365,-0.3037949999999999,-0.0217385,1
60,-0.007089,0.668051,-0.2262455,-0.149872,0.503367,-0.1669855,-0.2693319999999999,0.605635,-0.3323655,0.149898,0.495286,-0.1747455,0.254898,0.620167,-0.3342555,-0.2889819999999999,0.749575,-0.5025755,0.267328,0.774365,-0.4954955,-0.0795309999999999,0.000105,-0.0031004999999999,0.0795309999999999,-0.000105,0.0031004999999999,-0.187722,-0.0009149999999999,-0.3062755,0.189268,-0.011055,-0.3127155,-0.150092,-0.299285,-0.0297915,0.1630279999999999,-0.300745,-0.0254815,1
61,-0.0062495,0.666037,-0.232429,-0.1488005,0.500658,-0.172489,-0.2694705,0.600868,-0.338519,0.1501095,0.492261,-0.179529,0.2561995,0.615851,-0.339429,-0.2905804999999999,0.74315,-0.510049,0.2693595,0.7688200000000001,-0.502019,-0.0797225,0.00014,-0.0034559999999999,0.0797225,-0.00014,0.003456,-0.1864005,0.0006099999999999,-0.309579,0.1897995,-0.00921,-0.314499,-0.1495305,-0.29779,-0.0335329999999999,0.1641294999999999,-0.29913,-0.029056,1
62,-0.0056494999999999,0.664536,-0.2377345,-0.1481755,0.498489,-0.1775845,-0.2698855,0.5983350000000001,-0.3431444999999999,0.1502845,0.490135,-0.1837845,0.2564445,0.613719,-0.3431245,-0.2929355,0.740245,-0.5146645,0.2709344999999999,0.765835,-0.5065945,-0.0798115,2.500000000005276e-05,-0.0037345,0.0798115,-2.4999999999941732e-05,0.0037345,-0.1852655,0.000815,-0.3117244999999999,0.1901745,-0.0088949999999999,-0.3156645,-0.1490955,-0.2977049999999999,-0.0369575,0.1649345,-0.2989949999999999,-0.0320895,1
63,-0.0049949999999999,0.664566,-0.2407424999999999,-0.147704,0.498519,-0.1812125,-0.270104,0.598365,-0.3459625,0.150586,0.489737,-0.1868125,0.257406,0.613749,-0.3456525,-0.295324,0.740275,-0.5172625,0.2730559999999999,0.765865,-0.5091025,-0.079772,5.500000000002725e-05,-0.0038344999999999,0.079772,-5.499999999991623e-05,0.0038345,-0.184164,0.000805,-0.3125525,0.190656,-0.008915,-0.3155925,-0.148344,-0.297905,-0.0391674999999999,0.165586,-0.299045,-0.0341444999999999,1
64,-0.0042999999999999,0.664566,-0.24266,-0.147228,0.498519,-0.18384,-0.270268,0.598365,-0.34789,0.151032,0.489737,-0.18882,0.257872,0.613749,-0.34757,-0.297748,0.740275,-0.51923,0.274922,0.765865,-0.511,-0.0796989999999999,5.500000000002725e-05,-0.0038899999999999,0.0796989999999999,-5.499999999991623e-05,0.0038899999999999,-0.183208,0.000755,-0.31266,0.191152,-0.0088849999999999,-0.3149999999999999,-0.147638,-0.298245,-0.040711,0.166242,-0.2990849999999999,-0.035553,1
65,-0.0036569999999999,0.664566,-0.243722,-0.146831,0.498519,-0.185272,-0.270001,0.598365,-0.348952,0.151419,0.489737,-0.189882,0.258329,0.613749,-0.348632,-0.299631,0.740275,-0.520332,0.276469,0.765865,-0.512032,-0.079766,5.500000000002725e-05,-0.0037799999999999,0.079766,-5.499999999991623e-05,0.0037799999999999,-0.182521,0.0006249999999999,-0.311982,0.191529,-0.0088849999999999,-0.3140219999999999,-0.147141,-0.2984449999999999,-0.041458,0.166819,-0.299215,-0.036106,1
66,-0.002719,0.663626,-0.2437665,-0.146466,0.498552,-0.1854565,-0.269546,0.598821,-0.3490465,0.152034,0.488647,-0.1899765,0.259134,0.612916,-0.3479565,-0.300906,0.7408250000000001,-0.5201565,0.278044,0.766385,-0.5096465,-0.079627,7.500000000004725e-05,-0.0036715,0.079627,-7.500000000004725e-05,0.0036715,-0.181936,-0.000645,-0.3110064999999999,0.192154,-0.0098949999999999,-0.3128464999999999,-0.146536,-0.2997649999999999,-0.0412545,0.167584,-0.300355,-0.0356945,1
67,-0.001697,0.662979,-0.243746,-0.146224,0.4989399999999999,-0.185446,-0.269024,0.600749,-0.348246,0.152616,0.4881249999999999,-0.1899659999999999,0.2597359999999999,0.6145539999999999,-0.346006,-0.3019239999999999,0.74447,-0.517216,0.279366,0.7696999999999999,-0.505556,-0.079445,0.0001299999999999,-0.0036679999999999,0.079445,-0.00013,0.003668,-0.181364,-0.0023400000000001,-0.310406,0.192766,-0.0116,-0.312206,-0.145964,-0.30171,-0.040906,0.168306,-0.3020600000000001,-0.0352049999999999,1
68,-0.000667,0.6634389999999999,-0.2427655,-0.14611,0.5002389999999999,-0.1854454999999999,-0.2685,0.6053099999999999,-0.3462955,0.15325,0.4880539999999999,-0.1898055,0.26021,0.6181389999999999,-0.3428354999999999,-0.3027,0.7517699999999999,-0.5121855,0.28053,0.7765699999999999,-0.4984854999999999,-0.079263,0.0003999999999999,-0.0036645,0.079263,-0.0004,0.0036645,-0.1808,-0.0037000000000001,-0.3101454999999999,0.1935799999999999,-0.01296,-0.3120255,-0.1454,-0.30329,-0.0407905,0.1690499999999999,-0.30346,-0.0347284999999999,1
69,0.0003009999999999,0.664055,-0.2415125,-0.146032,0.5019259999999999,-0.1854025,-0.268072,0.6112139999999999,-0.3434625,0.1539579999999999,0.4892539999999999,-0.1893524999999999,0.260448,0.623281,-0.3390725,-0.3033119999999999,0.76118,-0.5055425,0.281638,0.7858599999999999,-0.4902225,-0.079091,0.0005499999999999,-0.0036175,0.079091,-0.00055,0.0036175,-0.180392,-0.0048500000000001,-0.3100925,0.1944179999999999,-0.01411,-0.3119625,-0.1450119999999999,-0.3046200000000001,-0.0406965,0.169638,-0.3046900000000001,-0.0342125,1
70,0.001052,0.664878,-0.2392439999999999,-0.146189,0.50385,-0.1845139999999999,-0.2678589999999999,0.6177090000000001,-0.3394439999999999,0.154421,0.490566,-0.188254,0.260321,0.6286,-0.334234,-0.303869,0.77156,-0.497054,0.282431,0.79548,-0.479844,-0.078935,0.00068,-0.0035509999999999,0.078935,-0.00068,0.0035509999999999,-0.180469,-0.00592,-0.3094739999999999,0.194931,-0.0152599999999999,-0.311334,-0.145029,-0.3058499999999999,-0.040082,0.170051,-0.30599,-0.033207,1
71,0.0018445,0.66577,-0.2355324999999999,-0.1463935,0.5061979999999999,-0.1825325,-0.2675835,0.6246579999999999,-0.3338224999999999,0.1550065,0.492438,-0.1856525,0.2601265,0.634286,-0.3281325,-0.3040035,0.78206,-0.4874425,0.2831265,0.8052999999999999,-0.4684425,-0.0787865,0.00085,-0.0033664999999999,0.0787865,-0.00085,0.0033665,-0.1808735,-0.0068,-0.3080724999999999,0.1954565,-0.01639,-0.3099225,-0.1452435,-0.30678,-0.0386894999999999,0.1704165,-0.30712,-0.0316304999999999,1
72,0.002554,0.6665700000000001,-0.230626,-0.146684,0.5085770000000001,-0.179516,-0.267184,0.631178,-0.3273359999999999,0.155546,0.494758,-0.182276,0.259836,0.6401800000000001,-0.321366,-0.3041439999999999,0.7922250000000001,-0.476786,0.283746,0.814875,-0.456646,-0.07873,0.000985,-0.003199,0.07873,-0.0009849999999999,0.003199,-0.181554,-0.007745,-0.3060859999999999,0.195976,-0.0177349999999999,-0.308346,-0.145864,-0.307585,-0.03678,0.170716,-0.308295,-0.029529,1
73,0.0033019999999999,0.6674420000000001,-0.2250885,-0.146963,0.5108980000000001,-0.1759085,-0.266683,0.637399,-0.3204785,0.156097,0.49729,-0.1785285,0.2595469999999999,0.6459800000000001,-0.3144185,-0.3043329999999999,0.80161,-0.4661485,0.284137,0.8239700000000001,-0.4448985,-0.078688,0.00109,-0.0030045,0.078688,-0.0010899999999999,0.0030045,-0.182353,-0.0086999999999999,-0.3040285,0.196477,-0.0192499999999998,-0.3068585,-0.146713,-0.3083699999999999,-0.0346455,0.171077,-0.3094599999999999,-0.0271335,1
74,0.0040109999999999,0.668295,-0.2191575,-0.147304,0.512705,-0.1719075,-0.266254,0.642953,-0.3132875,0.156636,0.500042,-0.1746675,0.259216,0.651758,-0.3074275,-0.304524,0.80972,-0.4556775,0.284336,0.83261,-0.4334975,-0.078688,0.00112,-0.0027954999999999,0.078688,-0.00112,0.0027954999999999,-0.183214,-0.00966,-0.3021075,0.197006,-0.0207399999999999,-0.3053975,-0.147644,-0.30912,-0.0325365,0.171476,-0.31055,-0.0246145,1
75,0.0045815,0.669126,-0.2134925,-0.1475884999999999,0.5137229999999999,-0.1682325,-0.2658985,0.6476649999999999,-0.3066225,0.1571315,0.502852,-0.1712324999999999,0.2589415,0.6572749999999999,-0.3010224999999999,-0.3046585,0.816985,-0.4456925,0.2842815,0.840465,-0.4233424999999999,-0.0786385,0.0010949999999999,-0.0026474999999999,0.0786385,-0.0010949999999999,0.0026475,-0.1840584999999999,-0.0107049999999999,-0.3005925,0.1975715,-0.0223149999999999,-0.3046425,-0.1487885,-0.310025,-0.0307384999999999,0.1718415,-0.311695,-0.0224514999999999,1
76,0.004945,0.669895,-0.208398,-0.147894,0.514531,-0.164938,-0.265654,0.651757,-0.3005379999999999,0.1574259999999999,0.505175,-0.168348,0.258556,0.6619539999999999,-0.295328,-0.3046439999999999,0.8231649999999999,-0.436798,0.283976,0.847395,-0.413998,-0.078512,0.0010249999999999,-0.0025389999999999,0.078512,-0.001025,0.0025389999999999,-0.184874,-0.0116749999999999,-0.299478,0.198026,-0.0238049999999999,-0.304238,-0.149814,-0.310805,-0.0288599999999999,0.172146,-0.312775,-0.0206319999999999,1
77,0.005144,0.6704450000000001,-0.204122,-0.148271,0.5154460000000001,-0.161732,-0.2659209999999999,0.6547240000000001,-0.295192,0.1575889999999999,0.507251,-0.166012,0.258079,0.666162,-0.290502,-0.304731,0.8281050000000001,-0.428942,0.283599,0.8533350000000001,-0.406222,-0.078363,0.0009649999999999,-0.002506,0.078363,-0.0009649999999999,0.002506,-0.1856209999999999,-0.012575,-0.298722,0.198409,-0.0253049999999999,-0.304172,-0.150801,-0.311615,-0.027279,0.1722989999999999,-0.313755,-0.019222,1
78,0.0049904999999999,0.671125,-0.200255,-0.1488905,0.516282,-0.159055,-0.2665005,0.657571,-0.290465,0.1573395,0.508508,-0.164185,0.2573995,0.669505,-0.286215,-0.3053504999999999,0.832435,-0.422165,0.2829795,0.858325,-0.399055,-0.0783514999999999,0.000935,-0.002526,0.0783514999999999,-0.000935,0.002526,-0.1864105,-0.0133349999999999,-0.298275,0.1984594999999999,-0.026505,-0.304315,-0.1518405,-0.312305,-0.0261059999999999,0.1722095,-0.314555,-0.018179,1
79,0.004493,0.67171,-0.196897,-0.149581,0.5167740000000001,-0.156667,-0.267151,0.660015,-0.2857969999999999,0.157019,0.509818,-0.1624769999999999,0.256759,0.6727000000000001,-0.282147,-0.306021,0.83596,-0.415977,0.2822889999999999,0.8626,-0.392997,-0.078345,0.00084,-0.0024229999999999,0.078345,-0.0008399999999999,0.002423,-0.1870409999999999,-0.0140799999999999,-0.297857,0.198479,-0.0276799999999999,-0.304477,-0.152871,-0.31296,-0.025254,0.171839,-0.31521,-0.0171849999999999,1
80,0.0039759999999999,0.6719950000000001,-0.193871,-0.1503499999999999,0.5177140000000001,-0.153831,-0.26803,0.6620450000000001,-0.281511,0.15657,0.5107240000000001,-0.160881,0.25577,0.6753850000000001,-0.278321,-0.30678,0.838735,-0.410631,0.2813,0.866325,-0.387271,-0.078329,0.000775,-0.0023169999999999,0.078329,-0.0007749999999999,0.0023169999999999,-0.18771,-0.0149549999999999,-0.297051,0.19814,-0.0285549999999998,-0.304411,-0.1537099999999999,-0.3138649999999999,-0.024331,0.17129,-0.3160849999999999,-0.016266,1
81,0.00317,0.6734150000000001,-0.191237,-0.1512629999999999,0.5189110000000001,-0.150787,-0.269123,0.6640840000000001,-0.277027,0.155937,0.5130290000000001,-0.158097,0.254637,0.6787050000000001,-0.274517,-0.307673,0.841245,-0.405527,0.279997,0.8702650000000001,-0.382337,-0.078246,0.000665,-0.002146,0.078246,-0.0006649999999999,0.002146,-0.1884829999999999,-0.0164449999999999,-0.296147,0.197477,-0.0300449999999998,-0.303667,-0.154573,-0.3153749999999999,-0.023429,0.170517,-0.3175749999999999,-0.0153619999999999,1
82,0.0024105,0.677105,-0.1892235,-0.1522095,0.520239,-0.1480835,-0.2702295,0.665745,-0.2730535,0.1552805,0.5149429999999999,-0.1555235,0.2534605,0.6815749999999999,-0.2710935,-0.3088095,0.8434649999999999,-0.4008235,0.2786605,0.873615,-0.3779935,-0.0780965,0.0005549999999999,-0.0019095,0.0780965,-0.0005549999999999,0.0019094999999999,-0.1892395,-0.018935,-0.2956235,0.1967205,-0.0325349999999999,-0.3031435,-0.1553295,-0.317895,-0.0229075,0.1697604999999999,-0.320065,-0.0148115,1
83,0.0018059999999999,0.68018,-0.1874715,-0.153212,0.5219750000000001,-0.1456715,-0.271292,0.6682,-0.2693615,0.154648,0.5150640000000001,-0.1530015,0.252098,0.6840900000000001,-0.2681615,-0.310362,0.8461700000000001,-0.3966315,0.277038,0.87672,-0.3736115,-0.077818,0.00054,-0.0016134999999999,0.077818,-0.0005399999999999,0.0016135,-0.189822,-0.0245299999999999,-0.2953015,0.195968,-0.0381099999999999,-0.3028215,-0.156082,-0.3237899999999999,-0.0225945,0.169008,-0.3257799999999999,-0.0144894999999999,1
84,0.001264,0.68226,-0.1862315,-0.15433,0.522918,-0.1435515,-0.27251,0.66979,-0.2661815,0.15419,0.517182,-0.1508315,0.25072,0.6865600000000001,-0.2654015,-0.31199,0.84811,-0.3928815,0.27493,0.8798900000000001,-0.3693815,-0.077436,0.0004399999999999,-0.0015324999999999,0.077436,-0.0004399999999999,0.0015324999999999,-0.19013,-0.0321099999999999,-0.2947315,0.19526,-0.04579,-0.3027615,-0.1567899999999999,-0.33241,-0.0225055,0.16829,-0.33414,-0.0143205,1
85,0.0003964999999999,0.6843,-0.186078,-0.1554195,0.524448,-0.141608,-0.2738695,0.67194,-0.263358,0.1536904999999999,0.519084,-0.149108,0.2499905,0.68911,-0.263888,-0.3136695,0.8504400000000001,-0.389658,0.2734705,0.8831,-0.367158,-0.0771594999999999,0.0003499999999999,-0.001451,0.0771594999999999,-0.0003499999999999,0.001451,-0.1901095,-0.0401799999999999,-0.293378,0.1943305,-0.0539199999999999,-0.302008,-0.1572395,-0.34218,-0.022179,0.1673805,-0.3436,-0.013965,1
86,-0.0005129999999999,0.68534,-0.1859505,-0.156534,0.5260119999999999,-0.1402605,-0.275234,0.6742199999999999,-0.2609905,0.153256,0.519806,-0.1473904999999999,0.248576,0.69067,-0.2620105,-0.315334,0.853,-0.3869005,0.271856,0.8851899999999999,-0.3651105,-0.076887,0.00046,-0.0014455,0.076887,-0.00046,0.0014455,-0.189904,-0.04935,-0.2916805,0.193086,-0.0627699999999999,-0.3005704999999999,-0.1574839999999999,-0.35325,-0.0217214999999999,0.166336,-0.35446,-0.0135705,1
87,-0.001525,0.6857000000000001,-0.1855359999999999,-0.157664,0.5279050000000001,-0.138986,-0.276654,0.67645,-0.2587959999999999,0.152766,0.5192570000000001,-0.146116,0.247886,0.69205,-0.261976,-0.317094,0.85534,-0.384496,0.271146,0.8869100000000001,-0.365206,-0.076679,0.0006,-0.0013489999999999,0.076679,-0.0005999999999999,0.001349,-0.189354,-0.0600499999999999,-0.289436,0.1914159999999999,-0.0726699999999999,-0.298056,-0.1574539999999999,-0.36627,-0.0212309999999999,0.1651659999999999,-0.36727,-0.0131779999999999,1
88,-0.0026605,0.68868,-0.185598,-0.1588304999999999,0.5290279999999999,-0.137768,-0.2781205,0.67754,-0.257118,0.1521595,0.523111,-0.144958,0.2470595,0.69519,-0.261748,-0.3190205,0.85646,-0.382618,0.2700895,0.89019,-0.364268,-0.0762905,0.0004299999999999,-0.001195,0.0762905,-0.00043,0.0011949999999999,-0.1885105,-0.07215,-0.286758,0.1894795,-0.0843,-0.295068,-0.1574605,-0.38151,-0.021082,0.1636194999999999,-0.38227,-0.01284,1
89,-0.0037069999999999,0.6922349999999999,-0.1854755,-0.160025,0.530075,-0.1372654999999999,-0.279455,0.678615,-0.2567155,0.151615,0.525965,-0.1435854999999999,0.246575,0.697935,-0.2611755,-0.320865,0.857615,-0.3818855,0.269235,0.892655,-0.3639155,-0.075943,0.0002649999999999,-0.0009974999999999,0.075943,-0.000265,0.0009975,-0.187225,-0.085085,-0.2836155,0.187195,-0.095845,-0.2907555,-0.157325,-0.398155,-0.0210094999999999,0.162015,-0.398325,-0.0125724999999999,1
90,-0.0047804999999999,0.693535,-0.185471,-0.1612644999999999,0.529991,-0.137411,-0.2808045,0.6787449999999999,-0.256541,0.1510455,0.530003,-0.1434409999999999,0.2461155,0.700705,-0.260661,-0.3226045,0.857765,-0.381351,0.2684155,0.8953949999999999,-0.363861,-0.0755494999999999,-3.500000000000725e-05,-0.0008229999999999,0.0755494999999999,3.500000000000725e-05,0.000823,-0.1855844999999999,-0.099465,-0.280251,0.1846655,-0.108715,-0.2860209999999999,-0.1571344999999999,-0.416705,-0.0211979999999999,0.1598355,-0.416065,-0.0125749999999999,1
91,-0.005836,0.693465,-0.1860419999999999,-0.162441,0.529752,-0.137832,-0.282231,0.678915,-0.256482,0.150529,0.532888,-0.143432,0.245679,0.7025049999999999,-0.260192,-0.324031,0.857635,-0.380772,0.267519,0.897425,-0.363162,-0.075212,-0.0002149999999999,-0.0006499999999999,0.075212,0.000215,0.00065,-0.183601,-0.1144849999999999,-0.276542,0.181939,-0.121765,-0.280692,-0.156211,-0.4357449999999999,-0.0217459999999999,0.157549,-0.4346449999999999,-0.0128749999999999,1
92,-0.006551,0.69391,-0.186787,-0.163418,0.53167,-0.138567,-0.283008,0.6791499999999999,-0.256927,0.150222,0.53731,-0.143807,0.2456219999999999,0.70468,-0.259877,-0.324768,0.85795,-0.380857,0.266912,0.8992100000000001,-0.3631569999999999,-0.074942,-0.00045,-0.000521,0.074942,0.00045,0.000521,-0.181188,-0.1284199999999999,-0.273017,0.1791819999999999,-0.13382,-0.2749169999999999,-0.155318,-0.4535599999999999,-0.022621,0.1553119999999999,-0.4522899999999999,-0.0137079999999999,1
93,-0.006927,0.6959850000000001,-0.1874414999999999,-0.164008,0.533625,-0.1396115,-0.283918,0.6803950000000001,-0.2578215,0.150212,0.539175,-0.1444915,0.245752,0.7062550000000001,-0.2599015,-0.325188,0.858965,-0.3814115,0.266332,0.900305,-0.3622615,-0.0748389999999999,-0.0005049999999999,-0.0004664999999999,0.0748389999999999,0.000505,0.0004665,-0.177728,-0.1406049999999999,-0.2693815,0.176542,-0.144155,-0.2688015,-0.1538479999999999,-0.469925,-0.0237904999999999,0.153102,-0.4686749999999999,-0.0149464999999999,1
94,-0.007164,0.6983250000000001,-0.1870285,-0.164599,0.534275,-0.1401825,-0.284119,0.6800550000000001,-0.2582784999999999,0.1502909999999999,0.540735,-0.1449485,0.2461809999999999,0.707255,-0.2596385,-0.325629,0.858955,-0.3815085,0.266061,0.900995,-0.3613385,-0.07432,-0.0005949999999999,-0.0004545,0.07432,0.000595,0.0004544999999999,-0.173879,-0.153795,-0.2651785,0.173781,-0.155995,-0.2624185,-0.152509,-0.487565,-0.0245845,0.150671,-0.486425,-0.0157715,1
95,-0.0073799999999999,0.7001999999999999,-0.1866789999999999,-0.165034,0.53438,-0.140285,-0.284984,0.68021,-0.258139,0.150506,0.54437,-0.145079,0.247106,0.70995,-0.260079,-0.325804,0.8592,-0.380909,0.266586,0.90315,-0.361929,-0.073654,-0.00091,-0.000459,0.073654,0.0009099999999999,0.0004589999999999,-0.169054,-0.1663299999999999,-0.259719,0.171026,-0.16842,-0.255769,-0.150884,-0.50548,-0.025311,0.148396,-0.50468,-0.016279,1
96,-0.0077315,0.700535,-0.1846124999999999,-0.1656475,0.535615,-0.1398685,-0.2854875,0.680885,-0.2578924999999999,0.1504325,0.548475,-0.1449325,0.2459525,0.712175,-0.2593324999999999,-0.3260875,0.860115,-0.3806225,0.2655925,0.905305,-0.3615724999999999,-0.0733085,-0.0011049999999999,-0.0005034999999999,0.0733085,0.001105,0.0005035,-0.1645674999999999,-0.179165,-0.2540624999999999,0.1674125,-0.1804449999999999,-0.2485525,-0.1494174999999999,-0.523685,-0.0260884999999999,0.1457025,-0.522825,-0.0171214999999999,1
97,-0.007344,0.698045,-0.1818965,-0.165549,0.5376650000000001,-0.1396465,-0.285369,0.683935,-0.2575965,0.151231,0.549125,-0.1447765,0.245661,0.713805,-0.2590765,-0.325229,0.863755,-0.3790665,0.265521,0.906665,-0.3617964999999999,-0.073262,-0.0010049999999999,-0.0005804999999999,0.073262,0.0010049999999999,0.0005805,-0.159369,-0.1908749999999999,-0.2481465,0.164211,-0.1907549999999999,-0.2413165,-0.147059,-0.5404850000000001,-0.0271444999999999,0.143761,-0.539255,-0.0184524999999999,1
98,-0.0071135,0.6927099999999999,-0.1787545,-0.1655545,0.54019,-0.1393435,-0.2849545,0.68712,-0.2568844999999999,0.1520555,0.54833,-0.1441945,0.2440955,0.71486,-0.2587445,-0.3241945,0.86791,-0.3776345,0.2644054999999999,0.90786,-0.3620544999999999,-0.0732615,-0.00102,-0.0006045,0.0732615,0.0010199999999999,0.0006045,-0.1540645,-0.20328,-0.2411145,0.1609655,-0.20311,-0.2341745,-0.1446445,-0.55843,-0.0280685,0.1416355,-0.55738,-0.0199425,1
99,-0.0067124999999999,0.68704,-0.1748595,-0.1653095,0.54193,-0.1388835,-0.2818595,0.6916,-0.2545295,0.1530805,0.54457,-0.1425135,0.2451705,0.7147699999999999,-0.2560895,-0.3206795,0.8734999999999999,-0.3734795,0.2654205,0.90806,-0.3597795,-0.0731495,-0.0007,-0.0005254999999999,0.0731495,0.0006999999999999,0.0005254999999999,-0.1486595,-0.21295,-0.2329795,0.1574005,-0.21309,-0.2264995,-0.1419895,-0.57386,-0.0284135,0.1400805,-0.57343,-0.0210045,1
100,-0.0053389999999999,0.6789499999999999,-0.168784,-0.1646,0.5412399999999999,-0.1382709999999999,-0.27756,0.69355,-0.250874,0.15464,0.5399799999999999,-0.140557,0.2434899999999999,0.7125699999999999,-0.251594,-0.3166299999999999,0.87661,-0.3678539999999999,0.26475,0.90583,-0.354134,-0.072713,-0.00021,-0.0003849999999999,0.072713,0.0002099999999999,0.000385,-0.1430799999999999,-0.22299,-0.223914,0.15408,-0.22153,-0.217164,-0.13951,-0.59012,-0.028772,0.1391299999999999,-0.58848,-0.0214609999999999,1
101,-0.0042334999999999,0.6701600000000001,-0.1615325,-0.1633165,0.53632,-0.1375354999999999,-0.2722965,0.69457,-0.2463525,0.1556835,0.53537,-0.1385664999999999,0.2426535,0.7100200000000001,-0.2464125,-0.3122565,0.8792,-0.3600225,0.2642935,0.90403,-0.3470225,-0.0724015,0.0001,-0.0002044999999999,0.0724015,-9.9999999999989e-05,0.0002045,-0.1376965,-0.23013,-0.2128425,0.1508934999999999,-0.22919,-0.2076425,-0.1369565,-0.6038999999999999,-0.0285635,0.1382435,-0.60212,-0.0215154999999999,1
102,-0.0029049999999999,0.66087,-0.1536285,-0.161663,0.53104,-0.1366885,-0.266763,0.6945399999999999,-0.2411885,0.156917,0.53026,-0.1366385,0.240397,0.70764,-0.2404485,-0.306623,0.88069,-0.3513885,0.2631969999999999,0.90216,-0.3395384999999999,-0.0721209999999999,0.0002599999999999,-0.0001785,0.0721209999999999,-0.00026,0.0001784999999999,-0.1328329999999999,-0.23722,-0.2013485,0.148117,-0.23681,-0.1980385,-0.1342829999999999,-0.61727,-0.0281465,0.137957,-0.61513,-0.0215425,1
103,-0.0022085,0.6512,-0.145138,-0.1604844999999999,0.5265,-0.135397,-0.2614045,0.69506,-0.2346379999999999,0.1579155,0.52593,-0.134343,0.2380855,0.70573,-0.233908,-0.3010245,0.8825000000000001,-0.341868,0.2615955,0.90078,-0.330978,-0.0722165,0.00045,-0.000139,0.0722165,-0.00045,0.000139,-0.1287845,-0.24283,-0.189078,0.1449455,-0.24242,-0.187338,-0.1320245,-0.62866,-0.027343,0.1376155,-0.62598,-0.021439,1
104,-0.001873,0.646105,-0.1389775,-0.1586759999999999,0.520625,-0.1341045,-0.255456,0.693315,-0.2283234999999999,0.158324,0.519935,-0.1321125,0.238594,0.703045,-0.2285235,-0.295476,0.882585,-0.3315234999999999,0.261654,0.8989349999999999,-0.3237635,-0.072412,0.0005549999999999,3.449999999999981e-05,0.072412,-0.0005549999999999,-3.449999999999981e-05,-0.125586,-0.249335,-0.1764735,0.142014,-0.2478749999999999,-0.1759035,-0.130336,-0.645005,-0.0257685,0.137574,-0.641705,-0.0206225,1
105,-0.001222,0.64296,-0.134395,-0.157961,0.5129,-0.1328679999999999,-0.254841,0.69068,-0.221808,0.159019,0.5142800000000001,-0.129712,0.239209,0.70078,-0.222338,-0.292391,0.88178,-0.322248,0.261769,0.89717,-0.316338,-0.0725099999999999,0.00047,0.000144,0.0725099999999999,-0.0004699999999999,-0.0001439999999999,-0.1224109999999999,-0.2542899999999999,-0.162438,0.139809,-0.2523499999999999,-0.163418,-0.128661,-0.65957,-0.0225119999999999,0.137949,-0.6560299999999999,-0.0182969999999999,1
106,-0.0005869999999999,0.6417250000000001,-0.124415,-0.157277,0.510385,-0.1254549999999999,-0.254247,0.6914149999999999,-0.209902,0.159653,0.510845,-0.119862,0.2393529999999999,0.699695,-0.210422,-0.289497,0.883985,-0.307942,0.261883,0.896935,-0.302672,-0.072466,0.0004849999999999,0.000469,0.072466,-0.000485,-0.0004689999999999,-0.119337,-0.264335,-0.141932,0.1378329999999999,-0.262165,-0.144822,-0.127487,-0.678455,-0.0129389999999999,0.138613,-0.675505,-0.0097729999999999,1
107,-0.000108,0.6447849999999999,-0.113174,-0.156588,0.504365,-0.115641,-0.254108,0.6888449999999999,-0.196313,0.160292,0.514365,-0.108274,0.239232,0.701025,-0.196673,-0.2866579999999999,0.882585,-0.290993,0.260762,0.898955,-0.286733,-0.072493,0.0003449999999999,0.0003839999999999,0.072493,-0.0003449999999999,-0.0003839999999999,-0.115738,-0.276885,-0.118272,0.134722,-0.2741449999999999,-0.122558,-0.126528,-0.7000350000000001,0.0005789999999999,0.139292,-0.697515,0.003231,1
108,-0.0002795,0.6524975000000001,-0.1017355,-0.1577295,0.5081175,-0.1020895,-0.2538595,0.6906475000000001,-0.1835525,0.1604104999999999,0.5168975,-0.0970235,0.2386105,0.7018575,-0.1851625,-0.2857895,0.8852875,-0.2762425,0.2593904999999999,0.9002175,-0.2732425,-0.0724575,0.0002555,0.0005105,0.0724575,-0.0002555,-0.0005105,-0.1129795,-0.2897725,-0.0956115,0.1317104999999999,-0.2865225,-0.1012375,-0.1261795,-0.7211025,0.0141564999999999,0.1396405,-0.7190424999999999,0.0165904999999999,1
109,-0.0009309999999999,0.6617945000000001,-0.09131,-0.1589459999999999,0.5139845,-0.0887739999999999,-0.254706,0.6947845,-0.1719389999999999,0.160324,0.5212445,-0.085778,0.237784,0.7057545000000001,-0.173869,-0.285066,0.8903845,-0.262609,0.258174,0.9046445,-0.260559,-0.07233,-0.0001595,0.000679,0.07233,0.0001594999999999,-0.0006789999999999,-0.1105259999999999,-0.3006054999999999,-0.0736219999999999,0.128874,-0.2990855,-0.0816119999999999,-0.125856,-0.7397355,0.027903,0.140204,-0.7383655,0.030534,1
110,-0.0017305,0.6719145000000001,-0.0810734999999999,-0.1602305,0.5205945000000001,-0.0758684999999999,-0.2545105,0.6988445000000001,-0.1604654999999999,0.1599595,0.5246245,-0.0746334999999999,0.2370195,0.7096745000000001,-0.1631854999999999,-0.2845105,0.8947945,-0.2505755,0.2566295,0.9092345,-0.2484855,-0.0723515,-0.0004154999999999,0.0009195,0.0723515,0.0004154999999999,-0.0009195,-0.1085105,-0.3122555,-0.0534075,0.1258695,-0.3106655,-0.0623645,-0.1256305,-0.7577655,0.0415074999999999,0.1410795,-0.7575854999999999,0.0444435,1
111,-0.0028265,0.682261,-0.0712365,-0.1618274999999999,0.528641,-0.0623624999999999,-0.2577075,0.7039110000000001,-0.1488015,0.1594125,0.530101,-0.0634115,0.2384825,0.713921,-0.1524615,-0.2839575,0.900791,-0.2378815,0.2564725,0.914261,-0.2360215,-0.0723534999999999,-0.0006219999999999,0.0013265,0.0723534999999999,0.000622,-0.0013265,-0.1066775,-0.323499,-0.0336135,0.1231325,-0.321639,-0.0436065,-0.1253375,-0.7761589999999999,0.0550275,0.1421325,-0.777079,0.0584595,1
112,-0.004577,0.6926925,-0.06072,-0.163823,0.5365625,-0.048425,-0.261953,0.7093625,-0.137903,0.158327,0.5357425,-0.051848,0.2392169999999999,0.7180725,-0.1413029999999999,-0.284223,0.9068525,-0.225883,0.256097,0.9189825,-0.223163,-0.072359,-0.0007995,0.0016469999999999,0.072359,0.0007994999999999,-0.001647,-0.105423,-0.3346874999999999,-0.015086,0.1204969999999999,-0.3324875,-0.025865,-0.125413,-0.7950075,0.067806,0.143067,-0.7984775,0.0722599999999999,1
113,-0.0063864999999999,0.6998840000000001,-0.0508855,-0.1662975,0.5459040000000001,-0.0340655,-0.2668775,0.716054,-0.1270475,0.1572724999999999,0.5410240000000001,-0.0404975,0.2395924999999999,0.721784,-0.1310975,-0.2855775,0.913754,-0.2139375,0.2563425,0.923414,-0.2109975,-0.0724805,-0.0008419999999999,0.0019874999999999,0.0724805,0.000842,-0.0019874999999999,-0.1042675,-0.3444959999999999,0.0013734999999999,0.1180925,-0.3420559999999999,-0.0098475,-0.1256675,-0.813856,0.0796935,0.1443025,-0.818696,0.0851985,1
114,-0.0082235,0.707315,-0.0416795,-0.1688645,0.555605,-0.0193265,-0.2720745,0.722855,-0.1158444999999999,0.1564255,0.546555,-0.0290105,0.2395955,0.7254349999999999,-0.1211744999999999,-0.2871545,0.920725,-0.2025145,0.2548955,0.927665,-0.1990845,-0.0726755,-0.000867,0.0025384999999999,0.0726755,0.0008669999999999,-0.0025385,-0.1030545,-0.354055,0.0156414999999999,0.1161754999999999,-0.351735,0.0039914999999999,-0.1257845,-0.832315,0.0905155,0.1459955,-0.838615,0.0969204999999999,1
115,-0.0099709999999999,0.712977,-0.038554,-0.1714389999999999,0.560107,-0.010855,-0.2766389999999999,0.724777,-0.110328,0.155661,0.548797,-0.025479,0.240091,0.726457,-0.117168,-0.286809,0.922927,-0.197278,0.253831,0.929207,-0.193188,-0.072885,-0.000944,0.0031029999999999,0.072885,0.000944,-0.003103,-0.101999,-0.358093,0.0221649999999999,0.114581,-0.355873,0.0106489999999999,-0.125609,-0.8448330000000001,0.0950119999999999,0.147721,-0.852513,0.1025949999999999,1
116,-0.011438,0.716755,-0.0363175,-0.174376,0.567015,-0.0034205,-0.282176,0.729405,-0.1054175,0.155374,0.546975,-0.0228715,0.240944,0.725795,-0.1142575,-0.288476,0.927625,-0.1930975,0.2526839999999999,0.929095,-0.1886375,-0.072941,-0.0008249999999999,0.0031014999999999,0.072941,0.000825,-0.0031015,-0.100966,-0.357775,0.0249404999999999,0.114564,-0.355395,0.0136454999999999,-0.1246859999999999,-0.847155,0.0968575,0.149464,-0.854565,0.1053865,1
117,-0.012938,0.7174495,-0.0340694999999999,-0.174542,0.5665795,0.0010274999999999,-0.282172,0.7289694999999999,-0.1003065,0.155098,0.5465395,-0.0201335,0.2421579999999999,0.7253795,-0.1114365,-0.288082,0.9272895,-0.1886165,0.251658,0.9293195,-0.1845065,-0.072949,-0.0008764999999999,0.0031014999999999,0.072949,0.0008764999999999,-0.0031015,-0.099862,-0.3576705,0.0277504999999999,0.1145979999999999,-0.3548004999999999,0.0170825,-0.123582,-0.8475905,0.0986334999999999,0.1510579999999999,-0.8552905000000001,0.1081965,1
118,-0.0143539999999999,0.7174594999999999,-0.0305195,-0.17461,0.5665795,0.0060144999999999,-0.2820999999999999,0.7289694999999999,-0.0948514999999999,0.1549499999999999,0.5465395,-0.0177805,0.24347,0.7253795,-0.1089214999999999,-0.2877699999999999,0.9272895,-0.1829615,0.25117,0.9293195,-0.1812715,-0.072829,-0.0008764999999999,0.0031034999999999,0.072829,0.0008764999999999,-0.0031034999999999,-0.09854,-0.3576705,0.0300175,0.1148,-0.3548004999999999,0.0201215,-0.12229,-0.8476005000000001,0.1000405,0.15241,-0.8555005,0.1105025,1
119,-0.0159965,0.7174594999999999,-0.026498,-0.1748315,0.5665795,0.0102399999999999,-0.2826615,0.7289694999999999,-0.090172,0.1548285,0.5462595,-0.0159769999999999,0.2429685,0.7253795,-0.107042,-0.2881115,0.9272895,-0.177892,0.2500185,0.9293195,-0.1801519999999999,-0.0727435,-0.0008764999999999,0.00398,0.0727435,0.0008764999999999,-0.0039799999999999,-0.0979715,-0.3576705,0.031151,0.1147785,-0.3548004999999999,0.021763,-0.1210015,-0.8468905,0.1005669999999999,0.1536185,-0.8557105,0.1115319999999999,1
120,-0.0177525,0.7174594999999999,-0.0235565,-0.1750275,0.5658694999999999,0.0140155,-0.2835275,0.7288795,-0.0860894999999999,0.1548425,0.5455895,-0.0148594999999999,0.2426825,0.7253795,-0.1061295,-0.2883975,0.9272895,-0.1746795,0.2488725,0.9293195,-0.1803195,-0.0726445,-0.0008764999999999,0.0048705,0.0726445,0.0008764999999999,-0.0048705,-0.0972975,-0.3576705,0.0313795,0.1147525,-0.3548004999999999,0.0225695,-0.1198075,-0.8463205,0.1008874999999999,0.1547825,-0.8559905,0.1121325,1
121,-0.0195825,0.7179289999999999,-0.0209895,-0.1753565,0.5654589999999999,0.0175595,-0.2847765,0.728449,-0.0824915,0.1549235,0.544769,-0.0142685,0.2425334999999999,0.724829,-0.1062615,-0.2891465,0.926939,-0.1721015,0.2479434999999999,0.929079,-0.1816714999999999,-0.0724645,-0.0008749999999999,0.0057154999999999,0.0724645,0.000875,-0.0057155,-0.0965365,-0.357661,0.0312285,0.1147435,-0.354371,0.0227185,-0.1184765,-0.8456210000000001,0.1008015,0.1558535,-0.855521,0.1122785,1
122,-0.0212595,0.7184395,-0.019363,-0.1757095,0.5654095,0.020196,-0.2865495,0.7279395000000001,-0.079627,0.1550305,0.5440995000000001,-0.0145109999999999,0.2425105,0.7241695,-0.107727,-0.2902395,0.9263295,-0.170537,0.2470405,0.9281595,-0.184517,-0.0722835,-0.0008824999999999,0.006569,0.0722835,0.0008825,-0.0065689999999999,-0.0957295,-0.3578105,0.030717,0.1147605,-0.3540405,0.022369,-0.1171494999999999,-0.8445005,0.09966,0.1568205,-0.8545204999999999,0.111452,1
123,-0.0229745,0.7184790000000001,-0.0181595,-0.1759025,0.565389,0.0220194999999999,-0.2884125,0.7270690000000001,-0.0773975,0.1552474999999999,0.543339,-0.0155105,0.2426674999999999,0.7232390000000001,-0.1102015,-0.2917825,0.924919,-0.1696115,0.2463375,0.926919,-0.1877815,-0.0720855,-0.0008709999999999,0.0074694999999999,0.0720855,0.000871,-0.0074695,-0.0948924999999999,-0.358081,0.0300795,0.1147575,-0.353821,0.0215635,-0.1157925,-0.8432609999999999,0.0978774999999999,0.1576175,-0.8532909999999999,0.1100765,1
124,-0.0246015,0.7187065,-0.0175105,-0.1762615,0.5655165,0.0233115,-0.2903815,0.7261965,-0.0758504999999999,0.1554485,0.5425665,-0.0170635,0.2429585,0.7220165,-0.1134355,-0.2936415,0.9236865,-0.1689455,0.2454685,0.9253065,-0.1913254999999999,-0.0718925,-0.0008605,0.0083205,0.0718925,0.0008605,-0.0083205,-0.0941415,-0.3583635,0.0294515,0.1146975,-0.3536935,0.0206475,-0.1145515,-0.8418635,0.0956435,0.1581385,-0.8520035,0.1078915,1
125,-0.0263764999999999,0.7191409999999999,-0.0170725,-0.1767475,0.565801,0.0243875,-0.2922774999999999,0.725551,-0.0746755,0.1555425,0.5420609999999999,-0.0189865,0.2432125,0.7208209999999999,-0.1169205,-0.2955875,0.922691,-0.1684805,0.2444125,0.923571,-0.1949805,-0.0716945,-0.0008789999999999,0.0090625,0.0716945,0.000879,-0.0090625,-0.0936275,-0.358599,0.0289495,0.1145275,-0.353659,0.0195695,-0.1134274999999999,-0.8404590000000001,0.0933835,0.1582025,-0.8506990000000001,0.1052115,1
126,-0.028156,0.719631,-0.016653,-0.177183,0.566131,0.025216,-0.2942729999999999,0.725021,-0.0732,0.155637,0.541541,-0.021086,0.243447,0.719481,-0.120206,-0.2975629999999999,0.921801,-0.167916,0.243307,0.921671,-0.199526,-0.071536,-0.000883,0.009684,0.071536,0.000883,-0.009684,-0.093243,-0.358779,0.028512,0.1144719999999999,-0.353749,0.018275,-0.112423,-0.8395189999999999,0.091245,0.1578169999999999,-0.8496889999999999,0.102894,1
127,-0.030066,0.7203790000000001,-0.016389,-0.177753,0.566509,0.026024,-0.2963929999999999,0.724439,-0.071634,0.155617,0.540999,-0.023325,0.2435469999999999,0.718049,-0.1234639999999999,-0.2995429999999999,0.920879,-0.167314,0.242337,0.919709,-0.204464,-0.071383,-0.0009029999999999,0.010371,0.071383,0.000903,-0.010371,-0.092983,-0.358981,0.028086,0.114435,-0.353841,0.016882,-0.111553,-0.838831,0.089103,0.157487,-0.8490409999999999,0.100456,1
128,-0.0319775,0.721076,-0.016117,-0.1783104999999999,0.566946,0.026889,-0.2980605,0.7239960000000001,-0.070496,0.1555495,0.540386,-0.025523,0.2434895,0.7166159999999999,-0.1266989999999999,-0.3011005,0.920216,-0.1667489999999999,0.2411595,0.917736,-0.2097089999999999,-0.0712315,-0.00094,0.010947,0.0712315,0.0009399999999999,-0.010947,-0.0926505,-0.359244,0.027365,0.1146115,-0.353914,0.015505,-0.1109505,-0.8380939999999999,0.0868299999999999,0.1572395,-0.8485039999999999,0.098249,1
129,-0.0339364999999999,0.721671,-0.0155375,-0.1790234999999999,0.567241,0.0278964999999999,-0.2994835,0.723621,-0.0693605,0.1553965,0.539801,-0.0277854999999999,0.2431165,0.7153109999999999,-0.1301465,-0.3022735,0.919651,-0.1659864999999999,0.2397265,0.915891,-0.2150465,-0.0711475,-0.0009749999999999,0.0115265,0.0711475,0.000975,-0.0115265,-0.0923235,-0.359459,0.0267555,0.1147295,-0.353979,0.0142305,-0.1105535,-0.837559,0.0842945,0.1570565,-0.848209,0.0960705,1
130,-0.036,0.722071,-0.0143535,-0.179914,0.567411,0.0292135,-0.3007039999999999,0.723161,-0.0676815,0.155186,0.539231,-0.0298655,0.242716,0.7140810000000001,-0.1336785,-0.3034239999999999,0.919081,-0.1645885,0.238026,0.914291,-0.2196985,-0.071125,-0.0010279999999999,0.0120935,0.071125,0.0010279999999999,-0.0120935,-0.092094,-0.359649,0.0263435,0.114785,-0.354019,0.0130625,-0.110254,-0.837139,0.0822425,0.156856,-0.8480989999999999,0.0941195,0
131,-0.0381625,0.72224,-0.012497,-0.1809155,0.56741,0.031037,-0.3015255,0.72246,-0.065658,0.1549645,0.53867,-0.0316069999999999,0.2421545,0.71279,-0.137085,-0.3045455,0.91846,-0.162395,0.2361445,0.91272,-0.223935,-0.0710905,-0.001091,0.012565,0.0710905,0.001091,-0.012565,-0.0919255,-0.35978,0.0262649999999999,0.1147945,-0.35402,0.0121479999999999,-0.1100155,-0.83666,0.080749,0.1566145,-0.84824,0.092659,0
132,-0.0402225,0.7224975,-0.010061,-0.1819575,0.5674075,0.03296,-0.3020775,0.7217675,-0.063509,0.1547325,0.5381775,-0.033102,0.2415725,0.7115874999999999,-0.1402449999999999,-0.3053575,0.9177875,-0.160055,0.2342225,0.9113275,-0.2275049999999999,-0.0710645,-0.0011555,0.012937,0.0710645,0.0011554999999999,-0.012937,-0.0917475,-0.3599024999999999,0.026323,0.1148585,-0.3540025,0.011388,-0.1098075,-0.8365125,0.079665,0.1564225,-0.8483325,0.0915599999999999,0
133,-0.04223,0.7225115,-0.009856,-0.182215,0.5679715,0.0343539999999999,-0.303445,0.7224714999999999,-0.063098,0.154625,0.5371115,-0.034277,0.239925,0.7105315,-0.14357,-0.306645,0.9189015,-0.15883,0.232705,0.9098115,-0.23216,-0.071353,-0.0012084999999999,0.013838,0.071353,0.0012085,-0.013838,-0.091435,-0.3601885,0.0257769999999999,0.115335,-0.3538985,0.0104479999999999,-0.1095549999999999,-0.8377885,0.076876,0.155985,-0.8481285000000001,0.09097,0
134,-0.044671,0.7242425,-0.0048105,-0.184204,0.5679725,0.0376715,-0.3044639999999999,0.7212325,-0.0579985,0.154416,0.5372625,-0.0348805,0.2391259999999999,0.7100425,-0.1458944999999999,-0.307454,0.9171025,-0.1550645,0.2303859999999999,0.9091225,-0.2348644999999999,-0.071198,-0.0013205,0.0140485,0.071198,0.0013205,-0.0140485,-0.091544,-0.3602775,0.0259845,0.115509,-0.3537975,0.0099135,-0.109134,-0.8376275,0.0785835,0.156416,-0.8472875,0.0906155,0
135,-0.0465929999999999,0.723919,-0.001524,-0.185527,0.566829,0.040897,-0.304247,0.718779,-0.054783,0.154363,0.536829,-0.03559,0.2392429999999999,0.708099,-0.149196,-0.308147,0.915129,-0.150726,0.228903,0.907509,-0.2371059999999999,-0.07102,-0.0014469999999999,0.0141109999999999,0.07102,0.001447,-0.014111,-0.091307,-0.360411,0.026046,0.115214,-0.353741,0.009589,-0.108817,-0.835891,0.077468,0.156443,-0.847631,0.0899939999999999,0
136,-0.0482235,0.7254634999999999,0.003251,-0.1862535,0.5665735,0.042045,-0.3041034999999999,0.7173235,-0.052042,0.1538264999999999,0.5376234999999999,-0.037113,0.2388165,0.7085435,-0.151228,-0.3082735,0.9132035,-0.149048,0.2265164999999999,0.9081735,-0.238288,-0.0709735,-0.0015145,0.014173,0.0709735,0.0015145,-0.0141729999999999,-0.0913035,-0.3604465,0.0263289999999999,0.1152355,-0.3537165,0.009228,-0.1089734999999999,-0.8360765,0.077565,0.1561265,-0.8486165,0.088409,0
137,-0.0510879999999999,0.7268355000000001,0.0093389999999999,-0.186962,0.5666755,0.044888,-0.304092,0.7165755,-0.049046,0.153358,0.5370255,-0.037331,0.238238,0.7071955,-0.152886,-0.308782,0.9120855,-0.146886,0.225428,0.9072955,-0.2386059999999999,-0.071005,-0.0016755,0.014461,0.071005,0.0016755,-0.014461,-0.090752,-0.3606045,0.0267909999999999,0.115186,-0.3535945,0.008768,-0.1082919999999999,-0.8350645,0.0776449999999999,0.155808,-0.8487445,0.088605,0
138,-0.0535485,0.728209,0.015153,-0.1871745,0.566809,0.045393,-0.3032545,0.715129,-0.047975,0.1531755,0.5369590000000001,-0.03753,0.2379355,0.706399,-0.154447,-0.3082645,0.910529,-0.146067,0.2237655,0.906489,-0.239987,-0.0709275,-0.0017399999999999,0.014485,0.0709275,0.00174,-0.014485,-0.0905945,-0.360661,0.026864,0.1151505,-0.353531,0.0087079999999999,-0.1083945,-0.833861,0.07818,0.1557155,-0.848891,0.088488,0
139,-0.055356,0.7282215000000001,0.0202075,-0.187346,0.5669315,0.0462545,-0.302786,0.7135915,-0.0466195,0.1521839999999999,0.5374515000000001,-0.0397465,0.237484,0.7063515,-0.1571135,-0.307046,0.9085615,-0.1457335,0.2226739999999999,0.9069615,-0.2410735,-0.07091,-0.0019554999999999,0.0145304999999999,0.07091,0.0019555,-0.0145305,-0.089836,-0.3608985,0.0270325,0.1152229999999999,-0.3533285,0.0085145,-0.108476,-0.8339485,0.0781235,0.155714,-0.8484185,0.0881915,0
