sb224sc-HT22-VT27/4dt907/src/ml-research/a11/datafiles/labeled_files/A12_kinect.csv
FrameNo,nose_3d_x,nose_3d_y,nose_3d_z,left_shoulder_3d_x,left_shoulder_3d_y,left_shoulder_3d_z,left_elbow_3d_x,left_elbow_3d_y,left_elbow_3d_z,right_shoulder_3d_x,right_shoulder_3d_y,right_shoulder_3d_z,right_elbow_3d_x,right_elbow_3d_y,right_elbow_3d_z,left_wrist_3d_x,left_wrist_3d_y,left_wrist_3d_z,right_wrist_3d_x,right_wrist_3d_y,right_wrist_3d_z,left_hip_3d_x,left_hip_3d_y,left_hip_3d_z,right_hip_3d_x,right_hip_3d_y,right_hip_3d_z,left_knee_3d_x,left_knee_3d_y,left_knee_3d_z,right_knee_3d_x,right_knee_3d_y,right_knee_3d_z,left_ankle_3d_x,left_ankle_3d_y,left_ankle_3d_z,right_ankle_3d_x,right_ankle_3d_y,right_ankle_3d_z,activity_label
0,0.0074565,0.7420545,0.074394,-0.1431675,0.4687845,0.052925,-0.2550075,0.5574745,-0.147373,0.1421025,0.4734645,0.056719,0.2650625,0.5286945,-0.137143,-0.2400775,0.6659345,-0.373473,0.2766225,0.5574444999999999,-0.362703,-0.0741515,0.0024065,0.0007489999999999,0.0741515,-0.0024065,-0.0007489999999999,-0.1258075,-0.3712455,-0.0248209999999999,0.1127425,-0.4145655,0.00614,-0.1352175,-0.7494655,-0.0264309999999999,0.1237525,-0.7571055000000001,-0.022086,0
1,0.007347,0.7350125,0.0725565,-0.140757,0.4731925,0.0490685,-0.256507,0.6060525,-0.1343465,0.142923,0.4740125,0.0533364999999999,0.261113,0.6049725,-0.1345465,-0.228157,0.7821725,-0.3526365,0.258433,0.7550625,-0.3434265,-0.074126,0.0025675,0.0001544999999999,0.074126,-0.0025675,-0.0001545,-0.125387,-0.3781575,-0.0257355,0.113863,-0.3994575,0.0028414999999999,-0.133807,-0.7550775,-0.0252795,0.123813,-0.7661475,-0.0242225,0
2,0.00935,0.7307800000000001,0.071498,-0.1406919999999999,0.48643,0.055078,-0.250812,0.657,-0.115694,0.144718,0.46838,0.052758,0.250518,0.64446,-0.118684,-0.216602,0.8537600000000001,-0.307664,0.249928,0.84633,-0.298634,-0.073893,0.003345,-0.0009429999999999,0.073893,-0.003345,0.0009429999999999,-0.1236019999999999,-0.38456,-0.025278,0.115738,-0.40898,0.001823,-0.132222,-0.75591,-0.01987,0.123838,-0.77538,-0.0231919999999999,0
3,0.0095735,0.727801,0.071946,-0.1401395,0.4882009999999999,0.055368,-0.2500695,0.669971,-0.1086879999999999,0.1453505,0.471601,0.0535459999999999,0.2459305,0.650131,-0.114528,-0.2119995,0.880441,-0.294158,0.2467504999999999,0.8641110000000001,-0.288128,-0.0735925,0.003339,-0.0012029999999999,0.0735925,-0.0033389999999999,0.0012029999999999,-0.1233394999999999,-0.388179,-0.024755,0.1157505,-0.413069,0.002131,-0.1319795,-0.7577689999999999,-0.0173599999999999,0.1242305,-0.779239,-0.0229249999999999,0
4,0.009779,0.7264345000000001,0.0721604999999999,-0.138955,0.4909545,0.0560564999999999,-0.2489449999999999,0.6919045,-0.1025435,0.145795,0.4755745,0.0551694999999999,0.244435,0.6661745,-0.1032135,-0.2075349999999999,0.9016245,-0.2776835,0.242945,0.8848245,-0.2705835,-0.073546,0.0033975,-0.0015625,0.073546,-0.0033974999999999,0.0015624999999999,-0.123295,-0.3906455,-0.0244515,0.115695,-0.4162555,0.0022684999999999,-0.1323249999999999,-0.7600155,-0.0170145,0.124205,-0.7820554999999999,-0.0232445,0
5,0.0125914999999999,0.7237049999999999,0.0668265,-0.1363305,0.491065,0.0528015,-0.2454005,0.7026549999999999,-0.1041945,0.1475594999999999,0.475235,0.0526125,0.2439595,0.678555,-0.1016345,-0.2004205,0.914305,-0.2692045,0.2436795,0.900135,-0.2577645,-0.0731925,0.0036469999999999,-0.0007295,0.0731925,-0.0036469999999999,0.0007295,-0.1249805,-0.3936949999999999,-0.0217974999999999,0.1136295,-0.420245,0.0050295,-0.1362605,-0.767105,-0.0160304999999999,0.1210594999999999,-0.7855850000000001,-0.0164194999999999,0
6,0.012444,0.7213585,0.066845,-0.1361099999999999,0.4908085,0.053843,-0.24599,0.7114685,-0.096342,0.14802,0.4770784999999999,0.053389,0.23544,0.6867285,-0.0853319999999999,-0.19745,0.9272785,-0.254872,0.24061,0.9098485,-0.243032,-0.072651,0.0029304999999999,1.2999999999999123e-05,0.072651,-0.0029305,-1.2999999999999123e-05,-0.1253,-0.3970815,-0.0216939999999999,0.11326,-0.4238615,0.004871,-0.13631,-0.7720515,-0.0173019999999999,0.12084,-0.7890815,-0.0161849999999999,0
7,0.0127395,0.7189599999999999,0.069086,-0.1346255,0.48902,0.0525459999999999,-0.2198355,0.71367,-0.081136,0.1473045,0.47539,0.055133,0.2308945,0.70518,-0.078556,-0.1918755,0.93732,-0.227496,0.2324545,0.92551,-0.215316,-0.0725555,0.0032869999999999,-0.000496,0.0725555,-0.0032869999999999,0.0004959999999999,-0.1242055,-0.40027,-0.02112,0.1138745,-0.42535,0.0043819999999999,-0.1341155,-0.77457,-0.015555,0.1219745,-0.79237,-0.016948,0
8,0.0137574999999999,0.7163174999999999,0.068493,-0.1328605,0.4888275,0.052347,-0.2116805,0.7228775,-0.075296,0.1476795,0.4766875,0.055108,0.2273994999999999,0.7160675,-0.071206,-0.1869104999999999,0.9479175,-0.212386,0.2287294999999999,0.9372875,-0.198976,-0.0724115,0.0032884999999999,-0.0005299999999999,0.0724115,-0.0032884999999999,0.00053,-0.1240105,-0.4034525,-0.0208329999999999,0.1138995,-0.4286425,0.004404,-0.1339105,-0.7785525000000001,-0.01548,0.1219394999999999,-0.7960025000000001,-0.016527,0
9,0.014793,0.7128075,0.0677855,-0.130865,0.4897475,0.0522295,-0.203395,0.7308975,-0.0691285,0.148015,0.4767875,0.0551055,0.2235349999999999,0.7251275,-0.0643525,-0.1808349999999999,0.9608275,-0.1980385,0.2240849999999999,0.9524275,-0.1829885,-0.0722,0.0032814999999999,-0.0003394999999999,0.0722,-0.0032814999999999,0.0003394999999999,-0.123725,-0.4072525,-0.0203815,0.113955,-0.4325325,0.0044344999999999,-0.133785,-0.7832625,-0.0152955,0.121955,-0.8002025,-0.0159355,0
10,0.0151075,0.7094025,0.0676855,-0.1291514999999999,0.4907124999999999,0.0517505,-0.1952315,0.7380125000000001,-0.0632085,0.1482385,0.4769125,0.0549995,0.2188085,0.7326925000000001,-0.0567755,-0.1757015,0.9721525,-0.1835045,0.2193284999999999,0.9658525,-0.1678645,-0.0718615,0.0033274999999999,-0.0001465,0.0718615,-0.0033275,0.0001465,-0.1235315,-0.4109375,-0.0200995,0.1140685,-0.4359875,0.0044575,-0.1336215,-0.7871374999999999,-0.0151135,0.1220885,-0.8041174999999999,-0.0157245,0
11,0.0154445,0.705682,0.067593,-0.1273615,0.491482,0.051284,-0.1866415,0.744102,-0.0575799999999999,0.1485485,0.476332,0.054952,0.2145085,0.738892,-0.05036,-0.1705414999999999,0.982042,-0.169703,0.2143685,0.977742,-0.153353,-0.0714255,0.0035379999999999,5.300000000000443e-05,0.0714255,-0.0035379999999999,-5.299999999999749e-05,-0.1232315,-0.414738,-0.0198259999999999,0.1142485,-0.4395679999999999,0.004507,-0.1333815,-0.791248,-0.0151429999999999,0.1223185,-0.8081579999999999,-0.0155299999999999,0
12,0.0160215,0.7000445,0.067558,-0.1253425,0.4909644999999999,0.050935,-0.1807325,0.7491445000000001,-0.05165,0.1489774999999999,0.4741745,0.054896,0.2102274999999999,0.7389245,-0.0447029999999999,-0.1651925,0.9870045,-0.158101,0.2096875,0.9850045,-0.141411,-0.0708175,0.0036484999999999,0.000225,0.0708175,-0.0036484999999999,-0.0002249999999999,-0.1227425,-0.4200755,-0.019814,0.1143375,-0.4428455,0.004197,-0.1330125,-0.7968854999999999,-0.0152349999999999,0.1227175,-0.8137954999999999,-0.0155239999999999,0
13,0.0165105,0.69267,0.0673645,-0.1234394999999999,0.48855,0.0502875,-0.1759295,0.75261,-0.0491854999999999,0.1491205,0.47052,0.0549385,0.2058105,0.7375,-0.0393715,-0.1595095,0.98993,-0.1463685,0.2049105,0.99043,-0.1299985,-0.0700865,0.0038199999999999,0.0003545,0.0700865,-0.00382,-0.0003545,-0.1220795,-0.42537,-0.0198624999999999,0.1140205,-0.44639,0.0036435,-0.1326294999999999,-0.80437,-0.0155054999999999,0.1230305,-0.82117,-0.0157464999999999,1
14,0.016941,0.685721,0.067162,-0.121727,0.486251,0.049774,-0.171077,0.754461,-0.0465589999999999,0.149103,0.4676909999999999,0.054959,0.201473,0.735811,-0.0344149999999999,-0.1538469999999999,0.992681,-0.1357259999999999,0.200203,0.995281,-0.1197459999999999,-0.069413,0.003971,0.000425,0.069413,-0.003971,-0.000425,-0.121477,-0.430159,-0.019851,0.113603,-0.4494889999999999,0.003213,-0.132307,-0.811429,-0.0155819999999999,0.123263,-0.828129,-0.01594,1
15,0.017429,0.6783045000000001,0.0669464999999999,-0.12015,0.4842745,0.0492795,-0.16646,0.7538545000000001,-0.0432095,0.14901,0.4649045,0.0549375,0.1973,0.7338345,-0.0294865,-0.14829,0.9943045,-0.1255835,0.19566,0.9988045,-0.1100535,-0.068739,0.0042164999999999,0.0004544999999999,0.068739,-0.0042164999999999,-0.0004545,-0.1209399999999999,-0.4347355,-0.0198435,0.11299,-0.4525755,0.0028094999999999,-0.13213,-0.8187355000000001,-0.0158355,0.12343,-0.8358155,-0.0163535,1
16,0.0177809999999999,0.6714715,0.0667325,-0.118932,0.4825914999999999,0.0489285,-0.160882,0.7538414999999999,-0.0407045,0.148768,0.4614914999999999,0.0550055,0.193028,0.7311415,-0.0243885,-0.142982,0.9950115,-0.1158174999999999,0.191098,1.0021115,-0.1006775,-0.068073,0.0043715,0.0004485,0.068073,-0.0043715,-0.0004484999999999,-0.1205519999999999,-0.4388185,-0.0198664999999999,0.1121979999999999,-0.4550285,0.0024235,-0.1321719999999999,-0.8257185,-0.0160644999999999,0.123448,-0.8430185,-0.0166954999999999,1
17,0.0180649999999999,0.66509,0.066415,-0.11825,0.48094,0.0484519999999999,-0.15645,0.75352,-0.038299,0.14857,0.45785,0.0549459999999999,0.18875,0.72844,-0.019575,-0.13785,0.99584,-0.10694,0.18672,1.00564,-0.0922,-0.0673219999999999,0.00454,0.0004959999999999,0.0673219999999999,-0.00454,-0.000496,-0.12011,-0.4425,-0.019943,0.1114399999999999,-0.45705,0.0020139999999999,-0.13223,-0.83245,-0.016452,0.1235,-0.84994,-0.017023,1
18,0.0180509999999999,0.659795,0.0660645,-0.117438,0.478815,0.0478155,-0.151828,0.7530749999999999,-0.0349065,0.148292,0.454905,0.0548195,0.184492,0.725535,-0.0152515,-0.133918,0.991705,-0.0980145,0.182812,1.003305,-0.0843045,-0.066639,0.0048049999999999,0.0004574999999999,0.066639,-0.004805,-0.0004574999999999,-0.119748,-0.445215,-0.0201874999999999,0.110512,-0.458355,0.0015235,-0.132378,-0.839135,-0.0170485,0.123412,-0.856245,-0.0175185,1
19,0.017814,0.6542250000000001,0.0655975,-0.116543,0.477925,0.0467645,-0.1475429999999999,0.753595,-0.0317375,0.147967,0.451675,0.0546635,0.179857,0.723145,-0.0117545,-0.129843,0.987385,-0.0898065,0.178677,1.001685,-0.0768264999999999,-0.0659599999999999,0.005055,0.0003534999999999,0.0659599999999999,-0.0050549999999999,-0.0003534999999999,-0.119393,-0.447635,-0.0205885,0.109517,-0.4595249999999999,0.0009844999999999,-0.1325829999999999,-0.845715,-0.0172515,0.123277,-0.862775,-0.0180955,1
20,0.017272,0.648355,0.064873,-0.115583,0.4798749999999999,0.045183,-0.143643,0.755435,-0.028953,0.147557,0.448245,0.054522,0.175337,0.720415,-0.008402,-0.125903,0.984315,-0.082307,0.174677,0.999615,-0.070027,-0.065374,0.0053249999999999,7.200000000000262e-05,0.065374,-0.005325,-7.200000000000262e-05,-0.119033,-0.449485,-0.021094,0.108347,-0.460305,0.000453,-0.132903,-0.852595,-0.017513,0.123037,-0.8694850000000001,-0.018609,1
21,0.0166435,0.64442,0.0641635,-0.1151105,0.48339,0.0436215,-0.1404805,0.75834,-0.0272625,0.1471195,0.4465199999999999,0.0543064999999999,0.1715395,0.71902,-0.0058865,-0.1230805,0.98298,-0.0769065,0.1714895,0.99868,-0.0654945,-0.0648514999999999,0.00567,-0.0003125,0.0648514999999999,-0.00567,0.0003125,-0.1187705,-0.4493399999999999,-0.0217105,0.1073395,-0.46094,4.349999999999493e-05,-0.1333305,-0.85762,-0.0178655,0.1226795,-0.8743000000000001,-0.0191965,1
22,0.016169,0.64251,0.063298,-0.114979,0.4889099999999999,0.0426169999999999,-0.137859,0.76293,-0.025895,0.146821,0.4462199999999999,0.054187,0.168471,0.71904,-0.003703,-0.120599,0.98388,-0.072265,0.168481,0.99898,-0.06108,-0.064468,0.00589,-0.000704,0.064468,-0.0058899999999999,0.0007039999999999,-0.118599,-0.4491199999999999,-0.022347,0.106771,-0.46126,-0.000267,-0.133659,-0.86078,-0.018317,0.122461,-0.87732,-0.019796,1
23,0.0156,0.6410849999999999,0.062366,-0.115043,0.495525,0.0422979999999999,-0.135393,0.767555,-0.024655,0.1465769999999999,0.445445,0.054095,0.165647,0.719025,-0.001629,-0.118433,0.984525,-0.068111,0.1656969999999999,0.999125,-0.056975,-0.064115,0.0061549999999999,-0.001155,0.064115,-0.0061549999999999,0.0011549999999999,-0.118403,-0.448865,-0.023034,0.106267,-0.461665,-0.000621,-0.133923,-0.864025,-0.018998,0.1222969999999999,-0.880325,-0.020507,1
24,0.0149569999999999,0.63961,0.0617195,-0.1152759999999999,0.50144,0.0424045,-0.133296,0.77178,-0.0237015,0.1462939999999999,0.4444399999999999,0.0542725,0.1628339999999999,0.71865,8.64999999999963e-05,-0.116826,0.98516,-0.0646394999999999,0.1629739999999999,0.99896,-0.0536035,-0.0638249999999999,0.0063999999999999,-0.0018415,0.0638249999999999,-0.0064,0.0018414999999999,-0.1182759999999999,-0.44865,-0.0233315,0.1057539999999999,-0.46201,-0.0005814999999999,-0.134216,-0.8672,-0.0192835,0.122034,-0.88274,-0.0205965,1
25,0.014551,0.63785,0.0610955,-0.11542,0.50604,0.0425235,-0.1321699999999999,0.77497,-0.0226405,0.14614,0.44309,0.0544595,0.16063,0.7176,0.0009424999999999,-0.11557,0.98562,-0.0605485,0.16049,0.99832,-0.0505305,-0.063544,0.0066499999999999,-0.0025094999999999,0.063544,-0.0066499999999999,0.0025094999999999,-0.11805,-0.44842,-0.0235835,0.10531,-0.46234,-0.0005145,-0.13438,-0.8704,-0.0193904999999999,0.12178,-0.88542,-0.0206205,1
26,0.0141485,0.635075,0.0605739999999999,-0.1155235,0.510025,0.042741,-0.1308735,0.776395,-0.021486,0.1460665,0.4417649999999999,0.0546619999999999,0.1585965,0.7159249999999999,0.0017279999999999,-0.1144435,0.984225,-0.056445,0.1583265,0.997025,-0.04787,-0.0633575,0.006855,-0.003127,0.0633575,-0.006855,0.0031269999999999,-0.1177834999999999,-0.448245,-0.02379,0.1049364999999999,-0.4626949999999999,-0.00046,-0.1344834999999999,-0.873335,-0.019366,0.1215765,-0.888125,-0.020598,1
27,0.0134565,0.6343,0.060032,-0.1158135,0.51346,0.0429439999999999,-0.1300535,0.77746,-0.020234,0.1459365,0.44155,0.054876,0.1567965,0.71443,0.002429,-0.1133135,0.98381,-0.051964,0.1566165,0.99581,-0.0458359999999999,-0.0632635,0.0069099999999999,-0.003587,0.0632635,-0.0069099999999999,0.003587,-0.1175235,-0.44823,-0.0238369999999999,0.1047065,-0.4628299999999999,-0.000307,-0.1344634999999999,-0.8756499999999999,-0.019144,0.1216665,-0.8904099999999999,-0.02037,1
28,0.012535,0.63381,0.059446,-0.116419,0.51543,0.043704,-0.128509,0.77814,-0.018333,0.1458809999999999,0.44166,0.0550579999999999,0.155941,0.7125699999999999,0.0030949999999999,-0.112199,0.98477,-0.0476339999999999,0.155171,0.99407,-0.043814,-0.063227,0.0069,-0.003894,0.063227,-0.0068999999999999,0.0038939999999999,-0.117259,-0.44827,-0.023809,0.104541,-0.4628799999999999,-0.000157,-0.134389,-0.8775899999999999,-0.018953,0.1218009999999999,-0.8923300000000001,-0.020176,1
29,0.011422,0.63379,0.058491,-0.116814,0.51456,0.044497,-0.126594,0.77887,-0.016401,0.145806,0.4425,0.055269,0.155236,0.71188,0.0033359999999999,-0.110924,0.98547,-0.0432549999999999,0.153786,0.99327,-0.041973,-0.063195,0.0067699999999999,-0.004108,0.063195,-0.0067699999999999,0.004108,-0.117134,-0.4484,-0.023682,0.104446,-0.4628,3.099999999999631e-05,-0.134264,-0.87879,-0.018543,0.121856,-0.89352,-0.019957,1
30,0.0101035,0.633715,0.05727,-0.1183065,0.513425,0.046659,-0.1246765,0.7786949999999999,-0.0142249999999999,0.1455735,0.4438049999999999,0.05542,0.1541935,0.711165,0.003667,-0.1096165,0.985255,-0.038713,0.1521935,0.992655,-0.0402169999999999,-0.0631575,0.0065949999999999,-0.0044229999999999,0.0631575,-0.006595,0.004423,-0.1169765,-0.448605,-0.023443,0.1043535,-0.462645,0.000327,-0.1340265,-0.8794850000000001,-0.0177839999999999,0.1218134999999999,-0.894585,-0.0194849999999999,1
31,0.0089139999999999,0.633705,0.0560839999999999,-0.119515,0.512285,0.048318,-0.122955,0.778295,-0.012162,0.145365,0.4451349999999999,0.055565,0.153135,0.7099449999999999,0.004052,-0.108245,0.985325,-0.034006,0.150685,0.991625,-0.038471,-0.063174,0.0064349999999999,-0.0047709999999999,0.063174,-0.0064349999999999,0.004771,-0.116815,-0.448785,-0.023154,0.104325,-0.462495,0.0006719999999999,-0.133735,-0.879965,-0.016936,0.121795,-0.895595,-0.0189879999999999,1
32,0.007922,0.63347,0.0549915,-0.1200239999999999,0.5098199999999999,0.0497605,-0.1212839999999999,0.77773,-0.0099305,0.145136,0.44653,0.0557495,0.152056,0.7092100000000001,0.0045275,-0.106574,0.98487,-0.0293425,0.149196,0.99107,-0.0368294999999999,-0.063266,0.0062699999999999,-0.0051635,0.063266,-0.0062699999999999,0.0051635,-0.1166639999999999,-0.4489599999999999,-0.0227945,0.104306,-0.46234,0.0010864999999999,-0.133454,-0.8803399999999999,-0.0160225,0.121776,-0.89653,-0.0183675,1
33,0.00706,0.633245,0.054026,-0.121256,0.508995,0.052053,-0.119716,0.777505,-0.0075399999999999,0.144924,0.4482549999999999,0.0559,0.151004,0.708805,0.005018,-0.104756,0.984845,-0.0248089999999999,0.147764,0.990845,-0.0352609999999999,-0.063379,0.0060749999999999,-0.0055079999999999,0.063379,-0.006075,0.005508,-0.116476,-0.449175,-0.0223909999999999,0.104404,-0.462155,0.001505,-0.133086,-0.880345,-0.0151579999999999,0.121834,-0.897015,-0.0175589999999999,1
34,0.006242,0.63341,0.053225,-0.121925,0.50874,0.053773,-0.118295,0.7777099999999999,-0.0051919999999999,0.144695,0.45049,0.056046,0.149945,0.7088300000000001,0.005499,-0.103095,0.98515,-0.0211359999999999,0.146385,0.99045,-0.033809,-0.063506,0.00594,-0.005821,0.063506,-0.00594,0.005821,-0.116285,-0.44931,-0.0220059999999999,0.1045249999999999,-0.46202,0.001885,-0.132735,-0.88035,-0.014577,0.1219249999999999,-0.89696,-0.016713,1
35,0.0055164999999999,0.633615,0.0525394999999999,-0.1224685,0.508415,0.0548634999999999,-0.1172285,0.777505,-0.0028735,0.1444515,0.452555,0.0562265,0.1489415,0.708865,0.0060724999999999,-0.1016985,0.985085,-0.0176525,0.1450715,0.990085,-0.0323725,-0.0636395,0.005835,-0.0061705,0.0636395,-0.005835,0.0061704999999999,-0.1161085,-0.449415,-0.0215755,0.1046515,-0.461915,0.0023014999999999,-0.1323785,-0.880235,-0.0138865,0.1220515,-0.896875,-0.0159775,1
36,0.0049885,0.63391,0.0520085,-0.1229765,0.5070600000000001,0.0559225,-0.1163964999999999,0.7772699999999999,-0.0005784999999999,0.1442034999999999,0.4536199999999999,0.0564755,0.1481135,0.70896,0.0067445,-0.1009964999999999,0.98492,-0.0154074999999999,0.1439135,0.98982,-0.0310035,-0.0638265,0.0057899999999999,-0.0065034999999999,0.0638265,-0.00579,0.0065035,-0.1159765,-0.44945,-0.0210585,0.1047734999999999,-0.46186,0.0027755,-0.1320165,-0.8800000000000001,-0.0131324999999999,0.1221935,-0.8967,-0.0152324999999999,1
37,0.004622,0.634355,0.051701,-0.123381,0.506445,0.05675,-0.1164009999999999,0.777155,0.001105,0.143869,0.454785,0.056782,0.147389,0.7092449999999999,0.007492,-0.1006809999999999,0.984805,-0.0131029999999999,0.142339,0.987605,-0.0290949999999999,-0.064082,0.005675,-0.0068509999999999,0.064082,-0.0056749999999999,0.006851,-0.115911,-0.449565,-0.0204589999999999,0.104909,-0.4617449999999999,0.00331,-0.131681,-0.879475,-0.0121459999999999,0.122279,-0.896345,-0.0144199999999999,1
38,0.0043485,0.634865,0.051993,-0.1236385,0.5060549999999999,0.057436,-0.1164684999999999,0.7760750000000001,0.002861,0.1435015,0.456005,0.056986,0.1467514999999999,0.709835,0.008246,-0.1007884999999999,0.983705,-0.010831,0.1408615,0.988305,-0.02734,-0.0642775,0.005675,-0.00717,0.0642775,-0.0056749999999999,0.0071699999999999,-0.1159284999999999,-0.449565,-0.019914,0.1050115,-0.4617449999999999,0.0038289999999999,-0.1313785,-0.8787750000000001,-0.011295,0.1223115,-0.895815,-0.013744,1
39,0.0042474999999999,0.63532,0.0523155,-0.1237645,0.50571,0.0579745,-0.1165345,0.77409,0.0043174999999999,0.1432655,0.4565599999999999,0.0572945,0.1463855,0.71013,0.0088364999999999,-0.1008545,0.98221,-0.0093395,0.1397255,0.98911,-0.0257065,-0.0644195,0.0056699999999999,-0.0074185,0.0644195,-0.00567,0.0074184999999999,-0.1159645,-0.44956,-0.0195335,0.1050354999999999,-0.46174,0.0041765,-0.1312945,-0.87861,-0.0107125,0.1223455,-0.8957,-0.0133455,1
40,0.0040754999999999,0.6355,0.052576,-0.1238955,0.50217,0.058238,-0.1169055,0.7717,0.005931,0.1429845,0.45714,0.057548,0.1459545,0.71047,0.009346,-0.1009855,0.98088,-0.0079689999999999,0.1386244999999999,0.98988,-0.024182,-0.0645044999999999,0.00564,-0.0076159999999999,0.0645044999999999,-0.00564,0.007616,-0.1160555,-0.44958,-0.019228,0.1049745,-0.46169,0.004492,-0.1313155,-0.87845,-0.0102809999999999,0.1223545,-0.89552,-0.013074,1
41,0.003895,0.63562,0.052728,-0.123966,0.4991,0.058397,-0.118086,0.77174,0.007301,0.142714,0.45768,0.0576949999999999,0.144864,0.7141500000000001,0.010471,-0.1015959999999999,0.981,-0.006217,0.137334,0.994,-0.0220819999999999,-0.064584,0.00552,-0.007688,0.064584,-0.0055199999999999,0.007688,-0.116046,-0.44966,-0.0190279999999999,0.104924,-0.46157,0.004676,-0.131316,-0.8783299999999999,-0.0099399999999999,0.122364,-0.8954,-0.0129099999999999,1
42,0.0036019999999999,0.6361049999999999,0.053068,-0.124056,0.4961749999999999,0.058501,-0.119166,0.771265,0.008369,0.142494,0.4585249999999999,0.0577909999999999,0.143604,0.7179749999999999,0.011744,-0.102246,0.981285,-0.004997,0.1361339999999999,0.997885,-0.0201249999999999,-0.064665,0.005365,-0.007724,0.064665,-0.005365,0.007724,-0.116156,-0.449785,-0.018885,0.1048539999999999,-0.4614049999999999,0.004781,-0.131316,-0.877725,-0.009666,0.122274,-0.894915,-0.0128059999999999,1
43,0.0032805,0.63655,0.053501,-0.1240795,0.4934199999999999,0.057992,-0.1203595,0.77002,0.009263,0.1422505,0.45925,0.057975,0.1421905,0.72181,0.013042,-0.1033695,0.98068,-0.0042659999999999,0.1349905,1.00178,-0.0183559999999999,-0.0647605,0.0052099999999999,-0.007757,0.0647605,-0.0052099999999999,0.007757,-0.1162795,-0.4499,-0.0187989999999999,0.1047905,-0.46125,0.004879,-0.1313195,-0.87733,-0.0095169999999999,0.1221705,-0.89444,-0.0127579999999999,1
44,0.0028604999999999,0.6371100000000001,0.0539885,-0.1232125,0.49075,0.0566715,-0.1216725,0.76852,0.0099185,0.1419475,0.46012,0.0582774999999999,0.1405274999999999,0.72599,0.0143205,-0.1051025,0.97973,-0.0036295,0.1335675,1.00603,-0.0166074999999999,-0.0648615,0.00506,-0.0077715,0.0648615,-0.00506,0.0077715,-0.1164025,-0.45001,-0.0187574999999999,0.1048175,-0.4610999999999999,0.0049215,-0.1311725,-0.87666,-0.0094095,0.1222574999999999,-0.89374,-0.0129115,1
45,0.0024015,0.6376350000000001,0.054474,-0.1241375,0.487735,0.056133,-0.1229474999999999,0.766655,0.010503,0.1416224999999999,0.460975,0.058587,0.1388325,0.730235,0.015583,-0.1069675,0.978775,-0.00306,0.1320325,1.010275,-0.014896,-0.0649605,0.004925,-0.0077749999999999,0.0649605,-0.0049249999999999,0.007775,-0.1165374999999999,-0.450115,-0.018741,0.1048225,-0.460945,0.004935,-0.1310375,-0.875975,-0.0093419999999999,0.1224325,-0.893155,-0.0133269999999999,1
46,0.0019939999999999,0.638145,0.0548665,-0.123497,0.4829549999999999,0.0545615,-0.1240469999999999,0.763125,0.0111735,0.141333,0.461895,0.0589024999999999,0.137133,0.7346550000000001,0.0167925,-0.108707,0.978025,-0.0027095,0.130843,1.014725,-0.0136745,-0.065054,0.0047849999999999,-0.0077815,0.065054,-0.004785,0.0077815,-0.116697,-0.450215,-0.0187314999999999,0.104813,-0.460805,0.0049345,-0.130907,-0.875335,-0.0092804999999999,0.122583,-0.892555,-0.0136724999999999,1
47,0.0015394999999999,0.6387,0.0552475,-0.1223065,0.47907,0.0527715,-0.1249665,0.76065,0.0115805,0.1409935,0.46285,0.0592885,0.1353935,0.7391300000000001,0.0179075,-0.1102964999999999,0.97739,-0.0025155,0.1294835,1.01929,-0.0123985,-0.0651725,0.00464,-0.0077885,0.0651725,-0.00464,0.0077885,-0.1169165,-0.45033,-0.0186985,0.1047235,-0.46066,0.0049434999999999,-0.1309165,-0.87483,-0.0094155,0.1226535,-0.89195,-0.0139035,1
48,0.0010354999999999,0.6392500000000001,0.0556355,-0.1224845,0.47397,0.0516315,-0.1259645,0.7571000000000001,0.0119795,0.1405954999999999,0.46395,0.0596625,0.1336155,0.7437400000000001,0.0189325,-0.1117245,0.97682,-0.0024575,0.1280355,1.02392,-0.0111725,-0.0652845,0.00447,-0.0077424999999999,0.0652845,-0.00447,0.0077424999999999,-0.1171945,-0.45047,-0.0187014999999999,0.1045955,-0.46048,0.0049594999999999,-0.1309745,-0.87415,-0.0093875,0.1226855,-0.8912899999999999,-0.0142045,1
49,0.0005489999999999,0.63966,0.0559704999999999,-0.122038,0.47191,0.0500324999999999,-0.1266379999999999,0.75504,0.0120714999999999,0.140212,0.46499,0.0599774999999999,0.1318619999999999,0.74831,0.0198184999999999,-0.112948,0.97724,-0.0025435,0.126512,1.03104,-0.0100005,-0.06538,0.0043799999999999,-0.0076295,0.06538,-0.0043799999999999,0.0076294999999999,-0.117498,-0.45054,-0.0187525,0.104422,-0.46039,0.0049554999999999,-0.130998,-0.87349,-0.0094655,0.122692,-0.89075,-0.0146075,1
50,0.000113,0.639845,0.056272,-0.122014,0.469645,0.048586,-0.1270339999999999,0.7527649999999999,0.012081,0.1398559999999999,0.465835,0.060278,0.130786,0.749145,0.019984,-0.113964,0.977325,-0.0027109999999999,0.125256,1.031925,-0.0095309999999999,-0.06547,0.004315,-0.0074679999999999,0.06547,-0.0043149999999999,0.007468,-0.117764,-0.4505949999999999,-0.018857,0.104276,-0.460335,0.004926,-0.130964,-0.873105,-0.009596,0.122736,-0.8904350000000001,-0.0150679999999999,1
51,-0.0002995,0.639945,0.0564734999999999,-0.1224815,0.4677549999999999,0.0477615,-0.1275215,0.750895,0.0120844999999999,0.1394985,0.466615,0.0605114999999999,0.1298385,0.749895,0.0201884999999999,-0.1148214999999999,0.977415,-0.0029215,0.1239685,1.032715,-0.0090785,-0.0655854999999999,0.004275,-0.0072595,0.0655854999999999,-0.004275,0.0072594999999999,-0.1180615,-0.450625,-0.0189865,0.1040984999999999,-0.460325,0.0048614999999999,-0.1309915,-0.8728750000000001,-0.0098595,0.1227385,-0.8901450000000001,-0.0155655,1
52,-0.0006699999999999,0.63997,0.056635,-0.122553,0.4673,0.0474879999999999,-0.128003,0.75048,0.0121229999999999,0.139127,0.4673199999999999,0.0606909999999999,0.129057,0.7506,0.020324,-0.115453,0.97741,-0.003128,0.122757,1.0333100000000002,-0.00868,-0.065713,0.00423,-0.007074,0.065713,-0.0042299999999999,0.0070739999999999,-0.118343,-0.45067,-0.019129,0.103917,-0.46032,0.0047879999999999,-0.131033,-0.87284,-0.010224,0.122627,-0.89003,-0.015842,1
53,-0.0011335,0.63996,0.0566075,-0.1219735,0.46916,0.0471685,-0.1285035,0.75242,0.0118175,0.1386664999999999,0.4677,0.0606504999999999,0.1284564999999999,0.75097,0.0204155,-0.1159035,0.97741,-0.0034785,0.1218365,1.03371,-0.0084365,-0.0658715,0.00423,-0.0069455,0.0658715,-0.0042299999999999,0.0069455,-0.1187535,-0.45067,-0.0193624999999999,0.1035664999999999,-0.46032,0.0046885,-0.1313535,-0.8731,-0.0107174999999999,0.1221865,-0.89011,-0.0162264999999999,1
54,-0.0016069999999999,0.63996,0.05656,-0.12158,0.47181,0.046757,-0.12897,0.75515,0.011318,0.13819,0.4680499999999999,0.060534,0.1279799999999999,0.75134,0.020492,-0.11635,0.97741,-0.003908,0.12129,1.03411,-0.0082899999999999,-0.0660169999999999,0.00423,-0.006794,0.0660169999999999,-0.0042299999999999,0.006794,-0.1191599999999999,-0.45067,-0.019676,0.10321,-0.46032,0.004539,-0.13168,-0.8733,-0.0113399999999999,0.12174,-0.89017,-0.0166909999999999,1
55,-0.0020665,0.63996,0.0564044999999999,-0.1222595,0.47135,0.0465015,-0.1294394999999999,0.75462,0.0110504999999999,0.1377505,0.4682699999999999,0.0603014999999999,0.1274905,0.7516,0.0204955,-0.1167995,0.97741,-0.0044635,0.1208104999999999,1.03401,-0.0083185,-0.0661305,0.00423,-0.0067245,0.0661305,-0.0042299999999999,0.0067244999999999,-0.1195295,-0.45067,-0.0201055,0.1028705,-0.46032,0.0043624999999999,-0.1319895,-0.8737199999999999,-0.0121575,0.1212905,-0.89028,-0.0172505,1
56,-0.0023639999999999,0.6398250000000001,0.0560704999999999,-0.124065,0.4711850000000001,0.0471465,-0.129695,0.754325,0.0106094999999999,0.137435,0.4683050000000001,0.0598405,0.127025,0.751685,0.0203565,-0.1172149999999999,0.977245,-0.0052465,0.120345,1.033945,-0.0085604999999999,-0.066174,0.0042449999999999,-0.0064615,0.066174,-0.0042449999999999,0.0064614999999999,-0.1198249999999999,-0.450665,-0.0208005,0.1025949999999999,-0.460365,0.0039884999999999,-0.132265,-0.874355,-0.0132094999999999,0.120845,-0.8905449999999999,-0.0178425,1
57,-0.002595,0.63965,0.055609,-0.126222,0.47096,0.048355,-0.129872,0.7541,0.0100629999999999,0.137198,0.4682199999999999,0.0593319999999999,0.127098,0.75165,0.0203,-0.117562,0.97692,-0.006051,0.119928,1.03372,-0.0086709999999999,-0.066217,0.00425,-0.006328,0.066217,-0.00425,0.006328,-0.120032,-0.45067,-0.021566,0.102378,-0.46042,0.0034859999999999,-0.132532,-0.8751099999999999,-0.0143099999999999,0.120388,-0.8908699999999999,-0.0184879999999999,1
58,-0.002715,0.639445,0.054982,-0.127842,0.470705,0.049624,-0.130152,0.753845,0.009321,0.136958,0.468005,0.058754,0.127468,0.751505,0.020323,-0.117882,0.976665,-0.006891,0.120058,1.033665,-0.008905,-0.0662949999999999,0.0042449999999999,-0.0063389999999999,0.0662949999999999,-0.0042449999999999,0.006339,-0.120232,-0.450705,-0.022451,0.102378,-0.460475,0.002794,-0.132752,-0.876005,-0.0156149999999999,0.1198279999999999,-0.891195,-0.0192299999999999,1
59,-0.002746,0.639305,0.0542529999999999,-0.129538,0.4689549999999999,0.0511449999999999,-0.130398,0.7519549999999999,0.008544,0.136722,0.4677849999999999,0.058088,0.127912,0.7513350000000001,0.02018,-0.118098,0.976435,-0.0077909999999999,0.120312,1.033535,-0.0092949999999999,-0.066335,0.0041849999999999,-0.0064169999999999,0.066335,-0.0041849999999999,0.0064169999999999,-0.120378,-0.450795,-0.0233999999999999,0.1024519999999999,-0.460465,0.0018579999999999,-0.132958,-0.876835,-0.017034,0.1193819999999999,-0.8914249999999999,-0.020072,1
60,-0.0026254999999999,0.63906,0.05346,-0.1299765,0.47024,0.051888,-0.1305765,0.75298,0.007572,0.1365235,0.46749,0.057365,0.1284634999999999,0.75105,0.019879,-0.1182465,0.97588,-0.0087689999999999,0.1207135,1.03328,-0.00979,-0.0663624999999999,0.0041899999999999,-0.0066109999999999,0.0663624999999999,-0.0041899999999999,0.006611,-0.1204465,-0.45081,-0.0244069999999999,0.1026135,-0.46055,0.000865,-0.1331465,-0.8778600000000001,-0.018573,0.1191035,-0.89181,-0.0210869999999999,1
61,-0.0025219999999999,0.638645,0.052619,-0.131635,0.471395,0.05341,-0.1307249999999999,0.753895,0.006779,0.136345,0.467165,0.0565699999999999,0.129095,0.7507050000000001,0.019533,-0.118305,0.975585,-0.0098149999999999,0.121275,1.0329849999999998,-0.0103369999999999,-0.06637,0.0041849999999999,-0.006831,0.06637,-0.0041849999999999,0.006831,-0.120465,-0.450875,-0.025467,0.102845,-0.460605,-0.0001659999999999,-0.133295,-0.878935,-0.020189,0.118815,-0.892295,-0.0221509999999999,1
62,-0.002449,0.638335,0.0517399999999999,-0.133576,0.470875,0.054977,-0.130886,0.753175,0.0060599999999999,0.136194,0.466945,0.055747,0.129814,0.750455,0.018998,-0.118316,0.975395,-0.010878,0.121974,1.032795,-0.011073,-0.066353,0.004085,-0.0069749999999999,0.066353,-0.004085,0.0069749999999999,-0.120416,-0.451045,-0.02655,0.103224,-0.460625,-0.001247,-0.133426,-0.879915,-0.0217939999999999,0.118584,-0.892685,-0.0232309999999999,1
63,-0.002262,0.6381800000000001,0.0506025,-0.135065,0.47076,0.0559095,-0.130975,0.7530600000000001,0.0051655,0.136065,0.4669,0.0547685,0.130565,0.75038,0.0181685,-0.118305,0.97558,-0.0121205,0.122735,1.0326799999999998,-0.0120325,-0.066303,0.0039899999999999,-0.0068874999999999,0.066303,-0.0039899999999999,0.0068875,-0.120335,-0.45116,-0.0278575,0.103635,-0.46063,-0.0026944999999999,-0.1336649999999999,-0.88068,-0.0235775,0.118385,-0.89289,-0.0245255,1
64,-0.0021335,0.638045,0.049336,-0.1355425,0.4731649999999999,0.056744,-0.1310725,0.755285,0.003897,0.1359075,0.466705,0.053724,0.1313274999999999,0.750225,0.017128,-0.1181825,0.975485,-0.0134629999999999,0.1234774999999999,1.032385,-0.013141,-0.0663445,0.0040049999999999,-0.006813,0.0663445,-0.004005,0.006813,-0.1202825,-0.451195,-0.0292799999999999,0.1039674999999999,-0.460685,-0.0042629999999999,-0.1339625,-0.8815850000000001,-0.0254449999999999,0.1181074999999999,-0.893385,-0.0260159999999999,1
65,-0.002058,0.6379349999999999,0.048044,-0.135956,0.4753449999999999,0.05717,-0.131076,0.7574350000000001,0.002547,0.1357539999999999,0.466575,0.052635,0.1321739999999999,0.7501150000000001,0.015905,-0.1178859999999999,0.9755049999999998,-0.0148739999999999,0.124244,1.0320049999999998,-0.0144619999999999,-0.066386,0.0040849999999999,-0.006865,0.066386,-0.004085,0.006865,-0.1202459999999999,-0.451165,-0.030791,0.104284,-0.460745,-0.006043,-0.134296,-0.8824050000000001,-0.0273879999999999,0.117994,-0.893845,-0.02776,1
66,-0.0019904999999999,0.637915,0.0466535,-0.1360144999999999,0.477805,0.0572915,-0.1310744999999999,0.760005,0.0010834999999999,0.1356155,0.4665149999999999,0.0514125,0.1324455,0.7500850000000001,0.0143585,-0.1174745,0.975905,-0.0164245,0.1247955,1.031605,-0.0159904999999999,-0.0663755,0.004095,-0.0067915,0.0663755,-0.0040949999999999,0.0067914999999999,-0.1202145,-0.451145,-0.0324615,0.1044855,-0.460815,-0.0080855,-0.1346445,-0.883275,-0.0297635,0.1176955,-0.8942349999999999,-0.0297165,1
67,-0.0017815,0.638205,0.045189,-0.1357685,0.4816749999999999,0.057821,-0.1307785,0.762015,-0.0006819999999999,0.1355515,0.466665,0.050128,0.1325414999999999,0.750225,0.012502,-0.1168285,0.976445,-0.018316,0.1249914999999999,1.031145,-0.0178409999999999,-0.0663035,0.004075,-0.006702,0.0663035,-0.0040749999999999,0.006702,-0.1199485,-0.451135,-0.034462,0.1045215,-0.460885,-0.0105519999999999,-0.1349385,-0.883965,-0.032362,0.1173315,-0.8945649999999999,-0.032077,1
68,-0.0015159999999999,0.6386000000000001,0.0437749999999999,-0.1363629999999999,0.48502,0.057566,-0.130463,0.7636400000000001,-0.002703,0.135567,0.4674,0.049052,0.132647,0.7509000000000001,0.0104679999999999,-0.116183,0.9773,-0.020417,0.125257,1.0309,-0.019865,-0.066269,0.00401,-0.006549,0.066269,-0.0040099999999999,0.0065489999999999,-0.119693,-0.45126,-0.036611,0.104487,-0.4608899999999999,-0.0133759999999999,-0.1353229999999999,-0.88436,-0.035392,0.117067,-0.8947499999999999,-0.034653,1
69,-0.0011454999999999,0.63901,0.0422145,-0.1367415,0.48696,0.0569005,-0.1300515,0.76383,-0.0048685,0.1356685,0.46857,0.0482575,0.1327884999999999,0.75194,0.0082835,-0.1154715,0.97747,-0.0226735,0.1255885,1.03057,-0.0222715,-0.0662185,0.00389,-0.0064334999999999,0.0662185,-0.00389,0.0064335,-0.1194515,-0.4514399999999999,-0.0389335,0.1043885,-0.46087,-0.0163625,-0.1356915,-0.88497,-0.0384805,0.1168885,-0.8949,-0.0374425,1
70,-0.000817,0.63935,0.040485,-0.136268,0.49061,0.055862,-0.129428,0.76556,-0.007389,0.135952,0.46968,0.047191,0.133212,0.75288,0.005689,-0.114668,0.97776,-0.0251839999999999,0.126022,1.03016,-0.024991,-0.06616,0.00384,-0.006239,0.06616,-0.00384,0.006239,-0.119168,-0.45155,-0.041502,0.104322,-0.46087,-0.0195899999999999,-0.136018,-0.88576,-0.041825,0.116922,-0.89519,-0.040517,1
71,-0.0004084999999999,0.639575,0.0386725,-0.1357895,0.493015,0.0544655,-0.1287395,0.766095,-0.0100625,0.1363404999999999,0.469945,0.0458004999999999,0.1339105,0.7529950000000001,0.0027364999999999,-0.1137195,0.977805,-0.0281485,0.1265605,1.029405,-0.0281515,-0.0660955,0.003835,-0.0062074999999999,0.0660955,-0.003835,0.0062074999999999,-0.1188594999999999,-0.451535,-0.0442175,0.1043405,-0.460875,-0.0227955,-0.1362795,-0.8868849999999999,-0.0453895,0.1171405,-0.895775,-0.0438505,1
72,4.350000000000187e-05,0.6403449999999999,0.036868,-0.1353075,0.494755,0.0529699999999999,-0.1280875,0.7666649999999999,-0.0127289999999999,0.1366525,0.470555,0.04473,0.1347625,0.753425,-0.0002079999999999,-0.1127975,0.978135,-0.031199,0.1271225,1.029035,-0.03134,-0.0660895,0.003725,-0.006453,0.0660895,-0.0037249999999999,0.0064529999999999,-0.1186675,-0.451545,-0.047127,0.1043525,-0.460765,-0.025945,-0.1365874999999999,-0.8873850000000001,-0.049166,0.1173825,-0.895975,-0.04721,1
73,0.0001395,0.64094,0.0345885,-0.1346345,0.49645,0.0510625,-0.1274545,0.76698,-0.0157675,0.1368855,0.4707,0.0423954999999999,0.1358655,0.75349,-0.0035564999999999,-0.1119645,0.97836,-0.0347195,0.1284855,1.02516,-0.0350575,-0.0660345,0.00365,-0.0065505,0.0660345,-0.0036499999999999,0.0065505,-0.1184445,-0.45146,-0.0508565,0.1045655,-0.4606099999999999,-0.0296335,-0.1367345,-0.88746,-0.0533695,0.1175955,-0.89585,-0.0508855,1
74,0.0002745,0.6413850000000001,0.032441,-0.1332175,0.500095,0.049234,-0.1270675,0.767255,-0.018642,0.1371225,0.470775,0.040151,0.1369725,0.753495,-0.006722,-0.1114475,0.978365,-0.038078,0.1298625,1.021165,-0.038625,-0.0659795,0.0036449999999999,-0.0067339999999999,0.0659795,-0.003645,0.006734,-0.1179875,-0.451505,-0.054637,0.1048424999999999,-0.460605,-0.0333749999999999,-0.1368675,-0.887615,-0.057469,0.1179025,-0.895805,-0.054428,1
75,0.0007029999999999,0.6412499999999999,0.0307295,-0.131762,0.5026299999999999,0.0471355,-0.126672,0.76739,-0.0215164999999999,0.137248,0.47091,0.0382135,0.138158,0.75363,-0.0097195,-0.111132,0.9785,-0.0414845,0.131388,1.0165,-0.0423195,-0.06597,0.0035699999999999,-0.0068175,0.06597,-0.00357,0.0068175,-0.1175819999999999,-0.45152,-0.0587835,0.105158,-0.46051,-0.0374875,-0.136912,-0.88768,-0.0615575,0.118178,-0.8956,-0.0582055,1
76,0.001288,0.641515,0.0289854999999999,-0.131305,0.502895,0.0443925,-0.126475,0.767525,-0.0242595,0.137375,0.471175,0.0364285,0.139335,0.753895,-0.0125025,-0.110915,0.978765,-0.0446265,0.132905,1.0118649999999998,-0.0458275,-0.06593,0.003505,-0.0067694999999999,0.06593,-0.003505,0.0067694999999999,-0.117285,-0.451425,-0.0630585,0.105485,-0.460305,-0.0419335,-0.136935,-0.8876850000000001,-0.0654225,0.118225,-0.895195,-0.0618195,1
77,0.0014435,0.641705,0.0272805,-0.1308895,0.503085,0.0416235,-0.1262495,0.767715,-0.0270574999999999,0.1375105,0.471365,0.0342665,0.1405404999999999,0.754065,-0.0152384999999999,-0.1106695,0.977655,-0.0476875,0.1344505,1.006655,-0.0492885,-0.0658904999999999,0.003475,-0.0066545,0.0658904999999999,-0.003475,0.0066545,-0.1169395,-0.451465,-0.0677445,0.1058405,-0.460275,-0.0466725,-0.1368995,-0.887625,-0.0690575,0.1180605,-0.894705,-0.0654835,1
78,0.001608,0.641835,0.0256085,-0.130382,0.503675,0.0386585,-0.126002,0.768305,-0.0300395,0.137338,0.4701849999999999,0.0320575,0.141748,0.752785,-0.0182765,-0.110412,0.976645,-0.0508405,0.135988,1.001445,-0.0528745,-0.065882,0.0034349999999999,-0.0062565,0.065882,-0.0034349999999999,0.0062565,-0.116542,-0.451065,-0.0730125,0.106408,-0.459915,-0.0520195,-0.136822,-0.886935,-0.0729115,0.118038,-0.893815,-0.0693355,1
79,0.0015824999999999,0.6412599999999999,0.024061,-0.1300945,0.50251,0.035443,-0.1258545,0.76553,-0.032661,0.1370855,0.4692,0.029698,0.1427855,0.7517,-0.02133,-0.1102645,0.9751999999999998,-0.053904,0.1375255,0.9961,-0.056454,-0.0658645,0.0034499999999999,-0.006183,0.0658645,-0.00345,0.0061829999999999,-0.1162845,-0.45064,-0.078651,0.1071655,-0.45945,-0.05777,-0.1366545,-0.88594,-0.076837,0.1179855,-0.89253,-0.073204,1
80,0.0016655,0.63981,0.0226994999999999,-0.1295285,0.50383,0.0322065,-0.1255085,0.7633800000000001,-0.0355925,0.1369115,0.46815,0.0269464999999999,0.1439715,0.7505000000000001,-0.0246424999999999,-0.1099584999999999,0.97478,-0.0570985,0.1393015,0.99168,-0.0598485,-0.0659615,0.00328,-0.0055905,0.0659615,-0.0032799999999999,0.0055905,-0.1159685,-0.45013,-0.0849024999999999,0.1082915,-0.4587,-0.0641695,-0.1362084999999999,-0.88377,-0.0808324999999999,0.1181815,-0.89038,-0.0770915,1
81,0.0015174999999999,0.637955,0.021396,-0.1287775,0.504045,0.0290809999999999,-0.1252774999999999,0.762085,-0.038846,0.1365724999999999,0.466935,0.023561,0.1450624999999999,0.749245,-0.028008,-0.1097375,0.974785,-0.060439,0.1408125,0.987185,-0.0632,-0.0660805,0.003085,-0.004912,0.0660805,-0.0030849999999999,0.004912,-0.1156475,-0.4492649999999999,-0.091376,0.1095825,-0.4578649999999999,-0.0708,-0.1356275,-0.881225,-0.08454,0.1182425,-0.887995,-0.080727,1
82,0.000959,0.635895,0.0206085,-0.1283659999999999,0.504525,0.0264335,-0.125456,0.760775,-0.0414945,0.135804,0.465995,0.0204654999999999,0.145624,0.748245,-0.0308925,-0.109966,0.975115,-0.0634695,0.141124,0.985915,-0.0659905,-0.066191,0.002925,-0.0041505,0.066191,-0.0029249999999999,0.0041505,-0.1156759999999999,-0.448335,-0.0975385,0.110614,-0.4567449999999999,-0.0771604999999999,-0.135486,-0.878265,-0.0876625,0.118264,-0.885185,-0.0837975,1
83,0.0003775,0.6336149999999999,0.019993,-0.1278825,0.505575,0.0235639999999999,-0.1257425,0.760195,-0.044032,0.1350475,0.466255,0.017428,0.1461474999999999,0.748405,-0.033533,-0.1102825,0.976015,-0.066335,0.1413875,0.985115,-0.068832,-0.0663195,0.002755,-0.0033989999999999,0.0663195,-0.002755,0.0033989999999999,-0.1157225,-0.447515,-0.103918,0.1119075,-0.455655,-0.084212,-0.1353025,-0.874765,-0.090795,0.1181975,-0.881685,-0.086764,1
84,-0.0001695,0.63093,0.0189395,-0.1262865,0.5050399999999999,0.0196515,-0.1259865,0.7588199999999999,-0.0464384999999999,0.1342835,0.4660799999999999,0.0146095,0.1466635,0.74814,-0.0361735,-0.1106365,0.97637,-0.0689305,0.1416635,0.98447,-0.0716475,-0.0664994999999999,0.0026899999999999,-0.0027624999999999,0.0664994999999999,-0.0026899999999999,0.0027625,-0.1157165,-0.44674,-0.1101605,0.1132334999999999,-0.45484,-0.0908515,-0.1350865,-0.8714500000000001,-0.0935304999999999,0.1179635,-0.87819,-0.0894295,1
85,-0.0006999999999999,0.631245,0.0175484999999999,-0.125881,0.502205,0.0154114999999999,-0.1261209999999999,0.757315,-0.0492675,0.133769,0.469375,0.0121514999999999,0.1471489999999999,0.751405,-0.0391445,-0.111131,0.974775,-0.0733595,0.142309,0.984875,-0.0759605,-0.066825,0.002625,-0.0028205,0.066825,-0.002625,0.0028205,-0.1157509999999999,-0.4453249999999999,-0.1180625,0.114949,-0.453235,-0.0990095,-0.134741,-0.8647250000000001,-0.0969565,0.117609,-0.871345,-0.0925585,1
86,-0.0009389999999999,0.631415,0.016109,-0.1255129999999999,0.4992449999999999,0.012161,-0.126153,0.757375,-0.051925,0.133197,0.472645,0.010353,0.147687,0.754575,-0.0420279999999999,-0.1115029999999999,0.974165,-0.077484,0.142917,0.985565,-0.080048,-0.067111,0.0025449999999999,-0.0029789999999999,0.067111,-0.002545,0.0029789999999999,-0.1157729999999999,-0.443885,-0.125574,0.1164969999999999,-0.451605,-0.106768,-0.134373,-0.8580150000000001,-0.10011,0.117167,-0.864545,-0.095436,1
87,-0.0007335,0.631855,0.0146325,-0.1249725,0.4957649999999999,0.0093335,-0.1260725,0.7541150000000001,-0.0544874999999999,0.1330175,0.477575,0.0084015,0.1483875,0.7594050000000001,-0.0447684999999999,-0.1116925,0.971035,-0.0815195,0.1437375,0.9866350000000002,-0.0839425,-0.0672625,0.002545,-0.0031194999999999,0.0672625,-0.0025449999999999,0.0031195,-0.1156425,-0.442475,-0.1328464999999999,0.1180975,-0.450025,-0.1141595,-0.1338224999999999,-0.851575,-0.1031064999999999,0.1169675,-0.8579650000000001,-0.0981605,1
88,-0.0006335,0.630419,0.013634,-0.1247155,0.493739,0.0070469999999999,-0.1259155,0.752839,-0.056787,0.1328944999999999,0.4803189999999999,0.0070879999999999,0.1492345,0.761989,-0.047361,-0.1118055,0.968919,-0.085296,0.1445945,0.985319,-0.087269,-0.0673415,0.0022989999999999,-0.00293,0.0673415,-0.002299,0.00293,-0.1155955,-0.440831,-0.140478,0.1198545,-0.448021,-0.121886,-0.1332054999999999,-0.843901,-0.105795,0.1170145,-0.849991,-0.100636,1
89,-0.000624,0.629994,0.0128075,-0.1243809999999999,0.490854,0.0039755,-0.125801,0.7511140000000001,-0.0590664999999999,0.132869,0.482694,0.0061375,0.150109,0.7642840000000001,-0.0496114999999999,-0.112021,0.965724,-0.0887024999999999,0.145369,0.983624,-0.0903634999999999,-0.0673449999999999,0.002228,-0.0032134999999999,0.0673449999999999,-0.0022279999999999,0.0032135,-0.1154409999999999,-0.439436,-0.1473864999999999,0.1215789999999999,-0.4460659999999999,-0.1292185,-0.132631,-0.836826,-0.1084315,0.1171089999999999,-0.842606,-0.1027744999999999,1
90,-0.0007175,0.6290855000000001,0.0110159999999999,-0.1224965,0.4883355,0.0006359999999999,-0.1258165,0.7505855,-0.061088,0.1333135,0.4858455,0.0052859999999999,0.1509035,0.7673555000000001,-0.051982,-0.1122565,0.9634455,-0.09203,0.1460735,0.9828455,-0.093311,-0.0673115,0.0021624999999999,-0.00359,0.0673115,-0.0021624999999999,0.0035899999999999,-0.1154965,-0.4377445,-0.1540699999999999,0.1232434999999999,-0.4438645,-0.136747,-0.1321165,-0.8286144999999999,-0.111195,0.1172435,-0.8341945,-0.104947,1
91,-0.0009709999999999,0.6288285,0.0090724999999999,-0.1224069999999999,0.4852384999999999,-0.0022814999999999,-0.125967,0.7502385,-0.0635445,0.1337829999999999,0.4893785,0.0040125,0.152173,0.7675585,-0.0544975,-0.1125569999999999,0.9614985,-0.0955594999999999,0.146763,0.9808985,-0.0964685,-0.067215,0.0020155,-0.0041614999999999,0.067215,-0.0020155,0.0041614999999999,-0.115727,-0.4359915,-0.1608245,0.124843,-0.4414915,-0.1446845,-0.131667,-0.8196315000000001,-0.1141824999999999,0.117403,-0.8251615000000001,-0.1076925,1
92,-0.0014639999999999,0.629633,0.0070394999999999,-0.1225189999999999,0.483253,-0.0052935,-0.126319,0.748403,-0.0660125,0.134381,0.494253,0.0030434999999999,0.153311,0.7695930000000001,-0.0570205,-0.113129,0.959803,-0.0991895,0.147321,0.980003,-0.0997735,-0.0671549999999999,0.001718,-0.0044734999999999,0.0671549999999999,-0.0017179999999999,0.0044734999999999,-0.1161889999999999,-0.4335869999999999,-0.1681125,0.126121,-0.4388269999999999,-0.1521725,-0.1315289999999999,-0.809477,-0.1176095,0.1174409999999999,-0.8150069999999999,-0.1105045,1
93,-0.0027509999999999,0.63182,0.004858,-0.122919,0.48409,-0.0080869999999999,-0.126909,0.7472300000000001,-0.068483,0.134541,0.4976,0.001508,0.154411,0.7723800000000001,-0.059403,-0.113829,0.95928,-0.1027619999999999,0.147851,0.98048,-0.103115,-0.06711,0.001418,-0.004698,0.06711,-0.0014179999999999,0.004698,-0.117019,-0.43077,-0.176242,0.127361,-0.4354099999999999,-0.159832,-0.131439,-0.79798,-0.121257,0.117561,-0.80369,-0.113331,1
94,-0.0042054999999999,0.6307545,0.0030799999999999,-0.1234445,0.4868645,-0.010144,-0.1278444999999999,0.7454045,-0.07023,0.1345155,0.4979445,0.0006069999999999,0.1554755,0.7689145,-0.061051,-0.1145345,0.9600445,-0.104214,0.1483255,0.9786445,-0.105287,-0.0671055,0.0010954999999999,-0.004255,0.0671055,-0.0010954999999999,0.0042549999999999,-0.1179544999999999,-0.4287355,-0.182344,0.1280454999999999,-0.4329355,-0.1655039999999999,-0.1315945,-0.7902555,-0.124061,0.1177155,-0.7961255,-0.116093,1
95,-0.0054955,0.6282525,0.0009265,-0.1240784999999999,0.4896925,-0.0118785,-0.1287785,0.7434025,-0.0718635,0.1344315,0.4981224999999999,0.0001094999999999,0.1565715,0.7649825,-0.0626305,-0.1151784999999999,0.9611025,-0.1059705,0.1488815,0.9761025,-0.1074515,-0.0671455,0.0008514999999999,-0.0038414999999999,0.0671455,-0.0008514999999999,0.0038414999999999,-0.1188684999999999,-0.4266075,-0.1881924999999999,0.1287415,-0.4304975,-0.1710625,-0.1318185,-0.7826675000000001,-0.1273835,0.1178915,-0.7886675000000001,-0.1187905,1
96,-0.0065035,0.6261845,-0.0007769999999999,-0.1260875,0.4925445,-0.012434,-0.1296175,0.7444145,-0.073194,0.1344825,0.4970645,0.0005059999999999,0.1578125,0.7595445000000001,-0.063889,-0.1156075,0.9646345,-0.1076459999999999,0.1499025,0.9729745,-0.10933,-0.0671335,0.0005744999999999,-0.0037239999999999,0.0671335,-0.0005745,0.0037239999999999,-0.1196075,-0.4246255,-0.193519,0.1296224999999999,-0.4280454999999999,-0.176169,-0.1319075,-0.7753855,-0.130324,0.1182325,-0.7816255,-0.121128,1
97,-0.0068105,0.6268429999999999,-0.0033245,-0.1264334999999999,0.495453,-0.0136345,-0.1301435,0.744073,-0.0747245,0.1349165,0.498923,-3.950000000000481e-05,0.1593965,0.755293,-0.0650085,-0.1156635,0.967273,-0.1089065,0.1512865,0.972303,-0.1104195,-0.0666665,0.0004959999999999,-0.0035045,0.0666665,-0.0004959999999999,0.0035045,-0.1197835,-0.422687,-0.1981844999999999,0.1307665,-0.425657,-0.1804545,-0.1315835,-0.768947,-0.1333975,0.1189965,-0.775467,-0.1235385,1
98,-0.0078125,0.6273249999999999,-0.004554,-0.1267245,0.496265,-0.0133669999999999,-0.1307845,0.7427849999999999,-0.07601,0.1355855,0.499115,-0.0007039999999999,0.1609455,0.7505149999999999,-0.065695,-0.1161045,0.965835,-0.110802,0.1527754999999999,0.967575,-0.111079,-0.0661105,0.00057,-0.002979,0.0661105,-0.00057,0.002979,-0.1198945,-0.4206249999999999,-0.202593,0.1319455,-0.423325,-0.184033,-0.1312545,-0.762625,-0.1357479999999999,0.1197955,-0.7695150000000001,-0.125478,1
99,-0.0086259999999999,0.6286355,-0.0058194999999999,-0.126384,0.4951055,-0.0129605,-0.1315839999999999,0.7400355,-0.0773605,0.1361359999999999,0.4988154999999999,-0.0012565,0.162306,0.7448954999999999,-0.0663885,-0.116684,0.9629855,-0.1130925,0.154136,0.9623355,-0.1116905,-0.065651,0.0007105,-0.0024584999999999,0.065651,-0.0007104999999999,0.0024585,-0.119964,-0.4185545,-0.2067145,0.1329759999999999,-0.4214945,-0.1874445,-0.130984,-0.7569745,-0.1380075,0.120506,-0.7644145,-0.1271745,1
100,-0.0092724999999999,0.6287925,-0.0076919999999999,-0.1259005,0.4936524999999999,-0.012483,-0.1323605,0.7367025,-0.078621,0.1372195,0.4986224999999999,-0.001278,0.1631495,0.7389825,-0.067551,-0.1172704999999999,0.9595525,-0.115299,0.1554295,0.9596925,-0.113257,-0.0653435,0.0007765,-0.0018709999999999,0.0653435,-0.0007764999999999,0.001871,-0.1197905,-0.4167075,-0.210621,0.1338595,-0.4193275,-0.190201,-0.1307305,-0.7513775,-0.140141,0.1211895,-0.7594075,-0.128444,1
101,-0.0098329999999999,0.6243915,-0.0105595,-0.125461,0.4916715,-0.0135405,-0.133061,0.7374115,-0.0804915,0.138299,0.4991415,-0.0016625,0.163999,0.7338614999999999,-0.0691505,-0.1177209999999999,0.9586215,-0.1178645,0.156689,0.9583215,-0.1153764999999999,-0.065091,0.0005525,-0.0009154999999999,0.065091,-0.0005525,0.0009154999999999,-0.1193309999999999,-0.4136384999999999,-0.2144495,0.134709,-0.4150884999999999,-0.1931495,-0.130181,-0.7447485,-0.1423585,0.121839,-0.7534085,-0.1300805,1
102,-0.009838,0.6187125,-0.0123449999999999,-0.124661,0.4887925,-0.0148659999999999,-0.133551,0.7367524999999999,-0.08245,0.139309,0.5001625,-0.0018799999999999,0.164789,0.7273225,-0.070736,-0.118111,0.9555025,-0.120418,0.157879,0.9546325,-0.11745,-0.064861,0.0003275,-9.999999999999593e-05,0.064861,-0.0003275,0.0001,-0.118631,-0.4110975,-0.217244,0.135409,-0.4116775,-0.195904,-0.129551,-0.7396475,-0.1444099999999999,0.122459,-0.7486275,-0.1316189999999999,1
103,-0.010164,0.6144765,-0.013781,-0.124145,0.4872165,-0.016,-0.134475,0.7374465,-0.084129,0.139705,0.4977765,-0.002103,0.1648949999999999,0.7253465,-0.071877,-0.118975,0.9536765,-0.122673,0.158285,0.9529665,-0.119367,-0.064806,0.0003185,-0.000422,0.064806,-0.0003185,0.0004219999999999,-0.118505,-0.4075435,-0.21977,0.135525,-0.4072935,-0.1984,-0.129485,-0.7331435,-0.146007,0.1224649999999999,-0.7426535,-0.132308,1
104,-0.0103714999999999,0.6116295,-0.0153075,-0.1241665,0.4881595,-0.0163945,-0.1349365,0.7383195,-0.0869935,0.1402435,0.4953995,-0.0024614999999999,0.1651234999999999,0.7235594999999999,-0.0732855,-0.1197565,0.9515895,-0.1254595,0.1589335,0.9515195,-0.1218885,-0.0648445,0.0003134999999999,-0.0008174999999999,0.0648445,-0.0003134999999999,0.0008174999999999,-0.1182465,-0.4041805,-0.2227075,0.1357735,-0.4034005,-0.2012075,-0.1293365,-0.7265105000000001,-0.1473455,0.1225835,-0.7365805000000001,-0.1330895,1
105,-0.0105335,0.609003,-0.0168434999999999,-0.1239624999999999,0.4922729999999999,-0.0166844999999999,-0.1348625,0.736293,-0.0896365,0.1407074999999999,0.493533,-0.0031054999999999,0.1654375,0.722563,-0.0747685,-0.1204525,0.946033,-0.1282595,0.1597174999999999,0.948603,-0.1240795,-0.0647455,0.0003289999999999,-0.0012305,0.0647455,-0.0003289999999999,0.0012305,-0.1174925,-0.400937,-0.2260195,0.1363474999999999,-0.3995269999999999,-0.2040395,-0.1289225,-0.7196870000000001,-0.1486605,0.1229575,-0.730337,-0.1338675,1
106,-0.0098005,0.6104015,-0.0178679999999999,-0.1243575,0.4940515,-0.0169829999999999,-0.1348075,0.7376015,-0.092028,0.1410125,0.4958415,-0.0035369999999999,0.1656225,0.7276015,-0.0762009999999999,-0.1212475,0.9445515,-0.130898,0.1601825,0.9500515,-0.126074,-0.0647465,0.0005434999999999,-0.0026579999999999,0.0647465,-0.0005434999999999,0.002658,-0.1168275,-0.3940085,-0.2294189999999999,0.1367825,-0.3918085,-0.206899,-0.1287075,-0.7089084999999999,-0.149886,0.1231925,-0.7200685,-0.134622,1
107,-0.009199,0.6104185,-0.0206594999999999,-0.124661,0.4963285,-0.0183644999999999,-0.134741,0.7392785,-0.0949474999999999,0.141389,0.4951785,-0.0056494999999999,0.165929,0.7316185,-0.0792084999999999,-0.121541,0.9475685,-0.1334505,0.160539,0.9540085,-0.1296005,-0.06482,0.0007425,-0.0025774999999999,0.06482,-0.0007425,0.0025775,-0.116101,-0.3868614999999999,-0.2344875,0.137219,-0.3841815,-0.2114975,-0.128211,-0.6977215,-0.1528784999999999,0.123419,-0.7091915,-0.1370124999999999,1
108,-0.0089799999999999,0.611439,-0.023549,-0.124952,0.499769,-0.019863,-0.134702,0.742119,-0.098725,0.1413479999999999,0.490109,-0.0087809999999999,0.1661079999999999,0.731959,-0.082352,-0.121942,0.952289,-0.136133,0.160848,0.956359,-0.133168,-0.065014,0.001131,-0.002431,0.065014,-0.001131,0.002431,-0.115242,-0.374451,-0.239592,0.137568,-0.371771,-0.216012,-0.127742,-0.685311,-0.155735,0.123498,-0.696851,-0.139859,1
109,-0.0095379999999999,0.610449,-0.0259084999999999,-0.126406,0.499309,-0.0220034999999999,-0.134846,0.7454289999999999,-0.1025025,0.141164,0.486599,-0.0118304999999999,0.166134,0.737439,-0.0853775,-0.1224859999999999,0.958809,-0.1388094999999999,0.161044,0.959299,-0.1366075,-0.06538,0.0010959999999999,-0.0023894999999999,0.06538,-0.0010959999999999,0.0023895,-0.114366,-0.3605109999999999,-0.2442635,0.137744,-0.357831,-0.2209435,-0.127446,-0.6713709999999999,-0.1584765,0.123234,-0.682841,-0.1423785,1
110,-0.010255,0.615561,-0.0295274999999999,-0.128296,0.495011,-0.0255735,-0.135326,0.741741,-0.1078025,0.140824,0.484591,-0.0168385,0.166014,0.739221,-0.0909575,-0.123066,0.958131,-0.1444415,0.160984,0.958711,-0.1425305,-0.066185,0.000783,-0.0026194999999999,0.066185,-0.0007829999999999,0.0026194999999999,-0.113826,-0.347339,-0.2504715,0.137604,-0.3433589999999999,-0.2274715,-0.127196,-0.656709,-0.1629515,0.122704,-0.6682589999999999,-0.1468555,1
111,-0.0106235,0.6276,-0.033602,-0.1300204999999999,0.49718,-0.03102,-0.1357405,0.74567,-0.114471,0.1405095,0.48854,-0.023695,0.1660395,0.7485700000000001,-0.097761,-0.1236005,0.9651,-0.151656,0.1609495,0.96516,-0.149936,-0.0669885,0.00049,-0.002702,0.0669885,-0.0004899999999999,0.0027019999999999,-0.1129604999999999,-0.32613,-0.260963,0.1377595,-0.32131,-0.238233,-0.1266705,-0.63467,-0.168623,0.1223094999999999,-0.64627,-0.152527,1
112,-0.0117715,0.6384,-0.0373515,-0.1314334999999999,0.4980799999999999,-0.0355985,-0.1362034999999999,0.74842,-0.1210175,0.1401665,0.49594,-0.0306355,0.1658664999999999,0.75655,-0.1044195,-0.1242934999999999,0.97079,-0.1586055,0.1605964999999999,0.97041,-0.1572835,-0.0677345,-4.000000000001225e-05,-0.0027854999999999,0.0677345,3.999999999999837e-05,0.0027854999999999,-0.1122535,-0.30579,-0.2710125,0.1378964999999999,-0.30096,-0.2484724999999999,-0.1260335,-0.61409,-0.1741125,0.1218665,-0.62566,-0.1578574999999999,1
113,-0.0120479999999999,0.648825,-0.0419105,-0.131987,0.5014149999999999,-0.0412025,-0.136397,0.750765,-0.1274005,0.1400529999999999,0.503305,-0.0370445,0.165653,0.764355,-0.1110045,-0.1246669999999999,0.975995,-0.1652005,0.160433,0.975635,-0.1639555,-0.068353,-0.0005949999999999,-0.0040295,0.068353,0.000595,0.0040294999999999,-0.111397,-0.284345,-0.2809105,0.138293,-0.279535,-0.2583405,-0.125237,-0.593755,-0.1793205,0.121433,-0.604165,-0.1631155,1
114,-0.0124449999999999,0.657885,-0.0467174999999999,-0.133,0.503415,-0.0470924999999999,-0.13662,0.756765,-0.1334865,0.13998,0.5093749999999999,-0.0437724999999999,0.1654999999999999,0.771345,-0.1175555,-0.12501,0.984025,-0.1722344999999999,0.16035,0.982255,-0.1711295,-0.069038,-0.001095,-0.0052384999999999,0.069038,0.0010949999999999,0.0052385,-0.11064,-0.263255,-0.2903135,0.13868,-0.258305,-0.2679935,-0.12447,-0.573795,-0.1843135,0.12096,-0.582785,-0.1682604999999999,1
115,-0.012901,0.659275,-0.05077,-0.1339139999999999,0.497095,-0.052338,-0.136844,0.756025,-0.138733,0.139566,0.5123249999999999,-0.050254,0.1653259999999999,0.7749950000000001,-0.1235769999999999,-0.1252539999999999,0.988525,-0.178908,0.160216,0.985975,-0.177564,-0.069553,-0.0021549999999999,-0.0055219999999999,0.069553,0.0021549999999999,0.0055219999999999,-0.109904,-0.2449049999999999,-0.2984759999999999,0.139156,-0.239705,-0.277096,-0.1236439999999999,-0.5569249999999999,-0.188396,0.120396,-0.564255,-0.1722739999999999,1
116,-0.0132285,0.6633549999999999,-0.055304,-0.1347515,0.490545,-0.05765,-0.1372415,0.757495,-0.14436,0.1390985,0.520385,-0.057244,0.1653684999999999,0.775455,-0.129892,-0.1255414999999999,0.993685,-0.185858,0.1605585,0.987075,-0.184064,-0.0698595,-0.0032449999999999,-0.00558,0.0698595,0.0032449999999999,0.00558,-0.1090715,-0.225385,-0.306547,0.1399185,-0.219695,-0.286427,-0.1226115,-0.539455,-0.192277,0.1200285,-0.544705,-0.176433,1
117,-0.013647,0.666525,-0.05965,-0.1353639999999999,0.483835,-0.062915,-0.137794,0.758305,-0.150799,0.138456,0.532745,-0.063534,0.1653859999999999,0.780365,-0.136197,-0.125634,0.997885,-0.193696,0.160536,0.989935,-0.190946,-0.070108,-0.0045149999999999,-0.005615,0.070108,0.004515,0.0056149999999999,-0.108484,-0.2061449999999999,-0.314646,0.140536,-0.200345,-0.2955959999999999,-0.121464,-0.523045,-0.196036,0.119596,-0.5258849999999999,-0.180674,1
118,-0.0138885,0.67311,-0.0656875,-0.1350295,0.4857599999999999,-0.0696625,-0.1380795,0.75768,-0.1588565,0.1381005,0.54322,-0.0714725,0.1657104999999999,0.78491,-0.1442725,-0.1258395,0.9937,-0.2047875,0.1615705,0.99304,-0.1998875,-0.0705105,-0.0052999999999999,-0.0040725,0.0705105,0.0052999999999999,0.0040724999999999,-0.1077495,-0.18837,-0.3244275,0.1413305,-0.1827199999999999,-0.3058075,-0.1199695,-0.5084299999999999,-0.2013775,0.1194205,-0.50877,-0.1863125,1
119,-0.0145034999999999,0.67673,-0.0678925,-0.1349524999999999,0.4921299999999999,-0.0734655,-0.1387324999999999,0.76233,-0.1638565,0.1376575,0.5490999999999999,-0.0769245,0.1659375,0.79216,-0.1489105,-0.1263725,0.9952,-0.2111905,0.1621375,0.99878,-0.2053205,-0.0707095,-0.00544,-0.0037495,0.0707095,0.00544,0.0037494999999999,-0.1072724999999999,-0.17247,-0.3311005,0.1419175,-0.1667799999999999,-0.3129405,-0.1188124999999999,-0.49593,-0.2038005,0.1190575,-0.49357,-0.1888375,1
120,-0.0149639999999999,0.672755,-0.06877,-0.134959,0.4912849999999999,-0.075264,-0.139659,0.760165,-0.167705,0.137461,0.549515,-0.080965,0.166081,0.791115,-0.152869,-0.127039,0.990335,-0.216312,0.162041,0.998095,-0.210512,-0.070794,-0.0056849999999999,-0.0035879999999999,0.070794,0.0056849999999999,0.0035879999999999,-0.107039,-0.163155,-0.333512,0.142171,-0.1574649999999999,-0.315922,-0.117869,-0.490245,-0.2045819999999999,0.118561,-0.4849249999999999,-0.190165,1
121,-0.0159624999999999,0.66898,-0.0700185,-0.1341815,0.49096,-0.0778335,-0.1406315,0.75762,-0.1713845,0.1374185,0.54999,-0.0850095,0.1666785,0.79005,-0.1582925,-0.1278315,0.98618,-0.2213295,0.1618785,0.99774,-0.2158495,-0.0708635,-0.0058199999999999,-0.0033804999999999,0.0708635,0.00582,0.0033804999999999,-0.1067215,-0.1531699999999999,-0.3359795,0.1424885,-0.1474799999999999,-0.3189495,-0.1168815,-0.4840099999999999,-0.2053395,0.1182685,-0.47556,-0.1911535,1
122,-0.0168319999999999,0.666075,-0.0714265,-0.132844,0.4882649999999999,-0.0815105,-0.141434,0.756715,-0.1752665,0.137596,0.5514049999999999,-0.0891614999999999,0.166816,0.790305,-0.1625444999999999,-0.128544,0.983725,-0.2266395,0.161796,0.997625,-0.2215295,-0.070838,-0.006275,-0.0030805,0.070838,0.0062749999999999,0.0030805,-0.1063839999999999,-0.143215,-0.3385695,0.142996,-0.137525,-0.3223795,-0.115534,-0.476115,-0.2059495,0.118566,-0.465835,-0.1921574999999999,1
123,-0.0177599999999999,0.663875,-0.073034,-0.1313939999999999,0.4865549999999999,-0.085198,-0.142484,0.755065,-0.179612,0.137676,0.553865,-0.092541,0.166786,0.787775,-0.166619,-0.129444,0.981875,-0.23201,0.161626,0.995115,-0.22695,-0.070794,-0.006655,-0.00281,0.070794,0.006655,0.0028099999999999,-0.105934,-0.135285,-0.34119,0.143426,-0.130025,-0.32592,-0.1142239999999999,-0.467755,-0.20673,0.118846,-0.456145,-0.193926,1
124,-0.018455,0.663635,-0.07448,-0.130635,0.489655,-0.0883029999999999,-0.143435,0.755405,-0.1841229999999999,0.137735,0.554865,-0.095605,0.1668049999999999,0.782545,-0.170742,-0.130395,0.978705,-0.237165,0.161635,0.989755,-0.232165,-0.070792,-0.0066049999999999,-0.0027449999999999,0.070792,0.006605,0.0027449999999999,-0.105495,-0.1279449999999999,-0.343805,0.1438849999999999,-0.1228549999999999,-0.328885,-0.113615,-0.459595,-0.2074349999999999,0.119165,-0.447225,-0.195934,1
125,-0.0184149999999999,0.6636299999999999,-0.0766119999999999,-0.1297809999999999,0.49261,-0.0913179999999999,-0.144041,0.75587,-0.1883929999999999,0.137319,0.55035,-0.0981499999999999,0.167059,0.7781100000000001,-0.175332,-0.131151,0.97591,-0.24192,0.161979,0.98487,-0.23736,-0.0709549999999999,-0.0062099999999999,-0.0028499999999999,0.0709549999999999,0.0062099999999999,0.00285,-0.1047809999999999,-0.12067,-0.34647,0.144609,-0.11485,-0.33159,-0.112481,-0.45025,-0.2073999999999999,0.119699,-0.43842,-0.197851,1
126,-0.0178215,0.6648700000000001,-0.079509,-0.1283925,0.4937,-0.094668,-0.1440725,0.75539,-0.192734,0.1363774999999999,0.5412600000000001,-0.100885,0.1679775,0.77485,-0.180068,-0.1316125,0.97574,-0.246505,0.1628575,0.9812,-0.242595,-0.0715645,-0.0052699999999999,-0.003235,0.0715645,0.0052699999999999,0.003235,-0.1035425,-0.1106699999999999,-0.349585,0.1458175,-0.10408,-0.334375,-0.1113725,-0.43842,-0.2086049999999999,0.1205975,-0.4273299999999999,-0.2001629999999999,1
127,-0.0176295,0.6618900000000001,-0.0822,-0.1271405,0.49192,-0.0977,-0.1441005,0.7552700000000001,-0.196702,0.1353895,0.53252,-0.102837,0.1689295,0.7726500000000001,-0.184451,-0.1317605,0.98244,-0.249215,0.1643595,0.97804,-0.246815,-0.0722235,-0.0047999999999999,-0.003705,0.0722235,0.0048,0.003705,-0.1022905,-0.1001999999999999,-0.352545,0.1469495,-0.0926599999999999,-0.337015,-0.1094904999999999,-0.42767,-0.208585,0.1215295,-0.4161699999999999,-0.202311,1
128,-0.0174065,0.660415,-0.084438,-0.1260065,0.4910749999999999,-0.099325,-0.1441065,0.754845,-0.199629,0.1343635,0.5261049999999999,-0.103913,0.1702735,0.770045,-0.18817,-0.1319165,0.982085,-0.253365,0.1658434999999999,0.974755,-0.251145,-0.0729185,-0.004265,-0.003945,0.0729185,0.0042649999999999,0.0039449999999999,-0.1012065,-0.089945,-0.355275,0.1477935,-0.081315,-0.339385,-0.1084365,-0.415885,-0.208325,0.1223834999999999,-0.405725,-0.204252,1
129,-0.0169565,0.6587000000000001,-0.086273,-0.1248615,0.49129,-0.100337,-0.1440615,0.75397,-0.202102,0.1334885,0.51995,-0.104699,0.1716685,0.76745,-0.190896,-0.1318715,0.98171,-0.257105,0.1674185,0.97147,-0.254545,-0.0736715,-0.00361,-0.004205,0.0736715,0.00361,0.004205,-0.1001815,-0.07995,-0.357515,0.1486785,-0.0699,-0.341375,-0.1074315,-0.40535,-0.208865,0.1232985,-0.39613,-0.206023,1
130,-0.016756,0.65785,-0.08757,-0.124443,0.49213,-0.100662,-0.144193,0.754,-0.204449,0.132367,0.5109600000000001,-0.105152,0.172797,0.76165,-0.193152,-0.131843,0.9818,-0.260965,0.168887,0.96471,-0.257325,-0.074576,-0.0026899999999999,-0.004485,0.074576,0.00269,0.004485,-0.099633,-0.0684199999999999,-0.3597749999999999,0.149207,-0.0571899999999999,-0.343015,-0.107693,-0.3934299999999999,-0.209245,0.123877,-0.3853499999999999,-0.20744,1
131,-0.0167445,0.65758,-0.088673,-0.1246734999999999,0.4878269999999999,-0.1009559999999999,-0.1444535,0.74944,-0.206542,0.1312665,0.5021899999999999,-0.105599,0.1737165,0.7559400000000001,-0.19557,-0.1320035,0.9816,-0.264645,0.1694765,0.95911,-0.2599749999999999,-0.0752995,-0.0022,-0.004705,0.0752995,0.0021999999999999,0.004705,-0.0994135,-0.0572,-0.3617849999999999,0.1493365,-0.04483,-0.344605,-0.1076035,-0.38205,-0.210575,0.1243065,-0.37479,-0.208561,1
132,-0.0170055,0.656715,-0.089589,-0.1249494999999999,0.483866,-0.101129,-0.1444395,0.746295,-0.207892,0.1299805,0.494163,-0.105584,0.1746005,0.7539150000000001,-0.197536,-0.1320795,0.981865,-0.26789,0.1706605,0.957015,-0.26239,-0.0760585,-0.0018449999999999,-0.00476,0.0760585,0.001845,0.00476,-0.0993395,-0.0457049999999999,-0.36379,0.1493605,-0.0321949999999999,-0.34634,-0.1072495,-0.3711749999999999,-0.21536,0.1245805,-0.3637549999999999,-0.20933,1
133,-0.0161829999999999,0.657675,-0.089835,-0.124566,0.480209,-0.101269,-0.144036,0.744505,-0.208777,0.128564,0.487494,-0.104943,0.1754339999999999,0.754505,-0.197224,-0.131706,0.983205,-0.27108,0.171584,0.957665,-0.26414,-0.07671,-0.001625,-0.0047999999999999,0.07671,0.0016249999999999,0.0047999999999999,-0.099226,-0.033725,-0.36568,0.149254,-0.019085,-0.34722,-0.108176,-0.359945,-0.21808,0.124844,-0.351935,-0.20931,1
134,-0.015433,0.65669,-0.089872,-0.124361,0.475749,-0.10074,-0.143321,0.7418899999999999,-0.20913,0.127969,0.486484,-0.104085,0.175939,0.75837,-0.195557,-0.1312009999999999,0.98064,-0.2736,0.172389,0.96158,-0.26511,-0.0771429999999999,-0.00179,-0.0049799999999999,0.0771429999999999,0.00179,0.0049799999999999,-0.099311,-0.0218499999999999,-0.36693,0.148879,-0.0065299999999999,-0.34754,-0.109301,-0.349,-0.2203,0.124919,-0.3406,-0.20915,1
135,-0.0149865,0.65373,-0.089128,-0.1247455,0.472504,-0.099885,-0.1431055,0.74041,-0.20917,0.1277645,0.48992,-0.103365,0.1762345,0.75987,-0.194058,-0.1310755,0.97519,-0.27583,0.1734045,0.96385,-0.26572,-0.0772045,-0.00261,-0.0052299999999999,0.0772045,0.00261,0.0052299999999999,-0.1000455,-0.0129599999999999,-0.36756,0.1479444999999999,0.00323,-0.34765,-0.1114555,-0.34083,-0.2228399999999999,0.1255244999999999,-0.3332,-0.20979,1
136,-0.0145855,0.65515,-0.088719,-0.1252785,0.473056,-0.098529,-0.1431685,0.74112,-0.20877,0.1272815,0.488535,-0.101294,0.1761715,0.75776,-0.192744,-0.1312385,0.97282,-0.27727,0.1741715,0.96303,-0.26519,-0.0772045,-0.0019299999999999,-0.00546,0.0772045,0.00193,0.0054599999999999,-0.1011185,-0.0003599999999999,-0.36755,0.1471115,0.0178,-0.34738,-0.1169385,-0.32836,-0.2258,0.1258814999999999,-0.32196,-0.20995,1
137,-0.0140075,0.6558550000000001,-0.088013,-0.1260625,0.472698,-0.097076,-0.1433924999999999,0.741515,-0.20792,0.1267875,0.486167,-0.099135,0.1767475,0.753005,-0.192044,-0.1315724999999999,0.974295,-0.27668,0.1749375,0.961145,-0.26447,-0.0773085,-0.0014849999999999,-0.0055899999999999,0.0773085,0.001485,0.0055899999999999,-0.1024125,0.011825,-0.36697,0.1464075,0.031755,-0.34676,-0.1223225,-0.3160649999999999,-0.2284999999999999,0.1257875,-0.3110349999999999,-0.21032,1
138,-0.013631,0.657015,-0.0865339999999999,-0.127342,0.472219,-0.0953339999999999,-0.143862,0.7423550000000001,-0.20687,0.126188,0.48393,-0.0966269999999999,0.176998,0.748095,-0.1908409999999999,-0.132222,0.975445,-0.27553,0.175458,0.959215,-0.26325,-0.07741,-0.001195,-0.0054299999999999,0.07741,0.001195,0.00543,-0.1038719999999999,0.024455,-0.36587,0.145598,0.046005,-0.34562,-0.127542,-0.3036649999999999,-0.23018,0.1273979999999999,-0.3010849999999999,-0.21405,1
139,-0.0128485,0.657145,-0.084961,-0.1282985,0.471033,-0.093039,-0.1443485,0.743045,-0.205609,0.1256715,0.484873,-0.093771,0.1772915,0.746515,-0.189224,-0.1327485,0.975555,-0.274049,0.1766515,0.957695,-0.261649,-0.0775194999999999,-0.0013349999999999,-0.005051,0.0775194999999999,0.0013349999999999,0.005051,-0.1052385,0.036715,-0.364439,0.1451915,0.059765,-0.344129,-0.1324985,-0.293025,-0.231019,0.1292415,-0.2922849999999999,-0.2173189999999999,1
140,-0.012988,0.656075,-0.0830255,-0.12919,0.476489,-0.0913835,-0.14468,0.746685,-0.2042925,0.12537,0.485079,-0.0907815,0.17758,0.743615,-0.1868075,-0.1330899999999999,0.974135,-0.2727625,0.17775,0.954965,-0.2590025,-0.077485,-0.0007849999999999,-0.0046675,0.077485,0.0007849999999999,0.0046675,-0.10643,0.0485249999999999,-0.3629025,0.14484,0.0733249999999999,-0.3424925,-0.1374,-0.282865,-0.2303225,0.13137,-0.2836349999999999,-0.2200524999999999,1
141,-0.0131309999999999,0.6551750000000001,-0.0815625,-0.130299,0.481278,-0.0899365,-0.145229,0.749885,-0.2031885,0.124611,0.485058,-0.0880445,0.177661,0.740245,-0.1838235,-0.133619,0.972335,-0.2719785,0.178571,0.951605,-0.2557885,-0.077402,-0.0003649999999999,-0.0043315,0.077402,0.000365,0.0043315,-0.107759,0.060615,-0.3611485,0.144231,0.086965,-0.3405485,-0.141669,-0.272875,-0.2293285,0.133451,-0.2744449999999999,-0.2227085,1
142,-0.012024,0.6536399999999999,-0.079959,-0.130762,0.4847959999999999,-0.088594,-0.145752,0.7522499999999999,-0.202171,0.1242979999999999,0.4846379999999999,-0.085782,0.177878,0.7359399999999999,-0.181126,-0.134132,0.96979,-0.271461,0.179598,0.94729,-0.2529909999999999,-0.077258,2.999999999997449e-05,-0.0039089999999999,0.077258,-3.0000000000085517e-05,0.0039089999999999,-0.108652,0.0722299999999999,-0.3590109999999999,0.143758,0.0999899999999999,-0.338601,-0.146062,-0.26211,-0.228561,0.133128,-0.2670500000000001,-0.224731,1
143,-0.0109235,0.652795,-0.0784254999999999,-0.1307465,0.487737,-0.0874305,-0.1463964999999999,0.754055,-0.2017005,0.1238134999999999,0.483088,-0.0833805,0.1780735,0.731385,-0.1780604999999999,-0.1348265,0.969885,-0.2709205,0.1808635,0.942815,-0.2501204999999999,-0.0771415,0.000425,-0.0034194999999999,0.0771415,-0.000425,0.0034195,-0.1093665,0.0846549999999999,-0.3565905,0.1435735,0.112655,-0.3360505,-0.1497565,-0.253575,-0.2277904999999999,0.1325135,-0.260235,-0.2266004999999999,1
144,-0.0096805,0.652075,-0.077003,-0.1306395,0.4902289999999999,-0.086317,-0.1470795,0.755805,-0.201233,0.1233305,0.4813889999999999,-0.080982,0.1783705,0.727385,-0.174963,-0.1357595,0.969975,-0.270373,0.1819704999999999,0.938145,-0.247503,-0.0770315,0.000835,-0.002947,0.0770315,-0.000835,0.0029469999999999,-0.1099595,0.0970749999999999,-0.3536829999999999,0.1436204999999999,0.1258449999999999,-0.332773,-0.1533495,-0.242315,-0.223943,0.1321505,-0.253585,-0.228703,1
145,-0.0090419999999999,0.65127,-0.075926,-0.130406,0.488625,-0.084874,-0.148076,0.75367,-0.200729,0.123034,0.4848929999999999,-0.080059,0.179374,0.72532,-0.173343,-0.137016,0.96648,-0.270279,0.183934,0.93484,-0.245569,-0.076909,2.000000000002e-05,-0.0024409999999999,0.076909,-2.000000000002e-05,0.0024409999999999,-0.110426,0.1064499999999999,-0.3500689999999999,0.144084,0.1349999999999999,-0.329639,-0.153736,-0.23413,-0.2216489999999999,0.132084,-0.2506,-0.231089,1
146,-0.0081095,0.65044,-0.0749265,-0.1299345,0.487052,-0.0833994999999999,-0.1488745,0.75157,-0.2000505,0.1229055,0.4883889999999999,-0.0790324999999999,0.1805155,0.7255,-0.1724675,-0.1381845,0.96585,-0.2705105,0.1862055,0.9322,-0.2440405,-0.0768295,-0.0006,-0.0020174999999999,0.0768295,0.0005999999999999,0.0020175,-0.1107345,0.1154999999999999,-0.3463005,0.1450254999999999,0.1438399999999999,-0.3262205,-0.1539344999999999,-0.22641,-0.2194005,0.1322255,-0.2478599999999999,-0.2335404999999999,1
147,-0.007193,0.650175,-0.0740085,-0.12944,0.4852099999999999,-0.0820915,-0.14965,0.7495449999999999,-0.1992695,0.1227999999999999,0.4908539999999999,-0.0779615,0.1818,0.7255349999999999,-0.1717095,-0.13935,0.965485,-0.2707795,0.18856,0.929295,-0.2427095,-0.076762,-0.001065,-0.0016604999999999,0.076762,0.0010649999999999,0.0016604999999999,-0.111,0.1239049999999999,-0.3427695,0.14613,0.1519449999999999,-0.3228995,-0.15411,-0.2192050000000001,-0.2173095,0.13229,-0.245075,-0.2341095,1
148,-0.0063445,0.6500699999999999,-0.0736575,-0.1294644999999999,0.4829989999999999,-0.0812605,-0.1505544999999999,0.747555,-0.1992675,0.1229255,0.492845,-0.0772425,0.1830155,0.725715,-0.1713595,-0.1406144999999999,0.965875,-0.2714475,0.1901554999999999,0.929395,-0.2423375,-0.0767345,-0.0014549999999999,-0.0014595,0.0767345,0.0014549999999999,0.0014595,-0.1111545,0.1303349999999999,-0.3401075,0.1469355,0.1582449999999999,-0.3202875,-0.1543045,-0.213665,-0.2158875,0.1323055,-0.242325,-0.2351875,1
149,-0.0056725,0.650258,-0.073376,-0.1294725,0.480255,-0.080484,-0.1514424999999999,0.7461550000000001,-0.19909,0.1229775,0.493951,-0.0765629999999999,0.1839974999999999,0.725875,-0.171004,-0.1419325,0.967985,-0.27231,0.1917574999999999,0.929425,-0.24196,-0.0767255,-0.0018149999999999,-0.0013429999999999,0.0767255,0.001815,0.0013429999999999,-0.1112725,0.135085,-0.33823,0.1476275,0.162335,-0.31846,-0.1544424999999999,-0.2093849999999999,-0.21538,0.1322674999999999,-0.2404449999999999,-0.23646,1
150,-0.0049239999999999,0.6509649999999999,-0.0731645,-0.12933,0.4782029999999999,-0.0798864999999999,-0.15218,0.7452349999999999,-0.1989675,0.12308,0.4938849999999999,-0.0758924999999999,0.18497,0.7259749999999999,-0.1706464999999999,-0.14323,0.969725,-0.2732575,0.19343,0.929345,-0.2415874999999999,-0.076738,-0.001925,-0.0012704999999999,0.076738,0.0019249999999999,0.0012705,-0.1111699999999999,0.1380849999999999,-0.3370375,0.14838,0.1646849999999999,-0.3172975,-0.15438,-0.206505,-0.2151674999999999,0.12976,-0.2391550000000001,-0.2364075,1
151,-0.0045795,0.6517299999999999,-0.0729995,-0.1291135,0.4763409999999999,-0.0795425,-0.1528835,0.7442099999999999,-0.1989195,0.1231665,0.4930739999999999,-0.0753265,0.1858865,0.72578,-0.1703545,-0.1446734999999999,0.97068,-0.2745595,0.1949865,0.92901,-0.2412395,-0.0767555,-0.00193,-0.0011825,0.0767555,0.0019299999999999,0.0011825,-0.1107634999999999,0.1396899999999999,-0.3363195,0.1489565,0.1656399999999999,-0.3168295,-0.1541235,-0.2047000000000001,-0.2150395,0.1271665,-0.2390500000000001,-0.2364695,1
152,-0.0046394999999999,0.6517299999999999,-0.0730029999999999,-0.1287725,0.4740189999999999,-0.079411,-0.1537225,0.74264,-0.198975,0.1232175,0.491702,-0.0749769999999999,0.1866675,0.72526,-0.1701659999999999,-0.1465625,0.97068,-0.276045,0.1964475,0.92901,-0.2415749999999999,-0.0767465,-0.00193,-0.0011819999999999,0.0767465,0.0019299999999999,0.001182,-0.1101225,0.1396899999999999,-0.336285,0.1493075,0.1656399999999999,-0.3168149999999999,-0.1537725,-0.2047000000000001,-0.215025,0.1248475,-0.23886,-0.235115,1
153,-0.0043839999999999,0.6517299999999999,-0.0731904999999999,-0.128209,0.4739719999999999,-0.0794165,-0.154479,0.74264,-0.1990695,0.123321,0.4907379999999999,-0.0746975,0.1869009999999999,0.72526,-0.1701285,-0.148459,0.9712,-0.2769795,0.197771,0.92901,-0.2421195,-0.076798,-0.00193,-0.0011434999999999,0.076798,0.0019299999999999,0.0011435,-0.1094489999999999,0.1396899999999999,-0.3362795,0.149261,0.1656399999999999,-0.3168594999999999,-0.153379,-0.2047000000000001,-0.2152395,0.1220509999999999,-0.2395400000000001,-0.2346794999999999,1
154,-0.0041975,0.6517299999999999,-0.0733075,-0.1278455,0.4739719999999999,-0.0794645,-0.1549755,0.74264,-0.1990515,0.1233944999999999,0.4904639999999999,-0.0746025,0.1868745,0.72526,-0.1699195,-0.1500655,0.97302,-0.2776115,0.1979045,0.92901,-0.2426315,-0.0768295,-0.00193,-0.0010745,0.0768295,0.0019299999999999,0.0010744999999999,-0.1088855,0.1396899999999999,-0.3363115,0.1492545,0.1656299999999999,-0.3169315,-0.1530455,-0.20362,-0.2145215,0.1214645,-0.23935,-0.2334815,1
155,-0.0040454999999999,0.6523720000000001,-0.073578,-0.1277455,0.4737920000000001,-0.079599,-0.1551955,0.7424600000000001,-0.198924,0.1233645,0.4902840000000001,-0.074745,0.1868545,0.7250800000000002,-0.1702,-0.1518955,0.9768100000000002,-0.277864,0.1979045,0.9343400000000002,-0.243234,-0.0768645,-0.0019899999999999,-0.0011339999999999,0.0768645,0.00199,0.0011339999999999,-0.1083755,0.1385000000000001,-0.336784,0.1492445,0.1644200000000001,-0.317374,-0.1527255,-0.2037499999999998,-0.2140139999999999,0.1212345,-0.2389299999999998,-0.232364,1
156,-0.003665,0.655625,-0.075315,-0.127712,0.469897,-0.080802,-0.155662,0.739545,-0.199792,0.123378,0.486389,-0.075633,0.186878,0.722375,-0.171237,-0.154062,0.981905,-0.278892,0.197958,0.937055,-0.244762,-0.076765,-0.0014349999999999,-0.002016,0.076765,0.0014349999999999,0.002016,-0.107412,0.132095,-0.3387219999999999,0.149158,0.157735,-0.319052,-0.151992,-0.2078649999999999,-0.214272,0.120988,-0.242565,-0.230102,1
157,-0.0034419999999999,0.6574899999999999,-0.0769975,-0.127135,0.4695279999999999,-0.0828265,-0.1561249999999999,0.7396799999999999,-0.1999645,0.123545,0.4803639999999999,-0.0764455,0.186555,0.7220899999999999,-0.1717695,-0.156155,0.98781,-0.2795145,0.198125,0.94152,-0.2455745,-0.076804,-0.00071,-0.0027554999999999,0.076804,0.0007099999999999,0.0027555,-0.106045,0.1231299999999999,-0.3396245,0.149005,0.1476699999999999,-0.3203745,-0.148335,-0.21435,-0.2127845,0.120955,-0.2457100000000001,-0.2278244999999999,1
158,-0.0031105,0.6606349999999999,-0.0784914999999999,-0.1260145,0.4687769999999999,-0.0847735,-0.1560245,0.739695,-0.1995644999999999,0.1239155,0.4786059999999999,-0.0781245,0.1861555,0.725965,-0.1715125,-0.1582745,0.993295,-0.2793044999999999,0.1973655,0.945435,-0.2460045,-0.0770194999999999,-0.000765,-0.0031354999999999,0.0770194999999999,0.0007649999999999,0.0031354999999999,-0.1035445,0.1043249999999999,-0.3401245,0.1482955,0.1265049999999999,-0.3214245,-0.1422345,-0.231685,-0.2108844999999999,0.1211655,-0.258935,-0.2250545,1
159,-0.0026725,0.663485,-0.0788245,-0.1247824999999999,0.47108,-0.0867725,-0.1555925,0.742315,-0.1988165,0.1239275,0.4779949999999999,-0.0798795,0.1853975,0.728755,-0.1708805,-0.1601624999999999,0.997335,-0.2788465,0.1965775,0.953635,-0.2459065,-0.0772165,-0.0006249999999999,-0.0034135,0.0772165,0.0006249999999999,0.0034135,-0.1007925,0.0827649999999999,-0.3404665,0.1476575,0.1029149999999999,-0.3223165,-0.1362925,-0.2519949999999999,-0.2085565,0.1214474999999999,-0.275065,-0.2210865,1
160,-0.0025809999999999,0.666855,-0.0787219999999999,-0.122948,0.472152,-0.08879,-0.155268,0.743835,-0.197604,0.1238219999999999,0.476702,-0.0815129999999999,0.183742,0.7323649999999999,-0.1699379999999999,-0.161978,1.002535,-0.277155,0.195592,0.965235,-0.245175,-0.077388,-0.0004049999999999,-0.0034849999999999,0.077388,0.0004049999999999,0.003485,-0.0981279999999999,0.053545,-0.340205,0.146842,0.071375,-0.322675,-0.130708,-0.281145,-0.205755,0.121652,-0.299305,-0.216385,1
161,-0.0025999999999999,0.672885,-0.078674,-0.122256,0.471882,-0.089191,-0.155776,0.744335,-0.195399,0.123914,0.474044,-0.082995,0.182574,0.734915,-0.168513,-0.163556,1.006095,-0.274506,0.193834,0.973845,-0.243896,-0.077307,-0.0001849999999999,-0.0035239999999999,0.077307,0.0001849999999999,0.0035239999999999,-0.095846,0.021405,-0.340016,0.145864,0.039235,-0.322696,-0.125436,-0.3129849999999999,-0.202796,0.121754,-0.326295,-0.211326,1
162,-0.0028274999999999,0.6785650000000001,-0.0785464999999999,-0.1215014999999999,0.469814,-0.0894195,-0.1564315,0.7432449999999999,-0.1928975,0.1240885,0.475127,-0.0842315,0.1809385,0.7404850000000001,-0.1667905,-0.1650714999999999,1.009405,-0.2709055,0.1917785,0.988055,-0.2419955,-0.0770145,-0.0003449999999999,-0.0036444999999999,0.0770145,0.0003449999999999,0.0036445,-0.0938514999999999,-0.0113949999999999,-0.3397455,0.1447985,0.006435,-0.3226155,-0.1204214999999999,-0.345305,-0.1995954999999999,0.1217485,-0.353865,-0.2050655,1
163,-0.0031384999999999,0.685165,-0.078118,-0.1197274999999999,0.4669469999999999,-0.090093,-0.1562775,0.741485,-0.190165,0.1242425,0.478263,-0.085514,0.1799225,0.747755,-0.165054,-0.1662975,1.0116649999999998,-0.266592,0.1897425,1.0027849999999998,-0.239932,-0.0768085,-0.000835,-0.003808,0.0768085,0.0008349999999999,0.0038079999999999,-0.0920175,-0.045075,-0.339402,0.1438425,-0.027305,-0.322512,-0.1154274999999999,-0.377585,-0.196238,0.1217725,-0.3819950000000001,-0.198022,1
164,-0.0040005,0.69154,-0.0761485,-0.1180075,0.4736,-0.0892345,-0.1561274999999999,0.74853,-0.1853995,0.1244725,0.48278,-0.0851645,0.1790125,0.7559,-0.1615895,-0.1670074999999999,1.0140600000000002,-0.2596645,0.1875025,1.00584,-0.2363245,-0.0763935,-0.0007099999999999,-0.0052055,0.0763935,0.00071,0.0052055,-0.0906075,-0.0830099999999999,-0.3358345,0.1424125,-0.0669399999999999,-0.3187245,-0.1107475,-0.4160499999999999,-0.1906925,0.1217825,-0.41664,-0.1899245,1
165,-0.004912,0.6942999999999999,-0.0732469999999999,-0.1166059999999999,0.4786499999999999,-0.087489,-0.156116,0.75372,-0.179504,0.124404,0.4890299999999999,-0.083883,0.178274,0.76468,-0.1572569999999999,-0.167696,1.01685,-0.250877,0.184854,1.01549,-0.231727,-0.07627,-0.00171,-0.0057229999999999,0.07627,0.0017099999999999,0.005723,-0.090136,-0.11894,-0.330527,0.141084,-0.1049,-0.313377,-0.106906,-0.45372,-0.183941,0.121604,-0.4526799999999999,-0.183589,1
166,-0.0056279999999999,0.69976,-0.0701095,-0.11528,0.48371,-0.0853765,-0.1557799999999999,0.75928,-0.1728155,0.12444,0.49556,-0.0823615,0.17781,0.7714300000000001,-0.1520975,-0.16796,1.01871,-0.2419695,0.1841999999999999,1.02333,-0.2268795,-0.076104,-0.0022899999999999,-0.0062195,0.076104,0.00229,0.0062194999999999,-0.0898699999999999,-0.1539999999999999,-0.3244194999999999,0.14003,-0.1417699999999999,-0.3070595,-0.10566,-0.4912499999999999,-0.1801835,0.12172,-0.48985,-0.1777635,1
167,-0.0057024999999999,0.704155,-0.066443,-0.1139955,0.488445,-0.082394,-0.1552955,0.764265,-0.165848,0.1244945,0.497125,-0.079555,0.1777445,0.773425,-0.147424,-0.1683155,1.023505,-0.232675,0.1840345,1.031455,-0.220635,-0.0758435,-0.0019949999999999,-0.0067149999999999,0.0758435,0.0019949999999999,0.0067149999999999,-0.0901055,-0.1781949999999999,-0.317175,0.1395345,-0.1680449999999999,-0.299725,-0.1057055,-0.519175,-0.176004,0.1215445,-0.517975,-0.1714069999999999,1
168,-0.005976,0.7097899999999999,-0.0607174999999999,-0.112984,0.49028,-0.0781425,-0.155224,0.7668200000000001,-0.1583155,0.1243459999999999,0.49919,-0.0756995,0.177456,0.77752,-0.1414085,-0.168904,1.02941,-0.2220865,0.1836559999999999,1.03561,-0.2132565,-0.075277,-0.00206,-0.0064815,0.075277,0.00206,0.0064815,-0.090594,-0.19801,-0.3081165,0.1388259999999999,-0.19027,-0.2909565,-0.105944,-0.5445800000000001,-0.1707745,0.121336,-0.5437399999999999,-0.1643895,1
169,-0.0063535,0.713495,-0.054398,-0.1122715,0.491305,-0.072783,-0.1550215,0.768275,-0.15004,0.1240385,0.500425,-0.070947,0.1775085,0.778985,-0.134451,-0.1692415,1.032015,-0.211312,0.1831185,1.036895,-0.204772,-0.0745585,-0.0025049999999999,-0.0058689999999999,0.0745585,0.002505,0.0058689999999999,-0.0908515,-0.2134349999999999,-0.299522,0.1378385,-0.208515,-0.281922,-0.1062815,-0.564995,-0.16548,0.1210385,-0.563775,-0.156767,1
170,-0.0068094999999999,0.713355,-0.0461589999999999,-0.1117944999999999,0.493465,-0.0652319999999999,-0.1553044999999999,0.770505,-0.141114,0.1250155,0.506385,-0.0640409999999999,0.1777955,0.784475,-0.126326,-0.1691244999999999,1.031005,-0.199953,0.1829755,1.036525,-0.1952829999999999,-0.0734925,-0.002865,-0.0051129999999999,0.0734925,0.002865,0.005113,-0.0924345,-0.2345749999999999,-0.287303,0.1362455,-0.232325,-0.269703,-0.1083145,-0.588585,-0.1580639999999999,0.1204055,-0.588335,-0.147698,1
171,-0.007808,0.709985,-0.0349754999999999,-0.112191,0.495875,-0.0540754999999999,-0.155211,0.772705,-0.1283915,0.126259,0.504975,-0.0531284999999999,0.177749,0.782775,-0.1143324999999999,-0.169071,1.026685,-0.1852705,0.182729,1.026885,-0.1820105,-0.072798,-0.002755,-0.0032194999999999,0.072798,0.0027549999999999,0.0032195,-0.094401,-0.259135,-0.2706505,0.134309,-0.260415,-0.2530104999999999,-0.110411,-0.615995,-0.1466425,0.119519,-0.616665,-0.1351395,1
172,-0.007303,0.7032615,-0.0227404999999999,-0.113256,0.4974615,-0.0409485,-0.155916,0.7740715,-0.1145014999999999,0.1272339999999999,0.4992715,-0.0409405,0.178274,0.7764615,-0.1009444999999999,-0.168736,1.0269415,-0.1687175,0.181824,1.0131915,-0.1675074999999999,-0.0720099999999999,-0.0015364999999999,-0.0029695,0.0720099999999999,0.0015364999999999,0.0029695,-0.097446,-0.2876385,-0.2499075,0.131374,-0.2917984999999999,-0.2325175,-0.113216,-0.6473985,-0.1336284999999999,0.1179639999999999,-0.6491185,-0.1217225,1
173,-0.0066929999999999,0.6969445,-0.0118535,-0.113707,0.4900045,-0.0301295,-0.156237,0.7671745,-0.1025105,0.128593,0.4933645,-0.0301555,0.179083,0.7700444999999999,-0.0894035,-0.1676969999999999,1.0259745,-0.1546685,0.182073,1.0110045,-0.1541885,-0.071363,-0.0010135,-0.0012995,0.071363,0.0010135,0.0012995,-0.099717,-0.3089355,-0.2317685,0.1291729999999999,-0.3133355,-0.2151085,-0.1154169999999999,-0.6719955000000001,-0.1219945,0.116893,-0.6741955000000001,-0.1098825,1
174,-0.0055295,0.6922435,-0.0017839999999999,-0.1139455,0.4877335,-0.0201489999999999,-0.1563455,0.7648134999999999,-0.091458,0.1302945,0.4889835,-0.0200869999999999,0.1797445,0.7652135,-0.078154,-0.1662855,1.0230235,-0.142356,0.1830345,1.0045135,-0.142046,-0.0704974999999999,-0.0001975,-0.0004479999999999,0.0704974999999999,0.0001974999999999,0.000448,-0.1014055,-0.3288765,-0.214766,0.1271945,-0.3321465,-0.198426,-0.1171955,-0.6940665,-0.111216,0.1161445,-0.6963565,-0.0990709999999999,1
175,-0.003505,0.6883295,0.0084695,-0.114213,0.4844495,-0.0099034999999999,-0.156723,0.7614795,-0.0801905,0.132767,0.4866695,-0.0092764999999999,0.180397,0.7603495,-0.0668604999999999,-0.1650029999999999,1.0196495,-0.1293905,0.183897,0.9989695,-0.1287505,-0.069551,0.0001605,0.0004495,0.069551,-0.0001605,-0.0004494999999999,-0.103073,-0.3477004999999999,-0.1973705,0.125127,-0.3498505,-0.1808104999999999,-0.118973,-0.7157505,-0.1000214999999999,0.115377,-0.7184005,-0.0879855,1
176,-0.0009865,0.682154,0.019158,-0.1147275,0.481874,0.000689,-0.1567775,0.758984,-0.068609,0.1352324999999999,0.482324,0.001959,0.1810524999999999,0.753444,-0.055152,-0.1642375,1.010054,-0.115669,0.1846725,0.994574,-0.114909,-0.0687825,0.000356,0.002259,0.0687825,-0.000356,-0.0022589999999999,-0.1049575,-0.368916,-0.177969,0.1228725,-0.370096,-0.160969,-0.1206875,-0.739756,-0.08814,0.1145525,-0.742926,-0.07664,1
177,0.00115,0.6750195,0.029808,-0.1152159999999999,0.4790895,0.011325,-0.1568459999999999,0.7560595,-0.056767,0.137614,0.4767394999999999,0.012983,0.181534,0.7455495000000001,-0.04353,-0.1635859999999999,1.0019595,-0.101576,0.185434,0.9898595,-0.100686,-0.068112,0.0006155,0.004098,0.068112,-0.0006155,-0.004098,-0.106956,-0.3888405,-0.157916,0.120584,-0.3911205,-0.140416,-0.122396,-0.7633105,-0.076367,0.113684,-0.7674405,-0.06534,1
178,0.0032105,0.6693779999999999,0.039497,-0.1158645,0.477838,0.0207949999999999,-0.1572045,0.755008,-0.046106,0.1399955,0.474138,0.0230119999999999,0.1818455,0.743178,-0.033024,-0.1633845,0.995378,-0.088609,0.1847855,0.985478,-0.088899,-0.0674724999999999,0.0012049999999999,0.0054149999999999,0.0674724999999999,-0.0012049999999999,-0.005415,-0.1088045,-0.4073319999999999,-0.138709,0.1180954999999999,-0.411332,-0.120839,-0.1240844999999999,-0.7854920000000001,-0.0654899999999999,0.1127255,-0.790752,-0.05507,1
179,0.0055324999999999,0.6637565,0.047334,-0.1159985,0.4757965,0.0285339999999999,-0.1571785,0.7531365,-0.037054,0.1413715,0.4675065,0.0311009999999999,0.1813715,0.7370365,-0.024316,-0.1629485,0.9927165,-0.077213,0.1842215,0.9839165,-0.078887,-0.0672625,0.0019064999999999,0.005915,0.0672625,-0.0019064999999999,-0.005915,-0.1095485,-0.4196835,-0.123047,0.1163515,-0.4253035,-0.104287,-0.1249585,-0.8009635,-0.056231,0.1123514999999999,-0.8076335,-0.046566,1
180,0.0069405,0.6618875000000001,0.050939,-0.1164675,0.4743275,0.032202,-0.1568474999999999,0.7520375,-0.032067,0.1429225,0.4649675,0.034979,0.1810425,0.7349375,-0.0196859999999999,-0.1624874999999999,0.9937175,-0.070154,0.1836225,0.9870175,-0.073366,-0.0669194999999999,0.0024134999999999,0.005119,0.0669194999999999,-0.0024134999999999,-0.0051189999999999,-0.1099074999999999,-0.4282325,-0.111522,0.1148425,-0.4353525,-0.091962,-0.1256175,-0.8127624999999999,-0.050994,0.1122124999999999,-0.8205825,-0.0418699999999999,0
181,0.0077179999999999,0.662178,0.0530815,-0.116303,0.474318,0.0343035,-0.156873,0.752108,-0.0292874999999999,0.144027,0.4650379999999999,0.0371585,0.180837,0.735828,-0.0169965,-0.162623,0.991018,-0.0656834999999999,0.1832069999999999,0.993618,-0.0693174999999999,-0.066673,0.0021909999999999,0.0055415,0.066673,-0.0021909999999999,-0.0055415,-0.1100329999999999,-0.433382,-0.1039885,0.1139169999999999,-0.441612,-0.0831785,-0.126003,-0.820432,-0.0476314999999999,0.112267,-0.829192,-0.0390215,0
182,0.0085355,0.662137,0.055123,-0.1161005,0.473877,0.036331,-0.1567705,0.751777,-0.02595,0.1449995,0.464097,0.03975,0.1805594999999999,0.735847,-0.0137229999999999,-0.1625505,0.988537,-0.060979,0.1827895,0.994437,-0.064521,-0.0664625,0.002088,0.005613,0.0664625,-0.0020879999999999,-0.005613,-0.1102104999999999,-0.440863,-0.09573,0.1129594999999999,-0.4490929999999999,-0.07383,-0.1263205,-0.828483,-0.04388,0.1123895,-0.8379329999999999,-0.035954,0
183,0.0093354999999999,0.6627185,0.057137,-0.1155205,0.4713285,0.038369,-0.1569105,0.7496185,-0.0228179999999999,0.1457195,0.4628185,0.042429,0.1802395,0.7352485,-0.0109159999999999,-0.1624805,0.9863285,-0.0562909999999999,0.1823595,0.9954285,-0.059989,-0.0664845,0.0022104999999999,0.005609,0.0664845,-0.0022105,-0.0056089999999999,-0.1104705,-0.4482715,-0.087306,0.1119795,-0.4565015,-0.064547,-0.1267005,-0.8359215,-0.040033,0.1124194999999999,-0.8458515,-0.0329369999999999,0
184,0.00961,0.66038,0.0586445,-0.115518,0.47045,0.0387855,-0.157058,0.7488999999999999,-0.0201515,0.145362,0.46023,0.0445135,0.179892,0.73536,-0.0087965,-0.162438,0.98434,-0.0524345,0.181752,0.99594,-0.0563475,-0.066335,0.00247,0.0053934999999999,0.066335,-0.00247,-0.0053935,-0.110738,-0.4506,-0.0793025,0.111062,-0.45854,-0.0562585,-0.127028,-0.84311,-0.0367274999999999,0.1123919999999999,-0.85304,-0.0303565,0
185,0.0099215,0.6600600000000001,0.0593435,-0.1145964999999999,0.4703299999999999,0.0385915,-0.1572664999999999,0.7487299999999999,-0.0184135,0.1451335,0.4603299999999999,0.0457395,0.1796535,0.7381500000000001,-0.0074784999999999,-0.1622465,0.98611,-0.0496134999999999,0.1811535,0.99611,-0.0538734999999999,-0.0661205,0.00281,0.0043785,0.0661205,-0.0028099999999999,-0.0043785,-0.1108865,-0.45097,-0.0728465,0.1103335,-0.45917,-0.0501495,-0.1271465,-0.84694,-0.0341655,0.1124735,-0.85687,-0.0285205,0
186,0.0103494999999999,0.65898,0.0596615,-0.1140805,0.46754,0.0386005,-0.1573005,0.74622,-0.0170454999999999,0.1450795,0.45942,0.0467395,0.1795395,0.73977,-0.0061624999999999,-0.1618405,0.98596,-0.0475324999999999,0.1805195,0.99496,-0.0516345,-0.0659035,0.0031999999999999,0.0034915,0.0659035,-0.0031999999999999,-0.0034914999999999,-0.1112505,-0.45126,-0.0669765,0.1098194999999999,-0.4597299999999999,-0.0447235,-0.1271205,-0.85169,-0.0316935,0.1128595,-0.8616199999999999,-0.0268115,0
187,0.010742,0.6575,0.0601955,-0.11359,0.4650299999999999,0.0388625,-0.15688,0.74378,-0.0155625,0.14513,0.45684,0.0475924999999999,0.17935,0.73724,-0.0048795,-0.16133,0.98599,-0.0456165,0.17985,0.99369,-0.0494765,-0.065675,0.00354,0.0026575,0.065675,-0.00354,-0.0026575,-0.11149,-0.45143,-0.0613924999999999,0.10935,-0.46016,-0.0393974999999999,-0.127,-0.85482,-0.0292625,0.11336,-0.86511,-0.0252235,0
188,0.010889,0.656795,0.0607449999999999,-0.113368,0.463255,0.0389659999999999,-0.156628,0.742105,-0.014321,0.144862,0.454985,0.0483809999999999,0.178812,0.735465,-0.004075,-0.160968,0.986305,-0.044085,0.179322,0.992505,-0.047585,-0.065638,0.003725,0.0020849999999999,0.065638,-0.0037249999999999,-0.002085,-0.1118079999999999,-0.4515249999999999,-0.056423,0.108912,-0.460245,-0.03448,-0.127058,-0.856935,-0.026589,0.113732,-0.8674350000000001,-0.023784,0
189,0.0110299999999999,0.655875,0.061127,-0.113217,0.4613549999999999,0.0389889999999999,-0.156267,0.7403949999999999,-0.013049,0.144553,0.453005,0.049055,0.178193,0.733655,-0.003506,-0.160527,0.986605,-0.042574,0.178433,0.991305,-0.045776,-0.065597,0.0039249999999999,0.0014349999999999,0.065597,-0.0039249999999999,-0.0014349999999999,-0.112137,-0.451625,-0.051358,0.108453,-0.4603049999999999,-0.029459,-0.127207,-0.8587250000000001,-0.023822,0.114193,-0.869275,-0.022534,0
190,0.0111225,0.655265,0.061405,-0.1129554999999999,0.4595849999999999,0.038885,-0.1557855,0.7389249999999999,-0.0118119999999999,0.1441545,0.449905,0.049256,0.1776445,0.7308049999999999,-0.0026429999999999,-0.1600055,0.986745,-0.0410879999999999,0.1777745,0.990445,-0.044066,-0.0654585,0.004055,0.0009779999999999,0.0654585,-0.004055,-0.0009779999999999,-0.1126855,-0.451655,-0.0462639999999999,0.1080645,-0.460235,-0.0247309999999999,-0.1272754999999999,-0.860515,-0.021119,0.1147344999999999,-0.8706750000000001,-0.021334,0
191,0.0116379999999999,0.655655,0.061306,-0.11175,0.4607650000000001,0.037867,-0.15514,0.740055,-0.010769,0.14424,0.448795,0.049471,0.1774,0.729755,-0.001764,-0.15922,0.986605,-0.039652,0.17776,0.988305,-0.04279,-0.065367,0.004085,0.000648,0.065367,-0.0040849999999999,-0.000648,-0.11348,-0.451585,-0.041108,0.10799,-0.4601649999999999,-0.020238,-0.12703,-0.861725,-0.018422,0.1157399999999999,-0.871675,-0.020103,0
192,0.0121054999999999,0.655095,0.0609395,-0.1110285,0.461885,0.0367965,-0.1544485,0.7413749999999999,-0.0107275,0.1442014999999999,0.448745,0.0496075,0.1774915,0.729735,-0.0007655,-0.1584884999999999,0.986425,-0.0393805,0.1779215,0.987825,-0.0419514999999999,-0.0652245,0.004135,0.0003944999999999,0.0652245,-0.004135,-0.0003944999999999,-0.1146785,-0.451465,-0.0359105,0.1079115,-0.460165,-0.0157855,-0.1270184999999999,-0.862495,-0.0157205,0.1166715,-0.872525,-0.0188564999999999,0
193,0.0123369999999999,0.65502,0.0604959999999999,-0.110267,0.4627,0.0361029999999999,-0.153957,0.74204,-0.0109129999999999,0.1442129999999999,0.4494,0.049442,0.1774929999999999,0.72993,-0.0007189999999999,-0.157917,0.98649,-0.039206,0.177913,0.98629,-0.041814,-0.065216,0.0041199999999999,0.000257,0.065216,-0.00412,-0.000257,-0.1159969999999999,-0.45137,-0.03111,0.107653,-0.46015,-0.011722,-0.127167,-0.86294,-0.0135129999999999,0.1173529999999999,-0.87296,-0.017625,0
194,0.0126495,0.65616,0.060061,-0.1094755,0.46477,0.03497,-0.1535955,0.7430599999999999,-0.011199,0.1442145,0.45159,0.049346,0.1775045,0.73082,-0.000854,-0.1572255,0.98699,-0.0390259999999999,0.1779045,0.98749,-0.041798,-0.0652095,0.0041199999999999,0.000167,0.0652095,-0.00412,-0.000167,-0.1173355,-0.45083,-0.027187,0.1074445,-0.46015,-0.00827,-0.1274255,-0.86212,-0.0114699999999999,0.1179645,-0.87201,-0.0160369999999999,0
195,0.0129209999999999,0.65743,0.0594264999999999,-0.108729,0.4663899999999999,0.0338914999999999,-0.153629,0.7430599999999999,-0.0115165,0.144211,0.45325,0.0494044999999999,0.177511,0.73082,-0.0009585,-0.155939,0.98699,-0.0390095,0.179431,0.98749,-0.0416725,-0.065203,0.0041199999999999,5.9499999999997055e-05,0.065203,-0.00412,-5.9500000000004e-05,-0.118349,-0.45083,-0.0238015,0.1073409999999999,-0.46015,-0.0055935,-0.127609,-0.86167,-0.0095895,0.118421,-0.87099,-0.0145055,0
196,0.0128549999999999,0.65883,0.0587679999999999,-0.109615,0.46435,0.034447,-0.154425,0.7412,-0.012176,0.144205,0.4550499999999999,0.0500419999999999,0.1795949999999999,0.73082,-0.000703,-0.155405,0.98699,-0.039732,0.181305,0.98749,-0.040931,-0.065338,0.0041199999999999,0.0004359999999999,0.065338,-0.00412,-0.000436,-0.119785,-0.45083,-0.020249,0.106905,-0.46015,-0.003151,-0.128745,-0.86152,-0.007312,0.117975,-0.86996,-0.012537,0
197,0.0125795,0.6601699999999999,0.0581265,-0.1113875,0.46344,0.0348935,-0.1562175,0.7404999999999999,-0.0138584999999999,0.1432625,0.45741,0.0509885,0.1814225,0.7312000000000001,0.0005655,-0.1557675,0.98737,-0.0417224999999999,0.1836325,0.98747,-0.0404564999999999,-0.0656144999999999,0.0040899999999999,0.0004305,0.0656144999999999,-0.00409,-0.0004305,-0.1218275,-0.45045,-0.0165724999999999,0.1063125,-0.45987,-0.0010844999999999,-0.1308075,-0.86114,-0.0060104999999999,0.1165525,-0.8685400000000001,-0.0102354999999999,0
198,0.0125335,0.66239,0.0569895,-0.1135854999999999,0.46303,0.0351115,-0.1583755,0.7401500000000001,-0.0156894999999999,0.1427345,0.4609,0.0518205,0.1846344999999999,0.7319500000000001,0.0019025,-0.1562255,0.98829,-0.0448095,0.1882345,0.98319,-0.0402934999999999,-0.0660365,0.00411,0.0003965,0.0660365,-0.0041099999999999,-0.0003964999999999,-0.1241955,-0.44899,-0.0139744999999999,0.1057245,-0.45965,0.0005285,-0.1333955,-0.8591199999999999,-0.0045254999999999,0.1145845,-0.86565,-0.0084424999999999,0
199,0.0121289999999999,0.665555,0.0555769999999999,-0.11597,0.463675,0.0344999999999999,-0.1622,0.739805,-0.01818,0.1424899999999999,0.464515,0.053083,0.18958,0.732545,0.0041299999999999,-0.15652,0.988705,-0.049335,0.1928899999999999,0.978305,-0.039811,-0.066554,0.004055,0.0002059999999999,0.066554,-0.004055,-0.000206,-0.12763,-0.4466449999999999,-0.012115,0.10471,-0.459395,0.0025359999999999,-0.1371,-0.855865,-0.002689,0.11163,-0.861475,-0.006455,0
200,0.01188,0.66909,0.0533745,-0.118974,0.46529,0.0339415,-0.167574,0.738,-0.0220135,0.142106,0.46831,0.0544905,0.196656,0.73266,0.0064444999999999,-0.156474,0.9865,-0.0553045,0.197506,0.9739,-0.0395735,-0.067046,0.00393,-0.0001495,0.067046,-0.00393,0.0001494999999999,-0.131734,-0.44397,-0.0101245,0.103546,-0.45913,0.0047144999999999,-0.141644,-0.85265,-0.0008994999999999,0.107866,-0.85645,-0.0044425,0
201,0.0119669999999999,0.673705,0.0501995,-0.122038,0.469215,0.0329305,-0.1754379999999999,0.7356550000000001,-0.0279404999999999,0.141492,0.473295,0.0561255,0.207362,0.730575,0.0087365,-0.156298,0.982535,-0.0620924999999999,0.2051319999999999,0.969735,-0.0401404999999999,-0.067569,0.0037849999999999,-0.0005844999999999,0.067569,-0.0037849999999999,0.0005845,-0.135608,-0.440735,-0.0078034999999999,0.1021519999999999,-0.458375,0.0063355,-0.146768,-0.849065,0.0005635,0.103272,-0.850815,-0.0021674999999999,0
202,0.0119254999999999,0.679465,0.0465209999999999,-0.1256945,0.473685,0.0305469999999999,-0.1858145,0.732445,-0.035148,0.1425255,0.478995,0.057966,0.2195755,0.7269950000000001,0.0111789999999999,-0.1574245,0.977985,-0.069575,0.2125854999999999,0.960485,-0.041026,-0.0681445,0.0036749999999999,-0.000988,0.0681445,-0.0036749999999999,0.0009879999999999,-0.1398845,-0.436855,-0.005089,0.1001155,-0.4570349999999999,0.0074159999999999,-0.1529845,-0.844245,0.0022639999999999,0.0973754999999999,-0.8442649999999999,0.0004439999999999,0
203,0.0117439999999999,0.686084,0.042249,-0.130029,0.4783039999999999,0.02794,-0.198694,0.725824,-0.0445899999999999,0.1432159999999999,0.485714,0.060017,0.2329059999999999,0.722954,0.013682,-0.159174,0.963664,-0.0793799999999999,0.2206959999999999,0.948964,-0.042253,-0.068756,0.0035239999999999,-0.0013219999999999,0.068756,-0.0035239999999999,0.001322,-0.143784,-0.432576,-0.0039209999999999,0.0974559999999999,-0.454886,0.007598,-0.160384,-0.838506,0.003533,0.0903259999999999,-0.837386,0.003381,0
204,0.0119249999999999,0.6935790000000001,0.037991,-0.135007,0.483179,0.0256039999999999,-0.21105,0.716259,-0.054311,0.14393,0.493139,0.0620729999999999,0.2495299999999999,0.7157290000000001,0.0162919999999999,-0.16153,0.946159,-0.089431,0.22831,0.933359,-0.043571,-0.06938,0.0033499999999999,-0.001579,0.06938,-0.00335,0.0015789999999999,-0.14671,-0.428421,-0.0046619999999999,0.09447,-0.4523009999999999,0.0072669999999999,-0.16851,-0.832181,0.0051089999999999,0.08202,-0.8298909999999999,0.0070789999999999,0
205,0.0119985,0.7029055000000001,0.0338115,-0.1388825,0.4860455,0.0219625,-0.2242915,0.7013155,-0.0660234999999999,0.1450685,0.5007355,0.0643405,0.2658685,0.7024855,0.0205915,-0.1642415,0.9212255,-0.1018834999999999,0.2369985,0.9110455,-0.0440735,-0.0694885,0.0029725,-0.0025874999999999,0.0694885,-0.0029725,0.0025874999999999,-0.1468535,-0.4254544999999999,-0.0097324999999999,0.0907584999999999,-0.4496145,0.0075785,-0.1774315,-0.8238544999999999,0.0058695,0.0718785,-0.8201244999999999,0.0114225,0
206,0.0122784999999999,0.7098045000000001,0.0290544999999999,-0.1419345,0.4855645,0.0180684999999999,-0.2359065,0.6802845,-0.0779475,0.1470235,0.5048245,0.0661684999999999,0.2842735,0.6828645,0.0247125,-0.1651265,0.8907745,-0.1151275,0.2456735,0.8837345,-0.0440075,-0.0694535,0.0027495,-0.0032615,0.0694535,-0.0027495,0.0032615,-0.1448905,-0.4228254999999999,-0.0172555,0.0843235,-0.4471954999999999,0.0074144999999999,-0.1827265,-0.8163055,0.0037034999999999,0.0622535,-0.8114655,0.0151484999999999,0
207,0.0115075,0.7167075,0.0239315,-0.1437855,0.4850075,0.0129455,-0.2474464999999999,0.6517875,-0.0903814999999999,0.1466335,0.5085375000000001,0.0683245,0.3019435,0.6532775,0.0294645,-0.1658625,0.8510074999999999,-0.1296915,0.2520035,0.8517275,-0.0473915,-0.0692034999999999,0.0024145,-0.0039954999999999,0.0692035,-0.0024145,0.0039954999999999,-0.1400425,-0.4163825,-0.0298915,0.0744735,-0.4401425,0.0077755,-0.1812264999999999,-0.8062425,-0.0049334999999999,0.0496735,-0.8038525000000001,0.0189865,0
208,0.0112379999999999,0.722351,0.0186935,-0.146649,0.4847009999999999,0.0090705,-0.259242,0.620541,-0.1025115,0.146028,0.508141,0.0686055,0.315558,0.619151,0.0345215,-0.164816,0.8065209999999999,-0.1433915,0.259548,0.8128409999999999,-0.0508115,-0.069048,0.0021779999999999,-0.0045744999999999,0.069048,-0.0021779999999999,0.0045745,-0.1308969999999999,-0.4073489999999999,-0.0445814999999999,0.061868,-0.435009,0.0083425,-0.174717,-0.7972090000000001,-0.0179155,0.037038,-0.794629,0.0203875,0
