sb224sc-HT22-VT27/4dt907/src/ml-research/a11/datafiles/labeled_files/A130_kinect.csv
FrameNo,nose_3d_x,nose_3d_y,nose_3d_z,left_shoulder_3d_x,left_shoulder_3d_y,left_shoulder_3d_z,left_elbow_3d_x,left_elbow_3d_y,left_elbow_3d_z,right_shoulder_3d_x,right_shoulder_3d_y,right_shoulder_3d_z,right_elbow_3d_x,right_elbow_3d_y,right_elbow_3d_z,left_wrist_3d_x,left_wrist_3d_y,left_wrist_3d_z,right_wrist_3d_x,right_wrist_3d_y,right_wrist_3d_z,left_hip_3d_x,left_hip_3d_y,left_hip_3d_z,right_hip_3d_x,right_hip_3d_y,right_hip_3d_z,left_knee_3d_x,left_knee_3d_y,left_knee_3d_z,right_knee_3d_x,right_knee_3d_y,right_knee_3d_z,left_ankle_3d_x,left_ankle_3d_y,left_ankle_3d_z,right_ankle_3d_x,right_ankle_3d_y,right_ankle_3d_z,activity_label
0,-0.015006,0.721646,0.062307,-0.165984,0.5442659999999999,0.029486,-0.259754,0.759886,-0.0407579999999999,0.1654459999999999,0.5286259999999999,0.029044,0.273576,0.748316,-0.097477,-0.201564,1.031486,-0.094037,0.223796,0.983586,-0.153757,-0.081039,-0.001914,0.0024519999999999,0.081039,0.001914,-0.002452,-0.1378039999999999,-0.4651139999999999,0.011022,0.110266,-0.459954,0.062124,-0.178814,-0.822914,0.0420839999999999,0.1141259999999999,-0.8189740000000001,0.103227,0
1,-0.0166535,0.7198475,0.059978,-0.1680045,0.5446275,0.031447,-0.2632645,0.7591275,-0.0311159999999999,0.1647854999999999,0.5276475,0.020056,0.2693955,0.7439775,-0.106199,-0.2058344999999999,1.0344275,-0.0803089999999999,0.2147255,0.9803175,-0.167169,-0.0809535,-0.0022975,0.005721,0.0809535,0.0022975,-0.0057209999999999,-0.1383745,-0.4653025,0.010821,0.1094354999999999,-0.4595525,0.059182,-0.1800844999999999,-0.8240225,0.040676,0.1130355,-0.8201225,0.101516,1
2,-0.018785,0.717343,0.0574505,-0.172831,0.548903,0.0451575,-0.2659809999999999,0.757553,-0.0238905,0.1642389999999999,0.524123,0.0191825,0.263529,0.740243,-0.1186545,-0.222971,0.972953,-0.0706745,0.205909,0.972603,-0.1802045,-0.080926,-0.002845,0.0079455,0.080926,0.002845,-0.0079455,-0.138711,-0.464207,0.0114385,0.109669,-0.459277,0.0559175,-0.181491,-0.826177,0.0397165,0.111969,-0.821227,0.1005415,1
3,-0.022813,0.7108415,0.0541195,-0.174278,0.5504414999999999,0.0521215,-0.271818,0.7363415,0.0058094999999999,0.164482,0.5162015,0.0165004999999999,0.2519019999999999,0.7361415,-0.1368015,-0.229198,0.9743115,-0.0636444999999999,0.189542,0.9653615,-0.1998215,-0.08085,-0.0034105,0.0109515,0.08085,0.0034105,-0.0109515,-0.139388,-0.4635884999999999,0.0138554999999999,0.109742,-0.4584784999999999,0.0511294999999999,-0.183678,-0.8269785000000001,0.0389095,0.110982,-0.8202785,0.0994434999999999,1
4,-0.0238685,0.709318,0.0525935,-0.1755135,0.557518,0.0813825,-0.2718435,0.735098,0.0098655,0.1641765,0.512738,0.0135755,0.2462364999999999,0.734678,-0.1478404999999999,-0.2333135,0.973448,-0.0582085,0.1807464999999999,0.960988,-0.2106404999999999,-0.0801795,-0.003607,0.0124895,0.0801795,0.003607,-0.0124895,-0.1396534999999999,-0.463672,0.0137945,0.1087465,-0.456602,0.0472255,-0.1842234999999999,-0.828482,0.0381775,0.1104265,-0.820862,0.0981715,1
5,-0.0251909999999999,0.7082035,0.049541,-0.178188,0.5597835,0.0832509999999999,-0.272148,0.7370835,0.0141389999999999,0.164302,0.4968634999999999,-0.010856,0.241112,0.7304335,-0.156884,-0.236998,0.9745135,-0.052279,0.173392,0.9576035,-0.220564,-0.078286,-0.0033935,0.015645,0.078286,0.0033935,-0.015645,-0.140028,-0.4633865,0.0141209999999999,0.107972,-0.4564265,0.043578,-0.185198,-0.8279465,0.035809,0.109682,-0.8211565000000001,0.095514,1
6,-0.0257669999999999,0.7041755,0.04928,-0.177521,0.5575254999999999,0.084929,-0.2722009999999999,0.7359754999999999,0.021498,0.164679,0.4919455,-0.014112,0.2362989999999999,0.7254554999999999,-0.164512,-0.239361,0.9711655,-0.046102,0.167629,0.9501355,-0.2284919999999999,-0.077397,-0.0039464999999999,0.020495,0.077397,0.0039465,-0.020495,-0.140221,-0.4663545,0.016434,0.107889,-0.4584245,0.041983,-0.186161,-0.8312045,0.035636,0.109569,-0.8241545,0.095263,1
7,-0.0257724999999999,0.702244,0.0483375,-0.1766964999999999,0.5552239999999999,0.0825984999999999,-0.2710865,0.739614,0.0251085,0.1640335,0.493934,-0.0130375,0.2343934999999999,0.726914,-0.1689505,-0.2376765,0.971054,-0.0446255,0.1652035,0.956274,-0.2336405,-0.0766725,-0.0039759999999999,0.0223135,0.0766725,0.003976,-0.0223135,-0.1403464999999999,-0.467996,0.0163084999999999,0.1074935,-0.457836,0.0396414999999999,-0.1870264999999999,-0.832976,0.0350754999999999,0.1092735,-0.826696,0.0937955,1
8,-0.0262234999999999,0.7011415,0.0475364999999999,-0.1769275,0.5561714999999999,0.0868075,-0.2706975,0.7384014999999999,0.0265525,0.1642525,0.4908214999999999,-0.0175025,0.2333525,0.7257215,-0.1726815,-0.2385574999999999,0.9701015,-0.0431195,0.1644425,0.9548815,-0.2378415,-0.0761755,-0.0040955,0.0236705,0.0761755,0.0040955,-0.0236705,-0.1405875,-0.4683685,0.0169025,0.1072625,-0.4578585,0.0378415,-0.1878175,-0.8336085,0.0345355,0.1089525,-0.8270785,0.0928135,1
9,-0.026489,0.700449,0.04706,-0.176813,0.556279,0.087467,-0.270453,0.737039,0.026351,0.164677,0.488439,-0.0212049999999999,0.233207,0.724769,-0.173808,-0.238953,0.969369,-0.0435909999999999,0.164457,0.953779,-0.239918,-0.075743,-0.0042229999999999,0.024643,0.075743,0.004223,-0.024643,-0.140723,-0.468531,0.017551,0.107167,-0.458061,0.0367,-0.188383,-0.833931,0.034262,0.1088069999999999,-0.827181,0.092153,1
10,-0.0264444999999999,0.700015,0.0470595,-0.1764685,0.5561550000000001,0.0877834999999999,-0.2704085,0.735705,0.0263514999999999,0.1647815,0.488305,-0.0211965,0.2332515,0.7245050000000001,-0.1738085,-0.2390284999999999,0.969235,-0.0436125,0.1645015,0.952825,-0.2399185,-0.0754685,-0.004357,0.0250194999999999,0.0754685,0.004357,-0.0250195,-0.1406285,-0.4685649999999999,0.0181075,0.1073515,-0.4581449999999999,0.0361724999999999,-0.1886284999999999,-0.8341149999999999,0.0344155,0.1089914999999999,-0.827265,0.0919685,1
11,-0.0262,0.699835,0.0471095,-0.176354,0.5561550000000001,0.0878034999999999,-0.270294,0.7356550000000001,0.0263715,0.164896,0.488305,-0.0211764999999999,0.233366,0.7244050000000001,-0.1737885,-0.239074,0.969205,-0.0436195,0.164616,0.952495,-0.2398985,-0.075354,-0.004357,0.0250395,0.075354,0.004357,-0.0250395,-0.140514,-0.4685649999999999,0.0181815,0.107516,-0.4581449999999999,0.0359025,-0.188734,-0.8341649999999999,0.0345875,0.109166,-0.827255,0.0918325,1
12,-0.0258619999999999,0.699665,0.0472459999999999,-0.176254,0.5561550000000001,0.087821,-0.270194,0.7356550000000001,0.026389,0.1649959999999999,0.488305,-0.0211589999999999,0.2344359999999999,0.724355,-0.173601,-0.239064,0.969115,-0.043617,0.166916,0.952495,-0.239501,-0.075254,-0.004357,0.025057,0.075254,0.004357,-0.025057,-0.1404139999999999,-0.4685649999999999,0.018199,0.107676,-0.4581449999999999,0.03593,-0.1888039999999999,-0.834145,0.034712,0.109296,-0.827255,0.091719,1
13,-0.0254085,0.699665,0.0474155,-0.1761295,0.5561550000000001,0.0878424999999999,-0.2697595,0.7360450000000001,0.0246774999999999,0.1652604999999999,0.488975,-0.0205825,0.2370304999999999,0.724435,-0.1721695,-0.2381194999999999,0.968865,-0.0457465,0.1716905,0.952985,-0.2386395,-0.0751295,-0.004357,0.0250784999999999,0.0751295,0.004357,-0.0250785,-0.1402895,-0.468585,0.0182204999999999,0.1078305,-0.4581449999999999,0.0359585,-0.1887295,-0.834185,0.0347675,0.1094205,-0.827255,0.0917404999999999,1
14,-0.024785,0.700163,0.0476945,-0.1756319999999999,0.555803,0.0864525,-0.269332,0.737083,0.0207985,0.165528,0.490313,-0.0194845,0.240978,0.725203,-0.1684135,-0.2364419999999999,0.969523,-0.0503905,0.178828,0.954333,-0.2348634999999999,-0.075047,-0.004376,0.0246135,0.075047,0.004376,-0.0246135,-0.140062,-0.4681269999999999,0.0184065,0.108048,-0.457787,0.0361415,-0.188502,-0.8337169999999999,0.0349535,0.109648,-0.8267869999999999,0.0919265,1
15,-0.0238699999999999,0.701089,0.0482955,-0.174953,0.555609,0.0849515,-0.268903,0.738229,0.0152244999999999,0.166097,0.492359,-0.0176625,0.2463469999999999,0.726129,-0.1622425,-0.234023,0.970739,-0.0569475,0.188157,0.954409,-0.2284725,-0.075129,-0.0043659999999999,0.0234944999999999,0.075129,0.004366,-0.0234944999999999,-0.139643,-0.467241,0.0184184999999999,0.108487,-0.457361,0.0366455,-0.188033,-0.832791,0.0354145,0.110107,-0.825911,0.0923865,1
16,-0.0229345,0.702681,0.049288,-0.1744405,0.554711,0.080958,-0.2682105,0.739211,0.004638,0.1666495,0.495121,-0.014839,0.2533495,0.727441,-0.15286,-0.2309205,0.972451,-0.065845,0.1993095,0.954801,-0.21925,-0.0754965,-0.00424,0.021445,0.0754965,0.00424,-0.021445,-0.1389805,-0.465799,0.017986,0.1092094999999999,-0.456799,0.03797,-0.1872405,-0.831199,0.036347,0.1107995,-0.824329,0.093334,1
17,-0.022026,0.704855,0.0504425,-0.1738819999999999,0.5537650000000001,0.0766075,-0.267422,0.740335,-0.0071314999999999,0.167178,0.498115,-0.0115455,0.261218,0.729095,-0.1412145,-0.227402,0.974355,-0.0761345,0.2120079999999999,0.955975,-0.2081545,-0.075937,-0.00402,0.0189545,0.075937,0.00402,-0.0189545,-0.1382419999999999,-0.464215,0.0173765,0.109918,-0.4564749999999999,0.0400045,-0.186242,-0.829275,0.0375005,0.1115879999999999,-0.8224549999999999,0.0945115,1
18,-0.0208785,0.7074395,0.0520665,-0.1734445,0.5528795000000001,0.0717005,-0.2661945,0.7417595,-0.0214725,0.1671754999999999,0.5022195,-0.0033354999999999,0.2689855,0.7304795000000001,-0.1260595,-0.2214145,0.9783695,-0.0891495,0.2276455,0.9583495,-0.1935795,-0.0765015,-0.0036544999999999,0.0154005,0.0765015,0.0036544999999999,-0.0154005,-0.1375545,-0.4630305,0.0163605,0.1106655,-0.4562105,0.0429375,-0.1849345,-0.8269105,0.0389665,0.1124955,-0.8202605,0.0962345,1
19,-0.0196959999999999,0.7101185,0.054235,-0.173642,0.5512185,0.064463,-0.264882,0.7432385,-0.0366139999999999,0.167048,0.5067285,0.006393,0.274678,0.7314885,-0.109828,-0.2149519999999999,0.9821285,-0.1027879999999999,0.241368,0.9607085,-0.177898,-0.077093,-0.0032385,0.011399,0.077093,0.0032385,-0.011399,-0.136922,-0.4619415,0.015456,0.111268,-0.4561215,0.046762,-0.1834519999999999,-0.8247315000000001,0.040909,0.113398,-0.8183915,0.098565,1
20,-0.0187995,0.7123379999999999,0.0560635,-0.1739244999999999,0.548878,0.0570215,-0.2633945,0.7441479999999999,-0.0521905,0.1667354999999999,0.510838,0.0160805,0.2792655,0.7318479999999999,-0.0939135,-0.2083245,0.985618,-0.1169335,0.2537755,0.962678,-0.1627635,-0.0776015,-0.002741,0.0076515,0.0776015,0.002741,-0.0076515,-0.1364445,-0.4614419999999999,0.0140075,0.1116255,-0.4564319999999999,0.0504405,-0.1820145,-0.823102,0.0425385,0.1141955,-0.8171820000000001,0.1005955,1
21,-0.01816,0.714216,0.0576985,-0.1742949999999999,0.546376,0.0476755,-0.261495,0.744776,-0.0672224999999999,0.1660849999999999,0.514916,0.0258475,0.282635,0.731896,-0.0788125,-0.201695,0.988916,-0.1303925,0.264355,0.964516,-0.1482925,-0.078043,-0.002235,0.0038215,0.078043,0.002235,-0.0038214999999999,-0.135915,-0.461214,0.0124535,0.1119749999999999,-0.456884,0.0540515,-0.180525,-0.821784,0.0440725,0.115045,-0.816304,0.1025315,1
22,-0.018145,0.7160205,0.0590269999999999,-0.174818,0.5437905,0.03757,-0.259298,0.7454805,-0.0826549999999999,0.165082,0.5184805,0.034732,0.284922,0.7321004999999999,-0.064105,-0.195318,0.9923705,-0.144075,0.273472,0.9664405,-0.1347149999999999,-0.0785,-0.0017475,-0.0001639999999999,0.0785,0.0017475,0.0001639999999999,-0.135508,-0.4611295,0.010841,0.112162,-0.4575095,0.057672,-0.179038,-0.8205395,0.045545,0.115892,-0.8156895000000001,0.104397,1
23,-0.0184704999999999,0.7176480000000001,0.060091,-0.1752935,0.541718,0.028461,-0.2568535,0.745808,-0.0974689999999999,0.1638965,0.522068,0.043797,0.2864764999999999,0.731728,-0.050709,-0.1895734999999999,0.995218,-0.156839,0.2810565,0.968008,-0.123399,-0.0787265,-0.001312,-0.004128,0.0787265,0.0013119999999999,0.004128,-0.1351035,-0.461252,0.009304,0.1120965,-0.458432,0.06117,-0.1774435,-0.819442,0.046971,0.1168665,-0.815452,0.106256,1
24,-0.0190499999999999,0.7191865,0.06074,-0.175875,0.5394865,0.01888,-0.254265,0.7465465,-0.111441,0.162565,0.5256065,0.052491,0.287135,0.7312965,-0.039462,-0.184055,0.9981565,-0.168481,0.287705,0.9698265,-0.114061,-0.078773,-0.0008875,-0.007877,0.078773,0.0008875,0.007877,-0.1346949999999999,-0.4615135,0.007785,0.111945,-0.4594935,0.064258,-0.1758849999999999,-0.8185235,0.048125,0.117835,-0.8154635,0.10788,1
25,-0.019872,0.7204929999999999,0.061187,-0.176325,0.538183,0.0116109999999999,-0.251935,0.746833,-0.122039,0.161055,0.528893,0.060549,0.287225,0.730383,-0.030381,-0.179835,1.000613,-0.178779,0.292895,0.970603,-0.106969,-0.078696,-0.0006119999999999,-0.011324,0.078696,0.000612,0.0113239999999999,-0.134485,-0.4619569999999999,0.006709,0.111655,-0.460647,0.067092,-0.174505,-0.817697,0.0491469999999999,0.118755,-0.815737,0.1092829999999999,1
26,-0.0207845,0.7215010000000001,0.0614805,-0.1767935,0.537111,0.0047315,-0.2498234999999999,0.747021,-0.1316695,0.1596565,0.5320010000000001,0.0679555,0.2872665,0.7293010000000001,-0.0233125,-0.1763835,1.002431,-0.1885395,0.2968265,0.970971,-0.1018895,-0.0786145,-0.000504,-0.0143655,0.0786145,0.000504,0.0143655,-0.1342635,-0.462419,0.0057494999999999,0.1114965,-0.461449,0.0694035,-0.1731935,-0.816989,0.0499685,0.1196765,-0.8160989999999999,0.1104985,1
27,-0.0219434999999999,0.7223945,0.061432,-0.1772345,0.5362745,-0.0015539999999999,-0.2483745,0.7471645,-0.138546,0.1588955,0.5340045,0.070688,0.2876855,0.7288445,-0.019685,-0.1741444999999999,1.0025745,-0.195456,0.2976755,0.9707645,-0.100756,-0.0784665,-0.0004964999999999,-0.0165169999999999,0.0784665,0.0004965,0.016517,-0.1339645,-0.4623454999999999,0.0053479999999999,0.1112555,-0.4620855,0.071082,-0.1721045,-0.8164455,0.050533,0.1204655,-0.8165955,0.111372,1
28,-0.0227065,0.7229685,0.061121,-0.1770745,0.5359885000000001,-0.0052009999999999,-0.2476545,0.7469485,-0.142532,0.1585355,0.5351985,0.071736,0.2885055,0.7285385000000001,-0.0192759999999999,-0.1724745,1.0026685,-0.200062,0.2984755,0.9700885,-0.100352,-0.0783234999999999,-0.0004064999999999,-0.0178219999999999,0.0783234999999999,0.0004064999999999,0.017822,-0.1337445,-0.4622915,0.004945,0.1110855,-0.4625115,0.072156,-0.1711744999999999,-0.8159615,0.050692,0.1211855,-0.8169814999999999,0.1118339999999999,1
29,-0.023103,0.7233904999999999,0.0609485,-0.176631,0.5356204999999999,-0.0074845,-0.247301,0.7467805,-0.1450875,0.158449,0.5359605,0.0720295,0.289029,0.7282405,-0.0189975,-0.171171,1.0027205,-0.2031475,0.299199,0.9690105,-0.1000375,-0.0782269999999999,-0.0002484999999999,-0.0187895,0.0782269999999999,0.0002485,0.0187894999999999,-0.133511,-0.4622595,0.0047024999999999,0.111049,-0.4627195,0.0729635,-0.170361,-0.8155495,0.0508065,0.121839,-0.8173395,0.1121794999999999,1
30,-0.0232945,0.7238155,0.0608644999999999,-0.1761895,0.5352655,-0.0075725,-0.2474095,0.7466455,-0.1465925,0.1585704999999999,0.5363655,0.0721385,0.2890605,0.7279655,-0.0189035,-0.1717795,1.0017755000000002,-0.2056725,0.2995305,0.9690455,-0.0998925,-0.0781745,-0.0001705,-0.0193815,0.0781745,0.0001704999999999,0.0193814999999999,-0.1333895,-0.4622345,0.0045014999999999,0.1109604999999999,-0.4629245,0.0736145,-0.1696995,-0.8151845,0.0507964999999999,0.1223404999999999,-0.8177145,0.1123685,1
31,-0.0230134999999999,0.7241855,0.0608265,-0.1759084999999999,0.5350055,-0.0076104999999999,-0.2478584999999999,0.7464555,-0.1467505,0.1588514999999999,0.5363655,0.0721005,0.2891915,0.7276455,-0.0192805,-0.1739085,1.0004155,-0.2063904999999999,0.2989715,0.9690455,-0.1018704999999999,-0.0781535,-0.0001705,-0.0194655,0.0781535,0.0001704999999999,0.0194655,-0.1333185,-0.4622145,0.0044275,0.1107915,-0.4631245,0.0741175,-0.1693585,-0.8149445,0.0506185,0.1225715,-0.8179345,0.1123065,1
32,-0.0230105,0.7244855,0.060827,-0.1759055,0.5347755,-0.0076099999999999,-0.2484454999999999,0.7462955,-0.14686,0.1588544999999999,0.5363655,0.072101,0.2893845,0.7273555,-0.020538,-0.1767455,0.9989155,-0.20688,0.2980845,0.9690455,-0.10455,-0.0781505,-0.0001705,-0.019465,0.0781505,0.0001704999999999,0.019465,-0.1333355,-0.4622145,0.0044239999999999,0.1106645,-0.4631545,0.0747569999999999,-0.1693055,-0.8149445,0.050543,0.1225245,-0.8180845,0.112269,1
33,-0.0230105,0.72472,0.060827,-0.1759055,0.53467,-0.0076099999999999,-0.2488355,0.74642,-0.14692,0.1589445,0.5363800000000001,0.071602,0.2897544999999999,0.72718,-0.022694,-0.1797655,0.99773,-0.2074,0.2972345,0.96858,-0.10789,-0.0781505,-0.0001559999999999,-0.019465,0.0781505,0.0001559999999999,0.019465,-0.1333355,-0.46219,0.0044239999999999,0.1105545,-0.4631099999999999,0.075408,-0.1692655,-0.81492,0.050471,0.1224845,-0.81808,0.112243,1
34,-0.0229315,0.7249410000000001,0.060935,-0.1757055,0.534811,-0.0064219999999999,-0.2489555,0.746451,-0.14622,0.1592545,0.5360010000000001,0.070338,0.2903145,0.727211,-0.026066,-0.1831655,0.996621,-0.20799,0.2964545,0.967381,-0.1120299999999999,-0.0781505,-0.0001239999999999,-0.019465,0.0781505,0.0001239999999999,0.019465,-0.1333455,-0.4621189999999999,0.004443,0.1104445,-0.4630189999999999,0.076046,-0.1692455,-0.814879,0.050379,0.1224745,-0.818049,0.112205,1
35,-0.0223054999999999,0.7252235,0.0611975,-0.1753185,0.5350535,-0.0046954999999999,-0.2492285,0.7465134999999999,-0.1446325,0.1599415,0.5352435,0.0686825,0.2908915,0.7272735,-0.0297755,-0.1861285,0.9956035,-0.2076825,0.2956515,0.9666435,-0.1160125,-0.0782055,-0.0001115,-0.0191485,0.0782055,0.0001114999999999,0.0191485,-0.1333385,-0.4620265,0.0044385,0.1103815,-0.4630065,0.0764055,-0.1691785,-0.8147965,0.0500915,0.1225015,-0.8179865000000001,0.1119565,1
36,-0.021568,0.725561,0.0616875,-0.1748569999999999,0.5351509999999999,-0.0023185,-0.2497869999999999,0.746641,-0.1424615,0.160663,0.5342509999999999,0.0671475,0.291223,0.727371,-0.0333624999999999,-0.1893169999999999,0.995041,-0.2066415,0.294783,0.966231,-0.1194715,-0.0783399999999999,-8.399999999999987e-05,-0.0186705,0.0783399999999999,8.399999999999987e-05,0.0186705,-0.133517,-0.461889,0.0045154999999999,0.110213,-0.4629089999999999,0.0767485,-0.1693069999999999,-0.814679,0.0498985,0.122363,-0.8178890000000001,0.1117634999999999,1
37,-0.020576,0.725928,0.062479,-0.174323,0.535418,0.000229,-0.250463,0.746988,-0.139755,0.161257,0.533268,0.065847,0.291097,0.727628,-0.036372,-0.191833,0.995108,-0.205045,0.2940569999999999,0.966298,-0.1219049999999999,-0.078489,-6.800000000000035e-05,-0.018084,0.078489,6.799999999999948e-05,0.018084,-0.133793,-0.4617819999999999,0.0045979999999999,0.1100269999999999,-0.462842,0.0768929999999999,-0.169593,-0.814642,0.049676,0.122057,-0.817652,0.11154,1
38,-0.0195235,0.726338,0.063441,-0.1737665,0.535648,0.0029959999999999,-0.2509065,0.747778,-0.136762,0.1617135,0.532338,0.064844,0.2908235,0.728008,-0.0390359999999999,-0.1942365,0.995108,-0.202962,0.2933035,0.966298,-0.123892,-0.0786315,-6.800000000000035e-05,-0.01749,0.0786315,6.799999999999948e-05,0.01749,-0.1341765,-0.461762,0.004658,0.1098234999999999,-0.462842,0.076937,-0.1700165,-0.814662,0.049431,0.1216235,-0.817482,0.111293,1
39,-0.0184485,0.726748,0.064507,-0.1732245,0.536048,0.005748,-0.2511445,0.748878,-0.133756,0.1620055,0.531618,0.064146,0.2904655,0.728618,-0.041282,-0.1963845,0.995108,-0.201096,0.2925355,0.966298,-0.125136,-0.0787735,-6.800000000000035e-05,-0.01691,0.0787735,6.799999999999948e-05,0.01691,-0.1346145,-0.461722,0.004678,0.1096155,-0.462802,0.076934,-0.1705344999999999,-0.814622,0.049167,0.1211555,-0.817192,0.110997,1
40,-0.0175744999999999,0.727258,0.0657195,-0.1725995,0.536688,0.0083765,-0.2509095,0.750318,-0.1310184999999999,0.1619705,0.531288,0.0636355,0.2899005,0.729778,-0.0423205,-0.1980795,0.995108,-0.1997485,0.2913805,0.966418,-0.1257085,-0.0789385,-6.800000000000035e-05,-0.0163234999999999,0.0789385,6.799999999999948e-05,0.0163235,-0.1349795,-0.461612,0.0048135,0.1094005,-0.462702,0.0768385,-0.1711695,-0.814632,0.0489615,0.1205805,-0.816892,0.1107665,1
41,-0.0168519999999999,0.7276505000000001,0.0669459999999999,-0.1722969999999999,0.5373505000000001,0.0095949999999999,-0.250307,0.7517505000000001,-0.128347,0.161723,0.5311605,0.0634359999999999,0.289103,0.7312905000000001,-0.043146,-0.199867,0.9955805,-0.198777,0.290063,0.9665405,-0.126097,-0.0790879999999999,-4.25e-05,-0.015741,0.0790879999999999,4.25e-05,0.0157409999999999,-0.1353569999999999,-0.4615695,0.0049799999999999,0.1091729999999999,-0.4625695,0.076687,-0.171837,-0.8147095,0.0487439999999999,0.119953,-0.8166494999999999,0.1105329999999999,1
42,-0.0162415,0.7278490000000001,0.0681645,-0.1720085,0.5379390000000001,0.0109275,-0.2485785,0.7537790000000001,-0.1259875,0.1613615,0.530869,0.0632525,0.2878115,0.733179,-0.0438785,-0.2014885,0.997289,-0.1979875,0.2884415,0.966839,-0.1264975,-0.0792215,-3.0000000000000512e-05,-0.0151955,0.0792215,2.9999999999999645e-05,0.0151955,-0.1357385,-0.461721,0.0051345,0.1089115,-0.462471,0.0765214999999999,-0.1725385,-0.815001,0.0485375,0.1193115,-0.8166209999999999,0.1103015,1
43,-0.015868,0.727952,0.0692465,-0.171738,0.5384720000000001,0.0120015,-0.246188,0.7561720000000001,-0.1241715,0.160852,0.530362,0.0630185,0.285672,0.735052,-0.0443935,-0.202208,1.000202,-0.1977315,0.286442,0.967402,-0.1269914999999999,-0.079328,-3.4000000000000176e-05,-0.0147344999999999,0.079328,3.399999999999931e-05,0.0147345,-0.136118,-0.462078,0.0051945,0.108662,-0.462398,0.0763325,-0.173178,-0.8155979999999999,0.0482715,0.118722,-0.816898,0.1100545,1
44,-0.01557,0.7279175,0.070405,-0.171405,0.5390175,0.0131739999999999,-0.243415,0.7585575,-0.122591,0.160345,0.5296875,0.0627399999999999,0.283075,0.7369675,-0.045035,-0.202815,1.0029575,-0.197781,0.283965,0.9681575,-0.127611,-0.079389,-6.149999999999992e-05,-0.014336,0.079389,6.149999999999992e-05,0.0143359999999999,-0.1364449999999999,-0.4626125,0.0052349999999999,0.1084649999999999,-0.4623325,0.076082,-0.1737449999999999,-0.8163625,0.0479779999999999,0.1182049999999999,-0.8173425,0.1097809999999999,1
45,-0.0153839999999999,0.7278140000000001,0.0715505,-0.1711249999999999,0.5394040000000001,0.0140295,-0.240655,0.7606940000000001,-0.1213265,0.159805,0.5289940000000001,0.0625495,0.280375,0.738944,-0.0457285,-0.2033749999999999,1.005714,-0.1978565,0.2812949999999999,0.968934,-0.1281665,-0.079429,-9.200000000000008e-05,-0.0139924999999999,0.079429,9.200000000000008e-05,0.0139925,-0.1367249999999999,-0.463206,0.0052364999999999,0.108295,-0.462306,0.0757505,-0.174265,-0.8172259999999999,0.0476535,0.117735,-0.817916,0.1094845,1
46,-0.015489,0.72783,0.072733,-0.1708609999999999,0.53947,0.014821,-0.238081,0.7625000000000001,-0.120428,0.159349,0.52847,0.062552,0.277259,0.74071,-0.0464359999999999,-0.203741,1.00846,-0.197758,0.278179,0.96989,-0.1283579999999999,-0.079458,-0.0001499999999999,-0.013675,0.079458,0.00015,0.013675,-0.136921,-0.4638299999999999,0.00519,0.108209,-0.4622799999999999,0.075339,-0.174661,-0.81819,0.047352,0.117369,-0.81857,0.109221,1
47,-0.0156795,0.727874,0.073851,-0.1705605,0.539494,0.0154609999999999,-0.2356205,0.763754,-0.119764,0.1589594999999999,0.528004,0.062586,0.2739995,0.742394,-0.046998,-0.2038805,1.010984,-0.197534,0.2749395,0.970494,-0.128494,-0.0794855,-0.000198,-0.013379,0.0794855,0.0001979999999999,0.013379,-0.1370405,-0.464396,0.0051399999999999,0.1081495,-0.462256,0.074958,-0.1749705,-0.819056,0.04705,0.1170595,-0.819256,0.108958,1
48,-0.015883,0.728011,0.0749265,-0.1702479999999999,0.5394709999999999,0.0160535,-0.233408,0.764261,-0.1192735,0.158572,0.527621,0.0626135,0.270732,0.7441009999999999,-0.0474785,-0.203698,1.012321,-0.1973535,0.2716019999999999,0.970771,-0.1285735,-0.079509,-0.0002479999999999,-0.0130805,0.079509,0.0002479999999999,0.0130804999999999,-0.1371379999999999,-0.464929,0.0051174999999999,0.1081119999999999,-0.462229,0.0745815,-0.175228,-0.8199390000000001,0.0467394999999999,0.1168019999999999,-0.819929,0.1086745,1
49,-0.0161155,0.727983,0.075908,-0.1701475,0.5394230000000001,0.016582,-0.2314775,0.7643030000000001,-0.118921,0.1581925,0.527273,0.062646,0.2677724999999999,0.745413,-0.0478189999999999,-0.2029675,1.013683,-0.197231,0.2685424999999999,0.970673,-0.128791,-0.0794884999999999,-0.0002899999999999,-0.01279,0.0794884999999999,0.00029,0.01279,-0.1372775,-0.465477,0.0050479999999999,0.1081024999999999,-0.462247,0.0742569999999999,-0.1753974999999999,-0.820807,0.046464,0.1166224999999999,-0.820587,0.1084499999999999,1
50,-0.0163305,0.7279525,0.076827,-0.1700085,0.5394325,0.0170959999999999,-0.2297885,0.7643125,-0.118671,0.1578715,0.5269725,0.062667,0.2651515,0.7463925,-0.048172,-0.2016585,1.0143025,-0.197081,0.2655315,0.9706025,-0.128931,-0.0794705,-0.0003355,-0.0125359999999999,0.0794705,0.0003354999999999,0.0125359999999999,-0.1373685,-0.4659675,0.004976,0.1081115,-0.4622675,0.073936,-0.1755084999999999,-0.8215975000000001,0.046206,0.1165114999999999,-0.8211675,0.108222,1
51,-0.0165265,0.7279990000000001,0.0776735,-0.1698245,0.539429,0.0175075,-0.2290545,0.763769,-0.1183414999999999,0.1575955,0.5267590000000001,0.0626455,0.2631055,0.7469290000000001,-0.0484635,-0.2000944999999999,1.013759,-0.1965114999999999,0.2628255,0.970219,-0.1289315,-0.0794624999999999,-0.000374,-0.0123194999999999,0.0794624999999999,0.000374,0.0123195,-0.1374645,-0.466351,0.0049265,0.1081254999999999,-0.462301,0.0736675,-0.1755745,-0.8222309999999999,0.0459585,0.1164455,-0.8216209999999999,0.1080125,1
52,-0.0167215,0.728079,0.0784795,-0.1696305,0.539319,0.0176655,-0.2289105,0.763389,-0.1180545,0.1574094999999999,0.526529,0.0625765,0.2619095,0.747449,-0.0488425,-0.1980104999999999,1.013379,-0.1957045,0.2606695,0.969839,-0.1289045,-0.0794415,-0.000388,-0.0122275,0.0794415,0.000388,0.0122274999999999,-0.1375104999999999,-0.466571,0.0048385,0.1081795,-0.462341,0.0733145,-0.1756005,-0.822691,0.0456345,0.1164395,-0.821881,0.1077114999999999,1
53,-0.0168139999999999,0.7282569999999999,0.0791105,-0.1694389999999999,0.539177,0.0176785,-0.228959,0.763157,-0.1178464999999999,0.157301,0.526397,0.0624555,0.261331,0.747857,-0.0491785,-0.195689,1.013247,-0.1946265,0.2591509999999999,0.969607,-0.1287965,-0.079435,-0.000392,-0.0121744999999999,0.079435,0.000392,0.0121745,-0.137509,-0.466643,0.0047045,0.108261,-0.462393,0.0729585,-0.1755789999999999,-0.823043,0.0453295,0.1164709999999999,-0.822063,0.1074245,1
54,-0.0168789999999999,0.7284495,0.07964,-0.169283,0.5390594999999999,0.017613,-0.229023,0.7627995,-0.1176039999999999,0.157217,0.5262795,0.062342,0.260877,0.7480795,-0.04947,-0.1934529999999999,1.0132394999999998,-0.193224,0.257927,0.9693995,-0.128634,-0.079431,-0.0003975,-0.0121339999999999,0.079431,0.0003975,0.012134,-0.137503,-0.4667004999999999,0.0045509999999999,0.108337,-0.4624505,0.072586,-0.175543,-0.8233905,0.044985,0.116497,-0.8222705,0.107092,1
55,-0.016897,0.728456,0.0798945,-0.169151,0.539006,0.0175095,-0.229101,0.761876,-0.1171954999999999,0.1571489999999999,0.526206,0.0622585,0.260899,0.747936,-0.0495855,-0.191681,1.012196,-0.1915555,0.257289,0.969036,-0.1283755,-0.079428,-0.0003909999999999,-0.0121114999999999,0.079428,0.0003909999999999,0.0121115,-0.137491,-0.466704,0.0044464999999999,0.108389,-0.462524,0.0722665,-0.175501,-0.823614,0.0446845,0.116539,-0.822414,0.1067855,1
56,-0.0169375,0.7283915,0.0801015,-0.1690475,0.5389815,0.0173055,-0.2292875,0.7608714999999999,-0.1165195,0.1571024999999999,0.5261515,0.0621415,0.2609225,0.7478715,-0.0497465,-0.1901475,1.0112315,-0.1896595,0.2571425,0.9692115,-0.1280695,-0.0794245,-0.0003825,-0.0121024999999999,0.0794245,0.0003825,0.0121025,-0.1375175,-0.4667085,0.0043595,0.1084525,-0.4625885,0.0719825,-0.1754775,-0.8237285,0.0443515,0.1165825,-0.8224785,0.1064565,1
57,-0.016969,0.728371,0.0802765,-0.168959,0.539021,0.0170895,-0.229559,0.759871,-0.1157805,0.157081,0.526131,0.0620245,0.260941,0.747851,-0.0498644999999999,-0.188919,1.010211,-0.1878905,0.257081,0.969571,-0.1277605,-0.079408,-0.000362,-0.0121404999999999,0.079408,0.000362,0.0121405,-0.137539,-0.466699,0.0042585,0.108511,-0.462609,0.0717235,-0.175439,-0.823809,0.0440135,0.116621,-0.822489,0.1061285,1
58,-0.017004,0.728371,0.0804324999999999,-0.168726,0.539021,0.0169194999999999,-0.229946,0.758921,-0.1150795,0.157084,0.526131,0.0619075,0.260954,0.7477509999999999,-0.0498105,-0.188246,1.009111,-0.1862295,0.257024,0.969401,-0.1274795,-0.079392,-0.000362,-0.0121745,0.079392,0.000362,0.0121744999999999,-0.137536,-0.466699,0.0041834999999999,0.108544,-0.462609,0.0714805,-0.175386,-0.823809,0.0436024999999999,0.116644,-0.822449,0.1057835,1
59,-0.017031,0.728271,0.080607,-0.168426,0.539021,0.01687,-0.230516,0.758101,-0.11431,0.157074,0.526131,0.061809,0.261284,0.747531,-0.049497,-0.188136,1.007911,-0.18488,0.256904,0.969401,-0.12695,-0.079389,-0.000362,-0.0121669999999999,0.079389,0.000362,0.012167,-0.137576,-0.466699,0.004105,0.108554,-0.462619,0.071267,-0.175366,-0.823809,0.043198,0.116634,-0.822439,0.105443,1
60,-0.0170165,0.728075,0.0807735,-0.1680865,0.539025,0.0169315,-0.2310065,0.757575,-0.1136885,0.1570535,0.526085,0.0618294999999999,0.2619935,0.746875,-0.0489285,-0.1883265,1.0071150000000002,-0.1838785,0.2570535,0.969185,-0.1263985,-0.0793785,-0.000358,-0.0121705,0.0793785,0.000358,0.0121704999999999,-0.1375765,-0.466695,0.0040024999999999,0.1085935,-0.462675,0.0710465,-0.1753165,-0.823805,0.0427844999999999,0.1166835,-0.822425,0.1050224999999999,1
61,-0.0169215,0.7279399999999999,0.0809355,-0.1677135,0.5390699999999999,0.0170504999999999,-0.2314635,0.75722,-0.1131515,0.1570465,0.5260499999999999,0.0618694999999999,0.2629964999999999,0.74581,-0.0481505,-0.1884735,1.00656,-0.1830115,0.2577664999999999,0.96905,-0.1257315,-0.0793825,-0.000336,-0.0121455,0.0793825,0.000336,0.0121454999999999,-0.1375735,-0.46668,0.0039824999999999,0.1086365,-0.46275,0.0708874999999999,-0.1752935,-0.82398,0.0424245,0.1167364999999999,-0.82235,0.1046575,1
62,-0.0168035,0.7279025,0.0810734999999999,-0.1673425,0.5390025,0.0172415,-0.2320625,0.7568925,-0.1126175,0.1570775,0.5260525,0.0619125,0.2641675,0.7447025,-0.0473675,-0.1886325,1.0059025,-0.1822075,0.2586975,0.9689825,-0.1249975,-0.0793905,-0.0003175,-0.0120725,0.0793905,0.0003175,0.0120725,-0.1375825,-0.4666675,0.0039555,0.1086775,-0.4628075,0.0707484999999999,-0.1752625,-0.8239975,0.0421195,0.1167775,-0.8221975,0.1042895,1
63,-0.0166615,0.7278330000000001,0.081289,-0.1669835,0.538953,0.017447,-0.2329935,0.756383,-0.112051,0.1571364999999999,0.526023,0.061993,0.2656465,0.7432230000000001,-0.0465139999999999,-0.1890635,1.005403,-0.181171,0.2601465,0.969033,-0.124151,-0.0794054999999999,-0.000279,-0.0120069999999999,0.0794054999999999,0.000279,0.012007,-0.1376135,-0.466637,0.003928,0.1086864999999999,-0.462867,0.070646,-0.1752735,-0.823947,0.041813,0.1167864999999999,-0.8220069999999999,0.1039269999999999,1
64,-0.0165079999999999,0.7277795,0.0815615,-0.166658,0.5388995,0.0176715,-0.2341079999999999,0.7558195,-0.1114314999999999,0.157222,0.5259895,0.0620625,0.267152,0.7416495,-0.0456775,-0.1900579999999999,1.0049195,-0.1801414999999999,0.261752,0.9690795,-0.1232814999999999,-0.079423,-0.0002454999999999,-0.0119384999999999,0.079423,0.0002455,0.0119385,-0.137658,-0.4666105,0.0039145,0.108642,-0.4629205,0.0705695,-0.175318,-0.8238705,0.0415045,0.116762,-0.8218405,0.1035794999999999,1
65,-0.0162935,0.7276065,0.081927,-0.1663805,0.5387965,0.018026,-0.2352705,0.7552865,-0.110917,0.1572994999999999,0.5259765,0.062139,0.2685695,0.7400865,-0.04484,-0.1915905,1.0043665,-0.179147,0.2634595,0.9691265,-0.122427,-0.0794395,-0.0002145,-0.0118689999999999,0.0794395,0.0002145,0.011869,-0.1377505,-0.4665735,0.003894,0.1085795,-0.4629535,0.070507,-0.1754105,-0.8237535,0.041236,0.1166895,-0.8216435,0.103277,1
66,-0.0160535,0.727429,0.082401,-0.1661154999999999,0.538679,0.018482,-0.2365054999999999,0.7547689999999999,-0.110323,0.1573745,0.525979,0.062234,0.2699845,0.738539,-0.043971,-0.1932955,1.004049,-0.178053,0.2651745,0.969289,-0.1216329999999999,-0.0794565,-0.000183,-0.01177,0.0794565,0.000183,0.01177,-0.1378355,-0.466541,0.00392,0.1084745,-0.462981,0.070471,-0.1755155,-0.8235910000000001,0.041002,0.1166145,-0.8214210000000001,0.1030109999999999,1
67,-0.0158119999999999,0.727264,0.082915,-0.166036,0.538554,0.018914,-0.237776,0.754304,-0.109707,0.157474,0.525974,0.062359,0.271304,0.737364,-0.043264,-0.195046,1.003744,-0.177107,0.266834,0.969404,-0.120967,-0.079481,-0.0001559999999999,-0.0116829999999999,0.079481,0.000156,0.011683,-0.137936,-0.466506,0.003938,0.108344,-0.4629959999999999,0.070439,-0.175646,-0.823356,0.040761,0.116504,-0.821176,0.102778,1
68,-0.0155284999999999,0.7271715,0.083507,-0.1660435,0.5384015,0.0192959999999999,-0.2390534999999999,0.7539414999999999,-0.1091669999999999,0.1576165,0.5259715,0.062558,0.2725965,0.7362915,-0.042675,-0.1967735,1.0036615,-0.176247,0.2683965,0.9696015,-0.120667,-0.0794965,-0.0001464999999999,-0.011607,0.0794965,0.0001464999999999,0.0116069999999999,-0.1380735,-0.4664785,0.0039469999999999,0.1081965,-0.4629985,0.070389,-0.1757834999999999,-0.8230785,0.040498,0.1163765,-0.8208885,0.1025,1
69,-0.0152194999999999,0.7270285,0.084117,-0.1660815,0.5382385,0.019614,-0.2402115,0.7537885,-0.108725,0.1577585,0.5260085,0.062641,0.2737285,0.7354385,-0.042228,-0.1983714999999999,1.0035885,-0.175505,0.2699185,0.9698385,-0.120435,-0.0795194999999999,-0.0001395,-0.01153,0.0795194999999999,0.0001394999999999,0.01153,-0.1382115,-0.4664615,0.003977,0.1080285,-0.4630015,0.070378,-0.1759315,-0.8227615,0.040276,0.1162884999999999,-0.8205615,0.102211,1
70,-0.0148945,0.7268035,0.08472,-0.1661395,0.5380435,0.01993,-0.2413195,0.7536135,-0.108245,0.1578905,0.5260235000000001,0.06273,0.2746205,0.7348635,-0.041887,-0.1998195,1.0035735,-0.174845,0.2711005,0.9700935,-0.120225,-0.0795405,-0.0001254999999999,-0.0114599999999999,0.0795405,0.0001255,0.01146,-0.1383495,-0.4664265,0.003947,0.1078605,-0.4629965,0.070379,-0.1760895,-0.8224965,0.04007,0.1161905,-0.8202765,0.1019289999999999,1
71,-0.0145614999999999,0.7265325,0.0853744999999999,-0.1661915,0.5379925,0.0202315,-0.2422615,0.7534625,-0.1077775,0.1579985,0.5260025,0.0628445,0.2753685,0.7342425,-0.0414925,-0.2010715,1.0037925,-0.1743075,0.2722785,0.9693325,-0.1200175,-0.0795625,-0.0001085,-0.0114275,0.0795625,0.0001085,0.0114274999999999,-0.1384915,-0.4663875,0.0039434999999999,0.1077085,-0.4630075,0.0703935,-0.1762315,-0.8222875,0.0399254999999999,0.1160885,-0.8200575,0.1016975,1
72,-0.014235,0.7262985,0.0859995,-0.166246,0.5379185,0.0205505,-0.242826,0.7535185,-0.1074305,0.158094,0.5260285,0.0629095,0.275864,0.7339785,-0.0411885,-0.201906,1.0039685,-0.1740304999999999,0.273024,0.9686185,-0.1199404999999999,-0.079575,-0.0001065,-0.0113865,0.079575,0.0001064999999999,0.0113864999999999,-0.138606,-0.4663215,0.0039464999999999,0.107584,-0.4630114999999999,0.0703665,-0.1763559999999999,-0.8221115,0.0397904999999999,0.116014,-0.8199315,0.1015175,1
73,-0.0139479999999999,0.7260615,0.086542,-0.1663009999999999,0.5378015,0.0209169999999999,-0.243231,0.7536815,-0.107218,0.158289,0.5260615000000001,0.063012,0.276279,0.7337915,-0.0409039999999999,-0.202651,1.0041415,-0.173918,0.273599,0.9681415,-0.119938,-0.079592,-0.0001024999999999,-0.01134,0.079592,0.0001025,0.01134,-0.138741,-0.4662585,0.0039039999999999,0.107439,-0.4630285,0.070313,-0.176501,-0.8217384999999999,0.0397039999999999,0.115929,-0.8198084999999999,0.101318,1
74,-0.013755,0.7259950000000001,0.08694,-0.1663569999999999,0.5377350000000001,0.021151,-0.243597,0.753765,-0.1070519999999999,0.158463,0.526085,0.063083,0.276713,0.733615,-0.0406579999999999,-0.202897,1.0038049999999998,-0.1741019999999999,0.274063,0.968055,-0.1200119999999999,-0.079604,-9.30000000000002e-05,-0.011295,0.079604,9.299999999999975e-05,0.011295,-0.138867,-0.466175,0.003827,0.107303,-0.463045,0.070223,-0.176647,-0.821445,0.039561,0.115833,-0.819695,0.101083,1
75,-0.013589,0.7259960000000001,0.087233,-0.166421,0.537706,0.021297,-0.243861,0.7538560000000001,-0.107008,0.158649,0.526116,0.063137,0.277159,0.7334160000000001,-0.040462,-0.203091,1.003356,-0.174308,0.274489,0.968206,-0.120098,-0.079616,-8.099999999999991e-05,-0.011247,0.079616,8.099999999999991e-05,0.011247,-0.138961,-0.466084,0.00372,0.107199,-0.463074,0.070102,-0.1768009999999999,-0.821214,0.039389,0.115749,-0.819604,0.100835,1
76,-0.0134409999999999,0.7260025000000001,0.087506,-0.166485,0.5376825000000001,0.0214219999999999,-0.244085,0.7539325,-0.106991,0.158855,0.5261125000000001,0.063228,0.277665,0.7331025000000001,-0.040225,-0.203275,1.0026725,-0.174511,0.274885,0.9683425,-0.120231,-0.079618,-7.349999999999978e-05,-0.0112,0.079618,7.350000000000021e-05,0.0111999999999999,-0.139035,-0.4659775,0.0035939999999999,0.107125,-0.4631075,0.0699829999999999,-0.176935,-0.8209474999999999,0.0392089999999999,0.115675,-0.8194975,0.100576,1
77,-0.013359,0.7260305,0.0876625,-0.16663,0.5376405000000001,0.0214894999999999,-0.2442599999999999,0.7539705,-0.1070695,0.1589999999999999,0.5261305000000001,0.0632244999999999,0.27809,0.7328105,-0.0400895,-0.20375,1.0025805,-0.1748895,0.27526,0.9684505,-0.1203395,-0.079621,-6.950000000000012e-05,-0.0111565,0.079621,6.950000000000012e-05,0.0111565,-0.1391,-0.4658494999999999,0.0034734999999999,0.10709,-0.4631194999999999,0.0698675,-0.17708,-0.8207295,0.0390085,0.11562,-0.8193794999999999,0.1003215,1
78,-0.0133224999999999,0.726108,0.087779,-0.1667635,0.5375880000000001,0.021532,-0.2444735,0.753958,-0.1071629999999999,0.1592065,0.526078,0.06336,0.2784465,0.732558,-0.0400229999999999,-0.2044535,1.001768,-0.175453,0.2756465,0.968568,-0.120503,-0.0796135,-6.799999999999992e-05,-0.0111339999999999,0.0796135,6.799999999999992e-05,0.0111339999999999,-0.1391434999999999,-0.465732,0.0033679999999999,0.1070565,-0.463142,0.0697329999999999,-0.1772135,-0.820522,0.038793,0.1155465,-0.8192619999999999,0.10008,1
79,-0.013358,0.726203,0.087929,-0.166905,0.537563,0.021573,-0.244725,0.753893,-0.1072539999999999,0.159385,0.526023,0.063465,0.278775,0.732323,-0.039962,-0.205165,1.000843,-0.176084,0.276045,0.968713,-0.120694,-0.079607,-6.900000000000005e-05,-0.0111039999999999,0.079607,6.900000000000005e-05,0.011104,-0.139185,-0.465617,0.003238,0.107015,-0.463167,0.069611,-0.1773549999999999,-0.820307,0.038544,0.115455,-0.819147,0.099828,1
80,-0.0133945,0.7263170000000001,0.0880519999999999,-0.1670845,0.537517,0.0215829999999999,-0.2449745,0.753777,-0.107363,0.1595655,0.525977,0.06358,0.2790855,0.732137,-0.0399239999999999,-0.2059845,0.999477,-0.176703,0.2764054999999999,0.968967,-0.120883,-0.0796014999999999,-7.099999999999988e-05,-0.0110779999999999,0.0796014999999999,7.099999999999988e-05,0.011078,-0.1392045,-0.465493,0.003105,0.1069855,-0.463173,0.069504,-0.1774445,-0.8201029999999999,0.038335,0.1153555,-0.818993,0.099589,1
81,-0.0134744999999999,0.7264345000000001,0.0880634999999999,-0.1672934999999999,0.5374845,0.0215435,-0.2452635,0.7535945000000001,-0.1074934999999999,0.1597265,0.5259245,0.0636605,0.2793265,0.7319545000000001,-0.0399265,-0.2068134999999999,0.9978445,-0.1773335,0.2767165,0.9692645,-0.1211135,-0.0795965,-7.850000000000044e-05,-0.0110675,0.0795965,7.849999999999958e-05,0.0110674999999999,-0.1392334999999999,-0.4652955,0.0029494999999999,0.1069565,-0.4631855,0.0693825,-0.1775535,-0.8199154999999999,0.0381085,0.1152365,-0.8188455,0.0993555,1
82,-0.0135439999999999,0.7265655,0.0880615,-0.1674699999999999,0.5374955,0.0214515,-0.2455399999999999,0.7533455,-0.1076025,0.15978,0.5258755,0.0637055,0.27956,0.7317955,-0.0399485,-0.20764,0.9962255,-0.1779224999999999,0.277,0.9696055,-0.1213325,-0.079589,-9.05000000000003e-05,-0.0110625,0.079589,9.049999999999944e-05,0.0110625,-0.1392199999999999,-0.4651045,0.0028245,0.1069499999999999,-0.4631845,0.0692995,-0.1776299999999999,-0.8197544999999999,0.0379315,0.11517,-0.8187045,0.0991455,1
83,-0.013621,0.7267935,0.088083,-0.167696,0.5374734999999999,0.021375,-0.245826,0.7530034999999999,-0.107653,0.1598639999999999,0.5257934999999999,0.0638249999999999,0.279764,0.7316634999999999,-0.0399659999999999,-0.208566,0.9944935,-0.178493,0.277304,0.9700735,-0.121533,-0.07959,-0.0001044999999999,-0.01106,0.07959,0.0001045,0.01106,-0.139166,-0.4647865,0.0027329999999999,0.106954,-0.4631765,0.069278,-0.177696,-0.8196565,0.037795,0.115114,-0.8186065,0.098973,1
84,-0.013683,0.727035,0.0880775,-0.167921,0.537435,0.0213055,-0.246101,0.752615,-0.1077125,0.159929,0.525695,0.0639484999999999,0.279929,0.7315550000000001,-0.0399815,-0.209511,0.992695,-0.1790824999999999,0.277589,0.970545,-0.1217525,-0.079594,-0.0001169999999999,-0.0110535,0.079594,0.000117,0.0110535,-0.139101,-0.464515,0.0026545,0.106959,-0.463165,0.0692605,-0.177731,-0.819605,0.0376845,0.115059,-0.818485,0.0988335,1
85,-0.013736,0.727259,0.088033,-0.1681959999999999,0.537349,0.021188,-0.2463759999999999,0.752209,-0.107774,0.159954,0.5256489999999999,0.064007,0.280024,0.731549,-0.040061,-0.210466,0.990899,-0.179644,0.277834,0.970999,-0.121964,-0.079603,-0.0001299999999999,-0.01104,0.079603,0.0001299999999999,0.01104,-0.139036,-0.464261,0.002579,0.106934,-0.4631409999999999,0.069241,-0.177776,-0.819551,0.03757,0.115014,-0.818391,0.098703,1
86,-0.013785,0.7274665,0.087963,-0.168466,0.5372765,0.021061,-0.246596,0.7518765,-0.1078959999999999,0.1599739999999999,0.5255765,0.064078,0.280094,0.7315165,-0.0401639999999999,-0.211106,0.9899465,-0.179956,0.278014,0.9712065,-0.1221059999999999,-0.079617,-0.0001355,-0.011044,0.079617,0.0001354999999999,0.011044,-0.138986,-0.4640235,0.002526,0.106904,-0.4631335,0.069246,-0.177816,-0.8195235,0.037452,0.114954,-0.8183035,0.098593,1
87,-0.0138404999999999,0.727694,0.0878805,-0.1687135,0.5372039999999999,0.0209164999999999,-0.2467735,0.751594,-0.1080115,0.1599465,0.5255639999999999,0.0640025,0.2801565,0.731474,-0.0402535,-0.2114835,0.989424,-0.1801915,0.2781765,0.971264,-0.1222215,-0.0796355,-0.0001429999999999,-0.0110285,0.0796355,0.0001429999999999,0.0110285,-0.1389235,-0.4638359999999999,0.0024694999999999,0.1068665,-0.463106,0.0692745,-0.1778535,-0.819516,0.0373825,0.1148865,-0.818216,0.0985215,1
88,-0.0139129999999999,0.7279285000000001,0.0877935,-0.16898,0.5371285,0.0207965,-0.24691,0.7513485000000001,-0.1081185,0.15993,0.5255585,0.0639425,0.2802,0.7314585,-0.0403204999999999,-0.21183,0.9888885,-0.1803985,0.2783,0.9712985,-0.1223084999999999,-0.079651,-0.0001505,-0.0110204999999999,0.079651,0.0001504999999999,0.0110204999999999,-0.13886,-0.4636415,0.0024325,0.10685,-0.4630815,0.0692985,-0.17783,-0.8195914999999999,0.0373675,0.11482,-0.8181415,0.0985005,1
89,-0.0140069999999999,0.7281775,0.0877075,-0.16914,0.5370475,0.0206985,-0.2470299999999999,0.7511175,-0.1082004999999999,0.15992,0.5255575,0.0638735,0.28024,0.7314675,-0.0403855,-0.2121299999999999,0.9883675,-0.1805605,0.2784,0.9713175,-0.1224005,-0.079664,-0.0001555,-0.0110125,0.079664,0.0001554999999999,0.0110125,-0.13878,-0.4634625,0.0023985,0.10682,-0.4630625,0.0693215,-0.17783,-0.8196625,0.0373535,0.11477,-0.8180425,0.0985035,1
90,-0.0141009999999999,0.7284355,0.0876435,-0.1693219999999999,0.5369855,0.0205855,-0.247112,0.7509155000000001,-0.1082685,0.159918,0.5255555000000001,0.0638255,0.280298,0.7314755000000001,-0.0404585,-0.212442,0.9881955,-0.1806885,0.278508,0.9713855,-0.1224885,-0.079677,-0.0001605,-0.0109864999999999,0.079677,0.0001605,0.0109865,-0.138702,-0.4633345,0.0024165,0.106808,-0.4630545,0.0693665,-0.177782,-0.8196144999999999,0.0373045,0.114738,-0.8179544999999999,0.0985315,1
91,-0.0141785,0.7286819999999999,0.087487,-0.1694355,0.536902,0.020415,-0.2472055,0.750702,-0.108427,0.1599145,0.525562,0.063772,0.2803744999999999,0.7314919999999999,-0.0405839999999999,-0.2127355,0.988042,-0.1809569999999999,0.2786345,0.971472,-0.122627,-0.0796875,-0.0001619999999999,-0.0109589999999999,0.0796875,0.0001619999999999,0.010959,-0.1386355,-0.463218,0.002447,0.1068045,-0.463048,0.069404,-0.1777455,-0.819608,0.03728,0.1147245,-0.817878,0.098562,1
92,-0.0142669999999999,0.7288565,0.087278,-0.169504,0.5368665,0.0202369999999999,-0.247274,0.7505365,-0.108634,0.159906,0.5255665,0.063703,0.280466,0.7314765,-0.040742,-0.212934,0.9877265,-0.181224,0.278766,0.9715865,-0.122814,-0.079693,-0.0001605,-0.0109649999999999,0.079693,0.0001605,0.0109649999999999,-0.138604,-0.4632135,0.00246,0.106806,-0.4629335,0.069412,-0.1777139999999999,-0.8196635,0.037237,0.114716,-0.8178035,0.098538,1
93,-0.0143214999999999,0.7290139999999999,0.086995,-0.1695925,0.536824,0.020016,-0.2473325,0.7503639999999999,-0.108926,0.1598875,0.525574,0.063627,0.2805675,0.7314839999999999,-0.040932,-0.2131125,0.987424,-0.181556,0.2789575,0.971754,-0.123196,-0.0796965,-0.0001559999999999,-0.010987,0.0796965,0.0001559999999999,0.010987,-0.1385725,-0.463206,0.0025029999999999,0.1068075,-0.462916,0.069432,-0.1776625,-0.819716,0.037197,0.1147175,-0.817636,0.098489,1
94,-0.014403,0.7291305,0.086695,-0.169712,0.5368005,0.0197599999999999,-0.247392,0.7501705,-0.109229,0.1598679999999999,0.5255805,0.063522,0.280678,0.7314904999999999,-0.041134,-0.213272,0.9871705,-0.181989,0.279168,0.9718605,-0.123609,-0.0796979999999999,-0.0001525,-0.011012,0.0796979999999999,0.0001524999999999,0.0110119999999999,-0.138562,-0.4631995,0.0025469999999999,0.106798,-0.4629095,0.0694519999999999,-0.177632,-0.8197795,0.037166,0.114708,-0.8174795,0.098434,1
95,-0.0144625,0.729211,0.0863599999999999,-0.1697845,0.5367810000000001,0.019499,-0.2474445,0.749961,-0.1096319999999999,0.1598355,0.525621,0.063373,0.2807855,0.731511,-0.041345,-0.2134145,0.986941,-0.1825419999999999,0.2794155,0.972001,-0.1240419999999999,-0.0796975,-0.00015,-0.0110369999999999,0.0796975,0.0001499999999999,0.011037,-0.1385545,-0.463219,0.002588,0.1068055,-0.462899,0.069475,-0.1776245,-0.819809,0.037136,0.1147055,-0.817329,0.098373,1
96,-0.0145075,0.729281,0.086037,-0.1698955,0.5367609999999999,0.019223,-0.2475055,0.749761,-0.110043,0.1598145,0.525681,0.063224,0.2809345,0.731561,-0.041587,-0.2135055,0.986701,-0.183163,0.2796745,0.972181,-0.124533,-0.0796985,-0.0001479999999999,-0.0110689999999999,0.0796985,0.0001479999999999,0.0110689999999999,-0.1385455,-0.4632489999999999,0.002647,0.1068145,-0.462889,0.069558,-0.1776255,-0.819859,0.037105,0.1147145,-0.817179,0.098318,1
97,-0.014532,0.7293390000000001,0.085683,-0.169939,0.5367390000000001,0.01888,-0.247539,0.749649,-0.110538,0.1598009999999999,0.525749,0.063078,0.281141,0.7316290000000001,-0.041843,-0.213569,0.986519,-0.183818,0.280041,0.972489,-0.125088,-0.079705,-0.0001429999999999,-0.011095,0.079705,0.0001429999999999,0.011095,-0.138559,-0.463281,0.00272,0.106821,-0.462881,0.069627,-0.1776289999999999,-0.8198409999999999,0.037047,0.114721,-0.817021,0.09826,1
98,-0.0145275,0.7294014999999999,0.0853469999999999,-0.1699575,0.5367115,0.018547,-0.2475575,0.7495615,-0.111006,0.1597925,0.5258115,0.062944,0.2813525,0.7317414999999999,-0.042056,-0.2135875,0.9863615,-0.184506,0.2804525,0.9728515,-0.125656,-0.0797115,-0.0001385,-0.011119,0.0797115,0.0001384999999999,0.011119,-0.1385675,-0.4632985,0.0028039999999999,0.1068424999999999,-0.4628684999999999,0.069696,-0.1776275,-0.8198485000000001,0.036984,0.1147425,-0.8169085,0.098204,1
99,-0.014485,0.7294244999999999,0.0850195,-0.169941,0.5366845,0.0182455,-0.2475709999999999,0.7495145,-0.1114895,0.1597989999999999,0.5258744999999999,0.0628215,0.281599,0.7318545,-0.0422935,-0.213551,0.9862345,-0.1852194999999999,0.280879,0.9732745,-0.1261995,-0.07972,-0.0001345,-0.0111414999999999,0.07972,0.0001345,0.0111415,-0.138571,-0.4633055,0.0028685,0.1068389999999999,-0.4628555,0.0697675,-0.177641,-0.8198355,0.0369445,0.114759,-0.8167855,0.0981465,1
100,-0.0144395,0.7294885,0.0846715,-0.1699145,0.5366584999999999,0.0179345,-0.2475545,0.7494985,-0.1119735,0.1598055,0.5259385,0.0627065,0.2818555,0.7319785,-0.0425365,-0.2134845,0.9861185,-0.1858834999999999,0.2813255,0.9736685,-0.1266835,-0.0797275,-0.0001305,-0.0111655,0.0797275,0.0001304999999999,0.0111654999999999,-0.1385845,-0.4633115,0.0029145,0.1068554999999999,-0.4628515,0.0698295,-0.1776345,-0.8197815,0.0369245,0.1147854999999999,-0.8166715,0.0980935,1
101,-0.014402,0.729522,0.0843775,-0.169917,0.5366420000000001,0.0176495,-0.247507,0.749522,-0.1124015,0.159793,0.525992,0.0626235,0.282123,0.732062,-0.0427295,-0.213397,0.986042,-0.1864915,0.281793,0.974072,-0.1270915,-0.079738,-0.0001279999999999,-0.0111665,0.079738,0.0001279999999999,0.0111665,-0.138607,-0.463318,0.0029735,0.1068629999999999,-0.462848,0.0699065,-0.177657,-0.819738,0.0368885,0.1148029999999999,-0.816558,0.0980694999999999,1
102,-0.0143629999999999,0.7295785,0.084118,-0.169903,0.5366185,0.017417,-0.247463,0.7495585,-0.1128299999999999,0.159777,0.5260685,0.062569,0.282407,0.7321485000000001,-0.0429219999999999,-0.213323,0.9859985,-0.18713,0.282277,0.9743485,-0.1273099999999999,-0.079747,-0.0001275,-0.0111689999999999,0.079747,0.0001275,0.011169,-0.138633,-0.4632815,0.003035,0.106847,-0.4628515,0.070015,-0.177693,-0.8196515,0.036844,0.114787,-0.8165215,0.0980439999999999,1
103,-0.0142914999999999,0.7296320000000001,0.0838405,-0.1699195,0.536602,0.0172275,-0.2474295,0.7496120000000001,-0.1132555,0.1597605,0.526112,0.0625235,0.2827005,0.7322420000000001,-0.0431025,-0.2132595,0.986022,-0.1876755,0.2828005,0.974592,-0.1274855,-0.0797565,-0.0001229999999999,-0.0111764999999999,0.0797565,0.0001229999999999,0.0111764999999999,-0.1386494999999999,-0.463238,0.0030404999999999,0.1068105,-0.462848,0.0701664999999999,-0.1777294999999999,-0.819558,0.0368174999999999,0.1147805,-0.816478,0.0980035,1
104,-0.0141925,0.7297155,0.0835839999999999,-0.1699205,0.5365854999999999,0.017044,-0.2473904999999999,0.7497055,-0.11367,0.1597495,0.5261555,0.062484,0.2829895,0.7323155,-0.0432769999999999,-0.2132005,0.9860655,-0.18817,0.2833195,0.9748455,-0.12762,-0.0797654999999999,-0.0001145,-0.011185,0.0797654999999999,0.0001145,0.011185,-0.1386804999999999,-0.4631845,0.003053,0.1067795,-0.4629645,0.070335,-0.1777505,-0.8194145,0.036777,0.1147695,-0.8164345000000001,0.097976,1
105,-0.0140724999999999,0.729729,0.0833505,-0.1699005,0.536569,0.0168695,-0.2473305,0.7498589999999999,-0.1140545,0.1597495,0.526199,0.0624465,0.2832495,0.732379,-0.0434244999999999,-0.2131305,0.986109,-0.1885445,0.2838395,0.975059,-0.1277045,-0.0797765,-0.000107,-0.0111875,0.0797765,0.0001069999999999,0.0111875,-0.1386905,-0.463091,0.0030645,0.1067395,-0.4629609999999999,0.0704155,-0.1778305,-0.8193710000000001,0.0367655,0.1147695,-0.816381,0.0979565,1
106,-0.013918,0.7298,0.083181,-0.169858,0.5365500000000001,0.0167879999999999,-0.247268,0.75004,-0.114348,0.159862,0.5262100000000001,0.0624409999999999,0.283452,0.7324200000000001,-0.043536,-0.212998,0.98615,-0.188908,0.284272,0.97516,-0.127718,-0.0797829999999999,-9.699999999999986e-05,-0.011194,0.0797829999999999,9.699999999999986e-05,0.0111939999999999,-0.138668,-0.46292,0.0030819999999999,0.1067019999999999,-0.46295,0.070493,-0.177898,-0.81933,0.036761,0.114762,-0.81633,0.0979549999999999,1
107,-0.013733,0.729877,0.083034,-0.169806,0.5365070000000001,0.016709,-0.247226,0.750267,-0.114598,0.159974,0.526227,0.062434,0.2836539999999999,0.7324670000000001,-0.043652,-0.2128459999999999,0.986227,-0.189208,0.284674,0.975207,-0.127708,-0.07979,-8.700000000000027e-05,-0.011198,0.07979,8.700000000000027e-05,0.011198,-0.138646,-0.462743,0.003093,0.1066739999999999,-0.462903,0.0704849999999999,-0.177976,-0.8192929999999999,0.036745,0.1147639999999999,-0.816283,0.097994,1
108,-0.0135419999999999,0.729951,0.082902,-0.169744,0.5364610000000001,0.016634,-0.247184,0.750491,-0.1148159999999999,0.1600659999999999,0.5262410000000001,0.062433,0.283796,0.7325210000000001,-0.0437059999999999,-0.212704,0.986371,-0.189446,0.285056,0.975261,-0.127716,-0.0798,-7.900000000000008e-05,-0.0112,0.0798,7.900000000000008e-05,0.0112,-0.1386339999999999,-0.462529,0.003102,0.106636,-0.462849,0.070478,-0.1780439999999999,-0.819249,0.036732,0.114746,-0.816229,0.098037,1
109,-0.0133459999999999,0.7300865000000001,0.0827765,-0.169672,0.5364165000000001,0.0165505,-0.247152,0.7506965,-0.1149994999999999,0.160168,0.5262465000000001,0.0624275,0.283928,0.7325565,-0.0437425,-0.212572,0.9865265,-0.1896695,0.285388,0.9753165,-0.1277295,-0.0798079999999999,-7.050000000000025e-05,-0.0112075,0.0798079999999999,7.049999999999938e-05,0.0112075,-0.138622,-0.4623135,0.0031065,0.106598,-0.4627935,0.0704704999999999,-0.178122,-0.8192134999999999,0.0367305,0.114728,-0.8161634999999999,0.0980745,1
110,-0.0131564999999999,0.7302209999999999,0.0826565,-0.1695455,0.536311,0.0164675,-0.2471054999999999,0.750921,-0.1152245,0.1602545,0.526261,0.0624124999999999,0.2840345,0.732571,-0.0437725,-0.2124154999999999,0.986681,-0.1899245,0.2857045,0.975251,-0.1277345,-0.0798224999999999,-6.300000000000056e-05,-0.0112144999999999,0.0798224999999999,6.299999999999969e-05,0.0112144999999999,-0.1386055,-0.462149,0.0031125,0.1065545,-0.462639,0.0704835,-0.1781954999999999,-0.819149,0.0367225,0.1147045,-0.816069,0.0981065,1
111,-0.0130309999999999,0.730311,0.082594,-0.169424,0.536231,0.0163859999999999,-0.247054,0.751171,-0.115392,0.160346,0.526251,0.0624129999999999,0.284116,0.7325210000000001,-0.0437619999999999,-0.2122939999999999,0.986791,-0.190072,0.286006,0.975151,-0.127732,-0.079834,-5.500000000000036e-05,-0.0112249999999999,0.079834,5.499999999999949e-05,0.0112249999999999,-0.138594,-0.462019,0.0031139999999999,0.106526,-0.462459,0.070487,-0.178264,-0.8190989999999999,0.036722,0.114696,-0.8159789999999999,0.098146,1
112,-0.0129349999999999,0.7303854999999999,0.082562,-0.169287,0.5361655,0.0163099999999999,-0.246997,0.7513555,-0.115567,0.160443,0.5262454999999999,0.062416,0.284203,0.7324255,-0.0437469999999999,-0.212177,0.9868955,-0.190217,0.286283,0.9750055,-0.127717,-0.079842,-4.950000000000007e-05,-0.011238,0.079842,4.950000000000007e-05,0.011238,-0.138577,-0.4618945,0.003127,0.106493,-0.4622845,0.070488,-0.178307,-0.8191045,0.036742,0.114663,-0.8158945000000001,0.098165,1
113,-0.0128484999999999,0.7304889999999999,0.0825299999999999,-0.1692025,0.536149,0.0162309999999999,-0.2469724999999999,0.7514689999999999,-0.115707,0.1605275,0.5262589999999999,0.062414,0.2842775,0.732339,-0.043731,-0.2120725,0.987029,-0.1903969999999999,0.2865775,0.974869,-0.127707,-0.0798625,-3.5999999999999574e-05,-0.011261,0.0798625,3.600000000000044e-05,0.0112609999999999,-0.1385825,-0.461741,0.0031349999999999,0.1064475,-0.462151,0.0705409999999999,-0.1783425,-0.819141,0.0367659999999999,0.1146175,-0.815771,0.0981769999999999,1
114,-0.012803,0.730625,0.082478,-0.1691099999999999,0.536135,0.0161569999999999,-0.24697,0.751585,-0.115874,0.16066,0.526215,0.062429,0.28435,0.732235,-0.043715,-0.2119899999999999,0.987155,-0.1905939999999999,0.28686,0.974715,-0.127694,-0.079882,-2.000000000000005e-05,-0.0112729999999999,0.079882,2.000000000000005e-05,0.0112729999999999,-0.1386099999999999,-0.461645,0.0031239999999999,0.10641,-0.462085,0.070556,-0.1783799999999999,-0.819175,0.036777,0.1145499999999999,-0.815685,0.0981799999999999,1
115,-0.012761,0.730758,0.0824189999999999,-0.169007,0.5361180000000001,0.0160879999999999,-0.246957,0.751688,-0.1160439999999999,0.160683,0.5262180000000001,0.062418,0.284403,0.732128,-0.043701,-0.211957,0.987248,-0.190744,0.287123,0.974598,-0.127694,-0.079901,-7.000000000000062e-06,-0.0112869999999999,0.079901,7.000000000000062e-06,0.0112869999999999,-0.138677,-0.461562,0.0031239999999999,0.106383,-0.462022,0.070533,-0.178447,-0.819272,0.036777,0.114483,-0.815572,0.0981779999999999,1
116,-0.0127785,0.7308264999999999,0.082342,-0.1689735,0.5361765,0.016016,-0.2469434999999999,0.7517665,-0.1162119999999999,0.1607065,0.5262064999999999,0.062408,0.2844665,0.7320165,-0.04369,-0.2119335,0.9873265,-0.1908919999999999,0.2873865,0.9744465,-0.127692,-0.0799165,4.500000000000164e-06,-0.0113009999999999,0.0799165,-4.500000000000164e-06,0.011301,-0.1387334999999999,-0.4614935,0.003125,0.1063665,-0.4619735,0.070504,-0.1785034999999999,-0.8194535000000001,0.03678,0.1144365,-0.8154635,0.098161,1
117,-0.0128009999999999,0.730868,0.082244,-0.168987,0.536238,0.0158929999999999,-0.246907,0.751848,-0.1164139999999999,0.160743,0.526188,0.06243,0.2845229999999999,0.731928,-0.0436839999999999,-0.211877,0.987428,-0.191084,0.287653,0.974268,-0.127694,-0.07993,2.199999999999945e-05,-0.011309,0.07993,-2.200000000000032e-05,0.011309,-0.1387769999999999,-0.461442,0.003123,0.106373,-0.461922,0.070486,-0.178537,-0.819582,0.036778,0.114373,-0.815402,0.09813,1
118,-0.0128279999999999,0.7308475,0.082159,-0.16901,0.5362975,0.015796,-0.24689,0.7519775,-0.116589,0.16079,0.5261775,0.062433,0.28458,0.7318475,-0.043685,-0.2118399999999999,0.9875375,-0.191269,0.2879,0.9740875,-0.127699,-0.079945,3.850000000000034e-05,-0.0113139999999999,0.079945,-3.849999999999947e-05,0.011314,-0.13882,-0.4614825,0.003136,0.10637,-0.4618925,0.070476,-0.17855,-0.8197125,0.036761,0.11429,-0.8153425,0.098118,1
119,-0.0128549999999999,0.730884,0.0820985,-0.169037,0.536354,0.0157054999999999,-0.246887,0.752084,-0.1167145,0.160833,0.526144,0.0624415,0.284633,0.731814,-0.0436715,-0.211817,0.987594,-0.1914445,0.288083,0.974024,-0.1276745,-0.079956,5.400000000000023e-05,-0.0113195,0.079956,-5.400000000000023e-05,0.0113195,-0.1388569999999999,-0.461576,0.0031494999999999,0.106363,-0.461856,0.0704775,-0.1785469999999999,-0.819856,0.0367445,0.1142229999999999,-0.815296,0.0980854999999999,1
120,-0.0128785,0.7309685,0.082048,-0.1690555,0.5364085,0.015609,-0.2468855,0.7521885,-0.116814,0.1609045,0.5261085,0.0624389999999999,0.2846745,0.7318385,-0.043669,-0.2117655,0.9876585,-0.191624,0.2882345,0.9739785,-0.127664,-0.0799665,6.549999999999959e-05,-0.011336,0.0799665,-6.550000000000045e-05,0.011336,-0.1388955,-0.4616715,0.00315,0.1063745,-0.4618215,0.070464,-0.1785255,-0.8200215,0.036738,0.1141845,-0.8153515,0.098027,1
121,-0.0129095,0.7309905,0.081981,-0.1690885,0.5364505,0.01551,-0.2468985,0.7522705000000001,-0.116917,0.1609614999999999,0.5260805000000001,0.0624389999999999,0.2847015,0.7318705,-0.043666,-0.2117185,0.9877105,-0.191797,0.2883315,0.9739505,-0.127657,-0.0799765,7.650000000000018e-05,-0.011355,0.0799765,-7.649999999999931e-05,0.011355,-0.1389385,-0.4617795,0.0031489999999999,0.1063715,-0.4617894999999999,0.070446,-0.1785085,-0.8201295,0.0367399999999999,0.1141315,-0.8154595,0.097965,1
122,-0.0129314999999999,0.7309805,0.081904,-0.1691705,0.5365405,0.01539,-0.2468805,0.7523405000000001,-0.117011,0.1610395,0.5260305000000001,0.0624509999999999,0.2847295,0.7318705,-0.0436789999999999,-0.2116605,0.9877105,-0.191921,0.2883795,0.9738805,-0.127671,-0.0799705,7.650000000000018e-05,-0.0113799999999999,0.0799705,-7.649999999999931e-05,0.01138,-0.1389605,-0.4618394999999999,0.003144,0.1063795,-0.4619795,0.070497,-0.1784605,-0.8201895,0.036726,0.1141095,-0.8155595,0.097925,1
123,-0.0129729999999999,0.7309805,0.081837,-0.169255,0.5366205000000001,0.015247,-0.246855,0.7523705,-0.11712,0.1610649999999999,0.5260305000000001,0.0624339999999999,0.284765,0.7318705,-0.043689,-0.211615,0.9876905,-0.19204,0.288415,0.9738705,-0.12766,-0.079967,7.650000000000018e-05,-0.011407,0.079967,-7.649999999999931e-05,0.0114069999999999,-0.138985,-0.4619095,0.003133,0.1063949999999999,-0.4621895,0.07053,-0.178405,-0.8202395,0.036676,0.114115,-0.8156395,0.097866,1
124,-0.0130354999999999,0.7309005000000001,0.0817705,-0.1693525,0.5366905000000001,0.0151455,-0.2468125,0.7523805,-0.1172055,0.1610975,0.5260305000000001,0.0624255,0.2848075,0.7318805,-0.0436885,-0.2115824999999999,0.9876605,-0.1921455,0.2884375,0.9738705,-0.1276255,-0.0799634999999999,7.650000000000018e-05,-0.0114295,0.0799634999999999,-7.649999999999931e-05,0.0114294999999999,-0.1390124999999999,-0.4620094999999999,0.0031265,0.1064075,-0.4623494999999999,0.0705875,-0.1784025,-0.8202395,0.0366395,0.1141175,-0.8156995,0.0978105,1
125,-0.0131165,0.730825,0.081701,-0.1694415,0.5367649999999999,0.015063,-0.2467815,0.752415,-0.117291,0.1611185,0.526015,0.062437,0.2848385,0.7319049999999999,-0.0436769999999999,-0.2115615,0.987635,-0.192231,0.2884385,0.973855,-0.127571,-0.0799585,7.600000000000055e-05,-0.011458,0.0799585,-7.599999999999968e-05,0.011458,-0.1390414999999999,-0.4621349999999999,0.0031209999999999,0.1064085,-0.462485,0.070614,-0.1783815,-0.820225,0.03659,0.1141185,-0.815775,0.09776,1
126,-0.013236,0.730699,0.081645,-0.16954,0.536819,0.014987,-0.24678,0.752449,-0.11735,0.16114,0.526009,0.062433,0.2848699999999999,0.731949,-0.043649,-0.21156,0.987609,-0.19229,0.28844,0.973849,-0.12748,-0.079955,7.200000000000002e-05,-0.011472,0.079955,-7.200000000000002e-05,0.011472,-0.13908,-0.462261,0.0031339999999999,0.10641,-0.462571,0.070633,-0.17837,-0.820271,0.03648,0.11411,-0.815931,0.097703,1
127,-0.0133535,0.730582,0.081611,-0.1696135,0.536902,0.014913,-0.2467735,0.752512,-0.117411,0.1611665,0.526002,0.062444,0.2849065,0.731992,-0.0436179999999999,-0.2115535,0.987592,-0.192351,0.2884465,0.973852,-0.127391,-0.0799485,6.999999999999975e-05,-0.0114849999999999,0.0799485,-7.000000000000062e-05,0.011485,-0.1391035,-0.462358,0.003163,0.1064165,-0.462658,0.070645,-0.1783535,-0.820358,0.036371,0.1141165,-0.816078,0.097658,1
128,-0.013455,0.7304845000000001,0.0816015,-0.169649,0.5369545,0.0148465,-0.246769,0.7525345,-0.1174695,0.161171,0.5259945,0.0624555,0.284931,0.7320345,-0.0435875,-0.211549,0.9875645,-0.1924095,0.288451,0.9738845,-0.1273095,-0.079945,6.450000000000032e-05,-0.0114965,0.079945,-6.450000000000032e-05,0.0114965,-0.139139,-0.4624655,0.0031965,0.106421,-0.4627255,0.0706425,-0.178339,-0.8204555,0.0362515,0.114091,-0.8161955,0.0976195,1
129,-0.0135655,0.730397,0.0816215,-0.1696575,0.5369269999999999,0.0148304999999999,-0.2467775,0.752527,-0.1174935,0.1611725,0.5259969999999999,0.0624695,0.2849525,0.732047,-0.0435385,-0.2115475,0.987537,-0.1924834999999999,0.2884525,0.973947,-0.1272035,-0.0799415,5.400000000000023e-05,-0.0114975,0.0799415,-5.400000000000023e-05,0.0114974999999999,-0.1391775,-0.462553,0.0032444999999999,0.1064325,-0.462793,0.0706475,-0.1783475,-0.820573,0.0361635,0.1141025,-0.8162630000000001,0.0976485,1
130,-0.0136734999999999,0.7303445000000001,0.0816315,-0.1696764999999999,0.5369045,0.0148205,-0.2467965,0.7525045,-0.1174975,0.1611935,0.5259745,0.0624915,0.2849835,0.7320545,-0.0434965,-0.2115465,0.9875145,-0.1925474999999999,0.2884535,0.9740145,-0.1271175,-0.0799395,4.650000000000053e-05,-0.0114905,0.0799395,-4.649999999999967e-05,0.0114904999999999,-0.1392064999999999,-0.4626355,0.0033035,0.1064335,-0.4628155,0.0706535,-0.1783664999999999,-0.8206454999999999,0.0360805,0.1141035,-0.8162855,0.0976795,1
131,-0.013777,0.7303695,0.081619,-0.169697,0.5368894999999999,0.014836,-0.246827,0.7524894999999999,-0.117516,0.161193,0.5259495,0.062512,0.2850129999999999,0.7320494999999999,-0.0434549999999999,-0.211587,0.9874695,-0.192586,0.288473,0.9740895,-0.127086,-0.079938,3.850000000000034e-05,-0.011473,0.079938,-3.850000000000034e-05,0.011473,-0.139227,-0.4626805,0.003365,0.106443,-0.4628305,0.070667,-0.1784069999999999,-0.8207005,0.036036,0.1141129999999999,-0.8163005000000001,0.097719,1
132,-0.0138605,0.7303995,0.0816065,-0.1697345,0.5368995,0.0148624999999999,-0.2468745,0.7524894999999999,-0.1175275,0.1611955,0.5259495,0.0625555,0.2850255,0.7320494999999999,-0.0434445,-0.2116545,0.9873895,-0.1926075,0.2884955,0.9741995,-0.1270875,-0.0799385,3.850000000000034e-05,-0.0114644999999999,0.0799385,-3.850000000000034e-05,0.0114644999999999,-0.1392545,-0.4627104999999999,0.0034234999999999,0.1064354999999999,-0.4628505,0.0707125,-0.1784345,-0.8207305,0.0359975,0.1141155,-0.8162205,0.0978074999999999,1
133,-0.013929,0.7304594999999999,0.0815839999999999,-0.16976,0.5369094999999999,0.0148759999999999,-0.24692,0.7524095,-0.117547,0.16119,0.5259395,0.0626009999999999,0.28505,0.7320494999999999,-0.043452,-0.21173,0.9873095,-0.192627,0.28852,0.9742895,-0.127097,-0.07994,3.850000000000034e-05,-0.011455,0.07994,-3.850000000000034e-05,0.0114549999999999,-0.13927,-0.4627705,0.0034679999999999,0.1064399999999999,-0.4628805,0.070712,-0.1784299999999999,-0.8207305,0.036007,0.1141,-0.8162105000000001,0.0979049999999999,1
134,-0.0140065,0.7304594999999999,0.081561,-0.1697934999999999,0.5369394999999999,0.014883,-0.2469835,0.7522694999999999,-0.1175649999999999,0.1611765,0.5258995,0.062609,0.2850665,0.7320494999999999,-0.0434569999999999,-0.2118035,0.9872195,-0.192685,0.2885665,0.9743095,-0.127095,-0.0799405,3.850000000000034e-05,-0.011446,0.0799405,-3.850000000000034e-05,0.011446,-0.1393135,-0.4628605,0.003509,0.1064265,-0.4629005,0.070702,-0.1784335,-0.8207505,0.036041,0.1140865,-0.8162105000000001,0.098005,1
135,-0.014058,0.7303865,0.0815375,-0.169852,0.5369765000000001,0.0148805,-0.247062,0.7520865,-0.1176154999999999,0.161178,0.5258465,0.0626265,0.285078,0.7320365000000001,-0.0434574999999999,-0.211872,0.9871465,-0.1927655,0.288608,0.9743965,-0.1270955,-0.079941,3.349999999999968e-05,-0.0114315,0.079941,-3.349999999999968e-05,0.0114315,-0.139332,-0.4629335,0.0035045,0.106418,-0.4629035,0.0706995,-0.178422,-0.8207234999999999,0.0360465,0.114068,-0.8162035,0.0981035,1
136,-0.0141165,0.730295,0.0815265,-0.1699525,0.537005,0.0148685,-0.2471825,0.751835,-0.1176785,0.1611874999999999,0.525795,0.0626405,0.2850875,0.732015,-0.0434515,-0.2119325,0.987095,-0.1928885,0.2886475,0.974405,-0.1271584999999999,-0.0799354999999999,2.7000000000000118e-05,-0.0114165,0.0799354999999999,-2.7000000000000118e-05,0.0114165,-0.1393525,-0.462985,0.0035064999999999,0.1064275,-0.462875,0.0706745,-0.1784025,-0.820745,0.0360145,0.1140475,-0.816165,0.0981935,1
137,-0.014191,0.7302415,0.081468,-0.170073,0.5370214999999999,0.014861,-0.247313,0.7515615,-0.1177629999999999,0.161167,0.5257415,0.062652,0.285097,0.7320015,-0.043451,-0.212003,0.9870515,-0.193013,0.288687,0.9744215,-0.1272329999999999,-0.079929,2.0499999999999685e-05,-0.011394,0.079929,-2.0500000000000556e-05,0.011394,-0.139363,-0.4629985,0.003518,0.106437,-0.4628385,0.07066,-0.178363,-0.8207785,0.036016,0.114037,-0.8161285,0.098281,1
138,-0.0143095,0.7301650000000001,0.0813385,-0.1702255,0.537045,0.0148505,-0.2474355,0.7512650000000001,-0.1178345,0.1611545,0.5256850000000001,0.0626665,0.2851145,0.7319650000000001,-0.0434645,-0.2120555,0.987025,-0.1932045,0.2887445,0.974445,-0.1273645,-0.0799215,1.299999999999999e-05,-0.0113755,0.0799215,-1.299999999999999e-05,0.0113755,-0.1393855,-0.463005,0.0035274999999999,0.1064344999999999,-0.462795,0.0706495,-0.1783155,-0.8207549999999999,0.0360345,0.1140045,-0.816125,0.0983025,1
139,-0.0144335,0.7301329999999999,0.0811429999999999,-0.1703715,0.5370429999999999,0.014813,-0.2475515,0.7509929999999999,-0.117935,0.1611385,0.525633,0.062677,0.2851285,0.731943,-0.0434869999999999,-0.2121115,0.987053,-0.193445,0.2888185,0.974473,-0.127495,-0.0799175,3.999999999999664e-06,-0.011358,0.0799175,-4.000000000000531e-06,0.011358,-0.1393915,-0.4629769999999999,0.003501,0.1064384999999999,-0.462777,0.07066,-0.1782615,-0.820767,0.036025,0.1140084999999999,-0.8161670000000001,0.0983189999999999,1
140,-0.0145585,0.730112,0.080964,-0.1705375,0.537052,0.014769,-0.2476575,0.750772,-0.1180269999999999,0.1611225,0.5255920000000001,0.062697,0.2851525,0.731912,-0.043508,-0.2121775,0.987082,-0.193727,0.2888925,0.974462,-0.127637,-0.0799115,-2.999999999999531e-06,-0.011331,0.0799115,3.000000000000398e-06,0.011331,-0.1394075,-0.462968,0.003493,0.1064425,-0.4627679999999999,0.07069,-0.1782175,-0.820738,0.03604,0.1140025,-0.816218,0.098345,1
141,-0.0146795,0.730106,0.0807615,-0.1707035,0.537086,0.0147215,-0.2477635,0.750576,-0.1182395,0.1610965,0.525556,0.0626955,0.2851865,0.731876,-0.0435485,-0.2122635,0.987116,-0.1940994999999999,0.2889565,0.974406,-0.1277895,-0.0799105,-8.000000000000194e-06,-0.0113035,0.0799105,8.000000000000194e-06,0.0113035,-0.1394135,-0.462934,0.0034965,0.1064565,-0.462714,0.0706895,-0.1781435,-0.820634,0.0360765,0.1140164999999999,-0.816124,0.0984005,1
142,-0.014799,0.7300989999999999,0.080539,-0.170859,0.5371189999999999,0.014669,-0.247879,0.750409,-0.118467,0.1610609999999999,0.525559,0.062655,0.285211,0.731849,-0.043586,-0.212359,0.987089,-0.194527,0.289001,0.974349,-0.127947,-0.079908,-1.4000000000000123e-05,-0.011279,0.079908,1.4000000000000123e-05,0.011279,-0.139429,-0.4629209999999999,0.003485,0.106471,-0.4626409999999999,0.070689,-0.178109,-0.820531,0.036102,0.114021,-0.816041,0.098456,1
143,-0.0149039999999999,0.730075,0.0803115,-0.1710499999999999,0.537145,0.0146014999999999,-0.248,0.750305,-0.1187015,0.16103,0.525575,0.0626015,0.28525,0.7318250000000001,-0.0436475,-0.21245,0.987085,-0.1949615,0.28905,0.974295,-0.1281015,-0.079906,-2.000000000000005e-05,-0.0112664999999999,0.079906,2.000000000000005e-05,0.0112664999999999,-0.1394399999999999,-0.462905,0.0034574999999999,0.1065,-0.462575,0.0706865,-0.1780699999999999,-0.820375,0.0361215,0.11406,-0.8159949999999999,0.0984505,1
144,-0.0150249999999999,0.7300415,0.0800455,-0.1712219999999999,0.5371915,0.0145355,-0.248132,0.7502015,-0.1189595,0.160978,0.5255915,0.0625125,0.285278,0.7317715,-0.0437365,-0.212542,0.9870615,-0.1954395,0.2890979999999999,0.9741415,-0.1282994999999999,-0.079898,-1.9499999999999552e-05,-0.0112554999999999,0.079898,1.950000000000042e-05,0.0112555,-0.139462,-0.4628985,0.0034205,0.106518,-0.4624585,0.0706745,-0.1780219999999999,-0.8202185,0.0361165,0.114078,-0.8160285,0.0984485,1
145,-0.0151345,0.7299709999999999,0.0796735,-0.1713565,0.5372309999999999,0.0144775,-0.2482565,0.750131,-0.1193054999999999,0.1609235,0.5256109999999999,0.0623735,0.2853635,0.7316509999999999,-0.0439324999999999,-0.2126164999999999,0.987031,-0.1959455,0.2891435,0.973781,-0.1285255,-0.0798915,-2.1000000000000185e-05,-0.0112535,0.0798915,2.099999999999932e-05,0.0112535,-0.1394765,-0.462889,0.0033775,0.1065635,-0.4624189999999999,0.0706084999999999,-0.1780064999999999,-0.8200390000000001,0.0360805,0.1141035,-0.8161090000000001,0.0983845,1
146,-0.0152375,0.729872,0.0792875,-0.1714784999999999,0.537262,0.0144175,-0.2483985,0.750052,-0.1197085,0.1608615,0.525632,0.0622255,0.2854815,0.731472,-0.0442095,-0.2126985,0.986952,-0.1964985,0.2891915,0.973342,-0.1288185,-0.0798995,-1.700000000000052e-05,-0.0112505,0.0798995,1.6999999999999654e-05,0.0112505,-0.1394985,-0.462868,0.0033264999999999,0.1066215,-0.462298,0.0705235,-0.1779885,-0.819868,0.0360365,0.1141315,-0.816228,0.0983075,1
147,-0.0152619999999999,0.729809,0.0788005,-0.171597,0.537289,0.0142545,-0.2485369999999999,0.750009,-0.1201685,0.160813,0.525669,0.0620585,0.285663,0.7312690000000001,-0.0445464999999999,-0.212757,0.986909,-0.1970485,0.289193,0.972839,-0.1291485,-0.079911,-1.4000000000000123e-05,-0.0112405,0.079911,1.4000000000000123e-05,0.0112405,-0.1395269999999999,-0.462821,0.0032875,0.106723,-0.462081,0.0703135,-0.177967,-0.819691,0.0359845,0.114163,-0.816311,0.0982255,1
148,-0.0152549999999999,0.7297629999999999,0.0781405,-0.1717199999999999,0.537323,0.0140535,-0.24874,0.749943,-0.1208394999999999,0.16077,0.525683,0.0618175,0.28592,0.730963,-0.0450704999999999,-0.21272,0.986723,-0.1977094999999999,0.28914,0.972143,-0.1296995,-0.079918,-9.000000000000327e-06,-0.0111995,0.079918,9.000000000000327e-06,0.0111995,-0.1395799999999999,-0.462757,0.0032055,0.10688,-0.461827,0.0698675,-0.1779899999999999,-0.8195370000000001,0.0358765,0.11421,-0.8162470000000001,0.0981255,1
149,-0.015207,0.729764,0.07704,-0.171796,0.537404,0.013745,-0.248936,0.749924,-0.121728,0.160744,0.525744,0.061489,0.286304,0.730604,-0.0458709999999999,-0.212556,0.986334,-0.198608,0.289004,0.971104,-0.130658,-0.079942,-2.000000000000265e-06,-0.011151,0.079942,1.999999999999398e-06,0.011151,-0.139596,-0.462636,0.002918,0.107274,-0.461476,0.068845,-0.178016,-0.8192860000000001,0.035738,0.114314,-0.816126,0.097883,1
150,-0.0151764999999999,0.7298049999999999,0.0756675,-0.1718154999999999,0.537465,0.0132034999999999,-0.2491955,0.749895,-0.1228125,0.1607145,0.525855,0.0610195,0.2867745,0.730205,-0.0470105,-0.2123955,0.985845,-0.1996724999999999,0.2887845,0.969905,-0.1319525,-0.0799755,4.999999999999796e-06,-0.0111225,0.0799755,-5.000000000000664e-06,0.0111224999999999,-0.1396254999999999,-0.462465,0.0023494999999999,0.1078445,-0.460915,0.0671845,-0.1780655,-0.819075,0.0354525,0.1144245,-0.8159550000000001,0.0974855,1
151,-0.015111,0.729897,0.0733515,-0.171792,0.537367,0.0120395,-0.2494219999999999,0.749817,-0.1249145,0.160748,0.526097,0.0598875,0.287418,0.729577,-0.0493264999999999,-0.212112,0.984967,-0.2018245,0.288498,0.968217,-0.1344845,-0.080071,1.0000000000001327e-06,-0.0110514999999999,0.080071,-9.999999999992654e-07,0.0110515,-0.139602,-0.461823,0.0005795,0.108998,-0.459763,0.0634645,-0.178072,-0.818493,0.0346375,0.114628,-0.8155830000000001,0.0965845,1
152,-0.0150109999999999,0.729939,0.070355,-0.171664,0.537149,0.010364,-0.249294,0.7497189999999999,-0.1279199999999999,0.1608659999999999,0.5262389999999999,0.058188,0.288186,0.728819,-0.052482,-0.211524,0.984139,-0.2047999999999999,0.288146,0.966009,-0.1381299999999999,-0.0801989999999999,-4.99999999999997e-05,-0.0108829999999999,0.0801989999999999,4.99999999999997e-05,0.010883,-0.139544,-0.460461,-0.002371,0.110526,-0.458341,0.058646,-0.178084,-0.8176910000000001,0.03349,0.114846,-0.815011,0.095388,1
153,-0.01475,0.7290895000000001,0.065441,-0.17146,0.5363695,0.0076109999999999,-0.2489,0.7490895000000001,-0.132272,0.16097,0.5259995000000001,0.05525,0.28908,0.7277895000000001,-0.057157,-0.21054,0.9830295,-0.2094019999999999,0.2876,0.9637995,-0.143382,-0.08046,-6.950000000000012e-05,-0.010792,0.08046,6.949999999999838e-05,0.010792,-0.13968,-0.4575405,-0.007835,0.1128899999999999,-0.4562205,0.051739,-0.17818,-0.8164104999999999,0.031572,0.11507,-0.8138405,0.093492,1
154,-0.0145195,0.7282295,0.059771,-0.1712785,0.5354694999999999,0.0041969999999999,-0.2483885,0.7481795,-0.137571,0.1610015,0.5253995,0.051368,0.2900215,0.7265594999999999,-0.0629059999999999,-0.2092585,0.9816095,-0.215261,0.2869815,0.9615095,-0.150131,-0.0807615,-0.0001054999999999,-0.0107109999999999,0.0807615,0.0001054999999999,0.010711,-0.1400084999999999,-0.4539505,-0.0144999999999999,0.1156715,-0.4532104999999999,0.043207,-0.1783785,-0.8148105,0.029014,0.1153315,-0.8122005,0.09101,1
155,-0.0142415,0.7269345,0.0530915,-0.1710265,0.5344245000000001,-0.0002004999999999,-0.2477465,0.7468245,-0.1442265,0.1610735,0.5248845,0.0465934999999999,0.2909135,0.7252345,-0.0698825,-0.2076465,0.9798745,-0.2225665,0.2867535,0.9590845,-0.1581865,-0.0811525,-0.0002404999999999,-0.0104984999999999,0.0811525,0.0002404999999999,0.0104985,-0.1403565,-0.4494655,-0.0225755,0.1187135,-0.4496655,0.0333075,-0.1785865,-0.8124754999999999,0.0258165,0.1156135,-0.8098654999999999,0.0878695,1
156,-0.0138219999999999,0.7248330000000001,0.044407,-0.1706119999999999,0.533093,-0.006137,-0.246952,0.745343,-0.152936,0.161108,0.5240830000000001,0.040219,0.291948,0.7239530000000001,-0.078937,-0.205532,0.977383,-0.232506,0.286838,0.956413,-0.168646,-0.081729,-0.000351,-0.010208,0.081729,0.0003509999999999,0.0102079999999999,-0.140862,-0.443617,-0.033302,0.1226879999999999,-0.444627,0.021036,-0.178852,-0.8086369999999999,0.021464,0.115978,-0.806167,0.083486,1
157,-0.0132355,0.721895,0.0345904999999999,-0.1697925,0.5306949999999999,-0.0131105,-0.2458925,0.743695,-0.1627895,0.1612075,0.523385,0.0331715,0.2930175,0.721945,-0.0889235,-0.2031025,0.974535,-0.2436195,0.2874375,0.954115,-0.1798394999999999,-0.0822825,-0.0003899999999999,-0.0099495,0.0822825,0.00039,0.0099495,-0.1413225,-0.437625,-0.0453385,0.1269074999999999,-0.438835,0.0077545,-0.1790425,-0.8040550000000001,0.0165325,0.1164375,-0.801625,0.0784455,1
158,-0.0124845,0.7195825,0.0239565,-0.1687605,0.5286625,-0.0211414999999999,-0.2445105,0.7412225,-0.1737785,0.1614695,0.5212025,0.0247235,0.2940895,0.7197225,-0.0994984999999999,-0.2003905,0.9704925,-0.2563384999999999,0.2883795,0.9516125,-0.1922485,-0.0828705,-0.0004104999999999,-0.0097854999999999,0.0828705,0.0004105,0.0097854999999999,-0.1417505,-0.4301475,-0.0584195,0.1313995,-0.4314675,-0.0065684999999999,-0.1791205,-0.7977274999999999,0.0107464999999999,0.1170394999999999,-0.7953374999999999,0.0726545,1
159,-0.011428,0.7171465,0.012315,-0.167256,0.5263365,-0.02975,-0.242726,0.7380665000000001,-0.185367,0.161804,0.5193965,0.0155159999999999,0.295514,0.7177665,-0.110707,-0.197346,0.9673765,-0.270037,0.289534,0.9499265,-0.205587,-0.0834729999999999,-0.0004035,-0.009768,0.0834729999999999,0.0004035,0.009768,-0.142016,-0.4214434999999999,-0.0726889999999999,0.135964,-0.4231335,-0.021508,-0.178996,-0.7899335,0.004236,0.1178539999999999,-0.7874835,0.066121,1
160,-0.0101955,0.714005,0.0006659999999999,-0.1656215,0.524125,-0.0385729999999999,-0.2406615,0.7348450000000001,-0.196802,0.1620785,0.5165150000000001,0.006274,0.2969585,0.714955,-0.121362,-0.1940615,0.964615,-0.283952,0.2910785,0.946235,-0.219142,-0.0840664999999999,-0.0004219999999999,-0.009845,0.0840664999999999,0.000422,0.009845,-0.1425615,-0.4123449999999999,-0.087155,0.1402884999999999,-0.414035,-0.035499,-0.1787715,-0.781115,-0.002183,0.1187085,-0.7785449999999999,0.0595769999999999,1
161,-0.0088624999999999,0.71039,-0.011516,-0.1638865,0.52121,-0.047866,-0.2384765,0.73165,-0.208642,0.1625435,0.51388,-0.003046,0.2983035,0.71268,-0.132132,-0.1910165,0.96244,-0.298312,0.2925835,0.94353,-0.232502,-0.0845315,-0.0004069999999999,-0.010032,0.0845315,0.0004069999999999,0.010032,-0.1433465,-0.40174,-0.1016069999999999,0.1444135,-0.40343,-0.049335,-0.1785665,-0.7708699999999999,-0.008921,0.1195035,-0.76811,0.0526199999999999,1
162,-0.0075245,0.7071665,-0.0225725,-0.1619735,0.5189465,-0.0566605,-0.2359735,0.7285165,-0.2200315,0.1633264999999999,0.5113865,-0.0119035,0.2997065,0.7099665,-0.1424215,-0.1880835,0.9610165,-0.3122115,0.2941264999999999,0.9410565,-0.2453115,-0.0848435,-0.0003105,-0.0101555,0.0848435,0.0003104999999999,0.0101555,-0.1438935,-0.3901135,-0.1144274999999999,0.1482365,-0.3918035,-0.0620675,-0.1781935,-0.7598235,-0.0153955,0.1203965,-0.7568335,0.0458055,1
163,-0.006007,0.7019205,-0.0342245,-0.159852,0.5159605,-0.0657794999999999,-0.233222,0.7250005,-0.2316955,0.164078,0.5081505,-0.0209395,0.3012579999999999,0.7061505,-0.1532454999999999,-0.185352,0.9567705,-0.3260855,0.295908,0.9377305,-0.2584555,-0.085104,-0.0001244999999999,-0.0103185,0.085104,0.0001244999999999,0.0103185,-0.144892,-0.3764395,-0.1278254999999999,0.152298,-0.3794695,-0.0745905,-0.177682,-0.7464095,-0.0219275,0.1212979999999999,-0.7432295,0.0387825,1
164,-0.004513,0.6973469999999999,-0.0456764999999999,-0.157668,0.512147,-0.0747105,-0.230708,0.721537,-0.2427655,0.164802,0.505267,-0.0297155,0.302832,0.702757,-0.1634554999999999,-0.182718,0.952657,-0.3396155,0.297722,0.934657,-0.2712855,-0.085483,-5.8000000000002494e-05,-0.0104945,0.085483,5.8000000000002494e-05,0.0104945,-0.1461879999999999,-0.3629329999999999,-0.1408255,0.156382,-0.367183,-0.0869814999999999,-0.177148,-0.7321230000000001,-0.0284285,0.1221319999999999,-0.7289030000000001,0.0318485,1
165,-0.0030245,0.6936,-0.056075,-0.1556775,0.50939,-0.082799,-0.2284675,0.71759,-0.252706,0.1657925,0.50258,-0.037782,0.3045225,0.6992100000000001,-0.172856,-0.1804174999999999,0.94861,-0.351616,0.2997425,0.93169,-0.282846,-0.0856155,9.000000000000674e-05,-0.010875,0.0856155,-8.999999999999286e-05,0.0108749999999999,-0.1476974999999999,-0.35022,-0.152526,0.1598625,-0.35433,-0.098188,-0.1765275,-0.7176499999999999,-0.034632,0.1228325,-0.71435,0.025435,1
166,-0.001485,0.69012,-0.065668,-0.15381,0.50699,-0.089795,-0.2263899999999999,0.71427,-0.261961,0.1666599999999999,0.49897,-0.045162,0.30613,0.69661,-0.181601,-0.1783799999999999,0.94379,-0.362821,0.3019699999999999,0.92831,-0.293941,-0.085761,0.00034,-0.011274,0.085761,-0.00034,0.011274,-0.14942,-0.3365599999999999,-0.1634209999999999,0.1631699999999999,-0.34109,-0.109157,-0.17597,-0.70208,-0.0403479999999999,0.12343,-0.69867,0.019616,1
167,0.0011635,0.68711,-0.0796675,-0.1509785,0.5046200000000001,-0.1011664999999999,-0.2234585,0.7120000000000001,-0.2755005,0.1683615,0.4976,-0.0566284999999999,0.3088815,0.69413,-0.1952205,-0.1754885,0.94177,-0.3780405,0.3052315,0.92534,-0.3094405,-0.0857735,0.00068,-0.0112644999999999,0.0857735,-0.0006799999999999,0.0112645,-0.1503785,-0.32266,-0.1788905,0.1673615,-0.32763,-0.1244005,-0.1744585,-0.6859799999999999,-0.0506974999999999,0.1249615,-0.68247,0.0091385,1
168,0.004208,0.6869050000000001,-0.094369,-0.147589,0.502405,-0.113411,-0.219359,0.711775,-0.289916,0.170511,0.498395,-0.0687,0.311671,0.6942950000000001,-0.209526,-0.172449,0.941785,-0.394436,0.308761,0.924735,-0.325706,-0.085813,0.000345,-0.011649,0.085813,-0.0003449999999999,0.011649,-0.152309,-0.305415,-0.1993359999999999,0.173061,-0.311085,-0.145173,-0.172789,-0.6663950000000001,-0.061803,0.126631,-0.6627350000000001,-0.0020709999999999,1
169,0.0073744999999999,0.68577,-0.108564,-0.1442915,0.50034,-0.124915,-0.2153415,0.7110399999999999,-0.304215,0.1725985,0.5002599999999999,-0.080154,0.3145885,0.69329,-0.223635,-0.1695114999999999,0.94179,-0.410605,0.3120985,0.92515,-0.341455,-0.0857255,0.0001299999999999,-0.0119949999999999,0.0857255,-0.00013,0.0119949999999999,-0.1539615,-0.28872,-0.2185849999999999,0.1784785,-0.29579,-0.1649209999999999,-0.1711615,-0.64785,-0.072555,0.1281385,-0.64412,-0.012857,1
170,0.0107979999999999,0.68546,-0.1224119999999999,-0.141064,0.50007,-0.136415,-0.211384,0.7089300000000001,-0.318308,0.174896,0.50097,-0.091506,0.317966,0.69237,-0.237918,-0.166324,0.9421,-0.426728,0.315586,0.92503,-0.357738,-0.085766,0.00017,-0.0123579999999999,0.085766,-0.00017,0.0123579999999999,-0.155434,-0.27153,-0.237928,0.1840359999999999,-0.28035,-0.184968,-0.169454,-0.6288,-0.083219,0.1295359999999999,-0.6250899999999999,-0.0235109999999999,1
171,0.01445,0.685245,-0.136396,-0.137742,0.498045,-0.148251,-0.207392,0.707535,-0.332087,0.177808,0.498895,-0.102346,0.321318,0.691085,-0.251537,-0.162552,0.936565,-0.443267,0.319248,0.924675,-0.374067,-0.08595,9.500000000001174e-05,-0.012693,0.08595,-9.500000000001174e-05,0.0126929999999999,-0.156772,-0.254105,-0.257387,0.189448,-0.264295,-0.205027,-0.167542,-0.6094250000000001,-0.09377,0.130888,-0.6057950000000001,-0.033924,1
172,0.018042,0.686335,-0.1495465,-0.134521,0.496935,-0.1595275,-0.203341,0.705995,-0.3453355,0.1807689999999999,0.498595,-0.1122135,0.324729,0.690845,-0.2645754999999999,-0.158791,0.934325,-0.4590455,0.322799,0.924915,-0.3896055,-0.086042,-4.499999999998949e-05,-0.0129944999999999,0.086042,4.499999999998949e-05,0.0129945,-0.157391,-0.2378849999999999,-0.2756155,0.194389,-0.249025,-0.2239654999999999,-0.165601,-0.592015,-0.1038365,0.131989,-0.588895,-0.0437164999999999,1
173,0.0216115,0.686695,-0.1624555,-0.1313794999999999,0.496355,-0.1704535,-0.1991595,0.704035,-0.3585715,0.1835605,0.498595,-0.1218415,0.3281205,0.6899150000000001,-0.2775615,-0.1547994999999999,0.932335,-0.4745915,0.3267605,0.924065,-0.4051315,-0.0860525,-4.500000000001725e-05,-0.0133985,0.0860525,4.499999999996174e-05,0.0133984999999999,-0.1577894999999999,-0.221815,-0.2932415,0.1992304999999999,-0.233785,-0.2420515,-0.1635895,-0.575215,-0.1133645,0.1330105,-0.572325,-0.0530525,1
174,0.0249579999999999,0.686585,-0.175007,-0.128238,0.494555,-0.181369,-0.194878,0.702165,-0.37195,0.186092,0.4957249999999999,-0.1311749999999999,0.331392,0.6875450000000001,-0.28945,-0.150658,0.931215,-0.49023,0.330792,0.923415,-0.42034,-0.086047,5.000000000032756e-06,-0.0135999999999999,0.086047,-4.999999999977245e-06,0.0136,-0.158028,-0.2063149999999999,-0.31009,0.203842,-0.218765,-0.25947,-0.161748,-0.558625,-0.1223049999999999,0.133852,-0.5560849999999999,-0.0619419999999999,1
175,0.0279604999999999,0.6865100000000001,-0.18775,-0.1252815,0.49324,-0.192958,-0.1907114999999999,0.6996,-0.38573,0.1883984999999999,0.49422,-0.140905,0.3347285,0.68499,-0.30169,-0.1463715,0.93094,-0.5066299999999999,0.3346685,0.92017,-0.43581,-0.0859385,-2.999999999997449e-05,-0.0138399999999999,0.0859385,3.0000000000030003e-05,0.0138399999999999,-0.1584114999999999,-0.1918399999999999,-0.32709,0.2083585,-0.2044599999999999,-0.2764,-0.1600615,-0.5424899999999999,-0.131569,0.1345385,-0.5404599999999999,-0.0711769999999999,1
176,0.0301545,0.684695,-0.1955329999999999,-0.1229154999999999,0.4913350000000001,-0.199646,-0.1871654999999999,0.6964750000000001,-0.39512,0.1899245,0.4926750000000001,-0.145478,0.3373645,0.682415,-0.30923,-0.1423354999999999,0.927465,-0.51874,0.3373145,0.917485,-0.44609,-0.0857235,-0.0003349999999999,-0.0144599999999999,0.0857235,0.000335,0.01446,-0.1593854999999999,-0.1782649999999999,-0.33873,0.2120445,-0.1908349999999999,-0.28783,-0.1590355,-0.5272249999999999,-0.135602,0.1345645,-0.525775,-0.0751169999999999,1
177,0.0322004999999999,0.6798500000000001,-0.202642,-0.1215465,0.48885,-0.205723,-0.1847865,0.69051,-0.4044,0.1914235,0.4876,-0.149528,0.3399435,0.67567,-0.31635,-0.1380465,0.92021,-0.53035,0.3397635,0.91157,-0.45645,-0.0857525,0.0,-0.0145599999999999,0.0857525,0.0,0.01456,-0.1591565,-0.16633,-0.34474,0.2148235,-0.1784299999999999,-0.29332,-0.1578665,-0.5141600000000001,-0.1383329999999999,0.1345734999999999,-0.51341,-0.0777269999999999,1
178,0.033812,0.67589,-0.2096009999999999,-0.120268,0.4866199999999999,-0.211776,-0.1826479999999999,0.68434,-0.413385,0.192902,0.4828699999999999,-0.153574,0.342042,0.67045,-0.323295,-0.134318,0.91209,-0.541365,0.341702,0.90509,-0.4662949999999999,-0.085748,0.0001999999999999,-0.0146149999999999,0.085748,-0.0002,0.014615,-0.159078,-0.15308,-0.350645,0.2176719999999999,-0.1646699999999999,-0.2987649999999999,-0.156708,-0.50103,-0.141059,0.134492,-0.50102,-0.0803289999999999,1
179,0.035171,0.67218,-0.216079,-0.11911,0.48391,-0.217116,-0.18072,0.67919,-0.421505,0.19421,0.47861,-0.157456,0.34373,0.6648799999999999,-0.329365,-0.13094,0.90108,-0.552025,0.34352,0.899,-0.475405,-0.08583,8.00000000000245e-05,-0.014725,0.08583,-8.00000000000245e-05,0.0147249999999999,-0.15913,-0.14087,-0.355945,0.2204,-0.15127,-0.303165,-0.1556,-0.48794,-0.143515,0.13446,-0.48858,-0.082579,1
180,0.0368735,0.667585,-0.2216989999999999,-0.1219875,0.482925,-0.226528,-0.1785275,0.673645,-0.42998,0.1956724999999999,0.477055,-0.161233,0.3456625,0.659485,-0.33513,-0.1277575,0.895135,-0.56124,0.3457325,0.892765,-0.484,-0.0858775,0.0002349999999999,-0.0148699999999999,0.0858775,-0.000235,0.0148699999999999,-0.1587675,-0.130995,-0.3601999999999999,0.2235325,-0.140855,-0.30639,-0.1541475,-0.476255,-0.145542,0.1349624999999999,-0.477485,-0.084398,1
181,0.0388385,0.66313,-0.226879,-0.1197255,0.48219,-0.23085,-0.1760155,0.66808,-0.438185,0.1973944999999999,0.473973,-0.165011,0.3476245,0.6527700000000001,-0.340255,-0.1244755,0.8878,-0.570575,0.3482045,0.88561,-0.492125,-0.0856655,0.00059,-0.0149249999999999,0.0856655,-0.0005899999999999,0.014925,-0.1581755,-0.1211899999999999,-0.3640649999999999,0.2269945,-0.1302299999999999,-0.309135,-0.1524154999999999,-0.46462,-0.1476319999999999,0.1359745,-0.4661499999999999,-0.0861629999999999,1
182,0.040716,0.6588450000000001,-0.231689,-0.117349,0.481894,-0.234918,-0.1735789999999999,0.6621650000000001,-0.445835,0.199121,0.469567,-0.168578,0.349541,0.644815,-0.3449649999999999,-0.121569,0.8798650000000001,-0.5796049999999999,0.350191,0.8782350000000001,-0.499505,-0.085549,0.001055,-0.0149749999999999,0.085549,-0.0010549999999999,0.0149749999999999,-0.157469,-0.1117349999999999,-0.367585,0.230331,-0.1199249999999999,-0.311475,-0.1507089999999999,-0.4535849999999999,-0.149797,0.137091,-0.455545,-0.088009,1
183,0.042584,0.6542049999999999,-0.23612,-0.114963,0.481718,-0.238651,-0.171103,0.6548849999999999,-0.45275,0.200817,0.4673679999999999,-0.1717129999999999,0.351657,0.638155,-0.34973,-0.1187329999999999,0.8703749999999999,-0.58843,0.351917,0.870295,-0.50686,-0.085433,0.0014349999999999,-0.0150399999999999,0.085433,-0.001435,0.01504,-0.156603,-0.102825,-0.37041,0.2334069999999999,-0.109765,-0.31296,-0.148833,-0.443655,-0.151883,0.138407,-0.445795,-0.0897239999999999,1
184,0.044208,0.65055,-0.2407099999999999,-0.112489,0.477113,-0.242498,-0.168799,0.64827,-0.45967,0.202631,0.465575,-0.175166,0.353691,0.63228,-0.35464,-0.1158589999999999,0.8610599999999999,-0.59686,0.353651,0.8647400000000001,-0.51449,-0.085459,0.0012099999999999,-0.0150899999999999,0.085459,-0.0012099999999999,0.0150899999999999,-0.155659,-0.09286,-0.37289,0.236411,-0.0986,-0.31478,-0.1467989999999999,-0.43298,-0.154231,0.139891,-0.4352399999999999,-0.091768,1
185,0.045502,0.64671,-0.244842,-0.110137,0.473053,-0.245861,-0.166887,0.6412100000000001,-0.4659,0.204423,0.463504,-0.178506,0.355253,0.6261,-0.35907,-0.113167,0.8529500000000001,-0.6042099999999999,0.354963,0.8582000000000001,-0.52211,-0.0853869999999999,0.00105,-0.0151,0.0853869999999999,-0.0010499999999999,0.0151,-0.154727,-0.08348,-0.37499,0.239283,-0.08838,-0.31655,-0.144837,-0.42338,-0.1564509999999999,0.141393,-0.42552,-0.0937109999999999,1
186,0.0466214999999999,0.64356,-0.2483929999999999,-0.1079015,0.471079,-0.2488869999999999,-0.1653915,0.6369,-0.4713,0.2059685,0.462816,-0.181505,0.3569584999999999,0.62246,-0.36288,-0.1105915,0.84734,-0.61077,0.3559584999999999,0.8533200000000001,-0.52885,-0.0852415,0.0011499999999999,-0.0152799999999999,0.0852415,-0.0011499999999999,0.01528,-0.1536615,-0.07445,-0.37746,0.2418985,-0.07865,-0.3185,-0.1428615,-0.4145,-0.1589539999999999,0.1431285,-0.41623,-0.0960539999999999,1
187,0.0473715,0.64193,-0.252074,-0.1059835,0.46797,-0.252251,-0.1643035,0.63271,-0.4768,0.2073964999999999,0.460709,-0.184849,0.3577965,0.61874,-0.36708,-0.1084135,0.84247,-0.61785,0.3566065,0.85034,-0.5357799999999999,-0.0849335,0.0011299999999999,-0.0155,0.0849335,-0.00113,0.0154999999999999,-0.1528335,-0.06477,-0.38031,0.2441964999999999,-0.0685,-0.32047,-0.1410435,-0.40499,-0.16173,0.1448465,-0.40632,-0.098723,1
188,0.0480675,0.638875,-0.2554309999999999,-0.1041695,0.46458,-0.2554459999999999,-0.1632695,0.628455,-0.482315,0.2087205,0.458849,-0.1877879999999999,0.3584605,0.614005,-0.3711449999999999,-0.1065795,0.838375,-0.624665,0.3572705,0.846185,-0.542095,-0.0847095,0.001305,-0.0156849999999999,0.0847095,-0.001305,0.015685,-0.1520095,-0.0570049999999999,-0.382985,0.2462605,-0.060215,-0.3220449999999999,-0.1391895,-0.397425,-0.1642809999999999,0.1465205,-0.398395,-0.1011679999999999,1
189,0.0485484999999999,0.6359699999999999,-0.258154,-0.1025845,0.461362,-0.258553,-0.1623145,0.62389,-0.48703,0.2099555,0.4571409999999999,-0.190591,0.3590255,0.60931,-0.37514,-0.1048045,0.8339099999999999,-0.6314299999999999,0.3580454999999999,0.84105,-0.54813,-0.0848245,0.0012699999999999,-0.01589,0.0848245,-0.0012699999999999,0.0158899999999999,-0.1514845,-0.04919,-0.38505,0.2477355,-0.0521,-0.32302,-0.1374445,-0.39007,-0.166784,0.1480854999999999,-0.39076,-0.103549,1
190,0.0485785,0.6336900000000001,-0.261251,-0.1015475,0.458257,-0.261644,-0.1619675,0.61992,-0.49136,0.2106025,0.456465,-0.193407,0.3590624999999999,0.60599,-0.37893,-0.1032875,0.83025,-0.63797,0.3584625,0.83599,-0.55391,-0.0850275,0.00108,-0.01607,0.0850275,-0.0010799999999999,0.01607,-0.1515675,-0.0416299999999999,-0.38692,0.2486825,-0.0441599999999999,-0.32389,-0.1362275,-0.38327,-0.169307,0.1491525,-0.3835199999999999,-0.105926,1
191,0.0485974999999999,0.6314550000000001,-0.264185,-0.1004815,0.456148,-0.264335,-0.1616415,0.616615,-0.495525,0.2110985,0.456305,-0.196119,0.3590285,0.603905,-0.382675,-0.1016515,0.826435,-0.644105,0.3591185,0.832115,-0.559385,-0.0851315,0.000885,-0.0163149999999999,0.0851315,-0.0008849999999999,0.0163149999999999,-0.1517215,-0.0342749999999999,-0.388255,0.2496185,-0.0365349999999999,-0.324525,-0.1349915,-0.3767049999999999,-0.171715,0.1502385,-0.376505,-0.108183,1
192,0.049119,0.630665,-0.26754,-0.094105,0.452482,-0.263026,-0.160765,0.6157950000000001,-0.49997,0.211525,0.457574,-0.1994159999999999,0.359285,0.6025550000000001,-0.38688,-0.099515,0.824605,-0.6501399999999999,0.360465,0.828765,-0.5647,-0.085015,0.000555,-0.0165899999999999,0.085015,-0.0005549999999999,0.0165899999999999,-0.151465,-0.0260049999999999,-0.3896699999999999,0.250875,-0.0279149999999999,-0.32484,-0.133295,-0.3691449999999999,-0.174561,0.151755,-0.368595,-0.110867,1
193,0.049468,0.629435,-0.2699899999999999,-0.092657,0.4541509999999999,-0.265243,-0.160037,0.6143149999999999,-0.50357,0.211503,0.457495,-0.2020499999999999,0.359313,0.600455,-0.3902099999999999,-0.097557,0.822805,-0.65534,0.361583,0.825455,-0.56918,-0.084827,0.0007349999999999,-0.0168099999999999,0.0848269999999999,-0.000735,0.01681,-0.151367,-0.019975,-0.39032,0.2516629999999999,-0.0215049999999999,-0.32479,-0.131897,-0.3637250000000001,-0.17659,0.1530329999999999,-0.362915,-0.112921,1
194,0.0499714999999999,0.62888,-0.27218,-0.0912925,0.4551909999999999,-0.267222,-0.1592825,0.61336,-0.50662,0.2114275,0.456789,-0.204386,0.3593075,0.59942,-0.39307,-0.0957225,0.82152,-0.66001,0.3625575,0.82248,-0.57323,-0.0846325,0.0009699999999999,-0.01697,0.0846325,-0.00097,0.01697,-0.1512125,-0.01473,-0.39088,0.2523375,-0.0159099999999999,-0.32474,-0.1305825,-0.35895,-0.178421,0.1542275,-0.35803,-0.114793,1
195,0.050505,0.6282449999999999,-0.2736,-0.090005,0.454712,-0.2685269999999999,-0.158435,0.611065,-0.50889,0.211505,0.45546,-0.205871,0.359155,0.597495,-0.39524,-0.094055,0.818705,-0.66354,0.363345,0.818365,-0.5761499999999999,-0.084575,0.000995,-0.0169799999999999,0.084575,-0.000995,0.0169799999999999,-0.151015,-0.0120049999999999,-0.39102,0.253135,-0.013045,-0.32452,-0.129335,-0.356645,-0.179608,0.155255,-0.3556149999999999,-0.115868,1
196,0.051195,0.627165,-0.274595,-0.0889139999999999,0.454928,-0.269708,-0.157404,0.6101449999999999,-0.5107250000000001,0.211716,0.4548549999999999,-0.207131,0.359116,0.596554,-0.397075,-0.0924939999999999,0.8161149999999999,-0.666215,0.363896,0.814665,-0.578625,-0.084474,0.0012649999999999,-0.016945,0.084474,-0.001265,0.0169449999999999,-0.1505139999999999,-0.011125,-0.391215,0.253936,-0.011915,-0.324145,-0.1280939999999999,-0.356085,-0.180494,0.156276,-0.354895,-0.11665,1
197,0.0520114999999999,0.627165,-0.27555,-0.0876984999999999,0.454928,-0.270949,-0.1561885,0.609965,-0.51248,0.2120715,0.4548549999999999,-0.208523,0.3589914999999999,0.596554,-0.39923,-0.0906885,0.815085,-0.66856,0.3644314999999999,0.813985,-0.58129,-0.0843684999999999,0.0012649999999999,-0.01691,0.0843684999999999,-0.001265,0.01691,-0.1496685,-0.011195,-0.3914499999999999,0.2548614999999999,-0.011745,-0.3237299999999999,-0.1267185,-0.356415,-0.181483,0.1575115,-0.354925,-0.11756,1
198,0.052711,0.627165,-0.2765999999999999,-0.0865009999999999,0.454928,-0.272239,-0.154961,0.609965,-0.5137700000000001,0.212509,0.4548549999999999,-0.2098439999999999,0.358829,0.596554,-0.40114,-0.0887309999999999,0.815085,-0.67087,0.364519,0.813985,-0.58369,-0.084271,0.0012649999999999,-0.0169,0.084271,-0.001265,0.0169,-0.1485909999999999,-0.011375,-0.3917199999999999,0.255789,-0.011695,-0.3232399999999999,-0.125301,-0.356745,-0.1825369999999999,0.158829,-0.354925,-0.1185499999999999,1
199,0.053345,0.627165,-0.277351,-0.0854129999999999,0.455014,-0.273541,-0.153653,0.609965,-0.515035,0.213027,0.4548549999999999,-0.211204,0.358687,0.596554,-0.403455,-0.0866029999999999,0.815085,-0.672615,0.364027,0.813985,-0.586035,-0.0843829999999999,0.0012649999999999,-0.017095,0.0843829999999999,-0.001265,0.017095,-0.147323,-0.011495,-0.391945,0.256677,-0.011565,-0.322525,-0.123873,-0.3568450000000001,-0.183629,0.160137,-0.354925,-0.119555,1
200,0.053619,0.62824,-0.2775269999999999,-0.084911,0.455332,-0.274378,-0.152421,0.60907,-0.515945,0.212629,0.455797,-0.212387,0.358139,0.5965,-0.404795,-0.084721,0.81419,-0.673575,0.3621189999999999,0.81309,-0.588155,-0.084601,0.00117,-0.0172549999999999,0.084601,-0.00117,0.0172549999999999,-0.1462709999999999,-0.01244,-0.391815,0.257259,-0.0122799999999999,-0.3215449999999999,-0.122691,-0.35774,-0.184381,0.161219,-0.35575,-0.120229,1
201,0.0531734999999999,0.63011,-0.2768199999999999,-0.0850755,0.454925,-0.2740709999999999,-0.1520355,0.60787,-0.516015,0.2116745,0.456999,-0.212468,0.3570145,0.59632,-0.405885,-0.0837155,0.81213,-0.673485,0.3595045,0.81135,-0.589345,-0.0848655,0.0009,-0.0173849999999999,0.0848655,-0.0009,0.017385,-0.1458555,-0.0154299999999999,-0.3911249999999999,0.2573045,-0.01522,-0.3202549999999999,-0.1222055,-0.36089,-0.1842899999999999,0.1616845,-0.3589,-0.1199889999999999,1
202,0.0527355,0.6320749999999999,-0.275981,-0.0853965,0.454132,-0.273653,-0.1517065,0.607165,-0.51571,0.2107435,0.4580579999999999,-0.212664,0.3554535,0.596425,-0.4064,-0.0828265,0.810565,-0.67333,0.3564035,0.810655,-0.58989,-0.0847765,0.000485,-0.0173699999999999,0.0847765,-0.000485,0.0173699999999999,-0.1456065,-0.020505,-0.3903,0.2569734999999999,-0.020285,-0.3188,-0.1218865,-0.366155,-0.184158,0.1620134999999999,-0.364125,-0.119676,1
203,0.0520205,0.6343650000000001,-0.274758,-0.0859175,0.453714,-0.273138,-0.1516175,0.6094350000000001,-0.514885,0.2097125,0.459573,-0.2127639999999999,0.3533625,0.596695,-0.406755,-0.0821274999999999,0.812265,-0.673205,0.3528624999999999,0.811115,-0.590495,-0.0846375,0.000165,-0.017345,0.0846375,-0.0001649999999999,0.017345,-0.1453475,-0.0279949999999999,-0.389215,0.2564425,-0.0278149999999999,-0.317315,-0.1217574999999999,-0.3738749999999999,-0.184052,0.1622225,-0.371675,-0.119391,1
204,0.0513605,0.6362249999999999,-0.273869,-0.0869775,0.4544449999999999,-0.272393,-0.1516675,0.6109549999999999,-0.5137050000000001,0.2085325,0.4607789999999999,-0.21291,0.3511825,0.600225,-0.4070749999999999,-0.0812275,0.814005,-0.6728350000000001,0.3492524999999999,0.811855,-0.591065,-0.0843775,-0.000105,-0.0173649999999999,0.0843775,0.0001049999999999,0.0173649999999999,-0.1449075,-0.039115,-0.388025,0.2558425,-0.038625,-0.315755,-0.1216675,-0.384715,-0.183902,0.1624525,-0.382515,-0.119203,1
205,0.0499635,0.64015,-0.2711139999999999,-0.0886095,0.45795,-0.270509,-0.1521095,0.61528,-0.51115,0.2064405,0.46511,-0.211965,0.3485105,0.60392,-0.40617,-0.0807194999999999,0.81871,-0.67044,0.3453105,0.8148,-0.59023,-0.0844795,-0.00024,-0.01729,0.0844795,0.00024,0.01729,-0.1443195,-0.0537399999999999,-0.38519,0.2548205,-0.05331,-0.31309,-0.1219495,-0.3996099999999999,-0.182562,0.1623605,-0.39764,-0.117861,1
206,0.0482385,0.64628,-0.267496,-0.0906474999999999,0.461761,-0.268094,-0.1525775,0.6217900000000001,-0.50808,0.2040425,0.469547,-0.210531,0.3459225,0.60806,-0.40436,-0.0809574999999999,0.82527,-0.66705,0.3407225,0.8217300000000001,-0.58744,-0.0844975,-0.0004599999999999,-0.01718,0.0844975,0.00046,0.01718,-0.1437275,-0.0691499999999999,-0.38203,0.2535725,-0.06913,-0.30994,-0.1223775,-0.41666,-0.180875,0.1622124999999999,-0.41471,-0.116126,1
207,0.046645,0.6529400000000001,-0.262822,-0.09282,0.466165,-0.265076,-0.15302,0.62885,-0.50414,0.20191,0.477162,-0.208236,0.34331,0.61373,-0.40105,-0.08141,0.83314,-0.66211,0.33607,0.83039,-0.5828800000000001,-0.08461,-0.0009799999999999,-0.01727,0.08461,0.00098,0.0172699999999999,-0.1429699999999999,-0.0859699999999999,-0.37808,0.25202,-0.08604,-0.30589,-0.12279,-0.43565,-0.178564,0.16219,-0.43364,-0.113747,1
208,0.0446154999999999,0.656615,-0.257674,-0.0952055,0.4689899999999999,-0.261602,-0.1538155,0.632765,-0.49937,0.1994245,0.480019,-0.205644,0.3421045,0.6161949999999999,-0.39658,-0.0824655,0.8369549999999999,-0.6563399999999999,0.3317145,0.835215,-0.57796,-0.0846555,-0.001315,-0.01713,0.0846555,0.0013149999999999,0.01713,-0.1416255,-0.106315,-0.37229,0.2491044999999999,-0.106925,-0.30056,-0.1234855,-0.459185,-0.175966,0.1620145,-0.457315,-0.111068,1
209,0.042465,0.662685,-0.252348,-0.097474,0.4709549999999999,-0.258038,-0.154844,0.638685,-0.493625,0.197486,0.4815449999999999,-0.202639,0.339316,0.622735,-0.391635,-0.083974,0.8465149999999999,-0.648955,0.327996,0.843855,-0.5708850000000001,-0.084714,-0.001545,-0.016945,0.084714,0.0015449999999999,0.0169449999999999,-0.140424,-0.124645,-0.365775,0.245806,-0.126145,-0.294835,-0.124874,-0.481545,-0.17525,0.163436,-0.480105,-0.11084,1
210,0.040067,0.66716,-0.245402,-0.100398,0.47485,-0.252665,-0.156098,0.6473,-0.485705,0.195612,0.4866699999999999,-0.197992,0.336032,0.62835,-0.384915,-0.0857879999999999,0.8569399999999999,-0.639785,0.323922,0.8524499999999999,-0.560385,-0.084548,-0.00157,-0.016905,0.084548,0.0015699999999999,0.0169049999999999,-0.138988,-0.14427,-0.357525,0.241752,-0.14631,-0.287145,-0.126468,-0.50588,-0.173408,0.164692,-0.5047,-0.109533,1
211,0.0366975,0.67082,-0.235455,-0.1039254999999999,0.47972,-0.246255,-0.1586754999999999,0.65785,-0.47561,0.1932444999999999,0.49282,-0.191634,0.3322045,0.63957,-0.37566,-0.0888355,0.871,-0.62752,0.3196445,0.86633,-0.54688,-0.0845155,-0.0015899999999999,-0.01657,0.0845155,0.00159,0.01657,-0.1376855,-0.1652199999999999,-0.34646,0.2364945,-0.16817,-0.27658,-0.1287955,-0.53362,-0.170439,0.1652745,-0.5334099999999999,-0.106638,1
