sb224sc-HT22-VT27/4dt907/src/ml-research/a11/datafiles/labeled_files/A136_kinect.csv
FrameNo,nose_3d_x,nose_3d_y,nose_3d_z,left_shoulder_3d_x,left_shoulder_3d_y,left_shoulder_3d_z,left_elbow_3d_x,left_elbow_3d_y,left_elbow_3d_z,right_shoulder_3d_x,right_shoulder_3d_y,right_shoulder_3d_z,right_elbow_3d_x,right_elbow_3d_y,right_elbow_3d_z,left_wrist_3d_x,left_wrist_3d_y,left_wrist_3d_z,right_wrist_3d_x,right_wrist_3d_y,right_wrist_3d_z,left_hip_3d_x,left_hip_3d_y,left_hip_3d_z,right_hip_3d_x,right_hip_3d_y,right_hip_3d_z,left_knee_3d_x,left_knee_3d_y,left_knee_3d_z,right_knee_3d_x,right_knee_3d_y,right_knee_3d_z,left_ankle_3d_x,left_ankle_3d_y,left_ankle_3d_z,right_ankle_3d_x,right_ankle_3d_y,right_ankle_3d_z,activity_label
0,-0.0045295,0.7357955,0.0854625,-0.1719655,0.5181255,0.0235335,-0.3023555,0.6886755,-0.1212825,0.1754345,0.5163955,0.0151075,0.3005744999999999,0.6865555,-0.1235325,-0.2832855,0.9246555,-0.2216125,0.2860244999999999,0.9230855,-0.2320625,-0.0782965,0.0001204999999999,8.150000000000518e-05,0.0782965,-0.0001204999999999,-8.149999999999824e-05,-0.1354854999999999,-0.4592045,0.0239585,0.1170145,-0.4547845,0.0473385,-0.1621355,-0.8110045,0.0806065,0.1340445,-0.8143845,0.0892405,0
1,-0.0045125,0.735638,0.0856185,-0.1719955,0.517988,0.0236814999999999,-0.3022455,0.689288,-0.1213305,0.1753945,0.516598,0.0152414999999999,0.3005244999999999,0.686528,-0.1233705,-0.2832755,0.924598,-0.2212205,0.2858245,0.922818,-0.2315905,-0.0782775,8.99999999999998e-05,0.0001924999999999,0.0782775,-9.000000000000024e-05,-0.0001924999999999,-0.1356255,-0.459472,0.0243955,0.1169545,-0.454762,0.0475205,-0.1620655,-0.811382,0.0813214999999999,0.1340445,-0.814992,0.0894085,0
2,-0.0045705,0.7355125,0.085035,-0.1719565,0.5180725,0.0235329999999999,-0.3022165,0.6893125,-0.121316,0.1754235,0.5168025,0.0151359999999999,0.3005935,0.6866025,-0.123356,-0.2832865,0.9247425,-0.2205359999999999,0.2856435,0.9228725,-0.231426,-0.0782735,9.64999999999998e-05,0.0002109999999999,0.0782735,-9.650000000000024e-05,-0.000211,-0.1355865,-0.4595475,0.0244959999999999,0.1170335,-0.4547474999999999,0.047554,-0.1620964999999999,-0.8114175,0.0814159999999999,0.1341635,-0.8145175,0.089664,0
3,-0.0046034999999999,0.735403,0.0850885,-0.1719605,0.5179929999999999,0.0236635,-0.3022205,0.689263,-0.1210885,0.1754495,0.516573,0.0153715,0.3006295,0.6865629999999999,-0.1233085,-0.2832604999999999,0.924663,-0.2203585,0.2856195,0.922733,-0.2312785,-0.0782595,9.400000000000032e-05,0.0002555,0.0782595,-9.39999999999999e-05,-0.0002554999999999,-0.1356005,-0.459807,0.0247575,0.1170595,-0.454847,0.0477055,-0.1621105,-0.811847,0.0815515,0.1342595,-0.814597,0.0897345,0
4,-0.0048524999999999,0.735213,0.084594,-0.1719465,0.517963,0.02368,-0.3024765,0.689603,-0.121303,0.1751835,0.515443,0.015075,0.3006435,0.686543,-0.123203,-0.2833465,0.924833,-0.220103,0.2854735,0.922633,-0.2309129999999999,-0.0782654999999999,8.799999999999997e-05,0.0002689999999999,0.0782654999999999,-8.799999999999997e-05,-0.0002689999999999,-0.1355765,-0.459747,0.024843,0.1166835,-0.453627,0.047707,-0.1621564999999999,-0.811967,0.081566,0.1340935,-0.814467,0.089917,0
5,-0.0048545,0.73519,0.084546,-0.1720555,0.5179100000000001,0.0233439999999999,-0.3024455,0.6896000000000001,-0.121225,0.1752745,0.51524,0.0151539999999999,0.3007245,0.68652,-0.123205,-0.2833155,0.92489,-0.219855,0.2854945,0.92261,-0.230855,-0.0782525,0.000128,0.0002949999999999,0.0782525,-0.0001279999999999,-0.000295,-0.1355655,-0.45903,0.0245749999999999,0.1166645,-0.45339,0.047638,-0.1619555,-0.81192,0.081735,0.1341145,-0.8144699999999999,0.090096,0
6,-0.0049254999999999,0.735063,0.0844885,-0.1721085,0.517923,0.0232985,-0.3025085,0.689633,-0.1211745,0.1752615,0.5151530000000001,0.0152125,0.3007115,0.6864830000000001,-0.1230744999999999,-0.2834284999999999,0.925083,-0.2195845,0.2854815,0.922553,-0.2307945,-0.0782515,9.8e-05,0.0003254999999999,0.0782515,-9.8e-05,-0.0003254999999999,-0.1357885,-0.459417,0.0246395,0.1165615,-0.453177,0.0475585,-0.1620085,-0.811987,0.0816755,0.1339915,-0.814437,0.0901525,0
7,-0.0051769999999999,0.734982,0.084604,-0.172178,0.517992,0.023262,-0.302668,0.689662,-0.1208569999999999,0.175072,0.515822,0.015504,0.300572,0.6865720000000001,-0.122607,-0.283798,0.925142,-0.218607,0.2853219999999999,0.922472,-0.229767,-0.078249,0.000115,0.0001869999999999,0.078249,-0.000115,-0.0001869999999999,-0.135648,-0.459528,0.024545,0.116652,-0.455048,0.047994,-0.1620579999999999,-0.8115279999999999,0.081605,0.1339219999999999,-0.814668,0.089706,0
8,-0.0053189999999999,0.7348925,0.0846155,-0.1722469999999999,0.5179925,0.0232575,-0.302787,0.6897425,-0.1207235,0.174993,0.5157825,0.0155295,0.300563,0.6865725,-0.1223635,-0.283927,0.9252325,-0.2180135,0.285263,0.9223725,-0.2291035,-0.078248,0.0001174999999999,0.0001735,0.078248,-0.0001174999999999,-0.0001735,-0.1356569999999999,-0.4595675,0.0245525,0.116583,-0.4550775,0.0480695,-0.1620769999999999,-0.8115275,0.0816185,0.133913,-0.8146975,0.0896785,0
9,-0.0054319999999999,0.73483,0.084613,-0.172311,0.51798,0.023257,-0.3029509999999999,0.68984,-0.120564,0.1749389999999999,0.51569,0.015581,0.300559,0.68657,-0.1219839999999999,-0.2840709999999999,0.92532,-0.217314,0.285239,0.92226,-0.228344,-0.078243,0.0001109999999999,0.0001729999999999,0.078243,-0.0001109999999999,-0.0001729999999999,-0.135671,-0.45961,0.024542,0.116549,-0.45521,0.048173,-0.162081,-0.8115399999999999,0.0816,0.133909,-0.8147599999999999,0.089646,0
10,-0.0055529999999999,0.734769,0.084606,-0.17238,0.517969,0.02325,-0.30313,0.6899390000000001,-0.12036,0.17487,0.515529,0.015707,0.30054,0.686559,-0.12158,-0.28422,0.925439,-0.2165599999999999,0.28521,0.922179,-0.22754,-0.078242,0.0001039999999999,0.000167,0.078242,-0.0001039999999999,-0.000167,-0.13567,-0.459671,0.024536,0.11655,-0.455351,0.048271,-0.1621,-0.811561,0.081526,0.13391,-0.814861,0.089572,0
11,-0.0056699999999999,0.7347045,0.08458,-0.17245,0.5179645,0.023224,-0.30331,0.6900445000000001,-0.1201549999999999,0.1747999999999999,0.5153945,0.015901,0.30053,0.6865645,-0.121145,-0.28436,0.9255645,-0.215715,0.28519,0.9221145,-0.226615,-0.078242,9.049999999999988e-05,0.000142,0.078242,-9.05000000000003e-05,-0.0001419999999999,-0.13567,-0.4597355,0.024511,0.11655,-0.4555455,0.048363,-0.1621,-0.8115555,0.081451,0.13391,-0.8149755,0.089492,0
12,-0.0057594999999999,0.7346379999999999,0.0846495,-0.1725604999999999,0.5179779999999999,0.0232425,-0.3035005,0.6901379999999999,-0.1198775,0.1747495,0.5153679999999999,0.0162215,0.3005195,0.686568,-0.1206875,-0.2844805,0.925698,-0.2147974999999999,0.2851694999999999,0.922068,-0.2256774999999999,-0.0782404999999999,7.900000000000008e-05,0.0001025,0.0782404999999999,-7.900000000000008e-05,-0.0001024999999999,-0.1356705,-0.459802,0.0244685,0.1165394999999999,-0.455752,0.0484485,-0.1620905,-0.811582,0.0813745,0.1338995,-0.8151120000000001,0.0893765,0
13,-0.0058845,0.734585,0.0848985,-0.1727295,0.518015,0.0234284999999999,-0.3037895,0.690255,-0.1195035,0.1746605,0.515345,0.0166715,0.3005105,0.686555,-0.1200135,-0.2846295,0.925845,-0.2137335,0.2851505,0.922005,-0.2245535,-0.0782355,6.899999999999983e-05,6.749999999999812e-05,0.0782355,-6.900000000000005e-05,-6.749999999999812e-05,-0.1356795,-0.459945,0.0244235,0.1165405,-0.455835,0.0485415,-0.1620995,-0.811645,0.0812615,0.1338805,-0.815255,0.0892815,0
14,-0.0060135,0.7345505,0.085225,-0.1728885,0.5180405,0.0236209999999999,-0.3040985,0.6904005000000001,-0.119171,0.1745715,0.5152705000000001,0.01712,0.3004915,0.6865105,-0.119411,-0.2847685,0.9259505,-0.212791,0.2851315,0.9219605,-0.223611,-0.0782305,5.250000000000003e-05,2.8000000000000247e-05,0.0782305,-5.250000000000003e-05,-2.8000000000000247e-05,-0.1356685,-0.4600595,0.0243649999999999,0.1165515,-0.4559395,0.0485769999999999,-0.1620985,-0.8117194999999999,0.081121,0.1338715,-0.8153994999999999,0.089174,0
15,-0.0061405,0.7345214999999999,0.085584,-0.1730515,0.5180715,0.023894,-0.3044115,0.6905515,-0.11882,0.1744685,0.5151915,0.0175649999999999,0.3004885,0.6864615,-0.1188299999999999,-0.2849115,0.9260915,-0.2118,0.2851085,0.9220015,-0.22265,-0.0782245,3.449999999999981e-05,-4.000000000004e-06,0.0782245,-3.4500000000000025e-05,3.9999999999970615e-06,-0.1356715,-0.4601885,0.0242939999999999,0.1165785,-0.4560385,0.0485989999999999,-0.1620715,-0.8117985,0.080986,0.1338785,-0.8155585000000001,0.0890509999999999,0
16,-0.0062535,0.734507,0.0859935,-0.1732115,0.518097,0.0242245,-0.3047115,0.690707,-0.1184925,0.1743585,0.515117,0.0180595,0.3004785,0.686417,-0.1183025,-0.2850515,0.926237,-0.2108725,0.2850985,0.922057,-0.2218024999999999,-0.0782215,1.7000000000000088e-05,-3.449999999999981e-05,0.0782215,-1.7000000000000088e-05,3.449999999999981e-05,-0.1356615,-0.460303,0.0242385,0.1165885,-0.456103,0.0486115,-0.1620415,-0.811873,0.0808435,0.1338585,-0.815633,0.0889455,0
17,-0.0063755,0.7345085,0.086446,-0.1733755,0.5181385,0.0245649999999999,-0.3049955,0.6908485,-0.118199,0.1742444999999999,0.5150184999999999,0.018636,0.3004945,0.6863684999999999,-0.1177589999999999,-0.2852055,0.9263985,-0.209969,0.2851145,0.9220885,-0.221039,-0.0782215,5.000000000000664e-07,-6.0000000000004494e-05,0.0782215,-5.000000000000664e-07,5.999999999999756e-05,-0.1356554999999999,-0.4604015,0.024187,0.1165745,-0.4560415,0.048648,-0.1620255,-0.8120015,0.080743,0.1338345,-0.8157015000000001,0.088836,0
18,-0.0064955,0.7345215,0.086953,-0.1735185,0.5182115,0.0249619999999999,-0.3052385,0.6909315,-0.117862,0.1741415,0.5149415,0.01923,0.3005115,0.6863415,-0.117282,-0.2853485,0.9265315,-0.209162,0.2851515,0.9221315,-0.220362,-0.0782235,-7.500000000000128e-06,-9.900000000000186e-05,0.0782235,7.499999999999911e-06,9.900000000000186e-05,-0.1356485,-0.4604785,0.024116,0.1165815,-0.4560185,0.0486329999999999,-0.1620184999999999,-0.8121485,0.080607,0.1338615,-0.8157385,0.088702,0
19,-0.006602,0.7345305,0.0874514999999999,-0.173687,0.5182705,0.0254374999999999,-0.305467,0.6909905,-0.1175565,0.1740529999999999,0.5148005,0.0198194999999999,0.300543,0.6862905,-0.1168265,-0.285487,0.9266105,-0.2084464999999999,0.285193,0.9221605,-0.2196965,-0.078223,-2.050000000000012e-05,-0.0001475,0.078223,2.0499999999999905e-05,0.0001474999999999,-0.135647,-0.4605595,0.0240184999999999,0.116613,-0.4560595,0.0485884999999999,-0.161997,-0.8122795,0.0804485,0.1338629999999999,-0.8159095,0.0885455,0
20,-0.0067085,0.7345445,0.0879625,-0.1738555,0.5183145,0.0259135,-0.3056955,0.6909945000000001,-0.1170775,0.1739645,0.5147245,0.0203455,0.3005645,0.6862345000000001,-0.1163174999999999,-0.2856154999999999,0.9266645,-0.2077975,0.2852345,0.9222445,-0.2191375,-0.0782225,-2.7499999999999964e-05,-0.0001945,0.0782225,2.7499999999999964e-05,0.0001945,-0.1356455,-0.4606355,0.0238875,0.1166545,-0.4561155,0.0485255,-0.1619755,-0.8124055,0.0803045,0.1338645,-0.8160554999999999,0.0883845,0
21,-0.0068125,0.734573,0.088549,-0.1740025,0.518273,0.026401,-0.3059025,0.691023,-0.116505,0.1738775,0.514633,0.020934,0.3006074999999999,0.686163,-0.1157149999999999,-0.2857625,0.926703,-0.207125,0.2852575,0.922493,-0.2183649999999999,-0.0782175,-4.100000000000002e-05,-0.0002549999999999,0.0782175,4.100000000000002e-05,0.000255,-0.1356425,-0.460727,0.02375,0.1166975,-0.456177,0.048443,-0.1619525,-0.812567,0.080115,0.1338674999999999,-0.816227,0.088199,0
22,-0.006897,0.734584,0.0891494999999999,-0.174097,0.518254,0.0267955,-0.306017,0.691014,-0.1159034999999999,0.173843,0.514554,0.0213804999999999,0.3006729999999999,0.686114,-0.1152035,-0.285877,0.926764,-0.2064835,0.285313,0.922814,-0.2175834999999999,-0.078214,-5.400000000000001e-05,-0.0003275,0.078214,5.400000000000001e-05,0.0003274999999999,-0.135637,-0.460796,0.0236095,0.116733,-0.456206,0.0483254999999999,-0.161917,-0.812716,0.0799485,0.133853,-0.8163560000000001,0.0879925,0
23,-0.0069714999999999,0.7346,0.0897705,-0.1742085,0.51823,0.0272694999999999,-0.3060685,0.691,-0.1151505,0.1738115,0.5144799999999999,0.0218364999999999,0.3007315,0.68607,-0.1145704999999999,-0.2859985,0.92685,-0.2057805,0.2853815,0.92315,-0.2166505,-0.0782075,-7.200000000000002e-05,-0.0004095,0.0782075,7.200000000000002e-05,0.0004095,-0.1356485,-0.46088,0.0234534999999999,0.1167615,-0.45637,0.0482014999999999,-0.1619185,-0.81289,0.0797684999999999,0.1338015,-0.81652,0.0877925,0
24,-0.0070625,0.734592,0.09043,-0.1743515,0.518182,0.027784,-0.3061514999999999,0.690962,-0.1143879999999999,0.1737985,0.514492,0.022276,0.3007885,0.686022,-0.113868,-0.2860115,0.926742,-0.2050479999999999,0.2854885,0.923432,-0.215688,-0.0781975,-8.200000000000004e-05,-0.000486,0.0781975,8.200000000000004e-05,0.000486,-0.1356615,-0.460968,0.023269,0.1167785,-0.456488,0.04804,-0.1619114999999999,-0.813078,0.079585,0.1337384999999999,-0.8166680000000001,0.0875799999999999,0
25,-0.0071335,0.734521,0.091158,-0.1744875,0.518101,0.028417,-0.3062375,0.690871,-0.113423,0.1738025,0.514541,0.022709,0.3008825,0.6860109999999999,-0.112933,-0.2860175,0.926591,-0.204153,0.2856925,0.923651,-0.214353,-0.0781854999999999,-9.4e-05,-0.000569,0.0781854999999999,9.39999999999999e-05,0.000569,-0.1356775,-0.461079,0.022994,0.1167824999999999,-0.456639,0.047772,-0.1618975,-0.8132590000000001,0.079299,0.1337025,-0.816789,0.087297,0
26,-0.0071839999999999,0.734392,0.0919545,-0.1746319999999999,0.5179720000000001,0.0290684999999999,-0.306312,0.6907620000000001,-0.1123875,0.173798,0.5146120000000001,0.0229874999999999,0.300988,0.6859320000000001,-0.1118875,-0.286022,0.926412,-0.2032075,0.285928,0.923892,-0.2128575,-0.078176,-0.0001059999999999,-0.0006315,0.078176,0.000106,0.0006315,-0.135702,-0.461198,0.0226214999999999,0.116808,-0.456818,0.0474744999999999,-0.161882,-0.813468,0.0788935,0.133678,-0.816958,0.0869125,0
27,-0.00724,0.734229,0.0927715,-0.174796,0.517829,0.0297445,-0.306356,0.690609,-0.1113715,0.173784,0.514689,0.0234985,0.301094,0.685799,-0.1108015,-0.286056,0.924759,-0.2014515,0.286214,0.924269,-0.2111415,-0.0781709999999999,-0.000112,-0.0006794999999999,0.0781709999999999,0.000112,0.0006794999999999,-0.135736,-0.461321,0.0221745,0.1168539999999999,-0.457131,0.0470415,-0.1618659999999999,-0.8136909999999999,0.0784275,0.133614,-0.817111,0.0864564999999999,0
28,-0.0073049999999999,0.734064,0.0936335,-0.1749299999999999,0.517664,0.0303704999999999,-0.30639,0.6904440000000001,-0.1101195,0.17378,0.514784,0.0239544999999999,0.30124,0.6856340000000001,-0.1095995,-0.28607,0.922694,-0.1996895,0.28658,0.924664,-0.2092195,-0.078167,-0.000117,-0.0006864999999999,0.078167,0.000117,0.0006864999999999,-0.13579,-0.461426,0.0216154999999999,0.11691,-0.457446,0.0464845,-0.1618799999999999,-0.813866,0.0778365,0.13355,-0.817236,0.0858615,0
29,-0.0073725,0.7339115,0.0944395,-0.1750465,0.5175115,0.0309665,-0.3064165,0.6902915000000001,-0.1090174999999999,0.1737935,0.5149415,0.0244075,0.3014035,0.6854715,-0.1083774999999999,-0.2860665,0.9205415,-0.1980075,0.2869635,0.9245115,-0.2072675,-0.0781605,-0.0001274999999999,-0.0006984999999999,0.0781605,0.0001275,0.0006984999999999,-0.1358565,-0.4615085,0.0209985,0.1169635,-0.4577085,0.0458765,-0.1619065,-0.8140185,0.0772225,0.1334935,-0.8173484999999999,0.0852285,0
30,-0.0074589999999999,0.7338885,0.095128,-0.175168,0.5174685,0.031536,-0.306458,0.6901685000000001,-0.1080719999999999,0.173802,0.5149385000000001,0.024642,0.301572,0.6854485,-0.1072919999999999,-0.286058,0.9184385,-0.1965219999999999,0.287382,0.9244885,-0.2055219999999999,-0.078147,-0.0001505,-0.0007069999999999,0.078147,0.0001504999999999,0.000707,-0.1359479999999999,-0.4613715,0.020174,0.117112,-0.4577115,0.045152,-0.1619479999999999,-0.8140115,0.076538,0.133432,-0.8173115,0.084568,0
31,-0.0075525,0.7338685,0.0954595,-0.1753114999999999,0.5174085,0.0320685,-0.3064915,0.6900285,-0.1072365,0.1737885,0.5149385000000001,0.0247844999999999,0.3017685,0.6853885000000001,-0.1062065,-0.2860315,0.9163185,-0.1953065,0.2878785,0.9244885,-0.2039465,-0.0781274999999999,-0.0001505,-0.0006885,0.0781274999999999,0.0001504999999999,0.0006884999999999,-0.1361115,-0.4612115,0.0191304999999999,0.1173585,-0.4576815,0.0439465,-0.1620015,-0.8139915,0.0757375,0.1333585,-0.8171915,0.0837924999999999,0
32,-0.0076755,0.7337785,0.0952639999999999,-0.1754525,0.5173485,0.0324049999999999,-0.3065525,0.6898685,-0.106688,0.1737075,0.5149385000000001,0.0248499999999999,0.3019874999999999,0.6852185000000001,-0.105288,-0.2860125,0.9141185,-0.194268,0.2887774999999999,0.9237785,-0.202238,-0.0781304999999999,-0.0001505,-0.000671,0.0781304999999999,0.0001504999999999,0.0006709999999999,-0.1364625,-0.4610415,0.0175219999999999,0.1179075,-0.4576815,0.0415819999999999,-0.1621125,-0.8139215,0.074766,0.1332875,-0.8170514999999999,0.082881,0
33,-0.007828,0.733463,0.0943934999999999,-0.175569,0.517213,0.0324705,-0.306639,0.689333,-0.1067475,0.173591,0.514943,0.0248565,0.3022309999999999,0.684503,-0.1043675,-0.285989,0.911823,-0.1935774999999999,0.289711,0.922643,-0.2007475,-0.078138,-0.000155,-0.0005935,0.078138,0.0001549999999999,0.0005935,-0.137079,-0.460697,0.0150095,0.1188709999999999,-0.457607,0.0377605,-0.162259,-0.813967,0.0736405,0.133181,-0.816967,0.0817875,0
34,-0.0081854999999999,0.7331519999999999,0.0926709999999999,-0.1758585,0.517022,0.031244,-0.3069085,0.688932,-0.107899,0.1733515,0.5150619999999999,0.024102,0.3023915,0.682812,-0.104469,-0.2860685,0.909622,-0.193929,0.2908315,0.921142,-0.200049,-0.0782555,-0.000207,-0.000479,0.0782555,0.000207,0.000479,-0.1382885,-0.459598,0.010311,0.1202014999999999,-0.4568379999999999,0.03147,-0.1625285,-0.813508,0.071755,0.1329215,-0.8162480000000001,0.080066,1
35,-0.0085744999999999,0.7327994999999999,0.0906495,-0.1761734999999999,0.5164694999999999,0.0294315,-0.3071635,0.6886994999999999,-0.1095505,0.1730365,0.5144995,0.0228915,0.3025865,0.6810195,-0.1053104999999999,-0.2861335,0.9077395,-0.1949205,0.2919365,0.9198595,-0.1999105,-0.0784525,-0.0003294999999999,-0.0002475,0.0784525,0.0003294999999999,0.0002475,-0.1397534999999999,-0.4573305,0.0039984999999999,0.1220465,-0.4555105,0.0239455,-0.1628435,-0.8124105,0.0695325,0.1326665,-0.8149605000000001,0.0779585,1
36,-0.0089865,0.7319245,0.0882385,-0.1765084999999999,0.5159945,0.0270224999999999,-0.3074585,0.6883945,-0.1119405,0.1727015,0.5139144999999999,0.0209344999999999,0.3028114999999999,0.6791045,-0.1070105,-0.2862585,0.9078345,-0.1972005,0.2929215,0.9188745,-0.2006605,-0.0786695,-0.0004685,6.749999999999812e-05,0.0786695,0.0004684999999999,-6.750000000000159e-05,-0.1414185,-0.4546355,-0.0034415,0.1242715,-0.4536855,0.0148344999999999,-0.1632285,-0.8106655,0.0669194999999999,0.1324515,-0.8131055,0.0753925,1
37,-0.0093629999999999,0.7304744999999999,0.084848,-0.176776,0.5151545,0.024318,-0.307756,0.6870445,-0.114646,0.172344,0.5133245,0.0182299999999999,0.303044,0.6768345,-0.109706,-0.2863759999999999,0.9090445,-0.199906,0.2938539999999999,0.9176645,-0.202406,-0.078946,-0.0005715,0.0003909999999999,0.078946,0.0005715,-0.000391,-0.143306,-0.4515055,-0.0121409999999999,0.126804,-0.4512055,0.0043399999999999,-0.163686,-0.8084855000000001,0.063968,0.132204,-0.8104655000000001,0.0725099999999999,1
38,-0.00964,0.7292865,0.080488,-0.1768839999999999,0.5145265,0.021118,-0.307884,0.6856065,-0.1178479999999999,0.172076,0.5126465,0.015028,0.303766,0.6746965,-0.1129079999999999,-0.286234,0.9109365,-0.203098,0.294786,0.9169865,-0.205128,-0.0793079999999999,-0.0006534999999999,0.000751,0.0793079999999999,0.0006534999999999,-0.0007509999999999,-0.1452439999999999,-0.4474635,-0.0222189999999999,0.129566,-0.4475335,-0.0074159999999999,-0.1640039999999999,-0.8052635,0.060509,0.132066,-0.8066535,0.069085,1
39,-0.0099505,0.7280205000000001,0.074614,-0.1768064999999999,0.5136705,0.016702,-0.3080165,0.6851205,-0.1218549999999999,0.1717635,0.5122205,0.011022,0.3046534999999999,0.6728305,-0.116895,-0.2859065,0.9142905,-0.207105,0.2954334999999999,0.9172205,-0.209105,-0.0797205,-0.0007555,0.0010159999999999,0.0797205,0.0007554999999999,-0.0010159999999999,-0.1474065,-0.4417595,-0.033801,0.1325735,-0.4420195,-0.020645,-0.1643665,-0.8002794999999999,0.056243,0.1319234999999999,-0.8009495,0.064784,1
40,-0.0102194999999999,0.7260795000000001,0.0665225,-0.1766594999999999,0.5123295,0.0106495,-0.3078495,0.6843895000000001,-0.1277235,0.1715805,0.5105295,0.0054855,0.3058905,0.6709195,-0.1220135,-0.2852294999999999,0.9179695,-0.2124335,0.2959405,0.9149995,-0.2140635,-0.0800945,-0.0007654999999999,0.0014275,0.0800945,0.0007655,-0.0014275,-0.1497994999999999,-0.4328405,-0.0477535,0.1358605,-0.4334405,-0.0361475,-0.1646895,-0.7922104999999999,0.0507625,0.1319104999999999,-0.7923604999999999,0.0592255,1
41,-0.0103434999999999,0.724034,0.057393,-0.1764565,0.510934,0.0038169999999999,-0.3072565,0.684044,-0.134561,0.1714735,0.509054,-0.000531,0.3071935,0.668074,-0.127961,-0.2837465,0.919424,-0.218641,0.2963735,0.913424,-0.219551,-0.0804995,-0.0006479999999999,0.0018369999999999,0.0804995,0.000648,-0.001837,-0.1521365,-0.422146,-0.062634,0.1390635,-0.423206,-0.052004,-0.1649465,-0.782766,0.04467,0.1319935,-0.782296,0.052801,1
42,-0.0103305,0.721971,0.0475175,-0.1758985,0.508911,-0.0038585,-0.3064685,0.682781,-0.1423035,0.1714715,0.507081,-0.0075204999999999,0.3085215,0.665711,-0.1348935,-0.2820385,0.921421,-0.2256235,0.2967315,0.912771,-0.2254934999999999,-0.0809375,-0.0005549999999999,0.0021465,0.0809375,0.0005549999999999,-0.0021465,-0.1543685,-0.409819,-0.0778005,0.1419915,-0.411319,-0.0674625,-0.1651685,-0.771569,0.0380625,0.1321515,-0.770969,0.0458205,1
43,-0.01008,0.7186405,0.037065,-0.175204,0.5073905000000001,-0.011569,-0.305354,0.6819205,-0.150468,0.171626,0.5049005,-0.01423,0.309926,0.6632205000000001,-0.142408,-0.279874,0.9229105,-0.232848,0.296976,0.9110105,-0.2321679999999999,-0.081322,-0.0004595,0.0023239999999999,0.081322,0.0004595,-0.0023239999999999,-0.156294,-0.3965995,-0.0918259999999999,0.144816,-0.3982495,-0.081414,-0.165264,-0.7592694999999999,0.031783,0.132426,-0.7582095,0.039254,1
44,-0.0097005,0.715096,0.0247495,-0.1740425,0.505466,-0.0212455,-0.3041025,0.679716,-0.1606785,0.1718675,0.503166,-0.0226705,0.3115075,0.6600659999999999,-0.1519385,-0.2769325,0.923516,-0.2425685,0.2973174999999999,0.907356,-0.2418385,-0.0816554999999999,-0.0003439999999999,0.0021975,0.0816554999999999,0.0003439999999999,-0.0021975,-0.1584325,-0.3814039999999999,-0.1068355,0.1479375,-0.383704,-0.0971104999999999,-0.1651625,-0.7434240000000001,0.0241835,0.1326475,-0.741894,0.0313965,1
45,-0.009203,0.7118045000000001,0.0125274999999999,-0.172818,0.5027245,-0.0311465,-0.302608,0.6771445,-0.1710155,0.172082,0.5011345,-0.0316495,0.313252,0.6571245,-0.1623155,-0.273898,0.9214445,-0.2532155,0.297562,0.9041045,-0.2521455,-0.081899,-8.850000000000524e-05,0.0022174999999999,0.081899,8.849999999999136e-05,-0.0022175,-0.160688,-0.3645454999999999,-0.1216705,0.151062,-0.3687955,-0.1122805,-0.165298,-0.7260355,0.0165104999999999,0.132612,-0.7241255,0.0234614999999999,1
46,-0.0085525,0.70885,0.0006114999999999,-0.1717005,0.5009,-0.0408185,-0.3011105,0.6757,-0.1818665,0.1722395,0.49836,-0.0407105,0.3153595,0.65258,-0.1729465,-0.2707104999999999,0.91877,-0.2643665,0.2979795,0.89759,-0.2638264999999999,-0.0820735,0.00017,0.0021484999999999,0.0820735,-0.00017,-0.0021485,-0.1629805,-0.3469899999999999,-0.1361565,0.1539495,-0.35296,-0.1269925,-0.1651505,-0.70706,0.0089165,0.1325095,-0.70519,0.0155505,1
47,-0.0076719999999999,0.707005,-0.0160819999999999,-0.170404,0.4994349999999999,-0.055421,-0.299654,0.673925,-0.198243,0.1724959999999999,0.496505,-0.0545989999999999,0.317106,0.649785,-0.188503,-0.267414,0.913565,-0.281413,0.298236,0.892995,-0.280563,-0.082233,0.0004049999999999,0.002031,0.082233,-0.000405,-0.0020309999999999,-0.1652239999999999,-0.328435,-0.1543729999999999,0.156796,-0.335325,-0.146093,-0.1649939999999999,-0.686075,-0.0033279999999999,0.132446,-0.684445,0.002986,1
48,-0.0065954999999999,0.707165,-0.0330375,-0.1684205,0.497575,-0.0704045,-0.2978905,0.6739350000000001,-0.2154944999999999,0.1727395,0.496235,-0.0691934999999999,0.3185995,0.648205,-0.2048145,-0.2643105,0.910225,-0.2995745,0.2983495,0.8900750000000001,-0.2985745,-0.0824085,0.000595,0.0019085,0.0824085,-0.000595,-0.0019084999999999,-0.1686405,-0.3082249999999999,-0.1771245,0.1602295,-0.315955,-0.1691444999999999,-0.1648405,-0.663175,-0.0162874999999999,0.1323795,-0.6621549999999999,-0.0102204999999999,1
49,-0.0057234999999999,0.706105,-0.0486805,-0.1666254999999999,0.496505,-0.0840035,-0.2962955,0.672015,-0.2318865,0.1727445,0.497345,-0.0821745,0.3196645,0.6452249999999999,-0.2202665,-0.2614755,0.906245,-0.3175065,0.2985744999999999,0.889105,-0.3163765,-0.0825945,0.0005449999999999,0.0015934999999999,0.0825945,-0.000545,-0.0015935,-0.1722354999999999,-0.290175,-0.1977565,0.1632345,-0.298425,-0.1900765,-0.1648755,-0.642395,-0.0281515,0.1320545,-0.6417550000000001,-0.0222105,1
50,-0.0048404999999999,0.705255,-0.0638489999999999,-0.1648704999999999,0.494335,-0.09756,-0.2948205,0.670075,-0.248032,0.1726995,0.494995,-0.095298,0.3206395,0.643255,-0.236032,-0.2591104999999999,0.905175,-0.3357819999999999,0.2988195,0.888855,-0.334752,-0.0827425,0.000455,0.001278,0.0827425,-0.0004549999999999,-0.001278,-0.1761105,-0.2718649999999999,-0.217602,0.1662294999999999,-0.280645,-0.2108219999999999,-0.1649304999999999,-0.6211450000000001,-0.0396069999999999,0.1316195,-0.620935,-0.0335739999999999,1
51,-0.0040929999999999,0.70427,-0.0788809999999999,-0.163254,0.49171,-0.1111359999999999,-0.2935439999999999,0.66909,-0.264402,0.172596,0.49404,-0.108041,0.321836,0.6407400000000001,-0.251672,-0.256994,0.90386,-0.354442,0.298956,0.8878300000000001,-0.353472,-0.0830849999999999,0.00032,0.001046,0.0830849999999999,-0.0003199999999999,-0.0010459999999999,-0.180164,-0.25405,-0.236812,0.169026,-0.26325,-0.231422,-0.165054,-0.60036,-0.0509039999999999,0.1310359999999999,-0.60005,-0.0446669999999999,1
52,-0.0035499999999999,0.70335,-0.0938735,-0.161736,0.48847,-0.1247265,-0.292606,0.6674100000000001,-0.2810105,0.172224,0.4931,-0.1209345,0.322874,0.6389400000000001,-0.2672505,-0.2554059999999999,0.89792,-0.3738705,0.298574,0.8840800000000001,-0.3725104999999999,-0.083236,0.00014,0.0009064999999999,0.083236,-0.0001399999999999,-0.0009065,-0.184596,-0.2362899999999999,-0.2553605,0.171294,-0.2461299999999999,-0.2518505,-0.165366,-0.57982,-0.0620935,0.130074,-0.57972,-0.0558045,1
53,-0.0033525,0.70122,-0.108044,-0.1607515,0.48534,-0.137273,-0.2916515,0.6652800000000001,-0.296865,0.1715485,0.49285,-0.132574,0.3234885,0.63626,-0.282185,-0.2548615,0.89056,-0.392225,0.2977685,0.88227,-0.390145,-0.0832354999999999,-0.0001199999999999,0.000905,0.0832354999999999,0.00012,-0.000905,-0.1894114999999999,-0.21919,-0.271995,0.1727285,-0.22882,-0.270375,-0.1659915,-0.5609799999999999,-0.072253,0.1286085,-0.56133,-0.065847,1
54,-0.0032059999999999,0.69981,-0.122394,-0.1598969999999999,0.4831499999999999,-0.149995,-0.290947,0.6637500000000001,-0.3131049999999999,0.170853,0.49005,-0.144786,0.323823,0.63385,-0.297535,-0.254407,0.8867499999999999,-0.410585,0.296913,0.8801399999999999,-0.408535,-0.083225,-0.0002099999999999,0.000625,0.083225,0.0002099999999999,-0.000625,-0.194167,-0.2019099999999999,-0.288565,0.174053,-0.21056,-0.288785,-0.1666669999999999,-0.5422100000000001,-0.082526,0.127033,-0.54315,-0.075969,1
55,-0.0029435,0.6979500000000001,-0.136512,-0.1585785,0.47944,-0.162237,-0.2901085,0.66021,-0.328825,0.1704115,0.48862,-0.156637,0.3237815,0.6327,-0.3128849999999999,-0.2539285,0.88218,-0.428975,0.2965415,0.88012,-0.426505,-0.0832215,-0.0008199999999999,0.000345,0.0832215,0.0008199999999999,-0.0003449999999999,-0.1988484999999999,-0.1856499999999999,-0.304315,0.1755915,-0.19321,-0.3062249999999999,-0.1671085,-0.52443,-0.0924839999999999,0.1256514999999999,-0.5259199999999999,-0.085705,1
56,-0.002773,0.69502,-0.14577,-0.15736,0.4755699999999999,-0.169435,-0.28921,0.6576799999999999,-0.3395749999999999,0.17001,0.4854999999999999,-0.1637009999999999,0.32386,0.62961,-0.3236949999999999,-0.2535,0.87932,-0.442035,0.29633,0.87618,-0.439915,-0.083235,-0.00103,-5.000000000005e-06,0.083235,0.0010299999999999,5.000000000005e-06,-0.2034599999999999,-0.17061,-0.315455,0.17736,-0.17686,-0.318345,-0.1674999999999999,-0.50805,-0.097755,0.12441,-0.50985,-0.09072,1
57,-0.0026819999999999,0.6892499999999999,-0.154074,-0.156925,0.4724099999999999,-0.175386,-0.288655,0.65111,-0.3491149999999999,0.169545,0.4806199999999999,-0.1696089999999999,0.323915,0.62419,-0.333495,-0.252835,0.8723299999999999,-0.4543549999999999,0.296065,0.8694799999999999,-0.451955,-0.083311,-0.00114,-0.0002649999999999,0.083311,0.0011399999999999,0.000265,-0.206735,-0.15737,-0.320485,0.178405,-0.16269,-0.3249849999999999,-0.167845,-0.49433,-0.1017559999999999,0.123485,-0.4960500000000001,-0.0945269999999999,1
58,-0.0025019999999999,0.68493,-0.1623939999999999,-0.156244,0.46868,-0.181779,-0.288014,0.64659,-0.35887,0.169436,0.4755,-0.175628,0.323986,0.61892,-0.34297,-0.252124,0.86516,-0.46686,0.295656,0.8604900000000001,-0.4642199999999999,-0.0834179999999999,-0.0011399999999999,-0.0005099999999999,0.0834179999999999,0.00114,0.00051,-0.2096539999999999,-0.1427999999999999,-0.3255,0.179786,-0.14803,-0.33132,-0.167964,-0.4805499999999999,-0.1058399999999999,0.122856,-0.48202,-0.098489,1
59,-0.0024565,0.6805049999999999,-0.170731,-0.1553565,0.465371,-0.18811,-0.2875864999999999,0.641045,-0.36924,0.1694635,0.473535,-0.1813409999999999,0.3239335,0.613795,-0.35216,-0.2516265,0.8554649999999999,-0.47964,0.2951335,0.852095,-0.4757,-0.0835885,-0.001235,-0.0007699999999999,0.0835885,0.0012349999999999,0.00077,-0.2122165,-0.128795,-0.33037,0.1811235,-0.134025,-0.3368,-0.1680065,-0.467555,-0.1100929999999999,0.1223034999999999,-0.4685250000000001,-0.1026099999999999,1
60,-0.002232,0.6748700000000001,-0.1795549999999999,-0.154443,0.461969,-0.1945469999999999,-0.286933,0.63422,-0.380335,0.169537,0.470432,-0.1871979999999999,0.323937,0.60792,-0.3617849999999999,-0.250923,0.84503,-0.493075,0.294867,0.8429,-0.488185,-0.083689,-0.0013799999999999,-0.0011549999999999,0.083689,0.0013799999999999,0.001155,-0.214653,-0.11613,-0.335095,0.1828469999999999,-0.1200899999999999,-0.3419649999999999,-0.167863,-0.45305,-0.1141059999999999,0.1219869999999999,-0.45458,-0.1066469999999999,1
61,-0.0021259999999999,0.669795,-0.187413,-0.153628,0.458264,-0.20042,-0.286368,0.6252150000000001,-0.39027,0.169582,0.467422,-0.192458,0.324012,0.6011150000000001,-0.3702,-0.250318,0.8378450000000001,-0.50596,0.294792,0.835365,-0.5,-0.083686,-0.0016649999999999,-0.0015199999999999,0.083686,0.001665,0.0015199999999999,-0.216828,-0.104105,-0.33938,0.184732,-0.1068749999999999,-0.34601,-0.167738,-0.4404849999999999,-0.117908,0.121712,-0.4416049999999999,-0.110358,1
62,-0.0020565,0.6647150000000001,-0.193996,-0.1530095,0.454423,-0.205254,-0.2862195,0.616965,-0.39908,0.1696204999999999,0.464206,-0.196842,0.3240805,0.5944750000000001,-0.3771,-0.2497395,0.831855,-0.5183599999999999,0.2948604999999999,0.8261850000000001,-0.5111600000000001,-0.0836835,-0.0020549999999999,-0.00182,0.0836835,0.002055,0.0018199999999999,-0.2185795,-0.093665,-0.34285,0.1863804999999999,-0.0955349999999999,-0.34903,-0.1676795,-0.4299449999999999,-0.120995,0.1215904999999999,-0.4303949999999999,-0.113406,1
63,-0.00184,0.65919,-0.199943,-0.152246,0.450335,-0.209417,-0.285976,0.60838,-0.406875,0.169824,0.460156,-0.200478,0.324144,0.58765,-0.382835,-0.249086,0.8236000000000001,-0.530435,0.2952639999999999,0.81626,-0.521135,-0.083841,-0.0022599999999999,-0.002095,0.083841,0.00226,0.0020949999999999,-0.220076,-0.0838299999999999,-0.345505,0.188014,-0.08477,-0.351425,-0.167496,-0.42013,-0.123472,0.1216839999999999,-0.41959,-0.115822,1
64,-0.001162,0.654305,-0.206,-0.151241,0.447612,-0.213872,-0.285291,0.601185,-0.414765,0.170399,0.457107,-0.204231,0.324459,0.579215,-0.388285,-0.247911,0.815795,-0.542565,0.295899,0.8073250000000001,-0.531165,-0.083997,-0.001935,-0.0022649999999999,0.083997,0.001935,0.0022649999999999,-0.221011,-0.072125,-0.348295,0.189979,-0.0722149999999999,-0.354075,-0.166851,-0.4085749999999999,-0.126176,0.122259,-0.4071649999999999,-0.118465,1
65,-0.0002149999999999,0.64889,-0.211552,-0.1500709999999999,0.445094,-0.217904,-0.284401,0.5934,-0.421905,0.171149,0.455179,-0.207378,0.324949,0.5712200000000001,-0.392875,-0.2465909999999999,0.80768,-0.553795,0.296749,0.79949,-0.540525,-0.084199,-0.00191,-0.002435,0.084199,0.00191,0.0024349999999999,-0.221661,-0.06119,-0.350665,0.192039,-0.0607,-0.356205,-0.165951,-0.39797,-0.128444,0.123079,-0.3957,-0.120685,1
66,0.0007699999999999,0.6440899999999999,-0.216454,-0.148819,0.4434089999999999,-0.221426,-0.283469,0.5866399999999999,-0.428245,0.171761,0.45274,-0.210048,0.325561,0.56429,-0.396665,-0.245329,0.80044,-0.5640750000000001,0.297691,0.79109,-0.549215,-0.084312,-0.00154,-0.002595,0.084312,0.0015399999999999,0.0025949999999999,-0.222159,-0.05025,-0.352585,0.194101,-0.0492799999999999,-0.357575,-0.164929,-0.3873500000000001,-0.13038,0.124061,-0.38429,-0.122585,1
67,0.001602,0.63998,-0.220549,-0.147748,0.440462,-0.224376,-0.282598,0.58075,-0.433655,0.172262,0.450624,-0.212555,0.326042,0.559234,-0.3993649999999999,-0.244218,0.79413,-0.5731649999999999,0.298662,0.7857000000000001,-0.5565549999999999,-0.084384,-0.00152,-0.0027549999999999,0.084384,0.00152,0.002755,-0.222578,-0.03919,-0.3542149999999999,0.195962,-0.03792,-0.358405,-0.164068,-0.37671,-0.1320489999999999,0.124942,-0.37293,-0.1242289999999999,1
68,0.0023454999999999,0.63569,-0.224063,-0.1468865,0.438444,-0.226662,-0.2818765,0.575055,-0.437935,0.1727535,0.448868,-0.214488,0.3265134999999999,0.553893,-0.401715,-0.2431665,0.78963,-0.580965,0.2995535,0.77981,-0.563355,-0.0843915,-0.0015999999999999,-0.002865,0.0843915,0.0015999999999999,0.0028649999999999,-0.2229165,-0.02876,-0.355325,0.1976335,-0.02722,-0.358895,-0.1632765,-0.3664999999999999,-0.133273,0.1258535,-0.3621499999999999,-0.125418,1
69,0.0030199999999999,0.63294,-0.226399,-0.146016,0.4377039999999999,-0.227966,-0.281196,0.570681,-0.44023,0.1731639999999999,0.4475419999999999,-0.215759,0.327034,0.549759,-0.40332,-0.242076,0.7856799999999999,-0.5869,0.300444,0.7741499999999999,-0.56796,-0.084391,-0.00158,-0.00297,0.084391,0.0015799999999999,0.00297,-0.222896,-0.01958,-0.35598,0.199124,-0.01791,-0.3589,-0.162476,-0.3575,-0.134162,0.126714,-0.35284,-0.126258,1
70,0.0036694999999999,0.63046,-0.228374,-0.1452545,0.437151,-0.2292179999999999,-0.2807345,0.568474,-0.44248,0.1734155,0.445972,-0.21703,0.3272655,0.545415,-0.40495,-0.2412045,0.78269,-0.5917399999999999,0.3010355,0.77064,-0.57167,-0.0843875,-0.0014,-0.0030999999999999,0.0843875,0.0014,0.0030999999999999,-0.2227245,-0.01074,-0.35661,0.2004254999999999,-0.0089499999999999,-0.359,-0.1617845,-0.3487699999999999,-0.135053,0.1274855,-0.34389,-0.1271209999999999,1
71,0.004088,0.6291249999999999,-0.230075,-0.1447679999999999,0.4367499999999999,-0.230475,-0.280448,0.566611,-0.444445,0.173352,0.444045,-0.218504,0.327332,0.542535,-0.406725,-0.2405979999999999,0.779625,-0.5956950000000001,0.301232,0.7677350000000001,-0.575115,-0.08446,-0.001175,-0.003285,0.08446,0.001175,0.0032849999999999,-0.2226179999999999,-0.003175,-0.357295,0.201422,-0.001305,-0.359015,-0.1613979999999999,-0.341215,-0.136159,0.127942,-0.336125,-0.128173,1
72,0.0044725,0.628395,-0.2314319999999999,-0.1443704999999999,0.437536,-0.2316959999999999,-0.2800905,0.565204,-0.446195,0.1732595,0.445108,-0.2197579999999999,0.3273095,0.54011,-0.408485,-0.2401805,0.7779149999999999,-0.5988249999999999,0.3013694999999999,0.765775,-0.578195,-0.0843405,-0.0010449999999999,-0.003415,0.0843405,0.0010449999999999,0.003415,-0.2222305,0.0022149999999999,-0.358105,0.2022695,0.0041949999999999,-0.3589949999999999,-0.1610504999999999,-0.335765,-0.13738,0.1283295,-0.330745,-0.1292589999999999,1
73,0.0048694999999999,0.6274949999999999,-0.2325729999999999,-0.1440665,0.4374999999999999,-0.232837,-0.2798865,0.564082,-0.447475,0.1731535,0.4449899999999999,-0.220903,0.3272335,0.5389229999999999,-0.410205,-0.2397765,0.775965,-0.6010249999999999,0.3014835,0.7635149999999999,-0.580565,-0.0842035,-0.001045,-0.0036449999999999,0.0842035,0.0010449999999999,0.003645,-0.2217665,0.0025249999999998,-0.3585049999999999,0.2030335,0.0045549999999999,-0.358735,-0.1606465,-0.3353050000000001,-0.1384979999999999,0.1287734999999999,-0.330355,-0.130251,1
74,0.0051734999999999,0.6274949999999999,-0.2339379999999999,-0.1438355,0.4374999999999999,-0.234203,-0.2796555,0.564082,-0.44884,0.1727845,0.4449899999999999,-0.222275,0.3269545,0.5389229999999999,-0.4119,-0.2393954999999999,0.775965,-0.60319,0.3014745,0.7635149999999999,-0.5831299999999999,-0.0841285,-0.001045,-0.0038199999999999,0.0841285,0.0010449999999999,0.0038199999999999,-0.2214055,0.0022449999999999,-0.35875,0.2036645,0.0045549999999999,-0.35847,-0.1603155,-0.335515,-0.13983,0.1291445,-0.3306150000000001,-0.131425,1
75,0.005511,0.6274949999999999,-0.235679,-0.143599,0.4374999999999999,-0.235757,-0.279479,0.564082,-0.45059,0.172581,0.4449899999999999,-0.223889,0.326381,0.5389229999999999,-0.41365,-0.239219,0.775965,-0.60494,0.301121,0.7635149999999999,-0.58534,-0.084065,-0.001045,-0.00378,0.084065,0.0010449999999999,0.0037799999999999,-0.221049,0.0021249999999999,-0.35888,0.204031,0.0044549999999999,-0.35842,-0.159969,-0.335515,-0.141536,0.129521,-0.3307150000000001,-0.132838,1
76,0.0059225,0.6274949999999999,-0.2370479999999999,-0.1433084999999999,0.4374999999999999,-0.237258,-0.2791685,0.564082,-0.4523749999999999,0.1724515,0.4449899999999999,-0.225222,0.3258014999999999,0.5389229999999999,-0.416085,-0.2387784999999999,0.775965,-0.606725,0.3006014999999999,0.7635149999999999,-0.587135,-0.0840175,-0.001045,-0.003865,0.0840175,0.0010449999999999,0.003865,-0.2204785,0.0021249999999999,-0.358965,0.2044715,0.0044549999999999,-0.358105,-0.1595285,-0.335515,-0.143285,0.1300315,-0.3307150000000001,-0.1342809999999999,1
77,0.0062345,0.628225,-0.237644,-0.1431005,0.43672,-0.23853,-0.2788204999999999,0.563627,-0.453805,0.1721995,0.443529,-0.226468,0.3250195,0.539205,-0.418935,-0.2381404999999999,0.775215,-0.6084849999999999,0.2999495,0.761545,-0.588915,-0.0840414999999999,-0.0008549999999999,-0.0038449999999999,0.0840414999999999,0.000855,0.003845,-0.2196904999999999,-0.0001649999999999,-0.358935,0.2048695,0.0021849999999999,-0.357665,-0.1591405,-0.3377949999999999,-0.145036,0.1305195,-0.3329749999999999,-0.135699,1
78,0.006311,0.630075,-0.2368,-0.143278,0.435879,-0.23849,-0.2787779999999999,0.565065,-0.454135,0.171602,0.444184,-0.226843,0.323462,0.5399360000000001,-0.420965,-0.237918,0.7757750000000001,-0.609015,0.298632,0.7619150000000001,-0.589955,-0.0839999999999999,-0.0012749999999999,-0.0037649999999999,0.0839999999999999,0.001275,0.0037649999999999,-0.218778,-0.0077149999999999,-0.357825,0.204742,-0.0054449999999999,-0.355815,-0.159108,-0.3453649999999999,-0.146016,0.130822,-0.340615,-0.1363599999999999,1
79,0.0060095,0.6324799999999999,-0.234712,-0.1436215,0.4373749999999999,-0.237478,-0.2789515,0.5656399999999999,-0.4526,0.1708685,0.444909,-0.2260889999999999,0.3219285,0.541386,-0.4211399999999999,-0.2378715,0.77528,-0.60778,0.2971185,0.76294,-0.5900299999999999,-0.0839915,-0.00117,-0.0035999999999999,0.0839915,0.00117,0.0035999999999999,-0.2177615,-0.01926,-0.35567,0.2043984999999999,-0.01707,-0.3526,-0.1592715,-0.35686,-0.146064,0.1309885,-0.35221,-0.136127,1
80,0.005388,0.63636,-0.231815,-0.144421,0.439488,-0.23598,-0.279401,0.569433,-0.450745,0.169719,0.4456159999999999,-0.225027,0.320049,0.545245,-0.420815,-0.238221,0.77922,-0.6047549999999999,0.295209,0.76669,-0.588835,-0.084032,-0.001,-0.0036049999999999,0.084032,0.001,0.0036049999999999,-0.216601,-0.03306,-0.352755,0.203469,-0.03118,-0.349335,-0.159721,-0.37111,-0.145897,0.130859,-0.36663,-0.135751,1
81,0.004975,0.641795,-0.228603,-0.145154,0.44321,-0.234306,-0.279494,0.575445,-0.4486,0.168686,0.446927,-0.223765,0.3182959999999999,0.551009,-0.42042,-0.2384939999999999,0.783485,-0.60141,0.293276,0.773245,-0.58718,-0.084095,-0.0007449999999999,-0.0035999999999999,0.084095,0.0007449999999999,0.0035999999999999,-0.215314,-0.0486149999999999,-0.34996,0.202526,-0.0474449999999999,-0.3462199999999999,-0.160104,-0.387665,-0.145685,0.130796,-0.383425,-0.135378,1
82,0.0043104999999999,0.6472450000000001,-0.224008,-0.1459345,0.446457,-0.231891,-0.2793545,0.581445,-0.445165,0.1678754999999999,0.448048,-0.222275,0.3162755,0.559385,-0.420335,-0.2388445,0.791015,-0.5961350000000001,0.2910555,0.7805550000000001,-0.584045,-0.0840645,-0.0004549999999999,-0.003505,0.0840645,0.000455,0.0035049999999999,-0.2127645,-0.0700049999999999,-0.345475,0.2003355,-0.0703849999999999,-0.341555,-0.1605945,-0.412535,-0.14559,0.1307355,-0.408805,-0.135279,1
83,0.0035745,0.6550050000000001,-0.2185349999999999,-0.1469035,0.450153,-0.2287419999999999,-0.2791234999999999,0.590285,-0.440145,0.1672465,0.452862,-0.220212,0.3142465,0.568695,-0.4192749999999999,-0.2394335,0.799895,-0.589555,0.2887365,0.791705,-0.579325,-0.0839795,-0.0001849999999999,-0.0031449999999999,0.0839795,0.0001849999999999,0.003145,-0.2100635,-0.092115,-0.3405049999999999,0.1975465,-0.094015,-0.3360649999999999,-0.1612535,-0.438445,-0.1450509999999999,0.1304865,-0.435595,-0.134735,1
84,0.00256,0.663305,-0.211639,-0.148196,0.455133,-0.224694,-0.279106,0.598705,-0.43338,0.166384,0.456487,-0.217147,0.312164,0.5786549999999999,-0.4163,-0.2400459999999999,0.809035,-0.58057,0.286424,0.803105,-0.5725899999999999,-0.083883,-0.000185,-0.0028999999999999,0.083883,0.0001849999999999,0.0029,-0.207196,-0.116075,-0.33408,0.1939739999999999,-0.119335,-0.3291199999999999,-0.162136,-0.467105,-0.143596,0.130134,-0.464395,-0.133276,1
85,0.0015399999999999,0.6724,-0.203695,-0.149515,0.4603,-0.219581,-0.278845,0.6111500000000001,-0.425325,0.165555,0.46069,-0.213198,0.310175,0.59276,-0.412275,-0.240565,0.8245199999999999,-0.570085,0.284325,0.81757,-0.563685,-0.08378,-1.000000000001e-05,-0.002675,0.08378,1.000000000001e-05,0.002675,-0.203855,-0.1392399999999999,-0.326385,0.189995,-0.1437,-0.321335,-0.163775,-0.49571,-0.142929,0.130905,-0.49321,-0.133767,1
86,0.0011144999999999,0.68163,-0.194494,-0.1502095,0.46609,-0.213012,-0.2778695,0.62355,-0.41548,0.1653205,0.46704,-0.207923,0.3089405,0.6049800000000001,-0.40659,-0.2407395,0.83773,-0.55725,0.2828505,0.83109,-0.55254,-0.0835694999999999,-0.0001499999999999,-0.0024,0.0835694999999999,0.00015,0.0023999999999999,-0.1993795,-0.1623799999999999,-0.31671,0.1861105,-0.1675999999999999,-0.31181,-0.1647195,-0.5254099999999999,-0.140928,0.1322405,-0.52323,-0.133175,1
87,0.0003129999999999,0.690175,-0.1843499999999999,-0.151214,0.471995,-0.205363,-0.277174,0.634865,-0.403625,0.164736,0.471545,-0.2012419999999999,0.307536,0.618665,-0.3988549999999999,-0.241554,0.852085,-0.542465,0.281086,0.8467450000000001,-0.539535,-0.083394,4.500000000001725e-05,-0.0022349999999999,0.083394,-4.500000000001725e-05,0.002235,-0.195144,-0.183085,-0.304975,0.181766,-0.189365,-0.300725,-0.166124,-0.5532649999999999,-0.1373599999999999,0.133196,-0.5520849999999999,-0.1308019999999999,1
88,0.000417,0.6965600000000001,-0.171246,-0.1509629999999999,0.47784,-0.197223,-0.275563,0.64746,-0.38894,0.164797,0.47522,-0.194019,0.306417,0.6331800000000001,-0.38778,-0.2414029999999999,0.86866,-0.52418,0.281267,0.86477,-0.52352,-0.0834989999999999,0.00023,-0.0018799999999999,0.0834989999999999,-0.00023,0.0018799999999999,-0.189243,-0.20475,-0.28854,0.177977,-0.2118,-0.28579,-0.165853,-0.58276,-0.12981,0.134307,-0.5825,-0.123399,1
89,-0.0008565,0.7003,-0.1567629999999999,-0.1526775,0.48305,-0.1866999999999999,-0.2761075,0.65957,-0.372255,0.1640325,0.47697,-0.1849299999999999,0.3026625,0.64457,-0.3730949999999999,-0.2431675,0.88296,-0.504895,0.2787825,0.8803799999999999,-0.505835,-0.0832555,0.0008599999999999,-0.0016349999999999,0.0832555,-0.0008599999999999,0.001635,-0.1848675,-0.2321,-0.2710349999999999,0.1726325,-0.23887,-0.269235,-0.1671175,-0.612,-0.1213799999999999,0.1333425,-0.61244,-0.1151119999999999,1
90,-0.002102,0.701765,-0.142511,-0.154227,0.487685,-0.176396,-0.276647,0.6715249999999999,-0.35443,0.163593,0.479065,-0.177138,0.298983,0.655315,-0.3570299999999999,-0.244447,0.897895,-0.48484,0.276373,0.894455,-0.48761,-0.08307,0.0011049999999999,-0.0012899999999999,0.08307,-0.0011049999999999,0.00129,-0.180087,-0.258735,-0.25245,0.166893,-0.265015,-0.2514699999999999,-0.168207,-0.640575,-0.113269,0.132473,-0.641235,-0.107189,1
91,-0.002995,0.7007249999999999,-0.1224759999999999,-0.15546,0.490865,-0.159297,-0.27719,0.683815,-0.32963,0.1640499999999999,0.483425,-0.1618969999999999,0.2955299999999999,0.6679849999999999,-0.33479,-0.24544,0.914095,-0.45635,0.2742199999999999,0.906205,-0.4603699999999999,-0.082944,0.0013949999999999,-0.0011099999999999,0.082944,-0.001395,0.0011099999999999,-0.1743799999999999,-0.284345,-0.2233669999999999,0.16101,-0.289465,-0.2229789999999999,-0.16892,-0.6662750000000001,-0.097105,0.1317999999999999,-0.666285,-0.092028,1
92,-0.0035899999999999,0.703525,-0.100441,-0.157777,0.498255,-0.139725,-0.277727,0.693025,-0.30342,0.164703,0.486525,-0.144388,0.292163,0.677175,-0.31053,-0.246647,0.926525,-0.42371,0.272273,0.917985,-0.42913,-0.082501,0.001525,-0.0008999999999999,0.082501,-0.0015249999999999,0.0008999999999999,-0.168347,-0.315265,-0.189042,0.1541429999999999,-0.319245,-0.189235,-0.1694169999999999,-0.697055,-0.078369,0.1312829999999999,-0.695955,-0.07381,1
93,-0.0042524999999999,0.705211,-0.079491,-0.1600015,0.503211,-0.120973,-0.2783015,0.703621,-0.278428,0.1659185,0.492671,-0.127409,0.2890185,0.687661,-0.287128,-0.2478115,0.939161,-0.392238,0.2706185,0.929291,-0.398938,-0.0821254999999999,0.001611,-0.0005669999999999,0.0821254999999999,-0.001611,0.0005669999999999,-0.1627515,-0.343669,-0.156192,0.1478785,-0.3465789999999999,-0.156535,-0.1698815,-0.724649,-0.060146,0.1307385,-0.722609,-0.05615,1
94,-0.0044765,0.70645,-0.0589075,-0.1618145,0.50847,-0.1025065,-0.2786145,0.71122,-0.2534705,0.1674054999999999,0.49791,-0.1108675,0.2862955,0.69545,-0.2636805,-0.2487045,0.94698,-0.3600305,0.2691455,0.9387,-0.3689105,-0.0816455,0.0016,-0.0001785,0.0816455,-0.0016,0.0001784999999999,-0.1571545,-0.37045,-0.1237145,0.1421355,-0.37235,-0.1237835,-0.1700645,-0.74987,-0.0422655,0.1305055,-0.74706,-0.0386035,1
95,-0.0044325,0.7063665,-0.0390595,-0.1634065,0.5134865,-0.0844055,-0.2787465,0.7181265,-0.2291135,0.1690235,0.5021765,-0.0944095,0.2838235,0.7033665,-0.2403934999999999,-0.2497165,0.9564765,-0.3285135,0.2679935,0.9493265,-0.3394035,-0.0813105,0.0016185,0.0004964999999999,0.0813105,-0.0016185,-0.0004965,-0.1520365,-0.3937635,-0.0925655,0.1369435,-0.3956834999999999,-0.0914865,-0.1701165,-0.7717235,-0.0246125,0.1304334999999999,-0.7681635,-0.0212555,1
96,-0.004283,0.706169,-0.0199444999999999,-0.164721,0.517409,-0.0671485,-0.278681,0.724539,-0.2056895,0.170899,0.506639,-0.0786224999999999,0.281849,0.709159,-0.2180995,-0.250251,0.963369,-0.2985995,0.267209,0.956029,-0.3108094999999999,-0.080827,0.0014999999999999,0.0009955,0.080827,-0.0015,-0.0009954999999999,-0.147161,-0.4140009999999999,-0.0631994999999999,0.132209,-0.415651,-0.0605094999999999,-0.1699109999999999,-0.791331,-0.0076174999999999,0.130629,-0.7860509999999999,-0.0044654999999999,1
97,-0.0039565,0.7073975,-0.0034215,-0.1659895,0.5208575000000001,-0.0514715,-0.2788295,0.7297475,-0.1848775,0.1728704999999999,0.5117175,-0.0647105,0.2806305,0.7127575,-0.1980775,-0.2510995,0.9686175,-0.2716175,0.2667605,0.9595275,-0.2848875,-0.0802725,0.0012935,0.0013594999999999,0.0802725,-0.0012934999999999,-0.0013594999999999,-0.1433094999999999,-0.4279825,-0.0381925,0.1279405,-0.4294025,-0.0333285,-0.1687894999999999,-0.8053125,0.0100425,0.1297404999999999,-0.7996825,0.0141394999999999,1
98,-0.0036609999999999,0.710103,0.0116595,-0.1672429999999999,0.524123,-0.0362115,-0.279323,0.7328129999999999,-0.1650885,0.1744669999999999,0.518463,-0.0515345,0.280597,0.717293,-0.1804684999999999,-0.252023,0.971833,-0.2460185,0.266497,0.962633,-0.2610885,-0.079764,0.0006709999999999,0.0017984999999999,0.079764,-0.0006709999999999,-0.0017985,-0.139903,-0.441277,-0.0146455,0.123667,-0.441977,-0.0074205,-0.1676829999999999,-0.817507,0.0272175,0.128647,-0.811697,0.0324855,1
99,-0.0032894999999999,0.7135545,0.026429,-0.1683275,0.5263745,-0.021093,-0.2799875,0.7341344999999999,-0.146998,0.1758124999999999,0.5239745,-0.038196,0.2807025,0.7205944999999999,-0.164518,-0.2526474999999999,0.9741045,-0.2214979999999999,0.2665725,0.9650945,-0.238498,-0.0792995,0.0003715,0.002087,0.0792995,-0.0003715,-0.002087,-0.1367775,-0.4551055,0.0075079999999999,0.1200225,-0.4548055,0.017072,-0.1665675,-0.8287455,0.044422,0.1278225,-0.8229855,0.050505,1
100,-0.002794,0.7197965,0.033465,-0.169315,0.5306765,-0.013814,-0.280615,0.7352265,-0.137742,0.176955,0.5277565,-0.032135,0.281075,0.7207564999999999,-0.156602,-0.253245,0.9724665,-0.207852,0.266895,0.9692465,-0.227212,-0.078823,2.5499999999997747e-05,0.002362,0.078823,-2.5500000000001216e-05,-0.0023619999999999,-0.135615,-0.4669335,0.016534,0.117875,-0.4658135,0.028472,-0.166105,-0.8363935,0.051157,0.127505,-0.8295335,0.057844,1
101,-0.0024204999999999,0.7198844999999999,0.037794,-0.1691185,0.5306145,-0.0096369999999999,-0.2810085,0.7368045,-0.131297,0.1781015,0.5288845,-0.028548,0.2813415,0.7230945,-0.151547,-0.2539285,0.9737245,-0.199257,0.2670515,0.9697045,-0.221087,-0.0784105,-1.2500000000002093e-05,0.002492,0.0784105,1.2499999999998623e-05,-0.0024919999999999,-0.1350585,-0.4671955,0.02053,0.1171815,-0.4658755,0.033723,-0.1657285,-0.8374355,0.055156,0.1276415,-0.8297255,0.062001,1
102,-0.001993,0.7199945,0.0418884999999999,-0.16886,0.5306145,-0.0056585,-0.28141,0.7370445,-0.1253565,0.17853,0.5288845,-0.0250635,0.28183,0.7230945,-0.1470765,-0.25458,0.9741645,-0.1915965,0.26717,0.9697045,-0.2159165,-0.077949,-1.2500000000002093e-05,0.0026134999999999,0.077949,1.2499999999998623e-05,-0.0026134999999999,-0.13457,-0.4673955,0.0245115,0.11653,-0.4658755,0.0385925,-0.1653,-0.8380155,0.0591364999999999,0.12784,-0.8297255,0.0660685,1
103,-0.0020245,0.7200445,0.0452325,-0.1691244999999999,0.5306145,-0.0019644999999999,-0.2823445,0.7370445,-0.1204905,0.1784955,0.5288845,-0.0213674999999999,0.2817955,0.7230945,-0.1433805,-0.2556845,0.9741645,-0.1860405,0.2668355,0.9697045,-0.2122205,-0.0779505,-1.2500000000002093e-05,0.0027975,0.0779505,1.2499999999998623e-05,-0.0027974999999999,-0.1346045,-0.4675855,0.0282075,0.1156355,-0.4658955,0.0423405,-0.1654145,-0.8385355000000001,0.0628325,0.1276255,-0.8305555,0.0697845,1
104,-0.0015824999999999,0.7203470000000001,0.0485705,-0.1689425,0.530877,0.0013705,-0.2826125,0.7373470000000001,-0.1166714999999999,0.1790775,0.5291870000000001,-0.0186744999999999,0.2821775,0.7233970000000001,-0.1400414999999999,-0.2563425,0.974467,-0.1821315,0.2672875,0.970007,-0.2088915,-0.0778715,3.099999999999978e-05,0.0027145,0.0778715,-3.099999999999978e-05,-0.0027144999999999,-0.1340225,-0.467283,0.0306085,0.1154675,-0.465423,0.0456725,-0.1649425,-0.8384229999999999,0.0661705,0.1280075,-0.831073,0.0731215,1
105,-0.0012114999999999,0.7207445,0.0517119999999999,-0.1688945,0.5311545,0.0045,-0.2830745,0.7377445,-0.113539,0.1790755,0.5291645,-0.0155369999999999,0.2826155,0.7233245,-0.136899,-0.2570345,0.9748645,-0.178999,0.2676955,0.9703545,-0.205749,-0.0778035,-2.8500000000000747e-05,0.002679,0.0778035,2.849999999999728e-05,-0.002679,-0.1334644999999999,-0.4670855,0.0324669999999999,0.1153855,-0.4649855,0.048809,-0.1644745,-0.8380255,0.069197,0.1284155,-0.8313955000000001,0.076263,0
106,-0.001039,0.7211040000000001,0.054301,-0.1688619999999999,0.5313540000000001,0.007187,-0.283622,0.7373040000000001,-0.110775,0.178848,0.5289140000000001,-0.013245,0.283048,0.7227640000000001,-0.134165,-0.257822,0.974494,-0.176245,0.268108,0.969994,-0.203255,-0.077772,-8.599999999999927e-05,0.002643,0.077772,8.599999999999927e-05,-0.0026429999999999,-0.133052,-0.467016,0.033559,0.1152779999999999,-0.464626,0.051577,-0.164092,-0.8376659999999999,0.071847,0.128768,-0.8314959999999999,0.079036,0
107,-0.0010619999999999,0.7213355,0.0559949999999999,-0.169084,0.5312855000000001,0.0089509999999999,-0.284254,0.7361455,-0.1086379999999999,0.1785459999999999,0.5285955,-0.011874,0.283346,0.7219855000000001,-0.132608,-0.2586739999999999,0.9736655,-0.1741079999999999,0.268316,0.9691255,-0.2023879999999999,-0.077766,-0.0001425,0.0026999999999999,0.077766,0.0001425,-0.0027,-0.132884,-0.4670145,0.0340269999999999,0.115156,-0.4643545,0.052911,-0.163804,-0.8373944999999999,0.07391,0.129016,-0.8315445,0.081123,0
108,-0.0013455,0.7213965,0.0567325,-0.1693994999999999,0.5311865,0.0102065,-0.2850094999999999,0.7350464999999999,-0.1070854999999999,0.1783004999999999,0.5283165,-0.0110054999999999,0.2835505,0.7209464999999999,-0.1318655,-0.2595794999999999,0.9730665,-0.1724055,0.2683805,0.9682865,-0.2027955,-0.0777805,-0.0001934999999999,0.0027185,0.0777805,0.0001934999999999,-0.0027185,-0.1327795,-0.4670535,0.0342065,0.1150805,-0.4639835,0.0536385,-0.1635595,-0.8369835,0.0757275,0.1291804999999999,-0.8315635,0.0829495,0
109,-0.0016779999999999,0.7214455000000001,0.0571395,-0.1697989999999999,0.5308755000000001,0.0108195,-0.285829,0.7339755,-0.1064614999999999,0.177991,0.5279455000000001,-0.0103585,0.283671,0.7198855000000001,-0.1319914999999999,-0.260559,0.9723955,-0.1720015,0.268271,0.9672955,-0.2039315,-0.077792,-0.0002774999999999,0.0027375,0.077792,0.0002774999999999,-0.0027374999999999,-0.1326589999999999,-0.4671345,0.0342725,0.115171,-0.4636845,0.0542915,-0.163289,-0.8363744999999999,0.0773745,0.129411,-0.8315245,0.0846755,0
110,-0.0020964999999999,0.7214495000000001,0.0573305,-0.1703085,0.5305795000000001,0.0112554999999999,-0.2867085,0.7329095,-0.1066925,0.1774815,0.5274895000000001,-0.0099824999999999,0.2837015,0.7187295,-0.1322025,-0.2616084999999999,0.9716595,-0.1722725,0.2680515,0.9661795,-0.2051325,-0.0777875,-0.0003214999999999,0.0028144999999999,0.0777875,0.0003215,-0.0028144999999999,-0.1325684999999999,-0.4672005,0.0343035,0.1152215,-0.4633805,0.0547875,-0.1629785,-0.8357505,0.0790335,0.1296315,-0.8314705,0.0863815,0
111,-0.0026465,0.7214245,0.0573695,-0.1709345,0.5302344999999999,0.0114814999999999,-0.2876945,0.7317845,-0.1070855,0.1766455,0.5269145,-0.0095384999999999,0.2836355,0.7175545,-0.1324955,-0.2627345,0.9708045,-0.1728955,0.2676955,0.9648545,-0.2065255,-0.0777945,-0.0003475,0.0028045,0.0777945,0.0003475,-0.0028045,-0.1326145,-0.4672255,0.0342494999999999,0.1152354999999999,-0.4631955,0.0551225,-0.1627645,-0.8351655,0.0806524999999999,0.1297955,-0.8312555,0.0880845,0
112,-0.003142,0.7214165,0.0572595,-0.17151,0.5299665,0.0115824999999999,-0.28861,0.7306765000000001,-0.1076024999999999,0.17584,0.5263865,-0.0092575,0.28364,0.7164065000000001,-0.1329625,-0.26377,0.9700365,-0.1737925,0.26743,0.9636465,-0.2079025,-0.077787,-0.0003575,0.0027714999999999,0.077787,0.0003575,-0.0027715,-0.1326,-0.4672334999999999,0.0342445,0.11529,-0.4629635,0.0553865,-0.16249,-0.8345435,0.0821625,0.12999,-0.8310235,0.0896754999999999,0
113,-0.003588,0.7214625,0.0569034999999999,-0.171961,0.5297925,0.0116525,-0.289441,0.7296524999999999,-0.1082225,0.1750989999999999,0.5259925,-0.0091204999999999,0.283719,0.7152725,-0.1334225,-0.264701,0.9693725,-0.1748725,0.267339,0.9625925,-0.2093625,-0.077772,-0.0003554999999999,0.0027435,0.077772,0.0003555,-0.0027435,-0.132521,-0.4672475,0.0342335,0.115399,-0.4626875,0.0556274999999999,-0.162181,-0.8338675000000001,0.0835085,0.130219,-0.8307275000000001,0.0910865,0
114,-0.0040754999999999,0.7214695,0.0563325,-0.1723835,0.5296295,0.0116545,-0.2902135,0.7286495,-0.1088805,0.1745765,0.5254195,-0.0090944999999999,0.2838265,0.7142395,-0.1339004999999999,-0.2656035,0.9685695,-0.1762004999999999,0.2673164999999999,0.9616695,-0.2108104999999999,-0.0777595,-0.0003495,0.0026685,0.0777595,0.0003494999999999,-0.0026684999999999,-0.1324535,-0.4672405,0.0341845,0.1154564999999999,-0.4625305,0.0556705,-0.1618735,-0.8331805,0.0846985,0.1304265,-0.8304305,0.0923575,0
115,-0.004452,0.721522,0.0559545,-0.172836,0.529482,0.0114925,-0.290836,0.727952,-0.1094214999999999,0.174154,0.524972,-0.0091434999999999,0.2839939999999999,0.713252,-0.1343714999999999,-0.266296,0.967952,-0.1774115,0.267424,0.960962,-0.2120415,-0.077749,-0.000325,0.0025784999999999,0.077749,0.000325,-0.0025784999999999,-0.132426,-0.467228,0.0340455,0.115544,-0.462538,0.0556425,-0.161556,-0.832428,0.0857845,0.1306739999999999,-0.830148,0.0935445,0
116,-0.004807,0.7216315,0.055636,-0.173208,0.5294415,0.011372,-0.291288,0.7279315000000001,-0.109824,0.173752,0.5245215,-0.0090999999999999,0.284252,0.7124615,-0.134684,-0.266758,0.9675815,-0.178254,0.267582,0.9605615,-0.212914,-0.077748,-0.0003095,0.002461,0.077748,0.0003094999999999,-0.0024609999999999,-0.1323679999999999,-0.4672084999999999,0.033929,0.115712,-0.4625284999999999,0.055892,-0.1612279999999999,-0.8316985,0.086822,0.130932,-0.8298485,0.094727,0
117,-0.0049599999999999,0.72187,0.0557099999999999,-0.173568,0.52935,0.0111949999999999,-0.291668,0.72766,-0.110027,0.173332,0.52404,-0.008996,0.2844819999999999,0.71189,-0.134747,-0.267238,0.96686,-0.178987,0.2677819999999999,0.96006,-0.2134769999999999,-0.077741,-0.000288,0.0023299999999999,0.077741,0.000288,-0.0023299999999999,-0.1323379999999999,-0.46718,0.033886,0.1158619999999999,-0.46257,0.056109,-0.160938,-0.83111,0.087795,0.131212,-0.82957,0.095816,0
118,-0.005127,0.7221185,0.0557929999999999,-0.173927,0.5292884999999999,0.0111239999999999,-0.291977,0.7274585,-0.110224,0.172753,0.5235585,-0.008874,0.284723,0.7114985,-0.134614,-0.267657,0.9661785,-0.179324,0.268013,0.9597485,-0.213734,-0.0777569999999999,-0.0002384999999999,0.0021979999999999,0.0777569999999999,0.0002385,-0.002198,-0.132397,-0.4671415,0.0337549999999999,0.116013,-0.4626515,0.056219,-0.160727,-0.8305615000000001,0.088721,0.131433,-0.8292915,0.0967639999999999,0
119,-0.0052595,0.722417,0.0558904999999999,-0.1741895,0.529217,0.0109624999999999,-0.2922695,0.726937,-0.1103415,0.1722305,0.5230870000000001,-0.0086495,0.2849505,0.7111770000000001,-0.1345615,-0.2680895,0.965447,-0.1796915,0.2682305,0.959437,-0.2138915,-0.0777775,-0.000221,0.0020424999999999,0.0777775,0.0002209999999999,-0.0020425,-0.1324195,-0.4671229999999999,0.0335515,0.1162005,-0.462743,0.0563054999999999,-0.1605194999999999,-0.830013,0.0894165,0.1316704999999999,-0.828973,0.0975355,0
120,-0.0053615,0.7228920000000001,0.0558245,-0.1743975,0.5293220000000001,0.0108815,-0.2923075,0.727172,-0.1103165,0.1717925,0.522452,-0.0087754999999999,0.2853825,0.710832,-0.1352865,-0.2674275,0.965712,-0.1804865,0.2686625,0.959312,-0.2144865,-0.0777765,-0.000306,0.0018675,0.0777765,0.0003059999999999,-0.0018675,-0.1323075,-0.467248,0.0331205,0.1164125,-0.463258,0.0562085,-0.1600575,-0.829538,0.0900745,0.1318525,-0.8287279999999999,0.0983495,0
121,-0.0055835,0.7228635000000001,0.056081,-0.1746825,0.5288735,0.010519,-0.2928725,0.7253434999999999,-0.109997,0.1717775,0.5223335,-0.0086339999999999,0.2853075,0.7103335,-0.134627,-0.2687525,0.9627735,-0.180367,0.2685175,0.9585935,-0.214387,-0.0778125,-0.0001965,0.001562,0.0778125,0.0001964999999999,-0.0015619999999999,-0.1324925,-0.4670965,0.033021,0.1165674999999999,-0.4633365,0.056596,-0.1601125,-0.8295465,0.090562,0.1319675,-0.8287465,0.098881,0
122,-0.005604,0.723596,0.056537,-0.175251,0.528436,0.010369,-0.293231,0.7254959999999999,-0.1108049999999999,0.171009,0.5223059999999999,-0.0078149999999999,0.285609,0.7102459999999999,-0.133835,-0.269951,0.961926,-0.180345,0.268769,0.958816,-0.2138149999999999,-0.077945,-0.000156,0.001527,0.077945,0.0001559999999999,-0.001527,-0.132681,-0.4670339999999999,0.033016,0.1166389999999999,-0.4634339999999999,0.056395,-0.160061,-0.8281540000000001,0.091559,0.132499,-0.8286140000000001,0.099715,0
123,-0.0056365,0.7237495,0.0567725,-0.1751825,0.5285895,0.0104454999999999,-0.2934425,0.7228895,-0.1105594999999999,0.1709475,0.5221895000000001,-0.0075275,0.2857575,0.7100995000000001,-0.1334894999999999,-0.2708525,0.9609595,-0.1806895,0.2690275,0.9583595,-0.2134395,-0.0779455,-0.0001674999999999,0.0015234999999999,0.0779455,0.0001675,-0.0015235,-0.1326825,-0.4670705,0.0328725,0.1170274999999999,-0.4633305,0.0566404999999999,-0.1599725,-0.8276905000000001,0.0915765,0.1326175,-0.8283005000000001,0.1000735,0
124,-0.0059665,0.723653,0.0566264999999999,-0.1752445,0.528493,0.0101155,-0.2937545,0.721633,-0.1106615,0.1708354999999999,0.521953,-0.0078825,0.2858855,0.709383,-0.1332515,-0.2721445,0.959613,-0.1814515,0.2689355,0.958313,-0.2131215,-0.0779705,-0.0001909999999999,0.0015125,0.0779705,0.000191,-0.0015125,-0.1327944999999999,-0.467097,0.0327854999999999,0.1169455,-0.463267,0.0568754999999999,-0.1599145,-0.827257,0.0918005,0.1326554999999999,-0.828137,0.1003945,0
125,-0.0063075,0.723661,0.056512,-0.1756955,0.528101,0.010047,-0.2943555,0.720291,-0.110769,0.1705145,0.521961,-0.0076719999999999,0.2857645,0.709381,-0.133029,-0.2732954999999999,0.958731,-0.181929,0.2687545,0.958241,-0.212879,-0.0780025,-0.0001299999999999,0.0016359999999999,0.0780025,0.0001299999999999,-0.0016359999999999,-0.1331755,-0.466999,0.032865,0.1170745,-0.463269,0.056967,-0.1600255,-0.8269989999999999,0.091985,0.1324345,-0.8276089999999999,0.100696,0
126,-0.0063599999999999,0.723744,0.0567579999999999,-0.175743,0.528124,0.0099979999999999,-0.294813,0.721174,-0.111287,0.170167,0.521624,-0.007376,0.285947,0.709304,-0.132807,-0.273893,0.958534,-0.181967,0.269117,0.955684,-0.211827,-0.07803,-7.099999999999988e-05,0.0016129999999999,0.07803,7.099999999999988e-05,-0.001613,-0.133163,-0.4669359999999999,0.0329029999999999,0.117277,-0.463296,0.0570469999999999,-0.159943,-0.8268759999999999,0.0921589999999999,0.132747,-0.827286,0.1008719999999999,0
