sb224sc-HT22-VT27/4dt907/src/ml-research/a11/datafiles/labeled_files/A137_kinect.csv
FrameNo,nose_3d_x,nose_3d_y,nose_3d_z,left_shoulder_3d_x,left_shoulder_3d_y,left_shoulder_3d_z,left_elbow_3d_x,left_elbow_3d_y,left_elbow_3d_z,right_shoulder_3d_x,right_shoulder_3d_y,right_shoulder_3d_z,right_elbow_3d_x,right_elbow_3d_y,right_elbow_3d_z,left_wrist_3d_x,left_wrist_3d_y,left_wrist_3d_z,right_wrist_3d_x,right_wrist_3d_y,right_wrist_3d_z,left_hip_3d_x,left_hip_3d_y,left_hip_3d_z,right_hip_3d_x,right_hip_3d_y,right_hip_3d_z,left_knee_3d_x,left_knee_3d_y,left_knee_3d_z,right_knee_3d_x,right_knee_3d_y,right_knee_3d_z,left_ankle_3d_x,left_ankle_3d_y,left_ankle_3d_z,right_ankle_3d_x,right_ankle_3d_y,right_ankle_3d_z,activity_label
0,0.007912,0.7444055,0.038745,-0.164453,0.4463654999999999,0.060461,-0.1764929999999999,0.2104555,0.051987,0.162217,0.4495755,0.0615249999999999,0.191957,0.2089955,0.05393,-0.188723,0.0081785,-0.033984,0.203997,0.0106865,-0.021299,-0.070951,1.650000000000002e-05,0.001478,0.070951,-1.650000000000002e-05,-0.001478,-0.119113,-0.3333045,-0.016521,0.123697,-0.3496045,0.011049,-0.139283,-0.6857245,0.015353,0.139467,-0.6633545,0.033833,0
1,0.007786,0.744518,0.038639,-0.163047,0.446268,0.060395,-0.180167,0.213748,0.044678,0.162223,0.449838,0.0608309999999999,0.199343,0.220908,0.041368,-0.200857,0.014729,-0.059406,0.212653,0.018672,-0.049722,-0.071008,5.199999999999996e-05,0.001286,0.071008,-5.199999999999996e-05,-0.0012859999999999,-0.119597,-0.3331719999999999,-0.016452,0.123413,-0.3489919999999999,0.010792,-0.139467,-0.685292,0.014275,0.139143,-0.662752,0.03254,0
2,0.007741,0.744416,0.0389785,-0.163723,0.446246,0.0600705,-0.186533,0.224546,0.0325985,0.161967,0.450206,0.0610935,0.2046369999999999,0.229086,0.0349155,-0.211023,0.026392,-0.0847245,0.218017,0.031455,-0.0724544999999999,-0.071027,3.199999999999991e-05,0.0013625,0.071027,-3.199999999999991e-05,-0.0013624999999999,-0.119533,-0.333184,-0.0160205,0.123527,-0.348734,0.0107675,-0.139483,-0.685054,0.0140135,0.139257,-0.662294,0.0318125,0
3,0.007973,0.7444715,0.039706,-0.163981,0.4463114999999999,0.059664,-0.192861,0.2346015,0.023337,0.161939,0.4503014999999999,0.060999,0.212289,0.2388115,0.023559,-0.226971,0.0697485,-0.098802,0.239189,0.0371065,-0.1213519999999999,-0.0710129999999999,-2.750000000000018e-05,0.0012389999999999,0.0710129999999999,2.7499999999999747e-05,-0.0012389999999999,-0.119611,-0.3332285,-0.016159,0.123609,-0.3482185,0.01079,-0.139311,-0.6851985,0.0138059999999999,0.139399,-0.6622785,0.031654,0
4,0.007886,0.7445130000000001,0.0405055,-0.164025,0.446393,0.0590425,-0.1995549999999999,0.241773,0.0116185,0.161595,0.450613,0.0607545,0.218815,0.2487829999999999,0.0108165,-0.235765,0.0803,-0.1145844999999999,0.244505,0.083794,-0.1246544999999999,-0.071045,-0.000124,0.0009555,0.071045,0.0001239999999999,-0.0009554999999999,-0.119875,-0.333247,-0.0158474999999999,0.123765,-0.346427,0.0106505,-0.1391349999999999,-0.685747,0.0134825,0.139645,-0.661997,0.0311815,0
5,0.0078979999999999,0.7446969999999999,0.041811,-0.159984,0.448367,0.058893,-0.212974,0.244687,-0.0235559999999999,0.160586,0.452317,0.058959,0.228326,0.2453169999999999,-0.0280079999999999,-0.260274,0.092784,-0.158001,0.255016,0.08591,-0.160071,-0.071156,-0.000158,0.000893,0.071156,0.0001579999999999,-0.0008929999999999,-0.120324,-0.3331929999999999,-0.0154929999999999,0.123656,-0.346223,0.010607,-0.1391639999999999,-0.686963,0.013509,0.139646,-0.662103,0.031019,0
6,0.007752,0.744595,0.0433905,-0.157509,0.450235,0.0583295,-0.219849,0.255845,-0.0313965,0.159231,0.452925,0.0574405,0.236591,0.273775,-0.0231364999999999,-0.268339,0.128095,-0.1894995,0.265171,0.1387749999999999,-0.1807295,-0.071307,-0.000184,0.0005894999999999,0.071307,0.000184,-0.0005894999999999,-0.120679,-0.333175,-0.0155334999999999,0.1234909999999999,-0.346015,0.0104815,-0.139129,-0.687155,0.0132024999999999,0.139661,-0.662855,0.0306195,0
7,0.0076855,0.744156,0.0459375,-0.1571005,0.451976,0.0555805,-0.2378305,0.3004159999999999,-0.0489785,0.1560095,0.4551659999999999,0.0539375,0.2446795,0.304886,-0.0537225,-0.2851205,0.208546,-0.2218294999999999,0.2893195,0.201576,-0.2437695,-0.0715665,-0.0002619999999999,0.0012204999999999,0.0715665,0.0002619999999999,-0.0012204999999999,-0.1212505,-0.333294,-0.0159125,0.1219995,-0.344584,0.0105225,-0.1397405,-0.687384,0.0125725,0.1393495,-0.6632939999999999,0.0299255,0
8,0.007702,0.7438929999999999,0.047331,-0.155795,0.453223,0.054251,-0.248635,0.321793,-0.064834,0.155085,0.456303,0.05202,0.252845,0.327503,-0.06996,-0.298915,0.255353,-0.24764,0.299415,0.251553,-0.2697299999999999,-0.071714,-0.0003359999999999,0.001334,0.071714,0.000336,-0.001334,-0.121585,-0.333337,-0.0160529999999999,0.121545,-0.3440669999999999,0.010269,-0.139855,-0.688087,0.012083,0.139295,-0.663737,0.029252,0
9,0.0076875,0.743491,0.0486305,-0.1544714999999999,0.454441,0.0524985,-0.2594714999999999,0.345601,-0.0794805,0.1542785,0.457541,0.0500204999999999,0.2603685,0.353711,-0.0853105,-0.3118015,0.306731,-0.2692305,0.3080585,0.303121,-0.2914905,-0.0718725,-0.000366,0.0014914999999999,0.0718725,0.000366,-0.0014914999999999,-0.1218914999999999,-0.333349,-0.0162534999999999,0.1210985,-0.343769,0.0099864999999999,-0.1400015,-0.688949,0.0116705,0.1392385,-0.6643290000000001,0.0286205,0
10,0.0075889999999999,0.7426625,0.0497544999999999,-0.15349,0.4555425,0.0503155,-0.2704999999999999,0.3754125,-0.0902135,0.1536799999999999,0.4593224999999999,0.0479325,0.26672,0.3865825,-0.0957935,-0.32154,0.3685425,-0.2843735,0.31509,0.3667125,-0.3073234999999999,-0.072027,-0.0004054999999999,0.0015715,0.072027,0.0004055,-0.0015715,-0.1222,-0.3333875,-0.0165375,0.12061,-0.3439175,0.0096074999999999,-0.14021,-0.6902375,0.0112094999999999,0.1391099999999999,-0.6653374999999999,0.0280074999999999,0
11,0.0074424999999999,0.7416745,0.050778,-0.1527835,0.4565045,0.047991,-0.2800635,0.4071345,-0.0987409999999999,0.1532065,0.4610545,0.046054,0.2717064999999999,0.4182345,-0.103761,-0.3294435,0.4310745,-0.291161,0.3200865,0.4292445,-0.3161009999999999,-0.0721344999999999,-0.0004504999999999,0.0016299999999999,0.0721344999999999,0.0004504999999999,-0.0016299999999999,-0.1224935,-0.3335355,-0.016781,0.1201965,-0.3442555,0.009252,-0.1404335,-0.6916655,0.010856,0.1389465,-0.6664955,0.027491,0
12,0.0073034999999999,0.7404520000000001,0.0514489999999999,-0.1522005,0.457292,0.045897,-0.2853705,0.437302,-0.100975,0.1530595,0.462562,0.0444679999999999,0.2756294999999999,0.449822,-0.107725,-0.3346005,0.490582,-0.2919449999999999,0.3199995,0.488022,-0.3164749999999999,-0.0721904999999999,-0.000482,0.001686,0.0721904999999999,0.0004819999999999,-0.001686,-0.1227505,-0.333878,-0.016968,0.1198795,-0.344898,0.0088619999999999,-0.1406105,-0.6932579999999999,0.010622,0.1388295,-0.6678980000000001,0.027117,0
13,0.007113,0.7389954999999999,0.0519045,-0.151616,0.4579355,0.0438315,-0.289506,0.4685055,-0.1020715,0.152904,0.4639855,0.0432965,0.278314,0.4836955,-0.1088815,-0.336696,0.5491455,-0.2923915,0.319774,0.5476354999999999,-0.3167715,-0.072205,-0.0004834999999999,0.0017355,0.072205,0.0004835,-0.0017355,-0.122986,-0.3343744999999999,-0.0170954999999999,0.119594,-0.3461145,0.0085605,-0.140776,-0.6949845,0.0104755,0.138694,-0.6695045000000001,0.0268265,0
14,0.0069005,0.7371355,0.0521785,-0.1511945,0.4589755,0.0419795,-0.2918944999999999,0.5028155000000001,-0.1024005,0.1527855,0.4652354999999999,0.0423405,0.2802154999999999,0.5188655,-0.1088704999999999,-0.3377145,0.6094355,-0.2926105,0.3195955,0.6098855000000001,-0.3169205,-0.0721745,-0.0004805,0.0017295,0.0721745,0.0004805,-0.0017294999999999,-0.1231545,-0.3352845,-0.0171035,0.1194055,-0.3476245,0.0084105,-0.1408744999999999,-0.6971244999999999,0.0104685,0.1386255,-0.6714745,0.0266785,0
15,0.0067509999999999,0.735065,0.052393,-0.150813,0.460205,0.040468,-0.292733,0.536755,-0.1025059999999999,0.152807,0.466835,0.041801,0.281307,0.5526449999999999,-0.108816,-0.338023,0.667945,-0.290456,0.319357,0.669225,-0.315706,-0.072103,-0.000505,0.001738,0.072103,0.000505,-0.001738,-0.123223,-0.336495,-0.017143,0.119187,-0.348915,0.008348,-0.140923,-0.699245,0.010481,0.138607,-0.673505,0.026629,0
16,0.0066864999999999,0.7329165,0.052388,-0.1505975,0.4616465,0.039095,-0.2929175,0.5662765,-0.102521,0.1533525,0.4683265,0.041547,0.2812424999999999,0.5822365,-0.108821,-0.3385475,0.7174365,-0.284771,0.3176624999999999,0.7201165,-0.304261,-0.0720385,-0.0005095,0.0017429999999999,0.0720385,0.0005094999999999,-0.001743,-0.1232075,-0.3378835,-0.017119,0.1191424999999999,-0.3501535,0.008093,-0.1409075,-0.7014635,0.010525,0.1386725,-0.6756435,0.0266159999999999,0
17,0.0066129999999999,0.7307864999999999,0.0523825,-0.150446,0.4629665,0.0377895,-0.293076,0.5945965,-0.1013065,0.154024,0.4698565,0.0415275,0.281014,0.6095965,-0.1068865,-0.339396,0.7649965,-0.2750565,0.314164,0.7665065,-0.2856065,-0.07197,-0.0004945,0.0017485,0.07197,0.0004945,-0.0017485,-0.1231859999999999,-0.3393635,-0.0171155,0.119094,-0.3514035,0.0077365,-0.140896,-0.7036435000000001,0.0105815,0.138704,-0.6778035,0.0266195,0
18,0.0063784999999999,0.728482,0.0524165,-0.1505225,0.464812,0.0371855,-0.2934225,0.620802,-0.0976674999999999,0.1545274999999999,0.471702,0.0416215,0.2803775,0.633702,-0.0995875,-0.3385425,0.8075119999999999,-0.2579675,0.3118475,0.8059019999999999,-0.2687275,-0.0719134999999999,-0.000519,0.0016994999999999,0.0719134999999999,0.0005189999999999,-0.0016994999999999,-0.1230925,-0.341188,-0.0170784999999999,0.1191575,-0.352548,0.0072815,-0.1408325,-0.7061280000000001,0.0107205,0.1388075,-0.6802180000000001,0.0266145,0
19,0.0059285,0.7263355,0.0524715,-0.1503565,0.4673854999999999,0.0371985,-0.2933665,0.6412455,-0.0911984999999999,0.1549935,0.4728254999999999,0.0418855,0.2783735,0.6513255,-0.0910185,-0.3371765,0.8387955,-0.2413685,0.3074635,0.8327455,-0.2452385,-0.0718435,-0.0005514999999999,0.0016275,0.0718435,0.0005514999999999,-0.0016275,-0.1228565,-0.3433645,-0.0168834999999999,0.1193435,-0.3534945,0.0069824999999999,-0.1405165,-0.7087045000000001,0.0110475,0.1391635,-0.6824645,0.0268185,0
20,0.005484,0.72414,0.052443,-0.150217,0.46985,0.037535,-0.292117,0.6587299999999999,-0.083008,0.155273,0.47416,0.0422349999999999,0.276183,0.66786,-0.081938,-0.333797,0.86573,-0.220518,0.302833,0.85771,-0.220778,-0.0717609999999999,-0.0005549999999999,0.0015459999999999,0.0717609999999999,0.0005549999999999,-0.001546,-0.1226269999999999,-0.34568,-0.016587,0.119533,-0.35445,0.0067689999999999,-0.140177,-0.7112700000000001,0.0114769999999999,0.139513,-0.68479,0.027132,0
21,0.005049,0.7219610000000001,0.0524085,-0.1501299999999999,0.472701,0.0379065,-0.28982,0.672621,-0.0738675,0.15536,0.475541,0.0428355,0.2742,0.682081,-0.0719375,-0.33028,0.888961,-0.2001974999999999,0.29894,0.8787510000000001,-0.1989874999999999,-0.071647,-0.000556,0.0014545,0.071647,0.0005559999999999,-0.0014544999999999,-0.1224,-0.3480189999999999,-0.0162345,0.11971,-0.355449,0.0066055,-0.13983,-0.7138789999999999,0.0119575,0.1399,-0.687159,0.0274875,0
22,0.0046559999999999,0.7199055000000001,0.052347,-0.149938,0.4756054999999999,0.038322,-0.285538,0.6843455,-0.0640189999999999,0.1554519999999999,0.4769055,0.043673,0.271562,0.6920855,-0.061444,-0.326988,0.9083355,-0.180088,0.295332,0.8988055,-0.177778,-0.071479,-0.0005805,0.001424,0.071479,0.0005804999999999,-0.0014239999999999,-0.122138,-0.3503045,-0.0158569999999999,0.119912,-0.3562945,0.006538,-0.139428,-0.7163444999999999,0.012495,0.140322,-0.6893745,0.027889,0
23,0.004323,0.718199,0.0521275,-0.149649,0.478279,0.0388235,-0.2816889999999999,0.692829,-0.0542325,0.155601,0.478279,0.0444895,0.268751,0.699259,-0.0517275,-0.324509,0.921539,-0.1613804999999999,0.292491,0.915199,-0.1575504999999999,-0.071325,-0.000587,0.0014305,0.071325,0.000587,-0.0014305,-0.121899,-0.352251,-0.0155805,0.120131,-0.356941,0.0064554999999999,-0.139019,-0.718491,0.0129305,0.140711,-0.691401,0.0281885,0
24,0.004017,0.7165889999999999,0.051751,-0.149382,0.480779,0.039436,-0.2790519999999999,0.698529,-0.046335,0.155758,0.479169,0.0453569999999999,0.265888,0.704869,-0.042127,-0.322192,0.932409,-0.143635,0.290038,0.927279,-0.139925,-0.071175,-0.0005749999999999,0.0014319999999999,0.071175,0.0005749999999999,-0.001432,-0.121692,-0.354121,-0.015385,0.120368,-0.357771,0.0064009999999999,-0.138612,-0.720561,0.0132149999999999,0.141118,-0.6933410000000001,0.0283599999999999,0
25,0.0038205,0.7149865,0.0513435,-0.1491265,0.4832065,0.0402104999999999,-0.2763764999999999,0.7036765,-0.0385565,0.1557435,0.4800065,0.0462475,0.2632135,0.7097665,-0.0330325,-0.3199565,0.9411865,-0.1269195,0.2881735,0.9357465,-0.1213495,-0.0710494999999999,-0.0005514999999999,0.0014195,0.0710494999999999,0.0005515,-0.0014195,-0.1213964999999999,-0.3558635,-0.0152195,0.1206635,-0.3587335,0.0064175,-0.1381265,-0.7226135,0.0134225,0.1415535,-0.6953135,0.0285215,0
26,0.0037255,0.713408,0.050964,-0.1488185,0.485938,0.041013,-0.2738685,0.708098,-0.031328,0.1556615,0.480728,0.047081,0.2607915,0.714168,-0.024658,-0.3179485,0.945558,-0.1111279999999999,0.2868115,0.943128,-0.107038,-0.0709325,-0.000514,0.0014009999999999,0.0709325,0.000514,-0.0014009999999999,-0.1210285,-0.357522,-0.015105,0.1209514999999999,-0.359712,0.006486,-0.1375785,-0.724702,0.013597,0.1420415,-0.6973119999999999,0.028627,0
27,0.0036589999999999,0.712183,0.050446,-0.148449,0.488333,0.041772,-0.2713489999999999,0.711473,-0.0249689999999999,0.1554309999999999,0.480983,0.047674,0.258421,0.717653,-0.01718,-0.315779,0.949093,-0.0953909999999999,0.2855109999999999,0.950713,-0.091671,-0.070828,-0.0004549999999999,0.001382,0.070828,0.0004549999999999,-0.0013819999999999,-0.120679,-0.3587769999999999,-0.0150059999999999,0.1212409999999999,-0.360907,0.006537,-0.137039,-0.7266469999999999,0.013722,0.142521,-0.699087,0.028691,0
28,0.0037155,0.7112704999999999,0.0499965,-0.1481165,0.4899104999999999,0.0425325,-0.2687564999999999,0.7143305,-0.0185764999999999,0.1550635,0.4812605,0.0482145,0.2563434999999999,0.7206604999999999,-0.0102114999999999,-0.3135065,0.9524005,-0.0805845,0.2847535,0.9586405,-0.0781945,-0.0707615,-0.0003695,0.0013874999999999,0.0707615,0.0003695,-0.0013874999999999,-0.1204165,-0.3596094999999999,-0.0149264999999999,0.1215034999999999,-0.3619295,0.0065585,-0.1367165,-0.7281995,0.0137485,0.1428435,-0.7005795,0.0287175,0
29,0.0037349999999999,0.7106239999999999,0.049679,-0.147769,0.491824,0.043292,-0.266289,0.7176039999999999,-0.0127999999999999,0.154511,0.481284,0.048711,0.254321,0.7234339999999999,-0.003789,-0.311629,0.957904,-0.066174,0.284021,0.963794,-0.065158,-0.070705,-0.000282,0.0013919999999999,0.070705,0.0002819999999999,-0.001392,-0.120179,-0.360396,-0.014838,0.1217309999999999,-0.3629259999999999,0.0065769999999999,-0.136399,-0.729236,0.0137739999999999,0.143161,-0.701616,0.0287429999999999,0
30,0.0037654999999999,0.7103155,0.0493269999999999,-0.1473115,0.4934054999999999,0.043884,-0.2638615,0.7208255,-0.007475,0.1537784999999999,0.4813054999999999,0.049013,0.2522884999999999,0.7258155,0.0021549999999999,-0.3096015,0.9621355,-0.053166,0.2833585,0.9683355,-0.052797,-0.0706505,-0.0001994999999999,0.0013819999999999,0.0706505,0.0001994999999999,-0.001382,-0.1199814999999999,-0.3610145,-0.014753,0.1220485,-0.3637344999999999,0.0066749999999999,-0.1360615,-0.7300945,0.0137869999999999,0.1435084999999999,-0.7024745,0.028744,0
31,0.003774,0.7101355,0.0488959999999999,-0.146727,0.4948154999999999,0.044355,-0.261717,0.7245355,-0.00215,0.153003,0.4813455,0.0491749999999999,0.250433,0.7280855,0.007873,-0.307667,0.9664455,-0.0401629999999999,0.282833,0.9717455,-0.040812,-0.070598,-0.0001074999999999,0.001285,0.070598,0.0001075,-0.001285,-0.1198569999999999,-0.3615945,-0.014826,0.122313,-0.3643945,0.0067429999999999,-0.135717,-0.7309645,0.013656,0.143803,-0.7033245,0.0286,0
32,0.0037454999999999,0.7100675,0.0485,-0.1461194999999999,0.4958975,0.044773,-0.2598395,0.7266775,0.002247,0.1522305,0.4813475,0.049349,0.2487505,0.7294975,0.012905,-0.3056895,0.9697575,-0.029886,0.2829204999999999,0.9729575,-0.0315489999999999,-0.0705565,-1.8499999999997685e-05,0.0012479999999999,0.0705565,1.8499999999997685e-05,-0.0012479999999999,-0.1197295,-0.3621325,-0.0150149999999999,0.1225705,-0.3649425,0.00673,-0.1353794999999999,-0.7323325,0.013277,0.1441105,-0.7045525,0.028334,0
33,0.0036115,0.710152,0.0481775,-0.1454515,0.4967719999999999,0.0450855,-0.2579915,0.728642,0.0067014999999999,0.1513285,0.4813219999999999,0.0493875,0.2470585,0.730612,0.0180345,-0.3040415,0.973332,-0.0198215,0.2830285,0.974132,-0.0212435,-0.0705274999999999,3.899999999999737e-05,0.0012034999999999,0.0705274999999999,-3.900000000000431e-05,-0.0012034999999999,-0.1196214999999999,-0.362458,-0.0152015,0.1227885,-0.365198,0.0067565,-0.1350615,-0.733528,0.0128725,0.1443785,-0.7056279999999999,0.0280575,0
34,0.003378,0.7103865,0.0478925,-0.144784,0.4975765,0.0453675,-0.256314,0.7308765,0.0111955,0.150476,0.4813365,0.0493765,0.245466,0.7315365,0.0228655,-0.302514,0.9767665,-0.0101544999999999,0.283246,0.9755665,-0.0106894999999999,-0.070506,0.0001005,0.0011885,0.070506,-0.0001004999999999,-0.0011884999999999,-0.119554,-0.3626935,-0.0153615,0.122926,-0.3653035,0.0068145,-0.134794,-0.7345535,0.0124305,0.144616,-0.7065435,0.0277975,0
35,0.0030429999999999,0.7106445,0.0476025,-0.1443479999999999,0.4982644999999999,0.0456535,-0.254858,0.7332245000000001,0.0155355,0.149612,0.4815044999999999,0.0493745,0.243892,0.7320445,0.0274675,-0.301238,0.9801545,-0.0011744999999999,0.283512,0.9763545,-0.0003664999999999,-0.07049,0.0001045,0.0012055,0.07049,-0.0001045,-0.0012054999999999,-0.119508,-0.3628555,-0.0155264999999999,0.123012,-0.3654055,0.0068565,-0.134598,-0.7355054999999999,0.0119845,0.144832,-0.7074054999999999,0.0275285,0
36,0.002636,0.71085,0.0473195,-0.143956,0.4987,0.0460555,-0.253656,0.7355499999999999,0.0199234999999999,0.148714,0.48165,0.0493804999999999,0.242474,0.73225,0.0324934999999999,-0.299836,0.98373,0.0080104999999999,0.2839239999999999,0.97713,0.0088274999999999,-0.070489,0.000118,0.0012044999999999,0.070489,-0.000118,-0.0012045,-0.119436,-0.36299,-0.0157465,0.123054,-0.36564,0.0069035,-0.134446,-0.73649,0.0115504999999999,0.145014,-0.70829,0.0272744999999999,0
37,0.0022295,0.710947,0.047088,-0.1436405,0.499127,0.0464549999999999,-0.2526505,0.7378170000000001,0.024093,0.1479194999999999,0.481697,0.049412,0.2411694999999999,0.732357,0.037399,-0.2985205,0.986907,0.016841,0.2844494999999999,0.978007,0.0177809999999999,-0.0704835,0.000128,0.0011989999999999,0.0704835,-0.0001279999999999,-0.0011989999999999,-0.1193405,-0.363123,-0.015965,0.1230795,-0.365933,0.006943,-0.1343105,-0.7374729999999999,0.01114,0.1452095,-0.709123,0.027036,0
38,0.0018494999999999,0.711067,0.0468995,-0.1434875,0.499997,0.0471495,-0.2517775,0.739827,0.0281455,0.1472825,0.481867,0.0494585,0.2400825,0.732537,0.0419055,-0.2971275,0.988037,0.0240505,0.2850325,0.978937,0.0259515,-0.0704625,0.0001269999999999,0.0011725,0.0704625,-0.000127,-0.0011725,-0.1192375,-0.363283,-0.0161894999999999,0.1231225,-0.366193,0.0069355,-0.1341675,-0.738393,0.0107455,0.1454025,-0.7099329999999999,0.0268195,0
39,0.001442,0.711309,0.0468149999999999,-0.143314,0.500799,0.047841,-0.251164,0.741239,0.031949,0.146666,0.482009,0.049498,0.239256,0.7326889999999999,0.046142,-0.295964,0.988919,0.031148,0.2857159999999999,0.978719,0.033864,-0.07045,0.000163,0.0011539999999999,0.07045,-0.0001629999999999,-0.0011539999999999,-0.1191039999999999,-0.363521,-0.016411,0.1231559999999999,-0.366511,0.0069169999999999,-0.134074,-0.7392310000000001,0.010346,0.145556,-0.7106910000000001,0.026614,0
40,0.001048,0.7115275000000001,0.046904,-0.1432,0.5014974999999999,0.048568,-0.25054,0.7415775,0.0352139999999999,0.14612,0.4821375,0.049584,0.23881,0.7327775000000001,0.049511,-0.2949699999999999,0.9887075,0.036781,0.28645,0.9772075,0.040623,-0.07044,0.0002044999999999,0.0011439999999999,0.07044,-0.0002045,-0.001144,-0.1190399999999999,-0.3638725,-0.016583,0.12314,-0.3668825,0.0069059999999999,-0.13404,-0.7400424999999999,0.0099949999999999,0.14565,-0.7114324999999999,0.0263729999999999,0
41,0.000662,0.7117370000000001,0.0470695,-0.14312,0.502257,0.0493674999999999,-0.2499,0.741927,0.0381895,0.14561,0.4822669999999999,0.0495735,0.23865,0.732767,0.0522775,-0.2942,0.989297,0.0417265,0.28709,0.976897,0.0462785,-0.0704279999999999,0.0002329999999999,0.0011034999999999,0.0704279999999999,-0.000233,-0.0011035,-0.1189899999999999,-0.364093,-0.0166775,0.12312,-0.367233,0.0069494999999999,-0.13402,-0.740273,0.0098544999999999,0.14573,-0.711713,0.0262215,0
42,0.0003705,0.7121540000000001,0.0472955,-0.1428984999999999,0.502804,0.0500624999999999,-0.2494384999999999,0.742104,0.0407925,0.1453115,0.482474,0.0496235,0.2385515,0.732674,0.0544075,-0.2933785,0.989204,0.0452715,0.2876615,0.976804,0.0502765,-0.0704195,0.0002669999999999,0.0010595,0.0704195,-0.000267,-0.0010594999999999,-0.1189284999999999,-0.364206,-0.0168004999999999,0.1231415,-0.367546,0.0069535,-0.1339985,-0.740386,0.0097165,0.1457715,-0.711866,0.0260895,0
43,0.0001194999999999,0.7125145,0.047523,-0.1428505,0.5034245,0.05078,-0.2491905,0.7423645,0.042939,0.1450095,0.4826445,0.049703,0.2384395,0.7325445,0.056319,-0.2927105,0.9883045,0.048226,0.2879295,0.9780045,0.053175,-0.0704035,0.0002715,0.001019,0.0704035,-0.0002715,-0.0010189999999999,-0.1189105,-0.3642155,-0.016924,0.1231694999999999,-0.3677455,0.006918,-0.1340005,-0.7403955,0.009588,0.1457695,-0.7119155,0.025961,0
44,-8.650000000000167e-05,0.7127905,0.0477345,-0.1427135,0.5036405,0.0514685,-0.2493435,0.7426605000000001,0.0448325,0.1447564999999999,0.4827005,0.0498145,0.2382965,0.7324205,0.0579475,-0.2920835,0.9830205,0.0503055,0.2881464999999999,0.9792205,0.0553735,-0.0703905,0.0002624999999999,0.0009654999999999,0.0703905,-0.0002624999999999,-0.0009655,-0.1189135,-0.3642395,-0.0169945,0.1231865,-0.3680095,0.0068934999999999,-0.1340435,-0.7406895,0.0094834999999999,0.1457264999999999,-0.7122695,0.0259095,0
45,-0.0002374999999999,0.7131205,0.0480195,-0.1427075,0.5034805,0.0519435,-0.2493975,0.7427505,0.0462255,0.1447425,0.4825405,0.0500125,0.2383225,0.7322605,0.0588515,-0.2917775,0.9775605,0.0509895,0.2884325,0.9809605,0.0573565,-0.0703874999999999,0.0002575,0.0009285,0.0703874999999999,-0.0002575,-0.0009284999999999,-0.1189274999999999,-0.3642095,-0.0169975,0.1231925,-0.3681595,0.0068445,-0.1340575,-0.7408895,0.0094095,0.1456225,-0.7126295,0.0261055,0
46,-0.0003629999999999,0.713492,0.048333,-0.142762,0.503372,0.052304,-0.249402,0.742762,0.0473699999999999,0.144728,0.482432,0.050192,0.238428,0.732152,0.059515,-0.291682,0.972052,0.050925,0.288538,0.980952,0.058693,-0.070383,0.000253,0.0008799999999999,0.070383,-0.0002529999999999,-0.00088,-0.118932,-0.364238,-0.016989,0.123188,-0.368268,0.006786,-0.1340819999999999,-0.741058,0.009359,0.145538,-0.712978,0.026309,0
47,-0.0004874999999999,0.7139345,0.0487225,-0.1428755,0.5033645,0.0522945,-0.2494155,0.7426445,0.0481925,0.1447145,0.4824245,0.0502915,0.2385845,0.7320544999999999,0.0602395,-0.2915855,0.9665445,0.0508735,0.2886645,0.9809445,0.0596625,-0.0703745,0.0002454999999999,0.0008425,0.0703745,-0.0002455,-0.0008424999999999,-0.1189454999999999,-0.3642155,-0.0169664999999999,0.1232145,-0.3683355,0.0067425,-0.1341055,-0.7411355000000001,0.0093465,0.1454545,-0.7132655,0.0265705,0
48,-0.0006545,0.7143445,0.0490855,-0.1430215,0.5032445,0.0522295,-0.2494615,0.7422245,0.0487805,0.1447685,0.4822545,0.0503615,0.2386285,0.7317645,0.0608945,-0.2916415,0.9605445,0.0507965,0.2886485,0.9803445,0.0603315,-0.0703725,0.0002454999999999,0.0007945,0.0703725,-0.0002455,-0.0007945,-0.1190015,-0.3642155,-0.0169785,0.1232085,-0.3684655,0.0066755,-0.1341915,-0.7412255,0.0093215,0.1453385,-0.7135255,0.0270405,0
49,-0.0008314999999999,0.7147344999999999,0.0494055,-0.1431415,0.5029245,0.0521445,-0.2495715,0.7417045,0.0490675,0.1449885,0.4818745,0.0503715,0.2386285,0.7313145,0.0615005,-0.2916715,0.9538445,0.0506565,0.2885985,0.9795445,0.0609095,-0.0703655,0.0002454999999999,0.0007475,0.0703655,-0.0002455,-0.0007474999999999,-0.1190915,-0.3642155,-0.0169944999999999,0.1231985,-0.3686555,0.0065995,-0.1343015,-0.7413055,0.0092935,0.1452185,-0.7137455,0.0274455,0
50,-0.001028,0.7150755,0.049757,-0.143189,0.5020555,0.052084,-0.249609,0.7411755,0.049216,0.145221,0.4812655,0.050397,0.238561,0.7307455,0.062074,-0.2916689999999999,0.9473955,0.050187,0.288421,0.9808455,0.061412,-0.070376,0.0002444999999999,0.0007,0.070376,-0.0002445,-0.0006999999999999,-0.119209,-0.3642145,-0.0169799999999999,0.123151,-0.3688445,0.006549,-0.134459,-0.7413945,0.009284,0.145061,-0.7140345,0.027791,0
51,-0.001248,0.7153225,0.0500874999999999,-0.143241,0.5011224999999999,0.0520845,-0.249631,0.7407425,0.0491545,0.145489,0.4807025,0.0504904999999999,0.238479,0.7302325,0.0625034999999999,-0.291531,0.9407625,0.0490435,0.2881689999999999,0.9750625,0.0613304999999999,-0.070391,0.0002155,0.0006644999999999,0.070391,-0.0002155,-0.0006645,-0.119311,-0.3642775,-0.0170485,0.123079,-0.3689575,0.0064824999999999,-0.1346409999999999,-0.7414675000000001,0.0092384999999999,0.144879,-0.7142975,0.0279495,0
52,-0.001471,0.7155739999999999,0.0504205,-0.14327,0.500234,0.0520405,-0.24971,0.740544,0.0490675,0.14579,0.480044,0.0505785,0.2383799999999999,0.7296739999999999,0.0628595,-0.2914,0.940804,0.0479265,0.28775,0.969104,0.0610595,-0.070417,0.000181,0.0006134999999999,0.070417,-0.000181,-0.0006134999999999,-0.1194099999999999,-0.364336,-0.0171365,0.123,-0.369036,0.0063714999999999,-0.13484,-0.741486,0.0091425,0.14467,-0.714566,0.0282644999999999,0
53,-0.0017689999999999,0.715808,0.0506755,-0.14346,0.500058,0.0518845,-0.2498399999999999,0.740608,0.0489165,0.14605,0.479718,0.0506724999999999,0.23821,0.729418,0.0631035,-0.29137,0.940868,0.0468865,0.28726,0.963068,0.0606545,-0.0704569999999999,0.0001239999999999,0.0005464999999999,0.0704569999999999,-0.0001239999999999,-0.0005465,-0.11953,-0.364432,-0.0172865,0.1229099999999999,-0.369102,0.0061904999999999,-0.1351,-0.7414919999999999,0.0089804999999999,0.14443,-0.7147819999999999,0.0282254999999999,0
54,-0.0022095,0.7160975,0.0508315,-0.1438175,0.4997275,0.0517385,-0.2503175,0.7409475,0.0483965,0.1462025,0.4791975,0.0507135,0.2379825,0.7290875,0.0630215,-0.2915175,0.9411375,0.0459315,0.2869525,0.9617575,0.0591815,-0.0705175,7.349999999999718e-05,0.0004515,0.0705175,-7.350000000000412e-05,-0.0004514999999999,-0.1196575,-0.3646125,-0.0175275,0.1228225,-0.3690925,0.0058535,-0.1355075,-0.7414425,0.0087265,0.1441025,-0.7148825,0.0279795,0
55,-0.0027725,0.7163985,0.050866,-0.1442695,0.4993685,0.051496,-0.2508195,0.7414285,0.047727,0.1462505,0.4785685,0.050646,0.2375705,0.7287385000000001,0.06269,-0.2919794999999999,0.9475185,0.044778,0.2864704999999999,0.9675785,0.058221,-0.0706065,5.55e-05,0.000269,0.0706065,-5.55e-05,-0.0002689999999999,-0.1198395,-0.3647715,-0.0178969999999999,0.1226705,-0.3690715,0.00536,-0.1360295,-0.7413514999999999,0.008364,0.1436705,-0.7152314999999999,0.027646,0
56,-0.0033749999999999,0.7166685,0.050738,-0.144751,0.4989785,0.051093,-0.251331,0.7418285,0.04683,0.146259,0.4779185,0.050475,0.237109,0.7282985,0.062258,-0.292311,0.9476085,0.043876,0.286059,0.9733885,0.057134,-0.070691,3.0499999999995808e-05,6.400000000000156e-05,0.070691,-3.0500000000002747e-05,-6.399999999999809e-05,-0.120041,-0.3649515,-0.018372,0.122529,-0.3690715,0.004728,-0.1366009999999999,-0.7412715,0.007891,0.1432189999999999,-0.7155915,0.027214,0
57,-0.0039284999999999,0.7169139999999999,0.050676,-0.1453144999999999,0.498594,0.050702,-0.2518545,0.742304,0.045929,0.1460955,0.477634,0.050206,0.2366155,0.728044,0.061795,-0.2928145,0.953914,0.04295,0.2864555,0.979214,0.056067,-0.0707605,-1.5000000000001124e-05,-0.00012,0.0707605,1.5000000000001124e-05,0.0001199999999999,-0.1201344999999999,-0.365116,-0.018957,0.1224555,-0.369056,0.004045,-0.1371544999999999,-0.741166,0.0073839999999999,0.1428855,-0.715886,0.026482,0
58,-0.0044465,0.7171585,0.050446,-0.1457885,0.4984585,0.049995,-0.2522785,0.7427185000000001,0.044717,0.1458515,0.4777485,0.049695,0.2364115,0.7281585,0.060878,-0.2932984999999999,0.9602285,0.041789,0.2876715,0.9782285,0.053986,-0.0708495,-1.7500000000003624e-05,-0.0002179999999999,0.0708495,1.7499999999996685e-05,0.0002179999999999,-0.1201285,-0.3653814999999999,-0.019937,0.1225014999999999,-0.3692614999999999,0.0028709999999999,-0.1377085,-0.7410915,0.0066109999999999,0.1426214999999999,-0.7162415,0.025362,0
59,-0.0048254999999999,0.7173320000000001,0.050109,-0.1462554999999999,0.498492,0.049205,-0.2524655,0.7427520000000001,0.043368,0.1455644999999999,0.477782,0.048895,0.2364645,0.7281920000000001,0.059744,-0.2935155,0.966562,0.040523,0.2889845,0.978262,0.05174,-0.0709345,1.2000000000005062e-05,-0.0003029999999999,0.0709345,-1.1999999999998123e-05,0.000303,-0.1200255,-0.365838,-0.0211249999999999,0.1226745,-0.3695779999999999,0.001412,-0.1381055,-0.741108,0.005651,0.1424645,-0.7166779999999999,0.024116,0
60,-0.0050469999999999,0.7175325,0.0495665,-0.146586,0.4986024999999999,0.0485115,-0.252496,0.7429425,0.0417595,0.145294,0.4778325,0.0481535,0.236764,0.7282625,0.0584125,-0.2936259999999999,0.9730125,0.0390735,0.2900439999999999,0.9783125,0.0492975,-0.071007,4.649999999999793e-05,-0.0004635,0.071007,-4.649999999999793e-05,0.0004634999999999,-0.119826,-0.3662775,-0.0225155,0.122944,-0.3700475,-0.0003144999999999,-0.138336,-0.7411475000000001,0.0044244999999999,0.142424,-0.7170275,0.0222615,0
61,-0.0050285,0.7177285,0.0487645,-0.1464725,0.4988785,0.0477155,-0.2522525,0.7432785,0.0398685,0.1452075,0.4781984999999999,0.0476955,0.2375275,0.7285185,0.0568185,-0.2933825,0.9793585,0.0372055,0.2917975,0.9782585,0.0466085,-0.0710715,9.25000000000023e-05,-0.0005534999999999,0.0710715,-9.249999999999536e-05,0.0005535,-0.1194425,-0.3667614999999999,-0.0241214999999999,0.1234374999999999,-0.3705414999999999,-0.0022825,-0.1383025,-0.7411915,0.0029575,0.1426075,-0.7174615,0.0202515,0
62,-0.0049039999999999,0.7178885,0.047692,-0.1461239999999999,0.4993884999999999,0.046753,-0.2519139999999999,0.7437285,0.037659,0.145156,0.4788284999999999,0.047105,0.238556,0.7288885,0.054936,-0.293054,0.9862185,0.03482,0.293876,0.9779185,0.043611,-0.07113,0.0001214999999999,-0.0004919999999999,0.07113,-0.0001215,0.000492,-0.119034,-0.3673415,-0.0260149999999999,0.123956,-0.3709915,-0.0045279999999999,-0.138164,-0.7412314999999999,0.001224,0.142886,-0.7181915,0.017964,0
63,-0.0045754999999999,0.7179745,0.04638,-0.1455485,0.5000145,0.045659,-0.2514285,0.7438045,0.035321,0.1453015,0.4795644999999999,0.046221,0.2397715,0.7293145,0.052823,-0.2926585,0.9920945,0.032257,0.2963015,0.9775945,0.041157,-0.0711335,0.0001345,-0.000429,0.0711335,-0.0001345,0.0004289999999999,-0.1186585,-0.3679655,-0.0280629999999999,0.1245015,-0.3717255,-0.006951,-0.1378385,-0.7413255,-0.000695,0.1433615,-0.7188955,0.01546,0
64,-0.0042074999999999,0.7180529999999999,0.0445985,-0.1449635,0.500663,0.0441585,-0.2509135,0.743883,0.0323985,0.1454565,0.480403,0.0449105,0.2412065,0.729883,0.0501345,-0.2921735,0.992673,0.0291425,0.2990365,0.977473,0.0382785,-0.0711485,0.000139,-0.0002424999999999,0.0711485,-0.000139,0.0002424999999999,-0.1183635,-0.368687,-0.0305495,0.1250065,-0.372527,-0.0097885,-0.1374735,-0.741417,-0.0030764999999999,0.1438365,-0.719267,0.0125635,0
65,-0.003838,0.718142,0.042675,-0.144446,0.501132,0.042376,-0.250376,0.743972,0.02924,0.1456039999999999,0.481282,0.043556,0.242614,0.730432,0.047194,-0.291636,0.992762,0.025485,0.302084,0.976762,0.035022,-0.071168,0.000146,-4.000000000000531e-06,0.071168,-0.000146,4.000000000000531e-06,-0.118126,-0.369978,-0.033186,0.125494,-0.373458,-0.012788,-0.137066,-0.7415080000000001,-0.005611,0.1443239999999999,-0.719608,0.009576,0
66,-0.0034394999999999,0.718224,0.040282,-0.1439485,0.501484,0.040352,-0.2497185,0.7436740000000001,0.025589,0.1457615,0.481954,0.042038,0.2441015,0.730714,0.043934,-0.2911085,0.992744,0.021461,0.3043215,0.977344,0.031107,-0.0711885,0.0001639999999999,0.0001789999999999,0.0711885,-0.000164,-0.000179,-0.1178585,-0.370926,-0.036031,0.1259615,-0.373936,-0.016046,-0.1365885,-0.741526,-0.008553,0.1447015,-0.720016,0.0067029999999999,0
67,-0.0029665,0.7180890000000001,0.0377005,-0.1434194999999999,0.501699,0.0380425,-0.2489595,0.743079,0.0218145,0.1462204999999999,0.482369,0.0400495,0.2454505,0.7307990000000001,0.0407765,-0.2902794999999999,0.991629,0.0161115,0.3063205,0.977829,0.0268225,-0.0711615,0.000169,0.0002534999999999,0.0711615,-0.000169,-0.0002535,-0.1174495,-0.371751,-0.0388625,0.1264305,-0.374321,-0.0192055,-0.1359794999999999,-0.741641,-0.0116595,0.1451604999999999,-0.7205109999999999,0.0037034999999999,0
68,-0.00245,0.717976,0.0348565,-0.142865,0.5017159999999999,0.0351415,-0.248205,0.742236,0.0177765,0.146835,0.482326,0.0376425,0.2468749999999999,0.730486,0.0373815,-0.289545,0.991046,0.0101564999999999,0.308525,0.978246,0.0221915,-0.071137,0.0001519999999999,0.0004095,0.071137,-0.000152,-0.0004095,-0.116955,-0.372224,-0.0418145,0.126945,-0.374724,-0.0223975,-0.135315,-0.7416240000000001,-0.0149294999999999,0.145735,-0.720894,0.0004035,0
69,-0.00195,0.717911,0.031574,-0.142358,0.501611,0.031771,-0.247518,0.741241,0.012861,0.147432,0.482441,0.034816,0.2483119999999999,0.730351,0.033253,-0.288738,0.990751,0.003046,0.310892,0.978051,0.016562,-0.071133,0.000142,0.0005809999999999,0.071133,-0.0001419999999999,-0.0005809999999999,-0.116558,-0.372469,-0.045251,0.127482,-0.374779,-0.025948,-0.134668,-0.741329,-0.018579,0.146352,-0.721249,-0.003382,0
70,-0.0013859999999999,0.7177184999999999,0.0281455,-0.141788,0.5016885,0.0282695,-0.2468179999999999,0.7402685,0.0077585,0.148092,0.4825185,0.0313135,0.249582,0.7304084999999999,0.0288845,-0.287858,0.9904285,-0.0042065,0.313132,0.9781285,0.0108025,-0.071115,0.0001654999999999,0.0005664999999999,0.071115,-0.0001654999999999,-0.0005665,-0.116238,-0.3725615,-0.0488355,0.1280919999999999,-0.3748015,-0.0296145,-0.1339779999999999,-0.7410615,-0.0223585,0.147042,-0.7215915,-0.0073215,1
71,-0.0009055,0.7174145,0.0247695,-0.1413035,0.5017545,0.0248555,-0.2462035,0.7392945,0.0027365,0.1486164999999999,0.4825845,0.0279034999999999,0.2506365,0.7304545,0.0245715,-0.2871435,0.9901945,-0.0113675,0.3151065,0.9782945,0.0051745,-0.0710975,0.0001805,0.0004895,0.0710975,-0.0001805,-0.0004894999999999,-0.1160535,-0.3724955,-0.0523325,0.1286565,-0.3750254999999999,-0.0331905,-0.1333734999999999,-0.7408855000000001,-0.0260265,0.1476265,-0.7216555,-0.0112085,1
72,-0.0005329999999999,0.7168955,0.021444,-0.140957,0.5018255,0.021528,-0.2456769999999999,0.7381755,-0.002241,0.149063,0.4826555,0.024583,0.2515429999999999,0.7305255,0.020347,-0.286647,0.9898655,-0.018302,0.316833,0.9784655,-0.0003909999999999,-0.071078,0.0001514999999999,0.000459,0.071078,-0.0001515,-0.0004589999999999,-0.115977,-0.3724245,-0.05577,0.129133,-0.3751744999999999,-0.036721,-0.132857,-0.7407045,-0.029676,0.148053,-0.7216645,-0.014935,1
73,-0.000378,0.71626,0.018436,-0.140975,0.5018100000000001,0.018506,-0.245365,0.7367400000000001,-0.006883,0.149515,0.48233,0.021504,0.252145,0.73007,0.016498,-0.286465,0.9895500000000002,-0.0246839999999999,0.318225,0.97855,-0.005447,-0.071073,0.000129,0.0003969999999999,0.071073,-0.0001289999999999,-0.0003969999999999,-0.116055,-0.37224,-0.058933,0.129465,-0.37513,-0.040017,-0.132495,-0.7404799999999999,-0.033082,0.148305,-0.72151,-0.01831,1
74,-0.0002454999999999,0.7156325,0.0153579999999999,-0.1411735,0.5017425,0.015708,-0.2451535,0.7353824999999999,-0.011566,0.1497164999999999,0.4820025,0.0188829999999999,0.2526965,0.7296725,0.012488,-0.2864434999999999,0.9890425,-0.030918,0.3194965,0.9784425,-0.010491,-0.0710625,7.549999999999918e-05,0.0002649999999999,0.0710625,-7.549999999999918e-05,-0.0002649999999999,-0.1161235,-0.3718174999999999,-0.06222,0.1298265,-0.3752175,-0.043411,-0.1321635,-0.7400075,-0.036621,0.1486565,-0.7211575,-0.022071,1
75,-0.000188,0.7148840000000001,0.01235,-0.141266,0.5017240000000001,0.0129369999999999,-0.245036,0.734494,-0.016167,0.149924,0.481504,0.016304,0.253204,0.7291540000000001,0.008468,-0.286566,0.988654,-0.036552,0.3206639999999999,0.978254,-0.015338,-0.071049,4.500000000000337e-05,0.0001059999999999,0.071049,-4.499999999999643e-05,-0.000106,-0.116156,-0.371146,-0.065477,0.130234,-0.374956,-0.046814,-0.131846,-0.7393860000000001,-0.040024,0.148964,-0.7207760000000001,-0.025936,1
76,-0.0002719999999999,0.713989,0.0093859999999999,-0.1415219999999999,0.501539,0.0100719999999999,-0.2450919999999999,0.733829,-0.020747,0.150038,0.481039,0.0136879999999999,0.253748,0.7286689999999999,0.0044129999999999,-0.286922,0.988399,-0.042239,0.321698,0.978299,-0.020172,-0.071019,0.0,-5.700000000000149e-05,0.071019,0.0,5.699999999999802e-05,-0.116252,-0.3711609999999999,-0.068718,0.130598,-0.374501,-0.050239,-0.131612,-0.738681,-0.043523,0.149138,-0.7202510000000001,-0.029784,1
77,-0.0004685,0.7126990000000001,0.0060685,-0.1418765,0.500739,0.0068665,-0.2452865,0.732839,-0.0258645,0.1501035,0.480169,0.0107185,0.2541635,0.7276590000000001,-0.0002084999999999,-0.2873765,0.986379,-0.0488274999999999,0.3226735,0.978579,-0.0254084999999999,-0.0709765,-7.499999999999868e-05,-0.0004394999999999,0.0709765,7.499999999999868e-05,0.0004395,-0.1164165,-0.370221,-0.0725465,0.1310835,-0.373991,-0.0546595,-0.1314364999999999,-0.737591,-0.0476425,0.1493135,-0.7193109999999999,-0.0341565,1
78,-0.001018,0.7111989999999999,0.0026879999999999,-0.1423589999999999,0.499039,0.0037199999999999,-0.245979,0.731619,-0.03089,0.149911,0.4794689999999999,0.0079329999999999,0.254411,0.726739,-0.004695,-0.288129,0.984879,-0.055102,0.323511,0.979179,-0.03031,-0.070971,-0.00024,-0.0006229999999999,0.070971,0.0002399999999999,0.0006229999999999,-0.116769,-0.368711,-0.076601,0.131521,-0.373671,-0.059944,-0.131389,-0.7359910000000001,-0.0517959999999999,0.149361,-0.717951,-0.038553,1
79,-0.0017274999999999,0.7093554999999999,-0.000585,-0.1427645,0.4971755,0.000723,-0.2468045,0.7302455,-0.035804,0.1496355,0.4788455,0.0048519999999999,0.2546855,0.7257555,-0.0091,-0.2889045,0.9828955,-0.061458,0.3242655,0.9797955,-0.035021,-0.0709565,-0.0003985,-0.000678,0.0709565,0.0003984999999999,0.0006779999999999,-0.1175345,-0.3669845,-0.081528,0.1319355,-0.3732545,-0.065372,-0.1314045,-0.7340745000000001,-0.055795,0.1493255,-0.7162045,-0.042868,1
80,-0.0025815,0.7074689999999999,-0.0043244999999999,-0.1433275,0.4954789999999999,-0.0024504999999999,-0.2477675,0.728699,-0.0411755,0.1490225,0.477819,0.0010625,0.2549924999999999,0.7242090000000001,-0.0139984999999999,-0.2895475,0.981889,-0.0684124999999999,0.3254625,0.979189,-0.0408624999999999,-0.0709495,-0.000572,-0.0007584999999999,0.0709495,0.0005719999999999,0.0007585,-0.1183275,-0.364651,-0.0876005,0.1324725,-0.371931,-0.0720325,-0.1314874999999999,-0.7310810000000001,-0.0606064999999999,0.1493324999999999,-0.7134309999999999,-0.0479275,1
81,-0.0034684999999999,0.7059145,-0.0080999999999999,-0.1438964999999999,0.4940845,-0.0056419999999999,-0.2487764999999999,0.7277945,-0.0467989999999999,0.1484435,0.4774145,-0.0025969999999999,0.2550035,0.7232745,-0.0192569999999999,-0.2901365,0.9814045,-0.075585,0.3263835,0.9786045,-0.046917,-0.0709065,-0.0006595,-0.0010079999999999,0.0709065,0.0006595,0.001008,-0.1191164999999999,-0.3621955,-0.094145,0.1331435,-0.3699755,-0.079104,-0.1315265,-0.7276355,-0.06565,0.1494435,-0.7099555,-0.053542,1
82,-0.0044009999999999,0.7044644999999999,-0.0119864999999999,-0.144486,0.4928045,-0.0086445,-0.249886,0.7270445,-0.0523205,0.147484,0.4773545,-0.0056794999999999,0.255084,0.7226245,-0.0244814999999999,-0.290746,0.9808445,-0.0826165,0.327204,0.9781445,-0.0529824999999999,-0.070859,-0.0008165,-0.0011725,0.070859,0.0008165,0.0011725,-0.119916,-0.3596755,-0.1007754999999999,0.133804,-0.3677355,-0.0862165,-0.131586,-0.7239955,-0.0705075,0.149554,-0.7063455000000001,-0.0590754999999999,1
83,-0.0053024999999999,0.7024195000000001,-0.0157709999999999,-0.1450025,0.4916594999999999,-0.0115949999999999,-0.2509925,0.7263395,-0.058141,0.1463975,0.4774695,-0.008541,0.2552075,0.7221595000000001,-0.0298069999999999,-0.2913225,0.9795095,-0.0898539999999999,0.3279475,0.9778895,-0.058899,-0.0708155,-0.0009974999999999,-0.0013179999999999,0.0708155,0.0009975,0.0013179999999999,-0.1207225,-0.3570005,-0.107553,0.1344475,-0.3650205,-0.093412,-0.1316425,-0.7199304999999999,-0.075268,0.1496775,-0.7022805,-0.064495,1
84,-0.0061869999999999,0.7008025,-0.0198115,-0.145685,0.4905025,-0.0148805,-0.251655,0.7247024999999999,-0.0640095,0.145145,0.4768125,-0.0116875,0.255415,0.7209325,-0.0352055,-0.291855,0.9778125,-0.0974785,0.328325,0.9767625,-0.0649405,-0.070798,-0.0011424999999999,-0.0013905,0.070798,0.0011424999999999,0.0013904999999999,-0.121525,-0.3537475,-0.1146005,0.135075,-0.3615775,-0.1008405,-0.131685,-0.7151575,-0.0804485,0.149815,-0.6977175000000001,-0.0700125,1
85,-0.0070265,0.6992010000000001,-0.0237815,-0.1461405,0.489391,-0.0183455,-0.2522605,0.7237210000000001,-0.0699895,0.1437795,0.475731,-0.0149525,0.2556695,0.719291,-0.0406475,-0.2921905,0.976731,-0.1053085,0.3288594999999999,0.974981,-0.0711815,-0.0708635,-0.001215,-0.0014914999999999,0.0708635,0.001215,0.0014914999999999,-0.1226205,-0.352819,-0.1222995,0.1357795,-0.3575489999999999,-0.1083295,-0.1316205,-0.710089,-0.0854965,0.1500595,-0.692639,-0.0754945,1
86,-0.007751,0.697729,-0.027379,-0.146479,0.488479,-0.021779,-0.252659,0.723589,-0.075595,0.142751,0.4751189999999999,-0.018441,0.2558709999999999,0.718199,-0.045767,-0.292319,0.978259,-0.112232,0.3293609999999999,0.973699,-0.0770909999999999,-0.0709539999999999,-0.001297,-0.001509,0.0709539999999999,0.001297,0.0015089999999999,-0.123649,-0.351951,-0.129508,0.136341,-0.352521,-0.114906,-0.1315589999999999,-0.704931,-0.089888,0.150371,-0.6873509999999999,-0.080497,1
87,-0.008286,0.6959660000000001,-0.0311985,-0.146643,0.487946,-0.0250875,-0.252763,0.720736,-0.0810185,0.141777,0.474016,-0.0218145,0.256037,0.7158460000000001,-0.0510485,-0.292313,0.976986,-0.1192975,0.329947,0.971256,-0.0833214999999999,-0.071003,-0.00131,-0.0017635,0.071003,0.0013099999999999,0.0017635,-0.124613,-0.350844,-0.1367695,0.137067,-0.346554,-0.1211095,-0.131443,-0.699144,-0.0944045,0.150667,-0.6809839999999999,-0.0856055,1
88,-0.0083229999999999,0.694715,-0.0360535,-0.146359,0.487195,-0.0288954999999999,-0.252279,0.7189949999999999,-0.0874415,0.140901,0.472785,-0.0257154999999999,0.256151,0.714175,-0.0571825,-0.291769,0.976785,-0.1275365,0.330711,0.965545,-0.0932925,-0.071021,-0.00141,-0.0019484999999999,0.071021,0.0014099999999999,0.0019485,-0.125159,-0.343165,-0.1437625,0.138061,-0.338025,-0.1280385,-0.131259,-0.691535,-0.0994585,0.151021,-0.672825,-0.0914275,1
89,-0.007949,0.6935764999999999,-0.040677,-0.145896,0.4864465,-0.032614,-0.251756,0.7169365,-0.09383,0.1403539999999999,0.4725665,-0.029398,0.256734,0.7136564999999999,-0.063116,-0.291106,0.9757265,-0.1355259999999999,0.331444,0.9617965,-0.102208,-0.0710129999999999,-0.0013514999999999,-0.0022009999999999,0.0710129999999999,0.0013515,0.0022009999999999,-0.125676,-0.3355634999999999,-0.150031,0.139184,-0.3297635,-0.134276,-0.130976,-0.6845335,-0.103864,0.151254,-0.6647935,-0.095116,1
90,-0.0074479999999999,0.6921255,-0.0458405,-0.145474,0.4856755,-0.0367815,-0.2511639999999999,0.7147755,-0.1001525,0.140086,0.4713855,-0.0340395,0.256846,0.7122054999999999,-0.0696195,-0.290354,0.9744855,-0.1438605,0.332106,0.9587155,-0.1112695,-0.071088,-0.0012694999999999,-0.0023154999999999,0.071088,0.0012694999999999,0.0023154999999999,-0.126084,-0.3275045,-0.1561785,0.140426,-0.3213045,-0.1405545,-0.1306739999999999,-0.6770645,-0.1084985,0.151666,-0.6562745,-0.0997835,1
91,-0.0064019999999999,0.692141,-0.0570284999999999,-0.144446,0.485101,-0.0471894999999999,-0.2493559999999999,0.709391,-0.1121385,0.140564,0.471111,-0.0443605,0.257484,0.711361,-0.0827985,-0.288886,0.969361,-0.1602355,0.333394,0.957761,-0.1276305,-0.071305,-0.0010029999999999,-0.0026334999999999,0.071305,0.001003,0.0026334999999999,-0.1266459999999999,-0.3151489999999999,-0.1719985,0.143614,-0.3084889999999999,-0.1555805,-0.1299159999999999,-0.665369,-0.1190015,0.152124,-0.643389,-0.1089945,1
92,-0.0054364999999999,0.6927035,-0.0682484999999999,-0.1429235,0.4844035,-0.0581164999999999,-0.2464235,0.7011735,-0.1236095,0.1410665,0.4704135,-0.0548334999999999,0.2582065,0.7098335,-0.0956384999999999,-0.2872034999999999,0.9613435,-0.1763414999999999,0.3341364999999999,0.9560835,-0.1441955,-0.0714405,-0.0007724999999999,-0.0028834999999999,0.0714405,0.0007725,0.0028835,-0.1273435,-0.3024064999999999,-0.1878415,0.1468365,-0.2956364999999999,-0.1707814999999999,-0.1292734999999999,-0.6534965,-0.1297615,0.1513165,-0.6309965,-0.1180835,1
93,-0.0042335,0.6926509999999999,-0.0799435,-0.1409005,0.482961,-0.0693095,-0.2436005,0.694601,-0.1349575,0.1416095,0.470031,-0.0655234999999999,0.2592595,0.7045509999999999,-0.1088035,-0.2860805,0.953551,-0.1932295,0.3349995,0.948681,-0.1612175,-0.0716665,-0.0006049999999999,-0.0031225,0.0716665,0.0006049999999999,0.0031225,-0.1280905,-0.289289,-0.2041675,0.1502695,-0.282369,-0.1866554999999999,-0.1285905,-0.6409689999999999,-0.1403725,0.1506094999999999,-0.6179190000000001,-0.1279635,1
94,-0.0028615,0.692251,-0.091583,-0.1384685,0.4802909999999999,-0.08086,-0.2409385,0.687401,-0.146511,0.1423115,0.469891,-0.076105,0.2603014999999999,0.700191,-0.122476,-0.2850985,0.945331,-0.209805,0.3360215,0.942191,-0.178411,-0.0719075,-0.0005959999999999,-0.0033149999999999,0.0719075,0.0005959999999999,0.0033149999999999,-0.1284985,-0.276189,-0.219955,0.1537715,-0.268949,-0.202608,-0.1277285,-0.627179,-0.149279,0.1501015,-0.604349,-0.138088,1
95,-0.001539,0.692535,-0.103179,-0.13605,0.478025,-0.092481,-0.2384399999999999,0.680685,-0.157791,0.14298,0.469635,-0.086712,0.2613,0.695945,-0.135912,-0.28417,0.937665,-0.226265,0.33749,0.936665,-0.195419,-0.072118,-0.000585,-0.003405,0.072118,0.000585,0.003405,-0.1289799999999999,-0.2624649999999999,-0.235975,0.1572299999999999,-0.2553149999999999,-0.218845,-0.12691,-0.6127349999999999,-0.158237,0.1495599999999999,-0.5902649999999999,-0.148191,1
96,-0.0002054999999999,0.69292,-0.1141789999999999,-0.1333225,0.47655,-0.1036449999999999,-0.2363925,0.67778,-0.1688299999999999,0.1437375,0.46856,-0.0974039999999999,0.2626475,0.6934899999999999,-0.149975,-0.2829625,0.93287,-0.24384,0.3391075,0.93333,-0.213049,-0.0723195,-0.00042,-0.0033699999999999,0.0723195,0.00042,0.0033699999999999,-0.1294025,-0.24916,-0.2515799999999999,0.1605675,-0.24184,-0.2346099999999999,-0.1259425,-0.5982400000000001,-0.166885,0.1491575,-0.5764400000000001,-0.158027,1
97,0.0008134999999999,0.693105,-0.124306,-0.1309515,0.4753549999999999,-0.114036,-0.2350715,0.674605,-0.179433,0.1442885,0.467805,-0.107667,0.2637784999999999,0.6914549999999999,-0.163118,-0.2819215,0.928115,-0.25999,0.3393684999999999,0.934325,-0.227192,-0.0723995,-9.500000000001174e-05,-0.00335,0.0723995,9.500000000001174e-05,0.0033499999999999,-0.1300615,-0.235395,-0.26666,0.1634284999999999,-0.2291649999999999,-0.24978,-0.1250615,-0.584755,-0.174969,0.1481785,-0.564065,-0.165895,1
98,0.0016759999999999,0.692555,-0.134442,-0.128761,0.474525,-0.124134,-0.233851,0.671815,-0.190244,0.144969,0.4667249999999999,-0.117854,0.264689,0.689225,-0.176082,-0.280721,0.923895,-0.27588,0.340439,0.934715,-0.24142,-0.072473,0.0001549999999999,-0.0033299999999999,0.072473,-0.0001549999999999,0.0033299999999999,-0.130501,-0.222325,-0.28135,0.165979,-0.216905,-0.26449,-0.124141,-0.571105,-0.182924,0.146959,-0.5523549999999999,-0.173071,1
99,0.002609,0.6919150000000001,-0.144332,-0.126784,0.474345,-0.1339779999999999,-0.232614,0.6689449999999999,-0.201293,0.145516,0.466385,-0.127554,0.265286,0.6881950000000001,-0.188553,-0.280134,0.919655,-0.291645,0.341796,0.933145,-0.255645,-0.072541,0.000405,-0.0033549999999999,0.072541,-0.0004049999999999,0.0033549999999999,-0.130904,-0.209065,-0.2957849999999999,0.1683059999999999,-0.205185,-0.278795,-0.123204,-0.5578350000000001,-0.190442,0.145596,-0.5419149999999999,-0.179451,1
100,0.002713,0.6895549999999999,-0.149162,-0.126189,0.471735,-0.138776,-0.232319,0.670685,-0.208484,0.145501,0.464595,-0.132303,0.264741,0.6860649999999999,-0.19541,-0.280579,0.920545,-0.3016,0.342501,0.925455,-0.26351,-0.072748,0.000255,-0.00334,0.072748,-0.0002549999999999,0.00334,-0.131139,-0.1981049999999999,-0.30146,0.168531,-0.1949449999999999,-0.28523,-0.122769,-0.547005,-0.192735,0.143281,-0.533415,-0.179138,1
101,0.0028905,0.68632,-0.154771,-0.1259075,0.46884,-0.144167,-0.2318874999999999,0.67484,-0.21725,0.1453625,0.46258,-0.137259,0.2641525,0.68405,-0.2030749999999999,-0.2809775,0.92194,-0.3133249999999999,0.3434425,0.91983,-0.2725249999999999,-0.0729215,0.0001199999999999,-0.0034549999999999,0.0729215,-0.00012,0.003455,-0.1312375,-0.18617,-0.3072549999999999,0.1687825,-0.18365,-0.291705,-0.1223274999999999,-0.53551,-0.1957219999999999,0.1419325,-0.5233,-0.1786599999999999,1
102,0.0031894999999999,0.68354,-0.159834,-0.1256054999999999,0.4664,-0.149201,-0.2312854999999999,0.67835,-0.226092,0.1454145,0.4609799999999999,-0.141917,0.2638445,0.68655,-0.21042,-0.2813755,0.92133,-0.32454,0.3443845,0.9211,-0.28106,-0.0730195,-9.9999999999989e-05,-0.00364,0.0730195,9.9999999999989e-05,0.00364,-0.1312855,-0.17459,-0.31248,0.1691245,-0.17244,-0.2972599999999999,-0.1217555,-0.52411,-0.198417,0.1411744999999999,-0.5122,-0.180481,1
103,0.0034354999999999,0.68057,-0.1651419999999999,-0.1253165,0.4653,-0.154111,-0.2312965,0.6816,-0.235808,0.1452535,0.45824,-0.1468549999999999,0.2635935,0.68746,-0.217211,-0.2823165,0.92099,-0.3366,0.3455235,0.92296,-0.28916,-0.0730865,-7.999999999999674e-05,-0.0039499999999999,0.0730865,7.999999999999674e-05,0.00395,-0.1312165,-0.1657,-0.31786,0.1694034999999999,-0.16207,-0.30288,-0.1208665,-0.51136,-0.19998,0.1399635,-0.50142,-0.1797409999999999,1
104,0.0032669999999999,0.677245,-0.170398,-0.125184,0.464155,-0.158689,-0.232684,0.6830849999999999,-0.246219,0.145006,0.455855,-0.1515719999999999,0.263036,0.688545,-0.223947,-0.283834,0.920305,-0.3485399999999999,0.346116,0.923885,-0.29772,-0.073112,-2.4999999999997247e-05,-0.0043199999999999,0.073112,2.5000000000025e-05,0.00432,-0.131334,-0.156775,-0.32297,0.169336,-0.1514149999999999,-0.30818,-0.120144,-0.4982049999999999,-0.201102,0.138836,-0.488725,-0.180422,1
105,0.0029705,0.67386,-0.175837,-0.1253685,0.4628,-0.163342,-0.2336384999999999,0.6836500000000001,-0.256363,0.1447415,0.45455,-0.156078,0.2633115,0.68896,-0.229627,-0.2841585,0.92,-0.355965,0.3468015,0.92381,-0.3048849999999999,-0.0732035,-9.9999999999989e-05,-0.0048449999999999,0.0732035,0.0001,0.004845,-0.1313785,-0.1471699999999999,-0.328185,0.1690714999999999,-0.1398499999999999,-0.3132049999999999,-0.1195085,-0.4846199999999999,-0.201643,0.1385215,-0.47536,-0.183757,1
106,0.002492,0.67067,-0.181135,-0.1258449999999999,0.46182,-0.167749,-0.2340749999999999,0.6825600000000001,-0.265865,0.1444849999999999,0.45335,-0.16,0.263545,0.68845,-0.235058,-0.284235,0.91866,-0.36378,0.347005,0.92293,-0.30992,-0.073319,-0.0001999999999999,-0.0053799999999999,0.073319,0.0002,0.0053799999999999,-0.131515,-0.13777,-0.33327,0.1687449999999999,-0.12866,-0.31773,-0.119325,-0.47168,-0.203275,0.138395,-0.46196,-0.187766,1
107,0.0020045,0.667895,-0.1860979999999999,-0.1263844999999999,0.457785,-0.172848,-0.2341744999999999,0.681635,-0.274465,0.1443655,0.452785,-0.1636729999999999,0.2644855,0.688375,-0.240302,-0.2844945,0.917305,-0.373565,0.3480355,0.918215,-0.316145,-0.0734315,-0.000695,-0.0058549999999999,0.0734315,0.000695,0.0058549999999999,-0.1315744999999999,-0.127575,-0.338485,0.1686355,-0.1169149999999999,-0.3221549999999999,-0.1189444999999999,-0.458045,-0.204698,0.1386855,-0.4475149999999999,-0.192334,1
108,0.001532,0.665745,-0.19072,-0.126941,0.454185,-0.177785,-0.234441,0.681525,-0.28215,0.143909,0.448575,-0.167705,0.263999,0.6848050000000001,-0.24516,-0.284811,0.917945,-0.38291,0.3487789999999999,0.916025,-0.32192,-0.073467,-0.0009249999999999,-0.0063799999999999,0.073467,0.000925,0.0063799999999999,-0.131691,-0.1155949999999999,-0.3436099999999999,0.168479,-0.1036049999999999,-0.32649,-0.118671,-0.4429349999999999,-0.206134,0.138609,-0.4321049999999999,-0.195597,1
109,0.0009809999999999,0.663485,-0.194236,-0.12783,0.452395,-0.181637,-0.23454,0.679765,-0.28783,0.1434399999999999,0.445405,-0.170653,0.26417,0.682115,-0.248765,-0.28496,0.916885,-0.38972,0.34937,0.917895,-0.32669,-0.073529,-0.0009449999999999,-0.0068999999999999,0.073529,0.000945,0.0068999999999999,-0.13197,-0.104875,-0.34737,0.16816,-0.091945,-0.32953,-0.11853,-0.430115,-0.20665,0.1387,-0.418745,-0.197544,1
110,0.0006385,0.6614599999999999,-0.196762,-0.1285415,0.45119,-0.18449,-0.2346315,0.67856,-0.29196,0.1431785,0.44315,-0.172867,0.2635585,0.6794800000000001,-0.251415,-0.2849715,0.91708,-0.39443,0.3493285,0.91748,-0.32991,-0.0735695,-0.00095,-0.00741,0.0735695,0.00095,0.00741,-0.1322015,-0.09419,-0.35082,0.1680285,-0.08093,-0.3321699999999999,-0.1183014999999999,-0.41796,-0.20652,0.1388585,-0.40598,-0.198688,1
111,0.0002004999999999,0.65862,-0.1987689999999999,-0.1294044999999999,0.44974,-0.1870679999999999,-0.2348345,0.67404,-0.295535,0.1429655,0.44132,-0.174529,0.2629455,0.67767,-0.253577,-0.2850245,0.91566,-0.398935,0.3487254999999999,0.91634,-0.3327449999999999,-0.0736245,-0.0009,-0.0078449999999999,0.0736245,0.0009,0.007845,-0.1323945,-0.08213,-0.354155,0.1680855,-0.06868,-0.334595,-0.1182144999999999,-0.40448,-0.2071579999999999,0.1389555,-0.39188,-0.199428,1
112,-8.500000000003297e-06,0.656145,-0.200171,-0.1298155,0.4476349999999999,-0.1889549999999999,-0.2347855,0.6704749999999999,-0.297475,0.1431545,0.4415849999999999,-0.175423,0.2625645,0.6771849999999999,-0.25519,-0.2848255,0.913255,-0.402455,0.3499845,0.914825,-0.334855,-0.0738455,-0.001275,-0.0080649999999999,0.0738455,0.0012749999999999,0.008065,-0.1323055,-0.070725,-0.356875,0.1685144999999999,-0.057645,-0.336315,-0.1178955,-0.392265,-0.2073849999999999,0.1401945,-0.3771650000000001,-0.2039399999999999,1
113,-2.999999999999531e-06,0.653565,-0.201179,-0.1299739999999999,0.446145,-0.190429,-0.234424,0.669305,-0.29874,0.143456,0.440346,-0.175671,0.2624559999999999,0.675825,-0.256473,-0.284634,0.906345,-0.40584,0.350526,0.913885,-0.33665,-0.074127,-0.001365,-0.0080899999999999,0.074127,0.001365,0.00809,-0.132544,-0.058725,-0.35939,0.168906,-0.046185,-0.33762,-0.117614,-0.3797649999999999,-0.20736,0.141196,-0.362825,-0.207447,1
114,0.0002844999999999,0.651375,-0.201579,-0.1299435,0.444342,-0.191681,-0.2340435,0.6688050000000001,-0.299165,0.1437665,0.43886,-0.17588,0.2628565,0.674385,-0.2572149999999999,-0.2841035,0.901255,-0.408185,0.3509665,0.912905,-0.337835,-0.0744674999999999,-0.0014849999999999,-0.008115,0.0744674999999999,0.001485,0.008115,-0.1326535,-0.0461049999999999,-0.361575,0.1693365,-0.0341949999999999,-0.3387449999999999,-0.1175435,-0.366745,-0.207743,0.1420765,-0.348885,-0.21123,1
115,0.0006084999999999,0.64901,-0.201622,-0.1298975,0.44201,-0.193052,-0.2336275,0.66901,-0.29974,0.1441124999999999,0.43752,-0.176052,0.2634324999999999,0.6732,-0.257873,-0.2834475,0.89728,-0.41014,0.3514025,0.90895,-0.33929,-0.0747835,-0.0016499999999999,-0.00816,0.0747835,0.0016499999999999,0.00816,-0.1326475,-0.03423,-0.36349,0.1698325,-0.02194,-0.33977,-0.1183175,-0.35557,-0.213257,0.1429625,-0.33441,-0.215256,1
116,0.0007465,0.64681,-0.2010219999999999,-0.1297495,0.442349,-0.19305,-0.2331295,0.66937,-0.2999,0.1443505,0.435951,-0.175596,0.2639405,0.6718,-0.257894,-0.2828394999999999,0.89498,-0.41083,0.3516405,0.91079,-0.33998,-0.0751635,-0.0014,-0.0083999999999999,0.0751635,0.0014,0.0084,-0.1324795,-0.0212799999999999,-0.36485,0.1704205,-0.00828,-0.3403899999999999,-0.1193294999999999,-0.3431799999999999,-0.2182889999999999,0.1433205,-0.3187299999999999,-0.215919,1
117,0.0006569999999999,0.64428,-0.1996469999999999,-0.129789,0.442142,-0.1922379999999999,-0.233119,0.66564,-0.2992849999999999,0.144291,0.437911,-0.1742189999999999,0.264321,0.67313,-0.25656,-0.282369,0.88993,-0.4104649999999999,0.351891,0.91167,-0.339615,-0.075678,-0.0013299999999999,-0.0085049999999999,0.075678,0.0013299999999999,0.008505,-0.132439,-0.0083499999999999,-0.365055,0.1709409999999999,0.00512,-0.340125,-0.120619,-0.33085,-0.2230219999999999,0.1432709999999999,-0.30387,-0.2146239999999999,1
118,0.000558,0.64193,-0.198127,-0.129947,0.442177,-0.191253,-0.233117,0.66305,-0.29886,0.144043,0.438982,-0.172859,0.263933,0.67372,-0.255211,-0.281937,0.8862,-0.41024,0.350903,0.91215,-0.33832,-0.076133,-0.0011599999999999,-0.0085,0.076133,0.0011599999999999,0.0085,-0.132517,0.00468,-0.36499,0.171393,0.0185299999999999,-0.33979,-0.122147,-0.31864,-0.227684,0.143153,-0.28744,-0.213388,1
119,0.0010129999999999,0.639885,-0.196439,-0.129815,0.441546,-0.189813,-0.232625,0.660705,-0.2983099999999999,0.144065,0.4394099999999999,-0.171427,0.2643749999999999,0.674375,-0.253531,-0.281225,0.884155,-0.4099,0.351205,0.911245,-0.33651,-0.076371,-0.001005,-0.0084299999999999,0.076371,0.0010049999999999,0.0084299999999999,-0.132355,0.0170849999999999,-0.36396,0.1719649999999999,0.0313649999999999,-0.33832,-0.123355,-0.306925,-0.232287,0.143285,-0.270045,-0.211948,1
120,0.0016789999999999,0.63903,-0.194641,-0.1296,0.441922,-0.188065,-0.23223,0.66344,-0.29726,0.14446,0.439736,-0.169078,0.2652899999999999,0.67376,-0.251727,-0.28088,0.88721,-0.40917,0.35189,0.91128,-0.33419,-0.076551,-0.0006999999999999,-0.00815,0.076551,0.0007,0.0081499999999999,-0.13208,0.02903,-0.3622,0.17236,0.04366,-0.33656,-0.1245999999999999,-0.29593,-0.236832,0.14309,-0.2552299999999999,-0.209909,1
121,0.0024054999999999,0.6382049999999999,-0.192848,-0.1295825,0.442465,-0.186396,-0.2321025,0.665505,-0.29532,0.1448975,0.4393519999999999,-0.16668,0.2662375,0.668145,-0.248998,-0.2807525,0.891015,-0.4075,0.3528875,0.906165,-0.3324399999999999,-0.0766695,-0.0002449999999999,-0.00783,0.0766695,0.0002449999999999,0.00783,-0.1316725,0.0412649999999999,-0.3605,0.1725075,0.0561249999999999,-0.33488,-0.1258225,-0.284695,-0.241479,0.1429275,-0.239985,-0.208254,1
122,0.0032484999999999,0.63775,-0.190518,-0.1293564999999999,0.442036,-0.184605,-0.2318764999999999,0.66581,-0.2929049999999999,0.1453035,0.440648,-0.163832,0.2667135,0.6669700000000001,-0.246057,-0.2801465,0.89548,-0.404975,0.3536335,0.90399,-0.329525,-0.0768804999999999,-0.00039,-0.0075449999999999,0.0768804999999999,0.00039,0.0075449999999999,-0.1309565,0.0559,-0.358785,0.1727435,0.07088,-0.333065,-0.1269664999999999,-0.27136,-0.245917,0.1419435,-0.2224,-0.206669,1
123,0.0037839999999999,0.636985,-0.188169,-0.129137,0.441682,-0.182785,-0.231937,0.665595,-0.29141,0.145313,0.442296,-0.161146,0.267543,0.666275,-0.243397,-0.280167,0.898055,-0.40297,0.354473,0.902365,-0.32687,-0.077099,-0.0005249999999999,-0.00722,0.077099,0.0005249999999999,0.00722,-0.130427,0.068875,-0.35688,0.172633,0.084035,-0.33076,-0.127917,-0.259575,-0.249207,0.140503,-0.2064749999999999,-0.205286,1
124,0.0042315,0.636165,-0.1853869999999999,-0.1290545,0.441729,-0.1806529999999999,-0.2319745,0.662785,-0.28994,0.1451655,0.443167,-0.158294,0.2676655,0.666675,-0.2404029999999999,-0.2802345,0.897785,-0.40107,0.3553155,0.904715,-0.3243499999999999,-0.0772154999999999,-0.0005849999999999,-0.0069799999999999,0.0772154999999999,0.000585,0.00698,-0.1300845,0.0833849999999999,-0.354,0.1724655,0.0978649999999999,-0.32765,-0.1279445,-0.245025,-0.247877,0.1389055,-0.1891749999999999,-0.2053009999999999,1
125,0.0044425,0.63488,-0.183273,-0.1291085,0.441561,-0.179143,-0.2320485,0.65986,-0.288875,0.1450215,0.443541,-0.156289,0.2685715,0.6664800000000001,-0.238235,-0.2803285,0.89296,-0.400165,0.3559615,0.90453,-0.322555,-0.0773385,-0.0007099999999999,-0.0068149999999999,0.0773385,0.0007099999999999,0.0068149999999999,-0.1298485,0.09549,-0.351605,0.1722215,0.10927,-0.325245,-0.1279885,-0.2329599999999999,-0.247172,0.1372715,-0.17445,-0.205957,1
126,0.0044044999999999,0.6339239999999999,-0.181932,-0.1291955,0.4408499999999999,-0.178129,-0.2321455,0.66093,-0.28771,0.1448945,0.443893,-0.154852,0.2696544999999999,0.66648,-0.236788,-0.2804255,0.89238,-0.39952,0.3564144999999999,0.90251,-0.3211,-0.0774495,-0.00102,-0.00669,0.0774495,0.00102,0.00669,-0.1297755,0.1057799999999999,-0.3493199999999999,0.1718745,0.1192099999999999,-0.32313,-0.1280055,-0.22252,-0.247037,0.1357745,-0.1618199999999999,-0.207341,1
127,0.0043469999999999,0.633206,-0.1806009999999999,-0.129251,0.440605,-0.1771479999999999,-0.232681,0.662105,-0.286505,0.144779,0.444825,-0.153489,0.270589,0.666875,-0.2353539999999999,-0.280481,0.8918550000000001,-0.398795,0.356069,0.900925,-0.318945,-0.07749,-0.001395,-0.0066149999999999,0.07749,0.001395,0.006615,-0.129821,0.115565,-0.346755,0.171369,0.128895,-0.320795,-0.127961,-0.212465,-0.2469469999999999,0.134209,-0.1495649999999999,-0.2088549999999999,1
128,0.0044224999999999,0.6329,-0.1793779999999999,-0.1291514999999999,0.44097,-0.1762139999999999,-0.2335915,0.662482,-0.28512,0.1446184999999999,0.4463499999999999,-0.1521839999999999,0.2716785,0.66774,-0.234098,-0.2803915,0.8906799999999999,-0.39783,0.3558385,0.90064,-0.31767,-0.0773985,-0.00178,-0.0065599999999999,0.0773985,0.00178,0.00656,-0.1297114999999999,0.1242899999999999,-0.34401,0.1707584999999999,0.1376299999999999,-0.31845,-0.1282615,-0.20355,-0.24697,0.1327984999999999,-0.13775,-0.21059,1
129,0.004709,0.633158,-0.178197,-0.128994,0.4405199999999999,-0.175029,-0.234554,0.660617,-0.28434,0.144676,0.4477299999999999,-0.150867,0.272916,0.669111,-0.233289,-0.281204,0.8878299999999999,-0.3974,0.355426,0.89874,-0.31653,-0.077323,-0.00231,-0.00644,0.077323,0.00231,0.00644,-0.129494,0.1306799999999999,-0.34188,0.170206,0.1438399999999999,-0.31665,-0.128164,-0.19727,-0.247039,0.132186,-0.12733,-0.212402,1
130,0.0050485,0.634082,-0.177013,-0.1288945,0.4406,-0.173439,-0.2352945,0.6581830000000001,-0.2829,0.1447955,0.44858,-0.149553,0.2734855,0.675246,-0.232753,-0.2819945,0.88485,-0.39654,0.3550455,0.9004300000000001,-0.31614,-0.0772445,-0.0026199999999999,-0.00631,0.0772445,0.00262,0.00631,-0.1291945,0.13546,-0.34023,0.1695654999999999,0.14861,-0.31515,-0.1279045,-0.1926899999999999,-0.247026,0.1323155,-0.1186899999999999,-0.214006,1
131,0.0050329999999999,0.635019,-0.176361,-0.12905,0.44152,-0.172251,-0.23589,0.6554409999999999,-0.2810249999999999,0.14479,0.44857,-0.148755,0.2736699999999999,0.676596,-0.232298,-0.28306,0.8848,-0.3949749999999999,0.3540999999999999,0.90178,-0.315775,-0.077303,-0.00261,-0.0062049999999999,0.077303,0.00261,0.006205,-0.12903,0.1355,-0.339515,0.16882,0.1487199999999999,-0.3147649999999999,-0.12787,-0.19266,-0.247074,0.13268,-0.11665,-0.215719,1
132,0.0046654999999999,0.635289,-0.175881,-0.1293004999999999,0.44179,-0.171046,-0.2361105,0.652171,-0.27856,0.1448195,0.44833,-0.147993,0.2732895,0.676866,-0.231738,-0.2841705,0.88391,-0.393,0.3532795,0.90205,-0.31535,-0.0773145,-0.0024,-0.00624,0.0773145,0.0023999999999999,0.0062399999999999,-0.1288705,0.1342299999999999,-0.33901,0.1683494999999999,0.1477899999999999,-0.31431,-0.1278004999999999,-0.1936999999999999,-0.247036,0.1330695,-0.11638,-0.217977,1
133,0.0041949999999999,0.635289,-0.1754659999999999,-0.129499,0.44179,-0.170127,-0.235869,0.652171,-0.27693,0.1448809999999999,0.44833,-0.147535,0.2735309999999999,0.677416,-0.2316959999999999,-0.284459,0.88391,-0.39182,0.3535709999999999,0.90205,-0.3158499999999999,-0.077316,-0.0024,-0.0063499999999999,0.077316,0.0023999999999999,0.00635,-0.128799,0.1331199999999999,-0.33855,0.168371,0.1469499999999999,-0.31386,-0.127379,-0.1945299999999999,-0.247309,0.1332809999999999,-0.11638,-0.2175639999999999,1
134,0.0035514999999999,0.635289,-0.1755189999999999,-0.1299245,0.44179,-0.169645,-0.2359445,0.652171,-0.2758199999999999,0.1448154999999999,0.44833,-0.1475419999999999,0.2735555,0.677906,-0.2318279999999999,-0.2849144999999999,0.88391,-0.3909,0.3532655,0.90348,-0.31743,-0.0773015,-0.0024,-0.0063499999999999,0.0773015,0.0023999999999999,0.00635,-0.1292945,0.13215,-0.33859,0.1683955,0.1460699999999999,-0.314,-0.1270745,-0.19537,-0.247573,0.1341055,-0.11638,-0.217499,1
135,0.002864,0.637207,-0.175192,-0.130411,0.44374,-0.168827,-0.236071,0.652171,-0.27423,0.144739,0.44833,-0.147166,0.273209,0.678909,-0.231976,-0.2852709999999999,0.88391,-0.3897,0.3528489999999999,0.90535,-0.31842,-0.077307,-0.0024,-0.0062299999999999,0.077307,0.0023999999999999,0.00623,-0.129801,0.1315899999999999,-0.33889,0.168459,0.1454499999999999,-0.31475,-0.1267309999999999,-0.19586,-0.247441,0.135709,-0.11675,-0.2169869999999999,1
136,0.0023195,0.6401260000000001,-0.174814,-0.1309075,0.44706,-0.167685,-0.2360975,0.651246,-0.272665,0.1447325,0.44803,-0.146499,0.2726625,0.67888,-0.231097,-0.2855875,0.88743,-0.388085,0.3517025,0.90596,-0.319115,-0.0772885,-0.002,-0.0060349999999999,0.0772885,0.002,0.006035,-0.1302975,0.12828,-0.340175,0.1687325,0.14235,-0.3164249999999999,-0.1263874999999999,-0.1986299999999999,-0.246799,0.1375525,-0.1228899999999999,-0.215305,1
137,0.0018799999999999,0.643561,-0.174016,-0.131335,0.44965,-0.166185,-0.236255,0.6489940000000001,-0.271595,0.144785,0.44696,-0.14536,0.271715,0.6785800000000001,-0.230034,-0.286345,0.88673,-0.3870949999999999,0.351095,0.90558,-0.319575,-0.077272,-0.0014599999999999,-0.0058249999999999,0.077272,0.00146,0.0058249999999999,-0.130925,0.12313,-0.342005,0.169295,0.13729,-0.318585,-0.125995,-0.2033399999999999,-0.245718,0.139715,-0.1311099999999999,-0.213172,1
138,0.0019504999999999,0.647296,-0.174735,-0.1313775,0.45296,-0.165924,-0.2365875,0.6459429999999999,-0.272045,0.1452225,0.44692,-0.14557,0.2710424999999999,0.6788099999999999,-0.229898,-0.2867975,0.88496,-0.387615,0.3502524999999999,0.90811,-0.320505,-0.0771945,-0.00095,-0.0060149999999999,0.0771945,0.00095,0.0060149999999999,-0.1313275,0.1156199999999999,-0.345435,0.1702225,0.1296099999999999,-0.321925,-0.1252775,-0.21059,-0.245546,0.1424225,-0.1416899999999999,-0.212509,1
139,0.0019885,0.6509800000000001,-0.175616,-0.1314384999999999,0.4553650000000001,-0.1656849999999999,-0.2366585,0.6418330000000001,-0.27201,0.1455715,0.445075,-0.1456409999999999,0.2702715,0.678305,-0.2302389999999999,-0.2874485,0.881815,-0.38831,0.3498115,0.909035,-0.3223199999999999,-0.0770885,-0.0002349999999999,-0.0060599999999999,0.0770885,0.000235,0.00606,-0.1316085,0.105785,-0.3488,0.1710915,0.119245,-0.3252,-0.1248485,-0.2202649999999999,-0.245471,0.1453415,-0.1549449999999999,-0.2120129999999999,1
140,0.0019065,0.65496,-0.175341,-0.1313825,0.457293,-0.1650289999999999,-0.2358225,0.642615,-0.270685,0.1456775,0.446879,-0.145171,0.2686375,0.67967,-0.2299089999999999,-0.2884025,0.88251,-0.387235,0.3490574999999999,0.91097,-0.321915,-0.0767835,9.00000000000345e-05,-0.006135,0.0767835,-9.00000000000345e-05,0.006135,-0.1315925,0.09405,-0.350705,0.1717175,0.10719,-0.327065,-0.1245625,-0.2319299999999999,-0.2449859999999999,0.1480975,-0.1703399999999999,-0.211617,1
141,0.002077,0.65706,-0.174013,-0.131198,0.458566,-0.1635069999999999,-0.2357479999999999,0.6451600000000001,-0.267495,0.145602,0.446723,-0.143863,0.266582,0.67737,-0.228568,-0.288778,0.8854200000000001,-0.384715,0.348222,0.91284,-0.320665,-0.076519,0.0002699999999999,-0.006025,0.076519,-0.0002699999999999,0.006025,-0.1315079999999999,0.07799,-0.350305,0.172192,0.09071,-0.326505,-0.124368,-0.2477199999999999,-0.2436559999999999,0.150202,-0.1902699999999999,-0.210261,1
142,0.002278,0.65866,-0.172713,-0.131017,0.459721,-0.162031,-0.234587,0.64717,-0.263985,0.145643,0.4465159999999999,-0.142576,0.264773,0.67779,-0.227091,-0.288637,0.8876999999999999,-0.381795,0.3467329999999999,0.91588,-0.319505,-0.076232,0.0004199999999999,-0.0058749999999999,0.076232,-0.0004199999999999,0.0058749999999999,-0.131377,0.0606399999999999,-0.349415,0.172843,0.0729799999999999,-0.325955,-0.124057,-0.2648400000000001,-0.24231,0.151563,-0.2108999999999999,-0.208743,1
143,0.002443,0.66183,-0.171128,-0.1308919999999999,0.461996,-0.159864,-0.233142,0.65335,-0.2603,0.145828,0.447387,-0.140591,0.262828,0.67936,-0.224806,-0.288002,0.89209,-0.37828,0.344898,0.912,-0.3173,-0.07597,0.0006599999999999,-0.00561,0.07597,-0.0006599999999999,0.00561,-0.131212,0.03721,-0.34783,0.173408,0.0483299999999999,-0.32447,-0.122752,-0.28821,-0.239759,0.152438,-0.2393,-0.206458,1
144,0.0025789999999999,0.66491,-0.168984,-0.130542,0.462437,-0.157429,-0.232582,0.6578,-0.256555,0.145998,0.448667,-0.138312,0.262208,0.67961,-0.2208129999999999,-0.288282,0.89428,-0.373895,0.344328,0.91219,-0.314115,-0.075715,0.0006599999999999,-0.0054349999999999,0.075715,-0.0006599999999999,0.0054349999999999,-0.131032,0.00913,-0.346225,0.173598,0.0186,-0.322865,-0.121362,-0.3172999999999999,-0.237171,0.152518,-0.27241,-0.203537,1
145,0.002673,0.667515,-0.166273,-0.130296,0.4619839999999999,-0.154532,-0.232086,0.661955,-0.251795,0.146104,0.4503709999999999,-0.135516,0.261414,0.679685,-0.216263,-0.288556,0.897975,-0.367315,0.343984,0.912305,-0.310155,-0.0755,0.0004349999999999,-0.005205,0.0755,-0.000435,0.0052049999999999,-0.130956,-0.018465,-0.344265,0.173674,-0.009505,-0.320905,-0.120326,-0.345495,-0.233512,0.152574,-0.304165,-0.201363,1
146,0.0026945,0.670595,-0.162703,-0.1299605,0.462374,-0.151049,-0.2324805,0.666355,-0.2458479999999999,0.1462095,0.455229,-0.1321089999999999,0.2606595,0.6783049999999999,-0.2113729999999999,-0.2895605,0.901415,-0.35919,0.3425295,0.911895,-0.30418,-0.0752275,4.999999999977245e-06,-0.0048899999999999,0.0752275,-4.999999999977245e-06,0.00489,-0.1308905,-0.046325,-0.34151,0.1736495,-0.0375249999999999,-0.31869,-0.1194105,-0.374125,-0.229499,0.1525195,-0.336445,-0.198794,1
147,0.0027434999999999,0.67365,-0.158384,-0.1298215,0.46293,-0.14677,-0.2331415,0.67241,-0.239724,0.1462085,0.45802,-0.128428,0.2603685,0.68148,-0.206107,-0.2907214999999999,0.90808,-0.3503549999999999,0.3416185,0.91535,-0.297885,-0.0750015,-0.0003799999999999,-0.004755,0.0750015,0.0003799999999999,0.0047549999999999,-0.1305815,-0.0751399999999999,-0.337355,0.1735185,-0.0667499999999999,-0.315395,-0.1185815,-0.40456,-0.225276,0.1521185,-0.37117,-0.196158,1
148,0.002682,0.6775549999999999,-0.1533649999999999,-0.129772,0.464205,-0.142119,-0.2345819999999999,0.678395,-0.2335439999999999,0.146378,0.4626949999999999,-0.124327,0.260058,0.685775,-0.2004599999999999,-0.292592,0.915035,-0.3419299999999999,0.341218,0.920195,-0.29106,-0.074765,-0.000885,-0.0047099999999999,0.074765,0.0008849999999999,0.00471,-0.130072,-0.102665,-0.33226,0.173308,-0.094775,-0.31125,-0.117922,-0.434485,-0.221188,0.151768,-0.404875,-0.193291,1
149,0.0024899999999999,0.68109,-0.147665,-0.129838,0.46584,-0.13698,-0.236528,0.6827,-0.2270279999999999,0.146532,0.4644299999999999,-0.1192599999999999,0.259782,0.68919,-0.194707,-0.294618,0.92135,-0.33268,0.3405519999999999,0.92332,-0.28376,-0.074409,-0.00102,-0.0046999999999999,0.074409,0.0010199999999999,0.0047,-0.129348,-0.12922,-0.3254899999999999,0.172672,-0.12165,-0.30567,-0.117458,-0.46406,-0.2169629999999999,0.151312,-0.43774,-0.1903289999999999,1
150,0.0022475,0.686015,-0.141216,-0.1296855,0.468655,-0.131342,-0.2381555,0.684495,-0.220204,0.1466445,0.468315,-0.113955,0.2592744999999999,0.6963550000000001,-0.188406,-0.2966054999999999,0.924065,-0.32276,0.3395445,0.931045,-0.27532,-0.0740455,-0.001005,-0.0046799999999999,0.0740455,0.0010049999999999,0.0046799999999999,-0.1285055,-0.151675,-0.31827,0.1719545,-0.144195,-0.30012,-0.1174655,-0.490385,-0.213843,0.1510545,-0.466615,-0.18734,1
151,0.0019629999999999,0.6919299999999999,-0.1337119999999999,-0.129595,0.47207,-0.1242969999999999,-0.239585,0.68874,-0.2119789999999999,0.146735,0.4723199999999999,-0.1078239999999999,0.259835,0.7005600000000001,-0.1810159999999999,-0.298575,0.9289,-0.31042,0.338345,0.93711,-0.26637,-0.073784,-0.00088,-0.0044999999999999,0.073784,0.0008799999999999,0.0045,-0.127765,-0.1740499999999999,-0.31037,0.171205,-0.16733,-0.2932399999999999,-0.117495,-0.5183,-0.209218,0.150785,-0.4963499999999999,-0.1834269999999999,1
152,0.0016949999999999,0.696015,-0.12622,-0.129803,0.473555,-0.117645,-0.241383,0.689945,-0.201451,0.146997,0.474895,-0.101978,0.259287,0.703495,-0.173272,-0.300123,0.932675,-0.29702,0.337057,0.945475,-0.25733,-0.073727,-0.0008749999999999,-0.00444,0.073727,0.000875,0.0044399999999999,-0.127523,-0.190355,-0.30288,0.170357,-0.1836549999999999,-0.28656,-0.117653,-0.5395349999999999,-0.204307,0.150427,-0.517935,-0.179356,1
153,0.0011269999999999,0.700365,-0.117049,-0.130332,0.476035,-0.109234,-0.242482,0.693445,-0.189576,0.147218,0.4787749999999999,-0.094022,0.259638,0.708845,-0.164684,-0.3023019999999999,0.938815,-0.282665,0.336148,0.949335,-0.245925,-0.073407,-0.0008849999999999,-0.004165,0.073407,0.0008849999999999,0.004165,-0.127642,-0.202385,-0.293875,0.1691079999999999,-0.195785,-0.277665,-0.1179219999999999,-0.5553250000000001,-0.197538,0.149798,-0.5343950000000001,-0.173286,1
154,0.0004555,0.705055,-0.106928,-0.1309575,0.477355,-0.1007359999999999,-0.2436974999999999,0.697975,-0.17779,0.1472525,0.482535,-0.085669,0.2600125,0.7149049999999999,-0.15492,-0.3048174999999999,0.943395,-0.268185,0.3341925,0.952685,-0.232815,-0.0728885,-0.0010449999999999,-0.0038249999999999,0.0728885,0.0010449999999999,0.0038249999999999,-0.1279175,-0.2147649999999999,-0.284495,0.1677225,-0.209385,-0.2680949999999999,-0.1184775,-0.571655,-0.190466,0.1489825,-0.551625,-0.166542,1
155,1.800000000000239e-05,0.7092700000000001,-0.097601,-0.1314469999999999,0.48006,-0.092854,-0.2456769999999999,0.70475,-0.167271,0.147403,0.4849,-0.077785,0.261233,0.72372,-0.145379,-0.307137,0.95073,-0.254965,0.333643,0.95689,-0.220075,-0.072591,-0.00098,-0.003535,0.072591,0.00098,0.0035349999999999,-0.127907,-0.22568,-0.275185,0.166483,-0.2219199999999999,-0.258385,-0.119057,-0.58637,-0.183798,0.148283,-0.5678599999999999,-0.159627,1
156,-0.0003624999999999,0.711585,-0.088045,-0.1318145,0.480965,-0.084942,-0.2466945,0.7078450000000001,-0.156177,0.1477254999999999,0.487005,-0.0693439999999999,0.2614355,0.7262850000000001,-0.1345879999999999,-0.3097945,0.954735,-0.24034,0.3325055,0.952115,-0.20543,-0.0722375,-0.000785,-0.0032599999999999,0.0722375,0.0007849999999999,0.0032599999999999,-0.1278045,-0.236245,-0.26402,0.1650555,-0.233685,-0.2472099999999999,-0.1196145,-0.600515,-0.175207,0.1476655,-0.584145,-0.152832,1
157,-0.0004665,0.7138565,-0.0790895,-0.1319935,0.4818064999999999,-0.0775295,-0.2476235,0.7115265,-0.1458125,0.1482165,0.4888165,-0.0613365,0.2615665,0.7284565,-0.1243175,-0.3118335,0.9592165,-0.2263685,0.3315265,0.9475265,-0.1912645,-0.0720195,-0.0006835,-0.0029234999999999,0.0720195,0.0006835,0.0029234999999999,-0.1274935,-0.2464935,-0.2529285,0.1638865,-0.2449535,-0.2360385,-0.1201135,-0.6139635,-0.1669195,0.1474565,-0.5995035,-0.1457395,1
158,-0.0009799999999999,0.7168545,-0.0711724999999999,-0.133054,0.4823945,-0.0708895,-0.2493139999999999,0.7118045,-0.1365565,0.148146,0.4899445,-0.0550214999999999,0.261376,0.7298545,-0.1151664999999999,-0.3140139999999999,0.9600745,-0.2135234999999999,0.330876,0.9448145,-0.1778715,-0.071589,-0.0003105,-0.0025454999999999,0.071589,0.0003104999999999,0.0025455,-0.127504,-0.2619055,-0.2419335,0.162196,-0.2594055,-0.2249535,-0.120794,-0.6284255,-0.1591805,0.146766,-0.6139155000000001,-0.1390984999999999,1
159,-0.0015744999999999,0.7197395000000001,-0.0639155,-0.1341685,0.4829195,-0.0648585,-0.2511485,0.7135995,-0.1278555,0.1480015,0.4910195,-0.0492305,0.2609815,0.7314295000000001,-0.1056855,-0.3161385,0.9623895,-0.2009805,0.3302115,0.9391395,-0.1652205,-0.0712184999999999,6.1500000000006e-05,-0.0023625,0.0712184999999999,-6.149999999999212e-05,0.0023625,-0.1276284999999999,-0.2772105,-0.2308505,0.1604415,-0.2732805,-0.2135105,-0.1217385,-0.6420005,-0.1517205,0.1461215,-0.6271105,-0.1329625,1
160,-0.0022739999999999,0.7201584999999999,-0.0538329999999999,-0.135585,0.4815085,-0.0559599999999999,-0.2531949999999999,0.7118785,-0.1169149999999999,0.147625,0.4897885,-0.040511,0.260235,0.7308184999999999,-0.093541,-0.317785,0.9610885,-0.186362,0.329075,0.9320585,-0.149853,-0.0708169999999999,0.0001125,-0.002514,0.0708169999999999,-0.0001125,0.002514,-0.127845,-0.2926815,-0.215772,0.158215,-0.2867714999999999,-0.197952,-0.122955,-0.6548815,-0.141065,0.145205,-0.6400415,-0.1229889999999999,1
161,-0.003092,0.7201744999999999,-0.0426109999999999,-0.137142,0.4826045,-0.045369,-0.2552219999999999,0.7131645,-0.104693,0.147058,0.4907445,-0.030148,0.259148,0.7321045,-0.0802539999999999,-0.3195019999999999,0.9599645,-0.1702739999999999,0.327908,0.9261045,-0.133186,-0.070426,0.0001545,-0.002212,0.070426,-0.0001545,0.002212,-0.126822,-0.3085955,-0.1948539999999999,0.154678,-0.3003955,-0.177464,-0.124342,-0.6688555,-0.128023,0.144188,-0.6542655,-0.111127,1
162,-0.0037299999999999,0.7193945,-0.0320525,-0.13873,0.4837145,-0.0352835,-0.25698,0.7136945,-0.0931195,0.14654,0.4904544999999999,-0.0202535,0.25806,0.7324645000000001,-0.0674895,-0.3211199999999999,0.9586345,-0.1547995,0.3264,0.9210845,-0.1185245,-0.070112,0.0002854999999999,-0.0018384999999999,0.070112,-0.0002855,0.0018384999999999,-0.12573,-0.3228355,-0.1744715,0.15116,-0.3130355,-0.1577715,-0.12566,-0.6828255,-0.1154645,0.14327,-0.6680855,-0.0999435,1
163,-0.004379,0.718331,-0.0225279999999999,-0.139997,0.485511,-0.026146,-0.258467,0.714321,-0.0830809999999999,0.146033,0.490391,-0.0107169999999999,0.257083,0.732691,-0.056281,-0.3225369999999999,0.957661,-0.141194,0.324993,0.917051,-0.105122,-0.0702,0.0005549999999999,-0.001568,0.0702,-0.0005549999999999,0.001568,-0.124667,-0.334729,-0.1541219999999999,0.147393,-0.323769,-0.138542,-0.126867,-0.695979,-0.103055,0.142403,-0.680119,-0.089091,1
164,-0.0048835,0.717372,-0.0130585,-0.1412005,0.485742,-0.0170655,-0.2597604999999999,0.713812,-0.0731505,0.1454095,0.489072,-0.0013364999999999,0.2562894999999999,0.731892,-0.0452165,-0.3234805,0.955502,-0.1283135,0.3237795,0.913762,-0.0924275,-0.0702845,0.000681,-0.0013355,0.0702845,-0.0006809999999999,0.0013355,-0.1237705,-0.345628,-0.1337795,0.1434895,-0.333488,-0.1185755,-0.1279305,-0.707928,-0.0909595,0.1418395,-0.690918,-0.0782105,1
165,-0.0050899999999999,0.7180300000000001,-0.0050804999999999,-0.142353,0.48692,-0.0094955,-0.260553,0.7155400000000001,-0.0650294999999999,0.144867,0.48891,0.0063894999999999,0.2558169999999999,0.73207,-0.0365115,-0.323683,0.95329,-0.1188174999999999,0.323347,0.91872,-0.0830645,-0.070254,0.0006929999999999,-0.0012334999999999,0.070254,-0.000693,0.0012335,-0.123143,-0.3539299999999999,-0.1158965,0.140037,-0.33985,-0.1002094999999999,-0.128723,-0.71597,-0.0817114999999999,0.141587,-0.69789,-0.0685045,1
166,-0.0047735,0.7177795,0.0029474999999999,-0.1432445,0.4883195000000001,-0.0015655,-0.2610445,0.7166294999999999,-0.0565625,0.1446355,0.4886095,0.0141414999999999,0.2556155,0.7319795,-0.0273905,-0.3234745,0.9503795,-0.1091235,0.3235755,0.9249395,-0.0732805,-0.0703815,0.0008505,-0.0012975,0.0703815,-0.0008505,0.0012975,-0.1225445,-0.3608504999999999,-0.0966575,0.1363355,-0.3458004999999999,-0.0795795,-0.1292745,-0.7238305,-0.0718985,0.1414055,-0.7047905,-0.0577545,1
167,-0.0044365,0.716821,0.0110605,-0.1442705,0.489641,0.0064355,-0.2614805,0.718051,-0.0480905,0.1444295,0.4877209999999999,0.0218575,0.2553495,0.731231,-0.0182935,-0.3229305,0.947881,-0.0993715,0.3243095,0.931081,-0.0633685,-0.0705165,0.000758,-0.0013895,0.0705165,-0.0007579999999999,0.0013895,-0.1220904999999999,-0.367529,-0.0779995,0.1325895,-0.351459,-0.0594855,-0.1298405,-0.731739,-0.0618735,0.1411994999999999,-0.710619,-0.0467345,1
168,-0.0040734999999999,0.7153835,0.0188979999999999,-0.1453565,0.4906834999999999,0.014443,-0.2615265,0.7193035,-0.039744,0.1442435,0.4866135,0.029536,0.2550735,0.7302235,-0.0095459999999999,-0.3222365,0.9453635,-0.090014,0.3260935,0.9368935,-0.053957,-0.0706125,0.0006864999999999,-0.001344,0.0706125,-0.0006864999999999,0.0013439999999999,-0.1216164999999999,-0.3748765,-0.059937,0.1290135,-0.3582965,-0.040051,-0.1307364999999999,-0.7403565,-0.052165,0.1408535,-0.7160665,-0.0353,1
169,-0.0032509999999999,0.7154945,0.0225085,-0.146246,0.4929344999999999,0.0183555,-0.261336,0.7224845,-0.0356234999999999,0.144334,0.4880544999999999,0.0329625,0.255264,0.7314944999999999,-0.0052315,-0.320986,0.9454245,-0.0848735,0.328594,0.9450845,-0.0488715,-0.070746,0.0007384999999999,-0.0011144999999999,0.070746,-0.0007385,0.0011145,-0.1211059999999999,-0.3798655,-0.0470915,0.126004,-0.3630455,-0.0265394999999999,-0.131326,-0.7464055,-0.0467734999999999,0.140834,-0.7189555,-0.0286935,1
170,-0.0023819999999999,0.7159850000000001,0.024375,-0.146563,0.4929849999999999,0.020334,-0.2612529999999999,0.722175,-0.033482,0.1444369999999999,0.487895,0.0347479999999999,0.255387,0.731195,-0.002747,-0.3195329999999999,0.944715,-0.082022,0.330617,0.952175,-0.045238,-0.070738,0.0008289999999999,-0.001303,0.070738,-0.000829,0.001303,-0.121553,-0.381765,-0.040651,0.1242669999999999,-0.364945,-0.0184919999999999,-0.131823,-0.7484649999999999,-0.044067,0.1408569999999999,-0.7208549999999999,-0.024267,1
171,-0.001486,0.7161875,0.0262205,-0.146706,0.4926075,0.0222825,-0.261146,0.7221475,-0.0318035,0.144584,0.4875175,0.0364305,0.255634,0.7308175,-0.0004565,-0.318086,0.9443375,-0.0794435,0.332584,0.9588275,-0.0421885,-0.070743,0.0009184999999999,-0.0014935,0.070743,-0.0009185,0.0014934999999999,-0.122016,-0.3836625,-0.0346915,0.122594,-0.3665425,-0.0108895,-0.132226,-0.7494225,-0.0418345,0.1403039999999999,-0.7212324999999999,-0.0202825,1
172,-0.0006045,0.7161465,0.027863,-0.1468525,0.4923765,0.0241259999999999,-0.2612724999999999,0.7219565,-0.030243,0.1447574999999999,0.4872865,0.038015,0.2562175,0.7305865,0.00187,-0.3165325,0.9441065,-0.0769919999999999,0.3345575,0.9655065,-0.039337,-0.0707265,0.0010044999999999,-0.001697,0.0707265,-0.0010044999999999,0.001697,-0.1224425,-0.3853835,-0.029338,0.1211075,-0.3679734999999999,-0.003961,-0.1325825,-0.7501234999999999,-0.039618,0.1397475,-0.7214735,-0.016515,1
173,0.0004575,0.7160974999999999,0.0293265,-0.1467745,0.4923275,0.0256315,-0.2605645,0.7219074999999999,-0.0284875,0.1451555,0.4872375,0.0394264999999999,0.2570555,0.7305375,0.0040225,-0.3148745,0.9440575,-0.0747834999999999,0.3365754999999999,0.9657575,-0.0367065,-0.0708765,0.0010384999999999,-0.0019075,0.0708765,-0.0010384999999999,0.0019075,-0.1229145,-0.3838625,-0.0248795,0.1201155,-0.3680225,0.0015125,-0.1328245,-0.7507225000000001,-0.0375765,0.1397855,-0.7218325000000001,-0.0130265,1
174,0.001592,0.7160345,0.03046,-0.146526,0.4923045,0.026789,-0.259656,0.7218445,-0.026487,0.145654,0.4869645,0.040874,0.258024,0.7301045,0.006548,-0.312886,0.9433245,-0.072395,0.338454,0.9702945,-0.03372,-0.070961,0.0010555,-0.00206,0.070961,-0.0010555,0.00206,-0.123296,-0.3831854999999999,-0.021689,0.119334,-0.3680854999999999,0.005491,-0.133156,-0.7522654999999999,-0.035884,0.139764,-0.7225155,-0.0102599999999999,1
175,0.0023815,0.715981,0.0310119999999999,-0.1463875,0.492131,0.02748,-0.2588375,0.721791,-0.0250409999999999,0.1459925,0.486591,0.041888,0.2589125,0.729511,0.008643,-0.3112175,0.942191,-0.070938,0.3402925,0.970441,-0.0313759999999999,-0.0709515,0.0010679999999999,-0.00214,0.0709515,-0.0010679999999999,0.00214,-0.1236275,-0.382969,-0.020355,0.1190925,-0.368139,0.006596,-0.1334274999999999,-0.753739,-0.035024,0.1396625,-0.723059,-0.008899,1
176,0.0032755,0.7156885000000001,0.0310855,-0.1461265,0.4916784999999999,0.0276345,-0.2588765,0.7212785,-0.0246345,0.1463235,0.4870484999999999,0.0428835,0.2598535,0.7287485,0.0102285,-0.3094565,0.9412085,-0.0703125,0.3414335,0.9703485,-0.0299925,-0.0709505,0.0011175,-0.0021505,0.0709505,-0.0011175,0.0021505,-0.1236765,-0.3830615,-0.0196714999999999,0.1190535,-0.3687115,0.0070765,-0.1336765,-0.7549714999999999,-0.0344415,0.1397135,-0.7235714999999999,-0.0081194999999999,1
177,0.0043215,0.715334,0.031318,-0.1457045,0.491384,0.02776,-0.2589045,0.720464,-0.0242,0.1467455,0.487724,0.043844,0.2609555,0.7281540000000001,0.011783,-0.3077744999999999,0.940384,-0.069706,0.3424255,0.970394,-0.029442,-0.0709455,0.001195,-0.002215,0.0709455,-0.0011949999999999,0.002215,-0.1237145,-0.382716,-0.019204,0.1190155,-0.369176,0.007544,-0.1339045,-0.7555459999999999,-0.03399,0.1397855,-0.723706,-0.007643,1
178,0.005231,0.714981,0.0317055,-0.145375,0.490861,0.0280885,-0.258945,0.719871,-0.0238545,0.147165,0.488251,0.0446495,0.262055,0.727461,0.0128885,-0.3065449999999999,0.939371,-0.0693425,0.343085,0.963561,-0.0291854999999999,-0.070932,0.0011809999999999,-0.0022494999999999,0.070932,-0.001181,0.0022495,-0.123755,-0.381849,-0.0188344999999999,0.118975,-0.369719,0.0079135,-0.134135,-0.755549,-0.0336345,0.139765,-0.723579,-0.0072715,0
179,0.006476,0.714434,0.031943,-0.145095,0.490404,0.028391,-0.261485,0.715554,-0.0242429999999999,0.149515,0.488564,0.045656,0.268005,0.723744,0.014387,-0.305405,0.934254,-0.070447,0.3429049999999999,0.956304,-0.028634,-0.07085,0.001166,-0.002342,0.07085,-0.001166,0.0023419999999999,-0.1244349999999999,-0.381696,-0.018072,0.119165,-0.370546,0.008006,-0.134965,-0.754486,-0.032658,0.138955,-0.723416,-0.00652,0
180,0.0077225,0.7138525,0.032018,-0.1448565,0.4897525,0.028525,-0.2653264999999999,0.7088925,-0.025248,0.1518235,0.4885625,0.046873,0.2750835,0.7173324999999999,0.015989,-0.3041864999999999,0.9257925,-0.072504,0.3427135,0.9441325,-0.0276189999999999,-0.0708345,0.0011894999999999,-0.00238,0.0708345,-0.0011895,0.00238,-0.1253165,-0.3813575,-0.017276,0.1192735,-0.3710275,0.007462,-0.1361765,-0.7532275,-0.0315089999999999,0.1377934999999999,-0.7234375000000001,-0.006036,0
181,0.008839,0.7133695,0.0319105,-0.144905,0.4888295,0.0283205,-0.271035,0.7012495,-0.0270515,0.154165,0.4886195,0.0484565,0.282845,0.7093895,0.0180105,-0.303295,0.9142595,-0.0763655,0.343715,0.9305695,-0.0261425,-0.070772,0.0012624999999999,-0.0024495,0.070772,-0.0012624999999999,0.0024495,-0.126535,-0.3832104999999999,-0.0164204999999999,0.1188549999999999,-0.3711104999999999,0.0068325,-0.138045,-0.7517305000000001,-0.0300815,0.1360249999999999,-0.7233005,-0.0057165,0
182,0.0100614999999999,0.713696,0.031533,-0.1452775,0.487846,0.028029,-0.2763375,0.691956,-0.030338,0.1566225,0.488986,0.050353,0.2914525,0.698746,0.020496,-0.3018274999999999,0.901196,-0.0809459999999999,0.3445925,0.913906,-0.0254539999999999,-0.0707135,0.0013249999999999,-0.002581,0.0707135,-0.0013249999999999,0.002581,-0.1280375,-0.385104,-0.015359,0.1181225,-0.370004,0.006173,-0.1405374999999999,-0.751124,-0.028776,0.1338225,-0.722444,-0.0053869999999999,0
183,0.011175,0.714309,0.0309025,-0.146062,0.486869,0.0274584999999999,-0.280882,0.6766490000000001,-0.0336865,0.1588679999999999,0.488889,0.0522344999999999,0.3009179999999999,0.686389,0.0232344999999999,-0.299622,0.884879,-0.0865485,0.346178,0.8951290000000001,-0.0253625,-0.070648,0.001367,-0.0027854999999999,0.070648,-0.001367,0.0027854999999999,-0.129792,-0.3865409999999999,-0.0142945,0.117198,-0.369081,0.0053934999999999,-0.143622,-0.750351,-0.0272945,0.131238,-0.721541,-0.0050125,0
184,0.0125169999999999,0.7149865,0.0300924999999999,-0.147031,0.4854665,0.0266874999999999,-0.284241,0.6586565,-0.0370395,0.161199,0.4888465000000001,0.0540475,0.3119889999999999,0.6710865,0.0262945,-0.295841,0.8657765000000001,-0.0930395,0.3472389999999999,0.8735065,-0.0250735,-0.070598,0.0013985,-0.0030715,0.070598,-0.0013984999999999,0.0030714999999999,-0.131901,-0.3884935,-0.0129795,0.116049,-0.3678435,0.0045674999999999,-0.147451,-0.7492135,-0.0255305,0.128039,-0.7203435,-0.0044785,0
185,0.0137805,0.7155615,0.0282989999999999,-0.1469655,0.4830415,0.02516,-0.2884555,0.6322114999999999,-0.042006,0.1632145,0.4886714999999999,0.055687,0.3235845,0.6458915,0.030119,-0.2921755,0.8343115,-0.102867,0.3470945,0.8436115,-0.024459,-0.0706055,0.0014515,-0.00334,0.0706055,-0.0014514999999999,0.0033399999999999,-0.1347455,-0.3898985,-0.011041,0.1145745,-0.3665285,0.0039819999999999,-0.1525355,-0.7478985,-0.024923,0.1238045,-0.7190385,-0.003114,0
186,0.0149399999999999,0.716505,0.0258685,-0.146875,0.480595,0.0232515,-0.293665,0.600735,-0.0470495,0.165155,0.489135,0.0568655,0.334035,0.619055,0.0347955,-0.286525,0.797545,-0.1142075,0.346505,0.811495,-0.0253685,-0.070648,0.001515,-0.0035064999999999,0.070648,-0.0015149999999999,0.0035064999999999,-0.137905,-0.390645,-0.0090384999999999,0.113115,-0.364695,0.0033674999999999,-0.158105,-0.744995,-0.0235855,0.1190349999999999,-0.717015,-0.0013234999999999,0
187,0.0161555,0.7182595,0.0231984999999999,-0.1464935,0.4777694999999999,0.0209574999999999,-0.2998935,0.5650695,-0.0517925,0.1668865,0.4893995,0.0582004999999999,0.3421465,0.5881895,0.0398145,-0.2781535,0.7580895,-0.1270215,0.3447765,0.7787795,-0.0283035,-0.0707165,0.0015704999999999,-0.0036935,0.0707165,-0.0015705,0.0036934999999999,-0.1414035,-0.3912505,-0.0073275,0.1109565,-0.3629305,0.0030774999999999,-0.1650635,-0.7424605,-0.0218935,0.1134165,-0.7142605,0.0010984999999999,0
188,0.0173945,0.72048,0.0206975,-0.1459214999999999,0.4752499999999999,0.0192175,-0.3041515,0.52861,-0.0506205,0.1665685,0.4889599999999999,0.0587494999999999,0.3444785,0.55746,0.0444495,-0.2700915,0.7149,-0.1392155,0.3433085,0.74134,-0.0337755,-0.0708185,0.001628,-0.0039475,0.0708185,-0.0016279999999999,0.0039475,-0.1444515,-0.39153,-0.0066135,0.1083885,-0.3608,0.0032685,-0.1720515,-0.73939,-0.0206775,0.1078585,-0.7110000000000001,0.0037995,0
189,0.0187834999999999,0.72324,0.0180715,-0.1447945,0.47314,0.0170705,-0.3050805,0.49044,-0.0489205,0.1657595,0.48827,0.0592064999999999,0.3390595,0.5239699999999999,0.0491285,-0.2612505,0.66786,-0.1510594999999999,0.3409295,0.70096,-0.0396245,-0.0709095,0.0016719999999999,-0.0043395,0.0709095,-0.0016719999999999,0.0043395,-0.1471105,-0.39155,-0.0067694999999999,0.1060795,-0.35817,0.0036694999999999,-0.1791105,-0.73883,-0.0207655,0.1017995,-0.70739,0.0071305,0
190,0.0205725,0.725938,0.0151684999999999,-0.1431224999999999,0.471358,0.0151395,-0.3035625,0.451248,-0.0434085,0.1646274999999999,0.486988,0.0595365,0.3309074999999999,0.488328,0.0548135,-0.2508625,0.618188,-0.1621215,0.3342675,0.655418,-0.0451795,-0.0710475,0.001791,-0.0047285,0.0710475,-0.0017909999999999,0.0047284999999999,-0.1484905,-0.391462,-0.0093115,0.1040075,-0.355942,0.0038844999999999,-0.1862725,-0.733542,-0.0225865,0.0954175,-0.703422,0.0110085,0
191,0.0221525,0.7289145,0.012105,-0.1409714999999999,0.4696045,0.012967,-0.2985595,0.4105745,-0.0382279999999999,0.1632005,0.4849245,0.060337,0.3221905,0.4493045,0.05911,-0.2426795,0.5626145,-0.159944,0.3264005,0.6043245,-0.051432,-0.0710604999999999,0.0019065,-0.005093,0.0710605,-0.0019065,0.005093,-0.1493165,-0.3906355,-0.0137769999999999,0.1017505,-0.3571455,0.004391,-0.1939094999999999,-0.7279155,-0.026205,0.0882905,-0.6992355,0.015417,0
192,0.024372,0.7315725000000001,0.0078714999999999,-0.139143,0.4681324999999999,0.0111104999999999,-0.287318,0.3736925,-0.0323554999999999,0.161802,0.4825425,0.0617604999999999,0.311892,0.4078225,0.0646315,-0.234258,0.4958624999999999,-0.1536415,0.317502,0.5410925,-0.0568415,-0.070842,0.0021005,-0.0056394999999999,0.070842,-0.0021005,0.0056394999999999,-0.1468249999999999,-0.3856575,-0.0235994999999999,0.097702,-0.3543275,0.0061504999999999,-0.195128,-0.7227374999999999,-0.0287595,0.079482,-0.6946475,0.0212944999999999,0
193,0.0268704999999999,0.7337985,0.003367,-0.1379115,0.4671785,0.010034,-0.2722695,0.3394985,-0.026668,0.1594605,0.4804684999999999,0.063922,0.3008805,0.3689985,0.070555,-0.2280094999999999,0.4281284999999999,-0.145485,0.3091905,0.4778785,-0.063225,-0.0704005,0.0023325,-0.00645,0.0704004999999999,-0.0023325,0.00645,-0.1413185,-0.3808115,-0.0373159999999999,0.0931405,-0.3523115,0.008276,-0.1910095,-0.7167715,-0.0326119999999999,0.0704004999999999,-0.6896215,0.027612,0
194,0.0287345,0.7350289999999999,-0.0012864999999999,-0.1391965,0.466649,0.0081145,-0.2611255,0.313649,-0.0184135,0.1558144999999999,0.476469,0.0655875,0.2856745,0.339949,0.0779135,-0.2260555,0.363059,-0.1341565,0.2973645,0.413849,-0.0665465,-0.0701644999999999,0.00267,-0.0082425,0.0701645,-0.00267,0.0082425,-0.1303195,-0.3759209999999999,-0.0586965,0.0869345,-0.350421,0.0126315,-0.1772415,-0.711441,-0.0483464999999999,0.0601145,-0.684471,0.0356785,0
195,0.0311369999999999,0.7356925,-0.0064169999999999,-0.140316,0.4661125,0.005462,-0.250113,0.2924025,-0.0096389999999999,0.152437,0.4723325,0.066744,0.2723569999999999,0.3124225,0.083921,-0.226503,0.3016325,-0.1246569999999999,0.284877,0.3504025,-0.068057,-0.069797,0.0030575,-0.0100969999999999,0.069797,-0.0030574999999999,0.010097,-0.1163339999999999,-0.3692275,-0.0833869999999999,0.085847,-0.3493875,0.012823,-0.1530139999999999,-0.7053675,-0.0672869999999999,0.058017,-0.6793075,0.01212,0
196,0.0334115,0.7349525,-0.0111534999999999,-0.1421465,0.4656625,0.0034784999999999,-0.2407685,0.2752325,7.749999999999424e-05,0.1490014999999999,0.4678625,0.0680035,0.2569015,0.2891225,0.0895084999999999,-0.2298784999999999,0.2427625,-0.1161234999999999,0.2720915,0.2929425,-0.0674135,-0.0695115,0.0036295,-0.0118334999999999,0.0695115,-0.0036294999999999,0.0118334999999999,-0.1028805,-0.3615375,-0.1066935,0.0843714999999999,-0.3493575,0.0142154999999999,-0.1264265,-0.7011075,-0.0862035,0.0589514999999999,-0.6743575,-0.0126035,0
197,0.0341239999999999,0.7332835,-0.015326,-0.144873,0.4644235,0.0007639999999999,-0.235798,0.2641235,0.0131179999999999,0.144514,0.4638535,0.0696719999999999,0.241724,0.2690935,0.093619,-0.234916,0.1927735,-0.109766,0.2574039999999999,0.2404435,-0.064526,-0.069174,0.0040624999999999,-0.013676,0.0691739999999999,-0.0040625,0.0136759999999999,-0.088524,-0.3535965,-0.129746,0.0810039999999999,-0.3511265,0.0165029999999999,-0.100803,-0.6915265,-0.102486,0.060334,-0.6699065,-0.038206,0
198,0.0345879999999999,0.7301654999999999,-0.02081,-0.148973,0.4627355,-0.00303,-0.235755,0.2595455,0.0266179999999999,0.140008,0.4597955,0.0700159999999999,0.2237979999999999,0.2542355,0.0947339999999999,-0.242947,0.1511555,-0.10107,0.2459379999999999,0.1978855,-0.06653,-0.068658,0.0044785,-0.01574,0.068658,-0.0044785,0.0157399999999999,-0.072947,-0.3455345,-0.15285,0.076848,-0.3523045,0.0192399999999999,-0.076495,-0.6863745,-0.11819,0.0636779999999999,-0.6660745,-0.06547,0
199,0.03505,0.7270945,-0.0258999999999999,-0.1528849999999999,0.4614745,-0.0067599999999999,-0.2377739999999999,0.2578945,0.039687,0.13603,0.4557945,0.070308,0.20652,0.2422745,0.095948,-0.2522729999999999,0.1156705,-0.0894599999999999,0.23741,0.1654145,-0.0702699999999999,-0.0682799999999999,0.0048485,-0.0176999999999999,0.06828,-0.0048484999999999,0.0177,-0.0569399999999999,-0.3372355,-0.17445,0.07299,-0.3527355,0.02204,-0.0512399999999999,-0.6816555,-0.1308599999999999,0.06811,-0.6627555,-0.0934699999999999,0
200,0.0382,0.723881,-0.0311249999999999,-0.154852,0.461121,-0.011185,-0.238862,0.260721,0.049685,0.1334,0.4519309999999999,0.069867,0.18938,0.237601,0.095671,-0.260522,0.089111,-0.071385,0.23439,0.141951,-0.0773049999999999,-0.06824,0.005286,-0.0196949999999999,0.06824,-0.0052859999999999,0.0196949999999999,-0.0406199999999999,-0.328599,-0.192565,0.0715499999999999,-0.351029,0.025285,-0.0259399999999999,-0.678779,-0.1386649999999999,0.0748799999999999,-0.660239,-0.120825,0
201,0.042095,0.7205400000000001,-0.0354649999999999,-0.1553609999999999,0.4611699999999999,-0.0157149999999999,-0.2434569999999999,0.26292,0.053235,0.131675,0.44828,0.068395,0.177235,0.23718,0.090515,-0.2694809999999999,0.078323,-0.0539949999999999,0.233415,0.13348,-0.082785,-0.0684749999999999,0.005531,-0.0214749999999999,0.068475,-0.005531,0.021475,-0.0272349999999999,-0.32034,-0.2039849999999999,0.072405,-0.34957,0.028655,-0.0068249999999999,-0.67758,-0.1449149999999999,0.083765,-0.65864,-0.1476349999999999,0
202,0.046315,0.7171265,-0.0411099999999999,-0.1542859999999999,0.4614965,-0.0228799999999999,-0.250268,0.2640665,0.05469,0.131445,0.4442665,0.06416,0.167785,0.2383265,0.08211,-0.278192,0.0728645,-0.0378699999999999,0.238735,0.1269265,-0.0907799999999999,-0.0688049999999999,0.0060654999999999,-0.0229999999999999,0.068805,-0.0060654999999999,0.023,-0.0169749999999999,-0.3163035,-0.21237,0.074225,-0.3484935,0.03158,0.007155,-0.6764335,-0.1504999999999999,0.093145,-0.6582535,-0.1750899999999999,0
203,0.051885,0.714653,-0.046385,-0.151678,0.462493,-0.0284449999999999,-0.252279,0.268173,0.048075,0.1323849999999999,0.442113,0.0607649999999999,0.1655249999999999,0.238913,0.072555,-0.282605,0.073861,-0.027565,0.248935,0.127923,-0.099165,-0.068855,0.006418,-0.023515,0.068855,-0.006418,0.023515,-0.012305,-0.312547,-0.212755,0.0779349999999999,-0.343357,0.032525,0.011485,-0.6754370000000001,-0.145255,0.103825,-0.6581870000000001,-0.203315,0
204,0.0578049999999999,0.7119074999999999,-0.052055,-0.148915,0.4628775,-0.034285,-0.254064,0.2689875,0.039355,0.1341949999999999,0.4396375,0.055405,0.1700549999999999,0.2386575,0.064175,-0.285705,0.0742455,-0.020735,0.261795,0.1266855,-0.1127449999999999,-0.069115,0.0068024999999999,-0.024005,0.0691149999999999,-0.0068024999999999,0.024005,-0.010895,-0.3107025,-0.2093749999999999,0.0764149999999999,-0.3415625,0.037615,0.0076549999999999,-0.6750525,-0.139005,0.1065249999999999,-0.6597125,-0.1994349999999999,0
205,0.0663849999999999,0.7093955,-0.0593949999999999,-0.143035,0.4629255,-0.0418049999999999,-0.254016,0.2744755,0.028045,0.1377149999999999,0.4376455,0.0488949999999999,0.181485,0.2392955,0.051375,-0.287551,0.0742935,-0.017695,0.280145,0.1248505,-0.128875,-0.069325,0.0068504999999999,-0.0244349999999999,0.0693249999999999,-0.0068504999999999,0.0244349999999999,-0.0077849999999999,-0.3084545,-0.206915,0.0772049999999999,-0.3400645,0.041385,0.0031149999999999,-0.6773845,-0.132065,0.1059149999999999,-0.6613345,-0.1917749999999999,0
206,0.07699,0.707117,-0.06778,-0.13567,0.463007,-0.04926,-0.251881,0.280447,0.0155499999999999,0.14322,0.4358869999999999,0.0412599999999999,0.19411,0.238537,0.0389499999999999,-0.285717,0.077664,-0.02932,0.29917,0.125937,-0.14407,-0.06963,0.0069089999999999,-0.0245,0.06963,-0.0069089999999999,0.0244999999999999,-0.0053799999999999,-0.307593,-0.20381,0.08001,-0.338673,0.0445899999999999,0.00069,-0.679543,-0.12578,0.10531,-0.661393,-0.18276,0
207,0.090285,0.706277,-0.07573,-0.125025,0.463937,-0.0561599999999999,-0.246307,0.287817,0.00434,0.1511549999999999,0.4347169999999999,0.03408,0.208065,0.2379669999999999,0.0279699999999999,-0.281194,0.084291,-0.04298,0.3212449999999999,0.129127,-0.15979,-0.070115,0.0069089999999999,-0.0240199999999999,0.0701149999999999,-0.0069089999999999,0.0240199999999999,-0.004705,-0.308413,-0.1977099999999999,0.083675,-0.338673,0.0470099999999999,0.0014649999999999,-0.679063,-0.11552,0.1025849999999999,-0.664543,-0.16996,0
208,0.1057,0.70524,-0.0847549999999999,-0.1138799999999999,0.46569,-0.062265,-0.2394229999999999,0.29566,-0.0064349999999999,0.16001,0.43348,0.027305,0.22491,0.23688,0.014025,-0.2761289999999999,0.092302,-0.0554549999999999,0.34092,0.13194,-0.1724049999999999,-0.0704799999999999,0.0074399999999999,-0.0234949999999999,0.07048,-0.00744,0.0234949999999999,-0.0049199999999999,-0.30937,-0.189005,0.08787,-0.33879,0.049485,0.00112,-0.679,-0.1065149999999999,0.09952,-0.66969,-0.1539949999999999,0
209,0.119735,0.703898,-0.0936299999999999,-0.1026049999999999,0.468468,-0.06933,-0.2326649999999999,0.302338,-0.01484,0.169785,0.431948,0.0189599999999999,0.2406149999999999,0.235558,0.0001999999999999,-0.271521,0.0996779999999999,-0.0654899999999999,0.356985,0.133638,-0.18071,-0.070625,0.0082659999999999,-0.0229599999999999,0.070625,-0.0082659999999999,0.0229599999999999,-0.0053449999999999,-0.310632,-0.1812099999999999,0.090825,-0.339222,0.05123,0.0015249999999999,-0.6803119999999999,-0.1000099999999999,0.095255,-0.6757219999999999,-0.13824,0
210,0.134095,0.701411,-0.10368,-0.091855,0.471781,-0.07633,-0.2271449999999999,0.306671,-0.0208599999999999,0.1789649999999999,0.429821,0.0106499999999999,0.254955,0.234391,-0.01245,-0.268562,0.105914,-0.07271,0.3712549999999999,0.133841,-0.18976,-0.070625,0.009095,-0.02229,0.070625,-0.009095,0.0222899999999999,-0.0063549999999999,-0.3123289999999999,-0.1735799999999999,0.093405,-0.339559,0.0515299999999999,0.0007849999999999,-0.6819189999999999,-0.0934399999999999,0.089725,-0.682109,-0.1232699999999999,0
