sb224sc-HT22-VT27/4dt907/src/ml-research/a11/datafiles/labeled_files/A138_kinect.csv
FrameNo,nose_3d_x,nose_3d_y,nose_3d_z,left_shoulder_3d_x,left_shoulder_3d_y,left_shoulder_3d_z,left_elbow_3d_x,left_elbow_3d_y,left_elbow_3d_z,right_shoulder_3d_x,right_shoulder_3d_y,right_shoulder_3d_z,right_elbow_3d_x,right_elbow_3d_y,right_elbow_3d_z,left_wrist_3d_x,left_wrist_3d_y,left_wrist_3d_z,right_wrist_3d_x,right_wrist_3d_y,right_wrist_3d_z,left_hip_3d_x,left_hip_3d_y,left_hip_3d_z,right_hip_3d_x,right_hip_3d_y,right_hip_3d_z,left_knee_3d_x,left_knee_3d_y,left_knee_3d_z,right_knee_3d_x,right_knee_3d_y,right_knee_3d_z,left_ankle_3d_x,left_ankle_3d_y,left_ankle_3d_z,right_ankle_3d_x,right_ankle_3d_y,right_ankle_3d_z,activity_label
0,-0.0005585,0.714582,-0.028854,-0.1665485,0.448542,0.0433449999999999,-0.1943185,0.213382,0.052719,0.1598415,0.453352,0.048843,0.1916015,0.214482,0.06092,-0.2189185,0.002582,-0.025556,0.2023715,0.024732,0.0031729999999999,-0.0632685,-8.99999999999998e-05,7.100000000000162e-05,0.0632685,9.000000000000024e-05,-7.100000000000162e-05,-0.1276084999999999,-0.340138,-0.034111,0.1124715,-0.357138,-0.023379,-0.1448785,-0.695328,0.0016769999999999,0.1299315,-0.677218,0.008107,0
1,0.000645,0.7157105,-0.0274354999999999,-0.165654,0.4487405,0.0454785,-0.192984,0.2123505,0.0551485,0.159956,0.4538605,0.0478805,0.192516,0.2169905,0.0603095,-0.215514,-0.0001794999999999,-0.0249145,0.205656,0.0245535,0.0039985,-0.063398,-0.0002455,0.0004515,0.063398,0.0002455,-0.0004515,-0.127134,-0.3402095,-0.0357565,0.112106,-0.3567895,-0.0232654999999999,-0.145124,-0.6955195,0.0017375,0.129226,-0.6781495,0.0085955,0
2,0.0019354999999999,0.7169534999999999,-0.026219,-0.1648945,0.4485835,0.046552,-0.1917745,0.2114135,0.057435,0.1603655,0.4536235,0.047545,0.1933955,0.2175335,0.0595539999999999,-0.2127645,-0.0003654999999999,-0.02366,0.2074254999999999,0.0245355,0.0037839999999999,-0.0634125,-0.0002054999999999,0.0007059999999999,0.0634125,0.0002054999999999,-0.0007059999999999,-0.1268345,-0.3399965,-0.0361709999999999,0.1121355,-0.3563564999999999,-0.022938,-0.1448545,-0.6949865000000001,0.001848,0.1290855,-0.6782265000000001,0.009027,0
3,0.003044,0.717596,-0.0249955,-0.164066,0.448016,0.0478774999999999,-0.190556,0.209876,0.0597064999999999,0.160154,0.453696,0.0476414999999999,0.194474,0.220026,0.0590944999999999,-0.206256,0.008528,-0.0147245,0.207714,0.024173,0.0026314999999999,-0.063397,-0.000146,0.0008514999999999,0.063397,0.0001459999999999,-0.0008514999999999,-0.1265059999999999,-0.339354,-0.0363825,0.112414,-0.356294,-0.0227755,-0.144866,-0.694894,0.0023535,0.128934,-0.678204,0.0096055,0
4,0.0037119999999999,0.7180495,-0.0233735,-0.16386,0.4470195,0.0497945,-0.1898099999999999,0.2088395,0.0616415,0.1599999999999999,0.4536395,0.0481044999999999,0.1941899999999999,0.2196795,0.0595635,-0.20623,0.0072825,-0.0138705,0.2083999999999999,0.0236665,0.0011884999999999,-0.063457,-0.0001004999999999,0.0014254999999999,0.063457,0.0001004999999999,-0.0014255,-0.1263,-0.3387305,-0.0353965,0.11262,-0.3562405,-0.0226275,-0.14481,-0.6945105,0.0030255,0.12879,-0.6780205,0.0103804999999999,0
5,0.0077104999999999,0.7187445,-0.0213099999999999,-0.1626425,0.4456645,0.052821,-0.1882925,0.2088445,0.063265,0.1615774999999999,0.4536245,0.048412,0.1955875,0.2191345,0.056071,-0.2056625,0.0108425,-0.0050999999999999,0.2120274999999999,0.0246375,-0.0082319999999999,-0.0632274999999999,0.0002044999999999,0.002031,0.0632274999999999,-0.0002045,-0.0020309999999999,-0.1255625,-0.3382854999999999,-0.0306709999999999,0.1133375,-0.3543154999999999,-0.0233449999999999,-0.1451525,-0.6945755,0.004355,0.1274575,-0.6782155000000001,0.010874,0
6,0.008843,0.7191865000000001,-0.0203485,-0.162502,0.4460665,0.0541165,-0.188372,0.2091964999999999,0.0642725,0.158988,0.4525465,0.0459065,0.196118,0.2192865,0.0550455,-0.206832,-0.0052035,-0.0046575,0.212718,0.0257785,-0.0106284999999999,-0.063264,0.0001195,0.0020345,0.063264,-0.0001195,-0.0020345,-0.125062,-0.3378635,-0.0271044999999999,0.113688,-0.3539535,-0.0233135,-0.144332,-0.6947335,0.0050115,0.127788,-0.6779035,0.0107485,0
7,0.007376,0.7189764999999999,-0.022058,-0.162971,0.4462565,0.0548989999999999,-0.189881,0.2088565,0.0655169999999999,0.159759,0.4516665,0.044488,0.194629,0.2188765,0.050313,-0.214601,0.0135605,0.0001209999999999,0.207979,0.0256754999999999,-0.01408,-0.063013,-6.0500000000000224e-05,0.0023189999999999,0.063013,6.049999999999979e-05,-0.002319,-0.124691,-0.3383535,-0.026867,0.114669,-0.3531735,-0.022321,-0.142451,-0.6951735,0.0061379999999999,0.130509,-0.6775235000000001,0.0121909999999999,0
8,0.0084289999999999,0.7191665,-0.0209389999999999,-0.162168,0.4459265,0.056509,-0.189008,0.2085465,0.067091,0.159942,0.4511365,0.04336,0.195162,0.2192365,0.047863,-0.215038,0.0165165,0.004434,0.208562,0.0263205,-0.0172539999999999,-0.062846,-7.750000000000031e-05,0.002751,0.062846,7.749999999999988e-05,-0.0027509999999999,-0.123858,-0.3382934999999999,-0.0253019999999999,0.115582,-0.3526335,-0.0217739999999999,-0.141398,-0.6952834999999999,0.007576,0.131362,-0.6774835,0.013293,0
9,0.0096475,0.7194255,-0.019768,-0.1614604999999999,0.4457155,0.057752,-0.1882005,0.2084055,0.068336,0.1600695,0.4505555,0.041995,0.1955895,0.2196055,0.045251,-0.2155405,0.0195995,0.008431,0.2087495,0.0267105,-0.0203059999999999,-0.0626615,-9.049999999999988e-05,0.003159,0.0626615,9.049999999999988e-05,-0.003159,-0.1231305,-0.3381845,-0.023523,0.1165694999999999,-0.3520045,-0.021091,-0.1401905,-0.6953845,0.009208,0.1323895,-0.6773144999999999,0.014522,0
10,0.0110019999999999,0.7196055,-0.018685,-0.160791,0.4457155,0.059183,-0.187491,0.2081655,0.069767,0.160169,0.4505055,0.040555,0.1958889999999999,0.2199055,0.0428119999999999,-0.214741,0.0189855,0.0098639999999999,0.2087589999999999,0.0271735,-0.02237,-0.062501,-9.049999999999988e-05,0.003532,0.062501,9.049999999999988e-05,-0.003532,-0.122391,-0.3381145,-0.021918,0.117579,-0.3516145,-0.020249,-0.138891,-0.6953845,0.0110289999999999,0.133579,-0.6772345,0.015972,0
11,0.012183,0.7198355000000001,-0.017574,-0.1602839999999999,0.4457155,0.060974,-0.1869239999999999,0.2078855,0.071559,0.160426,0.4505055,0.039217,0.195996,0.2199755,0.040501,-0.213444,0.0182395,0.011668,0.208576,0.0279055,-0.0245059999999999,-0.062352,-9.049999999999988e-05,0.003936,0.062352,9.049999999999988e-05,-0.003936,-0.121764,-0.3380545,-0.0201249999999999,0.118396,-0.3511845,-0.019045,-0.1375539999999999,-0.6953845,0.013207,0.134686,-0.6771444999999999,0.01788,0
12,0.013214,0.7201355,-0.016475,-0.159937,0.4457155,0.062882,-0.1863369999999999,0.2075655,0.073469,0.160683,0.4505055,0.037808,0.196143,0.2201055,0.038459,-0.2120969999999999,0.0177425,0.0136979999999999,0.208293,0.0288055,-0.0264329999999999,-0.062237,-9.049999999999988e-05,0.0043109999999999,0.062237,9.049999999999988e-05,-0.004311,-0.1212869999999999,-0.3380245,-0.018108,0.119083,-0.3509645,-0.0175589999999999,-0.136297,-0.6953845,0.0156049999999999,0.135643,-0.6770745,0.020024,0
13,0.0138005,0.7207950000000001,-0.0156755,-0.1595495,0.445685,0.0639835,-0.1854595,0.207265,0.0746285,0.1609905,0.450265,0.0364284999999999,0.1962205,0.2205949999999999,0.0365934999999999,-0.2106995,0.017323,0.0134314999999999,0.2078404999999999,0.02955,-0.0282755,-0.0621455,-0.0001189999999999,0.0046774999999999,0.0621455,0.000119,-0.0046775,-0.1209595,-0.337875,-0.0157535,0.1196305,-0.350625,-0.0157325,-0.1350795,-0.6953149999999999,0.0183934999999999,0.1365405,-0.676685,0.0225184999999999,0
14,0.0140339999999999,0.7214785,-0.0151154999999999,-0.159266,0.4456185,0.0644635,-0.184576,0.2069885,0.0748985,0.161324,0.4500885,0.0356855,0.196484,0.2211385,0.0356135,-0.209556,0.0168045,0.0128915,0.207754,0.0302065,-0.0290504999999999,-0.062114,-0.0001424999999999,0.0049415,0.062114,0.0001425,-0.0049414999999999,-0.120956,-0.3377615,-0.0135464999999999,0.1199139999999999,-0.3504015,-0.0136554999999999,-0.134266,-0.6951915,0.0215285,0.137144,-0.6763815,0.0252595,0
15,0.014118,0.7222425,-0.0145699999999999,-0.15901,0.4456024999999999,0.064672,-0.18363,0.2067525,0.07461,0.16166,0.4499824999999999,0.035175,0.1966,0.2219325,0.034892,-0.20858,0.0164904999999999,0.012357,0.20778,0.0308755,-0.029319,-0.062104,-0.0001585,0.0051469999999999,0.062104,0.0001584999999999,-0.0051469999999999,-0.12109,-0.3376075,-0.0114929999999999,0.12009,-0.3502075,-0.0114219999999999,-0.13369,-0.6949974999999999,0.024769,0.13752,-0.6761575,0.028098,0
16,0.014031,0.7230555000000001,-0.0141599999999999,-0.158873,0.4456155,0.064339,-0.1830629999999999,0.2064555,0.073586,0.161797,0.4498655,0.034955,0.196707,0.2227055,0.034668,-0.2079329999999999,0.0158125,0.011527,0.207787,0.0314005,-0.029348,-0.062157,-0.0001564999999999,0.00518,0.062157,0.0001565,-0.0051799999999999,-0.121393,-0.3374345,-0.0097879999999999,0.120007,-0.3500645,-0.009145,-0.133543,-0.6947645,0.027692,0.137437,-0.6759445,0.030711,0
17,0.0138629999999999,0.7239195,-0.0137104999999999,-0.15879,0.4455694999999999,0.0635605,-0.1827,0.2063395,0.0721025,0.16175,0.4500194999999999,0.0350315,0.1966899999999999,0.2226695,0.0350245,-0.2055,0.0108935,0.0054475,0.20765,0.0311145,-0.0291274999999999,-0.062249,-0.0001334999999999,0.0051145,0.062249,0.0001334999999999,-0.0051145,-0.12183,-0.3372405,-0.0081255,0.1197599999999999,-0.3499605,-0.0068474999999999,-0.13361,-0.6944305,0.0303575,0.1371,-0.6757405,0.0330595,0
18,0.013698,0.724757,-0.0131949999999999,-0.158739,0.4455469999999999,0.062453,-0.182439,0.206487,0.0701,0.161701,0.450217,0.035617,0.196621,0.222517,0.035723,-0.203309,0.005743,-0.0005109999999999,0.207451,0.030852,-0.0286209999999999,-0.062342,-0.000115,0.004912,0.062342,0.0001149999999999,-0.004912,-0.122259,-0.337013,-0.006596,0.119471,-0.349993,-0.0047389999999999,-0.133759,-0.694003,0.03283,0.136671,-0.6755030000000001,0.035239,0
19,0.0135749999999999,0.725283,-0.012129,-0.158771,0.445493,0.0617609999999999,-0.181971,0.206463,0.067795,0.161679,0.450233,0.036231,0.196599,0.222533,0.037049,-0.2007509999999999,0.00087,-0.007029,0.207259,0.030842,-0.027297,-0.062391,-0.0001309999999999,0.004489,0.062391,0.000131,-0.004489,-0.122661,-0.337007,-0.005473,0.1191989999999999,-0.350007,-0.003416,-0.1338109999999999,-0.693737,0.0345469999999999,0.1363089999999999,-0.675517,0.036651,0
20,0.01351,0.7258049999999999,-0.011282,-0.158792,0.445475,0.060931,-0.181482,0.206525,0.065497,0.1616179999999999,0.450295,0.036971,0.196548,0.222605,0.037896,-0.196832,-0.004242,-0.0141329999999999,0.207068,0.030365,-0.026453,-0.06237,-0.0001639999999999,0.004062,0.06237,0.000164,-0.0040619999999999,-0.122982,-0.337015,-0.0046479999999999,0.1190779999999999,-0.349945,-0.0024919999999999,-0.133902,-0.693345,0.035858,0.136058,-0.6754950000000001,0.037658,0
21,0.0134339999999999,0.7262609999999999,-0.010833,-0.158867,0.445511,0.060445,-0.181117,0.2066909999999999,0.063665,0.161483,0.450351,0.03742,0.196453,0.2226709999999999,0.038345,-0.194127,-0.005357,-0.016895,0.206833,0.029368,-0.0260059999999999,-0.062321,-0.0001789999999999,0.003744,0.062321,0.0001789999999999,-0.003744,-0.123267,-0.337009,-0.004202,0.1189529999999999,-0.349859,-0.001759,-0.134017,-0.692889,0.036795,0.135923,-0.675459,0.038238,0
22,0.013133,0.7266045,-0.010678,-0.15919,0.4456144999999999,0.060599,-0.1806799999999999,0.2070845,0.0626839999999999,0.1613,0.4505945,0.037576,0.19573,0.2223445,0.038605,-0.19288,-0.0050135,-0.016716,0.20583,0.0266755,-0.025583,-0.062308,-8.149999999999998e-05,0.0035849999999999,0.062308,8.149999999999998e-05,-0.0035849999999999,-0.12353,-0.3367255,-0.004047,0.11869,-0.3498655,-0.000526,-0.1339999999999999,-0.6924454999999999,0.0373489999999999,0.13595,-0.6751054999999999,0.0385589999999999,0
23,0.0127645,0.7269,-0.0105079999999999,-0.1595144999999999,0.44569,0.0605939999999999,-0.1802845,0.2072999999999999,0.06269,0.1611855,0.45075,0.0375739999999999,0.1949655,0.22169,0.0391699999999999,-0.1925744999999999,-0.0087409999999999,-0.019893,0.2048155,0.024295,-0.024362,-0.0623255,1.4000000000000123e-05,0.0035849999999999,0.0623255,-1.399999999999969e-05,-0.0035849999999999,-0.1237445,-0.33649,-0.00405,0.1183755,-0.35008,0.000626,-0.1339544999999999,-0.6921499999999999,0.037651,0.1360055,-0.6747799999999999,0.0387249999999999,0
24,0.0123945,0.7271669999999999,-0.010013,-0.1596665,0.445747,0.0605909999999999,-0.1800665,0.207567,0.062693,0.1610835,0.450837,0.038088,0.1941735,0.221027,0.0401039999999999,-0.1924165,-0.0102669999999999,-0.020763,0.2038434999999999,0.022031,-0.02246,-0.0623695,0.0001099999999999,0.0035839999999999,0.0623695,-0.0001099999999999,-0.003584,-0.1239265,-0.3362529999999999,-0.003836,0.1180435,-0.350343,0.0018989999999999,-0.1338765,-0.691883,0.0380029999999999,0.1361135,-0.6745230000000001,0.0389129999999999,0
25,0.012044,0.7276045,-0.0090314999999999,-0.159882,0.4457145,0.0607185,-0.179842,0.2080045,0.0625345,0.160898,0.4507145,0.0389285,0.193298,0.2201345,0.0413965,-0.192182,-0.0091175,-0.0215265,0.202928,0.0199815,-0.0202944999999999,-0.062399,0.0001354999999999,0.0034215,0.062399,-0.0001355,-0.0034214999999999,-0.1240119999999999,-0.3361555,-0.0036754999999999,0.117798,-0.3506555,0.0031134999999999,-0.1336919999999999,-0.6914755,0.0382075,0.136318,-0.6743455,0.0389415,0
26,0.0116219999999999,0.7280195,-0.0077324999999999,-0.160245,0.4457695,0.0615244999999999,-0.179575,0.2086694999999999,0.0619725,0.160705,0.4505794999999999,0.0398424999999999,0.192435,0.2196695,0.0418835,-0.191915,-0.0086805,-0.0248694999999999,0.202035,0.0189245,-0.0200325,-0.0623989999999999,0.0001695,0.0031295,0.0623989999999999,-0.0001695,-0.0031295,-0.124105,-0.3360205,-0.0035675,0.117535,-0.3510405,0.0040315,-0.133525,-0.6907105,0.0381865,0.136525,-0.6741305,0.0385844999999999,0
27,0.01122,0.7283335,-0.0064624999999999,-0.160601,0.4458135,0.0623215,-0.179261,0.2101335,0.0613485,0.1605289999999999,0.4503635,0.0406955,0.1922589999999999,0.2200035,0.0409545,-0.191861,-0.0074985,-0.0288194999999999,0.2022989999999999,0.0198385,-0.0209514999999999,-0.0624129999999999,0.0002075,0.0029185,0.0624129999999999,-0.0002074999999999,-0.0029184999999999,-0.1241709999999999,-0.3359065,-0.0035574999999999,0.117369,-0.3514065,0.0046535,-0.133281,-0.6900065,0.0378945,0.1367789999999999,-0.6738765,0.0378635,0
28,0.010788,0.7286005,-0.005148,-0.16103,0.4458205,0.063324,-0.17913,0.2113005,0.060377,0.16032,0.4501305,0.041514,0.1926199999999999,0.2206905,0.039679,-0.19194,-0.0068115,-0.03364,0.2026599999999999,0.0206045,-0.0222269999999999,-0.0624269999999999,0.0002304999999999,0.002797,0.0624269999999999,-0.0002304999999999,-0.0027969999999999,-0.12421,-0.3358595,-0.0037409999999999,0.11725,-0.3517295,0.005001,-0.133,-0.6893395,0.037217,0.13708,-0.6735995,0.036788,0
29,0.0103634999999999,0.7288855,-0.0036875,-0.1613945,0.4458555,0.0646635,-0.1793245,0.2122655,0.0586705,0.1602955,0.4499855,0.0420045,0.1930655,0.2213955,0.0381895,-0.1933145,-0.0030415,-0.0364705,0.2031055,0.0213095,-0.0237165,-0.0624495,0.0002154999999999,0.0027705,0.0624495,-0.0002155,-0.0027705,-0.1241944999999999,-0.3358445,-0.0040035,0.1172555,-0.3519245,0.0050735,-0.1325744999999999,-0.6887345,0.0364045,0.1374555,-0.6732445,0.0354895,0
30,0.0099515,0.729156,-0.0022794999999999,-0.1616665,0.445876,0.0661575,-0.1801064999999999,0.212976,0.0569625,0.1603235,0.449876,0.0421345,0.1935435,0.222086,0.0365965,-0.1956065,0.0009899999999999,-0.0392715,0.2036035,0.023522,-0.0267405,-0.0624645,0.00019,0.0028374999999999,0.0624645,-0.00019,-0.0028374999999999,-0.1241564999999999,-0.335904,-0.0041754999999999,0.1173734999999999,-0.351794,0.0050154999999999,-0.1320365,-0.688304,0.0354695,0.1379035,-0.672794,0.0340625,0
31,0.009821,0.7290949999999999,-0.0014579999999999,-0.1614,0.445895,0.066933,-0.18144,0.213805,0.055629,0.16052,0.449725,0.042108,0.19407,0.222975,0.034398,-0.19901,0.009774,-0.042013,0.20411,0.0267919999999999,-0.0304719999999999,-0.062537,0.0001629999999999,0.0032329999999999,0.062537,-0.000163,-0.0032329999999999,-0.1239799999999999,-0.335985,-0.0042429999999999,0.11782,-0.351755,0.00468,-0.1314699999999999,-0.6886450000000001,0.034833,0.13841,-0.673005,0.032961,0
32,0.0096535,0.72905,-0.0005244999999999,-0.1610535,0.4459599999999999,0.0677235,-0.1835235,0.21539,0.0542775,0.1607164999999999,0.4498,0.0419755,0.1953865,0.22669,0.0306225,-0.2051135,0.0196399999999999,-0.0453815,0.2057365,0.033157,-0.0377124999999999,-0.0626735,0.000131,0.0037005,0.0626735,-0.000131,-0.0037004999999999,-0.1237834999999999,-0.33607,-0.0042574999999999,0.1182165,-0.35177,0.0043345,-0.1309735,-0.6889799999999999,0.0341365,0.1388965,-0.6730999999999999,0.0318375,0
33,0.0094244999999999,0.7290249999999999,0.0004674999999999,-0.1607765,0.446035,0.0682764999999999,-0.1865565,0.2189549999999999,0.0518625,0.1608535,0.449875,0.0415414999999999,0.1973435,0.231245,0.0252864999999999,-0.2118365,0.033175,-0.0496885,0.2085535,0.040679,-0.0490385,-0.0628145,9.099999999999994e-05,0.0041324999999999,0.0628145,-9.099999999999994e-05,-0.0041325,-0.1236565,-0.3361849999999999,-0.0042645,0.1185135,-0.351715,0.0040434999999999,-0.1305765,-0.6893250000000001,0.0333894999999999,0.1392634999999999,-0.673145,0.0307704999999999,0
34,0.008983,0.7289009999999999,0.0020955,-0.160624,0.446131,0.0683055,-0.193374,0.227471,0.0441845,0.1607259999999999,0.449971,0.0406605,0.201296,0.239931,0.0136455,-0.224654,0.05467,-0.0638325,0.2162059999999999,0.062116,-0.0721924999999999,-0.062957,-4.999999999999796e-06,0.0046395,0.062957,4.999999999999796e-06,-0.0046394999999999,-0.123634,-0.336369,-0.0042244999999999,0.118686,-0.351619,0.0036215,-0.130324,-0.689299,0.0323235,0.139596,-0.673049,0.0294355,0
35,0.0086195,0.728691,0.0039005,-0.1605135,0.446191,0.0680065,-0.2035835,0.240801,0.0334245,0.1601865,0.450111,0.0395475,0.2079365,0.254061,-0.0019624999999999,-0.2403435,0.084137,-0.0831465,0.2269265,0.089151,-0.1050665,-0.0630715,-5.999999999999929e-05,0.0052055,0.0630715,6.000000000000016e-05,-0.0052055,-0.1235535,-0.336519,-0.0041664999999999,0.1189065,-0.3516089999999999,0.0032995,-0.1300835,-0.689399,0.0310605,0.1399165,-0.673029,0.0280975,0
36,0.0082174999999999,0.7284160000000001,0.006004,-0.1603555,0.4465159999999999,0.067457,-0.2145155,0.2550759999999999,0.021889,0.1592945,0.450466,0.038277,0.2147845,0.2720559999999999,-0.0196279999999999,-0.2570755,0.115496,-0.105031,0.2382945,0.122826,-0.140561,-0.0631115,-6.800000000000035e-05,0.005764,0.0631115,6.799999999999948e-05,-0.0057639999999999,-0.1235155,-0.336544,-0.0041499999999999,0.1191245,-0.351584,0.002995,-0.1299255,-0.689624,0.029678,0.1402145,-0.6730539999999999,0.026809,0
37,0.0078235,0.7281569999999999,0.0080854999999999,-0.1600745,0.4469869999999999,0.0664464999999999,-0.2266045,0.273107,0.0089224999999999,0.1583255,0.451117,0.0368965,0.2225755,0.292067,-0.0377035,-0.2762945,0.152427,-0.1309185,0.2499255,0.161547,-0.1788285,-0.0631255,-7.699999999999981e-05,0.0063184999999999,0.0631255,7.699999999999981e-05,-0.0063185,-0.1235145,-0.336553,-0.0042395,0.1193755,-0.351473,0.0026304999999999,-0.1297745,-0.689873,0.0282524999999999,0.1404854999999999,-0.673093,0.0254874999999999,0
38,0.0074715,0.7278950000000001,0.0099939999999999,-0.1596175,0.447625,0.064994,-0.2390475,0.294745,-0.004957,0.1573125,0.452155,0.035432,0.2312425,0.313595,-0.0549469999999999,-0.2948575,0.195885,-0.159087,0.2616325,0.204685,-0.214987,-0.0631825,-0.0001289999999999,0.0068369999999999,0.0631825,0.0001289999999999,-0.006837,-0.1235774999999999,-0.336605,-0.0045229999999999,0.1196125,-0.351295,0.0022439999999999,-0.1296975,-0.6899749999999999,0.026726,0.1407324999999999,-0.6732149999999999,0.024234,0
39,0.0070729999999999,0.727512,0.0119845,-0.159085,0.448482,0.0632085,-0.252235,0.321232,-0.0198635,0.156235,0.453412,0.0336995,0.239645,0.341842,-0.0721825,-0.313555,0.251432,-0.1861125,0.2728549999999999,0.256812,-0.2483525,-0.063295,-0.0002539999999999,0.0072984999999999,0.063295,0.0002539999999999,-0.0072984999999999,-0.123705,-0.336808,-0.0051015,0.1197749999999999,-0.351298,0.0016125,-0.129715,-0.690248,0.0249895,0.140935,-0.673558,0.0227935,0
40,0.0066944999999999,0.7268845,0.0140365,-0.1584644999999999,0.4494045,0.0615375,-0.2654645,0.3499445,-0.0346574999999999,0.1550955,0.4547845,0.0321245,0.2475655,0.3713345,-0.0881645,-0.3308645,0.3067645,-0.2111644999999999,0.2836355,0.3144945,-0.2787745,-0.0634165,-0.0003805,0.0076155,0.0634165,0.0003804999999999,-0.0076154999999999,-0.1238544999999999,-0.3369955,-0.0055174999999999,0.1199654999999999,-0.3515155,0.0010675,-0.1297545,-0.6908655,0.0233915,0.1411655,-0.6740755,0.0214965,0
41,0.0063599999999999,0.7260139999999999,0.015936,-0.157868,0.450364,0.059876,-0.2771579999999999,0.381644,-0.0474539999999999,0.153922,0.456674,0.0305249999999999,0.254612,0.401124,-0.1026359999999999,-0.344508,0.367654,-0.2302559999999999,0.292162,0.374924,-0.300956,-0.06354,-0.000506,0.0078199999999999,0.06354,0.000506,-0.00782,-0.123978,-0.337346,-0.00578,0.120142,-0.352016,0.0005099999999999,-0.129848,-0.6921860000000001,0.0218039999999999,0.141432,-0.674946,0.0202019999999999,0
42,0.006025,0.724959,0.01782,-0.157302,0.451399,0.058178,-0.287452,0.413979,-0.058823,0.152788,0.458549,0.028997,0.260588,0.4334389999999999,-0.11373,-0.355742,0.430299,-0.24614,0.298998,0.439779,-0.31618,-0.0636569999999999,-0.0006299999999999,0.007984,0.0636569999999999,0.00063,-0.0079839999999999,-0.124142,-0.337801,-0.005892,0.1202979999999999,-0.352861,-8.600000000000274e-05,-0.129932,-0.693631,0.020309,0.1417179999999999,-0.676041,0.018929,0
43,0.005755,0.7237915,0.0189955,-0.156855,0.4525814999999999,0.0566825,-0.293275,0.4443915,-0.0644915,0.151845,0.4604515,0.0278385,0.264555,0.4654615,-0.1183914999999999,-0.360495,0.4870115,-0.2493715,0.301185,0.4976215,-0.3190214999999999,-0.063741,-0.0007444999999999,0.0080185,0.063741,0.0007445,-0.0080184999999999,-0.124315,-0.3382585,-0.0058914999999999,0.120305,-0.3538885,-0.0005464999999999,-0.130075,-0.6950185,0.0192265,0.141735,-0.6772484999999999,0.0179915,0
44,0.0054244999999999,0.7222095,0.0196435,-0.1562015,0.4542095,0.0551195,-0.2949115,0.4766395,-0.0664414999999999,0.1514585,0.4625895,0.0268285,0.2655485,0.4973295,-0.1194214999999999,-0.3618615,0.5451995,-0.2504315,0.3010784999999999,0.5581695,-0.3200715,-0.0637385,-0.0008294999999999,0.0078895,0.0637385,0.0008295,-0.0078895,-0.1244415,-0.3390404999999999,-0.0058225,0.1203285,-0.3548604999999999,-0.0009375,-0.1301815,-0.6966005000000001,0.0184575,0.1417785,-0.6788305,0.0173755,0
45,0.0051484999999999,0.720397,0.0199699999999999,-0.1555995,0.455607,0.0534609999999999,-0.2954595,0.5085569999999999,-0.067422,0.1514205,0.464507,0.0260239999999999,0.2659005,0.527117,-0.120382,-0.3618995,0.601167,-0.251402,0.3010405,0.616907,-0.321042,-0.0636945,-0.000889,0.0077179999999999,0.0636945,0.000889,-0.007718,-0.1244895,-0.339993,-0.005784,0.1203804999999999,-0.356143,-0.001341,-0.1302895,-0.6984130000000001,0.0177379999999999,0.1418605,-0.680643,0.0167219999999999,0
46,0.0049075,0.7185315,0.020186,-0.1549714999999999,0.4571215,0.051701,-0.2954615,0.5382815,-0.06826,0.1514185,0.4662215,0.025357,0.2658985,0.5560514999999999,-0.12122,-0.3619015,0.6521815,-0.25224,0.3010385,0.6723815,-0.32188,-0.0636755,-0.0009035,0.007469,0.0636755,0.0009035,-0.0074689999999999,-0.1246015,-0.3411185,-0.0056109999999999,0.1204585,-0.3575885,-0.0016339999999999,-0.1305815,-0.7004885000000001,0.017224,0.1419585,-0.6827085,0.016196,0
47,0.0046164999999999,0.7165745,0.0203055,-0.1542965,0.4586145,0.0497505,-0.2954565,0.5657844999999999,-0.0689665,0.1514134999999999,0.4680645,0.0248275,0.2658835,0.5844045,-0.1206264999999999,-0.3619565,0.6988145,-0.2487165,0.2994334999999999,0.7235644999999999,-0.3113065,-0.0636645,-0.0009294999999999,0.0071785,0.0636645,0.0009294999999999,-0.0071784999999999,-0.1247165,-0.3424455,-0.0052824999999999,0.1205535,-0.3589555,-0.0018334999999999,-0.1308765,-0.7029955,0.0169125,0.1420535,-0.6850555,0.0159295,0
48,0.0042325,0.7145670000000001,0.020288,-0.1537195,0.460547,0.048163,-0.2954495,0.588737,-0.069404,0.1514704999999999,0.469977,0.024592,0.2658105,0.606127,-0.116384,-0.3604995,0.739067,-0.2429639999999999,0.2965405,0.764417,-0.293734,-0.0636605,-0.000955,0.0069479999999999,0.0636605,0.000955,-0.0069479999999999,-0.1248194999999999,-0.3440829999999999,-0.004812,0.1206405,-0.360363,-0.0017429999999999,-0.1311295,-0.705583,0.016897,0.1421405,-0.687523,0.01594,0
49,0.0038385,0.7126115000000001,0.0202704999999999,-0.1530925,0.4626615,0.0470084999999999,-0.2942625,0.6094615,-0.0675955,0.1515675,0.4718915,0.0245565,0.2650875,0.6259715,-0.1111725,-0.3555724999999999,0.7740615000000001,-0.2273325,0.2932975,0.7992715,-0.2753425,-0.0636255,-0.0009694999999999,0.0067594999999999,0.0636255,0.0009694999999999,-0.0067595,-0.1248924999999999,-0.3459085,-0.0042845,0.1207775,-0.3616784999999999,-0.0016725,-0.1313625,-0.7081685,0.0171734999999999,0.1422675,-0.6900585,0.0161474999999999,0
50,0.0034839999999999,0.7107694999999999,0.0202704999999999,-0.152422,0.4652095,0.0462575,-0.292262,0.6272595,-0.0641684999999999,0.151798,0.4732295,0.0246624999999999,0.263138,0.6435995,-0.1053925,-0.350772,0.8043395,-0.2135525,0.2902079999999999,0.8301695,-0.2596725,-0.063567,-0.0009814999999999,0.0066484999999999,0.063567,0.0009814999999999,-0.0066485,-0.124862,-0.3477805,-0.0038545,0.120958,-0.3628405,-0.0015615,-0.131502,-0.7106905,0.0175965,0.142468,-0.6925605,0.0165015,0
51,0.0032004999999999,0.7089885,0.020335,-0.1516404999999999,0.4679885,0.045645,-0.2887105,0.6430684999999999,-0.058676,0.1520195,0.4745385,0.024908,0.2603995,0.6585385,-0.097088,-0.3440505,0.8304085,-0.194438,0.2857395,0.8570985,-0.236788,-0.0634865,-0.0010004999999999,0.006621,0.0634865,0.0010005,-0.006621,-0.1246605,-0.3497215,-0.0034659999999999,0.1212495,-0.3640115,-0.001473,-0.1314904999999999,-0.7132015,0.018094,0.1427695,-0.6950515,0.016965,0
52,0.002843,0.707271,0.0204225,-0.150915,0.470881,0.0450815,-0.2840749999999999,0.657451,-0.0511724999999999,0.152165,0.475781,0.0252445,0.257335,0.6713410000000001,-0.0875745,-0.3374049999999999,0.854711,-0.1729445,0.281475,0.879461,-0.2139744999999999,-0.063403,-0.0010319999999999,0.0066225,0.063403,0.001032,-0.0066225,-0.124455,-0.351869,-0.0031275,0.121535,-0.3648289999999999,-0.0014685,-0.131435,-0.715799,0.0185675,0.143085,-0.697619,0.0174765,0
53,0.002494,0.7058195,0.0205035,-0.150497,0.4731895,0.0447435,-0.280007,0.6653695000000001,-0.0442705,0.152283,0.4765295,0.0256715,0.253993,0.6789995,-0.0777625,-0.332607,0.8697295,-0.1541525,0.278233,0.8941795,-0.1947025,-0.063309,-0.0010844999999999,0.0065745,0.063309,0.0010845,-0.0065744999999999,-0.124277,-0.3536805,-0.0028784999999999,0.121783,-0.3658005,-0.0014155,-0.1313369999999999,-0.7181204999999999,0.0189545,0.143373,-0.6998905,0.0178415,0
54,0.0019665,0.7047075,0.0205385,-0.1501315,0.4754275,0.0448565,-0.2758715,0.6728075,-0.0365435,0.1523885,0.4773675,0.0260375,0.2504785,0.6850875000000001,-0.0687765,-0.3285215,0.8831175,-0.1350745,0.2754185,0.9047675,-0.1756645,-0.0632115,-0.0011624999999999,0.0064505,0.0632115,0.0011625,-0.0064505,-0.1241415,-0.3552225,-0.0025764999999999,0.1220084999999999,-0.3664725,-0.0012854999999999,-0.1312615,-0.7202225,0.0193935,0.1436385,-0.7019425,0.0182775,0
55,0.0013299999999999,0.703932,0.0206225,-0.149888,0.477452,0.0450515,-0.272488,0.678882,-0.0291284999999999,0.152442,0.478142,0.0264565,0.247192,0.690142,-0.0602535,-0.324868,0.8961020000000001,-0.1189415,0.273222,0.913812,-0.1572515,-0.063124,-0.0012379999999999,0.0063924999999999,0.063124,0.0012379999999999,-0.0063924999999999,-0.124018,-0.356548,-0.0022084999999999,0.1222019999999999,-0.366858,-0.0010214999999999,-0.131218,-0.722078,0.0198835,0.143872,-0.7038179999999999,0.0187805,0
56,0.000563,0.7032204999999999,0.0209315,-0.149701,0.4797904999999999,0.0454235,-0.269841,0.6845205,-0.0218065,0.152279,0.4783605,0.0269904999999999,0.244179,0.6939805,-0.0519294999999999,-0.321701,0.9094705,-0.1026115,0.271999,0.9215705,-0.1386115,-0.063062,-0.0012544999999999,0.0064124999999999,0.063062,0.0012544999999999,-0.0064125,-0.1238409999999999,-0.3577995,-0.0017425,0.122409,-0.3672495,-0.0007045,-0.1311909999999999,-0.7238495,0.0204424999999999,0.144079,-0.7055295,0.0192975,0
57,-0.0002274999999999,0.702725,0.021364,-0.1495355,0.482025,0.0458709999999999,-0.2674555,0.689545,-0.014518,0.1519645,0.478465,0.027469,0.2416645,0.696905,-0.04432,-0.3199655,0.916915,-0.086486,0.2714545,0.926965,-0.122606,-0.0630215,-0.001239,0.006515,0.0630215,0.0012389999999999,-0.006515,-0.1236855,-0.358835,-0.001249,0.1225745,-0.367445,-0.0003599999999999,-0.1311854999999999,-0.725385,0.021082,0.1442645,-0.707025,0.0198689999999999,0
58,-0.0010934999999999,0.7023195,0.021822,-0.1493785,0.4840994999999999,0.04647,-0.2655384999999999,0.6938795,-0.007497,0.1515115,0.4785195,0.027886,0.2393115,0.6993794999999999,-0.036976,-0.3183784999999999,0.9237095,-0.070104,0.2712615,0.9317395,-0.107004,-0.0629525,-0.0012215,0.006654,0.0629525,0.0012215,-0.006654,-0.1235185,-0.3598105,-0.0007749999999999,0.1226915,-0.3675305,-9.599999999999886e-05,-0.1311785,-0.7268205000000001,0.021563,0.1443515,-0.7084905,0.020471,0
59,-0.0020295,0.702073,0.022409,-0.1491955,0.485683,0.047377,-0.2636455,0.697483,-0.000563,0.1508945,0.478643,0.028396,0.2372545,0.701533,-0.029875,-0.3171155,0.929143,-0.054703,0.2710945,0.935663,-0.0923129999999999,-0.0629135,-0.0012329999999999,0.006836,0.0629135,0.0012329999999999,-0.006836,-0.1233655,-0.360657,-0.000253,0.1227545,-0.367467,0.0001939999999999,-0.1311555,-0.728157,0.022083,0.1444345,-0.709907,0.021085,0
60,-0.0030399999999999,0.701997,0.023049,-0.14898,0.4870570000000001,0.048421,-0.26188,0.700577,0.0059369999999999,0.15008,0.478797,0.028957,0.23545,0.703207,-0.023619,-0.31558,0.933857,-0.03885,0.27096,0.938417,-0.079648,-0.062898,-0.0012439999999999,0.00705,0.062898,0.001244,-0.00705,-0.1232999999999999,-0.3613829999999999,0.0003219999999999,0.12281,-0.3671629999999999,0.0004639999999999,-0.13113,-0.729293,0.022657,0.14449,-0.711153,0.021663,0
61,-0.0041344999999999,0.702121,0.0239279999999999,-0.1487485,0.488491,0.049595,-0.2601485,0.7032309999999999,0.0124959999999999,0.1489315,0.479051,0.0295559999999999,0.2340315,0.704261,-0.017295,-0.3137485,0.937491,-0.024547,0.2715214999999999,0.940581,-0.066458,-0.0628795,-0.001277,0.0073059999999999,0.0628795,0.001277,-0.007306,-0.1232185,-0.3620489999999999,0.0010369999999999,0.1228915,-0.367249,0.0010959999999999,-0.1311285,-0.730379,0.0234859999999999,0.1445715,-0.7123090000000001,0.022493,0
62,-0.005202,0.7023284999999999,0.025019,-0.148425,0.4900585,0.050886,-0.258525,0.7056884999999999,0.019057,0.147815,0.4793785,0.030254,0.232895,0.7051185,-0.011201,-0.311815,0.9408985,-0.0101899999999999,0.272435,0.9420585,-0.054021,-0.062815,-0.0013174999999999,0.00757,0.062815,0.0013174999999999,-0.00757,-0.123085,-0.3627315,0.001807,0.123005,-0.3673614999999999,0.0017679999999999,-0.131105,-0.7314015,0.024389,0.144695,-0.7134115000000001,0.023448,0
63,-0.0060329999999999,0.702371,0.026198,-0.148023,0.491641,0.05228,-0.257283,0.707951,0.024838,0.146847,0.479661,0.030919,0.232367,0.705791,-0.0058819999999999,-0.310033,0.943701,0.001672,0.273507,0.942941,-0.043976,-0.062719,-0.0013579999999999,0.00788,0.062719,0.0013579999999999,-0.0078799999999999,-0.1228629999999999,-0.363539,0.002481,0.123077,-0.367629,0.002309,-0.130983,-0.732469,0.025312,0.1449069999999999,-0.7145490000000001,0.024464,0
64,-0.0067465,0.7022665,0.027428,-0.1475604999999999,0.4932765,0.053775,-0.2560405,0.7069865,0.030304,0.1459795,0.4799065,0.031494,0.2320895,0.7063865,-0.0011269999999999,-0.3082805,0.9431365,0.012513,0.2740895,0.9436265,-0.035041,-0.0626255,-0.0013784999999999,0.008161,0.0626255,0.0013784999999999,-0.0081609999999999,-0.1226105,-0.3644135,0.003099,0.1231395,-0.3680335,0.00285,-0.1308204999999999,-0.7335735,0.02622,0.1451095,-0.7157235000000001,0.025456,0
65,-0.007286,0.7022809999999999,0.028661,-0.147031,0.494591,0.05522,-0.2546609999999999,0.706031,0.035533,0.145319,0.4802409999999999,0.031993,0.231899,0.7068209999999999,0.0030839999999999,-0.306241,0.942161,0.0225019999999999,0.274589,0.944081,-0.027155,-0.062547,-0.001428,0.008451,0.062547,0.0014279999999999,-0.008451,-0.122311,-0.3651689999999999,0.003658,0.1232289999999999,-0.368359,0.003284,-0.130581,-0.734499,0.027062,0.145359,-0.7166990000000001,0.0264109999999999,0
66,-0.007663,0.7023824999999999,0.029929,-0.146443,0.4953924999999999,0.056453,-0.253073,0.7084425000000001,0.040385,0.144827,0.4804725,0.03244,0.231627,0.7071825,0.006936,-0.303793,0.9413125,0.031711,0.2748969999999999,0.9444025,-0.0201719999999999,-0.062462,-0.0014815,0.008735,0.062462,0.0014814999999999,-0.008735,-0.121983,-0.3658375,0.0041969999999999,0.123357,-0.3685675,0.003693,-0.130253,-0.7352974999999999,0.027879,0.145657,-0.7175575000000001,0.027351,0
67,-0.0079295,0.7025275,0.0312015,-0.1458765,0.4962474999999999,0.0577135,-0.2506664999999999,0.7104975,0.0455595,0.1444135,0.4806275,0.0328595,0.2313035,0.7074575,0.0103105,-0.3002765,0.9438975,0.0398205,0.2752235,0.9447175,-0.0135074999999999,-0.0623585,-0.0015445,0.0090145,0.0623585,0.0015444999999999,-0.0090144999999999,-0.1216564999999999,-0.3664125,0.0047275,0.1233835,-0.3687725,0.0041275,-0.1299165,-0.7359924999999999,0.0286985,0.1459534999999999,-0.7184125,0.0282735,0
68,-0.0081195,0.7026465000000001,0.032514,-0.1454265,0.4971865,0.058852,-0.2483764999999999,0.7098065,0.050344,0.1439735,0.4807464999999999,0.033208,0.2308935,0.7076665,0.013259,-0.2968265,0.9438765,0.047183,0.2755634999999999,0.9450465,-0.0076799999999999,-0.0622655,-0.0015665,0.0092589999999999,0.0622655,0.0015664999999999,-0.009259,-0.1213365,-0.3669135,0.0051879999999999,0.1233635,-0.3690535,0.0045059999999999,-0.1294965,-0.7366435,0.0295239999999999,0.1463735,-0.7190934999999999,0.029213,0
69,-0.0081584999999999,0.7026985,0.033773,-0.1449655,0.4980085,0.059954,-0.2462055,0.7114085,0.054761,0.1436245,0.4808685,0.033553,0.2304345,0.7078884999999999,0.015956,-0.2937855,0.9456085,0.052518,0.2749745,0.9453485,-0.0025039999999999,-0.0621755,-0.0015914999999999,0.009507,0.0621755,0.0015915,-0.009507,-0.1209755,-0.3673714999999999,0.005623,0.1233544999999999,-0.3693214999999999,0.0048679999999999,-0.1290355,-0.7372615,0.0303039999999999,0.1468445,-0.7197315000000001,0.030147,1
70,-0.0080285,0.702763,0.0347755,-0.1444875,0.498493,0.0607695,-0.2444474999999999,0.713553,0.0575185,0.1433325,0.480953,0.0335315,0.2296725,0.708163,0.0172254999999999,-0.2908675,0.947383,0.0571044999999999,0.2740025,0.945983,0.0003724999999999,-0.0621235,-0.0015869999999999,0.0096834999999999,0.0621235,0.0015869999999999,-0.0096835,-0.1206074999999999,-0.367647,0.0058444999999999,0.1233925,-0.369317,0.0049714999999999,-0.1285474999999999,-0.737607,0.0308274999999999,0.1473425,-0.7200869999999999,0.0308214999999999,1
71,-0.0080889999999999,0.702847,0.035572,-0.144069,0.498947,0.061451,-0.243059,0.715377,0.059231,0.143091,0.480397,0.033429,0.228591,0.707897,0.018144,-0.288099,0.949477,0.059386,0.2728109999999999,0.945967,0.002337,-0.062082,-0.001585,0.009876,0.062082,0.001585,-0.0098759999999999,-0.120299,-0.367813,0.005954,0.123411,-0.369133,0.005086,-0.127999,-0.7378929999999999,0.03125,0.147731,-0.720573,0.03138,1
72,-0.008235,0.7029960000000001,0.036261,-0.143741,0.4993359999999999,0.061982,-0.241861,0.717206,0.060596,0.142539,0.479926,0.033117,0.227429,0.707446,0.018764,-0.285331,0.951436,0.06103,0.271229,0.945786,0.00389,-0.06207,-0.001575,0.010001,0.06207,0.001575,-0.0100009999999999,-0.120031,-0.367854,0.006022,0.123469,-0.368924,0.005318,-0.127531,-0.738074,0.031588,0.148039,-0.721024,0.031845,1
73,-0.0083769999999999,0.7032164999999999,0.0369435,-0.1434669999999999,0.4995664999999999,0.0624135,-0.240827,0.7182964999999999,0.0615825,0.142233,0.4795465,0.0329755,0.226223,0.7070665,0.0193795,-0.282427,0.9527965,0.0623225,0.268833,0.9454065,0.0051305,-0.062069,-0.0015724999999999,0.0101045,0.062069,0.0015725,-0.0101044999999999,-0.1197669999999999,-0.3677935,0.0060275,0.123523,-0.3686435,0.0055475,-0.127007,-0.7381635,0.0319395,0.148403,-0.7213635,0.0322515,1
74,-0.0085454999999999,0.703496,0.0377495,-0.1431905,0.499786,0.0629175,-0.2400505,0.7192259999999999,0.0622735,0.1420595,0.479116,0.0330245,0.2248695,0.7067559999999999,0.0200345,-0.2797505,0.954056,0.0630315,0.2663495,0.945096,0.0061155,-0.0620565,-0.0015809999999999,0.0102005,0.0620565,0.0015809999999999,-0.0102005,-0.1195005,-0.3676439999999999,0.0060435,0.1235795,-0.368344,0.0057984999999999,-0.1264705,-0.7381840000000001,0.0323785,0.1487895,-0.721634,0.0327965,1
75,-0.0087585,0.703828,0.0385815,-0.1430064999999999,0.499978,0.0634095,-0.2395665,0.720068,0.0627695,0.1419335,0.478568,0.0331775,0.2236135,0.706518,0.0206565,-0.2774665,0.955258,0.0635565,0.2639435,0.944858,0.0068005,-0.0620365,-0.001599,0.0102835,0.0620365,0.0015989999999999,-0.0102835,-0.1192564999999999,-0.367412,0.0060494999999999,0.1236134999999999,-0.368032,0.0060615,-0.1259565,-0.738152,0.0328315,0.1491535,-0.721782,0.0333835,1
76,-0.0089694999999999,0.7042075,0.0394085,-0.1427804999999999,0.5000375,0.0638725,-0.2393104999999999,0.7206475,0.0632335,0.1418895,0.4776275,0.0333725,0.2224695,0.7060375,0.0212105,-0.2763505,0.9561875,0.0640335,0.2620895,0.9446175,0.0072305,-0.0620275,-0.0016134999999999,0.0103455,0.0620275,0.0016135,-0.0103455,-0.1190105,-0.3670925,0.0060255,0.1236895,-0.3677224999999999,0.0063184999999999,-0.1254505,-0.7380424999999999,0.0332655,0.1495194999999999,-0.7218525,0.0339585,1
77,-0.0091519999999999,0.7045825,0.040254,-0.142589,0.4999924999999999,0.064326,-0.239059,0.7211425,0.063692,0.141931,0.4765525,0.033636,0.221411,0.7054425,0.021698,-0.275379,0.9570625,0.064504,0.260601,0.9442525,0.007662,-0.062018,-0.0016455,0.0103849999999999,0.062018,0.0016455,-0.0103849999999999,-0.118769,-0.3667575,0.00601,0.123771,-0.3673975,0.006574,-0.1249089999999999,-0.7378975,0.033696,0.149871,-0.7219075,0.034508,1
78,-0.0093145,0.7049270000000001,0.0411334999999999,-0.1424445,0.499947,0.0647375,-0.2377645,0.7183269999999999,0.0641144999999999,0.1418655,0.475757,0.0339844999999999,0.2204855,0.7050270000000001,0.0221194999999999,-0.2742945,0.953347,0.0642495,0.2604455,0.943997,0.0080954999999999,-0.0620185,-0.0016689999999999,0.0103474999999999,0.0620185,0.001669,-0.0103475,-0.1185245,-0.366423,0.0059604999999999,0.1238655,-0.367163,0.0068014999999999,-0.1243944999999999,-0.737733,0.0341044999999999,0.1501955,-0.7219629999999999,0.0350385,1
79,-0.00946,0.7052415,0.0419495,-0.14237,0.4998915,0.0650235,-0.23755,0.7182115,0.0634385,0.1419099999999999,0.4747814999999999,0.0343595,0.21988,0.7044415,0.0224965,-0.2737,0.9530815,0.0634325,0.26056,0.9434815,0.0080994999999999,-0.062025,-0.0016885,0.0102744999999999,0.062025,0.0016884999999999,-0.0102744999999999,-0.11831,-0.3660885,0.0059024999999999,0.12394,-0.3669584999999999,0.0069735,-0.1239,-0.7375685,0.0344465,0.1505,-0.7219385,0.0355175,1
80,-0.009421,0.7053305000000001,0.0427009999999999,-0.1422199999999999,0.4998805,0.065288,-0.23734,0.7182005,0.062572,0.14201,0.4737205,0.034642,0.2195,0.7037905,0.0227719999999999,-0.2729,0.9530705,0.062299,0.26067,0.9428505,0.0077399999999999,-0.06203,-0.0016865,0.010159,0.06203,0.0016865,-0.010159,-0.11809,-0.3659395,0.0058199999999999,0.1240199999999999,-0.3669694999999999,0.0070529999999999,-0.12363,-0.7375695,0.034695,0.15069,-0.7219495,0.035885,1
81,-0.0092439999999999,0.7053305000000001,0.0433065,-0.142036,0.4998805,0.0654425,-0.237616,0.7176505000000001,0.0614165,0.142194,0.4724605,0.0347965,0.219274,0.7028805,0.0229745,-0.272686,0.9571205,0.0606945,0.260904,0.9418005,0.0071104999999999,-0.06203,-0.0016865,0.0100075,0.06203,0.0016865,-0.0100075,-0.117906,-0.3659395,0.0056485,0.1241039999999999,-0.3669694999999999,0.0070085,-0.123446,-0.7375695,0.0348264999999999,0.150874,-0.7219495,0.0360605,1
82,-0.009104,0.7053305000000001,0.043837,-0.14189,0.4998805,0.065549,-0.23803,0.7170305,0.060182,0.14262,0.4712605000000001,0.035166,0.21898,0.7020705,0.023074,-0.27257,0.9566205,0.057407,0.2610699999999999,0.9409205,0.006333,-0.062022,-0.0016865,0.009903,0.062022,0.0016865,-0.0099029999999999,-0.11775,-0.3659395,0.005507,0.1241799999999999,-0.3669694999999999,0.006978,-0.1232999999999999,-0.7375695,0.034908,0.15102,-0.7219495,0.03619,1
83,-0.0090384999999999,0.7054645,0.044188,-0.1417985,0.4998545,0.06557,-0.2389985,0.7198945,0.05929,0.1429315,0.4705545,0.03558,0.2187915,0.7015245,0.023083,-0.2730385,0.9596545,0.0548,0.2611515,0.9403145,0.005537,-0.0620225,-0.0016914999999999,0.0098849999999999,0.0620225,0.0016914999999999,-0.0098849999999999,-0.1177085,-0.3658055,0.005381,0.1242115,-0.3668955,0.006994,-0.1232284999999999,-0.7374355,0.034904,0.1510515,-0.7219055,0.036241,1
84,-0.0090139999999999,0.705606,0.044391,-0.141687,0.4999159999999999,0.065661,-0.239487,0.7198359999999999,0.057428,0.143113,0.470446,0.036032,0.2186429999999999,0.701626,0.022992,-0.272947,0.959696,0.052024,0.261593,0.940206,0.004708,-0.06203,-0.001656,0.009846,0.06203,0.0016559999999999,-0.009846,-0.117857,-0.365544,0.005193,0.123973,-0.366854,0.006955,-0.123457,-0.737284,0.034751,0.150683,-0.721974,0.036227,1
85,-0.009089,0.7056655,0.0443659999999999,-0.141604,0.4999754999999999,0.065672,-0.239954,0.7197754999999999,0.0555629999999999,0.143316,0.4703455,0.036333,0.218436,0.7016355,0.0227659999999999,-0.273284,0.9596155,0.048503,0.262066,0.9400655,0.0038449999999999,-0.062038,-0.0016235,0.0097289999999999,0.062038,0.0016235,-0.009729,-0.118014,-0.3653645,0.0049379999999999,0.123726,-0.3668345,0.0068339999999999,-0.123704,-0.7371745000000001,0.034496,0.1502959999999999,-0.7220345,0.036112,1
86,-0.0091119999999999,0.705544,0.0441564999999999,-0.141622,0.500194,0.0655985,-0.240342,0.719944,0.0538644999999999,0.143318,0.470414,0.0361245,0.218218,0.7015939999999999,0.0224124999999999,-0.274072,0.959694,0.0450485,0.262638,0.939864,0.0031064999999999,-0.062041,-0.0015729999999999,0.0095204999999999,0.062041,0.001573,-0.0095205,-0.1181719999999999,-0.365266,0.0045984999999999,0.123463,-0.366786,0.0066214999999999,-0.123992,-0.737106,0.0341405,0.1498779999999999,-0.722156,0.0358965,1
87,-0.0091119999999999,0.7052805,0.0439214999999999,-0.141662,0.5004005,0.0655065,-0.2407119999999999,0.7201105,0.0523174999999999,0.143348,0.4702204999999999,0.0359084999999999,0.218018,0.7015604999999999,0.0219804999999999,-0.275002,0.9597205,0.0421995,0.263178,0.9396105,0.0022564999999999,-0.062043,-0.0014795,0.0092864999999999,0.062043,0.0014795,-0.0092865,-0.118332,-0.3652495,0.0042564999999999,0.123201,-0.3668395,0.0064814999999999,-0.124272,-0.7371095,0.0337434999999999,0.149478,-0.7223295000000001,0.0356495,1
88,-0.0090999999999999,0.704918,0.0435874999999999,-0.141681,0.500628,0.0653275,-0.239821,0.716048,0.0519964999999999,0.143379,0.469978,0.0356185,0.217789,0.701348,0.0213044999999999,-0.274951,0.955678,0.0400644999999999,0.263589,0.939348,0.0011904999999999,-0.062058,-0.001362,0.0091034999999999,0.062058,0.001362,-0.0091035,-0.1184809999999999,-0.3652519999999999,0.0038234999999999,0.122947,-0.366892,0.0063184999999999,-0.124541,-0.737132,0.0332395,0.1490989999999999,-0.722502,0.0352764999999999,1
89,-0.0092489999999999,0.7043710000000001,0.0429655,-0.141678,0.500861,0.0651585,-0.239188,0.716551,0.0507125,0.143392,0.4697109999999999,0.0352265,0.217442,0.7012010000000001,0.0202835,-0.275758,0.956041,0.0379955,0.263992,0.939061,-0.0001484999999999,-0.062072,-0.0012549999999999,0.0089974999999999,0.062072,0.001255,-0.0089974999999999,-0.118618,-0.365249,0.0032375,0.122689,-0.366939,0.0060855,-0.1247979999999999,-0.737159,0.0326155,0.1487419999999999,-0.7226889999999999,0.0347485,1
90,-0.0095969999999999,0.703508,0.0416425,-0.1415809999999999,0.501158,0.0648145,-0.238441,0.717068,0.0493754999999999,0.1434689999999999,0.469378,0.0346804999999999,0.217279,0.700918,0.0189494999999999,-0.275891,0.956558,0.0355675,0.264399,0.938548,-0.0022394999999999,-0.062108,-0.001154,0.0090835,0.062108,0.001154,-0.0090835,-0.118731,-0.365212,0.0023764999999999,0.122459,-0.366912,0.0059794999999999,-0.1249909999999999,-0.737192,0.0317635,0.148459,-0.7228519999999999,0.0339784999999999,1
91,-0.0100585,0.7023825,0.0398359999999999,-0.1414185,0.5014825,0.0643639999999999,-0.2371485,0.7145025,0.0485909999999999,0.1435315,0.4689325,0.0340279999999999,0.2172015,0.7005425,0.0175599999999999,-0.2753885,0.9540525,0.0333829999999999,0.2648615,0.9379725,-0.004475,-0.0621395,-0.0010555,0.0092949999999999,0.0621395,0.0010555,-0.009295,-0.1188185,-0.3651875,0.0013519999999999,0.1222535,-0.3668275,0.0058209999999999,-0.1251685,-0.7372275,0.0307779999999999,0.1482015,-0.7230075,0.0330629999999999,1
92,-0.010681,0.700029,0.036794,-0.141292,0.5018090000000001,0.0638239999999999,-0.235952,0.714829,0.04661,0.143588,0.467999,0.033247,0.217158,0.699659,0.0161539999999999,-0.274542,0.954379,0.031277,0.265238,0.936919,-0.006765,-0.0621699999999999,-0.0008359999999999,0.0094899999999999,0.0621699999999999,0.000836,-0.00949,-0.118912,-0.3651109999999999,0.000285,0.1220229999999999,-0.366581,0.005703,-0.125252,-0.737291,0.02973,0.148078,-0.723081,0.0321619999999999,1
93,-0.0112759999999999,0.6972499999999999,0.032829,-0.141094,0.50185,0.063173,-0.235894,0.71949,0.044598,0.143856,0.4666899999999999,0.03249,0.217146,0.69844,0.014848,-0.274304,0.95884,0.029325,0.265506,0.9357,-0.008922,-0.062215,-0.0008219999999999,0.009835,0.062215,0.000822,-0.0098349999999999,-0.1187739999999999,-0.36509,-0.0005729999999999,0.1220629999999999,-0.36654,0.005692,-0.125024,-0.73726,0.028816,0.148296,-0.72304,0.031307,1
94,-0.011935,0.694133,0.0283264999999999,-0.140856,0.501893,0.0625125,-0.235836,0.722753,0.0425484999999999,0.144054,0.465483,0.0316825,0.2172339999999999,0.697323,0.0135755,-0.274036,0.962063,0.0275965,0.265794,0.934593,-0.0110504999999999,-0.062257,-0.0008009999999999,0.0102975,0.062257,0.000801,-0.0102975,-0.118616,-0.365067,-0.0014535,0.1221309999999999,-0.366497,0.0056524999999999,-0.124796,-0.737217,0.0279285,0.148544,-0.722997,0.0304284999999999,1
95,-0.0127035,0.6908464999999999,0.0229854999999999,-0.1405495,0.5019965,0.0616984999999999,-0.2355695,0.7238064999999999,0.0407815,0.1443005,0.4643265,0.0307284999999999,0.2173905,0.6962765,0.0121864999999999,-0.2733795,0.9631065,0.0258324999999999,0.2661205,0.9335865,-0.0133215,-0.0622865,-0.0007724999999999,0.0108814999999999,0.0622865,0.0007725,-0.0108815,-0.1184095,-0.3650434999999999,-0.0024845,0.1222605,-0.3664535,0.0055834999999999,-0.1244895,-0.7371735,0.0268984999999999,0.1488505,-0.7229535,0.0293984999999999,1
96,-0.0136174999999999,0.6872545000000001,0.0173875,-0.1403505,0.5023845,0.0607455,-0.2346405,0.7245845,0.0394295,0.1445595,0.4632445,0.0295125,0.2175795,0.6952244999999999,0.0107755,-0.2722504999999999,0.9639745,0.0238425,0.2662295,0.9324545,-0.0155215,-0.0623005,-0.0005945,0.0113685,0.0623005,0.0005944999999999,-0.0113684999999999,-0.1181805,-0.3651355,-0.0036184999999999,0.1224244999999999,-0.3660855,0.0053675,-0.1240805,-0.7372255000000001,0.0257545,0.1492395,-0.7228355,0.0283015,1
97,-0.0144964999999999,0.6835815000000001,0.0116905,-0.1401555,0.5028015,0.0597945,-0.2337054999999999,0.7253815,0.0382315,0.1448445,0.4622215,0.0283335,0.2178145,0.6942015,0.0094945,-0.2706854999999999,0.9647615,0.0219445,0.2662945,0.9313615,-0.0175754999999999,-0.0622965,-0.0004255,0.0117645,0.0622965,0.0004254999999999,-0.0117644999999999,-0.1179855,-0.3651585,-0.0046684999999999,0.1225865,-0.3657085,0.0051115,-0.1236855,-0.7372385,0.0245925,0.1496345,-0.7226684999999999,0.0272015,1
98,-0.015242,0.6800665,0.006121,-0.139911,0.5030965000000001,0.058777,-0.232731,0.7261965,0.037138,0.145199,0.4610365,0.027263,0.218029,0.6930165,0.008422,-0.269151,0.9656965,0.020071,0.266329,0.9301865,-0.0193329999999999,-0.062297,-0.0002645,0.012079,0.062297,0.0002645,-0.012079,-0.117841,-0.3651035,-0.005474,0.122741,-0.3652535,0.004934,-0.123341,-0.7372035,0.023551,0.150009,-0.7224434999999999,0.026174,1
99,-0.0157985,0.676711,0.0008954999999999,-0.1397074999999999,0.503381,0.0577855,-0.2318075,0.727011,0.0357754999999999,0.1453925,0.4602309999999999,0.0262304999999999,0.2181725,0.692251,0.0073314999999999,-0.2675675,0.966531,0.0178264999999999,0.2664324999999999,0.929451,-0.0205375,-0.0622734999999999,-0.0001369999999999,0.0121794999999999,0.0622734999999999,0.000137,-0.0121795,-0.1177274999999999,-0.365079,-0.0058885,0.1228925,-0.364759,0.0045794999999999,-0.1230475,-0.737139,0.0225674999999999,0.1503924999999999,-0.722189,0.0253614999999999,1
100,-0.0162555,0.6735265,-0.0040494999999999,-0.1395455,0.5036465,0.0567965,-0.2316154999999999,0.7276265000000001,0.0342595,0.1455745,0.4595765,0.0252025,0.2182744999999999,0.6916165,0.0062835,-0.2661655,0.9672565,0.0154175,0.2665545,0.9288265,-0.0217624999999999,-0.0622525,-2.1500000000000685e-05,0.0120935,0.0622525,2.1500000000000685e-05,-0.0120935,-0.1176555,-0.3651435,-0.0062224999999999,0.1230335,-0.3642835,0.0041825,-0.1228455,-0.7370734999999999,0.0215875,0.1507445,-0.7219335,0.0246045,1
101,-0.0165975,0.6713515,-0.0078385,-0.1393955,0.5039215,0.0558455,-0.2311855,0.7275615000000001,0.0337224999999999,0.1457745,0.4592715,0.0244425,0.2184545,0.6913115000000001,0.0053634999999999,-0.2654255,0.9671915,0.0128794999999999,0.2666445,0.9285315,-0.0229715,-0.0622304999999999,7.450000000000512e-05,0.0120334999999999,0.0622304999999999,-7.449999999999818e-05,-0.0120335,-0.1176155,-0.3651985,-0.0064505,0.1231745,-0.3638185,0.0037354999999999,-0.1226955,-0.7369985,0.0206734999999999,0.1510745,-0.7216484999999999,0.0239124999999999,1
102,-0.016953,0.6698605,-0.0106074999999999,-0.139293,0.5041605,0.0549474999999999,-0.230283,0.7246905,0.0331334999999999,0.145927,0.4590305,0.0236984999999999,0.218547,0.6910904999999999,0.0045934999999999,-0.264683,0.9643205,0.0101295,0.266687,0.9283005,-0.0241615,-0.0622,0.0001564999999999,0.0118985,0.0622,-0.0001564999999999,-0.0118985,-0.117623,-0.3652695,-0.0064775,0.1232699999999999,-0.3634295,0.0032704999999999,-0.122593,-0.7369495,0.0198044999999999,0.151357,-0.7213595,0.0233104999999999,1
103,-0.0172565,0.6687015,-0.0128565,-0.1392245,0.5043915,0.0540825,-0.2310044999999999,0.7281115,0.0309865,0.1460354999999999,0.4588415,0.0230025,0.2186155,0.6909115,0.0037505,-0.2645945,0.9676515,0.0073405,0.2666755,0.9281115,-0.0252825,-0.0621715,0.0002255,0.0116475,0.0621715,-0.0002254999999999,-0.0116474999999999,-0.1176545,-0.3653385,-0.0063284999999999,0.1233315,-0.3631085,0.0028115,-0.1225245,-0.7368885,0.0190045,0.1515955,-0.7210585,0.0227285,1
104,-0.017442,0.6678545,-0.0142745,-0.139212,0.5044145,0.0533535,-0.230972,0.7283745,0.0289574999999999,0.146098,0.4586845,0.0224604999999999,0.218628,0.6907945,0.0029744999999999,-0.264552,0.9680245,0.0050494999999999,0.266598,0.9279745,-0.0260815,-0.062166,0.0001985,0.0112784999999999,0.062166,-0.0001984999999999,-0.0112785,-0.117752,-0.3653655,-0.0060195,0.123354,-0.3631155,0.0023874999999999,-0.122562,-0.7369055,0.0184454999999999,0.151678,-0.7209855,0.0221914999999999,1
105,-0.0175835,0.6671999999999999,-0.0155144999999999,-0.1392395,0.5044099999999999,0.0526775,-0.2310195,0.72847,0.0270075,0.1460604999999999,0.45866,0.0219805,0.2185705,0.69078,0.0021985,-0.2645195,0.96809,0.0028525,0.2664505,0.92797,-0.0269665,-0.0621604999999999,0.0001779999999999,0.0109255,0.0621604999999999,-0.000178,-0.0109255,-0.1177594999999999,-0.36544,-0.0057695,0.1234385,-0.36312,0.0020215,-0.1224794999999999,-0.73689,0.0179575,0.1517705,-0.72087,0.0216655,1
106,-0.0176665,0.6667295,-0.016502,-0.1392685,0.5043895,0.052081,-0.2314184999999999,0.7284395,0.025743,0.1460115,0.4586895,0.0216029999999999,0.2184815,0.6908595000000001,0.0015049999999999,-0.2651485,0.9680595,0.0003879999999999,0.2662915,0.9280495,-0.027974,-0.0621555,0.0001524999999999,0.0106039999999999,0.0621555,-0.0001524999999999,-0.010604,-0.1177585,-0.3655104999999999,-0.005517,0.1235265,-0.3631405,0.0016989999999999,-0.1223784999999999,-0.7368804999999999,0.0175509999999999,0.1518514999999999,-0.7207804999999999,0.02119,1
107,-0.017755,0.6663990000000001,-0.0173369999999999,-0.13931,0.5044390000000001,0.051505,-0.2318199999999999,0.7282190000000001,0.024506,0.14598,0.4587189999999999,0.021226,0.21837,0.6908890000000001,0.000797,-0.2657299999999999,0.967589,-0.0018649999999999,0.26613,0.928039,-0.029004,-0.06214,0.0001229999999999,0.010315,0.06214,-0.0001229999999999,-0.0103149999999999,-0.1177899999999999,-0.365701,-0.0053969999999999,0.123595,-0.363111,0.001347,-0.1224,-0.736831,0.017127,0.15192,-0.720621,0.020675,1
108,-0.0180604999999999,0.6662215,-0.018018,-0.1396395,0.5044614999999999,0.050965,-0.2327395,0.7280115,0.023232,0.1458505,0.4587214999999999,0.020887,0.2181105,0.6908915,4.000000000000184e-05,-0.2668695,0.9671915,-0.0036339999999999,0.2657605,0.9280015,-0.030264,-0.0621525,7.049999999999418e-05,0.010052,0.0621525,-7.050000000000112e-05,-0.0100519999999999,-0.1178895,-0.3657985,-0.0054579999999999,0.1237835,-0.3631085,0.000972,-0.1225195,-0.7367785,0.016722,0.1521405,-0.7204085,0.020006,1
109,-0.018277,0.6661090000000001,-0.0185895,-0.139985,0.504439,0.0505204999999999,-0.233645,0.727799,0.0220744999999999,0.145735,0.4586989999999999,0.0206295,0.217935,0.6908690000000001,-0.0006235,-0.268195,0.966269,-0.0058304999999999,0.265605,0.927889,-0.0315545,-0.062179,1.7000000000003124e-05,0.0098674999999999,0.062179,-1.6999999999996185e-05,-0.0098674999999999,-0.117965,-0.365911,-0.0054735,0.123977,-0.363131,0.0006964999999999,-0.122635,-0.736731,0.0164045,0.152345,-0.720221,0.0194594999999999,1
110,-0.0185185,0.6660755,-0.0191729999999999,-0.1403805,0.5044055,0.050045,-0.2345404999999999,0.7275255,0.020863,0.1455595,0.4586654999999999,0.020343,0.2177795,0.6908255,-0.0013479999999999,-0.2698505,0.9656355,-0.008584,0.2654495,0.9277655,-0.033038,-0.0622115,-3.650000000000181e-05,0.009646,0.0622115,3.649999999999487e-05,-0.009646,-0.1180505,-0.3660445,-0.005532,0.1241465,-0.3632045,0.00041,-0.1228005,-0.7366945,0.016073,0.1525195,-0.7200745,0.018909,1
111,-0.0187125,0.6660405,-0.0196404999999999,-0.1407945,0.5043704999999999,0.0496184999999999,-0.2353645,0.7272405,0.0197885,0.1453855,0.4586804999999999,0.0201604999999999,0.2176054999999999,0.6907905,-0.0019734999999999,-0.2709545,0.9651005,-0.0114035,0.2652955,0.9276805,-0.0343635,-0.0622394999999999,-9.549999999999836e-05,0.0093724999999999,0.0622394999999999,9.55000000000053e-05,-0.0093724999999999,-0.1181145,-0.3661995,-0.0055064999999999,0.1243055,-0.3633195,0.0001985,-0.1229845,-0.7366495,0.0158465,0.1526755,-0.7199195,0.0184785,1
112,-0.0188689999999999,0.6660115000000001,-0.0199,-0.1411799999999999,0.5043115,0.049309,-0.23617,0.7268815000000001,0.018817,0.14522,0.4587115,0.020082,0.2174499999999999,0.6907415,-0.002552,-0.27196,0.9644715,-0.014357,0.26515,0.9276015,-0.035768,-0.062279,-0.0001514999999999,0.0091189999999999,0.062279,0.0001514999999999,-0.009119,-0.11816,-0.3662685,-0.0055,0.124492,-0.3634385,-4.000000000000531e-06,-0.1231399999999999,-0.7366085,0.0157059999999999,0.15283,-0.7198085,0.018187,1
113,-0.01898,0.6660225,-0.020042,-0.141544,0.5042525,0.049096,-0.236914,0.7264925,0.0178609999999999,0.145096,0.4587825,0.0200359999999999,0.217346,0.6907125000000001,-0.003085,-0.272954,0.9638525,-0.017527,0.265166,0.9275125,-0.037229,-0.0623139999999999,-0.0001955,0.0089109999999999,0.0623139999999999,0.0001954999999999,-0.008911,-0.118174,-0.3663175,-0.005482,0.12469,-0.3635375,-0.000197,-0.123254,-0.7366075000000001,0.0155889999999999,0.153046,-0.7196575000000001,0.0180089999999999,1
114,-0.0190225,0.6662675,-0.0200475,-0.1418485,0.5041575,0.0490535,-0.2376184999999999,0.7260675,0.0167575,0.1450615,0.4588775,0.0200745,0.2175315,0.6906875,-0.0036974999999999,-0.2740485,0.9628275,-0.0205735,0.2655015,0.9273375,-0.0389475,-0.0623385,-0.0002445,0.0088735,0.0623385,0.0002445,-0.0088735,-0.1181084999999999,-0.3663425,-0.0054504999999999,0.1248924999999999,-0.3636625,-0.0002314999999999,-0.1232785,-0.7366025,0.0155885,0.1532815,-0.7195825,0.0180035,1
115,-0.019038,0.6668375000000001,-0.0199594999999999,-0.142127,0.5040375,0.0489985,-0.238287,0.7257675,0.0155094999999999,0.145033,0.4589975,0.0200735,0.217803,0.6907375,-0.0043535,-0.274827,0.9616175,-0.0232544999999999,0.2659829999999999,0.9272175,-0.0406555,-0.062353,-0.0003044999999999,0.0088735,0.062353,0.0003044999999999,-0.0088735,-0.1180269999999999,-0.3663525,-0.0054495,0.125089,-0.3637725,-0.0002284999999999,-0.123247,-0.7366225,0.0156245,0.153533,-0.7195125,0.0180215,1
116,-0.0189874999999999,0.6678775,-0.0196329999999999,-0.1423905,0.5038975,0.048945,-0.2389605,0.7257574999999999,0.014233,0.1450295,0.4591474999999999,0.020124,0.2181695,0.6908375,-0.005066,-0.2755205,0.9622075,-0.0263419999999999,0.2666195,0.9271675,-0.042399,-0.0623705,-0.0003584999999999,0.008823,0.0623705,0.0003584999999999,-0.0088229999999999,-0.1179305,-0.3663625,-0.005398,0.1252835,-0.3638825,-0.0001759999999999,-0.1231205,-0.7365825,0.015685,0.1537995,-0.7194425,0.018069,1
117,-0.0188855,0.6692425,-0.019101,-0.1424545,0.5038225,0.048861,-0.2392145,0.7257925,0.012882,0.1449655,0.4592825,0.020234,0.2186255,0.6909925,-0.005842,-0.2754744999999999,0.9622425,-0.0294649999999999,0.2674355,0.9272925,-0.04398,-0.0623714999999999,-0.0003934999999999,0.008711,0.0623714999999999,0.0003934999999999,-0.0087109999999999,-0.1179344999999999,-0.3663675,-0.0052859999999999,0.1252815,-0.3639675,-0.0002239999999999,-0.1231244999999999,-0.7365475,0.015797,0.1537955,-0.7194075,0.018129,1
118,-0.018769,0.671055,-0.018161,-0.142534,0.503695,0.04883,-0.239494,0.7254849999999999,0.0115669999999999,0.144866,0.459495,0.0204759999999999,0.219156,0.691145,-0.006571,-0.275464,0.961575,-0.030709,0.268366,0.927455,-0.04535,-0.062375,-0.0004259999999999,0.0086439999999999,0.062375,0.000426,-0.0086439999999999,-0.117944,-0.3663649999999999,-0.005045,0.125276,-0.3640649999999999,-0.000187,-0.123134,-0.736515,0.0160489999999999,0.153786,-0.719375,0.0183429999999999,1
119,-0.018666,0.673287,-0.016632,-0.142652,0.503517,0.049038,-0.239802,0.725117,0.010829,0.144708,0.459777,0.020955,0.219698,0.691287,-0.007042,-0.2755019999999999,0.960907,-0.030943,0.269358,0.927647,-0.046224,-0.0623919999999999,-0.000458,0.008482,0.0623919999999999,0.000458,-0.0084819999999999,-0.117992,-0.366373,-0.0046129999999999,0.125223,-0.364183,7.100000000000162e-05,-0.123192,-0.736483,0.016621,0.153728,-0.719343,0.018899,1
120,-0.0180514999999999,0.676298,-0.0140505,-0.1427365,0.503138,0.0490995,-0.2400865,0.7246279999999999,0.0104515,0.1448035,0.460978,0.0210625,0.2208335,0.691898,-0.0072904999999999,-0.2755065,0.960388,-0.0303365,0.2712535,0.928018,-0.0465345,-0.0624155,-0.000504,0.0083835,0.0624155,0.0005039999999999,-0.0083835,-0.1181664999999999,-0.366152,-0.0039685,0.1250525,-0.364382,0.0007475,-0.1233765,-0.7364120000000001,0.0176535,0.1533635,-0.719292,0.0199535,1
121,-0.0174684999999999,0.679516,-0.01117,-0.1428964999999999,0.5026660000000001,0.0490319999999999,-0.2404065,0.7240960000000001,0.0103389999999999,0.1447635,0.462456,0.0212599999999999,0.2220135,0.6928859999999999,-0.00735,-0.2753465,0.959876,-0.029281,0.2731735,0.928766,-0.046403,-0.0624495,-0.000538,0.0083199999999999,0.0624495,0.0005379999999999,-0.00832,-0.1183465,-0.365884,-0.003288,0.1248515,-0.364584,0.0015089999999999,-0.1235365,-0.7363740000000001,0.0188049999999999,0.1529735,-0.719214,0.0211449999999999,1
122,-0.016788,0.683165,-0.007758,-0.143101,0.502095,0.049046,-0.241141,0.723305,0.010526,0.144839,0.464095,0.021723,0.223319,0.693945,-0.007098,-0.275371,0.959675,-0.027766,0.2751389999999999,0.929595,-0.0456909999999999,-0.06247,-0.000576,0.0082339999999999,0.06247,0.000576,-0.0082339999999999,-0.118481,-0.365535,-0.002439,0.124623,-0.364795,0.0024849999999999,-0.123581,-0.736375,0.020253,0.152589,-0.719125,0.022648,1
123,-0.01611,0.686743,-0.0041344999999999,-0.143308,0.501533,0.0492085,-0.2418779999999999,0.722553,0.0110895,0.1449119999999999,0.465723,0.0222115,0.224472,0.695083,-0.0064885,-0.275758,0.959103,-0.0261624999999999,0.276902,0.930523,-0.0443205,-0.0624799999999999,-0.000604,0.0081625,0.0624799999999999,0.000604,-0.0081624999999999,-0.1186279999999999,-0.365187,-0.0016185,0.124384,-0.365027,0.0034614999999999,-0.123578,-0.736337,0.0218105,0.152202,-0.718977,0.0241855,1
124,-0.01536,0.6903045,-9.050000000000724e-05,-0.143559,0.5007444999999999,0.0491454999999999,-0.242749,0.7215444999999999,0.0119504999999999,0.145001,0.4671845,0.0229454999999999,0.225571,0.6961545,-0.0055295,-0.275789,0.9588645,-0.0242545,0.278421,0.9315245,-0.0424665,-0.0624799999999999,-0.0006255,0.0081284999999999,0.0624799999999999,0.0006255,-0.0081285,-0.118779,-0.3648154999999999,-0.0007325,0.124143,-0.3652555,0.0046354999999999,-0.123569,-0.7363655,0.0235754999999999,0.151801,-0.7188655,0.0259424999999999,1
125,-0.0145914999999999,0.693508,0.003924,-0.1438005,0.499958,0.049299,-0.2437005,0.720538,0.012966,0.1450995,0.4684979999999999,0.023843,0.2265595,0.697158,-0.0043819999999999,-0.2758705,0.958118,-0.0222279999999999,0.2796895,0.932508,-0.040427,-0.0624785,-0.000639,0.008056,0.0624785,0.0006389999999999,-0.008056,-0.1189305,-0.364392,8.500000000000174e-05,0.1239084999999999,-0.365482,0.0058,-0.1235605,-0.736372,0.025345,0.1514095,-0.718602,0.027734,1
126,-0.0138575,0.6964994999999999,0.00789,-0.1440425,0.4991994999999999,0.049638,-0.2447025,0.7195495,0.014181,0.1452675,0.4697195,0.024847,0.2274475,0.6981394999999999,-0.0030719999999999,-0.2766325,0.9575295,-0.020012,0.2807675,0.9335295,-0.038343,-0.0624765,-0.0006274999999999,0.007952,0.0624765,0.0006275,-0.007952,-0.1190924999999999,-0.3639505,0.000933,0.1237055,-0.3657005,0.0070539999999999,-0.1235324999999999,-0.7363605000000001,0.027133,0.1510175,-0.7183005,0.029552,1
127,-0.013122,0.6991409999999999,0.011636,-0.144316,0.4985409999999999,0.050027,-0.2458459999999999,0.7185609999999999,0.015434,0.145444,0.4708509999999999,0.02589,0.228184,0.699121,-0.0015509999999999,-0.277566,0.957091,-0.017737,0.281644,0.934561,-0.036324,-0.062465,-0.0006099999999999,0.0077889999999999,0.062465,0.0006099999999999,-0.0077889999999999,-0.119296,-0.363489,0.001696,0.123506,-0.365899,0.0082339999999999,-0.123506,-0.736279,0.028851,0.150614,-0.7179490000000001,0.031272,1
128,-0.0125894999999999,0.7015755,0.0152069999999999,-0.1446265,0.4979455,0.050378,-0.2472965,0.7175155,0.0165629999999999,0.1456335,0.4719155,0.0268909999999999,0.2286535,0.7001155,-4.200000000000037e-05,-0.2786465,0.9565955,-0.015274,0.2821234999999999,0.9356155,-0.034449,-0.0624445,-0.0005964999999999,0.0076669999999999,0.0624445,0.0005964999999999,-0.007667,-0.1194764999999999,-0.3630045,0.0022379999999999,0.1233755,-0.3660745,0.009304,-0.1235365,-0.7361745,0.0303609999999999,0.1502835,-0.7175245,0.03283,1
129,-0.01248,0.7032895,0.0179215,-0.144994,0.4975695,0.0510335,-0.248824,0.7166095,0.0175015,0.145756,0.4721195,0.0283335,0.228546,0.7005595,0.0013965,-0.279614,0.9561695,-0.0131164999999999,0.281986,0.9361695,-0.0328605,-0.062436,-0.0005565,0.0075375,0.062436,0.0005565,-0.0075374999999999,-0.119614,-0.3628205,0.0025645,0.12325,-0.3661305,0.0100285,-0.123614,-0.7360605,0.0315555,0.150136,-0.7173205,0.0340815,1
130,-0.012463,0.7047935,0.0204164999999999,-0.14533,0.4972935,0.0519064999999999,-0.24999,0.7157935,0.0188514999999999,0.1454,0.4728135,0.0294965,0.2284,0.7010135,0.0027294999999999,-0.28059,0.9557535,-0.0114795,0.28184,0.9365735,-0.0312314999999999,-0.062429,-0.0005264999999999,0.0073685,0.062429,0.0005264999999999,-0.0073685,-0.1197599999999999,-0.3626765,0.0028434999999999,0.1231149999999999,-0.3661864999999999,0.0106814999999999,-0.1237,-0.7359065,0.0327085,0.14998,-0.7171265,0.0352605,1
131,-0.012527,0.70581,0.0225439999999999,-0.145585,0.49716,0.052814,-0.251065,0.71513,0.0195339999999999,0.1451549999999999,0.4734099999999999,0.0305529999999999,0.228305,0.70156,0.0038639999999999,-0.2816849999999999,0.95504,-0.010359,0.2817349999999999,0.93707,-0.029752,-0.062402,-0.000507,0.0072589999999999,0.062402,0.0005069999999999,-0.007259,-0.119875,-0.36252,0.0029589999999999,0.123031,-0.36623,0.0110839999999999,-0.1236849999999999,-0.7357400000000001,0.0336379999999999,0.149885,-0.71692,0.0361999999999999,1
132,-0.012597,0.706772,0.0245269999999999,-0.145779,0.4970219999999999,0.053604,-0.252239,0.714492,0.0201709999999999,0.145261,0.473792,0.031594,0.228251,0.701952,0.004836,-0.283409,0.954352,-0.009413,0.281421,0.937462,-0.028351,-0.062388,-0.0004949999999999,0.007188,0.062388,0.000495,-0.007188,-0.1199089999999999,-0.362288,0.0030129999999999,0.123099,-0.366208,0.0114579999999999,-0.123399,-0.735608,0.0344239999999999,0.149881,-0.716528,0.0370669999999999,1
133,-0.012632,0.7074755,0.026001,-0.1459109999999999,0.4971154999999999,0.054274,-0.253231,0.7131255,0.020538,0.145339,0.4736555,0.032438,0.228079,0.7021255,0.005554,-0.284741,0.9529255,-0.009034,0.280849,0.9377855,-0.0272889999999999,-0.062375,-0.0004815,0.007094,0.062375,0.0004814999999999,-0.0070939999999999,-0.119921,-0.3620645,0.002992,0.123196,-0.3661745,0.011721,-0.1231009999999999,-0.7354745,0.034951,0.149909,-0.7160645,0.037652,1
134,-0.012652,0.7080759999999999,0.0272924999999999,-0.146029,0.4971759999999999,0.0547924999999999,-0.254339,0.711816,0.0208144999999999,0.145301,0.473896,0.0330535,0.227681,0.702356,0.0062164999999999,-0.285889,0.951576,-0.0088435,0.280051,0.938166,-0.0264505,-0.062374,-0.0004749999999999,0.0070164999999999,0.062374,0.000475,-0.0070165,-0.119919,-0.361854,0.0029684999999999,0.123278,-0.366164,0.0119624999999999,-0.122869,-0.735364,0.0353804999999999,0.149951,-0.715614,0.0380984999999999,1
135,-0.0127505,0.708593,0.0283955,-0.1461545,0.497193,0.0551215,-0.2555945,0.710713,0.0209505,0.1450355,0.474333,0.0334725,0.2271455,0.702753,0.0067345,-0.2871345,0.950453,-0.0089305,0.2790855,0.938683,-0.0258875,-0.0623725,-0.000495,0.0069335,0.0623725,0.000495,-0.0069335,-0.1199544999999999,-0.361697,0.0028494999999999,0.1233505,-0.366177,0.0120745,-0.1226744999999999,-0.735267,0.0356575,0.1499855,-0.715187,0.0383655,1
136,-0.0129665,0.7090155,0.0292855,-0.1462215,0.4972155,0.0556635,-0.2567515,0.7097754999999999,0.0209595,0.1449885,0.4744255,0.0339815,0.2265585,0.7028455,0.0071145,-0.2882815,0.9493855,-0.0091574999999999,0.2781985,0.9387755,-0.0255534999999999,-0.0623554999999999,-0.0005164999999999,0.0068295,0.0623554999999999,0.0005165,-0.0068295,-0.1200214999999999,-0.3615845,0.0026785,0.1234285,-0.3661545,0.0121544999999999,-0.1224715,-0.7351645,0.0358215,0.1500485,-0.7147945,0.0385425,1
137,-0.013293,0.709216,0.029841,-0.146312,0.497156,0.056011,-0.257872,0.709066,0.020856,0.144638,0.474376,0.034343,0.226018,0.703056,0.0073809999999999,-0.2893119999999999,0.948576,-0.009519,0.277338,0.939086,-0.025379,-0.062334,-0.000539,0.006761,0.062334,0.0005389999999999,-0.006761,-0.120132,-0.3615339999999999,0.0025529999999999,0.123527,-0.366164,0.012164,-0.122272,-0.7351139999999999,0.035871,0.150148,-0.714504,0.038598,1
138,-0.0136349999999999,0.7093655,0.0303454999999999,-0.146409,0.4970755,0.0562694999999999,-0.258789,0.7083755,0.0208574999999999,0.144041,0.4746055,0.0346205,0.225511,0.7034455000000001,0.0076524999999999,-0.290329,0.9477655,-0.0099385,0.2765309999999999,0.9395555,-0.0252865,-0.062324,-0.0005665,0.0067314999999999,0.062324,0.0005664999999999,-0.0067315,-0.120239,-0.3615045,0.0024234999999999,0.1236429999999999,-0.3661945,0.0121834999999999,-0.122069,-0.7350844999999999,0.0358885,0.150291,-0.7142445,0.0386295,1
139,-0.0140504999999999,0.7094855,0.030879,-0.1464645,0.4970755,0.056499,-0.2596445,0.7078555,0.020756,0.1434955,0.4750155,0.034943,0.2249755,0.7038755,0.007862,-0.2915045,0.9471855,-0.0104339999999999,0.2756854999999999,0.9400755,-0.025188,-0.0623195,-0.0005665,0.006716,0.0623195,0.0005664999999999,-0.006716,-0.1203345,-0.3614545,0.0023579999999999,0.1237765,-0.3661945,0.0122019999999999,-0.1218444999999999,-0.7350544999999999,0.0359079999999999,0.1504655,-0.7139845,0.038648,1
140,-0.0143404999999999,0.7095855,0.031353,-0.1464345,0.4970855,0.05668,-0.2603745,0.7074555,0.020664,0.1429655,0.4754755,0.035331,0.2245455,0.7044255,0.008095,-0.2924644999999999,0.9467255,-0.0108469999999999,0.2750655,0.9407055,-0.025078,-0.0623325,-0.0005665,0.006716,0.0623325,0.0005664999999999,-0.006716,-0.1204045,-0.3614444999999999,0.002338,0.1239065,-0.3661945,0.012204,-0.1216845,-0.7350245,0.03591,0.1505955,-0.7137745,0.03865,1
141,-0.0146024999999999,0.709618,0.0317249999999999,-0.1463545,0.497088,0.056836,-0.2608345,0.707078,0.0205659999999999,0.1425255,0.4759479999999999,0.03573,0.2241355,0.704998,0.0083149999999999,-0.2930345,0.946308,-0.011122,0.2743455,0.941338,-0.024977,-0.0623535,-0.0005739999999999,0.0066779999999999,0.0623535,0.000574,-0.006678,-0.1204645,-0.361442,0.0022999999999999,0.1240975,-0.366202,0.0121699999999999,-0.1214645,-0.734992,0.0358999999999999,0.1507955,-0.713582,0.0386459999999999,1
142,-0.0148589999999999,0.7096499999999999,0.0320825,-0.146276,0.49698,0.0569635,-0.261256,0.7068700000000001,0.0205115,0.142424,0.47602,0.0360905,0.2236739999999999,0.7051499999999999,0.0085655,-0.293526,0.94611,-0.0112895,0.273554,0.94156,-0.0248434999999999,-0.062374,-0.000611,0.0066195,0.062374,0.000611,-0.0066195,-0.120516,-0.36147,0.0022404999999999,0.124291,-0.3664,0.0121485,-0.121276,-0.73499,0.0358715,0.150974,-0.7133799999999999,0.0386595,1
143,-0.0150975,0.709653,0.03233,-0.1462055,0.496903,0.057051,-0.2614355,0.706663,0.0204379999999999,0.1423745,0.4759829999999999,0.036369,0.2232245,0.7052229999999999,0.0087499999999999,-0.2939455,0.945903,-0.011461,0.2727345,0.941723,-0.024729,-0.0624025,-0.0006299999999999,0.0065629999999999,0.0624025,0.00063,-0.006563,-0.1205855,-0.361487,0.0021279999999999,0.1244395,-0.366687,0.012176,-0.1210754999999999,-0.7349870000000001,0.0357949999999999,0.1511445,-0.713227,0.0386699999999999,1
144,-0.0153085,0.7096229999999999,0.0325245,-0.1461635,0.496853,0.0571025,-0.2613735,0.706453,0.0203704999999999,0.1424665,0.4757729999999999,0.0366315,0.2228165,0.705163,0.0089584999999999,-0.2941134999999999,0.945693,-0.0115905,0.2719465,0.941743,-0.0246495,-0.0624285,-0.0006569999999999,0.0065264999999999,0.0624285,0.0006569999999999,-0.0065265,-0.1206534999999999,-0.361477,0.0020074999999999,0.1245615,-0.366977,0.0122315,-0.1209334999999999,-0.734947,0.0357025,0.1512865,-0.7131270000000001,0.0386645,1
145,-0.0155485,0.7096155000000001,0.032703,-0.1461645,0.4968255,0.057122,-0.2613145,0.7069255000000001,0.020209,0.1426855,0.4753755,0.036834,0.2223955,0.7050455000000001,0.009115,-0.2942445,0.9461455,-0.0117559999999999,0.2711355,0.9417055,-0.024564,-0.0624675,-0.0006794999999999,0.00649,0.0624675,0.0006794999999999,-0.0064899999999999,-0.1207544999999999,-0.3614445,0.001861,0.1246525,-0.3672445,0.0122239999999999,-0.1208144999999999,-0.7349144999999999,0.035573,0.1513755,-0.7130344999999999,0.038615,1
146,-0.0157695,0.7095965,0.0328305,-0.1461735,0.4967965,0.0570865,-0.2612534999999999,0.7073665,0.0200155,0.1427465,0.4751065,0.0370045,0.2219465,0.7048565,0.0092505,-0.2943135,0.9465665,-0.0119514999999999,0.2704065,0.9415465,-0.0244854999999999,-0.0625085,-0.0007025,0.0064745,0.0625085,0.0007025,-0.0064744999999999,-0.1208235,-0.3614635,0.0017315,0.1247105,-0.3675135,0.0122345,-0.1207434999999999,-0.7348835,0.0354225,0.1514364999999999,-0.7130135,0.0385565,1
147,-0.016019,0.7095485,0.032922,-0.146206,0.4968085,0.056972,-0.2612359999999999,0.7075885000000001,0.019764,0.142754,0.4749085,0.037128,0.221494,0.7046585000000001,0.009341,-0.294346,0.9467885,-0.012081,0.269754,0.9413485,-0.024471,-0.062521,-0.0007165,0.006469,0.062521,0.0007164999999999,-0.006469,-0.1208659999999999,-0.3615414999999999,0.001606,0.124725,-0.3678114999999999,0.012149,-0.120716,-0.7348414999999999,0.035188,0.151444,-0.7130515,0.038426,1
148,-0.0162179999999999,0.709508,0.0329379999999999,-0.146251,0.496708,0.056835,-0.261231,0.707708,0.0195189999999999,0.142749,0.474698,0.0371779999999999,0.221199,0.7044480000000001,0.009346,-0.294341,0.946998,-0.012198,0.269289,0.941138,-0.024518,-0.062521,-0.000745,0.006439,0.062521,0.000745,-0.006439,-0.120861,-0.361712,0.0014539999999999,0.124727,-0.368112,0.0120089999999999,-0.120701,-0.734792,0.0349219999999999,0.151439,-0.713152,0.038241,1
149,-0.0163719999999999,0.709486,0.0329055,-0.146275,0.496716,0.0566755,-0.261215,0.7076859999999999,0.0192535,0.143165,0.474086,0.0371085,0.221035,0.7040959999999999,0.0092794999999999,-0.294335,0.947026,-0.0123115,0.268985,0.940816,-0.0246175,-0.06252,-0.0007529999999999,0.0063985,0.06252,0.000753,-0.0063985,-0.1208549999999999,-0.3619139999999999,0.0013224999999999,0.124754,-0.3684639999999999,0.0118315,-0.120685,-0.734734,0.0345505,0.151435,-0.713364,0.0379785,1
150,-0.0164,0.7094805000000001,0.0327175,-0.146308,0.4967904999999999,0.0564345,-0.260958,0.7082305,0.0189335,0.143532,0.4737305,0.0368705,0.221012,0.7039605,0.0090735,-0.294368,0.9475905,-0.0124984999999999,0.268962,0.9406805,-0.0248294999999999,-0.062549,-0.0007555,0.0063265,0.062549,0.0007554999999999,-0.0063264999999999,-0.120888,-0.3619195,0.0011175,0.124804,-0.3685695,0.0115265,-0.1207179999999999,-0.7346495,0.0340665,0.151402,-0.7133594999999999,0.0375005,1
151,-0.0166155,0.7094805000000001,0.0322665,-0.1465185,0.4968204999999999,0.0558975,-0.2607585,0.7086305,0.0183435,0.1437014999999999,0.4734204999999999,0.0363675,0.2207915,0.7038205000000001,0.0085835,-0.2943785,0.9479605,-0.0129444999999999,0.2687414999999999,0.9405705,-0.0253165,-0.0626075,-0.0007555,0.0062375,0.0626075,0.0007554999999999,-0.0062375,-0.1210685,-0.3619295,0.0006514999999999,0.1247925,-0.3686695,0.0109705,-0.1209385,-0.7346294999999999,0.0332714999999999,0.1511715,-0.7133594999999999,0.0367264999999999,1
152,-0.016953,0.7094805000000001,0.031545,-0.146861,0.4968505,0.055149,-0.260611,0.7090405000000001,0.0174629999999999,0.143769,0.4731705,0.035618,0.220459,0.7037605,0.0078629999999999,-0.294531,0.9483405,-0.013701,0.268409,0.9405405,-0.026118,-0.0626579999999999,-0.0007555,0.0061169999999999,0.0626579999999999,0.0007554999999999,-0.006117,-0.121301,-0.3619595,-9.699999999999986e-05,0.1247629999999999,-0.3687095,0.0101099999999999,-0.121281,-0.7346294999999999,0.032208,0.1508189999999999,-0.7133594999999999,0.035662,1
153,-0.0172574999999999,0.709462,0.0307705,-0.1472145,0.496872,0.0543695,-0.2603744999999999,0.709422,0.0164104999999999,0.1436555,0.4731419999999999,0.0347825,0.2201455,0.703702,0.0070674999999999,-0.2945445,0.948692,-0.0146835,0.2681555,0.940452,-0.0269354999999999,-0.0626895,-0.000765,0.0059885,0.0626895,0.000765,-0.0059885,-0.1215445,-0.362208,-0.0010575,0.1246945,-0.369108,0.0088485,-0.1218245,-0.734648,0.0308475,0.1501455,-0.713748,0.0343905,1
154,-0.017628,0.709418,0.0298695,-0.147642,0.4969979999999999,0.0534285,-0.260222,0.709988,0.0152575,0.143338,0.4732879999999999,0.0337605,0.219838,0.703848,0.0060754999999999,-0.294642,0.949228,-0.0159425,0.267938,0.940598,-0.0279725,-0.062726,-0.0007619999999999,0.0057994999999999,0.062726,0.0007619999999999,-0.0057994999999999,-0.121832,-0.362522,-0.0022104999999999,0.124568,-0.369512,0.0073985,-0.122432,-0.734672,0.0291795,0.149398,-0.714292,0.0327885,1
155,-0.018098,0.7093039999999999,0.0286535,-0.14827,0.497004,0.0521445,-0.26016,0.7105239999999999,0.0137265,0.14272,0.4733639999999999,0.0323805,0.2194999999999999,0.703924,0.0046935,-0.29507,0.949714,-0.0177895,0.26774,0.940674,-0.0294345,-0.062752,-0.0007829999999999,0.0056565,0.062752,0.0007829999999999,-0.0056564999999999,-0.12211,-0.363046,-0.0037494999999999,0.12433,-0.3699759999999999,0.0055535,-0.12315,-0.7347760000000001,0.0270805,0.14854,-0.715026,0.0306545,1
156,-0.0187175,0.7091475,0.027014,-0.1490635,0.4969875,0.0504499999999999,-0.2602835,0.7110875,0.011791,0.1419565,0.4734174999999999,0.030709,0.2191265,0.7039775,0.002818,-0.2957235,0.9501975,-0.020074,0.2675865,0.9407275,-0.0313919999999999,-0.0627785,-0.0008164999999999,0.005462,0.0627785,0.0008165,-0.005462,-0.1223635,-0.3637925,-0.005755,0.1239965,-0.3706725,0.0032329999999999,-0.1240035,-0.7349525,0.0243649999999999,0.1475565,-0.7158425,0.027891,1
157,-0.0193174999999999,0.708993,0.0251865,-0.1498785,0.496923,0.0485665,-0.2604085,0.711643,0.0096295,0.1412115,0.473623,0.0288454999999999,0.2188015,0.704103,0.0007684999999999,-0.2964185,0.950653,-0.0225865,0.2675015,0.940783,-0.0336485,-0.0627805,-0.000865,0.0054065,0.0627805,0.0008649999999999,-0.0054065,-0.1225085,-0.364697,-0.0079485,0.1236915,-0.3713769999999999,0.0006294999999999,-0.1248285,-0.735167,0.0213905,0.1465915,-0.716687,0.0248784999999999,1
158,-0.0199549999999999,0.708867,0.0231309999999999,-0.15076,0.496897,0.046514,-0.2606,0.712297,0.0072079999999999,0.14012,0.4746869999999999,0.0270459999999999,0.21855,0.704837,-0.001536,-0.29719,0.951107,-0.025532,0.26752,0.941437,-0.036191,-0.062762,-0.000934,0.0054889999999999,0.062762,0.0009339999999999,-0.005489,-0.1226699999999999,-0.365603,-0.010477,0.12333,-0.372093,-0.002351,-0.1257,-0.735393,0.0181149999999999,0.14561,-0.717473,0.0214989999999999,1
159,-0.0205185,0.7087845,0.021006,-0.1517135,0.4968844999999999,0.044354,-0.2608935,0.7125245,0.004643,0.1388865,0.4760845,0.025128,0.2183765,0.7058245,-0.0039949999999999,-0.2979035,0.9512245,-0.0289,0.2675665,0.9423345,-0.039038,-0.0627435,-0.0010014999999999,0.0055669999999999,0.0627435,0.0010015,-0.005567,-0.1227635,-0.3665655,-0.0131869999999999,0.1229965,-0.3731455,-0.005384,-0.1265135,-0.7355755,0.014638,0.1446565,-0.7182655,0.017907,1
160,-0.0209845,0.7086805,0.018917,-0.1526674999999999,0.4968605,0.042309,-0.2611775,0.7126505000000001,0.002057,0.1376425,0.4776904999999999,0.023225,0.2182825,0.7069505,-0.006529,-0.2984875,0.9513505,-0.032347,0.2676925,0.9433605,-0.042021,-0.0627105,-0.0010714999999999,0.005646,0.0627105,0.0010715,-0.0056459999999999,-0.1227774999999999,-0.3675695,-0.0158989999999999,0.1226724999999999,-0.3742995,-0.008367,-0.1272174999999999,-0.7358795,0.011078,0.1438425,-0.7190995,0.014236,1
161,-0.0214129999999999,0.708577,0.0168779999999999,-0.153656,0.4968469999999999,0.040282,-0.261486,0.712777,-0.000512,0.1363639999999999,0.4793469999999999,0.021337,0.218204,0.7081069999999999,-0.009096,-0.299016,0.951477,-0.035899,0.267814,0.944337,-0.0449969999999999,-0.062679,-0.0011489999999999,0.005759,0.062679,0.001149,-0.005759,-0.122726,-0.3686129999999999,-0.018597,0.122364,-0.375703,-0.011332,-0.127876,-0.736193,0.0076029999999999,0.1431339999999999,-0.719933,0.0105469999999999,1
162,-0.0220645,0.7085615000000001,0.014439,-0.1547605,0.4967215,0.037748,-0.2620405,0.7129015000000001,-0.0036709999999999,0.1348895,0.4810914999999999,0.019018,0.2178795,0.7092415000000001,-0.012256,-0.2995605,0.9514915,-0.040034,0.2676095,0.9453015,-0.0485219999999999,-0.0626665,-0.0012364999999999,0.005794,0.0626665,0.0012365,-0.005794,-0.1227105,-0.3696284999999999,-0.021707,0.1220094999999999,-0.3768085,-0.0148899999999999,-0.1285505,-0.7363584999999999,0.003592,0.1424595,-0.7204485,0.006277,1
163,-0.0227465,0.7085720000000001,0.011909,-0.1557435,0.4966019999999999,0.035125,-0.2625335,0.7130620000000001,-0.006999,0.1333765,0.4829119999999999,0.016644,0.2175265,0.710422,-0.015577,-0.3001735,0.951482,-0.044416,0.2673065,0.946302,-0.052295,-0.0626495,-0.0013009999999999,0.0059539999999999,0.0626495,0.001301,-0.005954,-0.1226734999999999,-0.370578,-0.025007,0.1217065,-0.377818,-0.018767,-0.1292035,-0.736468,-0.000567,0.1418065,-0.720838,0.0018809999999999,1
164,-0.0233395,0.708489,0.009453,-0.1566485,0.4964389999999999,0.032655,-0.2629485,0.713119,-0.010206,0.1318815,0.484689,0.0144779999999999,0.2172815,0.711559,-0.018743,-0.3005985,0.951379,-0.048683,0.2670814999999999,0.947269,-0.0560839999999999,-0.0626395,-0.0013379999999999,0.0060809999999999,0.0626395,0.0013379999999999,-0.006081,-0.1226385,-0.371401,-0.0281849999999999,0.1215214999999999,-0.378761,-0.022604,-0.1297684999999999,-0.736531,-0.004617,0.1412415,-0.721061,-0.002271,1
165,-0.023816,0.7081995,0.0071285,-0.157488,0.4960895,0.0304115,-0.263248,0.7130295,-0.0131275,0.130562,0.4858095,0.0123805,0.217072,0.7121495,-0.0217174999999999,-0.301058,0.9510695,-0.0529054999999999,0.266822,0.9477395,-0.0599944999999999,-0.062629,-0.0013984999999999,0.0061635,0.062629,0.0013985,-0.0061634999999999,-0.122668,-0.3721704999999999,-0.0312864999999999,0.121492,-0.3796505,-0.0263384999999999,-0.130168,-0.7366905,-0.0083624999999999,0.140902,-0.7213705,-0.0061205,1
166,-0.0243165,0.7078920000000001,0.0048895,-0.1582945,0.495372,0.0282205,-0.2635845,0.712542,-0.0159955,0.1292055,0.486602,0.0102875,0.2167855,0.712472,-0.0247364999999999,-0.3015445,0.950342,-0.0571435,0.2664654999999999,0.947932,-0.0639634999999999,-0.0626485,-0.001571,0.0062734999999999,0.0626485,0.0015709999999999,-0.0062735,-0.1227744999999999,-0.372738,-0.0344285,0.1215655,-0.380268,-0.0300725,-0.1304944999999999,-0.7367579999999999,-0.0120985,0.1407755,-0.721538,-0.0100235,1
167,-0.0247424999999999,0.7073910000000001,0.002783,-0.1587585,0.494451,0.026168,-0.2638485,0.711851,-0.018804,0.1284015,0.486811,0.008002,0.2164915,0.7126809999999999,-0.0276979999999999,-0.3019385,0.949421,-0.061069,0.2660515,0.948141,-0.067896,-0.0626915,-0.00178,0.0062679999999999,0.0626915,0.0017799999999999,-0.0062679999999999,-0.1229085,-0.373209,-0.037524,0.1216815,-0.380889,-0.033769,-0.1307785,-0.736839,-0.015774,0.1407615,-0.721649,-0.013871,1
168,-0.025088,0.7068185,0.0007515,-0.159162,0.4933585,0.0242625,-0.263972,0.7109885,-0.0215805,0.1279179999999999,0.4871785,0.0058005,0.2162079999999999,0.7130485,-0.0305045,-0.302302,0.9483185,-0.0647784999999999,0.2656779999999999,0.9485085,-0.0717154999999999,-0.062733,-0.0019994999999999,0.0062915,0.062733,0.0019995,-0.0062915,-0.123102,-0.3734015,-0.0405665,0.121878,-0.3810814999999999,-0.0372925,-0.131032,-0.7368315,-0.0193685,0.1408579999999999,-0.7215815,-0.0176645,1
169,-0.0253355,0.7062404999999999,-0.001267,-0.1594705,0.4922705,0.022271,-0.2638405,0.7100704999999999,-0.024362,0.1276195,0.4877905,0.0034709999999999,0.2160295,0.7136604999999999,-0.033225,-0.3025605,0.9471905,-0.06843,0.2653995,0.9491205,-0.075451,-0.0627585,-0.0022094999999999,0.006281,0.0627585,0.0022095,-0.006281,-0.1233104999999999,-0.3732195,-0.043739,0.1221595,-0.3807795,-0.040979,-0.1312105,-0.7364995000000001,-0.0228459999999999,0.1410795,-0.7212495,-0.021346,1
170,-0.0255285,0.7056454999999999,-0.0032055,-0.1597365,0.4912654999999999,0.0203005,-0.2636465,0.7090055,-0.0269995,0.1273135,0.4881555,0.0012745,0.2158535,0.7137654999999999,-0.0358785,-0.3024064999999999,0.9460155,-0.0719675,0.2651135,0.9491055,-0.0790905,-0.0627955,-0.0023455,0.0062534999999999,0.0627955,0.0023455,-0.0062534999999999,-0.1235965,-0.3727045,-0.0468945,0.1223634999999999,-0.3799845,-0.0446815,-0.1313365,-0.7359745000000001,-0.0262545,0.1413734999999999,-0.7207245000000001,-0.0249375,1
171,-0.02554,0.7049375,-0.004951,-0.159637,0.4903174999999999,0.018568,-0.263287,0.7080275,-0.029331,0.127133,0.4878875,-0.000724,0.215853,0.7133775,-0.038193,-0.302007,0.9449375,-0.0750889999999999,0.265003,0.9486275,-0.08216,-0.06282,-0.0023884999999999,0.0063,0.06282,0.0023885,-0.0063,-0.1237669999999999,-0.3718625,-0.049557,0.122733,-0.3791025,-0.047946,-0.131357,-0.7354425,-0.0291389999999999,0.141833,-0.7202925,-0.028041,1
172,-0.0254655,0.70411,-0.006634,-0.1593655,0.48943,0.016888,-0.2629154999999999,0.70715,-0.031679,0.1270645,0.48724,-0.00278,0.2158745,0.71266,-0.040531,-0.3015255,0.94397,-0.078031,0.2649445,0.94785,-0.085,-0.0628505,-0.0023999999999999,0.0062489999999999,0.0628505,0.0023999999999999,-0.006249,-0.1239054999999999,-0.37099,-0.05202,0.1231845,-0.37821,-0.051216,-0.1313655,-0.7349600000000001,-0.031855,0.1423145,-0.71989,-0.0309839999999999,1
173,-0.0252235,0.7032269999999999,-0.0085344999999999,-0.1588274999999999,0.488047,0.0149825,-0.2623275,0.705767,-0.0341574999999999,0.1270525,0.486407,-0.0050184999999999,0.2160325,0.711747,-0.0430745,-0.3006475,0.942517,-0.0811135,0.2647625,0.946957,-0.0879325,-0.0628805,-0.0024429999999999,0.0061375,0.0628805,0.002443,-0.0061374999999999,-0.1240775,-0.369653,-0.0548844999999999,0.1238225,-0.376923,-0.0550265,-0.1313774999999999,-0.734133,-0.0350215,0.1429225,-0.7189530000000001,-0.0342434999999999,1
174,-0.0248844999999999,0.702242,-0.0103025,-0.1581935,0.4868019999999999,0.0131184999999999,-0.2615535,0.704442,-0.0365585,0.1271265,0.4855319999999999,-0.0071125,0.2162965,0.710842,-0.0454995,-0.2996935,0.941132,-0.0841075,0.2645565,0.946082,-0.0907185,-0.0629015,-0.002467,0.0060484999999999,0.0629015,0.002467,-0.0060485,-0.1243534999999999,-0.368268,-0.0579555,0.1244665,-0.375488,-0.0590325,-0.1313635,-0.733308,-0.0380724999999999,0.1435865,-0.7179679999999999,-0.0373505,1
175,-0.0244675,0.7012065000000001,-0.012641,-0.1575295,0.4859765,0.011149,-0.2606695,0.7037165000000001,-0.038949,0.1272905,0.4846765,-0.0092179999999999,0.2165905,0.7099565,-0.0479,-0.2987195,0.9403565,-0.087338,0.2644805,0.9452465,-0.0934329999999999,-0.0629105,-0.0024205,0.005807,0.0629105,0.0024204999999999,-0.005807,-0.1246895,-0.3667435,-0.061298,0.1250205,-0.3740535,-0.0633519999999999,-0.1314295,-0.7320335,-0.041314,0.1440505,-0.7166035,-0.040537,1
176,-0.0239745,0.7001679999999999,-0.0150465,-0.1569245,0.484888,0.0089035,-0.2597945,0.7027279999999999,-0.0413495,0.1273355,0.483428,-0.0113885,0.2168455,0.708708,-0.0503095,-0.2976145,0.939328,-0.0905594999999999,0.2643855,0.944058,-0.0961625,-0.0629355,-0.0024289999999999,0.0055895,0.0629355,0.002429,-0.0055895,-0.1251445,-0.364762,-0.0651225,0.1255855,-0.3723019999999999,-0.0682095,-0.1315145,-0.730402,-0.0446045,0.1444754999999999,-0.714932,-0.0438324999999999,1
177,-0.0233745,0.699112,-0.0176855,-0.1563945,0.4834419999999999,0.0062635,-0.2586345,0.7014819999999999,-0.0440915,0.1274055,0.4819719999999999,-0.0138105,0.2171055,0.7071919999999999,-0.0530565,-0.2963545,0.938012,-0.0941245,0.2643054999999999,0.942652,-0.0991715,-0.0629625,-0.002381,0.0052765,0.0629625,0.0023809999999999,-0.0052765,-0.1259344999999999,-0.363618,-0.0708205,0.1261255,-0.369568,-0.0737075,-0.1315845,-0.727978,-0.0481655,0.1448855,-0.712508,-0.0474625,1
178,-0.0226205,0.6979190000000001,-0.0204775,-0.1559865,0.482419,0.0034764999999999,-0.2576365,0.700649,-0.0475735,0.1275935,0.480769,-0.0164305,0.2175435,0.7058490000000001,-0.0564535,-0.2950065,0.937119,-0.0984285,0.2647235,0.941229,-0.1032585,-0.0630105,-0.002333,0.0050494999999999,0.0630105,0.0023329999999999,-0.0050495,-0.1269064999999999,-0.3619509999999999,-0.0774395,0.1266835,-0.366351,-0.0799995,-0.1317765,-0.7250409999999999,-0.0519755,0.1453034999999999,-0.709521,-0.0515705,1
179,-0.0217305,0.6963815,-0.02345,-0.1556205,0.4815115,0.000723,-0.2567105,0.6999915,-0.051281,0.1276095,0.4794914999999999,-0.019052,0.2181295,0.7044015,-0.059952,-0.2936105,0.9364015,-0.102906,0.2652894999999999,0.9397415,-0.107298,-0.0630685,-0.0022614999999999,0.004754,0.0630685,0.0022614999999999,-0.0047539999999999,-0.1277905,-0.3600185,-0.084288,0.1273895,-0.3629285,-0.086321,-0.1319405,-0.7217285,-0.055772,0.1457595,-0.7060985,-0.055674,1
180,-0.020828,0.694959,-0.0264794999999999,-0.155328,0.480739,-0.0019784999999999,-0.255688,0.6993889999999999,-0.0551285,0.127662,0.478719,-0.0217985,0.2187319999999999,0.7033389999999999,-0.0635715,-0.292208,0.935759,-0.1074695,0.265922,0.938609,-0.1114594999999999,-0.063087,-0.00228,0.0044944999999999,0.063087,0.0022799999999999,-0.0044944999999999,-0.128648,-0.357861,-0.0913335,0.128052,-0.359131,-0.0926865,-0.132058,-0.7180510000000001,-0.0595985,0.146172,-0.702361,-0.0597025,1
181,-0.0199195,0.693283,-0.0297275,-0.1551125,0.480043,-0.0047115,-0.2547825,0.698773,-0.0590555,0.1277175,0.478263,-0.0245245,0.2194375,0.702483,-0.0673655,-0.2907925,0.935073,-0.1122765,0.2666575,0.937693,-0.1156605,-0.0630975,-0.0023299999999999,0.0042654999999999,0.0630975,0.00233,-0.0042655,-0.1295325,-0.355487,-0.0984625,0.1286275,-0.355397,-0.0989915,-0.1321824999999999,-0.7140470000000001,-0.0634765,0.1465675,-0.6982170000000001,-0.0637885,1
182,-0.0191365,0.6921309999999999,-0.0331775,-0.1550115,0.479291,-0.0075715,-0.2544915,0.698071,-0.0633365,0.1278085,0.477071,-0.0273495,0.2202785,0.700721,-0.0713865,-0.2895915,0.934351,-0.1175025,0.2674585,0.935941,-0.1199995,-0.0630785,-0.002355,0.0040385,0.0630785,0.002355,-0.0040385,-0.1304215,-0.352339,-0.1056115,0.1291584999999999,-0.350679,-0.1054075,-0.1322615,-0.7092890000000001,-0.0672095,0.1466785,-0.693229,-0.0678715,1
183,-0.018392,0.690922,-0.037016,-0.1549,0.478622,-0.010549,-0.2543499999999999,0.6975520000000001,-0.0678,0.12774,0.476032,-0.03014,0.22124,0.699042,-0.07558,-0.28847,0.933742,-0.1230189999999999,0.26979,0.932872,-0.125875,-0.063113,-0.00237,0.0038219999999999,0.063113,0.00237,-0.0038219999999999,-0.1317,-0.350558,-0.113077,0.12968,-0.345028,-0.111997,-0.13232,-0.703828,-0.071099,0.14682,-0.687568,-0.0722059999999999,1
184,-0.0176594999999999,0.6896614999999999,-0.0408334999999999,-0.1547465,0.4779115,-0.0134004999999999,-0.2538265,0.6967814999999999,-0.0721575,0.1276135,0.4748415,-0.0328124999999999,0.2222035,0.6972815,-0.0795495,-0.2873165,0.9328515,-0.1285204999999999,0.2721635,0.9300115,-0.1316665,-0.0632195,-0.0023584999999999,0.0036375,0.0632195,0.0023585,-0.0036374999999999,-0.1328865,-0.3492785,-0.1204075,0.1302134999999999,-0.3396685,-0.1183164999999999,-0.1323565,-0.6982885000000001,-0.0747424999999999,0.1469935,-0.6817885,-0.0763165,1
185,-0.0167525,0.688369,-0.0447745,-0.1544065,0.478099,-0.0164635,-0.2533965,0.696619,-0.0770755,0.1277734999999999,0.474039,-0.0355925,0.2235935,0.6957690000000001,-0.0838235,-0.2861865,0.932549,-0.1349475,0.2747735,0.927989,-0.1376205,-0.0633295,-0.002246,0.0034174999999999,0.0633295,0.0022459999999999,-0.0034175,-0.1339265,-0.347841,-0.1276925,0.1311535,-0.334121,-0.1246335,-0.1321465,-0.692051,-0.0785825,0.1474234999999999,-0.675311,-0.0808105,1
186,-0.0158445,0.687005,-0.0486665,-0.1540195,0.479195,-0.0192875,-0.2526695,0.697175,-0.0820045,0.1282405,0.473595,-0.0382195,0.2250705,0.694655,-0.0878505,-0.2851895,0.932985,-0.1414225,0.2774605,0.926275,-0.1435405,-0.0633795,-0.002096,0.0031704999999999,0.0633795,0.0020959999999999,-0.0031704999999999,-0.1345795,-0.3458449999999999,-0.1333905,0.1322005,-0.3291949999999999,-0.1305425,-0.1318095,-0.686375,-0.0822025,0.1478905,-0.669345,-0.0851275,1
187,-0.015064,0.685796,-0.052049,-0.153589,0.478756,-0.022163,-0.252089,0.696526,-0.086198,0.128741,0.472896,-0.040523,0.226591,0.693416,-0.091186,-0.2845789999999999,0.932096,-0.147331,0.279801,0.924526,-0.148571,-0.063432,-0.002034,0.0029409999999999,0.063432,0.0020339999999999,-0.0029409999999999,-0.135079,-0.344094,-0.138191,0.133221,-0.324964,-0.135651,-0.131409,-0.680794,-0.085519,0.148271,-0.663504,-0.088827,1
188,-0.0143629999999999,0.684884,-0.0554505,-0.152995,0.4785939999999999,-0.0251065,-0.251105,0.695924,-0.0908265,0.129265,0.472624,-0.0430365,0.228115,0.6924440000000001,-0.0948165,-0.283685,0.931274,-0.1535655,0.282205,0.923024,-0.1541055,-0.063539,-0.001958,0.0027654999999999,0.063539,0.001958,-0.0027654999999999,-0.135625,-0.342736,-0.1430545,0.134185,-0.320896,-0.1407645,-0.130955,-0.6754359999999999,-0.0889415,0.148525,-0.657806,-0.0925495,1
189,-0.0136424999999999,0.683711,-0.059421,-0.1524125,0.478131,-0.028664,-0.2504425,0.6948709999999999,-0.0962,0.1298475,0.471851,-0.045977,0.2297575,0.691101,-0.098896,-0.2827825,0.929931,-0.160777,0.2840275,0.920921,-0.1607869999999999,-0.0635975,-0.001806,0.0025249999999999,0.0635975,0.001806,-0.0025249999999999,-0.1361325,-0.336129,-0.148184,0.1353575,-0.315609,-0.146387,-0.1303825,-0.669269,-0.092679,0.1487675,-0.651239,-0.096123,1
190,-0.01288,0.6824800000000001,-0.063318,-0.151781,0.47784,-0.0321759999999999,-0.249801,0.69406,-0.100445,0.130469,0.47129,-0.048849,0.2312789999999999,0.68982,-0.103219,-0.281851,0.92824,-0.167598,0.285679,0.9189,-0.167798,-0.063639,-0.0016299999999999,0.002305,0.063639,0.0016299999999999,-0.002305,-0.136541,-0.32961,-0.1532109999999999,0.136609,-0.31052,-0.15189,-0.129741,-0.66319,-0.0962649999999999,0.148979,-0.64471,-0.099574,1
191,-0.0121144999999999,0.6815685,-0.0670745,-0.1511984999999999,0.4773685,-0.0358795,-0.2491284999999999,0.6933885,-0.1047395,0.1310615,0.4715884999999999,-0.0517185,0.2326215,0.6897685,-0.1073305,-0.2810085,0.9267985,-0.1748685,0.2876815,0.9180485,-0.1745485,-0.0636665,-0.0014925,0.0021214999999999,0.0636665,0.0014925,-0.0021215,-0.1368985,-0.3230915,-0.1579855,0.1379315,-0.3052114999999999,-0.1573485,-0.1291785,-0.6568515,-0.0996915,0.1490615,-0.6380615000000001,-0.1028805,1
192,-0.0111215,0.682072,-0.0750515,-0.1498415,0.476912,-0.0441565,-0.2478515,0.692742,-0.1136365,0.1316085,0.471972,-0.0589915,0.2339085,0.689762,-0.1162045,-0.2798314999999999,0.925412,-0.1865805,0.2884185,0.918912,-0.1843005,-0.0637244999999999,-0.001347,0.0019804999999999,0.0637244999999999,0.001347,-0.0019805,-0.1375815,-0.3148479999999999,-0.1703705,0.1397084999999999,-0.298078,-0.1693405,-0.1285415,-0.648398,-0.1072315,0.1486485,-0.6300979999999999,-0.1100445,1
193,-0.0102165,0.682398,-0.0832945,-0.1484365,0.476568,-0.0525024999999999,-0.2433665,0.6875979999999999,-0.1224445,0.1320335,0.472518,-0.0663074999999999,0.2350135,0.6896479999999999,-0.1262315,-0.2766365,0.919568,-0.1979564999999999,0.2890035,0.919558,-0.1945565,-0.0637735,-0.0012459999999999,0.0018024999999999,0.0637735,0.001246,-0.0018024999999999,-0.1384165,-0.306392,-0.1827265,0.1414535,-0.2907419999999999,-0.1815165,-0.1279065,-0.639802,-0.1147364999999999,0.1480635,-0.622012,-0.1172565,1
194,-0.0095605,0.6821769999999999,-0.092081,-0.1471205,0.476117,-0.060998,-0.2390805,0.682647,-0.1309239999999999,0.1325295,0.473327,-0.073825,0.2356395,0.689277,-0.136717,-0.2737805,0.913777,-0.2089369999999999,0.2894394999999999,0.919047,-0.207127,-0.0637834999999999,-0.0011929999999999,0.001586,0.0637834999999999,0.0011929999999999,-0.001586,-0.1393105,-0.2983329999999999,-0.195077,0.1429395,-0.283123,-0.193437,-0.1274705,-0.631563,-0.122238,0.1474195,-0.614433,-0.124302,1
195,-0.008825,0.6822035,-0.101984,-0.145531,0.4732035,-0.070861,-0.237351,0.6769335,-0.140051,0.133059,0.4733235,-0.082559,0.236189,0.6887335,-0.147918,-0.272371,0.9072535,-0.220148,0.2895089999999999,0.9182435,-0.220068,-0.063853,-0.0012624999999999,0.0015589999999999,0.063853,0.0012624999999999,-0.001559,-0.1402209999999999,-0.2871264999999999,-0.208088,0.144659,-0.2742265,-0.205998,-0.126881,-0.6221865,-0.130287,0.146799,-0.6057865,-0.131851,1
196,-0.0082005,0.682285,-0.1119715,-0.1439785,0.471715,-0.0805545,-0.2357285,0.672285,-0.1492675,0.1335515,0.473465,-0.0913755,0.2367115,0.6882849999999999,-0.1593105,-0.2710185,0.901895,-0.2313425,0.2894915,0.917635,-0.2329725,-0.0639545,-0.0012649999999999,0.0014735,0.0639545,0.001265,-0.0014734999999999,-0.1412285,-0.276625,-0.2211125,0.1464115,-0.265085,-0.2184125,-0.1262585,-0.612855,-0.1383905,0.1461414999999999,-0.597245,-0.1395315,1
197,-0.007643,0.68216,-0.122248,-0.142423,0.46969,-0.090427,-0.233923,0.66753,-0.1583,0.1339969999999999,0.47333,-0.100336,0.2371769999999999,0.68782,-0.170454,-0.269773,0.89635,-0.24242,0.289457,0.91689,-0.24584,-0.064051,-0.0013299999999999,0.00141,0.064051,0.0013299999999999,-0.0014099999999999,-0.1422729999999999,-0.26483,-0.23404,0.148137,-0.2559,-0.23087,-0.125643,-0.60331,-0.146456,0.145427,-0.58857,-0.147201,1
198,-0.0072365,0.68218,-0.132148,-0.1410535,0.4679,-0.099794,-0.2324835,0.66261,-0.167101,0.1343965,0.47333,-0.109193,0.2374565,0.68742,-0.181338,-0.2685635,0.89053,-0.253105,0.2891665,0.91636,-0.257985,-0.0641424999999999,-0.0014099999999999,0.0013049999999999,0.0641424999999999,0.00141,-0.001305,-0.1434135,-0.2532999999999999,-0.246575,0.1495765,-0.24726,-0.242815,-0.1250735,-0.59443,-0.154175,0.1447565,-0.5805,-0.154569,1
199,-0.0068529999999999,0.6825249999999999,-0.142221,-0.139694,0.465785,-0.109405,-0.231354,0.6575449999999999,-0.176239,0.134756,0.472925,-0.118333,0.237836,0.686775,-0.1923969999999999,-0.267434,0.8851749999999999,-0.26466,0.288686,0.915555,-0.27035,-0.064211,-0.001475,0.0011599999999999,0.064211,0.001475,-0.00116,-0.144604,-0.241555,-0.25911,0.150986,-0.238355,-0.2549,-0.124494,-0.585325,-0.161887,0.144096,-0.5722050000000001,-0.162006,1
200,-0.0067224999999999,0.6819799999999999,-0.152354,-0.1387485,0.4647,-0.118613,-0.2311384999999999,0.6532199999999999,-0.185406,0.1348715,0.4725199999999999,-0.127429,0.2376214999999999,0.68594,-0.203616,-0.2665685,0.8804,-0.27577,0.2877015,0.91446,-0.28314,-0.0642765,-0.0015,0.00106,0.0642765,0.0015,-0.00106,-0.1460685,-0.23105,-0.27148,0.1519114999999999,-0.23082,-0.26647,-0.1241785,-0.57714,-0.16949,0.1431415,-0.56488,-0.169365,1
201,-0.006667,0.680175,-0.1583129999999999,-0.138514,0.462995,-0.1234879999999999,-0.231094,0.649055,-0.191,0.134746,0.471965,-0.132347,0.2373859999999999,0.685085,-0.210393,-0.266384,0.875795,-0.282965,0.2868759999999999,0.913085,-0.291845,-0.064312,-0.0016349999999999,0.000865,0.064312,0.0016349999999999,-0.0008649999999999,-0.146854,-0.224705,-0.2759049999999999,0.1522859999999999,-0.2245749999999999,-0.271355,-0.123994,-0.570995,-0.172978,0.142646,-0.558895,-0.1727719999999999,1
202,-0.006644,0.678065,-0.164113,-0.138397,0.461445,-0.128261,-0.231067,0.649195,-0.196915,0.134543,0.471205,-0.137262,0.236843,0.684165,-0.216283,-0.266347,0.875515,-0.289925,0.286293,0.911395,-0.300565,-0.064375,-0.0017149999999999,0.0006849999999999,0.064375,0.0017149999999999,-0.000685,-0.147627,-0.218555,-0.280155,0.152603,-0.218465,-0.275905,-0.123887,-0.564995,-0.176407,0.142223,-0.553025,-0.176121,1
203,-0.0067305,0.676425,-0.169904,-0.1381915,0.458705,-0.133857,-0.2307015,0.649465,-0.204328,0.1343285,0.468855,-0.142947,0.2363885,0.682515,-0.222413,-0.2660515,0.875635,-0.29881,0.2857785,0.909175,-0.30797,-0.0643735,-0.0018749999999999,0.0005899999999999,0.0643735,0.001875,-0.00059,-0.1483114999999999,-0.211335,-0.28445,0.1529185,-0.211245,-0.28074,-0.1237114999999999,-0.558255,-0.17993,0.1419385,-0.546155,-0.179601,1
204,-0.007116,0.674515,-0.174765,-0.138227,0.457735,-0.138476,-0.231157,0.650535,-0.211557,0.1341429999999999,0.467395,-0.147564,0.235623,0.680925,-0.2282799999999999,-0.265877,0.875895,-0.308965,0.285313,0.907075,-0.315515,-0.064341,-0.002045,0.000345,0.064341,0.0020449999999999,-0.0003449999999999,-0.148967,-0.206675,-0.2880749999999999,0.153033,-0.205735,-0.284745,-0.123677,-0.552265,-0.1829339999999999,0.141643,-0.539985,-0.182639,1
205,-0.0075014999999999,0.67188,-0.17959,-0.1382995,0.45646,-0.143012,-0.2350094999999999,0.65134,-0.219295,0.1339405,0.46622,-0.1519849999999999,0.2349705,0.6795,-0.234258,-0.2677195,0.87609,-0.31919,0.2851805,0.90507,-0.32304,-0.0643285,-0.0022799999999999,7.999999999999674e-05,0.0643285,0.00228,-7.999999999999674e-05,-0.1495995,-0.2021199999999999,-0.2915999999999999,0.1530705,-0.20031,-0.28851,-0.1236895,-0.5464,-0.1857869999999999,0.1413605,-0.5339400000000001,-0.185496,1
206,-0.0078969999999999,0.6699299999999999,-0.184446,-0.1383609999999999,0.45531,-0.147832,-0.238221,0.6519900000000001,-0.22827,0.133809,0.4638899999999999,-0.156956,0.234209,0.67711,-0.240661,-0.269701,0.87652,-0.329315,0.284919,0.90229,-0.330965,-0.064332,-0.0024,-0.000185,0.064332,0.0023999999999999,0.0001849999999999,-0.1502409999999999,-0.19694,-0.295325,0.153099,-0.19426,-0.292575,-0.1237109999999999,-0.53989,-0.188885,0.141099,-0.52722,-0.188663,1
207,-0.0084165,0.666715,-0.1902049999999999,-0.1387625,0.453575,-0.1532859999999999,-0.2393225,0.652485,-0.237533,0.1335375,0.461335,-0.1624369999999999,0.2334075,0.6742250000000001,-0.2479999999999999,-0.2703824999999999,0.8771850000000001,-0.3389399999999999,0.2846875,0.8992450000000001,-0.3388899999999999,-0.0643595,-0.0025649999999999,-0.0003999999999999,0.0643595,0.002565,0.0004,-0.1511825,-0.190185,-0.29972,0.1530574999999999,-0.1866249999999999,-0.2973399999999999,-0.1239224999999999,-0.5312650000000001,-0.1921099999999999,0.1406375,-0.518465,-0.1919809999999999,1
208,-0.008863,0.6632,-0.195645,-0.1391259999999999,0.45235,-0.158332,-0.239836,0.6529400000000001,-0.246196,0.133064,0.45911,-0.167509,0.233084,0.67163,-0.254605,-0.272146,0.8746799999999999,-0.349795,0.284364,0.89636,-0.346155,-0.064349,-0.0026599999999999,-0.000585,0.064349,0.0026599999999999,0.000585,-0.1521759999999999,-0.18369,-0.303815,0.152934,-0.1793,-0.301865,-0.1242259999999999,-0.52268,-0.195064,0.140094,-0.5097700000000001,-0.195024,1
