sb224sc-HT22-VT27/4dt907/src/ml-research/a11/datafiles/labeled_files/A144_kinect.csv
FrameNo,nose_3d_x,nose_3d_y,nose_3d_z,left_shoulder_3d_x,left_shoulder_3d_y,left_shoulder_3d_z,left_elbow_3d_x,left_elbow_3d_y,left_elbow_3d_z,right_shoulder_3d_x,right_shoulder_3d_y,right_shoulder_3d_z,right_elbow_3d_x,right_elbow_3d_y,right_elbow_3d_z,left_wrist_3d_x,left_wrist_3d_y,left_wrist_3d_z,right_wrist_3d_x,right_wrist_3d_y,right_wrist_3d_z,left_hip_3d_x,left_hip_3d_y,left_hip_3d_z,right_hip_3d_x,right_hip_3d_y,right_hip_3d_z,left_knee_3d_x,left_knee_3d_y,left_knee_3d_z,right_knee_3d_x,right_knee_3d_y,right_knee_3d_z,left_ankle_3d_x,left_ankle_3d_y,left_ankle_3d_z,right_ankle_3d_x,right_ankle_3d_y,right_ankle_3d_z,activity_label
0,0.0038769999999999,0.7461175000000001,0.040213,-0.153361,0.4583275,0.050482,-0.263611,0.3442375,-0.088788,0.146429,0.4628075,0.041009,0.252299,0.3303275,-0.085828,-0.294981,0.2834375,-0.285788,0.259109,0.3299375,-0.294448,-0.073983,0.0001065,0.0012329999999999,0.073983,-0.0001064999999999,-0.0012329999999999,-0.126311,-0.3264525,-0.017803,0.123769,-0.3465025,0.0078739999999999,-0.134851,-0.6774625,0.0066969999999999,0.142879,-0.6645625,0.02672,0
1,0.002738,0.7443390000000001,0.041712,-0.1515149999999999,0.460469,0.046901,-0.269915,0.409329,-0.122515,0.143735,0.468029,0.038454,0.249265,0.402899,-0.146015,-0.329915,0.395179,-0.339435,0.299455,0.386319,-0.419185,-0.074344,-0.0001889999999999,0.0014879999999999,0.074344,0.0001889999999999,-0.001488,-0.126875,-0.327661,-0.018612,0.122925,-0.346911,0.0065139999999999,-0.135215,-0.679781,0.0054759999999999,0.142325,-0.6663309999999999,0.025414,0
2,0.002754,0.7426254999999999,0.041666,-0.1507959999999999,0.4606255,0.045427,-0.283186,0.4235855,-0.1310349999999999,0.144004,0.4681455,0.036759,0.2624439999999999,0.4200155,-0.133335,-0.338636,0.4664255,-0.361035,0.298234,0.4499955,-0.379345,-0.074576,-0.0002134999999999,0.002127,0.074576,0.0002135,-0.0021269999999999,-0.126656,-0.3289145,-0.0192679999999999,0.123144,-0.3485244999999999,0.005574,-0.135006,-0.6814345,0.004365,0.142574,-0.6680545,0.024352,0
3,0.001678,0.740841,0.0415745,-0.153508,0.457641,0.0410315,-0.304998,0.490141,-0.1419585,0.143232,0.469691,0.0336655,0.274852,0.494861,-0.1635285,-0.344538,0.583201,-0.3728885,0.316362,0.582391,-0.4145185,-0.0748419999999999,-0.0005489999999999,0.0022955,0.0748419999999999,0.000549,-0.0022954999999999,-0.127058,-0.328889,-0.0188694999999999,0.122692,-0.348549,0.0049875,-0.135478,-0.683339,0.0035845,0.142322,-0.669249,0.0233085,0
4,0.0007655,0.737766,0.0412979999999999,-0.1540205,0.459956,0.0390099999999999,-0.3138705,0.511796,-0.13623,0.1436295,0.474146,0.0318059999999999,0.2803795,0.535226,-0.19168,-0.3438405,0.637566,-0.36514,0.3134895,0.623186,-0.39864,-0.0747695,-0.0007729999999999,0.0020759999999999,0.0747695,0.000773,-0.002076,-0.1276205,-0.3315539999999999,-0.018883,0.1223694999999999,-0.3509339999999999,0.0043009999999999,-0.1358705,-0.686644,0.0031069999999999,0.1418695,-0.6726639999999999,0.022666,0
5,0.000568,0.7364975,0.0410144999999999,-0.153852,0.4613875,0.0376675,-0.3172919999999999,0.5593275,-0.1400985,0.143548,0.4745975,0.0308714999999999,0.277318,0.5509775,-0.1525685,-0.3448719999999999,0.6843374999999999,-0.3435785,0.312798,0.6776475,-0.3879185,-0.074706,-0.0009055,0.0019634999999999,0.074706,0.0009055,-0.0019635,-0.127512,-0.3323825,-0.0188425,0.122508,-0.3519925,0.0039564999999999,-0.135842,-0.6879025,0.0027874999999999,0.141848,-0.6740525,0.0225135,0
6,0.0002619999999999,0.735331,0.041157,-0.153443,0.463191,0.033657,-0.295933,0.586201,-0.123026,0.143997,0.475831,0.028849,0.277257,0.571521,-0.154306,-0.341873,0.729371,-0.3354959999999999,0.311287,0.716531,-0.3746259999999999,-0.074691,-0.0008349999999999,0.001744,0.074691,0.0008349999999999,-0.0017439999999999,-0.127503,-0.333269,-0.0186109999999999,0.122227,-0.347929,0.002752,-0.135923,-0.689149,0.002869,0.141787,-0.675319,0.022467,0
7,0.0006624999999999,0.732093,0.0405925,-0.1529905,0.464373,0.0361105,-0.2846205,0.5999730000000001,-0.1073184999999999,0.1452395,0.477913,0.0318095,0.2676295,0.6005630000000001,-0.1296485,-0.3311405,0.7566130000000001,-0.2929285,0.2967595,0.742503,-0.3179085,-0.0740585,-0.0008869999999999,0.0016495,0.0740585,0.000887,-0.0016494999999999,-0.1267205,-0.336457,-0.0172304999999999,0.1226394999999999,-0.351187,0.0039485,-0.1352605,-0.6930569999999999,0.0042995,0.1426295,-0.678847,0.0242865,0
8,0.000314,0.729681,0.0405745,-0.152907,0.465981,0.0352375,-0.284737,0.621981,-0.1055395,0.145373,0.479781,0.0316445,0.267603,0.623061,-0.1296495,-0.331667,0.794051,-0.2831995,0.296243,0.774231,-0.3085695,-0.073994,-0.0009859999999999,0.0016525,0.073994,0.000986,-0.0016524999999999,-0.126707,-0.338609,-0.0172294999999999,0.122533,-0.352229,0.0036035,-0.1352769999999999,-0.695759,0.0042985,0.142653,-0.681419,0.0243205,0
9,9.69999999999977e-05,0.72743,0.040278,-0.152838,0.46836,0.034814,-0.2849879999999999,0.64243,-0.099529,0.145662,0.4810999999999999,0.031707,0.267302,0.64134,-0.122449,-0.330408,0.82549,-0.267319,0.294042,0.80443,-0.287289,-0.073878,-0.001033,0.001609,0.073878,0.0010329999999999,-0.0016089999999999,-0.126618,-0.34068,-0.017157,0.1225319999999999,-0.35326,0.003286,-0.135218,-0.69832,0.004361,0.142762,-0.68385,0.024423,0
10,-7.349999999999848e-05,0.7251529999999999,0.0399375,-0.1527305,0.470733,0.0347825,-0.2838405,0.6579729999999999,-0.0917935,0.1459195,0.482463,0.0319415,0.2661795,0.658593,-0.1155535,-0.3273905,0.852503,-0.2476135,0.2916094999999999,0.829513,-0.2656335,-0.0737305,-0.0010609999999999,0.0014964999999999,0.0737305,0.0010609999999999,-0.0014964999999999,-0.1265005,-0.3428569999999999,-0.0169305,0.1225395,-0.354197,0.0030454999999999,-0.1351205,-0.7009270000000001,0.0045765,0.1428995,-0.6863170000000001,0.0246715,0
11,-0.0002144999999999,0.7223944999999999,0.039509,-0.1525055,0.4737345,0.035293,-0.2804555,0.6717445,-0.082167,0.1461645,0.4839544999999999,0.032397,0.2628145,0.6755145,-0.103887,-0.3234255,0.8781545,-0.2237369999999999,0.2866745,0.8548845,-0.2387969999999999,-0.0735265,-0.0011115,0.0013029999999999,0.0735265,0.0011114999999999,-0.0013029999999999,-0.1263455,-0.3455655,-0.0164889999999999,0.1224845,-0.3559155,0.003067,-0.1349755,-0.7039855,0.005098,0.1430445,-0.6893755,0.025194,0
12,-0.0003675,0.719767,0.039006,-0.1522175,0.4768769999999999,0.03593,-0.2769675,0.685257,-0.0722549999999999,0.1463425,0.485357,0.032981,0.2588324999999999,0.6897070000000001,-0.0913749999999999,-0.3191075,0.8991870000000001,-0.1990549999999999,0.2819224999999999,0.876467,-0.2129849999999999,-0.0732855,-0.0011649999999999,0.0011079999999999,0.0732855,0.001165,-0.0011079999999999,-0.1261575,-0.348193,-0.016097,0.1224524999999999,-0.357453,0.0032249999999999,-0.1348075,-0.707063,0.00572,0.1432225,-0.692433,0.025842,0
13,-0.0005545,0.7173455,0.03857,-0.1519365,0.4800755,0.036591,-0.2737165,0.6945655,-0.062235,0.1465235,0.4868655,0.0335829999999999,0.2547034999999999,0.7017154999999999,-0.07844,-0.3150865,0.9172955,-0.1748,0.2777435,0.8978254999999999,-0.18642,-0.0730715,-0.0012325,0.000951,0.0730715,0.0012325,-0.000951,-0.1259765,-0.3507345,-0.015737,0.1224035,-0.3589345,0.0034339999999999,-0.1346465,-0.7100445000000001,0.0063739999999999,0.1433935,-0.6954045000000001,0.0264969999999999,0
14,-0.0006669999999999,0.7153705,0.0380379999999999,-0.151661,0.4839605,0.037405,-0.270521,0.7017705000000001,-0.053252,0.146699,0.4875005,0.034336,0.250669,0.7099005,-0.066054,-0.311291,0.9293605,-0.153954,0.274769,0.9142305,-0.165964,-0.072862,-0.0012485,0.0008159999999999,0.072862,0.0012484999999999,-0.000816,-0.125791,-0.3530195,-0.015493,0.122339,-0.3604895,0.003692,-0.134571,-0.7129495,0.0069249999999999,0.143539,-0.6981395,0.027134,0
15,-0.0008175,0.71373,0.037457,-0.1513735,0.48756,0.038288,-0.2674935,0.70806,-0.0447939999999999,0.1467965,0.48789,0.035053,0.2469565,0.71653,-0.0542439999999999,-0.3081435,0.93912,-0.132855,0.2718465,0.92973,-0.147225,-0.0726835,-0.0012529999999999,0.0007139999999999,0.0726835,0.001253,-0.0007139999999999,-0.1256535,-0.35496,-0.0153379999999999,0.1222564999999999,-0.36174,0.003894,-0.1345134999999999,-0.71558,0.007389,0.1436465,-0.70056,0.027701,0
16,-0.0011534999999999,0.7125705,0.0368905,-0.1510665,0.4909505,0.0392434999999999,-0.2644065,0.7137605,-0.0364135,0.1468035,0.4881705,0.0356354999999999,0.2447935,0.7210205000000001,-0.0451135,-0.3048765,0.9482905,-0.1147215,0.2692535,0.9443505,-0.1286315,-0.0725205,-0.0012445,0.0006204999999999,0.0725205,0.0012444999999999,-0.0006205,-0.1255565,-0.3566395,-0.0152565,0.1221535,-0.3628395,0.0040894999999999,-0.1344865,-0.7179395,0.0078314999999999,0.1437435,-0.7027295,0.0282014999999999,0
17,-0.0015189999999999,0.7116235,0.036358,-0.1507339999999999,0.4943835,0.040251,-0.261674,0.7190835,-0.0286659999999999,0.146766,0.4884035,0.036088,0.242636,0.7253134999999999,-0.0361279999999999,-0.301864,0.9534635,-0.097505,0.267126,0.9579235,-0.111855,-0.072358,-0.0012064999999999,0.00051,0.072358,0.0012064999999999,-0.0005099999999999,-0.1254839999999999,-0.3581765,-0.0152479999999999,0.122036,-0.3637965,0.004217,-0.134464,-0.7200465,0.008225,0.143786,-0.7047965,0.028623,0
18,-0.0019125,0.710888,0.0358425,-0.1503805,0.4970479999999999,0.0413885,-0.2590105,0.723908,-0.0212344999999999,0.1466295,0.4886779999999999,0.0364245,0.2405594999999999,0.729418,-0.0274495,-0.2986705,0.958588,-0.0799555,0.2652795,0.968598,-0.0955955,-0.0722055,-0.001188,0.0004235,0.0722055,0.001188,-0.0004235,-0.1254005,-0.359592,-0.0152484999999999,0.1219295,-0.364502,0.0043415,-0.1344505,-0.722012,0.0085975,0.1438295,-0.706712,0.0290075,0
19,-0.002373,0.71033,0.035386,-0.150075,0.49968,0.04249,-0.256575,0.72862,-0.014307,0.1463149999999999,0.48878,0.036687,0.2384649999999999,0.7328100000000001,-0.019459,-0.295985,0.96298,-0.065281,0.263635,0.97888,-0.080011,-0.072077,-0.001161,0.0003319999999999,0.072077,0.001161,-0.0003319999999999,-0.125335,-0.36085,-0.01525,0.121825,-0.36515,0.0044939999999999,-0.134455,-0.72381,0.0089829999999999,0.143855,-0.7085199999999999,0.029386,0
20,-0.0028434999999999,0.710356,0.0350739999999999,-0.1496485,0.501306,0.0432539999999999,-0.2547184999999999,0.7322460000000001,-0.009622,0.1459415,0.4884160000000001,0.0368229999999999,0.2370914999999999,0.734326,-0.013545,-0.2937384999999999,0.964036,-0.05393,0.2630515,0.984536,-0.068578,-0.0719715,-0.0011359999999999,0.0003489999999999,0.0719715,0.0011359999999999,-0.000349,-0.1252585,-0.3615839999999999,-0.015241,0.1218114999999999,-0.365564,0.0046429999999999,-0.1344685,-0.725174,0.0092239999999999,0.1438915,-0.709734,0.0296659999999999,0
21,-0.0032925,0.7105315,0.0348765,-0.1491535,0.5023314999999999,0.0436955,-0.2531435,0.7358115,-0.0055074999999999,0.1455165,0.4880514999999999,0.0369535,0.2357665,0.7353215,-0.0086424999999999,-0.2918735,0.9655315,-0.0449954999999999,0.2625965,0.9892315,-0.0574825,-0.0719035,-0.0011135,0.0004354999999999,0.0719035,0.0011134999999999,-0.0004354999999999,-0.1252235,-0.3621784999999999,-0.0151695,0.1217965,-0.3660185,0.0047924999999999,-0.1345235,-0.7263185,0.0094545,0.1438964999999999,-0.7106985,0.0299415,0
22,-0.0036979999999999,0.7106835,0.03472,-0.148631,0.5030835,0.044006,-0.251591,0.7387035,-0.0016419999999999,0.145069,0.4875434999999999,0.03708,0.2344689999999999,0.7359534999999999,-0.0043329999999999,-0.290191,0.9670035,-0.036597,0.262279,0.9911035,-0.049208,-0.0718409999999999,-0.0010714999999999,0.00053,0.0718409999999999,0.0010715,-0.0005299999999999,-0.125191,-0.3627265,-0.015083,0.121789,-0.3664165,0.004942,-0.134591,-0.7273765000000001,0.009675,0.1439089999999999,-0.7115864999999999,0.03021,0
23,-0.004182,0.7108734999999999,0.0348425,-0.148104,0.5032535,0.0444605,-0.249724,0.7410334999999999,0.0026035,0.144646,0.4875434999999999,0.0372055,0.2328759999999999,0.7362234999999999,-7.149999999999518e-05,-0.288634,0.9691035,-0.0276855,0.261916,0.9931035,-0.0403904999999999,-0.071797,-0.0010714999999999,0.0006794999999999,0.071797,0.0010715,-0.0006794999999999,-0.125124,-0.3627265,-0.0149834999999999,0.121836,-0.3664165,0.0050965,-0.134524,-0.7273765000000001,0.0098265,0.1440059999999999,-0.7115864999999999,0.0303625,0
24,-0.0046744999999999,0.7110235,0.034978,-0.1475765,0.5032535,0.044898,-0.2476664999999999,0.7431635000000001,0.00683,0.1443435,0.4875434999999999,0.037351,0.2313035,0.7362835000000001,0.003784,-0.2870165,0.9711035,-0.020073,0.2617335,0.9942035,-0.032014,-0.0717605,-0.0010714999999999,0.000843,0.0717605,0.0010715,-0.0008429999999999,-0.1250465,-0.3627265,-0.014861,0.1218735,-0.3664165,0.005291,-0.1344765,-0.7273765000000001,0.009991,0.1441035,-0.7115864999999999,0.030529,0
25,-0.005018,0.7110835,0.035127,-0.147099,0.5032535,0.04534,-0.245629,0.7448535000000001,0.0109679999999999,0.144091,0.4875434999999999,0.037505,0.229801,0.7362835000000001,0.0069079999999999,-0.285629,0.9730035,-0.0131739999999999,0.261731,0.9948035,-0.025422,-0.071728,-0.0010714999999999,0.0010109999999999,0.071728,0.0010715,-0.0010109999999999,-0.124999,-0.3627265,-0.014695,0.121891,-0.3664165,0.005496,-0.134439,-0.7273765000000001,0.0101589999999999,0.1441909999999999,-0.7115864999999999,0.0306999999999999,0
26,-0.0054055,0.7111700000000001,0.0352755,-0.1466655,0.50332,0.0456985,-0.2433255,0.74609,0.0153944999999999,0.1438144999999999,0.48692,0.0376415,0.2282145,0.7363500000000001,0.0100435,-0.2842154999999999,0.97427,-0.0056405,0.2616545,0.99517,-0.0184475,-0.0717005,-0.001041,0.0012274999999999,0.0717005,0.001041,-0.0012274999999999,-0.1249455,-0.3630099999999999,-0.0145715,0.1219045,-0.3665699999999999,0.0056594999999999,-0.1343755,-0.72836,0.0101195,0.1444045,-0.71234,0.0307605,0
27,-0.00575,0.7113505,0.03536,-0.146244,0.5033605,0.045975,-0.240964,0.7470205,0.019551,0.143556,0.4862805,0.037782,0.226696,0.7364905,0.012706,-0.282854,0.9748105,0.001646,0.261606,0.9953105,-0.012641,-0.071684,-0.0010074999999999,0.001445,0.071684,0.0010075,-0.001445,-0.124884,-0.3633194999999999,-0.014447,0.121936,-0.3666395,0.005821,-0.134314,-0.7292695,0.010073,0.144616,-0.7130195,0.030796,0
28,-0.0060304999999999,0.7115874999999999,0.035389,-0.1458354999999999,0.5031074999999999,0.0462039999999999,-0.2386154999999999,0.7476975,0.0234959999999999,0.1433145,0.4856174999999999,0.0379139999999999,0.2253845,0.7365174999999999,0.0150209999999999,-0.2813855,0.9761675,0.0083609999999999,0.2613345,0.9955675,-0.007103,-0.0716805,-0.0009705,0.0016769999999999,0.0716805,0.0009704999999999,-0.001677,-0.1248255,-0.3635224999999999,-0.014346,0.1219645,-0.3666224999999999,0.0059519999999999,-0.1342354999999999,-0.7300625000000001,0.0099509999999999,0.1448545,-0.7135925000000001,0.0307929999999999,0
29,-0.0062024999999999,0.7117899999999999,0.0353745,-0.1455025,0.50261,0.0463645,-0.2364825,0.74819,0.0268255,0.1431474999999999,0.4849299999999999,0.0379845,0.2242974999999999,0.73644,0.0166905,-0.2798825,0.97769,0.0137945,0.2611974999999999,0.99589,-0.0031735,-0.0716904999999999,-0.000926,0.0018605,0.0716904999999999,0.000926,-0.0018605,-0.1247524999999999,-0.3636899999999999,-0.0142564999999999,0.1219975,-0.36655,0.0060445,-0.1341325,-0.73078,0.0097765,0.1451174999999999,-0.7140500000000001,0.0307265,0
30,-0.0063334999999999,0.7120175,0.0353485,-0.1451945,0.5019875,0.0464115,-0.2341445,0.7487275,0.0299364999999999,0.1431055,0.4841775,0.0380535,0.2234354999999999,0.7362075,0.0181554999999999,-0.2781444999999999,0.9788175,0.0186265,0.2614355,0.9956175,-0.0005944999999999,-0.0717035,-0.0008825,0.0019925,0.0717035,0.0008824999999999,-0.0019925,-0.1246944999999999,-0.3637425,-0.0141355,0.1220054999999999,-0.3665025,0.0062624999999999,-0.1340245,-0.7313825,0.0095845,0.1453954999999999,-0.7144025,0.0306455,0
31,-0.006434,0.7122115,0.035281,-0.144934,0.5012114999999999,0.0463639999999999,-0.231904,0.7493415000000001,0.032664,0.143156,0.4834615,0.038113,0.2227259999999999,0.7359315,0.0194449999999999,-0.276234,0.9797215,0.0227819999999999,0.261576,0.9954215,0.0018979999999999,-0.071711,-0.0008414999999999,0.0021219999999999,0.071711,0.0008415,-0.0021219999999999,-0.124644,-0.3637885,-0.0140419999999999,0.1220059999999999,-0.3664785,0.0064639999999999,-0.133904,-0.7319285,0.0093639999999999,0.145666,-0.7146485,0.0305239999999999,0
32,-0.0064474999999999,0.7124365,0.0351864999999999,-0.1447014999999999,0.5006065000000001,0.0463175,-0.2300714999999999,0.7500965,0.0345595,0.1432285,0.4829465,0.0381085,0.2223785,0.7355465,0.0203765,-0.2742615,0.9808765,0.0257965,0.2617485,0.9960765,0.0036934999999999,-0.0717385,-0.0007804999999999,0.0022345,0.0717385,0.0007805,-0.0022345,-0.1245915,-0.3637335,-0.0139635,0.1220485,-0.3663435,0.0066345,-0.1337815,-0.7322434999999999,0.0091344999999999,0.1459785,-0.7147534999999999,0.0303485,0
33,-0.0063909999999999,0.7126364999999999,0.0350659999999999,-0.1444619999999999,0.5002165000000001,0.0462309999999999,-0.228532,0.7502165000000001,0.036104,0.143318,0.4824965,0.0381429999999999,0.222198,0.7352065000000001,0.0211499999999999,-0.272262,0.9818765,0.0286439999999999,0.261988,0.9956765,0.0051799999999999,-0.07177,-0.0007214999999999,0.0023609999999999,0.07177,0.0007214999999999,-0.002361,-0.124532,-0.3636335,-0.013876,0.122088,-0.3661635,0.0067729999999999,-0.133652,-0.7324234999999999,0.0088559999999999,0.146288,-0.7148034999999999,0.0301649999999999,0
34,-0.00629,0.71287,0.0349095,-0.144218,0.4999199999999999,0.0460255,-0.227238,0.75029,0.0368885,0.143422,0.4821099999999999,0.0381875,0.222202,0.73491,0.0217425,-0.270268,0.98304,0.0309155,0.262262,0.99534,0.0062185,-0.071805,-0.00067,0.0025125,0.071805,0.0006699999999999,-0.0025125,-0.124478,-0.3635,-0.0137984999999999,0.122152,-0.36599,0.0068645,-0.133498,-0.73257,0.0085425,0.146602,-0.7148100000000001,0.0299395,0
35,-0.0061294999999999,0.71287,0.0348325,-0.1439685,0.4999199999999999,0.0459765,-0.2262085,0.75029,0.0368795,0.1435815,0.4821099999999999,0.0381335,0.2223514999999999,0.73491,0.0217675,-0.2683385,0.98304,0.0316755,0.2625515,0.99534,0.0063975,-0.0718385,-0.00067,0.0025985,0.0718385,0.0006699999999999,-0.0025984999999999,-0.1244385,-0.3635,-0.0136475,0.1222215,-0.36599,0.0070225,-0.1333385,-0.73257,0.0084885,0.1467615,-0.7148100000000001,0.0298855,0
36,-0.0059904999999999,0.71287,0.034783,-0.1437495,0.4999199999999999,0.045931,-0.2253295,0.75029,0.036868,0.1437205,0.4821099999999999,0.038084,0.2224904999999999,0.73491,0.021746,-0.2666395,0.98304,0.031866,0.2629005,0.99534,0.006456,-0.0718785,-0.00067,0.002693,0.0718785,0.0006699999999999,-0.002693,-0.1244095,-0.3635,-0.0134869999999999,0.1222705,-0.36599,0.007184,-0.1331995,-0.73257,0.008439,0.1469005,-0.7148100000000001,0.029836,0
37,-0.0058634999999999,0.71287,0.0347215,-0.1435324999999999,0.4999199999999999,0.0458745,-0.2246125,0.75029,0.0368365,0.1438475,0.4821099999999999,0.0380225,0.2226175,0.73491,0.0217415,-0.2653125,0.98304,0.0318655,0.2632675,0.99534,0.0064065,-0.0719134999999999,-0.00067,0.0027815,0.0719134999999999,0.0006699999999999,-0.0027814999999999,-0.1243725,-0.3635,-0.0133565,0.1223275,-0.36599,0.0073525,-0.1330724999999999,-0.73257,0.0083775,0.1470275,-0.7148100000000001,0.0297745,0
38,-0.0055975,0.712875,0.034342,-0.1432475,0.499715,0.045575,-0.2239875,0.750285,0.03659,0.1440425,0.481705,0.037807,0.2229825,0.734405,0.0217549999999999,-0.2644575,0.983035,0.031885,0.2640025,0.994735,0.0064189999999999,-0.0719495,-0.0006079999999999,0.0029079999999999,0.0719495,0.000608,-0.002908,-0.1244175,-0.363495,-0.013219,0.1223025,-0.366155,0.0075869999999999,-0.1331375,-0.732605,0.0084549999999999,0.1470624999999999,-0.714815,0.029896,0
39,-0.0053459999999999,0.7128745,0.034065,-0.14303,0.4995444999999999,0.045286,-0.22388,0.7501945,0.03621,0.14422,0.4813545,0.037592,0.22345,0.7338645,0.0217419999999999,-0.2640699999999999,0.9830345,0.031868,0.26479,0.9941345,0.0064229999999999,-0.0719829999999999,-0.0005445,0.003018,0.0719829999999999,0.0005444999999999,-0.003018,-0.1243999999999999,-0.3635055,-0.013176,0.12236,-0.3663655,0.0076229999999999,-0.13324,-0.7326255,0.0085149999999999,0.14706,-0.7148455,0.030001,0
40,-0.0050929999999999,0.7128680000000001,0.0338335,-0.142837,0.499388,0.0449885,-0.223827,0.750058,0.0356665,0.1443829999999999,0.480988,0.0373695,0.223993,0.733288,0.0217225,-0.263917,0.983128,0.0313795,0.265893,0.993428,0.0063845,-0.072019,-0.0004749999999999,0.0031195,0.072019,0.000475,-0.0031194999999999,-0.124377,-0.363522,-0.0131694999999999,0.122393,-0.366612,0.0076285,-0.133357,-0.7326419999999999,0.0085715,0.147013,-0.714912,0.0300965,0
41,-0.0048624999999999,0.7128945,0.033586,-0.1426755,0.4992745,0.044701,-0.2237855,0.7499345000000001,0.034973,0.1445345,0.4806945,0.037159,0.2246045,0.7326845000000001,0.021663,-0.2637355,0.9828345,0.03022,0.2670645,0.9926345,0.006281,-0.0720225,-0.0004204999999999,0.0031839999999999,0.0720225,0.0004204999999999,-0.0031839999999999,-0.1243755,-0.3635055,-0.0132009999999999,0.1223945,-0.3669155,0.007597,-0.1334955,-0.7326355,0.008541,0.1469345,-0.7150854999999999,0.030041,0
42,-0.0046145,0.7129555,0.0333269999999999,-0.1425135,0.4992054999999999,0.044392,-0.2237335,0.7498155,0.033918,0.1447065,0.4804954999999999,0.036938,0.2253765,0.7321354999999999,0.021518,-0.2634135,0.9820655,0.0287179999999999,0.2683965,0.9919655,0.0059279999999999,-0.0720244999999999,-0.0003714999999999,0.0032249999999999,0.0720244999999999,0.0003715,-0.003225,-0.1243735,-0.3636945,-0.013246,0.1224065,-0.3674845,0.0075519999999999,-0.1335635,-0.7328245,0.0084899999999999,0.1468665,-0.7156545,0.0301299999999999,0
43,-0.0043869999999999,0.7131295,0.0330349999999999,-0.142365,0.4991994999999999,0.044077,-0.223785,0.7496894999999999,0.0328069999999999,0.144835,0.4803595,0.0367039999999999,0.226175,0.7315995,0.0212889999999999,-0.263115,0.9815395,0.0270999999999999,0.269755,0.9913395,0.0054659999999999,-0.072052,-0.0003254999999999,0.0032739999999999,0.072052,0.0003254999999999,-0.003274,-0.124395,-0.3640105,-0.013303,0.122415,-0.3680105,0.0074969999999999,-0.133655,-0.7329705000000001,0.0084289999999999,0.146765,-0.7161805,0.0300609999999999,0
44,-0.004161,0.713526,0.032711,-0.142288,0.4992859999999999,0.043735,-0.223998,0.7496160000000001,0.031375,0.144932,0.480316,0.036436,0.227142,0.731106,0.020751,-0.262818,0.981116,0.024465,0.271572,0.990816,0.004365,-0.072129,-0.0002669999999999,0.003343,0.072129,0.000267,-0.0033429999999999,-0.1242979999999999,-0.364434,-0.0135939999999999,0.1226019999999999,-0.368484,0.007005,-0.1337279999999999,-0.733054,0.008311,0.146652,-0.7166039999999999,0.029978,0
45,-0.0040184999999999,0.7140275,0.032246,-0.1423355,0.4993675,0.043291,-0.2243755,0.7495075,0.029389,0.1449345,0.4803675,0.036074,0.2281745,0.7307175,0.019755,-0.2626155,0.9805975,0.020879,0.2746845,0.9898975,0.000671,-0.0722295,-0.0002235,0.003395,0.0722295,0.0002235,-0.0033949999999999,-0.1240354999999999,-0.3647725,-0.0142769999999999,0.1230045,-0.3691225,0.005486,-0.1338755,-0.7333025,0.007988,0.1465045,-0.7178625,0.029779,0
46,-0.0038664999999999,0.71401,0.0316325,-0.1424004999999999,0.49948,0.0427545,-0.2248405,0.74949,0.0271575,0.1449195,0.4805099999999999,0.0356025,0.2291895,0.7306400000000001,0.0184825,-0.2625005,0.98018,0.0168135,0.2777395,0.98938,-0.0033064999999999,-0.0723355,-0.0002,0.0034235,0.0723355,0.0001999999999999,-0.0034235,-0.1236805,-0.36479,-0.0152694999999999,0.1237395,-0.37116,0.0029344999999999,-0.1340605,-0.73332,0.0075485,0.1463295,-0.71897,0.0292275,1
47,-0.003871,0.7140115,0.030806,-0.1426,0.4994815,0.04222,-0.2254799999999999,0.7494515,0.024603,0.14475,0.4805115,0.035152,0.23015,0.7305915000000001,0.016597,-0.2625,0.9791815,0.012089,0.28039,0.9888815,-0.0078109999999999,-0.072434,-0.0001985,0.003424,0.072434,0.0001984999999999,-0.0034239999999999,-0.12345,-0.3649985,-0.0171109999999999,0.1245699999999999,-0.3737085,-0.0002849999999999,-0.1343,-0.7333185,0.006822,0.14611,-0.7202585,0.02813,1
48,-0.0039115,0.7140115,0.0297894999999999,-0.1428185,0.4994815,0.0416434999999999,-0.2261585,0.7494415,0.0215384999999999,0.1445615,0.4805115,0.0346955,0.2310915,0.7305215,0.0144154999999999,-0.2625984999999999,0.9777815,0.0067414999999999,0.2829515,0.9880815,-0.0132735,-0.0725225,-0.0001985,0.0034184999999999,0.0725225,0.0001984999999999,-0.0034185,-0.1233285,-0.3656285,-0.0195815,0.1255415,-0.3763485,-0.0039215,-0.1344385,-0.7333385,0.0059494999999999,0.1458715,-0.7216585,0.0266474999999999,1
49,-0.004053,0.7138715,0.0281879999999999,-0.143171,0.4994815,0.04112,-0.226401,0.7493515000000001,0.017872,0.144259,0.4805115,0.034321,0.232159,0.7300715,0.0114739999999999,-0.262641,0.9756815,0.0004119999999999,0.284699,0.9871815,-0.018917,-0.072632,-0.0001985,0.0034439999999999,0.072632,0.0001984999999999,-0.003444,-0.123581,-0.3663685,-0.023778,0.1266489999999999,-0.3791084999999999,-0.00887,-0.134681,-0.7334784999999999,0.0048069999999999,0.145729,-0.7233085,0.024888,1
50,-0.0041369999999999,0.7129230000000001,0.02614,-0.143548,0.499663,0.040451,-0.226658,0.7492530000000001,0.013666,0.143972,0.4805529999999999,0.033696,0.233242,0.729523,0.008081,-0.2627779999999999,0.973533,-0.006044,0.286612,0.986333,-0.025075,-0.07273,-0.0002069999999999,0.003439,0.07273,0.0002069999999999,-0.0034389999999999,-0.1237579999999999,-0.367827,-0.02945,0.127952,-0.381677,-0.015632,-0.134818,-0.733567,0.0034129999999999,0.145692,-0.7248169999999999,0.022692,1
51,-0.0039825,0.7113355,0.0235679999999999,-0.1437695,0.4996454999999999,0.03949,-0.2268195,0.7488755,0.0088809999999999,0.1437805,0.4806955,0.0329179999999999,0.2343505,0.7289655,0.0039769999999999,-0.2627795,0.9718655,-0.013167,0.2883805,0.9855655,-0.03165,-0.0729124999999999,-0.0002274999999999,0.0034299999999999,0.0729124999999999,0.0002274999999999,-0.00343,-0.1238094999999999,-0.3695345,-0.036476,0.1293905,-0.3837244999999999,-0.023894,-0.1348595,-0.7332744999999999,0.0014819999999999,0.1457804999999999,-0.7258344999999999,0.0199649999999999,1
52,-0.0037914999999999,0.709755,0.020304,-0.1428215,0.498325,0.037385,-0.2267414999999999,0.7472449999999999,0.0035719999999999,0.1436285,0.480025,0.030742,0.2355985,0.727965,-0.000598,-0.2625715,0.972535,-0.0214479999999999,0.2902785,0.984235,-0.0391799999999999,-0.0732154999999999,-0.000336,0.00331,0.0732154999999999,0.0003359999999999,-0.00331,-0.1238415,-0.370905,-0.046422,0.1312685,-0.384545,-0.035178,-0.1350615,-0.7307750000000001,-0.001077,0.1458785,-0.724225,0.016223,1
53,-0.0034265,0.707504,0.0170675,-0.1416385,0.4970340000000001,0.0353655,-0.2263385,0.7456240000000001,-0.0013854999999999,0.1436414999999999,0.479504,0.0288124999999999,0.2371315,0.726794,-0.0053404999999999,-0.2619785,0.974154,-0.0293675,0.2919715,0.982654,-0.0481314999999999,-0.0735155,-0.0003159999999999,0.0031995,0.0735155,0.000316,-0.0031995,-0.1238985,-0.371436,-0.0574905,0.1333415,-0.384426,-0.0470354999999999,-0.1351985,-0.726926,-0.0034474999999999,0.1462115,-0.7211059999999999,0.0124695,1
54,-0.0031389999999999,0.705226,0.014615,-0.140619,0.495826,0.033886,-0.2257489999999999,0.7441559999999999,-0.005664,0.143931,0.4793159999999999,0.027356,0.238401,0.726106,-0.009392,-0.261349,0.974006,-0.0369,0.292551,0.979116,-0.053511,-0.073736,-0.0002449999999999,0.0030849999999999,0.073736,0.000245,-0.003085,-0.1244589999999999,-0.370084,-0.070157,0.135401,-0.381634,-0.059427,-0.1354489999999999,-0.7200840000000001,-0.005476,0.146451,-0.713514,0.0093789999999999,1
55,-0.0028129999999999,0.7026384999999999,0.0121954999999999,-0.13949,0.4944685,0.0325985,-0.22498,0.7424385,-0.0105485,0.14431,0.4785085,0.0257655,0.23974,0.7249085,-0.0135325,-0.26054,0.9762885,-0.0442005,0.2931,0.9705685,-0.0599515,-0.073974,-0.0002345,0.0027275,0.073974,0.0002345,-0.0027275,-0.1251999999999999,-0.3664615,-0.0838415,0.13729,-0.3750215,-0.0725015,-0.1356,-0.7100915,-0.0074424999999999,0.14643,-0.7025715,0.0053505,1
56,-0.002262,0.69989,0.0100999999999999,-0.138292,0.49349,0.031483,-0.224012,0.73813,-0.0144089999999999,0.144888,0.47784,0.024461,0.2411579999999999,0.72394,-0.017045,-0.259582,0.97631,-0.050494,0.293958,0.96401,-0.06523,-0.074019,-0.000199,0.002555,0.074019,0.000199,-0.002555,-0.126212,-0.36107,-0.0973,0.139358,-0.36658,-0.08541,-0.135592,-0.69831,-0.0087269999999999,0.146648,-0.6895600000000001,0.0020319999999999,1
57,-0.0016624999999999,0.6960345,0.0084514999999999,-0.1370724999999999,0.4923445,0.0305974999999999,-0.2230625,0.7353845,-0.0172885,0.1455875,0.4781245,0.0237824999999999,0.2429275,0.7230045,-0.0209545,-0.2586425,0.9757145,-0.0577325,0.2947475,0.9597045,-0.0699525,-0.0740165,-0.0002075,0.0024804999999999,0.0740165,0.0002074999999999,-0.0024805,-0.1279725,-0.3535755,-0.1113525,0.1416475,-0.3574655,-0.0994725,-0.1359925,-0.6841655,-0.0097425,0.1468275,-0.6737555,-0.0013615,1
58,-0.001205,0.6933255,0.007897,-0.135684,0.4906454999999999,0.030098,-0.222014,0.7318955,-0.0193139999999999,0.1464659999999999,0.4766955,0.023076,0.243916,0.7214155,-0.0234979999999999,-0.257694,0.9769555,-0.0625619999999999,0.2950859999999999,0.9571455,-0.074532,-0.074187,-0.0001065,0.002336,0.074187,0.0001064999999999,-0.0023359999999999,-0.130334,-0.3443745,-0.123822,0.143766,-0.3466945,-0.1124319999999999,-0.136574,-0.6678244999999999,-0.0094879999999999,0.146866,-0.6562045,-0.0038589999999999,1
59,-0.0006544999999999,0.690845,0.007735,-0.1340815,0.489505,0.030017,-0.2206815,0.729175,-0.0207199999999999,0.1474385,0.475985,0.022621,0.2456185,0.720465,-0.0258039999999999,-0.2574014999999999,0.979045,-0.0668449999999999,0.2957685,0.955895,-0.078875,-0.0746005,-5.999999999999062e-06,0.002265,0.0746005,5.999999999999062e-06,-0.0022649999999999,-0.1327015,-0.333795,-0.135605,0.1460785,-0.335785,-0.1250649999999999,-0.1371015,-0.6500049999999999,-0.0087219999999999,0.1470485,-0.637125,-0.0064519999999999,1
60,9.899999999999926e-05,0.6879565000000001,0.0030414999999999,-0.132218,0.4897365,0.0257405,-0.218958,0.7267665000000001,-0.0266415,0.148192,0.4750165,0.0174435,0.247192,0.7185465,-0.0327105,-0.256428,0.9807665,-0.0753394999999999,0.295722,0.9539665,-0.0877295,-0.075072,6.849999999999912e-05,0.0018934999999999,0.075072,-6.849999999999912e-05,-0.0018935,-0.134778,-0.3226835,-0.1512795,0.148642,-0.3234835,-0.1414495,-0.137558,-0.6314835000000001,-0.0123575,0.147372,-0.6174535000000001,-0.0130274999999999,1
61,0.000669,0.6869149999999999,-0.001956,-0.131571,0.488585,0.0203059999999999,-0.2182609999999999,0.725975,-0.032824,0.1487589999999999,0.474335,0.0122729999999999,0.2487189999999999,0.717795,-0.039581,-0.256121,0.980455,-0.083191,0.296629,0.953175,-0.096111,-0.075339,4.500000000000337e-05,0.0016109999999999,0.075339,-4.500000000000337e-05,-0.001611,-0.1367709999999999,-0.307375,-0.165141,0.150919,-0.307885,-0.157381,-0.1382209999999999,-0.610595,-0.017503,0.146849,-0.597245,-0.018868,1
62,0.0012655,0.685225,-0.0073934999999999,-0.1308345,0.487635,0.0148345,-0.2177545,0.725205,-0.0395745,0.1493054999999999,0.473815,0.0069475,0.2499455,0.717185,-0.0466744999999999,-0.2557445,0.979335,-0.0917345,0.2973655,0.952715,-0.1033045,-0.0756515,-0.000125,0.0015954999999999,0.0756515,0.000125,-0.0015954999999999,-0.1387145,-0.292045,-0.1779845,0.1529555,-0.293005,-0.1723744999999999,-0.1388545,-0.590175,-0.0226674999999999,0.1461754999999999,-0.577755,-0.0246224999999999,1
63,0.0019209999999999,0.6867,-0.0131839999999999,-0.130065,0.4868,0.008687,-0.217485,0.72297,-0.0463179999999999,0.149595,0.47406,0.001487,0.251215,0.71685,-0.0541979999999999,-0.2554249999999999,0.97939,-0.099298,0.298175,0.95542,-0.1121079999999999,-0.076025,4.000000000001225e-05,0.001576,0.076025,-3.999999999998449e-05,-0.0015759999999999,-0.140645,-0.2713899999999999,-0.192928,0.1554249999999999,-0.2736699999999999,-0.1879079999999999,-0.139565,-0.5654199999999999,-0.0268399999999999,0.1453549999999999,-0.55404,-0.0296959999999999,1
64,0.0026569999999999,0.686935,-0.0186255,-0.129734,0.486885,0.0031474999999999,-0.217234,0.721835,-0.0516195,0.149836,0.475515,-0.0030624999999999,0.252456,0.715275,-0.0611395,-0.255594,0.977465,-0.1080895,0.299326,0.960935,-0.1212195,-0.076409,-5.499999999999949e-05,0.0015565,0.076409,5.499999999999949e-05,-0.0015565,-0.142324,-0.252205,-0.2059595,0.1577859999999999,-0.255965,-0.2010295,-0.140214,-0.543365,-0.0303005,0.144416,-0.532625,-0.0328285,1
65,0.0033209999999999,0.6870700000000001,-0.0244469999999999,-0.129612,0.48674,-0.002295,-0.217062,0.72478,-0.057815,0.150058,0.47539,-0.0077829999999999,0.253518,0.71462,-0.0679149999999999,-0.256252,0.97573,-0.117475,0.300188,0.96563,-0.130845,-0.076749,1.999999999999225e-05,0.001167,0.076749,-2.000000000002e-05,-0.001167,-0.143802,-0.2324999999999999,-0.2184049999999999,0.160388,-0.23803,-0.213955,-0.140812,-0.52085,-0.034065,0.143378,-0.51076,-0.036205,1
66,0.0040765,0.68775,-0.031594,-0.1292625,0.4866,-0.0086109999999999,-0.2166825,0.72566,-0.066541,0.1504075,0.47444,-0.013948,0.2546474999999999,0.713,-0.0755209999999999,-0.2575225,0.97636,-0.1261109999999999,0.3011875,0.96744,-0.141001,-0.0770695,0.0001699999999999,0.000674,0.0770695,-0.00017,-0.0006739999999999,-0.1448225,-0.21095,-0.230981,0.1632275,-0.21735,-0.226481,-0.1408324999999999,-0.49717,-0.038381,0.1424675,-0.48794,-0.0402209999999999,1
67,0.0047984999999999,0.6877599999999999,-0.0392535,-0.1284805,0.48744,-0.0154755,-0.2156805,0.72802,-0.0755715,0.1507795,0.4751799999999999,-0.0202984999999999,0.2551994999999999,0.71323,-0.0838015,-0.2582005,0.97551,-0.1373315,0.3022295,0.96822,-0.1517514999999999,-0.0774395,0.0002099999999999,0.0004544999999999,0.0774395,-0.00021,-0.0004545,-0.1456204999999999,-0.19007,-0.2440914999999999,0.1663195,-0.19676,-0.2393314999999999,-0.1406105,-0.47413,-0.0439014999999999,0.1419895,-0.46479,-0.0447415,1
68,0.0054009999999999,0.6889350000000001,-0.047184,-0.127806,0.487695,-0.022899,-0.215286,0.7294050000000001,-0.085054,0.151134,0.475355,-0.027181,0.256194,0.713025,-0.092324,-0.258986,0.975685,-0.150264,0.303164,0.967815,-0.162864,-0.077818,0.000275,5.999999999999756e-05,0.077818,-0.0002749999999999,-6.0000000000004494e-05,-0.146366,-0.168365,-0.256984,0.1691939999999999,-0.1754349999999999,-0.251144,-0.140466,-0.4508449999999999,-0.050104,0.141504,-0.441385,-0.049124,1
69,0.005856,0.690385,-0.055647,-0.127419,0.486525,-0.03131,-0.214979,0.730575,-0.094777,0.1511509999999999,0.475365,-0.034661,0.256431,0.7134149999999999,-0.101357,-0.260039,0.976125,-0.163697,0.303971,0.967675,-0.174807,-0.0781399999999999,0.0004149999999999,-0.0003799999999999,0.0781399999999999,-0.0004149999999999,0.0003799999999999,-0.147109,-0.145715,-0.270207,0.1720209999999999,-0.153945,-0.263237,-0.140349,-0.427115,-0.0567769999999999,0.140981,-0.417925,-0.054217,1
70,0.0061064999999999,0.690755,-0.064834,-0.1272425,0.4872849999999999,-0.039132,-0.2151225,0.7309349999999999,-0.105224,0.1505375,0.4755849999999999,-0.042304,0.2572875,0.7129049999999999,-0.111504,-0.2613225,0.976215,-0.177934,0.3047175,0.964535,-0.188114,-0.0784305,0.0007649999999999,-0.000687,0.0784305,-0.000765,0.000687,-0.1479825,-0.124765,-0.283614,0.1745575,-0.132715,-0.273964,-0.1403425,-0.404355,-0.062654,0.1406875,-0.394455,-0.060114,1
71,0.006232,0.690725,-0.0738625,-0.127161,0.488075,-0.0472755,-0.2154809999999999,0.7257750000000001,-0.1156425,0.1498189999999999,0.475775,-0.0502865,0.2573789999999999,0.712365,-0.1217725,-0.262641,0.969965,-0.1917025,0.305309,0.961305,-0.2009425,-0.078528,0.0011249999999999,-0.0010474999999999,0.078528,-0.0011249999999999,0.0010474999999999,-0.148661,-0.104875,-0.2971025,0.177029,-0.112485,-0.2847325,-0.1403709999999999,-0.3822949999999999,-0.0689625,0.140359,-0.3718049999999999,-0.0658425,1
72,0.0061115,0.68848,-0.07781,-0.1273135,0.4890099999999999,-0.04997,-0.2158135,0.72446,-0.12096,0.1492665,0.47506,-0.053259,0.2574765,0.7114499999999999,-0.1266,-0.2638735,0.96729,-0.2010699999999999,0.3057665,0.95953,-0.20822,-0.0784825,0.0010399999999999,-0.00118,0.0784825,-0.00104,0.00118,-0.1490635,-0.08963,-0.30141,0.1786964999999999,-0.09641,-0.28802,-0.1405535,-0.36478,-0.07114,0.1399965,-0.3539,-0.06806,1
73,0.0060115,0.686365,-0.0813234999999999,-0.1279305,0.488123,-0.0527055,-0.2166505,0.7225250000000001,-0.1263435,0.1487095,0.474111,-0.0561295,0.2575595,0.712375,-0.1312134999999999,-0.2646705,0.964665,-0.2083034999999999,0.3063195,0.959725,-0.2135335,-0.0783835,0.001175,-0.0013314999999999,0.0783835,-0.0011749999999999,0.0013314999999999,-0.1494305,-0.0750349999999999,-0.3056335,0.1808595,-0.0791649999999999,-0.2913035,-0.1407405,-0.3473849999999999,-0.0733035,0.1397995,-0.336545,-0.0702935,1
74,0.005775,0.68548,-0.083902,-0.128551,0.48822,-0.055129,-0.217551,0.72123,-0.130802,0.148119,0.474336,-0.0585059999999999,0.2577089999999999,0.71224,-0.135542,-0.265391,0.96658,-0.214502,0.306779,0.95933,-0.218372,-0.078262,0.0012399999999999,-0.0014359999999999,0.078262,-0.00124,0.0014359999999999,-0.149591,-0.06077,-0.309532,0.182979,-0.06213,-0.293782,-0.140931,-0.33007,-0.075542,0.139599,-0.31931,-0.072172,1
75,0.005517,0.6840649999999999,-0.0856239999999999,-0.129205,0.488629,-0.0571229999999999,-0.218385,0.7205250000000001,-0.133624,0.147635,0.474605,-0.0602339999999999,0.258045,0.712955,-0.137704,-0.265965,0.966155,-0.2200939999999999,0.307085,0.959635,-0.2223339999999999,-0.078146,0.001255,-0.0014869999999999,0.078146,-0.001255,0.001487,-0.149735,-0.050275,-0.3124539999999999,0.185045,-0.0516349999999999,-0.295234,-0.141145,-0.315985,-0.0775739999999999,0.139485,-0.308675,-0.0738539999999999,1
76,0.0054674999999999,0.68383,-0.0870825,-0.1294045,0.487987,-0.0587464999999999,-0.2189045,0.71977,-0.1360225,0.1472855,0.474746,-0.0614295,0.2582255,0.71264,-0.1394125,-0.2667345,0.96181,-0.2238025,0.3077255,0.95909,-0.2253025,-0.0781215,0.00125,-0.0015724999999999,0.0781215,-0.0012499999999999,0.0015725,-0.1495745,-0.0394099999999999,-0.3144025,0.1872355,-0.0402899999999999,-0.2958825,-0.1411145,-0.30179,-0.0791024999999999,0.1398455,-0.2981199999999999,-0.0749124999999999,1
77,0.0055204999999999,0.68318,-0.0882324999999999,-0.1295135,0.487542,-0.0604515,-0.2193435,0.71949,-0.1382125,0.1470265,0.475258,-0.0621834999999999,0.2588665,0.71233,-0.1406425,-0.2673935,0.95672,-0.2261425,0.3084765,0.95871,-0.2282025,-0.0780965,0.00124,-0.0016924999999999,0.0780965,-0.0012399999999999,0.0016924999999999,-0.1493235,-0.02953,-0.3159025,0.1896364999999999,-0.02981,-0.2964925,-0.1412435,-0.2888499999999999,-0.0803825,0.1402965,-0.28837,-0.0759924999999999,1
78,0.0055419999999999,0.68332,-0.089059,-0.129639,0.487694,-0.061863,-0.219499,0.71967,-0.140289,0.146721,0.475847,-0.062824,0.259321,0.71157,-0.141289,-0.2679189999999999,0.95212,-0.2282489999999999,0.309111,0.95781,-0.2304589999999999,-0.0780339999999999,0.0012,-0.0018339999999999,0.0780339999999999,-0.0011999999999999,0.001834,-0.149109,-0.0200599999999999,-0.317239,0.191941,-0.0196499999999999,-0.2969989999999999,-0.141509,-0.2765999999999999,-0.0815589999999999,0.140871,-0.2787499999999999,-0.076519,1
79,0.0056194999999999,0.6825749999999999,-0.089377,-0.1298325,0.489035,-0.062445,-0.2201625,0.720645,-0.142157,0.1464175,0.476403,-0.063165,0.2599275,0.7112149999999999,-0.141577,-0.2685125,0.947995,-0.230087,0.3096075,0.959415,-0.231577,-0.0779205,0.0012449999999999,-0.0020239999999999,0.0779205,-0.0012449999999999,0.002024,-0.1488125,-0.012935,-0.3187069999999999,0.1940875,-0.012075,-0.297157,-0.1417525,-0.267375,-0.0826269999999999,0.1418175,-0.271875,-0.0766869999999999,1
80,0.0057345,0.68333,-0.0896875,-0.1299825,0.490263,-0.0628545,-0.2206925,0.72715,-0.1438775,0.1461275,0.47679,-0.0634895,0.2606675,0.71126,-0.1418475,-0.2692225,0.95072,-0.2315975,0.3111375,0.96079,-0.2324375,-0.0777845,0.0013299999999999,-0.0022174999999999,0.0777845,-0.0013299999999999,0.0022175,-0.1485625,-0.0057999999999999,-0.3200075,0.1962275,-0.00378,-0.2970175,-0.1419925,-0.25828,-0.0836774999999999,0.1428375,-0.2646599999999999,-0.0768575,1
81,0.0058154999999999,0.683215,-0.0898009999999999,-0.1300945,0.49104,-0.062987,-0.2214945,0.730985,-0.143971,0.1458055,0.476946,-0.063487,0.2614655,0.711015,-0.141931,-0.2700245,0.950885,-0.2327509999999999,0.3126755,0.960035,-0.232641,-0.0776405,0.001445,-0.002248,0.0776405,-0.001445,0.0022479999999999,-0.1483745,-0.0007449999999999,-0.320971,0.1983855,0.002445,-0.296341,-0.1423745,-0.2516049999999999,-0.084541,0.1438555,-0.259795,-0.076851,1
82,0.005838,0.68416,-0.0895614999999999,-0.130288,0.4925589999999999,-0.0631265,-0.222198,0.7341099999999999,-0.1437915,0.145362,0.4767499999999999,-0.0630334999999999,0.262162,0.71068,-0.1414915,-0.270928,0.95062,-0.2340415,0.314232,0.9596,-0.2326715,-0.077547,0.0015999999999999,-0.0022954999999999,0.077547,-0.0016,0.0022954999999999,-0.148228,0.0045399999999999,-0.3219215,0.2001119999999999,0.0093999999999999,-0.2955415,-0.143058,-0.24506,-0.0850114999999999,0.144792,-0.25522,-0.0767815,1
83,0.0058449999999999,0.6838599999999999,-0.0891705,-0.130556,0.4928639999999999,-0.0632225,-0.222506,0.73474,-0.1438805,0.144874,0.4769559999999999,-0.0624125,0.262624,0.71034,-0.1404105,-0.271696,0.94918,-0.2351605,0.315714,0.95864,-0.2326705,-0.077465,0.00161,-0.0023644999999999,0.077465,-0.00161,0.0023644999999999,-0.148106,0.0082099999999999,-0.3227505,0.201514,0.0137999999999999,-0.2947705,-0.143706,-0.24079,-0.0854505,0.145834,-0.2530800000000001,-0.0767704999999999,1
84,0.0058989999999999,0.684545,-0.0885605,-0.13073,0.492977,-0.0631855,-0.22232,0.732325,-0.1438105,0.14449,0.477053,-0.0615675,0.2630699999999999,0.7100150000000001,-0.1391105,-0.27205,0.946295,-0.2355905,0.3172,0.957745,-0.2325405,-0.077306,0.001645,-0.0024985,0.077306,-0.001645,0.0024985,-0.14805,0.0120149999999999,-0.3234805,0.20265,0.0189049999999999,-0.2940005,-0.14436,-0.236785,-0.0857505,0.14706,-0.248175,-0.0768605,1
85,0.0060369999999999,0.68426,-0.087854,-0.130831,0.4936929999999999,-0.063069,-0.222161,0.7289599999999999,-0.143714,0.144339,0.4773529999999999,-0.060625,0.263569,0.7097199999999999,-0.137374,-0.272031,0.94844,-0.235954,0.318329,0.95741,-0.2321339999999999,-0.07714,0.0016999999999999,-0.002602,0.07714,-0.0017,0.002602,-0.147981,0.0142099999999999,-0.324144,0.203639,0.02188,-0.293274,-0.145041,-0.23459,-0.085754,0.148119,-0.24533,-0.076954,1
86,0.006202,0.68381,-0.0870229999999999,-0.130904,0.494206,-0.062951,-0.221954,0.72509,-0.143393,0.144236,0.477637,-0.059688,0.263766,0.70948,-0.135323,-0.2720539999999999,0.94919,-0.236253,0.319406,0.95706,-0.2312229999999999,-0.077027,0.00174,-0.002665,0.077027,-0.0017399999999999,0.0026649999999999,-0.148154,0.0158,-0.324823,0.2045259999999999,0.0238599999999999,-0.292603,-0.145444,-0.2328899999999999,-0.085953,0.149176,-0.24363,-0.077003,1
87,0.006281,0.6835749999999999,-0.086213,-0.130954,0.4942379999999999,-0.062847,-0.221824,0.722035,-0.142193,0.144286,0.4783569999999999,-0.058796,0.264096,0.7104149999999999,-0.133823,-0.2722839999999999,0.949885,-0.236403,0.320036,0.957995,-0.229883,-0.076906,0.0017149999999999,-0.002699,0.076906,-0.001715,0.002699,-0.148514,0.0162649999999999,-0.325613,0.205426,0.0243049999999999,-0.292003,-0.1458539999999999,-0.232165,-0.086103,0.150026,-0.2432350000000001,-0.076853,1
88,0.006356,0.6835749999999999,-0.085393,-0.130987,0.4942379999999999,-0.062753,-0.222117,0.722035,-0.141023,0.144493,0.4783569999999999,-0.058113,0.264263,0.7104149999999999,-0.1323329999999999,-0.272497,0.949885,-0.2364529999999999,0.320903,0.957995,-0.227553,-0.076888,0.0017149999999999,-0.002741,0.076888,-0.001715,0.0027409999999999,-0.148967,0.0162649999999999,-0.325673,0.206123,0.0243049999999999,-0.291413,-0.145757,-0.232165,-0.086443,0.150273,-0.2432350000000001,-0.076883,1
89,0.0063439999999999,0.6835749999999999,-0.0845605,-0.131181,0.4942379999999999,-0.0625045,-0.222531,0.722035,-0.1396505,0.144619,0.4783569999999999,-0.0575355,0.264199,0.7104149999999999,-0.1307905,-0.272781,0.949885,-0.2365005,0.321069,0.957995,-0.2250404999999999,-0.076901,0.0017149999999999,-0.0027765,0.076901,-0.001715,0.0027764999999999,-0.149551,0.0162649999999999,-0.3257405,0.206419,0.0243349999999998,-0.2909605,-0.145671,-0.232165,-0.0865505,0.1504289999999999,-0.2432350000000001,-0.0769105,1
90,0.0063129999999999,0.6835749999999999,-0.0834015,-0.131282,0.4942379999999999,-0.0623424999999999,-0.222792,0.722035,-0.1381215,0.144698,0.4783569999999999,-0.0570035,0.264168,0.710965,-0.1293415,-0.272952,0.949885,-0.2365715,0.3210679999999999,0.958575,-0.2224415,-0.076908,0.0017149999999999,-0.0028204999999999,0.076908,-0.001715,0.0028205,-0.150102,0.0162649999999999,-0.3255814999999999,0.206538,0.0245349999999999,-0.2906315,-0.145542,-0.232165,-0.0864115,0.1505679999999999,-0.2432350000000001,-0.0769514999999999,1
91,0.0062485,0.6837249999999999,-0.08229,-0.1313274999999999,0.4933359999999999,-0.061645,-0.2225775,0.7204849999999999,-0.13657,0.1446425,0.4786419999999999,-0.055994,0.2642325,0.711865,-0.12832,-0.2728675,0.948755,-0.23588,0.3211225,0.959015,-0.22017,-0.0769395,0.001595,-0.002853,0.0769395,-0.001595,0.0028529999999999,-0.1508475,0.011915,-0.32533,0.2066525,0.0201249999999999,-0.29059,-0.1454675,-0.238025,-0.0864399999999999,0.1506425,-0.2482349999999999,-0.07683,1
92,0.0062109999999999,0.6841349999999999,-0.081549,-0.131298,0.492151,-0.0611709999999999,-0.222548,0.716255,-0.134939,0.144632,0.478579,-0.055312,0.264432,0.711925,-0.127669,-0.273638,0.944585,-0.235089,0.320662,0.958095,-0.217879,-0.076988,0.0014349999999999,-0.002841,0.076988,-0.0014349999999999,0.0028409999999999,-0.151288,0.0056549999999999,-0.325909,0.2067719999999999,0.013135,-0.290439,-0.145488,-0.246295,-0.086989,0.150612,-0.255385,-0.0765589999999999,1
93,0.006196,0.68546,-0.080875,-0.131315,0.491183,-0.060687,-0.222515,0.7097800000000001,-0.135565,0.144745,0.478831,-0.054691,0.264525,0.7121,-0.127485,-0.274405,0.93895,-0.235305,0.320255,0.95884,-0.216665,-0.077098,0.0012199999999999,-0.002874,0.077098,-0.0012199999999999,0.002874,-0.151315,-0.00256,-0.3256449999999999,0.206495,0.0043199999999999,-0.290065,-0.145485,-0.25742,-0.087615,0.150565,-0.26386,-0.075935,1
94,0.0062875,0.686315,-0.0798895,-0.1313705,0.4905799999999999,-0.0597904999999999,-0.2225204999999999,0.704075,-0.1344395,0.1448895,0.478933,-0.0537485,0.2647295,0.7122649999999999,-0.1264995,-0.2753405,0.932695,-0.2337195,0.3195795,0.957005,-0.2142395,-0.0771905,0.0011549999999999,-0.0029435,0.0771905,-0.001155,0.0029435,-0.1511605,-0.0132849999999999,-0.3247394999999999,0.2056895,-0.0061849999999999,-0.2890695,-0.1452105,-0.271405,-0.0875895,0.1498995,-0.274355,-0.0743595,1
95,0.0061439999999999,0.687045,-0.078543,-0.131567,0.489539,-0.058438,-0.222887,0.700115,-0.132983,0.145073,0.478666,-0.0523479999999999,0.264753,0.7117249999999999,-0.125433,-0.276717,0.931635,-0.231173,0.318803,0.951575,-0.211813,-0.077236,0.000975,-0.0029929999999999,0.077236,-0.000975,0.002993,-0.151157,-0.025615,-0.322543,0.204623,-0.019125,-0.287703,-0.145007,-0.2886249999999999,-0.086803,0.149093,-0.288175,-0.0723029999999999,1
96,0.0057659999999999,0.68713,-0.0770349999999999,-0.132009,0.488576,-0.056563,-0.223139,0.7016899999999999,-0.1317849999999999,0.145261,0.479018,-0.0507529999999999,0.264621,0.71207,-0.1245149999999999,-0.278439,0.93067,-0.228625,0.318091,0.95021,-0.209715,-0.077232,0.00073,-0.0030359999999999,0.077232,-0.00073,0.003036,-0.151219,-0.04275,-0.3196949999999999,0.2032709999999999,-0.03659,-0.286135,-0.144699,-0.31211,-0.085815,0.148091,-0.30853,-0.070295,1
97,0.0053024999999999,0.688225,-0.07513,-0.1325235,0.488132,-0.054214,-0.2241535,0.699565,-0.13069,0.1455165,0.479935,-0.048499,0.2644265,0.712855,-0.12347,-0.2805435,0.928285,-0.22591,0.3173065,0.951025,-0.20859,-0.0772134999999999,0.0005249999999999,-0.003089,0.0772134999999999,-0.0005249999999999,0.0030889999999999,-0.1504735,-0.061435,-0.31457,0.2014864999999999,-0.056445,-0.2826,-0.1441235,-0.339165,-0.08503,0.1471464999999999,-0.333945,-0.06832,1
98,0.004688,0.6904049999999999,-0.072877,-0.13316,0.486465,-0.051502,-0.22543,0.699375,-0.128217,0.14565,0.4817249999999999,-0.04575,0.26385,0.7137849999999999,-0.121947,-0.28293,0.927495,-0.223227,0.3164599999999999,0.951755,-0.207407,-0.077153,0.0001649999999999,-0.003116,0.077153,-0.000165,0.0031159999999999,-0.14948,-0.083545,-0.307727,0.19924,-0.078835,-0.276957,-0.14342,-0.370625,-0.083897,0.14631,-0.363585,-0.066408,1
99,0.004129,0.692465,-0.070253,-0.133848,0.486655,-0.048121,-0.226898,0.696035,-0.125333,0.1458519999999999,0.482245,-0.0426289999999999,0.262952,0.714615,-0.1197929999999999,-0.285568,0.923725,-0.2196129999999999,0.315552,0.952135,-0.205593,-0.07696,-3.4999999999951736e-05,-0.0029819999999999,0.07696,3.500000000000725e-05,0.002982,-0.148308,-0.1070349999999999,-0.299643,0.197022,-0.1023049999999999,-0.270053,-0.142598,-0.4039549999999999,-0.082183,0.145552,-0.3945849999999999,-0.064007,1
100,0.0035029999999999,0.694925,-0.0674839999999999,-0.13449,0.486365,-0.045493,-0.22886,0.693295,-0.122034,0.1461,0.483725,-0.0402559999999999,0.26195,0.7146650000000001,-0.1169439999999999,-0.28823,0.923115,-0.215524,0.31448,0.951835,-0.203114,-0.0767569999999999,-0.0002149999999999,-0.002783,0.0767569999999999,0.000215,0.002783,-0.14703,-0.1276549999999999,-0.2910839999999999,0.19457,-0.1222049999999999,-0.2625639999999999,-0.14193,-0.4332249999999999,-0.0805539999999999,0.14573,-0.4225949999999999,-0.063328,1
101,0.0030304999999999,0.697615,-0.06463,-0.1349745,0.486445,-0.0427059999999999,-0.2306145,0.695905,-0.118434,0.1465455,0.486435,-0.037576,0.2622855,0.7175549999999999,-0.113674,-0.2901245,0.929275,-0.212054,0.3135655,0.955215,-0.200024,-0.0766044999999999,-0.000455,-0.0026069999999999,0.0766044999999999,0.0004549999999999,0.0026069999999999,-0.1455644999999999,-0.147095,-0.281594,0.1923855,-0.140835,-0.254494,-0.1410245,-0.4615849999999999,-0.078554,0.1460055,-0.4501949999999999,-0.062012,1
102,0.0025465,0.700995,-0.0612334999999999,-0.1354245,0.485415,-0.0399594999999999,-0.2321045,0.7000149999999999,-0.1145325,0.1469855,0.4885549999999999,-0.0349015,0.2624055,0.719965,-0.1104525,-0.2917444999999999,0.936085,-0.2084125,0.3128255,0.957515,-0.1966724999999999,-0.0763885,-0.0006349999999999,-0.0024174999999999,0.0763885,0.0006349999999999,0.0024175,-0.1439945,-0.165345,-0.2716825,0.1903555,-0.158325,-0.2460525,-0.1400445,-0.488155,-0.0764625,0.1463855,-0.477475,-0.0608284999999999,1
103,0.0022194999999999,0.7049,-0.0573005,-0.1356885,0.48785,-0.0362565,-0.2325185,0.70427,-0.1103895,0.1475615,0.48949,-0.0316155,0.2633215,0.72123,-0.1063194999999999,-0.2928685,0.94415,-0.2041995,0.3120815,0.9612,-0.1925795,-0.0759015,-0.00056,-0.0022565,0.0759015,0.00056,0.0022565,-0.1420385,-0.18284,-0.2602795,0.1887215,-0.17465,-0.2366795,-0.1388885,-0.51391,-0.0737495,0.1469115,-0.50484,-0.0587925,1
104,0.0019169999999999,0.707465,-0.052503,-0.136014,0.487245,-0.032198,-0.231814,0.7036549999999999,-0.105381,0.148176,0.4926549999999999,-0.027176,0.263676,0.7244349999999999,-0.101111,-0.292824,0.943345,-0.2004409999999999,0.311256,0.965495,-0.187921,-0.07528,-0.000425,-0.0022889999999999,0.07528,0.000425,0.0022889999999999,-0.139984,-0.201775,-0.247771,0.186176,-0.190435,-0.224841,-0.137864,-0.540025,-0.070501,0.147356,-0.530625,-0.056288,1
105,0.0017315,0.710975,-0.0477604999999999,-0.1362545,0.486965,-0.0282585,-0.2336445,0.6997150000000001,-0.1005755,0.1487855,0.4941649999999999,-0.0227104999999999,0.2635355,0.7261650000000001,-0.0957155,-0.2935445,0.941885,-0.1971855,0.3103855,0.964555,-0.1827255,-0.0745275,-0.000395,-0.0022345,0.0745275,0.000395,0.0022345,-0.1380045,-0.219005,-0.2333454999999999,0.1832755,-0.208615,-0.2120854999999999,-0.1367845,-0.564095,-0.0672555,0.1469655,-0.5547749999999999,-0.0536444999999999,1
106,0.0015564999999999,0.7128615,-0.0436535,-0.1365505,0.4858715,-0.0247265,-0.2354005,0.6978115,-0.0961625,0.1492295,0.4946315,-0.0189014999999999,0.2633895,0.7270215,-0.0905825,-0.2947705,0.9399815,-0.1957125,0.3098795,0.9596015,-0.1771725,-0.0737164999999999,-0.0003544999999999,-0.0021394999999999,0.0737164999999999,0.0003544999999999,0.0021395,-0.1365705,-0.2368485,-0.2198025,0.1801394999999999,-0.2268085,-0.2000725,-0.1356905,-0.5868884999999999,-0.0640825,0.1470695,-0.5762084999999999,-0.0517325,1
107,0.0012944999999999,0.7128015,-0.036008,-0.1369855,0.4843615,-0.0177959999999999,-0.2367355,0.6942315,-0.0896039999999999,0.1494744999999999,0.4927015,-0.0117169999999999,0.2628245,0.7265015,-0.082394,-0.2959755,0.9364015,-0.188154,0.3092345,0.9524915,-0.167754,-0.0729585,-0.0001924999999999,-0.0017859999999999,0.0729585,0.0001925,0.001786,-0.1355855,-0.2536985,-0.202384,0.1767445,-0.2447684999999999,-0.184404,-0.1349855,-0.6078785,-0.057244,0.1469244999999999,-0.5959585,-0.046289,1
108,0.00077,0.7130235,-0.0287635,-0.138295,0.4851735,-0.0109575,-0.237865,0.6988335,-0.0833455,0.149535,0.4926835,-0.0046404999999999,0.262115,0.7262335000000001,-0.0747355,-0.298115,0.9405935,-0.1812955,0.3085949999999999,0.9444235,-0.1588955,-0.072355,-8.44999999999943e-05,-0.0017274999999999,0.072355,8.450000000000124e-05,0.0017274999999999,-0.133555,-0.2698965,-0.1818355,0.171485,-0.2624065,-0.1658855,-0.134385,-0.6277564999999999,-0.0478715,0.146715,-0.6153865,-0.0382744999999999,1
109,0.0002064999999999,0.7131305,-0.0215164999999999,-0.1395934999999999,0.4865405,-0.0041944999999999,-0.2400135,0.7006804999999999,-0.0772095,0.1495965,0.4927805,0.0023864999999999,0.2613865,0.7274105,-0.0675994999999999,-0.2999135,0.9429505,-0.1746895,0.3081565,0.9381605,-0.1507494999999999,-0.0718075,-7.249999999999965e-05,-0.0017024999999999,0.0718075,7.250000000000312e-05,0.0017025,-0.1315434999999999,-0.2851395,-0.1619395,0.1663365,-0.2788595,-0.1480294999999999,-0.1338234999999999,-0.6459095,-0.0381554999999999,0.1464865,-0.6335095000000001,-0.0299274999999999,1
110,-0.000432,0.7131405,-0.0143265,-0.140968,0.4877105,0.0022504999999999,-0.242138,0.6997405,-0.0711605,0.149392,0.4919805,0.0090524999999999,0.260722,0.7264505,-0.0608205,-0.301468,0.9413605,-0.1684105,0.307742,0.9302205,-0.1431704999999999,-0.071359,-1.7500000000000154e-05,-0.0016084999999999,0.071359,1.7500000000000154e-05,0.0016084999999999,-0.129578,-0.2998695,-0.1422605,0.160942,-0.2946795,-0.1302404999999999,-0.133388,-0.6620695,-0.0282285,0.146222,-0.6496695,-0.0212215,1
111,-0.0008835,0.711769,-0.0078605,-0.1421435,0.489849,0.0082634999999999,-0.2438635,0.6998289999999999,-0.0657245,0.1493865,0.491789,0.0152634999999999,0.2610765,0.7260989999999999,-0.0547945,-0.3024835,0.940829,-0.1619345,0.3075365,0.921729,-0.1361245,-0.0710185,2.499999999999898e-05,-0.0014815,0.0710185,-2.500000000000072e-05,0.0014814999999999,-0.1274735,-0.314341,-0.1229745,0.1556265,-0.3092209999999999,-0.1126545,-0.1328635,-0.677061,-0.0184505,0.1458765,-0.6646610000000001,-0.0124075,1
112,-0.0016509999999999,0.7108504999999999,-0.0013684999999999,-0.143472,0.4883904999999999,0.0135725,-0.245492,0.6995304999999999,-0.0601965,0.149178,0.4928104999999999,0.0211345,0.261178,0.7268905,-0.0496265,-0.303612,0.9403805,-0.1556065,0.307138,0.9145505,-0.1290965,-0.0709299999999999,-0.0003074999999999,-0.0012744999999999,0.0709299999999999,0.0003074999999999,0.0012744999999999,-0.1255119999999999,-0.3267495,-0.1043065,0.149978,-0.3213695,-0.0950965,-0.132652,-0.6900695,-0.0087384999999999,0.145088,-0.6771895,-0.0034415,1
113,-0.0023704999999999,0.711383,0.0046805,-0.1447824999999999,0.490473,0.0191915,-0.2467625,0.7026629999999999,-0.0550735,0.1490775,0.4917729999999999,0.0260255,0.2610075,0.7264029999999999,-0.0437635,-0.3047125,0.943603,-0.1492535,0.3069175,0.910333,-0.1222935,-0.0708775,-0.000576,-0.0009114999999999,0.0708775,0.000576,0.0009114999999999,-0.1236924999999999,-0.335117,-0.0868335,0.1451875,-0.329447,-0.0792035,-0.1323724999999999,-0.699917,0.0004595,0.1441875,-0.6864070000000001,0.0057264999999999,1
114,-0.0030229999999999,0.7115525,0.0109835,-0.14597,0.4924925,0.0251875,-0.248,0.7067625,-0.0497605,0.14908,0.4914925,0.0309625,0.26096,0.7264625,-0.0379005,-0.3056399999999999,0.9477525,-0.1425305,0.30663,0.9071725,-0.1154605,-0.070943,-0.0006354999999999,-0.0006204999999999,0.070943,0.0006355,0.0006204999999999,-0.12227,-0.3421475,-0.0703805,0.14059,-0.3368474999999999,-0.0628705,-0.13212,-0.7090175,0.0099835,0.14323,-0.6947575,0.0151965,1
115,-0.003625,0.712088,0.0168834999999999,-0.147037,0.494708,0.0306444999999999,-0.248397,0.7119279999999999,-0.0447165,0.149163,0.491538,0.0352484999999999,0.260993,0.726818,-0.0326765,-0.305697,0.953318,-0.1362365,0.3067229999999999,0.905308,-0.1097165,-0.07105,-0.000725,-0.0002774999999999,0.07105,0.0007249999999999,0.0002774999999999,-0.121417,-0.347162,-0.0555664999999999,0.136643,-0.344402,-0.0480065,-0.131977,-0.716672,0.0189584999999999,0.141893,-0.701322,0.0243474999999999,1
116,-0.004443,0.713231,0.0201024999999999,-0.148167,0.498451,0.0333785,-0.249377,0.717271,-0.0419565,0.148963,0.492711,0.0367524999999999,0.260243,0.728341,-0.0302165,-0.305967,0.959531,-0.1324965,0.306263,0.906031,-0.1069165,-0.07105,-0.000769,-0.0002774999999999,0.07105,0.0007689999999999,0.0002774999999999,-0.120857,-0.351349,-0.0448565,0.133023,-0.352679,-0.0373665,-0.131987,-0.722759,0.0251654999999999,0.1404929999999999,-0.708139,0.0305584999999999,1
117,-0.0051585,0.713564,0.023631,-0.1483045,0.497834,0.036069,-0.2494445,0.716394,-0.0392529999999999,0.1487655,0.4926039999999999,0.038543,0.2598355,0.728544,-0.0275529999999999,-0.3060345,0.960054,-0.129773,0.3061355,0.908524,-0.103113,-0.0709775,-0.000821,-0.0002739999999999,0.0709775,0.000821,0.0002739999999999,-0.1211745,-0.352916,-0.037293,0.1311255,-0.353976,-0.0295229999999999,-0.1320945,-0.724506,0.028566,0.1399055,-0.710146,0.034027,1
118,-0.005658,0.7132225,0.027499,-0.1484089999999999,0.4974725,0.039407,-0.249319,0.7160325,-0.036038,0.148651,0.4922825,0.041021,0.259571,0.7285225,-0.0242379999999999,-0.305959,0.9602925,-0.125668,0.306681,0.9165925,-0.0985679999999999,-0.070852,-0.0008545,-0.000268,0.070852,0.0008545,0.000268,-0.121309,-0.3538274999999999,-0.0291479999999999,0.129511,-0.3548274999999999,-0.0202979999999999,-0.131989,-0.7256075000000001,0.032122,0.139591,-0.7115775000000001,0.03782,1
119,-0.0059434999999999,0.7132229999999999,0.029913,-0.1483324999999999,0.497463,0.041769,-0.2490525,0.716023,-0.033862,0.1487275,0.4922729999999999,0.042149,0.2595175,0.728563,-0.022272,-0.3057125,0.960483,-0.122972,0.3075575,0.924563,-0.094752,-0.0710575,-0.000854,-3.300000000000525e-05,0.0710575,0.000854,3.300000000000525e-05,-0.1212425,-0.354387,-0.023052,0.1283175,-0.355997,-0.012454,-0.1316925,-0.726167,0.033686,0.1395475,-0.712537,0.039598,1
120,-0.006115,0.7132125,0.032252,-0.148155,0.4970524999999999,0.044151,-0.248525,0.7159325000000001,-0.0304269999999999,0.148875,0.4922625,0.043363,0.259505,0.7285925,-0.0199809999999999,-0.3046149999999999,0.9604724999999998,-0.117617,0.308625,0.9320625,-0.0916769999999999,-0.071214,-0.0008514999999999,0.000197,0.071214,0.0008514999999999,-0.0001969999999999,-0.121525,-0.3554474999999999,-0.0184119999999999,0.127545,-0.3580675,-0.0057239999999999,-0.131535,-0.7277875,0.033828,0.139845,-0.7139275,0.04012,1
121,-0.006211,0.7132054999999999,0.033879,-0.147891,0.4964055,0.046293,-0.247951,0.7153355,-0.027646,0.1490989999999999,0.4922555,0.043995,0.259539,0.7286055,-0.018129,-0.3035509999999999,0.9604655,-0.113313,0.309809,0.9393955,-0.090183,-0.0713699999999999,-0.0008444999999999,0.000445,0.0713699999999999,0.0008444999999999,-0.000445,-0.121771,-0.3564845,-0.014891,0.127149,-0.3600545,-0.0003299999999999,-0.131301,-0.7292745,0.032605,0.1402989999999999,-0.7152845,0.039096,1
122,-0.0062599999999999,0.7126939999999999,0.0352749999999999,-0.147551,0.495664,0.0476489999999999,-0.247351,0.7144739999999999,-0.025202,0.149359,0.491754,0.0443249999999999,0.259609,0.728604,-0.016456,-0.302551,0.960464,-0.109347,0.311069,0.946314,-0.089137,-0.0714849999999999,-0.0008429999999999,0.0005869999999999,0.0714849999999999,0.000843,-0.000587,-0.122031,-0.357406,-0.012138,0.126889,-0.361916,0.0042659999999999,-0.1310609999999999,-0.730746,0.0310249999999999,0.140879,-0.716496,0.0376109999999999,1
123,-0.006377,0.7118344999999999,0.036243,-0.147266,0.4956045,0.0481749999999999,-0.246856,0.7134645,-0.023842,0.149634,0.4909144999999999,0.044364,0.259644,0.7282645,-0.015406,-0.301916,0.9603545,-0.107536,0.312274,0.9529645,-0.088486,-0.071557,-0.0007904999999999,0.000654,0.071557,0.0007904999999999,-0.000654,-0.1223259999999999,-0.3581755,-0.01086,0.126814,-0.3635755,0.0073349999999999,-0.130876,-0.7320855000000001,0.028855,0.141364,-0.7175255,0.035662,1
124,-0.006461,0.7106935,0.036895,-0.146965,0.4957135,0.048358,-0.246395,0.7123335000000001,-0.022812,0.149885,0.4901735,0.04424,0.259665,0.7279535,-0.014543,-0.301315,0.9598035,-0.105926,0.313505,0.9596035,-0.087836,-0.0716209999999999,-0.0007175,0.0006289999999999,0.0716209999999999,0.0007174999999999,-0.000629,-0.122745,-0.3586965,-0.010158,0.126755,-0.3650765,0.0097749999999999,-0.130715,-0.7332465,0.0263809999999999,0.141845,-0.7181664999999999,0.0335189999999999,1
125,-0.0064779999999999,0.709612,0.0373089999999999,-0.146668,0.4951919999999999,0.048358,-0.246018,0.7112120000000001,-0.022249,0.150152,0.489402,0.0438589999999999,0.2599019999999999,0.727612,-0.013808,-0.300708,0.959292,-0.104686,0.314712,0.965992,-0.087336,-0.071687,-0.0006279999999999,0.0005869999999999,0.071687,0.000628,-0.000587,-0.123238,-0.3588179999999999,-0.0098779999999999,0.126682,-0.366348,0.0115869999999999,-0.130608,-0.734018,0.023756,0.142292,-0.718318,0.0311769999999999,1
126,-0.006418,0.7085955,0.0374745,-0.1464109999999999,0.4943955,0.0481825,-0.245801,0.7101655,-0.0219295,0.150369,0.4887755,0.0432755,0.260099,0.7272755,-0.0131254999999999,-0.300221,0.9584355,-0.1038134999999999,0.316039,0.9726355,-0.0877835,-0.071748,-0.0005695,0.0005464999999999,0.071748,0.0005695,-0.0005464999999999,-0.123651,-0.3583245,-0.0102794999999999,0.1266489999999999,-0.3675645,0.0126355,-0.130621,-0.7342245000000001,0.0211645,0.142749,-0.7180745000000001,0.0287515,1
127,-0.0063745,0.7077895000000001,0.0374295,-0.1463385,0.4936595,0.0478135,-0.2457385,0.7094495000000001,-0.0222055,0.1504615,0.4881895,0.0425195,0.2601215,0.7269195,-0.0125704999999999,-0.3000184999999999,0.9577295,-0.1043745,0.3165015,0.9738295,-0.0885145,-0.0717935,-0.0005245,0.0004275,0.0717935,0.0005244999999999,-0.0004274999999999,-0.1239785,-0.3578205,-0.0110315,0.1264815,-0.3686705,0.0125975,-0.1306985,-0.7343204999999999,0.0185255,0.1430314999999999,-0.7177804999999999,0.0260945,1
128,-0.0063524999999999,0.7072309999999999,0.0371025,-0.1462765,0.4929909999999999,0.0468615,-0.2456865,0.708861,-0.0231504999999999,0.1505135,0.487691,0.0414645,0.2600935,0.726681,-0.0119454999999999,-0.2997065,0.957231,-0.1061095,0.3169435,0.974531,-0.0901395,-0.0717805,-0.0004869999999999,9.15000000000013e-05,0.0717805,0.000487,-9.15000000000013e-05,-0.1241765,-0.3573389999999999,-0.0122824999999999,0.1263735,-0.368549,0.0114884999999999,-0.1308565,-0.734319,0.0158345,0.1432235,-0.7174090000000001,0.0234525,1
129,-0.0062924999999999,0.7072309999999999,0.035941,-0.1462244999999999,0.4929909999999999,0.045589,-0.2455745,0.7083809999999999,-0.025608,0.1505955,0.487691,0.039943,0.2602755,0.726541,-0.011825,-0.2992645,0.956681,-0.108658,0.3175755,0.974531,-0.092178,-0.0717685,-0.0004869999999999,-0.0001449999999999,0.0717685,0.000487,0.0001449999999999,-0.1241244999999999,-0.3573389999999999,-0.0131789999999999,0.1264255,-0.368549,0.010367,-0.1307545,-0.734319,0.013829,0.1433855,-0.7174090000000001,0.021407,1
130,-0.0062369999999999,0.7070519999999999,0.034434,-0.146159,0.492622,0.0440819999999999,-0.2458089999999999,0.708302,-0.027129,0.150681,0.487622,0.038893,0.261281,0.726022,-0.011276,-0.298879,0.956542,-0.1101549999999999,0.318331,0.972992,-0.0930849999999999,-0.071773,-0.000461,-0.000479,0.071773,0.0004609999999999,0.000479,-0.124109,-0.357278,-0.013906,0.126671,-0.368488,0.0089129999999999,-0.130709,-0.7342580000000001,0.012614,0.143441,-0.7173480000000001,0.020301,1
131,-0.0060595,0.707015,0.0331855,-0.1461615,0.492565,0.0428245,-0.2469214999999999,0.7079449999999999,-0.0284444999999999,0.1508284999999999,0.487565,0.0381295,0.2633785,0.724545,-0.0105984999999999,-0.2981815,0.952185,-0.1113725,0.3194885,0.973055,-0.0940825,-0.0718235,-0.0004539999999999,-0.0008074999999999,0.0718235,0.000454,0.0008075,-0.1241515,-0.357215,-0.0144844999999999,0.1266685,-0.368425,0.0076555,-0.1307315,-0.734195,0.0116275,0.1434185,-0.7172850000000001,0.0193425,1
132,-0.0059835,0.7070085,0.0322485,-0.1463285,0.4923585,0.0418744999999999,-0.2498485,0.7073085,-0.0295355,0.1508514999999999,0.4875885,0.0376844999999999,0.2672515,0.7222885,-0.0094115,-0.2976985,0.9475985,-0.1129625,0.3210615,0.9707385,-0.0949425,-0.0718685,-0.0004114999999999,-0.0012105,0.0718685,0.0004115,0.0012104999999999,-0.1243485,-0.3568115,-0.0147695,0.1265415,-0.3679015,0.0067074999999999,-0.1308085,-0.7333815,0.0111794999999999,0.1435215,-0.7162115,0.0184065,1
133,-0.0048574999999999,0.707023,0.0313435,-0.1472974999999999,0.491133,0.0412765,-0.2585375,0.6943729999999999,-0.0338655,0.1529424999999999,0.487693,0.0395505,0.2775125,0.7084429999999999,-0.0070925,-0.2966275,0.928203,-0.1192365,0.3275524999999999,0.947923,-0.0951364999999999,-0.0719495,-0.0002739999999999,-0.0017415,0.0719495,0.000274,0.0017415,-0.1256775,-0.356657,-0.0150584999999999,0.1255824999999999,-0.367747,0.0061305,-0.1323975,-0.732307,0.0110995,0.1421625,-0.715057,0.0178095,0
134,-0.003317,0.7071959999999999,0.0301674999999999,-0.148229,0.4892559999999999,0.0405464999999999,-0.265959,0.678236,-0.0382075,0.155071,0.487806,0.0421844999999999,0.288271,0.692116,-0.0041415,-0.295089,0.905056,-0.1263035,0.3335309999999999,0.924896,-0.0951335,-0.072051,-8.000000000000368e-05,-0.0020495,0.072051,7.999999999999674e-05,0.0020494999999999,-0.127209,-0.356304,-0.0154395,0.1244309999999999,-0.367384,0.0055154999999999,-0.134529,-0.730994,0.0111064999999999,0.1403309999999999,-0.7136640000000001,0.0174134999999999,0
135,-0.001312,0.7077140000000001,0.0285495,-0.149079,0.487014,0.0397615,-0.270439,0.657454,-0.0409745,0.157171,0.487884,0.0450715,0.300281,0.672234,-0.0005785,-0.293429,0.875244,-0.1345025,0.341051,0.8953340000000001,-0.0956525,-0.072208,0.000148,-0.0021434999999999,0.072208,-0.0001479999999999,0.0021434999999999,-0.129109,-0.355506,-0.0156235,0.123041,-0.3665859999999999,0.0046224999999999,-0.137389,-0.729186,0.0111354999999999,0.137871,-0.7118059999999999,0.0171944999999999,0
136,0.0010715,0.7090625,0.025986,-0.1504355,0.4847924999999999,0.038499,-0.2752255,0.6231925,-0.042119,0.1591745,0.4874625,0.048036,0.3118845,0.6443525,0.0028569999999999,-0.2906955,0.8337725,-0.145192,0.3490545,0.8575925,-0.097642,-0.0723445,0.0003514999999999,-0.002179,0.0723445,-0.0003514999999999,0.002179,-0.1317555,-0.3536775,-0.015731,0.1210245,-0.3650275,0.003053,-0.1420654999999999,-0.7262175,0.010924,0.1338145,-0.7092075,0.016562,0
137,0.00363,0.7107089999999999,0.022747,-0.152668,0.4828989999999999,0.037259,-0.280968,0.583459,-0.045015,0.160772,0.486649,0.051122,0.322312,0.6110289999999999,0.008056,-0.287168,0.7851389999999999,-0.157558,0.357602,0.813089,-0.100378,-0.072415,0.000544,-0.002429,0.072415,-0.000544,0.002429,-0.134458,-0.3516709999999999,-0.015876,0.118642,-0.3630409999999999,0.0011699999999999,-0.1477979999999999,-0.722581,0.010876,0.128932,-0.706551,0.016245,0
138,0.00601,0.7128755,0.0190639999999999,-0.152453,0.4798255,0.033928,-0.2884029999999999,0.5393755,-0.044757,0.161577,0.4859354999999999,0.054296,0.326267,0.5751155,0.0142409999999999,-0.283993,0.7291455,-0.166587,0.365067,0.7619055,-0.101327,-0.07242,0.0007775,-0.002912,0.07242,-0.0007775,0.0029119999999999,-0.137543,-0.3493645,-0.016621,0.115667,-0.3615045,-0.0009989999999999,-0.155013,-0.7181045,0.0109879999999999,0.122517,-0.7030745,0.0158719999999999,0
139,0.0088745,0.715244,0.015029,-0.1525085,0.476974,0.03056,-0.2945084999999999,0.491224,-0.044083,0.1624915,0.485054,0.057401,0.3311815,0.532674,0.018569,-0.2795984999999999,0.666244,-0.175437,0.3722115,0.703784,-0.104417,-0.0723765,0.0009879999999999,-0.0035089999999999,0.0723765,-0.000988,0.0035089999999999,-0.1399785,-0.348496,-0.018931,0.1124014999999999,-0.359776,-0.0030999999999999,-0.1628685,-0.712946,0.0110369999999999,0.1151814999999999,-0.699266,0.015794,0
140,0.0115854999999999,0.7180300000000001,0.0108695,-0.1523145,0.47392,0.0269605,-0.2978245,0.44308,-0.0425005,0.1628055,0.4841000000000001,0.0603135,0.3285355,0.48816,0.0282425,-0.2752445,0.60294,-0.1752035,0.3744455,0.64064,-0.1030235,-0.0723355,0.001237,-0.0040494999999999,0.0723355,-0.0012369999999999,0.0040494999999999,-0.1425345,-0.34879,-0.0222885,0.1080355,-0.3575399999999999,-0.0046754999999999,-0.1717445,-0.7070299999999999,0.0110175,0.1062855,-0.69446,0.0162695,0
141,0.0143585,0.7213350000000001,0.00644,-0.1529535,0.4712349999999999,0.023441,-0.2949735,0.396005,-0.035721,0.1619064999999999,0.482875,0.063592,0.3204765,0.4431049999999999,0.039102,-0.2649635,0.538215,-0.171622,0.3705865,0.563615,-0.100172,-0.0720765,0.0015959999999999,-0.005024,0.0720764999999999,-0.001596,0.005024,-0.1423885,-0.346715,-0.030755,0.1024064999999999,-0.355925,-0.005143,-0.1789735,-0.700545,0.0072979999999999,0.0940965,-0.689275,0.017688,0
142,0.015825,0.7246520000000001,0.002728,-0.152334,0.469452,0.019861,-0.290422,0.360122,-0.028611,0.158438,0.4813119999999999,0.066997,0.3071879999999999,0.405422,0.05001,-0.255722,0.4792519999999999,-0.16757,0.360708,0.4975519999999999,-0.0971,-0.071858,0.001919,-0.006023,0.071858,-0.0019189999999999,0.006023,-0.139857,-0.346058,-0.04124,0.097428,-0.357018,-0.00454,-0.1843219999999999,-0.6940679999999999,0.003643,0.082228,-0.684128,0.019657,0
143,0.0170724999999999,0.727791,-0.0012869999999999,-0.1522925,0.468271,0.016423,-0.2833775,0.326491,-0.0208859999999999,0.1544824999999999,0.479451,0.070864,0.2932025,0.368401,0.06113,-0.2476975,0.407881,-0.1630879999999999,0.3482325,0.430171,-0.093668,-0.0714925,0.00211,-0.0071859999999999,0.0714925,-0.0021099999999999,0.0071859999999999,-0.1349545,-0.344439,-0.055168,0.0917624999999999,-0.358879,-0.003485,-0.1855875,-0.687659,-0.002013,0.0696825,-0.679129,0.022073,0
144,0.0175785,0.7306485,-0.0054535,-0.1528165,0.4673785,0.0128565,-0.2742115,0.2963985,-0.0132865,0.1497985,0.4774885,0.0754005,0.2788085,0.3349785,0.0702165,-0.2406714999999999,0.3413285,-0.1578375,0.3336585,0.3658185,-0.0890275,-0.0712484999999999,0.0022655,-0.0083804999999999,0.0712484999999999,-0.0022654999999999,0.0083804999999999,-0.1274394999999999,-0.3397915,-0.0729175,0.0855785,-0.3622815,-0.0019235,-0.1829575,-0.6810415,-0.0107285,0.0560585,-0.6753115,0.0253325,0
145,0.0178214999999999,0.7324935,-0.0094484999999999,-0.1530795,0.4664535,0.0093505,-0.2591085,0.2787735,-0.0036994999999999,0.1449915,0.4760435,0.0775425,0.2632415,0.3094535,0.0780915,-0.2350285,0.2829235,-0.1438265,0.3194515,0.3050635,-0.0813565,-0.0710915,0.0024585,-0.0093535,0.0710915,-0.0024585,0.0093535,-0.1169785,-0.3361765,-0.0913364999999999,0.0804214999999999,-0.3669365,-4.649999999999099e-05,-0.1738745,-0.6745365,-0.0229254999999999,0.0428714999999999,-0.6727465,0.0292495,0
146,0.0179059999999999,0.73398,-0.0130629999999999,-0.152137,0.46515,0.005104,-0.2452039999999999,0.26639,0.005701,0.1403859999999999,0.47455,0.078952,0.2472459999999999,0.28935,0.084072,-0.230874,0.23088,-0.12716,0.305206,0.25032,-0.0722399999999999,-0.070926,0.002696,-0.0104429999999999,0.070926,-0.002696,0.010443,-0.103554,-0.33302,-0.11222,0.0762059999999999,-0.37204,0.001567,-0.159408,-0.6681400000000001,-0.0382099999999999,0.0293659999999999,-0.66955,0.032599,0
147,0.0181389999999999,0.734272,-0.0170235,-0.154225,0.4646619999999999,0.0026424999999999,-0.234241,0.256892,0.0144034999999999,0.136049,0.472742,0.0801704999999999,0.234169,0.271132,0.0915405,-0.226535,0.1835419999999999,-0.1104235,0.295639,0.2011319999999999,-0.0677535,-0.070679,0.0029159999999999,-0.0116535,0.0706789999999999,-0.002916,0.0116534999999999,-0.08832,-0.334628,-0.1332835,0.073019,-0.376878,0.0048144999999999,-0.135097,-0.661798,-0.0664535,0.017079,-0.667028,0.0219514999999999,0
148,0.0186879999999999,0.7340644999999999,-0.0203964999999999,-0.155432,0.4635845,0.0001865,-0.225785,0.2508845,0.0244545,0.132318,0.4707745,0.0817035,0.2190379999999999,0.2586245,0.1003795,-0.224184,0.1428145,-0.0929944999999999,0.2844679999999999,0.1575245,-0.0611944999999999,-0.070468,0.0033255,-0.0129674999999999,0.070468,-0.0033255,0.0129675,-0.074248,-0.3368155,-0.1513745,0.070578,-0.3820755,0.0088015,-0.109624,-0.6557755000000001,-0.0927244999999999,0.0076479999999999,-0.6645255000000001,0.0080925,0
149,0.0193715,0.733097,-0.0236744999999999,-0.1568814999999999,0.462477,-0.0020384999999999,-0.2204474999999999,0.247707,0.0351125,0.1292515,0.468417,0.0829285,0.2043815,0.249657,0.1093215,-0.2233295,0.109427,-0.0810444999999999,0.2735715,0.123357,-0.0523244999999999,-0.0703514999999999,0.0036309999999999,-0.0141944999999999,0.0703515,-0.003631,0.0141945,-0.0608384999999999,-0.338113,-0.1675145,0.0671615,-0.384563,0.0127365,-0.0793444999999999,-0.6499630000000001,-0.1238844999999999,0.0145115,-0.662753,-0.0240444999999999,0
150,0.019975,0.7311035,-0.0261789999999999,-0.158097,0.4619235,-0.005109,-0.2240349999999999,0.2461235,0.045037,0.126855,0.4653935,0.0843319999999999,0.188105,0.2440034999999999,0.1141269999999999,-0.233086,0.0800175,-0.064369,0.259205,0.1064425,-0.038849,-0.0702049999999999,0.0039115,-0.015669,0.070205,-0.0039115,0.015669,-0.0442049999999999,-0.3378764999999999,-0.180659,0.059705,-0.3843565,0.0196749999999999,-0.0475149999999999,-0.6432365,-0.1511889999999999,0.029145,-0.6595165,-0.0539889999999999,0
151,0.021375,0.729207,-0.02836,-0.15959,0.461897,-0.00752,-0.228295,0.246727,0.0529709999999999,0.125075,0.462437,0.085739,0.174545,0.242637,0.1151649999999999,-0.243172,0.061004,-0.04568,0.248315,0.100804,-0.0295,-0.0698749999999999,0.004277,-0.0174399999999999,0.069875,-0.0042769999999999,0.0174399999999999,-0.029255,-0.331003,-0.19062,0.0511749999999999,-0.382563,0.0264009999999999,-0.016545,-0.6368929999999999,-0.17736,0.043385,-0.656273,-0.08411,0
152,0.02348,0.7273565,-0.0300699999999999,-0.15968,0.4620765,-0.0104299999999999,-0.2340949999999999,0.2481065,0.0592199999999999,0.12365,0.4599765,0.086593,0.16345,0.2430065,0.113473,-0.25395,0.0584725,-0.02234,0.23953,0.0969385,-0.02016,-0.0699499999999999,0.0050475,-0.0188099999999999,0.06995,-0.0050475,0.0188099999999999,-0.0168299999999999,-0.3235635,-0.1959499999999999,0.0423999999999999,-0.3811835,0.03628,0.00958,-0.6308235,-0.20037,0.05612,-0.6442035,-0.1118499999999999,0
153,0.02667,0.7255475,-0.032475,-0.159275,0.4624574999999999,-0.013525,-0.240017,0.2490575,0.0580149999999999,0.12383,0.4573875,0.0857399999999999,0.16003,0.2433575,0.109703,-0.264203,0.0582815,-0.003725,0.23446,0.0978895,-0.018525,-0.0698,0.0059175,-0.020155,0.0698,-0.0059174999999999,0.0201549999999999,-0.0065099999999999,-0.3174025,-0.197995,0.0327799999999999,-0.3818125,0.0461649999999999,0.0306899999999999,-0.6223725,-0.220565,0.06896,-0.6439125,-0.139935,0
154,0.030585,0.7244535000000001,-0.03473,-0.158125,0.4634235,-0.01624,-0.245562,0.2500235,0.0556899999999999,0.1248449999999999,0.4548335,0.08384,0.156365,0.2443235,0.108147,-0.274799,0.0592475,0.01247,0.230105,0.0988555,-0.01735,-0.069855,0.0068085,-0.02088,0.069855,-0.0068085,0.02088,-0.009205,-0.3094665,-0.19707,0.022625,-0.3824165,0.0597199999999999,0.0438649999999999,-0.6142065,-0.23212,0.0816649999999999,-0.6479564999999999,-0.16407,0
155,0.0350849999999999,0.723342,-0.0365699999999999,-0.156385,0.464212,-0.01825,-0.25046,0.251182,0.05309,0.125985,0.452772,0.0822699999999999,0.159095,0.245112,0.0996399999999999,-0.28467,0.060036,0.0200599999999999,0.234845,0.099644,-0.0260799999999999,-0.069775,0.007597,-0.02133,0.0697749999999999,-0.007597,0.0213299999999999,-0.016315,-0.3023079999999999,-0.19068,0.011965,-0.3826779999999999,0.0729499999999999,0.051315,-0.6057279999999999,-0.23842,0.096115,-0.652698,-0.1876,0
156,0.04063,0.723045,-0.0379199999999999,-0.15388,0.465005,-0.0194699999999999,-0.253893,0.254085,0.05025,0.1285799999999999,0.4510349999999999,0.08005,0.16524,0.245965,0.09107,-0.293604,0.060789,0.02301,0.24524,0.100694,-0.0402399999999999,-0.06985,0.00835,-0.0214499999999999,0.0698499999999999,-0.00835,0.02145,-0.0235299999999999,-0.295965,-0.1822099999999999,0.00385,-0.3818749999999999,0.05338,0.0501099999999999,-0.597135,-0.2298499999999999,0.1105499999999999,-0.657315,-0.1983899999999999,0
157,0.0467,0.7231040000000001,-0.04044,-0.15155,0.465854,-0.02091,-0.257484,0.258304,0.04704,0.13124,0.449754,0.0760899999999999,0.1739099999999999,0.246694,0.07912,-0.301372,0.064319,0.0198499999999999,0.25698,0.108299,-0.05465,-0.06985,0.008879,-0.02126,0.06985,-0.0088789999999999,0.02126,-0.0275699999999999,-0.290126,-0.17459,-0.00485,-0.381156,0.03453,0.0473899999999999,-0.590336,-0.22206,0.1222099999999999,-0.663366,-0.20469,0
158,0.0529649999999999,0.7234475,-0.04206,-0.148835,0.4674775,-0.0213,-0.260835,0.2628074999999999,0.0447699999999999,0.1341749999999999,0.4488974999999999,0.0721399999999999,0.1846449999999999,0.2478074999999999,0.0652599999999999,-0.308197,0.0688024999999999,0.0151899999999999,0.2730749999999999,0.1150745,-0.07443,-0.069815,0.0093264999999999,-0.02105,0.0698149999999999,-0.0093265,0.0210499999999999,-0.031825,-0.2846025,-0.1655,-0.013925,-0.3813824999999999,0.01771,0.0403649999999999,-0.5851125,-0.2066299999999999,0.1180749999999999,-0.6704125000000001,-0.19012,0
159,0.0602849999999999,0.7232535,-0.0438399999999999,-0.145535,0.4700034999999999,-0.0199299999999999,-0.261185,0.2692835,0.0437,0.1379649999999999,0.4487434999999999,0.06613,0.194715,0.2497935,0.05266,-0.310726,0.0767265,0.00626,0.286925,0.1236835,-0.09602,-0.0699549999999999,0.0094805,-0.0201299999999999,0.0699549999999999,-0.0094805,0.02013,-0.043935,-0.2854165,-0.15191,-0.0142849999999999,-0.3828665,0.00035,0.028125,-0.5826465000000001,-0.18786,0.1075349999999999,-0.6690665,-0.1754,0
160,0.068135,0.723185,-0.045785,-0.142295,0.474015,-0.017805,-0.2613649999999999,0.277175,0.0448149999999999,0.1420249999999999,0.448675,0.059255,0.205585,0.254085,0.0378649999999999,-0.312926,0.085988,-8.500000000000174e-05,0.297545,0.135405,-0.1130849999999999,-0.0702649999999999,0.0095489999999999,-0.0183849999999999,0.070265,-0.009549,0.0183849999999999,-0.056765,-0.286055,-0.1363249999999999,-0.0148449999999999,-0.3802149999999999,-0.0134449999999999,0.013645,-0.580875,-0.165955,0.096585,-0.667505,-0.157265,0
161,0.0753249999999999,0.7229159999999999,-0.0476899999999999,-0.139415,0.478606,-0.0153799999999999,-0.260445,0.283406,0.04847,0.145915,0.448596,0.05368,0.2166249999999999,0.258166,0.0219,-0.313535,0.093327,-0.0031999999999999,0.308285,0.143646,-0.13351,-0.070285,0.009588,-0.0168799999999999,0.0702849999999999,-0.009588,0.01688,-0.064775,-0.291894,-0.1215699999999999,-0.0122349999999999,-0.376894,-0.0308699999999999,0.0005649999999999,-0.587094,-0.14403,0.0885249999999999,-0.6724239999999999,-0.1414499999999999,0
162,0.0821649999999999,0.7226325,-0.04901,-0.1362649999999999,0.4828625,-0.0125399999999999,-0.258525,0.2878725,0.0524399999999999,0.149525,0.4483425,0.04902,0.225725,0.2602625,0.0089199999999999,-0.3136649999999999,0.0989285,-0.00323,0.316955,0.1465125,-0.1497099999999999,-0.070405,0.0099425,-0.01522,0.070405,-0.0099425,0.01522,-0.0717449999999999,-0.2935175,-0.1058899999999999,-0.0067149999999999,-0.3739575,-0.04962,-0.0079049999999999,-0.5887175,-0.1201199999999999,0.0820449999999999,-0.6795074999999999,-0.12545,0
163,0.088435,0.7219755,-0.0502499999999999,-0.1333349999999999,0.4869455,-0.0098099999999999,-0.256525,0.2917055,0.0575,0.152745,0.4482555,0.04535,0.233465,0.2618855,-0.0022899999999999,-0.313515,0.1036074999999999,-6.999999999995898e-05,0.323735,0.1489754999999999,-0.16286,-0.0702749999999999,0.0101215,-0.0141799999999999,0.0702749999999999,-0.0101214999999999,0.01418,-0.0761749999999999,-0.2946344999999999,-0.0924499999999999,0.005135,-0.3717744999999999,-0.0737299999999999,-0.013685,-0.5898344999999999,-0.1014199999999999,0.0855449999999999,-0.6807345,-0.1126899999999999,0
164,0.094105,0.7212,-0.0518749999999999,-0.1312749999999999,0.49092,-0.0067849999999999,-0.254385,0.296,0.062705,0.155965,0.44789,0.0415349999999999,0.240605,0.2635,-0.012695,-0.313045,0.108563,0.0040549999999999,0.327165,0.1507,-0.1713849999999999,-0.0703249999999999,0.009993,-0.013295,0.0703249999999999,-0.009993,0.013295,-0.0758949999999999,-0.29892,-0.0845849999999999,0.026125,-0.37147,-0.098105,-0.0143449999999999,-0.5997600000000001,-0.084665,0.092835,-0.69057,-0.102455,0
165,0.0993549999999999,0.7205509999999999,-0.05385,-0.1286649999999999,0.494741,-0.00436,-0.252785,0.300031,0.0687299999999999,0.1585849999999999,0.447661,0.0375399999999999,0.246935,0.264441,-0.0222499999999999,-0.3133749999999999,0.112919,0.0111199999999999,0.3312049999999999,0.1506209999999999,-0.18161,-0.0703949999999999,0.009708,-0.01243,0.0703949999999999,-0.009708,0.0124299999999999,-0.0773249999999999,-0.3034389999999999,-0.07693,0.0403649999999999,-0.371229,-0.09259,-0.0167649999999999,-0.6100690000000001,-0.0681399999999999,0.100825,-0.691469,-0.09354,0
166,0.104305,0.719758,-0.0552099999999999,-0.125545,0.4981179999999999,-0.0010099999999999,-0.250425,0.303928,0.07613,0.160945,0.4473479999999999,0.03473,0.250995,0.2646179999999999,-0.0274099999999999,-0.3132049999999999,0.116878,0.02125,0.3326349999999999,0.149828,-0.1871799999999999,-0.0705549999999999,0.0096049999999999,-0.0114299999999999,0.0705549999999999,-0.009605,0.01143,-0.0808249999999999,-0.313522,-0.0679199999999999,0.0553549999999999,-0.371782,-0.0876499999999999,-0.018625,-0.6258119999999999,-0.0492999999999999,0.1093649999999999,-0.692672,-0.0907299999999999,0
167,0.109025,0.718982,-0.0572449999999999,-0.122915,0.500732,0.0018949999999999,-0.2477649999999999,0.307702,0.0826549999999999,0.162795,0.446932,0.0322049999999999,0.253365,0.2639019999999999,-0.0303949999999999,-0.312725,0.120522,0.0310849999999999,0.3324749999999999,0.149052,-0.190775,-0.0706749999999999,0.00951,-0.0104149999999999,0.070675,-0.00951,0.0104149999999999,-0.0843749999999999,-0.322918,-0.0606349999999999,0.070705,-0.372468,-0.084755,-0.0189349999999999,-0.640668,-0.031915,0.118485,-0.693948,-0.0898149999999999,0
168,0.112625,0.7177910000000001,-0.0593099999999999,-0.1194849999999999,0.502371,0.0031499999999999,-0.2453249999999999,0.310471,0.0884599999999999,0.165105,0.4464309999999999,0.02976,0.2549950000000001,0.263061,-0.0322099999999999,-0.3118949999999999,0.122831,0.0408199999999999,0.331015,0.147951,-0.19072,-0.0707749999999999,0.009455,-0.00946,0.070775,-0.009455,0.00946,-0.0866649999999999,-0.331579,-0.05534,0.082875,-0.370989,-0.0848299999999999,-0.0180949999999999,-0.654659,-0.0172999999999999,0.128775,-0.6887989999999999,-0.09164,0
169,0.1152799999999999,0.715965,-0.06176,-0.11617,0.503155,0.0033899999999998,-0.24208,0.312635,0.0917999999999999,0.1671699999999999,0.4459249999999999,0.0279999999999999,0.25519,0.2621549999999999,-0.03155,-0.31013,0.124275,0.0488899999999999,0.32923,0.145285,-0.19,-0.07074,0.0094169999999999,-0.00895,0.07074,-0.009417,0.0089499999999999,-0.08285,-0.341385,-0.05277,0.0958999999999999,-0.369285,-0.08833,-0.01557,-0.669805,-0.0058800000000001,0.1405199999999999,-0.683625,-0.0971900000000001,0
170,0.1177599999999999,0.714176,-0.064305,-0.1132599999999999,0.503866,0.0038349999999999,-0.23928,0.314096,0.0952349999999999,0.1694999999999999,0.445496,0.0258849999999999,0.25359,0.261296,-0.0269449999999999,-0.30837,0.125126,0.0565849999999999,0.32489,0.142056,-0.183925,-0.07073,0.009356,-0.008425,0.0707299999999999,-0.009356,0.008425,-0.0795,-0.350894,-0.049905,0.10657,-0.367404,-0.0913249999999999,-0.0136399999999999,-0.683774,0.0055649999999999,0.15175,-0.678214,-0.102615,0
171,0.1197399999999999,0.7123065,-0.066505,-0.1105499999999999,0.5045465,0.0041149999999999,-0.2365,0.3151265,0.0981249999999999,0.17139,0.4452565,0.0245649999999999,0.25081,0.2601664999999999,-0.019845,-0.30611,0.1255465,0.0632249999999999,0.32048,0.1374965,-0.177115,-0.07066,0.0093505,-0.0080149999999999,0.0706599999999999,-0.0093505,0.0080149999999999,-0.0760199999999999,-0.3602135,-0.0471950000000001,0.1121999999999999,-0.3657535,-0.093405,-0.0149899999999999,-0.6960435,0.0164749999999999,0.1626699999999999,-0.6718335,-0.108285,0
172,0.1215199999999999,0.710177,-0.0686999999999999,-0.1082099999999999,0.504887,0.0044199999999999,-0.2337199999999999,0.315347,0.1003999999999999,0.1731599999999999,0.444987,0.0236699999999999,0.2461499999999999,0.258037,-0.00929,-0.3033599999999999,0.125157,0.06855,0.31414,0.134617,-0.16664,-0.0705699999999999,0.009569,-0.0076399999999999,0.07057,-0.009569,0.0076399999999999,-0.07249,-0.369473,-0.04461,0.1137799999999999,-0.365243,-0.09345,-0.0159799999999999,-0.708123,0.02612,0.16469,-0.666683,-0.11507,0
173,0.1232999999999999,0.7081385,-0.0709349999999999,-0.1060399999999999,0.5049985,0.004655,-0.2307799999999999,0.3145385,0.101985,0.1749399999999999,0.4443385,0.023245,0.2432499999999999,0.2558385,-0.0023449999999999,-0.3002599999999999,0.1240185,0.072625,0.30795,0.1297085,-0.1567649999999999,-0.0705199999999999,0.0098115,-0.0072849999999999,0.07052,-0.0098115,0.007285,-0.0778599999999999,-0.3706115,-0.038945,0.1124899999999999,-0.3653015,-0.0918749999999999,-0.0210399999999999,-0.7093815,0.035115,0.16208,-0.6627415000000001,-0.118645,0
174,0.124395,0.7067955,-0.072885,-0.1047549999999999,0.5049555,0.0050649999999999,-0.227605,0.3133855,0.1023649999999999,0.176285,0.4438855,0.0236549999999999,0.240395,0.2537655,0.0007249999999999,-0.296715,0.1228655,0.0747049999999999,0.302285,0.1260555,-0.148305,-0.0704449999999999,0.0100904999999999,-0.007095,0.0704449999999999,-0.0100905,0.0070949999999999,-0.0829249999999999,-0.3717645,-0.034295,0.1099649999999999,-0.3657045,-0.089045,-0.025765,-0.7105345,0.0428549999999999,0.158845,-0.6589145,-0.119505,0
175,0.1244349999999999,0.7057024999999999,-0.074635,-0.103985,0.5045824999999999,0.0041549999999999,-0.225295,0.3124225,0.1013749999999999,0.177635,0.4437025,0.0233949999999999,0.2378549999999999,0.2512025,0.0045549999999999,-0.293545,0.1219025,0.0740049999999999,0.2979649999999999,0.1226725,-0.142085,-0.070345,0.0101175,-0.007255,0.0703449999999999,-0.0101175,0.0072549999999999,-0.086615,-0.3727275,-0.031065,0.107765,-0.3658475,-0.0869350000000001,-0.029005,-0.7114975,0.0475049999999999,0.1556449999999999,-0.6591475,-0.1153050000000001,0
176,0.124355,0.7044834999999999,-0.0764149999999999,-0.1029749999999999,0.5041034999999999,0.002665,-0.222555,0.3113535,0.099665,0.179855,0.4434935,0.0228950000000001,0.233805,0.2476435,0.009535,-0.289555,0.1205235,0.072145,0.293375,0.1161235,-0.1346949999999999,-0.0701749999999999,0.0101445,-0.0076949999999998,0.0701749999999999,-0.0101445,0.007695,-0.090355,-0.3724265,-0.027725,0.1057249999999999,-0.3659564999999999,-0.0849449999999999,-0.033305,-0.7125665,0.052225,0.152285,-0.6594165000000001,-0.1109049999999999,0
177,0.12508,0.7030465,-0.0791049999999999,-0.1039599999999999,0.5038365,0.004095,-0.2205699999999999,0.3101264999999999,0.0981750000000001,0.17903,0.4443165,0.024565,0.23916,0.2482365,0.005495,-0.2870399999999999,0.1187365,0.0714650000000001,0.2940900000000001,0.1109465,-0.1391049999999999,-0.0702299999999999,0.0100855,-0.0076349999999999,0.07023,-0.0100855,0.007635,-0.0945499999999999,-0.3744735,-0.0247449999999999,0.10361,-0.3720135,-0.0834349999999999,-0.0368799999999999,-0.7131635000000001,0.055345,0.1504700000000001,-0.6647135000000001,-0.1078149999999998,0
178,0.1247349999999999,0.7017205000000001,-0.080535,-0.105365,0.5031405,0.0061149999999999,-0.217335,0.3097105,0.096175,0.1781249999999999,0.4438605,0.0270949999999999,0.2218249999999999,0.2252905,0.0354349999999999,-0.282775,0.1180705,0.0681749999999999,0.288725,0.1131805,-0.125155,-0.070325,0.0100125,-0.007765,0.0703249999999999,-0.0100125,0.007765,-0.097405,-0.3738495,-0.021865,0.1030949999999999,-0.3726395,-0.0823249999999999,-0.039855,-0.7138095,0.059365,0.148065,-0.6651294999999999,-0.103885,0
179,0.1242449999999999,0.700396,-0.08177,-0.101885,0.5026959999999999,1.999999999990898e-05,-0.215175,0.308076,0.0952699999999999,0.1826349999999998,0.442736,0.0222599999999999,0.2035449999999998,0.246606,0.0696399999999999,-0.2789750000000001,0.116036,0.06545,0.2676349999999999,0.122366,-0.08288,-0.070325,0.010068,-0.00834,0.0703249999999999,-0.010068,0.0083399999999999,-0.100345,-0.373244,-0.01854,0.1023549999999998,-0.371004,-0.0808000000000001,-0.0433650000000001,-0.714314,0.0640299999999999,0.1452849999999999,-0.665684,-0.09975,0
180,0.12351,0.698486,-0.081855,-0.10074,0.501716,-0.0019949999999999,-0.20925,0.305446,0.090315,0.18873,0.438396,0.023635,0.21304,0.237496,0.0485849999999999,-0.27014,0.112606,0.058675,0.2595699999999999,0.076228,-0.0713349999999999,-0.06984,0.010204,-0.0103849999999999,0.06984,-0.010204,0.0103849999999999,-0.1051199999999999,-0.368884,-0.0128949999999999,0.10143,-0.368274,-0.0790049999999999,-0.05032,-0.715104,0.072405,0.1393999999999999,-0.665734,-0.0916049999999999,0
181,0.1228349999999999,0.6951164999999999,-0.0855349999999999,-0.101815,0.4998864999999999,-0.0053749999999999,-0.206085,0.2975865,0.082285,0.1892249999999999,0.4374365,0.0247750000000001,0.2093649999999999,0.1608065,0.022075,-0.262355,0.1040664999999999,0.044865,0.2513449999999999,-0.0225835,-0.0588049999999999,-0.069875,0.0102005,-0.0117449999999998,0.0698749999999999,-0.0102005,0.011745,-0.113055,-0.3689035,-0.0051649999999999,0.0951049999999998,-0.3709935,-0.0759349999999999,-0.0596350000000001,-0.7163235,0.080815,0.1306749999999999,-0.6666535,-0.0829649999999999,0
182,0.1204549999999999,0.6943815,-0.0863699999999999,-0.1078549999999999,0.4995514999999999,-0.0008,-0.2053449999999999,0.2928415,0.07811,0.182705,0.4381414999999999,0.02975,0.200085,0.2233315,0.0543299999999999,-0.2599249999999999,0.0992415,0.03807,0.231115,0.0213585,-0.036,-0.0703949999999999,0.0096724999999999,-0.01202,0.0703949999999999,-0.0096725,0.01202,-0.1160449999999999,-0.3667385,-0.00329,0.0915449999999999,-0.3715985,-0.07547,-0.0641349999999999,-0.7165985,0.0828999999999999,0.126195,-0.6667085,-0.0804599999999999,0
183,0.11789,0.693512,-0.087125,-0.1060599999999999,0.4989119999999999,-0.006735,-0.20493,0.288752,0.073265,0.1832099999999999,0.439752,0.027085,0.19498,0.222782,0.056825,-0.25592,0.0947119999999999,0.030055,0.2233,0.015704,-0.0310049999999999,-0.07064,0.009406,-0.012375,0.07064,-0.009406,0.012375,-0.1209699999999999,-0.364908,-0.000715,0.08767,-0.371188,-0.074465,-0.0692599999999999,-0.716788,0.085485,0.1209799999999999,-0.665538,-0.079345,0
