sb224sc-HT22-VT27/4dt907/src/ml-research/a11/datafiles/labeled_files/A14_kinect.csv
FrameNo,nose_3d_x,nose_3d_y,nose_3d_z,left_shoulder_3d_x,left_shoulder_3d_y,left_shoulder_3d_z,left_elbow_3d_x,left_elbow_3d_y,left_elbow_3d_z,right_shoulder_3d_x,right_shoulder_3d_y,right_shoulder_3d_z,right_elbow_3d_x,right_elbow_3d_y,right_elbow_3d_z,left_wrist_3d_x,left_wrist_3d_y,left_wrist_3d_z,right_wrist_3d_x,right_wrist_3d_y,right_wrist_3d_z,left_hip_3d_x,left_hip_3d_y,left_hip_3d_z,right_hip_3d_x,right_hip_3d_y,right_hip_3d_z,left_knee_3d_x,left_knee_3d_y,left_knee_3d_z,right_knee_3d_x,right_knee_3d_y,right_knee_3d_z,left_ankle_3d_x,left_ankle_3d_y,left_ankle_3d_z,right_ankle_3d_x,right_ankle_3d_y,right_ankle_3d_z,activity_label
0,0.0032169999999999,0.7364,0.0620439999999999,-0.17462,0.48533,0.063843,-0.37925,0.5879300000000001,0.087231,0.17582,0.4866999999999999,0.0591859999999999,0.36411,0.6435700000000001,0.092331,-0.41563,0.7898200000000001,0.034842,0.38982,0.85106,0.0741,-0.072153,0.001815,0.0013819999999999,0.072153,-0.001815,-0.001382,-0.12161,-0.38335,-0.006746,0.11463,-0.43475,0.0217369999999999,-0.12072,-0.76271,0.0066069999999999,0.12507,-0.7766599999999999,0.0068089999999999,1
1,0.0034415,0.736518,0.0622975,-0.1741985,0.485098,0.0628155,-0.3795085,0.587418,0.0857675,0.1757315,0.4869179999999999,0.0589875,0.3636115,0.644268,0.0909204999999999,-0.4158685,0.789148,0.0325125,0.3875115,0.851928,0.0713034999999999,-0.0721745,0.001982,0.0012654999999999,0.0721745,-0.001982,-0.0012655,-0.1219585,-0.383422,-0.0072585,0.1143315,-0.435322,0.0224464999999999,-0.1206685,-0.761382,0.0062244999999999,0.1242215,-0.777692,0.0061184999999999,1
2,0.00341,0.7366435,0.062075,-0.173867,0.4848834999999999,0.062448,-0.378467,0.5862835,0.084787,0.175513,0.4870035,0.058831,0.363373,0.6444135,0.090508,-0.415547,0.7877735,0.030999,0.390073,0.8516334999999999,0.068625,-0.072143,0.0019595,0.001446,0.072143,-0.0019595,-0.0014459999999999,-0.1221869999999999,-0.3833865,-0.0074849999999999,0.114053,-0.4352465,0.02234,-0.120817,-0.7612265,0.006189,0.123603,-0.7767065,0.006458,1
3,0.0037984999999999,0.7363375000000001,0.062719,-0.1735625,0.4848075,0.0622569999999999,-0.3785825,0.5862175000000001,0.08448,0.1755074999999999,0.4871275,0.0588169999999999,0.3632675,0.6445575,0.090251,-0.4154025,0.7875575,0.0297119999999999,0.3895175,0.8517775000000001,0.0673159999999999,-0.0721885,0.0019765,0.0014039999999999,0.0721885,-0.0019765,-0.001404,-0.1222425,-0.3835125,-0.007768,0.1139475,-0.4350525,0.0222579999999999,-0.1208125,-0.7613025,0.0057989999999999,0.1241574999999999,-0.7765424999999999,0.0055209999999999,1
4,0.0041879999999999,0.7366244999999999,0.063305,-0.167105,0.4806945,0.061314,-0.378745,0.5862244999999999,0.084399,0.175485,0.4873445,0.059019,0.363125,0.6447944999999999,0.090288,-0.415095,0.7872245,0.027633,0.397335,0.8507245,0.065275,-0.0722339999999999,0.0020154999999999,0.001425,0.0722339999999999,-0.0020155,-0.0014249999999999,-0.1223549999999999,-0.3835055,-0.008013,0.1137249999999999,-0.4351255,0.022522,-0.1208549999999999,-0.7616455000000001,0.005941,0.124445,-0.7769155000000001,0.004864,1
5,0.0052385,0.73729,0.064727,-0.1675525,0.48114,0.061091,-0.3788825,0.5860299999999999,0.0835269999999999,0.1755575,0.48745,0.0591779999999999,0.3629475,0.64499,0.090202,-0.4147625,0.7867099999999999,0.024991,0.3939875,0.85137,0.064251,-0.0722865,0.002066,0.001312,0.0722865,-0.002066,-0.001312,-0.1224524999999999,-0.38342,-0.008586,0.1131375,-0.43727,0.023037,-0.1211325,-0.7618600000000001,0.0053749999999999,0.1239275,-0.778,0.0054589999999999,1
6,0.0056794999999999,0.7375824999999999,0.065424,-0.1678335,0.4813225,0.061101,-0.3788735,0.5855425,0.082578,0.1755865,0.4874625,0.059427,0.3835265,0.6138024999999999,0.090496,-0.4147735,0.7863325,0.024523,0.3874765,0.8228125,0.066733,-0.0722835,0.0020985,0.0012479999999999,0.0722835,-0.0020984999999999,-0.0012479999999999,-0.1223235,-0.3826475,-0.0091019999999999,0.1129265,-0.4369375,0.023132,-0.1211835,-0.7611875,0.005348,0.1235465,-0.7781475000000001,0.002819,1
7,0.006206,0.7375565,0.0658735,-0.168169,0.4817465,0.0612095,-0.376449,0.5832664999999999,0.0806844999999999,0.175941,0.4872765,0.0598565,0.377151,0.6216864999999999,0.0908954999999999,-0.416979,0.7829164999999999,0.0218405,0.390611,0.8297865,0.0652715,-0.072201,0.0021985,0.0012254999999999,0.072201,-0.0021985,-0.0012254999999999,-0.122759,-0.3849435,-0.0085394999999999,0.112541,-0.4368935,0.0231055,-0.121869,-0.7618735000000001,0.0058495,0.122651,-0.7772335,0.0051375,1
8,0.006661,0.7377754999999999,0.0664059999999999,-0.16724,0.4813655,0.060903,-0.3761,0.5826454999999999,0.079717,0.17604,0.4873255,0.060031,0.3795,0.6177855,0.09093,-0.4172099999999999,0.7820155,0.0202229999999999,0.39065,0.8260255,0.064807,-0.072199,0.0022264999999999,0.0012259999999999,0.072199,-0.0022265,-0.0012259999999999,-0.12289,-0.3854645,-0.008607,0.11225,-0.4371945,0.023203,-0.12203,-0.7618245,0.0058889999999999,0.12231,-0.7773145,0.005138,1
9,0.007051,0.738065,0.066889,-0.167139,0.481385,0.060779,-0.375779,0.5820350000000001,0.078764,0.176141,0.487345,0.060195,0.381911,0.613785,0.090921,-0.417479,0.781155,0.018821,0.390681,0.822285,0.064381,-0.072199,0.002246,0.001219,0.072199,-0.0022459999999999,-0.0012189999999999,-0.123019,-0.385895,-0.0086079999999999,0.111941,-0.437405,0.023281,-0.122259,-0.761875,0.005904,0.122011,-0.777335,0.005133,1
10,0.0073045,0.7383460000000001,0.067217,-0.1670315,0.481396,0.060726,-0.3755415,0.5814860000000001,0.077908,0.1762285,0.487356,0.060352,0.3831985,0.612246,0.090831,-0.4178115,0.780406,0.017701,0.3908085,0.820966,0.063948,-0.0721885,0.002264,0.0011919999999999,0.0721885,-0.002264,-0.0011919999999999,-0.1231415,-0.386304,-0.008584,0.1116985,-0.437434,0.023322,-0.1224715,-0.761914,0.00593,0.1217485,-0.777464,0.005147,1
11,0.0074485,0.7385765,0.0674684999999999,-0.1667515,0.4812965,0.0606865,-0.3753015,0.5809065,0.0771594999999999,0.1762985,0.4873565,0.0604834999999999,0.3838384999999999,0.6107165,0.0907254999999999,-0.4181715,0.7796164999999999,0.0166644999999999,0.3907485,0.8194965,0.0636564999999999,-0.0721845,0.0022835,0.0011764999999999,0.0721845,-0.0022835,-0.0011765,-0.1232815,-0.3865734999999999,-0.0085655,0.1114885,-0.4374335,0.0233694999999999,-0.1226815,-0.7620435,0.0059894999999999,0.1214985,-0.7775035,0.0051744999999999,1
12,0.007486,0.7387370000000001,0.0676134999999999,-0.166488,0.481297,0.0606025,-0.375338,0.580677,0.0767704999999999,0.176372,0.487367,0.0605514999999999,0.383932,0.610357,0.0905455,-0.418268,0.779347,0.0160755,0.390702,0.819107,0.0633345,-0.072183,0.002308,0.0011694999999999,0.072183,-0.002308,-0.0011695,-0.1234079999999999,-0.386803,-0.0085595,0.111302,-0.437433,0.0233815,-0.1228779999999999,-0.762133,0.0060114999999999,0.1212919999999999,-0.7775029999999999,0.0052634999999999,1
13,0.0074119999999999,0.7388885,0.0677195,-0.166154,0.4812484999999999,0.0605645,-0.375384,0.5804785,0.0765755,0.176386,0.4873885,0.0606025,0.383976,0.6101985,0.0902295,-0.418364,0.7790785,0.0157475,0.390666,0.8189084999999999,0.0629235,-0.072183,0.0023195,0.0011685,0.072183,-0.0023194999999999,-0.0011684999999999,-0.123504,-0.3870015,-0.0084784999999999,0.111196,-0.4373315,0.0234115,-0.122974,-0.7621515,0.0060985,0.1212259999999999,-0.7774215,0.0052955,1
14,0.0073269999999999,0.7390515,0.067834,-0.16582,0.4811315,0.060589,-0.37546,0.5803815,0.07657,0.1763799999999999,0.4874015,0.060654,0.38397,0.6099215,0.089858,-0.41851,0.7789715,0.015737,0.39088,0.8186515,0.06249,-0.07218,0.0023325,0.001169,0.07218,-0.0023324999999999,-0.0011689999999999,-0.1236299999999999,-0.3869884999999999,-0.008232,0.1111,-0.4372685,0.023433,-0.12307,-0.7622485,0.0060909999999999,0.12114,-0.7773785,0.005455,1
15,0.0072364999999999,0.739224,0.0679955,-0.1655685,0.481184,0.0604715,-0.3757485,0.580374,0.0765585,0.1763615,0.487404,0.0606625,0.3840015,0.610144,0.0894545,-0.4188185,0.778964,0.0157235,0.3910115,0.818784,0.0619385,-0.0721845,0.0023399999999999,0.0011855,0.0721845,-0.00234,-0.0011854999999999,-0.1237585,-0.3869959999999999,-0.0078984999999999,0.1110215,-0.437166,0.0234875,-0.1231885,-0.762256,0.0062675,0.1210414999999999,-0.777356,0.0056025,1
16,0.0071299999999999,0.739407,0.0682355,-0.165367,0.481207,0.0604485,-0.376167,0.580367,0.0765155,0.1763529999999999,0.487407,0.0606505,0.383993,0.610877,0.0890345,-0.419327,0.778957,0.0156735,0.390913,0.8195169999999999,0.0613615,-0.072188,0.002336,0.0011965,0.072188,-0.0023359999999999,-0.0011964999999999,-0.123857,-0.387003,-0.0075285,0.110953,-0.437033,0.0235265,-0.123307,-0.762263,0.0064115,0.121053,-0.777183,0.0057335,1
17,0.006912,0.739706,0.068503,-0.1652469999999999,0.481256,0.060437,-0.376847,0.580426,0.076602,0.176343,0.487416,0.060628,0.383753,0.6108359999999999,0.088768,-0.419847,0.779096,0.015974,0.3909229999999999,0.8194859999999999,0.06087,-0.072194,0.002337,0.001203,0.072194,-0.0023369999999999,-0.0012029999999999,-0.123957,-0.386654,-0.0071639999999999,0.110893,-0.436974,0.023578,-0.123537,-0.7622140000000001,0.006537,0.121083,-0.777184,0.005748,1
18,0.006664,0.739766,0.06875,-0.165064,0.481046,0.060413,-0.3775239999999999,0.580206,0.076857,0.1763259999999999,0.487436,0.060628,0.383356,0.610016,0.088623,-0.4205939999999999,0.778976,0.016506,0.390996,0.818666,0.060306,-0.072193,0.002342,0.001227,0.072193,-0.002342,-0.0012269999999999,-0.1240739999999999,-0.386174,-0.0066109999999999,0.110846,-0.436734,0.023718,-0.1237439999999999,-0.7624139999999999,0.00659,0.121276,-0.777334,0.005755,1
19,0.0063369999999999,0.7398715,0.068989,-0.16521,0.4809815,0.060368,-0.37828,0.5800115,0.077212,0.17628,0.4874015,0.060506,0.38258,0.6091815,0.088405,-0.42135,0.7788315,0.016984,0.3912899999999999,0.8178415,0.059708,-0.072196,0.0023315,0.001334,0.072196,-0.0023315,-0.001334,-0.12419,-0.3856285,-0.00614,0.11085,-0.4364185,0.023754,-0.12395,-0.7625585,0.006485,0.12143,-0.7773185,0.0057649999999999,1
20,0.0059604999999999,0.7399595,0.0691515,-0.1652635,0.4807495,0.0602315,-0.3791135,0.5796295,0.0776895,0.1762365,0.4873294999999999,0.0602995,0.3819265,0.6083595,0.0881155,-0.4221935,0.7784795,0.0176144999999999,0.3917365,0.8169195,0.0592245,-0.0721935,0.0023205,0.0014424999999999,0.0721935,-0.0023205,-0.0014424999999999,-0.1243035,-0.3851005,-0.0057485,0.1108565,-0.4361105,0.0237264999999999,-0.1241235,-0.7627305,0.0063434999999999,0.1216365,-0.7773005,0.0055515,1
21,0.005511,0.7400895000000001,0.06937,-0.165403,0.4805695,0.060095,-0.380013,0.5790295,0.0781989999999999,0.176177,0.4872695,0.060094,0.381587,0.6077095,0.08777,-0.4231129999999999,0.7778695,0.018315,0.392037,0.8162295,0.058925,-0.072197,0.0022885,0.001549,0.072197,-0.0022885,-0.001549,-0.124393,-0.3846205,-0.005503,0.110877,-0.4358605,0.023654,-0.124163,-0.7628405,0.006139,0.121787,-0.7772105,0.005287,1
22,0.0049839999999999,0.740228,0.06975,-0.1655609999999999,0.480338,0.060251,-0.380821,0.578338,0.0787549999999999,0.176099,0.487198,0.060029,0.3814789999999999,0.607088,0.087373,-0.424111,0.777098,0.0191299999999999,0.392289,0.815568,0.0585059999999999,-0.072208,0.0022459999999999,0.0016559999999999,0.072208,-0.0022459999999999,-0.001656,-0.124481,-0.384172,-0.005362,0.110899,-0.435642,0.023492,-0.124211,-0.762902,0.0058159999999999,0.1219389999999999,-0.777132,0.0049509999999999,1
23,0.004489,0.7403694999999999,0.070116,-0.165709,0.4800495,0.060507,-0.381639,0.5775195,0.079497,0.176011,0.4871595,0.060092,0.381441,0.6065094999999999,0.086977,-0.425099,0.7762695,0.0199,0.3923709999999999,0.8149694999999999,0.058048,-0.072224,0.0022045,0.001761,0.072224,-0.0022045,-0.0017609999999999,-0.124559,-0.3838305,-0.005345,0.110951,-0.4354605,0.023312,-0.124259,-0.7629505000000001,0.005482,0.122141,-0.7770105,0.0045959999999999,1
24,0.003894,0.7404965,0.070442,-0.165828,0.4796365,0.060855,-0.382458,0.5766865,0.080084,0.175852,0.4871165,0.060292,0.381332,0.6059964999999999,0.086623,-0.425958,0.7753964999999999,0.020488,0.392342,0.8144364999999999,0.0574849999999999,-0.072246,0.0021455,0.0018929999999999,0.072246,-0.0021455,-0.0018929999999999,-0.1246579999999999,-0.3833935,-0.0056039999999999,0.110982,-0.4352634999999999,0.022904,-0.1243479999999999,-0.7630035000000001,0.005006,0.122262,-0.7766535,0.004278,1
25,0.00328,0.740579,0.0706025,-0.166027,0.4792289999999999,0.0612695,-0.383237,0.575769,0.0805785,0.175633,0.487099,0.0605365,0.381863,0.604589,0.0866915,-0.4267269999999999,0.774459,0.0208975,0.392213,0.813029,0.0572765,-0.0722619999999999,0.002072,0.0020485,0.0722619999999999,-0.002072,-0.0020485,-0.124777,-0.382961,-0.0060295,0.110993,-0.435121,0.0223555,-0.124467,-0.763051,0.0043685,0.122363,-0.776251,0.0035365,1
26,0.0026359999999999,0.7405539999999999,0.0706995,-0.166402,0.478954,0.0616835,-0.383812,0.5749139999999999,0.0810454999999999,0.175388,0.4871439999999999,0.0609255,0.382028,0.6035539999999999,0.0866625,-0.427532,0.773544,0.0209805,0.392018,0.8120339999999999,0.0570525,-0.072274,0.00201,0.0022275,0.072274,-0.00201,-0.0022275,-0.1248819999999999,-0.382616,-0.0066535,0.1109979999999999,-0.435296,0.0216395,-0.124612,-0.763066,0.0035765,0.122448,-0.775896,0.0025664999999999,1
27,0.0019529999999999,0.7405539999999999,0.0707474999999999,-0.166681,0.478954,0.0620465,-0.384371,0.574794,0.0813504999999999,0.175079,0.4871439999999999,0.0612625,0.381989,0.603044,0.0866234999999999,-0.428181,0.773354,0.0208255,0.391389,0.8114439999999999,0.0570704999999999,-0.072289,0.00201,0.0024174999999999,0.072289,-0.00201,-0.0024174999999999,-0.125001,-0.382616,-0.0075835,0.110999,-0.435296,0.0205635,-0.124751,-0.763066,0.0024705,0.122419,-0.775896,0.0014624999999999,1
28,0.0012455,0.7405539999999999,0.0705635,-0.1671025,0.478954,0.0622835,-0.3847925,0.574514,0.0814215,0.1747275,0.4871439999999999,0.0615435,0.3818574999999999,0.602414,0.0865055,-0.4288825,0.773004,0.0204885,0.3910174999999999,0.810684,0.0570105,-0.0723115,0.00201,0.0024784999999999,0.0723115,-0.00201,-0.0024785,-0.1251125,-0.382616,-0.0087485,0.1109975,-0.435296,0.0192945,-0.1249125,-0.763066,0.0011345,0.1224175,-0.775896,0.0001814999999999,1
29,0.0005079999999999,0.7405539999999999,0.0702685,-0.16749,0.478954,0.0624065,-0.38516,0.574134,0.0811695,0.17432,0.4871439999999999,0.0618965,0.38166,0.601364,0.0861005,-0.42957,0.772474,0.0198395,0.3906099999999999,0.809674,0.0568315,-0.072349,0.00201,0.0025605,0.072349,-0.00201,-0.0025605,-0.1252,-0.382616,-0.0101335,0.11102,-0.435296,0.0178564999999999,-0.12495,-0.763066,-0.0002515,0.12237,-0.775896,-0.0012624999999999,1
30,-0.0003674999999999,0.740764,0.070219,-0.1678954999999999,0.478634,0.062678,-0.3855854999999999,0.572864,0.081075,0.1738245,0.487284,0.0624679999999999,0.3805745,0.601454,0.085836,-0.4303955,0.771044,0.01947,0.3900745,0.809784,0.0571259999999999,-0.0723785,0.001889,0.0026699999999999,0.0723785,-0.001889,-0.0026699999999999,-0.1252555,-0.382406,-0.011732,0.1110645,-0.434946,0.016242,-0.1249255,-0.762886,-0.001857,0.1223245,-0.775576,-0.003242,1
31,-0.0012085,0.740893,0.0698245,-0.1683905,0.478323,0.0624785,-0.3860205,0.571543,0.0807595,0.1733394999999999,0.487433,0.0627505,0.3790894999999999,0.601543,0.0854475,-0.4311905,0.7695430000000001,0.0188155,0.3894995,0.8098930000000001,0.0573005,-0.0724035,0.00178,0.0027095,0.0724035,-0.00178,-0.0027095,-0.1252905,-0.382367,-0.0134445,0.1111695,-0.434707,0.0144385,-0.1249204999999999,-0.762767,-0.0035735,0.1222595,-0.7752669999999999,-0.0053355,1
32,-0.002057,0.7409954999999999,0.069285,-0.168933,0.4780455,0.062058,-0.386443,0.5703655,0.080166,0.1728469999999999,0.4876155,0.062829,0.378637,0.6027155,0.0850409999999999,-0.4320529999999999,0.7681954999999999,0.018077,0.388627,0.8110655,0.0573479999999999,-0.072435,0.0016585,0.002721,0.072435,-0.0016585,-0.002721,-0.125313,-0.3824145,-0.0152519999999999,0.111287,-0.4344245,0.01241,-0.124933,-0.7627645000000001,-0.005461,0.1221669999999999,-0.7749545000000001,-0.007495,1
33,-0.0028414999999999,0.7410595000000001,0.068496,-0.1694605,0.4778295,0.061354,-0.3868105,0.5692595,0.079368,0.1723695,0.4877595,0.062696,0.3768295,0.6019495,0.084872,-0.4329305,0.7669595,0.017277,0.3877695,0.8106395000000001,0.057208,-0.0724694999999999,0.0015405,0.002687,0.0724694999999999,-0.0015405,-0.0026869999999999,-0.1252005,-0.3829905,-0.0170649999999999,0.1115695,-0.4340805,0.009958,-0.1251104999999999,-0.7626004999999999,-0.0073069999999999,0.1220895,-0.7747204999999999,-0.0097499999999999,1
34,-0.0035994999999999,0.741073,0.0677405,-0.1697895,0.477583,0.0607525,-0.3872095,0.5681630000000001,0.0786045,0.1719805,0.487923,0.0625874999999999,0.3743205,0.600743,0.0846765,-0.4337395,0.765733,0.0164845,0.3870605,0.810013,0.0569605,-0.0725005,0.001437,0.0026414999999999,0.0725005,-0.001437,-0.0026415,-0.1250295,-0.383547,-0.0189095,0.1119405,-0.433957,0.0073674999999999,-0.1251895,-0.762467,-0.0091025,0.1221605,-0.774627,-0.0122445,1
35,-0.0042844999999999,0.7411045,0.066967,-0.1700605,0.4773245,0.060246,-0.3875605,0.5670945000000001,0.0778099999999999,0.1716495,0.4881045,0.062241,0.3717195,0.5994745,0.084517,-0.4344905,0.7645745,0.015727,0.3864795,0.8092945,0.056534,-0.0725355,0.0013344999999999,0.002557,0.0725355,-0.0013344999999999,-0.002557,-0.1248305,-0.3842255,-0.0208679999999999,0.1123695,-0.4339855,0.004643,-0.1254605,-0.7624854999999999,-0.0109949999999999,0.1222795,-0.7746155,-0.014744,1
36,-0.0049335,0.7411245000000001,0.0663005,-0.1703375,0.4770744999999999,0.0598815,-0.3880275,0.5661245,0.0770535,0.1713625,0.4882645,0.0620375,0.3688225,0.5979945,0.0844725,-0.4352475,0.7635245,0.0150505,0.3859925,0.8083145,0.0560065,-0.0725655,0.0012285,0.0024775,0.0725655,-0.0012285,-0.0024775,-0.1245775,-0.3850355,-0.0230345,0.1128424999999999,-0.4340455,0.0016255,-0.1256675,-0.7627054999999999,-0.0132805,0.1224625,-0.7749054999999999,-0.0177184999999999,1
37,-0.005496,0.7412099999999999,0.0658,-0.170495,0.47689,0.059653,-0.388505,0.56543,0.076526,0.171155,0.48845,0.062039,0.365815,0.59651,0.084694,-0.435945,0.7627799999999999,0.014568,0.3855849999999999,0.80741,0.0556199999999999,-0.07259,0.0011209999999999,0.002444,0.07259,-0.001121,-0.002444,-0.124275,-0.38594,-0.025144,0.113355,-0.43409,-0.0014509999999999,-0.125815,-0.7630300000000001,-0.015449,0.122595,-0.77515,-0.020249,1
38,-0.006009,0.7412645000000001,0.0655584999999999,-0.170579,0.4767145,0.0595515,-0.388959,0.5648645000000001,0.0763104999999999,0.171051,0.4886344999999999,0.0621905,0.362791,0.5949845,0.0850104999999999,-0.436579,0.7622145,0.0142625,0.385241,0.8064345,0.0553675,-0.072605,0.0010165,0.0023954999999999,0.072605,-0.0010165,-0.0023955,-0.123949,-0.3873955,-0.0272675,0.1138609999999999,-0.4338755,-0.0044395,-0.125899,-0.7643154999999999,-0.0185994999999999,0.122751,-0.7755755,-0.0227935,1
39,-0.0062019999999999,0.741387,0.064964,-0.17053,0.476707,0.059253,-0.38935,0.5648070000000001,0.0758699999999999,0.17104,0.488687,0.062048,0.3598,0.593427,0.085048,-0.43702,0.762127,0.013541,0.3851,0.805547,0.0545719999999999,-0.072626,0.0009889999999999,0.002335,0.072626,-0.000989,-0.002335,-0.1237,-0.389353,-0.029491,0.11424,-0.434263,-0.0074579999999999,-0.12595,-0.765633,-0.021824,0.12294,-0.7758229999999999,-0.025101,1
40,-0.0063359999999999,0.7415014999999999,0.0644075,-0.170335,0.4766815,0.0588854999999999,-0.3899149999999999,0.5648615,0.0754635,0.1710549999999999,0.4888114999999999,0.0619705,0.356775,0.5919615,0.0851605,-0.437445,0.7621815,0.0128435,0.384975,0.8047615,0.0538764999999999,-0.072651,0.0009424999999999,0.0024035,0.072651,-0.0009425,-0.0024034999999999,-0.1234849999999999,-0.3912985,-0.0318735,0.114625,-0.4345585,-0.0105565,-0.1259849999999999,-0.7668485,-0.0251145,0.1231549999999999,-0.7759585,-0.0276415,1
41,-0.0064425,0.741738,0.0636815,-0.1701355,0.4767579999999999,0.0583345,-0.3905455,0.5650280000000001,0.0748255,0.1710845,0.489008,0.0618965,0.3538145,0.590678,0.0851215,-0.4377655,0.762328,0.0119525,0.3848745,0.804138,0.0529675,-0.0726815,0.000922,0.0023745,0.0726815,-0.000922,-0.0023745,-0.1232854999999999,-0.393252,-0.0346075,0.1150045,-0.434712,-0.0139995,-0.1260255,-0.767942,-0.0287095,0.1233544999999999,-0.775992,-0.0304395,1
42,-0.0064845,0.741889,0.0628605,-0.1698715,0.4769089999999999,0.0576735,-0.3911215,0.565379,0.0741645,0.1712185,0.489259,0.0616595,0.3536685,0.5908289999999999,0.0846875,-0.4379115,0.762639,0.0107984999999999,0.3850085,0.8044789999999999,0.0517405,-0.0727075,0.0008619999999999,0.0024194999999999,0.0727075,-0.0008619999999999,-0.0024194999999999,-0.1231615,-0.394651,-0.0377285,0.1152884999999999,-0.433661,-0.0175045,-0.1261615,-0.768991,-0.0325685,0.1235484999999999,-0.775981,-0.0334125,1
43,-0.0065254999999999,0.741976,0.0620055,-0.1694605,0.476976,0.0567975,-0.3917604999999999,0.565916,0.0732375,0.1713095,0.489386,0.0613085,0.3536095,0.591226,0.0840365,-0.4380405,0.763096,0.0095284999999999,0.3851695,0.804986,0.0503255,-0.0727255,0.0008339999999999,0.0024625,0.0727255,-0.000834,-0.0024625,-0.1230205,-0.396114,-0.0410904999999999,0.1155394999999999,-0.432584,-0.0211435,-0.1263205,-0.769954,-0.0366455,0.1236495,-0.775654,-0.0363314999999999,1
44,-0.0065515,0.741838,0.0612075,-0.1689795,0.476858,0.0558634999999999,-0.3923595,0.566248,0.0723015,0.1714205,0.4893679999999999,0.0610994999999999,0.3535505,0.591618,0.0832435,-0.4381395,0.763438,0.0083105,0.3853304999999999,0.805588,0.0489025,-0.0727464999999999,0.0008349999999999,0.0024815,0.0727464999999999,-0.000835,-0.0024814999999999,-0.1228795,-0.397252,-0.0446865,0.1158105,-0.431402,-0.0248154999999999,-0.1265295,-0.770602,-0.0407565,0.1238604999999999,-0.775232,-0.0395545,1
45,-0.0064335,0.7412625,0.0603034999999999,-0.1683155,0.4761725,0.0547805,-0.3929855,0.5658225,0.0714975,0.1715745,0.4890125,0.0607125,0.3534245,0.5921225,0.0822615,-0.4382755,0.7629625,0.0068064999999999,0.3855045,0.8071225,0.0472265,-0.0728305,0.0008785,0.0024135,0.0728305,-0.0008784999999999,-0.0024135,-0.1227955,-0.3974175,-0.0503015,0.1165345,-0.4297175,-0.0303575,-0.1267555,-0.7704275,-0.0455645,0.1240545,-0.7739775,-0.0435525,1
46,-0.0062414999999999,0.740351,0.0595295,-0.1678355,0.475301,0.0538484999999999,-0.3934554999999999,0.5650109999999999,0.0707825,0.1717145,0.4882809999999999,0.0604134999999999,0.3540145,0.592591,0.0812215,-0.4384355,0.7620709999999999,0.0054295,0.3856545,0.808751,0.0455775,-0.0729345,0.000887,0.0022974999999999,0.0729345,-0.000887,-0.0022975,-0.1228155,-0.397009,-0.0571595,0.1175145,-0.427439,-0.0368125,-0.1270055,-0.769419,-0.0504625,0.1240645,-0.772249,-0.0477795,1
47,-0.006062,0.7391665,0.0587145,-0.167544,0.4742765,0.0530154999999999,-0.393834,0.5640364999999999,0.0700385,0.171816,0.4873965,0.0600254999999999,0.3547659999999999,0.5930765,0.0802285,-0.438644,0.7611064999999999,0.0041715,0.385756,0.8104264999999999,0.0439495,-0.073045,0.0008575,0.0022085,0.073045,-0.0008575,-0.0022084999999999,-0.1229339999999999,-0.3956334999999999,-0.0644555,0.1185459999999999,-0.4248135,-0.0436255,-0.127084,-0.7671235000000001,-0.0547944999999999,0.1240459999999999,-0.7701535,-0.0522215,1
48,-0.0058044999999999,0.737845,0.057957,-0.1675325,0.473215,0.052288,-0.3941025,0.562835,0.069321,0.1718575,0.486225,0.059795,0.3556475,0.5934649999999999,0.079247,-0.4389325,0.759895,0.003031,0.3858175,0.8119949999999999,0.042436,-0.0731344999999999,0.000864,0.0020619999999999,0.0731344999999999,-0.000864,-0.0020619999999999,-0.1231225,-0.3929249999999999,-0.072075,0.1196875,-0.421865,-0.05081,-0.1272825,-0.7644150000000001,-0.0588939999999999,0.1241075,-0.767445,-0.0565279999999999,1
49,-0.0055375,0.7365515,0.057356,-0.1677075,0.4721014999999999,0.051735,-0.3943775,0.5613915,0.068819,0.1718025,0.4850215,0.0598029999999999,0.3564325,0.5935915,0.078153,-0.4392574999999999,0.7584015000000001,0.002158,0.3859325,0.8137215,0.040848,-0.0732194999999999,0.0008535,0.001868,0.0732194999999999,-0.0008535,-0.0018679999999999,-0.1233975,-0.3904385,-0.08002,0.1210924999999999,-0.4187185,-0.059081,-0.1272875,-0.7614885,-0.06293,0.1241124999999999,-0.7642785,-0.060515,1
50,-0.005245,0.7349519999999999,0.056969,-0.167368,0.470892,0.051601,-0.394658,0.559672,0.068605,0.171722,0.483462,0.0597419999999999,0.357172,0.593042,0.077305,-0.439568,0.756652,0.0015709999999999,0.386032,0.815582,0.039398,-0.073303,0.000827,0.0017959999999999,0.073303,-0.0008269999999999,-0.0017959999999999,-0.123788,-0.386828,-0.0881309999999999,0.122532,-0.413928,-0.067297,-0.127528,-0.757878,-0.067287,0.124182,-0.760568,-0.064288,1
51,-0.004975,0.7347159999999999,0.0553599999999999,-0.167016,0.471206,0.0504369999999999,-0.394356,0.5580259999999999,0.06711,0.1717439999999999,0.483626,0.058254,0.357654,0.591926,0.075428,-0.439826,0.754776,0.0002579999999999,0.386144,0.817086,0.0367829999999999,-0.073307,0.000571,0.0008519999999999,0.073307,-0.000571,-0.000852,-0.124016,-0.381374,-0.099672,0.124474,-0.4063839999999999,-0.079096,-0.127476,-0.752144,-0.072968,0.124164,-0.7543540000000001,-0.06937,1
52,-0.0047165,0.7341895,0.053945,-0.1666834999999999,0.4716895,0.0492709999999999,-0.3940735,0.5564095,0.065946,0.1718365,0.4840095,0.056816,0.3583765,0.5909395000000001,0.073632,-0.4402335,0.7529595,-0.0009659999999999,0.3863364999999999,0.8190095000000001,0.033984,-0.0733755,0.0003364999999999,0.000515,0.0733755,-0.0003365,-0.0005149999999999,-0.1242435,-0.3752304999999999,-0.111718,0.1266565,-0.4001004999999999,-0.091791,-0.1275635,-0.7460305,-0.07868,0.1240665,-0.7475205,-0.0742849999999999,1
53,-0.0046299999999999,0.7338345000000001,0.0526134999999999,-0.1664649999999999,0.4709545,0.0481584999999999,-0.394265,0.5551545,0.0648825,0.171715,0.4842445,0.0555505,0.359265,0.5897545,0.0720105,-0.440725,0.7514645,-0.0022215,0.386405,0.8206745,0.0312464999999999,-0.073338,-7.350000000000412e-05,0.0004104999999999,0.073338,7.349999999999718e-05,-0.0004105,-0.124635,-0.3691455,-0.1239325,0.1286749999999999,-0.3930754999999999,-0.1046275,-0.1278349999999999,-0.7393755,-0.0842475,0.123745,-0.7404755,-0.0789005,1
54,-0.0045949999999999,0.733672,0.051605,-0.166177,0.4713219999999999,0.047277,-0.394497,0.554902,0.0637829999999999,0.171643,0.484162,0.0544979999999999,0.359743,0.588442,0.070536,-0.441107,0.7510720000000001,-0.003151,0.386553,0.822272,0.0287569999999999,-0.073299,-0.000345,0.0003969999999999,0.073299,0.0003449999999999,-0.000397,-0.124917,-0.363658,-0.133834,0.130263,-0.386378,-0.115194,-0.128157,-0.7330479999999999,-0.088933,0.123483,-0.7340679999999999,-0.0825,1
55,-0.0045125,0.7331949999999999,0.0507649999999999,-0.1657605,0.4711849999999999,0.0465039999999999,-0.3946405,0.554685,0.062776,0.1716994999999999,0.484225,0.0535179999999999,0.3602895,0.586585,0.068716,-0.4411605,0.7507349999999999,-0.004244,0.3868095,0.8235549999999999,0.0265989999999999,-0.0733135,-0.00055,0.0004119999999999,0.0733135,0.0005499999999999,-0.000412,-0.1250605,-0.358075,-0.142294,0.1316794999999999,-0.3793149999999999,-0.124506,-0.1283505,-0.726135,-0.093227,0.1232395,-0.727365,-0.085683,1
56,-0.004278,0.7325980000000001,0.049003,-0.165251,0.470648,0.044908,-0.393861,0.5542480000000001,0.060667,0.171979,0.484508,0.051759,0.361059,0.5841879999999999,0.06622,-0.441141,0.7502580000000001,-0.0058029999999999,0.387229,0.8246279999999999,0.023819,-0.073408,-0.000695,-4.499999999999643e-05,0.073408,0.000695,4.500000000000337e-05,-0.125031,-0.353232,-0.15082,0.133189,-0.372432,-0.134151,-0.128581,-0.7194720000000001,-0.097689,0.123289,-0.720602,-0.089255,1
57,-0.0039604999999999,0.7315105000000001,0.0462469999999999,-0.1648945,0.4702005,0.042535,-0.3928545,0.5538805,0.057793,0.1723355,0.4841805,0.049169,0.3614555,0.5817305,0.062916,-0.4409645,0.7499105,-0.008527,0.3878155,0.8257005000000001,0.020372,-0.0734005,-0.0007744999999999,-0.0006559999999999,0.0734005,0.0007745,0.000656,-0.1250145,-0.3458995,-0.159824,0.1347555,-0.3642695,-0.144534,-0.1286445,-0.7126794999999999,-0.102888,0.1236855,-0.7138595,-0.093785,1
58,-0.0036475,0.7302225,0.0439399999999999,-0.1644975,0.4694224999999999,0.0404989999999999,-0.3917575,0.5534325,0.0552609999999999,0.1726525,0.4834024999999999,0.046792,0.3619325,0.5800425,0.0600089999999999,-0.4406375,0.7495025000000001,-0.011242,0.3884324999999999,0.8270425,0.016916,-0.0734195,-0.0007994999999999,-0.001101,0.0734195,0.0007995,0.0011009999999999,-0.1249475,-0.3402975,-0.167981,0.1362125,-0.3574075,-0.153121,-0.1288175,-0.7050875,-0.107583,0.1237424999999999,-0.7058875,-0.09771,1
59,-0.0032169999999999,0.7308745,0.0418785,-0.163899,0.4702545,0.0385954999999999,-0.390529,0.5521645,0.0530164999999999,0.173171,0.4846445,0.0447824999999999,0.362531,0.5793445,0.0574564999999999,-0.440189,0.7482344999999999,-0.0136035,0.389181,0.8300044999999999,0.0136004999999999,-0.0734799999999999,-0.0006425,-0.0014675,0.0734799999999999,0.0006425,0.0014674999999999,-0.1246589999999999,-0.3334855,-0.1756535,0.137741,-0.3486955,-0.1613735,-0.128959,-0.6952955000000001,-0.1114775,0.123781,-0.6962155,-0.1012625,1
60,-0.0028269999999999,0.7301795,0.040898,-0.163285,0.4692795,0.037649,-0.388925,0.5511095,0.052081,0.173615,0.4836495,0.044274,0.362755,0.5787795,0.056421,-0.439595,0.7471494999999999,-0.014612,0.390435,0.8257994999999999,0.011725,-0.0736209999999999,-0.0004804999999999,-0.001334,0.0736209999999999,0.0004804999999999,0.001334,-0.1244549999999999,-0.3288105,-0.180389,0.138925,-0.3420705,-0.167629,-0.128835,-0.6875305,-0.113698,0.123725,-0.6886205000000001,-0.103352,1
61,-0.002498,0.72885,0.0404109999999999,-0.162549,0.46816,0.0371919999999999,-0.387839,0.5498000000000001,0.051657,0.1740809999999999,0.48259,0.0437969999999999,0.363111,0.57797,0.0559369999999999,-0.439259,0.7458100000000001,-0.015098,0.391741,0.82074,0.010361,-0.073765,-0.0003499999999999,-0.0013999999999999,0.073765,0.00035,0.0013999999999999,-0.124069,-0.3239599999999999,-0.183813,0.139911,-0.33651,-0.172223,-0.129049,-0.6805399999999999,-0.1145519999999999,0.1237509999999999,-0.68103,-0.10464,1
62,-0.0022139999999999,0.7265349999999999,0.039927,-0.162214,0.468655,0.036712,-0.386924,0.547425,0.0512189999999999,0.174876,0.480305,0.0433499999999999,0.363676,0.5771850000000001,0.0553689999999999,-0.438894,0.743265,-0.015576,0.393296,0.815685,0.0088869999999999,-0.07394,3.500000000000725e-05,-0.00143,0.07394,-3.499999999999337e-05,0.00143,-0.123674,-0.3199649999999999,-0.186851,0.140886,-0.331215,-0.1765509999999999,-0.129134,-0.672865,-0.115064,0.1237959999999999,-0.673005,-0.10579,1
63,-0.0018289999999999,0.72415,0.0397125,-0.161735,0.46656,0.0365044999999999,-0.386665,0.54433,0.0509054999999999,0.175765,0.47866,0.0431735,0.364365,0.5751,0.0543754999999999,-0.4382649999999999,0.74013,-0.0164405,0.394995,0.80919,0.0073234999999999,-0.074331,0.0001799999999999,-0.0011854999999999,0.074331,-0.00018,0.0011854999999999,-0.123005,-0.31582,-0.1894245,0.141595,-0.32735,-0.1809245,-0.128595,-0.66639,-0.1145045,0.123845,-0.66653,-0.1060285,1
64,-0.001559,0.72245,0.0392734999999999,-0.161371,0.46481,0.0362865,-0.386671,0.54193,0.0506055,0.176359,0.47762,0.0435604999999999,0.364919,0.57333,0.0534474999999999,-0.437631,0.7375400000000001,-0.0177235,0.396469,0.80277,0.0055654999999999,-0.074547,0.0003299999999999,-0.0007745,0.074547,-0.0003299999999999,0.0007744999999999,-0.122731,-0.31158,-0.1916324999999999,0.142409,-0.32273,-0.1845125,-0.128381,-0.65718,-0.1141535,0.1237989999999999,-0.6589499999999999,-0.1062165,1
65,-0.0010009999999999,0.7210099999999999,0.037849,-0.160824,0.46371,0.035227,-0.386724,0.5398700000000001,0.049273,0.177236,0.47599,0.042835,0.365816,0.57178,0.051534,-0.437004,0.73526,-0.019985,0.398086,0.7961199999999999,0.0029619999999999,-0.07484,0.00042,-0.000501,0.07484,-0.00042,0.000501,-0.122084,-0.30696,-0.194036,0.142936,-0.31792,-0.188466,-0.127904,-0.64876,-0.1143079999999999,0.123996,-0.6518900000000001,-0.106571,1
66,-0.000486,0.72017,0.0366685,-0.160344,0.46315,0.0345415,-0.386614,0.53853,0.0482485,0.177916,0.47515,0.0423705,0.366716,0.57117,0.0499784999999999,-0.436444,0.73389,-0.0219075,0.399516,0.78971,0.0009754999999999,-0.075045,0.00041,-0.0004434999999999,0.075045,-0.0004099999999999,0.0004434999999999,-0.121414,-0.30172,-0.1973525,0.143696,-0.31232,-0.1927925,-0.127444,-0.63841,-0.1146285,0.124276,-0.64359,-0.1072515,1
67,6.699999999999848e-05,0.719535,0.0343379999999999,-0.159765,0.462745,0.0328129999999999,-0.386445,0.537675,0.0461219999999999,0.1786849999999999,0.474735,0.040775,0.3676649999999999,0.569945,0.047788,-0.435675,0.733035,-0.025056,0.400955,0.782725,-0.0017539999999999,-0.075252,0.000355,-0.00073,0.075252,-0.0003549999999999,0.00073,-0.120755,-0.297295,-0.201652,0.144555,-0.307645,-0.197332,-0.126825,-0.628735,-0.115816,0.124845,-0.6359549999999999,-0.1086739999999999,1
68,0.0004775,0.716785,0.032109,-0.1592114999999999,0.461005,0.0310249999999999,-0.3860915,0.5377149999999999,0.0441169999999999,0.1792885,0.472965,0.039174,0.3682285,0.568435,0.045503,-0.4350515,0.732305,-0.029044,0.4022585,0.773975,-0.0046,-0.0753274999999999,9.500000000001174e-05,-0.00092,0.0753274999999999,-9.4999999999984e-05,0.0009199999999999,-0.1202014999999999,-0.294645,-0.206105,0.1452885,-0.3049849999999999,-0.201475,-0.1261615,-0.620785,-0.11697,0.1252685,-0.629885,-0.109868,1
69,0.000805,0.7141200000000001,0.029854,-0.158642,0.4598,0.0290689999999999,-0.385572,0.53748,0.04205,0.179838,0.47213,0.037414,0.368828,0.56743,0.0430669999999999,-0.434782,0.7317,-0.033176,0.402908,0.77287,-0.007684,-0.075405,3.999999999998449e-05,-0.0011149999999999,0.075405,-4.000000000001225e-05,0.0011149999999999,-0.119722,-0.29166,-0.209576,0.145868,-0.30261,-0.203576,-0.125462,-0.61243,-0.118383,0.125628,-0.62331,-0.111174,1
70,0.0010935,0.7121200000000001,0.027331,-0.1581955,0.45878,0.0269339999999999,-0.3848555,0.53703,0.0397019999999999,0.1802745,0.47145,0.035356,0.3690245,0.5666,0.040247,-0.4348255,0.7308300000000001,-0.037435,0.4036645,0.77206,-0.011167,-0.0755195,1.999999999999225e-05,-0.001291,0.0755195,-1.999999999999225e-05,0.001291,-0.1189255,-0.2883,-0.213609,0.1463745,-0.29972,-0.205809,-0.1244654999999999,-0.6036999999999999,-0.120014,0.1261145,-0.61618,-0.112624,1
71,0.0011664999999999,0.71158,0.0258619999999999,-0.1581035,0.45697,0.025685,-0.3852735,0.53809,0.0380829999999999,0.1804464999999999,0.47128,0.0342409999999999,0.3692265,0.5659799999999999,0.038249,-0.4352835,0.73155,-0.040672,0.4043065,0.77189,-0.013662,-0.0756304999999999,-0.00013,-0.001299,0.0756304999999999,0.0001299999999999,0.001299,-0.1183935,-0.28195,-0.216575,0.1468664999999999,-0.29324,-0.207015,-0.1234635,-0.59527,-0.120019,0.1266064999999999,-0.60818,-0.112985,1
72,0.0011429999999999,0.7110650000000001,0.023977,-0.157976,0.457275,0.024231,-0.385706,0.538795,0.036031,0.181024,0.471055,0.032687,0.3698639999999999,0.5665450000000001,0.035827,-0.435626,0.7319850000000001,-0.0440389999999999,0.405314,0.7730049999999999,-0.0169199999999999,-0.07575,-0.000115,-0.0010569999999999,0.07575,0.000115,0.001057,-0.117916,-0.274805,-0.2167909999999999,0.147194,-0.286095,-0.207471,-0.122246,-0.586225,-0.119656,0.126994,-0.599615,-0.1130839999999999,1
73,0.001442,0.71283,0.01783,-0.157577,0.45999,0.0183969999999999,-0.385437,0.54137,0.029528,0.181823,0.4724699999999999,0.0264679999999999,0.370643,0.57007,0.0289719999999999,-0.4357569999999999,0.73432,-0.051256,0.405863,0.77684,-0.024157,-0.07588,-0.0001099999999999,-0.000863,0.07588,0.0001099999999999,0.0008629999999999,-0.116897,-0.26519,-0.225289,0.147813,-0.27561,-0.2138789999999999,-0.120817,-0.5763,-0.125125,0.127793,-0.5896899999999999,-0.118774,1
74,0.0018559999999999,0.713435,0.0104459999999999,-0.1570039999999999,0.460535,0.011465,-0.384534,0.5413049999999999,0.022025,0.181796,0.474195,0.0192839999999999,0.371366,0.571375,0.0212539999999999,-0.435894,0.734505,-0.05931,0.406996,0.7789550000000001,-0.032597,-0.076057,-0.0002449999999999,-0.000876,0.076057,0.0002449999999999,0.000876,-0.115924,-0.2546049999999999,-0.237912,0.1487959999999999,-0.264185,-0.224942,-0.119464,-0.5651250000000001,-0.130981,0.1287459999999999,-0.5785149999999999,-0.125045,1
75,0.0024139999999999,0.71391,0.0020595,-0.156316,0.46079,0.0036705,-0.383816,0.54141,0.0137175,0.1812039999999999,0.47398,0.0110125,0.371724,0.5712600000000001,0.0128245,-0.436356,0.73353,-0.0682745,0.408704,0.7783100000000001,-0.0420095,-0.076218,-0.0002099999999999,-0.0011985,0.076218,0.00021,0.0011985,-0.114886,-0.24317,-0.2512445,0.149864,-0.25206,-0.2367545,-0.118096,-0.55304,-0.1375325,0.1294439999999999,-0.56643,-0.1321284999999999,1
76,0.003229,0.7142850000000001,-0.006495,-0.1554559999999999,0.461275,-0.0042419999999999,-0.383086,0.540195,0.004904,0.180804,0.473885,0.002617,0.371784,0.570355,0.00424,-0.436736,0.7315449999999999,-0.077295,0.4102039999999999,0.7781750000000001,-0.051981,-0.076271,-0.0001549999999999,-0.0014519999999999,0.076271,0.0001549999999999,0.001452,-0.1141659999999999,-0.230705,-0.264847,0.151124,-0.2389049999999999,-0.249137,-0.116766,-0.5411950000000001,-0.145164,0.129674,-0.553795,-0.1394119999999999,1
77,0.003921,0.714905,-0.0151594999999999,-0.154633,0.461705,-0.0123945,-0.382363,0.538385,-0.0040844999999999,0.180337,0.473735,-0.0059354999999999,0.371957,0.569555,-0.0044575,-0.436953,0.729665,-0.0857165,0.411957,0.776375,-0.0617795,-0.076358,-9.4999999999984e-05,-0.0017485,0.076358,9.500000000001174e-05,0.0017485,-0.113593,-0.217825,-0.2782825,0.152397,-0.225155,-0.2616825,-0.115513,-0.529185,-0.1527795,0.129707,-0.540885,-0.1468155,1
78,0.0045199999999999,0.715105,-0.0240269999999999,-0.1539579999999999,0.461435,-0.0207299999999999,-0.381138,0.536855,-0.0131739999999999,0.179902,0.4741649999999999,-0.0145469999999999,0.371922,0.568125,-0.0130649999999999,-0.436928,0.727695,-0.094495,0.414182,0.774405,-0.0716359999999999,-0.076461,-0.000165,-0.0019059999999999,0.076461,0.0001649999999999,0.001906,-0.113068,-0.204405,-0.29144,0.1536819999999999,-0.210215,-0.27447,-0.114248,-0.5168550000000001,-0.160439,0.129742,-0.527505,-0.154314,1
79,0.0050715,0.71549,-0.0330619999999999,-0.1533855,0.4610799999999999,-0.029543,-0.3801055,0.5358799999999999,-0.022412,0.1794345,0.47289,-0.0236209999999999,0.3721545,0.5662699999999999,-0.0216939999999999,-0.4368755,0.72627,-0.103978,0.4165545,0.77184,-0.081548,-0.0765695,-0.00013,-0.002137,0.0765695,0.0001299999999999,0.002137,-0.1125555,-0.18936,-0.304643,0.1550945,-0.19332,-0.287853,-0.1130855,-0.50332,-0.1687759999999999,0.1297444999999999,-0.51263,-0.162082,1
80,0.0055735,0.715245,-0.042384,-0.1527105,0.461295,-0.03835,-0.3793205,0.534355,-0.031654,0.1787595,0.472645,-0.032788,0.3721195,0.5640350000000001,-0.030305,-0.4368405,0.7243850000000001,-0.113495,0.4189394999999999,0.768305,-0.091358,-0.0767305,-9.500000000001174e-05,-0.00237,0.0767305,9.500000000001174e-05,0.0023699999999999,-0.1121605,-0.174225,-0.31742,0.1563895,-0.176415,-0.30126,-0.1120905,-0.4902249999999999,-0.177165,0.1295995,-0.497965,-0.169727,1
81,0.006186,0.7153400000000001,-0.0516099999999999,-0.152138,0.46134,-0.0472969999999999,-0.377738,0.53269,-0.0410339999999999,0.178192,0.47214,-0.042003,0.372092,0.56182,-0.0388019999999999,-0.436748,0.7226,-0.1232669999999999,0.421522,0.76433,-0.1008729999999999,-0.076934,-0.0001299999999999,-0.0025549999999999,0.076934,0.00013,0.002555,-0.111538,-0.15903,-0.330075,0.1577019999999999,-0.1590499999999999,-0.314395,-0.110958,-0.4773499999999999,-0.1856499999999999,0.129502,-0.48349,-0.177398,1
82,0.006439,0.712615,-0.0563699999999999,-0.151968,0.459045,-0.0518329999999999,-0.376428,0.529195,-0.045846,0.177192,0.470225,-0.04647,0.371812,0.556915,-0.0428399999999999,-0.4370279999999999,0.7187349999999999,-0.128505,0.423452,0.7576849999999999,-0.105622,-0.077222,-0.0003049999999999,-0.0028199999999999,0.077222,0.0003049999999999,0.00282,-0.111148,-0.146125,-0.33785,0.158592,-0.143895,-0.32299,-0.110098,-0.466975,-0.189597,0.128862,-0.471575,-0.1803239999999999,1
83,0.0066425,0.7112750000000001,-0.060705,-0.1518765,0.458855,-0.055769,-0.3753964999999999,0.528635,-0.0502289999999999,0.1764835,0.467835,-0.050484,0.3714735,0.5546150000000001,-0.046562,-0.4371465,0.717385,-0.133613,0.4251635,0.753125,-0.109703,-0.0774675,-0.0002349999999999,-0.003,0.0774675,0.000235,0.003,-0.1106765,-0.133065,-0.34172,0.1591135,-0.1304949999999999,-0.3272,-0.1093665,-0.456465,-0.193365,0.1280635,-0.4602649999999999,-0.1830129999999999,1
84,0.0066864999999999,0.7096,-0.0646509999999999,-0.1518835,0.45797,-0.0596829999999999,-0.3744635,0.5257000000000001,-0.0551069999999999,0.1763865,0.46726,-0.053924,0.3713865,0.55262,-0.0502969999999999,-0.4369335,0.7169300000000001,-0.138981,0.4266465,0.75091,-0.11355,-0.0775515,-0.00028,-0.0030549999999999,0.0775515,0.00028,0.003055,-0.1103335,-0.12011,-0.345205,0.1592065,-0.1175399999999999,-0.330875,-0.1089135,-0.44605,-0.196904,0.1275065,-0.44924,-0.185469,1
85,0.0067719999999999,0.70759,-0.068885,-0.1518739999999999,0.45688,-0.063763,-0.373694,0.5239400000000001,-0.060102,0.176426,0.46631,-0.057511,0.371476,0.5507500000000001,-0.054067,-0.436724,0.71728,-0.145072,0.4277559999999999,0.74799,-0.117166,-0.077637,-0.0003599999999999,-0.00317,0.077637,0.00036,0.00317,-0.1100039999999999,-0.1093899999999999,-0.34837,0.159286,-0.1063599999999999,-0.33416,-0.108304,-0.4363399999999999,-0.200452,0.127466,-0.4384899999999999,-0.1875669999999999,1
86,0.0069235,0.70534,-0.073153,-0.1518575,0.455325,-0.06795,-0.3732375,0.52272,-0.064991,0.1764725,0.4648799999999999,-0.061133,0.3716025,0.54845,-0.057715,-0.4361675,0.71844,-0.151258,0.4288825,0.74695,-0.120954,-0.0777285,-0.00043,-0.00327,0.0777285,0.0004299999999999,0.0032699999999999,-0.1096775,-0.10074,-0.35141,0.1591425,-0.0962,-0.33738,-0.1079375,-0.42719,-0.204056,0.1277125,-0.42806,-0.189496,1
87,0.0072265,0.7035,-0.07716,-0.1518044999999999,0.454227,-0.0719289999999999,-0.3724145,0.52084,-0.0696799999999999,0.1764155,0.462725,-0.064654,0.3718855,0.54673,-0.061292,-0.4354044999999999,0.7196,-0.156888,0.4298255,0.74687,-0.124541,-0.0778855,-0.0003699999999999,-0.003525,0.0778855,0.00037,0.003525,-0.1091145,-0.0913199999999999,-0.354305,0.1589355,-0.0855999999999999,-0.340265,-0.1076844999999999,-0.4181399999999999,-0.207147,0.1278855,-0.41772,-0.191604,1
88,0.007382,0.701695,-0.080919,-0.151847,0.453248,-0.075493,-0.372387,0.518725,-0.074064,0.176013,0.461799,-0.067699,0.372003,0.545365,-0.064587,-0.435467,0.717095,-0.161914,0.430693,0.747815,-0.127959,-0.078158,-0.000365,-0.00373,0.078158,0.000365,0.0037299999999999,-0.108217,-0.082305,-0.35684,0.158573,-0.075815,-0.34268,-0.107017,-0.409935,-0.209377,0.128023,-0.408195,-0.193294,1
89,0.0074884999999999,0.700135,-0.084478,-0.1518895,0.452163,-0.078981,-0.3726695,0.516265,-0.078743,0.1755805,0.460712,-0.070801,0.3720405,0.544205,-0.067811,-0.4355395,0.714645,-0.166927,0.4307505,0.746195,-0.131233,-0.0784665,-0.0003449999999999,-0.003915,0.0784665,0.000345,0.003915,-0.1071995,-0.0728149999999999,-0.359305,0.1581304999999999,-0.0659849999999999,-0.345065,-0.1063895,-0.4015149999999999,-0.211555,0.1279905,-0.3986649999999999,-0.195035,1
90,0.007558,0.69842,-0.087958,-0.151956,0.451219,-0.082179,-0.373056,0.51471,-0.083038,0.175084,0.459886,-0.0735919999999999,0.371754,0.54303,-0.070687,-0.435666,0.71279,-0.17157,0.431424,0.74475,-0.1343099999999999,-0.078757,-0.0003599999999999,-0.004055,0.078757,0.00036,0.004055,-0.106076,-0.0630299999999999,-0.361545,0.157644,-0.05624,-0.347175,-0.105776,-0.39319,-0.213575,0.128164,-0.38936,-0.197173,1
91,0.0076539999999999,0.69641,-0.090983,-0.151913,0.450018,-0.0850559999999999,-0.3727129999999999,0.513339,-0.086841,0.174707,0.4587509999999999,-0.075937,0.3715469999999999,0.54176,-0.072908,-0.435583,0.7107699999999999,-0.175746,0.432177,0.74335,-0.136743,-0.079096,-0.00026,-0.004145,0.079096,0.0002599999999999,0.004145,-0.104823,-0.05214,-0.363455,0.157117,-0.04543,-0.348865,-0.105013,-0.3837,-0.215006,0.128327,-0.3789600000000001,-0.198457,1
92,0.007781,0.694365,-0.0934129999999999,-0.1518769999999999,0.448879,-0.0875669999999999,-0.372047,0.51163,-0.0902119999999999,0.174313,0.458142,-0.0780169999999999,0.371283,0.5404950000000001,-0.0746349999999999,-0.4359269999999999,0.708395,-0.1794949999999999,0.432883,0.742065,-0.1385539999999999,-0.079362,-0.0002349999999999,-0.0041749999999999,0.079362,0.000235,0.004175,-0.1034669999999999,-0.0412649999999999,-0.3651649999999999,0.156593,-0.0346249999999999,-0.350315,-0.104377,-0.3741449999999999,-0.2162579999999999,0.128543,-0.368675,-0.1994859999999999,1
93,0.0078365,0.69255,-0.0954079999999999,-0.1518924999999999,0.44838,-0.0894089999999999,-0.3722225,0.511565,-0.092514,0.1737975,0.457466,-0.079624,0.3710175,0.53897,-0.075866,-0.4366325,0.70558,-0.182078,0.4326675,0.7401500000000001,-0.139619,-0.0796475,-0.0002199999999999,-0.0042699999999999,0.0796475,0.0002199999999999,0.0042699999999999,-0.1023225,-0.0311599999999999,-0.36636,0.1561375,-0.0247299999999999,-0.35129,-0.1044124999999999,-0.3652799999999999,-0.2176239999999999,0.1288375,-0.35909,-0.200351,1
94,0.0079585,0.69112,-0.096754,-0.1518165,0.4474149999999999,-0.090619,-0.3723065,0.509768,-0.093884,0.1733835,0.457182,-0.080629,0.3707335,0.538111,-0.076528,-0.4372165,0.70134,-0.1832949999999999,0.4322235,0.73855,-0.140458,-0.0799245,-0.00019,-0.0043499999999999,0.0799245,0.0001899999999999,0.0043499999999999,-0.1012065,-0.02169,-0.36713,0.1558435,-0.01544,-0.3517599999999999,-0.1043264999999999,-0.35661,-0.218497,0.1296235,-0.35011,-0.200746,1
95,0.0081039999999999,0.6900700000000001,-0.097675,-0.151733,0.446883,-0.091291,-0.372173,0.508256,-0.094717,0.172877,0.456797,-0.081193,0.370487,0.537328,-0.076844,-0.437793,0.69664,-0.183636,0.431677,0.7365200000000001,-0.141033,-0.080179,-0.0001399999999999,-0.00439,0.080179,0.00014,0.00439,-0.100063,-0.0119299999999999,-0.3675,0.1555969999999999,-0.0059199999999999,-0.35183,-0.104233,-0.34741,-0.218691,0.1305069999999999,-0.3407899999999999,-0.200767,1
96,0.0083224999999999,0.688725,-0.098597,-0.1515335,0.4462819999999999,-0.091856,-0.3726434999999999,0.5075109999999999,-0.095456,0.1722965,0.4560269999999999,-0.081756,0.3703265,0.5362169999999999,-0.077109,-0.4381735,0.692465,-0.184239,0.4324565,0.734175,-0.141319,-0.0803285,-5.000000000032756e-06,-0.0044,0.0803285,4.999999999977245e-06,0.0043999999999999,-0.0990335,-0.001995,-0.36779,0.1554164999999999,0.0038949999999999,-0.35169,-0.1040735,-0.337615,-0.218802,0.1315665,-0.331135,-0.200811,1
97,0.0086279999999999,0.68719,-0.099636,-0.151271,0.44519,-0.092419,-0.373031,0.506641,-0.096245,0.171969,0.4554269999999999,-0.08237,0.370329,0.5350229999999999,-0.077402,-0.438641,0.6917899999999999,-0.185017,0.433419,0.73197,-0.141656,-0.080571,-3.0000000000030003e-05,-0.00442,0.080571,2.999999999997449e-05,0.00442,-0.097901,0.0076299999999999,-0.36805,0.155469,0.0133799999999999,-0.35161,-0.104171,-0.3281,-0.2191989999999999,0.132819,-0.32181,-0.20132,1
98,0.0088839999999999,0.68537,-0.100637,-0.151107,0.444285,-0.092944,-0.3733869999999999,0.505595,-0.096584,0.171703,0.4548169999999999,-0.082783,0.370573,0.533351,-0.077712,-0.4392169999999999,0.69067,-0.185806,0.434383,0.73308,-0.141852,-0.080855,-3.0000000000030003e-05,-0.0044399999999999,0.080855,2.999999999997449e-05,0.0044399999999999,-0.096757,0.0170199999999999,-0.36831,0.155573,0.0225999999999999,-0.35158,-0.105217,-0.31881,-0.219859,0.134043,-0.31283,-0.202659,1
99,0.0091944999999999,0.68361,-0.101201,-0.1509154999999999,0.443474,-0.093061,-0.3737955,0.504935,-0.096383,0.1715445,0.454554,-0.082709,0.3710545,0.532244,-0.077666,-0.4394355,0.68977,-0.186159,0.4355645,0.73183,-0.141504,-0.0810945,-2.999999999997449e-05,-0.004545,0.0810945,3.0000000000030003e-05,0.0045449999999999,-0.0954855,0.02769,-0.368205,0.1559145,0.0332,-0.351225,-0.1093455,-0.30996,-0.224031,0.1356545,-0.3026099999999999,-0.204003,1
100,0.00942,0.6826199999999999,-0.101104,-0.150768,0.4429149999999999,-0.092401,-0.374438,0.5036939999999999,-0.095522,0.171322,0.4539699999999999,-0.082065,0.371552,0.5312209999999999,-0.077047,-0.4396879999999999,0.6894999999999999,-0.185978,0.436622,0.7307499999999999,-0.140391,-0.081395,9.99999999995449e-06,-0.0045699999999999,0.081395,-1.0000000000065512e-05,0.0045699999999999,-0.094418,0.0379899999999999,-0.36741,0.156312,0.0434499999999999,-0.35046,-0.1134679999999999,-0.3016200000000001,-0.227418,0.137372,-0.2932800000000001,-0.205118,1
101,0.0096224999999999,0.682185,-0.100407,-0.1506705,0.442331,-0.0912609999999999,-0.3750504999999999,0.502511,-0.094243,0.1711095,0.453452,-0.0809299999999999,0.3721995,0.530143,-0.0759699999999999,-0.4395104999999999,0.6895450000000001,-0.185396,0.4369595,0.729725,-0.1387729999999999,-0.0817104999999999,5.000000000032756e-06,-0.0047399999999999,0.0817104999999999,-5.000000000032756e-06,0.00474,-0.0934105,0.048165,-0.3661999999999999,0.1565794999999999,0.053445,-0.34899,-0.1178005,-0.293775,-0.2308529999999999,0.1390995,-0.284475,-0.2056739999999999,1
102,0.0097645,0.681165,-0.099266,-0.1506725,0.441687,-0.089777,-0.3753824999999999,0.5013650000000001,-0.09256,0.1709675,0.453223,-0.079402,0.3728375,0.529694,-0.0743679999999999,-0.4394025,0.689625,-0.183789,0.4376974999999999,0.729715,-0.136676,-0.0820185,4.500000000007276e-05,-0.0048199999999999,0.0820185,-4.499999999996174e-05,0.0048199999999999,-0.0924925,0.058155,-0.3646,0.1568475,0.063225,-0.3471499999999999,-0.1222625,-0.286185,-0.23432,0.1405575,-0.276215,-0.2060239999999999,1
103,0.009838,0.68008,-0.097905,-0.150739,0.44174,-0.088202,-0.375619,0.501985,-0.090758,0.170771,0.452977,-0.077817,0.373291,0.5296160000000001,-0.072645,-0.4393189999999999,0.69143,-0.181213,0.438351,0.7300500000000001,-0.134486,-0.082296,0.00011,-0.0049099999999999,0.082296,-0.0001099999999999,0.0049099999999999,-0.091719,0.06789,-0.3627,0.157031,0.0728,-0.34514,-0.126829,-0.27893,-0.23778,0.1415809999999999,-0.2683599999999999,-0.206499,1
104,0.0099365,0.6788600000000001,-0.09643,-0.1510165,0.4415200000000001,-0.086565,-0.3753765,0.5026020000000001,-0.089003,0.1707235,0.4530800000000001,-0.076181,0.3738135,0.5299190000000001,-0.07054,-0.4390064999999999,0.6923400000000001,-0.17861,0.4386735,0.7306600000000001,-0.132383,-0.0825295,0.00011,-0.00498,0.0825295,-0.0001099999999999,0.0049799999999999,-0.0909965,0.0776600000000001,-0.3608,0.1573335,0.0824400000000001,-0.34301,-0.1313365,-0.2716099999999999,-0.24122,0.1426035,-0.2605699999999998,-0.207087,1
105,0.0099909999999999,0.6780299999999999,-0.094598,-0.151426,0.4412999999999999,-0.084707,-0.374796,0.501614,-0.087064,0.170764,0.4532999999999999,-0.074201,0.374304,0.5305209999999999,-0.068455,-0.438896,0.69167,-0.175882,0.438484,0.73073,-0.130005,-0.082735,2.999999999997449e-05,-0.005065,0.082735,-3.0000000000085517e-05,0.0050649999999999,-0.090416,0.0863099999999999,-0.358705,0.157634,0.0909399999999999,-0.3407449999999999,-0.135376,-0.26534,-0.244055,0.143714,-0.25593,-0.209102,1
106,0.010061,0.67747,-0.0927069999999999,-0.151871,0.44152,-0.0828319999999999,-0.374431,0.500739,-0.0851529999999999,0.170899,0.45359,-0.0721549999999999,0.374689,0.531301,-0.0663769999999999,-0.438581,0.69103,-0.173809,0.4385489999999999,0.73035,-0.1275309999999999,-0.082845,7.00000000000145e-05,-0.0051099999999999,0.082845,-7.00000000000145e-05,0.00511,-0.090031,0.0946299999999999,-0.3565199999999999,0.157949,0.09922,-0.3382199999999999,-0.139341,-0.2594499999999999,-0.24672,0.1449089999999999,-0.2514499999999999,-0.212272,1
107,0.010116,0.6772400000000001,-0.090671,-0.152383,0.4419100000000001,-0.080733,-0.374063,0.5002040000000001,-0.082978,0.1711369999999999,0.4541300000000001,-0.0698439999999999,0.375237,0.5318130000000001,-0.0640429999999999,-0.437973,0.69071,-0.171331,0.438527,0.72872,-0.124886,-0.082859,0.00014,-0.0050899999999999,0.082859,-0.0001399999999999,0.00509,-0.089673,0.10291,-0.35414,0.158347,0.10745,-0.3356,-0.142513,-0.2536599999999999,-0.24822,0.146087,-0.2468999999999999,-0.2150699999999999,1
108,0.009922,0.677055,-0.088814,-0.1530129999999999,0.4420249999999999,-0.079056,-0.3740529999999999,0.4989689999999999,-0.081311,0.171127,0.4544349999999999,-0.067974,0.375497,0.5315929999999999,-0.0620859999999999,-0.4377729999999999,0.689595,-0.169562,0.438497,0.7290649999999999,-0.122825,-0.082842,0.0001749999999999,-0.0050299999999999,0.082842,-0.000175,0.0050299999999999,-0.089613,0.1098449999999999,-0.35221,0.158437,0.1142649999999999,-0.33335,-0.143093,-0.247075,-0.24644,0.146707,-0.2430550000000001,-0.217858,1
109,0.0097269999999999,0.676702,-0.0873809999999999,-0.153658,0.44256,-0.077786,-0.374178,0.497157,-0.080061,0.1710819999999999,0.45454,-0.066509,0.375712,0.531183,-0.0605179999999999,-0.437598,0.68739,-0.168432,0.438422,0.72889,-0.120895,-0.0827779999999999,0.00021,-0.0050549999999999,0.0827779999999999,-0.00021,0.0050549999999999,-0.0895779999999999,0.11625,-0.3506849999999999,0.158462,0.1205999999999999,-0.3313149999999999,-0.143818,-0.2410799999999999,-0.245045,0.1472119999999999,-0.2394199999999999,-0.220501,1
110,0.0095605,0.6759539999999999,-0.086239,-0.1541405,0.443005,-0.076823,-0.3737605,0.4953379999999999,-0.079246,0.1710395,0.454715,-0.065254,0.3758595,0.530737,-0.059085,-0.4375605,0.684865,-0.167717,0.4383395,0.7287049999999999,-0.119102,-0.0827295,0.0002949999999999,-0.0050349999999999,0.0827295,-0.000295,0.0050349999999999,-0.0895205,0.1223849999999999,-0.349395,0.1584695,0.1266449999999999,-0.329395,-0.1443505,-0.235375,-0.244035,0.1477195,-0.235725,-0.223295,1
111,0.009382,0.676006,-0.085205,-0.154378,0.4422699999999999,-0.076186,-0.373028,0.49415,-0.078912,0.171182,0.4556899999999999,-0.064235,0.376092,0.530716,-0.057957,-0.437768,0.682869,-0.167019,0.437662,0.7287699999999999,-0.117785,-0.082686,6.999999999990347e-05,-0.0050899999999999,0.082686,-7.00000000000145e-05,0.0050899999999999,-0.089618,0.1282599999999999,-0.34741,0.158432,0.1332299999999999,-0.32723,-0.144668,-0.22947,-0.2428199999999999,0.148312,-0.23137,-0.22594,1
112,0.0092015,0.676094,-0.084412,-0.1545655,0.441685,-0.075737,-0.3721255,0.493245,-0.078854,0.1713445,0.4566949999999999,-0.063365,0.3762745,0.530633,-0.057093,-0.4379555,0.680809,-0.166395,0.4370445,0.728785,-0.116991,-0.0825964999999999,-0.000155,-0.0051849999999999,0.0825964999999999,0.000155,0.0051849999999999,-0.0897854999999999,0.134065,-0.345395,0.1582045,0.139535,-0.324935,-0.1449655,-0.223685,-0.241915,0.1487445,-0.2270649999999999,-0.228715,1
113,0.0089944999999999,0.6763509999999999,-0.08366,-0.1546575,0.4411799999999999,-0.075228,-0.3710075,0.4916699999999999,-0.078761,0.1715625,0.4579399999999999,-0.062394,0.3764225,0.53053,-0.056196,-0.4380874999999999,0.6801759999999999,-0.165735,0.4363625,0.72891,-0.116307,-0.0824815,-0.00039,-0.005285,0.0824815,0.00039,0.0052849999999999,-0.0899275,0.1395999999999999,-0.342975,0.1579424999999999,0.1454699999999999,-0.322325,-0.1452075,-0.21797,-0.240985,0.1492525,-0.22303,-0.231255,1
114,0.0087989999999999,0.6765,-0.083109,-0.15475,0.4405399999999999,-0.0749799999999999,-0.37003,0.4909399999999999,-0.07879,0.17191,0.4590899999999999,-0.061609,0.37654,0.530316,-0.055563,-0.43832,0.679156,-0.16546,0.43565,0.72895,-0.116068,-0.082347,-0.00059,-0.00532,0.082347,0.0005899999999999,0.00532,-0.08996,0.1449099999999999,-0.34067,0.15763,0.1509999999999999,-0.31981,-0.14546,-0.21223,-0.24018,0.14942,-0.21798,-0.2314,1
115,0.0085935,0.676649,-0.0826609999999999,-0.1548515,0.4397799999999999,-0.0747489999999999,-0.3701015,0.4906199999999999,-0.0788619999999999,0.1722085,0.4603399999999999,-0.0608129999999999,0.3765685,0.530106,-0.0550949999999999,-0.4386415,0.6790689999999999,-0.1652159999999999,0.4349885,0.7288399999999999,-0.11585,-0.0822065,-0.0008299999999999,-0.0053199999999999,0.0822065,0.0008299999999999,0.00532,-0.0900815,0.1497599999999999,-0.33851,0.1573585,0.15596,-0.31725,-0.1457915,-0.20708,-0.2394099999999999,0.1495585,-0.21359,-0.23119,1
116,0.008476,0.6766420000000001,-0.082466,-0.1548709999999999,0.4388350000000001,-0.0747,-0.369911,0.4901150000000001,-0.079162,0.172559,0.461495,-0.060208,0.3764889999999999,0.5308090000000001,-0.05504,-0.438721,0.678053,-0.165161,0.4341089999999999,0.7296750000000001,-0.115853,-0.082081,-0.0011249999999999,-0.005315,0.082081,0.001125,0.005315,-0.090171,0.153965,-0.336505,0.157179,0.160265,-0.314945,-0.146031,-0.2025949999999999,-0.238665,0.149729,-0.2098649999999999,-0.231115,1
117,0.008342,0.6767369999999999,-0.0823609999999999,-0.154793,0.4381499999999999,-0.074656,-0.369763,0.4900699999999999,-0.079427,0.172907,0.4627299999999999,-0.0597059999999999,0.376377,0.5319559999999999,-0.055006,-0.438933,0.677661,-0.165397,0.433377,0.7309699999999999,-0.115914,-0.081963,-0.00135,-0.0053099999999999,0.081963,0.0013499999999999,0.0053099999999999,-0.090263,0.1579999999999999,-0.33447,0.157007,0.1643599999999999,-0.31266,-0.146263,-0.1980900000000001,-0.2379,0.150097,-0.2057200000000001,-0.23104,1
118,0.0083049999999999,0.6771499999999999,-0.082333,-0.154583,0.4371849999999999,-0.074615,-0.369523,0.490475,-0.079682,0.173277,0.464255,-0.059311,0.376277,0.5333479999999999,-0.054983,-0.439143,0.678256,-0.165792,0.432557,0.7324649999999999,-0.116363,-0.08183,-0.0016249999999999,-0.00527,0.08183,0.0016249999999999,0.0052699999999999,-0.090353,0.161385,-0.33232,0.157007,0.1677449999999999,-0.31069,-0.146423,-0.194385,-0.23723,0.150577,-0.202175,-0.23098,1
119,0.0080994999999999,0.6778989999999999,-0.0824729999999999,-0.1544095,0.4360149999999999,-0.074712,-0.3694395,0.4910949999999999,-0.080043,0.1734405,0.4659449999999999,-0.059178,0.3761005,0.5349929999999999,-0.055307,-0.4397594999999999,0.678562,-0.166601,0.4317205,0.733995,-0.117502,-0.0816695,-0.001935,-0.00532,0.0816695,0.001935,0.00532,-0.0905795,0.1639749999999999,-0.33045,0.1569205,0.170535,-0.30922,-0.1467495,-0.191325,-0.23701,0.1508605,-0.199065,-0.23104,1
120,0.008028,0.6784089999999999,-0.0826689999999999,-0.154422,0.4365249999999999,-0.074871,-0.369072,0.490935,-0.0802259999999999,0.173458,0.4664549999999999,-0.0591989999999999,0.376068,0.535503,-0.055706,-0.440062,0.677732,-0.1673609999999999,0.431178,0.734505,-0.118688,-0.081637,-0.001835,-0.0052949999999999,0.081637,0.001835,0.005295,-0.090652,0.1645749999999999,-0.330195,0.1570679999999999,0.1711849999999999,-0.308955,-0.146952,-0.1903949999999999,-0.236785,0.1510079999999999,-0.198555,-0.2309749999999999,1
121,0.0078455,0.6784089999999999,-0.082897,-0.1544455,0.4365249999999999,-0.075183,-0.3695055,0.490935,-0.080549,0.1733644999999999,0.4664549999999999,-0.059289,0.3762945,0.535503,-0.056272,-0.4406055,0.677732,-0.168049,0.4309044999999999,0.734505,-0.120187,-0.0816745,-0.001835,-0.005335,0.0816745,0.001835,0.0053349999999999,-0.0907454999999999,0.164875,-0.330285,0.1572045,0.171365,-0.309025,-0.1470655,-0.190245,-0.236625,0.1509045,-0.198195,-0.230925,1
122,0.0076625,0.6784089999999999,-0.083034,-0.1542585,0.4365249999999999,-0.075467,-0.3700185,0.490935,-0.0808359999999999,0.1732715,0.4665749999999999,-0.059369,0.3762514999999999,0.5358729999999999,-0.057,-0.4414085,0.677732,-0.168768,0.4309214999999999,0.734945,-0.121823,-0.0817245,-0.001835,-0.0053349999999999,0.0817245,0.001835,0.005335,-0.0908384999999999,0.164875,-0.330365,0.1573415,0.171365,-0.309085,-0.1469985,-0.190245,-0.236725,0.1507915,-0.197825,-0.230845,1
123,0.0075339999999999,0.678746,-0.083521,-0.154035,0.4378649999999999,-0.075732,-0.370925,0.490955,-0.081261,0.173255,0.4666049999999999,-0.05951,0.376285,0.536095,-0.057824,-0.441985,0.677839,-0.169605,0.431045,0.734945,-0.123894,-0.081692,-0.001835,-0.005365,0.081692,0.001835,0.0053649999999999,-0.090865,0.1646949999999999,-0.330405,0.157495,0.1711849999999999,-0.309115,-0.146945,-0.189995,-0.236365,0.150755,-0.197645,-0.230685,1
124,0.0071404999999999,0.678708,-0.08415,-0.1539765,0.4380449999999999,-0.076529,-0.3716865,0.4911949999999999,-0.082126,0.1730435,0.465715,-0.0605,0.3760835,0.5366949999999999,-0.058526,-0.4429465,0.677384,-0.170405,0.4309635,0.735305,-0.124857,-0.0817895,-0.0017949999999999,-0.00532,0.0817895,0.0017949999999999,0.0053199999999999,-0.0910365,0.1606049999999999,-0.3319499999999999,0.1574035,0.1671549999999999,-0.3107999999999999,-0.1469665,-0.193595,-0.23664,0.1501835,-0.199035,-0.22846,1
125,0.0066365,0.679008,-0.085475,-0.1539865,0.438255,-0.078347,-0.3727465,0.491475,-0.0835849999999999,0.1731035,0.464195,-0.0621909999999999,0.3758735,0.536033,-0.0598299999999999,-0.4438165,0.677915,-0.171757,0.4307635,0.734125,-0.126159,-0.0818615,-0.0015349999999999,-0.0056249999999999,0.0818615,0.0015349999999999,0.005625,-0.0913465,0.152445,-0.3340349999999999,0.1573835,0.159075,-0.313725,-0.1465965,-0.201295,-0.237675,0.1493835,-0.204565,-0.226265,1
126,0.005754,0.681282,-0.087271,-0.154264,0.439995,-0.080239,-0.374584,0.493235,-0.0854439999999999,0.172856,0.464325,-0.064345,0.375246,0.537046,-0.061606,-0.445104,0.679146,-0.173582,0.430886,0.734005,-0.12788,-0.081718,-0.0013349999999999,-0.00557,0.081718,0.0013349999999999,0.0055699999999999,-0.092124,0.141075,-0.33637,0.1571759999999999,0.147835,-0.31753,-0.143874,-0.209535,-0.23547,0.148216,-0.212835,-0.22398,1
127,0.0049284999999999,0.685817,-0.0891859999999999,-0.1545025,0.44366,-0.08215,-0.3762225,0.496821,-0.087399,0.1726275,0.46577,-0.0665709999999999,0.3744475,0.539783,-0.063554,-0.4462125,0.684502,-0.175553,0.4311375,0.73617,-0.129751,-0.0813545,-0.0009599999999999,-0.0055699999999999,0.0813545,0.0009599999999999,0.0055699999999999,-0.0929825,0.12329,-0.3386599999999999,0.1567475,0.13007,-0.32139,-0.1398225,-0.2241999999999999,-0.23276,0.1461675,-0.22689,-0.219621,1
128,0.004145,0.68673,-0.091002,-0.154698,0.4432299999999999,-0.084077,-0.3777279999999999,0.4958109999999999,-0.08941,0.172382,0.4639699999999999,-0.068545,0.3739519999999999,0.539217,-0.065319,-0.4473979999999999,0.68385,-0.177233,0.431682,0.7378699999999999,-0.131623,-0.080985,-0.00086,-0.0053549999999999,0.080985,0.0008599999999999,0.0053549999999999,-0.093848,0.0990299999999999,-0.340815,0.156102,0.1061699999999999,-0.324955,-0.135618,-0.2451400000000001,-0.229875,0.144112,-0.2472400000000001,-0.215403,1
129,0.0033829999999999,0.6906,-0.091365,-0.1548379999999999,0.445288,-0.084869,-0.379058,0.4984159999999999,-0.090096,0.172182,0.463938,-0.0693669999999999,0.373162,0.540333,-0.0653509999999999,-0.4486779999999999,0.68586,-0.17747,0.431702,0.7384,-0.132027,-0.080571,-0.00077,-0.0052899999999999,0.080571,0.00077,0.00529,-0.095078,0.0717999999999999,-0.34151,0.155312,0.07876,-0.32579,-0.131168,-0.2698399999999999,-0.225547,0.142062,-0.27085,-0.209939,1
130,0.0025565,0.69372,-0.091096,-0.1550225,0.4470409999999999,-0.085341,-0.3790024999999999,0.499889,-0.090132,0.1719175,0.4632239999999999,-0.069845,0.3725375,0.5407379999999999,-0.064599,-0.4500325,0.68741,-0.176211,0.4320975,0.73834,-0.13093,-0.0801255,-0.00056,-0.005185,0.0801255,0.00056,0.0051849999999999,-0.0964025,0.0433199999999999,-0.342065,0.1540774999999999,0.0504699999999999,-0.326345,-0.1267125,-0.29563,-0.220771,0.1394975,-0.29506,-0.20406,1
131,0.001927,0.6968,-0.090454,-0.155081,0.4491809999999999,-0.085536,-0.379461,0.5016849999999999,-0.089745,0.171819,0.4630879999999999,-0.070087,0.372209,0.540947,-0.063321,-0.4509809999999999,0.68938,-0.175222,0.432149,0.73824,-0.128956,-0.079689,-0.00042,-0.005195,0.079689,0.0004199999999999,0.005195,-0.097651,0.0129399999999999,-0.342395,0.152829,0.0203199999999999,-0.326675,-0.1220909999999999,-0.32255,-0.215657,0.1369989999999999,-0.32113,-0.197948,1
132,0.0013299999999999,0.70095,-0.088499,-0.1549829999999999,0.449586,-0.085173,-0.379673,0.50484,-0.0882169999999999,0.1719069999999999,0.4636109999999999,-0.069629,0.371897,0.5425899999999999,-0.0610089999999999,-0.451923,0.6927,-0.173132,0.432297,0.7400899999999999,-0.1249629999999999,-0.07932,-0.00041,-0.0051449999999999,0.07932,0.0004099999999999,0.005145,-0.098873,-0.02213,-0.342075,0.1515869999999999,-0.01563,-0.326655,-0.117433,-0.35643,-0.21014,0.134537,-0.3539800000000001,-0.191562,1
133,0.000781,0.706185,-0.08629,-0.154797,0.452001,-0.084557,-0.380957,0.506085,-0.08669,0.172123,0.46592,-0.068884,0.371403,0.544735,-0.058401,-0.452597,0.694325,-0.170049,0.432463,0.742385,-0.120636,-0.078993,-0.000385,-0.005095,0.078993,0.0003849999999999,0.0050949999999999,-0.100047,-0.054635,-0.341275,0.150453,-0.048885,-0.3262049999999999,-0.112707,-0.388235,-0.204382,0.132593,-0.387305,-0.187511,1
134,0.0003564999999999,0.711355,-0.083791,-0.1546084999999999,0.45446,-0.083943,-0.3816385,0.507925,-0.085065,0.1723615,0.4684399999999999,-0.068226,0.3708415,0.549385,-0.055576,-0.4531385,0.696795,-0.167009,0.4327815,0.749605,-0.116072,-0.0785585,-0.000475,-0.00503,0.0785585,0.000475,0.0050299999999999,-0.1012285,-0.084735,-0.34018,0.1493114999999999,-0.079775,-0.32513,-0.1085785,-0.418125,-0.198234,0.1308915,-0.418715,-0.184157,1
135,0.0002065,0.71513,-0.0806149999999999,-0.1542135,0.45523,-0.082423,-0.3818635,0.50857,-0.082646,0.1729765,0.46947,-0.066662,0.3708665,0.55174,-0.0519259999999999,-0.4535535,0.69783,-0.163304,0.4332065,0.75303,-0.1104319999999999,-0.0782505,-0.00047,-0.0051649999999999,0.0782505,0.0004699999999999,0.005165,-0.1023835,-0.1140499999999999,-0.337445,0.1482565,-0.11036,-0.322245,-0.1072635,-0.45133,-0.1960339999999999,0.1294265,-0.45121,-0.18066,1
136,0.0001515,0.71687,-0.076632,-0.1536855,0.45455,-0.079853,-0.3818555,0.50848,-0.079113,0.1738945,0.46913,-0.063574,0.3705545,0.55203,-0.047775,-0.4539154999999999,0.6981900000000001,-0.158782,0.4330445,0.75373,-0.104541,-0.0776014999999999,-0.00067,-0.005245,0.0776014999999999,0.00067,0.005245,-0.1033655,-0.1384699999999999,-0.331895,0.1478845,-0.1357399999999999,-0.316785,-0.1066955,-0.4802999999999999,-0.193024,0.1294745,-0.4797,-0.178373,1
137,-9.90000000000036e-05,0.72226,-0.071385,-0.153392,0.45739,-0.075647,-0.381452,0.51291,-0.074235,0.174228,0.47262,-0.059164,0.370418,0.55567,-0.042455,-0.454352,0.7034,-0.15316,0.432718,0.75481,-0.09753,-0.077043,-0.0006499999999999,-0.0053,0.077043,0.0006499999999999,0.0052999999999999,-0.104622,-0.1566199999999999,-0.32524,0.147468,-0.15525,-0.30933,-0.106352,-0.50418,-0.188961,0.129358,-0.50327,-0.175047,1
138,-0.0002824999999999,0.724935,-0.065577,-0.1529665,0.457605,-0.07081,-0.3811164999999999,0.513335,-0.068747,0.1745634999999999,0.474315,-0.05406,0.3704835,0.557865,-0.03675,-0.4546765,0.704025,-0.146768,0.4318235,0.7572349999999999,-0.089714,-0.0763895,-0.0006249999999999,-0.005125,0.0763895,0.0006249999999999,0.0051249999999999,-0.1055865,-0.172835,-0.317355,0.1469435,-0.172935,-0.300145,-0.1061565,-0.5277750000000001,-0.183994,0.1292135,-0.525835,-0.171048,1
139,-0.0002275,0.7287,-0.0597749999999999,-0.1523555,0.45833,-0.065886,-0.3801555,0.5139400000000001,-0.0632419999999999,0.1750545,0.47703,-0.0489649999999999,0.3707145,0.5611900000000001,-0.0311539999999999,-0.4553655,0.70377,-0.140419,0.4313944999999999,0.7633300000000001,-0.082188,-0.0760645,-0.0007599999999999,-0.00476,0.0760645,0.00076,0.00476,-0.1063655,-0.1895799999999999,-0.30901,0.1465545,-0.1908999999999999,-0.29024,-0.1060055,-0.55133,-0.179126,0.1292545,-0.54938,-0.1666949999999999,1
140,-0.000452,0.7320749999999999,-0.0528099999999999,-0.152019,0.458875,-0.0598029999999999,-0.379669,0.514595,-0.0565909999999999,0.175291,0.478985,-0.042878,0.370301,0.564735,-0.0245179999999999,-0.455759,0.703775,-0.1328119999999999,0.4314309999999999,0.767645,-0.073632,-0.075684,-0.0007949999999999,-0.0049299999999999,0.075684,0.0007949999999999,0.00493,-0.107389,-0.2050249999999999,-0.2990899999999999,0.146141,-0.2078549999999999,-0.2790399999999999,-0.106319,-0.5739650000000001,-0.1725689999999999,0.129081,-0.572365,-0.161568,1
141,-0.0006515,0.734355,-0.0477524999999999,-0.1518155,0.460855,-0.0546544999999999,-0.3789355,0.514815,-0.0513084999999999,0.1753445,0.480415,-0.0381904999999999,0.3699745,0.566365,-0.0194265,-0.4559955,0.703495,-0.1267945,0.4311945,0.769515,-0.0675025,-0.0754865,-0.000805,-0.0049484999999999,0.0754865,0.000805,0.0049485,-0.1084055,-0.216025,-0.2902915,0.1459045,-0.218855,-0.2698615,-0.1066655,-0.590225,-0.1671905,0.1289644999999999,-0.588695,-0.1570565,1
142,-0.0009969999999999,0.736425,-0.0427375,-0.151777,0.4616349999999999,-0.0499535,-0.378227,0.515435,-0.0459895,0.175283,0.481145,-0.0335645,0.369773,0.567475,-0.0144415,-0.456837,0.7035049999999999,-0.1210455,0.430463,0.770775,-0.0617605,-0.075043,-0.000815,-0.0049265,0.075043,0.0008149999999999,0.0049265,-0.109357,-0.226315,-0.2815235,0.145853,-0.229195,-0.2606135,-0.106857,-0.605325,-0.1617245,0.128863,-0.604155,-0.1513565,1
143,-0.001459,0.73872,-0.0379185,-0.151847,0.46198,-0.0453915,-0.377727,0.51587,-0.0406045,0.175103,0.48204,-0.0290095,0.369583,0.56701,-0.0095055,-0.457857,0.70227,-0.1144915,0.429713,0.7682,-0.0556705,-0.074604,-0.00089,-0.0047535,0.074604,0.00089,0.0047534999999999,-0.110267,-0.23629,-0.2723975,0.145473,-0.23906,-0.2514775,-0.107217,-0.62026,-0.1563395,0.128793,-0.61887,-0.1456675,1
144,-0.0019135,0.7399749999999999,-0.0339435,-0.1518894999999999,0.4624549999999999,-0.0413855,-0.3773495,0.517325,-0.0356885,0.1748805,0.482345,-0.0250165,0.3693904999999999,0.567405,-0.0053655,-0.4585395,0.703735,-0.1083105,0.4292705,0.7687849999999999,-0.0504955,-0.0740494999999999,-0.0009649999999999,-0.0045615,0.0740494999999999,0.0009649999999999,0.0045614999999999,-0.1112295,-0.249725,-0.2638755,0.1445005,-0.252495,-0.2434055,-0.1076095,-0.6326350000000001,-0.1515075,0.1283305,-0.631985,-0.1405925,1
145,-0.0024239999999999,0.74087,-0.0294305,-0.151972,0.46353,-0.0373465,-0.3771319999999999,0.51655,-0.0305665,0.174638,0.48521,-0.0208395,0.369258,0.56812,-0.0009585,-0.459422,0.70062,-0.1018275,0.428598,0.77148,-0.0455515,-0.073406,-0.00098,-0.0045615,0.073406,0.00098,0.0045614999999999,-0.112352,-0.26307,-0.2543035,0.143378,-0.2658399999999999,-0.2341235,-0.108112,-0.64498,-0.1465665,0.127868,-0.64533,-0.1351495,1
146,-0.0033805,0.7407,-0.0202414999999999,-0.1524485,0.46338,-0.0286504999999999,-0.3774785,0.51505,-0.0206444999999999,0.1738714999999999,0.48553,-0.0121064999999999,0.3683815,0.56757,0.0082035,-0.4611385,0.69777,-0.0907424999999999,0.4275615,0.77393,-0.0357284999999999,-0.0726614999999999,-0.0009799999999999,-0.0045525,0.0726614999999999,0.0009799999999999,0.0045525,-0.1139584999999999,-0.27786,-0.2386775,0.1417515,-0.28069,-0.2190075,-0.1090285,-0.65912,-0.1369195,0.1272915,-0.66018,-0.1250925,1
147,-0.0042929999999999,0.7418605,-0.0116239999999999,-0.153059,0.4644605,-0.0205699999999999,-0.3780889999999999,0.5142005000000001,-0.0115289999999999,0.173051,0.4858705,-0.0039639999999999,0.367451,0.5676705,0.01677,-0.462329,0.6964805,-0.080645,0.426461,0.7780705,-0.0265979999999999,-0.072099,-0.0009595,-0.004429,0.072099,0.0009595,0.004429,-0.114429,-0.2902595,-0.2199279999999999,0.139881,-0.2958195,-0.200338,-0.1097489999999999,-0.6712795,-0.126526,0.126751,-0.6728495,-0.114854,1
148,-0.00487,0.7428730000000001,-0.003678,-0.153538,0.465753,-0.013271,-0.378058,0.513963,-0.003538,0.172502,0.486093,0.0037379999999999,0.367452,0.568013,0.0247599999999999,-0.463238,0.696053,-0.071691,0.425632,0.7789330000000001,-0.018224,-0.071803,-0.0008109999999999,-0.004189,0.071803,0.000811,0.0041889999999999,-0.114648,-0.299347,-0.202211,0.138122,-0.309007,-0.182841,-0.110628,-0.680707,-0.117157,0.126082,-0.683257,-0.105395,1
149,-0.0052134999999999,0.7433895,0.0038144999999999,-0.1540535,0.4670895,-0.0064424999999999,-0.3779135,0.5145095,0.0039905,0.1721265,0.4865195,0.0109734999999999,0.3678765,0.5680995,0.0323085,-0.4637835,0.6966694999999999,-0.0632685,0.4249765,0.7812095,-0.0102635,-0.0716695,-0.0006165,-0.0038704999999999,0.0716695,0.0006164999999999,0.0038704999999999,-0.1145335,-0.3077605,-0.1853265,0.1365665,-0.3210205,-0.1659864999999999,-0.1112735,-0.6890005,-0.1081324999999999,0.1256065,-0.6929705,-0.0969365,1
150,-0.0055105,0.743908,0.010915,-0.1543695,0.4671079999999999,0.0004419999999999,-0.3777095,0.514078,0.0114749999999999,0.1715805,0.487108,0.017904,0.3682704999999999,0.568648,0.039748,-0.4641794999999999,0.6976279999999999,-0.05505,0.4243305,0.783838,-0.002319,-0.0715975,-0.000382,-0.003616,0.0715975,0.0003819999999999,0.003616,-0.1143695,-0.316162,-0.168826,0.1350205,-0.332742,-0.1492959999999999,-0.1119695,-0.6963520000000001,-0.098782,0.1251505,-0.701592,-0.088454,1
151,-0.0056829999999999,0.7448159999999999,0.017886,-0.154692,0.4682659999999999,0.0074599999999999,-0.377082,0.513976,0.0192449999999999,0.171318,0.488136,0.0248409999999999,0.368788,0.569156,0.047538,-0.464382,0.698186,-0.046812,0.423818,0.7859459999999999,0.0059989999999999,-0.071496,-1.9000000000005124e-05,-0.003341,0.071496,1.8999999999998185e-05,0.0033409999999999,-0.114402,-0.326594,-0.150324,0.132748,-0.346794,-0.130298,-0.112652,-0.705484,-0.088751,0.124728,-0.712244,-0.079571,1
152,-0.0057825,0.7450319999999999,0.024864,-0.1551355,0.4700419999999999,0.0142319999999999,-0.3766055,0.513752,0.0268449999999999,0.1709245,0.489012,0.031833,0.3693445,0.569732,0.055536,-0.4644055,0.698152,-0.038969,0.4233545,0.7878419999999999,0.0143219999999999,-0.0713955,0.0003739999999999,-0.003149,0.0713955,-0.000374,0.003149,-0.1142455,-0.336908,-0.132043,0.1301845,-0.360758,-0.111315,-0.1132555,-0.714248,-0.078738,0.1240044999999999,-0.721468,-0.069431,1
153,-0.0060329999999999,0.74572,0.031644,-0.155365,0.47186,0.020323,-0.376365,0.51249,0.033863,0.170535,0.4903599999999999,0.0387189999999999,0.369865,0.5700700000000001,0.063326,-0.464515,0.69732,-0.031241,0.422815,0.7892300000000001,0.022389,-0.0713699999999999,0.000757,-0.002953,0.0713699999999999,-0.000757,0.0029529999999999,-0.1141349999999999,-0.34725,-0.1138909999999999,0.127435,-0.37475,-0.092497,-0.113925,-0.72312,-0.068915,0.123245,-0.73058,-0.059092,1
154,-0.0063769999999999,0.7468494999999999,0.0377605,-0.155718,0.4723695,0.0262495,-0.376158,0.5122995,0.0401645,0.170072,0.4891695,0.0449825,0.3701419999999999,0.5704095,0.0705755,-0.464658,0.6975495,-0.0241545,0.4223119999999999,0.7887795,0.0300935,-0.0713999999999999,0.0010704999999999,-0.0025485,0.0713999999999999,-0.0010705,0.0025484999999999,-0.1142179999999999,-0.3555405,-0.0973065,0.124602,-0.3873105,-0.0747345,-0.1146679999999999,-0.7306105,-0.0596205,0.122792,-0.7382205,-0.0504085,1
155,-0.0063329999999999,0.7488184999999999,0.039049,-0.1554759999999999,0.4745285,0.027536,-0.375446,0.5127685,0.041467,0.170024,0.4898385,0.046531,0.370384,0.5718384999999999,0.072971,-0.464656,0.6984184999999999,-0.022556,0.422114,0.7883884999999999,0.0331319999999999,-0.071458,0.0014225,-0.002191,0.071458,-0.0014225,0.002191,-0.1141959999999999,-0.3612714999999999,-0.086177,0.122274,-0.3976715,-0.06228,-0.115016,-0.7355715,-0.0548489999999999,0.122524,-0.7434615,-0.046123,1
156,-0.0063979999999999,0.7490295,0.040558,-0.1552619999999999,0.4749095,0.02881,-0.374752,0.5125995,0.042423,0.169938,0.4903595,0.048221,0.370378,0.5722495,0.07531,-0.464492,0.6982395,-0.020621,0.421878,0.7861895,0.03618,-0.071524,0.0016194999999999,-0.001927,0.071524,-0.0016194999999999,0.001927,-0.1144719999999999,-0.3667105,-0.079057,0.121118,-0.4030805,-0.054284,-0.114952,-0.7405905,-0.051055,0.122318,-0.7484505,-0.0426789999999999,1
157,-0.0063565,0.7488454999999999,0.0422525,-0.1551894999999999,0.4750255,0.0302835,-0.3741295,0.5120255,0.0434595,0.1697004999999999,0.4905655,0.0499975,0.3702405,0.5718955,0.0776515,-0.4641595,0.6977454999999999,-0.0187785,0.4218105,0.7842754999999999,0.0396845,-0.0717095,0.0017614999999999,-0.0017095,0.0717095,-0.0017614999999999,0.0017094999999999,-0.1148995,-0.3716745,-0.0710105,0.1201405,-0.4078745,-0.0454834999999999,-0.1147595,-0.7454245,-0.0469605,0.1223305,-0.7529645,-0.0391245,1
158,-0.0064645,0.7490575,0.0439989999999999,-0.1551934999999999,0.4750275,0.0316189999999999,-0.3735435,0.5107375000000001,0.0446209999999999,0.1694565,0.4905575,0.051943,0.3701865,0.5714975,0.080194,-0.4638635,0.6965075000000001,-0.016903,0.4216565,0.7825875,0.043079,-0.0720375,0.0018414999999999,-0.0015999999999999,0.0720375,-0.0018414999999999,0.0015999999999999,-0.1154635,-0.3756325,-0.0622039999999999,0.1191265,-0.4121725,-0.036379,-0.1145835,-0.7492224999999999,-0.0426,0.1222764999999999,-0.7569625,-0.035634,1
159,-0.0068065,0.7491855000000001,0.0459805,-0.1553815,0.4747155,0.0327545,-0.3731915,0.5095155,0.0457285,0.1690685,0.4904155,0.0538004999999999,0.3699585,0.5710255,0.0830725,-0.4638715,0.6942055,-0.0149535,0.4213685,0.7811955,0.0469065,-0.0723685,0.0018174999999999,-0.0014745,0.0723685,-0.0018174999999999,0.0014745,-0.1163415,-0.3759145,-0.0535685,0.1180885,-0.4135645,-0.0278654999999999,-0.1149215,-0.7521345,-0.0383915,0.1226785,-0.7597345,-0.0327865,1
160,-0.00726,0.748966,0.047456,-0.155695,0.474066,0.033504,-0.373035,0.508676,0.0466679999999999,0.168645,0.490086,0.0551879999999999,0.3696649999999999,0.570746,0.08525,-0.464115,0.693366,-0.0135009999999999,0.421035,0.780746,0.0498189999999999,-0.072556,0.0017079999999999,-0.001391,0.072556,-0.0017079999999999,0.0013909999999999,-0.117145,-0.375364,-0.047339,0.117505,-0.413404,-0.021781,-0.115315,-0.752674,-0.035523,0.1230449999999999,-0.760374,-0.0302939999999999,1
161,-0.007662,0.7488315,0.0487785,-0.156,0.4737815,0.0343794999999999,-0.37292,0.5082015,0.0476324999999999,0.16828,0.4898415,0.0565225,0.36939,0.5704615,0.0873045,-0.4643,0.6928915,-0.0121275,0.42082,0.7805814999999999,0.0525604999999999,-0.072725,0.0016034999999999,-0.0012615,0.072725,-0.0016035,0.0012615,-0.11792,-0.3745785,-0.0415035,0.11696,-0.4130085,-0.0161345,-0.11565,-0.7529285,-0.0327625,0.1234,-0.7606885,-0.0279155,1
162,-0.008035,0.7487024999999999,0.0499929999999999,-0.156166,0.4735825,0.0351089999999999,-0.372906,0.5079425,0.048544,0.1679439999999999,0.4895825,0.0577569999999999,0.369074,0.5702025,0.089218,-0.464546,0.6926325,-0.0109439999999999,0.420724,0.7806025,0.055011,-0.0728719999999999,0.0014855,-0.001096,0.0728719999999999,-0.0014855,0.001096,-0.118656,-0.3736175,-0.036248,0.1164439999999999,-0.4123575,-0.010905,-0.115956,-0.7529675,-0.0300129999999999,0.123834,-0.7607875000000001,-0.025611,1
163,-0.0085659999999999,0.7486364999999999,0.0511144999999999,-0.1562,0.4734865,0.0357274999999999,-0.37299,0.5076364999999999,0.0494025,0.16758,0.4894465,0.0588685,0.36853,0.5700365,0.0909725,-0.46484,0.6918265,-0.0099375,0.42053,0.7806664999999999,0.0571924999999999,-0.073048,0.0015104999999999,-0.0010044999999999,0.073048,-0.0015104999999999,0.0010045,-0.11942,-0.3726835,-0.0315344999999999,0.11601,-0.4118735,-0.0063634999999999,-0.1159699999999999,-0.7535035,-0.0272175,0.12433,-0.7608435,-0.0239345,0
164,-0.00903,0.7485689999999999,0.0520315,-0.156139,0.4728489999999999,0.0361795,-0.373239,0.507009,0.0501145,0.167261,0.489319,0.0597855,0.368011,0.569819,0.0923915,-0.4651189999999999,0.690519,-0.0091305,0.420431,0.780639,0.0588975,-0.073152,0.001511,-0.0009534999999999,0.073152,-0.001511,0.0009534999999999,-0.120019,-0.372421,-0.0280865,0.115741,-0.411511,-0.0029804999999999,-0.115999,-0.754051,-0.0249025,0.124871,-0.760891,-0.0228405,0
165,-0.0094435,0.7484569999999999,0.0529365,-0.1560885,0.472107,0.0364565,-0.3735485,0.506177,0.0507915,0.1669515,0.489157,0.0606635,0.3674815,0.569507,0.0936785,-0.4653985,0.688997,-0.0084595,0.4204015,0.780557,0.0603315,-0.0732555,0.0015369999999999,-0.0009294999999999,0.0732555,-0.001537,0.0009295,-0.1205985,-0.372233,-0.0251445,0.1155715,-0.411493,2.249999999999995e-05,-0.1160585,-0.7545630000000001,-0.0230114999999999,0.1254215,-0.761143,-0.0217564999999999,0
166,-0.0098214999999999,0.7478589999999999,0.053775,-0.1561915,0.471539,0.03661,-0.3740015,0.505189,0.051279,0.1666585,0.488859,0.061332,0.3669385,0.569009,0.0945039999999999,-0.4656015,0.687469,-0.008017,0.4204685,0.780259,0.061203,-0.0733284999999999,0.001444,-0.000923,0.0733284999999999,-0.0014439999999999,0.000923,-0.1209315,-0.372081,-0.023683,0.1156185,-0.411341,0.00188,-0.1161115,-0.755271,-0.021542,0.1259885,-0.761281,-0.020848,0
167,-0.01026,0.7477039999999999,0.0544545,-0.156489,0.471224,0.0369475,-0.374569,0.504304,0.0516675,0.166301,0.488664,0.0619355,0.3663409999999999,0.568564,0.0953525,-0.465809,0.6861339999999999,-0.0077355,0.420521,0.7801939999999999,0.0620995,-0.073412,0.00133,-0.0008535,0.073412,-0.0013299999999999,0.0008535,-0.121269,-0.371666,-0.0228155,0.1157709999999999,-0.4112159999999999,0.0031485,-0.116209,-0.7557860000000001,-0.0202585,0.126531,-0.7612460000000001,-0.0200895,0
168,-0.0105485,0.747646,0.054836,-0.1567285,0.470786,0.037363,-0.3747985,0.504136,0.052042,0.1659515,0.488706,0.062542,0.3659915,0.568546,0.096282,-0.4660185,0.685976,-0.0076419999999999,0.4202515,0.780046,0.063035,-0.0734585,0.001281,-0.0007919999999999,0.0734585,-0.001281,0.000792,-0.1215385,-0.371384,-0.02188,0.1158815,-0.411194,0.004229,-0.1164785,-0.755994,-0.019323,0.1266115,-0.761244,-0.019318,0
169,-0.0106664999999999,0.747782,0.0549,-0.1568234999999999,0.470762,0.037827,-0.3748835,0.504072,0.052377,0.1656965,0.488812,0.063194,0.3657565,0.5686119999999999,0.097416,-0.4661835,0.6860219999999999,-0.007701,0.4204064999999999,0.780052,0.064056,-0.0735005,0.0012659999999999,-0.0008699999999999,0.0735005,-0.001266,0.00087,-0.1216635,-0.371378,-0.020676,0.1159665,-0.411178,0.005449,-0.1166335,-0.7559480000000001,-0.0181209999999999,0.1266865,-0.7610180000000001,-0.018289,0
170,-0.010775,0.7479005,0.054722,-0.157053,0.4708005,0.038272,-0.374973,0.5033805,0.052169,0.165517,0.4889105,0.06372,0.365557,0.5684005,0.098209,-0.466323,0.6858004999999999,-0.0084689999999999,0.420557,0.7798105,0.064667,-0.073492,0.0012554999999999,-0.000979,0.073492,-0.0012554999999999,0.000979,-0.121533,-0.3714294999999999,-0.020043,0.115937,-0.4112195,0.0068,-0.116723,-0.7559295,-0.016825,0.126707,-0.7608695000000001,-0.017215,0
171,-0.0105205,0.7479005,0.05338,-0.1575535,0.4708005,0.039075,-0.3746135,0.5006205,0.051237,0.1652165,0.4888605,0.063889,0.3653765,0.5653205,0.098179,-0.4656935,0.6821605,-0.012594,0.4206865,0.7770805,0.063282,-0.0735045,0.0012554999999999,-0.001072,0.0735045,-0.0012554999999999,0.001072,-0.1216535,-0.3714395,-0.020168,0.1158265,-0.4112195,0.008634,-0.1170835,-0.7562395000000001,-0.015019,0.1266165,-0.7608695000000001,-0.015752,0
172,-0.010225,0.7477115,0.0517394999999999,-0.157831,0.4708715,0.0395825,-0.374251,0.4952815,0.0499715,0.164069,0.4885615,0.0634885,0.364619,0.5599815,0.0995595,-0.465171,0.6765015,-0.0164755,0.4209389999999999,0.7699615,0.0600954999999999,-0.073503,0.0012034999999999,-0.0013295,0.073503,-0.0012035,0.0013294999999999,-0.121631,-0.3712985,-0.0207385,0.115739,-0.4111585,0.0100685,-0.117571,-0.7566185,-0.0129835,0.126509,-0.7611085,-0.0139785,0
173,-0.0097254999999999,0.74769,0.0493665,-0.1580615,0.47124,0.0395844999999999,-0.3738614999999999,0.4834699999999999,0.0492765,0.1627585,0.4884,0.0635314999999999,0.3638285,0.54929,0.1026585,-0.4642515,0.66403,-0.0240375,0.4215085,0.75601,0.0539265,-0.0735185,0.001169,-0.0017274999999999,0.0735185,-0.001169,0.0017274999999999,-0.1214015,-0.37124,-0.0216174999999999,0.1157885,-0.41045,0.0117764999999999,-0.1179615,-0.7569,-0.0101885,0.1264885,-0.76137,-0.0113235,0
174,-0.0083379999999999,0.7480245,0.045405,-0.157018,0.4706545,0.037813,-0.372508,0.4612245,0.050294,0.160682,0.4878845,0.063482,0.361532,0.5253845,0.107733,-0.461748,0.6314745,-0.036795,0.421522,0.7233645,0.043722,-0.073498,0.0011645,-0.002402,0.073498,-0.0011645,0.0024019999999999,-0.1205979999999999,-0.3708555,-0.0222,0.115752,-0.4088355,0.0125069999999999,-0.117728,-0.7563855,-0.005614,0.127272,-0.7612855,-0.006909,0
175,-0.0057534999999999,0.748517,0.04024,-0.1548605,0.469727,0.03483,-0.3628605,0.437817,0.0529559999999999,0.1589995,0.486787,0.064085,0.3537694999999999,0.495407,0.113942,-0.4546905,0.5825469999999999,-0.048084,0.4192694999999999,0.675237,0.035119,-0.0733825,0.0011649999999999,-0.003506,0.0733825,-0.001165,0.0035059999999999,-0.1194405,-0.369953,-0.022281,0.1179795,-0.406523,0.0103369999999999,-0.1167505,-0.755653,-0.000501,0.1289995,-0.7602230000000001,-0.003042,0
176,-0.0031844999999999,0.7490385,0.0341575,-0.1528804999999999,0.4688485,0.0312425,-0.3511305,0.4118185,0.0559865,0.1569295,0.4852985,0.0646135,0.3396194999999999,0.4628185,0.1180845,-0.4440805,0.5279085,-0.0590664999999999,0.4127395,0.6196385,0.0304365,-0.0731695,0.0011645,-0.0049794999999999,0.0731695,-0.0011644999999999,0.0049795,-0.1188004999999999,-0.3693915,-0.0222175,0.1202295,-0.4035714999999999,0.0039065,-0.1162204999999999,-0.7551415,0.0043494999999999,0.1304295,-0.7583715,0.0009055,0
177,-0.0007949999999999,0.7492489999999999,0.027379,-0.151493,0.4677489999999999,0.026149,-0.3388029999999999,0.385469,0.058798,0.155007,0.483629,0.065062,0.323317,0.4301689999999999,0.122174,-0.4299429999999999,0.468599,-0.070404,0.403397,0.5577489999999999,0.026039,-0.072912,0.001109,-0.0064589999999999,0.072912,-0.0011089999999999,0.0064589999999999,-0.118513,-0.368951,-0.02225,0.121997,-0.399941,-0.003526,-0.116173,-0.754461,0.0095179999999999,0.131497,-0.755811,0.0025649999999999,0
178,0.001025,0.7492785,0.0200609999999999,-0.1512279999999999,0.4667685,0.0203479999999999,-0.325618,0.3577884999999999,0.0582549999999999,0.1530119999999999,0.4816085,0.064909,0.304132,0.3972985,0.126637,-0.412698,0.4047885,-0.081853,0.390822,0.4910084999999999,0.0220419999999999,-0.072796,0.0010755,-0.008074,0.072796,-0.0010755,0.0080739999999999,-0.1191479999999999,-0.3686515,-0.021943,0.123382,-0.3949715,-0.015355,-0.117258,-0.7534815,0.0151779999999999,0.132852,-0.7530915,0.001839,0
179,0.0044395,0.7489445,0.0116909999999999,-0.1501395,0.4653045,0.0135689999999999,-0.3086795,0.3294445,0.0562729999999999,0.1523405,0.4793644999999999,0.06516,0.2855005,0.3647745,0.132952,-0.3880895,0.3354845,-0.090219,0.3759205,0.4169545,0.0196819999999999,-0.0726585,0.0010264999999999,-0.009715,0.0726585,-0.0010264999999999,0.0097149999999999,-0.1194295,-0.3684155,-0.01971,0.1275505,-0.3889955,-0.028866,-0.1183095,-0.7522755,0.0228279999999999,0.1429705,-0.7501255,-0.006339,0
180,0.0088309999999999,0.748023,0.003792,-0.148857,0.463923,0.0059789999999999,-0.290807,0.302093,0.054821,0.152273,0.476433,0.065199,0.268303,0.334163,0.139595,-0.361097,0.268133,-0.0953899999999999,0.361213,0.342873,0.018789,-0.072512,0.0009489999999999,-0.011631,0.072512,-0.000949,0.011631,-0.119637,-0.366767,-0.016394,0.1333029999999999,-0.383027,-0.043,-0.119267,-0.749667,0.031985,0.155803,-0.747437,-0.016266,0
181,0.0145444999999999,0.7473255,-0.0038129999999999,-0.1469815,0.4624655,-0.0008819999999999,-0.2715015,0.2775255,0.053465,0.1520985,0.4741155,0.065894,0.2576385,0.3064655,0.147681,-0.3325215,0.2019755,-0.099646,0.3537785,0.2733155,0.021164,-0.0722955,0.0009555,-0.0134859999999999,0.0722955,-0.0009554999999999,0.0134859999999999,-0.1200915,-0.3639945,-0.0113209999999999,0.1406285,-0.3765644999999999,-0.0568659999999999,-0.1202115,-0.7468945,0.042947,0.1722884999999999,-0.7416745,-0.030186,0
182,0.0210534999999999,0.7466145,-0.0114669999999999,-0.1449265,0.4613345,-0.0079569999999999,-0.2510965,0.2592045,0.050407,0.1513235,0.4714145,0.066082,0.2563035,0.2839045,0.155573,-0.3007165,0.1425745,-0.101407,0.3525135,0.2131145,0.028052,-0.0720275,0.0009475,-0.0151269999999999,0.0720275,-0.0009474999999999,0.015127,-0.1212665,-0.3613255,-0.0056969999999999,0.1489734999999999,-0.3699655,-0.0712069999999999,-0.1217564999999999,-0.7442255,0.053681,0.1922734999999999,-0.7352755,-0.0488569999999999,0
183,0.028251,0.7449115,-0.0186974999999999,-0.143141,0.4613915,-0.0133575,-0.231271,0.2522215,0.0455795,0.150989,0.4686615,0.0654215,0.253759,0.2743615,0.1623215,-0.270891,0.1035195,-0.0962275,0.350369,0.1733015,0.0345175,-0.071781,0.0012015,-0.0163175,0.071781,-0.0012014999999999,0.0163175,-0.123431,-0.3595885,0.0005225,0.157549,-0.3637685,-0.0838975,-0.124591,-0.7424485,0.0642055,0.213859,-0.7259385,-0.0707475,0
184,0.0373509999999999,0.7419819999999999,-0.02595,-0.139985,0.462002,-0.01832,-0.218115,0.247932,0.038024,0.153055,0.465972,0.062947,0.248385,0.2697819999999999,0.166111,-0.244445,0.082568,-0.09228,0.344995,0.148602,0.041879,-0.071491,0.001812,-0.0169,0.071491,-0.0018119999999999,0.0169,-0.126985,-0.358778,0.0080599999999999,0.166575,-0.357818,-0.09312,-0.1307849999999999,-0.741458,0.078248,0.2368249999999999,-0.716928,-0.0929099999999999,0
185,0.053639,0.737495,-0.0393199999999999,-0.130769,0.462235,-0.02745,-0.206139,0.248165,0.0289999999999999,0.161131,0.462645,0.053674,0.242001,0.267175,0.158114,-0.226229,0.070854,-0.08807,0.342871,0.131809,0.0350999999999999,-0.071311,0.0020449999999999,-0.01671,0.071311,-0.0020449999999999,0.01671,-0.132969,-0.356905,0.0164199999999999,0.173751,-0.352295,-0.09869,-0.144539,-0.737975,0.096415,0.254671,-0.707895,-0.11385,0
186,0.06975,0.733053,-0.05344,-0.122138,0.462303,-0.03645,-0.19651,0.248233,0.0202199999999999,0.17029,0.459083,0.0426599999999999,0.23641,0.264413,0.14844,-0.2144499999999999,0.0660409999999999,-0.08355,0.34382,0.121774,0.0272299999999999,-0.07128,0.0021129999999999,-0.01644,0.07128,-0.002113,0.0164399999999999,-0.140185,-0.353557,0.0246399999999999,0.17997,-0.347427,-0.10317,-0.16215,-0.732677,0.1144769999999999,0.26874,-0.6990670000000001,-0.13153,0
187,0.087441,0.728008,-0.06994,-0.111019,0.4622079999999999,-0.0478399999999999,-0.189479,0.247908,0.0143,0.180301,0.4549379999999999,0.0296899999999999,0.240091,0.261928,0.131047,-0.209589,0.065716,-0.0777499999999999,0.349531,0.1176339999999999,0.0145899999999999,-0.071421,0.002438,-0.01614,0.071421,-0.002438,0.0161399999999999,-0.149213,-0.349962,0.03345,0.182131,-0.344302,-0.1030599999999999,-0.183669,-0.7264919999999999,0.132712,0.276461,-0.6907019999999999,-0.1446299999999999,0
188,0.106051,0.7229599999999999,-0.08717,-0.098983,0.46199,-0.05946,-0.184707,0.2483699999999999,0.0097299999999999,0.1918909999999999,0.45059,0.01432,0.254331,0.25966,0.1079299999999999,-0.211859,0.064618,-0.07252,0.364411,0.116536,-0.01,-0.071721,0.003536,-0.01573,0.071721,-0.0035359999999999,0.0157299999999999,-0.157462,-0.34474,0.0402899999999999,0.180321,-0.34247,-0.10053,-0.204789,-0.71938,0.147615,0.271991,-0.683,-0.14752,0
189,0.1250855,0.717598,-0.10469,-0.0857904999999999,0.462098,-0.0711499999999999,-0.1788555,0.251248,0.00471,0.2043855,0.445808,-0.0018799999999999,0.2731455,0.257138,0.07965,-0.2147565,0.063116,-0.0673599999999999,0.3843054999999999,0.115034,-0.03952,-0.0719855,0.004893,-0.0149799999999999,0.0719855,-0.004893,0.01498,-0.1651615,-0.339712,0.04627,0.1766055,-0.341182,-0.0971199999999999,-0.2244565,-0.712602,0.160751,0.2644455,-0.676252,-0.1479099999999999,0
190,0.1462599999999999,0.7113825,-0.12383,-0.069597,0.4623625,-0.08428,-0.173595,0.2551725,0.00014,0.21871,0.4397625,-0.0200199999999999,0.29655,0.2537425,0.0475899999999999,-0.218888,0.0608935,-0.0620899999999999,0.4094099999999999,0.1121255,-0.0736899999999999,-0.07209,0.0066935,-0.01367,0.0720899999999999,-0.0066934999999999,0.01367,-0.171517,-0.3352974999999999,0.05069,0.1702499999999999,-0.3415074999999999,-0.09208,-0.242433,-0.7066475,0.17091,0.25105,-0.6737775,-0.1417,0
191,0.166955,0.704095,-0.142785,-0.0534149999999999,0.462955,-0.096965,-0.168838,0.260505,-0.003665,0.232595,0.433155,-0.038675,0.320525,0.249335,0.014965,-0.226149,0.06455,-0.055545,0.437925,0.112634,-0.111175,-0.0722449999999999,0.008569,-0.012355,0.072245,-0.008569,0.012355,-0.1777379999999999,-0.330545,0.054865,0.162755,-0.343075,-0.086585,-0.259681,-0.701075,0.180595,0.233645,-0.6729449999999999,-0.131035,0
192,0.18761,0.6969835,-0.161255,-0.03609,0.4634035,-0.109895,-0.163813,0.2663335,-0.007675,0.2460899999999999,0.4264435,-0.057405,0.3451399999999999,0.2444934999999999,-0.018465,-0.231971,0.0689365,-0.050965,0.46713,0.1150005,-0.149855,-0.07238,0.0105335,-0.011085,0.07238,-0.0105335,0.0110849999999999,-0.18336,-0.3277265,0.0581249999999999,0.1541199999999999,-0.3456065,-0.081205,-0.275821,-0.6972065,0.1882549999999999,0.21354,-0.6762765,-0.117955,0
193,0.20688,0.6901269999999999,-0.179405,-0.0196099999999999,0.463237,-0.1227349999999999,-0.15974,0.272547,-0.0108349999999999,0.25834,0.419517,-0.0763349999999999,0.36724,0.239507,-0.0517349999999999,-0.237914,0.074381,-0.0468549999999999,0.48942,0.1171639999999999,-0.185635,-0.0726099999999999,0.0126559999999999,-0.0096749999999999,0.07261,-0.012656,0.009675,-0.1856779999999999,-0.326163,0.058085,0.14318,-0.3492429999999999,-0.075135,-0.287053,-0.6912130000000001,0.192275,0.18986,-0.680173,-0.1023649999999999,0
194,0.218805,0.684553,-0.19101,-0.0089949999999999,0.463103,-0.13134,-0.1571349999999999,0.278513,-0.0131399999999999,0.264745,0.413563,-0.08893,0.380075,0.2350729999999999,-0.0748699999999999,-0.2401589999999999,0.080461,-0.0433999999999999,0.499545,0.117173,-0.2076,-0.0726349999999999,0.014521,-0.0086499999999999,0.072635,-0.014521,0.0086499999999999,-0.186838,-0.3255969999999999,0.05768,0.133065,-0.3534569999999999,-0.06828,-0.2888659999999999,-0.683817,0.19308,0.170185,-0.684007,-0.08766,0
195,0.230085,0.679411,-0.20152,0.0011349999999999,0.462861,-0.13888,-0.153595,0.284991,-0.01605,0.2710849999999999,0.408371,-0.10011,0.393935,0.230041,-0.09789,-0.24101,0.087479,-0.03958,0.507255,0.120781,-0.22469,-0.072505,0.016805,-0.00758,0.0725049999999999,-0.016805,0.0075799999999999,-0.183855,-0.325769,0.05667,0.1235749999999999,-0.357359,-0.06132,-0.288287,-0.677519,0.1933999999999999,0.152295,-0.687719,-0.07357,0
196,0.23912,0.674095,-0.210025,0.0086999999999999,0.462035,-0.144485,-0.15034,0.290475,-0.018935,0.27696,0.403595,-0.109665,0.40441,0.225035,-0.115505,-0.240771,0.093038,-0.037015,0.51027,0.125705,-0.233935,-0.07207,0.018156,-0.006335,0.07207,-0.018156,0.0063349999999999,-0.17338,-0.324815,0.0515249999999999,0.11384,-0.361555,-0.054275,-0.286078,-0.670185,0.1941149999999999,0.1365,-0.6913750000000001,-0.060865,0
197,0.246075,0.6696915,-0.21674,0.0148849999999999,0.4616415,-0.14899,-0.148365,0.2934914999999999,-0.02137,0.281515,0.3997615,-0.11701,0.410685,0.2208715,-0.12725,-0.240842,0.0959285,-0.03619,0.507765,0.1312715,-0.23554,-0.0715549999999999,0.0191404999999999,-0.0051499999999999,0.0715549999999999,-0.0191404999999999,0.0051499999999999,-0.163665,-0.3242285,0.04709,0.105095,-0.3643385,-0.04779,-0.284169,-0.6627685,0.19551,0.123715,-0.6939485,-0.05057,0
198,0.25225,0.666033,-0.2232549999999999,0.0202099999999999,0.461483,-0.153135,-0.14787,0.294523,-0.023445,0.2850399999999999,0.396863,-0.1231849999999999,0.41445,0.218523,-0.134405,-0.242826,0.097028,-0.035325,0.50213,0.136883,-0.232975,-0.07115,0.020009,-0.004055,0.0711499999999999,-0.020009,0.0040549999999999,-0.15445,-0.323677,0.0431749999999999,0.0964099999999999,-0.366127,-0.041385,-0.284121,-0.654127,0.1979049999999999,0.1108799999999999,-0.695897,-0.040815,0
199,0.2564299999999999,0.6633494999999999,-0.2283849999999999,0.0229899999999999,0.4612095,-0.1559849999999999,-0.14675,0.2962195,-0.0259149999999999,0.28657,0.3952395,-0.1273149999999999,0.41655,0.2178995,-0.1386649999999999,-0.24385,0.0990685,-0.0360649999999999,0.49419,0.1421695,-0.227615,-0.07083,0.0204675,-0.0033849999999999,0.07083,-0.0204675,0.003385,-0.14514,-0.3228304999999999,0.039205,0.08964,-0.3673805,-0.0366049999999999,-0.284955,-0.6443305,0.201525,0.1007799999999999,-0.6967905000000001,-0.0335249999999999,0
200,0.26027,0.6611689999999999,-0.232985,0.0260999999999999,0.461089,-0.1589749999999999,-0.14603,0.297629,-0.028115,0.2884099999999999,0.393929,-0.131295,0.4183,0.217739,-0.141255,-0.24532,0.101029,-0.036825,0.48643,0.144899,-0.2222549999999999,-0.07047,0.020604,-0.0027849999999999,0.0704699999999999,-0.020604,0.0027849999999999,-0.13562,-0.322141,0.035065,0.0828999999999999,-0.368461,-0.032065,-0.285915,-0.6345810000000001,0.204905,0.09087,-0.6972710000000001,-0.026615,0
201,0.263525,0.6586915,-0.23676,0.028675,0.4611015,-0.16135,-0.145635,0.2988115,-0.03005,0.289965,0.3926115,-0.13416,0.415025,0.2162715,-0.13676,-0.247195,0.1028215,-0.03749,0.479945,0.1448515,-0.21724,-0.070145,0.0206355,-0.00229,0.070145,-0.0206355,0.00229,-0.126335,-0.3216885,0.03076,0.076735,-0.3699584999999999,-0.0281899999999999,-0.28708,-0.6245285,0.20828,0.081745,-0.6973185000000001,-0.0205799999999999,0
202,0.2657899999999999,0.6565015,-0.23943,0.0305699999999999,0.4612015,-0.163,-0.14518,0.2996115,-0.03176,0.2912099999999999,0.3912515,-0.135,0.41013,0.2144015,-0.1309799999999999,-0.24805,0.1043115,-0.03856,0.47563,0.1448215,-0.2153,-0.06974,0.0206355,-0.00218,0.0697399999999999,-0.0206355,0.0021799999999999,-0.12009,-0.3214884999999999,0.0276099999999999,0.0721,-0.3712284999999999,-0.02543,-0.289495,-0.6166685000000001,0.2104599999999999,0.0742399999999999,-0.6973185000000001,-0.0158099999999999,0
203,0.267605,0.654949,-0.2412349999999999,0.031915,0.461349,-0.164035,-0.1447349999999999,0.300399,-0.0332649999999999,0.292335,0.390409,-0.134595,0.403495,0.211839,-0.1255549999999999,-0.2488949999999999,0.105559,-0.039245,0.4715250000000001,0.144699,-0.212875,-0.0694349999999999,0.0209029999999999,-0.002215,0.069435,-0.0209029999999999,0.0022149999999999,-0.1136549999999999,-0.321221,0.0242449999999999,0.068065,-0.372441,-0.022925,-0.2923749999999999,-0.6139910000000001,0.209945,0.067315,-0.697401,-0.011195,0
204,0.2688449999999999,0.6540594999999999,-0.24184,0.0329849999999999,0.4615095,-0.16437,-0.144985,0.3007295,-0.03405,0.293325,0.3898795,-0.1328599999999999,0.396345,0.2083594999999999,-0.1203699999999999,-0.249785,0.1060295,-0.03984,0.463525,0.1421394999999999,-0.20679,-0.069135,0.0212335,-0.00241,0.069135,-0.0212335,0.0024099999999999,-0.111785,-0.3208904999999999,0.0219699999999999,0.0643949999999999,-0.3734205,-0.02052,-0.294302,-0.6136605,0.20969,0.0608349999999999,-0.6973405,-0.0067099999999999,0
205,0.26908,0.6546609999999999,-0.2404849999999999,0.03282,0.462111,-0.1632449999999999,-0.1454099999999999,0.301331,-0.034165,0.2933199999999999,0.389611,-0.128965,0.3912199999999999,0.205511,-0.116245,-0.2500599999999999,0.106631,-0.040175,0.45483,0.138891,-0.1992249999999999,-0.0690399999999999,0.021393,-0.002595,0.0690399999999999,-0.021393,0.002595,-0.1166999999999999,-0.320289,0.023185,0.06218,-0.373819,-0.0187149999999999,-0.29437,-0.613059,0.208065,0.0560499999999999,-0.697059,-0.0032349999999999,0
206,0.2690499999999999,0.6554205,-0.238095,0.0323499999999999,0.4628805,-0.1614149999999999,-0.14583,0.3020905,-0.033685,0.29355,0.3894805,-0.1247949999999999,0.38652,0.2025404999999999,-0.110555,-0.2499299999999999,0.1073905,-0.040365,0.44641,0.1334105,-0.192425,-0.06896,0.0214825,-0.0027449999999999,0.06896,-0.0214825,0.0027449999999999,-0.1210399999999999,-0.3197295,0.0240949999999999,0.06057,-0.3736494999999999,-0.0170649999999999,-0.2934299999999999,-0.6122995,0.2064249999999999,0.0517699999999999,-0.6966295,0.0002049999999999,0
207,0.268545,0.6563325,-0.23407,0.030915,0.4637925,-0.15832,-0.146235,0.3028125,-0.03214,0.292995,0.3897724999999999,-0.1207699999999999,0.379565,0.2001825,-0.10241,-0.249385,0.1081825,-0.0400499999999999,0.441365,0.1179925,-0.1872,-0.0687849999999999,0.0214835,-0.00317,0.068785,-0.0214835,0.00317,-0.124635,-0.3199275,0.02527,0.059835,-0.3732975,-0.0156299999999999,-0.290985,-0.6158174999999999,0.20195,0.0481449999999999,-0.6960375,0.00367,0
208,0.26712,0.657381,-0.229775,0.0294999999999999,0.464421,-0.154025,-0.14679,0.302891,-0.028905,0.29317,0.390031,-0.1163549999999999,0.3693499999999999,0.197701,-0.089705,-0.24814,0.108401,-0.038065,0.4304,0.098447,-0.176405,-0.0686,0.021277,-0.0038549999999999,0.0686,-0.021277,0.0038549999999999,-0.12692,-0.323099,0.0273149999999999,0.0597099999999999,-0.373129,-0.014355,-0.2862,-0.622949,0.1959849999999999,0.0446699999999999,-0.6952889999999999,0.0075949999999999,0
209,0.265415,0.6590090000000001,-0.22546,0.027065,0.4650189999999999,-0.14976,-0.1472149999999999,0.3028289999999999,-0.02517,0.292575,0.3904689999999999,-0.1111099999999999,0.3579549999999999,0.195599,-0.07529,-0.246935,0.108539,-0.03537,0.416465,0.077547,-0.16224,-0.068465,0.021047,-0.00461,0.068465,-0.021047,0.00461,-0.128365,-0.326381,0.0290799999999999,0.059925,-0.372771,-0.01331,-0.281095,-0.630141,0.1901399999999999,0.041385,-0.694751,0.0115599999999999,0
210,0.26291,0.6609364999999999,-0.220685,0.0238099999999999,0.4654365,-0.145145,-0.14786,0.3030465,-0.020515,0.29136,0.3905365,-0.104415,0.34159,0.1928865,-0.057915,-0.24594,0.1083565,-0.031405,0.39635,0.0563615,-0.1430450000000001,-0.06823,0.0205955,-0.005895,0.06823,-0.0205955,0.0058949999999999,-0.12935,-0.3304535,0.0284449999999999,0.0602099999999999,-0.3725535,-0.012035,-0.27128,-0.6408535000000001,0.1816249999999999,0.03814,-0.6946035,0.0160949999999999,0
