sb224sc-HT22-VT27/4dt907/src/ml-research/a11/datafiles/labeled_files/A20_kinect_mirrored.csv
FrameNo,nose_3d_x,nose_3d_y,nose_3d_z,left_shoulder_3d_x,left_shoulder_3d_y,left_shoulder_3d_z,left_elbow_3d_x,left_elbow_3d_y,left_elbow_3d_z,right_shoulder_3d_x,right_shoulder_3d_y,right_shoulder_3d_z,right_elbow_3d_x,right_elbow_3d_y,right_elbow_3d_z,left_wrist_3d_x,left_wrist_3d_y,left_wrist_3d_z,right_wrist_3d_x,right_wrist_3d_y,right_wrist_3d_z,left_hip_3d_x,left_hip_3d_y,left_hip_3d_z,right_hip_3d_x,right_hip_3d_y,right_hip_3d_z,left_knee_3d_x,left_knee_3d_y,left_knee_3d_z,right_knee_3d_x,right_knee_3d_y,right_knee_3d_z,left_ankle_3d_x,left_ankle_3d_y,left_ankle_3d_z,right_ankle_3d_x,right_ankle_3d_y,right_ankle_3d_z,activity_label
0,0.9948015,0.763597,0.066307,0.8454425,0.461687,0.067615,0.7649525,0.263337,0.0211719999999999,1.1578225,0.459557,0.061797,1.2296925,0.260827,0.0023109999999999,0.7239625000000001,0.116647,-0.136769,1.2983925,0.1192169999999999,-0.149839,0.9265935,-0.002804,-0.000235,1.0734065,0.002804,0.0002349999999999,0.8875824999999999,-0.402063,0.0082889999999999,1.1321925,-0.361543,-0.017679,0.8792425000000001,-0.748173,-0.026423,1.1377525,-0.739043,-0.016937,0
1,0.9965625,0.7640899999999999,0.0648209999999999,0.8472145,0.46286,0.064721,0.7565445,0.27253,0.0020949999999999,1.1582745,0.46024,0.0596209999999999,1.2489745,0.27174,-0.007667,0.6902545,0.15425,-0.170735,1.3174845,0.15923,-0.183255,0.9263945,-0.002597,-0.000467,1.0736055,0.002597,0.0004669999999999,0.8876145,-0.4018,0.0088449999999999,1.1320145,-0.35844,-0.016984,0.8788145,-0.74883,-0.026719,1.1373445,-0.73914,-0.015816,0
2,0.9971595,0.764294,0.0648199999999999,0.8564265,0.466914,0.057661,0.7451465000000002,0.292064,-0.017385,1.1580865,0.4606639999999999,0.0583029999999999,1.2666665,0.294784,-0.039521,0.6730865000000001,0.183684,-0.194429,1.3618165,0.206454,-0.216169,0.9261315,-0.002426,-0.0005199999999999,1.0738685,0.0024259999999999,0.0005199999999999,0.8881565000000001,-0.402456,0.0090349999999999,1.1324364999999998,-0.357926,-0.017565,0.8785965,-0.748876,-0.027401,1.1377065,-0.739776,-0.016533,0
3,0.9979825,0.764174,0.0648789999999999,0.8583235,0.467904,0.054755,0.7306935,0.312034,-0.036169,1.1577835,0.461284,0.0566249999999999,1.2776435,0.311734,-0.054408,0.6351534999999999,0.240264,-0.220445,1.3664035,0.2379939999999999,-0.241105,0.9258925,-0.002064,-0.0011779999999999,1.0741075,0.002064,0.0011779999999999,0.8883335,-0.4013859999999999,0.008361,1.1327535,-0.355966,-0.018038,0.8788535,-0.7481059999999999,-0.0284169999999999,1.1378735,-0.7369559999999999,-0.016328,0
4,0.9984825,0.7639060000000001,0.0648654999999999,0.8571835,0.4676459999999999,0.0541955,0.7147535,0.3364459999999999,-0.0533895,1.1571235,0.462246,0.0554805,1.2953035,0.338906,-0.0661115,0.6473335,0.2979759999999999,-0.2768845,1.3761035,0.299276,-0.2664944999999999,0.9255935,-0.002025,-0.0012015,1.0744065,0.002025,0.0012014999999999,0.8884434999999999,-0.400914,0.0084834999999999,1.1326435,-0.354114,-0.0181735,0.8783235000000001,-0.7468039999999999,-0.0293435,1.1379535,-0.737254,-0.0170765,0
5,0.9987185,0.7636225000000001,0.064329,0.8559955,0.4693825,0.050292,0.6929655,0.3860325,-0.0746879999999999,1.1530255,0.4667725,0.052916,1.3184755,0.3889825,-0.070847,0.6233455,0.4104525,-0.304048,1.3970555,0.3997325,-0.276538,0.9249135,-0.0020264999999999,-0.0021949999999999,1.0750865,0.0020265,0.0021949999999999,0.8882155,-0.3987975,0.008387,1.1319655,-0.3533875,-0.0188159999999999,0.8774955,-0.7473474999999999,-0.030465,1.1379755,-0.7386075,-0.0201079999999999,0
6,0.99899,0.7623325000000001,0.0639325,0.855549,0.4709824999999999,0.0479784999999999,0.6737490000000002,0.4331325,-0.1287905,1.153109,0.4691225,0.0517885,1.326299,0.4234124999999999,-0.0767205,0.6128090000000002,0.4780525,-0.3346005,1.407099,0.4500725,-0.2785205,0.924776,-0.0019565,-0.0026525,1.075224,0.0019565,0.0026524999999999,0.888159,-0.3983675,0.0077004999999999,1.131679,-0.3541975,-0.0194555,0.877149,-0.7478674999999999,-0.0308095,1.138559,-0.7382475,-0.0214045,0
7,0.998158,0.755664,0.063998,0.847217,0.478234,0.0501019999999999,0.709357,0.487294,-0.0497229999999999,1.157497,0.471684,0.049865,1.299767,0.487944,-0.057533,0.6504270000000001,0.563004,-0.210845,1.379477,0.557514,-0.224055,0.925564,-0.001875,-0.001464,1.074436,0.001875,0.001464,0.887857,-0.407356,0.0061949999999999,1.131477,-0.362846,-0.019281,0.8779170000000001,-0.7557060000000001,-0.029702,1.137647,-0.744986,-0.0187799999999999,0
8,0.9981175,0.7530515,0.063876,0.8466945,0.4808615,0.049745,0.7082245,0.5284814999999999,-0.0500619999999999,1.1576745,0.4744914999999999,0.0488279999999999,1.3003245,0.5292715,-0.057921,0.6502345,0.6325715,-0.210731,1.3792745,0.6297214999999999,-0.224421,0.9255465,-0.0018154999999999,-0.001353,1.0744535,0.0018155,0.001353,0.8878745000000001,-0.4098585,0.005823,1.1313244999999998,-0.3654685,-0.0194169999999999,0.8779845,-0.7582685,-0.029821,1.1377745,-0.7476085,-0.019006,0
9,0.9979415,0.749855,0.0637109999999999,0.8460475000000001,0.483455,0.049504,0.7079575,0.568235,-0.050314,1.1577475,0.477555,0.047962,1.3000575,0.568595,-0.058173,0.6501275,0.697105,-0.205363,1.3791475,0.696615,-0.219803,0.9255825,-0.001697,-0.001267,1.0744175,0.001697,0.0012669999999999,0.8878575000000001,-0.412375,0.0055639999999999,1.1311975,-0.368215,-0.019524,0.8781275,-0.761405,-0.029847,1.1379375,-0.750345,-0.01927,0
10,0.9976845,0.746628,0.063594,0.8444305,0.4860179999999999,0.049426,0.7077005000000001,0.603188,-0.050431,1.1578305,0.480408,0.047368,1.2998505,0.603558,-0.0566449999999999,0.6503304999999999,0.750268,-0.19558,1.3777305,0.753428,-0.20983,0.9256895,-0.0016509999999999,-0.0011579999999999,1.0743105,0.001651,0.0011579999999999,0.8878005,-0.414762,0.0054409999999999,1.1310505,-0.371062,-0.019644,0.8783305000000001,-0.764542,-0.029794,1.1380805,-0.752942,-0.018788,0
11,0.9974115,0.7435505,0.063427,0.8429075,0.4882905,0.049324,0.7075075,0.6334605,-0.0479879999999999,1.1577775,0.4835505,0.047071,1.2996775,0.6351305,-0.053231,0.6554175000000001,0.7979705,-0.181357,1.3751175,0.8056005,-0.1957269999999999,0.9258645,-0.0016445,-0.0010819999999999,1.0741355,0.0016445,0.0010819999999999,0.8877375000000001,-0.4173295,0.0051709999999999,1.1308675,-0.3740995,-0.019799,0.8784675000000001,-0.7678294999999999,-0.029891,1.1381775,-0.7559095,-0.018485,0
12,0.9971265,0.7405885,0.0632475,0.8417325,0.4902585,0.0492195,0.7085524999999999,0.6607585,-0.0431864999999999,1.1576825,0.4868285,0.0468855,1.2978125,0.6636585,-0.0479795,0.6593825,0.8394885,-0.1602565,1.3707925,0.8518785,-0.1775765,0.9260685,-0.0016334999999999,-0.0011245,1.0739315,0.0016334999999999,0.0011245,0.8876325,-0.4199615,0.0047355,1.1306625,-0.3773615,-0.0199625,0.8786325000000001,-0.7713814999999999,-0.0300835,1.1382125,-0.7591215,-0.0183295,0
13,0.996796,0.7379015,0.0629369999999999,0.841236,0.4912215,0.049328,0.712196,0.6829015,-0.035716,1.157706,0.4897215,0.046701,1.292976,0.6831215,-0.042071,0.666196,0.8699515,-0.135491,1.363296,0.8851915,-0.157191,0.926286,-0.0016205,-0.001202,1.073714,0.0016205,0.0012019999999999,0.887486,-0.4226185,0.0040989999999999,1.130396,-0.3806485,-0.020083,0.878776,-0.7746685,-0.030271,1.138206,-0.7619684999999999,-0.01812,0
14,0.9964465,0.7361605,0.062566,0.8409575,0.4910805,0.049731,0.7153475,0.6919105,-0.027757,1.1574075,0.4924605,0.046608,1.2881175,0.6921704999999999,-0.034213,0.6714775,0.8862005,-0.1182739999999999,1.3527675,0.8998605,-0.136964,0.9264615,-0.0016474999999999,-0.0011959999999999,1.0735385,0.0016474999999999,0.0011959999999999,0.8873475,-0.4245595,0.003602,1.1301375,-0.3831295,-0.020152,0.8789075,-0.7771895000000001,-0.030376,1.1381774999999998,-0.7641495,-0.0182209999999999,0
15,0.99608,0.7347695,0.0621385,0.840661,0.4908194999999999,0.0503025,0.718611,0.6986795,-0.0193825,1.157111,0.4954294999999999,0.0468305,1.283261,0.7018395,-0.0264205,0.6763410000000001,0.8994995,-0.1012165,1.342771,0.9100195,-0.1178564999999999,0.926588,-0.0017014999999999,-0.0011575,1.073412,0.0017014999999999,0.0011574999999999,0.887181,-0.4263405,0.0032104999999999,1.129861,-0.3853605,-0.0201645,0.879001,-0.7795205000000001,-0.0305645,1.138191,-0.7658105000000001,-0.0177585,0
16,0.995732,0.733279,0.061703,0.840384,0.490249,0.05104,0.7215940000000001,0.7040690000000001,-0.0113079999999999,1.156824,0.497929,0.047507,1.278554,0.711709,-0.019274,0.680474,0.909309,-0.0859719999999999,1.333894,0.920269,-0.101912,0.926713,-0.001797,-0.001107,1.073287,0.001797,0.001107,0.887014,-0.428271,0.0028199999999999,1.1295639999999998,-0.387941,-0.0202349999999999,0.878794,-0.781911,-0.0307539999999999,1.138204,-0.768151,-0.017875,0
17,0.9955535,0.731923,0.061228,0.8407675,0.489823,0.05125,0.7242875000000001,0.706933,-0.0048619999999999,1.1568175,0.500363,0.04865,1.2759175,0.718123,-0.013418,0.6834975000000001,0.917003,-0.074584,1.3275975,0.925913,-0.089074,0.9267925,-0.0018599999999999,-0.0010849999999999,1.0732075,0.00186,0.001085,0.8868475000000001,-0.429627,0.002564,1.1293975,-0.389297,-0.0202969999999999,0.8786275,-0.783267,-0.0308159999999999,1.1380375,-0.769507,-0.017937,0
18,0.995416,0.730553,0.0606064999999999,0.8412410000000001,0.4893929999999999,0.0513065,0.726491,0.708543,0.0005954999999999,1.156551,0.502543,0.0496265,1.273331,0.722783,-0.0086404999999999,0.686141,0.923233,-0.0645895,1.3224809999999998,0.930263,-0.0781615,0.926853,-0.00202,-0.0011275,1.073147,0.00202,0.0011275,0.886711,-0.430997,0.0021764999999999,1.129271,-0.390667,-0.0205045,0.878501,-0.784637,-0.0310275,1.137911,-0.770917,-0.0181445,0
19,0.9952955,0.7292190000000001,0.059902,0.8416915,0.488819,0.05111,0.7281615,0.709389,0.005166,1.1562215,0.504499,0.050425,1.2709715,0.726059,-0.0043699999999999,0.6881415,0.928279,-0.056365,1.3181915,0.933659,-0.069006,0.9268915,-0.0021069999999999,-0.0011439999999999,1.0731084999999998,0.002107,0.0011439999999999,0.8866015,-0.432331,0.001686,1.1291615,-0.392321,-0.0208609999999999,0.8783915,-0.785971,-0.031361,1.1378015,-0.772411,-0.0184049999999999,0
20,0.9956165,0.728805,0.058834,0.8423095,0.488535,0.050694,0.7292195,0.710035,0.0087889999999999,1.1558995,0.505835,0.0509639999999999,1.2690195,0.7282150000000001,-0.000627,0.6896295,0.931285,-0.049943,1.3145695,0.935525,-0.061445,0.9268935,-0.002124,-0.001269,1.0731065,0.002124,0.0012689999999999,0.8860495,-0.433265,0.0011399999999999,1.1285695,-0.394345,-0.021281,0.8777595,-0.787255,-0.031771,1.1369395,-0.774255,-0.018975,0
21,0.995994,0.7287045000000001,0.0575085,0.842823,0.4883344999999999,0.0499425,0.7297630000000002,0.7106245,0.0116315,1.155633,0.5072844999999999,0.0511365,1.267543,0.7298845,0.0023294999999999,0.690843,0.9336845,-0.0444824999999999,1.311543,0.9371045,-0.0555294999999999,0.926896,-0.0021615,-0.0013915,1.073104,0.0021614999999999,0.0013915,0.885513,-0.4345555,0.0003144999999999,1.127943,-0.3961255,-0.0220185,0.877283,-0.7885655,-0.0324945,1.136033,-0.7759155,-0.0197854999999999,0
22,0.996465,0.7287375,0.055803,0.843261,0.4882974999999999,0.048808,0.7299709999999999,0.7111875,0.013619,1.155441,0.5088575,0.050841,1.266391,0.7313175,0.004486,0.691731,0.9351475,-0.040466,1.309211,0.9388275,-0.051223,0.926892,-0.0022044999999999,-0.0015359999999999,1.073108,0.0022044999999999,0.001536,0.884991,-0.4355625,-0.0008999999999999,1.127271,-0.3975125,-0.0231709999999999,0.876771,-0.7895025,-0.033678,1.135231,-0.7770425,-0.020884,0
23,0.9969,0.7289125,0.053624,0.8435090000000001,0.4884024999999999,0.047157,0.729919,0.7119825,0.013496,1.155269,0.5101925,0.049657,1.265429,0.7323125,0.004329,0.691929,0.9355425,-0.039867,1.308699,0.9393125,-0.051692,0.926863,-0.0022324999999999,-0.001686,1.073137,0.0022325,0.001686,0.884349,-0.4362875,-0.0026269999999999,1.126399,-0.3989475,-0.024844,0.876139,-0.7901475,-0.0354199999999999,1.134329,-0.7780374999999999,-0.022679,0
24,0.997299,0.7287545,0.0509065,0.843498,0.4885145000000001,0.0448645,0.729738,0.7132645000000001,0.0119835,1.154958,0.5112245,0.0475205,1.264778,0.7321545,0.0027454999999999,0.691878,0.9356445,-0.0409385,1.308178,0.9398945,-0.0527975,0.926901,-0.0022525,-0.0016565,1.073099,0.0022524999999999,0.0016564999999999,0.883448,-0.4359655,-0.0050355,1.125418,-0.3998454999999999,-0.0270914999999999,0.875318,-0.7901954999999999,-0.0377175,1.133328,-0.7781954999999999,-0.0248415,1
25,0.997946,0.7287545,0.046985,0.8437450000000001,0.4885145000000001,0.041387,0.729645,0.7132645000000001,0.008782,1.154685,0.5112245,0.044324,1.264295,0.7321545,-0.000445,0.691955,0.9356445,-0.043756,1.307685,0.9398945,-0.055987,0.926901,-0.0022525,-0.001575,1.073099,0.0022524999999999,0.001575,0.882525,-0.4353955,-0.008635,1.124815,-0.4011055,-0.030476,0.8746050000000001,-0.7900455,-0.041294,1.132645,-0.7781755,-0.0288919999999999,1
26,0.998587,0.7287545,0.0423645,0.843921,0.4885145000000001,0.0371984999999999,0.729141,0.7132645000000001,0.0050204999999999,1.154391,0.5112245,0.0405574999999999,1.263831,0.7321545,-0.0042074999999999,0.691801,0.9356445,-0.0475275,1.307101,0.9398945,-0.0597464999999999,0.926836,-0.0022525,-0.0015565,1.073164,0.0022524999999999,0.0015564999999999,0.881461,-0.4348054999999999,-0.0129015,1.124441,-0.4024455,-0.0344785,0.874441,-0.7901254999999999,-0.0455285,1.132461,-0.7789055,-0.0338075,1
27,0.99932,0.7286545,0.0363355,0.844176,0.4885145000000001,0.0319375,0.728476,0.7131345,0.0004325,1.154246,0.5112245,0.0359535,1.263276,0.7306045,-0.0087984999999999,0.691696,0.9356445,-0.0521325,1.306596,0.9396045,-0.0643395,0.926748,-0.0022525,-0.0014354999999999,1.073252,0.0022524999999999,0.0014355,0.880266,-0.4342355,-0.0188475,1.124136,-0.4037655,-0.0396605,0.8743259999999999,-0.7901254999999999,-0.0509475,1.132386,-0.7794154999999999,-0.0395825,1
28,0.999942,0.7278405,0.0265555,0.844737,0.4878705,0.0233974999999999,0.7272970000000001,0.7142204999999999,-0.0073285,1.153787,0.5106704999999999,0.0282784999999999,1.262747,0.7300205,-0.0169905,0.691457,0.9372405,-0.0591395,1.305747,0.9419805,-0.0715325,0.926601,-0.0020244999999999,-0.0013874999999999,1.073399,0.0020244999999999,0.0013875,0.878317,-0.4305495,-0.0293375,1.123747,-0.4026095,-0.0483605,0.874147,-0.7877095000000001,-0.0590975,1.132247,-0.7774995,-0.0478305,1
29,1.0000965,0.7263515,0.0154879999999999,0.8452345,0.4873515,0.0138579999999999,0.7256644999999999,0.7146315,-0.016787,1.1531645,0.5101315000000001,0.019369,1.2615045,0.7285615,-0.026633,0.6908845,0.9386315,-0.067751,1.3041245,0.9444715,-0.080747,0.9264275,-0.0018685,-0.001313,1.0735725,0.0018685,0.001313,0.8766745,-0.4247485,-0.041566,1.1234945,-0.3997785,-0.059416,0.8741945,-0.7833185,-0.068409,1.1321045,-0.7734685,-0.057362,1
30,1.000223,0.7249715000000001,0.0038829999999999,0.845691,0.4864415,0.0037809999999999,0.7239610000000001,0.7147815,-0.027154,1.152601,0.5092515,0.010047,1.260511,0.7268615,-0.037323,0.689921,0.9358215,-0.07783,1.302421,0.9475615,-0.091153,0.926297,-0.0016544999999999,-0.001272,1.073703,0.0016544999999999,0.0012719999999999,0.8749610000000001,-0.4178385,-0.05462,1.123191,-0.3963385,-0.071351,0.874201,-0.7777885,-0.078094,1.131961,-0.7696185,-0.068545,1
31,1.000361,0.7235775,-0.008359,0.84617,0.4856474999999999,-0.006543,0.72218,0.7145575000000001,-0.03815,1.15205,0.5084275,0.0005129999999999,1.25965,0.7247575,-0.048444,0.68875,0.9326875,-0.088648,1.3006,0.9504575,-0.10236,0.926157,-0.0014454999999999,-0.001201,1.073843,0.0014454999999999,0.001201,0.8732700000000001,-0.4103925,-0.068173,1.12285,-0.3925025,-0.084037,0.87422,-0.7714924999999999,-0.088099,1.13179,-0.7650524999999999,-0.079976,1
32,1.0004039999999998,0.721341,-0.020554,0.8464850000000002,0.484271,-0.016899,0.720465,0.712631,-0.049447,1.151105,0.507361,-0.009046,1.258875,0.7229909999999999,-0.059625,0.687235,0.928201,-0.099693,1.298435,0.948481,-0.11435,0.925944,-0.0013329999999999,-0.00118,1.074056,0.001333,0.00118,0.871525,-0.402269,-0.081948,1.122985,-0.388339,-0.097563,0.874665,-0.764199,-0.098234,1.132285,-0.759359,-0.09145,1
33,1.000435,0.7184775,-0.0330765,0.846762,0.4825775,-0.0278745,0.718852,0.7107374999999999,-0.0616585,1.150162,0.5062475,-0.0191405,1.257982,0.7213774999999999,-0.0723395,0.685622,0.9241175,-0.1111875,1.296442,0.9483675,-0.1272405,0.925731,-0.0013714999999999,-0.0013545,1.074269,0.0013715,0.0013545,0.869822,-0.3919925,-0.0963575,1.123382,-0.3824825,-0.1119085,0.875202,-0.7543725,-0.1088205,1.132942,-0.7490925,-0.1014735,1
34,1.000435,0.7155050000000001,-0.0447689999999999,0.84706,0.481165,-0.037957,0.71732,0.708175,-0.073413,1.14927,0.504625,-0.028612,1.25762,0.719515,-0.084511,0.6840200000000001,0.919875,-0.122344,1.29485,0.946075,-0.140193,0.925477,-0.0013629999999999,-0.0014519999999999,1.074523,0.001363,0.001452,0.8682,-0.381345,-0.110262,1.12405,-0.375915,-0.125734,0.87591,-0.744015,-0.1182469999999999,1.13361,-0.740115,-0.11207,1
35,1.0002615,0.7121930000000001,-0.056313,0.8474145000000001,0.479333,-0.047724,0.7159945000000001,0.705633,-0.085427,1.1482345,0.502143,-0.038258,1.2571445,0.717333,-0.096874,0.6823144999999999,0.916453,-0.133847,1.2940145,0.944793,-0.153248,0.9253535,-0.0013329999999999,-0.001428,1.0746465,0.001333,0.0014279999999999,0.8664145,-0.368537,-0.124341,1.1248545,-0.364037,-0.139625,0.8762145000000001,-0.7325870000000001,-0.127377,1.1343345,-0.7287570000000001,-0.122131,1
36,1.0002974999999998,0.7091054999999999,-0.0667255,0.8479565,0.4773955,-0.0569245,0.7149965,0.7031054999999999,-0.0970415,1.1472565,0.4988255,-0.0474944999999999,1.2567865,0.7144355,-0.1085474999999999,0.6808565,0.9141055,-0.1453315,1.2936065,0.9421155,-0.1664884999999999,0.9250615,-0.0012654999999999,-0.0014954999999999,1.0749384999999998,0.0012654999999999,0.0014954999999999,0.8648965,-0.3543845,-0.1373535,1.1259265,-0.3510845,-0.1527925,0.8767265,-0.7196345000000001,-0.1345414999999999,1.1351865,-0.7165245,-0.1317654999999999,1
37,1.0003345,0.706548,-0.0790455,0.8478415,0.476688,-0.0687355,0.7142415,0.6995979999999999,-0.1115805,1.1463215,0.497198,-0.0597545,1.2563215,0.713318,-0.1230335,0.6792815,0.913208,-0.1602555,1.2930415,0.939968,-0.1829145,0.9248455,-0.001419,-0.0016055,1.0751545,0.0014189999999999,0.0016054999999999,0.8638715000000001,-0.339292,-0.1515885,1.1267415,-0.336962,-0.1681755,0.8772515,-0.705762,-0.1447335,1.1357815,-0.702972,-0.1446505,1
38,1.000448,0.705732,-0.0917645,0.848527,0.474732,-0.0809115,0.713757,0.697262,-0.1257675,1.144967,0.495082,-0.0720245,1.255917,0.710502,-0.1372265,0.678417,0.906572,-0.1764235,1.292497,0.932042,-0.1993675,0.924592,-0.001562,-0.0017525,1.075408,0.001562,0.0017524999999999,0.8616969999999999,-0.321758,-0.1696145,1.128067,-0.320508,-0.1855775,0.877207,-0.690928,-0.1546755,1.135767,-0.688708,-0.1573005,1
39,1.0005265,0.703434,-0.1048355,0.8492905,0.473244,-0.0934765,0.7132305,0.694804,-0.1410105,1.1440104999999998,0.4917439999999999,-0.0853175,1.2555405,0.707404,-0.1524195,0.6778805,0.905694,-0.1920655,1.2920505,0.924654,-0.2165495,0.9243005,-0.0015669999999999,-0.0018994999999999,1.0756995,0.0015669999999999,0.0018994999999999,0.8592605,-0.303556,-0.1883185,1.1296805,-0.303416,-0.2036895,0.8773605,-0.673236,-0.1646395,1.1353805,-0.671986,-0.1679945,1
40,1.000561,0.7013590000000001,-0.1179399999999999,0.850309,0.470569,-0.106262,0.7126589999999999,0.692679,-0.156196,1.143079,0.488419,-0.098469,1.254609,0.7049190000000001,-0.167513,0.677359,0.905209,-0.207915,1.2922889999999998,0.917239,-0.2341249999999999,0.924071,-0.001667,-0.002015,1.075929,0.001667,0.002015,0.856939,-0.287011,-0.206645,1.131309,-0.287111,-0.221135,0.877579,-0.6554709999999999,-0.174003,1.135029,-0.6559109999999999,-0.17791,1
41,1.000991,0.70056,-0.1315859999999999,0.851415,0.46855,-0.1189659999999999,0.712215,0.6912699999999999,-0.171186,1.142255,0.48615,-0.111535,1.254265,0.7023199999999999,-0.182605,0.676865,0.90403,-0.2240849999999999,1.293425,0.91527,-0.251415,0.923757,-0.0017299999999999,-0.0020049999999999,1.076243,0.0017299999999999,0.002005,0.854735,-0.27042,-0.2247449999999999,1.132535,-0.27047,-0.237675,0.877875,-0.63693,-0.183386,1.134715,-0.6396000000000001,-0.18777,1
42,1.0015045,0.6975250000000001,-0.145477,0.8524795000000001,0.465685,-0.13153,0.7115795,0.688875,-0.186826,1.1414895,0.481475,-0.124747,1.2541595,0.697095,-0.198493,0.6762995,0.902615,-0.2424299999999999,1.2946195,0.906215,-0.27076,0.9235165,-0.001475,-0.00185,1.0764835,0.001475,0.00185,0.8525595,-0.2510249999999999,-0.24381,1.1334195,-0.250625,-0.25521,0.8780995,-0.6152249999999999,-0.192935,1.1340995,-0.6192249999999999,-0.197414,1
43,1.002007,0.69357,-0.159873,0.8536240000000002,0.46209,-0.144386,0.7109840000000001,0.68638,-0.203016,1.140824,0.47606,-0.138503,1.254384,0.6878,-0.214947,0.676114,0.89917,-0.26172,1.295874,0.89881,-0.2912599999999999,0.923255,-0.0011599999999999,-0.00167,1.076745,0.0011599999999999,0.00167,0.850494,-0.2302199999999999,-0.26293,1.134194,-0.22923,-0.27299,0.878354,-0.59221,-0.2026379999999999,1.133334,-0.59757,-0.207496,1
44,1.0024295,0.689515,-0.173978,0.8546675,0.458815,-0.157263,0.7108375,0.683625,-0.219117,1.1402975,0.471245,-0.151935,1.2546375,0.680075,-0.23081,0.6759675,0.896235,-0.28064,1.2969775,0.8911250000000001,-0.31207,0.9229865,-0.000835,-0.00153,1.0770135,0.000835,0.00153,0.8484975,-0.209455,-0.28158,1.1347875,-0.2061849999999999,-0.29059,0.8784475,-0.568985,-0.212145,1.1325375,-0.575215,-0.217224,1
45,1.0027555,0.68529,-0.18805,0.8557675000000001,0.45602,-0.169977,0.7106675,0.68118,-0.235128,1.1397975,0.46766,-0.165224,1.2548275,0.67412,-0.246918,0.6753675,0.89367,-0.299355,1.2979675,0.88563,-0.333025,0.9227415,-0.0005799999999999,-0.0013749999999999,1.0772585,0.0005799999999999,0.0013749999999999,0.8465475,-0.18851,-0.300025,1.1354175,-0.18242,-0.308015,0.8785775,-0.54557,-0.221495,1.1316975,-0.55291,-0.2272509999999999,1
46,1.0032625,0.68052,-0.1966669999999999,0.8570725,0.45276,-0.176958,0.7108525,0.67976,-0.2452119999999999,1.1395425,0.4638,-0.1727179999999999,1.2552525,0.6666799999999999,-0.257356,0.6751325,0.88873,-0.312505,1.2990325,0.8728400000000001,-0.348785,0.9225515,-0.00031,-0.0011849999999999,1.0774485,0.00031,0.0011849999999999,0.8448825,-0.16969,-0.312925,1.1362125,-0.16082,-0.319805,0.8788825000000001,-0.52433,-0.2253379999999999,1.1309625,-0.53345,-0.230931,1
47,1.0035685,0.674225,-0.203456,0.8574515,0.450365,-0.182575,0.7109415,0.675425,-0.254208,1.1391415,0.459755,-0.179275,1.2555115,0.661565,-0.267435,0.6749615,0.889835,-0.323565,1.2990915,0.866015,-0.362845,0.9224495,2.4999999999997247e-05,-0.001025,1.0775505,-2.4999999999997247e-05,0.0010249999999999,0.8443915000000001,-0.152365,-0.320435,1.1362015,-0.143115,-0.327195,0.8790415,-0.5048549999999999,-0.228329,1.1302915,-0.5157349999999999,-0.235076,1
48,1.0038275,0.6693,-0.209708,0.8577855,0.44865,-0.187047,0.7111155,0.6709700000000001,-0.261269,1.1390655,0.45684,-0.184398,1.2558855,0.6562300000000001,-0.27627,0.6748555,0.8828100000000001,-0.33396,1.2990055,0.8578000000000001,-0.37529,0.9223335,0.00038,-0.00084,1.0776665,-0.0003799999999999,0.0008399999999999,0.8439055,-0.13754,-0.32622,1.1361655,-0.12784,-0.33269,0.8788955,-0.4893099999999999,-0.231337,1.1292255,-0.50072,-0.239038,1
49,1.004097,0.663455,-0.215278,0.8579740000000001,0.446385,-0.191241,0.711254,0.6666350000000001,-0.26809,1.139014,0.453845,-0.189508,1.255874,0.651975,-0.28562,0.6747639999999999,0.876545,-0.34352,1.298734,0.8504550000000001,-0.38781,0.922256,0.000695,-0.00064,1.077744,-0.000695,0.00064,0.843534,-0.1216149999999999,-0.33184,1.136124,-0.111425,-0.3380999999999999,0.8787240000000001,-0.4728949999999999,-0.2343509999999999,1.128174,-0.4841949999999999,-0.241914,1
50,1.004296,0.65709,-0.220618,0.858168,0.44399,-0.195599,0.711488,0.66301,-0.274785,1.139738,0.44989,-0.194897,1.255788,0.64686,-0.295195,0.674658,0.87335,-0.352545,1.298398,0.8430099999999999,-0.399995,0.922134,0.0009299999999999,-0.000595,1.077866,-0.00093,0.0005949999999999,0.8432580000000001,-0.10828,-0.337415,1.136218,-0.09808,-0.343505,0.878568,-0.45599,-0.237436,1.127268,-0.46736,-0.244587,1
51,1.0043384999999998,0.6536299999999999,-0.2256449999999999,0.8582875,0.4426,-0.1990549999999999,0.7117475,0.65892,-0.28003,1.1401275,0.44883,-0.1991379999999999,1.2558575,0.64339,-0.3030199999999999,0.6744275,0.8702300000000001,-0.3591499999999999,1.2978675,0.84039,-0.41002,0.9219645,0.00095,-0.0006099999999999,1.0780355,-0.00095,0.00061,0.8430975,-0.09854,-0.3408,1.1361375,-0.08875,-0.34657,0.8783775,-0.4440199999999999,-0.2398809999999999,1.1266275,-0.45528,-0.246871,1
52,1.004271,0.6495150000000001,-0.230468,0.858373,0.440675,-0.202511,0.7119329999999999,0.655285,-0.28479,1.140453,0.446225,-0.203183,1.255803,0.643795,-0.31058,0.674193,0.870275,-0.36531,1.297223,0.838695,-0.41965,0.921648,0.000995,-0.0007,1.078352,-0.000995,0.0006999999999999,0.8427830000000001,-0.0888649999999999,-0.34366,1.135943,-0.079575,-0.34894,0.878113,-0.432855,-0.241965,1.125913,-0.443945,-0.24847,1
53,1.003835,0.64543,-0.234997,0.85825,0.43894,-0.205584,0.71209,0.65144,-0.28927,1.14057,0.44429,-0.206881,1.25574,0.64255,-0.31845,0.6743800000000001,0.8669199999999999,-0.37218,1.29648,0.83657,-0.42973,0.9213,0.001,-0.00083,1.0787,-0.001,0.0008299999999999,0.84249,-0.0787299999999999,-0.34619,1.13572,-0.0701899999999999,-0.35103,0.87766,-0.42205,-0.244171,1.12517,-0.4326399999999999,-0.249535,1
54,1.003651,0.64069,-0.239365,0.85802,0.4366899999999999,-0.208366,0.71211,0.6465099999999999,-0.29327,1.14057,0.44149,-0.210332,1.25589,0.64107,-0.32627,0.6745400000000001,0.8625700000000001,-0.3787,1.29552,0.82959,-0.43949,0.920964,0.00101,-0.0009299999999999,1.079036,-0.00101,0.00093,0.84213,-0.0685399999999999,-0.3481499999999999,1.13536,-0.06071,-0.35267,0.8771500000000001,-0.41122,-0.246058,1.12465,-0.42151,-0.251857,1
55,1.0033249999999998,0.63603,-0.24343,0.857767,0.434653,-0.210893,0.712277,0.64174,-0.297255,1.140447,0.43887,-0.213611,1.256377,0.63993,-0.334325,0.674667,0.8573500000000001,-0.385255,1.295097,0.82822,-0.448755,0.920662,0.00102,-0.000895,1.079338,-0.00102,0.000895,0.841717,-0.0574399999999999,-0.3495749999999999,1.135107,-0.0504899999999999,-0.354115,0.8765270000000001,-0.3998,-0.247702,1.124027,-0.40995,-0.254139,1
56,1.002941,0.633285,-0.248202,0.8575740000000001,0.43155,-0.213362,0.7122540000000002,0.639005,-0.3018,1.140414,0.435588,-0.216829,1.256614,0.636795,-0.34272,0.6749240000000001,0.8514550000000001,-0.39253,1.294734,0.8251649999999999,-0.4583199999999999,0.920456,0.0010649999999999,-0.00092,1.079544,-0.0010649999999999,0.00092,0.8413740000000001,-0.0434749999999999,-0.35097,1.135044,-0.037795,-0.35546,0.875934,-0.385835,-0.249833,1.123534,-0.396095,-0.256185,1
57,1.002414,0.6281350000000001,-0.252452,0.857216,0.428471,-0.215903,0.711966,0.635565,-0.30636,1.140086,0.43303,-0.219915,1.256586,0.6353850000000001,-0.35097,0.6751659999999999,0.852695,-0.4001,1.294356,0.823955,-0.46855,0.920179,0.001005,-0.00092,1.079821,-0.0010049999999999,0.00092,0.8410460000000001,-0.0289549999999999,-0.35236,1.134816,-0.0243749999999999,-0.3567099999999999,0.874686,-0.3713149999999999,-0.252184,1.123506,-0.3817149999999999,-0.2588249999999999,1
58,1.0019165,0.623785,-0.256412,0.8569095000000001,0.427407,-0.217961,0.7116295,0.632325,-0.31043,1.1395995,0.431243,-0.222766,1.2561595,0.633975,-0.35871,0.6753994999999999,0.8507750000000001,-0.40798,1.2934695,0.820225,-0.47981,0.9199935,0.0011349999999999,-0.0009899999999999,1.0800065,-0.0011349999999999,0.0009899999999999,0.8408095000000001,-0.0140949999999999,-0.3535,1.1343995,-0.0104849999999999,-0.3576399999999999,0.8732095,-0.356935,-0.254497,1.1237095,-0.3671249999999999,-0.261417,1
59,1.0015595,0.6191450000000001,-0.2599249999999999,0.8566695,0.42606,-0.2195079999999999,0.7113795,0.629025,-0.31406,1.1392695,0.429332,-0.225065,1.2559895,0.633805,-0.36624,0.6756095000000001,0.848285,-0.41539,1.2923395,0.817225,-0.49034,0.9198885,0.001385,-0.0008499999999999,1.0801115,-0.0013849999999999,0.00085,0.8408095000000001,0.000145,-0.3537,1.1341395,0.002975,-0.35778,0.8717195,-0.342935,-0.25655,1.1241795,-0.353745,-0.264032,1
60,1.0010789999999998,0.614005,-0.262652,0.856341,0.425279,-0.221007,0.711001,0.626955,-0.317375,1.138851,0.426511,-0.227443,1.255481,0.634125,-0.371485,0.6755610000000001,0.845675,-0.422525,1.291281,0.814135,-0.500105,0.919761,0.0016749999999999,-0.000725,1.080239,-0.0016749999999999,0.0007249999999999,0.840461,0.0154949999999999,-0.353355,1.133791,0.0173349999999999,-0.357525,0.8699910000000001,-0.328325,-0.258623,1.124581,-0.3397249999999999,-0.266611,1
61,1.0008199999999998,0.61049,-0.264886,0.856131,0.425119,-0.222192,0.7107410000000001,0.62486,-0.32048,1.138591,0.425726,-0.229275,1.254911,0.63432,-0.37615,0.675441,0.84184,-0.42905,1.290141,0.81023,-0.50832,0.919737,0.0019399999999999,-0.00054,1.080263,-0.0019399999999999,0.0005399999999999,0.840311,0.0299599999999999,-0.3524,1.133641,0.03112,-0.3567599999999999,0.868141,-0.3141899999999999,-0.260733,1.125341,-0.3262699999999999,-0.269191,1
62,1.0003375,0.6044350000000001,-0.2691759999999999,0.8557935,0.423425,-0.225865,0.7103435,0.620455,-0.32608,1.1378235,0.42282,-0.233485,1.2545135,0.632135,-0.38199,0.6749835,0.835445,-0.43678,1.2890635,0.8026850000000001,-0.5179400000000001,0.9196745,0.0020249999999999,0.0002599999999999,1.0803255,-0.0020249999999999,-0.00026,0.8400235,0.046135,-0.34991,1.1330335,0.046495,-0.3560999999999999,0.8660035,-0.299485,-0.264745,1.1260435,-0.311215,-0.273823,1
63,0.9995735,0.59917,-0.2737,0.8553855,0.421834,-0.229761,0.7097955,0.6157,-0.33184,1.1369955,0.420122,-0.237813,1.2531055,0.6224000000000001,-0.38725,0.6744755,0.82837,-0.44507,1.2874455,0.7965800000000001,-0.52751,0.9196685,0.0020899999999999,0.0010099999999999,1.0803315,-0.0020899999999999,-0.00101,0.8384555,0.0614199999999999,-0.34697,1.1323655,0.06089,-0.35575,0.8636955,-0.28643,-0.268852,1.1273055,-0.29719,-0.278765,1
64,0.998871,0.594705,-0.278955,0.854875,0.41936,-0.234413,0.7092350000000001,0.611025,-0.33804,1.135775,0.416911,-0.242861,1.2518049999999998,0.612425,-0.39257,0.674005,0.8214049999999999,-0.454,1.285785,0.789445,-0.5371699999999999,0.919697,0.0020749999999999,0.00184,1.080303,-0.0020749999999999,-0.00184,0.836245,0.071755,-0.34455,1.131675,0.069295,-0.35588,0.861425,-0.275105,-0.273514,1.130315,-0.285085,-0.2886579999999999,1
65,0.9983975,0.5884349999999999,-0.27954,0.8546535,0.4177949999999999,-0.235219,0.7088935000000001,0.606325,-0.33994,1.1347035,0.4144699999999999,-0.244001,1.2508335,0.603285,-0.39317,0.6734135,0.8133649999999999,-0.45768,1.2844735,0.781895,-0.54274,0.9197385,0.0019449999999999,0.00184,1.0802615,-0.001945,-0.00184,0.8341935,0.0800449999999999,-0.3399999999999999,1.1316835,0.0766449999999999,-0.3529799999999999,0.8595535,-0.2669750000000001,-0.273462,1.1335635,-0.275135,-0.294749,1
66,0.9977665,0.5837600000000001,-0.280077,0.8543935,0.414956,-0.236134,0.7083535000000001,0.60227,-0.341875,1.1336035,0.411395,-0.245078,1.2493435,0.592711,-0.394205,0.6726635000000001,0.80484,-0.460885,1.2834435,0.77239,-0.547365,0.9199115,0.00169,0.0018849999999999,1.0800885,-0.00169,-0.0018849999999999,0.8320135000000001,0.08676,-0.334415,1.1316035,0.08276,-0.348805,0.8581835000000001,-0.2603799999999999,-0.27337,1.1360135,-0.2665999999999999,-0.300055,1
67,0.997436,0.579179,-0.2811559999999999,0.8543769999999999,0.4115159999999999,-0.237564,0.707937,0.597676,-0.3446,1.132717,0.4061769999999999,-0.246633,1.247887,0.581355,-0.3954999999999999,0.6717569999999999,0.79736,-0.46418,1.282597,0.76417,-0.55028,0.920076,0.0013799999999999,0.0024399999999999,1.079924,-0.00138,-0.0024399999999999,0.8298570000000001,0.0915599999999999,-0.3291199999999999,1.131847,0.0926499999999999,-0.3461999999999999,0.857317,-0.25539,-0.273887,1.138257,-0.25671,-0.30564,1
68,0.997547,0.579769,-0.281874,0.854611,0.4136299999999999,-0.2391869999999999,0.707571,0.5981699999999999,-0.347515,1.131931,0.4067299999999999,-0.248388,1.246601,0.5748759999999999,-0.396795,0.670871,0.7946199999999999,-0.4675749999999999,1.282111,0.75977,-0.553395,0.920382,0.0010799999999999,0.0028849999999999,1.079618,-0.00108,-0.0028849999999999,0.826621,0.1007899999999999,-0.324515,1.132281,0.1072199999999999,-0.344245,0.8568110000000001,-0.24608,-0.27449,1.140511,-0.2416800000000001,-0.311045,1
69,0.9977765,0.579808,-0.283139,0.8549575,0.415035,-0.2410389999999999,0.7075275,0.598469,-0.3507249999999999,1.1314175,0.408405,-0.2504989999999999,1.2460475,0.569831,-0.397885,0.6700975,0.791135,-0.471005,1.2817775,0.754335,-0.556505,0.9210095,0.0012849999999999,0.003285,1.0789905,-0.0012849999999999,-0.0032849999999999,0.8236775000000001,0.109705,-0.320615,1.1331275,0.121875,-0.3429449999999999,0.8565475000000001,-0.237255,-0.2746679999999999,1.1431575,-0.227025,-0.3167649999999999,1
70,0.9980675,0.579276,-0.284224,0.8552535,0.41653,-0.242745,0.7074535,0.597154,-0.35357,1.1309034999999998,0.40488,-0.253408,1.2456135,0.566532,-0.39949,0.6693435000000001,0.78714,-0.47389,1.2811935,0.75002,-0.55945,0.9215765,0.00143,0.00358,1.0784235,-0.00143,-0.00358,0.8207435,0.1172099999999999,-0.31705,1.1341435,0.13913,-0.3419999999999999,0.8564635,-0.22975,-0.274214,1.1455735,-0.20884,-0.3247,1
71,0.998414,0.5808300000000001,-0.285489,0.855561,0.419365,-0.244209,0.7074310000000001,0.597746,-0.355825,1.130631,0.402375,-0.256204,1.246081,0.5619580000000001,-0.398795,0.668451,0.786545,-0.476565,1.281081,0.747465,-0.5615749999999999,0.922078,0.0018949999999999,0.0038049999999999,1.0779219999999998,-0.0018949999999999,-0.003805,0.817401,0.120825,-0.316355,1.135141,0.152565,-0.342555,0.856441,-0.2249949999999999,-0.274047,1.1479009999999998,-0.1934449999999999,-0.332625,1
72,0.998917,0.58286,-0.286477,0.856075,0.422305,-0.245458,0.7075750000000001,0.599274,-0.357655,1.130585,0.400045,-0.258687,1.246925,0.563966,-0.397605,0.6678050000000001,0.786475,-0.478025,1.281965,0.747525,-0.562465,0.922518,0.0024549999999999,0.0039749999999999,1.077482,-0.0024549999999999,-0.003975,0.815815,0.1238849999999999,-0.316545,1.136345,0.165555,-0.343375,0.856595,-0.2197949999999999,-0.273734,1.150105,-0.1784449999999999,-0.340365,1
73,0.999209,0.584677,-0.287136,0.8563640000000001,0.42603,-0.246421,0.707544,0.600798,-0.358765,1.130564,0.39888,-0.260602,1.247544,0.570757,-0.398275,0.667044,0.7867500000000001,-0.478655,1.282644,0.74971,-0.5637350000000001,0.922971,0.0030599999999999,0.0040649999999999,1.077029,-0.0030599999999999,-0.004065,0.814534,0.13022,-0.316705,1.137454,0.17753,-0.343975,0.8565240000000001,-0.2143699999999999,-0.273271,1.150734,-0.16432,-0.343595,1
74,0.9994405,0.586852,-0.285858,0.8566515,0.43011,-0.245394,0.7075115000000001,0.602839,-0.35771,1.1307515,0.39777,-0.260579,1.2482515,0.5728570000000001,-0.3958899999999999,0.6663915,0.7886000000000001,-0.47735,1.2833415,0.7516700000000001,-0.56203,0.9233345,0.00375,0.0036799999999999,1.0766655,-0.0037499999999999,-0.0036799999999999,0.8132715,0.13632,-0.31538,1.1389415,0.19011,-0.34287,0.8563415,-0.2092999999999999,-0.271123,1.1513315,-0.1499599999999999,-0.34486,1
75,0.999958,0.589834,-0.284298,0.857142,0.43467,-0.243985,0.707642,0.605415,-0.35614,1.131162,0.39752,-0.260095,1.249782,0.579767,-0.39529,0.665862,0.79044,-0.47576,1.284692,0.75607,-0.56094,0.923701,0.00445,0.00336,1.076299,-0.0044499999999999,-0.00336,0.8122920000000001,0.14241,-0.31409,1.140562,0.20212,-0.34168,0.856412,-0.2040299999999999,-0.268937,1.152122,-0.1359399999999999,-0.34582,1
76,1.0005295,0.592635,-0.281844,0.8576935,0.43931,-0.241726,0.7079335,0.60812,-0.3537949999999999,1.1317935,0.39966,-0.258416,1.2512935,0.585917,-0.395435,0.6656335,0.79356,-0.473085,1.2864735,0.76107,-0.559175,0.9239895,0.00507,0.0029349999999999,1.0760105,-0.00507,-0.0029349999999999,0.8115735,0.14798,-0.311855,1.1421435,0.2191199999999999,-0.339495,0.8565135,-0.19908,-0.266188,1.1526135,-0.12133,-0.3459649999999999,1
77,1.000833,0.590861,-0.281633,0.85795,0.4385449999999999,-0.241693,0.7079599999999999,0.605966,-0.35373,1.13221,0.3968649999999999,-0.258836,1.2525,0.5866169999999999,-0.39839,0.6652100000000001,0.791695,-0.4726,1.28832,0.761455,-0.55962,0.923994,0.0054549999999999,0.0028999999999999,1.076006,-0.0054549999999999,-0.0029,0.81187,0.1478149999999999,-0.31203,1.1431,0.2290749999999999,-0.3402,0.85644,-0.199585,-0.266117,1.15275,-0.112635,-0.3482,1
78,1.000859,0.591266,-0.280482,0.857974,0.4389499999999999,-0.240853,0.707654,0.606371,-0.35277,1.132234,0.39554,-0.258021,1.253194,0.588604,-0.40048,0.6644940000000001,0.7921,-0.47096,1.289884,0.76186,-0.55854,0.923996,0.0051999999999999,0.0029599999999999,1.076004,-0.0051999999999999,-0.00296,0.811464,0.1485099999999999,-0.31146,1.143124,0.2294799999999999,-0.3394399999999999,0.856464,-0.1995800000000001,-0.265277,1.152384,-0.11223,-0.34824,1
79,1.0009545,0.591266,-0.278159,0.8580585000000001,0.4389499999999999,-0.238898,0.7076385000000001,0.606371,-0.350365,1.1323185,0.39554,-0.256066,1.2540885,0.591044,-0.400755,0.6642885000000001,0.7921,-0.467995,1.2917785,0.76186,-0.556055,0.9240165,0.0051999999999999,0.0027049999999999,1.0759835,-0.0051999999999999,-0.002705,0.8115384999999999,0.1497599999999999,-0.310005,1.1432085,0.2333499999999999,-0.337565,0.8565484999999999,-0.1995800000000001,-0.263322,1.1524685,-0.10583,-0.346285,1
80,1.0009445,0.591176,-0.277659,0.8580345,0.43886,-0.238903,0.7076145,0.6062810000000001,-0.34973,1.1322945,0.3954500000000001,-0.256071,1.2549745,0.594622,-0.40242,0.6642945,0.7920100000000001,-0.46679,1.2937445,0.7621500000000001,-0.55481,0.9241475,0.00529,0.0027,1.0758525,-0.0052899999999999,-0.0027,0.8115145000000001,0.14967,-0.31001,1.1431345,0.23351,-0.33757,0.8565245000000001,-0.19967,-0.263327,1.1524445,-0.10568,-0.34629,1
81,1.0009885,0.591859,-0.276252,0.8581005000000002,0.43845,-0.238094,0.7076804999999999,0.6051120000000001,-0.34777,1.1324705,0.3942300000000001,-0.255515,1.2560705,0.5984050000000001,-0.4024299999999999,0.6643605,0.7920100000000001,-0.46443,1.2963705,0.7654000000000001,-0.5532699999999999,0.9241375,0.00531,0.00235,1.0758625,-0.0053099999999999,-0.0023499999999999,0.8115405,0.14863,-0.30954,1.1429705,0.23236,-0.33729,0.8565505,-0.20089,-0.263274,1.1524605,-0.1069,-0.34573,1
82,1.0011694999999998,0.59538,-0.273065,0.8580895,0.43857,-0.235617,0.7075895,0.608865,-0.34367,1.1330495,0.39944,-0.25194,1.2569295,0.606117,-0.40034,0.6642995,0.79608,-0.45975,1.2988495,0.77068,-0.54984,0.9243225,0.00467,0.0017299999999999,1.0756775,-0.0046699999999999,-0.00173,0.8136795,0.15262,-0.30924,1.1417594999999998,0.22633,-0.33583,0.8568395,-0.2019299999999999,-0.262554,1.1524694999999998,-0.1095399999999999,-0.33834,1
83,1.001307,0.5996119999999999,-0.271972,0.857973,0.4398899999999999,-0.2343449999999999,0.707353,0.6126469999999999,-0.3414399999999999,1.133663,0.4071199999999999,-0.24957,1.257663,0.614296,-0.40108,0.664593,0.8021299999999999,-0.45681,1.301223,0.7768099999999999,-0.5476099999999999,0.924512,0.0039099999999999,0.00136,1.075488,-0.00391,-0.00136,0.816053,0.1534899999999999,-0.31144,1.140383,0.2181499999999999,-0.33672,0.857233,-0.2038900000000001,-0.264214,1.151903,-0.11747,-0.33333,1
84,1.001806,0.6046889999999999,-0.267857,0.8582310000000001,0.44187,-0.230299,0.7075410000000001,0.6182099999999999,-0.33633,1.134611,0.4149199999999999,-0.244539,1.258901,0.6254059999999999,-0.39873,0.665621,0.8127599999999999,-0.45132,1.303361,0.78657,-0.54213,0.92438,0.0029499999999998,0.0007999999999999,1.0756199999999998,-0.00295,-0.0008,0.818411,0.1550099999999999,-0.31152,1.139761,0.2091299999999999,-0.33545,0.8585110000000001,-0.20517,-0.263232,1.151371,-0.1286400000000001,-0.32553,1
85,1.0022354999999998,0.6114409999999999,-0.263309,0.8581595,0.4447749999999999,-0.2259439999999999,0.7076695,0.62503,-0.33076,1.1354495,0.4215549999999999,-0.2393829999999999,1.2600695,0.6332439999999999,-0.39347,0.6665895,0.822835,-0.44572,1.3051095,0.795215,-0.53616,0.9241015,0.0022149999999999,0.00016,1.0758985,-0.002215,-0.0001599999999999,0.8207995,0.1547549999999999,-0.3117499999999999,1.1389494999999998,0.1979349999999999,-0.33401,0.8596995000000001,-0.2072750000000001,-0.262527,1.1503595,-0.1418250000000001,-0.31359,1
86,1.0025705,0.614601,-0.258338,0.8578805,0.4437949999999999,-0.221012,0.7077205,0.628285,-0.32428,1.1361905,0.4265549999999999,-0.233749,1.2612105,0.6369009999999999,-0.39093,0.6677605,0.829585,-0.43865,1.3069705,0.8001149999999999,-0.5300199999999999,0.9236365,0.0013349999999999,-0.00035,1.0763635,-0.0013349999999999,0.0003499999999999,0.8230705,0.1494849999999999,-0.31206,1.1377305,0.181635,-0.3326,0.8608305,-0.213445,-0.261143,1.1465205,-0.160205,-0.29874,1
87,1.00293,0.617459,-0.253487,0.857641,0.44308,-0.216076,0.707781,0.630957,-0.317915,1.136891,0.43038,-0.2284189999999999,1.262271,0.639674,-0.388685,0.669071,0.83558,-0.431435,1.308981,0.8042400000000001,-0.524335,0.923181,0.00114,-0.0007449999999999,1.076819,-0.00114,0.0007449999999999,0.8252809999999999,0.14156,-0.316525,1.136231,0.16268,-0.334125,0.862101,-0.2214199999999999,-0.259541,1.142521,-0.1808199999999999,-0.285525,1
88,1.003173,0.6222110000000001,-0.249081,0.857287,0.443327,-0.211668,0.707837,0.636198,-0.3122,1.137417,0.43434,-0.223827,1.262937,0.64309,-0.38319,0.669717,0.84455,-0.42429,1.310647,0.80955,-0.5170300000000001,0.92282,0.00077,-0.00127,1.07718,-0.0007699999999999,0.0012699999999999,0.827427,0.1319,-0.32085,1.134537,0.14305,-0.33601,0.863597,-0.23055,-0.258302,1.138707,-0.2017299999999999,-0.274196,1
89,1.003427,0.626615,-0.2441849999999999,0.856959,0.4436449999999999,-0.206413,0.7080690000000001,0.640985,-0.305755,1.138129,0.438557,-0.218822,1.263409,0.647735,-0.381055,0.669929,0.852465,-0.416275,1.312479,0.815785,-0.509835,0.922558,0.0002649999999999,-0.0017649999999999,1.077442,-0.0002649999999999,0.0017649999999999,0.829939,0.1201149999999999,-0.323865,1.132929,0.121865,-0.336845,0.8657090000000001,-0.241925,-0.256284,1.135019,-0.2249149999999999,-0.262365,1
90,1.003578,0.6301749999999999,-0.2390659999999999,0.856643,0.4443119999999999,-0.2013479999999999,0.707793,0.6451849999999999,-0.299385,1.1389129999999998,0.4421619999999999,-0.2138159999999999,1.263133,0.6508649999999999,-0.3747749999999999,0.669673,0.859605,-0.4080549999999999,1.313683,0.8243749999999999,-0.501155,0.92231,-4.500000000007276e-05,-0.0019849999999999,1.07769,4.499999999996174e-05,0.001985,0.8323929999999999,0.1060049999999999,-0.3263749999999999,1.131903,0.1038049999999999,-0.337125,0.867693,-0.2555950000000001,-0.2542219999999999,1.131393,-0.248875,-0.252044,1
91,1.003216,0.632775,-0.234619,0.856263,0.443551,-0.197199,0.707733,0.646455,-0.29371,1.139343,0.44303,-0.209443,1.262883,0.651805,-0.36607,0.669953,0.864225,-0.40037,1.3141029999999998,0.829455,-0.48964,0.922145,-1.4999999999987246e-05,-0.0020699999999999,1.077855,1.4999999999987246e-05,0.0020699999999999,0.832633,0.0845549999999999,-0.32827,1.130843,0.080265,-0.33786,0.8693230000000001,-0.275655,-0.252886,1.127843,-0.2776849999999999,-0.246578,1
92,1.0029255,0.63604,-0.229847,0.8558125,0.443161,-0.193336,0.7076825,0.6487,-0.2876849999999999,1.1396925,0.443388,-0.205158,1.2637225,0.65318,-0.3558949999999999,0.6700625,0.86446,-0.392525,1.3153925,0.83104,-0.478255,0.9220505,0.00034,-0.002175,1.0779495,-0.00034,0.002175,0.8330425000000001,0.05974,-0.3298149999999999,1.1299325,0.05298,-0.338495,0.8708625,-0.3000199999999999,-0.252027,1.1247725,-0.3066099999999999,-0.24161,1
93,1.0027695,0.640775,-0.2262489999999999,0.8554265,0.4422129999999999,-0.1901699999999999,0.7077264999999999,0.651145,-0.2826999999999999,1.1403365,0.443633,-0.2014139999999999,1.2647564999999998,0.651065,-0.34534,0.6700565,0.8624350000000001,-0.38434,1.3167965,0.828675,-0.46514,0.9217865,0.000655,-0.0022599999999999,1.0782135,-0.000655,0.00226,0.8339465,0.0330249999999999,-0.3312199999999999,1.1293765,0.0259249999999999,-0.33918,0.8721065,-0.327315,-0.2515529999999999,1.1226365,-0.333705,-0.2373389999999999,1
94,1.002552,0.6441399999999999,-0.221366,0.854739,0.4401889999999999,-0.186262,0.7074390000000002,0.65321,-0.276235,1.140529,0.4462389999999999,-0.196497,1.264929,0.64839,-0.333905,0.6700190000000001,0.86209,-0.373765,1.317809,0.8269899999999999,-0.450835,0.921434,0.0005899999999999,-0.002325,1.078566,-0.00059,0.0023249999999999,0.834569,0.0016999999999999,-0.330925,1.128639,-0.00376,-0.338625,0.872809,-0.3574,-0.250074,1.122509,-0.36562,-0.239165,1
95,1.0022105,0.6528449999999999,-0.216056,0.8541495,0.4443729999999999,-0.181662,0.7073695,0.658265,-0.269124,1.1406495,0.450903,-0.190781,1.2649895,0.6542049999999999,-0.32189,0.6697895,0.866925,-0.3628,1.3183695,0.835565,-0.43545,0.9214205,0.0007349999999999,-0.00221,1.0785795,-0.000735,0.0022099999999999,0.8358095,-0.028595,-0.32966,1.1280995,-0.031505,-0.33731,0.8735695,-0.3858749999999999,-0.247231,1.1226795,-0.396105,-0.238692,1
96,1.002068,0.66113,-0.209907,0.853613,0.44721,-0.177077,0.7075830000000001,0.66438,-0.261466,1.140873,0.45614,-0.1846,1.265083,0.6596299999999999,-0.308865,0.6691830000000001,0.87541,-0.351975,1.319143,0.84314,-0.420015,0.921264,0.00012,-0.0020249999999999,1.078736,-0.00012,0.0020249999999999,0.837713,-0.05828,-0.328125,1.127783,-0.0584799999999999,-0.335715,0.8743230000000001,-0.41443,-0.243536,1.119913,-0.42629,-0.236408,1
97,1.0018975,0.669705,-0.203133,0.8530715,0.451595,-0.171227,0.7075115000000001,0.669125,-0.252634,1.1409615,0.461605,-0.177593,1.2653215,0.6640250000000001,-0.295,0.6685015000000001,0.878345,-0.34019,1.3196615,0.8496750000000001,-0.40439,0.9211155,-0.0001149999999999,-0.00164,1.0788845,0.000115,0.00164,0.8400315,-0.0907249999999999,-0.32562,1.1274115,-0.0878649999999999,-0.33319,0.8747115,-0.4460149999999999,-0.23908,1.1196315,-0.4580349999999999,-0.233387,1
98,1.001917,0.678275,-0.19497,0.852782,0.454875,-0.164629,0.7074720000000001,0.674075,-0.242216,1.141732,0.465925,-0.169336,1.265052,0.668175,-0.280765,0.6678120000000001,0.881995,-0.326565,1.320222,0.855005,-0.387715,0.921199,-0.000335,-0.0016049999999999,1.078801,0.0003349999999999,0.0016049999999999,0.842172,-0.118975,-0.322225,1.127272,-0.114215,-0.329325,0.874932,-0.476805,-0.234084,1.119732,-0.4876749999999999,-0.229209,1
99,1.0010785,0.6862550000000001,-0.187712,0.8519875,0.456985,-0.158349,0.7067175,0.678905,-0.231978,1.1418775,0.470665,-0.1613309999999999,1.2645075,0.6725049999999999,-0.2664499999999999,0.6662475,0.8845149999999999,-0.31365,1.3199675,0.859915,-0.37021,0.9217815,-0.000765,-0.0011399999999999,1.0782185,0.0007649999999999,0.00114,0.8442975,-0.146925,-0.3146799999999999,1.1265275,-0.139925,-0.3227799999999999,0.8745475,-0.507035,-0.2300459999999999,1.1192575,-0.5166350000000001,-0.225723,1
100,1.0003765,0.694615,-0.179553,0.8512105,0.4624049999999999,-0.150884,0.7063805000000001,0.686485,-0.221937,1.1419705,0.475195,-0.1533379999999999,1.2642305,0.675975,-0.254073,0.6654605,0.888695,-0.300795,1.3195105,0.865275,-0.355925,0.9223485,-0.000835,-0.0008249999999999,1.0776515,0.000835,0.000825,0.8462605,-0.169535,-0.3064449999999999,1.1260105,-0.161335,-0.315465,0.8743105,-0.533375,-0.2253369999999999,1.1191605,-0.542085,-0.2219939999999999,1
101,0.9996305,0.701095,-0.170946,0.8505055,0.465275,-0.143387,0.7063055,0.692055,-0.211762,1.1418255,0.480175,-0.145389,1.2638155,0.679045,-0.241996,0.6654555,0.895165,-0.287895,1.3191354999999998,0.8720950000000001,-0.3415249999999999,0.9229505,-0.0010449999999999,-0.000615,1.0770495,0.001045,0.000615,0.8480455,-0.1866049999999999,-0.297385,1.1255055,-0.1785749999999999,-0.306815,0.8736755,-0.555455,-0.219608,1.1192155,-0.562815,-0.217217,1
102,0.998975,0.70513,-0.161366,0.849749,0.46851,-0.135384,0.706329,0.69578,-0.200866,1.141669,0.4843699999999999,-0.136947,1.263679,0.68672,-0.230818,0.6654789999999999,0.90235,-0.27471,1.319069,0.88268,-0.32888,0.923568,-0.00127,-0.00034,1.076432,0.0012699999999999,0.0003399999999999,0.8494889999999999,-0.20201,-0.28733,1.125049,-0.19436,-0.29708,0.872709,-0.57617,-0.213505,1.119229,-0.58155,-0.211608,1
103,0.998427,0.71041,-0.152936,0.84892,0.4738699999999999,-0.127878,0.70636,0.69804,-0.19121,1.14138,0.48769,-0.12924,1.26328,0.6942900000000001,-0.220708,0.66555,0.90649,-0.263575,1.31931,0.89225,-0.317165,0.9242,-0.00132,-0.000285,1.0758,0.0013199999999999,0.000285,0.8507,-0.21541,-0.277185,1.12492,-0.20866,-0.286915,0.87185,-0.59457,-0.207817,1.11939,-0.59813,-0.205875,1
104,0.997935,0.7145849999999999,-0.143648,0.8481879999999999,0.477125,-0.11998,0.706318,0.701425,-0.181072,1.140778,0.489735,-0.121298,1.2633379999999998,0.696805,-0.209865,0.665868,0.909175,-0.252285,1.319328,0.894075,-0.304115,0.92475,-0.0014949999999999,-0.000275,1.07525,0.0014949999999999,0.0002749999999999,0.851578,-0.2283549999999999,-0.265955,1.124788,-0.2225749999999999,-0.275325,0.8705480000000001,-0.6128450000000001,-0.201549,1.119368,-0.6141650000000001,-0.199458,1
105,0.997512,0.7199914999999999,-0.134973,0.847425,0.4808815,-0.112176,0.706975,0.7050514999999999,-0.171395,1.140935,0.4921615,-0.113602,1.264045,0.7018015,-0.199718,0.666605,0.9088015,-0.24095,1.319455,0.8990214999999999,-0.29107,0.925197,-0.0016845,-0.00037,1.074803,0.0016844999999999,0.0003699999999999,0.852185,-0.2485885,-0.2548,1.124655,-0.2421885,-0.26356,0.869965,-0.6323785,-0.194825,1.1194849999999998,-0.6318485,-0.193111,1
106,0.99721,0.7243215,-0.12559,0.84692,0.4809515,-0.104377,0.7075,0.7091315,-0.1603709999999999,1.14098,0.4924115,-0.1056609999999999,1.26457,0.7075415,-0.188326,0.66764,0.9146715,-0.22824,1.31971,0.9062915,-0.27579,0.925664,-0.0022034999999999,-0.00039,1.074336,0.0022034999999999,0.00039,0.85284,-0.2652885,-0.24197,1.12438,-0.2588885,-0.24982,0.86959,-0.6490785,-0.187556,1.11944,-0.6466585,-0.186394,1
107,0.996995,0.729491,-0.116006,0.846554,0.485891,-0.096052,0.708064,0.713171,-0.149796,1.141124,0.495241,-0.097564,1.264394,0.713631,-0.176744,0.668944,0.920361,-0.216478,1.319654,0.913541,-0.260945,0.925986,-0.0024649999999999,-0.000465,1.074014,0.002465,0.0004649999999999,0.853754,-0.2814689999999999,-0.228235,1.124054,-0.2749189999999999,-0.235585,0.869604,-0.665259,-0.179992,1.119494,-0.661579,-0.179212,1
108,0.997341,0.7316725000000001,-0.101095,0.846382,0.4893625,-0.082209,0.709052,0.7162525000000001,-0.13417,1.141782,0.4980525,-0.083776,1.264642,0.7179525,-0.160523,0.670832,0.9247625,-0.1993909999999999,1.320092,0.9157825,-0.241635,0.926499,-0.0024944999999999,-0.000325,1.073501,0.0024945,0.0003249999999999,0.8564520000000001,-0.2993274999999999,-0.204554,1.123572,-0.2922875,-0.212395,0.869992,-0.6827675,-0.167209,1.1200819999999998,-0.6779974999999999,-0.165825,1
109,0.9974415,0.732113,-0.0868215,0.8460385,0.490593,-0.0692035,0.7101185,0.716493,-0.1186605,1.1424385,0.500943,-0.0700775,1.2647085,0.722733,-0.1447535,0.6723585000000001,0.927123,-0.1826095,1.3202585,0.918413,-0.2224395,0.9268895,-0.002673,-0.0003965,1.0731105,0.0026729999999999,0.0003964999999999,0.8588185,-0.318127,-0.1814665,1.1228885,-0.308957,-0.1895385,0.8699985,-0.699697,-0.1548825,1.1206085,-0.693107,-0.1528695,1
110,0.997526,0.733679,-0.0731494999999999,0.845656,0.492659,-0.0567815,0.7108559999999999,0.7180989999999999,-0.1037024999999999,1.143076,0.501539,-0.0570554999999999,1.264606,0.727799,-0.1299855,0.6738759999999999,0.930519,-0.1663035,1.320256,0.922849,-0.2040675,0.927168,-0.002763,-0.0005484999999999,1.072832,0.002763,0.0005485,0.861046,-0.335671,-0.1590475,1.122316,-0.324271,-0.1676475,0.869976,-0.715311,-0.1431585,1.121126,-0.7064910000000001,-0.1401605,1
111,0.997395,0.7355365,-0.0599409999999999,0.8452640000000001,0.4942565,-0.0446649999999999,0.711364,0.7195265000000001,-0.089084,1.143674,0.5034065,-0.0442199999999999,1.265004,0.7290265,-0.1152449999999999,0.675434,0.9308565,-0.150918,1.319774,0.9241265,-0.185878,0.927373,-0.0029325,-0.0007209999999999,1.072627,0.0029325,0.0007209999999999,0.863374,-0.3532035,-0.136855,1.121834,-0.3386435,-0.146201,0.869954,-0.7302434999999999,-0.131659,1.121474,-0.7195334999999999,-0.127631,1
112,0.9971225,0.7355215,-0.047044,0.8449775000000002,0.4938615,-0.03292,0.7121275,0.7213815,-0.075018,1.1443575,0.5047715,-0.031729,1.2657675,0.7307815,-0.100336,0.6771775,0.9329615,-0.135717,1.3191375,0.9271015,-0.1674759999999999,0.9275815,-0.0031835,-0.000806,1.0724185,0.0031834999999999,0.000806,0.8660975,-0.3696985,-0.114319,1.1216575,-0.3511185,-0.125101,0.8698375,-0.7437285,-0.120243,1.1220875,-0.7308685,-0.114995,1
113,0.996762,0.7347935,-0.0351664999999999,0.844627,0.4931135,-0.0221724999999999,0.712567,0.7224935,-0.0623385,1.1446269999999998,0.5066434999999999,-0.0200704999999999,1.266117,0.7316435,-0.0864844999999999,0.6782969999999999,0.9345035,-0.1218544999999999,1.318557,0.9300635,-0.1507465,0.927859,-0.0034075,-0.0008134999999999,1.072141,0.0034075,0.0008135,0.868827,-0.3842764999999999,-0.0932995,1.121627,-0.3618165,-0.1057635,0.869567,-0.7547265000000001,-0.1086465,1.122737,-0.7399165000000001,-0.1030575,1
114,0.9964005,0.7331325000000001,-0.0234855,0.8442905,0.4926725,-0.0111635,0.7129004999999999,0.7225225000000001,-0.0498475,1.1449205,0.5079125,-0.0084195,1.2661105,0.7305225000000001,-0.0726945,0.6794405,0.9362325,-0.1079505,1.3179005,0.9311025,-0.1346005,0.9281235,-0.0035624999999999,-0.0008324999999999,1.0718765,0.0035624999999999,0.0008324999999999,0.8716005,-0.3992774999999999,-0.0724635,1.1218005,-0.3733975,-0.0867145,0.8696705,-0.7655275,-0.0969775,1.1234205,-0.7489075,-0.0910265,1
115,0.99582,0.7303965,-0.0130994999999999,0.84375,0.4935065,-0.0013074999999999,0.71303,0.7209365,-0.0396915,1.14511,0.5098865,0.0021725,1.2658,0.7283865,-0.0606415,0.6799299999999999,0.9343965,-0.0963795,1.31702,0.9292465,-0.1215465,0.928254,-0.0034924999999999,-0.0010834999999999,1.071746,0.0034925,0.0010835,0.87398,-0.4126935,-0.0543125,1.12182,-0.3833135,-0.0704424999999999,0.8696,-0.7748735,-0.0862945,1.12397,-0.7564335,-0.0795915,1
116,0.99502,0.72688,-0.0033954999999999,0.8429600000000002,0.49052,0.0079464999999999,0.71289,0.71939,-0.0297925,1.14531,0.5097200000000001,0.0123375,1.26538,0.7246400000000001,-0.0486485,0.68005,0.93303,-0.0849105,1.31596,0.92751,-0.1084345,0.928196,-0.0035499999999999,-0.0012164999999999,1.071804,0.00355,0.0012164999999999,0.8759,-0.42583,-0.0369655,1.12156,-0.39319,-0.0547225,0.86966,-0.78373,-0.0759185,1.12433,-0.7634799999999999,-0.0686835,1
117,0.994118,0.7262730000000001,0.0008994999999999,0.84229,0.489733,0.0117854999999999,0.7125600000000001,0.718793,-0.0255365,1.14492,0.508003,0.0162945,1.26472,0.7230230000000001,-0.0421875,0.68003,0.933623,-0.0788375,1.315,0.928153,-0.1010684999999999,0.928088,-0.0037299999999999,-0.0016094999999999,1.071912,0.00373,0.0016094999999999,0.87638,-0.427967,-0.0303225,1.12099,-0.395197,-0.0486194999999999,0.86936,-0.7870469999999999,-0.0718425,1.12479,-0.7656569999999999,-0.0637585,1
118,0.9932985,0.725677,0.004833,0.8416775,0.488887,0.015306,0.7118475,0.718187,-0.0213329999999999,1.1445075,0.507197,0.020039,1.2645175,0.721777,-0.036141,0.6800575,0.933657,-0.07291,1.3144075,0.929007,-0.0941859999999999,0.9277955,-0.003882,-0.0019369999999999,1.0722045,0.0038819999999999,0.0019369999999999,0.8768875,-0.429403,-0.024054,1.1206675,-0.396633,-0.042898,0.8689475,-0.789563,-0.068144,1.1251274999999998,-0.7673129999999999,-0.0590469999999999,1
119,0.992551,0.7249955,0.008546,0.8410839999999999,0.4880454999999999,0.018551,0.711214,0.7177454999999999,-0.0172319999999999,1.144294,0.5066355,0.023684,1.263914,0.7206954999999999,-0.030379,0.680184,0.9338355,-0.067093,1.313914,0.9297655,-0.087622,0.927375,-0.0040344999999999,-0.0020999999999999,1.072625,0.0040345,0.0021,0.877364,-0.4306645,-0.018189,1.1206239999999998,-0.3978845,-0.037613,0.868494,-0.7914045000000001,-0.06465,1.125614,-0.7689345000000001,-0.054665,1
120,0.991479,0.72427,0.0122899999999999,0.840022,0.4874199999999999,0.021361,0.710412,0.71756,-0.012976,1.143752,0.50659,0.027283,1.262932,0.71992,-0.024687,0.679772,0.93409,-0.060946,1.312952,0.93036,-0.081138,0.926995,-0.0041129999999999,-0.0022959999999999,1.073005,0.004113,0.002296,0.877182,-0.4311,-0.012882,1.121062,-0.3968199999999999,-0.032752,0.867452,-0.79283,-0.061162,1.1255119999999998,-0.7697700000000001,-0.050287,1
121,0.9902895,0.7240449999999999,0.0157345,0.8389085000000001,0.487095,0.0240085,0.7094484999999999,0.717595,-0.0087024999999999,1.1431885,0.506265,0.0305165,1.2618985,0.7196349999999999,-0.0194085,0.6790885,0.934555,-0.0548815,1.3118285,0.930715,-0.0753905,0.9267335,-0.004127,-0.0024214999999999,1.0732665,0.0041269999999999,0.0024215,0.8764085,-0.430985,-0.0091694999999999,1.1214585,-0.395765,-0.0287604999999999,0.8663685,-0.793695,-0.0582125,1.1249785,-0.7705350000000001,-0.0464995,1
122,0.9891855,0.724158,0.0188505,0.8379315,0.487078,0.0265264999999999,0.7086015,0.717878,-0.0046445,1.1423815,0.506248,0.0332485,1.2611915,0.719658,-0.0145205,0.6783415000000002,0.935198,-0.0490235,1.3108715,0.931248,-0.0700964999999999,0.9265405,-0.00411,-0.0025015,1.0734595,0.0041099999999999,0.0025015,0.8756615000000001,-0.430652,-0.0063675,1.1218515,-0.3945619999999999,-0.0253345,0.8652515000000001,-0.794262,-0.0555294999999999,1.1244115,-0.771212,-0.0430544999999999,1
123,0.9880275,0.724412,0.0214009999999999,0.8369685,0.4872019999999999,0.028716,0.7076884999999999,0.718402,-0.000909,1.1415585,0.505682,0.035604,1.2605085,0.719752,-0.010114,0.6774884999999999,0.935602,-0.043612,1.3101285,0.931692,-0.065201,0.9263575,-0.0041339999999999,-0.002549,1.0736425,0.0041339999999999,0.002549,0.8747885,-0.430398,-0.00401,1.1221185,-0.393748,-0.0224499999999999,0.8639585,-0.794668,-0.053022,1.1235385,-0.772078,-0.040075,1
124,0.987217,0.724609,0.0232545,0.8362790000000001,0.4871689999999999,0.0304545,0.7068989999999999,0.718639,0.0020745,1.140849,0.5041789999999999,0.0374904999999999,1.260129,0.719409,-0.0068884999999999,0.6767390000000001,0.935649,-0.0392295,1.310039,0.931909,-0.0614795,0.926168,-0.0040859999999999,-0.0024335,1.073832,0.0040859999999999,0.0024335,0.874229,-0.430111,-0.0021285,1.122419,-0.393281,-0.0205935,0.8630990000000001,-0.7951210000000001,-0.0510135,1.123059,-0.772841,-0.0381635,1
125,0.9866585,0.7245769999999999,0.0249805,0.8357924999999999,0.487007,0.0320565,0.7064125,0.718657,0.0045835,1.1403424999999998,0.502397,0.0392044999999999,1.2600225,0.7187469999999999,-0.0045785,0.6762825,0.935517,-0.0356065,1.3101625,0.931837,-0.0586645,0.9260235,-0.0040349999999999,-0.0023295,1.0739765,0.0040349999999999,0.0023295,0.8739325,-0.429693,-0.0004044999999999,1.1227725,-0.392963,-0.0188885,0.8625525,-0.795443,-0.0492485,1.1227925,-0.773653,-0.0364415,1
126,0.986643,0.7243845,0.026782,0.835785,0.4869345,0.03377,0.706465,0.7181845,0.00647,1.140395,0.5016245,0.040943,1.260265,0.7182745,-0.002757,0.676355,0.9354445,-0.033194,1.310115,0.9312145,-0.0568339999999999,0.926024,-0.0039624999999999,-0.0022969999999999,1.073976,0.0039625,0.002297,0.873975,-0.4292454999999999,0.001062,1.123315,-0.3924155,-0.017075,0.862525,-0.7955154999999999,-0.047562,1.1229049999999998,-0.7744555,-0.034615,1
127,0.9865845,0.7242045,0.0281925,0.8358145000000001,0.4869345,0.0354924999999999,0.7061744999999999,0.7175845000000001,0.0082215,1.1404345,0.5012745000000001,0.0423705,1.2606045,0.7178645,-0.0010235,0.6758645,0.9351345,-0.0314375,1.3101245,0.9306645,-0.0550915,0.9260265,-0.0039624999999999,-0.0022145,1.0739735,0.0039625,0.0022145,0.8739844999999999,-0.4287655,0.0014425,1.1235345,-0.3919654999999999,-0.0154084999999999,0.8625645,-0.7955154999999999,-0.0459795,1.1229545,-0.7757255,-0.0328735,1
128,0.9864785,0.7239645,0.0293305,0.8357865000000001,0.4869345,0.0373045,0.7054365,0.7168245000000001,0.0100545,1.1404365,0.5009945,0.0436965,1.2612664999999998,0.7175945,0.0007695,0.6746464999999999,0.9345945,-0.0295905,1.3100765,0.9302145,-0.0532785,0.9260295,-0.0039624999999999,-0.0021195,1.0739705,0.0039625,0.0021195,0.8739764999999999,-0.4290655,0.0010925,1.1235765,-0.3916754999999999,-0.0140585,0.8626165,-0.7955755,-0.0443495,1.1231165,-0.7756455,-0.0304004999999999,0
129,0.985759,0.7240395,0.0292295,0.835036,0.4877895,0.0383115,0.7033659999999999,0.7164094999999999,0.0118995,1.140446,0.5005895,0.0438594999999999,1.261976,0.7170295,0.0016255,0.6724859999999999,0.9343395,-0.0277425,1.310226,0.9297995,-0.0525145,0.926004,-0.0039065,-0.0020085,1.073996,0.0039065,0.0020085,0.874016,-0.4289905,-0.0003064999999999,1.123736,-0.3914105,-0.0129555,0.862676,-0.7953605,-0.0426315,1.123116,-0.7766705,-0.0289675,0
130,0.985145,0.724152,0.0283085,0.834344,0.489002,0.0390215,0.7005239999999999,0.7150120000000001,0.0135855,1.140814,0.499972,0.0433925,1.263384,0.7157220000000001,0.0012724999999999,0.6699539999999999,0.933672,-0.0266145,1.310614,0.928782,-0.0531935,0.926026,-0.003858,-0.0019115,1.073974,0.003858,0.0019115,0.874574,-0.428878,-0.0020094999999999,1.1246239999999998,-0.391298,-0.0120415,0.8634040000000001,-0.795198,-0.0412235,1.123784,-0.777558,-0.0279724999999999,0
131,0.9847555,0.724285,0.0270735,0.8332495,0.489665,0.0397985,0.6969595,0.712125,0.0152095,1.1415095,0.4991749999999999,0.0424305,1.2657595,0.7133349999999999,0.0001415,0.6671095,0.932285,-0.0264794999999999,1.3111995,0.927215,-0.0552645,0.9261555,-0.003803,-0.0017734999999999,1.0738445,0.003803,0.0017735,0.8756695,-0.429215,-0.0040415,1.1262495,-0.391165,-0.0111974999999999,0.8650195,-0.795115,-0.0396894999999999,1.1253495,-0.778325,-0.0269934999999999,0
132,0.984424,0.7243040000000001,0.0254415,0.832244,0.4898539999999999,0.0406975,0.692404,0.707114,0.0171025,1.142564,0.4990039999999999,0.0409575,1.269084,0.709164,-0.0019995,0.664284,0.929824,-0.0272975,1.311534,0.923914,-0.0598335,0.926354,-0.0037739999999999,-0.0016604999999999,1.073646,0.0037739999999999,0.0016605,0.877274,-0.430346,-0.0059355,1.128214,-0.391136,-0.0104495,0.867334,-0.7950459999999999,-0.0381935,1.127844,-0.779266,-0.0257475,0
133,0.984302,0.7244575000000001,0.0234245,0.831225,0.4901374999999999,0.0415015,0.6870149999999999,0.6997875,0.0186825,1.143665,0.4983775,0.0390365,1.273625,0.7027575,-0.0053425,0.659395,0.9202975,-0.0290604999999999,1.311695,0.9192375,-0.0664005,0.926589,-0.0037914999999999,-0.0015634999999999,1.073411,0.0037915,0.0015635,0.8797550000000001,-0.4313925,-0.0078074999999999,1.130845,-0.3910125,-0.0098105,0.870815,-0.7947424999999999,-0.0367855,1.131555,-0.7799824999999999,-0.0245294999999999,0
134,0.9837335,0.725406,0.021022,0.8307445,0.491606,0.04273,0.6785045000000001,0.690686,0.021613,1.1432045,0.4965459999999999,0.036048,1.2812345,0.690726,-0.010551,0.6541144999999999,0.908746,-0.0315489999999999,1.3131645,0.904386,-0.076363,0.9268635,-0.003845,-0.0013939999999999,1.0731365,0.003845,0.0013939999999999,0.8838145,-0.431634,-0.009089,1.1348245,-0.390564,-0.009141,0.8769845000000001,-0.793264,-0.034196,1.1380345,-0.780834,-0.023402,0
135,0.983317,0.726391,0.0186385,0.830371,0.493461,0.0439005,0.670891,0.675181,0.0245115,1.143601,0.4951609999999999,0.0332995,1.290331,0.673701,-0.0162975,0.6491709999999999,0.8904610000000001,-0.0352405,1.314901,0.884501,-0.0868055,0.927186,-0.003941,-0.0011634999999999,1.072814,0.003941,0.0011635,0.888201,-0.431479,-0.0103964999999999,1.138651,-0.390099,-0.0093224999999999,0.884201,-0.7914289999999999,-0.0318665,1.1456609999999998,-0.781349,-0.0219585,0
136,0.982448,0.7276689999999999,0.016237,0.829678,0.495729,0.045097,0.662918,0.6589989999999999,0.027424,1.143738,0.493679,0.030376,1.298968,0.654439,-0.022656,0.642568,0.870209,-0.0402319999999999,1.315368,0.8609690000000001,-0.1003469999999999,0.927666,-0.003978,-0.000681,1.072334,0.0039779999999999,0.000681,0.892848,-0.431741,-0.0112969999999999,1.141718,-0.390491,-0.010968,0.892378,-0.7891410000000001,-0.029414,1.154048,-0.7815810000000001,-0.020363,0
137,0.9810995,0.7293015,0.0137514999999999,0.8287865,0.4980014999999999,0.0464604999999999,0.6545765,0.6412015000000001,0.0303474999999999,1.1438965,0.4925114999999999,0.0276024999999999,1.3085465,0.6300715,-0.0301444999999999,0.6355565000000001,0.8480015000000001,-0.0458105,1.3164365,0.8317815000000001,-0.1160615,0.9280545,-0.0040514999999999,-0.0003125,1.0719455,0.0040514999999999,0.0003125,0.8978365000000001,-0.4320985,-0.0115995,1.1438965,-0.3909885,-0.0139755,0.9022565,-0.7862985,-0.0265575,1.1628565,-0.7812085,-0.0192315,0
138,0.9801775,0.7310300000000001,0.0115389999999999,0.8286935,0.5000800000000001,0.0486399999999999,0.6431635,0.6202799999999999,0.033777,1.1431335,0.4912,0.025074,1.3191935,0.60097,-0.031611,0.6275735,0.82264,-0.053162,1.3166135,0.7973399999999999,-0.1317289999999999,0.9284035,-0.004165,8.400000000000074e-05,1.0715965,0.004165,-8.400000000000074e-05,0.9028335,-0.43269,-0.010821,1.1450335,-0.39248,-0.018918,0.9130435,-0.7831300000000001,-0.023378,1.1707835,-0.78051,-0.020506,0
139,0.9792285,0.733161,0.009551,0.8289815,0.502141,0.051173,0.6336415,0.600471,0.037662,1.1421105,0.490011,0.022723,1.3302515,0.567821,-0.0314819999999999,0.6183514999999999,0.793551,-0.0616469999999999,1.3169015,0.756971,-0.148067,0.9287015,-0.004284,0.000432,1.0712985,0.004284,-0.000432,0.9108415,-0.4341689999999999,-0.009507,1.1445085,-0.395109,-0.0257489999999999,0.9238615,-0.779429,-0.0197569999999999,1.1766115,-0.779369,-0.0232089999999999,0
140,0.976809,0.735638,0.0065804999999999,0.8298650000000001,0.503898,0.0536754999999999,0.626485,0.577328,0.0418215,1.139929,0.488448,0.0199634999999999,1.335525,0.526768,-0.0306685,0.607685,0.756348,-0.0711795,1.315305,0.703348,-0.1594395,0.929035,-0.004407,0.0010174999999999,1.070965,0.004407,-0.0010175,0.919465,-0.431432,-0.0067275,1.139519,-0.393242,-0.0370365,0.9364050000000002,-0.7756620000000001,-0.0164825,1.174295,-0.7752220000000001,-0.0336505,0
141,0.975134,0.738071,0.0038335,0.831772,0.504511,0.0561345,0.623632,0.5504910000000001,0.0462115,1.139126,0.486121,0.0180584999999999,1.338022,0.483481,-0.0313004999999999,0.5979019999999999,0.713601,-0.0804424999999999,1.315382,0.641541,-0.1663124999999999,0.929202,-0.00443,0.0015645,1.070798,0.00443,-0.0015644999999999,0.928032,-0.427249,-0.0053134999999999,1.130859,-0.389059,-0.0471624999999999,0.949092,-0.771479,-0.0136015,1.167822,-0.770829,-0.0463925,0
142,0.9730535,0.740075,0.0008404999999999,0.8339935,0.504095,0.0588025,0.6229635,0.523635,0.0507035,1.1370245,0.483465,0.0152815,1.3363235,0.4416049999999999,-0.0312135,0.5916035,0.6732049999999999,-0.0901715,1.3145035,0.574025,-0.1706114999999999,0.9295835,-0.00447,0.0023755,1.0704165,0.0044699999999999,-0.0023755,0.9363535,-0.423165,-0.0067575,1.1189395,-0.384975,-0.0594515,0.9617935,-0.767395,-0.0053025,1.1563705,-0.765055,-0.0628415,0
143,0.9714495,0.740878,-0.0026059999999999,0.8360295,0.501448,0.060415,0.6264995,0.491788,0.054207,1.1375075,0.481468,0.013332,1.3283695,0.404068,-0.0275389999999999,0.5882395,0.625638,-0.0996789999999999,1.3108095,0.501488,-0.170819,0.9295595,-0.004283,0.003079,1.0704405,0.0042829999999999,-0.0030789999999999,0.9450495,-0.420002,-0.0065309999999999,1.1057695,-0.3825019999999999,-0.082349,0.9719295,-0.7636419999999999,0.002498,1.1355315,-0.760772,-0.091339,0
144,0.9697605,0.7404815,-0.0066014999999999,0.8390405000000001,0.4967815,0.0624595,0.6334805,0.4617914999999999,0.0610945,1.1384145,0.4780615,0.0108925,1.3157905,0.3692315,-0.0178274999999999,0.5888205,0.5725715,-0.1049775,1.3043105,0.4260615,-0.1642775,0.9294205,-0.0041835,0.0042235,1.0705795,0.0041835,-0.0042234999999999,0.9411705,-0.4094785,-0.0011284999999999,1.0947675,-0.3795585,-0.1040375,0.9785405,-0.7562785,0.0154255,1.1062525,-0.7454584999999999,-0.1230175,0
145,0.9682295,0.7401230000000001,-0.0103049999999999,0.8422695,0.4921629999999999,0.064124,0.6423295,0.431653,0.0686809999999999,1.1393785,0.4747429999999999,0.008275,1.3014895,0.335653,-0.0069349999999999,0.5929395,0.518633,-0.110055,1.2968295,0.351693,-0.152605,0.9290095,-0.00396,0.0047549999999999,1.0709905,0.00396,-0.0047549999999999,0.9357695,-0.398267,0.0023249999999999,1.0828734999999998,-0.376577,-0.124655,0.9855795,-0.746817,0.02956,1.0739975,-0.735097,-0.1549149999999999,0
146,0.967118,0.7396105,-0.0137799999999999,0.8455680000000001,0.4867605,0.065408,0.654818,0.4000805,0.076336,1.140609,0.4711504999999999,0.00517,1.284928,0.3043605,0.00376,0.6006980000000002,0.4625105,-0.11259,1.287768,0.2783704999999999,-0.1339199999999999,0.928808,-0.0038674999999999,0.00552,1.071192,0.0038675,-0.0055199999999999,0.946258,-0.3953995,0.00965,1.071383,-0.3741895,-0.1434499999999999,1.004568,-0.7449895,0.045947,1.042148,-0.7199195,-0.1823599999999999,0
147,0.966065,0.739821,-0.0167299999999999,0.848875,0.481851,0.065924,0.671515,0.370481,0.083341,1.142787,0.468691,0.0026899999999999,1.267515,0.280211,0.01385,0.6108250000000002,0.408121,-0.1126399999999999,1.280485,0.213191,-0.11493,0.928435,-0.004275,0.0060199999999999,1.071565,0.004275,-0.0060199999999999,0.956445,-0.394619,0.0178399999999999,1.060945,-0.3708789999999999,-0.16046,1.015395,-0.741479,0.0623409999999999,1.010395,-0.705079,-0.20902,0
148,0.96596,0.739934,-0.01858,0.85263,0.477234,0.0671499999999999,0.6897,0.342984,0.0935139999999999,1.145363,0.466624,0.0005,1.250945,0.261644,0.02512,0.62368,0.3554739999999999,-0.11063,1.274315,0.155474,-0.09494,0.92829,-0.004778,0.0073499999999999,1.07171,0.0047779999999999,-0.00735,0.96078,-0.393806,0.0266199999999999,1.05104,-0.366566,-0.17411,1.0224099999999998,-0.735216,0.08127,0.98141,-0.690666,-0.23082,0
149,0.96695,0.7401975000000001,-0.0194299999999999,0.85636,0.4735775,0.06794,0.71052,0.3199375,0.10523,1.148966,0.4655775,-0.0008199999999999,1.239178,0.2531775,0.03597,0.6410199999999999,0.3109575,-0.1034899999999999,1.2708689999999998,0.1129275,-0.0701399999999999,0.92801,-0.0052714999999999,0.00837,1.07199,0.0052715,-0.0083699999999999,0.96728,-0.3931125,0.0388,1.04535,-0.3631925,-0.18174,1.0306799999999998,-0.7271624999999999,0.10096,0.9633,-0.6781925,-0.24022,0
150,0.966515,0.7402205000000001,-0.0209949999999999,0.8584350000000001,0.4705405,0.0683949999999999,0.730085,0.3025305,0.1194249999999999,1.150653,0.4650805,-0.002865,1.229398,0.2510505,0.0464749999999999,0.658875,0.2716605,-0.093815,1.266082,0.0826375,-0.048845,0.928005,-0.0052485,0.0089349999999999,1.071995,0.0052485,-0.008935,0.967765,-0.3908795,0.0529949999999999,1.043465,-0.3609495,-0.186955,1.038585,-0.7187795,0.122695,0.951475,-0.6677195,-0.243125,0
151,0.966675,0.7402205000000001,-0.022345,0.8609249999999999,0.4680205,0.068795,0.749865,0.2868305,0.129085,1.154045,0.4650805,-0.0038949999999999,1.223631,0.2507305,0.055185,0.677415,0.2363604999999999,-0.0828849999999999,1.263304,0.0614274999999999,-0.0285349999999999,0.9279650000000002,-0.0052485,0.009205,1.072035,0.0052485,-0.009205,0.966445,-0.3853295,0.070515,1.040805,-0.3576395,-0.1878449999999999,1.047025,-0.7102594999999999,0.134115,0.945675,-0.6577095,-0.240275,0
152,0.96623,0.7401835,-0.0225949999999999,0.86268,0.4673235,0.070105,0.76535,0.2779835,0.133355,1.15614,0.4650435,-0.004755,1.221183,0.2506935,0.059445,0.6913400000000001,0.2104335,-0.074915,1.262219,0.0564425,-0.0078449999999999,0.92849,-0.0052854999999999,0.0097949999999999,1.07151,0.0052855,-0.0097949999999999,0.96366,-0.3768964999999999,0.087935,1.04005,-0.3568265,-0.177095,1.0422,-0.7020265,0.137205,0.94783,-0.6514365000000001,-0.223375,0
153,0.964065,0.7402525,-0.0227899999999999,0.8627550000000002,0.4663325,0.06979,0.779095,0.2718225,0.1364,1.155955,0.4646325,-0.0055799999999999,1.221977,0.2502825,0.05668,0.7009450000000002,0.1966525,-0.06971,1.262758,0.0560315,4.000000000004e-05,0.928995,-0.0052565,0.01057,1.071005,0.0052565,-0.0105699999999999,0.962455,-0.3681675,0.10337,1.039985,-0.3560775,-0.16493,1.029365,-0.6945074999999999,0.13735,0.959185,-0.6487975,-0.2003699999999999,0
154,0.961105,0.7406145000000001,-0.02327,0.8619550000000001,0.4650444999999999,0.0688999999999999,0.790165,0.2675045,0.13776,1.154965,0.4643245,-0.0065999999999999,1.223015,0.2496345,0.0528599999999999,0.7086750000000002,0.1866045,-0.06344,1.264012,0.0553835,7.999999999996898e-05,0.929605,-0.0051315,0.01166,1.070395,0.0051315,-0.01166,0.956985,-0.3594955,0.0914299999999999,1.041615,-0.3546455,-0.15245,1.021025,-0.6874255,0.12794,0.972215,-0.6473255,-0.17611,0
155,0.957415,0.7407594999999999,-0.023845,0.860765,0.4631395,0.067665,0.796195,0.2655895,0.137885,1.153265,0.4651195,-0.0071149999999999,1.224155,0.2502895,0.048775,0.7123149999999999,0.1789195,-0.0601749999999999,1.265696,0.0543385,-0.0102249999999999,0.929845,-0.0053205,0.012145,1.070155,0.0053205,-0.0121449999999999,0.950085,-0.3521305,0.076465,1.042765,-0.3532805,-0.1397849999999999,1.007745,-0.6884705000000001,0.113525,0.985085,-0.6469505000000001,-0.154135,0
156,0.95163,0.741744,-0.02594,0.85806,0.4624939999999999,0.0647599999999999,0.79654,0.2631739999999999,0.1316999999999999,1.15071,0.467564,-0.00847,1.22412,0.2532239999999999,0.0428799999999999,0.7113100000000001,0.171434,-0.06318,1.26572,0.056966,-0.0241899999999999,0.93023,-0.005543,0.01277,1.06977,0.0055429999999999,-0.01277,0.94368,-0.353866,0.05595,1.04527,-0.355046,-0.12464,0.98512,-0.691586,0.0817899999999999,1.00067,-0.651696,-0.1277499999999999,0
157,0.945,0.742532,-0.027755,0.85469,0.461582,0.0613749999999999,0.79455,0.260062,0.1232549999999999,1.1473799999999998,0.470262,-0.009045,1.22359,0.257322,0.0368049999999999,0.70902,0.168972,-0.065635,1.26365,0.0615749999999999,-0.041185,0.9302,-0.005998,0.0121349999999999,1.0698,0.005998,-0.012135,0.93714,-0.356078,0.0329549999999999,1.05059,-0.357508,-0.109215,0.9617,-0.697408,0.0491049999999999,1.0168,-0.656808,-0.101775,0
158,0.936685,0.7425269999999999,-0.02948,0.849765,0.461167,0.0577699999999999,0.7887450000000001,0.257777,0.1127799999999999,1.142665,0.473307,-0.00879,1.221755,0.2640869999999999,0.0328899999999999,0.704415,0.1634469999999999,-0.06884,1.260825,0.067526,-0.0561599999999999,0.930225,-0.0061839999999999,0.0112499999999999,1.069775,0.006184,-0.0112499999999999,0.934025,-0.358253,0.0105799999999999,1.058475,-0.357753,-0.0931199999999999,0.936455,-0.7052430000000001,0.0162799999999999,1.032995,-0.661233,-0.07647,0
159,0.92866,0.741567,-0.0308599999999998,0.84514,0.460277,0.0536,0.7814900000000001,0.257697,0.09737,1.13823,0.475657,-0.0080799999999999,1.21944,0.268797,0.03095,0.6986600000000001,0.158947,-0.0750299999999999,1.25678,0.071791,-0.0670099999999999,0.93008,-0.0060059999999999,0.01073,1.06992,0.006006,-0.0107299999999999,0.92947,-0.359783,-0.0116499999999999,1.06706,-0.357663,-0.0802099999999998,0.9112900000000002,-0.7124630000000001,-0.0131599999999999,1.04741,-0.6654730000000001,-0.0542599999999999,0
160,0.91877,0.740262,-0.0338049999999999,0.83874,0.458972,0.047295,0.7717800000000001,0.257052,0.0818849999999999,1.13176,0.478262,-0.0083349999999999,1.2147899999999998,0.272502,0.0298249999999999,0.69329,0.154042,-0.0824049999999999,1.25191,0.076206,-0.072805,0.92976,-0.005944,0.0100449999999999,1.07024,0.005944,-0.0100449999999999,0.92563,-0.361518,-0.033595,1.07808,-0.357088,-0.0694749999999999,0.8872900000000001,-0.7196980000000001,-0.0306649999999999,1.06322,-0.666738,-0.032475,0
161,0.90945,0.7390515,-0.037275,0.8327800000000001,0.4577615,0.0404949999999999,0.76427,0.2563215,0.0712349999999999,1.1255,0.4805615,-0.008655,1.20986,0.2753415,0.0290349999999999,0.68676,0.1486115,-0.090265,1.24504,0.0784135,-0.075985,0.92919,-0.0059794999999999,0.0089549999999999,1.0708099999999998,0.0059795,-0.008955,0.90707,-0.3559585,-0.0569049999999999,1.08815,-0.3578185,-0.060055,0.87489,-0.7209085,-0.0420249999999999,1.07693,-0.6692585,-0.012415,0
162,0.90081,0.7383475,-0.0410549999999999,0.8267100000000001,0.4570575,0.034115,0.75475,0.2556175,0.0578049999999999,1.11935,0.4827675,-0.0092349999999999,1.20447,0.2760975,0.030455,0.6796500000000001,0.1430575,-0.0997649999999999,1.23996,0.0787215,-0.0738649999999999,0.92876,-0.0065345,0.007205,1.07124,0.0065344999999999,-0.0072049999999999,0.8939300000000001,-0.3495025,-0.0824549999999999,1.0973,-0.3585224999999999,-0.0510249999999999,0.8690700000000001,-0.7216125,-0.0540449999999999,1.08944,-0.6712425,0.005135,0
163,0.892665,0.7376785,-0.0449849999999999,0.8211250000000001,0.4563485,0.0283149999999999,0.746035,0.2538285,0.045325,1.114135,0.4847885,-0.009175,1.198985,0.2761585,0.032505,0.673115,0.1370485,-0.1092849999999999,1.235825,0.0790925,-0.067265,0.928355,-0.0071405,0.0054549999999999,1.071645,0.0071405,-0.0054549999999999,0.8899450000000001,-0.3450415,-0.0784749999999999,1.106735,-0.3591915,-0.0443249999999999,0.864225,-0.7250614999999999,-0.0538149999999999,1.101915,-0.6729715,0.0217549999999999,0
164,0.8851,0.736704,-0.049235,0.81606,0.455104,0.0228249999999999,0.73883,0.2521839999999999,0.0341549999999999,1.10974,0.486664,-0.009035,1.19374,0.275974,0.0354649999999999,0.66667,0.1328039999999999,-0.118655,1.23193,0.079575,-0.058675,0.92819,-0.0075749999999999,0.0040749999999999,1.07181,0.007575,-0.004075,0.89168,-0.345446,-0.072885,1.11603,-0.358446,-0.037215,0.8624499999999999,-0.7306959999999999,-0.050845,1.11502,-0.674446,0.0367049999999999,0
165,0.87919,0.7351325,-0.052385,0.81241,0.4541024999999999,0.0195649999999999,0.7355,0.2508424999999999,0.0286849999999999,1.10611,0.4880725,-0.007925,1.18966,0.2759825,0.0405849999999999,0.66462,0.1274325,-0.121565,1.2291,0.0801715,-0.046945,0.92801,-0.0078265,0.0027349999999999,1.07199,0.0078265,-0.002735,0.8948299999999999,-0.3456975,-0.065985,1.12473,-0.3571575,-0.032455,0.86983,-0.7373075,-0.039625,1.12631,-0.6746375,0.049095,0
166,0.873285,0.733524,-0.056915,0.8083849999999999,0.453284,0.0154249999999999,0.7322649999999999,0.249464,0.0220649999999998,1.100935,0.489714,-0.008955,1.185105,0.276334,0.0452949999999998,0.663315,0.121434,-0.1252250000000001,1.227245,0.079475,-0.0353050000000001,0.928015,-0.008141,0.0017849999999999,1.071985,0.0081409999999999,-0.001785,0.897975,-0.345866,-0.060645,1.130885,-0.3569259999999999,-0.029345,0.879625,-0.745156,-0.028415,1.136345,-0.674566,0.0586449999999999,0
167,0.8691,0.732291,-0.0614649999999999,0.80618,0.452671,0.0121949999999999,0.73004,0.2481309999999999,0.015545,1.09719,0.491211,-0.010665,1.18218,0.276711,0.0486349999999999,0.6620900000000001,0.116801,-0.131125,1.22549,0.078097,-0.0280249999999999,0.92798,-0.008359,0.001085,1.07202,0.008359,-0.001085,0.9004,-0.345999,-0.0570049999999999,1.13354,-0.357029,-0.028405,0.8880600000000001,-0.746059,-0.021455,1.14329,-0.674789,0.0641249999999999,0
168,0.86521,0.731091,-0.065815,0.8036399999999999,0.452001,0.0091749999999999,0.7290899999999999,0.2480609999999999,0.0113649999999999,1.09357,0.492791,-0.012415,1.17955,0.276861,0.051385,0.66109,0.112581,-0.1361649999999999,1.22511,0.076002,-0.021905,0.92801,-0.008617,0.0005049999999999,1.07199,0.008617,-0.0005049999999999,0.90241,-0.346749,-0.053555,1.13594,-0.357099,-0.0278249999999999,0.89554,-0.746859,-0.015495,1.14945,-0.675309,0.068705,0
169,0.8628550000000001,0.7299805,-0.0686149999999999,0.802305,0.4514605,0.007945,0.729665,0.2479904999999999,0.011905,1.0911449999999998,0.4939004999999999,-0.0132349999999999,1.1783549999999998,0.2775405,0.0538550000000001,0.658785,0.1093705,-0.1398549999999999,1.225135,0.0747645,-0.0170849999999999,0.928025,-0.0086904999999999,0.000125,1.071975,0.0086905,-0.0001249999999999,0.903915,-0.3473394999999999,-0.0504749999999999,1.137995,-0.3570695,-0.0272149999999999,0.900965,-0.7474295,-0.0108849999999999,1.153695,-0.6753795,0.071885,0
170,0.860425,0.7288155,-0.07143,0.800925,0.4509455,0.0066899999999999,0.7302850000000001,0.2468755,0.01377,1.089025,0.4949355,-0.01388,1.177425,0.2777655,0.0563099999999999,0.662455,0.1072554999999999,-0.1359899999999999,1.227285,0.0748395,-0.0110899999999999,0.928075,-0.0087815,-0.00014,1.0719249999999998,0.0087815,0.00014,0.905795,-0.3479045,-0.0470499999999999,1.140045,-0.3571545,-0.0265999999999999,0.906765,-0.7479345000000001,-0.0064899999999999,1.158025,-0.6753045000000001,0.07472,0
171,0.85901,0.7278644999999999,-0.07345,0.8001400000000001,0.4504845,0.0060599999999999,0.7316100000000001,0.2459944999999999,0.0172399999999999,1.08796,0.4955945,-0.01399,1.17726,0.2778545,0.0584199999999999,0.6667200000000001,0.1056245,-0.13261,1.2286,0.0749285,-0.0072699999999999,0.92809,-0.0088705,-0.00034,1.07191,0.0088705,0.00034,0.9077,-0.3483155,-0.04383,1.14173,-0.3572154999999999,-0.02632,0.91147,-0.7482955,-0.0030499999999999,1.16198,-0.6752155000000001,0.0768599999999999,0
172,0.8578300000000001,0.727825,-0.0755599999999999,0.7982000000000001,0.449715,0.00467,0.7323300000000001,0.2441249999999999,0.01343,1.08433,0.4975349999999999,-0.0156499999999999,1.17737,0.276855,0.06178,0.66371,0.106505,-0.14161,1.2315,0.073796,0.0045399999999999,0.9282,-0.009032,-0.00073,1.0718,0.0090319999999999,0.00073,0.90968,-0.348815,-0.0432399999999999,1.14481,-0.357765,-0.0255699999999999,0.91828,-0.748575,0.00085,1.16629,-0.676235,0.07947,0
173,0.8565750000000001,0.7260215,-0.07776,0.797975,0.4499615,0.00346,0.7343650000000002,0.2440115,0.01587,1.082955,0.4980414999999999,-0.01663,1.177465,0.2786815,0.0627999999999999,0.667985,0.1048915,-0.1388599999999999,1.234385,0.0760035,0.0070299999999999,0.928165,-0.0091325,-0.00068,1.071835,0.0091324999999999,0.00068,0.912315,-0.3492085,-0.04008,1.146535,-0.3590085,-0.02571,0.923435,-0.7489585000000001,0.00392,1.170725,-0.6748885,0.08167,0
174,0.855925,0.725032,-0.0788149999999999,0.798025,0.450012,0.0031449999999999,0.736015,0.243912,0.0184349999999999,1.082835,0.498342,-0.016275,1.177405,0.279892,0.064215,0.6710850000000002,0.101962,-0.134305,1.235985,0.077385,0.0096749999999999,0.928185,-0.0092089999999999,-0.000665,1.071815,0.009209,0.000665,0.914065,-0.3494379999999999,-0.037285,1.146455,-0.3586479999999999,-0.026305,0.926505,-0.749258,0.0060649999999999,1.173035,-0.673758,0.082535,0
175,0.855925,0.723581,-0.079175,0.7967050000000001,0.4485909999999999,0.002865,0.736755,0.2424309999999999,0.0221049999999999,1.0831050000000002,0.4984209999999999,-0.015295,1.178025,0.2811309999999999,0.0655149999999999,0.6750450000000001,0.097911,-0.129595,1.237195,0.0788669999999999,0.0106049999999999,0.928205,-0.009252,-0.0003049999999999,1.071795,0.009252,0.0003049999999999,0.915325,-0.349569,-0.034155,1.1468250000000002,-0.359059,-0.026315,0.929225,-0.7495689999999999,0.0077549999999999,1.175355,-0.6732589999999999,0.0833649999999999,0
176,0.8561150000000001,0.7239765,-0.0793800000000001,0.7944850000000001,0.4470065,0.0029099999999998,0.7382850000000001,0.2403765,0.0261599999999999,1.083095,0.4986465,-0.0144600000000001,1.177955,0.2819165,0.0664099999999998,0.678965,0.0940665,-0.1248000000000001,1.237765,0.0800915,0.0103799999999999,0.9281350000000002,-0.0091914999999999,-0.00023,1.071865,0.0091915,0.0002299999999999,0.916515,-0.3496635,-0.0312200000000001,1.147455,-0.3595534999999999,-0.02655,0.9309150000000002,-0.7497235,0.0101899999999999,1.177785,-0.6723235000000001,0.0835999999999999,0
177,0.8561150000000001,0.7208965,-0.0799499999999999,0.7912050000000002,0.4436064999999999,0.0056599999999999,0.743645,0.2367965,0.0396,1.083395,0.4986964999999999,-0.0119499999999999,1.176045,0.2845665,0.0664300000000001,0.7055250000000002,0.0638185,-0.08792,1.235605,0.0836065,0.00659,0.928615,-0.0091885,0.00078,1.071385,0.0091884999999999,-0.00078,0.918765,-0.3495635,-0.0250399999999999,1.150075,-0.3607135,-0.0287799999999999,0.935155,-0.7498535,0.01432,1.183655,-0.6701735,0.0844,0
178,0.8569050000000001,0.7197410000000001,-0.0784599999999999,0.7884550000000001,0.440111,0.0093199999999999,0.751425,0.232801,0.0510399999999999,1.083745,0.498371,-0.0089599999999999,1.173045,0.283661,0.06696,0.7250850000000001,0.057402,-0.0764799999999999,1.230445,0.083981,0.00034,0.929145,-0.008947,0.00141,1.070855,0.008947,-0.00141,0.920555,-0.349219,-0.0199399999999999,1.152355,-0.361979,-0.031,0.938395,-0.749609,0.0182999999999999,1.187885,-0.6690389999999999,0.0857499999999999,0
