sb224sc-HT22-VT27/4dt907/src/ml-research/a11/datafiles/labeled_files/A28_kinect.csv
FrameNo,nose_3d_x,nose_3d_y,nose_3d_z,left_shoulder_3d_x,left_shoulder_3d_y,left_shoulder_3d_z,left_elbow_3d_x,left_elbow_3d_y,left_elbow_3d_z,right_shoulder_3d_x,right_shoulder_3d_y,right_shoulder_3d_z,right_elbow_3d_x,right_elbow_3d_y,right_elbow_3d_z,left_wrist_3d_x,left_wrist_3d_y,left_wrist_3d_z,right_wrist_3d_x,right_wrist_3d_y,right_wrist_3d_z,left_hip_3d_x,left_hip_3d_y,left_hip_3d_z,right_hip_3d_x,right_hip_3d_y,right_hip_3d_z,left_knee_3d_x,left_knee_3d_y,left_knee_3d_z,right_knee_3d_x,right_knee_3d_y,right_knee_3d_z,left_ankle_3d_x,left_ankle_3d_y,left_ankle_3d_z,right_ankle_3d_x,right_ankle_3d_y,right_ankle_3d_z,activity_label
0,0.0133695,0.7618284999999999,0.0617625,-0.1562225,0.4670385,0.0661235,-0.1758924999999999,0.2145285,0.0677345,0.1612975,0.4633385,0.0717275,0.1855975,0.2165485,0.0634465,-0.1953325,0.0122655,-0.0048204999999999,0.1990475,0.0057825,-0.0243125,-0.0733014999999999,0.0020665,0.0004875,0.0733014999999999,-0.0020664999999999,-0.0004875,-0.1221724999999999,-0.3837515,-0.0152385,0.1139575,-0.4108615,0.0043985,-0.1243425,-0.7405815,-0.0209224999999999,0.1177175,-0.7392015000000001,-0.0301274999999999,0
1,0.0137079999999999,0.7616715,0.061519,-0.1563169999999999,0.4671715,0.066941,-0.1759669999999999,0.2143415,0.067551,0.1615229999999999,0.4632515,0.071521,0.1859529999999999,0.2168815,0.0633389999999999,-0.200547,-0.0115544999999999,-0.018751,0.201093,0.0183355,-0.021298,-0.073256,0.0020715,0.0003689999999999,0.073256,-0.0020715,-0.000369,-0.121957,-0.3805385,-0.015064,0.113763,-0.4107584999999999,0.0046689999999999,-0.124837,-0.7408385000000001,-0.02137,0.118293,-0.7382785000000001,-0.030632,0
2,0.0139045,0.7617254999999999,0.061449,-0.1563985,0.4672355,0.0667059999999999,-0.1759585,0.2143355,0.067253,0.1618215,0.4632955,0.071588,0.1863715,0.2171555,0.062702,-0.1933784999999999,0.0125105,-0.007278,0.2016015,0.0181335,-0.020677,-0.0732744999999999,0.0021065,0.0003519999999999,0.0732744999999999,-0.0021065,-0.000352,-0.1220385,-0.3811144999999999,-0.014877,0.1138015,-0.4106345,0.0047689999999999,-0.1256585,-0.7412845,-0.022199,0.1186815,-0.7386845000000001,-0.032041,0
3,0.014019,0.7616565000000001,0.0614229999999999,-0.156418,0.4672165,0.06662,-0.175848,0.2143864999999999,0.067018,0.162012,0.4630365,0.071909,0.186232,0.2171565,0.0622139999999999,-0.192928,0.0127105,-0.008046,0.2015819999999999,0.0180375,-0.020859,-0.073266,0.0021425,0.0003289999999999,0.073266,-0.0021425,-0.000329,-0.122058,-0.3813034999999999,-0.014849,0.113842,-0.4110835,0.0049439999999999,-0.125228,-0.7403035,-0.020875,0.118932,-0.7386035,-0.031721,0
4,0.0142529999999999,0.7617805,0.061571,-0.1565639999999999,0.4675705,0.068141,-0.176464,0.2151005,0.064333,0.161706,0.4631504999999999,0.071804,0.184026,0.2176905,0.052843,-0.1963639999999999,0.0174095,-0.0210899999999999,0.199866,0.0173545,-0.026823,-0.07327,0.0022145,0.000169,0.07327,-0.0022145,-0.0001689999999999,-0.121944,-0.3774995,-0.0156129999999999,0.113896,-0.4115295,0.005127,-0.125304,-0.7402395,-0.0210279999999999,0.117986,-0.7396295,-0.0307029999999999,0
5,0.014248,0.76172,0.0617459999999999,-0.1567279999999999,0.46745,0.068084,-0.1784879999999999,0.21768,0.057648,0.1615619999999999,0.46309,0.071905,0.182672,0.21811,0.046824,-0.200398,0.020642,-0.028915,0.198152,0.018637,-0.035338,-0.073199,0.0022819999999999,5.6000000000000494e-05,0.073199,-0.002282,-5.6000000000000494e-05,-0.1221479999999999,-0.37795,-0.015322,0.114082,-0.41069,0.0051749999999999,-0.125378,-0.74094,-0.0208879999999999,0.116302,-0.73956,-0.0271189999999999,0
6,0.0136815,0.7623745000000001,0.062615,-0.1576334999999999,0.4679844999999999,0.067189,-0.1963134999999999,0.2500045,0.015074,0.1603065,0.4633945,0.070668,0.1908865,0.2410344999999999,0.0065769999999999,-0.2449035,0.0849435,-0.11869,0.2155865,0.0620235,-0.11502,-0.0734895,0.0023834999999999,-0.0006909999999999,0.0734895,-0.0023835,0.000691,-0.1230135,-0.3761855,-0.014704,0.1131765,-0.4096555,0.005234,-0.1258135,-0.7370755,-0.0209299999999999,0.1153465,-0.7393354999999999,-0.027746,0
7,0.013758,0.7609085,0.0657835,-0.15398,0.4707385,0.0665495,-0.22202,0.3008085,-0.0097914999999999,0.15733,0.4661585,0.0653565,0.21899,0.2888985,-0.0201104999999999,-0.26188,0.1744085,-0.1529744999999999,0.23899,0.1615984999999999,-0.1708545,-0.073768,0.0020434999999999,0.0002935,0.073768,-0.0020434999999999,-0.0002934999999999,-0.12352,-0.3708815,-0.0136174999999999,0.11185,-0.4085415,0.0053435,-0.12694,-0.7362015,-0.0194314999999999,0.11466,-0.7401314999999999,-0.0280814999999999,0
8,0.0135144999999999,0.759811,0.0670794999999999,-0.1531045,0.472241,0.0660605,-0.2342145,0.337971,-0.0246335,0.1559855,0.468451,0.0631635,0.2289155,0.324421,-0.0380815,-0.2758345,0.244841,-0.1778635,0.2496755,0.227911,-0.1999335,-0.0739725,0.0018999999999999,0.0005594999999999,0.0739725,-0.0019,-0.0005595,-0.1238545,-0.369319,-0.0135285,0.1111455,-0.408259,0.0054054999999999,-0.1274545,-0.735249,-0.0185015,0.1144254999999999,-0.741069,-0.0278155,0
9,0.0132624999999999,0.7584274999999999,0.0684435,-0.1522935,0.4738475,0.0656395,-0.2454635,0.3771875,-0.0383415,0.1547164999999999,0.4707075,0.0610675,0.2390864999999999,0.3614275,-0.0557764999999999,-0.2888835,0.3200575,-0.2015455,0.2598364999999999,0.3001275,-0.2265755,-0.0741655,0.0017465,0.0008085,0.0741655,-0.0017465,-0.0008084999999999,-0.1241635,-0.3688125,-0.0134984999999999,0.1104864999999999,-0.4082725,0.0054455,-0.1278035,-0.7357725,-0.0179075,0.1137965,-0.7424125,-0.0274504999999999,0
10,0.0130365,0.7567564999999999,0.069734,-0.1515264999999999,0.4757564999999999,0.065198,-0.2561665,0.4196865,-0.0502489999999999,0.1537435,0.4729765,0.059203,0.2490834999999999,0.4039365,-0.071834,-0.3014865,0.3980265,-0.222954,0.2695935,0.3792465,-0.250694,-0.0743524999999999,0.0016414999999999,0.0010299999999999,0.0743524999999999,-0.0016415,-0.0010299999999999,-0.1244164999999999,-0.3690635,-0.013371,0.1098435,-0.4084735,0.005473,-0.1281165,-0.7365335,-0.0174,0.1132035,-0.7432135,-0.0272919999999999,0
11,0.0128364999999999,0.7547834999999999,0.070787,-0.1507264999999999,0.4778535,0.064832,-0.2633965,0.4603035,-0.057174,0.1529335,0.4752635,0.057587,0.2583335,0.4451535,-0.082452,-0.3074965,0.4724534999999999,-0.2313819999999999,0.2769434999999999,0.4558635,-0.260382,-0.0744705,0.0015525,0.00127,0.0744705,-0.0015524999999999,-0.00127,-0.1246365,-0.3698365,-0.0131629999999999,0.1092335,-0.4090065,0.005513,-0.1284365,-0.7375565000000001,-0.0162949999999999,0.1125835,-0.7444965,-0.0271019999999999,0
12,0.012572,0.752318,0.0710659999999999,-0.149922,0.480408,0.064647,-0.267212,0.500038,-0.05953,0.151678,0.4770479999999999,0.056278,0.264418,0.487098,-0.0861,-0.310872,0.5499780000000001,-0.23167,0.281808,0.532618,-0.2603,-0.074598,0.0015399999999999,0.001402,0.074598,-0.00154,-0.001402,-0.1249019999999999,-0.370782,-0.012922,0.1087279999999999,-0.410022,0.005777,-0.128742,-0.7383419999999999,-0.01494,0.112328,-0.745922,-0.027027,0
13,0.0123135,0.7497515,0.0710069999999999,-0.1495005,0.4830215,0.064549,-0.2674705,0.5371515,-0.059589,0.1505395,0.4789015,0.055303,0.2679595,0.5276115,-0.085989,-0.3111305,0.6211415,-0.231729,0.2848595,0.6029114999999999,-0.260209,-0.0747365,0.0015475,0.0014429999999999,0.0747365,-0.0015474999999999,-0.0014429999999999,-0.1251605,-0.3722185,-0.012881,0.1084395,-0.4111185,0.0058259999999999,-0.1290205,-0.7396485,-0.013881,0.1120295,-0.7472885,-0.026821,0
14,0.0120765,0.746966,0.0709964999999999,-0.1490075,0.485636,0.0645425,-0.2677075,0.576686,-0.0595995,0.1494125,0.480546,0.0544105,0.2692325,0.570526,-0.0859294999999999,-0.3113675,0.693536,-0.2317395,0.2865625,0.675146,-0.2601394999999999,-0.0748595,0.0015569999999999,0.0014375,0.0748595,-0.001557,-0.0014375,-0.1253975,-0.373874,-0.0128915,0.1082025,-0.412794,0.0058155,-0.1293075,-0.7412340000000001,-0.0126285,0.1116725,-0.748624,-0.0263785,0
15,0.01172,0.7435215000000001,0.0710165,-0.14893,0.4882915,0.0640375,-0.26798,0.6110215,-0.0595755,0.14862,0.4830015,0.0540654999999999,0.26917,0.6082915,-0.0858955,-0.31164,0.7539115,-0.2316155,0.2862099999999999,0.7389315,-0.2583455,-0.074903,0.0015585,0.0014714999999999,0.074903,-0.0015585,-0.0014715,-0.12544,-0.3770084999999999,-0.0128575,0.10793,-0.4151885,0.0058394999999999,-0.12955,-0.7447485,-0.0121065,0.11152,-0.7515285,-0.0258705,0
16,0.011226,0.740016,0.0705295,-0.148815,0.4911959999999999,0.0635324999999999,-0.268395,0.634176,-0.0557384999999999,0.147815,0.485006,0.0537915,0.268795,0.636456,-0.0840865,-0.311255,0.795486,-0.2203565,0.285335,0.785816,-0.2454965,-0.0748149999999999,0.001677,0.0015984999999999,0.0748149999999999,-0.0016769999999999,-0.0015984999999999,-0.125355,-0.380464,-0.0127305,0.1076149999999999,-0.418064,0.0059484999999999,-0.129615,-0.748594,-0.0119865,0.111685,-0.754474,-0.0255165,0
17,0.0105399999999999,0.7366820000000001,0.0693265,-0.14854,0.4943319999999999,0.0630365,-0.26679,0.6560520000000001,-0.0483105,0.1471799999999999,0.4863319999999999,0.0537015,0.26803,0.6580020000000001,-0.0766785,-0.30708,0.830302,-0.2013484999999999,0.2839899999999999,0.8225720000000001,-0.2248285,-0.074696,0.001794,0.0017195,0.074696,-0.001794,-0.0017194999999999,-0.12533,-0.384218,-0.0124724999999999,0.10725,-0.420478,0.0061575,-0.12994,-0.752778,-0.0116835,0.11189,-0.757448,-0.0251894999999999,0
18,0.009758,0.733596,0.0676145,-0.148229,0.497686,0.0628465,-0.262709,0.677026,-0.0413174999999999,0.146841,0.487586,0.0539355,0.264551,0.6796960000000001,-0.0675545,-0.300489,0.860326,-0.1785445,0.281501,0.854676,-0.1978444999999999,-0.074577,0.0019319999999999,0.0017724999999999,0.074577,-0.0019319999999999,-0.0017724999999999,-0.125299,-0.387944,-0.0122564999999999,0.106851,-0.422834,0.0064375,-0.130349,-0.756504,-0.0111445,0.111871,-0.760394,-0.0242015,0
19,0.0089445,0.730819,0.065556,-0.1478405,0.500769,0.062844,-0.2570105,0.694419,-0.034045,0.1464494999999999,0.488839,0.054394,0.2608195,0.693539,-0.056006,-0.2943305,0.886449,-0.157716,0.2775095,0.879879,-0.170286,-0.0744354999999999,0.002019,0.0017059999999999,0.0744354999999999,-0.002019,-0.0017059999999999,-0.1252805,-0.391811,-0.0118419999999999,0.1065695,-0.425041,0.0066889999999999,-0.1308105,-0.760881,-0.010921,0.1114995,-0.7638510000000001,-0.023046,0
20,0.0081249999999999,0.7282415,0.063539,-0.147446,0.5035814999999999,0.062963,-0.251986,0.7100915,-0.027434,0.146034,0.4900414999999999,0.055019,0.2571839999999999,0.7063315,-0.04484,-0.288656,0.9100015,-0.13897,0.273924,0.9027215,-0.14691,-0.074273,0.0020545,0.001597,0.074273,-0.0020545,-0.001597,-0.125246,-0.3955285,-0.011352,0.106324,-0.4271385,0.007067,-0.131296,-0.7652885,-0.010678,0.1113639999999999,-0.7667285,-0.0225539999999999,0
21,0.007299,0.726085,0.0614175,-0.146954,0.5058849999999999,0.0631005,-0.247684,0.724505,-0.0207335,0.145646,0.491745,0.0556065,0.253396,0.715495,-0.0333025,-0.282954,0.928795,-0.1187145,0.270796,0.921155,-0.1241144999999999,-0.07409,0.0019969999999999,0.0015184999999999,0.07409,-0.0019969999999999,-0.0015184999999999,-0.125184,-0.398785,-0.0110565,0.106136,-0.428745,0.0072494999999999,-0.1317539999999999,-0.7693350000000001,-0.0104954999999999,0.111266,-0.769015,-0.0215185,0
22,0.0064734999999999,0.7239525,0.05936,-0.1464805,0.5077225,0.063247,-0.2436505,0.7372725,-0.014945,0.1452594999999999,0.4933225,0.056184,0.2497695,0.7236225000000001,-0.0213529999999999,-0.2777405,0.9454325,-0.099666,0.2680995,0.9368525,-0.102746,-0.0739155,0.0019024999999999,0.001501,0.0739155,-0.0019025,-0.0015009999999999,-0.1251205,-0.4020674999999999,-0.0108079999999999,0.1059595,-0.4304874999999999,0.007385,-0.1322305,-0.7727575,-0.0100499999999999,0.1105095,-0.7725275,-0.0210809999999999,0
23,0.0056009999999999,0.7219685,0.057505,-0.145946,0.5095885,0.063404,-0.241186,0.7442785,-0.0093,0.144764,0.4948985,0.0566959999999999,0.246324,0.7267385,-0.010214,-0.2742259999999999,0.9530385,-0.083542,0.266234,0.9455285,-0.086802,-0.073753,0.0018025,0.001597,0.073753,-0.0018024999999999,-0.001597,-0.125106,-0.4052715,-0.010562,0.105724,-0.4321015,0.007486,-0.132696,-0.7765515000000001,-0.010157,0.109834,-0.7758615,-0.020608,0
24,0.0048705,0.7211654999999999,0.0563105,-0.1451175,0.5110355,0.0637795,-0.2404275,0.7498655,-0.0053935,0.1442925,0.4948055,0.0569454999999999,0.2450425,0.7294455,-0.0039375,-0.2719775,0.9575555,-0.0729655,0.2653225,0.9522155,-0.0775655,-0.0736495,0.0017374999999999,0.0017934999999999,0.0736495,-0.0017375,-0.0017935,-0.1252075,-0.4064945,-0.0106055,0.1054025,-0.4329245,0.0071944999999999,-0.1332075,-0.7775645,-0.0100695,0.1096025,-0.7771245,-0.0203155,0
25,0.00426,0.720908,0.05544,-0.1442999999999999,0.5117980000000001,0.064024,-0.24026,0.754868,-0.0025629999999999,0.14396,0.4948879999999999,0.057188,0.2444899999999999,0.731388,0.001098,-0.27015,0.961478,-0.064892,0.26464,0.954678,-0.069672,-0.073601,0.0017119999999999,0.002044,0.073601,-0.001712,-0.0020439999999999,-0.12527,-0.406932,-0.010872,0.10517,-0.433302,0.006764,-0.13352,-0.778262,-0.010138,0.10928,-0.7781819999999999,-0.0203389999999999,0
26,0.0038554999999999,0.7209715,0.055096,-0.1438635,0.5115715,0.064122,-0.2402035,0.7547515,-0.001517,0.1437565,0.4949515,0.0573329999999999,0.2442264999999999,0.7335615,0.0026639999999999,-0.2690535,0.9622215,-0.0614339999999999,0.2642865,0.9545215,-0.066056,-0.0735735,0.0016974999999999,0.0022949999999999,0.0735735,-0.0016974999999999,-0.0022949999999999,-0.1252235,-0.4075485,-0.011337,0.1050465,-0.4331985,0.006288,-0.1337635,-0.7788985,-0.010741,0.1090865,-0.7794585,-0.0205,0
27,0.0036499999999999,0.7207365,0.0547794999999999,-0.143875,0.5109665,0.0639204999999999,-0.240055,0.7546065000000001,-0.0014625,0.143695,0.4952565,0.0571895,0.2440149999999999,0.7355965,0.0037605,-0.268185,0.9630465,-0.0603514999999999,0.264045,0.9538465,-0.0642455,-0.0735369999999999,0.0015685,0.0023444999999999,0.0735369999999999,-0.0015685,-0.0023444999999999,-0.125145,-0.4096535,-0.0120075,0.1049749999999999,-0.4340035,0.0055064999999999,-0.134095,-0.7808535,-0.0113425,0.108685,-0.7813235,-0.0206855,1
28,0.003417,0.7201615,0.0544645,-0.144112,0.5110515,0.0636635,-0.239942,0.7546915000000001,-0.0014585,0.143488,0.4954415,0.0569725,0.243898,0.7344515,0.0037555,-0.266992,0.9631315,-0.0602985,0.264598,0.9539315,-0.0642264999999999,-0.07349,0.0015155,0.0023465,0.07349,-0.0015155,-0.0023465,-0.1249219999999999,-0.4111085,-0.0134784999999999,0.104998,-0.4333085,0.0042535,-0.134332,-0.7820484999999999,-0.0120515,0.108218,-0.7822085,-0.0210775,1
29,0.003157,0.7199895,0.053589,-0.14399,0.5113995,0.063443,-0.23986,0.7553895,-0.0014579999999999,0.14332,0.4953795,0.056652,0.2447399999999999,0.7344395,0.003739,-0.26591,0.9629295,-0.0602559999999999,0.2654,0.9546295,-0.064194,-0.073441,0.0015254999999999,0.002353,0.073441,-0.0015255,-0.0023529999999999,-0.12483,-0.4119305,-0.0154009999999999,0.10519,-0.4325205,0.002323,-0.13473,-0.7824205,-0.0133779999999999,0.10776,-0.7833905,-0.0219079999999999,1
30,0.0025559999999999,0.719968,0.0520715,-0.144228,0.511678,0.0631145,-0.239958,0.7559980000000001,-0.0018814999999999,0.142832,0.4953580000000001,0.0561535,0.245422,0.7320880000000001,0.0035625,-0.265158,0.962328,-0.0604295,0.266572,0.954928,-0.0643504999999999,-0.073404,0.001541,0.0025625,0.073404,-0.001541,-0.0025624999999999,-0.125298,-0.411782,-0.0189164999999999,0.105382,-0.432052,-0.0015894999999999,-0.135438,-0.782632,-0.0156744999999999,0.1071419999999999,-0.783502,-0.0230994999999999,1
31,0.0019244999999999,0.7182135,0.048483,-0.1446525,0.5110935,0.0618009999999999,-0.2388525,0.7526934999999999,-0.004538,0.1424075,0.4958634999999999,0.0548079999999999,0.2464374999999999,0.7293335,0.0025099999999999,-0.2636125,0.9616835,-0.064305,0.2685575,0.9525635,-0.0657349999999999,-0.0735885,0.0014435,0.00279,0.0735885,-0.0014435,-0.00279,-0.1257025,-0.4112564999999999,-0.027759,0.1078675,-0.4306465,-0.010298,-0.1361525,-0.7812765,-0.0199859999999999,0.1064475,-0.7819465000000001,-0.025562,1
32,0.00109,0.7162015,0.042957,-0.144957,0.5098615000000001,0.058127,-0.2378569999999999,0.7487415000000001,-0.0097459999999999,0.142523,0.4941015,0.051952,0.248073,0.7269815000000001,-0.001117,-0.261997,0.9607015,-0.073089,0.271453,0.9501815,-0.070849,-0.073765,0.0012994999999999,0.002663,0.073765,-0.0012995,-0.0026629999999999,-0.1261769999999999,-0.4077985,-0.039962,0.111483,-0.4260785,-0.0214919999999999,-0.136917,-0.7765285,-0.0255209999999999,0.105693,-0.7771985,-0.0288879999999999,1
33,0.0002365,0.7136285,0.0365854999999999,-0.1453684999999999,0.5087985,0.0532744999999999,-0.2366385,0.7439685,-0.0176605,0.1424215,0.4931885,0.0482255,0.2495915,0.7230885,-0.0073735,-0.2601485,0.9573385,-0.0853665,0.2741915,0.9481685,-0.0792565,-0.0740055,0.0011784999999999,0.0024564999999999,0.0740055,-0.0011785,-0.0024565,-0.1266685,-0.4022015,-0.0540555,0.1162914999999999,-0.4194615,-0.0343625,-0.1379285,-0.7693215,-0.0316005,0.1050215,-0.7701015,-0.0326885,1
34,-0.0005955,0.7111145,0.0293914999999999,-0.1457355,0.5072745000000001,0.0475334999999999,-0.2354055,0.7393845,-0.0268455,0.1421945,0.4922745,0.0434924999999999,0.2515345,0.7214145000000001,-0.0153215,-0.2579555,0.9543545,-0.1003385,0.2768545,0.9436845,-0.0891885,-0.0742695,0.0010994999999999,0.0021994999999999,0.0742695,-0.0010994999999999,-0.0021995,-0.1271355,-0.3968155,-0.0690575,0.1217645,-0.4125555,-0.0477295,-0.1387855,-0.7616054999999999,-0.0383095,0.1045645,-0.7622955,-0.0369885,1
35,-0.0013895,0.7079920000000001,0.021436,-0.1462655,0.505742,0.041042,-0.2339255,0.734442,-0.0372229999999999,0.1418445,0.4910619999999999,0.037987,0.2531845,0.719462,-0.024376,-0.2560155,0.951302,-0.1170919999999999,0.2796045,0.940212,-0.102432,-0.0747235,0.0008649999999999,0.001843,0.0747235,-0.0008649999999999,-0.001843,-0.1276455,-0.389258,-0.085432,0.1281645,-0.402808,-0.061917,-0.1396855,-0.7505879999999999,-0.045193,0.1042845,-0.752118,-0.0414009999999999,1
36,-0.0019595,0.7051465,0.011966,-0.1465515,0.5029965000000001,0.032818,-0.2321415,0.7276065,-0.0496499999999999,0.1418085,0.4888765,0.030503,0.2549384999999999,0.7173865,-0.035329,-0.2539315,0.9441165,-0.1349699999999999,0.2825184999999999,0.9337865,-0.1161799999999999,-0.0751645,0.0007955,0.001604,0.0751645,-0.0007955,-0.0016039999999999,-0.1281415,-0.3778635,-0.1031999999999999,0.1362485,-0.3898035,-0.07762,-0.1403815,-0.7350935,-0.0524269999999999,0.1043885,-0.7380234999999999,-0.0460429999999999,1
37,-0.0022979999999999,0.7023244999999999,0.0019585,-0.146491,0.5007345,0.0244265,-0.230091,0.7218144999999999,-0.0625564999999999,0.141889,0.4867045,0.0225375,0.256449,0.7153244999999999,-0.0468525,-0.252191,0.9386445,-0.1529374999999999,0.285029,0.9268045,-0.1306675,-0.075719,0.0007205,0.0013235,0.075719,-0.0007204999999999,-0.0013234999999999,-0.128471,-0.3657955,-0.1209974999999999,0.144849,-0.3764855,-0.0934375,-0.140681,-0.7191855,-0.0597055,0.105109,-0.7220755000000001,-0.0507285,1
38,-0.0020095,0.6986,-0.0089454999999999,-0.1459115,0.4986299999999999,0.0151615,-0.2281315,0.71441,-0.0762105,0.1422185,0.48402,0.0133885,0.2583485,0.71134,-0.0594605,-0.2504015,0.93386,-0.1722774999999999,0.2878185,0.92132,-0.1466875,-0.0759495,0.0005949999999999,0.0010145,0.0759495,-0.0005949999999999,-0.0010144999999999,-0.1287315,-0.34935,-0.1396675,0.1548884999999999,-0.35764,-0.1099275,-0.1407215,-0.6992,-0.0670215,0.1071985,-0.70186,-0.0553725,1
39,-0.001573,0.6953545,-0.0195925,-0.145019,0.4965845,0.0054125,-0.226399,0.7072545,-0.0895715,0.142631,0.4817245,0.0040315,0.260071,0.7071445,-0.0725335,-0.248909,0.9298145,-0.1915415,0.289801,0.9170545,-0.1632414999999999,-0.075933,0.0005345,0.0006355,0.075933,-0.0005345,-0.0006355,-0.129139,-0.3325755,-0.1575514999999999,0.165561,-0.3372955,-0.1251815,-0.140209,-0.6777255,-0.0735245,0.1094309999999999,-0.6793355,-0.0595464999999999,1
40,-0.001098,0.6949719999999999,-0.0334305,-0.143948,0.496142,-0.0085005,-0.225338,0.7051219999999999,-0.1060045,0.143232,0.479742,-0.0094605,0.261252,0.705722,-0.0895135,-0.247858,0.926862,-0.2125045,0.290842,0.916732,-0.1830045,-0.075914,0.0006759999999999,0.0002015,0.075914,-0.0006759999999999,-0.0002015,-0.129778,-0.313598,-0.1749445,0.174312,-0.315148,-0.1411845,-0.139658,-0.6541680000000001,-0.0828235,0.1122119999999999,-0.653768,-0.0668175,1
41,-0.0006825,0.694545,-0.0471945,-0.1427435,0.494325,-0.0219895,-0.2239335,0.703325,-0.1223004999999999,0.1438864999999999,0.4811149999999999,-0.0228355,0.2623765,0.702715,-0.1068205,-0.2462935,0.921955,-0.2307005,0.2921465,0.917065,-0.2023405,-0.0759775,0.0004649999999999,0.0001954999999999,0.0759775,-0.000465,-0.0001954999999999,-0.1317335,-0.293795,-0.1962205,0.1847165,-0.294945,-0.1610305,-0.1392735,-0.631085,-0.0910504999999999,0.1141064999999999,-0.629765,-0.0735985,1
42,0.0002074999999999,0.69371,-0.0620475,-0.1408585,0.4925,-0.0369455,-0.2218885,0.70308,-0.1400225,0.1449514999999999,0.48092,-0.0383335,0.2638415,0.70225,-0.1252625,-0.2440585,0.92256,-0.2516325,0.2939015,0.9148,-0.2231125,-0.0763725,0.0003599999999999,0.0002284999999999,0.0763725,-0.0003599999999999,-0.0002284999999999,-0.1332785,-0.27107,-0.2174625,0.1954115,-0.2717199999999999,-0.1810025,-0.1385185,-0.60419,-0.0991605,0.1159214999999999,-0.6023,-0.0807155,1
43,0.0013715,0.6913849999999999,-0.0769304999999999,-0.1385535,0.490625,-0.0520065,-0.2196535,0.7001949999999999,-0.1578435,0.1460765,0.479585,-0.0540104999999999,0.2657265,0.7006650000000001,-0.1441734999999999,-0.2417234999999999,0.923935,-0.2723534999999999,0.2958464999999999,0.914865,-0.2434135,-0.0766044999999999,0.0002149999999999,0.0003285,0.0766044999999999,-0.000215,-0.0003284999999999,-0.1345335,-0.247645,-0.2383335,0.2061765,-0.247865,-0.2008935,-0.1374835,-0.5748550000000001,-0.1069565,0.1181865,-0.5727249999999999,-0.0874305,1
44,0.0024749999999999,0.689265,-0.093068,-0.136862,0.488365,-0.068433,-0.217992,0.697555,-0.175809,0.145768,0.477985,-0.071006,0.266938,0.700045,-0.164719,-0.2402119999999999,0.920115,-0.2932289999999999,0.296938,0.913365,-0.262769,-0.076762,0.000335,0.000382,0.076762,-0.000335,-0.000382,-0.136282,-0.219445,-0.259479,0.215718,-0.2194249999999999,-0.220999,-0.136342,-0.5434950000000001,-0.115019,0.119158,-0.538305,-0.0959889999999999,1
45,0.0029349999999999,0.68724,-0.1089889999999999,-0.135914,0.48684,-0.084171,-0.217064,0.69584,-0.193414,0.1447459999999999,0.47725,-0.087126,0.267366,0.69684,-0.184194,-0.239404,0.91557,-0.313424,0.297426,0.91454,-0.2834939999999999,-0.077074,0.0002,0.0003709999999999,0.077074,-0.0002,-0.0003709999999999,-0.138504,-0.19193,-0.279454,0.222826,-0.1921699999999999,-0.240044,-0.135734,-0.51381,-0.1233939999999999,0.1194359999999999,-0.50631,-0.1045489999999999,1
46,0.003508,0.68442,-0.124775,-0.134591,0.48483,-0.100195,-0.215751,0.69345,-0.211453,0.144019,0.47668,-0.103445,0.267819,0.6935100000000001,-0.203623,-0.237751,0.91265,-0.334063,0.298069,0.91684,-0.304803,-0.0773399999999999,1.000000000001e-05,0.000235,0.0773399999999999,-1.000000000001e-05,-0.0002349999999999,-0.141151,-0.1628299999999999,-0.297743,0.229889,-0.16309,-0.258713,-0.1357509999999999,-0.48488,-0.131893,0.120709,-0.47441,-0.11405,1
47,0.0042349999999999,0.6810350000000001,-0.1404159999999999,-0.133234,0.4813449999999999,-0.116388,-0.214344,0.690215,-0.230086,0.143586,0.475565,-0.120156,0.268236,0.6910449999999999,-0.223566,-0.235894,0.909285,-0.357676,0.298956,0.917445,-0.328196,-0.077398,-0.000185,0.0002049999999999,0.077398,0.0001849999999999,-0.0002049999999999,-0.143624,-0.130285,-0.314416,0.235236,-0.130435,-0.2764459999999999,-0.135694,-0.451715,-0.142446,0.1219659999999999,-0.442535,-0.126266,1
48,0.0049955,0.676565,-0.155961,-0.1315655,0.4767749999999999,-0.132287,-0.2133855,0.685665,-0.248621,0.1432645,0.4732949999999999,-0.136601,0.2689245,0.6876249999999999,-0.243031,-0.2345255,0.902725,-0.380991,0.2999545,0.912305,-0.350951,-0.0774115,-0.000445,0.000174,0.0774115,0.0004449999999999,-0.000174,-0.1459355,-0.095555,-0.329761,0.2400545,-0.097025,-0.293221,-0.1368155,-0.4187350000000001,-0.153361,0.1239045,-0.410285,-0.139794,1
49,0.0056715,0.670515,-0.1660605,-0.1300845,0.472079,-0.1427215,-0.2123745,0.6800550000000001,-0.2633505,0.1431255,0.469607,-0.1479105,0.2695155,0.6816550000000001,-0.2567205,-0.2336745,0.894715,-0.3986205,0.3006955,0.907035,-0.3680704999999999,-0.0774364999999999,-0.0004949999999999,0.0004624999999999,0.0774364999999999,0.000495,-0.0004625,-0.1485245,-0.0597649999999999,-0.3394304999999999,0.2429555,-0.0609949999999999,-0.3039805,-0.1377045,-0.3844249999999999,-0.1588505,0.1247655,-0.3772649999999999,-0.1489905,1
50,0.0063935,0.66521,-0.174508,-0.1290615,0.469257,-0.151468,-0.2117815,0.67485,-0.2759479999999999,0.1429885,0.465034,-0.157968,0.2701485,0.6748799999999999,-0.267848,-0.2329815,0.8862099999999999,-0.414788,0.3013085,0.90039,-0.382838,-0.0775275,-0.00034,0.000497,0.0775275,0.00034,-0.0004969999999999,-0.1494315,-0.0262999999999999,-0.341698,0.2430685,-0.02638,-0.308418,-0.1376715,-0.3528199999999999,-0.164138,0.1244685,-0.34701,-0.157848,1
51,0.0069715,0.6603749999999999,-0.181216,-0.1283075,0.466883,-0.157916,-0.2115175,0.668145,-0.285476,0.1428725,0.4619239999999999,-0.165416,0.2705125,0.667215,-0.277476,-0.2326375,0.874735,-0.427456,0.3017525,0.894805,-0.395316,-0.0776745,1.4999999999987246e-05,0.000473,0.0776745,-1.5000000000042755e-05,-0.000473,-0.1499575,0.0035849999999999,-0.343306,0.2428525,0.0045149999999999,-0.310926,-0.1378375,-0.325445,-0.168656,0.1241425,-0.3214950000000001,-0.166136,1
52,0.0074879999999999,0.65746,-0.1872125,-0.127997,0.464147,-0.1633725,-0.211957,0.66275,-0.2943125,0.142403,0.459007,-0.1718724999999999,0.270713,0.66099,-0.2864425,-0.232347,0.86082,-0.4389825,0.302363,0.88588,-0.4082925,-0.0778949999999999,0.00074,0.0005065,0.0778949999999999,-0.0007399999999999,-0.0005065,-0.150617,0.0279,-0.3449824999999999,0.242583,0.0296,-0.3131825,-0.137907,-0.30232,-0.1702125,0.123703,-0.30027,-0.1727925,1
53,0.0074594999999999,0.654695,-0.1915755,-0.1282145,0.462072,-0.1671755,-0.2124845,0.657875,-0.3023754999999999,0.1414355,0.456906,-0.1766054999999999,0.2704255,0.652085,-0.2928155,-0.2326445,0.850155,-0.4481455,0.3031255,0.876535,-0.4194954999999999,-0.0784035,0.0012449999999999,0.0007955,0.0784035,-0.001245,-0.0007954999999999,-0.1517245,0.043265,-0.3465155,0.2421654999999999,0.0454949999999999,-0.3150555,-0.1385545,-0.2850750000000001,-0.1713255,0.1227955,-0.2870750000000001,-0.1779655,1
54,0.0071129999999999,0.6521699999999999,-0.194809,-0.128784,0.4613179999999999,-0.170229,-0.213504,0.65425,-0.3082789999999999,0.139966,0.4536239999999999,-0.180589,0.270186,0.6505099999999999,-0.298839,-0.233234,0.85053,-0.458219,0.303776,0.8710199999999999,-0.428489,-0.078988,0.00217,0.0011989999999999,0.078988,-0.00217,-0.0011989999999999,-0.153324,0.0548699999999999,-0.347489,0.240806,0.0578799999999999,-0.316919,-0.139574,-0.2719,-0.1723589999999999,0.120766,-0.27675,-0.1821789999999999,1
55,0.0072125,0.6513899999999999,-0.198027,-0.1287395,0.4600409999999999,-0.173377,-0.2140294999999999,0.6523599999999999,-0.313237,0.1387005,0.4492109999999999,-0.184557,0.2702805,0.64743,-0.304897,-0.2338895,0.84944,-0.467657,0.3048805,0.8642799999999999,-0.436527,-0.0795595,0.0031399999999999,0.001714,0.0795595,-0.00314,-0.001714,-0.1544094999999999,0.0624999999999999,-0.348727,0.2393005,0.0660699999999999,-0.319467,-0.1397795,-0.26292,-0.172717,0.1185705,-0.2702800000000001,-0.1867269999999999,1
56,0.007611,0.6513899999999999,-0.1993674999999999,-0.128339,0.4600409999999999,-0.1747175,-0.214409,0.6523599999999999,-0.3150675,0.1381109999999999,0.4492109999999999,-0.1859374999999999,0.270031,0.64743,-0.3079775,-0.234629,0.84924,-0.4702675,0.305651,0.86344,-0.4396375,-0.079989,0.0031399999999999,0.0022275,0.079989,-0.00314,-0.0022275,-0.154319,0.0617199999999999,-0.3488675,0.2383009999999999,0.0642599999999999,-0.3218375,-0.1390289999999999,-0.2637400000000001,-0.1714375,0.116871,-0.2702800000000001,-0.1881574999999999,1
57,0.0088304999999999,0.6513899999999999,-0.200132,-0.1280005,0.4600409999999999,-0.175522,-0.2142505,0.6523599999999999,-0.315882,0.1383695,0.4492109999999999,-0.186752,0.2705195,0.64743,-0.308782,-0.2349305,0.84924,-0.471102,0.3059195,0.86344,-0.440442,-0.0798535,0.0031399999999999,0.0021769999999999,0.0798535,-0.00314,-0.0021769999999999,-0.1532705,0.0609499999999999,-0.3487519999999999,0.2366194999999999,0.0625099999999999,-0.322972,-0.1376905,-0.2637400000000001,-0.172962,0.1161395,-0.2702800000000001,-0.189012,1
58,0.0101235,0.6513899999999999,-0.200407,-0.1272575,0.4600409999999999,-0.175827,-0.2144475,0.6523599999999999,-0.316217,0.1388725,0.4492109999999999,-0.187057,0.2718725,0.64743,-0.309047,-0.2353375,0.84924,-0.471447,0.3061025,0.86344,-0.440767,-0.0797025,0.0031399999999999,0.0022009999999999,0.0797025,-0.00314,-0.002201,-0.1517075,0.0606399999999999,-0.348717,0.2351625,0.0622799999999999,-0.323667,-0.1352275,-0.2624700000000001,-0.170187,0.1158925,-0.2702800000000001,-0.189357,1
59,0.0114045,0.652405,-0.200277,-0.1265875,0.460649,-0.175547,-0.2150275,0.651885,-0.316247,0.1394525,0.450304,-0.186877,0.2721325,0.648245,-0.309037,-0.2358275,0.8477250000000001,-0.471477,0.3060225,0.861925,-0.440107,-0.0797025,0.003765,0.0022009999999999,0.0797025,-0.003765,-0.002201,-0.1502875,0.059555,-0.347567,0.2337925,0.061825,-0.322957,-0.1359375,-0.2627349999999999,-0.170827,0.1164625,-0.269305,-0.188107,1
60,0.012403,0.6544599999999999,-0.1985434999999999,-0.126643,0.4624409999999999,-0.1737035,-0.2158729999999999,0.65337,-0.3142035,0.139957,0.4507049999999999,-0.1859035,0.272357,0.6491199999999999,-0.3086035,-0.236783,0.84976,-0.4680935,0.305987,0.8654199999999999,-0.4391635,-0.079707,0.0039399999999999,0.0023055,0.079707,-0.00394,-0.0023055,-0.148253,0.0471799999999999,-0.3461635,0.232517,0.0510499999999999,-0.3222335,-0.135683,-0.27378,-0.1674735,0.116987,-0.27871,-0.1850435,1
61,0.013105,0.65747,-0.1957335,-0.126683,0.464598,-0.1710035,-0.216083,0.65558,-0.3096635,0.140417,0.452754,-0.1836235,0.272437,0.65386,-0.3075535,-0.238233,0.8508199999999999,-0.4617834999999999,0.305887,0.86802,-0.4352434999999999,-0.0796429999999999,0.00379,0.0025734999999999,0.0796429999999999,-0.00379,-0.0025734999999999,-0.1452629999999999,0.0271799999999999,-0.3444035,0.230617,0.03259,-0.3216535,-0.133833,-0.29301,-0.1634235,0.116467,-0.2939299999999999,-0.1797235,1
62,0.0136994999999999,0.661405,-0.1917375,-0.1264355,0.467703,-0.1672275,-0.2162455,0.658075,-0.3029675,0.1413845,0.4549709999999999,-0.1803475,0.2727045,0.659745,-0.3041375,-0.2401955,0.8602749999999999,-0.4548675,0.3060345,0.872395,-0.4291975,-0.0793575,0.0038949999999999,0.0026474999999999,0.0793575,-0.003895,-0.0026474999999999,-0.1419555,0.000815,-0.3425875,0.2285545,0.0088249999999999,-0.3208574999999999,-0.1323555,-0.319115,-0.1586975,0.1161545,-0.316475,-0.1732775,1
63,0.0143755,0.6660999999999999,-0.186498,-0.1260565,0.470255,-0.162088,-0.2152065,0.6646099999999999,-0.295188,0.1420934999999999,0.4582499999999999,-0.175538,0.2730335,0.6678799999999999,-0.297878,-0.2414565,0.86847,-0.443828,0.3055935,0.8794599999999999,-0.4204279999999999,-0.0790535,0.0034599999999999,0.002832,0.0790535,-0.00346,-0.0028319999999999,-0.1382364999999999,-0.0286,-0.340088,0.2259835,-0.01935,-0.3186279999999999,-0.1314265,-0.34975,-0.156088,0.1165834999999999,-0.34458,-0.169448,1
64,0.015202,0.671575,-0.180317,-0.125351,0.474098,-0.156527,-0.213991,0.671795,-0.286377,0.143209,0.4617,-0.170377,0.2731389999999999,0.675315,-0.2902369999999999,-0.242281,0.8775550000000001,-0.430897,0.304579,0.890585,-0.409417,-0.078591,0.0027949999999999,0.002623,0.078591,-0.0027949999999999,-0.002623,-0.134801,-0.0559449999999999,-0.337747,0.224719,-0.0462449999999999,-0.316537,-0.1304809999999999,-0.378835,-0.153397,0.117949,-0.3714349999999999,-0.166507,1
65,0.016319,0.677915,-0.172746,-0.124581,0.4784049999999999,-0.149806,-0.2124309999999999,0.680875,-0.275766,0.144589,0.4650849999999999,-0.163826,0.273149,0.683885,-0.2808859999999999,-0.242611,0.887745,-0.4161559999999999,0.3032289999999999,0.901985,-0.3961559999999999,-0.078075,0.002415,0.0022939999999999,0.078075,-0.002415,-0.002294,-0.131231,-0.083565,-0.334456,0.223329,-0.073705,-0.313046,-0.129351,-0.407955,-0.149656,0.1197589999999999,-0.398615,-0.1628959999999999,1
66,0.017234,0.686035,-0.160984,-0.123999,0.4827549999999999,-0.139758,-0.212039,0.6863349999999999,-0.259204,0.146031,0.4706349999999999,-0.153524,0.2718609999999999,0.690355,-0.266034,-0.243699,0.897675,-0.394234,0.300741,0.910845,-0.376314,-0.0773079999999999,0.001695,0.001883,0.0773079999999999,-0.001695,-0.001883,-0.127789,-0.114935,-0.326804,0.220521,-0.105115,-0.3052439999999999,-0.128219,-0.443945,-0.142924,0.121351,-0.432695,-0.155984,1
67,0.0180535,0.693735,-0.147922,-0.1238035,0.487665,-0.12816,-0.2118235,0.6888449999999999,-0.241892,0.1474464999999999,0.477835,-0.141482,0.2706065,0.698345,-0.249062,-0.2450035,0.905845,-0.371062,0.2978965,0.919875,-0.355252,-0.0763875,0.000975,0.001402,0.0763875,-0.000975,-0.001402,-0.1246835,-0.146055,-0.316782,0.2168665,-0.1366049999999999,-0.295312,-0.1272635,-0.480255,-0.137072,0.1217764999999999,-0.468255,-0.147872,1
68,0.0187129999999999,0.70064,-0.134172,-0.123952,0.49164,-0.116315,-0.211112,0.69238,-0.223682,0.148708,0.47899,-0.129502,0.269218,0.70313,-0.231302,-0.246622,0.91451,-0.346742,0.295148,0.92852,-0.333932,-0.075392,0.00073,0.0009589999999999,0.075392,-0.0007299999999999,-0.000959,-0.122062,-0.17572,-0.304912,0.212208,-0.16612,-0.2839919999999999,-0.127222,-0.5154799999999999,-0.131212,0.121958,-0.5029899999999999,-0.139002,1
69,0.0191989999999999,0.70782,-0.1213434999999999,-0.124281,0.49672,-0.1051655,-0.211071,0.69556,-0.2065435,0.1495389999999999,0.48394,-0.1174955,0.267709,0.7077399999999999,-0.2142635,-0.247771,0.92264,-0.3259935,0.293409,0.93345,-0.3141535,-0.074586,0.0007999999999999,0.0012134999999999,0.074586,-0.0007999999999999,-0.0012134999999999,-0.120381,-0.19831,-0.2913935,0.2073789999999999,-0.18868,-0.2717535,-0.127381,-0.54425,-0.1244634999999999,0.122219,-0.53277,-0.1298435,1
70,0.0195115,0.71395,-0.108915,-0.1246845,0.50061,-0.094571,-0.2111345,0.70314,-0.189933,0.1501055,0.4866,-0.106308,0.2664455,0.71146,-0.197293,-0.2485945,0.93226,-0.306403,0.2917655,0.93818,-0.295783,-0.0736485,0.00113,0.001381,0.0736485,-0.0011299999999999,-0.001381,-0.1192645,-0.21809,-0.276953,0.2024155,-0.20865,-0.259223,-0.1276345,-0.57079,-0.117323,0.1224655,-0.56153,-0.120053,1
71,0.019426,0.71974,-0.097326,-0.125236,0.50305,-0.084735,-0.212846,0.7083900000000001,-0.174444,0.150334,0.48922,-0.095774,0.2654439999999999,0.7159,-0.182554,-0.2495659999999999,0.93445,-0.286374,0.290064,0.9407,-0.278324,-0.073208,0.00113,0.001431,0.073208,-0.0011299999999999,-0.001431,-0.118506,-0.2372599999999999,-0.262214,0.196954,-0.2299,-0.246084,-0.127526,-0.59368,-0.110104,0.122444,-0.58653,-0.109904,1
72,0.0191815,0.724915,-0.086309,-0.1255865,0.505995,-0.075452,-0.2145865,0.709955,-0.159435,0.1504735,0.4901149999999999,-0.086068,0.2644335,0.7171649999999999,-0.168575,-0.2505565,0.937625,-0.268785,0.2886135,0.942765,-0.261905,-0.0729285,0.001305,0.001401,0.0729285,-0.001305,-0.001401,-0.1182265,-0.254885,-0.247235,0.1910935,-0.248685,-0.233185,-0.1276165,-0.614315,-0.101855,0.1223134999999999,-0.6091150000000001,-0.100645,1
73,0.0185809999999999,0.7286725000000001,-0.070522,-0.126313,0.5076625,-0.061081,-0.216163,0.7103824999999999,-0.140009,0.150297,0.4899925,-0.071505,0.263077,0.7188524999999999,-0.149689,-0.251733,0.9403625,-0.245139,0.286937,0.9434225,-0.240649,-0.072794,0.0013974999999999,0.0014149999999999,0.072794,-0.0013974999999999,-0.0014149999999999,-0.118303,-0.2741375,-0.225399,0.184007,-0.2699675,-0.213769,-0.128083,-0.6368974999999999,-0.0891189999999999,0.121787,-0.6340574999999999,-0.088269,1
74,0.017342,0.7309265,-0.054673,-0.1280379999999999,0.5104165,-0.046096,-0.218538,0.7132565,-0.120863,0.149762,0.4926565,-0.056129,0.261542,0.7232665,-0.131153,-0.252608,0.9472965,-0.221603,0.284492,0.9439665,-0.220023,-0.072497,0.0009194999999999,0.0017549999999999,0.072497,-0.0009195,-0.0017549999999999,-0.117778,-0.2952035,-0.1989729999999999,0.174152,-0.2928035,-0.1894229999999999,-0.128588,-0.6610235,-0.0737269999999999,0.119582,-0.6600735,-0.074881,1
75,0.016302,0.7313434999999999,-0.0424175,-0.129636,0.5118935,-0.0337865,-0.220116,0.7195834999999999,-0.1074115,0.149514,0.4940735,-0.0438295,0.260644,0.7255834999999999,-0.1171315,-0.253176,0.9476635,-0.2049015,0.2827039999999999,0.9439235,-0.2058515,-0.0722329999999999,0.0005105,0.0021404999999999,0.0722329999999999,-0.0005104999999999,-0.0021405,-0.117266,-0.3114264999999999,-0.1763515,0.165734,-0.3106465,-0.1687815,-0.128916,-0.6775465,-0.0607655,0.117294,-0.6785865,-0.0635585,1
76,0.0152139999999999,0.73173,-0.030061,-0.13113,0.51387,-0.021588,-0.22175,0.72724,-0.0940179999999999,0.14937,0.49439,-0.032081,0.25981,0.7274200000000001,-0.104068,-0.25369,0.94901,-0.187978,0.28073,0.94457,-0.191458,-0.071996,0.00035,0.0025559999999999,0.071996,-0.0003499999999999,-0.002556,-0.11689,-0.32762,-0.153998,0.15752,-0.32776,-0.148328,-0.12929,-0.6939799999999999,-0.047573,0.11507,-0.69636,-0.052242,1
77,0.0140414999999999,0.7328185,-0.0184594999999999,-0.1328475,0.5160685,-0.0099924999999999,-0.2231975,0.7350885,-0.0816675,0.1490625,0.4959985,-0.0208614999999999,0.2588625,0.7293885,-0.0917975,-0.2542975,0.9502485,-0.1721475,0.2786825,0.9419685,-0.1776474999999999,-0.0716135,0.0001605,0.0029775,0.0716135,-0.0001605,-0.0029774999999999,-0.1169175,-0.3422215,-0.1325174999999999,0.1494224999999999,-0.3433315,-0.1283175,-0.1299875,-0.7093715,-0.0354594999999999,0.1128124999999999,-0.7128115,-0.0411585,1
78,0.0126024999999999,0.733102,-0.006752,-0.1346945,0.517082,0.0014149999999999,-0.2261745,0.741982,-0.070363,0.1487055,0.495822,-0.009739,0.2579955,0.731882,-0.080023,-0.2555545,0.950652,-0.1558729999999999,0.2766855,0.941592,-0.164603,-0.0715814999999999,0.00011,0.0031639999999999,0.0715814999999999,-0.0001099999999999,-0.003164,-0.1165045,-0.355138,-0.111693,0.1418855,-0.357248,-0.108923,-0.1304045,-0.723218,-0.022873,0.1091854999999999,-0.726728,-0.027665,1
79,0.0112279999999999,0.733676,0.0044774999999999,-0.136443,0.518086,0.0127834999999999,-0.228913,0.743056,-0.0588335,0.148457,0.496166,0.0013154999999999,0.257407,0.732556,-0.0683135,-0.2566029999999999,0.950136,-0.1404335,0.274937,0.940426,-0.1518635,-0.07146,-0.000114,0.0035945,0.07146,0.000114,-0.0035945,-0.116028,-0.368454,-0.0912735,0.134707,-0.370784,-0.0894135,-0.130903,-0.736434,-0.0105235,0.106277,-0.740044,-0.0148425,1
80,0.0097925,0.7336795,0.0152275,-0.1381835,0.5193595,0.0235405,-0.2315535,0.7456395,-0.0485714999999999,0.1482065,0.4964895,0.0116195,0.2568565,0.7334495,-0.0571814999999999,-0.2575335,0.9507995,-0.1261115,0.2733565,0.9398995,-0.1400414999999999,-0.0715635,-0.0002145,0.0041905,0.0715635,0.0002144999999999,-0.0041905,-0.1157165,-0.3801505,-0.0723115,0.1282964999999999,-0.3838305,-0.0705714999999999,-0.1314435,-0.7482505,0.0010625,0.1037965,-0.7519905,-0.0029034999999999,1
81,0.0084335,0.7336265,0.0252899999999999,-0.1398455,0.5204664999999999,0.0339459999999999,-0.2337854999999999,0.7482165,-0.038575,0.1480945,0.4968965,0.0214979999999999,0.2564444999999999,0.7346364999999999,-0.046895,-0.2578655,0.9518865,-0.112855,0.2720745,0.9379165,-0.129015,-0.0717355,-0.0002055,0.0047659999999999,0.0717355,0.0002055,-0.004766,-0.1155904999999999,-0.3908535,-0.054215,0.1221445,-0.3972735,-0.051435,-0.1318855,-0.7594435,0.0116289999999999,0.1015345,-0.7642135000000001,0.0082639999999999,1
82,0.007518,0.733761,0.0297979999999999,-0.141132,0.522281,0.0387719999999999,-0.234572,0.752401,-0.033403,0.1482979999999999,0.499131,0.0262579999999999,0.256438,0.735791,-0.0421529999999999,-0.257812,0.954511,-0.106523,0.271298,0.936731,-0.123833,-0.07201,-0.000253,0.0052409999999999,0.07201,0.0002529999999999,-0.005241,-0.115479,-0.3990889999999999,-0.042993,0.117198,-0.4079589999999999,-0.038863,-0.132292,-0.7676090000000001,0.0169159999999999,0.099818,-0.773549,0.0134059999999999,1
83,0.007089,0.73459,0.0336109999999999,-0.141601,0.52213,0.042246,-0.234891,0.75178,-0.028951,0.148279,0.4982499999999999,0.0294889999999999,0.256599,0.73466,-0.038191,-0.257551,0.95267,-0.101171,0.270989,0.93614,-0.119631,-0.07214,0.000161,0.0053649999999999,0.07214,-0.0001609999999999,-0.005365,-0.115871,-0.40426,-0.036951,0.115069,-0.41328,-0.031601,-0.132471,-0.77251,0.0187409999999999,0.099419,-0.77902,0.014837,1
84,0.0068185,0.7345125,0.037493,-0.1418615,0.5219925,0.045972,-0.2350615,0.7509125,-0.0250969999999999,0.1483885,0.4974525,0.033002,0.2569685,0.7332525,-0.0345069999999999,-0.2570814999999999,0.9511425,-0.096047,0.2708285,0.9347825,-0.1160369999999999,-0.0721435,0.0006034999999999,0.00544,0.0721435,-0.0006034999999999,-0.00544,-0.1161645,-0.4088475,-0.030347,0.1130385,-0.4182375,-0.023687,-0.1325515,-0.7770075000000001,0.020505,0.0991185,-0.7841075000000001,0.01679,1
85,0.0067625,0.7337935,0.0408679999999999,-0.1418865,0.5210035,0.0491679999999999,-0.2350665,0.7496135,-0.022141,0.1485635,0.4970235,0.0366229999999999,0.2575835,0.7320935,-0.031051,-0.2563365,0.9499435,-0.091971,0.2707735,0.9331535,-0.113331,-0.0722685,0.0008304999999999,0.0054339999999999,0.0722685,-0.0008304999999999,-0.005434,-0.1163025,-0.4120465,-0.024401,0.1112635,-0.4218465,-0.016241,-0.1324665,-0.7802065,0.0214739999999999,0.0989135,-0.7873065,0.0183979999999999,1
86,0.006703,0.7327400000000001,0.04425,-0.141846,0.51992,0.052526,-0.2351359999999999,0.74816,-0.018497,0.148674,0.49681,0.040554,0.258064,0.73102,-0.027697,-0.255656,0.9488,-0.088347,0.270754,0.93147,-0.1108069999999999,-0.072359,0.001001,0.00543,0.072359,-0.001001,-0.00543,-0.1171649999999999,-0.41379,-0.0185869999999999,0.109534,-0.42498,-0.0089629999999999,-0.132916,-0.78303,0.0224889999999999,0.098734,-0.79013,0.019858,1
87,0.0067444999999999,0.73174,0.0477224999999999,-0.1417305,0.5189199999999999,0.0558955,-0.2349905,0.74718,-0.0151784999999999,0.1488394999999999,0.4958,0.0442544999999999,0.2585594999999999,0.73021,-0.0242585,-0.2548705,0.94785,-0.0853985,0.2709695,0.93019,-0.1085385,-0.0724635,0.0011949999999999,0.0054255,0.0724635,-0.001195,-0.0054255,-0.1181805,-0.41459,-0.0127445,0.1078794999999999,-0.42748,-0.0014455,-0.1333405,-0.78454,0.0251295,0.0986095,-0.79212,0.0213084999999999,1
88,0.007104,0.73061,0.0509209999999999,-0.141379,0.51802,0.0586309999999999,-0.234399,0.74641,-0.012506,0.149351,0.4948599999999999,0.0476389999999999,0.2592109999999999,0.72952,-0.021239,-0.253549,0.94711,-0.082859,0.271561,0.92932,-0.106559,-0.072462,0.0014739999999999,0.005428,0.072462,-0.001474,-0.005428,-0.119279,-0.41425,-0.007352,0.106541,-0.42947,0.0059439999999999,-0.1334489999999999,-0.78547,0.0273859999999999,0.098831,-0.7936,0.0220849999999999,1
89,0.007531,0.7294785,0.0536745,-0.140962,0.5173085000000001,0.0605885,-0.233732,0.7460385,-0.0102654999999999,0.149878,0.4940984999999999,0.0505675,0.259758,0.7289385,-0.0185534999999999,-0.251992,0.9468785,-0.0808835,0.272068,0.9286185,-0.1047934999999999,-0.072464,0.0017665,0.0054155,0.072464,-0.0017664999999999,-0.0054154999999999,-0.120292,-0.4134915,-0.0024794999999999,0.105488,-0.4309915,0.0124205,-0.1334219999999999,-0.7859514999999999,0.0291755,0.099088,-0.7946015,0.0223205,1
90,0.0081355,0.7287455,0.055823,-0.1404284999999999,0.5167055,0.061553,-0.2329585,0.7461055000000001,-0.0087769999999999,0.1504315,0.4934055,0.052948,0.2602915,0.7285355,-0.0163419999999999,-0.2502785,0.9468455,-0.079646,0.2726415,0.9282355,-0.103466,-0.0724895,0.0019815,0.005403,0.0724895,-0.0019814999999999,-0.0054029999999999,-0.1211185,-0.4122645,0.001155,0.1050815,-0.4318745,0.01698,-0.1331284999999999,-0.7859745,0.030601,0.0994715,-0.7950044999999999,0.022197,1
91,0.008769,0.728107,0.0577814999999999,-0.139943,0.5161669999999999,0.0624804999999999,-0.232153,0.746177,-0.0076935,0.150967,0.492807,0.0550064999999999,0.260827,0.728367,-0.0144775,-0.248443,0.947007,-0.0788785,0.273217,0.927977,-0.1023285,-0.072518,0.0022129999999999,0.0052354999999999,0.072518,-0.0022129999999999,-0.0052355,-0.121833,-0.410803,0.0038524999999999,0.104847,-0.432563,0.0208074999999999,-0.132703,-0.785883,0.0312014999999999,0.099857,-0.795203,0.0215314999999999,1
92,0.0094819999999999,0.727525,0.0592384999999999,-0.13946,0.5157349999999999,0.0632954999999999,-0.23132,0.7463449999999999,-0.0070615,0.15156,0.4923849999999999,0.0566094999999999,0.26143,0.728395,-0.0129775,-0.24651,0.947475,-0.0784155,0.2738299999999999,0.927925,-0.1012555,-0.072551,0.002412,0.0049474999999999,0.072551,-0.0024119999999999,-0.0049475,-0.12236,-0.409695,0.0059734999999999,0.10482,-0.433125,0.0236144999999999,-0.1322,-0.785505,0.0315444999999999,0.10028,-0.795115,0.0207234999999999,1
93,0.010167,0.726841,0.060235,-0.138888,0.515001,0.063674,-0.230518,0.746181,-0.006669,0.152072,0.4920909999999999,0.0576639999999999,0.2618419999999999,0.728641,-0.011799,-0.2447379999999999,0.948071,-0.0781,0.274152,0.928161,-0.09985,-0.07259,0.0025299999999999,0.004707,0.07259,-0.0025299999999999,-0.004707,-0.1227679999999999,-0.408939,0.007258,0.104732,-0.433329,0.025326,-0.131848,-0.7848890000000001,0.031195,0.100742,-0.794649,0.0190349999999999,1
94,0.0107119999999999,0.7260964999999999,0.061022,-0.138374,0.5142465,0.064004,-0.229864,0.7460465000000001,-0.00615,0.152436,0.4916965,0.058406,0.2619459999999999,0.7288265,-0.0104189999999999,-0.243264,0.9486665,-0.0776989999999999,0.274176,0.9283465,-0.098229,-0.072664,0.0026414999999999,0.004457,0.072664,-0.0026415,-0.004457,-0.123094,-0.4082135,0.008162,0.104756,-0.4335335,0.026624,-0.131504,-0.7843135000000001,0.030444,0.101226,-0.7943035,0.0172929999999999,1
95,0.0111519999999999,0.725357,0.0616599999999999,-0.137984,0.513427,0.064368,-0.229294,0.745917,-0.005604,0.152556,0.491257,0.0589179999999999,0.261766,0.728927,-0.008922,-0.241974,0.949347,-0.077067,0.273956,0.928627,-0.096217,-0.072761,0.0027449999999999,0.0043099999999999,0.072761,-0.002745,-0.00431,-0.123404,-0.407663,0.0089979999999999,0.104766,-0.433933,0.0278019999999999,-0.131204,-0.783953,0.0295119999999999,0.101646,-0.793943,0.0154889999999999,1
96,0.011413,0.7248000000000001,0.0621045,-0.1377449999999999,0.51275,0.0645795,-0.228985,0.7458100000000001,-0.0046404999999999,0.152465,0.4908999999999999,0.0593415,0.261265,0.7292400000000001,-0.0076065,-0.241055,0.94984,-0.0761765,0.273425,0.92894,-0.0939665,-0.072863,0.002875,0.0041835,0.072863,-0.002875,-0.0041834999999999,-0.123655,-0.40725,0.0091345,0.104735,-0.43436,0.0283335,-0.131075,-0.7839700000000001,0.0271765,0.101875,-0.7935700000000001,0.0136305,1
97,0.0115185,0.7244715,0.0622285,-0.1376415,0.5124715000000001,0.0647975,-0.2289014999999999,0.7457315,-0.0038864999999999,0.1521585,0.4907314999999999,0.0596785,0.2604685,0.7289015000000001,-0.0065454999999999,-0.2406414999999999,0.9502715,-0.0755555,0.2726385,0.9294915,-0.0918255,-0.0729725,0.0029484999999999,0.0041385,0.0729725,-0.0029484999999999,-0.0041384999999999,-0.1237514999999999,-0.4069585,0.0087425,0.1047984999999999,-0.4348585,0.0279785,-0.1309515,-0.7839085,0.0256235,0.1019684999999999,-0.7932984999999999,0.0119595,1
98,0.0116035,0.724194,0.062179,-0.1376075,0.5121640000000001,0.065419,-0.2288475,0.745674,-0.0033109999999999,0.1517625,0.4905639999999999,0.060148,0.2596524999999999,0.7291639999999999,-0.0056959999999999,-0.2404774999999999,0.950604,-0.074962,0.2718525,0.930204,-0.089782,-0.0730505,0.0029759999999999,0.004057,0.0730505,-0.002976,-0.0040569999999999,-0.1237875,-0.406426,0.008299,0.1048425,-0.435306,0.027507,-0.1310975,-0.783766,0.024322,0.1020925,-0.793066,0.010439,1
99,0.0116195,0.7239225,0.0619105,-0.1377604999999999,0.5118425,0.0660355,-0.2288605,0.7456325,-0.0028905,0.1513795,0.4902825,0.0603794999999999,0.2587695,0.7295225,-0.0049804999999999,-0.2404605,0.9507425,-0.0745595,0.2710895,0.9309425,-0.0878995,-0.0730494999999999,0.0030005,0.0039324999999999,0.0730494999999999,-0.0030004999999999,-0.0039325,-0.1238904999999999,-0.4059175,0.0077505,0.1048495,-0.4357275,0.0268785,-0.1311505,-0.7836875,0.0225114999999999,0.1021595,-0.7929475,0.0087264999999999,1
100,0.0117495,0.7236865,0.0613335,-0.1378175,0.5115965,0.0662895,-0.2288175,0.7455265,-0.0026704999999999,0.1512225,0.4901765,0.0605775,0.2582725,0.7294164999999999,-0.0034995,-0.2404475,0.9506365,-0.0740655,0.2709025,0.9311365,-0.0861754999999999,-0.0730455,0.0030275,0.0038285,0.0730455,-0.0030275,-0.0038284999999999,-0.1239775,-0.4054235,0.0072115,0.1048825,-0.4360934999999999,0.0262205,-0.1312175,-0.7836935,0.0205775,0.1022325,-0.7929035,0.0070805,1
101,0.0118585,0.723533,0.0600954999999999,-0.1378345,0.511533,0.0660205,-0.2288245,0.745333,-0.0031134999999999,0.1511955,0.4902229999999999,0.0604785,0.2581755,0.729393,-0.0020685,-0.2402745,0.950613,-0.0748585,0.2708255,0.931293,-0.0850885,-0.0730745,0.0030509999999999,0.0037494999999999,0.0730745,-0.003051,-0.0037494999999999,-0.1240545,-0.404947,0.0066914999999999,0.1049055,-0.436307,0.0251954999999999,-0.1314545,-0.783717,0.0188515,0.1022355,-0.7929269999999999,0.0055954999999999,1
102,0.011885,0.723383,0.0589815,-0.137897,0.511493,0.0655415,-0.228927,0.744913,-0.0035484999999999,0.151123,0.4903929999999999,0.0602315,0.2580329999999999,0.728993,-0.0007484999999999,-0.240097,0.950613,-0.0759755,0.270713,0.931293,-0.0844454999999999,-0.073143,0.0030509999999999,0.0034404999999999,0.073143,-0.003051,-0.0034404999999999,-0.124117,-0.404697,0.0062284999999999,0.1049129999999999,-0.436577,0.0240804999999999,-0.131657,-0.783717,0.0172625,0.102233,-0.7929269999999999,0.0045105,1
103,0.011777,0.723252,0.0580865,-0.138031,0.511352,0.0648385,-0.229151,0.744352,-0.0043074999999999,0.150979,0.4904019999999999,0.0599335,0.257819,0.7276020000000001,0.0004345,-0.240071,0.950622,-0.0768605,0.270489,0.931302,-0.0832604999999999,-0.073223,0.00306,0.0031315,0.073223,-0.00306,-0.0031314999999999,-0.124281,-0.405218,0.0058075,0.104869,-0.436858,0.0231895,-0.132041,-0.783948,0.0157965,0.101989,-0.7929179999999999,0.0036105,1
104,0.0118899999999999,0.7231395,0.0575375,-0.1384099999999999,0.5112695,0.0642675,-0.22977,0.7416195,-0.0048895,0.15122,0.4904495,0.0594014999999999,0.25937,0.7247795,0.0017374999999999,-0.24046,0.9497695,-0.0774265,0.271,0.9313495,-0.0821964999999999,-0.073255,0.0030794999999999,0.0028585,0.073255,-0.0030794999999999,-0.0028585,-0.12478,-0.4059604999999999,0.0053145,0.1047299999999999,-0.4372005,0.0226284999999999,-0.13287,-0.7842905,0.0146864999999999,0.10142,-0.7929904999999999,0.0028884999999999,1
105,0.012072,0.723126,0.0569995,-0.1391389999999999,0.511216,0.0642305,-0.231319,0.737106,-0.0049625,0.151461,0.4907259999999999,0.0594065,0.262271,0.720816,0.0030924999999999,-0.241219,0.948246,-0.0780635,0.2719709999999999,0.931336,-0.0816235,-0.073283,0.0030899999999999,0.0028525,0.073283,-0.00309,-0.0028525,-0.125699,-0.406214,0.0052685,0.104361,-0.437284,0.0225835,-0.134009,-0.7846639999999999,0.0141164999999999,0.100491,-0.7929339999999999,0.0024524999999999,1
106,0.0128145,0.7232230000000001,0.055922,-0.1399285,0.5110830000000001,0.064195,-0.2337585,0.731723,-0.005071,0.1522015,0.491353,0.05944,0.2670115,0.715813,0.004359,-0.2416985,0.945493,-0.080155,0.2761515,0.925413,-0.0814449999999999,-0.0732685,0.003131,0.002853,0.0732685,-0.003131,-0.002853,-0.1270485,-0.405777,0.0052079999999999,0.1038515,-0.437427,0.021896,-0.1353685,-0.784847,0.0135349999999999,0.0991515,-0.792657,0.001682,1
107,0.0136789999999999,0.723321,0.0543004999999999,-0.141036,0.511081,0.0637264999999999,-0.237976,0.7250909999999999,-0.0067834999999999,0.153414,0.492241,0.0594935,0.273904,0.7089409999999999,0.0050855,-0.2422659999999999,0.938941,-0.0844615,0.280324,0.918201,-0.0812514999999999,-0.073267,0.003191,0.0028534999999999,0.073267,-0.0031909999999999,-0.0028535,-0.128846,-0.404399,0.0051284999999999,0.1030639999999999,-0.4374289999999999,0.0205865,-0.137276,-0.785219,0.0126184999999999,0.097274,-0.792069,0.0008624999999999,0
108,0.014884,0.723862,0.0513569999999999,-0.141454,0.510102,0.0616069999999999,-0.244254,0.714812,-0.012143,0.155746,0.493882,0.05968,0.283656,0.697862,0.0059249999999999,-0.242614,0.926662,-0.091555,0.286046,0.905992,-0.080595,-0.073136,0.003201,0.0024529999999999,0.073136,-0.003201,-0.002453,-0.131644,-0.403268,0.0049139999999999,0.101736,-0.436888,0.0183089999999999,-0.140844,-0.7849079999999999,0.0120139999999999,0.0939059999999999,-0.790698,0.0003239999999999,0
109,0.0166195,0.7251755,0.047877,-0.1414065,0.5079655,0.058683,-0.2496965,0.6968255,-0.0184439999999999,0.1584735,0.4958155,0.060196,0.2958134999999999,0.6821955,0.0083319999999999,-0.2440265,0.9055255,-0.100754,0.2933035,0.8878455,-0.0801439999999999,-0.0729935,0.0033154999999999,0.0020459999999999,0.0729935,-0.0033154999999999,-0.0020459999999999,-0.1345365,-0.4023545,0.003737,0.0995235,-0.4350245,0.015799,-0.1463565,-0.7842245,0.012021,0.0885435,-0.7880645000000001,0.00082,0
110,0.0184965,0.727456,0.0439655,-0.1422815,0.506146,0.0556145,-0.2578315,0.670656,-0.0225425,0.1610385,0.497626,0.0611084999999999,0.3095285,0.6606759999999999,0.0120515,-0.2449715,0.874386,-0.1127975,0.3002985,0.862576,-0.0806775,-0.0726385,0.003289,0.0015434999999999,0.0726385,-0.003289,-0.0015435,-0.1358115,-0.4007739999999999,-0.0016644999999999,0.0964285,-0.4329539999999999,0.0135974999999999,-0.1537015,-0.781224,0.0113964999999999,0.0806985,-0.7840440000000001,0.0022804999999999,0
111,0.020046,0.7302625,0.0399965,-0.142383,0.5034725,0.0519045,-0.267354,0.6399524999999999,-0.0256055,0.162956,0.4995825,0.0623735,0.323526,0.6360224999999999,0.0167845,-0.246904,0.8372625,-0.1270035,0.307796,0.8327825,-0.0818235,-0.072306,0.0032785,0.0011334999999999,0.072306,-0.0032784999999999,-0.0011334999999999,-0.137084,-0.3993875,-0.0078244999999999,0.0927059999999999,-0.4314375,0.0120904999999999,-0.161764,-0.7780175,0.0099174999999999,0.071486,-0.7798274999999999,0.0033314999999999,0
112,0.0223125,0.7333985000000001,0.035361,-0.1430195,0.5012285,0.0485079999999999,-0.2777425,0.6001585,-0.0248639999999999,0.1644375,0.5007185000000001,0.063891,0.3374475,0.6039685,0.0213389999999999,-0.2492424999999999,0.7847185,-0.143172,0.3158575,0.7928985000000001,-0.084942,-0.0718974999999999,0.0033574999999999,0.0003589999999999,0.0718975,-0.0033575,-0.0003589999999999,-0.1342364999999999,-0.3959815,-0.018139,0.0841275,-0.4283915,0.0118589999999999,-0.1635625,-0.7719815,0.002389,0.0604275,-0.7749415,0.0043699999999999,0
113,0.0238499999999999,0.736256,0.031159,-0.142982,0.4980459999999999,0.0442819999999999,-0.286037,0.558666,-0.021752,0.164783,0.501136,0.065895,0.343593,0.571046,0.0268759999999999,-0.253047,0.724376,-0.158378,0.3222629999999999,0.748386,-0.089588,-0.0717329999999999,0.0032739999999999,-0.0003289999999999,0.071733,-0.0032739999999999,0.0003289999999999,-0.129656,-0.392224,-0.031398,0.077043,-0.421694,0.012891,-0.1614209999999999,-0.765284,-0.008702,0.048293,-0.7682439999999999,0.0059719999999999,0
114,0.025918,0.7389505,0.026673,-0.142704,0.4945505,0.040274,-0.291812,0.5164304999999999,-0.019719,0.165028,0.5010104999999999,0.068109,0.346698,0.5366405,0.032746,-0.256182,0.6570805,-0.171309,0.328298,0.6982105,-0.0951989999999999,-0.0715379999999999,0.0032925,-0.0010209999999999,0.071538,-0.0032924999999999,0.0010209999999999,-0.1196859999999999,-0.3865395,-0.044309,0.069418,-0.4151395,0.013465,-0.15426,-0.7587295000000001,-0.023179,0.035918,-0.7616895,0.0068489999999999,0
115,0.0274594999999999,0.741367,0.0222794999999999,-0.1424834999999999,0.490637,0.0360785,-0.2933905,0.472047,-0.0190535,0.1643095,0.5000969999999999,0.0704945,0.3459795,0.497837,0.0390875,-0.2592505,0.585637,-0.1714935,0.3305895,0.6497069999999999,-0.1018734999999999,-0.0715095,0.0033089999999999,-0.0015944999999999,0.0715095,-0.003309,0.0015944999999999,-0.1086045,-0.380943,-0.0644334999999999,0.0622195,-0.409543,0.0126965,-0.1427065,-0.753133,-0.0408935,0.0243194999999999,-0.756093,0.0137955,0
116,0.0288959999999999,0.7435735,0.0175044999999999,-0.141897,0.4866335,0.0313974999999999,-0.294394,0.4281535,-0.0165865,0.162796,0.4983235,0.0727024999999999,0.3431659999999999,0.4602635,0.0456924999999999,-0.263344,0.5089135,-0.1672965,0.332196,0.5953835,-0.1090165,-0.071466,0.0032604999999999,-0.0025065,0.071466,-0.0032604999999999,0.0025064999999999,-0.096277,-0.3755465,-0.0880265,0.0629759999999999,-0.4006665,0.0082334999999999,-0.127008,-0.7438965,-0.0647065,0.0124859999999999,-0.7490065,0.0212534999999999,0
117,0.0308154999999999,0.744799,0.0120289999999999,-0.1425995,0.482649,0.027434,-0.2884645,0.385649,-0.010845,0.1602755,0.494519,0.0728419999999999,0.3353655,0.422669,0.051521,-0.2668545,0.424759,-0.1573449999999999,0.3304955,0.535779,-0.114165,-0.0716855,0.003263,-0.0033849999999999,0.0716854999999999,-0.003263,0.0033849999999999,-0.0839725,-0.370971,-0.1105049999999999,0.0641154999999999,-0.392831,0.0048349999999999,-0.1039855,-0.7280810000000001,-0.096455,0.0003555,-0.7422110000000001,0.0297739999999999,0
118,0.0320045,0.7452745000000001,0.0069649999999999,-0.1426105,0.4794845,0.0226149999999999,-0.2783155,0.3485145,-0.0021049999999999,0.1567545,0.4901445,0.073517,0.3254845,0.3889645,0.0597199999999999,-0.2659255,0.3467045,-0.143665,0.3255845,0.4770645,-0.118695,-0.0720445,0.0031775,-0.004005,0.0720445,-0.0031775,0.0040049999999999,-0.0707525,-0.3679354999999999,-0.131115,0.0657845,-0.3847355,0.0041849999999999,-0.0727775,-0.7162255,-0.132015,-0.0110754999999999,-0.7332855,0.038981,0
119,0.0331434999999999,0.7445465,0.002205,-0.1420065,0.4754265,0.018055,-0.2646665,0.3187665,0.008085,0.1538435,0.4849365,0.072954,0.3170035,0.3581265,0.066784,-0.2623365,0.2764565,-0.132675,0.3205335,0.4236165,-0.1213349999999999,-0.0723435,0.0035555,-0.005025,0.0723435,-0.0035555,0.005025,-0.0580065,-0.3663335,-0.148415,0.0594035,-0.3821735,0.007615,-0.0383365,-0.7033935,-0.167775,-0.0252664999999999,-0.7289435000000001,0.051156,0
120,0.0349549999999999,0.7439265,-0.00364,-0.142025,0.4726665,0.0130199999999999,-0.248951,0.2918365,0.0174499999999999,0.1514049999999999,0.4797365,0.0712259999999999,0.308115,0.3314665,0.0744339999999999,-0.257651,0.2098465,-0.12486,0.3158649999999999,0.3705164999999999,-0.12306,-0.072875,0.0038655,-0.00587,0.072875,-0.0038655,0.0058699999999999,-0.046145,-0.3644435,-0.16451,0.0539949999999999,-0.3799735,0.0069499999999999,-0.003655,-0.6918635,-0.20292,-0.038265,-0.7256735,0.0617499999999999,0
121,0.035595,0.7439265,-0.0075399999999999,-0.1432689999999999,0.4718865,0.0085899999999999,-0.2367179999999999,0.2772664999999999,0.02907,0.148395,0.4773465,0.06993,0.297205,0.3143665,0.080712,-0.253057,0.1620365,-0.11671,0.307795,0.3281365,-0.1231299999999999,-0.073145,0.0038655,-0.0068999999999999,0.0731449999999999,-0.0038655,0.0068999999999999,-0.0379249999999999,-0.3600335,-0.17654,0.0531949999999999,-0.3746035,0.01092,0.026405,-0.6789135,-0.2285799999999999,-0.0501349999999999,-0.7193835,0.076261,0
122,0.036865,0.7439265,-0.0110599999999999,-0.1435429999999999,0.4718865,0.00399,-0.227174,0.2732665,0.04166,0.145785,0.4773465,0.06839,0.283535,0.3010465,0.08794,-0.249077,0.1322265,-0.1031199999999999,0.300225,0.2909065,-0.1200199999999999,-0.073155,0.0038655,-0.0076199999999999,0.073155,-0.0038655,0.00762,-0.0320649999999999,-0.3536835,-0.1838099999999999,0.050825,-0.3676635,0.01964,0.049725,-0.6636335,-0.24635,-0.0630049999999999,-0.7129535,0.09478,0
123,0.03718,0.743773,-0.0138349999999999,-0.145586,0.471733,0.000345,-0.2204179999999999,0.272813,0.052725,0.14268,0.477193,0.067245,0.26444,0.288463,0.094915,-0.247528,0.1115729999999999,-0.0871349999999999,0.29098,0.257123,-0.1153249999999999,-0.07313,0.004019,-0.008245,0.07313,-0.004019,0.008245,-0.0318499999999999,-0.348137,-0.1910849999999999,0.04854,-0.359417,0.027995,0.06592,-0.651367,-0.257565,-0.07565,-0.7035370000000001,0.110145,0
124,0.038385,0.743129,-0.01601,-0.147605,0.470039,-0.00307,-0.219236,0.271119,0.0586999999999999,0.140485,0.475499,0.0661699999999999,0.244175,0.280349,0.0992099999999999,-0.2505679999999999,0.09613,-0.06378,0.282115,0.2281689999999999,-0.10718,-0.0728649999999999,0.004593,-0.00895,0.072865,-0.004593,0.0089499999999999,-0.0328549999999999,-0.344421,-0.18946,0.043675,-0.353161,0.0132799999999999,0.072725,-0.640241,-0.2576800000000001,-0.0856249999999999,-0.690561,0.1243399999999999,0
125,0.0419049999999999,0.742948,-0.017955,-0.148435,0.469518,-0.0052249999999999,-0.217891,0.267768,0.060115,0.1397049999999999,0.472248,0.065145,0.2275449999999999,0.271758,0.100815,-0.252044,0.087878,-0.0508649999999999,0.2766549999999999,0.204648,-0.101605,-0.072455,0.00472,-0.0104049999999999,0.0724549999999999,-0.00472,0.0104049999999999,-0.035755,-0.343192,-0.1798449999999999,0.0445949999999999,-0.351192,0.007555,0.0724149999999999,-0.635062,-0.2450649999999999,-0.086965,-0.679892,0.142825,0
126,0.0455699999999999,0.7428945,-0.0186899999999999,-0.1486,0.4698644999999999,-0.0067899999999999,-0.22146,0.2643445,0.05717,0.1393199999999999,0.4692345,0.06486,0.2192699999999999,0.2677245,0.09667,-0.254047,0.0844545,-0.0430299999999999,0.2761599999999999,0.1916445,-0.10429,-0.07197,0.0048455,-0.0115799999999999,0.0719699999999999,-0.0048454999999999,0.01158,-0.03829,-0.3437855,-0.17159,0.0492099999999999,-0.3495055,-0.0013499999999999,0.0655999999999999,-0.6335255000000001,-0.2239399999999999,-0.07486,-0.6699255000000001,0.13437,0
127,0.0513199999999999,0.7426425,-0.0197249999999999,-0.14853,0.4711625,-0.0073649999999999,-0.22739,0.2658125,0.051855,0.14038,0.4664525,0.062125,0.2094899999999999,0.2641425,0.091485,-0.259587,0.0808725,-0.0341949999999999,0.27971,0.1838625,-0.1091049999999999,-0.0713599999999999,0.0052044999999999,-0.0129149999999999,0.0713599999999999,-0.0052045,0.012915,-0.0439399999999999,-0.3446175,-0.1608649999999999,0.05701,-0.3479975,-0.0109049999999999,0.05029,-0.6344075,-0.1958949999999999,-0.05558,-0.6719175,0.124915,0
128,0.057275,0.741905,-0.020365,-0.1480449999999999,0.472695,-0.007695,-0.2325449999999999,0.266775,0.0458849999999999,0.140545,0.463755,0.0610049999999999,0.206405,0.260615,0.0853849999999999,-0.268053,0.077345,-0.0290549999999999,0.2832950000000001,0.1748849999999999,-0.1141849999999999,-0.0710249999999999,0.0056969999999999,-0.013605,0.071025,-0.005697,0.0136049999999999,-0.0509149999999999,-0.345415,-0.1486549999999999,0.061315,-0.349225,-0.025235,0.033015,-0.636255,-0.165985,-0.0351149999999999,-0.674615,0.1059249999999999,0
129,0.063725,0.7413535,-0.0195699999999999,-0.1472149999999999,0.4750435,-0.00656,-0.2380049999999999,0.2710135,0.0418999999999999,0.141755,0.4617635,0.0597699999999999,0.205045,0.2562035,0.07903,-0.276595,0.0821445,-0.0277499999999999,0.285195,0.1710735,-0.1182299999999999,-0.0705949999999999,0.0061485,-0.0142299999999999,0.070595,-0.0061485,0.01423,-0.0575749999999999,-0.3464465,-0.1355299999999999,0.069535,-0.3494365,-0.0389599999999999,0.015725,-0.6398465,-0.13417,-0.0068949999999999,-0.6784264999999999,0.08433,0
130,0.0712299999999999,0.7407235,-0.0199049999999999,-0.14394,0.4782935,-0.0059349999999999,-0.2417,0.2784435,0.037525,0.1441599999999999,0.4595235,0.058225,0.20521,0.2526035,0.073625,-0.28312,0.0893235,-0.0406649999999999,0.2894099999999999,0.1675235,-0.1202149999999999,-0.07052,0.0066615,-0.0142549999999999,0.0705199999999999,-0.0066614999999999,0.014255,-0.06413,-0.3484965,-0.1205649999999999,0.0803099999999999,-0.3500065,-0.0562149999999999,-0.00424,-0.6452665000000001,-0.1043149999999999,0.0264499999999999,-0.6840665,0.055745,0
131,0.08104,0.7397955,-0.0207199999999999,-0.1414699999999999,0.4819555,-0.0024399999999999,-0.24347,0.2861755,0.0363399999999999,0.1476699999999999,0.4581955,0.05667,0.21091,0.2518955,0.0643099999999999,-0.28789,0.0976055,-0.0523099999999999,0.29524,0.1640855,-0.11931,-0.07062,0.0069415,-0.0142999999999999,0.07062,-0.0069415,0.0142999999999999,-0.07123,-0.3498544999999999,-0.1053199999999999,0.09186,-0.3502045,-0.07676,-0.02333,-0.6502745,-0.0749499999999999,0.05992,-0.6900744999999999,0.02755,0
132,0.092355,0.7373240000000001,-0.0228999999999999,-0.1355549999999999,0.4857339999999999,-0.0008599999999999,-0.242975,0.294124,0.03628,0.1534249999999999,0.456714,0.05296,0.2196149999999999,0.250034,0.05309,-0.289895,0.106024,-0.0574799999999999,0.301275,0.159074,-0.1182299999999999,-0.070745,0.007105,-0.0141499999999999,0.070745,-0.007105,0.0141499999999999,-0.0789949999999999,-0.352106,-0.0902099999999999,0.1028849999999999,-0.350066,-0.09514,-0.041725,-0.654866,-0.0465399999999999,0.092385,-0.695836,-0.0016599999999999,0
133,0.1031349999999999,0.7364695,-0.025865,-0.128995,0.4894795,0.000565,-0.240075,0.3003795,0.037775,0.159165,0.4558595,0.048525,0.2299749999999999,0.2491795,0.0425849999999999,-0.288755,0.1125795,-0.0552449999999999,0.3067949999999999,0.1563195,-0.1191149999999999,-0.070935,0.0071815,-0.013985,0.0709349999999999,-0.0071815,0.013985,-0.086805,-0.3529005,-0.0764949999999999,0.1157349999999999,-0.3492105,-0.088395,-0.055545,-0.6557205,-0.025545,0.119695,-0.7019005,-0.0208749999999999,0
134,0.11219,0.7364695,-0.0291449999999999,-0.12428,0.4913895,0.001865,-0.23673,0.3004495,0.041695,0.16335,0.4558595,0.044775,0.23858,0.2491795,0.0344849999999999,-0.28768,0.1125795,-0.0418349999999999,0.3094099999999999,0.1560495,-0.1211449999999999,-0.07131,0.0071815,-0.0126749999999999,0.0713099999999999,-0.0071815,0.0126749999999999,-0.0940699999999999,-0.3533305,-0.0671549999999999,0.1204199999999999,-0.3480904999999999,-0.086395,-0.06794,-0.6557205,-0.0098949999999999,0.1380399999999999,-0.7019005,-0.0448449999999999,0
135,0.1221999999999999,0.7364695,-0.034785,-0.11605,0.4929794999999999,0.0008049999999999,-0.23101,0.3004995,0.0470049999999999,0.16952,0.4558595,0.0388749999999999,0.2445299999999999,0.2491795,0.031625,-0.28448,0.1125795,-0.026065,0.3114,0.1528995,-0.122885,-0.07155,0.0071815,-0.011425,0.07155,-0.0071815,0.0114249999999999,-0.10134,-0.3535005,-0.056875,0.12046,-0.3479305,-0.083355,-0.08095,-0.6557205,0.0056549999999999,0.1422299999999999,-0.7019005,-0.041585,0
136,0.130055,0.7343295,-0.0393999999999999,-0.1096349999999999,0.4938995,0.0008299999999999,-0.2245149999999999,0.3005195,0.05353,0.1746850000000001,0.4547495,0.035,0.251955,0.2484695,0.02634,-0.2814149999999999,0.1125795,-0.01383,0.312065,0.1498195,-0.1212299999999999,-0.0717749999999999,0.0071815,-0.0102499999999999,0.071775,-0.0071815,0.0102499999999999,-0.1067149999999999,-0.3544405,-0.0496699999999999,0.115775,-0.3479305,-0.0777299999999999,-0.0914749999999999,-0.6556405000000001,0.01773,0.137765,-0.7161505,-0.0335299999999999,0
137,0.13765,0.7310015000000001,-0.04503,-0.1041699999999999,0.4956215,0.00106,-0.21777,0.3014314999999999,0.06086,0.17945,0.4525814999999999,0.03078,0.25739,0.2468415,0.02368,-0.27746,0.1113115,-0.0020399999999999,0.3117,0.1437015,-0.1197099999999999,-0.0720299999999999,0.0077524999999999,-0.0089899999999999,0.07203,-0.0077524999999999,0.00899,-0.1120399999999999,-0.3547185,-0.0421899999999999,0.1109999999999999,-0.3471285,-0.0718099999999999,-0.10104,-0.6569284999999999,0.02872,0.1289799999999999,-0.7295285,-0.0225099999999999,0
138,0.14407,0.727589,-0.0510549999999999,-0.09842,0.497269,0.0003849999999999,-0.21093,0.301559,0.067265,0.1845799999999999,0.450489,0.0265349999999999,0.2621,0.246789,0.021255,-0.2731,0.1082489999999999,0.0081849999999999,0.31067,0.139539,-0.118865,-0.07206,0.008303,-0.008005,0.07206,-0.008303,0.008005,-0.11987,-0.353981,-0.0364649999999999,0.10568,-0.3464009999999999,-0.0658149999999999,-0.10909,-0.656531,0.0381249999999999,0.11809,-0.740661,-0.011985,0
139,0.149775,0.724556,-0.0571500000000001,-0.0933649999999999,0.4989359999999999,-0.00059,-0.2044649999999999,0.299926,0.0728399999999999,0.189485,0.448466,0.0219199999999999,0.2653850000000001,0.246196,0.0196199999999998,-0.2693049999999999,0.1037859999999999,0.0193799999999999,0.3066650000000001,0.131926,-0.1155800000000001,-0.0720649999999999,0.008736,-0.00706,0.072065,-0.0087359999999999,0.0070599999999999,-0.1226349999999999,-0.3533539999999999,-0.0312700000000001,0.100235,-0.3484939999999999,-0.0598100000000001,-0.1161149999999999,-0.657814,0.0460099999999998,0.106185,-0.742484,-0.0028300000000001,0
140,0.15283,0.722407,-0.0629349999999999,-0.0891,0.5002869999999999,-0.0030549999999999,-0.19914,0.2986069999999999,0.0749750000000001,0.1935899999999999,0.447117,0.017775,0.2631099999999999,0.244967,0.018175,-0.26508,0.099507,0.0262350000000001,0.30259,0.124257,-0.1185249999999998,-0.07191,0.009119,-0.0065149999999999,0.0719099999999999,-0.0091189999999999,0.006515,-0.12436,-0.352573,-0.0274949999999999,0.09602,-0.349813,-0.0548349999999999,-0.12065,-0.658473,0.050325,0.0971099999999999,-0.743643,0.002465,0
141,0.159795,0.717591,-0.07421,-0.087835,0.5031909999999999,-0.0030799999999999,-0.187685,0.291881,0.0812899999999999,0.190325,0.445961,0.01587,0.270675,0.2457909999999999,0.0081999999999999,-0.257285,0.088421,0.0675599999999999,0.329565,0.108171,-0.15027,-0.0722549999999999,0.009416,-0.0048899999999999,0.072255,-0.0094159999999999,0.0048899999999999,-0.128295,-0.349959,-0.02432,0.090225,-0.351029,-0.0557699999999999,-0.134135,-0.659979,0.0567499999999999,0.0777149999999999,-0.744309,0.0108599999999999,0
142,0.156625,0.7179880000000001,-0.0755700000000001,-0.081065,0.5053880000000001,-0.00818,-0.188045,0.292438,0.0825299999999998,0.201565,0.447858,0.0072799999999999,0.264915,0.242228,0.0162699999999998,-0.258325,0.089248,0.0664999999999998,0.321955,0.110298,-0.1478100000000001,-0.071605,0.0094969999999999,-0.00497,0.071605,-0.009497,0.0049699999999999,-0.127505,-0.351582,-0.0205600000000001,0.0873349999999999,-0.351632,-0.05048,-0.127715,-0.6566719999999999,0.0559899999999998,0.0705649999999999,-0.7452719999999999,0.0139399999999999,0
143,0.156035,0.7176745,-0.076725,-0.0809549999999999,0.5058945,-0.007835,-0.1879249999999999,0.2928044999999999,0.0819349999999999,0.202285,0.4478445,0.0077549999999999,0.263125,0.2417645,0.0200249999999999,-0.2571849999999999,0.0893645,0.063195,0.307975,0.0953945,-0.1354149999999999,-0.0716449999999999,0.0095745,-0.004735,0.071645,-0.0095745,0.004735,-0.1268249999999999,-0.3514755,-0.0186849999999999,0.0862749999999999,-0.3519355,-0.048135,-0.1254549999999999,-0.6551855,0.055655,0.068475,-0.7456555,0.0157249999999999,0
144,0.15515,0.7173160000000001,-0.07704,-0.0816899999999999,0.5058060000000001,-0.00755,-0.1875699999999999,0.293296,0.08072,0.20366,0.447246,0.0091099999999999,0.26094,0.240436,0.02437,-0.256,0.089776,0.0585099999999999,0.30302,0.095956,-0.1337399999999999,-0.0713099999999999,0.009673,-0.00524,0.0713099999999999,-0.009673,0.00524,-0.1259499999999999,-0.351834,-0.01687,0.08565,-0.352154,-0.0458,-0.1240299999999999,-0.656584,0.0565999999999999,0.06778,-0.746054,0.01717,0
145,0.1539749999999999,0.7170690000000001,-0.076515,-0.082405,0.505329,-0.0071149999999999,-0.187275,0.2927289999999999,0.079335,0.203975,0.445689,0.010475,0.257595,0.238779,0.031945,-0.255575,0.089489,0.052705,0.296295,0.0957689999999999,-0.1284949999999999,-0.070995,0.009849,-0.0058949999999999,0.070995,-0.0098489999999999,0.0058949999999999,-0.1264549999999999,-0.352341,-0.0147149999999999,0.0848849999999999,-0.352481,-0.042605,-0.122485,-0.658501,0.0588549999999999,0.066265,-0.7467809999999999,0.018155,0
146,0.1514299999999999,0.7171375,-0.0757749999999999,-0.0839699999999999,0.5048575,-0.0067649999999999,-0.18813,0.2918175,0.075045,0.2055599999999999,0.4424875,0.0146249999999999,0.24588,0.2337975,0.044685,-0.25455,0.0890675,0.038505,0.2670599999999999,0.0658045,-0.0928649999999999,-0.0701199999999999,0.0100635,-0.0077249999999999,0.0701199999999999,-0.0100635,0.007725,-0.1270899999999999,-0.3520525,-0.0100949999999999,0.0840499999999999,-0.3528625,-0.0342049999999999,-0.12245,-0.6595725,0.062815,0.06294,-0.7483125,0.019835,0
147,0.14908,0.7173535,-0.0744949999999999,-0.08672,0.5038935,-0.0067049999999999,-0.18918,0.2902935,0.069635,0.2046599999999999,0.4415135,0.018545,0.22707,0.1765335,0.0220449999999999,-0.25374,0.0873635,0.030155,0.2770699999999999,0.0126635,-0.111925,-0.06949,0.0099315,-0.009295,0.0694899999999999,-0.0099315,0.0092949999999999,-0.1268,-0.3506865,-0.004475,0.0830299999999999,-0.3527665,-0.0231249999999999,-0.12334,-0.6580165,0.0656949999999999,0.06235,-0.7498064999999999,0.021105,0
