sb224sc-HT22-VT27/4dt907/src/ml-research/a11/datafiles/labeled_files/A34_kinect.csv
FrameNo,nose_3d_x,nose_3d_y,nose_3d_z,left_shoulder_3d_x,left_shoulder_3d_y,left_shoulder_3d_z,left_elbow_3d_x,left_elbow_3d_y,left_elbow_3d_z,right_shoulder_3d_x,right_shoulder_3d_y,right_shoulder_3d_z,right_elbow_3d_x,right_elbow_3d_y,right_elbow_3d_z,left_wrist_3d_x,left_wrist_3d_y,left_wrist_3d_z,right_wrist_3d_x,right_wrist_3d_y,right_wrist_3d_z,left_hip_3d_x,left_hip_3d_y,left_hip_3d_z,right_hip_3d_x,right_hip_3d_y,right_hip_3d_z,left_knee_3d_x,left_knee_3d_y,left_knee_3d_z,right_knee_3d_x,right_knee_3d_y,right_knee_3d_z,left_ankle_3d_x,left_ankle_3d_y,left_ankle_3d_z,right_ankle_3d_x,right_ankle_3d_y,right_ankle_3d_z,activity_label
0,0.017994,0.7617575,0.068916,-0.14647,0.4616075,0.057785,-0.17503,0.2108875,0.071808,0.16597,0.4617675,0.052751,0.1889699999999999,0.2089275,0.063521,-0.18977,0.0081585,2.4000000000003185e-05,0.19707,0.0041705,-0.0200119999999999,-0.072334,0.0034105,0.000123,0.072334,-0.0034105,-0.0001229999999999,-0.1265399999999999,-0.3847025,-0.026475,0.11519,-0.4198825,-0.005925,-0.1281,-0.7311725,-0.0257379999999999,0.12287,-0.7377625000000001,-0.0436769999999999,0
1,0.0174015,0.7611775,0.068142,-0.1474155,0.4613175,0.058155,-0.1754055,0.2105075,0.071587,0.1653145,0.4617675,0.0524689999999999,0.1894145,0.2083475,0.0621549999999999,-0.1904455,0.0080695,-0.001053,0.2023245,0.0089405,-0.019979,-0.0723815,0.0034145,0.0002579999999999,0.0723815,-0.0034145,-0.000258,-0.1265755,-0.3846425,-0.026438,0.1144345,-0.4200224999999999,-0.005701,-0.1292255,-0.7336925000000001,-0.025865,0.1217845,-0.7369525,-0.042247,0
2,0.0175009999999999,0.7608779999999999,0.0673725,-0.147607,0.461268,0.0583235,-0.175207,0.210368,0.0716245,0.1651829999999999,0.461858,0.0524485,0.190083,0.2084079999999999,0.0618105,-0.190537,0.008014,-0.0012155,0.2017729999999999,0.009024,-0.0206125,-0.072448,0.003378,0.0003944999999999,0.072448,-0.003378,-0.0003944999999999,-0.126507,-0.384932,-0.0265235,0.114353,-0.419872,-0.0056264999999999,-0.129477,-0.733972,-0.0259155,0.1215229999999999,-0.736412,-0.0424845,0
3,0.0172975,0.7606805,0.0673005,-0.1480175,0.4611404999999999,0.0585015,-0.1752675,0.2101805,0.0716585,0.1648725,0.4618005,0.0524375,0.1899325,0.2083505,0.0618665,-0.1911075,0.0078425,-0.0010994999999999,0.2014625,0.0090204999999999,-0.0207224999999999,-0.0724105,0.0034365,0.0004075,0.0724105,-0.0034365,-0.0004074999999999,-0.1266575,-0.3849195,-0.0264615,0.1140925,-0.4197895,-0.0054204999999999,-0.1296875,-0.7327295,-0.0252964999999999,0.1214124999999999,-0.7366395,-0.0425224999999999,0
4,0.0172864999999999,0.7604,0.067387,-0.1482725,0.4611,0.058863,-0.1751125,0.20971,0.07133,0.1646675,0.4618,0.052346,0.1898175,0.20827,0.061936,-0.1915025,0.007275,-0.0009839999999999,0.2012075,0.008944,-0.020698,-0.0724694999999999,0.0034289999999999,0.000737,0.0724694999999999,-0.0034289999999999,-0.000737,-0.1267325,-0.38502,-0.026222,0.1140674999999999,-0.41948,-0.0048839999999999,-0.1302025,-0.73538,-0.0251959999999999,0.1212675,-0.73692,-0.041844,0
5,0.0172734999999999,0.760166,0.067195,-0.1487655,0.461156,0.059327,-0.1751955,0.209456,0.070915,0.1644545,0.4618259999999999,0.052469,0.1899445,0.208246,0.061801,-0.1921455,0.006899,-0.0008459999999999,0.2007644999999999,0.008789,-0.020564,-0.0724905,0.0034289999999999,0.000855,0.0724905,-0.003429,-0.000855,-0.1268854999999999,-0.384774,-0.026048,0.1137045,-0.419304,-0.0045129999999999,-0.1306655,-0.734414,-0.0244739999999999,0.1210045,-0.7363339999999999,-0.0410669999999999,0
6,0.0170695,0.759882,0.0674375,-0.1492775,0.461182,0.0597735,-0.1750775,0.209072,0.0704135,0.1641725,0.461892,0.0524715,0.1903024999999999,0.208192,0.0615775,-0.1928375,0.006528,-0.0011395,0.2025125,0.008816,-0.0207764999999999,-0.0724855,0.003451,0.0008775,0.0724855,-0.003451,-0.0008774999999999,-0.1259375,-0.379968,-0.0265405,0.1136725,-0.419338,-0.0042664999999999,-0.1315675,-0.736698,-0.0252815,0.1206225,-0.735998,-0.0410385,0
7,0.016637,0.7601669999999999,0.068045,-0.149927,0.461007,0.060184,-0.177347,0.209787,0.069238,0.163503,0.4619069999999999,0.052806,0.189923,0.208907,0.060147,-0.198837,0.010124,-0.0079549999999999,0.201673,0.0095,-0.022279,-0.07246,0.003385,0.0008529999999999,0.07246,-0.003385,-0.0008529999999999,-0.126187,-0.381613,-0.0256559999999999,0.114003,-0.419183,-0.0035649999999999,-0.131147,-0.735803,-0.02452,0.1212129999999999,-0.737193,-0.0405469999999999,0
8,0.016399,0.7598265000000001,0.0684705,-0.150235,0.4612065,0.0606935,-0.181935,0.2152665,0.0639325,0.162835,0.4620065,0.0528485,0.192045,0.2128064999999999,0.0546015,-0.207915,0.0186805,-0.0180875,0.205435,0.0158675,-0.0323524999999999,-0.07247,0.0033755,0.0008965,0.07247,-0.0033755,-0.0008964999999999,-0.1262349999999999,-0.3811135,-0.0252434999999999,0.113885,-0.4189835,-0.0030854999999999,-0.131555,-0.7364134999999999,-0.0240955,0.120895,-0.7378035,-0.0401315,0
9,0.0161755,0.7595195,0.0688635,-0.1505655,0.4614095,0.0611655,-0.1880555,0.2218295,0.0560035,0.1621545,0.4621395,0.0528665,0.1961045,0.2186995,0.0476805,-0.2198755,0.0300265,-0.0326294999999999,0.2096045,0.0247525,-0.0448554999999999,-0.0724925,0.0033594999999999,0.0009525,0.0724925,-0.0033594999999999,-0.0009524999999999,-0.1262455,-0.3799105,-0.0248504999999999,0.1137244999999999,-0.4188205,-0.0026234999999999,-0.1321255,-0.7369505,-0.0236764999999999,0.1205845,-0.7384204999999999,-0.0398805,0
10,0.0158265,0.7593475000000001,0.069249,-0.1508565,0.4616375,0.061553,-0.1956165,0.2296575,0.046227,0.1614835,0.4622875,0.0528,0.2008335,0.2256175,0.038093,-0.2336165,0.0437685,-0.050209,0.2149835,0.0366234999999999,-0.0623679999999999,-0.0725375,0.0033334999999999,0.001045,0.0725375,-0.0033334999999999,-0.0010449999999999,-0.1261965,-0.3781425,-0.0245429999999999,0.1135735,-0.4183925,-0.0021889999999999,-0.1324765,-0.7374225,-0.0233099999999999,0.1204935,-0.7387825,-0.039492,0
11,0.0154874999999999,0.7591825,0.069966,-0.1505125,0.4622025,0.06189,-0.2063424999999999,0.2424825,0.032856,0.1607775,0.4625925,0.052545,0.2066875,0.2355225,0.023705,-0.2510925,0.0658995,-0.0779629999999999,0.2238775,0.0571795,-0.088653,-0.0726235,0.0032935,0.001212,0.0726235,-0.0032935,-0.0012119999999999,-0.1263125,-0.3768875,-0.0243299999999999,0.1133974999999999,-0.4176574999999999,-0.0018389999999999,-0.1328425,-0.7378574999999999,-0.022444,0.1204075,-0.7391675,-0.0391389999999999,0
12,0.0151289999999999,0.759034,0.0708475,-0.15012,0.462744,0.0622004999999999,-0.21806,0.257954,0.0175114999999999,0.15997,0.462914,0.0522375,0.21323,0.248894,0.0057494999999999,-0.26983,0.093985,-0.1066695,0.23335,0.079333,-0.1171895,-0.072737,0.003241,0.0013884999999999,0.072737,-0.003241,-0.0013885,-0.12645,-0.375606,-0.0241295,0.11318,-0.416976,-0.0015415,-0.13313,-0.737626,-0.0213175,0.1203299999999999,-0.7394959999999999,-0.0388405,0
13,0.0146809999999999,0.758758,0.0718284999999999,-0.1496509999999999,0.4634279999999999,0.0624094999999999,-0.230671,0.2760379999999999,0.0012624999999999,0.1588589999999999,0.463408,0.0516055,0.220069,0.263138,-0.0128205,-0.288651,0.127368,-0.1367855,0.2434889999999999,0.110158,-0.1500254999999999,-0.072879,0.003146,0.0015154999999999,0.072879,-0.003146,-0.0015155,-0.126351,-0.374512,-0.0238855,0.1130989999999999,-0.416212,-0.0012335,-0.133111,-0.737182,-0.0199845,0.120349,-0.7401019999999999,-0.0386085,0
14,0.0144304999999999,0.7585565,0.07295,-0.1489665,0.4643565,0.062492,-0.2432264999999999,0.3026365,-0.016664,0.1578735,0.4639665,0.050953,0.2284435,0.2820565,-0.033342,-0.3082965,0.1711065,-0.168227,0.2549535,0.1508265,-0.187057,-0.0730305,0.0030745,0.001596,0.0730305,-0.0030745,-0.001596,-0.1263365,-0.3732634999999999,-0.023568,0.1128535,-0.4155034999999999,-0.000974,-0.1329565,-0.7362835,-0.018553,0.1203535,-0.7402335,-0.0382039999999999,0
15,0.0142095,0.7581245000000001,0.074324,-0.1477754999999999,0.4658545,0.062436,-0.2552155,0.3325945,-0.034581,0.1568445,0.4648545,0.050184,0.2378645,0.3105745,-0.054458,-0.3272555,0.2245845,-0.1990199999999999,0.2669345,0.2025045,-0.22451,-0.0732055,0.0029915,0.0017739999999999,0.0732055,-0.0029915,-0.001774,-0.1262655,-0.3720955,-0.023205,0.1126245,-0.4148855,-0.000844,-0.1327255,-0.7354155,-0.017169,0.1203645,-0.7406054999999999,-0.037943,0
16,0.0140185,0.7575035,0.075751,-0.1464025,0.4675034999999999,0.06232,-0.2668725,0.3657835,-0.051458,0.1558375,0.4659534999999999,0.049356,0.2472975,0.3403235,-0.074276,-0.3419425,0.2825034999999999,-0.2287959999999999,0.2788875,0.2599134999999999,-0.260496,-0.0733985,0.0028865,0.0019959999999999,0.0733985,-0.0028864999999999,-0.0019959999999999,-0.1261425,-0.3711565,-0.022917,0.1124375,-0.4144565,-0.00075,-0.1324125,-0.7348265,-0.015863,0.1203274999999999,-0.7410265,-0.0377309999999999,0
17,0.0138575,0.7567010000000001,0.077351,-0.1451955,0.469081,0.06195,-0.2736355,0.395071,-0.062523,0.1549645,0.467291,0.048492,0.2545845,0.368921,-0.088263,-0.3504454999999999,0.337551,-0.251083,0.2863645,0.315881,-0.2844129999999999,-0.0735764999999999,0.002746,0.002202,0.0735764999999999,-0.002746,-0.002202,-0.1259255,-0.370299,-0.02266,0.1123145,-0.414219,-0.00071,-0.1320955,-0.734539,-0.014577,0.1202044999999999,-0.7419990000000001,-0.0375519999999999,0
18,0.0137484999999999,0.755716,0.078854,-0.1439375,0.470786,0.061527,-0.2786475,0.425886,-0.07127,0.1541924999999999,0.468706,0.047577,0.2600825,0.398926,-0.10057,-0.3552575,0.394246,-0.2680599999999999,0.2931125,0.374106,-0.30404,-0.0737205,0.002575,0.002354,0.0737205,-0.0025749999999999,-0.0023539999999999,-0.1257075,-0.370324,-0.022494,0.1122525,-0.4141439999999999,-0.0006739999999999,-0.1317875,-0.734644,-0.0135409999999999,0.1201724999999999,-0.743204,-0.037275,0
19,0.013699,0.754606,0.0802185,-0.1426329999999999,0.472576,0.0610664999999999,-0.281633,0.456336,-0.0778715,0.153607,0.470266,0.0466875,0.2649769999999999,0.429716,-0.1098515,-0.356783,0.452676,-0.2807814999999999,0.298307,0.433056,-0.3168715,-0.073827,0.0024189999999999,0.0024935,0.073827,-0.002419,-0.0024935,-0.125493,-0.371064,-0.0224475,0.112247,-0.4144839999999999,-0.0007235,-0.131433,-0.734844,-0.0125624999999999,0.120157,-0.744564,-0.0370545,0
20,0.0136924999999999,0.7531705,0.081258,-0.1419355,0.4739905,0.060274,-0.2816455,0.4852605,-0.080015,0.1532645,0.4717705,0.045948,0.2679944999999999,0.4607604999999999,-0.114275,-0.3568055,0.5085105,-0.281725,0.2998645,0.4897205,-0.321445,-0.0738605,0.0023094999999999,0.0026359999999999,0.0738605,-0.0023095,-0.0026359999999999,-0.1251955,-0.3724995,-0.0223579999999999,0.1122845,-0.4152795,-0.000736,-0.1309355,-0.7357195,-0.0121239999999999,0.1203144999999999,-0.7461595,-0.036326,0
21,0.013733,0.75164,0.082158,-0.141282,0.47588,0.059578,-0.2816519999999999,0.51346,-0.080359,0.153218,0.47315,0.045526,0.270298,0.48984,-0.1141789999999999,-0.3568119999999999,0.56206,-0.281639,0.300458,0.5468000000000001,-0.321359,-0.073855,0.00225,0.002722,0.073855,-0.00225,-0.0027219999999999,-0.1249019999999999,-0.37431,-0.0222399999999999,0.112338,-0.41624,-0.0006499999999999,-0.130382,-0.73682,-0.0119079999999999,0.120558,-0.74786,-0.0353909999999999,0
22,0.0137295,0.7498845,0.083079,-0.1406625,0.4777845,0.058924,-0.2816525,0.5401645,-0.080408,0.1532175,0.4742745,0.045586,0.2717475,0.5201545,-0.114058,-0.3568125,0.6127445,-0.281528,0.3009175,0.5979345,-0.3212379999999999,-0.0738554999999999,0.0022555,0.002833,0.0738554999999999,-0.0022555,-0.0028329999999999,-0.1249025,-0.3760655,-0.0221289999999999,0.1123375,-0.4179955,-0.0005509999999999,-0.1303824999999999,-0.7385755,-0.0117969999999999,0.1205575,-0.7496155,-0.034747,0
23,0.0137405,0.748111,0.0838315,-0.1400475,0.479981,0.0582255,-0.2808175,0.5592609999999999,-0.0803055,0.1532325,0.475311,0.0456885,0.2717625,0.548461,-0.1139555,-0.3535375,0.6544009999999999,-0.2804454999999999,0.3009325,0.644511,-0.3211354999999999,-0.0738715,0.002363,0.0029355,0.0738715,-0.002363,-0.0029355,-0.1248874999999999,-0.377849,-0.0220264999999999,0.1123525,-0.419779,-0.0004554999999999,-0.1303675,-0.7403590000000001,-0.0116944999999999,0.1205624999999999,-0.751399,-0.0342314999999999,0
24,0.0137985,0.7466975,0.084247,-0.1397275,0.4822975,0.057564,-0.2782374999999999,0.5794175,-0.080182,0.1532925,0.4760275,0.045792,0.2718225,0.5689775,-0.113402,-0.3475275,0.6927575,-0.280182,0.3009825,0.6842775,-0.320432,-0.0738975,0.0024194999999999,0.0030309999999999,0.0738975,-0.0024195,-0.0030309999999999,-0.1248275,-0.3794625,-0.0219229999999999,0.1124125,-0.4213925,-0.0004269999999999,-0.1303075,-0.7419725,-0.0115909999999999,0.1206225,-0.7530125,-0.033946,0
25,0.0145144999999999,0.7452570000000001,0.0844655,-0.1392555,0.484477,0.0568844999999999,-0.2738855,0.596477,-0.0792245,0.1538945,0.477157,0.0459934999999999,0.2720045,0.589357,-0.1109145,-0.3402855,0.725487,-0.2763845,0.3011545,0.718187,-0.3139445,-0.0738075,0.00255,0.0030344999999999,0.0738075,-0.00255,-0.0030345,-0.1249455,-0.382193,-0.0218735,0.1120144999999999,-0.423093,-0.0004525,-0.1306355,-0.743673,-0.0115175,0.1200444999999999,-0.755023,-0.0335975,0
26,0.0152489999999999,0.7436695,0.0847924999999999,-0.138822,0.4862594999999999,0.0566855,-0.268652,0.6123595,-0.0754405,0.154408,0.4780795,0.0464005,0.271928,0.6074395,-0.1055305,-0.330852,0.7559495,-0.2686505,0.299888,0.7493395,-0.3007505,-0.073671,0.0026885,0.0029785,0.073671,-0.0026885,-0.0029785,-0.124932,-0.3847505,-0.0217085,0.111638,-0.4244205,-0.0003615,-0.131042,-0.7461705,-0.0117545,0.119448,-0.7572305,-0.0330865,0
27,0.0160074999999999,0.742336,0.085294,-0.1384004999999999,0.488316,0.056712,-0.2632705,0.627146,-0.071282,0.1549995,0.478756,0.0470089999999999,0.2705795,0.623116,-0.098872,-0.3209805,0.783036,-0.259432,0.2979595,0.776956,-0.286482,-0.0735065,0.002793,0.002825,0.0735065,-0.002793,-0.002825,-0.1249005,-0.387144,-0.021541,0.1112795,-0.425804,-0.000178,-0.1316405,-0.748824,-0.0119179999999999,0.1188195,-0.7595040000000001,-0.0325499999999999,0
28,0.016777,0.7406480000000001,0.0859225,-0.138033,0.4909779999999999,0.0569245,-0.256923,0.6428680000000001,-0.0667565,0.155527,0.479558,0.0476865,0.268447,0.6387980000000001,-0.0911265,-0.3103329999999999,0.808778,-0.2444064999999999,0.2949969999999999,0.805118,-0.2674565,-0.073354,0.002995,0.0027005,0.073354,-0.002995,-0.0027005,-0.124883,-0.389632,-0.0212335,0.110897,-0.427602,7.549999999999918e-05,-0.1322829999999999,-0.7520619999999999,-0.0119534999999999,0.118257,-0.7622519999999999,-0.0319285,0
29,0.017653,0.7394545,0.0863085,-0.137708,0.4937445,0.0573795,-0.251268,0.6555445,-0.0631114999999999,0.155762,0.4803644999999999,0.0482615,0.266392,0.6533845,-0.0845814999999999,-0.300858,0.8314145,-0.2301315,0.292792,0.8278645,-0.2512715,-0.073185,0.0031885,0.0025355,0.073185,-0.0031885,-0.0025354999999999,-0.124708,-0.3912755,-0.0211314999999999,0.110612,-0.4290755,0.0002335,-0.132858,-0.7551355,-0.0122044999999999,0.1178319999999999,-0.7647855,-0.0312864999999999,0
30,0.018541,0.7381695,0.0865155,-0.13727,0.4960895,0.0578244999999999,-0.24582,0.6696195,-0.0596615,0.15601,0.4809994999999999,0.0489224999999999,0.2644499999999999,0.6667995000000001,-0.0782115,-0.29189,0.8509595000000001,-0.2164315,0.29077,0.8494895,-0.2360415,-0.073043,0.0033114999999999,0.0024314999999999,0.073043,-0.0033114999999999,-0.0024315,-0.12468,-0.3932405,-0.0209955,0.1102699999999999,-0.4306605,0.0003614999999999,-0.13346,-0.7572804999999999,-0.0115685,0.11725,-0.7676405,-0.0304135,0
31,0.019445,0.7369450000000001,0.0864205,-0.136827,0.498195,0.0583635,-0.240747,0.6838350000000001,-0.0559604999999999,0.156183,0.481685,0.0496975,0.262313,0.6800550000000001,-0.0718825,-0.283457,0.869745,-0.2022525,0.288573,0.8682150000000001,-0.2192424999999999,-0.072862,0.0034549999999999,0.0023105,0.072862,-0.0034549999999999,-0.0023105,-0.124707,-0.395285,-0.0207715,0.109853,-0.432245,0.0005925,-0.134127,-0.759775,-0.0113735,0.116653,-0.7707649999999999,-0.0296035,0
32,0.020243,0.735422,0.08581,-0.135959,0.500612,0.058905,-0.2356289999999999,0.698292,-0.0512229999999999,0.156231,0.482472,0.050566,0.259791,0.691732,-0.063499,-0.274039,0.888432,-0.185519,0.285191,0.8837119999999999,-0.198569,-0.072735,0.003553,0.00225,0.072735,-0.003553,-0.0022499999999999,-0.124789,-0.397978,-0.0207389999999999,0.109371,-0.434578,0.000768,-0.134849,-0.763538,-0.0112949999999999,0.115921,-0.774568,-0.028865,0
33,0.0208325,0.7336345000000001,0.085013,-0.1347354999999999,0.5020145,0.059325,-0.2309554999999999,0.7083845,-0.046279,0.1562045,0.4832445000000001,0.051378,0.2572245,0.7016845,-0.0562759999999999,-0.2655055,0.9007145,-0.169432,0.2816745,0.8951545000000001,-0.179782,-0.0726344999999999,0.0036894999999999,0.00223,0.0726344999999999,-0.0036895,-0.0022299999999999,-0.1249255,-0.4008454999999999,-0.020814,0.1087545,-0.4367054999999999,0.0007769999999999,-0.1358355,-0.7673654999999999,-0.011242,0.1150245,-0.7784854999999999,-0.028327,0
34,0.020759,0.7317180000000001,0.084047,-0.133812,0.502988,0.059733,-0.227122,0.7181280000000001,-0.0414629999999999,0.156088,0.4832979999999999,0.052092,0.254978,0.710418,-0.0502909999999999,-0.258032,0.912718,-0.154398,0.278178,0.906568,-0.162558,-0.072522,0.003766,0.0022659999999999,0.072522,-0.0037659999999999,-0.0022659999999999,-0.1251519999999999,-0.403582,-0.0208599999999999,0.108498,-0.438742,0.000794,-0.136342,-0.771102,-0.0109529999999999,0.114558,-0.7818919999999999,-0.028111,0
35,0.0206109999999999,0.7301810000000001,0.082898,-0.132889,0.504251,0.059918,-0.224119,0.727391,-0.037482,0.155931,0.4832909999999999,0.0525949999999999,0.252931,0.7189610000000001,-0.045121,-0.251419,0.923131,-0.140875,0.274701,0.916121,-0.147445,-0.072368,0.003846,0.0022579999999999,0.072368,-0.003846,-0.002258,-0.125299,-0.405889,-0.021121,0.108241,-0.440619,0.0005739999999999,-0.136889,-0.774589,-0.010794,0.114081,-0.785099,-0.0280559999999999,0
36,0.0204934999999999,0.728395,0.0816455,-0.1320255,0.504825,0.0599965,-0.2215955,0.7351650000000001,-0.0339085,0.1556245,0.483445,0.0528145,0.2511245,0.7266050000000001,-0.0406945,-0.2452955,0.932455,-0.1288105,0.2711945,0.924485,-0.1340305,-0.0722425,0.003985,0.0021585,0.0722425,-0.003985,-0.0021585,-0.1254255,-0.408485,-0.0213834999999999,0.1080145,-0.4424349999999999,0.0002144999999999,-0.1372255,-0.777335,-0.0104514999999999,0.1136245,-0.788265,-0.0280915,0
37,0.0203,0.727024,0.0802595,-0.131278,0.504534,0.0598304999999999,-0.220258,0.741144,-0.0313495,0.155012,0.483354,0.0526644999999999,0.2497019999999999,0.732464,-0.0381305,-0.2411579999999999,0.939024,-0.1215775,0.268632,0.928594,-0.1259075,-0.072131,0.004018,0.0020154999999999,0.072131,-0.004018,-0.0020155,-0.125408,-0.409946,-0.0218104999999999,0.107752,-0.443126,-0.0003254999999999,-0.137578,-0.779506,-0.0100314999999999,0.113162,-0.790776,-0.0283125,0
38,0.0200489999999999,0.725441,0.078915,-0.130578,0.503981,0.0595179999999999,-0.218938,0.746801,-0.0291109999999999,0.154482,0.4831709999999999,0.0522249999999999,0.248212,0.7362010000000001,-0.0359,-0.237398,0.942821,-0.115129,0.266022,0.931681,-0.118439,-0.072051,0.00399,0.0020159999999999,0.072051,-0.00399,-0.002016,-0.125518,-0.411739,-0.0220739999999999,0.107492,-0.444239,-0.000849,-0.138128,-0.7819290000000001,-0.010364,0.112722,-0.793159,-0.028651,0
39,0.0195224999999999,0.7240385,0.077602,-0.1301135,0.5033285,0.0592249999999999,-0.2177735,0.7492685,-0.026964,0.1538665,0.4833185,0.051786,0.2465365,0.7396885,-0.033947,-0.2340235,0.9461485,-0.109211,0.2633465,0.9337685,-0.112411,-0.0720405,0.0039755,0.0020159999999999,0.0720405,-0.0039755,-0.002016,-0.1257335,-0.4132915,-0.022302,0.1071365,-0.4452415,-0.001349,-0.1387335,-0.7837115,-0.010388,0.1121365,-0.7951415000000001,-0.028775,0
40,0.0188965,0.7225885,0.0766385,-0.1297345,0.5027385,0.0589705,-0.2168244999999999,0.7505685,-0.0251394999999999,0.1533055,0.4835985,0.0514255,0.2448755,0.7412685,-0.0324725,-0.2315545,0.9479085,-0.1051285,0.2611055,0.9359685,-0.1095785,-0.0720975,0.0039034999999999,0.0020095,0.0720975,-0.0039035,-0.0020094999999999,-0.1259545,-0.4147115,-0.0224214999999999,0.1068455,-0.4460915,-0.0017864999999999,-0.1393245,-0.7859115,-0.0109314999999999,0.1116455,-0.7968815,-0.0288984999999999,1
41,0.0180029999999999,0.7225415000000001,0.075969,-0.130077,0.5022215,0.058637,-0.216607,0.7508415,-0.025103,0.152793,0.4839015,0.051141,0.243973,0.7417315,-0.032679,-0.2310769999999999,0.9482915,-0.105332,0.2599329999999999,0.9360515,-0.109792,-0.072202,0.0037425,0.001819,0.072202,-0.0037424999999999,-0.001819,-0.126217,-0.4152285,-0.022625,0.106503,-0.4464785,-0.0020939999999999,-0.139867,-0.7864785,-0.010962,0.1110329999999999,-0.7976685,-0.0291039999999999,1
42,0.0169235,0.7225785,0.074984,-0.1304835,0.5020685,0.0580669999999999,-0.2167935,0.7511285000000001,-0.025609,0.1522065,0.4843384999999999,0.0505399999999999,0.2429764999999999,0.7421085000000001,-0.033191,-0.2311635,0.9484385,-0.10584,0.2587765,0.9359185,-0.1103,-0.0723375,0.0035895,0.0015649999999999,0.0723375,-0.0035894999999999,-0.001565,-0.1265435,-0.4153815,-0.023132,0.1061065,-0.4466315,-0.002602,-0.1404735,-0.7866314999999999,-0.011471,0.1105265,-0.7980415000000001,-0.0297619999999999,1
43,0.0156784999999999,0.7225495,0.0733585,-0.1308805,0.5020395,0.0568695,-0.2170605,0.7514695,-0.0267385,0.1516195,0.4848595,0.0493124999999999,0.2419895,0.7423895,-0.0343235,-0.2313805,0.9484095,-0.1069594999999999,0.2577994999999999,0.9358895,-0.1114294999999999,-0.0725365,0.0035605,0.0012764999999999,0.0725365,-0.0035604999999999,-0.0012764999999999,-0.1268605,-0.4154705,-0.0242615,0.1057395,-0.4466605,-0.0037495,-0.1410305,-0.7868805,-0.0126985,0.1101395,-0.7982505,-0.0312035,1
44,0.014518,0.7223435,0.0708729999999999,-0.131208,0.5017935,0.055089,-0.217388,0.7514635000000001,-0.028446,0.151162,0.4849835,0.0474539999999999,0.241072,0.7424035,-0.0368449999999999,-0.231708,0.9481935,-0.108967,0.256982,0.9360235,-0.115067,-0.0728,0.0036144999999999,0.001013,0.0728,-0.0036144999999999,-0.001013,-0.127198,-0.4158465,-0.0256609999999999,0.105482,-0.4466465,-0.005595,-0.141358,-0.7867265,-0.014511,0.109812,-0.7983865,-0.032911,1
45,0.0134605,0.722174,0.0677794999999999,-0.1317545,0.5015040000000001,0.0528335,-0.2176644999999999,0.7515240000000001,-0.0310265,0.1506855,0.485184,0.0450744999999999,0.2402355,0.742444,-0.0405415,-0.2319844999999999,0.947964,-0.1122425,0.2562954999999999,0.936054,-0.1202324999999999,-0.0730885,0.0036319999999999,0.0008484999999999,0.0730885,-0.003632,-0.0008485,-0.1274045,-0.4164759999999999,-0.0274265,0.1054955,-0.447026,-0.0079084999999999,-0.1415445,-0.786956,-0.0173215,0.1095355,-0.798366,-0.0353555,1
46,0.0125099999999999,0.72179,0.0639754999999999,-0.132301,0.50119,0.0499805,-0.217911,0.7513700000000001,-0.0346415,0.150229,0.48545,0.0421025,0.2395089999999999,0.74236,-0.0452585,-0.232221,0.94781,-0.1165914999999999,0.255729,0.93589,-0.1264715,-0.073349,0.0035859999999999,0.0006525,0.073349,-0.003586,-0.0006525,-0.127571,-0.41708,-0.0296635,0.1055789999999999,-0.44727,-0.0108095,-0.141591,-0.78748,-0.0206035,0.109319,-0.7983,-0.0384285,1
47,0.0111279999999999,0.7213040000000001,0.0587475,-0.133071,0.500864,0.0461785,-0.218011,0.7512840000000001,-0.0401775,0.149529,0.4869139999999999,0.0380845,0.238419,0.742274,-0.0520215,-0.232701,0.947724,-0.1233055,0.254689,0.935514,-0.1353355,-0.073609,0.003381,0.0007474999999999,0.073609,-0.003381,-0.0007474999999999,-0.127501,-0.417286,-0.0322914999999999,0.1061689999999999,-0.447466,-0.0143034999999999,-0.141411,-0.787696,-0.0244264999999999,0.109549,-0.798256,-0.0418155,1
48,0.0098929999999999,0.7210815,0.05266,-0.133782,0.5005115,0.041803,-0.218052,0.7513515000000001,-0.046573,0.1489279999999999,0.4883815,0.033456,0.2375079999999999,0.7423415,-0.059727,-0.233182,0.9476915,-0.1314759999999999,0.253788,0.9351015,-0.145246,-0.07383,0.0032855,0.000986,0.07383,-0.0032854999999999,-0.000986,-0.127382,-0.4172885,-0.035612,0.1068679999999999,-0.4474385,-0.018543,-0.141142,-0.7875385,-0.028546,0.1099979999999999,-0.7980185,-0.045981,1
49,0.008842,0.7209985,0.04469,-0.134368,0.5001085,0.036189,-0.217978,0.7512685,-0.054336,0.148462,0.4885385,0.027601,0.236782,0.7424985,-0.068717,-0.233368,0.9460485,-0.142366,0.252862,0.9341585,-0.157546,-0.074152,0.0031284999999999,0.0012509999999999,0.074152,-0.0031285,-0.0012509999999999,-0.127068,-0.4171915,-0.040238,0.107702,-0.4473515,-0.0239799999999999,-0.140778,-0.7873215,-0.0345,0.110652,-0.7975515000000001,-0.051504,1
50,0.0079285,0.720801,0.0362655,-0.1348445,0.4996409999999999,0.0303255,-0.2176044999999999,0.7474510000000001,-0.0624264999999999,0.1480355,0.488871,0.0214305,0.2360955,0.7402110000000001,-0.0784425,-0.2334544999999999,0.943131,-0.1533665,0.2518055,0.931281,-0.1699764999999999,-0.0743875,0.0030239999999999,0.0016635,0.0743875,-0.003024,-0.0016634999999999,-0.1267545,-0.416899,-0.0452285,0.1085955,-0.447119,-0.0297344999999999,-0.1403545,-0.7867989999999999,-0.0405215,0.1113355,-0.797129,-0.0574055,1
51,0.0071909999999999,0.7203695,0.0270539999999999,-0.135241,0.4994295,0.023908,-0.217151,0.7433595,-0.071392,0.147709,0.4892795,0.0146869999999999,0.234669,0.7346995,-0.088747,-0.233401,0.9401495,-0.165647,0.250859,0.9282895,-0.183467,-0.074634,0.0028605,0.0022279999999999,0.074634,-0.0028604999999999,-0.002228,-0.126401,-0.4163305,-0.050868,0.109579,-0.4468005,-0.036275,-0.139911,-0.7863905,-0.047029,0.112039,-0.7966105,-0.063912,1
52,0.0064999999999999,0.7196739999999999,0.0166,-0.135644,0.4997539999999999,0.016508,-0.216654,0.7388739999999999,-0.08127,0.147006,0.4895339999999999,0.006134,0.2332959999999999,0.7288239999999999,-0.099864,-0.233204,0.935484,-0.179454,0.249706,0.925504,-0.198874,-0.074785,0.0027239999999999,0.002704,0.074785,-0.002724,-0.002704,-0.126154,-0.4148159999999999,-0.0575399999999999,0.110526,-0.445756,-0.044141,-0.139514,-0.785046,-0.054255,0.1127059999999999,-0.795346,-0.07161,1
53,0.0059039999999999,0.718852,0.0057955,-0.135827,0.499902,0.0085655,-0.216077,0.734352,-0.0915695,0.1463529999999999,0.4895219999999999,-0.0029245,0.232033,0.722832,-0.1114265,-0.232967,0.930472,-0.1936864999999999,0.248583,0.923112,-0.2149565,-0.07501,0.002569,0.0031674999999999,0.07501,-0.0025689999999999,-0.0031674999999999,-0.125907,-0.412698,-0.0646825,0.111463,-0.444258,-0.0525464999999999,-0.138827,-0.782708,-0.0618525,0.113423,-0.7935279999999999,-0.0801505,1
54,0.0054174999999999,0.7177005,-0.0052114999999999,-0.1359885,0.5002505,0.0004994999999999,-0.2154184999999999,0.7289905,-0.1019785,0.1457515,0.4895505,-0.0120635,0.2308015,0.7160105,-0.1231695,-0.2326985,0.9255905,-0.2081495,0.2474714999999999,0.9205905,-0.2314495,-0.0752825,0.0023714999999999,0.0035125,0.0752825,-0.0023714999999999,-0.0035124999999999,-0.1257185,-0.4108495,-0.0719155,0.1124415,-0.4425894999999999,-0.0614515,-0.1381385,-0.7807395,-0.0694375,0.1141815,-0.7913295,-0.0889814999999999,1
55,0.004894,0.7160329999999999,-0.0167385,-0.136199,0.501023,-0.0078735,-0.214749,0.722873,-0.1127035,0.145041,0.489913,-0.0215645,0.229501,0.7095629999999999,-0.1353395,-0.2326889999999999,0.921103,-0.2247995,0.2464309999999999,0.918153,-0.2484095,-0.075484,0.002144,0.0038324999999999,0.075484,-0.002144,-0.0038325,-0.125589,-0.408477,-0.0794354999999999,0.113431,-0.439947,-0.0711125,-0.1376889999999999,-0.7782570000000001,-0.0773735,0.114791,-0.788227,-0.0978955,1
56,0.0047915,0.7137505000000001,-0.0278495,-0.1362245,0.5010005000000001,-0.0167575,-0.2141245,0.7175505,-0.1229795,0.1441855,0.4891205,-0.0316295,0.2285454999999999,0.7038905000000001,-0.1465165,-0.2331845,0.9184705,-0.2406465,0.2461054999999999,0.9166305,-0.2644565,-0.0756034999999999,0.0019554999999999,0.0037164999999999,0.0756034999999999,-0.0019554999999999,-0.0037165,-0.1255345,-0.4042095,-0.0877355,0.1140255,-0.4352595,-0.0813965,-0.1375845,-0.7739395,-0.0857515,0.1149655,-0.7833295,-0.1072775,1
57,0.004672,0.711758,-0.038568,-0.136346,0.501278,-0.025355,-0.2135659999999999,0.711248,-0.133238,0.1431339999999999,0.487778,-0.041511,0.2274939999999999,0.6976180000000001,-0.157548,-0.233596,0.915398,-0.256198,0.2453539999999999,0.914548,-0.280328,-0.075667,0.0018159999999999,0.0035169999999999,0.075667,-0.0018159999999999,-0.003517,-0.125616,-0.3999919999999999,-0.096227,0.114704,-0.430212,-0.091496,-0.137606,-0.769112,-0.093776,0.114954,-0.778052,-0.116143,1
58,0.0043464999999999,0.7088990000000001,-0.049284,-0.1365665,0.500329,-0.034562,-0.2130265,0.7047490000000001,-0.144646,0.1419435,0.486459,-0.051946,0.2263335,0.6911390000000001,-0.170136,-0.2340265,0.910179,-0.271626,0.2446835,0.910239,-0.296226,-0.0759395,0.001525,0.0033549999999999,0.0759395,-0.001525,-0.003355,-0.1258965,-0.394101,-0.105463,0.1153634999999999,-0.423631,-0.102132,-0.1377465,-0.762641,-0.102066,0.1148134999999999,-0.771071,-0.125303,1
59,0.0042359999999999,0.704627,-0.0612785,-0.13641,0.499517,-0.0448975,-0.2125,0.700757,-0.1577515,0.14095,0.484417,-0.0635145,0.22543,0.686537,-0.1843115,-0.23364,0.908287,-0.2898715,0.2445399999999999,0.907717,-0.3152115,-0.076046,0.0012819999999999,0.0029605,0.076046,-0.001282,-0.0029604999999999,-0.12623,-0.384953,-0.1168915,0.11649,-0.414483,-0.1143245,-0.1376899999999999,-0.753553,-0.1118245,0.11485,-0.761923,-0.1349505,1
60,0.004374,0.7006955,-0.07354,-0.136257,0.4988255,-0.055591,-0.211907,0.6953855,-0.171599,0.1398329999999999,0.4824555,-0.075227,0.2253129999999999,0.6844555,-0.199829,-0.233437,0.9011355,-0.308439,0.2444029999999999,0.9006855,-0.333419,-0.076125,0.0011795,0.002456,0.076125,-0.0011795,-0.002456,-0.126857,-0.3745245,-0.129663,0.117773,-0.4040945,-0.127095,-0.137617,-0.7434744999999999,-0.122005,0.114993,-0.7514244999999999,-0.144502,1
61,0.0042555,0.69759,-0.0900155,-0.1360985,0.49734,-0.0710755,-0.2114585,0.69091,-0.1902845,0.1389715,0.47996,-0.0909375,0.2249715,0.6798700000000001,-0.2197145,-0.2333184999999999,0.89739,-0.3310345,0.2441915,0.89131,-0.3550545,-0.0761415,0.001067,0.0021894999999999,0.0761415,-0.001067,-0.0021894999999999,-0.1275585,-0.36246,-0.1469635,0.1190115,-0.39131,-0.1439185,-0.1374484999999999,-0.7313799999999999,-0.1358335,0.1149714999999999,-0.7391,-0.1578345,1
62,0.0041684999999999,0.694376,-0.1065725,-0.1354225,0.492836,-0.0865755,-0.2108325,0.685076,-0.2088065,0.1376775,0.478436,-0.1067275,0.2246075,0.677626,-0.2395165,-0.2332225,0.894966,-0.3544565,0.2439374999999999,0.884626,-0.3767865,-0.0762875,0.000732,0.0019364999999999,0.0762875,-0.000732,-0.0019365,-0.1284325,-0.346154,-0.1665345,0.1212775,-0.371134,-0.1633155,-0.1372625,-0.717264,-0.1498165,0.1143975,-0.723684,-0.1711405,1
63,0.0037704999999999,0.6910105,-0.1232765,-0.1350285,0.4888905,-0.1023125,-0.2103785,0.6778905,-0.2273375,0.1360615,0.4776005,-0.1226015,0.2237215,0.6731405,-0.2589575,-0.2335785,0.8881305,-0.3775775,0.2434215,0.8766705,-0.3989375,-0.0764094999999999,0.0004194999999999,0.0016125,0.0764094999999999,-0.0004194999999999,-0.0016125,-0.1296385,-0.3296695,-0.1862145,0.1232315,-0.3507295,-0.1824575,-0.1374685,-0.7020895,-0.1636265,0.1134515,-0.7074095,-0.1845554999999999,1
64,0.0034434999999999,0.687015,-0.139869,-0.1344095,0.4833449999999999,-0.1183819999999999,-0.2098895,0.672155,-0.245975,0.1341805,0.473515,-0.13906,0.2228605,0.668875,-0.279275,-0.2340094999999999,0.8766849999999999,-0.3986349999999999,0.2430105,0.866275,-0.420365,-0.0764505,0.000109,0.001225,0.0764505,-0.0001089999999999,-0.0012249999999999,-0.1306795,-0.312415,-0.205635,0.1252705,-0.329645,-0.201309,-0.1373795,-0.685835,-0.176784,0.1125104999999999,-0.689825,-0.197848,1
65,0.003105,0.6834105,-0.155822,-0.133938,0.4784905,-0.133432,-0.209548,0.6653005,-0.264085,0.132632,0.4712105,-0.154329,0.2218719999999999,0.6630505,-0.298735,-0.234328,0.8644105,-0.419865,0.242572,0.8554005,-0.440655,-0.076553,-0.0002785,0.001055,0.076553,0.0002785,-0.001055,-0.1318379999999999,-0.2973395,-0.224225,0.127322,-0.3105795,-0.219509,-0.137258,-0.6711095,-0.190026,0.111732,-0.6730794999999999,-0.209778,1
66,0.0028505,0.6767249999999999,-0.173264,-0.1333695,0.472055,-0.150169,-0.2093795,0.656785,-0.283695,0.1310805,0.467295,-0.170866,0.2210205,0.657175,-0.319565,-0.2347095,0.8537349999999999,-0.444095,0.2423205,0.844745,-0.464135,-0.0765885,-0.000586,0.000785,0.0765885,0.0005859999999999,-0.000785,-0.1329195,-0.279835,-0.243555,0.1295204999999999,-0.289115,-0.238785,-0.1370095,-0.653965,-0.203843,0.1111305,-0.6535650000000001,-0.2223669999999999,1
67,0.0027,0.6713610000000001,-0.1899259999999999,-0.132991,0.4671309999999999,-0.1660049999999999,-0.209231,0.6481910000000001,-0.3020899999999999,0.129949,0.4634209999999999,-0.186743,0.219859,0.6502410000000001,-0.33863,-0.2346309999999999,0.846341,-0.46768,0.242109,0.8347910000000001,-0.48709,-0.076657,-0.000779,0.0005,0.076657,0.000779,-0.0005,-0.134041,-0.262309,-0.2617899999999999,0.131659,-0.267389,-0.25707,-0.136721,-0.636679,-0.216636,0.110579,-0.634199,-0.234456,1
68,0.0024975,0.668005,-0.204992,-0.1330625,0.461545,-0.180757,-0.2093125,0.641035,-0.31898,0.1286775,0.458735,-0.20152,0.2184974999999999,0.644265,-0.35591,-0.2347625,0.835755,-0.48747,0.2416274999999999,0.824855,-0.50715,-0.0766854999999999,-0.0008549999999999,0.0003199999999999,0.0766854999999999,0.000855,-0.0003199999999999,-0.1354025,-0.244835,-0.27807,0.1333675,-0.2457649999999999,-0.2738,-0.1365625,-0.6191650000000001,-0.228405,0.1098075,-0.614695,-0.2455709999999999,1
69,0.0022754999999999,0.663825,-0.219115,-0.1330915,0.4554749999999999,-0.195154,-0.2095215,0.634965,-0.33552,0.1271685,0.453945,-0.215927,0.2168385,0.636495,-0.37242,-0.2353015,0.831035,-0.50641,0.2407685,0.818465,-0.5271399999999999,-0.0767694999999999,-0.001045,6.0000000000004494e-05,0.0767694999999999,0.0010449999999999,-6.0000000000004494e-05,-0.1366715,-0.226865,-0.29268,0.1348085,-0.224895,-0.28923,-0.1365315,-0.601875,-0.239503,0.1089285,-0.595755,-0.255947,1
70,0.0022315,0.65751,-0.227822,-0.1330725,0.44874,-0.204013,-0.2096725,0.62788,-0.347015,0.1257875,0.44974,-0.22459,0.2155375,0.6315,-0.3836549999999999,-0.2356525,0.81657,-0.520335,0.2400175,0.81293,-0.542645,-0.0767295,-0.0013299999999999,-0.000255,0.0767295,0.0013299999999999,0.000255,-0.1377725,-0.21021,-0.301955,0.1364375,-0.2061799999999999,-0.299365,-0.1360025,-0.58536,-0.244996,0.1082974999999999,-0.57812,-0.260764,1
71,0.0025649999999999,0.6517000000000001,-0.236185,-0.1329219999999999,0.44469,-0.212351,-0.209692,0.62091,-0.358325,0.125008,0.44462,-0.232658,0.214388,0.62323,-0.394375,-0.235502,0.80108,-0.532975,0.239448,0.80325,-0.557795,-0.076756,-0.0014099999999999,-0.000505,0.076756,0.0014099999999999,0.000505,-0.138632,-0.19448,-0.308535,0.137148,-0.1904499999999999,-0.306685,-0.135372,-0.57018,-0.249636,0.108278,-0.56239,-0.265345,1
72,0.002564,0.64595,-0.244141,-0.132805,0.44032,-0.2202579999999999,-0.209815,0.61634,-0.369505,0.124205,0.4384,-0.240595,0.213125,0.61769,-0.404455,-0.235855,0.7896500000000001,-0.5452250000000001,0.238475,0.79481,-0.571805,-0.0767849999999999,-0.00139,-0.0006749999999999,0.0767849999999999,0.00139,0.000675,-0.139635,-0.17833,-0.314775,0.137715,-0.1742999999999999,-0.3138849999999999,-0.135035,-0.5543899999999999,-0.254455,0.1082849999999999,-0.54621,-0.269547,1
73,0.00257,0.6409849999999999,-0.251385,-0.132656,0.4366649999999999,-0.227497,-0.2100159999999999,0.6110249999999999,-0.3806049999999999,0.123794,0.434685,-0.247422,0.211814,0.609765,-0.413995,-0.236336,0.782205,-0.5581849999999999,0.237294,0.787615,-0.5857950000000001,-0.076818,-0.001345,-0.000675,0.076818,0.0013449999999999,0.0006749999999999,-0.1407359999999999,-0.162795,-0.320615,0.138174,-0.158765,-0.320595,-0.134726,-0.539115,-0.258745,0.108304,-0.530665,-0.27362,1
74,0.002437,0.634975,-0.258729,-0.1335339999999999,0.432985,-0.234757,-0.210744,0.604205,-0.391175,0.122936,0.429885,-0.254235,0.210256,0.602455,-0.423185,-0.2366039999999999,0.773995,-0.569985,0.235786,0.779165,-0.6001449999999999,-0.076888,-0.001195,-0.000735,0.076888,0.001195,0.0007349999999999,-0.141984,-0.151885,-0.326185,0.138266,-0.147105,-0.326875,-0.134714,-0.525535,-0.263024,0.108076,-0.515705,-0.277819,1
75,0.0020849999999999,0.6305149999999999,-0.264894,-0.134269,0.429535,-0.241346,-0.211609,0.599565,-0.40104,0.122181,0.426205,-0.260457,0.208821,0.595765,-0.43138,-0.2367189999999999,0.764905,-0.58098,0.234201,0.769565,-0.61207,-0.076925,-0.0011549999999999,-0.00062,0.076925,0.001155,0.00062,-0.143119,-0.1408149999999999,-0.3309499999999999,0.138261,-0.135205,-0.33213,-0.134679,-0.5123249999999999,-0.266899,0.1079409999999999,-0.500985,-0.281612,1
76,0.0017649999999999,0.62574,-0.270416,-0.135061,0.42549,-0.2471819999999999,-0.212911,0.59429,-0.41022,0.1214289999999999,0.42239,-0.2658129999999999,0.2076289999999999,0.58928,-0.4388999999999999,-0.236591,0.75491,-0.59197,0.232519,0.7603,-0.62295,-0.076926,-0.00114,-0.0005399999999999,0.076926,0.00114,0.00054,-0.144191,-0.1302499999999999,-0.33491,0.138289,-0.1235999999999999,-0.33665,-0.134661,-0.49978,-0.2707699999999999,0.107959,-0.4871499999999999,-0.284591,1
77,0.00142,0.620225,-0.275797,-0.135904,0.421275,-0.252838,-0.2139839999999999,0.5884750000000001,-0.419915,0.119276,0.419645,-0.271345,0.206386,0.581195,-0.445805,-0.236764,0.7451450000000001,-0.6026050000000001,0.230666,0.7509250000000001,-0.633685,-0.076927,-0.0014949999999999,-0.000335,0.076927,0.001495,0.000335,-0.145314,-0.1196849999999999,-0.338605,0.138316,-0.1123449999999999,-0.3409149999999999,-0.1346439999999999,-0.487835,-0.274527,0.107916,-0.4744349999999999,-0.287307,1
78,0.001681,0.61502,-0.281122,-0.136273,0.41795,-0.2578129999999999,-0.214853,0.58197,-0.4288499999999999,0.117237,0.4170899999999999,-0.2764379999999999,0.205647,0.5746100000000001,-0.45172,-0.236483,0.73309,-0.6144099999999999,0.228927,0.74163,-0.64398,-0.0769459999999999,-0.00158,-6.999999999998674e-05,0.0769459999999999,0.0015799999999999,7.00000000000145e-05,-0.1461029999999999,-0.1093899999999999,-0.34199,0.138637,-0.10208,-0.34502,-0.134303,-0.47621,-0.2785339999999999,0.108247,-0.46215,-0.290162,1
79,0.0020225,0.609715,-0.286428,-0.1360945,0.414605,-0.262813,-0.2152645,0.5735049999999999,-0.43709,0.1154755,0.413415,-0.280952,0.2050255,0.565635,-0.45731,-0.2359045,0.724375,-0.62618,0.2269355,0.7307049999999999,-0.6543100000000001,-0.0772475,-0.001375,0.00026,0.0772475,0.001375,-0.00026,-0.1465845,-0.097015,-0.34472,0.1392755,-0.090565,-0.34845,-0.1334845,-0.462725,-0.280551,0.1090455,-0.447965,-0.292072,1
80,0.002759,0.60556,-0.291039,-0.1356109999999999,0.41237,-0.267269,-0.215691,0.56646,-0.445055,0.113889,0.41035,-0.284745,0.204589,0.55826,-0.4620849999999999,-0.235151,0.71374,-0.637945,0.225069,0.72029,-0.6633450000000001,-0.077558,-0.0010999999999999,0.000475,0.077558,0.0010999999999999,-0.000475,-0.1469909999999999,-0.08444,-0.346735,0.139969,-0.07855,-0.350935,-0.132961,-0.44881,-0.2823799999999999,0.109509,-0.43344,-0.292583,1
81,0.0032359999999999,0.5999000000000001,-0.294691,-0.135298,0.40877,-0.271465,-0.216418,0.5581900000000001,-0.45254,0.1114119999999999,0.406549,-0.288209,0.2043519999999999,0.5504500000000001,-0.46752,-0.234078,0.70391,-0.64735,0.223332,0.70888,-0.67134,-0.077953,-0.0010099999999999,0.0007699999999999,0.077953,0.00101,-0.0007699999999999,-0.147658,-0.0713499999999999,-0.34834,0.140622,-0.0657799999999999,-0.3528,-0.132598,-0.4342899999999999,-0.284177,0.109872,-0.4183599999999999,-0.2935419999999999,1
82,0.0034045,0.5946100000000001,-0.297764,-0.1347075,0.406006,-0.274999,-0.2170775,0.54944,-0.45854,0.1091125,0.403388,-0.291142,0.2044125,0.5448,-0.47215,-0.2332475,0.69489,-0.65828,0.2219625,0.69949,-0.6781699999999999,-0.0783555,-0.0008499999999999,0.0010499999999999,0.0783555,0.00085,-0.00105,-0.1481675,-0.0579399999999999,-0.34965,0.1414525,-0.0526399999999999,-0.35406,-0.1322974999999999,-0.41964,-0.285908,0.1104225,-0.40317,-0.293819,1
83,0.0033799999999999,0.59048,-0.3002269999999999,-0.13376,0.40302,-0.2780269999999999,-0.2173399999999999,0.54248,-0.4642949999999999,0.10708,0.4009479999999999,-0.293697,0.20493,0.5395099999999999,-0.476255,-0.2321099999999999,0.68577,-0.667685,0.22092,0.69143,-0.684105,-0.078607,-0.0008199999999999,0.001045,0.078607,0.0008199999999999,-0.0010449999999999,-0.1485,-0.0446,-0.3509649999999999,0.14248,-0.03947,-0.3552949999999999,-0.13174,-0.40502,-0.287512,0.11117,-0.3882899999999999,-0.2938269999999999,1
84,0.0031805,0.58762,-0.302632,-0.1327665,0.401116,-0.280339,-0.2175264999999999,0.53619,-0.468975,0.1050035,0.399456,-0.2960129999999999,0.2055635,0.5345300000000001,-0.479865,-0.2309565,0.67669,-0.674235,0.2200435,0.6853500000000001,-0.689015,-0.0788315,-0.0007599999999999,0.0010449999999999,0.0788315,0.00076,-0.0010449999999999,-0.1487264999999999,-0.0325499999999999,-0.352535,0.1435935,-0.0277399999999999,-0.356915,-0.1309465,-0.39193,-0.28916,0.1118235,-0.3752399999999999,-0.293904,1
85,0.002986,0.5851000000000001,-0.30462,-0.131628,0.399717,-0.282537,-0.2174579999999999,0.53066,-0.473195,0.103492,0.398291,-0.298114,0.206532,0.53074,-0.482545,-0.229628,0.66879,-0.679895,0.219112,0.68089,-0.692775,-0.079053,-0.0005999999999999,0.001055,0.079053,0.0006,-0.001055,-0.148938,-0.0204599999999999,-0.354265,0.144722,-0.0166099999999999,-0.358905,-0.130278,-0.37942,-0.290334,0.112402,-0.36319,-0.294018,1
86,0.0027154999999999,0.583155,-0.306201,-0.1305215,0.3986429999999999,-0.284779,-0.2171415,0.5264949999999999,-0.47619,0.1035485,0.3974379999999999,-0.299583,0.2076185,0.5284249999999999,-0.48482,-0.2285215,0.663075,-0.6836599999999999,0.2181885,0.677565,-0.69465,-0.0792735,-0.000325,0.00141,0.0792735,0.0003249999999999,-0.0014099999999999,-0.1490615,-0.007895,-0.3555399999999999,0.1457385,-0.004515,-0.3603999999999999,-0.1296115,-0.366565,-0.2912099999999999,0.1129785,-0.350315,-0.2926809999999999,1
87,0.002555,0.5815600000000001,-0.306709,-0.12933,0.397732,-0.286383,-0.21636,0.52332,-0.47798,0.10397,0.39616,-0.300316,0.20881,0.5268900000000001,-0.486,-0.22733,0.65891,-0.68518,0.21781,0.67516,-0.6954100000000001,-0.079423,-0.0001599999999999,0.0018099999999999,0.079423,0.0001599999999999,-0.00181,-0.14906,0.00506,-0.35592,0.14694,0.0085999999999999,-0.36107,-0.12886,-0.35421,-0.291259,0.11371,-0.3371699999999999,-0.29066,1
88,0.0018185,0.58103,-0.306425,-0.1284954999999999,0.39831,-0.287154,-0.2161254999999999,0.52185,-0.4796,0.1040345,0.397602,-0.3008079999999999,0.2095044999999999,0.52717,-0.4865899999999999,-0.2267055,0.65883,-0.6853,0.2175445,0.67515,-0.69464,-0.0794445,-0.00039,0.0022399999999999,0.0794445,0.00039,-0.0022399999999999,-0.1494054999999999,0.0153,-0.3559799999999999,0.1475645,0.01899,-0.36148,-0.1287154999999999,-0.34471,-0.291323,0.1137545,-0.3272099999999999,-0.2886539999999999,1
89,0.0010625,0.57904,-0.3054179999999999,-0.1271785,0.397204,-0.287372,-0.2157784999999999,0.52019,-0.480145,0.1039515,0.39769,-0.300904,0.2101015,0.52712,-0.486665,-0.2263285,0.6587000000000001,-0.684165,0.2174215,0.6755,-0.693505,-0.0793865,-0.00056,0.002585,0.0793865,0.00056,-0.002585,-0.1497885,0.02509,-0.3558949999999999,0.1480715,0.02865,-0.361585,-0.1288485,-0.33584,-0.29098,0.1139415,-0.3174099999999999,-0.286064,1
90,0.00034,0.57883,-0.30417,-0.12595,0.396731,-0.286791,-0.2154599999999999,0.519323,-0.47948,0.10436,0.3984729999999999,-0.300152,0.21073,0.52755,-0.4853699999999999,-0.22608,0.65886,-0.68296,0.21733,0.67706,-0.6922200000000001,-0.079276,-0.00064,0.00292,0.079276,0.0006399999999999,-0.00292,-0.14997,0.0328299999999999,-0.35529,0.14854,0.03637,-0.36118,-0.12904,-0.32904,-0.29064,0.11427,-0.31008,-0.285,1
91,0.0001594999999999,0.5791200000000001,-0.302943,-0.1250005,0.39663,-0.285836,-0.2153304999999999,0.520198,-0.4782499999999999,0.1047495,0.399483,-0.2990669999999999,0.2116595,0.528784,-0.48414,-0.2260005,0.6604800000000001,-0.68138,0.2173395,0.67917,-0.69035,-0.0791685,-0.0005199999999999,0.00312,0.0791685,0.00052,-0.00312,-0.1501205,0.03914,-0.3545,0.1490195,0.04303,-0.36065,-0.1285705,-0.3230799999999999,-0.288528,0.1141895,-0.30408,-0.283729,1
92,0.0005904999999999,0.58,-0.302033,-0.1240765,0.397059,-0.285018,-0.2151565,0.521873,-0.47735,0.1052135,0.400103,-0.298157,0.2126635,0.5305139999999999,-0.48323,-0.2256565,0.663,-0.68047,0.2177935,0.68174,-0.68867,-0.0790675,-0.00023,0.0033299999999999,0.0790675,0.0002299999999999,-0.0033299999999999,-0.1501465,0.0441599999999999,-0.35412,0.1495535,0.0483299999999999,-0.36017,-0.1289265,-0.31795,-0.288095,0.1141835,-0.29968,-0.283547,1
93,0.0010039999999999,0.5816250000000001,-0.301548,-0.123373,0.397517,-0.284531,-0.215033,0.524086,-0.475815,0.105847,0.400653,-0.297671,0.2135369999999999,0.53273,-0.482255,-0.225503,0.6658649999999999,-0.679485,0.2182069999999999,0.684895,-0.6878249999999999,-0.078901,1.4999999999987246e-05,0.003405,0.078901,-1.4999999999987246e-05,-0.0034049999999999,-0.150133,0.0476349999999999,-0.354095,0.150007,0.0519049999999999,-0.359915,-0.129773,-0.314445,-0.28847,0.114207,-0.2970649999999999,-0.283973,1
94,0.0011409999999999,0.582995,-0.30047,-0.123263,0.398887,-0.283943,-0.215073,0.525456,-0.47414,0.106297,0.402023,-0.2970939999999999,0.214237,0.5341,-0.48083,-0.225723,0.667235,-0.67808,0.218337,0.686265,-0.68599,-0.078708,0.000165,0.00317,0.078708,-0.0001649999999999,-0.00317,-0.150423,0.048975,-0.35448,0.150197,0.053275,-0.3599,-0.130873,-0.313075,-0.287902,0.113957,-0.2963949999999999,-0.284623,1
95,0.0011729999999999,0.582995,-0.299306,-0.1234359999999999,0.398887,-0.283505,-0.215216,0.525456,-0.47214,0.1068639999999999,0.402023,-0.296631,0.215084,0.5341,-0.47928,-0.226216,0.667235,-0.67619,0.218464,0.686265,-0.68373,-0.078661,0.000165,0.00295,0.078661,-0.0001649999999999,-0.00295,-0.150756,0.048975,-0.3549,0.150334,0.053275,-0.36012,-0.131976,-0.312925,-0.287568,0.113924,-0.2970049999999999,-0.284947,1
96,0.0015104999999999,0.582995,-0.2980859999999999,-0.1234375,0.398887,-0.283262,-0.2149675,0.525456,-0.470195,0.1074825,0.402023,-0.29592,0.2160025,0.5341,-0.477305,-0.2268975,0.667235,-0.673665,0.2190025,0.686265,-0.6810350000000001,-0.0786595,0.000165,0.002725,0.0786595,-0.0001649999999999,-0.002725,-0.1509775,0.048975,-0.355175,0.1504625,0.053275,-0.3603849999999999,-0.1330775,-0.312605,-0.2873489999999999,0.1135225,-0.2973749999999999,-0.284166,1
97,0.0017694999999999,0.5837950000000001,-0.296913,-0.1235225,0.398949,-0.2824149999999999,-0.2147625,0.5280790000000001,-0.468015,0.1083174999999999,0.402984,-0.294855,0.2167175,0.535181,-0.475745,-0.2277225,0.668765,-0.670355,0.2198475,0.687435,-0.677805,-0.0785744999999999,0.000165,0.002555,0.0785744999999999,-0.0001649999999999,-0.002555,-0.1510525,0.049385,-0.355295,0.1507075,0.052975,-0.360315,-0.1340925,-0.3122549999999999,-0.286638,0.1131175,-0.297265,-0.283184,1
98,0.0023265,0.587185,-0.29591,-0.1235825,0.401103,-0.281047,-0.2151325,0.531347,-0.465575,0.1092275,0.404833,-0.293697,0.2178574999999999,0.538391,-0.473525,-0.2284625,0.671115,-0.667395,0.2210675,0.691805,-0.675845,-0.0784545,0.0005749999999999,0.002595,0.0784545,-0.0005749999999999,-0.0025949999999999,-0.1510425,0.047995,-0.355255,0.1509975,0.050605,-0.360175,-0.1351325,-0.313345,-0.286383,0.1127275,-0.298595,-0.282601,1
99,0.0026299999999999,0.59003,-0.29435,-0.124108,0.401197,-0.279484,-0.215408,0.535949,-0.462435,0.1102419999999999,0.404524,-0.292218,0.218642,0.5414300000000001,-0.471055,-0.2294379999999999,0.6733,-0.664435,0.222132,0.69603,-0.673155,-0.078337,0.00056,0.002595,0.078337,-0.0005599999999999,-0.0025949999999999,-0.151188,0.04387,-0.355045,0.150602,0.04535,-0.359565,-0.135898,-0.3168999999999999,-0.285832,0.112262,-0.3028799999999999,-0.282392,1
100,0.0028604999999999,0.59477,-0.292902,-0.1245895,0.402725,-0.277441,-0.2158395,0.54044,-0.4589299999999999,0.1113605,0.404669,-0.290723,0.2198005,0.5465099999999999,-0.46853,-0.2306395,0.6799299999999999,-0.66048,0.2236505,0.70201,-0.67029,-0.0782085,0.0007499999999999,0.00259,0.0782085,-0.00075,-0.00259,-0.1513295,0.0369599999999999,-0.35479,0.1500505,0.0383999999999999,-0.35894,-0.1367095,-0.32275,-0.285206,0.1119605,-0.30937,-0.282235,1
101,0.003221,0.601495,-0.290909,-0.125444,0.405887,-0.27487,-0.216154,0.547295,-0.454495,0.112916,0.40642,-0.288565,0.220986,0.551365,-0.4654049999999999,-0.231814,0.6875249999999999,-0.655685,0.225416,0.709085,-0.666185,-0.0780309999999999,0.0009549999999999,0.0023549999999999,0.0780309999999999,-0.000955,-0.0023549999999999,-0.151524,0.0268749999999999,-0.354805,0.149606,0.0280449999999999,-0.358345,-0.137204,-0.331785,-0.283988,0.111566,-0.319725,-0.282828,1
102,0.0041744999999999,0.60985,-0.288427,-0.1261025,0.409498,-0.271497,-0.2160025,0.55598,-0.44912,0.1160674999999999,0.409728,-0.285456,0.2224175,0.55822,-0.46123,-0.2324225,0.69823,-0.6508400000000001,0.2291475,0.7181,-0.6607700000000001,-0.0778055,0.00102,0.0019899999999999,0.0778055,-0.0010199999999999,-0.00199,-0.1510925,0.01233,-0.3547,0.1492575,0.01319,-0.35759,-0.1374225,-0.34526,-0.282844,0.1113975,-0.33458,-0.28274,1
103,0.005394,0.616665,-0.285043,-0.126144,0.41312,-0.26777,-0.215434,0.564175,-0.444415,0.119586,0.4119899999999999,-0.281934,0.224346,0.564245,-0.456375,-0.232724,0.707185,-0.6432249999999999,0.233226,0.7254149999999999,-0.654325,-0.07761,0.0009449999999999,0.0016049999999999,0.07761,-0.000945,-0.001605,-0.150364,-0.004605,-0.353815,0.149156,-0.004205,-0.356625,-0.137204,-0.3618950000000001,-0.281158,0.111636,-0.351785,-0.282227,1
104,0.0058965,0.623675,-0.281103,-0.1265455,0.416848,-0.2633999999999999,-0.2153254999999999,0.572005,-0.439115,0.1225745,0.415441,-0.277537,0.2255345,0.570785,-0.4510849999999999,-0.2337955,0.714615,-0.633685,0.2372745,0.7339450000000001,-0.646945,-0.0772325,0.0006749999999999,0.001155,0.0772325,-0.0006749999999999,-0.0011549999999999,-0.1498255,-0.0234949999999999,-0.352325,0.1484845,-0.0231049999999999,-0.355005,-0.1371155,-0.3811349999999999,-0.2789029999999999,0.1114745,-0.371245,-0.281211,1
105,0.006312,0.630565,-0.276408,-0.127026,0.421335,-0.258171,-0.214996,0.5787450000000001,-0.43185,0.125554,0.418578,-0.272227,0.226594,0.577975,-0.44514,-0.2348259999999999,0.7229350000000001,-0.62317,0.240894,0.7426550000000001,-0.63888,-0.077015,0.000715,0.0006999999999999,0.077015,-0.0007149999999999,-0.0007,-0.149356,-0.0439349999999999,-0.35017,0.147534,-0.0435749999999999,-0.35262,-0.137226,-0.402045,-0.276393,0.111024,-0.3922449999999999,-0.279056,1
106,0.0067265,0.63693,-0.2707239999999999,-0.1275495,0.42602,-0.2531049999999999,-0.2143495,0.5869,-0.42449,0.1277505,0.418036,-0.267097,0.2278804999999999,0.58721,-0.43871,-0.2358095,0.7371800000000001,-0.61189,0.2441104999999999,0.75305,-0.63074,-0.0769545,0.00112,0.00025,0.0769545,-0.0011199999999999,-0.00025,-0.1488795,-0.0639399999999999,-0.34778,0.1462905,-0.0636599999999999,-0.34979,-0.1377095,-0.4228999999999999,-0.274013,0.1107205,-0.41308,-0.277112,1
107,0.007353,0.64457,-0.263158,-0.12783,0.43183,-0.245826,-0.21349,0.59724,-0.41547,0.13027,0.42253,-0.259687,0.22948,0.59658,-0.42939,-0.23612,0.7524500000000001,-0.59955,0.24763,0.7654799999999999,-0.61885,-0.076998,0.00073,7.999999999999674e-05,0.076998,-0.00073,-7.999999999999674e-05,-0.1480199999999999,-0.08594,-0.34333,0.14487,-0.08627,-0.34471,-0.13766,-0.44731,-0.269531,0.11076,-0.43694,-0.273421,1
108,0.008038,0.651695,-0.255133,-0.127954,0.437685,-0.237932,-0.212564,0.605375,-0.40556,0.1325859999999999,0.427675,-0.251808,0.231296,0.6052649999999999,-0.41936,-0.236394,0.7664150000000001,-0.5857399999999999,0.251136,0.776555,-0.60622,-0.076916,0.000975,-0.00015,0.076916,-0.000975,0.0001499999999999,-0.147034,-0.1073549999999999,-0.33751,0.143426,-0.108275,-0.33868,-0.137474,-0.471855,-0.264352,0.1108359999999999,-0.461265,-0.268974,1
109,0.0088369999999999,0.659535,-0.244784,-0.127916,0.443175,-0.228739,-0.211966,0.616645,-0.39285,0.134674,0.432615,-0.242532,0.2325839999999999,0.614255,-0.4077,-0.237266,0.776535,-0.5679,0.254224,0.7903249999999999,-0.58975,-0.076915,0.001125,-0.0002699999999999,0.076915,-0.0011249999999999,0.0002699999999999,-0.146026,-0.1289949999999999,-0.3298999999999999,0.141544,-0.1305549999999999,-0.33057,-0.137496,-0.4971349999999999,-0.257612,0.110774,-0.486945,-0.263185,1
110,0.0102644999999999,0.666385,-0.2322789999999999,-0.1273385,0.449805,-0.217131,-0.2120585,0.624665,-0.3760449999999999,0.1370114999999999,0.438315,-0.231067,0.2342215,0.624775,-0.393395,-0.2379885,0.7941250000000001,-0.548805,0.2574815,0.803875,-0.571555,-0.0769135,0.001175,-0.0002649999999999,0.0769135,-0.001175,0.000265,-0.1443485,-0.1514049999999999,-0.320215,0.1400315,-0.152705,-0.320575,-0.1371385,-0.523405,-0.248637,0.1110915,-0.5137849999999999,-0.25569,1
111,0.011411,0.67353,-0.219192,-0.126937,0.45613,-0.205101,-0.211597,0.63104,-0.35828,0.138003,0.44232,-0.21952,0.235843,0.63455,-0.37911,-0.238167,0.8069200000000001,-0.52711,0.259073,0.81654,-0.5528500000000001,-0.076814,0.00142,-0.00013,0.076814,-0.00142,0.0001299999999999,-0.142707,-0.1704399999999999,-0.3099,0.138863,-0.1714999999999999,-0.31045,-0.136827,-0.5457700000000001,-0.239047,0.111353,-0.5373399999999999,-0.247826,1
112,0.0124135,0.6817500000000001,-0.203817,-0.1263945,0.46421,-0.190612,-0.2110545,0.63859,-0.337515,0.1395655,0.44984,-0.205441,0.2380155,0.64514,-0.361475,-0.2389345,0.8225199999999999,-0.5051650000000001,0.2606955,0.8325800000000001,-0.532815,-0.0764355,0.00143,0.000225,0.0764355,-0.0014299999999999,-0.000225,-0.1409345,-0.19088,-0.297825,0.1377655,-0.19112,-0.298025,-0.1366845,-0.5694699999999999,-0.22792,0.1114555,-0.5620099999999999,-0.23873,1
113,0.0132915,0.68906,-0.188462,-0.1259295,0.47121,-0.17626,-0.2108295,0.64669,-0.31624,0.1410505,0.45558,-0.191709,0.2399804999999999,0.6542000000000001,-0.34344,-0.2396695,0.83917,-0.4847,0.2615105,0.84582,-0.51278,-0.0759535,0.00168,0.0005299999999999,0.0759535,-0.0016799999999999,-0.00053,-0.1390295,-0.2091699999999999,-0.28556,0.1367905,-0.20932,-0.28547,-0.1365595,-0.591,-0.216756,0.1115405,-0.5848199999999999,-0.229622,1
114,0.0142725,0.6977,-0.17325,-0.1254175,0.47696,-0.162314,-0.2105075,0.65627,-0.29669,0.1424825,0.46108,-0.178393,0.2416025,0.66227,-0.3254,-0.2404375,0.8535699999999999,-0.46283,0.2623925,0.85771,-0.49191,-0.0753785,0.0016,0.0009199999999999,0.0753785,-0.0016,-0.00092,-0.1369975,-0.22557,-0.27308,0.1359625,-0.22594,-0.27302,-0.1364075,-0.61042,-0.20586,0.1118525,-0.60597,-0.220214,1
115,0.0152585,0.705784,-0.1567069999999999,-0.1248055,0.482074,-0.1464389999999999,-0.2102554999999999,0.664554,-0.275055,0.1439345,0.4684339999999999,-0.163066,0.2435645,0.668944,-0.3048349999999999,-0.2409755,0.8633339999999999,-0.4391649999999999,0.2634944999999999,0.869524,-0.468055,-0.0747415,0.0013159999999999,0.001305,0.0747415,-0.0013159999999999,-0.001305,-0.1345555,-0.242186,-0.258905,0.1351845,-0.243106,-0.258985,-0.1358255,-0.630146,-0.19355,0.1125545,-0.627736,-0.209223,1
116,0.015864,0.7120165,-0.141147,-0.12522,0.4851865,-0.132163,-0.21078,0.6711065,-0.25319,0.1448499999999999,0.4719665,-0.148924,0.24461,0.6754765,-0.28668,-0.2413199999999999,0.8718465,-0.41529,0.26435,0.8778465,-0.44571,-0.074128,0.0017605,0.0014399999999999,0.074128,-0.0017604999999999,-0.0014399999999999,-0.1325,-0.2623735,-0.2453499999999999,0.13428,-0.2634134999999999,-0.24602,-0.1357999999999999,-0.6497234999999999,-0.182465,0.11288,-0.6480535000000001,-0.199153,1
117,0.0163169999999999,0.7204005,-0.124639,-0.125813,0.4888705,-0.117375,-0.211413,0.6798005,-0.231225,0.145557,0.4767004999999999,-0.1338929999999999,0.245457,0.6843005,-0.266725,-0.242273,0.8828005000000001,-0.389015,0.265007,0.8887105,-0.420185,-0.073666,0.0017784999999999,0.0019649999999999,0.073666,-0.0017785,-0.0019649999999999,-0.130823,-0.2809795,-0.2313049999999999,0.133257,-0.2820195,-0.232565,-0.136023,-0.6676795,-0.170922,0.1132469999999999,-0.6666595,-0.188456,1
118,0.016236,0.725717,-0.1045764999999999,-0.1267329999999999,0.4917169999999999,-0.0984144999999999,-0.212443,0.684927,-0.2068725,0.145877,0.478657,-0.1150554999999999,0.245917,0.690257,-0.2424224999999999,-0.243283,0.8924869999999999,-0.3613425,0.265127,0.8942669999999999,-0.3921225,-0.073216,0.0020029999999999,0.0023155,0.073216,-0.002003,-0.0023154999999999,-0.1298929999999999,-0.297783,-0.2127525,0.131927,-0.2988229999999999,-0.2146325,-0.136543,-0.6844830000000001,-0.1562465,0.113337,-0.6836030000000001,-0.1736585,1
119,0.0160209999999999,0.7296145,-0.0850104999999999,-0.127568,0.4951845,-0.0801035,-0.213298,0.6923845000000001,-0.1848125,0.146522,0.4823945,-0.0967195,0.246692,0.6969345,-0.2187124999999999,-0.243558,0.8997845,-0.3335025,0.265532,0.8992445,-0.3625625,-0.072848,0.0022024999999999,0.0024264999999999,0.072848,-0.0022024999999999,-0.0024264999999999,-0.128688,-0.3127054999999999,-0.1922225,0.129632,-0.3166555,-0.1935225,-0.136868,-0.6994055,-0.1422435,0.113732,-0.6991755,-0.1592545,1
120,0.0155594999999999,0.7319225,-0.0659064999999999,-0.1285255,0.4979225,-0.0625265,-0.2143055,0.6999125,-0.1639855,0.1469345,0.4854825,-0.0789584999999999,0.2474645,0.7031225,-0.1954624999999999,-0.2439855,0.9078725,-0.3075925,0.2658644999999999,0.9041825,-0.3336525,-0.0723235,0.0023235,0.0025435,0.0723235,-0.0023234999999999,-0.0025434999999999,-0.1279855,-0.3268875,-0.1720625,0.1273844999999999,-0.3342974999999999,-0.1725525,-0.1373855,-0.7134475,-0.1285265,0.1139245,-0.7140175,-0.1449535,1
121,0.0153125,0.73383,-0.0495689999999999,-0.1291045,0.4985199999999999,-0.0474239999999999,-0.2154444999999999,0.70619,-0.146034,0.1469555,0.48564,-0.0638219999999999,0.2477255,0.7083,-0.175567,-0.2440544999999999,0.91306,-0.283437,0.2663454999999999,0.9063,-0.306637,-0.0720875,0.002604,0.002461,0.0720875,-0.0026039999999999,-0.0024609999999999,-0.1271145,-0.33875,-0.153357,0.1254755,-0.34907,-0.1534869999999999,-0.1375745,-0.72367,-0.11637,0.1143655,-0.72534,-0.1319219999999999,1
122,0.01509,0.7353175,-0.033349,-0.129872,0.5008575,-0.0319039999999999,-0.217102,0.7138074999999999,-0.129346,0.147078,0.4876275,-0.0482509999999999,0.248018,0.7149975,-0.156179,-0.244742,0.9177275,-0.258759,0.266908,0.9101375,-0.280099,-0.071966,0.0027875,0.002385,0.071966,-0.0027875,-0.0023849999999999,-0.126362,-0.3504025,-0.134757,0.123318,-0.3644325,-0.1341,-0.137672,-0.7339625000000001,-0.10413,0.114838,-0.7368525,-0.119197,1
123,0.0149144999999999,0.735013,-0.0173299999999999,-0.1306495,0.503553,-0.0166339999999999,-0.2185695,0.7201930000000001,-0.1129429999999999,0.1473205,0.490033,-0.032949,0.2483905,0.7213430000000001,-0.137378,-0.2453094999999999,0.923063,-0.236028,0.2675404999999999,0.914373,-0.254538,-0.0719585,0.003038,0.002169,0.0719585,-0.003038,-0.0021689999999999,-0.1256395,-0.361437,-0.116546,0.1211005,-0.379517,-0.1146129999999999,-0.1376595,-0.744707,-0.0923269999999999,0.1151905,-0.747347,-0.1062589999999999,1
124,0.0148399999999999,0.734712,-0.0037144999999999,-0.131562,0.505442,-0.0038464999999999,-0.2198719999999999,0.7252419999999999,-0.0984215,0.147638,0.4918519999999999,-0.0201455,0.248328,0.726712,-0.1210535,-0.245642,0.927392,-0.2156135,0.268228,0.917962,-0.2317735,-0.071984,0.003168,0.0020605,0.071984,-0.003168,-0.0020605,-0.125062,-0.368778,-0.1000815,0.119118,-0.391808,-0.0963515,-0.137582,-0.750838,-0.0814925,0.115488,-0.755198,-0.0949785,1
125,0.0147585,0.7333495000000001,0.0097749999999999,-0.1326085,0.5069295,0.00881,-0.2200785,0.7295495000000001,-0.084592,0.1479015,0.4925194999999999,-0.007826,0.2480415,0.7313095000000001,-0.104673,-0.2458785,0.9314295,-0.1953639999999999,0.2688615,0.9209595,-0.2089339999999999,-0.0721084999999999,0.0033305,0.0018519999999999,0.0721084999999999,-0.0033305,-0.001852,-0.1246285,-0.3765405,-0.083572,0.1170315,-0.4041905,-0.077865,-0.1375085,-0.7573205000000001,-0.0703,0.1158714999999999,-0.7629805000000001,-0.082983,1
126,0.0147375,0.7310055,0.0217995,-0.1336515,0.5091855,0.0207615,-0.2213215,0.7326155,-0.0717505,0.1481185,0.4927955,0.0034905,0.2477384999999999,0.7344354999999999,-0.0897854999999999,-0.2465615,0.9346555,-0.1774815,0.2699685,0.9227655,-0.1887714999999999,-0.0721614999999999,0.0035635,0.0016745,0.0721614999999999,-0.0035634999999999,-0.0016744999999999,-0.1241414999999999,-0.3842744999999999,-0.0674015,0.1149784999999999,-0.4162145,-0.0599325,-0.1372815,-0.7638245,-0.0599354999999999,0.1161484999999999,-0.7704045,-0.0715504999999999,1
127,0.0146985,0.729744,0.028834,-0.1348135,0.510554,0.027726,-0.2227434999999999,0.7360439999999999,-0.063004,0.1483165,0.493444,0.010398,0.2482665,0.738144,-0.079949,-0.2467035,0.939594,-0.164965,0.2710965,0.925544,-0.1739949999999999,-0.0722275,0.0036389999999999,0.001494,0.0722275,-0.003639,-0.001494,-0.1237035,-0.392416,-0.05543,0.1130665,-0.428366,-0.046429,-0.1368535,-0.770646,-0.052027,0.1166165,-0.777996,-0.064388,1
128,0.014753,0.7291445,0.034545,-0.135287,0.5100345,0.033434,-0.224047,0.7379545,-0.0553069999999999,0.148343,0.4919544999999999,0.016109,0.248583,0.7394645,-0.0718579999999999,-0.246707,0.9403645,-0.153564,0.272503,0.9281845,-0.162464,-0.072433,0.0037625,0.001327,0.072433,-0.0037624999999999,-0.0013269999999999,-0.123637,-0.3970155,-0.046725,0.112583,-0.4329655,-0.0374759999999999,-0.136317,-0.7752455,-0.0443,0.116993,-0.7825955,-0.0579289999999999,1
129,0.0149155,0.7284435,0.040136,-0.1355825,0.5096935,0.039022,-0.2251425,0.7398235,-0.047876,0.1485375,0.4908635,0.0217,0.2489275,0.7403735,-0.06402,-0.2466525,0.9411835,-0.142833,0.2740775,0.9298835,-0.151713,-0.0726575,0.0039025,0.001113,0.0726575,-0.0039024999999999,-0.0011129999999999,-0.1234325,-0.4011265,-0.038414,0.1122775,-0.4370765,-0.028877,-0.1355225,-0.7793565,-0.036299,0.1172475,-0.7867065,-0.051751,1
130,0.0151505,0.7281775,0.0453885,-0.1357055,0.5093775,0.0442735,-0.2260255,0.7407575,-0.0412195,0.1488645,0.4900474999999999,0.0269535,0.2493945,0.7410375,-0.0568985,-0.2464955,0.9417675,-0.1335795,0.2757345,0.9311575,-0.1419295,-0.0730135,0.0040185,0.0009855,0.0730135,-0.0040185,-0.0009855,-0.1231155,-0.4048025,-0.0308715,0.1121745,-0.4407525,-0.0211255,-0.1346655,-0.7830325,-0.0287505,0.1176244999999999,-0.7903825,-0.0459395,1
131,0.015462,0.7280725,0.050328,-0.135604,0.5082425,0.0491869999999999,-0.2263939999999999,0.7394825,-0.035693,0.149106,0.4881824999999999,0.031659,0.249916,0.7406925,-0.050558,-0.246894,0.9418325,-0.125952,0.277186,0.9316825,-0.133192,-0.073353,0.0040954999999999,0.0008979999999999,0.073353,-0.0040955,-0.000898,-0.1228139999999999,-0.4032975,-0.024114,0.112176,-0.4404375,-0.01434,-0.133574,-0.7829375,-0.021601,0.118296,-0.7914875,-0.040482,1
132,0.015833,0.7277605,0.0547295,-0.135382,0.5071505000000001,0.0538125,-0.226652,0.7367805000000001,-0.0300524999999999,0.149448,0.4865505,0.0361925,0.250508,0.7379905,-0.0441695,-0.247352,0.9411805,-0.1199685,0.278758,0.9293405,-0.1245785,-0.07361,0.0041365,0.0008725,0.07361,-0.0041365,-0.0008724999999999,-0.122452,-0.4016295,-0.0179374999999999,0.112358,-0.4397295,-0.0082505,-0.132482,-0.7825394999999999,-0.0145334999999999,0.119008,-0.7921294999999999,-0.0351314999999999,1
133,0.016082,0.7275535,0.058084,-0.1351959999999999,0.5062234999999999,0.057983,-0.227016,0.7344535000000001,-0.0250069999999999,0.149874,0.4854435,0.040388,0.251194,0.7356635,-0.0382569999999999,-0.248016,0.9391535,-0.11531,0.2804439999999999,0.9277035,-0.11789,-0.0737269999999999,0.0041624999999999,0.000827,0.0737269999999999,-0.0041624999999999,-0.000827,-0.1221859999999999,-0.3996564999999999,-0.0123769999999999,0.1125839999999999,-0.4387864999999999,-0.002935,-0.131436,-0.7818065000000001,-0.0078049999999999,0.119584,-0.7922265,-0.029969,1
134,0.0161135,0.72789,0.0598695,-0.1353985,0.50573,0.0601415,-0.2281285,0.73314,-0.0211685,0.1501114999999999,0.4851999999999999,0.0428674999999999,0.2518015,0.73435,-0.0344085,-0.2490685,0.93784,-0.1114635,0.2819815,0.92639,-0.1139135,-0.0737755,0.0041009999999999,0.0008444999999999,0.0737755,-0.004101,-0.0008445,-0.1220685,-0.39879,-0.0085315,0.1127515,-0.43759,0.0010214999999999,-0.1305885,-0.7799900000000001,-0.0020635,0.1202214999999999,-0.7910900000000001,-0.0258445,0
135,0.0160234999999999,0.72789,0.0606065,-0.1359185,0.50573,0.0612815,-0.2301085,0.73207,-0.0178685,0.1504214999999999,0.4851999999999999,0.0447075,0.2526915,0.73246,-0.0307404999999999,-0.2506585,0.93784,-0.1081705,0.2832615,0.92639,-0.1099804999999999,-0.0737585,0.0041009999999999,0.0005594999999999,0.0737585,-0.004101,-0.0005594999999999,-0.1219385,-0.39879,-0.0052195,0.1129115,-0.43759,0.0043335,-0.1302285,-0.77878,0.0024515,0.1205415,-0.79069,-0.0225305,0
136,0.015855,0.72789,0.0603454999999999,-0.136706,0.50573,0.0615575,-0.233386,0.72873,-0.0155714999999999,0.150674,0.4851999999999999,0.0461025,0.254444,0.73012,-0.0279585,-0.2527459999999999,0.93784,-0.1066535,0.284914,0.92623,-0.1071335,-0.073667,0.0041009999999999,0.0002715,0.073667,-0.004101,-0.0002715,-0.1218759999999999,-0.39879,-0.0029034999999999,0.113044,-0.43759,0.0066495,-0.129986,-0.77878,0.0047685,0.120784,-0.79069,-0.0201494999999999,0
137,0.0154134999999999,0.72789,0.0599165,-0.1377555,0.50556,0.0617765,-0.2393855,0.72312,-0.0137984999999999,0.1508845,0.48471,0.0473835,0.2581845,0.72547,-0.0255645,-0.2559355,0.9338,-0.1069615,0.2870145,0.92459,-0.1049915,-0.0735765,0.0041009999999999,8.750000000000424e-05,0.0735765,-0.004101,-8.74999999999973e-05,-0.1219755,-0.39879,-0.0009434999999999,0.1132045,-0.43759,0.0087815,-0.1297255,-0.77878,0.0069015,0.1209845,-0.79069,-0.0177404999999999,0
138,0.0149089999999999,0.7279935000000001,0.0591335,-0.139016,0.5047635,0.0615314999999999,-0.247616,0.7135935,-0.0130105,0.151314,0.4852135,0.0485294999999999,0.264004,0.7176835,-0.0234264999999999,-0.259266,0.9269735,-0.1088875,0.290564,0.9168735,-0.1037674999999999,-0.073474,0.0040624999999999,2.9500000000001747e-05,0.073474,-0.0040624999999999,-2.9500000000001747e-05,-0.1221859999999999,-0.3987565,-0.0002735,0.113214,-0.4366965,0.0102434999999999,-0.129496,-0.7777065,0.0088055,0.1212139999999999,-0.7896164999999999,-0.0156544999999999,0
139,0.014158,0.7282385,0.058521,-0.140373,0.5032584999999999,0.061012,-0.258353,0.7023885,-0.012047,0.151417,0.4861185,0.049664,0.271177,0.7059384999999999,-0.021554,-0.264453,0.9126685,-0.1107529999999999,0.2927769999999999,0.9059885,-0.102543,-0.073414,0.0039534999999999,-6.899999999999962e-05,0.073414,-0.0039535,6.899999999999962e-05,-0.1224629999999999,-0.3991915,-0.0002189999999999,0.112927,-0.4366415,0.0111069999999999,-0.129673,-0.7766715000000001,0.010186,0.120857,-0.7885415,-0.0136919999999999,0
140,0.0131475,0.7284214999999999,0.0579825,-0.1419505,0.5015915,0.0605455,-0.2709605,0.6859514999999999,-0.0109625,0.1515695,0.4874014999999999,0.0510895,0.2793195,0.6915414999999999,-0.0192014999999999,-0.2707405,0.8926815,-0.1130905,0.2937495,0.8911915,-0.1016305,-0.0733264999999999,0.0038064999999999,-2.5499999999997747e-05,0.0733264999999999,-0.0038064999999999,2.550000000000469e-05,-0.1227605,-0.3993485,-0.0002484999999999,0.1125795,-0.4365385,0.0120105,-0.1298305,-0.7757085,0.0116355,0.1204595,-0.7875785000000001,-0.0112764999999999,0
141,0.011959,0.7286735,0.057358,-0.14369,0.4993935,0.059844,-0.28359,0.6646635,-0.0084469999999999,0.15166,0.4888335,0.0525029999999999,0.29015,0.6721835,-0.01648,-0.27764,0.8678335,-0.116143,0.29461,0.8713235,-0.1010829999999999,-0.0732279999999999,0.0035864999999999,-3.700000000000231e-05,0.0732279999999999,-0.0035864999999999,3.699999999999537e-05,-0.1232,-0.3988865,-0.00028,0.11204,-0.4361365,0.012849,-0.13015,-0.7747565,0.012752,0.1199899999999999,-0.7861965,-0.008693,0
142,0.010782,0.7293385,0.056342,-0.145316,0.4968185,0.058945,-0.292696,0.6337484999999999,-0.0052369999999999,0.151914,0.4898285,0.053444,0.299364,0.6449284999999999,-0.0127859999999999,-0.284076,0.8417485,-0.118948,0.295754,0.8415785,-0.102638,-0.0732299999999999,0.0032145,-0.0002349999999999,0.0732299999999999,-0.0032145,0.0002349999999999,-0.123396,-0.3983815,-0.0001079999999999,0.111774,-0.4350314999999999,0.013847,-0.130036,-0.7730215,0.014531,0.119744,-0.7839115000000001,-0.0056309999999999,0
143,0.009885,0.7303265,0.055178,-0.146585,0.4942464999999999,0.0584699999999999,-0.297515,0.5976265,-0.001752,0.152135,0.4906665,0.054423,0.304005,0.6142065,-0.0088369999999999,-0.290105,0.7981165,-0.12413,0.296805,0.8064264999999999,-0.1047599999999999,-0.073299,0.0028074999999999,-0.000451,0.073299,-0.0028075,0.0004509999999999,-0.123675,-0.3976235,-0.000494,0.111675,-0.4335735,0.0145539999999999,-0.129655,-0.7709635,0.0165559999999999,0.119915,-0.7815635000000001,-0.002741,0
144,0.0092725,0.7317175,0.0537445,-0.1474175,0.4911374999999999,0.0573454999999999,-0.2986675,0.5585074999999999,0.0030204999999999,0.1521425,0.4909275,0.0551824999999999,0.3068025,0.5786975000000001,-0.0025855,-0.2948775,0.7449475000000001,-0.1264585,0.2983525,0.7643175,-0.1063785,-0.0733925,0.0024285,-0.0006535,0.0733925,-0.0024285,0.0006535,-0.1236375,-0.3965825,-0.0008235,0.1118125,-0.4316725,0.0147604999999999,-0.1289175,-0.7685825,0.0185064999999999,0.1202925,-0.7789425000000001,0.0004735,0
145,0.0092454999999999,0.7334510000000001,0.051912,-0.1474525,0.4875409999999999,0.055476,-0.2965225,0.517321,0.009814,0.1521875,0.4911509999999999,0.055924,0.3089375,0.5387810000000001,0.0067129999999999,-0.2965925,0.6843410000000001,-0.12236,0.3005575,0.7150610000000001,-0.10833,-0.0735335,0.0020429999999999,-0.0008409999999999,0.0735335,-0.002043,0.0008409999999999,-0.1234125,-0.395139,-0.001034,0.1123875,-0.429259,0.014286,-0.1276225,-0.7657189999999999,0.020398,0.1212075,-0.775659,0.003733,0
146,0.0104725,0.7353965,0.0491755,-0.1468134999999999,0.4835065,0.0528584999999999,-0.2939035,0.4748865,0.0180184999999999,0.1524765,0.4906264999999999,0.0564724999999999,0.3115465,0.4997065,0.0170644999999999,-0.2939535,0.6180165,-0.1182015,0.3029265,0.6602965000000001,-0.1093915,-0.0736604999999999,0.0017754999999999,-0.0011115,0.0736604999999999,-0.0017755,0.0011114999999999,-0.1229335,-0.3921834999999999,-0.0012655,0.1145065,-0.4244235,0.0123104999999999,-0.1260335,-0.7629435,0.0219324999999999,0.1238565,-0.7717235,0.0062374999999999,0
147,0.0128265,0.737643,0.045739,-0.1454885,0.479863,0.050176,-0.2908484999999999,0.433353,0.025934,0.1532415,0.4896629999999999,0.056992,0.3145814999999999,0.460993,0.0282229999999999,-0.2908785,0.544013,-0.113784,0.3058415,0.602813,-0.1081839999999999,-0.0737115,0.001593,-0.001513,0.0737115,-0.001593,0.001513,-0.1218785,-0.389287,-0.001266,0.1176315,-0.420117,0.008828,-0.1236885,-0.760277,0.0242539999999999,0.1269414999999999,-0.768187,0.0083889999999999,0
148,0.015575,0.7397615000000001,0.041315,-0.144131,0.4773415,0.047274,-0.284541,0.3896315,0.033942,0.154009,0.4882815,0.0575629999999999,0.314879,0.4252315,0.04165,-0.288181,0.4708814999999999,-0.109163,0.307119,0.5435715,-0.103573,-0.0737849999999999,0.0014294999999999,-0.0021069999999999,0.0737849999999999,-0.0014295,0.0021069999999999,-0.121161,-0.3862485,-0.001307,0.120379,-0.4157785,0.0030789999999999,-0.121761,-0.7577085,0.026523,0.129679,-0.7645284999999999,0.0101009999999999,0
149,0.017562,0.7415750000000001,0.0356615,-0.142699,0.474615,0.0432325,-0.275059,0.350085,0.0427985,0.154751,0.486355,0.0579165,0.309671,0.390835,0.0559845,-0.286249,0.393025,-0.0998665,0.307081,0.484875,-0.1003864999999999,-0.073898,0.0012859999999999,-0.0029504999999999,0.073898,-0.001286,0.0029505,-0.120779,-0.382915,-0.0012534999999999,0.122401,-0.411355,-0.0070564999999999,-0.1206289999999999,-0.755185,0.0291654999999999,0.133391,-0.760795,0.0056645,0
150,0.018571,0.7431035,0.0294419999999999,-0.141701,0.4723035,0.0392089999999999,-0.2640409999999999,0.3149235,0.0501789999999999,0.155159,0.4838035,0.0576989999999999,0.301039,0.3609935,0.069632,-0.281771,0.3176535,-0.089178,0.305519,0.4251835,-0.097548,-0.073904,0.0011754999999999,-0.003778,0.073904,-0.0011755,0.0037779999999999,-0.120831,-0.3800865,-0.001588,0.124759,-0.4049765,-0.018938,-0.120491,-0.7529265,0.032345,0.139769,-0.7567565,-0.000948,0
151,0.0189375,0.743883,0.023674,-0.1416795,0.470193,0.035447,-0.2511894999999999,0.288973,0.05704,0.1551605,0.481303,0.058163,0.2941205,0.338683,0.079076,-0.2761694999999999,0.242563,-0.07676,0.3055005,0.374323,-0.0935899999999999,-0.0739005,0.001254,-0.0044199999999999,0.0739005,-0.001254,0.00442,-0.1208295,-0.3772669999999999,-0.0014499999999999,0.1280105,-0.398207,-0.0321799999999999,-0.1211994999999999,-0.750387,0.036117,0.1493705,-0.753337,-0.0119799999999999,0
152,0.0206355,0.7440500000000001,0.0179669999999999,-0.1416625,0.46796,0.0313559999999999,-0.2357225,0.2679499999999999,0.064772,0.1551575,0.4788,0.0586079999999999,0.2934675,0.31969,0.0867179999999999,-0.2673725,0.1799899999999999,-0.062255,0.3054775,0.3276799999999999,-0.088745,-0.0738975,0.001395,-0.004925,0.0738975,-0.001395,0.0049249999999999,-0.1208424999999999,-0.37521,-0.000355,0.1332775,-0.39147,-0.0461749999999999,-0.1218525,-0.7481599999999999,0.040863,0.1631675,-0.7500699999999999,-0.027115,0
153,0.0237075,0.743644,0.0124399999999999,-0.1412204999999999,0.466104,0.0279169999999999,-0.2196705,0.251244,0.0726859999999999,0.1551495,0.476784,0.0591429999999999,0.2933595,0.308864,0.0948439999999999,-0.2572105,0.128834,-0.04716,0.3054495,0.286354,-0.08433,-0.0738935,0.0014629999999999,-0.00564,0.0738935,-0.0014629999999999,0.0056399999999999,-0.1208504999999999,-0.372736,0.0013299999999999,0.1411095,-0.384816,-0.06081,-0.1223905,-0.746026,0.0468729999999999,0.1796195,-0.745786,-0.04549,0
154,0.0289235,0.742147,0.0069699999999999,-0.1409115,0.464937,0.0261599999999999,-0.2067515,0.240307,0.0839639999999999,0.1567785,0.474477,0.0592749999999999,0.2910085,0.302867,0.1068039999999999,-0.2487615,0.089846,-0.03249,0.3048185,0.257407,-0.07598,-0.0737475,0.001701,-0.00667,0.0737475,-0.001701,0.0066699999999999,-0.1226015,-0.369243,0.0044299999999999,0.1515385,-0.377233,-0.07534,-0.1251615,-0.742973,0.0567089999999999,0.2006285,-0.737733,-0.06737,0
155,0.034642,0.739734,0.0015249999999999,-0.138923,0.4651639999999999,0.024405,-0.197353,0.2345439999999999,0.09486,0.159597,0.471464,0.058708,0.2854069999999999,0.297114,0.12025,-0.241693,0.06288,-0.0176649999999999,0.311137,0.232904,-0.0682849999999999,-0.073651,0.002462,-0.0072349999999999,0.073651,-0.0024619999999999,0.0072349999999999,-0.1260929999999999,-0.367436,0.009865,0.161107,-0.370716,-0.0877749999999999,-0.130763,-0.741166,0.069684,0.222777,-0.730056,-0.0906549999999999,0
156,0.0406025,0.7367005,-0.00368,-0.1366805,0.4659405,0.0225499999999999,-0.1907905,0.2306705,0.1030199999999999,0.1631095,0.4673805,0.0578799999999999,0.2773295,0.2917105,0.1277779999999999,-0.2355505,0.0456265,-0.00154,0.3185694999999999,0.2136405,-0.06222,-0.0735725,0.0032385,-0.00759,0.0735725,-0.0032385,0.0075899999999999,-0.1305305,-0.3666594999999999,0.0157499999999999,0.1708895,-0.3646695,-0.09896,-0.1388805,-0.7403895,0.0838949999999999,0.2441195,-0.7234295000000001,-0.11336,0
157,0.0475695,0.7340035,-0.010355,-0.1346935,0.4662234999999999,0.020595,-0.1889835,0.2309535,0.108199,0.1681765,0.4637735,0.0544349999999999,0.2751065,0.2872734999999999,0.126757,-0.2331835,0.0351935,0.0177449999999999,0.3292664999999999,0.2007035,-0.064545,-0.0734285,0.0035215,-0.007225,0.0734285,-0.0035215,0.007225,-0.1373435,-0.3653265,0.0227249999999999,0.1780165,-0.3587565,-0.107375,-0.1526934999999999,-0.7392665,0.100477,0.2617965,-0.7170765,-0.134565,0
158,0.057152,0.731311,-0.0199149999999999,-0.129624,0.4662509999999999,0.016735,-0.187228,0.230981,0.108995,0.175462,0.460821,0.045985,0.279202,0.284081,0.114607,-0.233428,0.035221,0.039935,0.343512,0.1904809999999999,-0.0734349999999999,-0.073272,0.003549,-0.006755,0.073272,-0.003549,0.006755,-0.1459079999999999,-0.362549,0.029585,0.1814819999999999,-0.354649,-0.1110149999999999,-0.173228,-0.7334689999999999,0.119149,0.269022,-0.7106089999999999,-0.145555,0
159,0.0689495,0.7278175,-0.032335,-0.1219065,0.4661875,0.009655,-0.1845804999999999,0.2308475,0.107595,0.1839094999999999,0.4575375,0.034205,0.2862495,0.2822375,0.095465,-0.2370105,0.0350875,0.059005,0.3588095,0.1866275,-0.0873849999999999,-0.0733195,0.0037595,-0.0062249999999999,0.0733195,-0.0037595,0.006225,-0.1550725,-0.3579825,0.036125,0.1805095,-0.3520425,-0.1118949999999999,-0.1960705,-0.7265824999999999,0.135665,0.2695895,-0.7044825,-0.1526349999999999,0
160,0.0811464999999999,0.7240095000000001,-0.046505,-0.1130985,0.4667195,0.000975,-0.1812544999999999,0.2319595,0.1046049999999999,0.1928264999999999,0.4541095,0.0199949999999999,0.2985965,0.2793095,0.067935,-0.2393635,0.0342695,0.0706449999999999,0.3774165,0.1817295,-0.110595,-0.0733365,0.0045825,-0.005775,0.0733365,-0.0045825,0.0057749999999999,-0.1643175,-0.3530305,0.0420649999999999,0.1777264999999999,-0.3505605,-0.111445,-0.2188135,-0.7203704999999999,0.150665,0.2651365,-0.6991704999999999,-0.155625,0
161,0.0945169999999999,0.7201275,-0.0619549999999999,-0.1033719999999999,0.4680475,-0.0085849999999999,-0.176593,0.2355074999999999,0.100245,0.202167,0.4505475,0.004385,0.314937,0.2758275,0.037795,-0.242423,0.0338025,0.078255,0.396787,0.1775175,-0.1376049999999999,-0.073237,0.0058145,-0.0054349999999999,0.073237,-0.0058145,0.005435,-0.1733009999999999,-0.3487425,0.047635,0.172947,-0.3495625,-0.1097249999999999,-0.240193,-0.7147924999999999,0.163555,0.2557469999999999,-0.6949025,-0.1542449999999999,0
162,0.11039,0.7163395,-0.0803849999999999,-0.09083,0.4696895,-0.0205449999999999,-0.169898,0.2400395,0.094845,0.21312,0.4468195,-0.0147249999999999,0.3331499999999999,0.2736395,0.001165,-0.24312,0.0374515,0.083095,0.41824,0.1731595,-0.1719049999999999,-0.07323,0.0074045,-0.0046149999999999,0.0732299999999999,-0.0074045,0.0046149999999999,-0.180542,-0.3448305,0.0523649999999999,0.1653599999999999,-0.3488805,-0.1060249999999999,-0.2587669999999999,-0.7093705,0.173655,0.2420199999999999,-0.6923005,-0.147455,0
163,0.125475,0.7127035,-0.0988649999999999,-0.077765,0.4715735,-0.032995,-0.162612,0.2450735,0.088695,0.223105,0.4434035,-0.033995,0.352705,0.2708935,-0.0381449999999999,-0.241515,0.0421735,0.083265,0.441775,0.1715635,-0.2139649999999999,-0.073225,0.0091515,-0.0034349999999999,0.0732249999999999,-0.0091515,0.003435,-0.18651,-0.3411165,0.055855,0.155775,-0.3491464999999999,-0.1019649999999999,-0.27464,-0.7048565,0.179805,0.223905,-0.6935765,-0.1371549999999999,0
164,0.14097,0.709055,-0.118015,-0.0636199999999999,0.473735,-0.046825,-0.154687,0.251335,0.0814249999999999,0.23254,0.439255,-0.053705,0.36712,0.267915,-0.075965,-0.237987,0.053203,0.0800549999999999,0.45835,0.166185,-0.2492149999999999,-0.07313,0.010984,-0.002425,0.07313,-0.010984,0.002425,-0.19074,-0.337545,0.0577849999999999,0.14637,-0.3500149999999999,-0.098425,-0.2872989999999999,-0.700615,0.182965,0.20334,-0.695605,-0.124305,0
165,0.156785,0.7048475000000001,-0.137225,-0.0499749999999999,0.4760574999999999,-0.060225,-0.144029,0.2612974999999999,0.0724649999999999,0.241725,0.4342275,-0.074025,0.379855,0.2648775,-0.111175,-0.2339599999999999,0.0635255,0.0770049999999999,0.471925,0.1637475,-0.281125,-0.0729749999999999,0.0129115,-0.001445,0.072975,-0.0129115,0.0014449999999999,-0.194045,-0.3343725,0.0594449999999999,0.136035,-0.3515825,-0.093975,-0.297792,-0.6959424999999999,0.1844549999999999,0.182685,-0.6980425,-0.110985,0
166,0.1717,0.69986,-0.15466,-0.03737,0.47813,-0.07283,-0.13466,0.26954,0.0652099999999999,0.24927,0.42795,-0.0923,0.38836,0.26099,-0.14122,-0.229072,0.070443,0.0756799999999999,0.481,0.16381,-0.30408,-0.07285,0.014594,-0.0007099999999999,0.0728499999999999,-0.014594,0.0007099999999999,-0.195397,-0.33282,0.0605999999999999,0.12728,-0.35463,-0.0896,-0.302129,-0.69312,0.18417,0.1641699999999999,-0.70133,-0.09813,0
167,0.18368,0.6957565,-0.1692099999999999,-0.0261,0.4790565,-0.08432,-0.12611,0.2771765,0.05957,0.25406,0.4229165,-0.10665,0.39471,0.2584265,-0.16324,-0.224815,0.0747855,0.07579,0.48471,0.1648464999999999,-0.3180199999999999,-0.0726699999999999,0.0157755,0.00035,0.07267,-0.0157755,-0.00035,-0.1954429999999999,-0.3329335,0.0622499999999999,0.11919,-0.3573035,-0.08505,-0.3009719999999999,-0.6938835,0.18264,0.15082,-0.7045235,-0.08842,0
168,0.19265,0.6924159999999999,-0.180785,-0.018,0.479466,-0.092425,-0.1197099999999999,0.284786,0.0557649999999999,0.25694,0.418576,-0.117585,0.39949,0.255746,-0.180675,-0.2216479999999999,0.078643,0.0768849999999999,0.48617,0.167756,-0.327025,-0.07235,0.016718,0.0014649999999999,0.07235,-0.016718,-0.001465,-0.195797,-0.333574,0.0648249999999999,0.1127199999999999,-0.3590939999999999,-0.081365,-0.2969759999999999,-0.693744,0.1830449999999999,0.1395,-0.7069040000000001,-0.079845,0
169,0.200805,0.689735,-0.191105,-0.010425,0.479775,-0.099295,-0.114275,0.291985,0.0528649999999999,0.2595649999999999,0.415415,-0.126985,0.401745,0.2532649999999999,-0.192705,-0.219556,0.083497,0.0798649999999999,0.4842349999999999,0.168515,-0.328105,-0.071975,0.017484,0.0027549999999999,0.0719749999999999,-0.017484,-0.002755,-0.196295,-0.333855,0.0677449999999999,0.105375,-0.359985,-0.077205,-0.291253,-0.689735,0.1844749999999999,0.128085,-0.708475,-0.071195,0
170,0.20748,0.6861685,-0.200065,-0.0037,0.4798285,-0.1050349999999999,-0.11003,0.2979985,0.0510249999999999,0.26176,0.4120085,-0.135065,0.4031199999999999,0.2510585,-0.202875,-0.21838,0.0879485,0.0833349999999999,0.48175,0.1697084999999999,-0.326055,-0.07165,0.0180605,0.0040749999999999,0.0716499999999999,-0.0180605,-0.0040749999999999,-0.19037,-0.3339115,0.067425,0.0983799999999999,-0.3609015,-0.073145,-0.285808,-0.6817015,0.187055,0.1177399999999999,-0.7098415,-0.063095,0
171,0.21137,0.6831815,-0.2059299999999999,0.0004,0.4797415,-0.10819,-0.1075599999999999,0.3035615,0.05057,0.2625099999999999,0.4097615,-0.1396899999999999,0.40386,0.2489814999999999,-0.2060299999999999,-0.21953,0.0908315,0.08711,0.47663,0.1711315,-0.31913,-0.07127,0.0183195,0.00514,0.07127,-0.0183195,-0.0051399999999999,-0.18588,-0.3336585,0.06745,0.09231,-0.3613285,-0.0696699999999999,-0.282252,-0.6737584999999999,0.19133,0.10953,-0.7108085,-0.0566899999999999,0
172,0.21438,0.680631,-0.21155,0.00457,0.479761,-0.1112599999999999,-0.10516,0.309011,0.05023,0.26299,0.408031,-0.14349,0.40117,0.246941,-0.20403,-0.2204499999999999,0.093731,0.09064,0.4684399999999999,0.168391,-0.31601,-0.0709,0.01855,0.00622,0.0709,-0.01855,-0.00622,-0.18182,-0.333189,0.0672499999999999,0.0854599999999999,-0.362909,-0.06536,-0.280247,-0.665779,0.1964499999999999,0.1002,-0.711859,-0.0495,0
173,0.21621,0.679307,-0.2158299999999999,0.00644,0.479957,-0.1122499999999999,-0.1032599999999999,0.312757,0.0502,0.26291,0.407757,-0.14563,0.3975499999999999,0.2454569999999999,-0.1986,-0.21933,0.0934569999999999,0.0930699999999999,0.46075,0.166137,-0.31094,-0.0704799999999999,0.018824,0.0070299999999999,0.0704799999999999,-0.018824,-0.0070299999999999,-0.17551,-0.332653,0.0645,0.0791299999999999,-0.364503,-0.06117,-0.278324,-0.6613730000000001,0.20037,0.09161,-0.712783,-0.0428299999999999,0
174,0.2206399999999999,0.6740459999999999,-0.22346,0.0118199999999999,0.478416,-0.1173599999999999,-0.10448,0.321236,0.0516499999999999,0.26319,0.403436,-0.15309,0.3993299999999999,0.244756,-0.2097,-0.22588,0.100866,0.09964,0.4444899999999999,0.190616,-0.29489,-0.06997,0.019733,0.0084899999999999,0.0699699999999999,-0.019733,-0.0084899999999999,-0.14903,-0.334474,0.05536,0.06871,-0.3654239999999999,-0.05626,-0.273721,-0.6608440000000001,0.21238,0.0812399999999999,-0.715044,-0.0355699999999999,0
175,0.220195,0.6728615,-0.22492,0.0128249999999999,0.4778815,-0.11751,-0.1050849999999999,0.3214215,0.0524899999999999,0.264335,0.4040615,-0.15327,0.397405,0.2424014999999999,-0.20889,-0.228005,0.1009215,0.10153,0.4398849999999999,0.1909415,-0.28969,-0.069475,0.0197555,0.0084199999999999,0.069475,-0.0197555,-0.0084199999999999,-0.150835,-0.3322084999999999,0.0560999999999999,0.0652749999999999,-0.3661985,-0.05391,-0.27082,-0.6186985,0.2169299999999999,0.0763349999999999,-0.7155785,-0.0316199999999999,0
176,0.215725,0.6733465000000001,-0.2277449999999999,0.009175,0.4808765,-0.113725,-0.1064549999999999,0.3198864999999999,0.0546249999999999,0.262245,0.4058265,-0.1494349999999999,0.392215,0.2401565,-0.199125,-0.2269549999999999,0.1005065,0.100045,0.429175,0.1911365,-0.271605,-0.0689849999999999,0.0190935,0.0087149999999999,0.068985,-0.0190935,-0.008715,-0.1559549999999999,-0.3291735,0.0566949999999999,0.057735,-0.3711735,-0.047595,-0.2809669999999999,-0.6245735,0.2223349999999999,0.061835,-0.7146235,-0.022215,0
177,0.21498,0.6735015000000001,-0.227315,0.0084299999999999,0.4830015,-0.112305,-0.1056699999999999,0.3192414999999999,0.054365,0.26221,0.4061214999999999,-0.148055,0.39047,0.2384214999999999,-0.194845,-0.20348,0.1187515,0.094725,0.4273499999999999,0.1887915,-0.262925,-0.06874,0.0189955,0.0081849999999999,0.06874,-0.0189955,-0.0081849999999999,-0.11118,-0.3239785,0.0236649999999999,0.05763,-0.3729785,-0.0461149999999999,-0.278205,-0.6148385,0.209675,0.0599799999999999,-0.7143484999999999,-0.021035,0
178,0.2127649999999999,0.6740805000000001,-0.2253049999999999,0.0070749999999999,0.4832105,-0.110165,-0.104855,0.3183105,0.0549249999999999,0.260995,0.4068805,-0.145425,0.3861449999999999,0.2358305,-0.187485,-0.205545,0.1185204999999999,0.0960849999999999,0.430465,0.1733205,-0.261325,-0.068885,0.0187275,0.0080349999999999,0.0688849999999999,-0.0187275,-0.008035,-0.140295,-0.3267095,0.0410649999999999,0.0558649999999999,-0.3737595,-0.043575,-0.253155,-0.5591395,0.1783849999999999,0.0565549999999999,-0.7142295,-0.018035,0
179,0.2109449999999999,0.674711,-0.22309,0.0047449999999999,0.484211,-0.1075699999999999,-0.103585,0.316441,0.05504,0.260575,0.407781,-0.14266,0.3812949999999999,0.232391,-0.1780899999999999,-0.206455,0.117121,0.09626,0.4724049999999999,0.094911,-0.31884,-0.068975,0.018711,0.00824,0.0689749999999999,-0.018711,-0.0082399999999999,-0.114815,-0.325189,0.026,0.0548749999999999,-0.374259,-0.0415799999999999,-0.266305,-0.599399,0.19728,0.0536349999999999,-0.715439,-0.0154699999999999,0
180,0.2041549999999999,0.678343,-0.21354,-0.003075,0.486773,-0.09799,-0.105515,0.305403,0.0609099999999999,0.2620049999999999,0.4135729999999999,-0.13032,0.3576849999999999,0.221253,-0.13567,-0.214175,0.066556,0.0900099999999999,0.4266249999999999,0.064802,-0.2695000000000001,-0.068935,0.018723,0.0069299999999999,0.0689349999999999,-0.018723,-0.0069299999999999,-0.147565,-0.332247,0.04202,0.0510249999999999,-0.378257,-0.0357699999999999,-0.266165,-0.6560670000000001,0.2002899999999999,0.0451849999999999,-0.718537,-0.00678,0
