sb224sc-HT22-VT27/4dt907/src/ml-research/a11/datafiles/labeled_files/A41_kinect.csv
FrameNo,nose_3d_x,nose_3d_y,nose_3d_z,left_shoulder_3d_x,left_shoulder_3d_y,left_shoulder_3d_z,left_elbow_3d_x,left_elbow_3d_y,left_elbow_3d_z,right_shoulder_3d_x,right_shoulder_3d_y,right_shoulder_3d_z,right_elbow_3d_x,right_elbow_3d_y,right_elbow_3d_z,left_wrist_3d_x,left_wrist_3d_y,left_wrist_3d_z,right_wrist_3d_x,right_wrist_3d_y,right_wrist_3d_z,left_hip_3d_x,left_hip_3d_y,left_hip_3d_z,right_hip_3d_x,right_hip_3d_y,right_hip_3d_z,left_knee_3d_x,left_knee_3d_y,left_knee_3d_z,right_knee_3d_x,right_knee_3d_y,right_knee_3d_z,left_ankle_3d_x,left_ankle_3d_y,left_ankle_3d_z,right_ankle_3d_x,right_ankle_3d_y,right_ankle_3d_z,activity_label
0,0.0109334999999999,0.7630275,0.0702375,-0.1531245,0.4637675,0.0538455,-0.1746845,0.2076475,0.0544435,0.1506954999999999,0.4545575,0.0571435,0.1889555,0.2068775,0.0680615,-0.1960144999999999,-0.0240795,-0.0405784999999999,0.2026555,-0.0003825,-0.0183754999999999,-0.0736965,0.0020164999999999,0.0005194999999999,0.0736965,-0.0020165,-0.0005194999999999,-0.1286545,-0.3835225,-0.0102004999999999,0.1178655,-0.4161325,0.0102005,-0.1321745,-0.7421125,-0.0217184999999999,0.1289755,-0.7439325,-0.0214564999999999,0
1,0.011384,0.7631549999999999,0.0705125,-0.153523,0.463825,0.0535665,-0.174443,0.207705,0.0545925,0.151497,0.454645,0.0590435,0.188787,0.206205,0.0681515,-0.1946129999999999,-0.018174,-0.0366875,0.202587,-0.000445,-0.0182874999999999,-0.073663,0.001967,0.0004655,0.073663,-0.001967,-0.0004655,-0.128793,-0.384405,-0.0101585,0.117697,-0.416305,0.0102295,-0.132023,-0.745295,-0.0230705,0.128507,-0.7443350000000001,-0.0218505,0
2,0.0117985,0.7634305,0.070859,-0.1527005,0.4639704999999999,0.05192,-0.1749505,0.2076805,0.054907,0.1519694999999999,0.4542604999999999,0.061361,0.1886195,0.2056805,0.068586,-0.1966005,-0.0229265,-0.0379159999999999,0.2017094999999999,-0.0004764999999999,-0.017999,-0.0734665,0.0021225,-0.0007249999999999,0.0734665,-0.0021225,0.000725,-0.1291605,-0.3823095,-0.0107729999999999,0.1171695,-0.4153395,0.010425,-0.1329604999999999,-0.7446695,-0.023646,0.1280695,-0.7435795000000001,-0.022792,0
3,0.0120815,0.7635455000000001,0.070557,-0.1532755,0.4639755,0.051737,-0.1748855,0.2079254999999999,0.055045,0.1529545,0.4539855,0.062859,0.1884645,0.2056855,0.0684319999999999,-0.1968855,-0.0240915,-0.0387229999999999,0.2015045,-0.0004794999999999,-0.0182589999999999,-0.0734654999999999,0.0021725,-0.001001,0.0734654999999999,-0.0021725,0.001001,-0.1293455,-0.3831945,-0.0111119999999999,0.1170345,-0.4152345,0.01028,-0.1337455,-0.7469944999999999,-0.0272299999999999,0.1282045,-0.7428245,-0.0222759999999999,0
4,0.0123215,0.7635135,0.0704994999999999,-0.1532865,0.4634435,0.0512845,-0.1749164999999999,0.2076535,0.0550975,0.1546735,0.4545035,0.0619565,0.1884035,0.2053235,0.0685225,-0.1972165,-0.0245904999999999,-0.0387934999999999,0.2010934999999999,-0.0008324999999999,-0.0183194999999999,-0.0732965,0.0023005,-0.0007124999999999,0.0732965,-0.0023005,0.0007125,-0.1295064999999999,-0.3827065,-0.0112704999999999,0.1167735,-0.4160065,0.0104655,-0.1341365,-0.7473365,-0.0272704999999999,0.1280235,-0.7431165,-0.0227375,0
5,0.0126055,0.7635550000000001,0.070267,-0.1534515,0.463545,0.051123,-0.1746714999999999,0.208085,0.055072,0.1551285,0.454055,0.062733,0.1884985,0.205375,0.068533,-0.1970615,-0.025008,-0.038818,0.2010185,-0.0007019999999999,-0.018358,-0.0733115,0.002319,-0.0008499999999999,0.0733115,-0.002319,0.00085,-0.1294515,-0.383735,-0.011753,0.1168385,-0.416125,0.010365,-0.1342215,-0.747925,-0.028439,0.1280784999999999,-0.744815,-0.023266,0
6,0.013071,0.7631575,0.069581,-0.154278,0.4633474999999999,0.05076,-0.174408,0.2081474999999999,0.054659,0.156712,0.4538175,0.063213,0.1885119999999999,0.2049075,0.068077,-0.191068,0.0057895,-0.0171779999999999,0.200812,-0.0008544999999999,-0.0188339999999999,-0.073211,0.0024675,-0.0006079999999999,0.073211,-0.0024675,0.000608,-0.129548,-0.3848025,-0.0123879999999999,0.116842,-0.4155325,0.010112,-0.134918,-0.7464025,-0.0311459999999999,0.127612,-0.7452825,-0.0233979999999999,0
7,0.0137455,0.7627970000000001,0.0704565,-0.1541235,0.463547,0.0519154999999999,-0.1744834999999999,0.2079669999999999,0.0548725,0.1565365,0.453637,0.0640165,0.1885965,0.204797,0.0685705,-0.1933234999999999,-0.006751,-0.0289315,0.2004965,0.000797,-0.0186065,-0.0732775,0.002389,-0.0006864999999999,0.0732775,-0.0023889999999999,0.0006864999999999,-0.1301435,-0.384703,-0.0127945,0.1160664999999999,-0.416403,0.0093864999999999,-0.1354935,-0.744583,-0.0271865,0.1261065,-0.744123,-0.0240415,0
8,0.014061,0.762726,0.0705185,-0.154219,0.463526,0.0517835,-0.174419,0.208046,0.0549165,0.157051,0.453496,0.0645555,0.188631,0.204606,0.0687165,-0.1927489999999999,-0.0035639999999999,-0.0270634999999999,0.200361,0.0012989999999999,-0.0185774999999999,-0.073249,0.002462,-0.0007934999999999,0.073249,-0.002462,0.0007935,-0.130219,-0.384964,-0.0129564999999999,0.115961,-0.416494,0.0092995,-0.135839,-0.744584,-0.0278054999999999,0.125871,-0.7440140000000001,-0.0243594999999999,0
9,0.014352,0.7626425,0.070563,-0.154276,0.4634824999999999,0.051621,-0.174346,0.2081025,0.054964,0.157374,0.4533324999999999,0.065021,0.188714,0.2044224999999999,0.068866,-0.192176,-0.0012605,-0.0254889999999999,0.2002439999999999,0.0017945,-0.0183769999999999,-0.073247,0.0025305,-0.0008999999999999,0.073247,-0.0025304999999999,0.0009,-0.1302559999999999,-0.3851875,-0.0131059999999999,0.115904,-0.4165575,0.009195,-0.1362959999999999,-0.7445275,-0.0283769999999999,0.125714,-0.7437775,-0.0245889999999999,0
10,0.0146135,0.7625055000000001,0.0705065,-0.1543945,0.4634255,0.0516244999999999,-0.1742745,0.2081555,0.0549444999999999,0.1576355,0.4531555,0.0654444999999999,0.1887955,0.2042355,0.0689475,-0.1915345,0.0020374999999999,-0.0234385,0.2001055,0.0021725,-0.0182005,-0.0732525,0.0025954999999999,-0.0009525,0.0732525,-0.0025954999999999,0.0009524999999999,-0.1303145,-0.3856045,-0.0133205,0.1158155,-0.4167245,0.0090104999999999,-0.1367145,-0.7442645,-0.0288885,0.1255155,-0.7434145,-0.0249035,0
11,0.0148244999999999,0.7623489999999999,0.0704925,-0.1545105,0.463369,0.0516775,-0.1742205,0.208179,0.0549565,0.1578795,0.453019,0.0658515,0.1888795,0.204059,0.0690485,-0.1916405,0.002521,-0.0236225,0.2000195,0.002439,-0.0179815,-0.0732645,0.002653,-0.0010464999999999,0.0732645,-0.0026529999999999,0.0010464999999999,-0.1303305,-0.386001,-0.0134985,0.1157495,-0.416921,0.0088624999999999,-0.1370005,-0.7437010000000001,-0.0288295,0.1252695,-0.7432110000000001,-0.0252405,0
12,0.0148504999999999,0.762319,0.0703615,-0.1546295,0.4633589999999999,0.0516005,-0.1741795,0.208179,0.0549035,0.1579905,0.4529789999999999,0.0662125,0.1889505,0.204029,0.0690275,-0.1915095,0.00527,-0.0226094999999999,0.1999405,0.0021469999999999,-0.0177834999999999,-0.0732815,0.002653,-0.0011164999999999,0.0732815,-0.0026529999999999,0.0011165,-0.1303794999999999,-0.386001,-0.0136554999999999,0.1156705,-0.417041,0.0087445,-0.1372094999999999,-0.743581,-0.0287204999999999,0.1250705,-0.743301,-0.0254205,0
13,0.0148985,0.762319,0.070142,-0.1546544999999999,0.4633589999999999,0.051465,-0.1742544999999999,0.208179,0.054676,0.1581455,0.4529789999999999,0.066273,0.1890454999999999,0.204029,0.068811,-0.1915845,0.005776,-0.022837,0.1999155,0.002118,-0.018008,-0.0732965,0.002653,-0.001148,0.0732965,-0.0026529999999999,0.0011479999999999,-0.1305144999999999,-0.386001,-0.013865,0.1155255,-0.417041,0.008568,-0.1374544999999999,-0.743271,-0.028446,0.1248355,-0.743301,-0.025622,0
14,0.014961,0.762319,0.069824,-0.154594,0.4633589999999999,0.051292,-0.174294,0.208179,0.054351,0.158346,0.4529789999999999,0.066252,0.189166,0.204029,0.068496,-0.191724,0.005776,-0.024693,0.199826,0.0019639999999999,-0.0183359999999999,-0.073309,0.002653,-0.0012549999999999,0.073309,-0.0026529999999999,0.0012549999999999,-0.130654,-0.386001,-0.014107,0.115376,-0.417041,0.0082729999999999,-0.137674,-0.742891,-0.028221,0.124566,-0.743301,-0.025962,0
15,0.015054,0.7622385,0.069383,-0.154481,0.4632885,0.0510339999999999,-0.174291,0.2081385,0.053929,0.158569,0.4528985,0.066157,0.189299,0.2039985,0.0680849999999999,-0.192151,0.0061495,-0.026621,0.199819,0.0022724999999999,-0.018757,-0.073326,0.0026764999999999,-0.0012569999999999,0.073326,-0.0026765,0.0012569999999999,-0.130661,-0.3859715,-0.014356,0.115379,-0.4171215,0.0079419999999999,-0.137771,-0.7425014999999999,-0.028241,0.1245689999999999,-0.7430315,-0.026382,0
16,0.0152465,0.7621715,0.0689765,-0.1543435,0.4630615,0.0511285,-0.1742834999999999,0.2085515,0.0529105,0.1588465,0.4528815,0.0657755,0.1897365,0.2043615,0.0664805,-0.1927035,0.0059945,-0.0290425,0.1999565,0.0021825,-0.0196495,-0.0733274999999999,0.0027485,-0.0012324999999999,0.0733274999999999,-0.0027484999999999,0.0012325,-0.1306435,-0.3857185,-0.0145554999999999,0.1153965,-0.4172285,0.0077405,-0.1377735,-0.7425984999999999,-0.0281975,0.1245265,-0.7430384999999999,-0.0266734999999999,0
17,0.0154305,0.7620745,0.068533,-0.1541545,0.4628945,0.051349,-0.1745944999999999,0.2100544999999999,0.0513,0.1590355,0.4528844999999999,0.065332,0.1903155,0.2051845,0.064109,-0.1940645,0.0062595,-0.035098,0.2001855,0.0021725,-0.021977,-0.0733294999999999,0.0028345,-0.001202,0.0733294999999999,-0.0028345,0.0012019999999999,-0.1306645,-0.3853055,-0.0147359999999999,0.1153855,-0.4172655,0.0075759999999999,-0.1377545,-0.7432455,-0.028463,0.1243655,-0.7433255,-0.0268559999999999,0
18,0.0156164999999999,0.7619729999999999,0.067986,-0.1538985,0.462733,0.051386,-0.1754385,0.212493,0.048747,0.1591814999999999,0.452893,0.064782,0.1911115,0.207173,0.060675,-0.1960385,0.007477,-0.042807,0.2006214999999999,0.002694,-0.026898,-0.0733315,0.0029,-0.001176,0.0733315,-0.0029,0.001176,-0.1307785,-0.384787,-0.0150429999999999,0.1153615,-0.417287,0.0073639999999999,-0.1377485,-0.7433470000000001,-0.028879,0.1241815,-0.7437870000000001,-0.027135,0
19,0.0158555,0.7618505,0.0674154999999999,-0.1533465,0.4625405,0.0512945,-0.1771965,0.2157105,0.0440015,0.1592835,0.4530205,0.0641325,0.1923435,0.2100505,0.0562115,-0.1993665,0.0092124999999999,-0.0533475,0.2021035,0.0073475,-0.0339565,-0.0733554999999999,0.0029574999999999,-0.0011544999999999,0.0733554999999999,-0.0029575,0.0011544999999999,-0.1309165,-0.3843094999999999,-0.0154284999999999,0.1153035,-0.4171895,0.0071524999999999,-0.1377665,-0.7433295000000001,-0.0293075,0.1240835,-0.7443795000000001,-0.0275575,0
20,0.016175,0.7616935,0.066863,-0.1522879999999999,0.4624035,0.051015,-0.180778,0.2219335,0.035614,0.159512,0.4533335,0.06294,0.195592,0.2153235,0.048734,-0.204428,0.0196085,-0.0688889999999999,0.205772,0.0152915,-0.047512,-0.073473,0.0030134999999999,-0.0010729999999999,0.073473,-0.0030134999999999,0.001073,-0.131098,-0.3832065,-0.01586,0.1152219999999999,-0.4168365,0.006941,-0.137688,-0.7427965,-0.0298789999999999,0.123902,-0.7449765,-0.0282469999999999,0
21,0.016529,0.761513,0.066534,-0.151193,0.462593,0.050679,-0.1856529999999999,0.230013,0.024153,0.159807,0.453723,0.061344,0.200867,0.222173,0.037969,-0.2122129999999999,0.036562,-0.091396,0.210427,0.029997,-0.068277,-0.0736489999999999,0.0030649999999999,-0.000948,0.0736489999999999,-0.003065,0.000948,-0.131293,-0.3808669999999999,-0.0161979999999999,0.115147,-0.416037,0.0067809999999999,-0.137393,-0.7420570000000001,-0.030063,0.123737,-0.7456670000000001,-0.028977,0
22,0.0167739999999999,0.761266,0.0663545,-0.149752,0.462816,0.0498965,-0.1917319999999999,0.239506,0.0113395,0.160028,0.454206,0.0596625,0.206498,0.231166,0.0233995,-0.220532,0.057994,-0.1171355,0.215798,0.046656,-0.0928155,-0.073857,0.0031099999999999,-0.0008264999999999,0.073857,-0.00311,0.0008265,-0.131472,-0.378334,-0.0165994999999999,0.1150279999999999,-0.415204,0.0065345,-0.137072,-0.7413540000000001,-0.0303405,0.1235479999999999,-0.7463240000000001,-0.0296634999999999,0
23,0.0170605,0.7612559999999999,0.066491,-0.1483575,0.462916,0.049225,-0.2008075,0.255486,-0.005822,0.1596324999999999,0.454986,0.058176,0.2128125,0.241776,0.008069,-0.2297075,0.086206,-0.147387,0.2228824999999999,0.074841,-0.122497,-0.0740805,0.0031099999999999,-0.000609,0.0740805,-0.00311,0.0006089999999999,-0.1317075,-0.375324,-0.0170099999999999,0.1149125,-0.414604,0.006227,-0.1368575,-0.7413540000000001,-0.030974,0.1233225,-0.7465040000000001,-0.030565,0
24,0.0173189999999999,0.761246,0.066835,-0.147113,0.463156,0.048406,-0.210723,0.272986,-0.023206,0.1591769999999999,0.456046,0.05659,0.221337,0.255046,-0.008016,-0.239353,0.120016,-0.178438,0.230297,0.107626,-0.152958,-0.074283,0.0031099999999999,-0.0004469999999999,0.074283,-0.00311,0.0004469999999999,-0.131923,-0.372664,-0.017372,0.114757,-0.413894,0.0059629999999999,-0.136493,-0.740294,-0.031617,0.123147,-0.746784,-0.031659,0
25,0.017501,0.761219,0.067564,-0.145618,0.463599,0.047473,-0.221318,0.293389,-0.042338,0.158592,0.456709,0.054831,0.229972,0.272439,-0.027427,-0.251328,0.162559,-0.211762,0.238322,0.146219,-0.188432,-0.074506,0.003083,-0.0002109999999999,0.074506,-0.003083,0.0002109999999999,-0.131998,-0.370641,-0.017998,0.114702,-0.413701,0.005404,-0.136098,-0.739781,-0.032269,0.123232,-0.7472110000000001,-0.032948,0
26,0.0175889999999999,0.760015,0.0687305,-0.144112,0.463935,0.0462495,-0.232422,0.315485,-0.0601415,0.157918,0.457085,0.0530114999999999,0.239168,0.292695,-0.0468395,-0.263742,0.2078549999999999,-0.2418835,0.248498,0.1877049999999999,-0.2226735,-0.074737,0.0030629999999999,0.0001164999999999,0.074737,-0.003063,-0.0001165,-0.132022,-0.368915,-0.0188365,0.1145779999999999,-0.413865,0.0046324999999999,-0.135952,-0.740375,-0.0332365,0.123228,-0.7485350000000001,-0.0344255,0
27,0.0176385,0.7585824999999999,0.0700925,-0.1426145,0.4641725,0.0450965,-0.2431145,0.3381225,-0.0766765,0.1572754999999999,0.4575725,0.0513565,0.2481755,0.3129125,-0.0646225,-0.2759545,0.2573924999999999,-0.2705845,0.2599255,0.2332925,-0.2546445,-0.0749634999999999,0.0030585,0.0004054999999999,0.0749634999999999,-0.0030585,-0.0004055,-0.1320245,-0.3675475,-0.0196295,0.1144255,-0.4141775,0.0038304999999999,-0.1357445,-0.7403675000000001,-0.0334125,0.1232454999999999,-0.7500775000000001,-0.0359395,0
28,0.017669,0.7570975000000001,0.0715105,-0.141184,0.4648375,0.0436385,-0.252504,0.3622975,-0.0919784999999999,0.156656,0.4584275,0.0497665,0.257276,0.3355875,-0.0802735,-0.287004,0.3104475,-0.2935585,0.270636,0.2813675,-0.2845884999999999,-0.0751179999999999,0.0030575,0.0007034999999999,0.0751179999999999,-0.0030575,-0.0007035,-0.131964,-0.3659025,-0.0204435,0.114336,-0.4139625,0.0029404999999999,-0.135424,-0.7404425,-0.0334775,0.123286,-0.7514525,-0.0374525,0
29,0.017601,0.755576,0.0730855,-0.140194,0.465556,0.0426015,-0.260084,0.388876,-0.1033125,0.156106,0.459916,0.0483555,0.264376,0.363046,-0.0920625,-0.296014,0.364256,-0.3115125,0.279476,0.335306,-0.3068225,-0.0751709999999999,0.003066,0.0010025,0.0751709999999999,-0.003066,-0.0010025,-0.131874,-0.364864,-0.0213005,0.114266,-0.413804,0.0019815,-0.135034,-0.739894,-0.0332545,0.123366,-0.752574,-0.0387955,0
30,0.0175125,0.7539585,0.074548,-0.1394975,0.4661685,0.041843,-0.2658175,0.4155985,-0.109729,0.1560325,0.4615185,0.047135,0.2694225,0.3915985,-0.099699,-0.3016375,0.4156685,-0.320129,0.2874724999999999,0.3882685,-0.318319,-0.0751645,0.0030425,0.001265,0.0751645,-0.0030425,-0.001265,-0.1317674999999999,-0.3650615,-0.0222759999999999,0.1141825,-0.4138315,0.0009779999999999,-0.1347674999999999,-0.7392815,-0.032872,0.1234725,-0.7536315,-0.0400019999999999,0
31,0.0173665,0.7520399999999999,0.0760445,-0.1392765,0.46717,0.0413565,-0.2693465,0.44649,-0.1131395,0.1561335,0.46323,0.0465335,0.2741435,0.42245,-0.1017595,-0.3056865,0.47084,-0.3231394999999999,0.2945735,0.44897,-0.3213795,-0.0751745,0.0029839999999999,0.0014375,0.0751745,-0.0029839999999999,-0.0014374999999999,-0.1316564999999999,-0.36562,-0.0232285,0.1140535,-0.41416,8.850000000000004e-05,-0.1345464999999999,-0.7389,-0.0324525,0.1235635,-0.75477,-0.0410255,0
32,0.017196,0.749952,0.077341,-0.1391319999999999,0.4684419999999999,0.041163,-0.269342,0.473052,-0.113896,0.156188,0.464782,0.046502,0.278068,0.4538919999999999,-0.102256,-0.308022,0.5220319999999999,-0.324046,0.3001379999999999,0.500952,-0.3217759999999999,-0.075227,0.002915,0.001576,0.075227,-0.002915,-0.0015759999999999,-0.1315819999999999,-0.366408,-0.023978,0.113888,-0.414788,-0.0005999999999999,-0.1345219999999999,-0.739688,-0.0326169999999999,0.123678,-0.756088,-0.041907,0
33,0.017032,0.7475229999999999,0.0784235,-0.13909,0.469803,0.0416005,-0.26924,0.500763,-0.1143855,0.15621,0.466443,0.0472485,0.2797199999999999,0.486903,-0.1026455,-0.30806,0.573553,-0.3245455,0.30527,0.5549529999999999,-0.3219455,-0.075269,0.002859,0.0016655,0.075269,-0.0028589999999999,-0.0016655,-0.13147,-0.3679969999999999,-0.0244665,0.11377,-0.416527,-0.0011035,-0.1344199999999999,-0.741117,-0.0319165,0.12375,-0.7580870000000001,-0.0425515,0
34,0.0169309999999999,0.7455625,0.0785795,-0.139164,0.4714525,0.0423625,-0.269114,0.5283825000000001,-0.1144034999999999,0.156186,0.4679625,0.0482185,0.280736,0.5174425,-0.1026035,-0.307934,0.6227225000000001,-0.3245635,0.309466,0.6101325000000001,-0.3216935,-0.0752549999999999,0.0028135,0.0016404999999999,0.0752549999999999,-0.0028135,-0.0016405,-0.131314,-0.3696575,-0.0244825,0.113866,-0.4184575,-0.0011215,-0.134144,-0.7428675,-0.0315385,0.123856,-0.7600475,-0.0423275,0
35,0.016869,0.743413,0.078575,-0.13941,0.473153,0.043065,-0.2691,0.554033,-0.111972,0.15658,0.469443,0.049117,0.28101,0.546263,-0.102562,-0.30809,0.670263,-0.3195019999999999,0.3112,0.663693,-0.317122,-0.075199,0.002796,0.0016439999999999,0.075199,-0.0027959999999999,-0.0016439999999999,-0.13109,-0.371727,-0.024584,0.11404,-0.4205069999999999,-0.0011099999999999,-0.13385,-0.744977,-0.0315029999999999,0.12404,-0.762187,-0.042363,0
36,0.0168635,0.7409715,0.0785755,-0.1398395,0.4755015,0.0437775,-0.2676894999999999,0.5811515,-0.1076845,0.1571005,0.4705015,0.0500135,0.2810905,0.5762615,-0.0995745,-0.3084595,0.7197715,-0.3096145,0.3111505,0.7141915,-0.3072745,-0.0750734999999999,0.0028055,0.0016525,0.0750734999999999,-0.0028055,-0.0016524999999999,-0.1307394999999999,-0.3741684999999999,-0.0247834999999999,0.1143105,-0.4228685,-0.0011064999999999,-0.1335694999999999,-0.7469985,-0.0306315,0.1243105,-0.7646284999999999,-0.0423454999999999,0
37,0.016754,0.737539,0.0786034999999999,-0.140115,0.478319,0.0445025,-0.265105,0.6074689999999999,-0.1005375,0.157945,0.471789,0.0508855,0.280885,0.604309,-0.0911174999999999,-0.306035,0.766199,-0.2944775,0.310165,0.7603989999999999,-0.2867075,-0.074874,0.002857,0.0016294999999999,0.074874,-0.002857,-0.0016295,-0.130285,-0.3779409999999999,-0.0250325,0.114655,-0.426181,-0.0011475,-0.133185,-0.7504810000000001,-0.0305715,0.1248749999999999,-0.7681610000000001,-0.0422735,0
38,0.0166955,0.7348705,0.0782475,-0.1402284999999999,0.4809205,0.0452935,-0.2613785,0.6281505000000001,-0.0928825,0.1587315,0.4722105,0.0517265,0.2806315,0.6254905000000001,-0.0812465,-0.3019885,0.8026305,-0.2772125,0.3091815,0.8009705,-0.2653525,-0.0746655,0.0029625,0.0014834999999999,0.0746655,-0.0029625,-0.0014835,-0.1297185,-0.3816595,-0.0249985,0.1151015,-0.4290294999999999,-0.0009295,-0.1327884999999999,-0.7537995,-0.0295325,0.1255315,-0.7714695,-0.0417965,0
39,0.01671,0.7324160000000001,0.0776525,-0.139954,0.483786,0.0460125,-0.257524,0.647196,-0.0845755,0.159466,0.4724859999999999,0.0525184999999999,0.2803259999999999,0.644486,-0.0711335,-0.297144,0.8349960000000001,-0.2562625,0.307996,0.836056,-0.2433825,-0.074459,0.0030489999999999,0.0013915,0.074459,-0.0030489999999999,-0.0013915,-0.129124,-0.385394,-0.0248744999999999,0.115586,-0.431874,-0.0006495,-0.132404,-0.757554,-0.0290055,0.126156,-0.774774,-0.0410735,0
40,0.0167235,0.730324,0.0769115,-0.1399355,0.486534,0.0465795,-0.2539655,0.661694,-0.0757944999999999,0.1601245,0.472824,0.0531785,0.2792945,0.6598040000000001,-0.0614764999999999,-0.2917555,0.859784,-0.2354555,0.3068745,0.862164,-0.2203955,-0.0742585,0.003124,0.0013085,0.0742585,-0.0031239999999999,-0.0013084999999999,-0.1285655,-0.388686,-0.0246624999999999,0.1160245,-0.4345259999999999,-0.0002654999999999,-0.1321055,-0.760876,-0.0280564999999999,0.1267045,-0.777806,-0.0403435,0
41,0.016752,0.72853,0.0758435,-0.140128,0.48909,0.0472005,-0.250328,0.67547,-0.0669984999999999,0.1606719999999999,0.47334,0.0538635,0.278052,0.67394,-0.0519935,-0.286498,0.88334,-0.2149755,0.304852,0.8874099999999999,-0.1967555,-0.0740639999999999,0.0032039999999999,0.0012235,0.0740639999999999,-0.003204,-0.0012235,-0.128028,-0.39195,-0.0243635,0.116462,-0.43689,0.0002214999999999,-0.131698,-0.7641100000000001,-0.0266905,0.127222,-0.78078,-0.0395075,0
42,0.0167539999999999,0.727407,0.074533,-0.140074,0.491397,0.047922,-0.2472639999999999,0.690157,-0.0593309999999999,0.160906,0.473877,0.054483,0.276656,0.683867,-0.042749,-0.281914,0.900877,-0.195716,0.302306,0.906537,-0.175786,-0.073942,0.00329,0.0011599999999999,0.073942,-0.0032899999999999,-0.00116,-0.127524,-0.394443,-0.023978,0.1168559999999999,-0.438513,0.0007489999999999,-0.131304,-0.766593,-0.0254189999999999,0.127656,-0.783313,-0.03858,0
43,0.016807,0.7266835,0.0729419999999999,-0.139857,0.4936434999999999,0.048611,-0.245197,0.6998335,-0.053277,0.161123,0.4744735,0.055047,0.275443,0.6922235000000001,-0.034619,-0.278267,0.9128935,-0.177362,0.299573,0.9191235,-0.157912,-0.073862,0.0033874999999999,0.0011519999999999,0.073862,-0.0033875,-0.001152,-0.127007,-0.3964765,-0.023461,0.117243,-0.4397265,0.0012639999999999,-0.131057,-0.7693265,-0.024356,0.128013,-0.7855565,-0.0376839999999999,0
44,0.016859,0.726102,0.0712415,-0.139668,0.495792,0.0492495,-0.2434879999999999,0.7100420000000001,-0.0473385,0.161322,0.474982,0.0555345,0.274092,0.699782,-0.0266055,-0.2749779999999999,0.923962,-0.1597545,0.296622,0.931552,-0.1399045,-0.073796,0.003508,0.0011815,0.073796,-0.0035079999999999,-0.0011814999999999,-0.126558,-0.3983679999999999,-0.0229565,0.117482,-0.440948,0.0017025,-0.130898,-0.771528,-0.0236835,0.128192,-0.787638,-0.0368865,0
45,0.016834,0.7257245,0.0694325,-0.1395529999999999,0.4973445,0.0496085,-0.242283,0.7177545000000001,-0.0426875,0.161197,0.4757244999999999,0.0555745,0.272457,0.7049945000000001,-0.0200225,-0.272333,0.9280745,-0.1444855,0.293967,0.9421445,-0.1259855,-0.073776,0.0036095,0.0012424999999999,0.073776,-0.0036095,-0.0012425,-0.1261729999999999,-0.3999655,-0.0225805,0.117627,-0.4419255,0.0020174999999999,-0.130823,-0.7734154999999999,-0.0232265,0.128277,-0.7894755,-0.0361755,0
46,0.0169029999999999,0.725494,0.06795,-0.139044,0.4987239999999999,0.049773,-0.240164,0.724814,-0.035024,0.160936,0.476464,0.055413,0.270526,0.709984,-0.012939,-0.269404,0.932094,-0.128127,0.291806,0.952134,-0.113157,-0.073778,0.0036899999999999,0.0013639999999999,0.073778,-0.0036899999999999,-0.001364,-0.125944,-0.400746,-0.022435,0.1177459999999999,-0.442346,0.0021119999999999,-0.130784,-0.774326,-0.023304,0.128376,-0.790826,-0.035841,0
47,0.016961,0.72524,0.0662715,-0.138324,0.50039,0.0501695,-0.238344,0.73111,-0.0271115,0.160436,0.47684,0.0552205,0.2685459999999999,0.71435,-0.0052294999999999,-0.2662139999999999,0.93697,-0.1096885,0.289366,0.95761,-0.0959785,-0.073778,0.0037699999999999,0.0016115,0.073778,-0.00377,-0.0016114999999999,-0.125694,-0.40172,-0.0220854999999999,0.117906,-0.44284,0.0023095,-0.130634,-0.7761199999999999,-0.0230455,0.128506,-0.79262,-0.0354204999999999,0
48,0.016991,0.7249355,0.064782,-0.137234,0.5019155,0.050765,-0.236564,0.7373154999999999,-0.019801,0.159906,0.4771455,0.0550699999999999,0.266626,0.7183955,0.0020719999999999,-0.263434,0.9424555,-0.093194,0.286886,0.9625755,-0.077818,-0.073774,0.0038715,0.0019049999999999,0.073774,-0.0038715,-0.001905,-0.1254539999999999,-0.4026745,-0.021677,0.1180759999999999,-0.4432745,0.0025789999999999,-0.130474,-0.7778345000000001,-0.022854,0.128666,-0.7943345,-0.0350049999999999,0
49,0.0168765,0.724555,0.0633565,-0.1358875,0.503235,0.0519075,-0.2348675,0.743285,-0.0116754999999999,0.1591825,0.4774549999999999,0.0550855,0.2642625,0.722125,0.0104695,-0.2610975,0.948945,-0.0753325,0.2845425,0.966745,-0.0590915,-0.0737895,0.0039589999999999,0.0023044999999999,0.0737895,-0.003959,-0.0023045,-0.1252975,-0.403845,-0.0211695,0.1179824999999999,-0.443765,0.0028605,-0.1303575,-0.779665,-0.0224634999999999,0.1284425,-0.796235,-0.0345415,0
50,0.0166999999999999,0.7240964999999999,0.062048,-0.134654,0.5044164999999999,0.053072,-0.233324,0.7485465,-0.0036799999999999,0.1584959999999999,0.4777265,0.055106,0.261896,0.7255465,0.018361,-0.259034,0.9548465,-0.058176,0.282416,0.9696465,-0.041156,-0.073812,0.0040374999999999,0.002724,0.073812,-0.0040374999999999,-0.0027239999999999,-0.125184,-0.4048535,-0.020773,0.1178159999999999,-0.4443335,0.003084,-0.130344,-0.7813635000000001,-0.022132,0.1281459999999999,-0.7980435,-0.034048,0
51,0.0163984999999999,0.7236395,0.06098,-0.1337895,0.5055395,0.0543,-0.2319895,0.7513995,0.004456,0.1577305,0.4778395,0.055174,0.2595505,0.7290795000000001,0.026034,-0.2574495,0.9605595,-0.0415149999999999,0.2804705,0.9723595,-0.02379,-0.0738345,0.0040875,0.003069,0.0738345,-0.0040875,-0.0030689999999999,-0.1251695,-0.4059405,-0.0204059999999999,0.1176405,-0.4448805,0.0033819999999999,-0.1301795,-0.7825804999999999,-0.021532,0.1278304999999999,-0.7995805,-0.0334919999999999,0
52,0.0160999999999999,0.7232865,0.0600535,-0.133024,0.5064665,0.0555105,-0.230854,0.7534965,0.0128895,0.156996,0.4779065,0.0552255,0.257226,0.7316265000000001,0.0331625,-0.256204,0.9657065,-0.0252724999999999,0.278716,0.9751065,-0.0078025,-0.073857,0.0041185,0.0034225,0.073857,-0.0041184999999999,-0.0034224999999999,-0.125174,-0.4068934999999999,-0.0200544999999999,0.1174659999999999,-0.4453435,0.0036535,-0.130014,-0.7835535,-0.0209424999999999,0.1275559999999999,-0.8009235,-0.0329765,0
53,0.0158075,0.722959,0.0592485,-0.1323335,0.5073690000000001,0.0568665,-0.2298435,0.7553190000000001,0.0212975,0.1562865,0.478249,0.0553175,0.2548365,0.7331190000000001,0.0398705,-0.2552835,0.970289,-0.0096245,0.2767865,0.976389,0.0068325,-0.0738785,0.0041119999999999,0.0037774999999999,0.0738785,-0.0041119999999999,-0.0037774999999999,-0.1251735,-0.407731,-0.0197385,0.1172965,-0.445681,0.0039495,-0.1300635,-0.7844909999999999,-0.0210335,0.1272965,-0.8021309999999999,-0.0324465,1
54,0.0154455,0.7223719999999999,0.0585785,-0.1317805,0.507822,0.0583925,-0.2286305,0.7566919999999999,0.0298075,0.1555795,0.478652,0.0555055,0.2526095,0.7345419999999999,0.0458745,-0.2549205,0.976122,0.0064155,0.2744795,0.977222,0.0211525,-0.0738895,0.004076,0.0042295,0.0738895,-0.004076,-0.0042295,-0.1251205,-0.408538,-0.0193255,0.1171195,-0.445858,0.0042995,-0.1301705,-0.786058,-0.0210115,0.1270895,-0.803558,-0.0320074999999999,1
55,0.0151519999999999,0.7218359999999999,0.0581805,-0.131487,0.507946,0.0598895,-0.228877,0.757776,0.0345425,0.155053,0.4789159999999999,0.0558045,0.251423,0.7352460000000001,0.0501825,-0.2553769999999999,0.981666,0.0187805,0.272943,0.976866,0.0315345,-0.073934,0.0040479999999999,0.0046855,0.073934,-0.004048,-0.0046854999999999,-0.125077,-0.409434,-0.0189555,0.1169829999999999,-0.446164,0.0046535,-0.130277,-0.7874639999999999,-0.0207865,0.126973,-0.8048740000000001,-0.0315914999999999,1
56,0.0148349999999999,0.72133,0.0583235,-0.1315009999999999,0.5077400000000001,0.0611525,-0.229211,0.7594200000000001,0.0386275,0.1547589999999999,0.4793,0.0561665,0.250639,0.73585,0.0533955,-0.256031,0.98637,0.0278585,0.272149,0.97697,0.0378815,-0.073938,0.0040219999999999,0.0049675,0.073938,-0.0040219999999999,-0.0049675,-0.125071,-0.41002,-0.0187395,0.116899,-0.44651,0.0049525,-0.130461,-0.78886,-0.0208785,0.126879,-0.80562,-0.0312464999999999,1
57,0.0145389999999999,0.720979,0.0585255,-0.131585,0.507499,0.0622454999999999,-0.229545,0.7608790000000001,0.0425264999999999,0.154555,0.4797389999999999,0.0564825,0.249965,0.7363090000000001,0.0563025,-0.256635,0.990329,0.0358435,0.271715,0.977229,0.0429004999999999,-0.073928,0.0039959999999999,0.0051924999999999,0.073928,-0.0039959999999999,-0.0051925,-0.125055,-0.410461,-0.0185825,0.116795,-0.446801,0.0051824999999999,-0.130695,-0.789661,-0.0208965,0.126625,-0.806361,-0.0307745,1
58,0.014324,0.7208235,0.0587559999999999,-0.1316929999999999,0.5072935,0.0630179999999999,-0.229903,0.7617035,0.0451779999999999,0.154427,0.4800235,0.056718,0.249777,0.7365735,0.05759,-0.257063,0.9928835,0.040942,0.271397,0.9775835,0.0462729999999999,-0.073914,0.0039635,0.0052899999999999,0.073914,-0.0039635,-0.0052899999999999,-0.125003,-0.4106165,-0.018566,0.116687,-0.4469365,0.0053119999999999,-0.130903,-0.7900565,-0.020996,0.126407,-0.8067165000000001,-0.030403,1
59,0.0140109999999999,0.720719,0.058943,-0.13195,0.507009,0.063957,-0.23026,0.762339,0.047571,0.15419,0.480249,0.0570769999999999,0.2495,0.736699,0.058858,-0.2581799999999999,0.994939,0.044931,0.27101,0.977039,0.049107,-0.073884,0.0039249999999999,0.005374,0.073884,-0.0039249999999999,-0.005374,-0.12495,-0.411131,-0.018717,0.11657,-0.447051,0.005284,-0.13113,-0.790761,-0.020987,0.12617,-0.807251,-0.0301,1
60,0.0137175,0.720719,0.0590075,-0.1322075,0.507009,0.0647375,-0.2306175,0.762779,0.0496405,0.1539125,0.480329,0.0573165,0.2491924999999999,0.736779,0.0596924999999999,-0.2593475,0.996639,0.0486805,0.2705925,0.976239,0.0516045,-0.0738554999999999,0.0039249999999999,0.0054424999999999,0.0738554999999999,-0.0039249999999999,-0.0054424999999999,-0.1249175,-0.411271,-0.0190475,0.1164125,-0.447051,0.0049745,-0.1315075,-0.791221,-0.0213625,0.1258025,-0.807421,-0.0300965,1
61,0.013397,0.720719,0.0590845,-0.1325279999999999,0.507009,0.0654184999999999,-0.231038,0.762999,0.0512935,0.153672,0.480329,0.0575055,0.249002,0.736959,0.0604485,-0.260578,0.998139,0.0512435,0.270422,0.976339,0.0537455,-0.07382,0.0039249999999999,0.0054445,0.07382,-0.0039249999999999,-0.0054444999999999,-0.1248479999999999,-0.411411,-0.0194845,0.116362,-0.447051,0.0045275,-0.131768,-0.791671,-0.0217795,0.125592,-0.807421,-0.0303505,1
62,0.013083,0.720699,0.059264,-0.132802,0.507009,0.066067,-0.231432,0.762999,0.052482,0.153428,0.480329,0.0577,0.248948,0.737099,0.061096,-0.261812,0.999239,0.0528519999999999,0.270548,0.976339,0.055198,-0.073779,0.0039249999999999,0.005447,0.073779,-0.0039249999999999,-0.005447,-0.124642,-0.411671,-0.01988,0.1163579999999999,-0.447051,0.003907,-0.131922,-0.792021,-0.022008,0.125428,-0.807571,-0.030569,1
63,0.0128459999999999,0.720738,0.059811,-0.133026,0.5068280000000001,0.066872,-0.231746,0.763038,0.053299,0.153254,0.480498,0.058158,0.249174,0.737328,0.06204,-0.262636,0.999278,0.052981,0.271004,0.976378,0.056324,-0.073713,0.003904,0.005451,0.073713,-0.0039039999999999,-0.005451,-0.1244359999999999,-0.412722,-0.020181,0.116354,-0.447412,0.0031419999999999,-0.132066,-0.793012,-0.022855,0.125324,-0.808032,-0.030796,1
64,0.0126124999999999,0.7208225,0.060435,-0.1332515,0.5066025000000001,0.067659,-0.2320415,0.7631125,0.053855,0.1530785,0.4807225,0.058569,0.2496785,0.7374625,0.062912,-0.2633615,0.9993425,0.052748,0.2716885,0.9764425,0.05714,-0.0736305,0.0038814999999999,0.005521,0.0736305,-0.0038815,-0.0055209999999999,-0.1242015,-0.4139975,-0.0206809999999999,0.1164085,-0.4477875,0.002033,-0.1321715,-0.7939475,-0.023835,0.1252085,-0.8084875,-0.031304,1
65,0.0123884999999999,0.720985,0.061004,-0.1334505,0.5063850000000001,0.068323,-0.2323105,0.763175,0.054028,0.1529095,0.480755,0.05892,0.2503795,0.7376750000000001,0.063618,-0.2639605,0.999445,0.052389,0.2729295,0.976345,0.057356,-0.0735725,0.003865,0.005546,0.0735725,-0.003865,-0.0055459999999999,-0.1239505,-0.415375,-0.021289,0.1165295,-0.448155,0.0007069999999999,-0.1322605,-0.794675,-0.0251,0.1250994999999999,-0.808715,-0.032087,1
66,0.012169,0.7211919999999999,0.0613984999999999,-0.133707,0.506412,0.0687225,-0.232547,0.763122,0.0536694999999999,0.152723,0.480742,0.0591895,0.251243,0.7380319999999999,0.0639405,-0.264467,0.999402,0.0516574999999999,0.2746429999999999,0.976202,0.0568635,-0.073523,0.003856,0.0055115,0.073523,-0.0038559999999999,-0.0055114999999999,-0.123717,-0.4168779999999999,-0.0222994999999999,0.116703,-0.4487879999999999,-0.0011154999999999,-0.132547,-0.7951980000000001,-0.0269645,0.124983,-0.808998,-0.0333625,1
67,0.011986,0.7214095,0.0615535,-0.133877,0.5064895,0.0688715,-0.2327469999999999,0.7630395,0.0529655,0.1525429999999999,0.4806195,0.0593115,0.252093,0.7383995,0.0638755,-0.2647569999999999,0.9992995,0.0505694999999999,0.276173,0.9760995,0.0559705,-0.073495,0.0038665,0.0055444999999999,0.073495,-0.0038665,-0.0055445,-0.123497,-0.4183905,-0.0236945,0.116923,-0.4494305,-0.0032555,-0.1326669999999999,-0.7959405,-0.0289915,0.124863,-0.8092605,-0.0349335,1
68,0.0118625,0.7216135,0.0615185,-0.1339765,0.5065735,0.0685645,-0.2328565,0.7629435,0.0519895,0.1524335,0.4804935,0.0592115,0.2528035,0.7386834999999999,0.0633394999999999,-0.2647565,0.9990235,0.0490715,0.2773735,0.9759235,0.0548205,-0.0735125,0.0038544999999999,0.0055704999999999,0.0735125,-0.0038545,-0.0055705,-0.1233064999999999,-0.4199765,-0.0253434999999999,0.1171935,-0.4499965,-0.0056025,-0.1327364999999999,-0.7966265,-0.0315325,0.1247834999999999,-0.8094865,-0.0367155,1
69,0.011778,0.7218005,0.0611845,-0.134037,0.5066505,0.0680135,-0.2329069999999999,0.7628705,0.0506285,0.152323,0.4803905,0.0590505,0.253543,0.7389905,0.0624595,-0.2647069999999999,0.9987805,0.0469875,0.278483,0.9757805,0.0533145,-0.073546,0.0038284999999999,0.0056065,0.073546,-0.0038284999999999,-0.0056065,-0.123217,-0.4214195,-0.0275085,0.117513,-0.4504095,-0.0082215,-0.132627,-0.7971195,-0.0344135,0.124743,-0.8096595,-0.0389645,1
70,0.0116699999999999,0.7217735000000001,0.060408,-0.134153,0.5065035,0.067135,-0.233013,0.7622534999999999,0.0488249999999999,0.152197,0.4803535,0.058565,0.254217,0.7388135,0.060882,-0.264773,0.9988135,0.044494,0.279447,0.9758135,0.05114,-0.073552,0.0037695,0.0056469999999999,0.073552,-0.0037694999999999,-0.0056469999999999,-0.123023,-0.4222765,-0.030069,0.117807,-0.4503765,-0.01119,-0.132573,-0.7970865,-0.037177,0.124787,-0.8096265,-0.041585,1
71,0.0115894999999999,0.7216245,0.0594155,-0.1342625,0.5062245,0.0661615,-0.2331225,0.7618545,0.0468125,0.1520574999999999,0.4801645,0.0579875,0.2547175,0.7387045,0.0591035,-0.2648325,0.9987645,0.0417725,0.2804175,0.9760645,0.0483565,-0.0735585,0.0036624999999999,0.0057355,0.0735585,-0.0036624999999999,-0.0057355,-0.1227925,-0.4220255,-0.0330205,0.1181774999999999,-0.4501255,-0.0142785,-0.1324725,-0.7970555,-0.0406265,0.1248575,-0.8093755,-0.0444055,1
72,0.0115585,0.721928,0.057713,-0.1343425,0.5065580000000001,0.0648,-0.2332425,0.762348,0.044247,0.1519375,0.480218,0.057197,0.2550575,0.7384080000000001,0.056568,-0.2648825,0.998798,0.03861,0.2812075,0.976498,0.044822,-0.0735565,0.003691,0.0056669999999999,0.0735565,-0.003691,-0.005667,-0.1226525,-0.421822,-0.036998,0.1186975,-0.449492,-0.018006,-0.1322925,-0.7975019999999999,-0.043907,0.1249975,-0.808692,-0.047721,1
73,0.011159,0.7221675,0.055558,-0.134705,0.5068075,0.063143,-0.2335549999999999,0.7603975000000001,0.041454,0.151595,0.4804275,0.056066,0.255145,0.7379375,0.053801,-0.265055,0.9987475,0.034363,0.282005,0.9763475,0.039916,-0.0736219999999999,0.0037664999999999,0.0054909999999999,0.0736219999999999,-0.0037664999999999,-0.005491,-0.1224949999999999,-0.4215824999999999,-0.041982,0.119845,-0.4477525,-0.022755,-0.1316149999999999,-0.7978425,-0.047387,0.125445,-0.8078625,-0.051133,1
74,0.010712,0.7220415,0.0532334999999999,-0.135071,0.5067615,0.0613625,-0.233931,0.7581115,0.0385675,0.151199,0.4802115,0.0548434999999999,0.255129,0.7369815000000001,0.0509375,-0.265171,0.9989415,0.0297945,0.282849,0.9761415,0.0347914999999999,-0.073717,0.0037485,0.0052974999999999,0.073717,-0.0037485,-0.0052975,-0.1224109999999999,-0.4213985,-0.0475025,0.121069,-0.4460985,-0.0284455,-0.130851,-0.7978784999999999,-0.0510565,0.125889,-0.8072185,-0.0545755,1
75,0.010215,0.721605,0.050148,-0.135478,0.506395,0.058751,-0.2342979999999999,0.755305,0.034538,0.150832,0.479335,0.0526919999999999,0.255152,0.735985,0.0472319999999999,-0.265308,0.999595,0.0235319999999999,0.283602,0.977295,0.028634,-0.073847,0.0036259999999999,0.004907,0.073847,-0.0036259999999999,-0.004907,-0.122248,-0.420385,-0.054875,0.122682,-0.443915,-0.036027,-0.129888,-0.796555,-0.055234,0.126422,-0.8054749999999999,-0.058708,1
76,0.0097135,0.7208245000000001,0.0470239999999999,-0.1359605,0.5058945,0.056182,-0.2346805,0.7526545,0.030306,0.1504494999999999,0.4786244999999999,0.050359,0.2551695,0.7347745,0.043241,-0.2654805,1.0002645,0.016857,0.2842795,0.9787645,0.022089,-0.0739515,0.0034124999999999,0.004502,0.0739515,-0.0034124999999999,-0.004502,-0.1221505,-0.4189555,-0.062706,0.1243295,-0.4414355,-0.04391,-0.1291605,-0.7949554999999999,-0.060031,0.1269195,-0.8033055,-0.062975,1
77,0.0090244999999999,0.718974,0.0428485,-0.1366985,0.505104,0.0527544999999999,-0.2352985,0.748864,0.0247814999999999,0.1500115,0.478294,0.0470145,0.2551215,0.733524,0.0380125,-0.2658785,1.001004,0.0082285,0.2847615,0.981404,0.0139775,-0.0739705,0.003058,0.0040354999999999,0.0739705,-0.0030579999999999,-0.0040355,-0.1223285,-0.4159259999999999,-0.0726665,0.1261215,-0.4370759999999999,-0.0534215,-0.1285385,-0.791296,-0.0657565,0.1271314999999999,-0.799226,-0.0685135,1
78,0.0083355,0.7168680000000001,0.038541,-0.1373935,0.504148,0.04914,-0.2358634999999999,0.744858,0.0187819999999999,0.1494865,0.478148,0.043342,0.2550265,0.731768,0.032165,-0.2664735,1.001578,-0.0013769999999999,0.2852265,0.983878,0.004659,-0.0740115,0.002661,0.0035409999999999,0.0740115,-0.0026609999999999,-0.003541,-0.1226734999999999,-0.4115919999999999,-0.083914,0.1281665,-0.4317419999999999,-0.064216,-0.1279235,-0.7866219999999999,-0.071512,0.1273165,-0.794042,-0.073937,1
79,0.0077069999999999,0.7149455,0.034276,-0.138059,0.5025755,0.045458,-0.236339,0.7405455,0.012676,0.148991,0.4773254999999999,0.0397209999999999,0.255001,0.7303855,0.026104,-0.266989,1.0017655,-0.01116,0.2858409999999999,0.9867655,-0.004917,-0.074041,0.0022825,0.0030589999999999,0.074041,-0.0022825,-0.003059,-0.122979,-0.4061045,-0.095536,0.130271,-0.4248545,-0.075228,-0.127189,-0.7809345,-0.077266,0.127601,-0.7878045,-0.079295,1
80,0.0071469999999999,0.713086,0.0298039999999999,-0.1386879999999999,0.501156,0.04152,-0.236798,0.736846,0.0063329999999999,0.148482,0.476606,0.035965,0.254982,0.728756,0.019762,-0.267598,1.002486,-0.021235,0.2863219999999999,0.989486,-0.014574,-0.073995,0.001967,0.0025409999999999,0.073995,-0.001967,-0.002541,-0.123228,-0.399754,-0.107649,0.132402,-0.417404,-0.086524,-0.126448,-0.774314,-0.08338,0.1280319999999999,-0.7806839999999999,-0.084703,1
81,0.0065864999999999,0.7107635,0.025764,-0.1392855,0.4995135,0.03773,-0.2371855,0.7325635,0.000177,0.1480345,0.4758835,0.032169,0.2549845,0.7278335,0.0135769999999999,-0.2682255,1.0026035,-0.03108,0.2870645,0.9921035,-0.024033,-0.0740125,0.0016585,0.002168,0.0740125,-0.0016584999999999,-0.002168,-0.1234255,-0.3934565,-0.119363,0.1343245,-0.4101865,-0.097797,-0.1261354999999999,-0.7674865,-0.089883,0.1282345,-0.7734665,-0.089515,1
82,0.0062559999999999,0.7085290000000001,0.0215955,-0.139703,0.4980490000000001,0.0340795,-0.237613,0.730919,-0.0059524999999999,0.1477069999999999,0.475129,0.0287155,0.255237,0.7269990000000001,0.0077225,-0.268873,1.003129,-0.0402905,0.287767,0.991229,-0.0330395,-0.07411,0.001322,0.0017994999999999,0.07411,-0.001322,-0.0017994999999999,-0.123693,-0.3870409999999999,-0.1305835,0.135737,-0.402161,-0.1087255,-0.125863,-0.759891,-0.0962105,0.128417,-0.7654409999999999,-0.0943785,1
83,0.0059569999999999,0.7054170000000001,0.0174495,-0.140037,0.4969269999999999,0.0304874999999999,-0.238057,0.729087,-0.0122815,0.147483,0.474757,0.0251855,0.255253,0.725747,0.0018205,-0.269787,1.003157,-0.0498665,0.288553,0.990237,-0.0418205,-0.074163,0.001006,0.0014204999999999,0.074163,-0.0010059999999999,-0.0014204999999999,-0.123897,-0.380663,-0.1416985,0.137113,-0.393933,-0.1190114999999999,-0.125557,-0.751663,-0.1020745,0.128553,-0.7573829999999999,-0.0992285,1
84,0.0057325,0.7029825000000001,0.013661,-0.1398575,0.4956825,0.026741,-0.2385275,0.7276125,-0.017893,0.1472925,0.4749325,0.0218509999999999,0.2554925,0.7240525,-0.003735,-0.2709275,0.9992325,-0.058796,0.2891125,0.9889525,-0.049991,-0.0741535,0.0007485,0.0012719999999999,0.0741535,-0.0007485,-0.001272,-0.1243874999999999,-0.3692775,-0.151893,0.1382325,-0.3807275,-0.128654,-0.1258475,-0.7403175,-0.107907,0.1281925,-0.7457075,-0.103471,1
85,0.0053484999999999,0.7008815,0.008869,-0.1395615,0.4939115,0.021992,-0.2389115,0.7268115,-0.0259469999999999,0.1471485,0.4746615,0.01743,0.2559384999999999,0.7239215,-0.011372,-0.2723915,0.9948115,-0.070218,0.2904985,0.9898515,-0.0602609999999999,-0.0741285,0.0005014999999999,0.0008809999999999,0.0741285,-0.0005014999999999,-0.0008809999999999,-0.1247815,-0.3521585,-0.1640609999999999,0.1394484999999999,-0.3626184999999999,-0.140547,-0.1267915,-0.7226485,-0.114264,0.1272685,-0.7285185,-0.108712,1
86,0.0055509999999999,0.700159,0.0012445,-0.138923,0.493979,0.0143884999999999,-0.238833,0.725759,-0.0364914999999999,0.147367,0.475409,0.0098065,0.2567669999999999,0.720439,-0.0216984999999999,-0.273543,0.988069,-0.0842084999999999,0.292187,0.982389,-0.0741435,-0.0741749999999999,0.000466,0.0003975,0.0741749999999999,-0.0004659999999999,-0.0003974999999999,-0.124593,-0.335751,-0.1786065,0.141027,-0.345121,-0.1557265,-0.127243,-0.705171,-0.1236295,0.126657,-0.711161,-0.1167595,1
87,0.006106,0.700886,-0.0067349999999999,-0.1379,0.491576,0.006085,-0.23858,0.726746,-0.0470239999999999,0.14779,0.475676,0.0019399999999999,0.25792,0.7196659999999999,-0.03195,-0.27431,0.982056,-0.098332,0.29398,0.977446,-0.087371,-0.074321,0.000655,-0.0004709999999999,0.074321,-0.000655,0.0004709999999999,-0.12411,-0.317944,-0.196266,0.14391,-0.326294,-0.173256,-0.12727,-0.686084,-0.132988,0.12637,-0.6921940000000001,-0.124923,1
88,0.0067205,0.701576,-0.0145879999999999,-0.1368685,0.490166,-0.0022749999999999,-0.2382985,0.728276,-0.0573079999999999,0.1483615,0.477016,-0.0057369999999999,0.2590615,0.718156,-0.0419949999999999,-0.2750185,0.976716,-0.112068,0.2957915,0.972106,-0.1002049999999999,-0.0744944999999999,0.0006319999999999,-0.0012029999999999,0.0744944999999999,-0.000632,0.001203,-0.1235485,-0.300964,-0.2133449999999999,0.1467315,-0.308374,-0.190465,-0.1271385,-0.667784,-0.141922,0.1261815,-0.673784,-0.1329,1
89,0.0076669999999999,0.701913,-0.0226229999999999,-0.135455,0.488973,-0.010934,-0.237635,0.729593,-0.0674329999999999,0.148945,0.476363,-0.0136669999999999,0.260775,0.717673,-0.051957,-0.275225,0.971993,-0.12566,0.297715,0.968203,-0.113163,-0.074745,0.0006359999999999,-0.0021029999999999,0.074745,-0.0006359999999999,0.0021029999999999,-0.122795,-0.284347,-0.230369,0.150075,-0.290577,-0.207749,-0.126565,-0.649007,-0.150564,0.126395,-0.654687,-0.141111,1
90,0.008659,0.70291,-0.03052,-0.1338899999999999,0.4885299999999999,-0.01945,-0.2360199999999999,0.7317800000000001,-0.077656,0.14965,0.47617,-0.021317,0.26259,0.7169800000000001,-0.061991,-0.2742799999999999,0.96811,-0.138972,0.29959,0.96487,-0.125761,-0.0749759999999999,0.00057,-0.003017,0.0749759999999999,-0.00057,0.0030169999999999,-0.12211,-0.26895,-0.246857,0.15344,-0.27334,-0.224427,-0.12603,-0.63037,-0.158727,0.12664,-0.63576,-0.148781,1
91,0.0097285,0.70273,-0.0385365,-0.1322594999999999,0.48728,-0.0283295,-0.2344195,0.73315,-0.0878355,0.1503005,0.47592,-0.0291555,0.2645004999999999,0.7146199999999999,-0.0722255,-0.2737895,0.96467,-0.1523515,0.3013305,0.9655,-0.1379375,-0.0751965,0.0005699999999999,-0.0036734999999999,0.0751965,-0.0005699999999999,0.0036734999999999,-0.1214594999999999,-0.25275,-0.2631655,0.1569005,-0.25551,-0.2408555,-0.1251094999999999,-0.6110800000000001,-0.1667565,0.1268705,-0.61626,-0.1563655,1
92,0.0108945,0.703095,-0.0470509999999999,-0.1305865,0.486355,-0.0377519999999999,-0.2327865,0.735255,-0.098688,0.1509734999999999,0.475765,-0.0375359999999999,0.2665135,0.7138249999999999,-0.08319,-0.2731865,0.962435,-0.166555,0.3032235,0.966305,-0.151739,-0.0754384999999999,0.0005949999999999,-0.0043529999999999,0.0754384999999999,-0.000595,0.004353,-0.1209264999999999,-0.234735,-0.2798469999999999,0.1604135,-0.235585,-0.257827,-0.1241765,-0.589515,-0.175439,0.1270235,-0.594295,-0.164656,1
93,0.0120575,0.702605,-0.0558439999999999,-0.1290455,0.483685,-0.047288,-0.2310055,0.727125,-0.10958,0.1515045,0.475515,-0.0461589999999999,0.2685345,0.713475,-0.095438,-0.2726455,0.956975,-0.179921,0.3051645,0.964315,-0.1666039999999999,-0.0756475,0.000545,-0.004746,0.0756475,-0.0005449999999999,0.004746,-0.1201055,-0.216685,-0.296274,0.1638145,-0.215795,-0.274414,-0.1230555,-0.567985,-0.183566,0.1279345,-0.572465,-0.172476,1
94,0.0133239999999999,0.7024999999999999,-0.063714,-0.127297,0.48278,-0.056122,-0.229947,0.72106,-0.117852,0.152053,0.47474,-0.054708,0.270323,0.7120200000000001,-0.106223,-0.272117,0.95442,-0.191875,0.306873,0.96073,-0.179627,-0.075983,0.00075,-0.004875,0.075983,-0.00075,0.0048749999999999,-0.119437,-0.20184,-0.310685,0.167103,-0.20031,-0.289265,-0.121787,-0.55125,-0.189761,0.128823,-0.55443,-0.178858,1
95,0.0142189999999999,0.701835,-0.067779,-0.126024,0.480755,-0.060948,-0.229394,0.716515,-0.122343,0.1521559999999999,0.473115,-0.059214,0.2714459999999999,0.7143349999999999,-0.113176,-0.2715539999999999,0.953895,-0.200342,0.3080659999999999,0.963715,-0.187678,-0.076348,0.000835,-0.00482,0.076348,-0.000835,0.0048199999999999,-0.119194,-0.1876749999999999,-0.32039,0.1697759999999999,-0.185665,-0.29895,-0.120974,-0.535265,-0.191913,0.129206,-0.5372750000000001,-0.180971,1
96,0.0147275,0.699885,-0.071086,-0.1252865,0.480745,-0.064552,-0.2293465,0.711395,-0.126517,0.1520935,0.471145,-0.063217,0.2721535,0.714125,-0.119539,-0.2713664999999999,0.954385,-0.207348,0.3086335,0.965205,-0.195067,-0.0765945,0.0007749999999999,-0.004405,0.0765945,-0.0007749999999999,0.004405,-0.1191065,-0.172805,-0.325465,0.1710435,-0.170875,-0.305045,-0.1200365,-0.519935,-0.193156,0.1291735,-0.520595,-0.18237,1
97,0.0152869999999999,0.69728,-0.074536,-0.12461,0.48036,-0.06836,-0.22884,0.70765,-0.131607,0.15199,0.46809,-0.067521,0.2724799999999999,0.7136399999999999,-0.125886,-0.27132,0.95568,-0.215255,0.3086799999999999,0.96612,-0.202984,-0.076847,0.0009699999999999,-0.004095,0.076847,-0.0009699999999999,0.004095,-0.11902,-0.1555,-0.3308649999999999,0.17224,-0.15339,-0.311475,-0.11896,-0.50393,-0.193831,0.1289199999999999,-0.5020600000000001,-0.18297,1
98,0.0157275,0.6951400000000001,-0.078039,-0.1241565,0.47956,-0.072048,-0.2288665,0.70418,-0.13713,0.1520035,0.46671,-0.071529,0.2729735,0.70887,-0.131902,-0.2711765,0.9498,-0.22306,0.3085635,0.96418,-0.210637,-0.0769805,0.00107,-0.00367,0.0769805,-0.00107,0.0036699999999999,-0.1188364999999999,-0.13839,-0.33584,0.1731235,-0.13545,-0.31771,-0.1187465,-0.48791,-0.195446,0.1286235,-0.48381,-0.183313,1
99,0.0161674999999999,0.69255,-0.082102,-0.1238475,0.4785,-0.075937,-0.2290775,0.70042,-0.142965,0.1522524999999999,0.46549,-0.075656,0.2734225,0.7048099999999999,-0.137944,-0.2709975,0.94423,-0.23086,0.3085525,0.96156,-0.21855,-0.0771295,0.0011399999999999,-0.0032599999999999,0.0771295,-0.0011399999999999,0.0032599999999999,-0.1185374999999999,-0.12649,-0.34098,0.1738724999999999,-0.1228099999999999,-0.32396,-0.1178875,-0.47285,-0.195767,0.1285125,-0.46564,-0.1844549999999999,1
100,0.0163504999999999,0.690975,-0.086127,-0.1236884999999999,0.476825,-0.080148,-0.2280685,0.6982349999999999,-0.149331,0.1523715,0.463975,-0.0801659999999999,0.2736815,0.703345,-0.1437689999999999,-0.2707185,0.939585,-0.2384049999999999,0.3083615,0.959155,-0.226335,-0.0772525,0.001145,-0.0030149999999999,0.0772525,-0.001145,0.003015,-0.1181985,-0.1142249999999999,-0.346265,0.1742715,-0.109435,-0.330315,-0.1171384999999999,-0.4571949999999999,-0.1964059999999999,0.1276915,-0.447285,-0.185608,1
101,0.01641,0.688325,-0.089915,-0.123721,0.4748749999999999,-0.083863,-0.2273909999999999,0.6957549999999999,-0.1552879999999999,0.152429,0.462345,-0.084354,0.273739,0.700155,-0.149148,-0.270721,0.933955,-0.244875,0.308239,0.954065,-0.232885,-0.077489,0.0010849999999999,-0.0028549999999999,0.077489,-0.001085,0.0028549999999999,-0.1179909999999999,-0.103315,-0.350855,0.174549,-0.097715,-0.335805,-0.1164609999999999,-0.443895,-0.19684,0.126249,-0.432015,-0.1865689999999999,1
102,0.0164305,0.687115,-0.093068,-0.1237005,0.474935,-0.087685,-0.2269605,0.7036450000000001,-0.161018,0.1524595,0.460615,-0.088455,0.2734795,0.697535,-0.153205,-0.2707505,0.937095,-0.251345,0.3081595,0.953175,-0.238165,-0.0778135,0.001205,-0.002855,0.0778135,-0.0012049999999999,0.0028549999999999,-0.1178005,-0.0923549999999999,-0.354785,0.1747895,-0.0859049999999999,-0.340385,-0.1149705,-0.4319349999999999,-0.196468,0.1251095,-0.417895,-0.187442,1
103,0.0163105,0.68479,-0.0961539999999999,-0.1236374999999999,0.47322,-0.091643,-0.2268675,0.70271,-0.1666699999999999,0.1523525,0.46009,-0.092164,0.2733625,0.6947,-0.15736,-0.2710375,0.93659,-0.256325,0.3079325,0.95226,-0.2436749999999999,-0.0782455,0.0010099999999999,-0.0028549999999999,0.0782455,-0.00101,0.0028549999999999,-0.1178074999999999,-0.08114,-0.357965,0.1745925,-0.07408,-0.343855,-0.1133774999999999,-0.41962,-0.196143,0.1236724999999999,-0.40434,-0.188683,1
104,0.0162579999999999,0.6822900000000001,-0.098695,-0.123585,0.47131,-0.095244,-0.225855,0.70276,-0.171757,0.152215,0.459226,-0.09556,0.2732549999999999,0.69153,-0.161087,-0.271285,0.93733,-0.259965,0.307695,0.95227,-0.248535,-0.078592,0.00089,-0.002625,0.078592,-0.00089,0.002625,-0.1176349999999999,-0.06962,-0.360545,0.174055,-0.0617699999999999,-0.346715,-0.111825,-0.40705,-0.195057,0.122205,-0.39119,-0.189616,1
105,0.0161905,0.67961,-0.101519,-0.1236594999999999,0.469036,-0.098863,-0.2259495,0.70398,-0.177422,0.1521405,0.457522,-0.099452,0.2731004999999999,0.68869,-0.1656,-0.2718395,0.93878,-0.26544,0.3071605,0.94936,-0.2539,-0.0789865,0.00079,-0.0023999999999999,0.0789865,-0.0007899999999999,0.0023999999999999,-0.1173795,-0.0565599999999999,-0.36271,0.1731504999999999,-0.0479599999999999,-0.3491,-0.1108895,-0.39344,-0.193483,0.1205605,-0.37766,-0.190697,1
106,0.016215,0.677315,-0.1039699999999999,-0.1236399999999999,0.4662929999999999,-0.102198,-0.2262199999999999,0.703885,-0.181724,0.15231,0.45652,-0.102861,0.27323,0.6865950000000001,-0.169926,-0.27243,0.939435,-0.2703299999999999,0.3066899999999999,0.947545,-0.2588,-0.079278,0.0006249999999999,-0.0021699999999999,0.079278,-0.0006249999999999,0.00217,-0.1170099999999999,-0.044005,-0.36384,0.17195,-0.035135,-0.35046,-0.11003,-0.381105,-0.1922309999999999,0.12017,-0.3667749999999999,-0.1916669999999999,1
107,0.0165379999999999,0.67455,-0.106053,-0.123302,0.46373,-0.105256,-0.226812,0.69674,-0.185247,0.152928,0.455552,-0.105845,0.273408,0.68838,-0.174121,-0.272852,0.9392,-0.27477,0.306828,0.94622,-0.26394,-0.079552,0.0004899999999999,-0.00202,0.079552,-0.0004899999999999,0.0020199999999999,-0.1163319999999999,-0.0311899999999999,-0.36415,0.170968,-0.0221699999999999,-0.35072,-0.109352,-0.36794,-0.191151,0.1182179999999999,-0.3561699999999999,-0.191709,1
108,0.016858,0.67238,-0.10733,-0.122817,0.460866,-0.107974,-0.227347,0.68999,-0.188664,0.1534329999999999,0.453192,-0.108287,0.273993,0.68929,-0.177847,-0.273097,0.93852,-0.279355,0.307213,0.94465,-0.268615,-0.079899,0.00053,-0.0020649999999999,0.079899,-0.0005299999999999,0.0020649999999999,-0.1155669999999999,-0.0182399999999999,-0.363735,0.169773,-0.00912,-0.350425,-0.109027,-0.35521,-0.1907559999999999,0.115713,-0.34584,-0.1919,1
109,0.0171345,0.669385,-0.108616,-0.1226965,0.459395,-0.110417,-0.2274965,0.684065,-0.192315,0.1539134999999999,0.451682,-0.110257,0.2745835,0.689395,-0.181688,-0.2737765,0.937985,-0.284975,0.3076735,0.943235,-0.272915,-0.0802345,0.000495,-0.0021149999999999,0.0802345,-0.000495,0.002115,-0.1146465,-0.0044549999999999,-0.363415,0.1682835,0.004595,-0.350255,-0.1087165,-0.341985,-0.1913119999999999,0.1137565,-0.336425,-0.191668,1
110,0.017471,0.668135,-0.1094889999999999,-0.1226829999999999,0.457808,-0.113019,-0.2276629999999999,0.680065,-0.196145,0.154547,0.450803,-0.1121249999999999,0.275327,0.687525,-0.185335,-0.274323,0.938265,-0.291545,0.3083869999999999,0.943535,-0.276705,-0.0805599999999999,0.000325,-0.0022049999999999,0.0805599999999999,-0.0003249999999999,0.0022049999999999,-0.1135429999999999,0.011985,-0.363205,0.166827,0.021015,-0.350215,-0.1095329999999999,-0.326685,-0.194859,0.113494,-0.321195,-0.1915339999999999,1
111,0.0177825,0.665955,-0.11063,-0.1226934999999999,0.4567219999999999,-0.11514,-0.2277435,0.677785,-0.200774,0.1553165,0.450779,-0.113736,0.2761065,0.687165,-0.188896,-0.2749135,0.933595,-0.29847,0.3092065,0.941865,-0.2808,-0.0807075,9.500000000001174e-05,-0.00236,0.0807075,-9.500000000001174e-05,0.0023599999999999,-0.1124135,0.0298849999999999,-0.36326,0.1655465,0.0389149999999999,-0.35011,-0.1109435,-0.308785,-0.199995,0.1139285,-0.3038949999999999,-0.191397,1
112,0.018305,0.6643950000000001,-0.111063,-0.1226889999999999,0.456275,-0.116008,-0.227509,0.682025,-0.205563,0.156281,0.450332,-0.114325,0.277101,0.687065,-0.190974,-0.2753489999999999,0.930275,-0.305145,0.310131,0.938865,-0.283575,-0.080764,8.500000000000174e-05,-0.002545,0.080764,-8.500000000000174e-05,0.0025449999999999,-0.111239,0.045795,-0.362855,0.164611,0.054825,-0.349135,-0.112039,-0.292875,-0.204303,0.11317,-0.2919049999999999,-0.191335,1
113,0.018872,0.6627050000000001,-0.1112759999999999,-0.1225999999999999,0.4554250000000001,-0.116821,-0.2268399999999999,0.684845,-0.21028,0.15727,0.4496590000000001,-0.1148199999999999,0.27839,0.6863950000000001,-0.192581,-0.27575,0.925955,-0.311575,0.31102,0.935225,-0.286035,-0.080827,5.500000000002725e-05,-0.0027549999999999,0.080827,-5.499999999991623e-05,0.002755,-0.11009,0.059975,-0.3621149999999999,0.16395,0.068965,-0.3475549999999999,-0.11168,-0.2787349999999999,-0.2054369999999999,0.11203,-0.2816249999999999,-0.191044,1
114,0.0193939999999999,0.6612200000000001,-0.111329,-0.122512,0.455056,-0.116922,-0.226742,0.6849500000000001,-0.2140659999999999,0.157988,0.4503750000000001,-0.1148599999999999,0.279658,0.6861300000000001,-0.192851,-0.2759419999999999,0.92042,-0.316375,0.312238,0.93425,-0.287445,-0.080811,4.000000000004e-05,-0.003055,0.080811,-3.999999999992898e-05,0.003055,-0.108782,0.07323,-0.360525,0.163568,0.08211,-0.345145,-0.1134319999999999,-0.2662899999999999,-0.2113439999999999,0.110879,-0.2721499999999999,-0.190097,1
115,0.0199899999999999,0.659905,-0.111027,-0.122265,0.4553809999999999,-0.116641,-0.227395,0.6847349999999999,-0.21752,0.158825,0.4511019999999999,-0.114542,0.281065,0.684255,-0.192499,-0.275985,0.914245,-0.3201,0.313935,0.932445,-0.28795,-0.080635,3.4999999999896225e-05,-0.00338,0.080635,-3.500000000000725e-05,0.0033799999999999,-0.107325,0.0862649999999999,-0.35813,0.163435,0.0946449999999999,-0.34169,-0.115335,-0.254465,-0.21703,0.109761,-0.2627050000000001,-0.187876,1
116,0.0203824999999999,0.65889,-0.110775,-0.1222045,0.455673,-0.116411,-0.2281745,0.69086,-0.221105,0.1594954999999999,0.451971,-0.114273,0.2822155,0.68169,-0.192198,-0.2759945,0.91497,-0.323875,0.3155955,0.93155,-0.287965,-0.0803195,2.000000000002e-05,-0.003725,0.0803195,-2.000000000002e-05,0.0037249999999999,-0.1060345,0.09923,-0.355675,0.1632154999999999,0.10704,-0.338055,-0.1173145,-0.24285,-0.222185,0.1086615,-0.25432,-0.18426,1
117,0.0207415,0.65743,-0.1098529999999999,-0.1221535,0.455929,-0.115921,-0.2285235,0.6964699999999999,-0.22364,0.1602165,0.4536249999999999,-0.113049,0.2832365,0.6794,-0.191645,-0.2761035,0.91534,-0.32697,0.3178165,0.93098,-0.2875999999999999,-0.0800125,0.0,-0.0041699999999999,0.0800125,0.0,0.00417,-0.1047635,0.11012,-0.35338,0.1631565,0.1195399999999999,-0.33386,-0.1186335,-0.23351,-0.2259499999999999,0.1078865,-0.24394,-0.1817559999999999,1
118,0.0209094999999999,0.65684,-0.1087139999999999,-0.1222095,0.45588,-0.11492,-0.2293595,0.69984,-0.22479,0.1608105,0.45493,-0.111459,0.2840105,0.67688,-0.1909739999999999,-0.2759095,0.91387,-0.32918,0.3200405,0.92984,-0.28722,-0.0797645,7.999999999996898e-05,-0.0045599999999999,0.0797645,-7.999999999996898e-05,0.00456,-0.1037295,0.1212,-0.35067,0.1631604999999999,0.1303,-0.3295,-0.1215395,-0.2241199999999999,-0.23247,0.1085945,-0.23495,-0.179194,1
119,0.0208874999999999,0.6561,-0.1074479999999999,-0.1222535,0.4556300000000001,-0.1135559999999999,-0.2300735,0.70082,-0.2267549999999999,0.1610464999999999,0.45553,-0.1094639999999999,0.2845165,0.6774300000000001,-0.1899179999999999,-0.2762835,0.91181,-0.3307949999999999,0.3220265,0.92969,-0.286725,-0.0796705,0.0003,-0.0048949999999999,0.0796705,-0.0002999999999999,0.004895,-0.1030335,0.12739,-0.349055,0.1629564999999999,0.13908,-0.325315,-0.1245835,-0.2184399999999999,-0.237815,0.1090474999999999,-0.2277199999999999,-0.17672,1
120,0.0207574999999999,0.6554369999999999,-0.106374,-0.1224185,0.4551699999999999,-0.112287,-0.2303385,0.6999799999999999,-0.227575,0.1610015,0.4557499999999999,-0.107771,0.2848715,0.6760499999999999,-0.188997,-0.2769185,0.91282,-0.332665,0.3237015,0.92981,-0.286175,-0.0795525,0.0005199999999999,-0.005025,0.0795525,-0.00052,0.005025,-0.1023385,0.1344499999999999,-0.346735,0.1627615,0.1458399999999999,-0.321665,-0.1261485,-0.21426,-0.2413449999999999,0.1094715,-0.2209700000000001,-0.174791,1
121,0.0207975,0.656745,-0.105784,-0.1225925,0.454975,-0.110526,-0.2306725,0.698645,-0.22757,0.1609475,0.456245,-0.105656,0.2850475,0.674191,-0.187713,-0.2779125,0.913955,-0.33358,0.3253975,0.930315,-0.28546,-0.0795265,0.000685,-0.005,0.0795265,-0.0006849999999999,0.005,-0.1015225,0.137885,-0.34539,0.1623675,0.151195,-0.31839,-0.1286425,-0.2118949999999999,-0.24387,0.1087485,-0.216805,-0.174,1
122,0.0206235,0.6581060000000001,-0.104628,-0.1227915,0.45484,-0.10862,-0.2310315,0.69764,-0.227335,0.1608585,0.4568,-0.10357,0.2852785,0.674972,-0.186734,-0.2790315,0.91509,-0.333655,0.3267585,0.93124,-0.284755,-0.0795745,0.00078,-0.0049949999999999,0.0795745,-0.0007799999999998,0.0049949999999999,-0.1007515,0.14363,-0.343305,0.1621085,0.15605,-0.316245,-0.1311415,-0.2089299999999999,-0.246145,0.1084115,-0.2137099999999999,-0.174705,1
123,0.020371,0.6594679999999999,-0.1035639999999999,-0.122939,0.4554399999999999,-0.106616,-0.2315089999999999,0.6972799999999999,-0.2271949999999999,0.160681,0.4572799999999999,-0.101723,0.285401,0.674345,-0.185192,-0.280419,0.91741,-0.333945,0.327731,0.93148,-0.284125,-0.079554,0.0008099999999999,-0.0051049999999999,0.079554,-0.00081,0.0051049999999999,-0.100279,0.1482699999999999,-0.342205,0.162021,0.1583699999999999,-0.315165,-0.1325489999999999,-0.20647,-0.2460649999999999,0.108373,-0.21139,-0.173893,1
124,0.0200839999999999,0.660555,-0.102346,-0.123316,0.45627,-0.104947,-0.232026,0.69679,-0.226885,0.160484,0.45736,-0.100088,0.285784,0.674981,-0.183539,-0.282056,0.91883,-0.333805,0.328394,0.93064,-0.282985,-0.079579,0.00071,-0.005305,0.079579,-0.0007099999999999,0.0053049999999999,-0.099816,0.1521,-0.341385,0.162044,0.16015,-0.314915,-0.133676,-0.2044099999999999,-0.246135,0.1082279999999999,-0.2096099999999999,-0.171601,1
125,0.0197325,0.661273,-0.101447,-0.1239415,0.456895,-0.103486,-0.2331315,0.697125,-0.226445,0.1602485,0.457485,-0.098666,0.2860685,0.675926,-0.182915,-0.2841214999999999,0.919855,-0.333905,0.3288685,0.929325,-0.282035,-0.0796175,0.000595,-0.005355,0.0796175,-0.000595,0.0053549999999999,-0.0991715,0.154685,-0.340955,0.1619085,0.161095,-0.3148849999999999,-0.1348015,-0.2029449999999999,-0.248045,0.1075335,-0.210735,-0.171184,1
126,0.019222,0.661273,-0.1002779999999999,-0.1245319999999999,0.456895,-0.1022909999999999,-0.2343719999999999,0.697125,-0.2255349999999999,0.160148,0.457485,-0.09743,0.286198,0.675926,-0.1824879999999999,-0.2866019999999999,0.919855,-0.333845,0.329368,0.929325,-0.2808049999999999,-0.079618,0.000595,-0.005345,0.079618,-0.000595,0.005345,-0.0984819999999999,0.154215,-0.340895,0.161408,0.160485,-0.314905,-0.135922,-0.2029449999999999,-0.247455,0.106888,-0.2135549999999999,-0.170894,1
127,0.018834,0.661273,-0.099519,-0.125103,0.456895,-0.101652,-0.235503,0.697125,-0.224095,0.160047,0.457485,-0.096655,0.286887,0.675926,-0.182292,-0.288933,0.919855,-0.333285,0.329567,0.929325,-0.280355,-0.07962,0.000595,-0.005315,0.07962,-0.000595,0.005315,-0.097833,0.152745,-0.341285,0.161037,0.159535,-0.314995,-0.135673,-0.2035549999999999,-0.246885,0.1061,-0.2143549999999999,-0.170925,1
128,0.01854,0.661273,-0.099361,-0.1251,0.456895,-0.101671,-0.23565,0.697125,-0.222385,0.16001,0.457485,-0.096675,0.2878699999999999,0.67794,-0.182247,-0.29041,0.920185,-0.332565,0.32952,0.929325,-0.280085,-0.079647,0.000595,-0.0053349999999999,0.079647,-0.000595,0.005335,-0.09725,0.151575,-0.341825,0.16101,0.158435,-0.315695,-0.13543,-0.204075,-0.246245,0.106586,-0.2125749999999999,-0.172863,1
129,0.0181605,0.662404,-0.099371,-0.1254104999999999,0.4578099999999999,-0.101716,-0.2359404999999999,0.69743,-0.22024,0.1599095,0.4571199999999999,-0.096707,0.2887295,0.6806519999999999,-0.182217,-0.2914205,0.92232,-0.33161,0.3293494999999999,0.9294,-0.27978,-0.0797645,0.0004899999999999,-0.00534,0.0797645,-0.0004899999999999,0.0053399999999999,-0.0967905,0.1491299999999999,-0.34268,0.1609795,0.1557699999999999,-0.31729,-0.1351405,-0.20505,-0.24466,0.1069955,-0.21167,-0.173706,1
130,0.017216,0.663879,-0.099633,-0.126336,0.4575999999999999,-0.101977,-0.2377959999999999,0.69367,-0.21926,0.159064,0.4565499999999999,-0.096963,0.2885339999999999,0.68333,-0.182431,-0.293856,0.92242,-0.33155,0.3286739999999999,0.93027,-0.2802,-0.080161,0.0002299999999999,-0.0051599999999999,0.080161,-0.00023,0.0051599999999999,-0.096966,0.1395599999999999,-0.34557,0.160364,0.1463399999999999,-0.32147,-0.1334759999999999,-0.21249,-0.2395499999999999,0.10674,-0.21719,-0.175015,1
131,0.0160385,0.665705,-0.100048,-0.1275135,0.457305,-0.102397,-0.2400535,0.688825,-0.218285,0.1579265,0.455985,-0.097503,0.2877464999999999,0.685725,-0.1832349999999999,-0.2963635,0.917905,-0.331025,0.3276965,0.929175,-0.280635,-0.0805755,-1.4999999999987246e-05,-0.004815,0.0805755,1.4999999999987246e-05,0.004815,-0.0971435,0.125475,-0.348875,0.1595165,0.131445,-0.326225,-0.1314934999999999,-0.225225,-0.234975,0.1065195,-0.228005,-0.175849,1
132,0.014818,0.6677150000000001,-0.100938,-0.1287579999999999,0.458041,-0.102862,-0.241568,0.683435,-0.216195,0.1567319999999999,0.455277,-0.098162,0.286862,0.688245,-0.184175,-0.299088,0.912495,-0.329745,0.326612,0.927545,-0.280985,-0.080899,-0.0001549999999999,-0.004445,0.080899,0.000155,0.004445,-0.097368,0.110995,-0.3509649999999999,0.158632,0.114585,-0.330995,-0.1301379999999999,-0.237695,-0.232145,0.105884,-0.2406449999999999,-0.176923,1
133,0.013495,0.668975,-0.1016099999999999,-0.130346,0.45929,-0.103097,-0.2438759999999999,0.6849749999999999,-0.21448,0.155464,0.4541259999999999,-0.0988989999999999,0.286214,0.6907449999999999,-0.18497,-0.301836,0.915145,-0.32819,0.325134,0.928175,-0.2810899999999999,-0.081103,-0.0001349999999999,-0.0042399999999999,0.081103,0.0001349999999999,0.00424,-0.097576,0.0915749999999999,-0.35274,0.157824,0.0950149999999999,-0.33457,-0.126136,-0.2552350000000001,-0.2255599999999999,0.10514,-0.257135,-0.1777119999999999,1
134,0.012263,0.6711149999999999,-0.102499,-0.131941,0.459761,-0.103534,-0.245911,0.684655,-0.21336,0.154279,0.4537869999999999,-0.099975,0.285539,0.692955,-0.186504,-0.3045609999999999,0.916125,-0.32691,0.323739,0.927275,-0.28127,-0.081284,-0.000325,-0.0039399999999999,0.081284,0.0003249999999999,0.0039399999999999,-0.098061,0.0713749999999999,-0.3533699999999999,0.157249,0.0739949999999999,-0.33754,-0.122311,-0.273575,-0.21931,0.105,-0.276265,-0.17901,1
135,0.0109644999999999,0.672945,-0.103147,-0.1333375,0.460548,-0.103817,-0.2473775,0.682365,-0.211697,0.1530825,0.453589,-0.100835,0.2843325,0.695025,-0.187384,-0.3062574999999999,0.914505,-0.325275,0.3223125,0.925485,-0.280985,-0.0813425,-0.000475,-0.003845,0.0813425,0.000475,0.003845,-0.0986575,0.048725,-0.353645,0.1566725,0.051345,-0.339005,-0.1186774999999999,-0.294405,-0.2114349999999999,0.1050875,-0.2967849999999999,-0.179793,1
136,0.0091984999999999,0.6753899999999999,-0.102981,-0.1347325,0.461622,-0.104485,-0.2496125,0.68215,-0.210178,0.1517275,0.453664,-0.101915,0.2825975,0.69652,-0.187675,-0.3082625,0.91474,-0.3235949999999999,0.3204775,0.92682,-0.281475,-0.0809314999999999,-0.00034,-0.003705,0.0809314999999999,0.00034,0.003705,-0.0996425,0.0225099999999999,-0.353305,0.1562375,0.02382,-0.3403049999999999,-0.1155525,-0.31864,-0.203691,0.1059664999999999,-0.32038,-0.180591,1
137,0.007613,0.67895,-0.1036919999999999,-0.1361689999999999,0.462847,-0.104932,-0.251489,0.68035,-0.208679,0.150351,0.454401,-0.102759,0.280371,0.69743,-0.1876709999999999,-0.311039,0.91556,-0.32172,0.3184909999999999,0.92837,-0.28148,-0.080666,-0.0003099999999999,-0.00357,0.080666,0.00031,0.00357,-0.100579,-0.0054099999999999,-0.35325,0.156111,-0.0041199999999999,-0.34055,-0.112639,-0.3432199999999999,-0.1952809999999999,0.106757,-0.34417,-0.181321,1
138,0.0063244999999999,0.68257,-0.1042309999999999,-0.1373895,0.463483,-0.105039,-0.2531394999999999,0.67637,-0.207084,0.1491005,0.454753,-0.1032529999999999,0.2786705,0.69817,-0.1873389999999999,-0.3129194999999999,0.91215,-0.3195599999999999,0.3164705,0.92838,-0.28117,-0.0803555,-0.00034,-0.0031599999999999,0.0803555,0.00034,0.00316,-0.1013795,-0.0355599999999999,-0.3528599999999999,0.1564105,-0.03398,-0.34009,-0.1101695,-0.3714599999999999,-0.189994,0.1087505,-0.3688299999999999,-0.182238,1
139,0.005877,0.685975,-0.103982,-0.1378869999999999,0.466286,-0.104526,-0.253507,0.681025,-0.2061299999999999,0.148733,0.454893,-0.1030109999999999,0.277923,0.6987049999999999,-0.186842,-0.314077,0.912915,-0.316885,0.315833,0.928295,-0.280595,-0.079786,-4.500000000001725e-05,-0.002765,0.079786,4.499999999996174e-05,0.002765,-0.101487,-0.060475,-0.352325,0.157163,-0.058275,-0.339505,-0.110827,-0.395185,-0.189013,0.1113629999999999,-0.389555,-0.183133,1
140,0.0055944999999999,0.6897599999999999,-0.1028099999999999,-0.1383295,0.46928,-0.1033639999999999,-0.2541295,0.6849,-0.203452,0.1486205,0.4583899999999999,-0.1018289999999999,0.2773505,0.6996899999999999,-0.1855359999999999,-0.3152095,0.92077,-0.313585,0.3153404999999999,0.92695,-0.278985,-0.0794245,-0.0001099999999999,-0.0023549999999999,0.0794245,0.0001099999999999,0.002355,-0.1018895,-0.08273,-0.350745,0.1574205,-0.08013,-0.338295,-0.1112895,-0.41736,-0.187853,0.1134205,-0.4105,-0.183055,1
141,0.005358,0.693465,-0.101009,-0.138437,0.471185,-0.101555,-0.254627,0.692555,-0.200224,0.148663,0.461005,-0.10001,0.276903,0.700645,-0.183177,-0.316457,0.931105,-0.3091049999999999,0.314903,0.925045,-0.276725,-0.079144,-0.0001349999999999,-0.002175,0.079144,0.0001349999999999,0.0021749999999999,-0.102357,-0.104105,-0.347915,0.157313,-0.1007349999999999,-0.336115,-0.111697,-0.4393549999999999,-0.186063,0.115313,-0.433075,-0.182668,1
142,0.005297,0.697835,-0.097896,-0.1384139999999999,0.472755,-0.098279,-0.255194,0.690205,-0.19519,0.148876,0.4637449999999999,-0.09688,0.276806,0.701945,-0.179149,-0.318214,0.931645,-0.30321,0.314996,0.926215,-0.272,-0.078883,-0.000285,-0.00202,0.078883,0.0002849999999999,0.0020199999999999,-0.1027339999999999,-0.123335,-0.34198,0.156936,-0.120225,-0.33002,-0.112324,-0.4608650000000001,-0.18376,0.117376,-0.455105,-0.179419,1
143,0.0053569999999999,0.70164,-0.09305,-0.138636,0.47467,-0.09333,-0.2561859999999999,0.69363,-0.189409,0.149244,0.46568,-0.09213,0.276654,0.7039599999999999,-0.172738,-0.319486,0.93748,-0.295941,0.315524,0.92897,-0.265451,-0.078324,-0.00014,-0.001849,0.078324,0.0001399999999999,0.0018489999999999,-0.103006,-0.1429699999999999,-0.333721,0.156664,-0.14015,-0.321831,-0.113666,-0.4841499999999999,-0.180506,0.1191639999999999,-0.4787099999999999,-0.175589,1
144,0.0055105,0.70694,-0.086839,-0.1387165,0.47696,-0.0871649999999999,-0.2567665,0.69599,-0.181979,0.1496635,0.46865,-0.08601,0.2770035,0.7069099999999999,-0.164955,-0.3206965,0.94174,-0.286483,0.3160735,0.93176,-0.256823,-0.0776405,-1.000000000001e-05,-0.0015869999999999,0.0776405,1.000000000001e-05,0.001587,-0.1036265,-0.16288,-0.323623,0.1564235,-0.1608,-0.311573,-0.1146965,-0.50908,-0.175428,0.1209835,-0.5047999999999999,-0.171203,1
145,0.0056745,0.710495,-0.0795615,-0.1388965,0.477815,-0.0806615,-0.2574765,0.695885,-0.1720555,0.1503535,0.472195,-0.0791605,0.2777934999999999,0.709815,-0.1567835,-0.3217965,0.943675,-0.2747255,0.3171435,0.938525,-0.2471955,-0.0767974999999999,-0.000115,-0.0012575,0.0767974999999999,0.000115,0.0012574999999999,-0.1045265,-0.179085,-0.3132855,0.1562635,-0.177945,-0.3006855,-0.1153865,-0.5312049999999999,-0.1704595,0.1223134999999999,-0.528515,-0.1662045,1
146,0.0057235,0.714035,-0.071777,-0.1391214999999999,0.478845,-0.0735379999999999,-0.2581115,0.6965049999999999,-0.1614769999999999,0.1510485,0.474885,-0.071764,0.2786885,0.7120949999999999,-0.147315,-0.3234115,0.946185,-0.261176,0.3182184999999999,0.945415,-0.237236,-0.0759644999999999,-4.499999999998949e-05,-0.00096,0.0759644999999999,4.500000000001725e-05,0.00096,-0.1048915,-0.196235,-0.302306,0.1558185,-0.1976649999999999,-0.2891559999999999,-0.1161815,-0.5544849999999999,-0.16429,0.1234085,-0.552465,-0.159912,1
147,0.005695,0.717285,-0.0628595,-0.139535,0.480615,-0.0653715,-0.259175,0.703805,-0.1503875,0.151575,0.477805,-0.0632654999999999,0.279445,0.714705,-0.1361655,-0.324935,0.956245,-0.2474395,0.319205,0.951625,-0.2252795,-0.075149,5.499999999999949e-05,-0.0009334999999999,0.075149,-5.499999999999949e-05,0.0009335,-0.105305,-0.2139449999999999,-0.2898495,0.154905,-0.2170649999999999,-0.2762995,-0.1170749999999999,-0.577555,-0.1567615,0.123845,-0.576175,-0.1526345,1
148,0.005755,0.72075,-0.0528735,-0.139886,0.4816499999999999,-0.0560065,-0.259946,0.70654,-0.1382755,0.1521839999999999,0.48236,-0.0537215,0.280124,0.7166600000000001,-0.1236325,-0.326306,0.964,-0.2325605,0.320654,0.95556,-0.2116805,-0.074486,-2.000000000002e-05,-0.0008284999999999,0.074486,1.999999999999225e-05,0.0008284999999999,-0.105766,-0.23287,-0.2754205,0.153524,-0.23847,-0.2613105,-0.118086,-0.60172,-0.1476905,0.124274,-0.6009899999999999,-0.1443154999999999,1
149,0.0054174999999999,0.7228,-0.0365415,-0.1411705,0.48206,-0.0405835,-0.2611605,0.71049,-0.1189275,0.1522994999999999,0.48055,-0.0377745,0.2801694999999999,0.71833,-0.1043155,-0.3280105,0.96516,-0.2095055,0.3221994999999999,0.95954,-0.1913355,-0.0738655,0.0001899999999999,-0.0005824999999999,0.0738655,-0.00019,0.0005824999999999,-0.1069005,-0.25659,-0.2501855,0.1501195,-0.26468,-0.2343354999999999,-0.1195505,-0.63028,-0.1320565,0.1241795,-0.62996,-0.1284765,1
150,0.005407,0.7244925,-0.0199804999999999,-0.142589,0.4833425,-0.0244385,-0.262289,0.7107025,-0.0985105,0.152841,0.4808425,-0.0213644999999999,0.280711,0.7198125,-0.0844385,-0.3294789999999999,0.9636325,-0.1853614999999999,0.323961,0.9637225,-0.1696215,-0.073373,0.0002825,-0.0001475,0.073373,-0.0002824999999999,0.0001475,-0.1081389999999999,-0.2809675,-0.2229915,0.146181,-0.2918675,-0.2053515,-0.121089,-0.6596074999999999,-0.1159775,0.124091,-0.6595875,-0.1118934999999999,1
151,0.0052385,0.7248935000000001,-0.0046065,-0.1441184999999999,0.4843735,-0.0092925,-0.2637684999999999,0.7139235,-0.0797265,0.1530915,0.4813334999999999,-0.0060925,0.2810215,0.7208335,-0.0654025,-0.3307584999999999,0.9635035,-0.1624644999999999,0.3249815,0.9623635,-0.1490945,-0.0730885,0.0003724999999999,0.0001684999999999,0.0730885,-0.0003724999999999,-0.0001685,-0.1096085,-0.3034464999999999,-0.1965645,0.1424015,-0.3157365,-0.1772945,-0.1225684999999999,-0.6862765,-0.1007295,0.1237715,-0.6866565,-0.0963505,1
152,0.005149,0.7247505,0.0097284999999999,-0.145664,0.4855905,0.0050424999999999,-0.265524,0.7127605,-0.0617345,0.153406,0.4818004999999999,0.0082654999999999,0.281006,0.7200504999999999,-0.0476665,-0.332014,0.9593705,-0.1405915,0.326026,0.9608905,-0.1294415,-0.072953,0.0004744999999999,0.0003464999999999,0.072953,-0.0004745,-0.0003465,-0.111084,-0.3238895,-0.1713715,0.138886,-0.3379795,-0.1502015,-0.1238939999999999,-0.7096895,-0.0864335,0.123476,-0.7106095,-0.0817765,1
153,0.005034,0.7234275,0.022761,-0.14719,0.4861375,0.018378,-0.26701,0.7142875,-0.0455179999999999,0.15375,0.4811475,0.02132,0.2804399999999999,0.7182775,-0.031096,-0.33265,0.9577975,-0.120856,0.3270599999999999,0.9603475,-0.111536,-0.072963,0.0005725,0.00046,0.072963,-0.0005724999999999,-0.00046,-0.11257,-0.3429225,-0.147746,0.13554,-0.3578425,-0.124706,-0.1251999999999999,-0.7301525,-0.07309,0.12291,-0.7308925000000001,-0.068368,1
154,0.0048745,0.722899,0.034893,-0.1488405,0.486909,0.03101,-0.2683105,0.718719,-0.030891,0.1538594999999999,0.479859,0.033581,0.2802295,0.7184389999999999,-0.014842,-0.3340105,0.956789,-0.10201,0.3271995,0.954159,-0.09346,-0.0728244999999999,0.000734,0.0006029999999999,0.0728244999999999,-0.000734,-0.000603,-0.1139805,-0.360761,-0.12463,0.1318195,-0.375341,-0.0998,-0.1267305,-0.7479410000000001,-0.059933,0.1222294999999999,-0.748751,-0.055077,1
155,0.004681,0.7223200000000001,0.0464399999999999,-0.150505,0.487,0.042994,-0.269015,0.7225900000000001,-0.017,0.153975,0.47883,0.0453,0.280005,0.71879,0.000421,-0.334255,0.95584,-0.084733,0.327265,0.94922,-0.075498,-0.072636,0.000864,0.0007689999999999,0.072636,-0.000864,-0.0007689999999999,-0.115345,-0.37665,-0.1020929999999999,0.128035,-0.39123,-0.075156,-0.128235,-0.76383,-0.0472639999999999,0.121565,-0.76464,-0.042721,1
156,0.004543,0.7215725,0.056262,-0.1519829999999999,0.4866725,0.0534889999999999,-0.269873,0.7219224999999999,-0.004615,0.154187,0.4784124999999999,0.055475,0.2799169999999999,0.7194124999999999,0.012996,-0.334593,0.9509725,-0.068947,0.327347,0.9451325,-0.060177,-0.0724809999999999,0.0009694999999999,0.0011679999999999,0.0724809999999999,-0.0009695,-0.001168,-0.116233,-0.3889674999999999,-0.0816969999999999,0.124517,-0.4035475,-0.0529839999999999,-0.129623,-0.7761475000000001,-0.035764,0.120917,-0.7769575000000001,-0.030943,1
157,0.004442,0.7205415000000001,0.0647935,-0.153345,0.4862315,0.0625255,-0.270845,0.7211315,0.0072065,0.154325,0.4767515,0.0643995,0.279055,0.7187015000000001,0.0237645,-0.334845,0.9464115,-0.0548044999999999,0.327275,0.9424315,-0.0464944999999999,-0.072552,0.0011024999999999,0.0014925,0.072552,-0.0011024999999999,-0.0014925,-0.117015,-0.3991485,-0.0635565,0.121265,-0.4149185,-0.0329804999999999,-0.130895,-0.7871484999999999,-0.0253034999999999,0.120265,-0.7871785,-0.0204104999999999,1
158,0.0049159999999999,0.7200770000000001,0.0670075,-0.153717,0.486807,0.0651035,-0.271377,0.720947,0.0122184999999999,0.1548729999999999,0.478007,0.0665895,0.279333,0.720107,0.0277974999999999,-0.334977,0.945987,-0.0479305,0.327323,0.942747,-0.0397545,-0.072632,0.0013179999999999,0.0015714999999999,0.072632,-0.0013179999999999,-0.0015715,-0.117657,-0.403093,-0.0568555,0.1197129999999999,-0.419193,-0.0256645,-0.131577,-0.7904530000000001,-0.0227265,0.120173,-0.790753,-0.0187625,1
159,0.0052914999999999,0.7198355000000001,0.068464,-0.1539045,0.4865255,0.06656,-0.2711645,0.7212755000000001,0.0157639999999999,0.1552855,0.4781755,0.067997,0.2796455,0.7216555,0.0307999999999999,-0.3339745,0.9465555,-0.042759,0.3274455,0.9439755,-0.034525,-0.0727255,0.0014924999999999,0.001687,0.0727255,-0.0014925,-0.001687,-0.1180345,-0.4052745,-0.052288,0.1186555,-0.4217445,-0.020484,-0.1319845,-0.7917744999999999,-0.021024,0.1202355,-0.7924245,-0.017775,1
160,0.0056914999999999,0.7195935,0.069904,-0.1540214999999999,0.4867935,0.067748,-0.2704015,0.7215435,0.0195429999999999,0.1557184999999999,0.4783035,0.06913,0.2799485,0.7235135,0.0348769999999999,-0.3329715,0.9472635,-0.037386,0.3276185,0.9453235,-0.029156,-0.0727825,0.0016224999999999,0.0017799999999999,0.0727825,-0.0016224999999999,-0.00178,-0.1183815,-0.4069865,-0.047673,0.1176585,-0.4240165,-0.015679,-0.1322415,-0.7928265,-0.019581,0.1203485,-0.7938165,-0.017055,1
161,0.0060734999999999,0.7194699999999999,0.0713034999999999,-0.1539865,0.48743,0.0691035,-0.2694765,0.72204,0.0232895,0.1560535,0.47839,0.0701885,0.2802834999999999,0.7257899999999999,0.0388745,-0.3319765,0.94828,-0.0320825,0.3277434999999999,0.94692,-0.0238385,-0.0728075,0.0016829999999999,0.0017785,0.0728075,-0.001683,-0.0017785,-0.1188365,-0.40762,-0.0430855,0.1167435,-0.42529,-0.0113995,-0.1324665,-0.79335,-0.0181585,0.1204635,-0.7946300000000001,-0.0163825,1
162,0.0064514999999999,0.7193195,0.0727925,-0.1539205,0.4879594999999999,0.0702764999999999,-0.2688005,0.7222895,0.0268855,0.1563295,0.4784495,0.0712705,0.2806695,0.7277995,0.0427715,-0.3311404999999999,0.9491895,-0.0269005,0.3278195,0.9483895,-0.0185854999999999,-0.0728375,0.0017505,0.0017765,0.0728375,-0.0017505,-0.0017765,-0.1195605,-0.4082505,-0.0383325,0.1158695,-0.4273005,-0.0072405,-0.1326805,-0.7937405,-0.0168225,0.1206095,-0.7953005,-0.0157005,1
163,0.0068325,0.7192284999999999,0.0742879999999999,-0.1538004999999999,0.4882584999999999,0.071799,-0.2681705,0.7221985,0.0304909999999999,0.1565195,0.4785285,0.07229,0.2811095,0.7297085,0.04629,-0.3305305,0.9500985,-0.022357,0.3279995,0.9493985,-0.013979,-0.0728834999999999,0.0017975,0.0017729999999999,0.0728834999999999,-0.0017975,-0.001773,-0.1202705,-0.4092615,-0.033869,0.1154294999999999,-0.4292115,-0.003953,-0.1327205,-0.7938315,-0.015569,0.1207995,-0.7957515000000001,-0.015244,1
164,0.0071774999999999,0.7192044999999999,0.075704,-0.1536855,0.4879644999999999,0.072999,-0.2676555,0.7221744999999999,0.0338479999999999,0.1567245,0.4786445,0.073055,0.2809445,0.7296845,0.049456,-0.3300155,0.9510745,-0.018183,0.3281345,0.9503745,-0.009727,-0.0729495,0.0018504999999999,0.0019159999999999,0.0729495,-0.0018505,-0.001916,-0.1210155,-0.4104055,-0.029964,0.1150944999999999,-0.4311255,-0.001116,-0.1327555,-0.7937855,-0.01445,0.1209644999999999,-0.7962055,-0.015174,1
165,0.0074589999999999,0.7190215,0.0772055,-0.153553,0.4874815,0.0739665,-0.267293,0.7223714999999999,0.0371895,0.156917,0.4787015,0.0737464999999999,0.2807469999999999,0.7298815,0.0530535,-0.329673,0.9525715,-0.0141044999999999,0.328267,0.9515715,-0.0053874999999999,-0.073012,0.0019494999999999,0.0019974999999999,0.073012,-0.0019494999999999,-0.0019974999999999,-0.121843,-0.4109184999999999,-0.0265244999999999,0.1148569999999999,-0.4323585,0.0016515,-0.132783,-0.7934285000000001,-0.0135264999999999,0.121127,-0.7962485,-0.0151675,1
166,0.007706,0.7190464999999999,0.0785485,-0.153452,0.4874465,0.0746555,-0.266782,0.7200664999999999,0.0401015,0.157108,0.4788165,0.0742115,0.2803779999999999,0.7294765,0.0563105,-0.329642,0.9546665,-0.0103035,0.3284579999999999,0.9535665,-0.0010555,-0.073055,0.0020574999999999,0.0020975,0.073055,-0.0020575,-0.0020975,-0.122662,-0.4106535,-0.0236265,0.1147179999999999,-0.4330334999999999,0.0040625,-0.1327219999999999,-0.7927035,-0.0131534999999999,0.121228,-0.7958535,-0.0154185,1
167,0.0078815,0.718982,0.079426,-0.1533054999999999,0.4870119999999999,0.074984,-0.2665055,0.7186920000000001,0.042057,0.1572445,0.478772,0.0741759999999999,0.2798645,0.7282219999999999,0.05927,-0.3297855,0.956322,-0.0076439999999999,0.3286145,0.955022,0.002091,-0.0731035,0.0020739999999999,0.0021919999999999,0.0731035,-0.0020739999999999,-0.0021919999999999,-0.1233855,-0.410598,-0.0211979999999999,0.1146245,-0.433698,0.005867,-0.1326855,-0.792848,-0.0133529999999999,0.1214145,-0.7959579999999999,-0.0157819999999999,1
168,0.0079619999999999,0.718932,0.080339,-0.153205,0.4865819999999999,0.075263,-0.266355,0.7174119999999999,0.043956,0.157345,0.4787019999999999,0.074125,0.2793449999999999,0.726872,0.062199,-0.329945,0.958262,-0.0048959999999999,0.328735,0.956662,0.005459,-0.07314,0.0020929999999999,0.002222,0.07314,-0.002093,-0.0022219999999999,-0.124115,-0.410558,-0.0191109999999999,0.1145249999999999,-0.433758,0.007621,-0.132675,-0.792898,-0.0133319999999999,0.1216049999999999,-0.796018,-0.0162749999999999,1
169,0.0079425,0.718868,0.0811784999999999,-0.1530834999999999,0.486168,0.0755184999999999,-0.2663735,0.7162679999999999,0.0454624999999999,0.1574665,0.478608,0.0741014999999999,0.2789164999999999,0.725328,0.0637885,-0.3300935,0.960488,-0.0023275,0.3288565,0.958388,0.0088284999999999,-0.0731594999999999,0.0021029999999999,0.0022184999999999,0.0731594999999999,-0.002103,-0.0022185,-0.1246635,-0.410532,-0.0176385,0.1144465,-0.433832,0.0092044999999999,-0.1326635,-0.792872,-0.0131685,0.1217765,-0.7960820000000001,-0.0167115,1
170,0.0078965,0.7187815,0.0820785,-0.1530615,0.4861315,0.0754085,-0.2664615,0.7153415,0.0470505,0.1575585,0.4785715,0.0740775,0.2782885,0.7239715,0.0653705,-0.3303315,0.9626515,0.0003944999999999,0.3291084999999999,0.9600515,0.0124235,-0.0731725,0.0021245,0.0022285,0.0731725,-0.0021245,-0.0022285,-0.1251915,-0.4101885,-0.0166325,0.1144985,-0.4339885,0.0106595,-0.1327515,-0.7926185,-0.0130954999999999,0.1219085,-0.7959985,-0.0172044999999999,1
171,0.007838,0.7186790000000001,0.0830475,-0.153053,0.4861089999999999,0.0753945,-0.266573,0.714499,0.0487294999999999,0.157577,0.4785489999999999,0.0740855,0.277927,0.7241890000000001,0.0671555,-0.330743,0.964729,0.0031284999999999,0.329387,0.961829,0.0162075,-0.0731729999999999,0.002139,0.0021674999999999,0.0731729999999999,-0.002139,-0.0021675,-0.125553,-0.409971,-0.0161335,0.1146369999999999,-0.434011,0.0118264999999999,-0.132903,-0.792261,-0.0129435,0.1220469999999999,-0.795871,-0.0176365,1
172,0.0078285,0.7185794999999999,0.083853,-0.1529895,0.4860894999999999,0.075013,-0.2666395,0.7137195,0.050599,0.1576205,0.4785294999999999,0.074086,0.2778505,0.7244195,0.06902,-0.3311294999999999,0.9669095,0.00599,0.3296805,0.9637095,0.020182,-0.0731765,0.0021585,0.002124,0.0731765,-0.0021585,-0.002124,-0.1258295,-0.4096005,-0.015999,0.1148705,-0.4339505,0.012765,-0.1329894999999999,-0.7918305,-0.01276,0.1222105,-0.7957105,-0.0178819999999999,1
173,0.0077929999999999,0.7185095,0.0843875,-0.152924,0.4857995,0.0747345,-0.2667239999999999,0.7129895,0.0522925,0.157666,0.4784895,0.0741545,0.2771059999999999,0.7230595,0.0709805,-0.331364,0.9686995,0.0086345,0.3299959999999999,0.9654995,0.0240804999999999,-0.073171,0.0021825,0.0020874999999999,0.073171,-0.0021824999999999,-0.0020874999999999,-0.1260939999999999,-0.4090105,-0.0157375,0.1150559999999999,-0.4336204999999999,0.0134084999999999,-0.133004,-0.7914005,-0.0125565,0.1224359999999999,-0.7955705,-0.0180455,1
174,0.007736,0.7184665,0.0839405,-0.152883,0.4855564999999999,0.0743325,-0.266743,0.7124564999999999,0.0528185,0.157737,0.4783665,0.0741005,0.277147,0.7230265,0.0709485,-0.331293,0.9696865,0.0094845,0.330357,0.9668865,0.0270215,-0.073164,0.0022135,0.0021045,0.073164,-0.0022135,-0.0021044999999999,-0.1263129999999999,-0.4081935,-0.0156544999999999,0.115097,-0.4326935,0.0135015,-0.133093,-0.7908835000000001,-0.0123694999999999,0.122647,-0.7954335,-0.0181864999999999,1
175,0.0077349999999999,0.7184565,0.0835865,-0.152864,0.4851864999999999,0.0739805,-0.266704,0.7122265,0.0524675,0.1577859999999999,0.4782565,0.0741304999999999,0.277176,0.7219265,0.0705965,-0.331204,0.9697265,0.0091375,0.330846,0.9669265,0.0271364999999999,-0.073156,0.0022095,0.0020644999999999,0.073156,-0.0022094999999999,-0.0020645,-0.1266439999999999,-0.4076134999999999,-0.0156095,0.1151259999999999,-0.4319635,0.0132275,-0.133214,-0.7908435,-0.0127315,0.122666,-0.7953935,-0.0184225,1
176,0.0077645,0.7184539999999999,0.0833885,-0.1528345,0.484884,0.0737825,-0.2666145,0.711974,0.0522735,0.1578555,0.478144,0.0741045,0.2773354999999999,0.720584,0.0704065,-0.3311444999999999,0.969754,0.0089415,0.3313555,0.966954,0.0269695,-0.0731705,0.002201,0.0020324999999999,0.0731705,-0.0022009999999999,-0.0020324999999999,-0.1269545,-0.406956,-0.0155225,0.1151555,-0.430716,0.0130295,-0.1333645,-0.7908160000000001,-0.0128274999999999,0.1226455,-0.795376,-0.0186235,1
177,0.007849,0.718443,0.0833085,-0.152741,0.4846529999999999,0.0737135,-0.266691,0.711793,0.0521945,0.1579789999999999,0.478073,0.0740385,0.2774189999999999,0.719113,0.0703375,-0.330921,0.969783,0.0088805,0.3324789999999999,0.966983,0.0269675,-0.073198,0.002193,0.0020205,0.073198,-0.002193,-0.0020205,-0.1272309999999999,-0.406577,-0.0154014999999999,0.115239,-0.430187,0.0129605,-0.133451,-0.790787,-0.0129074999999999,0.122689,-0.795437,-0.0186954999999999,1
178,0.0078825,0.718352,0.0823655,-0.1527575,0.484862,0.0736485,-0.2669075,0.711982,0.0512205,0.1580825,0.4780919999999999,0.0740445,0.2783725,0.718682,0.0695755,-0.3301475,0.968922,0.0076754999999999,0.3351725,0.966122,0.0271404999999999,-0.0732315,0.002237,0.0020184999999999,0.0732315,-0.0022369999999999,-0.0020184999999999,-0.1277575,-0.405908,-0.0154115,0.1150125,-0.429618,0.0129454999999999,-0.1339275,-0.790568,-0.0128035,0.1225125,-0.795478,-0.0186204999999999,1
179,0.0080779999999999,0.7180895,0.0804015,-0.152745,0.4848395,0.0733205,-0.267025,0.7120995,0.0489895,0.1582049999999999,0.4786295,0.0740515,0.280145,0.7185595,0.0672695,-0.328985,0.9666695,0.0046045,0.338295,0.9640695,0.0264225,-0.073247,0.0022854999999999,0.0020175,0.073247,-0.0022855,-0.0020174999999999,-0.128195,-0.4053605,-0.0154394999999999,0.114975,-0.4290705,0.0125405,-0.134155,-0.7904605,-0.0129554999999999,0.1223749999999999,-0.7954505,-0.0187084999999999,1
180,0.0085279999999999,0.7178395,0.0776735,-0.152695,0.4848495,0.0727225,-0.266945,0.7119694999999999,0.0448435,0.1584249999999999,0.4791495,0.0740325,0.2838549999999999,0.7179995,0.0634495,-0.327285,0.9627195,-0.0009584999999999,0.342295,0.9586195,0.0232305,-0.073256,0.0023335,0.0020165,0.073256,-0.0023334999999999,-0.0020164999999999,-0.128515,-0.4048104999999999,-0.0154604999999999,0.115185,-0.4285204999999999,0.0115445,-0.134295,-0.7902905,-0.0133625,0.122185,-0.7955105,-0.0189104999999999,1
181,0.009676,0.7174214999999999,0.073604,-0.151694,0.4849215,0.070631,-0.267474,0.7093615,0.038079,0.158946,0.4791215,0.073736,0.289326,0.7119715,0.059163,-0.3254039999999999,0.9557215,-0.011201,0.348496,0.9460415,0.017189,-0.073271,0.0024054999999999,0.001994,0.073271,-0.0024055,-0.001994,-0.128544,-0.4041484999999999,-0.0152899999999999,0.115396,-0.4282285,0.009882,-0.134494,-0.7901785,-0.0137159999999999,0.122226,-0.7958585,-0.01902,0
182,0.0108595,0.71711,0.069213,-0.1504265,0.4851499999999999,0.068028,-0.2692765,0.70444,0.029731,0.1604934999999999,0.47924,0.072762,0.2956335,0.70399,0.054494,-0.3232965,0.94602,-0.0242369999999999,0.3554035,0.93131,0.010355,-0.0733175,0.00252,0.001988,0.0733175,-0.00252,-0.0019879999999999,-0.1289365,-0.40327,-0.0148269999999999,0.1152935,-0.42791,0.008049,-0.1349865,-0.78974,-0.0133399999999999,0.1218035,-0.79612,-0.0185969999999999,0
183,0.0121149999999999,0.716972,0.0642225,-0.148988,0.485112,0.0648654999999999,-0.271908,0.696872,0.0200925,0.1620919999999999,0.479672,0.0718834999999999,0.303722,0.693412,0.0499275,-0.321428,0.930962,-0.0392045,0.3638519999999999,0.913392,0.0020274999999999,-0.073363,0.002682,0.0019124999999999,0.073363,-0.0026819999999999,-0.0019125,-0.129888,-0.401998,-0.0140845,0.114622,-0.427698,0.0061624999999999,-0.135938,-0.789808,-0.0130245,0.120762,-0.7964479999999999,-0.0177035,0
184,0.0133174999999999,0.717452,0.0589815,-0.1472335,0.484672,0.0609325,-0.2761135,0.682982,0.0085565,0.1634364999999999,0.480932,0.0709665,0.3132465,0.677932,0.0461985,-0.3209835,0.908422,-0.0574514999999999,0.3733065,0.889902,-0.0066044999999999,-0.0733495,0.0029439999999999,0.0016574999999999,0.0733495,-0.002944,-0.0016574999999999,-0.1320135,-0.400158,-0.0131374999999999,0.1131765,-0.426858,0.0042104999999999,-0.1384835,-0.789278,-0.0122354999999999,0.1182965,-0.795378,-0.0164635,0
185,0.0144249999999999,0.7181394999999999,0.053763,-0.145979,0.4839895,0.057004,-0.279359,0.6646495,-0.0023919999999999,0.164611,0.4821195,0.070135,0.323211,0.6601195,0.042742,-0.321939,0.8811994999999999,-0.076604,0.383281,0.8641995,-0.016444,-0.073268,0.0032014999999999,0.0013029999999999,0.073268,-0.0032015,-0.0013029999999999,-0.134689,-0.3979105,-0.012346,0.110971,-0.4259604999999999,0.0025529999999999,-0.142299,-0.7882705000000001,-0.0108499999999999,0.114481,-0.7943505000000001,-0.01431,0
186,0.0157195,0.719323,0.0488885,-0.1442905,0.482993,0.0527835,-0.2835605,0.644813,-0.0123785,0.1659095,0.483153,0.0693575,0.3333295,0.639823,0.0407255,-0.3243605,0.851163,-0.0969945,0.3933295,0.836203,-0.0270284999999999,-0.0731765,0.0034469999999999,0.0007845,0.0731765,-0.003447,-0.0007845,-0.1374205,-0.395267,-0.0122084999999999,0.1081395,-0.425067,0.0013734999999999,-0.1474105,-0.786937,-0.0088164999999999,0.1092995,-0.7928769999999999,-0.0115424999999999,0
187,0.016907,0.7208525,0.0444804999999999,-0.142841,0.4818825,0.0486094999999999,-0.288791,0.6207425,-0.0229535,0.166849,0.4837125,0.0686685,0.343719,0.6167025,0.0393044999999999,-0.328461,0.8193325,-0.1173655,0.401679,0.8072825,-0.0370545,-0.073131,0.0036915,0.0003854999999999,0.073131,-0.0036915,-0.0003855,-0.140041,-0.3924775,-0.0126715,0.104979,-0.4243475,0.0003474999999999,-0.153721,-0.7851875,-0.0061545,0.103299,-0.7909175,-0.0090875,0
188,0.0182315,0.723276,0.0401575,-0.1417305,0.481066,0.0442425,-0.2971405,0.589796,-0.0300225,0.1670994999999999,0.4840859999999999,0.0679335,0.3531095,0.5891059999999999,0.0393025,-0.3351005,0.776966,-0.1396085,0.4095795,0.7717860000000001,-0.0486585,-0.0729694999999999,0.0039609999999999,5.049999999999499e-05,0.0729694999999999,-0.003961,-5.050000000000193e-05,-0.1419405,-0.390524,-0.0164365,0.1006995,-0.423724,0.0001364999999999,-0.1624805,-0.7821340000000001,-0.0026455,0.0939395,-0.787774,-0.0051125,0
189,0.0195269999999999,0.725755,0.035825,-0.139958,0.479525,0.038862,-0.305525,0.5557150000000001,-0.0344999999999999,0.167125,0.484605,0.067322,0.359495,0.5569850000000001,0.040562,-0.342625,0.729495,-0.1581719999999999,0.416385,0.733195,-0.059472,-0.072755,0.004226,-0.0002339999999999,0.072755,-0.004226,0.0002339999999999,-0.142945,-0.389515,-0.0224559999999999,0.095525,-0.424155,0.000474,-0.170945,-0.7794749999999999,-0.0006229999999999,0.0827249999999999,-0.784315,-0.0005999999999999,0
190,0.0203404999999999,0.7284835,0.0319705,-0.1397005,0.4779035,0.0351325,-0.3126625,0.5203935,-0.0361704999999999,0.1668775,0.4854435,0.0667955,0.3631675,0.5302935,0.0428605,-0.3508825,0.6778435,-0.1676205,0.4198575,0.6974235,-0.0700005,-0.0724075,0.0044984999999999,-0.0006784999999999,0.0724075,-0.0044985,0.0006785,-0.1421105,-0.3876065,-0.0313335,0.0860175,-0.4239965,0.0016445,-0.1764025,-0.7746065,-0.0007964999999999,0.0706175,-0.7795365,0.0064395,0
191,0.0223085,0.731599,0.026518,-0.1390175,0.476079,0.030386,-0.3157925,0.482199,-0.0341009999999999,0.1651175,0.485799,0.066517,0.3625775,0.498989,0.046346,-0.3589525,0.613929,-0.173371,0.4197875,0.662569,-0.080061,-0.0720475,0.004594,-0.0010939999999999,0.0720475,-0.004594,0.0010939999999999,-0.1381615,-0.385661,-0.0427209999999999,0.0720374999999999,-0.421641,0.004546,-0.1749325,-0.769331,-0.008714,0.0559375,-0.774261,0.013387,0
192,0.023706,0.73476,0.0217189999999999,-0.1388829999999999,0.47467,0.0263819999999999,-0.317184,0.44559,-0.031018,0.163216,0.48569,0.066004,0.358716,0.46918,0.0499169999999999,-0.3652539999999999,0.54785,-0.1753279999999999,0.417596,0.61581,-0.090478,-0.0716359999999999,0.004612,-0.001503,0.0716359999999999,-0.004612,0.0015029999999999,-0.1285589999999999,-0.38305,-0.055858,0.0579259999999999,-0.4199,0.0041469999999999,-0.1694089999999999,-0.76391,-0.023218,0.042326,-0.76991,0.019814,0
193,0.0248559999999999,0.73676,0.0164235,-0.140227,0.47348,0.0230525,-0.313634,0.4122099999999999,-0.0232474999999999,0.160806,0.4831499999999999,0.0651365,0.350436,0.43512,0.0538635,-0.366504,0.47823,-0.1709475,0.411236,0.5645,-0.1002974999999999,-0.071476,0.004533,-0.0019674999999999,0.071476,-0.004533,0.0019675,-0.117659,-0.37875,-0.0752275,0.0476859999999999,-0.42016,0.0092505,-0.154375,-0.75493,-0.0464775,0.0275059999999999,-0.76567,0.0262565,0
194,0.0266319999999999,0.7384045,0.0111049999999999,-0.139905,0.4719445,0.0188329999999999,-0.305328,0.3822045,-0.01423,0.158902,0.4801944999999999,0.06409,0.341072,0.4026145,0.0575049999999999,-0.362568,0.4122345,-0.16447,0.403602,0.5126945,-0.10913,-0.071322,0.0043235,-0.00261,0.071322,-0.0043234999999999,0.0026099999999999,-0.104953,-0.3767955,-0.09962,0.0384519999999999,-0.4205055,0.0148549999999999,-0.13358,-0.7436155,-0.07497,0.0129519999999999,-0.7617054999999999,0.0303669999999999,0
195,0.0289579999999999,0.7393379999999999,0.0058549999999999,-0.140367,0.470768,0.0158449999999999,-0.293912,0.352198,-0.003345,0.156998,0.476978,0.063055,0.3302079999999999,0.371008,0.060546,-0.355382,0.345678,-0.153415,0.394868,0.460058,-0.117085,-0.071098,0.004199,-0.0034349999999999,0.071098,-0.004199,0.003435,-0.092589,-0.375672,-0.121775,0.029308,-0.421392,0.019195,-0.108525,-0.729472,-0.1072249999999999,-0.000362,-0.754572,0.035146,0
196,0.031288,0.7388275,0.000125,-0.141235,0.4685375,0.0121449999999999,-0.278892,0.3227374999999999,0.009395,0.154748,0.4728374999999999,0.061444,0.315888,0.3396475,0.06399,-0.343312,0.2760574999999999,-0.1390749999999999,0.3836079999999999,0.4062774999999999,-0.1234749999999999,-0.071218,0.0040545,-0.003975,0.071218,-0.0040545,0.003975,-0.081314,-0.3749225,-0.1406249999999999,0.017688,-0.4218225,0.026385,-0.079122,-0.7173825,-0.141645,-0.015462,-0.7475825,0.040606,0
197,0.0335695,0.7388745,-0.0053699999999999,-0.1413835,0.4667545,0.00793,-0.2626905,0.2994145,0.02002,0.1531595,0.4700645,0.059548,0.3032395,0.3147445,0.065994,-0.3257605,0.2158445,-0.1266799999999999,0.3717695,0.3551445,-0.1275799999999999,-0.0714095,0.0045035,-0.0047299999999999,0.0714094999999999,-0.0045035,0.00473,-0.0688625,-0.3736955,-0.15946,0.0095494999999999,-0.4208854999999999,0.0243,-0.0446204999999999,-0.7021955000000001,-0.17862,-0.0278404999999999,-0.7418555,0.04578,0
198,0.03555,0.7389265,-0.0103199999999999,-0.1423519999999999,0.4660265,0.0050499999999999,-0.247129,0.2796565,0.02966,0.15139,0.4673265,0.05749,0.29116,0.2952265,0.07109,-0.30705,0.1615965,-0.1124199999999999,0.35961,0.3090665,-0.12829,-0.0717499999999999,0.0049954999999999,-0.0052999999999999,0.07175,-0.0049955,0.0052999999999999,-0.0576199999999999,-0.3732035,-0.1745699999999999,0.00174,-0.4203935,0.02398,-0.0109599999999999,-0.6876234999999999,-0.2127999999999999,-0.0402599999999999,-0.7362135,0.05126,0
199,0.0385999999999999,0.7391555000000001,-0.01604,-0.142152,0.4657955,0.00048,-0.231802,0.2650755,0.03738,0.15031,0.4648555,0.05438,0.2788799999999999,0.2764655,0.07492,-0.285333,0.1161755,-0.0939599999999999,0.3466,0.2671455,-0.12788,-0.07198,0.0052945,-0.00559,0.0719799999999999,-0.0052945,0.00559,-0.04819,-0.3730545,-0.18634,-0.00765,-0.4200945,0.0258299999999999,0.0183399999999999,-0.6764245,-0.24256,-0.0527,-0.7313544999999999,0.05904,0
200,0.04069,0.7392215,-0.01904,-0.14275,0.4658615,-0.00145,-0.220747,0.2581715,0.0435899999999999,0.1493,0.4633715,0.0530299999999999,0.26393,0.2642115,0.0789999999999999,-0.264437,0.0896255,-0.07203,0.3349,0.2275415,-0.12594,-0.07206,0.0052285,-0.00595,0.07206,-0.0052285,0.0059499999999999,-0.04152,-0.3710385,-0.1918,-0.0170899999999999,-0.4200284999999999,0.0364599999999999,0.0349299999999999,-0.6646285000000001,-0.25394,-0.06383,-0.7251885,0.0765099999999999,0
201,0.04359,0.7391519999999999,-0.021575,-0.143113,0.465732,-0.003055,-0.211029,0.254322,0.049235,0.14858,0.462022,0.052295,0.2478599999999999,0.252332,0.082615,-0.246174,0.072751,-0.050445,0.32417,0.201632,-0.121265,-0.07215,0.005358,-0.006745,0.0721499999999999,-0.005358,0.006745,-0.04054,-0.368308,-0.193875,-0.02531,-0.418468,0.0503549999999999,0.0466099999999999,-0.6540680000000001,-0.2555949999999999,-0.07106,-0.7184280000000001,0.088565,0
202,0.047345,0.7391154999999999,-0.0234949999999999,-0.142335,0.4656955,-0.0045149999999999,-0.2040239999999999,0.2542855,0.050335,0.148805,0.4618455,0.052155,0.236335,0.2514555,0.083855,-0.2324979999999999,0.0711845,-0.0343749999999999,0.316685,0.1864355,-0.1176749999999999,-0.0721649999999999,0.0053945,-0.007245,0.072165,-0.0053945,0.007245,-0.0368649999999999,-0.3639644999999999,-0.1884549999999999,-0.0295549999999999,-0.4156345,0.060975,0.049395,-0.6471245000000001,-0.247205,-0.0667749999999999,-0.7113545,0.093205,0
203,0.0517449999999999,0.738186,-0.02581,-0.142695,0.465906,-0.0050499999999999,-0.2006549999999999,0.253266,0.04796,0.148875,0.460696,0.05134,0.227385,0.250436,0.0838599999999999,-0.224688,0.070165,-0.02668,0.310555,0.174396,-0.11403,-0.071965,0.005459,-0.0078799999999999,0.071965,-0.0054589999999999,0.0078799999999999,-0.0382749999999999,-0.360704,-0.17436,-0.0309249999999999,-0.412174,0.0742999999999999,0.045265,-0.643584,-0.23054,-0.0596549999999999,-0.704334,0.1033299999999999,0
204,0.0564149999999999,0.736932,-0.0280849999999999,-0.142145,0.466032,-0.0065849999999999,-0.198726,0.2518019999999999,0.043915,0.1493649999999999,0.4591719999999999,0.049875,0.223435,0.248972,0.078585,-0.219246,0.068701,-0.0235749999999999,0.308535,0.164902,-0.1149349999999999,-0.071905,0.005343,-0.0080049999999999,0.071905,-0.005343,0.008005,-0.040065,-0.358248,-0.161065,-0.020475,-0.405168,0.059575,0.0382649999999999,-0.6404380000000001,-0.2095049999999999,-0.049675,-0.705188,0.097095,0
205,0.06313,0.735412,-0.0312,-0.13978,0.466872,-0.0081299999999999,-0.2000699999999999,0.250892,0.0388899999999999,0.15126,0.4569519999999999,0.04702,0.2217299999999999,0.2466519999999999,0.07512,-0.21826,0.066381,-0.0331299999999999,0.3111899999999999,0.157002,-0.1137299999999999,-0.0714699999999999,0.005725,-0.0086999999999999,0.07147,-0.005725,0.0086999999999999,-0.0425399999999999,-0.356648,-0.1505899999999999,-0.00368,-0.396418,0.04993,0.0260799999999999,-0.639388,-0.1838099999999999,-0.0310199999999999,-0.707508,0.08289,0
206,0.0695349999999999,0.7336739999999999,-0.0335499999999999,-0.138365,0.4681039999999999,-0.0079899999999999,-0.202135,0.2511739999999999,0.03456,0.152505,0.454864,0.0453999999999999,0.221685,0.245094,0.07211,-0.220715,0.06396,-0.0434499999999999,0.314835,0.154264,-0.1130099999999999,-0.071145,0.006099,-0.00917,0.0711449999999999,-0.006099,0.00917,-0.047095,-0.355136,-0.1358199999999999,0.0124549999999999,-0.389666,0.0493,0.0105049999999999,-0.6388860000000001,-0.1552799999999999,-0.0071849999999999,-0.711326,0.06373,0
207,0.07657,0.7321525,-0.035895,-0.13587,0.4698225,-0.0084349999999999,-0.2045799999999999,0.2543125,0.0311049999999999,0.15487,0.4531825,0.043135,0.2242699999999999,0.2450325,0.066395,-0.2234499999999999,0.0671985,-0.057485,0.31972,0.1515325,-0.1133149999999999,-0.0707999999999999,0.0064595,-0.009755,0.0708,-0.0064595,0.009755,-0.05168,-0.3538175,-0.1211949999999999,0.0288,-0.3824575,0.046875,-0.0055499999999999,-0.6383275,-0.126615,0.01799,-0.7140575,0.043825,0
208,0.08373,0.732318,-0.03658,-0.1328899999999999,0.472968,-0.00688,-0.2085099999999999,0.262418,0.0304899999999999,0.15726,0.452888,0.0419999999999999,0.2304399999999999,0.247638,0.0589,-0.2298599999999999,0.075378,-0.0704699999999999,0.3240700000000001,0.148968,-0.10998,-0.0706999999999999,0.006832,-0.0102599999999999,0.0707,-0.006832,0.0102599999999999,-0.0563699999999999,-0.355372,-0.1048,0.04828,-0.373982,0.0211299999999999,-0.0215099999999999,-0.641172,-0.0972799999999999,0.04787,-0.717852,0.0214599999999999,0
209,0.0912749999999999,0.730702,-0.038255,-0.129165,0.475342,-0.006295,-0.211725,0.269822,0.0303749999999999,0.160435,0.451092,0.0396849999999999,0.2394349999999999,0.248432,0.0495949999999999,-0.235545,0.083705,-0.079915,0.3291349999999999,0.146322,-0.1074750000000001,-0.070765,0.006818,-0.010655,0.0707649999999999,-0.006818,0.0106549999999999,-0.062025,-0.354858,-0.091725,0.0679249999999999,-0.367178,-0.005415,-0.032135,-0.643968,-0.077625,0.0766649999999999,-0.720508,-0.011345,0
210,0.099175,0.72868,-0.0408549999999999,-0.1249649999999999,0.4771999999999999,-0.0059649999999998,-0.214145,0.27502,0.030805,0.163645,0.4492,0.0366550000000001,0.2484849999999999,0.2483399999999999,0.040205,-0.240835,0.08843,-0.0858149999999999,0.333885,0.14882,-0.1053849999999999,-0.0708949999999999,0.006699,-0.0103949999999999,0.0708949999999999,-0.0066989999999999,0.010395,-0.0675049999999999,-0.3545899999999999,-0.0801149999999999,0.085805,-0.3605,-0.0326749999999999,-0.0415149999999999,-0.64678,-0.0597949999999999,0.101395,-0.72324,-0.0374049999999999,0
