sb224sc-HT22-VT27/4dt907/src/ml-research/a11/datafiles/labeled_files/A46_kinect.csv
FrameNo,nose_3d_x,nose_3d_y,nose_3d_z,left_shoulder_3d_x,left_shoulder_3d_y,left_shoulder_3d_z,left_elbow_3d_x,left_elbow_3d_y,left_elbow_3d_z,right_shoulder_3d_x,right_shoulder_3d_y,right_shoulder_3d_z,right_elbow_3d_x,right_elbow_3d_y,right_elbow_3d_z,left_wrist_3d_x,left_wrist_3d_y,left_wrist_3d_z,right_wrist_3d_x,right_wrist_3d_y,right_wrist_3d_z,left_hip_3d_x,left_hip_3d_y,left_hip_3d_z,right_hip_3d_x,right_hip_3d_y,right_hip_3d_z,left_knee_3d_x,left_knee_3d_y,left_knee_3d_z,right_knee_3d_x,right_knee_3d_y,right_knee_3d_z,left_ankle_3d_x,left_ankle_3d_y,left_ankle_3d_z,right_ankle_3d_x,right_ankle_3d_y,right_ankle_3d_z,activity_label
0,-0.016947,0.647197,0.085131,-0.173208,0.453537,0.050979,-0.278948,0.637877,0.0044149999999999,0.157672,0.466157,0.0488279999999999,0.267232,0.645697,-0.016148,-0.101122,0.732707,0.075604,0.0892109999999999,0.724597,0.0670989999999999,-0.0662089999999999,-0.002231,0.0012249999999999,0.0662089999999999,0.002231,-0.0012249999999999,-0.1336979999999999,-0.376683,-0.038316,0.131052,-0.3681629999999999,-0.022792,-0.208608,-0.780423,-0.022084,0.198272,-0.785753,-6.599999999999662e-05,0
1,-0.0169585,0.6471830000000001,0.084664,-0.1732255,0.453583,0.050984,-0.2789755,0.637823,0.003899,0.1575945,0.466053,0.048809,0.2671945,0.6455930000000001,-0.0161189999999999,-0.1012595,0.7331030000000001,0.07478,0.0890485,0.7247030000000001,0.066707,-0.0662165,-0.002243,0.00122,0.0662165,0.002243,-0.0012199999999999,-0.1338455,-0.376947,-0.038394,0.1310745,-0.367927,-0.0227899999999999,-0.2085855,-0.781497,-0.0221859999999999,0.1984045,-0.786237,9.900000000000186e-05,0
2,-0.0169205,0.647297,0.084557,-0.1731795,0.453607,0.050941,-0.2790295,0.637717,0.0034639999999999,0.1574505,0.466367,0.04885,0.2672805,0.645747,-0.01616,-0.1015765,0.733357,0.07447,0.0890035,0.724687,0.066582,-0.0661915,-0.002229,0.001187,0.0661915,0.002229,-0.001187,-0.1338195,-0.376523,-0.038541,0.1310805,-0.368193,-0.022692,-0.2050595,-0.757723,-0.020119,0.1986405,-0.7863829999999999,2.1000000000000185e-05,0
3,-0.0168365,0.647516,0.084512,-0.1731445,0.453666,0.050851,-0.2786445,0.6378459999999999,0.002468,0.1576355,0.466456,0.048688,0.2673255,0.645936,-0.0162129999999999,-0.1014585,0.733676,0.073805,0.0889335,0.724586,0.066564,-0.0661575,-0.002209,0.001194,0.0661575,0.002209,-0.001194,-0.1338145,-0.3765139999999999,-0.038464,0.1311155,-0.3679739999999999,-0.0226699999999999,-0.2052145,-0.759374,-0.0202429999999999,0.1987455,-0.786394,4.500000000000337e-05,0
4,-0.017729,0.6472034999999999,0.084656,-0.1736619999999999,0.4532834999999999,0.0509649999999999,-0.279492,0.6373135,0.002722,0.157008,0.4666034999999999,0.0490639999999999,0.2663379999999999,0.6464234999999999,-0.015433,-0.102672,0.7335935,0.074307,0.087861,0.7248135,0.067406,-0.06619,-0.0023045,0.001223,0.06619,0.0023045,-0.001223,-0.1334219999999999,-0.3766265,-0.0388899999999999,0.131508,-0.3676565,-0.02308,-0.204832,-0.7623165000000001,-0.021719,0.199728,-0.7861065,-0.0008309999999999,0
5,-0.01779,0.647062,0.0842285,-0.173639,0.453292,0.0506864999999999,-0.279499,0.637322,0.0025885,0.156891,0.466892,0.0490494999999999,0.2663109999999999,0.646642,-0.0155155,-0.102709,0.733762,0.0740595,0.087837,0.724902,0.0674345,-0.066172,-0.002305,0.0012225,0.066172,0.002305,-0.0012225,-0.133479,-0.376818,-0.0387885,0.131541,-0.367508,-0.0230545,-0.206479,-0.773048,-0.0226555,0.200891,-0.791178,-0.0003055,0
6,-0.0178335,0.646847,0.0838455,-0.1736435,0.453287,0.0504175,-0.2786935,0.637657,0.0015235,0.1568665,0.466797,0.0489125,0.2662765,0.646597,-0.0154795,-0.1024335,0.734037,0.0741425,0.0877264999999999,0.725057,0.0671575,-0.0661835,-0.002315,0.0012194999999999,0.0661835,0.002315,-0.0012194999999999,-0.1335435,-0.376853,-0.0388255,0.1315265,-0.367123,-0.0230884999999999,-0.2070735,-0.777793,-0.0229894999999999,0.1988265,-0.777473,-0.0010464999999999,0
7,-0.017854,0.6471625000000001,0.083128,-0.173674,0.4539825,0.050052,-0.278894,0.6382825000000001,0.0003869999999999,0.1570059999999999,0.4659025,0.048181,0.2663959999999999,0.6458425000000001,-0.0159629999999999,-0.102644,0.7385725000000001,0.068886,0.088463,0.7257225,0.066049,-0.06619,-0.0021935,0.0012269999999999,0.06619,0.0021935,-0.0012269999999999,-0.133614,-0.3769575,-0.038934,0.1313559999999999,-0.3675375,-0.023034,-0.207644,-0.7781975,-0.022793,0.1999659999999999,-0.7882574999999999,-0.0012249999999999,0
8,-0.0177564999999999,0.6467915,0.082756,-0.1739215,0.4542515,0.05001,-0.2787115,0.6385815,-0.0003179999999999,0.1570185,0.4656315,0.047929,0.2663585,0.6456215,-0.015889,-0.1029114999999999,0.7401015,0.066818,0.0887765,0.7271415,0.065205,-0.0661944999999999,-0.0021755,0.001298,0.0661944999999999,0.0021755,-0.001298,-0.1335215,-0.3769785,-0.038984,0.1314384999999999,-0.3675385,-0.0230679999999999,-0.2075615,-0.7783085,-0.0228869999999999,0.2002685,-0.7891285,-0.001444,0
9,-0.017601,0.6463695,0.082434,-0.1737719999999999,0.4538295,0.0497899999999999,-0.278462,0.6381595,-0.001021,0.156978,0.4653695,0.0475279999999999,0.266358,0.6453895000000001,-0.01575,-0.103272,0.7417395,0.0645849999999999,0.09067,0.7316595,0.0635729999999999,-0.066178,-0.0021215,0.0014749999999999,0.066178,0.0021215,-0.001475,-0.133352,-0.3770105,-0.038914,0.1315779999999999,-0.3676105,-0.022999,-0.2074119999999999,-0.7783804999999999,-0.022918,0.200598,-0.7899404999999999,-0.001514,0
10,-0.0175625,0.646312,0.08123,-0.1736195,0.453782,0.049581,-0.2782295,0.6390020000000001,-0.0009549999999999,0.1567705,0.465222,0.046928,0.2661805,0.645362,-0.015541,-0.1039795,0.745222,0.063734,0.0932515,0.737572,0.061806,-0.0661885,-0.002123,0.001697,0.0661885,0.002123,-0.0016969999999999,-0.1331695,-0.3769679999999999,-0.03887,0.1317705,-0.367538,-0.0229679999999999,-0.2073295,-0.778768,-0.022944,0.2008505,-0.7902279999999999,-0.0015979999999999,0
11,-0.0174334999999999,0.6461695000000001,0.0796945,-0.1734905,0.4536995,0.0493095,-0.2780404999999999,0.6400095,-0.0009254999999999,0.1563795,0.4647595,0.0461735,0.2657295,0.6456695,-0.0152424999999999,-0.1073205,0.7539195000000001,0.0627035,0.0964045,0.7466895,0.0599015,-0.0662355,-0.0021335,0.0019115,0.0662355,0.0021335,-0.0019114999999999,-0.1330105,-0.3769305,-0.0388515,0.1319395,-0.3674905,-0.0229534999999999,-0.2072105,-0.7793804999999999,-0.0230094999999999,0.2010895,-0.7905105,-0.0017274999999999,0
12,-0.0172794999999999,0.645774,0.0780005,-0.1722564999999999,0.451194,0.0470925,-0.2765565,0.641144,-0.0009384999999999,0.1557735,0.463634,0.0453355,0.2647935,0.645224,-0.0149554999999999,-0.1120465,0.762854,0.0611875,0.1019735,0.757014,0.0577835,-0.0662955,-0.002132,0.0020575,0.0662955,0.0021319999999999,-0.0020574999999999,-0.1328665,-0.376946,-0.0389114999999999,0.1320535,-0.367486,-0.0230214999999999,-0.2070965,-0.780126,-0.0231544999999999,0.2012735,-0.790976,-0.0018914999999999,0
13,-0.017084,0.6451779999999999,0.076234,-0.170658,0.450348,0.0449129999999999,-0.2677779999999999,0.6425179999999999,0.0014959999999999,0.154962,0.462348,0.044471,0.263722,0.6451279999999999,-0.014673,-0.117258,0.774998,0.0608519999999999,0.109022,0.7674479999999999,0.054269,-0.066335,-0.0021219999999999,0.0021829999999999,0.066335,0.002122,-0.002183,-0.132668,-0.376932,-0.039018,0.132222,-0.3675819999999999,-0.023142,-0.206928,-0.7806620000000001,-0.023361,0.201582,-0.791072,-0.002125,0
14,-0.0168605,0.6446015,0.074366,-0.1688435,0.4497615,0.042714,-0.2592635,0.6441915,0.003544,0.1541364999999999,0.4613015,0.043575,0.2624865,0.6452115,-0.01441,-0.1226735,0.7874315,0.059848,0.1166365,0.7794915,0.050834,-0.0663914999999999,-0.0022115,0.002364,0.0663914999999999,0.0022115,-0.0023639999999999,-0.1324235,-0.3770885,-0.0390849999999999,0.1324465,-0.3677785,-0.0233089999999999,-0.2066935,-0.7814585000000001,-0.0235869999999999,0.2020265,-0.7915285,-0.0024269999999999,0
15,-0.0165805,0.643915,0.0724165,-0.1669775,0.449135,0.0404735,-0.2510775,0.646305,0.0053315,0.1533425,0.460815,0.0426685,0.2607425,0.6453150000000001,-0.0140714999999999,-0.1281375,0.800385,0.0581555,0.1259825,0.7956650000000001,0.0472175,-0.0664675,-0.002336,0.0026205,0.0664675,0.002336,-0.0026204999999999,-0.1321474999999999,-0.377295,-0.0391735,0.1327225,-0.368035,-0.0235234999999999,-0.2064174999999999,-0.7823049999999999,-0.0238875,0.2025425,-0.791925,-0.0027884999999999,0
16,-0.0163555,0.643052,0.0702724999999999,-0.1651275,0.4491219999999999,0.0380545,-0.2469475,0.650232,0.0045904999999999,0.1523925,0.460182,0.0415925,0.2536425,0.647362,-0.0111554999999999,-0.1348575,0.817532,0.0555445,0.1355625,0.812682,0.0435954999999999,-0.0665515,-0.002443,0.0027714999999999,0.0665515,0.002443,-0.0027715,-0.1319075,-0.377608,-0.0393745,0.1329924999999999,-0.368638,-0.0238615,-0.2060175,-0.782558,-0.0243595,0.2030025,-0.792528,-0.0032475,0
17,-0.0161204999999999,0.6420025,0.067884,-0.1639585,0.4494225,0.035396,-0.2426385,0.6546925,0.0035589999999999,0.1514515,0.4594525,0.0402649999999999,0.2467815,0.6506225,-0.008741,-0.1423885,0.8344625,0.0523029999999999,0.1450715,0.8289325000000001,0.0400129999999999,-0.0666124999999999,-0.0024175,0.0026869999999999,0.0666124999999999,0.0024175,-0.002687,-0.1316485,-0.3781175,-0.03968,0.1332715,-0.3694175,-0.024378,-0.2057085,-0.7839674999999999,-0.024992,0.2034915,-0.7933574999999999,-0.003863,0
18,-0.015847,0.6409455,0.065249,-0.162998,0.4497454999999999,0.032479,-0.238108,0.6589754999999999,0.002312,0.150632,0.4586955,0.039161,0.243912,0.6523455,-0.009186,-0.150758,0.8516655,0.048059,0.153572,0.8424754999999999,0.036924,-0.066673,-0.0023835,0.002468,0.066673,0.0023835,-0.0024679999999999,-0.131398,-0.3786345,-0.040147,0.133562,-0.3703345,-0.025075,-0.205428,-0.7853745,-0.02586,0.203962,-0.7941345,-0.0047929999999999,0
19,-0.0155259999999999,0.639972,0.062643,-0.161605,0.449712,0.028929,-0.233045,0.663142,-0.0002019999999999,0.149765,0.458162,0.037593,0.241055,0.654702,-0.0106549999999999,-0.162525,0.8688319999999999,0.042106,0.162135,0.860312,0.032811,-0.066742,-0.002346,0.002067,0.066742,0.002346,-0.0020669999999999,-0.131055,-0.378838,-0.041012,0.133985,-0.3712479999999999,-0.02624,-0.205045,-0.786688,-0.0273829999999999,0.204535,-0.794738,-0.0063849999999999,0
20,-0.0149639999999999,0.6394135000000001,0.0598205,-0.159937,0.4506835,0.0248465,-0.227827,0.6673135,-0.0035504999999999,0.149023,0.4577935,0.0355545,0.238393,0.6573135000000001,-0.0127695,-0.172567,0.8806235,0.0344785,0.170983,0.8751135000000001,0.0281154999999999,-0.066837,-0.0024324999999999,0.0016734999999999,0.066837,0.0024324999999999,-0.0016735,-0.1306169999999999,-0.3789565,-0.0421994999999999,0.134553,-0.3718065,-0.0276715,-0.204527,-0.7879465,-0.0293895,0.205263,-0.7952665,-0.0084615,0
21,-0.014338,0.6390395,0.0565105,-0.159193,0.4514395,0.0220855,-0.223433,0.6717695,-0.0077764999999999,0.148527,0.4574395,0.0330155,0.235837,0.6605595,-0.0153905,-0.181663,0.8931395,0.0254705,0.180147,0.8899795,0.0214865,-0.066934,-0.0025605,0.0011345,0.066934,0.0025605,-0.0011345,-0.130153,-0.3791005,-0.0437195,0.135207,-0.3720905,-0.0294554999999999,-0.204023,-0.7892705,-0.0319625,0.2060769999999999,-0.7958005,-0.0110385,0
22,-0.014045,0.638045,0.0521475,-0.158503,0.451345,0.0186905,-0.221283,0.6756249999999999,-0.0134224999999999,0.148297,0.456505,0.0299215,0.233297,0.663515,-0.0186804999999999,-0.190803,0.901305,0.0148145,0.188847,0.8971549999999999,0.0146405,-0.0670159999999999,-0.002509,0.0008735,0.0670159999999999,0.002509,-0.0008734999999999,-0.1297029999999999,-0.3798249999999999,-0.0457244999999999,0.135837,-0.372955,-0.0317425,-0.203483,-0.7910550000000001,-0.0352115,0.206747,-0.7968350000000001,-0.0142865,0
23,-0.0138754999999999,0.636582,0.0470605,-0.1579245,0.450632,0.0148315,-0.2195544999999999,0.6792619999999999,-0.0201304999999999,0.1480655,0.4555019999999999,0.0265395,0.2307355,0.666132,-0.0225695,-0.2001345,0.909242,0.0031275,0.1975655,0.910122,0.0066205,-0.0670135,-0.002437,0.0006745,0.0670135,0.002437,-0.0006744999999999,-0.1293445,-0.380658,-0.0480904999999999,0.1364055,-0.374228,-0.0342695,-0.2029345,-0.793208,-0.0389025,0.2073755,-0.798178,-0.0179205,0
24,-0.013808,0.635085,0.0407375,-0.157649,0.453215,0.0104805,-0.217989,0.686885,-0.0305295,0.147811,0.454675,0.0224335,0.228741,0.6679849999999999,-0.0280615,-0.209759,0.919145,-0.0102374999999999,0.206391,0.918095,-0.0044794999999999,-0.066907,-0.002393,0.0006014999999999,0.066907,0.002393,-0.0006014999999999,-0.129089,-0.381465,-0.0509185,0.137071,-0.375545,-0.0371385,-0.202359,-0.795255,-0.0433925,0.208021,-0.799555,-0.0223175,0
25,-0.013758,0.633629,0.0338755,-0.157678,0.454099,0.0056505,-0.220568,0.6911889999999999,-0.0446555,0.147702,0.453319,0.0177045,0.228072,0.666879,-0.0343005,-0.220458,0.924249,-0.0280114999999999,0.215362,0.923349,-0.0182495,-0.066758,-0.00237,0.0006605,0.066758,0.0023699999999999,-0.0006604999999999,-0.128918,-0.3822709999999999,-0.0539434999999999,0.137842,-0.376751,-0.0402305,-0.202018,-0.7973410000000001,-0.0481884999999999,0.208762,-0.8009010000000001,-0.0271224999999999,0
26,-0.0139845,0.6329155000000001,0.0255405,-0.1579424999999999,0.4556055,0.0001304999999999,-0.2230125,0.6928855,-0.0595614999999999,0.1475075,0.4530155,0.0124995,0.2314275,0.6665255000000001,-0.0444585,-0.2288725,0.9297855,-0.0468085,0.2228475,0.9230455,-0.0330775,-0.0666055,-0.0022534999999999,0.0008294999999999,0.0666055,0.0022535,-0.0008295,-0.1289625,-0.3822945,-0.0574295,0.1386075,-0.3771945,-0.0436775,-0.2017924999999999,-0.7983345,-0.0534785,0.2093975,-0.8012045,-0.0324095,1
27,-0.0142685,0.6321855000000001,0.016626,-0.1582045,0.4571755,-0.005817,-0.2252045,0.6934355000000001,-0.0750889999999999,0.1472155,0.4530155,0.00694,0.2309355,0.6665255000000001,-0.052487,-0.2361345,0.9345955,-0.066314,0.2296655,0.9230455,-0.047413,-0.0665245,-0.0022534999999999,0.0011519999999999,0.0665245,0.0022535,-0.0011519999999999,-0.1292045,-0.3822945,-0.061366,0.1394955,-0.3773945,-0.047457,-0.2017245,-0.7980545,-0.059234,0.2099955,-0.8011345,-0.038077,1
28,-0.0142905,0.6310655000000001,0.007763,-0.1579745,0.4571755,-0.011542,-0.2249645,0.6934355000000001,-0.087971,0.1467655,0.4529855,0.001072,0.2304655,0.6665255000000001,-0.061493,-0.2394845,0.9370855,-0.0833199999999999,0.2359055,0.9230455,-0.063583,-0.0665475,-0.0022534999999999,0.001726,0.0665475,0.0022535,-0.0017259999999999,-0.1296845,-0.3822945,-0.065513,0.1406255,-0.3774945,-0.051396,-0.2019445,-0.7980545,-0.065135,0.2105655,-0.8010345,-0.043832,1
29,-0.0144669999999999,0.6294855,-0.0017505,-0.157727,0.4571755,-0.0177905,-0.224437,0.6933155000000001,-0.1017325,0.146403,0.4523455,-0.0055475,0.2334729999999999,0.6639755,-0.0743895,-0.2415669999999999,0.9383055,-0.1006465,0.242033,0.9205355,-0.0831625,-0.066555,-0.0022534999999999,0.0019065,0.066555,0.0022535,-0.0019065,-0.130417,-0.3822945,-0.0703675,0.142393,-0.3776145,-0.0561315,-0.202087,-0.7981045,-0.0717835,0.211293,-0.8009744999999999,-0.0502025,1
30,-0.0147195,0.626841,-0.0122945,-0.1574634999999999,0.457811,-0.0243615,-0.2239034999999999,0.693301,-0.1159185,0.1459065,0.451231,-0.0126285,0.2345165,0.660941,-0.0856575,-0.2425735,0.938941,-0.1184655,0.2464065,0.922611,-0.1014325,-0.0665665,-0.002155,0.0022054999999999,0.0665665,0.002155,-0.0022055,-0.1315434999999999,-0.381789,-0.0762715,0.1447065,-0.376999,-0.0618564999999999,-0.2021635,-0.7975490000000001,-0.0792355,0.2122764999999999,-0.800339,-0.0568805,1
31,-0.0144534999999999,0.620759,-0.0246345,-0.1576105,0.457269,-0.0333785,-0.2229005,0.6938989999999999,-0.1300935,0.1448795,0.4489889999999999,-0.0218605,0.2348695,0.658319,-0.0975285,-0.2428904999999999,0.939369,-0.1361235,0.2497795,0.915519,-0.1190105,-0.0665235,-0.002019,0.0021564999999999,0.0665235,0.002019,-0.0021564999999999,-0.1330505,-0.379831,-0.0821135,0.1475395,-0.375021,-0.0675255,-0.2024905,-0.795351,-0.0867325,0.2136995,-0.796761,-0.0644365,1
32,-0.0143749999999999,0.615933,-0.03643,-0.15729,0.456253,-0.042474,-0.2223,0.694753,-0.144001,0.14337,0.446243,-0.032025,0.23498,0.657433,-0.109985,-0.243,0.942063,-0.1533209999999999,0.25234,0.908743,-0.136101,-0.066451,-0.0020629999999999,0.00215,0.066451,0.002063,-0.0021499999999999,-0.13506,-0.376217,-0.0877749999999999,0.15091,-0.371647,-0.072972,-0.2032,-0.791287,-0.0943529999999999,0.2150099999999999,-0.791317,-0.072085,1
33,-0.0144919999999999,0.6108495,-0.047158,-0.156614,0.4561995,-0.051398,-0.222124,0.6967095000000001,-0.154067,0.141566,0.4433895,-0.0420419999999999,0.234526,0.6575495,-0.122156,-0.242954,0.9407595,-0.168037,0.2538559999999999,0.9005795000000001,-0.150787,-0.066371,-0.0019494999999999,0.002126,0.066371,0.0019494999999999,-0.0021259999999999,-0.139204,-0.3740905,-0.0950739999999999,0.155806,-0.3684905,-0.077799,-0.204264,-0.7851305,-0.1016,0.216386,-0.7845105000000001,-0.079465,1
34,-0.0151224999999999,0.6060055,-0.0579775,-0.1573015,0.4518955,-0.0610905,-0.2218915,0.6984754999999999,-0.1646445,0.1393285,0.4396655,-0.0531965,0.2339485,0.6538554999999999,-0.1346325,-0.2434215,0.9424355,-0.1830845,0.2547985,0.8906955,-0.1637045,-0.0665014999999999,-0.0021445,0.0020134999999999,0.0665014999999999,0.0021444999999999,-0.0020135,-0.1446015,-0.3687945,-0.1036485,0.1619285,-0.3617345,-0.0839815,-0.2062115,-0.7722045000000001,-0.1104205,0.2182685,-0.7710545000000001,-0.0879925,1
35,-0.0160464999999999,0.602549,-0.0672095,-0.1574025,0.448999,-0.0699275,-0.2228125,0.6965889999999999,-0.1742405,0.1367975,0.436949,-0.0637765,0.2330975,0.650779,-0.1460505,-0.2441725,0.945219,-0.1968105,0.2554375,0.8824989999999999,-0.1758005,-0.0666835,-0.002366,0.0020084999999999,0.0666835,0.0023659999999999,-0.0020085,-0.1501825,-0.361721,-0.1119395,0.1688175,-0.355061,-0.0910915,-0.2085225,-0.758991,-0.1192705,0.2200775,-0.7591209999999999,-0.0961315,1
36,-0.017461,0.5962855,-0.0764105,-0.157618,0.4481455,-0.0786915,-0.223918,0.6913455,-0.1838285,0.134032,0.4347355,-0.0744345,0.232032,0.6469955,-0.1566084999999999,-0.242788,0.9384355,-0.2091185,0.255362,0.8774255,-0.1873085,-0.066742,-0.0023444999999999,0.0018624999999999,0.066742,0.0023444999999999,-0.0018625,-0.155848,-0.3522745,-0.1202595,0.175612,-0.3459244999999999,-0.0985635,-0.211068,-0.7437645,-0.1280215,0.221932,-0.7445645000000001,-0.1041185,1
37,-0.0191514999999999,0.5903785,-0.085826,-0.1582124999999999,0.4475785,-0.0912699999999999,-0.2258525,0.6855685,-0.1953119999999999,0.1311275,0.4326985,-0.087293,0.2308075,0.6437785,-0.1691119999999999,-0.2415125,0.9311785,-0.222702,0.2544575,0.8797185,-0.200512,-0.0664835,-0.0024075,0.001726,0.0664835,0.0024075,-0.0017259999999999,-0.1618724999999999,-0.3415315,-0.131607,0.1817875,-0.3356915,-0.109083,-0.2140125,-0.7265715,-0.1393269999999999,0.2232374999999999,-0.7284015,-0.1144169999999999,1
38,-0.0202955,0.5901625,-0.098858,-0.1568844999999999,0.4453925,-0.106499,-0.2271145,0.6827925,-0.209048,0.1275355,0.4330825,-0.10322,0.2304655,0.6437925,-0.183608,-0.2403845,0.9241025,-0.2375979999999999,0.2528155,0.8843125000000001,-0.212828,-0.0662804999999999,-0.0026645,0.001374,0.0662804999999999,0.0026645,-0.001374,-0.1686544999999999,-0.3230675,-0.148811,0.1882155,-0.3179975,-0.124421,-0.2168344999999999,-0.7027575,-0.153327,0.2244755,-0.7072674999999999,-0.127406,1
39,-0.0213315,0.5906,-0.1108879999999999,-0.1554545,0.44206,-0.1212099999999999,-0.2281445,0.67504,-0.221249,0.1242055,0.43356,-0.117922,0.2302955,0.6442,-0.196639,-0.2392245,0.91478,-0.250159,0.2513255,0.89206,-0.224289,-0.0658405,-0.00304,0.000894,0.0658405,0.00304,-0.0008939999999999,-0.1749545,-0.30459,-0.165653,0.1945055,-0.30093,-0.13951,-0.2195345,-0.67935,-0.166033,0.2256455,-0.6866,-0.1394409999999999,1
40,-0.021936,0.5865049999999999,-0.1209824999999999,-0.153717,0.439565,-0.1326014999999999,-0.228387,0.672425,-0.2318184999999999,0.122693,0.435995,-0.1300724999999999,0.230593,0.648745,-0.2084985,-0.237897,0.909785,-0.2604885,0.250443,0.904075,-0.2355084999999999,-0.06526,-0.003525,0.0007474999999999,0.06526,0.003525,-0.0007474999999999,-0.180877,-0.2829549999999999,-0.1822085,0.200883,-0.280755,-0.1544015,-0.221757,-0.652535,-0.1782655,0.2266729999999999,-0.662735,-0.1500825,1
41,-0.021678,0.58169,-0.1295185,-0.151203,0.43479,-0.1442245,-0.227743,0.67086,-0.2434125,0.122087,0.43852,-0.1424575,0.231847,0.64364,-0.2195225,-0.235383,0.90198,-0.2714725,0.251927,0.90376,-0.2466925,-0.064683,-0.0041599999999999,0.0002594999999999,0.064683,0.0041599999999999,-0.0002595,-0.187343,-0.2606199999999999,-0.2010925,0.208497,-0.25959,-0.1719085,-0.223433,-0.62439,-0.1891025,0.228367,-0.63608,-0.1603645,1
42,-0.0214189999999999,0.577425,-0.137908,-0.148632,0.430165,-0.155152,-0.2268319999999999,0.669385,-0.253777,0.1217279999999999,0.442275,-0.154263,0.233308,0.639095,-0.229377,-0.2332219999999999,0.901635,-0.281837,0.2527879999999999,0.904745,-0.257267,-0.06412,-0.004885,-0.0003039999999999,0.06412,0.004885,0.0003039999999999,-0.192242,-0.235905,-0.217647,0.214658,-0.236665,-0.188721,-0.224822,-0.596635,-0.199057,0.229868,-0.608835,-0.169786,1
43,-0.020692,0.57265,-0.14504,-0.146425,0.43065,-0.164814,-0.226885,0.66934,-0.26315,0.121085,0.44201,-0.164075,0.235245,0.6389400000000001,-0.23821,-0.231175,0.90241,-0.2902,0.253865,0.90998,-0.2662,-0.063723,-0.0044099999999999,-0.00075,0.063723,0.0044099999999999,0.00075,-0.196625,-0.21264,-0.23296,0.2197349999999999,-0.21452,-0.2043,-0.225695,-0.5703499999999999,-0.20624,0.230395,-0.58582,-0.176807,1
44,-0.0194855,0.566875,-0.151818,-0.1440385,0.430905,-0.173917,-0.2270885,0.6731450000000001,-0.27186,0.1201115,0.445255,-0.173509,0.2376515,0.640615,-0.24711,-0.2297085,0.904985,-0.29909,0.2550914999999999,0.918105,-0.27479,-0.0634485,-0.0047449999999999,-0.00123,0.0634485,0.0047449999999999,0.0012299999999999,-0.2013585,-0.186135,-0.24827,0.2242215,-0.1882849999999999,-0.21906,-0.2264585,-0.544115,-0.21216,0.2307715,-0.558865,-0.18296,1
45,-0.0180505,0.5642400000000001,-0.1583659999999999,-0.1411805,0.42889,-0.1822309999999999,-0.2271105,0.6749700000000001,-0.2800899999999999,0.1203894999999999,0.44799,-0.182091,0.2404194999999999,0.64237,-0.25659,-0.2290205,0.90719,-0.30786,0.2565294999999999,0.92206,-0.28344,-0.0633654999999999,-0.00517,-0.0016299999999999,0.0633654999999999,0.00517,0.00163,-0.2064805,-0.1625999999999999,-0.2639,0.2290095,-0.16558,-0.2342,-0.2269205,-0.5202500000000001,-0.2176199999999999,0.2309294999999999,-0.53444,-0.188432,1
46,-0.016143,0.563895,-0.163788,-0.13803,0.424685,-0.186544,-0.22816,0.6700649999999999,-0.28487,0.11914,0.4473749999999999,-0.188002,0.2438199999999999,0.642655,-0.26289,-0.22841,0.905015,-0.31388,0.25841,0.924765,-0.28934,-0.062983,-0.005135,-0.0023099999999999,0.062983,0.005135,0.00231,-0.21188,-0.138955,-0.27639,0.23396,-0.142495,-0.24615,-0.22711,-0.497085,-0.21931,0.2313599999999999,-0.5106850000000001,-0.190415,1
47,-0.013686,0.55765,-0.167595,-0.1374,0.421071,-0.190442,-0.22896,0.6660200000000001,-0.28853,0.11979,0.445539,-0.192328,0.24666,0.63602,-0.268,-0.22768,0.90099,-0.31909,0.2614,0.91187,-0.29497,-0.062503,-0.0051699999999999,-0.00229,0.062503,0.00517,0.0022899999999999,-0.21663,-0.1219499999999999,-0.28536,0.23805,-0.1254399999999999,-0.25568,-0.22721,-0.47885,-0.21948,0.23187,-0.4873799999999999,-0.191109,1
48,-0.0111564999999999,0.551785,-0.172259,-0.1366005,0.4176919999999999,-0.19416,-0.2295505,0.6691849999999999,-0.293005,0.1207195,0.4414979999999999,-0.196736,0.2496794999999999,0.630915,-0.273155,-0.2268905,0.900585,-0.324485,0.2643195,0.901525,-0.300415,-0.0618535,-0.004785,-0.002265,0.0618535,0.0047849999999999,0.0022649999999999,-0.2216205,-0.103595,-0.294425,0.2420295,-0.106515,-0.265065,-0.2271905,-0.458785,-0.219475,0.2324395,-0.4622549999999999,-0.191057,1
49,-0.007958,0.5534349999999999,-0.176634,-0.134628,0.4149119999999999,-0.198012,-0.229608,0.665925,-0.29832,0.1219919999999999,0.438762,-0.201228,0.253322,0.6210249999999999,-0.2778899999999999,-0.225488,0.894805,-0.33011,0.267482,0.887685,-0.3053099999999999,-0.061714,-0.004895,-0.0022599999999999,0.061714,0.0048949999999999,0.00226,-0.226178,-0.087915,-0.30311,0.245732,-0.090505,-0.2745999999999999,-0.226098,-0.440845,-0.21943,0.233232,-0.439685,-0.1910239999999999,1
50,-0.004371,0.55511,-0.178397,-0.132424,0.4156729999999999,-0.198809,-0.2285839999999999,0.66168,-0.29959,0.124846,0.432486,-0.201011,0.257096,0.62009,-0.2797,-0.224024,0.89287,-0.33158,0.270646,0.88751,-0.30695,-0.061339,-0.00342,-0.00202,0.061339,0.0034199999999999,0.0020199999999999,-0.2290539999999999,-0.07219,-0.3063599999999999,0.248306,-0.0747,-0.27861,-0.224724,-0.4236,-0.21626,0.233816,-0.42069,-0.188779,1
51,-0.0006275,0.558385,-0.179716,-0.1308804999999999,0.417914,-0.1993349999999999,-0.2272904999999999,0.654755,-0.30162,0.1277995,0.427399,-0.20042,0.2611595,0.621085,-0.28167,-0.2226505,0.890725,-0.33416,0.2738295,0.887915,-0.30823,-0.0612835,-0.002255,-0.00196,0.0612835,0.002255,0.00196,-0.2315505,-0.0553949999999999,-0.30874,0.2504395,-0.059045,-0.28269,-0.2233305,-0.406355,-0.21276,0.2343195,-0.403345,-0.185635,1
52,0.0022434999999999,0.562862,-0.182048,-0.1290505,0.416112,-0.199191,-0.2263005,0.6512450000000001,-0.3032439999999999,0.1317694999999999,0.429697,-0.199309,0.2650695,0.626455,-0.283134,-0.2214405,0.890815,-0.337284,0.2768595,0.889785,-0.309214,-0.0613525,-0.003045,-0.0021159999999999,0.0613525,0.003045,0.002116,-0.2339305,-0.0363649999999999,-0.3099739999999999,0.2519795,-0.0414849999999999,-0.285674,-0.2219605,-0.3955349999999999,-0.207454,0.2344195,-0.383665,-0.182276,1
53,0.0041875,0.5674920000000001,-0.1840175,-0.1280935,0.414112,-0.1990155,-0.2266735,0.64763,-0.3059255,0.1347765,0.428311,-0.1979555,0.2682165,0.62924,-0.2841855,-0.2219635,0.8828900000000001,-0.3415355,0.2795265,0.88363,-0.3121855,-0.0613865,-0.0029799999999999,-0.0025015,0.0613865,0.00298,0.0025015,-0.2365634999999999,-0.0212899999999999,-0.3098955,0.2528665,-0.0281799999999999,-0.2875855,-0.2207635,-0.38452,-0.2026855,0.2337265,-0.3729199999999999,-0.1780475,1
54,0.0060899999999999,0.570699,-0.183469,-0.126432,0.4136549999999999,-0.197901,-0.226592,0.6466649999999999,-0.307461,0.1378579999999999,0.4230159999999999,-0.195071,0.2715579999999999,0.625555,-0.283081,-0.222492,0.882365,-0.344611,0.282678,0.872835,-0.313611,-0.061281,-0.0019649999999999,-0.0022979999999999,0.061281,0.0019649999999999,0.002298,-0.237792,-0.003845,-0.307721,0.254418,-0.012195,-0.287471,-0.218712,-0.3719950000000001,-0.1976009999999999,0.233958,-0.354425,-0.17392,1
55,0.0074475,0.574337,-0.1809605,-0.1246414999999999,0.4123599999999999,-0.1959665,-0.2259815,0.6484,-0.3081765,0.1404185,0.42382,-0.1910764999999999,0.2748585,0.624138,-0.2810565,-0.2227615,0.8811,-0.3473564999999999,0.2857085,0.86696,-0.3136265,-0.0615085,-0.00194,-0.0023864999999999,0.0615085,0.0019399999999999,0.0023864999999999,-0.2378315,0.0166699999999999,-0.3043365,0.2550585,0.00787,-0.2864765,-0.2162315,-0.35613,-0.1915764999999999,0.2338685,-0.33818,-0.1682925,1
56,0.0091604999999999,0.5770449999999999,-0.178181,-0.1232665,0.4112399999999999,-0.193592,-0.2254465,0.6475339999999999,-0.308852,0.1426835,0.42284,-0.186972,0.2779335,0.625782,-0.278872,-0.2223564999999999,0.8809199999999999,-0.350202,0.2875835,0.871,-0.312542,-0.0617265,-0.0017599999999999,-0.002595,0.0617265,0.0017599999999999,0.002595,-0.2369965,0.03359,-0.300292,0.2546935,0.0256799999999999,-0.285152,-0.2140165,-0.34251,-0.187642,0.2338135,-0.32518,-0.162167,1
57,0.0108785,0.5788449999999999,-0.1744555,-0.1218455,0.4119599999999999,-0.1905165,-0.2251355,0.6467879999999999,-0.3084865,0.1450245,0.4236899999999999,-0.1825565,0.2796245,0.6279619999999999,-0.2744765,-0.2219555,0.8828199999999999,-0.3528965,0.2893245,0.8760599999999998,-0.3093765,-0.0620244999999999,-0.0015,-0.0027335,0.0620244999999999,0.0014999999999999,0.0027335,-0.2354254999999999,0.0519099999999999,-0.2958965,0.2535044999999999,0.0450299999999999,-0.2829065,-0.2118455,-0.3239600000000001,-0.1816865,0.2337845,-0.3109400000000001,-0.1556105,1
58,0.0125245,0.5816359999999999,-0.170178,-0.1205105,0.4140999999999999,-0.186908,-0.2252104999999999,0.6452019999999999,-0.307198,0.1466695,0.4229799999999999,-0.178248,0.2822895,0.6300359999999999,-0.270718,-0.2221804999999999,0.88584,-0.355328,0.2911295,0.8796999999999999,-0.306708,-0.0623685,-0.00073,-0.0025779999999999,0.0623685,0.00073,0.0025779999999999,-0.2337804999999999,0.0683699999999999,-0.291588,0.2515995,0.0631899999999999,-0.279558,-0.2101305,-0.3063599999999999,-0.175648,0.2321395,-0.30116,-0.148534,1
59,0.0146224999999999,0.5853790000000001,-0.166353,-0.1190025,0.4131250000000001,-0.183103,-0.2248725,0.646046,-0.305773,0.1487475,0.426885,-0.173983,0.2843875,0.6333810000000001,-0.266893,-0.2219725,0.883575,-0.3570129999999999,0.2932275,0.884355,-0.302883,-0.0628804999999999,-0.0013249999999999,-0.002777,0.0628804999999999,0.001325,0.002777,-0.2316824999999999,0.0853950000000001,-0.287743,0.2499175,0.082355,-0.276083,-0.2079425,-0.286755,-0.168645,0.2322975,-0.2895649999999999,-0.14481,1
60,0.01605,0.587407,-0.1630565,-0.1177299999999999,0.40974,-0.1798155,-0.22471,0.647798,-0.3037655,0.1505899999999999,0.42867,-0.1701154999999999,0.28633,0.634471,-0.2635754999999999,-0.22197,0.87923,-0.3577654999999999,0.29517,0.88474,-0.2995655,-0.063299,-0.00178,-0.0027654999999999,0.063299,0.00178,0.0027655,-0.22977,0.1006799999999999,-0.2837855,0.2478099999999999,0.0998599999999999,-0.2729355,-0.20608,-0.26839,-0.1632434999999999,0.23143,-0.27882,-0.1384985,1
61,0.0171829999999999,0.589017,-0.160268,-0.11628,0.4112699999999999,-0.177012,-0.22451,0.6459,-0.302082,0.15259,0.42871,-0.165692,0.2856599999999999,0.630911,-0.259832,-0.22198,0.87085,-0.358102,0.29669,0.88211,-0.2967619999999999,-0.063784,-0.00124,-0.002627,0.063784,0.00124,0.002627,-0.22721,0.1129999999999999,-0.279792,0.2457,0.1147899999999999,-0.270272,-0.20308,-0.25382,-0.159595,0.2326599999999999,-0.26861,-0.135707,1
62,0.0177669999999999,0.5905300000000001,-0.156938,-0.114324,0.41269,-0.173984,-0.224474,0.64265,-0.299594,0.153276,0.4284800000000001,-0.161559,0.284636,0.6269650000000001,-0.255294,-0.221504,0.8671900000000001,-0.3563539999999999,0.2980659999999999,0.87921,-0.294184,-0.064328,-0.0008399999999999,-0.0022839999999999,0.064328,0.00084,0.002284,-0.224124,0.12518,-0.275354,0.243626,0.13033,-0.267864,-0.200134,-0.2391099999999999,-0.156988,0.232036,-0.2610599999999999,-0.13279,1
63,0.0175075,0.59394,-0.153901,-0.1130865,0.41338,-0.171844,-0.2251865,0.637426,-0.298254,0.1533535,0.43227,-0.15791,0.2824535,0.6307940000000001,-0.250924,-0.2210565,0.8615200000000001,-0.355404,0.2988635,0.88278,-0.292424,-0.0650285,-0.0014299999999999,-0.002464,0.0650285,0.00143,0.002464,-0.2212464999999999,0.1363000000000001,-0.271404,0.2407935,0.14488,-0.265924,-0.1969565,-0.2275499999999999,-0.152551,0.2308835,-0.2437399999999999,-0.133272,1
64,0.0170585,0.5946400000000001,-0.151891,-0.1127014999999999,0.4166499999999999,-0.1706039999999999,-0.2256215,0.637955,-0.297614,0.1537485,0.4332,-0.154863,0.2797084999999999,0.63385,-0.246594,-0.2208715,0.86116,-0.354754,0.2996385,0.88107,-0.2909239999999999,-0.0654484999999999,-0.0012499999999999,-0.0023579999999999,0.0654484999999999,0.0012499999999999,0.0023579999999999,-0.2184215,0.1431799999999999,-0.268054,0.2388085,0.1548399999999999,-0.264344,-0.1962015,-0.21202,-0.15332,0.2311385,-0.23214,-0.132253,1
65,0.016601,0.5959350000000001,-0.149586,-0.1123369999999999,0.419585,-0.169475,-0.226137,0.639005,-0.296795,0.153993,0.4337750000000001,-0.151914,0.276533,0.6379650000000001,-0.241985,-0.220767,0.8615750000000001,-0.354285,0.299953,0.879955,-0.287285,-0.06584,-0.0009249999999999,-0.0021249999999999,0.06584,0.000925,0.002125,-0.215527,0.151345,-0.265305,0.237433,0.164505,-0.262735,-0.192817,-0.2051249999999999,-0.15402,0.229093,-0.229035,-0.131874,1
66,0.0157445,0.5972400000000001,-0.14769,-0.1120265,0.4193800000000001,-0.168481,-0.2271465,0.63802,-0.295441,0.1534535,0.4346,-0.149796,0.2764535,0.6372500000000001,-0.238301,-0.2207065,0.85765,-0.3532409999999999,0.3001835,0.8821800000000001,-0.284141,-0.0660015,-0.0010199999999999,-0.002131,0.0660015,0.00102,0.002131,-0.2135565,0.15344,-0.263341,0.2363135,0.1671100000000001,-0.261591,-0.1915865,-0.2031999999999999,-0.155511,0.2276535,-0.2263599999999999,-0.131334,1
67,0.0145455,0.5972400000000001,-0.145595,-0.1126665,0.4193800000000001,-0.167461,-0.2283765,0.63802,-0.294241,0.1522735,0.4346,-0.147669,0.2761435,0.6356200000000001,-0.234721,-0.2220265,0.85765,-0.3532909999999999,0.3000835,0.87697,-0.281521,-0.0660015,-0.0010199999999999,-0.002131,0.0660015,0.00102,0.002131,-0.2125865,0.15326,-0.262051,0.2357735,0.16659,-0.260461,-0.1909665,-0.2049599999999999,-0.155649,0.2277535,-0.2254799999999999,-0.133787,1
68,0.0134285,0.5972400000000001,-0.143298,-0.1131965,0.4193800000000001,-0.166421,-0.2297365,0.63802,-0.292601,0.1515835,0.4346,-0.145985,0.2760035,0.6356200000000001,-0.231311,-0.2230265,0.85765,-0.352201,0.2999835,0.87697,-0.2792509999999999,-0.0660015,-0.0010199999999999,-0.002131,0.0660015,0.00102,0.002131,-0.2122765,0.15326,-0.261921,0.2357535,0.16659,-0.259961,-0.1906065,-0.2048099999999999,-0.157105,0.2275135,-0.2270999999999999,-0.132098,1
69,0.0122835,0.5972400000000001,-0.1419865,-0.1138495,0.4193800000000001,-0.1660035,-0.2310195,0.63802,-0.2912535,0.1513304999999999,0.4349,-0.1451735,0.2759005,0.6356200000000001,-0.2300235,-0.2240595,0.85765,-0.3509135,0.3011705,0.87697,-0.2778635,-0.0660055,-0.0010199999999999,-0.0020314999999999,0.0660055,0.00102,0.0020315,-0.2121295,0.15326,-0.2631035,0.2357905,0.16659,-0.2608635,-0.1907495,-0.2040099999999999,-0.1580234999999999,0.2272005,-0.2285299999999999,-0.1294505,1
70,0.0111149999999999,0.59806,-0.141899,-0.115012,0.41853,-0.165877,-0.2324619999999999,0.63795,-0.290637,0.151048,0.43482,-0.145793,0.2755579999999999,0.6346,-0.231087,-0.225472,0.8573900000000001,-0.349447,0.3023579999999999,0.87595,-0.278227,-0.065999,-0.0014099999999999,-0.0021189999999999,0.065999,0.00141,0.0021189999999999,-0.2123219999999999,0.15224,-0.265337,0.235588,0.16557,-0.262907,-0.1931719999999999,-0.1988999999999999,-0.1636119999999999,0.228508,-0.2248799999999999,-0.132409,1
71,0.0096695,0.59741,-0.1420965,-0.1167775,0.4188,-0.1661675,-0.2342874999999999,0.63829,-0.2904665,0.1499625,0.4344,-0.1469695,0.2745525,0.63396,-0.2330865,-0.2274375,0.8605,-0.3486765,0.3030425,0.87429,-0.2790765,-0.0658905,-0.00146,-0.0020565,0.0658905,0.00146,0.0020565,-0.2130975,0.14932,-0.2680565,0.2359325,0.1618399999999999,-0.2653565,-0.1940275,-0.2019299999999999,-0.1637535,0.2290825,-0.22577,-0.1349205,1
72,0.0083384999999999,0.59584,-0.143212,-0.1188635,0.4188,-0.166664,-0.2358035,0.63478,-0.290692,0.1491064999999999,0.43341,-0.149466,0.2737065,0.6289,-0.235722,-0.2291135,0.85856,-0.348462,0.3023065,0.87055,-0.280602,-0.0658435,-0.0014999999999999,-0.002211,0.0658435,0.0015,0.002211,-0.2139035,0.14122,-0.271632,0.2367065,0.1527899999999999,-0.268522,-0.1947835,-0.2120699999999999,-0.169489,0.2310665,-0.2299399999999999,-0.140849,1
73,0.0066589999999999,0.5949,-0.144585,-0.121007,0.41743,-0.167257,-0.237457,0.635265,-0.290978,0.148183,0.43228,-0.152334,0.272203,0.627077,-0.238698,-0.231157,0.85901,-0.348238,0.302353,0.86334,-0.282168,-0.065645,-0.0016399999999999,-0.0023719999999999,0.065645,0.0016399999999999,0.0023719999999999,-0.215367,0.1318599999999999,-0.276098,0.2379129999999999,0.14178,-0.271898,-0.195797,-0.22533,-0.174228,0.231983,-0.2305399999999999,-0.147228,1
74,0.0049925,0.5938700000000001,-0.146807,-0.1222795,0.4159900000000001,-0.168738,-0.2389395,0.6336640000000001,-0.2918969999999999,0.1469205,0.43151,-0.156117,0.2745105,0.6219040000000001,-0.2421269999999999,-0.2334495,0.8574200000000001,-0.3483269999999999,0.3028305,0.8584800000000001,-0.284467,-0.0653775,-0.0018399999999999,-0.0025849999999999,0.0653775,0.00184,0.002585,-0.2173294999999999,0.12008,-0.281987,0.2394605,0.12726,-0.276047,-0.1968395,-0.2423999999999999,-0.179587,0.2321905,-0.2358199999999999,-0.151277,1
75,0.0031765,0.593997,-0.1496785,-0.1242235,0.41445,-0.1706774999999999,-0.2404635,0.6325919999999999,-0.2926284999999999,0.1454265,0.43134,-0.1602545,0.2765465,0.621934,-0.2456585,-0.2360635,0.86492,-0.3468785,0.3032865,0.8584499999999999,-0.2859184999999999,-0.0650085,-0.00204,-0.0027394999999999,0.0650085,0.0020399999999999,0.0027395,-0.2195735,0.1067299999999999,-0.2885185,0.2415265,0.11109,-0.2805385,-0.1981235,-0.2612300000000001,-0.1846284999999999,0.2335365,-0.24534,-0.1578215,1
76,0.001308,0.592339,-0.1529585,-0.126185,0.41135,-0.1731885,-0.242145,0.631074,-0.2935195,0.143725,0.42956,-0.1648144999999999,0.278525,0.620232,-0.2494994999999999,-0.238655,0.8716,-0.3462895,0.303645,0.86207,-0.2878095,-0.06469,-0.0023199999999999,-0.0029584999999999,0.06469,0.0023199999999999,0.0029585,-0.221765,0.09084,-0.2952595,0.243585,0.0919299999999999,-0.2853795,-0.201485,-0.27496,-0.1911594999999999,0.232845,-0.25793,-0.1619344999999999,1
77,-0.0005265,0.5910899999999999,-0.1570035,-0.1282154999999999,0.4087349999999999,-0.1760515,-0.2440854999999999,0.627721,-0.2947045,0.1421345,0.4294649999999999,-0.1692435,0.2802345,0.6154529999999999,-0.2529645,-0.2413855,0.874525,-0.3462645,0.3037944999999999,0.861985,-0.2899945,-0.0643885,-0.002805,-0.0031675,0.0643885,0.0028049999999999,0.0031675,-0.2237055,0.0720649999999999,-0.3015945,0.2455645,0.0698949999999999,-0.2906845,-0.2047054999999999,-0.2920950000000001,-0.1962944999999999,0.2338545,-0.274275,-0.1675795,1
78,-0.001931,0.59031,-0.159823,-0.1297289999999999,0.40729,-0.178915,-0.245629,0.6264689999999999,-0.296182,0.141211,0.42772,-0.173701,0.282671,0.614569,-0.255782,-0.243689,0.87514,-0.345612,0.304321,0.86388,-0.291842,-0.064211,-0.00294,-0.003138,0.064211,0.0029399999999999,0.003138,-0.224789,0.0528299999999999,-0.307042,0.247551,0.04801,-0.295922,-0.2070989999999999,-0.30932,-0.202542,0.234191,-0.29333,-0.173315,1
79,-0.0029245,0.5920740000000001,-0.161949,-0.1305465,0.4086400000000001,-0.181665,-0.2468365,0.6271280000000001,-0.29655,0.1407935,0.4286000000000001,-0.1769859999999999,0.2818935,0.6173470000000001,-0.25803,-0.2457065,0.8699400000000002,-0.34468,0.3037935,0.8628600000000001,-0.29319,-0.0642205,-0.0026899999999999,-0.0029899999999999,0.0642205,0.00269,0.00299,-0.2254565,0.03505,-0.31203,0.2494134999999999,0.02829,-0.3003099999999999,-0.2080765,-0.3277799999999999,-0.20775,0.2349534999999999,-0.3170799999999999,-0.178788,1
80,-0.004006,0.595237,-0.163616,-0.131373,0.4088499999999999,-0.184188,-0.247963,0.626676,-0.2961249999999999,0.140347,0.4289199999999999,-0.179761,0.281047,0.615803,-0.259925,-0.248003,0.8669199999999999,-0.343585,0.303127,0.85747,-0.294265,-0.064303,-0.00278,-0.002945,0.064303,0.00278,0.0029449999999999,-0.226193,0.0150399999999999,-0.316735,0.249637,0.0065999999999999,-0.304565,-0.209743,-0.34391,-0.212465,0.235537,-0.33348,-0.18352,1
81,-0.0053824999999999,0.5964119999999999,-0.162066,-0.1325374999999999,0.4091899999999999,-0.185704,-0.2495275,0.63296,-0.293075,0.1398325,0.4284199999999999,-0.18098,0.2793225,0.6224399999999999,-0.259195,-0.2510175,0.8714999999999999,-0.340675,0.3016725,0.8638999999999999,-0.291095,-0.0644605,-0.00275,-0.002535,0.0644605,0.0027499999999999,0.0025349999999999,-0.2272775,-0.0022200000000001,-0.320235,0.2488625,-0.011,-0.306765,-0.2115375,-0.3582700000000001,-0.217305,0.2359525,-0.3481000000000001,-0.189233,1
82,-0.0073104999999999,0.597815,-0.158836,-0.1336755,0.412838,-0.185254,-0.2516655,0.6309199999999999,-0.28906,0.1391645,0.4310849999999999,-0.180198,0.2766745,0.62493,-0.25689,-0.2548755,0.87829,-0.33348,0.2994945,0.8665499999999999,-0.28702,-0.0644085,-0.0027699999999999,-0.00225,0.0644085,0.0027699999999999,0.00225,-0.2280955,-0.0232899999999999,-0.32205,0.2473445,-0.0312,-0.30747,-0.2137055,-0.37709,-0.22166,0.2353545,-0.37207,-0.192271,1
83,-0.0090214999999999,0.600275,-0.1537879999999999,-0.1346365,0.416509,-0.184001,-0.2540165,0.637625,-0.283275,0.1383235,0.433175,-0.178531,0.2741335,0.632585,-0.252735,-0.2586865,0.888825,-0.325865,0.2977135,0.873955,-0.281645,-0.0644935,-0.002655,-0.001945,0.0644935,0.002655,0.001945,-0.2283565,-0.0409949999999999,-0.321725,0.2456934999999999,-0.0475349999999999,-0.305795,-0.2157165,-0.3922849999999999,-0.223955,0.2355335,-0.386935,-0.1976669999999999,1
84,-0.01088,0.605515,-0.147979,-0.135195,0.4226379999999999,-0.181174,-0.256525,0.643455,-0.27754,0.137175,0.437502,-0.175084,0.272115,0.635315,-0.2478099999999999,-0.262355,0.889165,-0.3187,0.295995,0.876965,-0.276,-0.0647129999999999,-0.002445,-0.00178,0.0647129999999999,0.0024449999999999,0.00178,-0.228325,-0.059795,-0.3202,0.243995,-0.062865,-0.30196,-0.217535,-0.4102449999999999,-0.22675,0.234885,-0.4098549999999999,-0.201048,1
85,-0.012812,0.610495,-0.140737,-0.136339,0.428849,-0.177168,-0.258649,0.648655,-0.270745,0.136281,0.441271,-0.170822,0.269781,0.641645,-0.240715,-0.265419,0.888005,-0.3098349999999999,0.293731,0.8781950000000001,-0.266985,-0.064888,-0.0022849999999999,-0.0017049999999999,0.064888,0.002285,0.0017049999999999,-0.227689,-0.0784949999999999,-0.316825,0.242321,-0.0788749999999999,-0.296825,-0.219169,-0.429345,-0.227465,0.234471,-0.4325249999999999,-0.203449,1
86,-0.0147979999999999,0.61316,-0.132493,-0.1379409999999999,0.433334,-0.172477,-0.260971,0.65603,-0.26314,0.134699,0.442383,-0.166311,0.267779,0.6469400000000001,-0.23293,-0.268151,0.88889,-0.30029,0.291919,0.88136,-0.2577399999999999,-0.065079,-0.00201,-0.0015299999999999,0.065079,0.00201,0.00153,-0.226371,-0.09659,-0.31218,0.240039,-0.0945699999999999,-0.2904299999999999,-0.220791,-0.44891,-0.2291599999999999,0.2340189999999999,-0.4550299999999999,-0.204428,1
87,-0.0168009999999999,0.61711,-0.124376,-0.139675,0.439224,-0.167269,-0.2634849999999999,0.66038,-0.25511,0.133735,0.44707,-0.160584,0.266095,0.65349,-0.22525,-0.2716449999999999,0.8915299999999999,-0.2906999999999999,0.290405,0.8809100000000001,-0.24834,-0.0653499999999999,-0.0020499999999999,-0.0015399999999999,0.0653499999999999,0.0020499999999999,0.0015399999999999,-0.2249149999999999,-0.1121999999999999,-0.30689,0.236845,-0.1079699999999999,-0.28318,-0.2224749999999999,-0.4659199999999999,-0.2308899999999999,0.233115,-0.47471,-0.204843,1
88,-0.018702,0.618215,-0.115793,-0.14136,0.444035,-0.161873,-0.2661599999999999,0.667075,-0.2466249999999999,0.13217,0.448345,-0.155144,0.2639899999999999,0.659295,-0.217146,-0.2746699999999999,0.898195,-0.281045,0.28907,0.883025,-0.2378549999999999,-0.065763,-0.0021849999999999,-0.001555,0.065763,0.0021849999999999,0.001555,-0.22315,-0.1282849999999999,-0.301615,0.23328,-0.121655,-0.275655,-0.22395,-0.485935,-0.231955,0.2323899999999999,-0.494755,-0.204818,1
89,-0.0202185,0.6189450000000001,-0.107247,-0.1430374999999999,0.448525,-0.156376,-0.2680975,0.670775,-0.238505,0.1311825,0.452005,-0.149596,0.2622024999999999,0.665365,-0.208895,-0.2769875,0.906665,-0.268825,0.2880025,0.8902650000000001,-0.227545,-0.0661694999999999,-0.0022749999999999,-0.0015749999999999,0.0661694999999999,0.002275,0.001575,-0.2208075,-0.1440349999999999,-0.296405,0.2297425,-0.1350749999999999,-0.267785,-0.2250475,-0.505975,-0.232605,0.2319325,-0.515855,-0.204586,1
90,-0.0210335,0.6231899999999999,-0.099532,-0.1436434999999999,0.4527899999999999,-0.150241,-0.2689935,0.6717899999999999,-0.23061,0.1306465,0.45696,-0.142917,0.2612965,0.6661699999999999,-0.20037,-0.2779635,0.91492,-0.25662,0.2876665,0.8901899999999999,-0.21946,-0.0664385,-0.00235,-0.00155,0.0664385,0.0023499999999999,0.0015499999999999,-0.2177035,-0.15871,-0.29069,0.2267465,-0.14858,-0.26023,-0.2254735,-0.5240400000000001,-0.23186,0.2318465,-0.5354,-0.203757,1
91,-0.0215689999999999,0.6301749999999999,-0.091944,-0.144046,0.4543049999999999,-0.144509,-0.269556,0.679975,-0.22147,0.130324,0.459725,-0.136562,0.260574,0.669635,-0.192083,-0.278536,0.918505,-0.24707,0.287514,0.892905,-0.2109909999999999,-0.066632,-0.002275,-0.0015899999999999,0.066632,0.0022749999999999,0.0015899999999999,-0.214486,-0.170965,-0.28449,0.2237839999999999,-0.160645,-0.25264,-0.225696,-0.539765,-0.23013,0.231594,-0.552855,-0.202317,1
92,-0.0218545,0.637895,-0.0848159999999999,-0.1442985,0.455565,-0.138262,-0.2699585,0.681855,-0.213069,0.1303415,0.461295,-0.129887,0.2599115,0.671365,-0.1845879999999999,-0.2789385,0.920995,-0.237,0.2875415,0.894505,-0.202844,-0.0666305,-0.001955,-0.0016299999999999,0.0666305,0.001955,0.00163,-0.2109885,-0.183885,-0.27771,0.2207615,-0.173335,-0.2450999999999999,-0.2257285,-0.556435,-0.22832,0.2315215,-0.571225,-0.2004169999999999,1
93,-0.022352,0.639835,-0.076866,-0.144566,0.454685,-0.131992,-0.270376,0.682335,-0.204355,0.1306939999999999,0.462605,-0.123204,0.259354,0.672555,-0.177683,-0.279316,0.922665,-0.22761,0.287774,0.900845,-0.194827,-0.066623,-0.001785,-0.00182,0.066623,0.001785,0.00182,-0.207236,-0.195655,-0.2696199999999999,0.216484,-0.1853149999999999,-0.23678,-0.225646,-0.574195,-0.22636,0.231404,-0.589855,-0.1974469999999999,1
94,-0.0223625,0.64303,-0.069881,-0.1445775,0.45468,-0.126357,-0.2702475,0.68405,-0.196103,0.1311125,0.46597,-0.116913,0.2594125,0.67235,-0.172412,-0.2790074999999999,0.92661,-0.21898,0.2884225,0.90483,-0.189734,-0.0666895,-0.0016699999999999,-0.00189,0.0666895,0.00167,0.0018899999999999,-0.2031275,-0.20503,-0.26161,0.2124925,-0.1946899999999999,-0.229,-0.2250575,-0.5896600000000001,-0.22448,0.2315025,-0.6068499999999999,-0.194381,1
95,-0.0218694999999999,0.6447849999999999,-0.06203,-0.1442855,0.457705,-0.11913,-0.2695055,0.686635,-0.1873179999999999,0.1320645,0.468495,-0.110073,0.2602245,0.674715,-0.166776,-0.2780955,0.929155,-0.209863,0.2895545,0.908165,-0.183996,-0.0669655,-0.001365,-0.00199,0.0669655,0.0013649999999999,0.0019899999999999,-0.1982855,-0.212865,-0.25146,0.2083245,-0.202685,-0.2202899999999999,-0.2237655,-0.604425,-0.2208999999999999,0.2313345,-0.622015,-0.1899819999999999,1
96,-0.0213305,0.645875,-0.054319,-0.1443614999999999,0.458595,-0.111749,-0.2684415,0.688795,-0.178285,0.1327585,0.472345,-0.103108,0.2609484999999999,0.674015,-0.160585,-0.2770115,0.931185,-0.201198,0.2903185,0.909135,-0.178787,-0.0674935,-0.0011049999999999,-0.001985,0.0674935,0.001105,0.0019849999999999,-0.1935915,-0.2214049999999999,-0.240715,0.2042185,-0.211725,-0.211615,-0.2223315,-0.621185,-0.215685,0.2309385,-0.637145,-0.185063,1
97,-0.0205959999999999,0.64654,-0.046533,-0.144499,0.45943,-0.103171,-0.264129,0.68905,-0.167785,0.133761,0.47479,-0.095693,0.261981,0.67179,-0.154374,-0.2748089999999999,0.93116,-0.190657,0.291411,0.90693,-0.174009,-0.067717,-0.0005799999999999,-0.001875,0.067717,0.0005799999999999,0.001875,-0.1881789999999999,-0.2298599999999999,-0.228175,0.199461,-0.2190399999999999,-0.201114,-0.220319,-0.6386999999999999,-0.208225,0.230051,-0.65011,-0.178175,1
98,-0.0199339999999999,0.645815,-0.039316,-0.144733,0.460705,-0.094352,-0.263103,0.689855,-0.158632,0.135117,0.475235,-0.088172,0.262877,0.669505,-0.148191,-0.273873,0.926985,-0.183941,0.292977,0.901105,-0.169425,-0.067471,-0.0003049999999999,-0.001729,0.067471,0.000305,0.0017289999999999,-0.182503,-0.2451649999999999,-0.215271,0.194627,-0.235095,-0.190467,-0.217973,-0.657435,-0.200121,0.228497,-0.666525,-0.170743,1
99,-0.0192715,0.647305,-0.0323805,-0.1449595,0.4621849999999999,-0.0856535,-0.2620294999999999,0.690875,-0.1501704999999999,0.1361605,0.4751849999999999,-0.0811605,0.2631105,0.668315,-0.1419335,-0.2729395,0.920775,-0.1770515,0.2941205,0.896485,-0.1646155,-0.0671404999999999,-0.000135,-0.0016214999999999,0.0671404999999999,0.0001349999999999,0.0016214999999999,-0.1769595,-0.2598049999999999,-0.2025725,0.1896105,-0.250155,-0.1795365,-0.2156695,-0.674855,-0.1909805,0.2269305,-0.682335,-0.1632795,1
100,-0.018725,0.6437065,-0.0202704999999999,-0.145281,0.4621065,-0.0718565,-0.2612609999999999,0.6867365000000001,-0.1373635,0.137039,0.4734365,-0.0688075,0.263919,0.6684265,-0.1302905,-0.2723609999999999,0.9121965,-0.1637485,0.294979,0.8948665,-0.1542295,-0.066773,-0.0002344999999999,-0.0013564999999999,0.066773,0.0002344999999999,0.0013564999999999,-0.171251,-0.2753335,-0.1844935,0.184489,-0.2655635,-0.1632775,-0.213351,-0.6926635000000001,-0.1764945,0.225249,-0.6980335,-0.1503175,1
101,-0.018585,0.640382,-0.0083724999999999,-0.146676,0.4636519999999999,-0.0577695,-0.260866,0.6824020000000001,-0.1244915,0.138444,0.473512,-0.0560974999999999,0.263654,0.668712,-0.1185084999999999,-0.273236,0.903252,-0.1516855,0.295144,0.8947620000000001,-0.1434754999999999,-0.0663499999999999,-0.000786,-0.0009875,0.0663499999999999,0.0007859999999999,0.0009875,-0.1650059999999999,-0.2918779999999999,-0.1663735,0.178734,-0.281798,-0.1472165,-0.211376,-0.710978,-0.1618845,0.223384,-0.713788,-0.1368935,1
102,-0.0187945,0.638454,0.0028014999999999,-0.1485564999999999,0.464134,-0.0445725,-0.2609565,0.6797340000000001,-0.1120805,0.1390035,0.471424,-0.0444785,0.2629835,0.6688540000000001,-0.1068495,-0.2743365,0.895924,-0.1396265,0.2948635,0.889304,-0.1329604999999999,-0.0659585,-0.0012929999999999,-0.0006214999999999,0.0659585,0.001293,0.0006214999999999,-0.1595765,-0.3079159999999999,-0.1496515,0.1742535,-0.297846,-0.1333524999999999,-0.2098265,-0.727226,-0.1476825,0.2211635,-0.727636,-0.1236464999999999,1
103,-0.019058,0.6370520000000001,0.0137909999999999,-0.150616,0.465002,-0.0311429999999999,-0.261046,0.676382,-0.0999019999999999,0.140124,0.469692,-0.032581,0.262264,0.6680320000000001,-0.095115,-0.276196,0.888512,-0.127631,0.294364,0.884042,-0.121498,-0.065588,-0.0017269999999999,-0.0001999999999999,0.065588,0.0017269999999999,0.0002,-0.154516,-0.3237879999999999,-0.133415,0.1698339999999999,-0.313838,-0.119349,-0.208396,-0.7431679999999999,-0.133374,0.2190339999999999,-0.742398,-0.110354,1
104,-0.019589,0.6389285,0.0237824999999999,-0.152806,0.4637585,-0.0191325,-0.261496,0.6713185,-0.0887515,0.140814,0.4695885,-0.0212765,0.261214,0.6684185,-0.0843635,-0.278566,0.8832585000000001,-0.1163505,0.293834,0.8812085000000001,-0.1105245,-0.065564,-0.0022415,0.0002224999999999,0.065564,0.0022415,-0.0002225,-0.150596,-0.3364614999999999,-0.1193595,0.165924,-0.3263815,-0.1066745,-0.2075159999999999,-0.7559615,-0.1198725,0.217204,-0.7550715,-0.0979165,1
105,-0.020141,0.6404345,0.0335339999999999,-0.154828,0.4633545,-0.007541,-0.262318,0.6678445000000001,-0.078038,0.1409919999999999,0.4656645,-0.010789,0.260112,0.6693845,-0.073881,-0.281788,0.8798145,-0.10498,0.291492,0.8805945000000001,-0.099199,-0.065579,-0.0026064999999999,0.0005929999999999,0.065579,0.0026064999999999,-0.000593,-0.146948,-0.3470955,-0.105914,0.162132,-0.3382755,-0.094429,-0.206708,-0.7664354999999999,-0.10714,0.2155119999999999,-0.7656755,-0.085539,1
106,-0.0206365,0.6430535000000001,0.043287,-0.1560705,0.4612035,0.002651,-0.2635504999999999,0.6644735,-0.068112,0.1411394999999999,0.4641335,-0.0004349999999999,0.2589895,0.6718035,-0.0633509999999999,-0.2854505,0.8762735,-0.09408,0.2891495,0.8831835,-0.087816,-0.0655945,-0.0031795,0.000988,0.0655945,0.0031794999999999,-0.0009879999999999,-0.1438805,-0.3535264999999999,-0.0937349999999999,0.1592394999999999,-0.3455765,-0.083486,-0.2061105,-0.7726965,-0.09545,0.2143094999999999,-0.7711264999999999,-0.0735369999999999,1
107,-0.021427,0.646316,0.0528585,-0.157626,0.459826,0.0126495,-0.264996,0.661966,-0.0582935,0.140964,0.463226,0.0096674999999999,0.257534,0.674806,-0.0530695,-0.289576,0.873576,-0.0834555,0.2883639999999999,0.886356,-0.0766145,-0.0652679999999999,-0.003532,0.0013265,0.0652679999999999,0.003532,-0.0013264999999999,-0.141916,-0.361464,-0.0823715,0.156084,-0.353894,-0.0727285,-0.206266,-0.777294,-0.0840305,0.213054,-0.776034,-0.0617105,1
108,-0.022184,0.646517,0.062232,-0.159092,0.459107,0.022684,-0.266432,0.659657,-0.0484389999999999,0.140718,0.462837,0.01976,0.2561879999999999,0.6777270000000001,-0.042827,-0.294402,0.871187,-0.073098,0.287458,0.8974570000000001,-0.06375,-0.064956,-0.003766,0.001733,0.064956,0.003766,-0.0017329999999999,-0.140032,-0.368953,-0.07091,0.1532379999999999,-0.361723,-0.0621599999999999,-0.206362,-0.7803129999999999,-0.072459,0.211708,-0.7803329999999999,-0.0497819999999999,1
109,-0.023001,0.648219,0.0662965,-0.160524,0.459429,0.0273155,-0.271194,0.658779,-0.0451945,0.140396,0.463539,0.0242685,0.255126,0.678649,-0.0379615,-0.3009739999999999,0.870599,-0.0691615,0.286646,0.907019,-0.0557225,-0.065038,-0.0038809999999999,0.0020145,0.065038,0.003881,-0.0020145,-0.1388539999999999,-0.377381,-0.0651945,0.150436,-0.372141,-0.0569475,-0.2066839999999999,-0.7837810000000001,-0.0659865,0.210206,-0.787191,-0.0433305,1
110,-0.0236424999999999,0.6483639999999999,0.070398,-0.1612115,0.458104,0.031523,-0.2725815,0.658674,-0.0410149999999999,0.1400785,0.463294,0.028525,0.2541885,0.677864,-0.033149,-0.3050415,0.870674,-0.065082,0.2861885,0.914854,-0.046978,-0.0650945,-0.0038029999999999,0.0020879999999999,0.0650945,0.003803,-0.002088,-0.1387015,-0.378946,-0.060067,0.1485785,-0.373596,-0.051758,-0.2068015,-0.785876,-0.059629,0.2088985,-0.788696,-0.037392,1
111,-0.0242255,0.648633,0.0744135,-0.1617995,0.456993,0.0356535,-0.2738595,0.659073,-0.0369195,0.1398005,0.4625329999999999,0.0326665,0.2533404999999999,0.677913,-0.0283304999999999,-0.3089395,0.870673,-0.0610914999999999,0.2860405,0.923453,-0.0382874999999999,-0.0651645,-0.003748,0.0021084999999999,0.0651645,0.003748,-0.0021085,-0.1384795,-0.380137,-0.0549744999999999,0.1467805,-0.374747,-0.0466194999999999,-0.2069095,-0.7871670000000001,-0.0532655,0.2076505,-0.789847,-0.0313774999999999,1
112,-0.0247295,0.648897,0.0783075,-0.1623345,0.456267,0.0396185,-0.2750045,0.659667,-0.0329795,0.1394254999999999,0.462167,0.0366585,0.2528055,0.678257,-0.0243655,-0.3114245,0.870817,-0.0570595,0.2872955,0.932257,-0.0312995,-0.0652595,-0.0036829999999999,0.0020845,0.0652595,0.0036829999999999,-0.0020844999999999,-0.1382045,-0.380943,-0.0500175,0.1451555,-0.375473,-0.0417245,-0.2071545,-0.787963,-0.0471855,0.2064455,-0.790573,-0.0255995,1
113,-0.025064,0.6492065,0.0821295,-0.162678,0.4558865,0.0433505,-0.2760479999999999,0.6604565,-0.0288215,0.1390819999999999,0.4620365,0.0404225,0.252072,0.6788365,-0.0197985,-0.314558,0.8712565,-0.0522175,0.286672,0.9409965,-0.0238794999999999,-0.065344,-0.0036584999999999,0.0021195,0.065344,0.0036585,-0.0021195,-0.137928,-0.3808735,-0.0454975,0.143782,-0.3750234999999999,-0.0371505,-0.207118,-0.7874435000000001,-0.0415825,0.205142,-0.7909535,-0.0201365,1
114,-0.025239,0.649365,0.0855914999999999,-0.1628089999999999,0.455175,0.0467135,-0.276959,0.661205,-0.0248045,0.138861,0.4618649999999999,0.0436915,0.2514809999999999,0.679425,-0.0155104999999999,-0.316029,0.871675,-0.0472634999999999,0.286431,0.949605,-0.0165365,-0.065393,-0.003629,0.0021705,0.065393,0.003629,-0.0021704999999999,-0.137579,-0.380785,-0.0414085,0.142581,-0.374445,-0.0329925,-0.2070489999999999,-0.787105,-0.0363835,0.204041,-0.790985,-0.0152935,1
115,-0.0253175,0.6493800000000001,0.088068,-0.1627315,0.45427,0.0490759999999999,-0.2776015,0.66144,-0.02162,0.1387385,0.46148,0.045979,0.2509885,0.67986,-0.011988,-0.3176815,0.87141,-0.043652,0.2866285,0.95817,-0.010675,-0.0654225,-0.003616,0.002241,0.0654225,0.0036159999999999,-0.002241,-0.1373215,-0.38067,-0.038425,0.1416985,-0.37393,-0.030056,-0.2070615,-0.78638,-0.0324929999999999,0.2030985,-0.7910499999999999,-0.011858,1
116,-0.0253855,0.6494179999999999,0.0903635,-0.1625214999999999,0.453358,0.0510885,-0.2782015,0.661538,-0.0185765,0.1386385,0.461008,0.0481075,0.2505585,0.6802779999999999,-0.0086534999999999,-0.3183415,0.871898,-0.0391534999999999,0.2869385,0.958658,-0.0064185,-0.0654515,-0.003615,0.0023215,0.0654515,0.003615,-0.0023215,-0.1370914999999999,-0.380552,-0.0357165,0.1410084999999999,-0.3734119999999999,-0.0275104999999999,-0.2071515,-0.785462,-0.0289105,0.2022884999999999,-0.7909820000000001,-0.0089384999999999,1
117,-0.02537,0.6495690000000001,0.092164,-0.162236,0.452659,0.052701,-0.278736,0.661609,-0.015877,0.138594,0.460679,0.049793,0.250254,0.680679,-0.00577,-0.318546,0.878749,-0.035309,0.288354,0.967249,-0.000976,-0.065425,-0.003575,0.002377,0.065425,0.003575,-0.002377,-0.136906,-0.380311,-0.033616,0.140454,-0.372781,-0.025504,-0.207266,-0.7846609999999999,-0.02622,0.201634,-0.7903209999999999,-0.0065489999999999,1
118,-0.0253055,0.6496045,0.0935135,-0.1622505,0.4525145,0.0540905,-0.2791005,0.6615445000000001,-0.0131855,0.1386195,0.4602845,0.0511164999999999,0.2500095,0.6808045,-0.0031734999999999,-0.3187605,0.8867145000000001,-0.0298915,0.2884795,0.9672645,0.0023944999999999,-0.0654275,-0.0035465,0.0024314999999999,0.0654275,0.0035464999999999,-0.0024314999999999,-0.1367405,-0.3801655,-0.0319735,0.1399995,-0.3722855,-0.0239665,-0.2072105,-0.7842954999999999,-0.0241855,0.2011595,-0.7895255,-0.0045915,1
119,-0.0252595,0.64952,0.094609,-0.1622365,0.4522899999999999,0.0552389999999999,-0.2792165,0.66192,-0.0102329999999999,0.1386734999999999,0.45996,0.052223,0.2497935,0.68067,-0.000535,-0.3190265,0.89106,-0.023197,0.2883635,0.96704,0.00528,-0.0654325,-0.003559,0.0025589999999999,0.0654325,0.0035589999999999,-0.0025589999999999,-0.1365865,-0.38012,-0.030617,0.1394735,-0.37185,-0.0227139999999999,-0.2071465,-0.78417,-0.0225949999999999,0.2007235,-0.78884,-0.002977,1
120,-0.0252914999999999,0.6494255,0.0955285,-0.1622295,0.4524654999999999,0.0562015,-0.2793295,0.6618255,-0.0071385,0.1386405,0.4598655,0.0531704999999999,0.2496905,0.6805755,0.0020394999999999,-0.3172095,0.8923255,-0.0163875,0.2882405,0.9669455,0.0085115,-0.0654355,-0.0035474999999999,0.0027545,0.0654355,0.0035475,-0.0027545,-0.1364395,-0.3801745,-0.0295705,0.1390605,-0.3718245,-0.0217374999999999,-0.2071595,-0.7836645,-0.0214665,0.2005505,-0.7886445,-0.0017735,1
121,-0.0252195,0.6494255,0.096247,-0.1621345,0.4520955,0.057343,-0.2793045,0.6618255,-0.003931,0.1386755,0.4598655,0.053887,0.2495454999999999,0.6806854999999999,0.0044349999999999,-0.3150445,0.8988455,-0.00859,0.2881654999999999,0.9669455,0.0117349999999999,-0.0654275,-0.0035474999999999,0.0029359999999999,0.0654275,0.0035475,-0.002936,-0.1363045,-0.3801745,-0.028849,0.1386755,-0.3718245,-0.021037,-0.2071345,-0.7836645,-0.02075,0.2001555,-0.7882345000000001,-0.001074,1
122,-0.025115,0.6494255,0.0967949999999999,-0.161943,0.4517755,0.058328,-0.278903,0.6623555,0.00031,0.138777,0.4598655,0.054435,0.2496769999999999,0.6806854999999999,0.006795,-0.310543,0.9002955,0.000578,0.287137,0.9667355,0.017243,-0.065418,-0.0035474999999999,0.003081,0.065418,0.0035475,-0.003081,-0.1361129999999999,-0.3801745,-0.028298,0.138277,-0.3718245,-0.020484,-0.207043,-0.7835545,-0.020203,0.199837,-0.7881045,-0.0005429999999999,1
123,-0.0250155,0.6492725,0.0972524999999999,-0.1617085,0.4510325,0.0592945,-0.2783585,0.6619825,0.0048185,0.1389015,0.4597925,0.0549194999999999,0.2497215,0.6803425000000001,0.0091354999999999,-0.3044085,0.9004425,0.0122885,0.2851614999999999,0.9657625,0.0223675,-0.0654245,-0.0035355,0.0032365,0.0654245,0.0035355,-0.0032365,-0.1358985,-0.3801775,-0.0278975,0.1379515,-0.3716775,-0.0200695,-0.2068785,-0.7839375,-0.0198035,0.1996115,-0.7879474999999999,-0.0001545,0
124,-0.024868,0.6489535000000001,0.0978074999999999,-0.161484,0.4512434999999999,0.0603065,-0.277214,0.6623435000000001,0.0098145,0.139106,0.4595734999999999,0.0555085,0.249796,0.6807135000000001,0.0121024999999999,-0.296294,0.9013235,0.0232805,0.281916,0.9577535,0.0285445,-0.065432,-0.0035154999999999,0.0033944999999999,0.065432,0.0035154999999999,-0.0033944999999999,-0.135674,-0.3801665,-0.0276145,0.137646,-0.3714965,-0.0197404999999999,-0.206654,-0.7830465,-0.0195925,0.199476,-0.7870364999999999,0.0001745,0
125,-0.024694,0.648626,0.0981799999999999,-0.16123,0.451536,0.061166,-0.27575,0.662186,0.01462,0.13934,0.459366,0.055933,0.24974,0.680926,0.015444,-0.28669,0.902186,0.034425,0.27747,0.949276,0.034393,-0.065443,-0.003513,0.003546,0.065443,0.003513,-0.003546,-0.13543,-0.380144,-0.0274989999999999,0.13735,-0.371394,-0.0195569999999999,-0.20645,-0.7822739999999999,-0.01962,0.19936,-0.7861539999999999,0.000327,0
126,-0.0245134999999999,0.6482735000000001,0.098475,-0.1611485,0.4518035,0.061998,-0.2741584999999999,0.6630635,0.019724,0.1395815,0.4591735,0.056303,0.2503715,0.6810735,0.018832,-0.2764885,0.9029135,0.04623,0.2730015,0.9401035,0.040468,-0.0654645,-0.0035164999999999,0.0036179999999999,0.0654645,0.0035164999999999,-0.003618,-0.1351685,-0.3800865,-0.027456,0.1370915,-0.3713665,-0.019451,-0.2062085,-0.7814865,-0.01975,0.1993415,-0.7855165,0.0002689999999999,0
127,-0.024303,0.647805,0.09872,-0.161169,0.452495,0.062838,-0.272699,0.6627149999999999,0.024793,0.139841,0.458895,0.0566399999999999,0.2504309999999999,0.679595,0.022112,-0.265789,0.902045,0.05613,0.266281,0.929545,0.048764,-0.065493,-0.003475,0.003647,0.065493,0.003475,-0.003647,-0.134899,-0.380105,-0.0274689999999999,0.136851,-0.371455,-0.019384,-0.2059889999999999,-0.780755,-0.0199759999999999,0.199301,-0.785085,0.000113,0
128,-0.023648,0.6470710000000001,0.099963,-0.161809,0.455901,0.06544,-0.271919,0.660691,0.027319,0.140371,0.458381,0.057671,0.222611,0.6863410000000001,0.04651,-0.250289,0.938321,0.078134,0.248231,0.895621,0.065231,-0.065423,-0.003397,0.003513,0.065423,0.003397,-0.003513,-0.134829,-0.380459,-0.028052,0.136561,-0.371329,-0.019825,-0.206639,-0.7808889999999999,-0.0214149999999999,0.198431,-0.778789,-0.0012119999999999,0
129,-0.0239379999999999,0.6466419999999999,0.0999125,-0.1613359999999999,0.455402,0.0650755,-0.227546,0.683362,0.0594905,0.140394,0.4582819999999999,0.0577325,0.2553539999999999,0.6575719999999999,0.0277125,-0.2240559999999999,0.892602,0.0881725,0.2602939999999999,0.868232,0.0480945,-0.065489,-0.00343,0.0035225,0.065489,0.00343,-0.0035224999999999,-0.134566,-0.380058,-0.0280165,0.136264,-0.371798,-0.0195014999999999,-0.2054059999999999,-0.7765380000000001,-0.0210344999999999,0.199054,-0.781338,-0.0013404999999999,0
130,-0.0238535,0.6462295,0.0997355,-0.1605885,0.4547095,0.0645735,-0.2674785,0.6617595000000001,0.0354975,0.1405515,0.4581794999999999,0.0578685,0.2644415,0.6826295,0.0338274999999999,-0.2345785,0.8662595000000001,0.0756935,0.2488814999999999,0.8914695,0.0612815,-0.0656305,-0.0034895,0.0037764999999999,0.0656305,0.0034895,-0.0037765,-0.1342485,-0.3801105,-0.0280085,0.1363115,-0.3716505,-0.0194645,-0.2051685,-0.7778105,-0.0213525,0.1992115,-0.7824004999999999,-0.0009604999999999,0
131,-0.0239074999999999,0.6458174999999999,0.0995955,-0.1600245,0.4536875,0.0641365,-0.2653045,0.6594074999999999,0.0401515,0.1406955,0.4579675,0.0579235,0.2633054999999999,0.6844874999999999,0.0353045,-0.2198845,0.8597175,0.0873945,0.2280955,0.8851775,0.0859395,-0.0657375,-0.0034855,0.0039035,0.0657375,0.0034855,-0.0039034999999999,-0.1340345,-0.3799524999999999,-0.0279675,0.1362055,-0.3716425,-0.0194014999999999,-0.2047145,-0.7761525,-0.0212785,0.1993155,-0.7832525,-0.0009584999999999,0
132,-0.023659,0.645434,0.0993745,-0.159629,0.452854,0.0637235,-0.265249,0.655924,0.0436755,0.140881,0.457424,0.0578275,0.209951,0.6687339999999999,0.0692515,-0.205669,0.8506239999999999,0.0975675,0.192441,0.873534,0.1136345,-0.065848,-0.003489,0.0039895,0.065848,0.003489,-0.0039895,-0.133969,-0.379936,-0.0279905,0.136141,-0.371646,-0.0195025,-0.205419,-0.781546,-0.0216444999999999,0.199341,-0.784666,-0.0015154999999999,0
133,-0.0235725,0.6453165000000001,0.0993754999999999,-0.1613525,0.4550965,0.0672225,-0.1985525,0.6714365,0.0876855,0.1410274999999999,0.4562065,0.0579405,0.2665675,0.6361465000000001,0.0359305,-0.1120025,0.8779965000000001,0.1727095,0.2170475,0.8337165,0.0878895,-0.0659565,-0.0034755,0.0040264999999999,0.0659565,0.0034755,-0.0040264999999999,-0.1335124999999999,-0.3797534999999999,-0.0280645,0.1360475,-0.3714035,-0.0197445,-0.2045225,-0.7780735,-0.0214075,0.2000974999999999,-0.7861935,-0.0016844999999999,0
134,-0.023021,0.6437905,0.0993729999999999,-0.164518,0.4579105,0.069944,-0.267078,0.6450005,0.0519069999999999,0.141502,0.4543105,0.058084,0.197632,0.6615805,0.0802529999999999,-0.168868,0.8146605,0.127742,0.164052,0.8613305,0.134906,-0.066173,-0.0030545,0.0038909999999999,0.066173,0.0030545,-0.0038909999999999,-0.133038,-0.3804595,-0.028047,0.135962,-0.3724495,-0.019584,-0.2047179999999999,-0.7822695,-0.021574,0.200302,-0.7861695,-0.001656,0
