sb224sc-HT22-VT27/4dt907/src/ml-research/a11/datafiles/labeled_files/A66_kinect.csv
FrameNo,nose_3d_x,nose_3d_y,nose_3d_z,left_shoulder_3d_x,left_shoulder_3d_y,left_shoulder_3d_z,left_elbow_3d_x,left_elbow_3d_y,left_elbow_3d_z,right_shoulder_3d_x,right_shoulder_3d_y,right_shoulder_3d_z,right_elbow_3d_x,right_elbow_3d_y,right_elbow_3d_z,left_wrist_3d_x,left_wrist_3d_y,left_wrist_3d_z,right_wrist_3d_x,right_wrist_3d_y,right_wrist_3d_z,left_hip_3d_x,left_hip_3d_y,left_hip_3d_z,right_hip_3d_x,right_hip_3d_y,right_hip_3d_z,left_knee_3d_x,left_knee_3d_y,left_knee_3d_z,right_knee_3d_x,right_knee_3d_y,right_knee_3d_z,left_ankle_3d_x,left_ankle_3d_y,left_ankle_3d_z,right_ankle_3d_x,right_ankle_3d_y,right_ankle_3d_z,activity_label
0,-0.0393175,0.74951,0.0657285,-0.1801215,0.50738,0.0356385,-0.2705815,0.64363,-0.1951465,0.1174485,0.5327200000000001,0.0274164999999999,0.1885385,0.66993,-0.2153365,-0.2189315,0.8113900000000001,-0.4178765,0.1598185,0.8473200000000001,-0.4162165,-0.0623725,-0.002317,-0.0016735,0.0623725,0.002317,0.0016734999999999,-0.1235615,-0.35906,-0.0157235,0.1194485,-0.35313,-0.0031725,-0.1726615,-0.8578,0.0232155,0.1856785,-0.9058,0.0062594999999999,0
1,-0.0381344999999999,0.7466675,0.0667339999999999,-0.1811495,0.5113975000000001,0.037374,-0.2695194999999999,0.6598475,-0.186748,0.1175705,0.5349575000000001,0.02753,0.1881305,0.6826975000000001,-0.203158,-0.2333995,0.8295175,-0.368058,0.1620705,0.8860375,-0.385818,-0.0623425,-0.0024645,-0.001587,0.0623425,0.0024644999999999,0.0015869999999999,-0.1218895,-0.3595325,-0.015689,0.1195104999999999,-0.3529925,-0.002898,-0.1716895,-0.8582725,0.0227789999999999,0.1850205,-0.9096625,0.0076399999999999,0
2,-0.037206,0.7427684999999999,0.067489,-0.1813999999999999,0.5147584999999999,0.0387989999999999,-0.26726,0.6764585,-0.165302,0.11749,0.5378584999999999,0.0286739999999999,0.18453,0.7019884999999999,-0.183752,-0.2268899999999999,0.8921785,-0.370332,0.16124,0.9174485,-0.3621419999999999,-0.062102,-0.0021774999999999,-0.001558,0.062102,0.0021775,0.0015579999999999,-0.1209799999999999,-0.3593915,-0.015003,0.11845,-0.3537814999999999,-0.005845,-0.1711,-0.8580215000000001,0.0245369999999999,0.17564,-0.8536715,0.0047309999999999,0
3,-0.03653,0.7406375,0.067601,-0.181901,0.5184175,0.03985,-0.266301,0.6913374999999999,-0.153491,0.116419,0.5411475,0.028905,0.182599,0.7196075,-0.170331,-0.228351,0.9280275,-0.335951,0.159319,0.9588575,-0.334801,-0.0621339999999999,-0.0020894999999999,-0.0023119999999999,0.0621339999999999,0.0020895,0.002312,-0.120471,-0.3594124999999999,-0.0151999999999999,0.118389,-0.3539625,-0.0052299999999999,-0.170241,-0.8580225,0.025033,0.175779,-0.8538325,0.00573,0
4,-0.035915,0.7347585,0.067127,-0.181908,0.5209985,0.040277,-0.264188,0.7022385,-0.137409,0.1150819999999999,0.5445385,0.028729,0.179582,0.7320285,-0.153789,-0.229138,0.9434685,-0.313889,0.159212,0.9726185,-0.310559,-0.061585,-0.0023534999999999,-0.002651,0.061585,0.0023535,0.002651,-0.117408,-0.3598715,-0.0116259999999999,0.1177619999999999,-0.3538815,-0.0052069999999999,-0.176878,-0.9216715,0.030237,0.1750519999999999,-0.8538115,0.005764,0
5,-0.0353435,0.7329640000000001,0.0664454999999999,-0.1814184999999999,0.520784,0.0411205,-0.2625985,0.710704,-0.1243124999999999,0.1137415,0.5462640000000001,0.0292254999999999,0.1797315,0.7426440000000001,-0.1420325,-0.2303784999999999,0.964754,-0.2807624999999999,0.1594315,1.008014,-0.2762325,-0.0614065,-0.0023099999999999,-0.0031085,0.0614065,0.0023099999999999,0.0031085,-0.1197585,-0.359866,-0.0163675,0.1176415,-0.353936,-0.0041755,-0.1682785,-0.858476,0.0256584999999999,0.1752515,-0.853866,0.0065404999999999,0
6,-0.0355855,0.7320625,0.0646835,-0.1818905,0.5198225,0.0405375,-0.2619805,0.7189225,-0.1078625,0.1144195,0.5511025,0.0295295,0.1792995,0.7533925,-0.1293225,-0.2333105,0.9785525,-0.2547725,0.1610295,1.0148525,-0.2592125,-0.0612775,-0.0020774999999999,-0.0035914999999999,0.0612775,0.0020774999999999,0.0035914999999999,-0.1192605,-0.3596875,-0.0160175,0.1176995,-0.3539775,-0.0014505,-0.1675305,-0.8583475,0.0260535,0.1902194999999999,-0.9328275,0.0137914999999999,0
7,-0.038104,0.7319330000000001,0.0643244999999999,-0.182735,0.517613,0.0404184999999999,-0.262945,0.718793,-0.0994935,0.113645,0.5523330000000001,0.0301874999999999,0.177905,0.753363,-0.1193135,-0.238205,0.981413,-0.2364635,0.162195,1.005913,-0.2380235,-0.06123,-0.00213,-0.0040825,0.06123,0.00213,0.0040824999999999,-0.118775,-0.359667,-0.0134435,0.117135,-0.354157,-0.0021105,-0.167765,-0.866377,0.0271895,0.182545,-0.902997,0.0108544999999999,0
8,-0.0387,0.73042,0.0633755,-0.1830419999999999,0.51689,0.0407245,-0.262612,0.72437,-0.0882564999999999,0.1131279999999999,0.55485,0.0303305,0.1768779999999999,0.75996,-0.1087565,-0.240692,0.99051,-0.2157764999999999,0.1631679999999999,1.01161,-0.2159265,-0.0611909999999999,-0.002118,-0.0044064999999999,0.0611909999999999,0.002118,0.0044065,-0.118612,-0.35973,-0.0129914999999999,0.116828,-0.35419,-0.0014544999999999,-0.166862,-0.86529,0.0273345,0.1826479999999999,-0.90646,0.0117005,0
9,-0.0395365,0.7295225,0.0622675,-0.1833535,0.5156025,0.0408125,-0.2625535,0.7290525,-0.0784835,0.1127064999999999,0.5572325,0.0304214999999999,0.1760665,0.7654124999999999,-0.0995435,-0.2435135,0.9973925,-0.1963935,0.1640765,1.0155925,-0.1963234999999999,-0.0611455,-0.0021435,-0.0046585,0.0611455,0.0021434999999999,0.0046584999999999,-0.1185435,-0.3597575,-0.0125175,0.1164764999999999,-0.3541875,-0.0007544999999999,-0.1660935,-0.8637075,0.0275305,0.1828765,-0.9090875,0.0123124999999999,0
10,-0.0404839999999999,0.728848,0.0611795,-0.183618,0.514228,0.0407444999999999,-0.262608,0.732948,-0.0698465,0.112332,0.559388,0.0303835,0.175102,0.770038,-0.0910764999999999,-0.246998,1.001908,-0.1791765,0.164952,1.0157079999999998,-0.1799465,-0.0610809999999999,-0.0021879999999999,-0.0048465,0.0610809999999999,0.002188,0.0048464999999999,-0.118518,-0.359782,-0.0121555,0.116152,-0.354172,-0.0001745,-0.165408,-0.862232,0.0274815,0.184032,-0.918262,0.0134624999999999,0
11,-0.0415195,0.728391,0.0601525,-0.1838845,0.513081,0.0407035,-0.2627945,0.735991,-0.0625885,0.1119955,0.5610609999999999,0.0303255,0.1740155,0.773481,-0.0838285,-0.2503345,1.005491,-0.1644385,0.1659255,1.016991,-0.1652385,-0.0609885,-0.002264,-0.0049874999999999,0.0609885,0.002264,0.0049874999999999,-0.1182945,-0.359799,-0.0116155,0.1158755,-0.3541089999999999,0.0004114999999999,-0.1657745,-0.8701990000000001,0.0282704999999999,0.1841855,-0.918339,0.0146004999999999,0
12,-0.042599,0.727834,0.0592875,-0.184113,0.511834,0.0407195,-0.263113,0.738214,-0.0564325,0.111687,0.5625640000000001,0.0302215,0.172837,0.776064,-0.0780605,-0.253583,1.007844,-0.1524305,0.166647,1.018544,-0.1531404999999999,-0.060905,-0.002355,-0.0050865,0.060905,0.0023549999999999,0.0050865,-0.118323,-0.359816,-0.0111124999999999,0.115607,-0.354056,0.0010895,-0.165863,-0.872646,0.0287785,0.184257,-0.918746,0.0158865,0
13,-0.0435565,0.727166,0.058185,-0.1842925,0.510386,0.040576,-0.2634324999999999,0.740516,-0.051481,0.1113675,0.563516,0.029972,0.1717875,0.778626,-0.073763,-0.2562724999999999,1.009486,-0.142803,0.1671575,1.0207860000000002,-0.144023,-0.0608675,-0.002446,-0.005067,0.0608675,0.0024459999999999,0.0050669999999999,-0.1181725,-0.359874,-0.010557,0.1153175,-0.354024,0.0016419999999999,-0.1663925,-0.882604,0.0295029999999999,0.1856475,-0.929394,0.0172699999999999,0
14,-0.0444535,0.7268224999999999,0.0569429999999999,-0.1844535,0.5092424999999999,0.0402589999999999,-0.2639035,0.7425525,-0.048016,0.1110965,0.5640824999999999,0.0294769999999999,0.1701065,0.7872125,-0.070586,-0.2587335,1.0100625,-0.135816,0.1675164999999999,1.0246625,-0.137066,-0.0608274999999999,-0.0025164999999999,-0.00502,0.0608274999999999,0.0025164999999999,0.0050199999999999,-0.1180335,-0.3599475,-0.010165,0.1149965,-0.3539275,0.0017179999999999,-0.1671035,-0.8925175000000001,0.0300749999999999,0.1855264999999999,-0.9312675,0.0173499999999999,0
15,-0.045252,0.7268479999999999,0.055853,-0.184595,0.508408,0.039847,-0.264425,0.744498,-0.045132,0.110925,0.564178,0.029269,0.168645,0.795598,-0.068257,-0.260975,1.009828,-0.129667,0.167615,1.028328,-0.131467,-0.060794,-0.002616,-0.005023,0.060794,0.002616,0.005023,-0.117895,-0.360012,-0.0098639999999999,0.114725,-0.353842,0.0016229999999999,-0.167915,-0.902022,0.030532,0.185505,-0.932912,0.017284,1
16,-0.045835,0.7268205000000001,0.0550105,-0.184716,0.5079505,0.0395345,-0.264876,0.7459205,-0.0429585,0.110814,0.5643005000000001,0.0290885,0.1675539999999999,0.8031604999999999,-0.0670295,-0.263106,1.0095605,-0.1255695,0.167824,1.0316605,-0.1274095,-0.060725,-0.0027114999999999,-0.0050284999999999,0.060725,0.0027115,0.0050284999999999,-0.118026,-0.3600695,-0.0098525,0.1145939999999999,-0.3537794999999999,0.0016675,-0.168126,-0.9019995,0.0305505,0.186654,-0.9424495,0.0173135,1
17,-0.0462729999999999,0.7267405,0.0543115,-0.184797,0.5076305,0.0392885,-0.265227,0.7464405,-0.0413404999999999,0.110723,0.5641505,0.0289555,0.166653,0.8101705,-0.0663925,-0.265037,1.0091205,-0.1223925,0.167883,1.0341205,-0.1254025,-0.060644,-0.0028084999999999,-0.0050354999999999,0.060644,0.0028085,0.0050354999999999,-0.117977,-0.3601094999999999,-0.0095685,0.114423,-0.3537495,0.0016815,-0.169407,-0.9110495,0.0312885,0.1875929999999999,-0.9524595,0.0172355,1
18,-0.046615,0.7267405,0.053609,-0.184811,0.5073905,0.038894,-0.2655909999999999,0.7466705,-0.040328,0.110639,0.5637605,0.028713,0.165909,0.8169305,-0.066547,-0.266711,1.0098005,-0.121277,0.1679189999999999,1.0404005,-0.123847,-0.060543,-0.0028285,-0.0048969999999999,0.060543,0.0028284999999999,0.0048969999999999,-0.118001,-0.3601095,-0.009707,0.1141789999999999,-0.3537695,0.001447,-0.170641,-0.9204495,0.031827,0.187409,-0.9519595,0.016785,1
19,-0.046867,0.7263965,0.052513,-0.184802,0.5065464999999999,0.038159,-0.2659519999999999,0.7465265,-0.0400139999999999,0.1106279999999999,0.5632965,0.028087,0.165408,0.8230164999999999,-0.0669309999999999,-0.2677219999999999,1.0083565,-0.121361,0.168108,1.0426565,-0.123871,-0.060495,-0.0028225,-0.0048819999999999,0.060495,0.0028224999999999,0.004882,-0.118002,-0.3601935,-0.0101279999999999,0.114068,-0.3538934999999999,0.000799,-0.171932,-0.9306935,0.031595,0.186198,-0.9425035,0.016261,1
20,-0.046989,0.7256170000000001,0.0508165,-0.184754,0.5059670000000001,0.0369155,-0.266224,0.7460870000000001,-0.0409015,0.110626,0.562947,0.0269345,0.165366,0.822457,-0.0678375,-0.267764,1.007527,-0.1222675,0.167956,1.049427,-0.1247674999999999,-0.060452,-0.00293,-0.0047665,0.060452,0.0029299999999999,0.0047665,-0.118064,-0.360503,-0.0112085,0.1138759999999999,-0.354023,-9.549999999999836e-05,-0.1722139999999999,-0.930683,0.0298844999999999,0.186156,-0.942573,0.0153544999999999,1
21,-0.0470395,0.725228,0.0484364999999999,-0.1846445,0.505628,0.0350334999999999,-0.2662245,0.745698,-0.0424415,0.1107455,0.562918,0.0251354999999999,0.1653855,0.822068,-0.0693795,-0.2677445,1.007138,-0.1238095,0.1677455,1.056538,-0.1262895,-0.0602985,-0.003144,-0.0047085,0.0602985,0.003144,0.0047084999999999,-0.1179945,-0.360852,-0.0127535,0.1136155,-0.354042,-0.0021735,-0.1735145,-0.940152,0.0284525,0.1863455,-0.942112,0.0135904999999999,1
22,-0.047098,0.7252225,0.045509,-0.184525,0.5056324999999999,0.032838,-0.266195,0.7456925,-0.044312,0.1108849999999999,0.5630124999999999,0.022948,0.165355,0.8220624999999999,-0.07193,-0.267735,1.0066325,-0.12591,0.167455,1.0624325,-0.12813,-0.060103,-0.0031494999999999,-0.004594,0.060103,0.0031494999999999,0.004594,-0.118185,-0.3608575,-0.014926,0.113435,-0.3540475,-0.006473,-0.174795,-0.9491775,0.0265849999999999,0.186525,-0.9410475,0.011411,1
23,-0.0471565,0.7252225,0.0418064999999999,-0.1843615,0.5054624999999999,0.0301414999999999,-0.2661515,0.7456925,-0.0467435,0.1110885,0.5630124999999999,0.0201505,0.1660685,0.8220624999999999,-0.0753274999999999,-0.2675315,1.0065325,-0.1303675,0.1675585,1.0624325,-0.1310075,-0.0599365,-0.0031494999999999,-0.0041765,0.0599365,0.0031494999999999,0.0041765,-0.1182415,-0.3608575,-0.0185235,0.1132485,-0.3540475,-0.0117225,-0.1749915,-0.9491775,0.0241044999999999,0.1867185,-0.9400475,0.0086904999999999,1
24,-0.0471609999999999,0.7245524999999999,0.037012,-0.184159,0.5053325,0.026601,-0.2661289999999999,0.7452325,-0.0507189999999999,0.111351,0.5630124999999999,0.016429,0.166881,0.8219825,-0.0796399999999999,-0.2670789999999999,1.0056325,-0.13598,0.167701,1.0624325,-0.13555,-0.059786,-0.0031494999999999,-0.0033699999999999,0.059786,0.0031494999999999,0.00337,-0.118269,-0.3608575,-0.02303,0.113061,-0.3540475,-0.01817,-0.175139,-0.9492775,0.020787,0.186801,-0.9393375,0.005258,1
25,-0.047019,0.7236055,0.0308745,-0.183934,0.5055855,0.0223195,-0.266044,0.7443055,-0.0560295,0.111596,0.5633155,0.0118755,0.167866,0.8206255,-0.0850865,-0.266434,1.0042355,-0.1424865,0.167846,1.0627355,-0.1413765,-0.059631,-0.0034524999999999,-0.0022945,0.059631,0.0034525,0.0022945,-0.118314,-0.3611945,-0.0281965,0.112826,-0.3538345,-0.0257424999999999,-0.175334,-0.9489745,0.0167825,0.187046,-0.9377945,0.0003324999999999,1
26,-0.046643,0.7226079999999999,0.023833,-0.183724,0.5063679999999999,0.017548,-0.265784,0.743348,-0.0624849999999999,0.112036,0.5638679999999999,0.006765,0.169766,0.8120379999999999,-0.091559,-0.264154,1.001078,-0.151269,0.167786,1.055378,-0.148549,-0.0594689999999999,-0.003729,-0.0010949999999999,0.0594689999999999,0.003729,0.001095,-0.118694,-0.361352,-0.034047,0.112856,-0.3536019999999999,-0.033914,-0.175404,-0.947152,0.011435,0.188556,-0.947422,-0.0048889999999999,1
27,-0.0460304999999999,0.7215050000000001,0.0157395,-0.1833835,0.5076449999999999,0.0121985,-0.2653034999999999,0.742275,-0.0701335,0.1125665,0.563555,0.0006425,0.1719465,0.8032950000000001,-0.0991165,-0.2617135,0.997775,-0.1609465,0.1677265,1.048575,-0.1567365,-0.0593465,-0.003928,9.349999999999983e-05,0.0593465,0.003928,-9.349999999999983e-05,-0.1191535,-0.361375,-0.0405814999999999,0.1130465,-0.353345,-0.0425085,-0.1753835,-0.944665,0.0054655,0.1892165,-0.945925,-0.0103634999999999,1
28,-0.0450045,0.7196455,0.0075239999999999,-0.1827115,0.5095655,0.006723,-0.2644615,0.7411955,-0.078616,0.1133484999999999,0.5633255,-0.005774,0.1744485,0.7940555,-0.107309,-0.2585115,0.9949855,-0.171299,0.1678585,1.0425855,-0.165639,-0.0592565,-0.0040605,0.001256,0.0592565,0.0040605,-0.001256,-0.1196015,-0.3612645,-0.047368,0.1136385,-0.3530245,-0.051385,-0.1751515,-0.9418945,-0.000771,0.1898785,-0.9429145,-0.0160599999999999,1
29,-0.043853,0.7171885,-0.0006534999999999,-0.182015,0.5113785000000001,0.0008715,-0.263555,0.7403185,-0.0877185,0.113975,0.5599585,-0.0142455,0.177045,0.7847685000000001,-0.1159835,-0.255065,0.9927285,-0.1821134999999999,0.167975,1.0374285,-0.1751835,-0.059279,-0.0041674999999999,0.0023255,0.059279,0.0041675,-0.0023254999999999,-0.1202749999999999,-0.3609915,-0.0543865,0.114485,-0.3525915,-0.0601895,-0.1747449999999999,-0.9381615,-0.0071684999999999,0.190705,-0.9390315,-0.0218075,1
30,-0.042716,0.713897,-0.0089494999999999,-0.181325,0.513517,-0.0047084999999999,-0.262645,0.738757,-0.0971375,0.114695,0.556867,-0.0225845,0.179675,0.7748970000000001,-0.1248574999999999,-0.251385,0.990967,-0.1927275,0.168385,1.0281669999999998,-0.1855875,-0.0594389999999999,-0.004294,0.0033795,0.0594389999999999,0.0042939999999999,-0.0033795,-0.121125,-0.360653,-0.0611165,0.115495,-0.352053,-0.0685865,-0.174285,-0.934003,-0.0132924999999999,0.191525,-0.935083,-0.0272514999999999,1
31,-0.041578,0.7106785,-0.0174675,-0.180493,0.5154785,-0.0109144999999999,-0.261823,0.7374084999999999,-0.1070305,0.115247,0.5537985,-0.0309855,0.182307,0.7651684999999999,-0.1341605,-0.247853,0.9899485,-0.2037305,0.168757,1.0227485,-0.1959605,-0.059819,-0.0043904999999999,0.0042765,0.059819,0.0043904999999999,-0.0042765,-0.1222829999999999,-0.3600615,-0.0678195,0.116937,-0.3513215,-0.0752735,-0.173683,-0.9286415,-0.0187595,0.1926969999999999,-0.9297015,-0.0326964999999999,1
32,-0.040767,0.707529,-0.0259765,-0.180039,0.517679,-0.0173285,-0.261349,0.7367189999999999,-0.1172385,0.115521,0.548419,-0.0397005,0.183781,0.7621389999999999,-0.1436885,-0.2451789999999999,0.986179,-0.2133585,0.168661,1.018479,-0.2064785,-0.06026,-0.0042789999999999,0.0048365,0.06026,0.004279,-0.0048365,-0.1239289999999999,-0.3590609999999999,-0.0736385,0.118271,-0.350471,-0.0814695,-0.173289,-0.922131,-0.0239465,0.193511,-0.923171,-0.0380635,1
33,-0.03999,0.703665,-0.03411,-0.179616,0.5191849999999999,-0.023516,-0.261026,0.736215,-0.127418,0.115804,0.5435249999999999,-0.047852,0.185394,0.7587149999999999,-0.153198,-0.242446,0.980695,-0.222548,0.169044,1.013925,-0.216768,-0.060668,-0.004096,0.0050459999999999,0.060668,0.0040959999999999,-0.005046,-0.125846,-0.357805,-0.079294,0.119604,-0.349595,-0.087014,-0.172816,-0.915095,-0.028601,0.194014,-0.916175,-0.042991,1
34,-0.039176,0.700446,-0.0410515,-0.179057,0.517616,-0.0298425,-0.260697,0.737116,-0.1371545,0.116213,0.536376,-0.0557315,0.187083,0.7570560000000001,-0.1618745,-0.239397,0.980746,-0.2311345,0.169343,1.0121859999999998,-0.2262245,-0.061174,-0.00389,0.0048804999999999,0.061174,0.00389,-0.0048805,-0.1278069999999999,-0.3563739999999999,-0.0849535,0.121413,-0.348614,-0.0922435,-0.1722169999999999,-0.905914,-0.0330565,0.194573,-0.907504,-0.0477875,1
35,-0.0387405,0.6969190000000001,-0.0474175,-0.1788705,0.5165890000000001,-0.0358394999999999,-0.2607205,0.739229,-0.1467725,0.1162995,0.529889,-0.0631125,0.1884894999999999,0.7568090000000001,-0.1701524999999999,-0.2370605,0.977079,-0.2400425,0.1697995,1.019519,-0.2335025,-0.0617625,-0.003694,0.0046415,0.0617625,0.003694,-0.0046415,-0.1300405,-0.354801,-0.0904675,0.1230395,-0.347591,-0.0974945,-0.1719905,-0.896041,-0.0370925,0.1947795,-0.8978809999999999,-0.0520725,1
36,-0.0384485,0.692944,-0.0531325,-0.1788495,0.515624,-0.0411794999999999,-0.2604995,0.741304,-0.1561875,0.1162505,0.5245340000000001,-0.0694615,0.1898105,0.755544,-0.1778875,-0.2347995,0.974284,-0.2482475,0.1702005,1.0168339999999998,-0.2409275,-0.0621305,-0.003518,0.0044195,0.0621305,0.003518,-0.0044195,-0.1322995,-0.353236,-0.0957395,0.1245004999999999,-0.346446,-0.1027365,-0.1719695,-0.886566,-0.0410785,0.1947704999999999,-0.888106,-0.0557005,1
37,-0.0383745,0.690374,-0.0591685,-0.1791645,0.513614,-0.0473715,-0.2605845,0.739754,-0.1655174999999999,0.1159855,0.519184,-0.0763745,0.1907855,0.756274,-0.1856375,-0.2325245,0.973544,-0.2562875,0.1705954999999999,1.015854,-0.2495175,-0.0621655,-0.003305,0.0042305,0.0621655,0.0033049999999999,-0.0042304999999999,-0.1350045,-0.351176,-0.1019955,0.1260855,-0.344866,-0.1088605,-0.1723145,-0.875046,-0.0455265,0.1944155,-0.8764959999999999,-0.0591984999999999,1
38,-0.038179,0.687903,-0.0649255,-0.179381,0.511683,-0.0528455,-0.260551,0.735963,-0.1737495,0.115909,0.5162629999999999,-0.0810444999999999,0.191819,0.753833,-0.1924795,-0.229341,0.968403,-0.2634195,0.171269,1.014183,-0.2582595,-0.062209,-0.0031549999999999,0.0041034999999999,0.062209,0.0031549999999999,-0.0041034999999999,-0.137531,-0.349107,-0.1079855,0.127769,-0.343117,-0.1152195,-0.172621,-0.863367,-0.0493775,0.1939789999999999,-0.864747,-0.0623465,1
39,-0.037901,0.6858385,-0.0703865,-0.17964,0.5097785,-0.0580305,-0.26052,0.7330185,-0.1815805,0.11594,0.5133385,-0.0852835,0.1928,0.7511785000000001,-0.1985305,-0.22658,0.9635585,-0.2703005,0.17292,1.0059385,-0.2662405,-0.062359,-0.0030454999999999,0.0041145,0.062359,0.0030454999999999,-0.0041145,-0.14013,-0.3467015,-0.1144485,0.12958,-0.3411415,-0.1218545,-0.17297,-0.8508114999999999,-0.0525455,0.19337,-0.8522415,-0.0650815,1
40,-0.037935,0.683836,-0.0755735,-0.18013,0.507436,-0.0628895,-0.26076,0.7312960000000001,-0.1886785,0.11588,0.510286,-0.0897185,0.19351,0.748756,-0.2042985,-0.22415,0.959446,-0.2778885,0.17437,0.996916,-0.2735285,-0.062864,-0.003014,0.0040885,0.062864,0.003014,-0.0040884999999999,-0.14289,-0.344094,-0.1211555,0.13122,-0.3389939999999999,-0.1288225,-0.17346,-0.838064,-0.0554585,0.1921999999999999,-0.839714,-0.0675595,1
41,-0.038446,0.682046,-0.0803255,-0.180539,0.504476,-0.0676345,-0.261479,0.727626,-0.1956014999999999,0.115421,0.509156,-0.0937585,0.193431,0.746556,-0.2097615,-0.222959,0.958986,-0.2855215,0.175141,0.987096,-0.2798815,-0.063347,-0.0031339999999999,0.0041384999999999,0.063347,0.0031339999999999,-0.0041385,-0.146129,-0.338884,-0.1278735,0.1326109999999999,-0.333294,-0.1362715,-0.174479,-0.824434,-0.0579145,0.190311,-0.826614,-0.0704185,1
42,-0.0390834999999999,0.6808004999999999,-0.08498,-0.1809545,0.5018005,-0.072179,-0.2622644999999999,0.7238605,-0.201628,0.1148155,0.5084405000000001,-0.097482,0.1930455,0.7441905,-0.2148979999999999,-0.2219945,0.9585605,-0.294478,0.1755955,0.9759305,-0.286068,-0.0636975,-0.0032124999999999,0.0041389999999999,0.0636975,0.0032125,-0.004139,-0.1493145,-0.3329195,-0.134358,0.1339955,-0.3265895,-0.143668,-0.1754745,-0.8106595000000001,-0.059896,0.1882755,-0.8133895,-0.072585,1
43,-0.0398155,0.679415,-0.0933015,-0.1814764999999999,0.502195,-0.0796625,-0.2631465,0.719325,-0.2110505,0.1138434999999999,0.508675,-0.1048945,0.1922035,0.741105,-0.2237105,-0.2212865,0.958035,-0.3068205,0.1755835,0.965495,-0.2956905,-0.0637955,-0.0031749999999999,0.0044205,0.0637955,0.0031749999999999,-0.0044205,-0.1525665,-0.325055,-0.1435205,0.1348135,-0.317855,-0.1537805,-0.1768165,-0.796995,-0.0648485,0.1856935,-0.8000149999999999,-0.0773145,1
44,-0.040532,0.681645,-0.1061995,-0.182189,0.501295,-0.0929165,-0.264479,0.718745,-0.2253905,0.112431,0.509965,-0.1176705,0.190711,0.740235,-0.2368905,-0.222009,0.958265,-0.3220805,0.174721,0.961045,-0.3115805,-0.063719,-0.0031849999999999,0.0044895,0.063719,0.003185,-0.0044895,-0.156709,-0.311365,-0.1605205,0.135211,-0.303995,-0.1724704999999999,-0.178639,-0.7782250000000001,-0.0745625,0.182461,-0.7821250000000001,-0.0863225,1
45,-0.041192,0.68384,-0.1191079999999999,-0.182897,0.50004,-0.106217,-0.266087,0.71753,-0.2399359999999999,0.1110329999999999,0.5111399999999999,-0.130481,0.188833,0.7400899999999999,-0.249786,-0.222857,0.95828,-0.337726,0.172833,0.96611,-0.327176,-0.063633,-0.00326,0.004565,0.063633,0.0032599999999999,-0.004565,-0.160717,-0.29853,-0.177466,0.135553,-0.28995,-0.190656,-0.180197,-0.7597100000000001,-0.083853,0.178803,-0.76448,-0.095632,1
46,-0.0417775,0.68291,-0.1313045,-0.1833595,0.4981399999999999,-0.1189075,-0.2673695,0.71955,-0.2542745,0.1092405,0.5114799999999999,-0.1430485,0.1869005,0.73859,-0.2621845,-0.2231995,0.9604,-0.3535645,0.1717205,0.96963,-0.3416045,-0.0633505,-0.00354,0.0044644999999999,0.0633505,0.0035399999999999,-0.0044645,-0.1642795,-0.28484,-0.1930945,0.1353005,-0.27545,-0.2074745,-0.1817695,-0.74142,-0.0920975,0.1749105,-0.7477,-0.1040705,1
47,-0.0422324999999999,0.6814749999999999,-0.143977,-0.1836205,0.4967749999999999,-0.131724,-0.2679905,0.724005,-0.269353,0.1076695,0.511505,-0.155755,0.1849195,0.7400249999999999,-0.275333,-0.2256805,0.964695,-0.371303,0.1700895,0.975335,-0.355503,-0.0628785,-0.0036349999999999,0.004413,0.0628785,0.0036349999999999,-0.004413,-0.1673305,-0.270275,-0.208513,0.1350394999999999,-0.260835,-0.223833,-0.1831005,-0.722715,-0.100138,0.1712294999999999,-0.730445,-0.1119759999999999,1
48,-0.042522,0.6796150000000001,-0.1563355,-0.183691,0.494475,-0.1448674999999999,-0.267991,0.7277250000000001,-0.2844295,0.106049,0.511115,-0.1688045,0.182889,0.740945,-0.2890595,-0.227321,0.969955,-0.3891595,0.168039,0.985165,-0.3699795,-0.062503,-0.0037149999999999,0.0045155,0.062503,0.003715,-0.0045155,-0.170081,-0.255505,-0.2235695,0.134509,-0.2461049999999999,-0.2397995,-0.184311,-0.704345,-0.1079805,0.167419,-0.712875,-0.1196825,1
49,-0.042536,0.67862,-0.1691775,-0.1834859999999999,0.4934,-0.1577305,-0.268796,0.73015,-0.3005995,0.104514,0.5121199999999999,-0.1814415,0.181234,0.74159,-0.3032694999999999,-0.228626,0.97529,-0.4064195,0.165454,0.98883,-0.3864095,-0.062078,-0.00385,0.0046144999999999,0.062078,0.0038499999999999,-0.0046145,-0.172286,-0.24105,-0.2386295,0.133774,-0.2319,-0.2556695,-0.184996,-0.68621,-0.1154765,0.163994,-0.69575,-0.1282475,1
50,-0.0421685,0.6784749999999999,-0.1828395,-0.1831305,0.492865,-0.1702044999999999,-0.2693805,0.7339249999999999,-0.3167735,0.1032395,0.513945,-0.1937335,0.1799395,0.739475,-0.3180135,-0.2297605,0.971725,-0.4241335,0.1634495,0.992835,-0.4031735,-0.0616685,-0.0039049999999999,0.0046935,0.0616685,0.0039049999999999,-0.0046934999999999,-0.1741605,-0.227555,-0.2537735,0.1328195,-0.218545,-0.2709534999999999,-0.1852505,-0.668635,-0.1230614999999999,0.1606395,-0.679225,-0.1368385,1
51,-0.0416335,0.678725,-0.196351,-0.1825755,0.489635,-0.18316,-0.2699355,0.735895,-0.3322969999999999,0.1026445,0.511685,-0.207497,0.1787544999999999,0.738155,-0.3325869999999999,-0.2324155,0.971125,-0.439927,0.1603345,0.997605,-0.419807,-0.0613235,-0.003885,0.004883,0.0613235,0.0038849999999999,-0.0048829999999999,-0.1759555,-0.213355,-0.268517,0.1315545,-0.204655,-0.285867,-0.1852154999999999,-0.650725,-0.1308379999999999,0.1573145,-0.662415,-0.144335,1
52,-0.0409795,0.678015,-0.2070349999999999,-0.1820264999999999,0.4867749999999999,-0.192973,-0.2705965,0.7329950000000001,-0.345195,0.1023034999999999,0.5111049999999999,-0.2176949999999999,0.1776735,0.7367049999999999,-0.344715,-0.2334165,0.968545,-0.453895,0.1572235,1.000835,-0.434625,-0.0609305,-0.003915,0.004905,0.0609305,0.003915,-0.0049049999999999,-0.1775165,-0.199925,-0.280655,0.1304135,-0.190555,-0.298075,-0.1850264999999999,-0.633675,-0.135706,0.1544935,-0.646715,-0.148951,1
53,-0.040352,0.67374,-0.2137649999999999,-0.181134,0.4841299999999999,-0.197695,-0.270864,0.7254799999999999,-0.352855,0.102436,0.50761,-0.223405,0.176766,0.73231,-0.353465,-0.234404,0.96352,-0.4644749999999999,0.154726,0.99778,-0.444525,-0.060591,-0.00386,0.005005,0.060591,0.0038599999999999,-0.0050049999999999,-0.178124,-0.19092,-0.284915,0.129666,-0.1815,-0.301765,-0.184194,-0.62234,-0.135898,0.152366,-0.63592,-0.148058,1
54,-0.0398445,0.669265,-0.22063,-0.1801815,0.481625,-0.202428,-0.2708215,0.717905,-0.36022,0.1027085,0.5047550000000001,-0.22898,0.1757284999999999,0.727795,-0.36288,-0.2358215,0.958045,-0.47531,0.1521384999999999,0.995385,-0.45457,-0.0601265,-0.0038149999999999,0.0050699999999999,0.0601265,0.003815,-0.00507,-0.1784515,-0.180755,-0.28907,0.1289985,-0.171265,-0.30541,-0.1835915,-0.610605,-0.136173,0.1506185,-0.624885,-0.14705,1
55,-0.0398675,0.668075,-0.227725,-0.1797174999999999,0.4795750000000001,-0.207345,-0.2716675,0.711215,-0.3677049999999999,0.1025925,0.501295,-0.2345549999999999,0.1741725,0.7235450000000001,-0.372495,-0.2377174999999999,0.952155,-0.485935,0.1489525,0.991765,-0.4655049999999999,-0.0598625,-0.0036649999999999,0.005145,0.0598625,0.003665,-0.0051449999999999,-0.1789875,-0.1699349999999999,-0.292945,0.1281225,-0.1609049999999999,-0.308875,-0.1832075,-0.5987549999999999,-0.1362779999999999,0.1491525,-0.6134949999999999,-0.14595,1
56,-0.040223,0.6668499999999999,-0.234185,-0.179564,0.47758,-0.211345,-0.2728939999999999,0.70357,-0.375055,0.102536,0.49889,-0.239255,0.172926,0.7183999999999999,-0.381435,-0.239384,0.94131,-0.494975,0.145396,0.98613,-0.475705,-0.05974,-0.0034199999999999,0.0052049999999999,0.05974,0.0034199999999999,-0.005205,-0.179214,-0.16293,-0.296055,0.126916,-0.1548399999999999,-0.311765,-0.183004,-0.58841,-0.136112,0.147646,-0.60302,-0.1448,1
57,-0.0407125,0.66689,-0.2409,-0.1794235,0.47269,-0.21574,-0.2737935,0.69635,-0.38216,0.1022765,0.49568,-0.24429,0.1715765,0.71534,-0.39049,-0.2405835,0.92567,-0.50309,0.1428865,0.98245,-0.48638,-0.0596205,-0.00348,0.00526,0.0596205,0.0034799999999999,-0.00526,-0.1795435,-0.15431,-0.2983099999999999,0.1257365,-0.1482,-0.31443,-0.1827935,-0.57737,-0.136104,0.1463565,-0.59183,-0.143591,1
58,-0.0413575,0.665285,-0.247251,-0.1794015,0.468185,-0.219991,-0.2748514999999999,0.688975,-0.3893109999999999,0.1020585,0.492185,-0.2492809999999999,0.1702285,0.712145,-0.399391,-0.2416815,0.909745,-0.510531,0.1402785,0.980985,-0.496951,-0.0594035,-0.0036149999999999,0.0052289999999999,0.0594035,0.003615,-0.0052289999999999,-0.1800015,-0.1457149999999999,-0.300021,0.1246085,-0.141395,-0.3168809999999999,-0.1826515,-0.5671649999999999,-0.135666,0.1445785,-0.581315,-0.143099,1
59,-0.0419445,0.662755,-0.2528075,-0.1792025,0.463885,-0.2241175,-0.2759825,0.681505,-0.3964075,0.1019974999999999,0.4888949999999999,-0.2541474999999999,0.1687374999999999,0.710805,-0.4081875,-0.2432225,0.902435,-0.5177775,0.1380674999999999,0.979185,-0.5075675,-0.0591855,-0.003815,0.0052124999999999,0.0591855,0.003815,-0.0052125,-0.1806025,-0.1367249999999999,-0.3011075,0.1239075,-0.1343349999999999,-0.3191075,-0.1824725,-0.5572250000000001,-0.1351875,0.1428675,-0.5707150000000001,-0.1425015,1
60,-0.0427635,0.660595,-0.2583755,-0.1793675,0.462055,-0.2279355,-0.2786275,0.675905,-0.4040654999999999,0.1014525,0.484525,-0.2585755,0.1671724999999999,0.708925,-0.4174354999999999,-0.2448975,0.895405,-0.5263455,0.1362125,0.970855,-0.5178755,-0.0589675,-0.003775,0.0051844999999999,0.0589675,0.0037749999999999,-0.0051845,-0.1814675,-0.127065,-0.3023655,0.1233925,-0.126835,-0.3211954999999999,-0.1826275,-0.5459350000000001,-0.1342435,0.1411925,-0.559245,-0.1409315,1
61,-0.0437845,0.657675,-0.263824,-0.1796475,0.4587779999999999,-0.231764,-0.2807874999999999,0.673325,-0.4117139999999999,0.1008625,0.480245,-0.262664,0.1654925,0.706815,-0.426524,-0.2466875,0.888595,-0.5351539999999999,0.1341525,0.962985,-0.5268839999999999,-0.0589195,-0.003825,0.005226,0.0589195,0.0038249999999999,-0.0052259999999999,-0.1825874999999999,-0.117695,-0.303154,0.1231724999999999,-0.119475,-0.323074,-0.1828675,-0.5352750000000001,-0.13351,0.1391725,-0.548585,-0.139369,1
62,-0.0447184999999999,0.6541,-0.2694189999999999,-0.1800224999999999,0.4548069999999999,-0.235829,-0.2824824999999999,0.6687000000000001,-0.420199,0.1003875,0.476585,-0.266899,0.1640674999999999,0.70392,-0.436009,-0.2475224999999999,0.88283,-0.5443290000000001,0.1324475,0.95457,-0.536459,-0.0588905,-0.00395,0.0053209999999999,0.0588905,0.00395,-0.005321,-0.1835625,-0.1082,-0.303939,0.1234875,-0.11125,-0.325579,-0.1830824999999999,-0.5243500000000001,-0.132697,0.1370974999999999,-0.5378099999999999,-0.138071,1
63,-0.0454135,0.6515850000000001,-0.2746665,-0.1803445,0.450933,-0.2398765,-0.2840245,0.663985,-0.4288665,0.1001954999999999,0.472461,-0.2714565,0.1629855,0.700455,-0.4449065,-0.2481145,0.8776250000000001,-0.5538165,0.1308154999999999,0.945785,-0.5461865,-0.0589365,-0.0039449999999999,0.0053534999999999,0.0589365,0.003945,-0.0053534999999999,-0.1844445,-0.0989749999999999,-0.3046465,0.1239555,-0.1032849999999999,-0.3279965,-0.1831245,-0.5131749999999999,-0.1322964999999999,0.1348455,-0.5272349999999999,-0.1363325,1
64,-0.0456885,0.6477649999999999,-0.279613,-0.1803695,0.4471199999999999,-0.243143,-0.2844695,0.6583349999999999,-0.436543,0.1002305,0.468881,-0.275003,0.1625705,0.695305,-0.453003,-0.2483595,0.870905,-0.562833,0.1296405,0.937215,-0.554893,-0.0588814999999999,-0.004065,0.005417,0.0588814999999999,0.0040649999999999,-0.0054169999999999,-0.1849895,-0.091075,-0.305363,0.1249204999999999,-0.096585,-0.330223,-0.1827895,-0.5033850000000001,-0.1318939999999999,0.1328504999999999,-0.517115,-0.135736,1
65,-0.045777,0.6448,-0.2837325,-0.180218,0.442387,-0.2463624999999999,-0.284688,0.65376,-0.4429625,0.100142,0.465688,-0.2784324999999999,0.162322,0.6910000000000001,-0.4602124999999999,-0.248248,0.8681300000000001,-0.5712125,0.128682,0.92893,-0.5634625,-0.058943,-0.0044199999999999,0.0054575,0.058943,0.0044199999999999,-0.0054574999999999,-0.185658,-0.08276,-0.3059725,0.1257819999999999,-0.08947,-0.3321225,-0.182498,-0.4932899999999999,-0.1312964999999999,0.1308119999999999,-0.50665,-0.1350265,1
66,-0.0458095,0.64113,-0.2877595,-0.1801915,0.441034,-0.2490095,-0.2846714999999999,0.6490900000000001,-0.4494595,0.0998484999999999,0.46318,-0.2816095,0.1621385,0.68559,-0.4672195,-0.2480615,0.86652,-0.5811795,0.1283785,0.91943,-0.5722095,-0.0589205,-0.0043999999999999,0.0055404999999999,0.0589205,0.0044,-0.0055405,-0.1865415,-0.07554,-0.3068995,0.1264085,-0.0834899999999999,-0.3342795,-0.1821715,-0.48448,-0.1302885,0.1296085,-0.4983299999999999,-0.1357115,1
67,-0.045699,0.63828,-0.2914885,-0.179985,0.4388299999999999,-0.2516785,-0.284815,0.64438,-0.4549385,0.0995549999999999,0.4598569999999999,-0.2850085,0.162165,0.6802699999999999,-0.4740885,-0.248055,0.8623399999999999,-0.5910085,0.1287049999999999,0.91303,-0.5797785,-0.058933,-0.00426,0.0055415,0.058933,0.0042599999999999,-0.0055414999999999,-0.187565,-0.06809,-0.3077284999999999,0.126745,-0.07719,-0.3362684999999999,-0.182075,-0.47565,-0.1294664999999999,0.1279549999999999,-0.48918,-0.1359985,1
68,-0.0454875,0.63502,-0.295325,-0.1797225,0.436007,-0.254775,-0.2849025,0.63952,-0.460285,0.0991275,0.455577,-0.289135,0.1624574999999999,0.67497,-0.480885,-0.2474725,0.85863,-0.600345,0.1292575,0.90643,-0.587885,-0.0589395,-0.00406,0.0056549999999999,0.0589395,0.00406,-0.005655,-0.1887825,-0.06074,-0.308895,0.1266375,-0.0706999999999999,-0.338645,-0.1820325,-0.4665,-0.128926,0.1260275,-0.48011,-0.135131,1
69,-0.0451914999999999,0.631495,-0.2986725,-0.1793675,0.433403,-0.2574125,-0.2852475,0.633225,-0.4662925,0.0984925,0.455444,-0.2921625,0.1630025,0.669515,-0.4874625,-0.2462675,0.854815,-0.6087625,0.1291125,0.906225,-0.5965525,-0.0590514999999999,-0.0043549999999999,0.0057274999999999,0.0590514999999999,0.0043549999999999,-0.0057274999999999,-0.1900275,-0.053765,-0.3098325,0.1260425,-0.0646049999999999,-0.3410525,-0.1821575,-0.457815,-0.1285365,0.1246025,-0.471915,-0.1376945,1
70,-0.0449659999999999,0.62816,-0.3015405,-0.179103,0.4314,-0.2597905,-0.285533,0.62755,-0.4717105,0.097527,0.455008,-0.2951405,0.163617,0.66306,-0.4934305,-0.245033,0.84989,-0.6167705,0.128917,0.90568,-0.6050905,-0.059223,-0.0046499999999999,0.0057395,0.059223,0.0046499999999999,-0.0057394999999999,-0.191463,-0.0474499999999999,-0.3108205,0.1251169999999999,-0.0587499999999999,-0.3434405,-0.182473,-0.44947,-0.1282384999999999,0.123157,-0.4634,-0.1400134999999999,1
71,-0.044624,0.6251549999999999,-0.3038295,-0.178691,0.4307279999999999,-0.2614695,-0.285571,0.623065,-0.4762695,0.096699,0.452993,-0.2973995,0.164369,0.6574949999999999,-0.4982595,-0.244001,0.842375,-0.6231095,0.129109,0.901825,-0.6148895,-0.059583,-0.004495,0.0057705,0.059583,0.0044949999999999,-0.0057704999999999,-0.192791,-0.041115,-0.3118395,0.124339,-0.053095,-0.3452794999999999,-0.182761,-0.441875,-0.1282154999999999,0.121979,-0.455285,-0.1411835,1
72,-0.044243,0.62137,-0.3057035,-0.178025,0.429833,-0.2629935,-0.285085,0.61964,-0.4799435,0.096045,0.451085,-0.2993635,0.165245,0.65212,-0.5030335,-0.242785,0.8347,-0.6287035000000001,0.129655,0.8980600000000001,-0.6236135,-0.0599009999999999,-0.0045799999999999,0.0058464999999999,0.0599009999999999,0.00458,-0.0058465,-0.193825,-0.03473,-0.3128335,0.123775,-0.0473599999999999,-0.3470535,-0.182955,-0.43432,-0.1281115,0.120935,-0.44687,-0.1424095,1
73,-0.0438594999999999,0.61709,-0.3079975,-0.1774115,0.427365,-0.2650075,-0.2836815,0.61355,-0.4846975,0.0955385,0.449422,-0.3015675,0.1660984999999999,0.64735,-0.5076975,-0.2412415,0.82753,-0.6353775,0.1302185,0.89581,-0.6322774999999999,-0.0602795,-0.0045399999999999,0.0061424999999999,0.0602795,0.0045399999999999,-0.0061424999999999,-0.1948315,-0.0273899999999999,-0.3143275,0.1230685,-0.0404399999999999,-0.3494175,-0.1831715,-0.42554,-0.1284405,0.1203985,-0.43702,-0.1424685,1
74,-0.0437069999999999,0.612495,-0.3100455,-0.177228,0.425529,-0.2668755,-0.282688,0.606925,-0.4896455,0.094652,0.447769,-0.3035555,0.1665519999999999,0.641645,-0.5122455,-0.239718,0.819145,-0.6426755,0.1314519999999999,0.885445,-0.6404855,-0.06067,-0.004535,0.0064344999999999,0.06067,0.004535,-0.0064344999999999,-0.196128,-0.020105,-0.3155854999999999,0.121522,-0.0337349999999999,-0.3513455,-0.183798,-0.417415,-0.1291785,0.119502,-0.4284449999999999,-0.1442135,1
75,-0.0436359999999999,0.6074550000000001,-0.3117689999999999,-0.177017,0.424425,-0.268379,-0.281877,0.600275,-0.494479,0.093723,0.447128,-0.304799,0.167033,0.6354150000000001,-0.516439,-0.238447,0.812935,-0.649269,0.132513,0.875915,-0.647879,-0.061126,-0.0046449999999999,0.006801,0.061126,0.004645,-0.006801,-0.197467,-0.0136149999999999,-0.316759,0.119973,-0.0273849999999999,-0.353129,-0.184407,-0.410675,-0.130572,0.1188029999999999,-0.420585,-0.147761,1
76,-0.043615,0.603115,-0.313774,-0.1769339999999999,0.422177,-0.270394,-0.281614,0.594208,-0.499704,0.093176,0.443076,-0.306454,0.167416,0.627875,-0.5205139999999999,-0.237614,0.8088150000000001,-0.656814,0.133446,0.867875,-0.655174,-0.061501,-0.004445,0.007206,0.061501,0.0044449999999999,-0.0072059999999999,-0.198954,-0.006665,-0.318334,0.1184259999999999,-0.0205149999999999,-0.355234,-0.185014,-0.4040749999999999,-0.133288,0.118076,-0.413365,-0.150694,1
77,-0.043663,0.5989599999999999,-0.31571,-0.177001,0.4197229999999999,-0.27232,-0.281271,0.588279,-0.50477,0.0926189999999999,0.4398049999999999,-0.30834,0.167569,0.621115,-0.52417,-0.237381,0.803415,-0.66476,0.134299,0.859795,-0.66208,-0.061862,-0.004275,0.00766,0.061862,0.0042749999999999,-0.00766,-0.200631,0.0004249999999998,-0.32012,0.116969,-0.013565,-0.3570399999999999,-0.185481,-0.3970450000000001,-0.135181,0.117709,-0.405865,-0.154671,1
78,-0.0436915,0.594596,-0.31793,-0.1770995,0.41697,-0.27453,-0.2810295,0.583496,-0.50893,0.0921805,0.435989,-0.31053,0.1677305,0.6144740000000001,-0.5274,-0.2376395,0.7965500000000001,-0.6729799999999999,0.1350905,0.85165,-0.66852,-0.0620875,-0.0038099999999999,0.00802,0.0620875,0.00381,-0.00802,-0.2023295,0.00722,-0.32221,0.1157305,-0.0069299999999999,-0.35917,-0.1860895,-0.39174,-0.138469,0.1174905,-0.3986999999999999,-0.158247,1
79,-0.043659,0.5908769999999999,-0.320275,-0.177168,0.4145399999999999,-0.276875,-0.280488,0.5779289999999999,-0.512275,0.091942,0.4316819999999999,-0.312625,0.167872,0.6085029999999999,-0.530145,-0.238368,0.78941,-0.680165,0.135792,0.84059,-0.6758350000000001,-0.062203,-0.00321,0.008415,0.062203,0.0032099999999999,-0.0084149999999999,-0.203978,0.0141099999999998,-0.324385,0.114792,-0.00032,-0.361425,-0.186518,-0.3856900000000001,-0.1407749999999999,0.117512,-0.39138,-0.161585,1
80,-0.0434644999999999,0.587304,-0.32258,-0.1771735,0.4118650000000001,-0.27922,-0.2800135,0.5728540000000001,-0.5151,0.0921065,0.429325,-0.3141199999999999,0.1679865,0.6023640000000001,-0.53252,-0.2389335,0.7842450000000001,-0.6871700000000001,0.1364064999999999,0.833415,-0.68023,-0.0621865,-0.0029749999999999,0.00878,0.0621865,0.002975,-0.0087799999999999,-0.2057635,0.0202350000000001,-0.32601,0.1141764999999999,0.005455,-0.3635899999999999,-0.1867735,-0.3803949999999999,-0.143125,0.1178365,-0.3849249999999999,-0.164432,1
81,-0.043039,0.584657,-0.325215,-0.176937,0.408805,-0.281455,-0.279577,0.567448,-0.518055,0.092723,0.4262849999999999,-0.315575,0.168183,0.597406,-0.535465,-0.239247,0.779385,-0.6941849999999999,0.1372229999999999,0.826345,-0.685155,-0.062439,-0.002535,0.0091249999999999,0.062439,0.0025349999999999,-0.009125,-0.207527,0.0266849999999999,-0.327705,0.1139929999999999,0.0116749999999999,-0.366125,-0.187047,-0.376025,-0.148413,0.1180229999999999,-0.378575,-0.167533,1
82,-0.0425105,0.5826279999999999,-0.326945,-0.1765975,0.4079699999999999,-0.282965,-0.2792775,0.5650079999999998,-0.520435,0.0933124999999999,0.4238899999999999,-0.316485,0.1684525,0.5927489999999999,-0.5378350000000001,-0.2396575,0.7740199999999999,-0.699275,0.1380725,0.8178699999999999,-0.689565,-0.0627485,-0.00211,0.009325,0.0627485,0.0021099999999999,-0.009325,-0.2094875,0.0320199999999999,-0.328215,0.1140124999999999,0.0166599999999998,-0.367665,-0.1871275,-0.3709800000000001,-0.150237,0.1182725,-0.3734200000000001,-0.170145,1
83,-0.0421155,0.581241,-0.328795,-0.1762545,0.406695,-0.284385,-0.2790245,0.563279,-0.5225949999999999,0.0939754999999999,0.420915,-0.317485,0.1687654999999999,0.589468,-0.540495,-0.2399045,0.769855,-0.702795,0.1381455,0.8179350000000001,-0.694105,-0.0630455,-0.001595,0.0093749999999999,0.0630455,0.001595,-0.0093749999999999,-0.2115745,0.037455,-0.328565,0.1142054999999999,0.021645,-0.369195,-0.1872445,-0.3651449999999999,-0.152483,0.1187554999999999,-0.369085,-0.175062,1
84,-0.0418735,0.580497,-0.33044,-0.1759635,0.40503,-0.28572,-0.2787335,0.562207,-0.52432,0.0944665,0.41703,-0.31836,0.1690265,0.587172,-0.54254,-0.2404435,0.7667,-0.70551,0.1382665,0.8181,-0.69778,-0.0633225,-0.00095,0.0094899999999999,0.0633225,0.00095,-0.0094899999999999,-0.2137935,0.0420599999999999,-0.3282899999999999,0.1144765,0.02581,-0.37045,-0.1874135,-0.3601099999999999,-0.154025,0.1195265,-0.363,-0.176528,1
85,-0.0413545,0.57946,-0.331605,-0.1756605,0.404865,-0.2867349999999999,-0.2791305,0.561672,-0.5262549999999999,0.0949195,0.416655,-0.3191349999999999,0.1692495,0.586774,-0.544645,-0.2416605,0.765235,-0.707815,0.1384495,0.817245,-0.700375,-0.0635515,-0.000645,0.009555,0.0635515,0.000645,-0.0095549999999999,-0.2160105,0.0451049999999999,-0.327265,0.1147395,0.0283149999999999,-0.371175,-0.1878005,-0.3568449999999999,-0.1548379999999999,0.1195894999999999,-0.360425,-0.1785649999999999,1
86,-0.0408815,0.5799439999999999,-0.33271,-0.1752015,0.4057999999999999,-0.28739,-0.2794115,0.5626069999999999,-0.52749,0.0953985,0.4168199999999999,-0.3194599999999999,0.1695585,0.5877089999999999,-0.54677,-0.2436515,0.7661699999999999,-0.7101999999999999,0.1385684999999999,0.81724,-0.7029299999999999,-0.0637105,-0.00038,0.0095899999999999,0.0637105,0.0003799999999999,-0.00959,-0.2180315,0.0460399999999998,-0.32628,0.1151385,0.0289699999999999,-0.37194,-0.1878715,-0.35396,-0.153893,0.1202985,-0.35984,-0.1811,1
87,-0.040351,0.5799439999999999,-0.33359,-0.174637,0.4057999999999999,-0.28796,-0.279687,0.5626069999999999,-0.52739,0.095503,0.4168199999999999,-0.31986,0.170003,0.5877089999999999,-0.5486,-0.245497,0.7661699999999999,-0.71248,0.138773,0.81724,-0.7055400000000001,-0.063823,-0.00038,0.00959,0.063823,0.0003799999999999,-0.0095899999999999,-0.219917,0.0460399999999998,-0.3252899999999999,0.115563,0.0288499999999999,-0.37272,-0.188057,-0.3538500000000001,-0.155468,0.120683,-0.35984,-0.18372,1
88,-0.039651,0.5799439999999999,-0.33414,-0.173953,0.4057999999999999,-0.2882,-0.2795829999999999,0.5626069999999999,-0.5266,0.096217,0.4168199999999999,-0.3202899999999999,0.170377,0.5877089999999999,-0.5500700000000001,-0.246993,0.7661699999999999,-0.7136199999999999,0.139067,0.81724,-0.70842,-0.063865,-0.00038,0.00956,0.063865,0.0003799999999999,-0.00956,-0.221613,0.0460399999999998,-0.32449,0.116037,0.0288499999999999,-0.3736899999999999,-0.188163,-0.35381,-0.157736,0.121467,-0.35984,-0.186052,1
89,-0.0388705,0.5799439999999999,-0.334105,-0.1731925,0.4060899999999999,-0.287915,-0.2798625,0.5628749999999999,-0.524865,0.0970675,0.4168199999999999,-0.320705,0.1703575,0.5884109999999999,-0.550785,-0.2483825,0.7666599999999999,-0.713465,0.1392475,0.81724,-0.710475,-0.0637315,-0.00038,0.009385,0.0637315,0.0003799999999999,-0.009385,-0.2230825,0.0464399999999999,-0.324265,0.1163575,0.0288499999999999,-0.375275,-0.1881325,-0.3528500000000001,-0.1595899999999999,0.1219375,-0.3613800000000001,-0.190635,1
90,-0.038331,0.5817570000000001,-0.33338,-0.172648,0.4081950000000001,-0.2875999999999999,-0.281478,0.564914,-0.5226299999999999,0.097442,0.4187050000000001,-0.32116,0.170052,0.5906570000000001,-0.55084,-0.249928,0.7690950000000001,-0.71184,0.139212,0.818975,-0.71162,-0.063473,-0.0003849999999999,0.0091799999999999,0.063473,0.000385,-0.00918,-0.224348,0.045855,-0.32388,0.116602,0.027485,-0.37658,-0.188518,-0.3519549999999999,-0.161013,0.1227119999999999,-0.3612849999999999,-0.191581,1
91,-0.0379965,0.5841970000000001,-0.33258,-0.1720975,0.408645,-0.28745,-0.2830975,0.5681440000000001,-0.52006,0.0977725,0.419595,-0.32172,0.1696524999999999,0.59506,-0.5509,-0.2515374999999999,0.7727350000000001,-0.70933,0.1389925,0.823755,-0.71088,-0.0631885,-0.000595,0.0088999999999999,0.0631885,0.000595,-0.0088999999999999,-0.2252275,0.0433650000000001,-0.32398,0.1167524999999999,0.024135,-0.3782,-0.1892375,-0.353935,-0.164482,0.1234625,-0.3649949999999999,-0.194664,1
92,-0.0378929999999999,0.5879160000000001,-0.330895,-0.171967,0.411445,-0.285885,-0.2850569999999999,0.572405,-0.517085,0.097733,0.4220650000000001,-0.321215,0.169093,0.5997030000000001,-0.5504249999999999,-0.253417,0.7773350000000001,-0.705095,0.138593,0.828395,-0.709055,-0.062805,-0.0007349999999999,0.008705,0.062805,0.000735,-0.0087049999999999,-0.225947,0.038965,-0.323965,0.116643,0.019085,-0.379455,-0.190267,-0.3588249999999999,-0.168261,0.1241529999999999,-0.3696149999999999,-0.195801,1
93,-0.037987,0.59173,-0.3285949999999999,-0.172092,0.4144349999999999,-0.2840249999999999,-0.287022,0.5773119999999999,-0.5138849999999999,0.097518,0.4247049999999999,-0.320355,0.1683079999999999,0.60544,-0.549115,-0.255322,0.7849349999999999,-0.7005950000000001,0.138138,0.8317649999999999,-0.7061249999999999,-0.0623679999999999,-0.000845,0.008495,0.0623679999999999,0.0008449999999999,-0.008495,-0.226402,0.0324849999999999,-0.3241349999999999,0.116268,0.0118149999999999,-0.3805349999999999,-0.191122,-0.365585,-0.171283,0.124498,-0.377985,-0.197148,1
94,-0.038272,0.5970329999999999,-0.32581,-0.172543,0.4177999999999999,-0.28188,-0.2891229999999999,0.5837979999999999,-0.5098100000000001,0.097147,0.4273999999999999,-0.31881,0.167437,0.6120629999999999,-0.54696,-0.257393,0.7921099999999999,-0.69555,0.137107,0.84149,-0.7020000000000001,-0.0620519999999999,-0.0008800000000001,0.0082899999999999,0.0620519999999999,0.0008799999999999,-0.00829,-0.226733,0.0249899999999999,-0.32478,0.115637,0.0034899999999999,-0.38181,-0.1918629999999999,-0.37411,-0.17481,0.124957,-0.3875200000000001,-0.198587,1
95,-0.038939,0.602984,-0.32231,-0.173055,0.421641,-0.2794999999999999,-0.290115,0.591472,-0.50475,0.096815,0.430604,-0.31704,0.166285,0.61925,-0.54381,-0.259395,0.8034,-0.69024,0.136065,0.84886,-0.69746,-0.061845,-0.00109,0.00817,0.061845,0.00109,-0.0081699999999999,-0.226885,0.01517,-0.32503,0.114825,-0.0070299999999999,-0.38297,-0.1928949999999999,-0.3849,-0.178168,0.125465,-0.39939,-0.1997499999999999,1
96,-0.0398285,0.610025,-0.31799,-0.1735785,0.426116,-0.27629,-0.2919885,0.598541,-0.4992,0.0964615,0.434321,-0.31449,0.1649015,0.627295,-0.5394300000000001,-0.2614984999999999,0.8133950000000001,-0.6839599999999999,0.1353315,0.857875,-0.6910400000000001,-0.0616415,-0.0012949999999999,0.00806,0.0616415,0.001295,-0.0080599999999999,-0.2267385,0.004275,-0.32467,0.1140915,-0.0186549999999999,-0.38346,-0.1939685,-0.3968849999999999,-0.180358,0.1260215,-0.4121249999999999,-0.200093,1
97,-0.040768,0.617235,-0.313065,-0.174376,0.4286419999999999,-0.272975,-0.293566,0.6057549999999999,-0.491765,0.096124,0.437681,-0.311655,0.163604,0.635845,-0.534185,-0.263846,0.822935,-0.6757249999999999,0.134414,0.866895,-0.6837150000000001,-0.06138,-0.0016349999999999,0.0079049999999999,0.06138,0.0016349999999999,-0.007905,-0.226566,-0.007805,-0.323725,0.1133639999999999,-0.0309749999999999,-0.382995,-0.195326,-0.410115,-0.183264,0.126594,-0.426365,-0.199784,1
98,-0.0418334999999999,0.62352,-0.307865,-0.1751984999999999,0.433385,-0.268875,-0.2949885,0.60886,-0.483305,0.0956815,0.442123,-0.307745,0.1625714999999999,0.64357,-0.528755,-0.2662385,0.82787,-0.664985,0.1337114999999999,0.87452,-0.675745,-0.0609995,-0.00163,0.007745,0.0609995,0.00163,-0.007745,-0.2265185,-0.0212999999999999,-0.321715,0.1128015,-0.04397,-0.381055,-0.1966284999999999,-0.42461,-0.184665,0.1269015,-0.4417199999999999,-0.198393,1
99,-0.0431845,0.630285,-0.30286,-0.1763785,0.437753,-0.26505,-0.2960885,0.618225,-0.47442,0.0950715,0.445704,-0.30411,0.1612415,0.651545,-0.52359,-0.2687785,0.835515,-0.65466,0.1332515,0.8814150000000001,-0.6670799999999999,-0.0606485,-0.0015649999999999,0.00763,0.0606485,0.0015649999999999,-0.0076299999999999,-0.2267385,-0.034285,-0.3200199999999999,0.1121014999999999,-0.055985,-0.3791299999999999,-0.1978885,-0.439205,-0.185967,0.1265915,-0.4567349999999999,-0.198061,1
100,-0.04443,0.6381749999999999,-0.2976499999999999,-0.177467,0.44288,-0.261119,-0.296987,0.627915,-0.46621,0.094363,0.450861,-0.30027,0.1601129999999999,0.659175,-0.51718,-0.270887,0.845665,-0.64417,0.133323,0.892385,-0.65916,-0.060322,-0.001485,0.0075699999999999,0.060322,0.001485,-0.0075699999999999,-0.226417,-0.0463649999999999,-0.31765,0.111673,-0.067305,-0.37692,-0.199017,-0.453445,-0.187059,0.1264229999999999,-0.471735,-0.19767,1
101,-0.0453305,0.64482,-0.2924599999999999,-0.1781434999999999,0.450795,-0.2582959999999999,-0.2975935,0.63796,-0.45724,0.0937564999999999,0.456245,-0.29682,0.1592065,0.66635,-0.50988,-0.2724835,0.85514,-0.63375,0.1338265,0.90038,-0.6511199999999999,-0.0601355,-0.00114,0.00757,0.0601355,0.0011399999999999,-0.0075699999999999,-0.2253435,-0.05906,-0.31476,0.1116465,-0.07852,-0.37444,-0.1997835,-0.46833,-0.1876089999999999,0.1265165,-0.4874199999999999,-0.1973619999999999,1
102,-0.0461115,0.64957,-0.28748,-0.1786695,0.454962,-0.2556,-0.2980595,0.64619,-0.44757,0.0934405,0.458549,-0.29351,0.1585605,0.67106,-0.50256,-0.2739995,0.86251,-0.62287,0.1344705,0.91028,-0.64196,-0.0600664999999999,-0.0014299999999999,0.00756,0.0600664999999999,0.0014299999999999,-0.00756,-0.2238995,-0.07417,-0.3117999999999999,0.1117805,-0.0914499999999999,-0.37138,-0.2004595,-0.4857999999999999,-0.187987,0.1265705,-0.5057,-0.197022,1
103,-0.0470065,0.65434,-0.2824649999999999,-0.1790885,0.45851,-0.252673,-0.2986585,0.65327,-0.4387149999999999,0.0930115,0.461977,-0.290425,0.1580214999999999,0.67603,-0.4953249999999999,-0.2753385,0.8708800000000001,-0.611935,0.1349815,0.91299,-0.633575,-0.0599974999999999,-0.0014599999999999,0.007555,0.0599974999999999,0.00146,-0.0075549999999999,-0.2222385,-0.08947,-0.308785,0.1119014999999999,-0.1043399999999999,-0.3675549999999999,-0.2011985,-0.5036499999999999,-0.1880009999999999,0.1267815,-0.52488,-0.196988,1
104,-0.047751,0.65906,-0.2775499999999999,-0.179529,0.464305,-0.249574,-0.299399,0.65929,-0.43085,0.0921009999999999,0.4665,-0.2872599999999999,0.157691,0.6806300000000001,-0.48766,-0.276509,0.87636,-0.59983,0.135591,0.92046,-0.62355,-0.059857,-0.0014199999999999,0.00764,0.059857,0.00142,-0.0076399999999999,-0.220199,-0.1038199999999999,-0.30548,0.112001,-0.1167999999999999,-0.36315,-0.2016389999999999,-0.5215599999999999,-0.187739,0.126891,-0.5438799999999999,-0.196774,1
105,-0.0484099999999999,0.663995,-0.272765,-0.180203,0.468355,-0.246786,-0.300313,0.665915,-0.422695,0.090877,0.470295,-0.284165,0.157577,0.686725,-0.480145,-0.277603,0.8824050000000001,-0.586825,0.135987,0.924265,-0.614865,-0.059764,-0.0013549999999999,0.0076249999999999,0.059764,0.0013549999999999,-0.0076249999999999,-0.218173,-0.118695,-0.301845,0.112247,-0.128185,-0.3580649999999999,-0.202133,-0.539855,-0.187297,0.126977,-0.563215,-0.196874,1
106,-0.048876,0.6687700000000001,-0.2678649999999999,-0.1806809999999999,0.47419,-0.2432909999999999,-0.301761,0.6730400000000001,-0.415815,0.089879,0.47482,-0.2805649999999999,0.157539,0.6927000000000001,-0.472935,-0.278171,0.88809,-0.574955,0.137209,0.93384,-0.606255,-0.059878,-0.0013199999999999,0.007585,0.059878,0.0013199999999999,-0.0075849999999999,-0.215581,-0.1336999999999999,-0.297315,0.112969,-0.13987,-0.352435,-0.2023809999999999,-0.5587599999999999,-0.186471,0.127219,-0.5827199999999999,-0.1966839999999999,1
107,-0.049276,0.674395,-0.26237,-0.181521,0.477975,-0.239464,-0.304321,0.682655,-0.40892,0.089139,0.477655,-0.27678,0.157839,0.697635,-0.465,-0.278351,0.8950549999999999,-0.56455,0.138439,0.941545,-0.59815,-0.059863,-0.001475,0.00733,0.059863,0.001475,-0.00733,-0.212431,-0.1468249999999999,-0.29193,0.113989,-0.150835,-0.34603,-0.202691,-0.5774250000000001,-0.185054,0.127139,-0.6017950000000001,-0.195518,1
108,-0.049434,0.678795,-0.257093,-0.182381,0.480885,-0.235823,-0.304981,0.6855450000000001,-0.40217,0.088609,0.478835,-0.27307,0.158279,0.702175,-0.45666,-0.278061,0.902225,-0.55423,0.139899,0.947075,-0.58917,-0.059792,-0.0014649999999999,0.0071199999999999,0.059792,0.001465,-0.00712,-0.209081,-0.1602749999999999,-0.28627,0.115089,-0.1627249999999999,-0.33936,-0.202821,-0.596335,-0.183531,0.126999,-0.621405,-0.194369,1
109,-0.04935,0.68094,-0.251596,-0.183253,0.48485,-0.2322829999999999,-0.305423,0.6894899999999999,-0.39541,0.088807,0.4789099999999999,-0.26948,0.159127,0.7049799999999999,-0.44821,-0.277783,0.90619,-0.54471,0.141697,0.95218,-0.5796399999999999,-0.059552,-0.00101,0.00709,0.059552,0.00101,-0.0070899999999999,-0.2059929999999999,-0.17414,-0.2812599999999999,0.116507,-0.17286,-0.3317,-0.202683,-0.6150599999999999,-0.1821099999999999,0.127017,-0.6393200000000001,-0.193731,1
110,-0.0491335,0.6821999999999999,-0.245255,-0.1841414999999999,0.48496,-0.22796,-0.3052315,0.68982,-0.390205,0.0890484999999999,0.48111,-0.265435,0.1594085,0.70851,-0.439685,-0.2777215,0.91065,-0.535275,0.1434685,0.9572,-0.5694349999999999,-0.0595005,-0.00165,0.0069649999999999,0.0595005,0.0016499999999999,-0.0069649999999999,-0.2023515,-0.1855,-0.274765,0.1177585,-0.18462,-0.322335,-0.2025315,-0.6347,-0.180058,0.1273985,-0.65744,-0.1924519999999999,1
111,-0.0485655,0.68477,-0.237695,-0.1845785,0.48884,-0.223495,-0.3049985,0.69739,-0.382965,0.0889215,0.48513,-0.261365,0.1597015,0.71531,-0.431625,-0.2775985,0.9183,-0.525265,0.1452314999999999,0.96376,-0.560175,-0.0594075,-0.00142,0.006775,0.0594075,0.0014199999999999,-0.006775,-0.1988685,-0.19361,-0.267855,0.1189115,-0.19377,-0.3127649999999999,-0.2009185,-0.64489,-0.178052,0.1281515,-0.6719700000000001,-0.191225,1
112,-0.047985,0.6863,-0.229922,-0.1850669999999999,0.49341,-0.219017,-0.304637,0.70436,-0.3766899999999999,0.088893,0.4869799999999999,-0.25752,0.160103,0.72116,-0.42362,-0.277617,0.92434,-0.51568,0.146923,0.9705,-0.55056,-0.059351,-0.00134,0.0066299999999999,0.059351,0.00134,-0.0066299999999999,-0.195527,-0.20208,-0.26038,0.119693,-0.20323,-0.30288,-0.199177,-0.6540699999999999,-0.175599,0.129223,-0.68624,-0.18975,1
113,-0.0473555,0.6857599999999999,-0.222126,-0.1858085,0.49417,-0.215141,-0.3042085,0.71054,-0.370855,0.0892415,0.48788,-0.253975,0.1609615,0.72558,-0.416265,-0.2776785,0.92871,-0.507205,0.1485115,0.97414,-0.542015,-0.0593085,-0.00126,0.0066249999999999,0.0593085,0.0012599999999999,-0.006625,-0.1919385,-0.20948,-0.251925,0.1205215,-0.20956,-0.292485,-0.1973685,-0.66268,-0.173403,0.1303615,-0.69718,-0.188773,1
114,-0.0464215,0.682735,-0.212876,-0.1861835,0.500455,-0.210749,-0.3036135,0.7199249999999999,-0.365645,0.0894165,0.488105,-0.250565,0.1615865,0.728605,-0.408355,-0.2777735,0.934515,-0.498745,0.1502465,0.979295,-0.532485,-0.0591545,-0.000705,0.0065449999999999,0.0591545,0.000705,-0.0065449999999999,-0.1878935,-0.215225,-0.242247,0.1215765,-0.216275,-0.2818049999999999,-0.1953535,-0.6705650000000001,-0.170911,0.1319064999999999,-0.7068650000000001,-0.187057,1
115,-0.0455215,0.6786,-0.202782,-0.1866185,0.50435,-0.2059559999999999,-0.3031185,0.72659,-0.35917,0.0886515,0.48773,-0.2465299999999999,0.1619815,0.73129,-0.39913,-0.2780285,0.93881,-0.48918,0.1520015,0.9775,-0.5216099999999999,-0.0587525,-0.00023,0.0066599999999999,0.0587525,0.0002299999999999,-0.0066599999999999,-0.1841585,-0.22115,-0.231802,0.1226314999999999,-0.22055,-0.26868,-0.1917185,-0.66909,-0.1669439999999999,0.1332815,-0.71367,-0.184517,1
116,-0.045014,0.674415,-0.192398,-0.1870379999999999,0.507985,-0.200838,-0.302838,0.732735,-0.352225,0.0873819999999999,0.488905,-0.242335,0.161852,0.7358750000000001,-0.389635,-0.278708,0.943575,-0.479495,0.153242,0.976845,-0.509405,-0.058083,1.5000000000015e-05,0.006775,0.058083,-1.4999999999987246e-05,-0.006775,-0.1810179999999999,-0.2284149999999999,-0.220598,0.122962,-0.227595,-0.255205,-0.187798,-0.666465,-0.162303,0.134312,-0.7228249999999999,-0.181024,1
117,-0.0445005,0.669795,-0.182094,-0.1874745,0.512355,-0.19591,-0.3026244999999999,0.740585,-0.34568,0.0875555,0.4912749999999999,-0.23828,0.1613255,0.740225,-0.38042,-0.2790344999999999,0.946865,-0.46979,0.1536155,0.983475,-0.49922,-0.0574414999999999,0.0002349999999999,0.0068499999999999,0.0574414999999999,-0.0002349999999999,-0.0068499999999999,-0.1778345,-0.233785,-0.209194,0.1229255,-0.233445,-0.24129,-0.1839145,-0.6623549999999999,-0.1577619999999999,0.1350355,-0.7306349999999999,-0.177655,1
118,-0.043976,0.66567,-0.172082,-0.187792,0.51678,-0.190958,-0.300462,0.7483899999999999,-0.33889,0.0879379999999999,0.49382,-0.23443,0.160428,0.74515,-0.37178,-0.279022,0.95288,-0.45873,0.1541479999999999,0.98686,-0.48883,-0.056781,0.0001899999999999,0.0068599999999999,0.056781,-0.00019,-0.00686,-0.174192,-0.23784,-0.197251,0.1228179999999999,-0.24068,-0.227896,-0.179872,-0.65757,-0.153071,0.135908,-0.7393700000000001,-0.174236,1
119,-0.0433454999999999,0.6627025,-0.162736,-0.1877975,0.5201525,-0.186896,-0.2980474999999999,0.7594025,-0.3325249999999999,0.0879825,0.4931225,-0.230869,0.1597025,0.7500024999999999,-0.362975,-0.2786674999999999,0.9599025,-0.448095,0.1548325,0.9928225,-0.478995,-0.0559574999999999,0.0009065,0.0069649999999999,0.0559574999999999,-0.0009064999999999,-0.0069649999999999,-0.1709275,-0.2425275,-0.187008,0.1218525,-0.2457475,-0.215582,-0.1755675,-0.6494675000000001,-0.14875,0.1368224999999999,-0.7456175,-0.171396,1
120,-0.042377,0.6598040000000001,-0.154722,-0.187485,0.523444,-0.183138,-0.296385,0.7647940000000001,-0.32535,0.087745,0.493284,-0.2273649999999999,0.159455,0.7535540000000001,-0.35369,-0.278045,0.968014,-0.43799,0.155705,0.998704,-0.4676099999999999,-0.055635,0.0012599999999999,0.0071799999999999,0.055635,-0.0012599999999999,-0.0071799999999999,-0.166835,-0.246806,-0.177186,0.1211349999999999,-0.250666,-0.20415,-0.170565,-0.645466,-0.141679,0.137995,-0.751556,-0.168725,1
121,-0.0415205,0.656964,-0.147093,-0.1870474999999999,0.526194,-0.1799089999999999,-0.2946074999999999,0.7709940000000001,-0.31756,0.0878024999999999,0.4963539999999999,-0.224072,0.1595325,0.757804,-0.34446,-0.2772975,0.978294,-0.4281199999999999,0.1566225,1.006054,-0.45674,-0.0553135,0.001292,0.0073,0.0553135,-0.001292,-0.0073,-0.1622675,-0.249976,-0.167679,0.1199624999999999,-0.254256,-0.193375,-0.1657874999999999,-0.641216,-0.134831,0.1388725,-0.7559659999999999,-0.16574,1
122,-0.0407285,0.6556845,-0.139913,-0.1866995,0.5299445,-0.176767,-0.2937295,0.7771545,-0.3096799999999999,0.0884905,0.4996845,-0.220878,0.1599605,0.7645445,-0.33558,-0.2765195,0.9887645,-0.41866,0.1573605,1.0133545000000002,-0.4465099999999999,-0.0550965,0.0013305,0.0072399999999999,0.0550965,-0.0013304999999999,-0.0072399999999999,-0.1581895,-0.2539755,-0.160034,0.1186504999999999,-0.2571655,-0.183056,-0.1608895,-0.6356955,-0.127185,0.1396305,-0.7635755,-0.162512,1
123,-0.039644,0.658372,-0.129897,-0.185872,0.529042,-0.169812,-0.292222,0.7799119999999999,-0.297125,0.089858,0.5043219999999999,-0.213353,0.161278,0.771312,-0.323225,-0.274942,0.998282,-0.405365,0.158218,1.020982,-0.432635,-0.055148,0.0007629999999999,0.0064349999999999,0.055148,-0.0007629999999999,-0.0064349999999999,-0.153752,-0.258258,-0.150263,0.1178879999999999,-0.259808,-0.169717,-0.1554019999999999,-0.6291680000000001,-0.115431,0.140648,-0.7660980000000001,-0.155817,1
124,-0.037973,0.6653055,-0.1103045,-0.18417,0.5298655,-0.1529325,-0.28971,0.7834555,-0.2752685,0.0925299999999999,0.5091855,-0.1965295,0.16375,0.7771355,-0.3019485,-0.27284,1.0055655,-0.3827085,0.15995,1.0293655,-0.4092085,-0.05545,0.0001644999999999,0.0065314999999999,0.05545,-0.0001644999999999,-0.0065315,-0.1485699999999999,-0.2614645,-0.1322855,0.1181499999999999,-0.2621845,-0.1499845,-0.15056,-0.6304245,-0.0944935,0.14294,-0.7707245,-0.1386105,1
125,-0.0367064999999999,0.6740865,-0.0900495,-0.1835824999999999,0.5299865,-0.1334515,-0.2873425,0.7801665,-0.2526485,0.0957175,0.5133265,-0.1751515,0.1663675,0.7742365,-0.2797885,-0.2706225,1.0038365,-0.3588785,0.1604675,1.0332065,-0.3839185,-0.0558634999999999,-0.0004354999999999,0.0064124999999999,0.0558634999999999,0.0004355,-0.0064125,-0.1432425,-0.2725135,-0.1148535,0.1175475,-0.2716635,-0.1300775,-0.1445225,-0.6401935,-0.0696555,0.1453975,-0.7824335,-0.1202895,1
126,-0.035759,0.682972,-0.0699569999999999,-0.182993,0.530102,-0.1138569999999999,-0.284723,0.7753519999999999,-0.2305809999999999,0.100297,0.517472,-0.1534869999999999,0.170207,0.771402,-0.258051,-0.2684829999999999,1.000342,-0.335271,0.160837,1.030892,-0.358491,-0.05627,-0.0010509999999999,0.006235,0.05627,0.0010509999999999,-0.0062349999999999,-0.138253,-0.283958,-0.098462,0.116637,-0.281318,-0.112121,-0.138423,-0.650078,-0.0445209999999999,0.147667,-0.790798,-0.1025079999999999,1
127,-0.0351145,0.6920824999999999,-0.0500379999999999,-0.1823895,0.5296325,-0.094123,-0.2823895,0.7694325,-0.2085759999999999,0.1048405,0.5218825,-0.131962,0.1733404999999999,0.7682724999999999,-0.236976,-0.2667795,0.9945125,-0.311046,0.1612704999999999,1.0279725,-0.333916,-0.0567645,-0.0016484999999999,0.006083,0.0567645,0.0016485,-0.0060829999999999,-0.1335595,-0.2951375,-0.0818879999999999,0.1156305,-0.2926475,-0.095028,-0.1323795,-0.6594475,-0.0192209999999999,0.1500205,-0.8020575000000001,-0.08509,1
128,-0.0341989999999999,0.7012189999999999,-0.03003,-0.181461,0.528909,-0.074079,-0.279871,0.762459,-0.186902,0.107679,0.522119,-0.111008,0.176169,0.7651789999999999,-0.2162319999999999,-0.264681,0.988439,-0.287002,0.162289,1.025029,-0.309622,-0.057663,-0.0022789999999999,0.0059479999999999,0.057663,0.002279,-0.005948,-0.128931,-0.306081,-0.06499,0.1156089999999999,-0.304221,-0.077742,-0.126111,-0.668381,0.0058039999999999,0.152769,-0.8131010000000001,-0.067897,1
129,-0.0332284999999999,0.7106954999999999,-0.009793,-0.1804835,0.5282355,-0.053591,-0.2774735,0.7553455,-0.165569,0.1126465,0.5264854999999999,-0.089205,0.1794764999999999,0.7613255,-0.195949,-0.2624535,0.9777755,-0.2634189999999999,0.1638764999999999,1.0193055,-0.287659,-0.0585085,-0.0028144999999999,0.005785,0.0585085,0.0028145,-0.005785,-0.1246335,-0.3170345,-0.047822,0.1158265,-0.3154445,-0.0601789999999999,-0.1212434999999999,-0.6779345,0.028276,0.1562365,-0.8340245000000001,-0.049699,1
130,-0.03217,0.720081,0.010535,-0.179472,0.5276409999999999,-0.0326609999999999,-0.275302,0.748031,-0.1445709999999999,0.117268,0.530841,-0.067102,0.183368,0.7569309999999999,-0.175791,-0.259652,0.970011,-0.239641,0.165798,1.013771,-0.265411,-0.0593589999999999,-0.003302,0.005584,0.0593589999999999,0.003302,-0.005584,-0.120922,-0.328559,-0.031383,0.116608,-0.326349,-0.042331,-0.116402,-0.6876190000000001,0.050832,0.159038,-0.844769,-0.031969,1
131,-0.0310274999999999,0.729342,0.031035,-0.1785315,0.527182,-0.011344,-0.2733514999999999,0.740882,-0.123916,0.1217185,0.5338120000000001,-0.0447889999999999,0.1877085,0.751062,-0.155636,-0.2566615,0.963372,-0.2160159999999999,0.1681585,1.008512,-0.2430959999999999,-0.0601855,-0.0036799999999999,0.005487,0.0601855,0.0036799999999999,-0.0054869999999999,-0.1175514999999999,-0.339718,-0.0152889999999999,0.1175585,-0.335548,-0.0251419999999999,-0.1116514999999999,-0.697078,0.072615,0.1619384999999999,-0.8536579999999999,-0.0140669999999999,1
132,-0.030701,0.7356235,0.0476025,-0.178593,0.5268835,0.0061575,-0.272833,0.7334535,-0.1076034999999999,0.124577,0.5358434999999999,-0.0263385,0.191017,0.7437134999999999,-0.1396035,-0.255513,0.9559735,-0.1969935,0.170267,1.0029235,-0.2253835,-0.060263,-0.0039945,0.0061235,0.060263,0.0039944999999999,-0.0061234999999999,-0.1155529999999999,-0.3507565,-0.0037234999999999,0.117547,-0.3445865,-0.0121015,-0.1096129999999999,-0.7070765,0.0869215,0.163977,-0.8624065000000001,-0.0001195,1
133,-0.0311869999999999,0.738644,0.0537115,-0.179617,0.527084,0.0132635,-0.273637,0.726144,-0.1015524999999999,0.1262029999999999,0.538264,-0.0184534999999999,0.1935329999999999,0.736364,-0.1337525,-0.255607,0.948664,-0.1891125,0.1711929999999999,0.998234,-0.2190825,-0.060207,-0.0039789999999999,0.0056965,0.060207,0.003979,-0.0056965,-0.114697,-0.360776,-0.0030594999999999,0.116423,-0.352996,-0.0103865,-0.1074369999999999,-0.7162959999999999,0.0929935,0.164923,-0.870526,0.0033535,1
134,-0.0313905,0.738644,0.0582895,-0.1795885,0.527084,0.0166935,-0.2739284999999999,0.726144,-0.0973584999999999,0.1269715,0.538264,-0.0156405,0.1950915,0.736364,-0.1297485,-0.2560685,0.950314,-0.1839785,0.1717614999999999,0.998234,-0.2168985,-0.0601504999999999,-0.0039789999999999,0.0055725,0.0601504999999999,0.003979,-0.0055725,-0.1143884999999999,-0.361326,-0.0039635,0.1163315,-0.352996,-0.0112444999999999,-0.1055484999999999,-0.7162959999999999,0.0977095,0.1656814999999999,-0.869286,0.0051045,1
135,-0.031748,0.738644,0.062847,-0.179788,0.527084,0.0202689999999999,-0.274748,0.726144,-0.092729,0.127462,0.538264,-0.012716,0.196512,0.736364,-0.126439,-0.256948,0.951514,-0.180449,0.172122,0.998234,-0.214559,-0.060324,-0.0039789999999999,0.0054689999999999,0.060324,0.003979,-0.005469,-0.114128,-0.3618059999999999,-0.004282,0.116242,-0.352996,-0.011629,-0.104948,-0.7164659999999999,0.101133,0.166092,-0.868206,0.0066339999999999,1
136,-0.0319905,0.738644,0.0672234999999999,-0.1801505,0.527084,0.0238254999999999,-0.2762505,0.726144,-0.0888444999999999,0.1278695,0.538264,-0.0098325,0.1982295,0.736364,-0.1232245,-0.2572905,0.949904,-0.1781745,0.1730495,0.998234,-0.2123844999999999,-0.0603805,-0.0039789999999999,0.0052804999999999,0.0603805,0.003979,-0.0052805,-0.1140305,-0.3624159999999999,-0.0039885,0.1160795,-0.352996,-0.0113285,-0.1047205,-0.7164659999999999,0.1033675,0.1665695,-0.867506,0.0077934999999999,1
137,-0.0317005,0.739012,0.071078,-0.1801065,0.527092,0.027159,-0.2783365,0.725552,-0.086005,0.1289634999999999,0.538002,-0.006752,0.2011735,0.734952,-0.121095,-0.2572065,0.947312,-0.176165,0.1784135,0.996642,-0.210965,-0.0603675,-0.0038959999999999,0.0050889999999999,0.0603675,0.003896,-0.005089,-0.1136165,-0.362328,-0.003602,0.1162435,-0.352968,-0.011157,-0.1038665,-0.715808,0.105877,0.1666135,-0.858098,0.009471,1
138,-0.0313045,0.73963,0.07431,-0.1800385,0.52701,0.030076,-0.2817185,0.72415,-0.08406,0.1302915,0.53743,-0.0037779999999999,0.2060715,0.73195,-0.11939,-0.2577685,0.94497,-0.17445,0.1838914999999999,0.99332,-0.21205,-0.0603945,-0.0037659999999999,0.004906,0.0603945,0.0037659999999999,-0.004906,-0.1130785,-0.36228,-0.003269,0.1164015,-0.3529899999999999,-0.0104039999999999,-0.1031084999999999,-0.7150299999999999,0.107752,0.1674115,-0.85885,0.011597,1
139,-0.0309459999999999,0.740377,0.076903,-0.180117,0.5268769999999999,0.032649,-0.287507,0.719807,-0.082436,0.131733,0.536327,-0.000895,0.212903,0.725057,-0.118316,-0.259677,0.946637,-0.175656,0.190723,0.988237,-0.214216,-0.060423,-0.0035499999999999,0.0047269999999999,0.060423,0.00355,-0.004727,-0.112717,-0.3621029999999999,-0.002983,0.116613,-0.353093,-0.009917,-0.102327,-0.714453,0.108823,0.167723,-0.857133,0.0126559999999999,1
140,-0.0306824999999999,0.7414934999999999,0.0791325,-0.1804415,0.5264234999999999,0.0350275,-0.2944615,0.7142835,-0.0798104999999999,0.1332985,0.5348735,0.0020265,0.2208285,0.7163934999999999,-0.1174105,-0.2656814999999999,0.9413235,-0.1780705,0.1999185,0.9761535,-0.2188004999999999,-0.0604925,-0.0034485,0.0045325,0.0604925,0.0034485,-0.0045325,-0.1125715,-0.3619765,-0.0027424999999999,0.1167285,-0.3531065,-0.0096035,-0.1016415,-0.7139065,0.1096895,0.1680485,-0.8551165000000001,0.0134454999999999,1
141,-0.0303984999999999,0.7426065,0.0810255,-0.1807935,0.5254365,0.0370435,-0.3040434999999999,0.7061565,-0.0773674999999999,0.1351765,0.5334565,0.0048565,0.2319065,0.7027565,-0.1170975,-0.2719135,0.9353165,-0.1824474999999999,0.2101165,0.9611565,-0.2254775,-0.0605945,-0.0033534999999999,0.0043325,0.0605945,0.0033535,-0.0043324999999999,-0.1125934999999999,-0.3618335,-0.0024644999999999,0.1169365,-0.3530735,-0.0095054999999999,-0.1010335,-0.7138135,0.1103265,0.1684765,-0.8555635,0.0140115,0
142,-0.0301125,0.7442295000000001,0.082634,-0.1811095,0.5239795,0.03887,-0.3149795,0.6926995,-0.0751429999999999,0.1370704999999999,0.5317995000000001,0.00762,0.2437505,0.6873195000000001,-0.117283,-0.2799795,0.9239195,-0.190393,0.2211305,0.9420995,-0.2351929999999999,-0.0607265,-0.0032715,0.004158,0.0607265,0.0032715,-0.004158,-0.1127195,-0.3616605,-0.0022679999999999,0.1171605,-0.3530805,-0.0093379999999999,-0.1011095,-0.7135005,0.109058,0.1688705,-0.8557505,0.014801,0
143,-0.0298885,0.7460694999999999,0.08403,-0.1816315,0.5219395,0.040771,-0.3272015,0.6734595,-0.072974,0.1388085,0.5298995,0.010319,0.2571385,0.6668695,-0.117824,-0.2905615,0.9042695,-0.199244,0.2330384999999999,0.9165895,-0.2450339999999999,-0.0608355,-0.0032154999999999,0.004167,0.0608355,0.0032154999999999,-0.0041669999999999,-0.1130915,-0.3614905,-0.0022369999999999,0.1173284999999999,-0.3530805,-0.009352,-0.1024515,-0.7129305,0.107006,0.1691585,-0.8559005000000001,0.015441,0
144,-0.02969,0.7484925,0.0854045,-0.182191,0.5198325,0.0427245,-0.3382509999999999,0.6488125,-0.0694505,0.140349,0.5274625000000001,0.0127574999999999,0.270809,0.6437625,-0.1180104999999999,-0.303821,0.8746825,-0.2087705,0.246709,0.8815025000000001,-0.2567104999999999,-0.060945,-0.0032895,0.0041765,0.060945,0.0032895,-0.0041765,-0.113601,-0.3614275,-0.0021945,0.1177489999999999,-0.3529675,-0.0093875,-0.102221,-0.7120575,0.1075734999999999,0.1693589999999999,-0.8526975,0.0154074999999999,0
145,-0.0294925,0.7511059999999999,0.0865215,-0.1828005,0.517586,0.0447485,-0.3475005,0.620846,-0.0659035,0.1417395,0.524566,0.0150315,0.2816495,0.615256,-0.1171234999999999,-0.3176605,0.8354159999999999,-0.2207435,0.2604295,0.839316,-0.2685634999999999,-0.0610445,-0.003303,0.0041775,0.0610445,0.0033029999999999,-0.0041775,-0.1141605,-0.361304,-0.0021095,0.1177695,-0.352924,-0.0091074999999999,-0.1019505,-0.711454,0.1084415,0.1697295,-0.8525940000000001,0.0159725,0
146,-0.0294179999999999,0.753837,0.0871494999999999,-0.183512,0.5150170000000001,0.0463045,-0.353972,0.588937,-0.0610085,0.142678,0.5223570000000001,0.0164435,0.290398,0.5822970000000001,-0.1154785,-0.328012,0.785587,-0.2291985,0.2708379999999999,0.787477,-0.2775485,-0.0611219999999999,-0.0032979999999999,0.0040455,0.0611219999999999,0.003298,-0.0040455,-0.114812,-0.3611629999999999,-0.0018845,0.117668,-0.352943,-0.0088575,-0.101742,-0.711293,0.1093915,0.170018,-0.8525429999999999,0.0162875,0
147,-0.0294555,0.7565575,0.0869695,-0.1842515,0.5125175000000001,0.0472965,-0.3574914999999999,0.5530275,-0.0532795,0.1433684999999999,0.5202975,0.0170535,0.2958985,0.5466475000000001,-0.1106195,-0.3334915,0.7252075,-0.2318395,0.2797185,0.7294375,-0.2788095,-0.0611415,-0.0033244999999999,0.0040054999999999,0.0611415,0.0033245,-0.0040055,-0.1155315,-0.3609925,-0.0017435,0.1176285,-0.3528425,-0.0088575,-0.1001115,-0.7111925,0.1117115,0.1700585,-0.8524125,0.0162994999999999,0
148,-0.0294994999999999,0.7593235,0.0862845,-0.1849515,0.5100235,0.0477345,-0.3565715,0.5172035,-0.0433294999999999,0.1438485,0.5187635,0.0167905,0.2979485,0.5130535,-0.1000004999999999,-0.3437015,0.6586835,-0.2316704999999999,0.2892085,0.6643935,-0.2802905,-0.0611065,-0.0035265,0.0040545,0.0611065,0.0035265,-0.0040544999999999,-0.1162415,-0.3609965,-0.0016504999999999,0.1175885,-0.3525864999999999,-0.0089635,-0.0995814999999999,-0.7110465,0.1131595,0.1701185,-0.8521765,0.0162885,0
149,-0.0295765,0.7619005,0.0853755,-0.1854495,0.5078104999999999,0.0474135,-0.3554095,0.4803305,-0.0307075,0.1440105,0.5175405,0.0158615,0.2990704999999999,0.4799704999999999,-0.0878885,-0.3462895,0.5931605,-0.2323785,0.2925505,0.5959405,-0.2814785,-0.0610514999999999,-0.0036575,0.0041124999999999,0.0610514999999999,0.0036574999999999,-0.0041124999999999,-0.1170895,-0.3609295,-0.0015415,0.1175405,-0.3524095,-0.0091855,-0.0991595,-0.7110295,0.1142855,0.1701905,-0.8520395000000001,0.0155305,0
150,-0.029726,0.7644489999999999,0.0844274999999999,-0.186024,0.505979,0.0467364999999999,-0.354204,0.444489,-0.0174205,0.144026,0.5161789999999999,0.0148994999999999,0.300276,0.450119,-0.0745305,-0.347294,0.525949,-0.2332505,0.2925859999999999,0.526389,-0.2823105,-0.06104,-0.003767,0.0041814999999999,0.06104,0.0037669999999999,-0.0041815,-0.117834,-0.360861,-0.0015015,0.117676,-0.352261,-0.0093885,-0.098964,-0.710731,0.1144545,0.170296,-0.8519410000000001,0.0145704999999999,0
151,-0.030005,0.7665270000000001,0.0832585,-0.186632,0.504617,0.0458895,-0.352042,0.4119669999999999,-0.0025565,0.144048,0.514907,0.0139994999999999,0.301588,0.4193469999999999,-0.0600705,-0.346272,0.450337,-0.2221405,0.293668,0.4518069999999999,-0.2705205,-0.061082,-0.003839,0.0043184999999999,0.061082,0.003839,-0.0043185,-0.118502,-0.360803,-0.0015365,0.117758,-0.352143,-0.0095735,-0.098662,-0.710553,0.1143645,0.170328,-0.851833,0.0138274999999999,0
152,-0.030433,0.768402,0.0813359999999999,-0.18711,0.503712,0.045076,-0.34811,0.383322,0.012418,0.14405,0.513842,0.0128279999999999,0.3009799999999999,0.391212,-0.044971,-0.3449,0.379002,-0.207027,0.29528,0.378142,-0.252447,-0.0611619999999999,-0.00386,0.004462,0.0611619999999999,0.0038599999999999,-0.004462,-0.11905,-0.360738,-0.0015939999999999,0.118,-0.352068,-0.0098009999999999,-0.09838,-0.7106279999999999,0.114336,0.17058,-0.851768,0.0129249999999999,0
153,-0.030954,0.769963,0.0788659999999999,-0.187478,0.502973,0.044331,-0.3395579999999999,0.357033,0.026561,0.143792,0.5131429999999999,0.0111729999999999,0.295152,0.363563,-0.028624,-0.3429379999999999,0.312383,-0.185531,0.296532,0.309633,-0.227741,-0.0612119999999999,-0.003754,0.0045909999999999,0.0612119999999999,0.003754,-0.0045909999999999,-0.119428,-0.3605669999999999,-0.0016509999999999,0.118202,-0.352117,-0.0100509999999999,-0.097888,-0.7104870000000001,0.114094,0.171112,-0.8518070000000001,0.012246,0
154,-0.031553,0.7712205,0.0757694999999999,-0.187701,0.5025305,0.0435235,-0.327881,0.3317705,0.0411275,0.143509,0.5127205,0.0089664999999999,0.286069,0.3385805,-0.0115875,-0.337431,0.2481605,-0.1571325,0.294229,0.2424905,-0.1974325,-0.061234,-0.0036555,0.0047094999999999,0.061234,0.0036555,-0.0047095,-0.119671,-0.3604195,-0.0017835,0.1184689999999999,-0.3521495,-0.0104055,-0.097671,-0.7098095,0.1138825,0.171899,-0.8518795,0.0117234999999999,0
155,-0.0322685,0.772228,0.0722395,-0.1880085,0.502348,0.0426135,-0.3137784999999999,0.3102879999999999,0.0545945,0.1431115,0.5119779999999999,0.0063124999999999,0.2741215,0.3171279999999999,0.0052935,-0.3275085,0.192558,-0.1243535,0.2892614999999999,0.186198,-0.1603834999999999,-0.0612515,-0.0035889999999999,0.0047945,0.0612515,0.003589,-0.0047945,-0.1198685,-0.360312,-0.0019165,0.1186415,-0.352092,-0.0108925,-0.0972185,-0.7090920000000001,0.1142585,0.1732614999999999,-0.8524120000000001,0.0109994999999999,0
156,-0.0331085,0.7730035000000001,0.0683005,-0.1883525,0.5022335,0.0416475,-0.2990024999999999,0.2922435,0.0656325,0.1427875,0.5113735,0.0037914999999999,0.2609175,0.3000735,0.0193665,-0.3129524999999999,0.1426235,-0.0894255,0.2813075,0.1380334999999999,-0.1229354999999999,-0.0612665,-0.0034955,0.0048514999999999,0.0612665,0.0034954999999999,-0.0048515,-0.1200125,-0.3601765,-0.0021175,0.1187675,-0.3521265,-0.0112965,-0.0964725,-0.7083765,0.1148435,0.1743375,-0.8529565,0.0103464999999999,0
157,-0.033922,0.773447,0.064276,-0.1887319999999999,0.502427,0.040518,-0.284692,0.276387,0.074945,0.142498,0.510747,0.001411,0.249068,0.284647,0.028628,-0.297312,0.101403,-0.049793,0.271968,0.099031,-0.081298,-0.061247,-0.0033349999999999,0.0048969999999999,0.061247,0.003335,-0.0048969999999999,-0.1200419999999999,-0.360003,-0.0023859999999999,0.118898,-0.352233,-0.0116269999999999,-0.0953219999999999,-0.707563,0.115436,0.175928,-0.857853,0.009947,0
158,-0.034497,0.774414,0.0591475,-0.188042,0.502024,0.0382205,-0.267782,0.246464,0.0823705,0.143258,0.510484,-0.0017474999999999,0.224788,0.247434,0.0459975,-0.280002,0.03431,0.0103865,0.252148,0.018176,-0.0224545,-0.061296,-0.002844,0.0049265,0.061296,0.002844,-0.0049265,-0.119472,-0.359576,-0.0015635,0.117988,-0.352656,-0.0077095,-0.095662,-0.707746,0.1133734999999999,0.184608,-0.903836,0.0130795,0
159,-0.035936,0.7747495,0.0543305,-0.18933,0.5023795,0.0373875,-0.25634,0.2388395,0.0885315,0.14181,0.5077895,-0.0057454999999999,0.21552,0.2356695,0.0492685,-0.26355,0.0216055,0.0365805,0.23797,-0.0094604999999999,0.0193805,-0.0611769999999999,-0.0029315,0.0048215,0.0611769999999999,0.0029315,-0.0048214999999999,-0.11948,-0.3596205,-0.0016874999999999,0.12271,-0.3519704999999999,-0.0105164999999999,-0.092435,-0.7058905000000001,0.1176255,0.17617,-0.8518205000000001,0.0074325,0
160,-0.0372015,0.7748565,0.050191,-0.1900805,0.5030665,0.036699,-0.2410405,0.2258065,0.097722,0.1410195,0.5077365,-0.0078019999999999,0.2116895,0.2353665,0.052081,-0.2448004999999999,-0.0193135,0.0637,0.2336395,-0.0040475,0.024613,-0.0610545,-0.0030915,0.004915,0.0610545,0.0030914999999999,-0.0049149999999999,-0.1198005,-0.3597535,-0.0021349999999999,0.1196295,-0.3524135,-0.0113579999999999,-0.0899595,-0.7047035,0.119887,0.1843995,-0.9000335,0.012002,0
161,-0.037914,0.7738755,0.0481855,-0.190859,0.5034155,0.0379095,-0.2323289999999999,0.2203655,0.1062585,0.140631,0.5078254999999999,-0.0076164999999999,0.206921,0.2342455,0.0599935,-0.238119,-0.0242075,0.0745845,0.213361,0.0145245,0.0737085,-0.060901,-0.0031375,0.0050305,0.060901,0.0031374999999999,-0.0050305,-0.1191889999999999,-0.3598745,-0.0031254999999999,0.120041,-0.3523045,-0.0128044999999999,-0.0885759999999999,-0.7046945,0.1189834999999999,0.185561,-0.8995445,0.0097215,0
162,-0.037073,0.773401,0.0453895,-0.190706,0.504361,0.0379764999999999,-0.227836,0.218771,0.1122445,0.141084,0.507751,-0.0082925,0.205464,0.234761,0.0679815,-0.233896,-0.022782,0.0802644999999999,0.215334,0.0144849999999999,0.0741645,-0.060777,-0.003071,0.0052744999999999,0.060777,0.0030709999999999,-0.0052745,-0.1186059999999999,-0.359919,-0.0033395,0.118824,-0.3533489999999999,-0.0233995,-0.088924,-0.704689,0.1190825,0.182804,-0.850969,0.0062574999999999,0
163,-0.0371,0.772949,0.042098,-0.19111,0.505249,0.037724,-0.2262499999999999,0.219609,0.114853,0.14117,0.507679,-0.008511,0.20521,0.233069,0.073198,-0.22929,-0.014568,0.092982,0.22232,0.013557,0.082149,-0.060713,-0.003017,0.00526,0.060713,0.003017,-0.00526,-0.11872,-0.359881,-0.003889,0.11882,-0.353391,-0.023481,-0.088881,-0.704291,0.1194119999999999,0.18102,-0.851281,0.0057969999999999,0
164,-0.0371569999999999,0.772989,0.039556,-0.191519,0.505699,0.037881,-0.2262289999999999,0.220319,0.115934,0.141301,0.507679,-0.0083629999999999,0.207411,0.231449,0.077775,-0.2296689999999999,-0.014647,0.093419,0.230611,0.012606,0.087098,-0.060666,-0.00298,0.00537,0.060666,0.00298,-0.00537,-0.118889,-0.359851,-0.004232,0.116921,-0.353591,-0.0210319999999999,-0.088174,-0.703301,0.121229,0.188971,-0.898341,0.0087,0
