sb224sc-HT22-VT27/4dt907/src/ml-research/a11/datafiles/labeled_files/A77_kinect.csv
FrameNo,nose_3d_x,nose_3d_y,nose_3d_z,left_shoulder_3d_x,left_shoulder_3d_y,left_shoulder_3d_z,left_elbow_3d_x,left_elbow_3d_y,left_elbow_3d_z,right_shoulder_3d_x,right_shoulder_3d_y,right_shoulder_3d_z,right_elbow_3d_x,right_elbow_3d_y,right_elbow_3d_z,left_wrist_3d_x,left_wrist_3d_y,left_wrist_3d_z,right_wrist_3d_x,right_wrist_3d_y,right_wrist_3d_z,left_hip_3d_x,left_hip_3d_y,left_hip_3d_z,right_hip_3d_x,right_hip_3d_y,right_hip_3d_z,left_knee_3d_x,left_knee_3d_y,left_knee_3d_z,right_knee_3d_x,right_knee_3d_y,right_knee_3d_z,left_ankle_3d_x,left_ankle_3d_y,left_ankle_3d_z,right_ankle_3d_x,right_ankle_3d_y,right_ankle_3d_z,activity_label
0,0.0187084999999999,0.7842745,0.0962665,-0.1671225,0.5650645000000001,0.0735735,-0.3391325,0.7272145,-0.0397975,0.1891775,0.5538045,0.0806345,0.3617674999999999,0.7065045000000001,-0.0162474999999999,-0.4185725,0.9673545,-0.1488145,0.4084075,0.9602545,-0.0751845,-0.0753915,0.0022865,-0.0006574999999999,0.0753915,-0.0022865,0.0006575,-0.1321625,-0.5058855,0.0427155,0.1229175,-0.5011355,0.0220845,-0.1436025,-0.8507555,0.0099165,0.1565475,-0.8727054999999999,-0.0269574999999999,0
1,0.0187465,0.784139,0.0961195,-0.1671254999999999,0.565149,0.0735085,-0.3390355,0.727179,-0.0399004999999999,0.1886245,0.5533290000000001,0.0808085,0.3617245,0.706469,-0.0162555,-0.4186355,0.966759,-0.1490845,0.4084645,0.960179,-0.0753345,-0.0753824999999999,0.0023699999999999,-0.0007184999999999,0.0753824999999999,-0.0023699999999999,0.0007185,-0.1320154999999999,-0.5028509999999999,0.0420205,0.1228644999999999,-0.501171,0.0220725,-0.1438555,-0.847181,0.0107325,0.1536545,-0.864441,-0.0175125,0
2,0.0187345,0.7838609999999999,0.0961185,-0.1671045,0.5648909999999999,0.0734695,-0.3390045,0.726881,-0.0398635,0.1883955,0.552871,0.0810045,0.3617355,0.706081,-0.0162245,-0.4188544999999999,0.967411,-0.1496144999999999,0.4084455,0.959861,-0.0753945,-0.0753385,0.002269,-0.0009085,0.0753385,-0.002269,0.0009084999999999,-0.1320045,-0.504129,0.0420225,0.1227955,-0.501299,0.0220044999999999,-0.1434845,-0.847519,0.0109204999999999,0.1519955,-0.847649,-0.0108185,0
3,0.0190119999999999,0.783373,0.0957225,-0.16713,0.5648829999999999,0.0734425,-0.33882,0.726703,-0.0397984999999999,0.18807,0.552543,0.0811125,0.36183,0.7062529999999999,-0.0162025,-0.41917,0.969073,-0.1491154999999999,0.40851,0.959613,-0.0753655,-0.075303,0.002256,-0.0009194999999999,0.075303,-0.002256,0.0009194999999999,-0.1318399999999999,-0.506617,0.0424584999999999,0.1228799999999999,-0.500517,0.0218495,-0.14354,-0.8475670000000001,0.0109985,0.1533,-0.870027,-0.0213975,0
4,0.0191569999999999,0.783554,0.095497,-0.166992,0.565104,0.073274,-0.338702,0.726804,-0.040037,0.188008,0.552594,0.081071,0.361878,0.7059840000000001,-0.0161079999999999,-0.418972,0.968504,-0.149529,0.4084779999999999,0.959504,-0.075659,-0.075191,0.002415,-0.0009409999999999,0.075191,-0.002415,0.000941,-0.131302,-0.506636,0.042379,0.1229579999999999,-0.500576,0.021729,-0.143152,-0.847646,0.011564,0.173478,-0.892736,-0.077469,0
5,0.019055,0.7836719999999999,0.095463,-0.1670769999999999,0.5652619999999999,0.073276,-0.338657,0.726862,-0.040009,0.187813,0.5527219999999999,0.081356,0.361773,0.7060219999999999,-0.0159999999999999,-0.418977,0.964162,-0.1481589999999999,0.408393,0.959822,-0.075779,-0.075169,0.002237,-0.0009859999999999,0.075169,-0.002237,0.000986,-0.1313269999999999,-0.505698,0.042265,0.122863,-0.500808,0.021785,-0.140357,-0.856028,0.011965,0.155163,-0.875218,-0.0145259999999999,0
6,0.019266,0.78369,0.0950534999999999,-0.1668899999999999,0.56532,0.0730244999999999,-0.33838,0.72682,-0.0402065,0.18783,0.55246,0.0812495,0.36214,0.70638,-0.0160515,-0.4188,0.9658,-0.1485765,0.40852,0.95985,-0.0759865,-0.075113,0.00202,-0.0012725,0.075113,-0.00202,0.0012724999999999,-0.1308099999999999,-0.50605,0.0421454999999999,0.12304,-0.50085,0.0214904999999999,-0.14093,-0.8528,0.0119264999999999,0.17064,-0.89311,-0.0792865,0
7,0.0193219999999999,0.7836125,0.0950719999999999,-0.166822,0.5652225000000001,0.073124,-0.338322,0.7268825,-0.040164,0.1878679999999999,0.5524625000000001,0.081372,0.362108,0.7064625,-0.015978,-0.418922,0.9677325,-0.149258,0.408468,0.9601325,-0.0758079999999999,-0.075132,0.0022115,-0.001169,0.075132,-0.0022115,0.001169,-0.130992,-0.5046474999999999,0.04194,0.123108,-0.5006375,0.021472,-0.142292,-0.8483674999999999,0.011469,0.1539879999999999,-0.8672974999999999,-0.017346,0
8,0.0193725,0.78359,0.0949615,-0.1667674999999999,0.56521,0.0730765,-0.3382275,0.72686,-0.0402125,0.1878125,0.55244,0.0814215,0.3621625,0.70644,-0.0159274999999999,-0.4189175,0.96784,-0.1493445,0.4084625,0.96011,-0.0758745,-0.0750955,0.002208,-0.0012314999999999,0.0750955,-0.002208,0.0012315,-0.1308475,-0.50386,0.0417875,0.1231525,-0.5004,0.0214195,-0.1422675,-0.8482,0.0114245,0.1536725,-0.86651,-0.0164694999999999,0
9,0.019417,0.7835525,0.0949035,-0.166729,0.5651824999999999,0.0730804999999999,-0.338179,0.7268224999999999,-0.0402065,0.187781,0.5524025,0.0815525,0.362201,0.7064225,-0.0158325,-0.418919,0.9680225,-0.1493685,0.408411,0.9603525,-0.0758885,-0.075075,0.0021885,-0.0013185,0.075075,-0.0021885,0.0013185,-0.130759,-0.5034175000000001,0.0417615,0.123201,-0.5001375,0.0214135,-0.1423289999999999,-0.8482375,0.0114435,0.153591,-0.8665375000000001,-0.0159995,0
10,0.0194589999999999,0.7835044999999999,0.0947735,-0.166689,0.5652345,0.0730295,-0.338129,0.7267645,-0.0402575,0.187741,0.5522845,0.0816515,0.362221,0.7064445,-0.0157474999999999,-0.418989,0.9680745,-0.1493614999999999,0.408341,0.9606545,-0.0759015,-0.0750619999999999,0.0021815,-0.0013874999999999,0.0750619999999999,-0.0021815,0.0013874999999999,-0.130679,-0.5027755,0.0417285,0.1232409999999999,-0.5002255,0.0214125,-0.142419,-0.8486155,0.0114895,0.153711,-0.8673155,-0.0159964999999999,0
11,0.0194775,0.783524,0.0946994999999999,-0.1666525,0.5652440000000001,0.0730224999999999,-0.3380925,0.726684,-0.0402514999999999,0.1877075,0.552204,0.0817674999999999,0.3622175,0.7064640000000001,-0.0156485,-0.4190925,0.967944,-0.1493515,0.4082275,0.961004,-0.0758915,-0.0750615,0.002168,-0.0014305,0.0750615,-0.002168,0.0014305,-0.1306325,-0.501896,0.0416825,0.1232675,-0.500386,0.0214565,-0.1425325,-0.848846,0.0116155,0.1539675,-0.868786,-0.0159785,0
12,0.0194785,0.783511,0.0946505,-0.1666345,0.565231,0.0730265,-0.3380645,0.726481,-0.0401885,0.1876555,0.552131,0.0818885,0.3622054999999999,0.706411,-0.0155245,-0.4192344999999999,0.967831,-0.1493095,0.4080755,0.961521,-0.0758595,-0.0750635,0.002126,-0.0014835,0.0750635,-0.002126,0.0014834999999999,-0.1306145,-0.501039,0.0416275,0.1232755,-0.500549,0.0214914999999999,-0.1426545,-0.848989,0.0118114999999999,0.1537955,-0.868009,-0.0159145,0
13,0.0194599999999999,0.783542,0.0946005,-0.166633,0.565262,0.0730135,-0.338053,0.726242,-0.0401425,0.1875969999999999,0.552112,0.0819995,0.3621569999999999,0.706402,-0.0154305,-0.4194029999999999,0.967882,-0.1493825,0.407907,0.962102,-0.0757825,-0.075073,0.002043,-0.0015205,0.075073,-0.002043,0.0015205,-0.130603,-0.5002880000000001,0.0415624999999999,0.123267,-0.500638,0.0214964999999999,-0.142923,-0.848868,0.0118594999999999,0.153797,-0.868158,-0.0171475,0
14,0.0194405,0.7835559999999999,0.094579,-0.1666365,0.5652659999999999,0.073005,-0.3380565,0.7259559999999999,-0.0401509999999999,0.1875435,0.5520959999999999,0.082116,0.3621035,0.706386,-0.015326,-0.4195865,0.967816,-0.149474,0.4077235,0.962616,-0.0757439999999999,-0.0750795,0.001982,-0.0015449999999999,0.0750795,-0.001982,0.001545,-0.1306265,-0.499764,0.041442,0.1232635,-0.5007240000000001,0.021496,-0.1431665,-0.848774,0.011914,0.1536235,-0.8659140000000001,-0.01579,0
15,0.0194085,0.7835605,0.094557,-0.1666485,0.5652404999999999,0.072994,-0.3380885,0.7255404999999999,-0.0401449999999999,0.1875015,0.5520704999999999,0.082235,0.3620415,0.7063305,-0.0152139999999999,-0.4198085,0.9676705,-0.14956,0.4074915,0.9630005,-0.07572,-0.0750784999999999,0.0019515,-0.001604,0.0750784999999999,-0.0019515,0.001604,-0.1306685,-0.4993495,0.041313,0.1232515,-0.5009695000000001,0.021488,-0.1433785,-0.8487495,0.011897,0.1537015,-0.8643195,-0.0153219999999999,0
16,0.0193619999999999,0.7835934999999999,0.094532,-0.166663,0.5652134999999999,0.0730389999999999,-0.338123,0.7251335,-0.040126,0.187447,0.5520735,0.0823639999999999,0.361987,0.7062535,-0.015088,-0.420043,0.9674835,-0.149637,0.407257,0.9633535,-0.075697,-0.075084,0.0019364999999999,-0.001647,0.075084,-0.0019364999999999,0.0016469999999999,-0.130713,-0.4994765,0.041266,0.123237,-0.5012765,0.0214729999999999,-0.143573,-0.8485765000000001,0.0119519999999999,0.153797,-0.8647165,-0.015312,1
17,0.0193125,0.7836785,0.094466,-0.1666595,0.5651984999999999,0.073046,-0.3383195,0.7247484999999999,-0.0401269999999999,0.1874005,0.5521284999999999,0.082443,0.3619605,0.7062284999999999,-0.0150469999999999,-0.4202795,0.9671085,-0.149771,0.4070705,0.9635385,-0.075751,-0.0750825,0.0018674999999999,-0.0016539999999999,0.0750825,-0.0018674999999999,0.001654,-0.1307395,-0.4998315,0.041205,0.1232105,-0.5017215,0.021481,-0.1436195,-0.8482115,0.011991,0.1537405,-0.8671015000000001,-0.0165219999999999,1
18,0.019259,0.7837895,0.0943664999999999,-0.166665,0.5652195,0.0730405,-0.3385249999999999,0.7243795000000001,-0.0401325,0.187355,0.5522195,0.0825045,0.361955,0.7062195,-0.0150345,-0.420535,0.9667595,-0.1499825,0.406945,0.9634695,-0.0758524999999999,-0.075078,0.0018155,-0.0016644999999999,0.075078,-0.0018154999999999,0.0016644999999999,-0.130745,-0.5001805,0.0411165,0.123195,-0.5021605,0.0214314999999999,-0.143635,-0.8477205,0.0119524999999999,0.153755,-0.8678804999999999,-0.0171685,1
19,0.019207,0.7837605,0.0943045,-0.16666,0.5651704999999999,0.0730465,-0.33875,0.7242605,-0.0401565,0.18736,0.5522204999999999,0.0824845,0.36196,0.7062305,-0.0150765,-0.42079,0.9667105,-0.1502815,0.40685,0.9634205,-0.0759715,-0.075084,0.0018075,-0.0016825,0.075084,-0.0018075,0.0016824999999999,-0.13081,-0.5002295,0.0410014999999999,0.12317,-0.5021295,0.0213415,-0.1437,-0.8469295,0.0118794999999999,0.15362,-0.8703195,-0.0186105,1
20,0.0192115,0.7837434999999999,0.0942065,-0.1666415,0.5651235,0.0730355,-0.3389715,0.7241035,-0.0402615,0.1873785,0.5522035,0.0823955,0.3619684999999999,0.7062335,-0.0151644999999999,-0.4211415,0.9665435,-0.1507315,0.4068285,0.9633635,-0.0761515,-0.0751085,0.0018405,-0.0017204999999999,0.0751085,-0.0018405,0.0017204999999999,-0.1308615,-0.5002865,0.0409135,0.1231285,-0.5021865,0.0211805,-0.1437415,-0.8465165,0.0118375,0.1536585,-0.8700665000000001,-0.0189464999999999,1
21,0.019228,0.7837005,0.093977,-0.166617,0.5650904999999999,0.072895,-0.339157,0.7238505,-0.040425,0.187403,0.5521705,0.082242,0.361993,0.7062205,-0.0153229999999999,-0.421637,0.9662905,-0.151427,0.406843,0.9632905,-0.076427,-0.075134,0.0018894999999999,-0.0017199999999999,0.075134,-0.0018895,0.0017199999999999,-0.130917,-0.5004095,0.040727,0.1230729999999999,-0.5022595,0.020876,-0.143617,-0.8459495,0.011872,0.153673,-0.8701395000000001,-0.0192859999999999,1
22,0.0192325,0.7837324999999999,0.093642,-0.1665605,0.5650824999999999,0.072767,-0.3393705,0.7232425,-0.040537,0.1876695,0.5525725,0.081991,0.3621295,0.7062725,-0.0155099999999999,-0.4222805,0.9651325,-0.152192,0.4068395,0.9630925,-0.0767719999999999,-0.0751635,0.0018815,-0.0017149999999999,0.0751635,-0.0018815,0.001715,-0.1309805,-0.5008975,0.040418,0.1229095,-0.5023875,0.02027,-0.1434905,-0.8454175,0.011741,0.1537095,-0.8711575,-0.0200009999999999,1
23,0.0192199999999999,0.7837934999999999,0.0930085,-0.166504,0.5650835,0.0726165,-0.3395939999999999,0.7226935,-0.0406894999999999,0.187966,0.5526335,0.0816975,0.3622959999999999,0.7062934999999999,-0.0158084999999999,-0.422934,0.9640235,-0.1531295,0.406836,0.9629335,-0.0772694999999999,-0.075197,0.0018205,-0.0016945,0.075197,-0.0018205,0.0016945,-0.131074,-0.5015065,0.0398575,0.122656,-0.5025365,0.0193235,-0.143484,-0.8453565000000001,0.0115935,0.153656,-0.8723365000000001,-0.0212785,1
24,0.019186,0.7838655,0.091876,-0.166463,0.5651255000000001,0.072388,-0.339833,0.7222055000000001,-0.041023,0.188287,0.5527055000000001,0.081263,0.362477,0.7063055,-0.016242,-0.423573,0.9629555,-0.154406,0.406847,0.9625055,-0.078136,-0.0752279999999999,0.0017664999999999,-0.0016849999999999,0.0752279999999999,-0.0017665,0.001685,-0.131193,-0.5022545,0.039067,0.122367,-0.5026745,0.018123,-0.143473,-0.8452845,0.011367,0.153547,-0.8733645,-0.022452,1
25,0.019187,0.783947,0.090341,-0.166412,0.5651769999999999,0.072128,-0.340122,0.721827,-0.041534,0.188638,0.552787,0.080783,0.3626979999999999,0.706317,-0.0168799999999999,-0.424212,0.961877,-0.156074,0.4068879999999999,0.962097,-0.0791439999999999,-0.075262,0.0017299999999999,-0.0016699999999999,0.075262,-0.00173,0.00167,-0.131352,-0.502893,0.038009,0.122038,-0.502913,0.016641,-0.143472,-0.845203,0.011077,0.153528,-0.875233,-0.0237559999999999,1
26,0.019391,0.784169,0.088597,-0.166008,0.5653090000000001,0.071681,-0.340318,0.721399,-0.042253,0.189362,0.5538390000000001,0.079407,0.3636319999999999,0.7067690000000001,-0.0178969999999999,-0.424828,0.960889,-0.157818,0.407192,0.961669,-0.0802779999999999,-0.075279,0.001808,-0.0016219999999999,0.075279,-0.001808,0.0016219999999999,-0.131778,-0.503741,0.036112,0.121602,-0.503471,0.014712,-0.143578,-0.845181,0.009918,0.153292,-0.873861,-0.024001,1
27,0.0195634999999999,0.7843095,0.0861265,-0.1656175,0.5653595,0.0710215,-0.3405775,0.7208895,-0.0434175,0.1901425,0.5549695,0.0775335,0.3646225,0.7072195,-0.0193754999999999,-0.4253575,0.9598695,-0.1599805,0.4075125,0.9612395,-0.0818705,-0.0752775,0.0019185,-0.0014464999999999,0.0752775,-0.0019185,0.0014465,-0.1322275,-0.5041205000000001,0.0338745,0.1211525,-0.5040205,0.0125985,-0.1437375,-0.8457005000000001,0.0084805,0.1533425,-0.8739905,-0.0246854999999999,1
28,0.0197454999999999,0.7843275,0.082842,-0.1652515,0.5653374999999999,0.069928,-0.3409215,0.7200475,-0.044903,0.1909285,0.5561475,0.075006,0.3656485,0.7074575,-0.021572,-0.4257615,0.9585975,-0.1626329999999999,0.4078185,0.9606975,-0.084013,-0.0753115,0.0021155,-0.00125,0.0753115,-0.0021155,0.00125,-0.1327215,-0.5042725,0.031317,0.1207185,-0.5045625,0.010296,-0.1440615,-0.8459925,0.006944,0.1532785,-0.8727925,-0.024939,1
29,0.0198975,0.784334,0.078664,-0.1649795,0.565334,0.0685949999999999,-0.3414795,0.7188140000000001,-0.04693,0.1917305,0.557274,0.071882,0.3668605,0.707504,-0.024619,-0.4260495,0.957314,-0.1656889999999999,0.4080205,0.960104,-0.086809,-0.0753965,0.002316,-0.001028,0.0753965,-0.002316,0.0010279999999999,-0.1332694999999999,-0.504196,0.0282469999999999,0.1202505,-0.505166,0.0077829999999999,-0.1444895,-0.846386,0.0051719999999999,0.1532905,-0.873856,-0.026472,1
30,0.0199595,0.784352,0.0737005,-0.1648524999999999,0.565442,0.0669104999999999,-0.3424225,0.717332,-0.0498465,0.1925275,0.558432,0.0680895,0.3683174999999999,0.707322,-0.0285205,-0.4264425,0.955912,-0.1691985,0.4080975,0.959472,-0.0902085,-0.0755365,0.002443,-0.0007875,0.0755365,-0.002443,0.0007874999999999,-0.1339024999999999,-0.503738,0.0244624999999999,0.1198974999999999,-0.505608,0.0050444999999999,-0.1450324999999999,-0.849568,0.0027884999999999,0.1531875,-0.874758,-0.0290365,1
31,0.019832,0.7842705,0.067391,-0.1649209999999999,0.5655505,0.06472,-0.343831,0.7156805,-0.05354,0.193049,0.5594505,0.063814,0.370129,0.7065805000000001,-0.033199,-0.427021,0.9549205,-0.173455,0.408029,0.9584605,-0.094165,-0.075723,0.0025345,-0.000641,0.075723,-0.0025345,0.0006409999999999,-0.134731,-0.5025395,0.020121,0.119399,-0.5060695,0.0021699999999999,-0.145711,-0.8522495,5.3999999999998494e-05,0.152909,-0.8742095,-0.031872,1
32,0.0195564999999999,0.7840075,0.06053,-0.1650885,0.5656075,0.0620639999999999,-0.3457685,0.7136975,-0.057974,0.1934515,0.5604175,0.058812,0.3720015,0.7054275,-0.038705,-0.4275385,0.9522075,-0.178515,0.4077714999999999,0.9568375,-0.0988449999999999,-0.0758735,0.0026675,-0.0004179999999999,0.0758735,-0.0026674999999999,0.0004179999999999,-0.1357085,-0.5013625,0.015526,0.1187715,-0.5061025,-0.000747,-0.1465285,-0.8541525,-0.0028409999999999,0.1524215,-0.8727225,-0.033444,1
33,0.019274,0.7834869999999999,0.052767,-0.165314,0.565657,0.059184,-0.348354,0.7114269999999999,-0.063345,0.193826,0.5613269999999999,0.053066,0.374336,0.7036169999999999,-0.044822,-0.427884,0.948957,-0.184018,0.407386,0.954447,-0.104008,-0.076046,0.002779,-0.0002119999999999,0.076046,-0.002779,0.000212,-0.136814,-0.5001730000000001,0.010511,0.118046,-0.505163,-0.0039859999999999,-0.147434,-0.8557330000000001,-0.0059279999999999,0.152146,-0.8712930000000001,-0.0351969999999999,1
34,0.0187645,0.7827235,0.0438695,-0.1657445,0.5657935,0.0555825,-0.3512444999999999,0.7084835,-0.0693285,0.1939955,0.5619135,0.0463154999999999,0.3767055,0.7013935,-0.0516835,-0.4281445,0.9446635,-0.1901725,0.4067855,0.9517935,-0.1099325,-0.0762885,0.0029765,-6.250000000000006e-05,0.0762885,-0.0029765,6.250000000000006e-05,-0.1380945,-0.4987665,0.0046874999999999,0.1173555,-0.5038465,-0.0077755,-0.1486045,-0.8571065,-0.0093765,0.1521355,-0.8699765,-0.0380535,1
35,0.0178974999999999,0.7816894999999999,0.0339585,-0.1665154999999999,0.5653195,0.0496225,-0.3543855,0.7047795,-0.0761294999999999,0.1936045,0.5619295,0.0394745,0.3782545,0.6983395,-0.0590864999999999,-0.4284855,0.9396195,-0.1971195,0.4058345,0.9485795,-0.1167695,-0.0765505,0.0029664999999999,5.9500000000000525e-05,0.0765505,-0.0029665,-5.9500000000000525e-05,-0.1394455,-0.4979204999999999,-0.0009654999999999,0.1170944999999999,-0.5033305,-0.0122525,-0.1502955,-0.8577005000000001,-0.0123894999999999,0.1519045,-0.8706305000000001,-0.0416765,1
36,0.0170285,0.7801635,0.023126,-0.1673015,0.5651735,0.043401,-0.3579115,0.7009835,-0.083992,0.1929085,0.5604935,0.031542,0.3799285,0.6945135,-0.067076,-0.4287714999999999,0.9336135,-0.204832,0.4049685,0.9446035,-0.124612,-0.0768525,0.0028475,0.0001409999999999,0.0768525,-0.0028474999999999,-0.0001409999999999,-0.1409815,-0.4962764999999999,-0.007553,0.1172885,-0.5024565000000001,-0.017839,-0.1522315,-0.8578265,-0.0155609999999999,0.1515585,-0.8708065,-0.0457929999999999,1
37,0.0159524999999999,0.7785185,0.0116795,-0.1681135,0.5643285,0.0358295,-0.3616034999999999,0.6970485000000001,-0.0926565,0.1920165,0.5594085,0.0233635,0.3814165,0.6906585000000001,-0.0754905,-0.4288835,0.9269185,-0.2132065,0.4041665,0.9401385,-0.1332565,-0.0771675,0.0027134999999999,0.0001694999999999,0.0771675,-0.0027135,-0.0001694999999999,-0.1429435,-0.4939215,-0.0154564999999999,0.1176865,-0.5010415,-0.0245895,-0.1542635,-0.8571515,-0.0192205,0.1510264999999999,-0.8702915,-0.0504344999999999,1
38,0.014784,0.776442,-0.0003195,-0.1688819999999999,0.563352,0.0275745,-0.3651919999999999,0.693062,-0.1018105,0.1909779999999999,0.558552,0.0150355,0.382828,0.686022,-0.0841535,-0.4288519999999999,0.918882,-0.2232104999999999,0.403398,0.935302,-0.1426204999999999,-0.077556,0.0026099999999999,9.750000000000036e-05,0.077556,-0.0026099999999999,-9.750000000000036e-05,-0.1452419999999999,-0.489158,-0.0240195,0.118488,-0.4974579999999999,-0.0324615,-0.156322,-0.855718,-0.0232614999999999,0.1506779999999999,-0.869258,-0.0556754999999999,1
39,0.013637,0.7738415,-0.0126935,-0.169785,0.5618515,0.0185005,-0.368495,0.6880615,-0.1112455,0.189765,0.5570514999999999,0.0062655,0.3837049999999999,0.6806814999999999,-0.0933255,-0.428415,0.9104515,-0.2334255,0.402395,0.9279115,-0.1541954999999999,-0.078018,0.0023735,4.55000000000004e-05,0.078018,-0.0023735,-4.5499999999998667e-05,-0.147735,-0.4836985,-0.0328795,0.119755,-0.4926185,-0.0415715,-0.157985,-0.8527385000000001,-0.0271614999999999,0.150285,-0.8665985,-0.0609264999999999,1
40,0.01274,0.7714139999999999,-0.024816,-0.170452,0.560724,0.009225,-0.371302,0.682654,-0.1207449999999999,0.188598,0.5553939999999999,-0.0025129999999999,0.383858,0.675874,-0.102425,-0.427822,0.901004,-0.244305,0.401338,0.921044,-0.165525,-0.078431,0.0023929999999999,4.799999999999943e-05,0.078431,-0.0023929999999999,-4.799999999999943e-05,-0.150602,-0.476986,-0.042589,0.121958,-0.486346,-0.052825,-0.159362,-0.848566,-0.03119,0.150158,-0.862716,-0.066215,1
41,0.0120684999999999,0.768493,-0.0373584999999999,-0.1707285,0.560253,-0.0001555,-0.3735285,0.676893,-0.1305195,0.1876914999999999,0.553523,-0.0113165,0.3840015,0.671043,-0.1116695,-0.4266784999999999,0.893903,-0.2549694999999999,0.4002915,0.914983,-0.1769795,-0.0788105,0.002371,4.3500000000000136e-05,0.0788105,-0.002371,-4.3500000000000136e-05,-0.1535285,-0.468797,-0.0529815,0.1244514999999999,-0.478317,-0.0645205,-0.1607885,-0.8431270000000001,-0.0354095,0.1504115,-0.857527,-0.0715105,1
42,0.0113559999999999,0.7658105000000001,-0.0495435,-0.17091,0.5585805,-0.0102305,-0.37513,0.6710405,-0.1401015,0.18683,0.5514205,-0.0200244999999999,0.38366,0.6668705,-0.1212215,-0.42554,0.8878505,-0.2662815,0.39921,0.9101605,-0.1892515,-0.079154,0.0022644999999999,4.649999999999999e-05,0.079154,-0.0022645,-4.649999999999999e-05,-0.15645,-0.4608494999999999,-0.0635305,0.12705,-0.4697495,-0.0764715,-0.16218,-0.8350495,-0.0400504999999999,0.15056,-0.8514395,-0.0769625,1
43,0.0106985,0.7629235,-0.0612325,-0.1709284999999999,0.5558835,-0.0204575,-0.3765185,0.6659035,-0.1497325,0.1860115,0.5486735,-0.0284095,0.3829715,0.6625135,-0.1306925,-0.4240684999999999,0.8824235,-0.2785625,0.3982615,0.9064735,-0.2019925,-0.0793465,0.0021554999999999,2.0499999999999685e-05,0.0793465,-0.0021554999999999,-2.050000000000012e-05,-0.1595984999999999,-0.4527465,-0.0740955,0.1296815,-0.4598764999999999,-0.0885074999999999,-0.1632485,-0.8261065,-0.0445305,0.1507915,-0.8444865,-0.0823625,1
44,0.0100614999999999,0.7600565,-0.07265,-0.1710645,0.5542865,-0.028895,-0.3776745,0.6608965,-0.1593159999999999,0.1852455,0.5460165,-0.03656,0.3824255,0.6585365000000001,-0.140256,-0.4223745,0.8779765,-0.291156,0.3974554999999999,0.9036765,-0.2152659999999999,-0.0795685,0.0021425,-5.3000000000000096e-05,0.0795685,-0.0021424999999999,5.3000000000000096e-05,-0.1627445,-0.4439735,-0.085169,0.1319655,-0.4497434999999999,-0.10044,-0.1636245,-0.8173735,-0.049253,0.1511354999999999,-0.8364834999999999,-0.088119,1
45,0.00955,0.7578295,-0.0831615,-0.171069,0.5525795,-0.0376915,-0.378249,0.6564995,-0.1684525,0.184431,0.5453295,-0.0437585,0.382051,0.6555394999999999,-0.1498624999999999,-0.420399,0.8740095,-0.3041325,0.396521,0.9022595,-0.2287825,-0.079871,0.0018975,-5.049999999999846e-05,0.079871,-0.0018974999999999,5.05000000000002e-05,-0.165879,-0.4339405,-0.0960004999999999,0.133891,-0.4397105,-0.1121125,-0.163799,-0.8073405,-0.0541945,0.151651,-0.8267005000000001,-0.0936745,1
46,0.009247,0.755263,-0.0932455,-0.1708839999999999,0.551223,-0.0455095,-0.378594,0.651833,-0.1772755,0.183436,0.543583,-0.0508075,0.381976,0.6519830000000001,-0.1591155,-0.4183739999999999,0.870453,-0.3170355,0.395616,0.901443,-0.2421255,-0.080148,0.0019979999999999,-1.5500000000001624e-05,0.080148,-0.0019979999999999,1.5499999999998154e-05,-0.168764,-0.423107,-0.1061545,0.135896,-0.428877,-0.1237655,-0.1638339999999999,-0.796507,-0.0595195,0.152356,-0.8163469999999999,-0.0993655,1
47,0.0089389999999999,0.7529505000000001,-0.102838,-0.1707429999999999,0.5498605000000001,-0.0534459999999999,-0.378953,0.6470104999999999,-0.185932,0.182327,0.5417505,-0.058102,0.381517,0.6493005000000001,-0.168232,-0.416253,0.8682505,-0.329232,0.394787,0.9013305,-0.255562,-0.080566,0.0019745,-6.300000000000056e-05,0.080566,-0.0019744999999999,6.300000000000056e-05,-0.171463,-0.4111895,-0.116245,0.1378269999999999,-0.4166995,-0.1352819999999999,-0.1639729999999999,-0.7845895,-0.065447,0.1528669999999999,-0.8048795,-0.104776,1
48,0.0086695,0.7504715000000001,-0.112277,-0.1705135,0.5481115,-0.061113,-0.3793035,0.6427815,-0.194384,0.1811465,0.5402915,-0.065017,0.3817365,0.6470015,-0.177154,-0.4141335,0.8655815,-0.341344,0.3939665,0.8988915000000001,-0.2672839999999999,-0.0809235,0.0020904999999999,-7.100000000000162e-05,0.0809235,-0.0020904999999999,7.099999999999815e-05,-0.1741335,-0.3972985,-0.126324,0.1397765,-0.4034084999999999,-0.146424,-0.1640635,-0.7720085,-0.071669,0.1535665,-0.7927885,-0.110579,1
49,0.008567,0.747665,-0.121538,-0.170212,0.546205,-0.0691809999999999,-0.3794919999999999,0.638685,-0.203389,0.180038,0.5387850000000001,-0.072334,0.3820679999999999,0.643865,-0.186469,-0.411872,0.863325,-0.3532289999999999,0.393008,0.897315,-0.2796289999999999,-0.081372,0.0017849999999999,-9.400000000000032e-05,0.081372,-0.0017849999999999,9.400000000000032e-05,-0.176542,-0.382945,-0.136209,0.141558,-0.389635,-0.156359,-0.163982,-0.758705,-0.078295,0.154378,-0.780025,-0.116668,1
50,0.008322,0.745285,-0.1357705,-0.170011,0.5441549999999999,-0.0832255,-0.379751,0.635525,-0.2178065,0.178789,0.537775,-0.0853215,0.381949,0.640245,-0.2010565,-0.410311,0.858755,-0.3710965,0.391829,0.892185,-0.2978165,-0.0817779999999999,0.001515,-0.0001984999999999,0.0817779999999999,-0.0015149999999999,0.0001985,-0.1787409999999999,-0.3668949999999999,-0.1512365,0.143189,-0.374795,-0.1717465,-0.164101,-0.743955,-0.0915115,0.154929,-0.7657349999999999,-0.1281655,1
51,0.0082425,0.74394,-0.151572,-0.1695625,0.54416,-0.098259,-0.3805725,0.6351899999999999,-0.235262,0.1777375,0.5387,-0.0997649999999999,0.3821275,0.6382699999999999,-0.216572,-0.4085125,0.85642,-0.390262,0.3918175,0.88998,-0.316492,-0.0817795,0.0011899999999999,-0.0003039999999999,0.0817795,-0.0011899999999999,0.0003039999999999,-0.1840225,-0.34881,-0.173652,0.1471475,-0.3555,-0.1938619999999999,-0.1659125,-0.7282,-0.110857,0.1571275,-0.74684,-0.146898,1
52,0.0082155,0.74087,-0.1670789999999999,-0.1690725,0.5453399999999999,-0.1126599999999999,-0.3811525,0.63314,-0.252729,0.1768375,0.5402199999999999,-0.113865,0.3824875,0.63435,-0.2323889999999999,-0.4071224999999999,0.85214,-0.408779,0.3918374999999999,0.8862599999999999,-0.334809,-0.0818825,0.0008999999999999,-0.0004349999999999,0.0818825,-0.0009,0.000435,-0.1887025,-0.33325,-0.195329,0.1507475,-0.33777,-0.215559,-0.1674025,-0.71438,-0.129742,0.1589575,-0.7303000000000001,-0.164517,1
53,0.0078915,0.73712,-0.1832119999999999,-0.1688505,0.54696,-0.127188,-0.3823105,0.63054,-0.270972,0.1755195,0.53758,-0.129226,0.3825895,0.62929,-0.248592,-0.4061405,0.8466,-0.4278119999999999,0.3915095,0.88083,-0.353722,-0.0819495,0.00081,-0.000491,0.0819495,-0.0008099999999999,0.0004909999999999,-0.1934904999999999,-0.31851,-0.216552,0.1540995,-0.32034,-0.236972,-0.1692205,-0.70085,-0.148779,0.1604095,-0.7139199999999999,-0.1822119999999999,1
54,0.0071414999999999,0.73273,-0.200234,-0.1689925,0.54372,-0.143285,-0.3836625,0.62677,-0.289364,0.1742475,0.53589,-0.144977,0.3827075,0.6232800000000001,-0.265074,-0.4058825,0.83946,-0.447374,0.3907475,0.86992,-0.372974,-0.0820404999999999,0.00078,-0.0005469999999999,0.0820404999999999,-0.00078,0.000547,-0.1984725,-0.3045099999999999,-0.237514,0.1571375,-0.30423,-0.258094,-0.1717825,-0.68685,-0.1682179999999999,0.1616375,-0.69826,-0.200374,1
55,0.0062494999999999,0.7285,-0.21714,-0.1692135,0.5409200000000001,-0.159268,-0.3851135,0.62165,-0.30773,0.1732565,0.53459,-0.16105,0.3830165,0.6171599999999999,-0.28176,-0.4059435,0.83191,-0.46709,0.3899865,0.85904,-0.39203,-0.0821135,0.00039,-0.00067,0.0821135,-0.00039,0.00067,-0.2035035,-0.2907,-0.2582,0.1598365,-0.28836,-0.27886,-0.1745934999999999,-0.6727299999999999,-0.187466,0.1626865,-0.68252,-0.21891,1
56,0.0051775,0.72341,-0.234255,-0.1695755,0.53763,-0.174958,-0.3864555,0.61661,-0.326215,0.1719645,0.53281,-0.177145,0.3833545,0.61055,-0.298675,-0.4064655,0.8232900000000001,-0.486795,0.3894745,0.84708,-0.411505,-0.0821985,0.00014,-0.0005349999999999,0.0821985,-0.00014,0.0005349999999999,-0.2086454999999999,-0.27673,-0.278355,0.1621745,-0.27339,-0.298845,-0.1776454999999999,-0.65969,-0.205944,0.1634645,-0.66708,-0.237255,1
57,0.0040129999999999,0.718145,-0.25132,-0.169966,0.5345150000000001,-0.190779,-0.388166,0.611405,-0.3446599999999999,0.170704,0.530555,-0.193521,0.3835739999999999,0.603465,-0.31573,-0.407466,0.8149949999999999,-0.50752,0.389214,0.839645,-0.43157,-0.0821939999999999,-9.4999999999984e-05,-0.0004099999999999,0.0821939999999999,9.500000000001174e-05,0.0004099999999999,-0.213526,-0.2620249999999999,-0.29811,0.164244,-0.2585949999999999,-0.31848,-0.180796,-0.6466049999999999,-0.2244499999999999,0.164304,-0.6513450000000001,-0.25546,1
58,0.0027825,0.7122550000000001,-0.2684649999999999,-0.1703184999999999,0.530555,-0.2064249999999999,-0.3892184999999999,0.606535,-0.3625049999999999,0.1694315,0.528555,-0.2095209999999999,0.3838315,0.596875,-0.3329649999999999,-0.4086484999999999,0.8054349999999999,-0.527535,0.3890615,0.831075,-0.452195,-0.0821635,-0.000175,-0.0001449999999999,0.0821635,0.000175,0.000145,-0.2178085,-0.246825,-0.317355,0.1658615,-0.243665,-0.3376949999999999,-0.1841284999999999,-0.633275,-0.2427249999999999,0.1649014999999999,-0.635675,-0.273435,1
59,0.001926,0.7062200000000001,-0.28017,-0.1703339999999999,0.52591,-0.215856,-0.390074,0.60053,-0.3740799999999999,0.168686,0.5257700000000001,-0.219735,0.384626,0.5906100000000001,-0.34472,-0.409474,0.79699,-0.54131,0.389116,0.8228,-0.46745,-0.082145,-0.0004099999999999,0.0001599999999999,0.082145,0.00041,-0.0001599999999999,-0.221644,-0.2325399999999999,-0.3309499999999999,0.167826,-0.2292099999999999,-0.35102,-0.187174,-0.62043,-0.25415,0.165816,-0.62131,-0.28539,1
60,0.0011704999999999,0.6991050000000001,-0.2894299999999999,-0.1702895,0.5205850000000001,-0.22375,-0.3905395,0.592485,-0.38187,0.1681605,0.520765,-0.228485,0.3852305,0.583075,-0.35516,-0.4101595,0.786155,-0.55289,0.3892104999999999,0.812045,-0.48099,-0.0821285,-0.0004249999999999,0.0004399999999999,0.0821285,0.000425,-0.0004399999999999,-0.2219995,-0.219265,-0.33691,0.1679105,-0.2158649999999999,-0.3575,-0.1881795,-0.607835,-0.25979,0.1655805,-0.6080749999999999,-0.28934,1
61,6.750000000000332e-05,0.69379,-0.2987499999999999,-0.1704635,0.51489,-0.2316929999999999,-0.3913035,0.5847,-0.38904,0.1673865,0.5154,-0.237229,0.3849464999999999,0.57748,-0.36497,-0.4113635,0.7776000000000001,-0.5633,0.3889765,0.80163,-0.49355,-0.0820395,-0.0004299999999999,0.00089,0.0820395,0.0004299999999999,-0.00089,-0.2226935,-0.20417,-0.34294,0.1675865,-0.20077,-0.36402,-0.1892035,-0.59471,-0.26515,0.1650265,-0.59369,-0.29305,1
62,-0.000864,0.6890499999999999,-0.306675,-0.17047,0.5082599999999999,-0.239302,-0.3918399999999999,0.5785,-0.394625,0.16676,0.5143599999999999,-0.244329,0.38464,0.5726100000000001,-0.374055,-0.4123099999999999,0.77013,-0.572165,0.38879,0.79226,-0.505225,-0.0818349999999999,-0.0007099999999999,0.0013449999999999,0.0818349999999999,0.0007099999999999,-0.001345,-0.22325,-0.18902,-0.348715,0.16723,-0.18711,-0.370285,-0.18977,-0.5813600000000001,-0.269765,0.1646399999999999,-0.5795699999999999,-0.296115,1
63,-0.0024605,0.68448,-0.312905,-0.1711765,0.50565,-0.244424,-0.3921965,0.57266,-0.399035,0.1658935,0.5117200000000001,-0.25074,0.3836635,0.56785,-0.381995,-0.4137765,0.764,-0.578755,0.3876135,0.7874300000000001,-0.514865,-0.0819445,-0.0007299999999999,0.001585,0.0819445,0.00073,-0.001585,-0.2239665,-0.1781599999999999,-0.353885,0.1659535,-0.1787999999999999,-0.375745,-0.1904065,-0.5700799999999999,-0.273495,0.1621235,-0.56901,-0.294575,1
64,-0.0043859999999999,0.67988,-0.31876,-0.1722949999999999,0.5028900000000001,-0.249305,-0.393125,0.56832,-0.40287,0.164665,0.50918,-0.25655,0.3827649999999999,0.56287,-0.3893999999999999,-0.415555,0.75783,-0.5840000000000001,0.385835,0.78155,-0.52484,-0.081959,-0.0007399999999999,0.0018799999999999,0.081959,0.00074,-0.0018799999999999,-0.224905,-0.16698,-0.35874,0.164335,-0.1696799999999999,-0.38067,-0.1913349999999999,-0.55859,-0.2767,0.159335,-0.55764,-0.2929199999999999,1
65,-0.0065795,0.67589,-0.32397,-0.1734915,0.50039,-0.2536049999999999,-0.3945015,0.56341,-0.40597,0.1636185,0.5067999999999999,-0.26172,0.3812585,0.5578,-0.39573,-0.4172415,0.75206,-0.58771,0.3841485,0.7763899999999999,-0.53291,-0.0818865,-0.00075,0.0021599999999999,0.0818865,0.0007499999999999,-0.0021599999999999,-0.2255615,-0.15649,-0.36306,0.1625685,-0.16116,-0.38525,-0.1926415,-0.54777,-0.27882,0.1567585,-0.5467000000000001,-0.2903799999999999,1
66,-0.0089015,0.6726650000000001,-0.3291349999999999,-0.1745985,0.498205,-0.257002,-0.3958085,0.559875,-0.409145,0.1625915,0.505995,-0.265855,0.3802715,0.5529649999999999,-0.401175,-0.4188285,0.746525,-0.590435,0.3822514999999999,0.770105,-0.539365,-0.0817285,-0.0010749999999999,0.002415,0.0817285,0.0010749999999999,-0.002415,-0.2261885,-0.147495,-0.3670449999999999,0.1609215,-0.153205,-0.389085,-0.1936585,-0.538415,-0.281005,0.1542514999999999,-0.536085,-0.286945,1
67,-0.0115615,0.669465,-0.33486,-0.1759675,0.495445,-0.26027,-0.3975775,0.556675,-0.41355,0.1613925,0.502975,-0.27034,0.3790325,0.548575,-0.4062,-0.4204675,0.7435849999999999,-0.59308,0.3801225,0.764885,-0.54557,-0.0816425,-0.001305,0.00256,0.0816425,0.001305,-0.00256,-0.2271875,-0.139005,-0.37057,0.1594425,-0.145855,-0.39251,-0.1951375,-0.5295050000000001,-0.28254,0.1516725,-0.5252049999999999,-0.28395,1
68,-0.014512,0.6666399999999999,-0.340815,-0.1776,0.49349,-0.263305,-0.40153,0.54945,-0.4190149999999999,0.15979,0.50086,-0.274345,0.37787,0.5422399999999999,-0.410425,-0.4224299999999999,0.73844,-0.5961650000000001,0.37791,0.76023,-0.5504549999999999,-0.08157,-0.00136,0.0026049999999999,0.08157,0.0013599999999999,-0.0026049999999999,-0.22843,-0.13078,-0.373625,0.1577899999999999,-0.13879,-0.396065,-0.19683,-0.52102,-0.283865,0.1488799999999999,-0.51525,-0.281565,1
69,-0.0175805,0.6645,-0.34735,-0.1792205,0.491006,-0.2663,-0.4054005,0.54166,-0.42428,0.1581995,0.4989099999999999,-0.27823,0.3764595,0.53562,-0.41479,-0.4245705,0.73209,-0.59918,0.3755495,0.75377,-0.55615,-0.0815694999999999,-0.0015,0.0025999999999999,0.0815694999999999,0.0015,-0.0026,-0.2296405,-0.12332,-0.37641,0.1560995,-0.13223,-0.39948,-0.1985905,-0.5130600000000001,-0.28523,0.1459295,-0.5062500000000001,-0.27907,1
70,-0.0208605,0.661675,-0.353865,-0.1809625,0.488553,-0.2690749999999999,-0.4094625,0.534035,-0.429145,0.1563875,0.496939,-0.282005,0.3777575,0.526015,-0.421545,-0.4266025,0.724315,-0.602085,0.3731575,0.745715,-0.562055,-0.0815875,-0.0016749999999999,0.002645,0.0815875,0.0016749999999999,-0.0026449999999999,-0.2308825,-0.116295,-0.378795,0.1541475,-0.1264549999999999,-0.402575,-0.2001625,-0.505745,-0.286795,0.1431275,-0.498285,-0.276385,1
71,-0.0240895,0.6586449999999999,-0.3607599999999999,-0.1825535,0.485732,-0.2716699999999999,-0.4137734999999999,0.524985,-0.43399,0.1547464999999999,0.4945,-0.28588,0.3788865,0.517775,-0.42813,-0.4285535,0.715265,-0.6049599999999999,0.3704065,0.737545,-0.5674699999999999,-0.0816165,-0.001895,0.0027699999999999,0.0816165,0.0018949999999999,-0.0027699999999999,-0.2322135,-0.109585,-0.38073,0.1521565,-0.1206049999999999,-0.40523,-0.2010235,-0.497965,-0.2868699999999999,0.1402365,-0.490765,-0.27379,1
72,-0.0273595,0.655155,-0.36816,-0.1841674999999999,0.483324,-0.27449,-0.4178775,0.515046,-0.43853,0.1531325,0.491635,-0.28973,0.3796025,0.507403,-0.4344,-0.4305374999999999,0.7054549999999999,-0.60782,0.3676725,0.729005,-0.57289,-0.0816625,-0.0020649999999999,0.0028499999999999,0.0816625,0.002065,-0.0028499999999999,-0.2336975,-0.1031449999999999,-0.38242,0.1497625,-0.114665,-0.4078,-0.2018475,-0.4905549999999999,-0.28696,0.1385925,-0.483305,-0.27351,1
73,-0.0305585,0.6513549999999999,-0.375505,-0.1858075,0.480917,-0.276965,-0.4222074999999999,0.505026,-0.442945,0.1516925,0.48905,-0.293405,0.3801225,0.4983979999999999,-0.4402749999999999,-0.4323875,0.695495,-0.611085,0.3652025,0.718915,-0.577365,-0.0817025,-0.002215,0.002895,0.0817025,0.0022149999999999,-0.0028949999999999,-0.2349974999999999,-0.0969849999999999,-0.383735,0.1474625,-0.108805,-0.4099649999999999,-0.2023674999999999,-0.484025,-0.287245,0.1371625,-0.476095,-0.273425,1
74,-0.033366,0.647435,-0.382335,-0.187461,0.478377,-0.279235,-0.426521,0.495237,-0.446075,0.150109,0.48587,-0.297015,0.380779,0.490384,-0.445955,-0.434151,0.685265,-0.6135649999999999,0.3630089999999999,0.709505,-0.5819650000000001,-0.081739,-0.0023649999999999,0.002765,0.081739,0.002365,-0.0027649999999999,-0.2361609999999999,-0.0908449999999999,-0.384735,0.145279,-0.102765,-0.411805,-0.2031609999999999,-0.4773649999999999,-0.288315,0.135509,-0.4683349999999999,-0.2732549999999999,1
75,-0.0361299999999999,0.6433949999999999,-0.388495,-0.188989,0.4764859999999999,-0.281315,-0.431029,0.4849199999999999,-0.447515,0.1484909999999999,0.482488,-0.300695,0.381671,0.4833969999999999,-0.450965,-0.436129,0.675505,-0.615405,0.361081,0.700825,-0.587375,-0.081791,-0.002295,0.002665,0.081791,0.0022949999999999,-0.002665,-0.237399,-0.083635,-0.385325,0.143181,-0.0961549999999999,-0.4135749999999999,-0.204109,-0.469985,-0.289335,0.133941,-0.461325,-0.274095,1
76,-0.0386205,0.639465,-0.39366,-0.1903065,0.47572,-0.28327,-0.4350065,0.473848,-0.44742,0.1468635,0.4806769999999999,-0.3038,0.3829435,0.475686,-0.45519,-0.4379565,0.664855,-0.61623,0.3597535,0.691035,-0.59172,-0.0818435,-0.002275,0.0025699999999999,0.0818435,0.0022749999999999,-0.00257,-0.2377265,-0.076575,-0.38545,0.1414435,-0.089555,-0.41362,-0.2043565,-0.463035,-0.28924,0.1325435,-0.454495,-0.27472,1
77,-0.040927,0.635425,-0.39815,-0.191353,0.474037,-0.28544,-0.436013,0.466664,-0.44753,0.145447,0.478522,-0.30684,0.3842669999999999,0.470784,-0.45902,-0.439993,0.655895,-0.6162799999999999,0.358807,0.684115,-0.59587,-0.081917,-0.002365,0.00248,0.081917,0.002365,-0.0024799999999999,-0.2380229999999999,-0.0697149999999999,-0.3856,0.1398269999999999,-0.083265,-0.41369,-0.203393,-0.455875,-0.28747,0.131487,-0.4476949999999999,-0.27535,1
78,-0.043314,0.630175,-0.40259,-0.192421,0.471621,-0.28756,-0.437021,0.45816,-0.44779,0.1439089999999999,0.475759,-0.31001,0.385629,0.464169,-0.4626,-0.442611,0.645475,-0.61644,0.3580089999999999,0.676585,-0.5993999999999999,-0.081949,-0.0025149999999999,0.00253,0.081949,0.0025149999999999,-0.00253,-0.238411,-0.0631349999999999,-0.3859,0.1382989999999999,-0.077385,-0.41392,-0.201741,-0.449265,-0.28438,0.130519,-0.441115,-0.27599,1
79,-0.045778,0.6247,-0.40945,-0.193567,0.468701,-0.29241,-0.437627,0.4490449999999999,-0.45033,0.142373,0.472873,-0.31577,0.383703,0.4600849999999999,-0.46528,-0.4447569999999999,0.63506,-0.61917,0.357123,0.6699999999999999,-0.60528,-0.081993,-0.00274,0.0029399999999999,0.081993,0.0027399999999999,-0.0029399999999999,-0.238467,-0.05723,-0.38699,0.1362229999999999,-0.0722399999999999,-0.4165799999999999,-0.200017,-0.44275,-0.28305,0.129623,-0.43527,-0.27949,1
80,-0.048368,0.618215,-0.416405,-0.194588,0.464728,-0.297175,-0.438128,0.440106,-0.451345,0.140712,0.469423,-0.321405,0.3832419999999999,0.45409,-0.469055,-0.447228,0.6245350000000001,-0.622565,0.356152,0.662615,-0.611375,-0.082032,-0.002865,0.0031449999999999,0.082032,0.002865,-0.003145,-0.238088,-0.0524449999999999,-0.388155,0.134122,-0.067825,-0.418765,-0.198038,-0.437045,-0.281285,0.128762,-0.430115,-0.283325,1
81,-0.0510174999999999,0.6113850000000001,-0.42321,-0.1956635,0.460688,-0.3020899999999999,-0.4383435,0.430812,-0.45214,0.1390865,0.465658,-0.32698,0.3804665,0.449538,-0.47212,-0.4492835,0.613685,-0.62557,0.3552465,0.654645,-0.61781,-0.0820964999999999,-0.0029949999999999,0.00347,0.0820965,0.002995,-0.00347,-0.2373934999999999,-0.048235,-0.38925,0.1318965,-0.064025,-0.42062,-0.1962534999999999,-0.432215,-0.28074,0.1282365,-0.4256449999999999,-0.28767,1
82,-0.0538174999999999,0.603785,-0.429925,-0.1967585,0.456236,-0.3071049999999999,-0.4386885,0.420663,-0.4527549999999999,0.1374015,0.461178,-0.3325349999999999,0.3800815,0.44324,-0.476365,-0.4508985,0.602025,-0.628455,0.3542315,0.647795,-0.6242749999999999,-0.0821915,-0.0032749999999999,0.004035,0.0821915,0.003275,-0.0040349999999999,-0.2363885,-0.0443949999999999,-0.390175,0.1294515,-0.061265,-0.422315,-0.1939084999999999,-0.4281149999999999,-0.280015,0.1271515,-0.4221549999999999,-0.2922249999999999,1
83,-0.0566799999999999,0.596504,-0.43663,-0.197805,0.451368,-0.31224,-0.4389849999999999,0.41045,-0.45317,0.135835,0.457218,-0.33792,0.377085,0.435757,-0.48084,-0.452275,0.591189,-0.6308199999999999,0.352705,0.638265,-0.63133,-0.082295,-0.003645,0.00469,0.082295,0.003645,-0.00469,-0.235015,-0.040455,-0.39082,0.126575,-0.059115,-0.42396,-0.191855,-0.424215,-0.2801,0.126055,-0.418815,-0.29661,1
84,-0.059536,0.5884400000000001,-0.442975,-0.198992,0.4458460000000001,-0.3173249999999999,-0.439402,0.400455,-0.453175,0.134168,0.452048,-0.343205,0.376598,0.427342,-0.486085,-0.453302,0.5805370000000001,-0.6333249999999999,0.351108,0.6288450000000001,-0.637805,-0.082348,-0.0039449999999999,0.0054349999999999,0.082348,0.003945,-0.0054349999999999,-0.233492,-0.0374249999999999,-0.391445,0.1232979999999999,-0.0579649999999999,-0.425795,-0.189722,-0.4213049999999999,-0.2794169999999999,0.1252079999999999,-0.4161249999999999,-0.301155,1
85,-0.0623355,0.5808120000000001,-0.44935,-0.2003005,0.4401050000000001,-0.32234,-0.4395805,0.38854,-0.45332,0.1324894999999999,0.447003,-0.34857,0.3733694999999999,0.418987,-0.49143,-0.4540405,0.5697220000000001,-0.63561,0.3495494999999999,0.61926,-0.64445,-0.0823595,-0.0042599999999999,0.0063399999999999,0.0823595,0.00426,-0.00634,-0.2317604999999999,-0.0346699999999999,-0.392,0.1196195,-0.0570399999999999,-0.42754,-0.1878405,-0.4185199999999999,-0.279901,0.1243095,-0.4134399999999999,-0.30578,1
86,-0.0652105,0.572533,-0.456025,-0.2019515,0.434262,-0.327685,-0.4398014999999999,0.377795,-0.454915,0.1303685,0.4407609999999999,-0.3546249999999999,0.3696585,0.409899,-0.497095,-0.4550214999999999,0.559506,-0.639535,0.3474285,0.6088549999999999,-0.651825,-0.0823285,-0.004445,0.007065,0.0823285,0.004445,-0.0070649999999999,-0.2297615,-0.0326049999999999,-0.392775,0.1158185,-0.056085,-0.429135,-0.1878314999999999,-0.416145,-0.285047,0.1232285,-0.411815,-0.3107149999999999,1
87,-0.0682425,0.564234,-0.46297,-0.2037074999999999,0.429124,-0.33347,-0.4398575,0.36876,-0.45749,0.1281925,0.435574,-0.36085,0.3654325,0.4022,-0.50308,-0.4562275,0.55167,-0.6444799999999999,0.3446325,0.6000179999999999,-0.6588700000000001,-0.0823224999999999,-0.0046699999999999,0.00787,0.0823224999999999,0.0046699999999999,-0.0078699999999999,-0.2274675,-0.03027,-0.39338,0.1117825,-0.0549899999999999,-0.43072,-0.1872275,-0.41362,-0.289466,0.1222825,-0.4102099999999999,-0.31699,1
88,-0.0710204999999999,0.5566380000000001,-0.4670149999999999,-0.2053605,0.4243720000000001,-0.336785,-0.4400305,0.36201,-0.457725,0.1257695,0.4297620000000001,-0.364545,0.3613095,0.3945000000000001,-0.5062450000000001,-0.4571905,0.5451790000000001,-0.646455,0.3411495,0.591157,-0.663895,-0.0823994999999999,-0.0048399999999999,0.008335,0.0823995,0.00484,-0.008335,-0.2262905,-0.0275999999999999,-0.393635,0.1083295,-0.0528599999999999,-0.431775,-0.1855905,-0.4105799999999999,-0.289008,0.1215495,-0.4081299999999999,-0.320855,1
89,-0.0739325,0.550098,-0.470685,-0.2073155,0.4202939999999999,-0.340045,-0.4403555,0.3561249999999999,-0.457655,0.1231944999999999,0.424326,-0.368155,0.3567945,0.3878049999999999,-0.5089950000000001,-0.4583955,0.5378529999999999,-0.648395,0.3367945,0.583438,-0.668845,-0.0824645,-0.005055,0.0088949999999999,0.0824645,0.0050549999999999,-0.008895,-0.2256055,-0.024585,-0.393695,0.1048544999999999,-0.050445,-0.433155,-0.1846855,-0.406825,-0.289831,0.1207345,-0.405135,-0.324245,1
90,-0.076914,0.544292,-0.474145,-0.209303,0.415175,-0.343125,-0.440863,0.352095,-0.458265,0.1203769999999999,0.4193,-0.371535,0.352007,0.382515,-0.5125850000000001,-0.458953,0.532297,-0.6506350000000001,0.331707,0.576832,-0.674525,-0.082647,-0.0054449999999999,0.0093749999999999,0.082647,0.005445,-0.0093749999999999,-0.225243,-0.0210549999999999,-0.393665,0.101607,-0.0476649999999999,-0.434735,-0.184413,-0.4026349999999999,-0.29095,0.119867,-0.401845,-0.327835,1
91,-0.079684,0.539231,-0.477755,-0.211084,0.40989,-0.346595,-0.4422339999999999,0.34495,-0.458595,0.117546,0.41449,-0.375315,0.347266,0.37756,-0.516815,-0.459434,0.526853,-0.653045,0.326406,0.5707070000000001,-0.680895,-0.082936,-0.0057399999999999,0.009495,0.082936,0.00574,-0.009495,-0.225014,-0.0176399999999999,-0.394085,0.098826,-0.0445799999999999,-0.436825,-0.184274,-0.39896,-0.293391,0.1189559999999999,-0.399,-0.331555,1
92,-0.082343,0.5340860000000001,-0.481575,-0.212804,0.404855,-0.350225,-0.443684,0.338765,-0.459565,0.114896,0.408995,-0.379275,0.343426,0.373045,-0.521765,-0.460604,0.519818,-0.6553549999999999,0.320926,0.5666950000000001,-0.686075,-0.083216,-0.0059049999999999,0.009695,0.083216,0.005905,-0.0096949999999999,-0.224934,-0.014185,-0.3949749999999999,0.0966259999999999,-0.0414249999999999,-0.439235,-0.184254,-0.3955349999999999,-0.296253,0.117896,-0.396205,-0.335395,1
93,-0.084866,0.529255,-0.48585,-0.214392,0.39975,-0.3544,-0.4448519999999999,0.3325600000000001,-0.46124,0.112028,0.40315,-0.38353,0.339708,0.36873,-0.52755,-0.462182,0.511959,-0.65842,0.314688,0.5631090000000001,-0.69239,-0.0834979999999999,-0.0060299999999999,0.0098499999999999,0.083498,0.00603,-0.0098499999999999,-0.2249219999999999,-0.0106599999999998,-0.3964,0.094868,-0.0382699999999999,-0.4420699999999999,-0.184332,-0.3921899999999999,-0.299874,0.116738,-0.3929499999999999,-0.33957,1
94,-0.087261,0.524412,-0.490085,-0.215724,0.394325,-0.358625,-0.445844,0.3279849999999999,-0.462845,0.1093159999999999,0.397835,-0.387895,0.336236,0.365025,-0.533695,-0.464274,0.5041640000000001,-0.662515,0.3080859999999999,0.559795,-0.699045,-0.083826,-0.006135,0.0100249999999999,0.083826,0.006135,-0.010025,-0.224954,-0.007205,-0.397975,0.0936059999999999,-0.035135,-0.445015,-0.185574,-0.389215,-0.305809,0.1161159999999999,-0.3890949999999999,-0.343975,1
95,-0.0893705,0.519579,-0.49353,-0.2166175,0.38854,-0.36257,-0.4465875,0.32282,-0.4642,0.1071625,0.39334,-0.39192,0.3329425,0.36124,-0.53908,-0.4664975,0.496077,-0.66648,0.3015124999999999,0.556602,-0.70546,-0.0841625,-0.0063199999999999,0.0103199999999999,0.0841625,0.0063199999999999,-0.01032,-0.2250375,-0.00409,-0.3996,0.0928624999999999,-0.03226,-0.44817,-0.1867375,-0.38661,-0.311539,0.1156325,-0.38552,-0.34805,1
96,-0.091081,0.5152,-0.49717,-0.217304,0.383015,-0.36667,-0.447204,0.317505,-0.4667599999999999,0.104856,0.387825,-0.39605,0.329656,0.356905,-0.54491,-0.468694,0.487709,-0.67075,0.2947059999999999,0.551045,-0.71243,-0.0844659999999999,-0.006495,0.01041,0.084466,0.006495,-0.01041,-0.2252239999999999,-0.0012149999999999,-0.40202,0.092346,-0.029475,-0.45184,-0.187354,-0.3840549999999999,-0.31618,0.114956,-0.3823149999999999,-0.35192,1
97,-0.0925505,0.510832,-0.50041,-0.2177275,0.3769699999999999,-0.37087,-0.4475175,0.31135,-0.46818,0.1028625,0.38337,-0.40018,0.3262425,0.35334,-0.55064,-0.4710474999999999,0.479113,-0.67546,0.2883525,0.54633,-0.71946,-0.0847325,-0.0068,0.01048,0.0847325,0.0068,-0.0104799999999999,-0.2254675,0.00136,-0.4049999999999999,0.0919524999999999,-0.02655,-0.4555599999999999,-0.1880075,-0.3819,-0.3206429999999999,0.1143025,-0.3791299999999999,-0.35572,1
98,-0.0936285,0.5063679999999999,-0.5033449999999999,-0.2180585,0.37131,-0.375115,-0.4477285,0.3050699999999999,-0.469775,0.1009114999999999,0.3790699999999999,-0.404255,0.3225115,0.3496399999999999,-0.556415,-0.4727385,0.4719319999999999,-0.680455,0.2825315,0.5415249999999999,-0.726615,-0.0849315,-0.0070999999999999,0.010525,0.0849315,0.0070999999999999,-0.0105249999999999,-0.2255285,0.0036199999999999,-0.408315,0.0916515,-0.02356,-0.459195,-0.1880785,-0.37992,-0.3245949999999999,0.1141814999999999,-0.37688,-0.360605,1
99,-0.0942875,0.501881,-0.506205,-0.2182275,0.36669,-0.3793649999999999,-0.4475575,0.29785,-0.471835,0.0990625,0.37445,-0.408405,0.3187725,0.34594,-0.562885,-0.4739275,0.464418,-0.685555,0.2770825,0.5368120000000001,-0.734375,-0.0851224999999999,-0.0072699999999999,0.0105949999999999,0.0851225,0.0072699999999999,-0.0105949999999999,-0.2252874999999999,0.00555,-0.412055,0.0915125,-0.0211799999999999,-0.462845,-0.1883375,-0.37817,-0.328974,0.1142725,-0.3751799999999999,-0.365425,1
100,-0.0945785,0.497748,-0.5087900000000001,-0.2182985,0.362385,-0.38305,-0.4475985,0.294805,-0.47445,0.0974714999999999,0.370215,-0.41198,0.3157415,0.343195,-0.5685800000000001,-0.4748485,0.458509,-0.6901200000000001,0.2724815,0.5327540000000001,-0.74101,-0.0853315,-0.0073849999999999,0.0107999999999999,0.0853315,0.007385,-0.0108,-0.2249685,0.007355,-0.41558,0.0915314999999999,-0.0193349999999999,-0.46594,-0.1876685,-0.3763949999999999,-0.331367,0.1143714999999999,-0.3735149999999999,-0.36964,1
101,-0.0946335,0.493959,-0.510875,-0.2181125,0.358885,-0.386245,-0.4475425,0.291695,-0.476695,0.0959575,0.366665,-0.415065,0.3135075,0.340745,-0.5735950000000001,-0.4748525,0.454653,-0.693265,0.2689975,0.528946,-0.746785,-0.0856375,-0.007525,0.0107949999999999,0.0856375,0.007525,-0.0107949999999999,-0.2244225,0.009125,-0.4187849999999999,0.0918975,-0.0175849999999999,-0.468695,-0.1874225,-0.375255,-0.334087,0.1144574999999999,-0.3720249999999999,-0.373315,1
102,-0.094694,0.4907149999999999,-0.5115449999999999,-0.217975,0.3559449999999999,-0.388125,-0.447635,0.2885149999999999,-0.478025,0.0950649999999999,0.3644349999999999,-0.416725,0.311825,0.3387749999999999,-0.576705,-0.474955,0.4514149999999999,-0.6946749999999999,0.2666849999999999,0.5257259999999999,-0.7501249999999999,-0.085675,-0.007715,0.010755,0.085675,0.0077149999999999,-0.0107549999999999,-0.223995,0.0104549999999999,-0.420525,0.0921549999999999,-0.016055,-0.470035,-0.187905,-0.3748250000000001,-0.336603,0.113985,-0.370275,-0.374575,1
103,-0.0946269999999999,0.4884419999999999,-0.5117750000000001,-0.217613,0.3540599999999999,-0.389425,-0.446133,0.2868099999999999,-0.479175,0.094587,0.3630699999999999,-0.417805,0.311077,0.3377899999999999,-0.578955,-0.474983,0.4492999999999999,-0.6964950000000001,0.265457,0.5247219999999999,-0.7523850000000001,-0.085877,-0.00795,0.0104249999999999,0.085877,0.0079499999999999,-0.010425,-0.223323,0.0116799999999999,-0.421575,0.092677,-0.0147,-0.470625,-0.187943,-0.37475,-0.338675,0.113687,-0.36875,-0.375245,1
104,-0.0943515,0.4872919999999999,-0.51186,-0.2169545,0.35314,-0.3901,-0.4444245,0.28612,-0.4798099999999999,0.0945854999999999,0.3623999999999999,-0.41839,0.3112555,0.3378799999999999,-0.58073,-0.4747445,0.4488,-0.6982200000000001,0.2652354999999999,0.524841,-0.75347,-0.0861055,-0.00816,0.01006,0.0861055,0.0081599999999999,-0.0100599999999999,-0.2222945,0.0128699999999999,-0.4220199999999999,0.0934754999999999,-0.01344,-0.4706399999999999,-0.1877645,-0.37456,-0.3403589999999999,0.1142755,-0.36805,-0.37637,1
105,-0.094032,0.4878999999999999,-0.51147,-0.216385,0.3540899999999999,-0.39022,-0.442945,0.2866299999999999,-0.47985,0.0947649999999999,0.3640499999999999,-0.41862,0.311395,0.3395699999999999,-0.58151,-0.473925,0.4502999999999999,-0.6990000000000001,0.265425,0.526531,-0.7534799999999999,-0.086265,-0.00833,0.01007,0.086265,0.0083299999999999,-0.0100699999999999,-0.221265,0.0144999999999999,-0.42198,0.094285,-0.01175,-0.47025,-0.187555,-0.3736400000000001,-0.341421,0.114465,-0.36665,-0.37629,1
106,-0.0936605,0.48952,-0.51149,-0.2159025,0.3557099999999999,-0.39032,-0.4420725,0.28825,-0.4799,0.0948075,0.36567,-0.4188199999999999,0.3114174999999999,0.34119,-0.58202,-0.4728125,0.45192,-0.6991700000000001,0.2654775,0.528151,-0.7534799999999999,-0.0862675,-0.0084699999999999,0.01007,0.0862675,0.0084699999999999,-0.0100699999999999,-0.2200625,0.0160599999999999,-0.4221,0.0951175,-0.01002,-0.46997,-0.1869624999999999,-0.3727199999999999,-0.342218,0.1145574999999999,-0.36493,-0.3760799999999999,1
107,-0.0928695,0.49134,-0.51154,-0.2153324999999999,0.35753,-0.39038,-0.4412425,0.29007,-0.4800999999999999,0.0949575,0.36749,-0.41889,0.3117375,0.34301,-0.58204,-0.4713125,0.45374,-0.69926,0.2656374999999999,0.5299710000000001,-0.75349,-0.0863075,-0.0083699999999999,0.01007,0.0863075,0.0083700000000001,-0.0100699999999999,-0.2187724999999999,0.01787,-0.42242,0.0958975,-0.0080099999999999,-0.46989,-0.1862925,-0.3712099999999999,-0.343011,0.1149775,-0.36295,-0.37636,1
108,-0.0917955,0.4929849999999999,-0.51092,-0.2147915,0.3591749999999999,-0.3897199999999999,-0.4405415,0.2917149999999999,-0.47951,0.0954084999999999,0.3691349999999999,-0.4184299999999999,0.3125485,0.3453849999999999,-0.58141,-0.4698015,0.4553849999999999,-0.6989799999999999,0.2662485,0.5338379999999999,-0.7526999999999999,-0.0863285,-0.007975,0.01006,0.0863285,0.0079749999999999,-0.0100599999999999,-0.2177715,0.0195149999999999,-0.42198,0.0966785,-0.005935,-0.46912,-0.1860115,-0.369565,-0.343002,0.1156484999999999,-0.361315,-0.37636,1
109,-0.090374,0.4941270000000001,-0.5093650000000001,-0.214217,0.360595,-0.388055,-0.440067,0.292945,-0.478385,0.096263,0.370415,-0.416945,0.314093,0.347565,-0.5797950000000001,-0.468237,0.456745,-0.697395,0.267413,0.53732,-0.750575,-0.086263,-0.0075849999999999,0.0098949999999999,0.0862629999999999,0.007585,-0.009895,-0.216917,0.019905,-0.420535,0.0975529999999999,-0.0048749999999999,-0.467445,-0.1845069999999999,-0.3686049999999999,-0.340218,0.1162329999999999,-0.3609249999999999,-0.374385,1
110,-0.089076,0.496683,-0.507095,-0.213789,0.3633050000000001,-0.3854449999999999,-0.439849,0.294605,-0.476375,0.097391,0.372705,-0.4143949999999999,0.316611,0.349535,-0.5771949999999999,-0.466919,0.4597650000000001,-0.6951749999999999,0.268721,0.5411680000000001,-0.746975,-0.086201,-0.0075849999999999,0.009645,0.086201,0.007585,-0.0096449999999999,-0.216429,0.019935,-0.418075,0.098021,-0.0042249999999999,-0.4647549999999999,-0.183179,-0.3677549999999999,-0.335831,0.1165509999999999,-0.3609249999999999,-0.3714149999999999,1
111,-0.0875145,0.5014550000000001,-0.503835,-0.2132665,0.367835,-0.381985,-0.4398065,0.297975,-0.473455,0.0988035,0.3766250000000001,-0.4111249999999999,0.3189735,0.353535,-0.572735,-0.4653365,0.4661640000000001,-0.691575,0.2707235,0.5460750000000001,-0.741415,-0.0861135,-0.0075849999999999,0.0092049999999999,0.0861135,0.007585,-0.0092049999999999,-0.2161165,0.020025,-0.415535,0.0984035,-0.0035849999999999,-0.461295,-0.1831065,-0.366965,-0.332351,0.1170335,-0.360475,-0.368045,1
112,-0.086195,0.507903,-0.499945,-0.21319,0.3742499999999999,-0.377945,-0.43974,0.30326,-0.469515,0.10028,0.3821799999999999,-0.407435,0.32159,0.3585499999999999,-0.567805,-0.46383,0.4733099999999999,-0.6871149999999999,0.27274,0.5520799999999999,-0.735445,-0.08603,-0.0075,0.0087849999999999,0.08603,0.0074999999999999,-0.008785,-0.216,0.0200799999999999,-0.412655,0.0987199999999999,-0.00299,-0.457365,-0.18222,-0.36591,-0.326662,0.11747,-0.3604,-0.364365,1
113,-0.084891,0.514453,-0.49585,-0.2131779999999999,0.38048,-0.37364,-0.439788,0.30734,-0.46628,0.101782,0.38754,-0.40354,0.323612,0.3625,-0.5625800000000001,-0.462618,0.481663,-0.68206,0.274522,0.5573980000000001,-0.72936,-0.085862,-0.0075299999999999,0.0082499999999999,0.085862,0.00753,-0.00825,-0.2160679999999999,0.01745,-0.40957,0.098962,-0.0050699999999999,-0.45323,-0.1818679999999999,-0.3671699999999999,-0.320856,0.117422,-0.3622899999999999,-0.35971,1
114,-0.083661,0.521891,-0.492535,-0.213003,0.3867899999999999,-0.3699449999999999,-0.440043,0.3122,-0.463555,0.102877,0.39288,-0.400175,0.325247,0.36787,-0.559225,-0.461553,0.489989,-0.677995,0.275877,0.562879,-0.724185,-0.085687,-0.00739,0.007735,0.085687,0.00739,-0.0077349999999999,-0.216203,0.0140899999999999,-0.407255,0.0991169999999999,-0.00812,-0.449945,-0.181883,-0.36933,-0.316361,0.117337,-0.36513,-0.3559049999999999,1
115,-0.0827465,0.5290590000000001,-0.4887,-0.2129285,0.3947,-0.36602,-0.4404685,0.31828,-0.46023,0.1037515,0.39808,-0.39681,0.3260615,0.37257,-0.55587,-0.4612684999999999,0.497908,-0.6738,0.2768515,0.566388,-0.71909,-0.0853015,-0.0071299999999999,0.0075399999999999,0.0853015,0.0071299999999999,-0.0075399999999999,-0.2163584999999999,0.0093999999999999,-0.40493,0.0990915,-0.0129299999999999,-0.44667,-0.1821185,-0.37382,-0.313663,0.1171514999999999,-0.36971,-0.35201,1
116,-0.0820575,0.538304,-0.485095,-0.2130044999999999,0.4021349999999999,-0.3623349999999999,-0.4410245,0.3270749999999999,-0.457075,0.1043055,0.4024049999999999,-0.393665,0.3266455,0.3786349999999999,-0.552495,-0.4609945,0.506045,-0.669665,0.2774454999999999,0.5726749999999999,-0.7140949999999999,-0.0848754999999999,-0.006825,0.0073749999999999,0.0848754999999999,0.0068249999999999,-0.0073749999999999,-0.2165745,0.0043249999999999,-0.403005,0.0990555,-0.018095,-0.443735,-0.1827645,-0.3782850000000001,-0.311247,0.1173555,-0.3746250000000001,-0.348785,1
117,-0.081591,0.5463220000000001,-0.4813,-0.213147,0.4089500000000001,-0.35817,-0.441757,0.3335100000000001,-0.4543,0.104763,0.4096100000000001,-0.39038,0.327273,0.3851500000000001,-0.54877,-0.460827,0.512762,-0.66536,0.278193,0.5791210000000001,-0.7092400000000001,-0.084703,-0.0065999999999999,0.0067799999999999,0.084703,0.0066,-0.00678,-0.217117,-0.0037699999999999,-0.401,0.099173,-0.0257899999999998,-0.44077,-0.183037,-0.3852499999999998,-0.307841,0.1176629999999999,-0.3826399999999998,-0.34574,1
118,-0.081176,0.553718,-0.477345,-0.213071,0.41522,-0.354225,-0.442761,0.3390000000000001,-0.451805,0.105189,0.4147600000000001,-0.387375,0.327869,0.39077,-0.544675,-0.460671,0.5198210000000001,-0.660855,0.278899,0.584744,-0.7044250000000001,-0.084479,-0.0061299999999999,0.006305,0.084479,0.00613,-0.006305,-0.218031,-0.0142799999999999,-0.399455,0.099449,-0.0358999999999999,-0.438125,-0.183761,-0.3950899999999999,-0.305652,0.117919,-0.3928699999999999,-0.342765,1
119,-0.081283,0.5606380000000001,-0.47371,-0.213466,0.4202640000000001,-0.35048,-0.444416,0.3435800000000001,-0.44972,0.1050039999999999,0.419099,-0.38458,0.327954,0.39581,-0.5409999999999999,-0.460566,0.5291170000000001,-0.6566000000000001,0.279174,0.5898300000000001,-0.6997599999999999,-0.084344,-0.0059099999999999,0.0059899999999999,0.084344,0.00591,-0.0059899999999999,-0.219496,-0.0268199999999999,-0.39819,0.0994839999999999,-0.0478999999999999,-0.43594,-0.184966,-0.40706,-0.303136,0.1175739999999999,-0.4049099999999999,-0.33979,1
120,-0.081183,0.568352,-0.466425,-0.213618,0.4256479999999999,-0.343685,-0.446618,0.3527949999999999,-0.444555,0.105052,0.4246069999999999,-0.3783149999999999,0.327942,0.4015909999999999,-0.534365,-0.460518,0.536446,-0.649075,0.279292,0.5966149999999999,-0.692295,-0.084152,-0.005935,0.0058249999999999,0.084152,0.0059349999999999,-0.0058249999999999,-0.222098,-0.039865,-0.395765,0.100022,-0.060005,-0.433065,-0.186868,-0.419945,-0.299321,0.117862,-0.417375,-0.333825,1
121,-0.0810994999999999,0.5773,-0.458695,-0.2142155,0.431493,-0.336445,-0.4489255,0.36217,-0.438005,0.1050245,0.431248,-0.371455,0.3280745,0.408681,-0.527115,-0.4606355,0.545204,-0.641335,0.2791845,0.60402,-0.684475,-0.0839445,-0.0059199999999999,0.0055849999999999,0.0839445,0.00592,-0.005585,-0.2250154999999999,-0.0525399999999999,-0.392435,0.1005644999999999,-0.0723399999999999,-0.428825,-0.1898754999999999,-0.43316,-0.296538,0.1180645,-0.4300799999999999,-0.328475,1
122,-0.0808175,0.58794,-0.450305,-0.2144365,0.43852,-0.328805,-0.4511265,0.374105,-0.430765,0.1052734999999999,0.439285,-0.364095,0.3284535,0.417111,-0.5196350000000001,-0.4608365,0.5542210000000001,-0.633235,0.2794735,0.6126,-0.676195,-0.0838235,-0.0054899999999999,0.005395,0.0838235,0.0054899999999999,-0.005395,-0.2277665,-0.0640999999999999,-0.388355,0.1013834999999999,-0.08296,-0.424145,-0.1924965,-0.4457099999999999,-0.293112,0.1185135,-0.44164,-0.322325,1
123,-0.0802975,0.59893,-0.4413049999999999,-0.2143824999999999,0.445986,-0.3209149999999999,-0.4527425,0.386201,-0.423015,0.1059774999999999,0.4476179999999999,-0.355835,0.3290475,0.427992,-0.511975,-0.4611024999999999,0.56495,-0.624085,0.2802275,0.62386,-0.6675249999999999,-0.0837975,-0.0052599999999999,0.005035,0.0837975,0.0052599999999999,-0.0050349999999999,-0.2299625,-0.07597,-0.3838549999999999,0.1026774999999999,-0.09341,-0.418435,-0.1945325,-0.4590599999999999,-0.289425,0.1188775,-0.45404,-0.3158149999999999,1
124,-0.079619,0.611515,-0.431165,-0.214297,0.452752,-0.312545,-0.454577,0.398287,-0.414765,0.106903,0.45646,-0.347225,0.329403,0.4383539999999999,-0.503725,-0.461877,0.5768249999999999,-0.612985,0.280973,0.634705,-0.6582049999999999,-0.083843,-0.005475,0.0043449999999999,0.083843,0.005475,-0.004345,-0.231887,-0.090485,-0.378755,0.104013,-0.1055749999999999,-0.412695,-0.196927,-0.474605,-0.286804,0.119783,-0.469855,-0.310585,1
125,-0.0789525,0.6212449999999999,-0.4204799999999999,-0.2141055,0.460001,-0.30405,-0.4551655,0.4073279999999999,-0.40648,0.1078445,0.4646679999999999,-0.33832,0.3303845,0.4467239999999999,-0.49493,-0.4628655,0.588295,-0.60196,0.2818645,0.6433949999999999,-0.64798,-0.0838545,-0.005135,0.0037,0.0838545,0.005135,-0.0037,-0.2335255,-0.105655,-0.37338,0.1054045,-0.118335,-0.4065499999999999,-0.1991454999999999,-0.490815,-0.28363,0.1208145,-0.486145,-0.30534,1
126,-0.07794,0.631035,-0.408395,-0.213555,0.466203,-0.295655,-0.456755,0.417351,-0.398545,0.108835,0.470944,-0.329265,0.331485,0.454537,-0.485805,-0.463765,0.599915,-0.590325,0.282765,0.651645,-0.637705,-0.083825,-0.0051049999999999,0.0032049999999999,0.083825,0.005105,-0.003205,-0.234595,-0.1207949999999999,-0.367445,0.1067049999999999,-0.131305,-0.400055,-0.199585,-0.507085,-0.277549,0.121855,-0.502435,-0.300435,1
127,-0.0761334999999999,0.64037,-0.396135,-0.2121994999999999,0.472249,-0.286865,-0.4575695,0.4286169999999999,-0.390785,0.1104105,0.477842,-0.319855,0.3324005,0.464574,-0.476585,-0.4640695,0.61186,-0.578775,0.2842604999999999,0.6602399999999999,-0.627435,-0.0837405,-0.0050499999999999,0.0026549999999999,0.0837405,0.0050499999999999,-0.0026549999999999,-0.2352495,-0.1352899999999999,-0.361155,0.1083205,-0.14311,-0.393285,-0.2013194999999999,-0.5228200000000001,-0.274495,0.1235605,-0.518,-0.294705,1
128,-0.0738205,0.6495850000000001,-0.383425,-0.2107235,0.478485,-0.277845,-0.4577135,0.439882,-0.381645,0.1121365,0.482645,-0.3103249999999999,0.3339665,0.474795,-0.466715,-0.4639235,0.6200650000000001,-0.567085,0.2855865,0.6705650000000001,-0.617115,-0.0835265,-0.004695,0.0020749999999999,0.0835265,0.004695,-0.0020749999999999,-0.2359135,-0.149495,-0.354695,0.1099665,-0.154975,-0.386215,-0.2030334999999999,-0.538605,-0.271785,0.1254765,-0.5336749999999999,-0.289675,1
129,-0.0713415,0.656765,-0.37367,-0.2094515,0.483425,-0.27143,-0.4572815,0.448695,-0.37553,0.1140384999999999,0.490055,-0.30329,0.3352885,0.482525,-0.4574499999999999,-0.4638315,0.6302449999999999,-0.55811,0.2877285,0.679415,-0.60799,-0.0834385,-0.004695,0.00156,0.0834385,0.004695,-0.0015599999999999,-0.2348215,-0.164925,-0.35052,0.1113085,-0.167735,-0.38205,-0.2044315,-0.5556350000000001,-0.27059,0.1274684999999999,-0.550225,-0.28734,1
130,-0.068572,0.6649700000000001,-0.36348,-0.208341,0.48646,-0.26553,-0.456201,0.45745,-0.36999,0.115919,0.49537,-0.29693,0.336539,0.49178,-0.44963,-0.463931,0.6407700000000001,-0.54917,0.289899,0.68877,-0.59843,-0.083439,-0.00494,0.00115,0.083439,0.00494,-0.00115,-0.2340709999999999,-0.17983,-0.34665,0.112459,-0.1797599999999999,-0.3779,-0.2043809999999999,-0.5715300000000001,-0.26795,0.1290589999999999,-0.56603,-0.28581,1
131,-0.065661,0.6714549999999999,-0.35299,-0.206733,0.492805,-0.2588,-0.455153,0.4657949999999999,-0.3650799999999999,0.118037,0.500065,-0.2903599999999999,0.337937,0.499575,-0.44125,-0.463813,0.650835,-0.5399499999999999,0.292227,0.697875,-0.58853,-0.083247,-0.004635,0.00073,0.083247,0.004635,-0.0007299999999999,-0.233033,-0.193265,-0.34256,0.1138069999999999,-0.192795,-0.37302,-0.204123,-0.586165,-0.26393,0.130587,-0.582415,-0.2837199999999999,1
132,-0.0624605,0.678465,-0.342395,-0.2051245,0.497865,-0.252105,-0.4539145,0.474325,-0.357865,0.1201655,0.504645,-0.283705,0.3396655,0.505105,-0.432405,-0.4637545,0.660255,-0.5311049999999999,0.2950455,0.7051149999999999,-0.577935,-0.0829755,-0.004375,0.0005549999999999,0.0829755,0.004375,-0.0005549999999999,-0.2318145,-0.207305,-0.335895,0.1153355,-0.206165,-0.365255,-0.2038045,-0.6007849999999999,-0.260005,0.1319355,-0.5983149999999999,-0.281725,1
133,-0.0589905,0.68502,-0.33332,-0.2036025,0.5004299999999999,-0.24605,-0.4527725,0.48424,-0.3519299999999999,0.1222575,0.50905,-0.27714,0.3416875,0.51139,-0.42371,-0.4629525,0.67052,-0.52336,0.2981375,0.71322,-0.56791,-0.0825775,-0.00404,0.00045,0.0825775,0.0040399999999999,-0.00045,-0.2301325,-0.21825,-0.3295099999999999,0.1166675,-0.21689,-0.35802,-0.2032025,-0.6126900000000001,-0.2546899999999999,0.1331375,-0.61021,-0.27885,1
134,-0.05506,0.69224,-0.32401,-0.20128,0.50484,-0.239,-0.45116,0.49325,-0.34559,0.12499,0.51407,-0.27022,0.34409,0.51865,-0.41476,-0.4614999999999999,0.68055,-0.51541,0.30198,0.7208300000000001,-0.55852,-0.08225,-0.00378,0.00037,0.08225,0.00378,-0.00037,-0.22748,-0.2301599999999999,-0.32233,0.11846,-0.22796,-0.35051,-0.2021,-0.62548,-0.24944,0.1348299999999999,-0.6227,-0.27453,1
135,-0.0509125,0.70041,-0.316135,-0.1989574999999999,0.50895,-0.2324449999999999,-0.4495875,0.50291,-0.3398449999999999,0.1281025,0.51725,-0.263425,0.3473124999999999,0.52471,-0.406485,-0.4598875,0.69167,-0.507665,0.3063524999999999,0.72741,-0.549185,-0.0818725,-0.0033499999999999,0.000445,0.0818725,0.0033499999999999,-0.0004449999999999,-0.2246175,-0.24122,-0.314945,0.1204725,-0.2386199999999999,-0.343125,-0.2011375,-0.63752,-0.244585,0.1370025,-0.63432,-0.270425,1
136,-0.0466835,0.708645,-0.30811,-0.1965825,0.513545,-0.225443,-0.4477525,0.511855,-0.33418,0.1312775,0.5209250000000001,-0.25639,0.3502875,0.5299750000000001,-0.39744,-0.4584625,0.702615,-0.49974,0.3115175,0.735825,-0.53765,-0.0815174999999999,-0.0030349999999999,0.0005699999999999,0.0815174999999999,0.003035,-0.00057,-0.2218625,-0.2506549999999999,-0.30657,0.1222274999999999,-0.2484549999999999,-0.33507,-0.2002925,-0.647785,-0.23992,0.1390075,-0.6449750000000001,-0.26626,1
137,-0.0428505,0.71707,-0.2999199999999999,-0.1942785,0.51769,-0.218517,-0.4457485,0.52243,-0.3289499999999999,0.1345715,0.52747,-0.24931,0.3529215,0.53546,-0.38824,-0.4572385,0.71454,-0.49164,0.3163415,0.7444999999999999,-0.52522,-0.0813315,-0.0029899999999999,0.0007699999999999,0.0813315,0.0029899999999999,-0.0007699999999999,-0.2189984999999999,-0.25981,-0.29797,0.1238115,-0.25804,-0.3265099999999999,-0.1994085,-0.65783,-0.23515,0.1408715,-0.6553800000000001,-0.26188,1
138,-0.038943,0.725895,-0.29145,-0.192065,0.521415,-0.211424,-0.443725,0.530275,-0.32321,0.137645,0.529785,-0.24245,0.355395,0.5421050000000001,-0.38009,-0.455995,0.725105,-0.4833499999999999,0.321005,0.7512449999999999,-0.51431,-0.0811149999999999,-0.002425,0.001,0.0811149999999999,0.0024249999999999,-0.001,-0.216085,-0.269035,-0.28818,0.125585,-0.268165,-0.31692,-0.198475,-0.667605,-0.22998,0.142595,-0.666245,-0.25664,1
139,-0.0348095,0.7323999999999999,-0.2832,-0.1895655,0.5271399999999999,-0.2039699999999999,-0.4416355,0.53865,-0.31767,0.1409645,0.5327999999999999,-0.2353299999999999,0.3588045,0.54599,-0.37143,-0.4544455,0.7351399999999999,-0.47514,0.3260745,0.7573399999999999,-0.50454,-0.0807745,-0.00154,0.00136,0.0807745,0.0015399999999999,-0.00136,-0.2127655,-0.27884,-0.27742,0.1276245,-0.27923,-0.30654,-0.1970655,-0.6783300000000001,-0.22518,0.1444645,-0.6786300000000001,-0.25043,1
140,-0.0306435,0.737805,-0.27379,-0.1872605,0.528565,-0.1976129999999999,-0.4397905,0.546985,-0.31401,0.1442695,0.5361750000000001,-0.22886,0.3616695,0.551805,-0.364,-0.4527905,0.744815,-0.46754,0.3313795,0.764275,-0.49544,-0.0803715,-0.0012649999999999,0.0017599999999999,0.0803715,0.001265,-0.0017599999999999,-0.2092905,-0.289535,-0.26578,0.1296594999999999,-0.2899549999999999,-0.29559,-0.1951405,-0.689745,-0.21911,0.1460195,-0.6898549999999999,-0.24429,1
141,-0.026524,0.74076,-0.263745,-0.184847,0.53182,-0.191259,-0.437217,0.55484,-0.309295,0.147743,0.53806,-0.223095,0.364013,0.5569,-0.357115,-0.451087,0.7546999999999999,-0.459735,0.336743,0.7706799999999999,-0.486525,-0.079996,-0.0007199999999999,0.002125,0.079996,0.0007199999999999,-0.002125,-0.205437,-0.30299,-0.253225,0.131763,-0.3003,-0.2840749999999999,-0.193007,-0.7032,-0.212975,0.147693,-0.70111,-0.238095,1
142,-0.0224735,0.7414499999999999,-0.253435,-0.1822595,0.53552,-0.185199,-0.4344495,0.5612999999999999,-0.304055,0.1512505,0.53815,-0.217985,0.3678505,0.56244,-0.350415,-0.4495595,0.76403,-0.453225,0.3422105,0.77982,-0.476005,-0.0797365,0.0001299999999999,0.0025649999999999,0.0797365,-0.00013,-0.002565,-0.2008395,-0.31595,-0.239675,0.1329205,-0.31061,-0.270195,-0.1905795,-0.71616,-0.206322,0.1496105,-0.71214,-0.231985,1
143,-0.018833,0.74065,-0.24414,-0.180249,0.5385,-0.1795189999999999,-0.432589,0.56963,-0.2991,0.154681,0.5419,-0.21199,0.369751,0.56736,-0.34372,-0.448489,0.77279,-0.44616,0.3469109999999999,0.7867799999999999,-0.46566,-0.079381,0.00037,0.0029399999999999,0.079381,-0.0003699999999999,-0.0029399999999999,-0.196369,-0.3283,-0.22493,0.133071,-0.3229499999999999,-0.25461,-0.188189,-0.72792,-0.198591,0.150621,-0.72448,-0.22402,1
144,-0.0155314999999999,0.73924,-0.2346085,-0.1783865,0.5415300000000001,-0.1740255,-0.4301965,0.57798,-0.2938885,0.1577235,0.54483,-0.2065385,0.3729035,0.57318,-0.3373785,-0.4476464999999999,0.78093,-0.4398685,0.3510835,0.7948200000000001,-0.4553885,-0.0792065,0.00088,0.0032314999999999,0.0792065,-0.00088,-0.0032314999999999,-0.1894865,-0.3396,-0.2059985,0.1324235,-0.33404,-0.2378285,-0.1843465,-0.73901,-0.1888834999999999,0.1513135,-0.73557,-0.2157085,1
145,-0.0124739999999999,0.736307,-0.219597,-0.176698,0.541897,-0.163685,-0.429178,0.584807,-0.284697,0.160512,0.546597,-0.196037,0.375672,0.577297,-0.326207,-0.446918,0.7882170000000001,-0.428177,0.3545919999999999,0.799917,-0.442157,-0.079035,0.001403,0.00347,0.079035,-0.001403,-0.00347,-0.1825679999999999,-0.354083,-0.182649,0.131412,-0.3469129999999999,-0.2142069999999999,-0.181308,-0.7528429999999999,-0.1770499999999999,0.152122,-0.748443,-0.2005569999999999,1
146,-0.0093465,0.7391835,-0.203644,-0.1748154999999999,0.5450835,-0.1516799999999999,-0.4275855,0.5909435,-0.272194,0.1631545,0.5461735000000001,-0.184036,0.3781644999999999,0.5799335,-0.313574,-0.4459355,0.7938735,-0.415254,0.3583645,0.8028535,-0.427594,-0.0788254999999999,0.0015015,0.00382,0.0788254999999999,-0.0015014999999999,-0.00382,-0.1744554999999999,-0.3724265,-0.15683,0.1303545,-0.3685265,-0.187544,-0.1771454999999999,-0.7679465,-0.160775,0.1528645,-0.7645365,-0.184814,1
147,-0.0064574999999999,0.741878,-0.1881939999999999,-0.1731135,0.548188,-0.1404429999999999,-0.4254335,0.596558,-0.260294,0.1654865,0.545938,-0.172794,0.3803065,0.583018,-0.301604,-0.4451935,0.7994380000000001,-0.403114,0.3619965,0.807238,-0.4133239999999999,-0.0785815,0.0014969999999999,0.004034,0.0785815,-0.0014969999999999,-0.0040339999999999,-0.1661834999999999,-0.391872,-0.1315609999999999,0.1291565,-0.389062,-0.162319,-0.1730535,-0.7827419999999999,-0.1448439999999999,0.1533465,-0.7798419999999999,-0.170455,1
148,-0.003962,0.7447475,-0.172871,-0.171625,0.5502175,-0.1290649999999999,-0.423865,0.6035375,-0.247521,0.167715,0.5455475000000001,-0.1613689999999999,0.382345,0.5863275,-0.289501,-0.444705,0.8045175,-0.3902009999999999,0.365195,0.8118675,-0.398481,-0.078417,0.0015024999999999,0.004152,0.078417,-0.0015025,-0.0041519999999999,-0.158315,-0.4085925,-0.106917,0.127755,-0.4073325,-0.137286,-0.169205,-0.7969525,-0.128597,0.153955,-0.7912725,-0.155953,1
149,-0.00178,0.7491845,-0.158952,-0.170323,0.5528845,-0.11691,-0.421423,0.6104745,-0.234342,0.169957,0.5453545,-0.149313,0.384007,0.5893645000000001,-0.277192,-0.444573,0.8105245,-0.376682,0.367827,0.8164745,-0.382732,-0.078376,0.0016935,0.0042569999999999,0.078376,-0.0016935,-0.004257,-0.150803,-0.4244555,-0.082997,0.1261669999999999,-0.4242355,-0.113112,-0.1679629999999999,-0.8100955,-0.118531,0.154327,-0.8011955,-0.141367,1
150,0.000355,0.7546864999999999,-0.1454714999999999,-0.169123,0.5542765,-0.1045935,-0.418603,0.6134665,-0.2183545,0.1722769999999999,0.5464365,-0.1363355,0.385417,0.5926565,-0.2643345,-0.4442629999999999,0.8156065,-0.3623845,0.369997,0.8209865,-0.3669845,-0.078327,0.0016544999999999,0.0043745,0.078327,-0.0016545,-0.0043744999999999,-0.143693,-0.4399135,-0.0598714999999999,0.124647,-0.4403435,-0.0892445,-0.165343,-0.8236335,-0.1062174999999999,0.154287,-0.8106335,-0.1260295,1
151,0.0022875,0.7609925000000001,-0.1309509999999999,-0.1680035,0.5568725,-0.091016,-0.4159535,0.6140925,-0.1994699999999999,0.1746765,0.5481925000000001,-0.122503,0.3865165,0.5954125,-0.251,-0.4440834999999999,0.8188025,-0.34606,0.3716465,0.8227525,-0.35212,-0.0782275,0.0014964999999999,0.0045779999999999,0.0782275,-0.0014964999999999,-0.004578,-0.1373035,-0.4557375,-0.037118,0.1241765,-0.4564575,-0.06762,-0.1615735,-0.8368975,-0.090417,0.1544965,-0.8214874999999999,-0.111715,1
152,0.0041325,0.768634,-0.11596,-0.1669324999999999,0.558034,-0.077444,-0.4134124999999999,0.6135440000000001,-0.180949,0.1766075,0.546624,-0.109101,0.3874275,0.599114,-0.237019,-0.4438425,0.8227340000000001,-0.329129,0.3733675,0.826874,-0.336949,-0.0781535,0.001526,0.004581,0.0781535,-0.0015259999999999,-0.0045809999999999,-0.1316425,-0.470796,-0.015943,0.1242275,-0.471616,-0.047254,-0.1583025,-0.850606,-0.076913,0.1548275,-0.831216,-0.097573,1
153,0.005943,0.775581,-0.1004745,-0.166036,0.5595009999999999,-0.0632725,-0.410996,0.6125309999999999,-0.1614485,0.178504,0.545291,-0.0954675,0.3883339999999999,0.6024609999999999,-0.2227085,-0.443756,0.825781,-0.3110785,0.375094,0.8305309999999999,-0.3214485,-0.0780879999999999,0.0014649999999999,0.0047475,0.0780879999999999,-0.001465,-0.0047475,-0.128766,-0.481929,0.0005075,0.124924,-0.4857689999999999,-0.0289735,-0.155306,-0.8617290000000001,-0.0629735,0.154914,-0.838809,-0.0830835,1
154,0.007382,0.7843310000000001,-0.0893715,-0.165487,0.5627409999999999,-0.0544375,-0.408997,0.611931,-0.1472765,0.180143,0.5454110000000001,-0.0867345,0.388923,0.6073310000000001,-0.2132265,-0.443867,0.828511,-0.2972965,0.376183,0.8360909999999999,-0.3101565,-0.077981,0.001312,0.0050115,0.077981,-0.0013119999999999,-0.0050114999999999,-0.126387,-0.490899,0.0113765,0.125583,-0.497139,-0.0181305,-0.153247,-0.870009,-0.0546065,0.154573,-0.844239,-0.0749505,1
155,0.0084479999999999,0.7861895,-0.079272,-0.165319,0.5631395,-0.047375,-0.408479,0.6104595,-0.134831,0.181411,0.5466195,-0.079134,0.3888209999999999,0.6135495,-0.205191,-0.444139,0.8320795,-0.284621,0.376851,0.8427595,-0.299641,-0.077899,0.0016205,0.004981,0.077899,-0.0016204999999999,-0.004981,-0.125649,-0.4953204999999999,0.019016,0.125861,-0.4994705,-0.011285,-0.151619,-0.8740205,-0.046657,0.154101,-0.8465705,-0.067876,1
156,0.0091824999999999,0.787238,-0.0690115,-0.1652275,0.563818,-0.0389054999999999,-0.4074575,0.608958,-0.1212795,0.1828524999999999,0.547428,-0.0709545,0.3887825,0.6193080000000001,-0.1966294999999999,-0.4445575,0.834238,-0.2714695,0.3773525,0.848998,-0.2887695,-0.0777055,0.001835,0.0049665,0.0777055,-0.0018349999999999,-0.0049665,-0.1254874999999999,-0.497792,0.0256225,0.1260325,-0.501792,-0.0044565,-0.1513475,-0.8771819999999999,-0.0413465,0.1535524999999999,-0.848892,-0.0605915,1
157,0.0098535,0.788138,-0.058946,-0.1650704999999999,0.5646680000000001,-0.0307929999999999,-0.4059705,0.6075480000000001,-0.107846,0.1842995,0.548258,-0.063336,0.3889295,0.6246780000000001,-0.1886759999999999,-0.4449505,0.8365180000000001,-0.258996,0.3777895,0.855238,-0.278216,-0.0775825,0.001888,0.0049149999999999,0.0775825,-0.001888,-0.004915,-0.1253405,-0.4999619999999999,0.0315089999999999,0.1261795,-0.503722,0.0013839999999999,-0.1509505,-0.8791119999999999,-0.036473,0.1533095,-0.8531019999999999,-0.055352,1
158,0.0105155,0.788838,-0.048514,-0.1649235,0.5651280000000001,-0.023259,-0.4047735,0.6063080000000001,-0.095416,0.1853965,0.548788,-0.05609,0.3888864999999999,0.6296780000000001,-0.180746,-0.4452435,0.8374280000000001,-0.2468759999999999,0.3782164999999999,0.860838,-0.268426,-0.0774815,0.0019059999999999,0.0048289999999999,0.0774815,-0.001906,-0.004829,-0.1252035,-0.502002,0.03659,0.1265765,-0.503502,0.0064339999999999,-0.1523435,-0.8836419999999999,-0.035655,0.1527865,-0.8534619999999999,-0.049468,1
159,0.0110429999999999,0.7892995,-0.039106,-0.164804,0.5657795,-0.0160079999999999,-0.404724,0.6050795,-0.085344,0.1863059999999999,0.5491395,-0.049285,0.388916,0.6342195,-0.173204,-0.4455739999999999,0.8382895,-0.235684,0.378716,0.8660095,-0.258884,-0.077378,0.0019545,0.004671,0.077378,-0.0019544999999999,-0.004671,-0.1250939999999999,-0.5035605,0.040831,0.126946,-0.5029905,0.0103,-0.151244,-0.8853805,-0.030447,0.152326,-0.8541305,-0.044704,1
160,0.0114595,0.789784,-0.0304895,-0.1646864999999999,0.565954,-0.0096505,-0.4043664999999999,0.601594,-0.0780025,0.1869235,0.549494,-0.0430295,0.3891035,0.638404,-0.1660415,-0.4459965,0.839354,-0.2263615,0.3791635,0.870714,-0.2500115,-0.0772665,0.0020499999999999,0.0044604999999999,0.0772665,-0.0020499999999999,-0.0044604999999999,-0.1250965,-0.504476,0.0443785,0.1273535,-0.502086,0.0138225,-0.1511565,-0.885016,-0.0269044999999999,0.1518635,-0.8541259999999999,-0.0403175,1
161,0.011804,0.790185,-0.0227645,-0.164733,0.566165,-0.0038835,-0.4040829999999999,0.598885,-0.0712345,0.1875569999999999,0.549945,-0.0376215,0.389157,0.641405,-0.1598445,-0.446553,0.8396750000000001,-0.2185045,0.379577,0.874395,-0.2417544999999999,-0.07715,0.001962,0.0044505,0.07715,-0.001962,-0.0044505,-0.1251729999999999,-0.505285,0.0472434999999999,0.127707,-0.501135,0.0166615,-0.150333,-0.885845,-0.0224955,0.151467,-0.8545849999999999,-0.0366545,1
162,0.0121215,0.7905245000000001,-0.0154644999999999,-0.1648215,0.5662045,0.0012974999999999,-0.4043215,0.5980745000000001,-0.0659505,0.1881785,0.5503445,-0.0324505,0.3893485,0.6437645000000001,-0.1541495,-0.4468815,0.8400345,-0.2118495,0.3800185,0.8773245000000001,-0.2341595,-0.0770415,0.0019104999999999,0.0042854999999999,0.0770415,-0.0019105,-0.0042855,-0.1253214999999999,-0.5060555,0.0499395,0.1280085,-0.5002555,0.0193115,-0.1495015,-0.8851954999999999,-0.0181225,0.1511985,-0.8553554999999999,-0.0330515,1
163,0.0123185,0.790356,-0.0101169999999999,-0.1651035,0.566326,0.0059659999999999,-0.4041935,0.597386,-0.0614829999999999,0.1886565,0.550646,-0.0282609999999999,0.3894865,0.6453559999999999,-0.149478,-0.4473335,0.839336,-0.206828,0.3802665,0.8793259999999999,-0.2281379999999999,-0.0769485,0.0018649999999999,0.004097,0.0769485,-0.001865,-0.004097,-0.1255435,-0.506744,0.051762,0.1281864999999999,-0.4993539999999999,0.020968,-0.1492535,-0.883044,-0.0151059999999999,0.1511364999999999,-0.8573540000000001,-0.0314399999999999,1
164,0.0124484999999999,0.790245,-0.0054405,-0.1653895,0.566465,0.0101515,-0.4044995,0.596825,-0.0575765,0.1891005,0.550815,-0.0247515,0.3895705,0.646475,-0.1455615,-0.4476995,0.839765,-0.2026415,0.3807405,0.880285,-0.2243915,-0.0768685,0.001809,0.0040115,0.0768685,-0.0018089999999999,-0.0040115,-0.1257895,-0.507335,0.0529815,0.1283405,-0.4984649999999999,0.0220325,-0.1472195,-0.879405,-0.0092174999999999,0.1513805,-0.859385,-0.0309685,1
165,0.0124759999999999,0.790316,-0.0016609999999999,-0.165525,0.566436,0.012862,-0.404775,0.596736,-0.05428,0.189415,0.551096,-0.0220819999999999,0.389635,0.647286,-0.1423299999999999,-0.448015,0.8402660000000001,-0.19924,0.381345,0.881196,-0.22133,-0.076844,0.001729,0.003969,0.076844,-0.001729,-0.003969,-0.126065,-0.507774,0.053695,0.1283349999999999,-0.497624,0.022683,-0.146065,-0.876884,-0.0045729999999999,0.151805,-0.861364,-0.0305459999999999,1
166,0.0124959999999999,0.790386,0.0014424999999999,-0.165667,0.5663860000000001,0.0151444999999999,-0.405047,0.5965560000000001,-0.0515005,0.189713,0.551416,-0.0195055,0.3898129999999999,0.6479860000000001,-0.1393585,-0.4482469999999999,0.840596,-0.1965184999999999,0.382013,0.881866,-0.2186185,-0.07682,0.0016299999999999,0.0039564999999999,0.07682,-0.0016299999999999,-0.0039565,-0.126327,-0.508164,0.0541774999999999,0.1283129999999999,-0.497154,0.0232084999999999,-0.146087,-0.8757539999999999,-0.0030545,0.1517629999999999,-0.861954,-0.0293905,1
167,0.0125139999999999,0.7905345,0.0041415,-0.165821,0.5663245,0.0169135,-0.405261,0.5964345000000001,-0.0491615,0.189979,0.5516745000000001,-0.0175984999999999,0.3901389999999999,0.6486545,-0.1367255,-0.448381,0.8408145,-0.1942855,0.382939,0.8824045,-0.2162555,-0.076801,0.0015055,0.0039955,0.076801,-0.0015055,-0.0039954999999999,-0.126551,-0.5087054999999999,0.0545575,0.128309,-0.4971355,0.0237095,-0.146061,-0.8749355,-0.0011024999999999,0.151439,-0.8618355,-0.0282274999999999,1
168,0.0125715,0.790581,0.0064249999999999,-0.1659235,0.5662309999999999,0.0183839999999999,-0.4053835,0.596341,-0.047553,0.1901965,0.551771,-0.016089,0.3905065,0.649181,-0.134403,-0.4484135,0.8409709999999999,-0.192513,0.3836665,0.882621,-0.214803,-0.0767805,0.001406,0.0040119999999999,0.0767805,-0.0014059999999999,-0.004012,-0.1267135,-0.508849,0.054843,0.1282965,-0.497179,0.0241129999999999,-0.1461535,-0.874649,-0.00022,0.1515965,-0.863089,-0.028032,1
169,0.012635,0.7905955,0.008445,-0.165995,0.5661355,0.019467,-0.4054649999999999,0.5962655,-0.046211,0.190425,0.5519955,-0.014793,0.390925,0.6496255,-0.1323579999999999,-0.448395,0.8411155,-0.191168,0.384715,0.8826955,-0.213888,-0.076754,0.0013254999999999,0.004007,0.076754,-0.0013255,-0.0040069999999999,-0.126805,-0.5090045000000001,0.055075,0.1282849999999999,-0.4973045,0.02438,-0.146495,-0.8747745,0.000234,0.151735,-0.8647345000000001,-0.027607,1
170,0.0127035,0.7906775,0.0099945,-0.1660315,0.5661575,0.0203075,-0.4054515,0.5962975,-0.0456205,0.1905885,0.5521875,-0.0136424999999999,0.3913585,0.6500975,-0.1305505,-0.4483615,0.8413475,-0.1901905,0.3858585,0.8827675,-0.2132605,-0.0767404999999999,0.0013184999999999,0.0040045,0.0767404999999999,-0.0013185,-0.0040045,-0.1268815,-0.5090325,0.0552385,0.1283085,-0.4973225,0.0245855,-0.1488615,-0.8763925,-0.0048104999999999,0.1519984999999999,-0.8654525,-0.0273264999999999,1
171,0.0128005,0.790709,0.0111635,-0.1660285,0.566179,0.0209735,-0.4054585,0.596379,-0.0453554999999999,0.1908115,0.5523490000000001,-0.0126574999999999,0.3916915,0.650449,-0.1290365,-0.4483385,0.8415790000000001,-0.1894665,0.3871015,0.882839,-0.2127365,-0.0767245,0.0013269999999999,0.0040035,0.0767245,-0.001327,-0.0040035,-0.1269285,-0.509041,0.0552895,0.1283315,-0.497341,0.0247575,-0.1511885,-0.8784909999999999,-0.0092254999999999,0.1522215,-0.865991,-0.0271654999999999,1
172,0.01293,0.790713,0.0121625,-0.166006,0.566193,0.0214785,-0.405456,0.596503,-0.0451685,0.191104,0.5525329999999999,-0.0115224999999999,0.391954,0.650633,-0.1278315,-0.4482759999999999,0.841823,-0.1890615,0.388434,0.882833,-0.2122815,-0.076719,0.001333,0.0039625,0.076719,-0.0013329999999999,-0.0039625,-0.126986,-0.509077,0.0552625,0.128354,-0.497357,0.0248505,-0.153416,-0.882277,-0.0139005,0.152084,-0.865917,-0.0264625,1
173,0.0130989999999999,0.790713,0.01306,-0.165981,0.566203,0.021891,-0.405371,0.5966629999999999,-0.045042,0.191409,0.552593,-0.0105489999999999,0.392129,0.650763,-0.126699,-0.448101,0.842073,-0.188799,0.3894289999999999,0.882833,-0.211859,-0.076719,0.001333,0.003926,0.076719,-0.0013329999999999,-0.0039259999999999,-0.127031,-0.508877,0.05521,0.1283889999999999,-0.4977170000000001,0.024891,-0.152831,-0.882277,-0.0127899999999999,0.152169,-0.865917,-0.0262999999999999,1
174,0.0133085,0.79072,0.0139585,-0.1659785,0.5662299999999999,0.0221105,-0.4052785,0.5970799999999999,-0.0450275,0.1917515,0.5526899999999999,-0.0095234999999999,0.3923014999999999,0.65084,-0.1258625,-0.4478385,0.8423299999999999,-0.1886625,0.3903215,0.88284,-0.2115024999999999,-0.0767164999999999,0.001359,0.0039105,0.0767164999999999,-0.0013589999999999,-0.0039104999999999,-0.1270385,-0.50885,0.0551405,0.1284114999999999,-0.4982,0.0249805,-0.1549585,-0.88312,-0.0174065,0.1522015,-0.8659100000000001,-0.0256694999999999,1
175,0.013531,0.790745,0.0147245,-0.1659679999999999,0.566275,0.0222925,-0.405138,0.597575,-0.0449974999999999,0.192102,0.552725,-0.0084764999999999,0.392452,0.650875,-0.1252114999999999,-0.447488,0.842605,-0.1886014999999999,0.391092,0.882815,-0.2112315,-0.076716,0.0013649999999999,0.0039115,0.076716,-0.001365,-0.0039114999999999,-0.127048,-0.508755,0.0550785,0.128442,-0.4985549999999999,0.0250645,-0.153748,-0.883965,-0.0162004999999999,0.152522,-0.865885,-0.0251794999999999,1
176,0.013776,0.7907535,0.0153414999999999,-0.1659439999999999,0.5663035000000001,0.0224504999999999,-0.404964,0.5981535,-0.0449925,0.192376,0.5526635000000001,-0.0074695,0.392586,0.6508935,-0.1247065,-0.4470139999999999,0.8429035,-0.1884664999999999,0.391566,0.8828135,-0.2109265,-0.076719,0.0013805,0.0039044999999999,0.076719,-0.0013804999999999,-0.0039044999999999,-0.127044,-0.5085365,0.0550215,0.1284759999999999,-0.4988165,0.0251754999999999,-0.154934,-0.8874865,-0.0201895,0.152886,-0.8666165,-0.0253115,1
177,0.014066,0.7907420000000001,0.0158495,-0.165811,0.566362,0.0226115,-0.404621,0.598952,-0.0450605,0.192739,0.5526920000000001,-0.0065004999999999,0.3926989999999999,0.650922,-0.1244025,-0.446481,0.843302,-0.1883325,0.391969,0.882842,-0.2105325,-0.076724,0.001387,0.0038804999999999,0.076724,-0.001387,-0.0038805,-0.127021,-0.508328,0.0549575,0.1285089999999999,-0.499078,0.0252615,-0.156221,-0.891178,-0.0243915,0.153249,-0.867208,-0.0259455,1
178,0.0141885,0.7907759999999999,0.0161615,-0.1657135,0.566386,0.0227365,-0.4043035,0.599806,-0.0452515,0.1929565,0.552686,-0.0057665,0.3926965,0.651046,-0.1242905,-0.4458335,0.843876,-0.1880505,0.3919665,0.882836,-0.2105805,-0.0767245,0.001393,0.0038684999999999,0.0767245,-0.001393,-0.0038685,-0.1269435,-0.508264,0.0549665,0.1285265,-0.499064,0.0253844999999999,-0.1566035,-0.893664,-0.0273075,0.1536565,-0.866314,-0.0257985,1
179,0.0143559999999999,0.790778,0.016454,-0.1656059999999999,0.566418,0.022845,-0.4039959999999999,0.600648,-0.045429,0.1931439999999999,0.552678,-0.005047,0.392694,0.651098,-0.124281,-0.445166,0.844398,-0.1876509999999999,0.391954,0.882868,-0.210591,-0.076727,0.001401,0.003856,0.076727,-0.001401,-0.0038559999999999,-0.126836,-0.508212,0.054954,0.128554,-0.4990619999999999,0.025503,-0.156736,-0.8951720000000001,-0.029141,0.1538439999999999,-0.865032,-0.0250799999999999,1
180,0.0145095,0.790776,0.0166879999999999,-0.1654815,0.566456,0.0229119999999999,-0.4037214999999999,0.601486,-0.045589,0.1932585,0.552696,-0.004444,0.3926185,0.651106,-0.124278,-0.4445115,0.8449260000000001,-0.187158,0.3919285,0.882866,-0.211008,-0.0767315,0.001399,0.0038589999999999,0.0767315,-0.001399,-0.003859,-0.1267315,-0.508104,0.0549259999999999,0.1285685,-0.4990639999999999,0.0255999999999999,-0.1581015,-0.895854,-0.03178,0.1538584999999999,-0.863904,-0.024393,1
181,0.0146645,0.7905449999999999,0.0168935,-0.1654034999999999,0.566465,0.0229935,-0.4034435,0.602165,-0.0457485,0.1933665,0.552665,-0.0040914999999999,0.3925265,0.6510849999999999,-0.1242485,-0.4439035,0.845225,-0.1866485,0.3918065,0.882695,-0.2112985,-0.0767335,0.0013709999999999,0.0038405,0.0767335,-0.0013709999999999,-0.0038404999999999,-0.1263935,-0.507885,0.0549025,0.1287765,-0.499165,0.0256805,-0.1581135,-0.8966050000000001,-0.0317605,0.1540965,-0.8633550000000001,-0.0241154999999999,1
182,0.0159179999999999,0.789852,0.017272,-0.164908,0.566682,0.023056,-0.402628,0.6043120000000001,-0.0460209999999999,0.1940819999999999,0.5524020000000001,-0.0032049999999999,0.392762,0.650432,-0.123668,-0.442888,0.847082,-0.186388,0.392532,0.882912,-0.207788,-0.076755,0.001413,0.003838,0.076755,-0.001413,-0.0038379999999999,-0.126378,-0.509398,0.054534,0.1285919999999999,-0.500118,0.025492,-0.153608,-0.907258,-0.0316859999999999,0.153942,-0.859398,-0.0240699999999999,1
183,0.015981,0.7898865,0.0172955,-0.164869,0.5668065,0.0231945,-0.402459,0.6048165,-0.0462055,0.1940909999999999,0.5524865,-0.0030574999999999,0.392971,0.6500665,-0.1236085,-0.441499,0.8473165,-0.1850685,0.392571,0.8826865,-0.2072485,-0.076768,0.0013565,0.0037615,0.076768,-0.0013565,-0.0037615,-0.126169,-0.5075435,0.0544435,0.128631,-0.4992434999999999,0.0255075,-0.153059,-0.9060535,-0.0283345,0.165701,-0.8950135,-0.0536305,1
184,0.016405,0.7897485,0.017543,-0.1640269999999999,0.5668685,0.023811,-0.401627,0.6049085,-0.045561,0.194313,0.5524885,-0.002946,0.393173,0.6501485,-0.123433,-0.440007,0.8476885,-0.183113,0.3918629999999999,0.8826685,-0.207433,-0.07676,0.0013505,0.003743,0.07676,-0.0013504999999999,-0.003743,-0.126097,-0.5071915,0.054512,0.128573,-0.4992615,0.025466,-0.155877,-0.9032715,-0.030472,0.166713,-0.8942415,-0.067593,1
185,0.014177,0.789674,0.0164895,-0.16529,0.566234,0.0230605,-0.40306,0.603304,-0.0461915,0.19257,0.553144,-0.0037784999999999,0.39096,0.651314,-0.1246535,-0.44226,0.845654,-0.1839535,0.38887,0.883314,-0.2102635,-0.076764,0.001062,0.0037805,0.076764,-0.001062,-0.0037804999999999,-0.124,-0.506666,0.0556505,0.13047,-0.497856,0.0266125,-0.15193,-0.903696,-0.0267064999999999,0.15732,-0.865476,-0.0244234999999999,1
186,0.014594,0.7895854999999999,0.0168805,-0.1654479999999999,0.5662855,0.0231525,-0.403108,0.6037855,-0.0462625,0.192762,0.5531055,-0.0035775,0.391022,0.6513855,-0.1245715,-0.441868,0.8459455,-0.1836315,0.389132,0.8829555,-0.2115115,-0.07674,0.0010265,0.0037844999999999,0.07674,-0.0010265,-0.0037845,-0.123738,-0.5047645000000001,0.0551524999999999,0.130432,-0.4977945,0.0266894999999999,-0.151958,-0.9036945,-0.0248305,0.156672,-0.8616945,-0.0232275,1
187,0.0147395,0.789028,0.0171035,-0.1650685,0.5661879999999999,0.0237565,-0.3964985,0.6279779999999999,-0.0490725,0.1931815,0.552418,-0.0034035,0.3911815,0.651088,-0.1245344999999999,-0.4413085,0.8454079999999999,-0.1836144999999999,0.3888615,0.8822979999999999,-0.2126245,-0.0767335,0.001251,0.0036845,0.0767335,-0.001251,-0.0036845,-0.1237585,-0.505382,0.0551745,0.1303814999999999,-0.496942,0.0261785,-0.1633085,-0.897092,-0.0336465,0.1557915,-0.861762,-0.0217704999999999,1
188,0.0148095,0.788949,0.01733,-0.1654025,0.566389,0.024065,-0.3991325,0.6174890000000001,-0.050574,0.1933075,0.552299,-0.003256,0.3912474999999999,0.651169,-0.1243129999999999,-0.4410825,0.8457990000000001,-0.183213,0.3880475,0.882429,-0.212193,-0.0767305,0.001174,0.003713,0.0767305,-0.001174,-0.003713,-0.1238024999999999,-0.505261,0.0553499999999999,0.1303175,-0.4968709999999999,0.026279,-0.1514525,-0.892541,-0.0127709999999999,0.1569175,-0.863541,-0.024301,0
