sb224sc-HT22-VT27/4dt907/src/ml-research/a11/datafiles/labeled_files/A78_kinect.csv
FrameNo,nose_3d_x,nose_3d_y,nose_3d_z,left_shoulder_3d_x,left_shoulder_3d_y,left_shoulder_3d_z,left_elbow_3d_x,left_elbow_3d_y,left_elbow_3d_z,right_shoulder_3d_x,right_shoulder_3d_y,right_shoulder_3d_z,right_elbow_3d_x,right_elbow_3d_y,right_elbow_3d_z,left_wrist_3d_x,left_wrist_3d_y,left_wrist_3d_z,right_wrist_3d_x,right_wrist_3d_y,right_wrist_3d_z,left_hip_3d_x,left_hip_3d_y,left_hip_3d_z,right_hip_3d_x,right_hip_3d_y,right_hip_3d_z,left_knee_3d_x,left_knee_3d_y,left_knee_3d_z,right_knee_3d_x,right_knee_3d_y,right_knee_3d_z,left_ankle_3d_x,left_ankle_3d_y,left_ankle_3d_z,right_ankle_3d_x,right_ankle_3d_y,right_ankle_3d_z,activity_label
0,0.013831,0.774608,0.0675215,-0.173058,0.549858,0.0654605,-0.325298,0.747948,-0.0400955,0.188582,0.560288,0.0793585,0.347382,0.7298979999999999,-0.0045115,-0.407058,0.995588,-0.1340775,0.402552,0.988978,-0.0488464999999999,-0.0759,-0.002772,-0.0008384999999999,0.0759,0.002772,0.0008384999999999,-0.123268,-0.524012,0.0540454999999999,0.127502,-0.5221520000000001,0.0294655,-0.150368,-0.913182,-0.0274354999999999,0.190552,-0.955802,-0.1013274999999999,0
1,0.014003,0.7749265,0.0679775,-0.173012,0.5499865,0.0658105,-0.325192,0.7481265,-0.0400485,0.188658,0.5605465000000001,0.0796195,0.3474379999999999,0.7303065,-0.0043394999999999,-0.406892,0.9958165,-0.1339814999999999,0.4023779999999999,0.9894365,-0.0487755,-0.075985,-0.0028775,-0.0008214999999999,0.075985,0.0028775,0.0008215,-0.123362,-0.5241135,0.0540835,0.127648,-0.5220335,0.0294435,-0.149422,-0.9092635,-0.0259225,0.190948,-0.9566535,-0.1026214999999999,0
2,0.0143005,0.7748435,0.068518,-0.1728965,0.5499735,0.065893,-0.3251665,0.7482635,-0.039899,0.1885635,0.5601535,0.079942,0.3474135,0.7302735,-0.004253,-0.4060965,0.9947135,-0.1334759999999999,0.4020935,0.9897535,-0.048531,-0.0760204999999999,-0.0028885,-0.000841,0.0760204999999999,0.0028885,0.000841,-0.1232765,-0.5241365,0.05406,0.1277734999999999,-0.5220065,0.029525,-0.1508565,-0.9077365,-0.027442,0.1776335,-0.9282465,-0.047882,1
3,0.0144484999999999,0.7749935,0.069082,-0.1727515,0.5503135,0.065943,-0.3249215,0.7482935,-0.039992,0.1884885,0.5599435,0.079854,0.3472585,0.7303435,-0.004186,-0.4050915,0.9943935,-0.133668,0.4019684999999999,0.9899635,-0.048772,-0.0759885,-0.0028915,-0.00093,0.0759885,0.0028915,0.00093,-0.1232615,-0.5241565,0.053853,0.1275485,-0.5221265,0.028911,-0.1525115,-0.9021665,-0.025484,0.1742884999999999,-0.9459865,-0.053663,1
4,0.0145914999999999,0.7751070000000001,0.0690415,-0.1726885,0.5504370000000001,0.0658145,-0.3244485,0.7480570000000001,-0.0399035,0.1885615,0.5601170000000001,0.0798735,0.3472314999999999,0.7303670000000001,-0.0042205,-0.4047285,0.993927,-0.1334955,0.4018415,0.990217,-0.0490145,-0.0759625,-0.002961,-0.0009505,0.0759625,0.002961,0.0009505,-0.1232785,-0.524233,0.0537605,0.1275415,-0.5220629999999999,0.0288334999999999,-0.1543685,-0.921153,-0.0358775,0.1789115,-0.944083,-0.0718755,1
5,0.0146255,0.7752060000000001,0.069054,-0.1726174999999999,0.550776,0.066159,-0.3242675,0.7481260000000001,-0.040036,0.1884925,0.5605060000000001,0.07898,0.3468425,0.7297060000000001,-0.00425,-0.4039775,0.992276,-0.133301,0.4017024999999999,0.990326,-0.049345,-0.0759675,-0.002993,-0.001006,0.0759675,0.002993,0.001006,-0.1233574999999999,-0.524424,0.0528509999999999,0.1276625,-0.522064,0.0285729999999999,-0.1599374999999999,-0.960484,-0.075991,0.1839625,-0.946134,-0.082471,1
6,0.0149249999999999,0.7755730000000001,0.0694275,-0.172263,0.550983,0.0661655,-0.323933,0.7484430000000001,-0.0399645,0.187307,0.559153,0.0769745,0.347197,0.729963,-0.0042185,-0.403263,0.992073,-0.1331335,0.4020169999999999,0.990893,-0.0491525,-0.076189,-0.003136,-0.0009694999999999,0.076189,0.003136,0.0009694999999999,-0.123203,-0.5246069999999999,0.0528285,0.127987,-0.521907,0.0285225,-0.159553,-0.960067,-0.0763735,0.186687,-0.942667,-0.0841335,1
7,0.0149835,0.7751935,0.0706945,-0.1723795,0.5505535,0.0663525,-0.3243095,0.7485235,-0.0395925,0.1876205,0.5594135,0.0788255,0.3469605,0.7296435,-0.0036384999999999,-0.4029995,0.9924835,-0.1326165,0.4017905,0.9904235,-0.0487885,-0.0761265,-0.0032094999999999,-0.0009924999999999,0.0761265,0.0032094999999999,0.0009925,-0.1233095,-0.5246265,0.0528985,0.1278504999999999,-0.5218265,0.0282065,-0.1547994999999999,-0.9223165,-0.0378654999999999,0.1843705,-0.9480965,-0.0832665,1
8,0.0150925,0.775189,0.0713925,-0.1723265,0.5505690000000001,0.0666165,-0.3241865,0.7486790000000001,-0.0392584999999999,0.1874235,0.559359,0.0787345,0.3468735,0.729469,-0.0032235,-0.4026065,0.992209,-0.1320855,0.4017335,0.990639,-0.0484695,-0.0761435,-0.003293,-0.0010124999999999,0.0761435,0.003293,0.0010124999999999,-0.1233464999999999,-0.524751,0.0525994999999999,0.1278834999999999,-0.5217809999999999,0.0278684999999999,-0.1557365,-0.926031,-0.0433175,0.1844434999999999,-0.947251,-0.0828255,1
9,0.015205,0.7751575,0.0721275,-0.172265,0.5505875,0.0668975,-0.324075,0.7488275,-0.0389174999999999,0.187265,0.5592975,0.0787375,0.346815,0.7293075,-0.0028054999999999,-0.402245,0.9919575,-0.1315664999999999,0.401695,0.9908175,-0.0481545,-0.076156,-0.0033714999999999,-0.0010345,0.076156,0.0033715,0.0010345,-0.123385,-0.5248625,0.0522945,0.127915,-0.5217525,0.0275365,-0.155745,-0.9272125,-0.0435325,0.184515,-0.9464925,-0.0829265,1
10,0.015308,0.7750699999999999,0.0728715,-0.172203,0.5505899999999999,0.0671465,-0.323963,0.7489199999999999,-0.0385235,0.1870969999999999,0.55914,0.0787275,0.346797,0.7291799999999999,-0.0023255,-0.401953,0.99181,-0.1310645,0.401667,0.9909,-0.0478185,-0.076161,-0.003496,-0.0010415,0.076161,0.003496,0.0010414999999999,-0.123423,-0.5250100000000001,0.0519935,0.127917,-0.52166,0.0272455,-0.156923,-0.93099,-0.0489545,0.186287,-0.94785,-0.0869845,1
11,0.015415,0.774982,0.0735875,-0.172111,0.550592,0.0677425,-0.323891,0.749032,-0.0381245,0.187009,0.559102,0.0785605,0.3467989999999999,0.729102,-0.0018694999999999,-0.401721,0.991732,-0.1306054999999999,0.4016289999999999,0.990982,-0.0475165,-0.0761739999999999,-0.0035919999999999,-0.0010425,0.0761739999999999,0.0035919999999999,0.0010425,-0.123451,-0.525118,0.0516665,0.127939,-0.521598,0.0269345,-0.1573709999999999,-0.931308,-0.0508654999999999,0.187789,-0.948778,-0.0906655,1
12,0.015517,0.774897,0.074272,-0.172019,0.550577,0.068334,-0.3238189999999999,0.749127,-0.037719,0.186921,0.559097,0.078343,0.346781,0.7290869999999999,-0.0014609999999999,-0.401669,0.991577,-0.130248,0.401601,0.991037,-0.0472139999999999,-0.076197,-0.003686,-0.0010389999999999,0.076197,0.003686,0.001039,-0.123479,-0.525243,0.051394,0.127931,-0.521533,0.026624,-0.157819,-0.930883,-0.0521119999999999,0.187721,-0.948023,-0.091968,1
13,0.0155964999999999,0.7747995,0.0748745,-0.1719264999999999,0.5505495,0.0688825,-0.3237665,0.7492195,-0.0373304999999999,0.1868135,0.5590995,0.0781535,0.3467435,0.7289995,-0.0010674999999999,-0.4016965,0.9914595,-0.1299655,0.4015734999999999,0.9910695,-0.0469585,-0.0762215,-0.0037835,-0.0010444999999999,0.0762215,0.0037834999999999,0.0010445,-0.1235265,-0.5253605,0.0510935,0.1279235,-0.5214605,0.0262935,-0.1571665,-0.9253305,-0.0481365,0.1879635,-0.9490905,-0.0949854999999999,1
14,0.0156175,0.774631,0.075456,-0.1718744999999999,0.550461,0.069434,-0.3237545,0.749231,-0.0369489999999999,0.1867455,0.5591809999999999,0.078346,0.3466555,0.7288509999999999,-0.000702,-0.4017644999999999,0.991301,-0.129753,0.4014955,0.990971,-0.046721,-0.0762205,-0.0038829999999999,-0.001055,0.0762205,0.003883,0.001055,-0.1235945,-0.525479,0.050808,0.1278754999999999,-0.521389,0.0259329999999999,-0.1565444999999999,-0.920639,-0.044267,0.1868755,-0.950179,-0.0956829999999999,1
15,0.0156115,0.7744615,0.0759175,-0.1718215,0.5503615000000001,0.0699895,-0.3237515,0.7492315,-0.0365915,0.1867385,0.5593115000000001,0.0784995,0.3465585,0.7286415,-0.0003405,-0.4018415,0.9911915,-0.1295685,0.4013985,0.9908515,-0.0465004999999999,-0.0762355,-0.0039675,-0.0010645,0.0762355,0.0039675,0.0010645,-0.1236915,-0.5255584999999999,0.0505875,0.1278085,-0.5213185,0.0256355,-0.1567214999999999,-0.9202585,-0.0459064999999999,0.1860685,-0.9505185,-0.0960085,1
16,0.015586,0.7744015000000001,0.076079,-0.171786,0.5503515,0.07033,-0.323776,0.7491615,-0.036444,0.1867039999999999,0.5593115000000001,0.078595,0.346454,0.7284615,-0.000211,-0.401996,0.9911115,-0.129649,0.401294,0.9907315,-0.0465909999999999,-0.076246,-0.0039675,-0.0010799999999999,0.076246,0.0039675,0.0010799999999999,-0.123796,-0.5255584999999999,0.0504789999999999,0.127754,-0.5213185,0.025537,-0.155746,-0.9169185,-0.041213,0.185434,-0.9518085,-0.095109,1
17,0.0155245,0.7743415,0.076263,-0.1717584999999999,0.5503515,0.0706789999999999,-0.3238485,0.7491015000000001,-0.036371,0.1866114999999999,0.5593115000000001,0.078745,0.3463315,0.7282815,-0.000115,-0.4023385,0.9911015,-0.129722,0.4011515,0.9903615,-0.046664,-0.0762215,-0.0039675,-0.001087,0.0762215,0.0039675,0.0010869999999999,-0.1239385,-0.5255584999999999,0.05035,0.1276514999999999,-0.5213185,0.0254499999999999,-0.1569685,-0.9201585,-0.045728,0.1853015,-0.9518085,-0.095182,1
18,0.0154624999999999,0.7742615,0.076436,-0.1717125,0.5503515,0.0710629999999999,-0.3239625,0.7490415,-0.036299,0.1865875,0.5593115000000001,0.0789179999999999,0.3462075,0.7281415,-5.000000000005e-06,-0.4028025,0.9910915,-0.129758,0.4010174999999999,0.9899815,-0.04672,-0.0761915,-0.0039675,-0.001106,0.0761915,0.0039675,0.0011059999999999,-0.1240325,-0.5255584999999999,0.050238,0.1275474999999999,-0.5213185,0.0253929999999999,-0.1573825,-0.9201585,-0.045938,0.1852174999999999,-0.9513585,-0.094978,1
19,0.015397,0.774129,0.0765925,-0.171685,0.550319,0.0714345,-0.324035,0.748919,-0.0362795,0.186585,0.559369,0.0790595,0.346085,0.727899,3.650000000000181e-05,-0.403345,0.991029,-0.1299294999999999,0.400885,0.989539,-0.0468325,-0.076171,-0.003978,-0.0011335,0.076171,0.003978,0.0011335,-0.124175,-0.525571,0.0500865,0.127385,-0.5213110000000001,0.0254015,-0.158765,-0.921971,-0.0495375,0.183945,-0.951531,-0.0937595,1
20,0.0153335,0.773988,0.0767305,-0.1716975,0.550278,0.0715135,-0.3241575,0.748818,-0.0362664999999999,0.1866025,0.559378,0.0792755,0.3459825,0.727718,8.850000000000524e-05,-0.4039575,0.990958,-0.1301435,0.4007425,0.988908,-0.0469415,-0.0761505,-0.004003,-0.0011644999999999,0.0761505,0.004003,0.0011645,-0.1243374999999999,-0.525582,0.0499465,0.1272225,-0.521282,0.0254385,-0.1607275,-0.925872,-0.0551544999999999,0.1825625,-0.951762,-0.0929034999999999,1
21,0.0152695,0.773845,0.0768505,-0.1717385,0.550245,0.0716475,-0.3242685,0.748715,-0.0362764999999999,0.1865715,0.559365,0.0793885,0.3458914999999999,0.7275250000000001,0.0001225,-0.4046385,0.990865,-0.1304805,0.4006015,0.988275,-0.0470565,-0.0761275,-0.004031,-0.0011914999999999,0.0761275,0.004031,0.0011915,-0.1245085,-0.5255949999999999,0.0498075,0.1270715,-0.521245,0.0254495,-0.1623085,-0.929995,-0.0604084999999999,0.1821114999999999,-0.953005,-0.0945605,1
22,0.015347,0.773683,0.0769374999999999,-0.171735,0.550183,0.0718195,-0.324305,0.7486229999999999,-0.0362695,0.186685,0.559323,0.0796145,0.345915,0.7273729999999999,0.0001804999999999,-0.405375,0.990813,-0.1308385,0.400585,0.987643,-0.0471705,-0.076112,-0.004035,-0.0012055,0.076112,0.004035,0.0012054999999999,-0.1246549999999999,-0.5255770000000001,0.0496844999999999,0.126875,-0.521227,0.0254994999999999,-0.1623649999999999,-0.930637,-0.0606555,0.182185,-0.954827,-0.0948685,1
23,0.015436,0.773509,0.0770115,-0.171686,0.5502790000000001,0.0721985,-0.3243459999999999,0.748479,-0.0362624999999999,0.1868639999999999,0.5593790000000001,0.0799634999999999,0.345954,0.7271390000000001,0.0002354999999999,-0.406196,0.990699,-0.1312815,0.400574,0.986989,-0.0472804999999999,-0.076097,-0.004018,-0.0012305,0.076097,0.004018,0.0012305,-0.124796,-0.525521,0.0495645,0.126684,-0.521231,0.0255475,-0.160646,-0.927971,-0.0564354999999999,0.1819339999999999,-0.955531,-0.0956114999999999,1
24,0.0155595,0.7733245,0.077099,-0.1715755,0.5506745000000001,0.072541,-0.3243655,0.7483245000000001,-0.036256,0.1870145,0.5594245,0.080197,0.3460145,0.7268845,0.00028,-0.4069655,0.9905845,-0.13168,0.4005845,0.9863145,-0.047386,-0.0760685,-0.0040094999999999,-0.001257,0.0760685,0.0040095,0.001257,-0.1248654999999999,-0.5254655,0.049457,0.1264845,-0.5211955,0.025617,-0.1608255,-0.9285855,-0.056485,0.1817845,-0.9560955,-0.09652,1
25,0.015715,0.7731640000000001,0.0771895,-0.171474,0.5509240000000001,0.0727035,-0.324364,0.748154,-0.0362595,0.187196,0.559494,0.0804785,0.346066,0.726784,0.0002925,-0.407784,0.990494,-0.1320825,0.4006159999999999,0.985704,-0.0474595,-0.076049,-0.0039639999999999,-0.0012945,0.076049,0.003964,0.0012944999999999,-0.124954,-0.5253559999999999,0.0493785,0.126306,-0.521196,0.0256974999999999,-0.159344,-0.926116,-0.0517625,0.180246,-0.954016,-0.0933725,1
26,0.0159265,0.7730475,0.0772585,-0.1713385,0.5512174999999999,0.0728645,-0.3243185,0.7479775,-0.0362694999999999,0.1874015,0.5595374999999999,0.0807355,0.3461515,0.7266975,0.0003034999999999,-0.4084885,0.9904275,-0.1325575,0.4007315,0.9852775,-0.0475074999999999,-0.0760555,-0.0039575,-0.0013154999999999,0.0760555,0.0039574999999999,0.0013154999999999,-0.1250585,-0.5253025,0.0493414999999999,0.1261715,-0.5211525,0.0257695,-0.1595885,-0.9292025,-0.0541974999999999,0.1801515,-0.9536825,-0.0942875,1
27,0.0161299999999999,0.772914,0.077306,-0.1712219999999999,0.551434,0.073005,-0.324282,0.7477739999999999,-0.036291,0.187558,0.559524,0.080904,0.3462679999999999,0.726584,0.0002979999999999,-0.409122,0.990334,-0.133066,0.400848,0.984834,-0.047569,-0.076067,-0.003987,-0.0013449999999999,0.076067,0.0039869999999999,0.0013449999999999,-0.1251519999999999,-0.5252760000000001,0.049269,0.126048,-0.521046,0.025819,-0.159822,-0.932766,-0.056424,0.181528,-0.955216,-0.097806,1
28,0.0163555,0.772818,0.077364,-0.1710425,0.551508,0.07305,-0.3242525,0.747618,-0.036324,0.1876975,0.559528,0.080919,0.3464474999999999,0.7264980000000001,0.0003109999999999,-0.4097325,0.990258,-0.133575,0.4009875,0.984408,-0.047621,-0.0760795,-0.003993,-0.001354,0.0760795,0.003993,0.001354,-0.1252225,-0.525202,0.049287,0.1259075,-0.520942,0.025894,-0.1601825,-0.934502,-0.0575479999999999,0.1809175,-0.953792,-0.094775,1
29,0.01658,0.77274,0.077418,-0.1708259999999999,0.5515800000000001,0.073272,-0.324236,0.74739,-0.0363639999999999,0.187834,0.55952,0.080957,0.346514,0.72643,0.000306,-0.410286,0.99006,-0.1340259999999999,0.401194,0.98392,-0.047663,-0.076094,-0.003997,-0.001361,0.076094,0.003997,0.001361,-0.125286,-0.5251,0.049306,0.125784,-0.52083,0.025931,-0.1601159999999999,-0.93456,-0.05747,0.181894,-0.95351,-0.097546,1
30,0.0167809999999999,0.772655,0.0774499999999999,-0.170617,0.551615,0.073512,-0.324247,0.747155,-0.036429,0.187963,0.559505,0.0809999999999999,0.346583,0.726375,0.0002559999999999,-0.410777,0.989705,-0.134427,0.401433,0.983565,-0.047797,-0.076105,-0.0039939999999999,-0.001358,0.076105,0.003994,0.0013579999999999,-0.125327,-0.5250049999999999,0.049316,0.125673,-0.520725,0.0259849999999999,-0.160017,-0.934615,-0.057249,0.181883,-0.953715,-0.097777,1
31,0.0168285,0.7725925,0.077457,-0.1704675,0.5516125,0.073585,-0.3242875,0.7469325,-0.036538,0.1880125,0.5594925,0.081069,0.3466025,0.7263225,0.0001929999999999,-0.4112575,0.9892725,-0.134833,0.4015625,0.9832825,-0.048031,-0.0761155,-0.0039924999999999,-0.001354,0.0761155,0.0039925,0.001354,-0.1253574999999999,-0.5248975,0.049321,0.1256325,-0.5206175,0.026003,-0.1603575,-0.9379875,-0.060864,0.1830925,-0.9541875,-0.1010129999999999,1
32,0.0168434999999999,0.7725385,0.077476,-0.1703655,0.5515585,0.073743,-0.3242954999999999,0.7467185,-0.036646,0.1880645,0.5594685,0.081088,0.3466145,0.7259885,0.000113,-0.4116855,0.9888085,-0.135185,0.4017245,0.9830485,-0.048289,-0.0761265,-0.0039945,-0.001346,0.0761265,0.0039945,0.001346,-0.1254155,-0.5248015,0.049371,0.1255945,-0.5205215,0.026012,-0.1587655,-0.9371215,-0.057054,0.1841045,-0.9560315,-0.1036149999999999,1
33,0.0168399999999999,0.772502,0.077503,-0.170352,0.551522,0.074,-0.324322,0.746582,-0.036842,0.188098,0.559462,0.081055,0.346608,0.725662,2.7000000000006182e-05,-0.412062,0.988382,-0.1354949999999999,0.401888,0.982852,-0.0485879999999999,-0.0761429999999999,-0.003986,-0.0013379999999999,0.0761429999999999,0.003986,0.001338,-0.125472,-0.524688,0.049422,0.125558,-0.520458,0.026045,-0.1578719999999999,-0.937778,-0.055491,0.184218,-0.957138,-0.105625,1
34,0.0168429999999999,0.7724695,0.0775035,-0.170339,0.5515195,0.0741095,-0.324459,0.7464895,-0.0370615,0.188131,0.5594695000000001,0.0809845,0.346601,0.7253395,-7.549999999999918e-05,-0.412399,0.9879695,-0.1358245,0.402061,0.9826995,-0.0489464999999999,-0.076153,-0.0039735,-0.0013374999999999,0.076153,0.0039735,0.0013375,-0.125489,-0.5245905,0.0494655,0.125531,-0.5204105,0.0260415,-0.157749,-0.9348705,-0.0521215,0.1851809999999999,-0.9568405,-0.1069545,1
35,0.016866,0.772413,0.077523,-0.170316,0.5518430000000001,0.073923,-0.324586,0.7464230000000001,-0.037277,0.188194,0.559473,0.080997,0.346604,0.7252930000000001,-0.0001769999999999,-0.412726,0.987903,-0.1361149999999999,0.402224,0.982633,-0.0493179999999999,-0.076152,-0.0039959999999999,-0.0013179999999999,0.076152,0.0039959999999999,0.0013179999999999,-0.125506,-0.5245369999999999,0.049562,0.125524,-0.520377,0.026078,-0.157526,-0.930527,-0.0492189999999999,0.186284,-0.955987,-0.108375,1
36,0.0168749999999999,0.7721250000000001,0.077536,-0.170327,0.5515450000000001,0.073707,-0.324777,0.746125,-0.037483,0.188243,0.559245,0.080957,0.346603,0.725015,-0.000267,-0.413147,0.987605,-0.136384,0.402343,0.982335,-0.049695,-0.076165,-0.0037739999999999,-0.001294,0.076165,0.0037739999999999,0.0012939999999999,-0.1255569999999999,-0.524235,0.049683,0.1255029999999999,-0.520625,0.0261099999999999,-0.157327,-0.926255,-0.0463579999999999,0.187203,-0.955115,-0.109374,1
37,0.0168495,0.7718444999999999,0.0775405,-0.1703295,0.5512445,0.0734525,-0.3250195,0.7458245,-0.0376654999999999,0.1882905,0.5590345,0.0809355,0.3466205,0.7247445,-0.0004254999999999,-0.4135594999999999,0.9873045,-0.1366605,0.4024305,0.9820345,-0.0500864999999999,-0.0761795,-0.0035515,-0.0012684999999999,0.0761795,0.0035515,0.0012685,-0.1256094999999999,-0.5239655,0.0498105,0.1254405,-0.5208855,0.0261375,-0.1580794999999999,-0.9289255,-0.0490704999999999,0.1879205,-0.9549455,-0.1107904999999999,1
38,0.0168019999999999,0.7716095,0.077304,-0.17033,0.5505194999999999,0.073196,-0.32527,0.7454894999999999,-0.038102,0.1883,0.5588995,0.080833,0.34665,0.7242694999999999,-0.0008239999999999,-0.414,0.9866995,-0.137281,0.40243,0.9818095,-0.050784,-0.076204,-0.0033275,-0.0012479999999999,0.076204,0.0033274999999999,0.0012479999999999,-0.12568,-0.5236805,0.049914,0.12538,-0.5211005000000001,0.0261339999999999,-0.1588,-0.9323205,-0.051996,0.18756,-0.9553705,-0.109501,1
39,0.0167395,0.7714230000000001,0.0770474999999999,-0.1703325,0.549953,0.0729215,-0.3255525,0.7452230000000001,-0.0385645,0.1883275,0.558803,0.0807205,0.3466475,0.723873,-0.0012535,-0.4144625,0.986183,-0.1379035,0.4024075,0.981683,-0.0515185,-0.0762295,-0.003079,-0.0012155,0.0762295,0.003079,0.0012154999999999,-0.1257425,-0.5233869999999999,0.0499914999999999,0.1253175,-0.521287,0.0261514999999999,-0.1596725,-0.935837,-0.0554315,0.1864475,-0.954977,-0.1064635,1
40,0.0166555,0.771204,0.07673,-0.1704285,0.549514,0.072716,-0.3260685,0.745024,-0.0392629999999999,0.1883415,0.558654,0.080542,0.3466415,0.723514,-0.0017539999999999,-0.4149685,0.985684,-0.1385839999999999,0.4023915,0.981574,-0.0522269999999999,-0.0762505,-0.002816,-0.0011909999999999,0.0762505,0.002816,0.001191,-0.1258185,-0.523086,0.050043,0.1252915,-0.521496,0.026131,-0.1597785,-0.936406,-0.0557939999999999,0.1864515,-0.956006,-0.106454,1
41,0.0165475,0.771002,0.07637,-0.1705225,0.549092,0.07248,-0.3265125,0.744862,-0.039946,0.1883475,0.558522,0.0802519999999999,0.3466375,0.7232919999999999,-0.0023239999999999,-0.4154724999999999,0.985312,-0.139292,0.4023675,0.981712,-0.0529969999999999,-0.0762795,-0.002574,-0.001188,0.0762795,0.0025739999999999,0.001188,-0.1258925,-0.522838,0.05006,0.1252774999999999,-0.521688,0.026116,-0.1604225,-0.937278,-0.0571319999999999,0.1851875,-0.956218,-0.103412,1
42,0.016447,0.7708200000000001,0.075939,-0.170602,0.54874,0.072248,-0.326852,0.74467,-0.040569,0.188348,0.5584,0.079997,0.346658,0.7231700000000001,-0.002922,-0.415952,0.98505,-0.140002,0.402308,0.98181,-0.053771,-0.076306,-0.002358,-0.001178,0.076306,0.002358,0.0011779999999999,-0.125932,-0.52262,0.050066,0.125288,-0.52186,0.026108,-0.1598419999999999,-0.93388,-0.054333,0.183928,-0.95744,-0.099242,1
43,0.0163359999999999,0.770635,0.0754015,-0.1707,0.5485450000000001,0.0720415,-0.32715,0.744415,-0.0411835,0.18836,0.5582550000000001,0.0798175,0.34667,0.723105,-0.0036074999999999,-0.41641,0.984905,-0.1408125,0.40214,0.981895,-0.0547965,-0.076326,-0.002178,-0.0011564999999999,0.076326,0.002178,0.0011565,-0.12598,-0.522425,0.0500675,0.1252899999999999,-0.522025,0.0260955,-0.1595099999999999,-0.932875,-0.0534284999999999,0.18502,-0.959155,-0.1018725,1
44,0.0162274999999999,0.7704945,0.0747655,-0.1707955,0.5483945,0.0715945,-0.3274055,0.7441045,-0.0418315,0.1883545,0.5581045,0.0795714999999999,0.3467745,0.7234645,-0.0044415,-0.4167555,0.9847445,-0.1416224999999999,0.4018945,0.9819745,-0.0558975,-0.0763395,-0.0020145,-0.0011385,0.0763395,0.0020145,0.0011384999999999,-0.1260355,-0.5222655,0.0500495,0.1252744999999999,-0.5221755,0.0260814999999999,-0.1603655,-0.9379555,-0.0561205,0.1853145,-0.9592755,-0.1019325,1
45,0.016127,0.7706175,0.0740835,-0.1708879999999999,0.5485475,0.0710175,-0.327598,0.7439975,-0.0424755,0.188342,0.5581975,0.0793255,0.3468719999999999,0.7241575,-0.0054045,-0.416968,0.9847575,-0.1424925,0.401592,0.9823275,-0.0570635,-0.076361,-0.0021145,-0.0011214999999999,0.076361,0.0021145,0.0011215,-0.1260879999999999,-0.5223825,0.0500145,0.125252,-0.5220625,0.0260435,-0.1603979999999999,-0.9386725,-0.0561705,0.185512,-0.9591625,-0.1009524999999999,1
46,0.0160424999999999,0.770643,0.073293,-0.1709755,0.548623,0.070713,-0.3277155,0.743753,-0.043113,0.1883145,0.558193,0.0790859999999999,0.3469745,0.724783,-0.006364,-0.4171054999999999,0.984713,-0.143418,0.4012945,0.982563,-0.058285,-0.0763955,-0.0021319999999999,-0.0011029999999999,0.0763955,0.0021319999999999,0.0011029999999999,-0.1261255,-0.522377,0.049949,0.1252545,-0.522037,0.026018,-0.1616455,-0.939477,-0.056584,0.1851745,-0.958237,-0.098948,1
47,0.0159554999999999,0.7705405,0.0725909999999999,-0.1710384999999999,0.5485805,0.070438,-0.3278285,0.7436605000000001,-0.043549,0.1882614999999999,0.5581305,0.078912,0.3470614999999999,0.7252905,-0.007178,-0.4172185,0.9846405,-0.144029,0.4010014999999999,0.9826905,-0.059298,-0.0764465,-0.0020425,-0.001079,0.0764465,0.0020425,0.0010789999999999,-0.1261685,-0.5222395,0.0498369999999999,0.1252415,-0.5221295,0.0260259999999999,-0.1619185,-0.9369995,-0.055818,0.1842714999999999,-0.9565095,-0.095319,1
48,0.015827,0.770493,0.0717454999999999,-0.171162,0.548543,0.0699495,-0.327942,0.743633,-0.0440605,0.188178,0.558103,0.0786235,0.347108,0.725733,-0.0080664999999999,-0.417342,0.984553,-0.1447975,0.400718,0.982763,-0.0603314999999999,-0.076497,-0.001979,-0.0010135,0.076497,0.001979,0.0010135,-0.126272,-0.522157,0.0496205,0.125208,-0.522207,0.0259555,-0.162772,-0.936607,-0.0574714999999999,0.183298,-0.955017,-0.0904775,1
49,0.0156025,0.770493,0.0707695,-0.1713585,0.5487129999999999,0.0694495,-0.3281385,0.7436429999999999,-0.0443755,0.1880015,0.558063,0.0782414999999999,0.3470515,0.7262029999999999,-0.0089855,-0.4175585,0.984543,-0.1455625,0.4003915,0.982963,-0.0614325,-0.0764785,-0.001939,-0.0009375,0.0764785,0.0019389999999999,0.0009375,-0.1264985,-0.5221570000000001,0.0494045,0.1251315,-0.522247,0.0258665,-0.1621885,-0.936767,-0.0576234999999999,0.1817015,-0.952627,-0.0857225,1
50,0.0153675,0.7704485000000001,0.069657,-0.1715795,0.5489785,0.06884,-0.3283795,0.7437185000000001,-0.0447759999999999,0.1878304999999999,0.5580185000000001,0.077808,0.3470005,0.7265985,-0.0100269999999999,-0.4178395,0.9845685,-0.146403,0.4000105,0.9831585,-0.062653,-0.0764395,-0.0019065,-0.0008369999999999,0.0764395,0.0019065,0.000837,-0.1266595,-0.5222015,0.049072,0.1250605,-0.5222715,0.025692,-0.1627495,-0.9406715,-0.0610639999999999,0.1803104999999999,-0.9504115,-0.081903,1
51,0.0151889999999999,0.7703690000000001,0.0683795,-0.171794,0.549259,0.0682275,-0.3286139999999999,0.7437790000000001,-0.0452625,0.187656,0.5579390000000001,0.0773095,0.346906,0.726939,-0.0111554999999999,-0.4180939999999999,0.984579,-0.1472925,0.399676,0.983379,-0.0639585,-0.076391,-0.001838,-0.0007384999999999,0.076391,0.0018379999999999,0.0007385,-0.126844,-0.522211,0.0486615,0.124966,-0.522331,0.0254965,-0.162754,-0.942301,-0.0627085,0.179136,-0.948271,-0.0788725,1
52,0.0149695,0.770284,0.0670545,-0.1718665,0.549514,0.0672375,-0.3286964999999999,0.743664,-0.0458575,0.1873835,0.557824,0.0760715,0.3467435,0.727204,-0.0123144999999999,-0.4183265,0.984534,-0.1481485,0.3993434999999999,0.983554,-0.0650995,-0.0763755,-0.001728,-0.0007095,0.0763755,0.001728,0.0007095,-0.1270665,-0.522216,0.0482075,0.1248035,-0.5224460000000001,0.0253155,-0.1616065,-0.939856,-0.0589555,0.1777835,-0.946496,-0.0755784999999999,1
53,0.014768,0.770597,0.065536,-0.171928,0.549837,0.066177,-0.328838,0.743587,-0.046631,0.187122,0.557817,0.07493,0.346522,0.727627,-0.013561,-0.418538,0.984657,-0.149196,0.398962,0.984137,-0.066402,-0.076342,-0.0017779999999999,-0.0007059999999999,0.076342,0.001778,0.0007059999999999,-0.1273079999999999,-0.522393,0.047688,0.124682,-0.5224329999999999,0.025152,-0.160488,-0.936193,-0.054431,0.176502,-0.946733,-0.074576,1
54,0.0145584999999999,0.770887,0.0638685,-0.1719635,0.550137,0.0649994999999999,-0.3290135,0.743547,-0.0474545,0.1869164999999999,0.557887,0.0736874999999999,0.3462965,0.727977,-0.0147455,-0.4187235,0.984747,-0.1501914999999999,0.3985964999999999,0.984777,-0.0677215,-0.0762905,-0.001804,-0.0006595,0.0762905,0.001804,0.0006594999999999,-0.1275535,-0.522553,0.0471255,0.1245565,-0.5224530000000001,0.0249425,-0.1597235,-0.932793,-0.0506175,0.1762365,-0.947333,-0.0763315,1
55,0.0143865,0.771206,0.062112,-0.1719925,0.550456,0.06368,-0.3292325,0.743516,-0.048397,0.1867275,0.557986,0.072189,0.3460975,0.7282959999999999,-0.0160879999999999,-0.4188925,0.984906,-0.1512399999999999,0.3982575,0.985496,-0.0691,-0.0762355,-0.0018449999999999,-0.0006299999999999,0.0762355,0.0018449999999999,0.0006299999999999,-0.1278024999999999,-0.522734,0.046457,0.1244175,-0.522444,0.024669,-0.1597724999999999,-0.931584,-0.049855,0.1757475,-0.948054,-0.07752,1
56,0.0142889999999999,0.7715225,0.0603145,-0.171938,0.5507425,0.0624295,-0.329438,0.7434925,-0.0493685,0.186552,0.5580525,0.0704645,0.345982,0.7283725,-0.0174985,-0.419038,0.9850525,-0.1523655,0.398062,0.9860525,-0.0705755,-0.07617,-0.0018644999999999,-0.0005835,0.07617,0.0018644999999999,0.0005835,-0.128038,-0.5228875000000001,0.0457745,0.124252,-0.5224675,0.0242345,-0.159408,-0.9276775,-0.0463315,0.175612,-0.9501975,-0.0809355,1
57,0.0142165,0.7718065000000001,0.0584885,-0.1718364999999999,0.5509365,0.0610985,-0.3296865,0.7433365000000001,-0.0503265,0.1865435,0.5582565,0.0685055,0.3459135,0.7282965,-0.0189394999999999,-0.4192265,0.9849665,-0.1533725,0.3979935,0.9862065,-0.0720725,-0.0761205,-0.0018955,-0.0006144999999999,0.0761205,0.0018955,0.0006145,-0.1282865,-0.5230335,0.0450825,0.1240635,-0.5225035,0.0237115,-0.1599364999999999,-0.9277735,-0.0458815,0.1763835,-0.9505635,-0.0837525,1
58,0.0142685,0.7722275,0.056694,-0.1716885,0.5510375,0.059803,-0.3298885,0.7429174999999999,-0.051236,0.1867415,0.5587574999999999,0.066186,0.3460315,0.7279774999999999,-0.0205549999999999,-0.4192985,0.9849275,-0.154362,0.3981715,0.9862075,-0.073612,-0.0761675,-0.0019464999999999,-0.0006419999999999,0.0761675,0.0019464999999999,0.000642,-0.1284985,-0.5232025,0.044393,0.1239215,-0.5225725000000001,0.023172,-0.1602685,-0.9269525,-0.0451329999999999,0.1760715,-0.9508825,-0.084342,1
59,0.0143874999999999,0.7727539999999999,0.054747,-0.1715255,0.551094,0.058529,-0.3302155,0.742594,-0.052144,0.1869945,0.559294,0.063885,0.3462345,0.727714,-0.022229,-0.4193354999999999,0.984814,-0.15535,0.3986145,0.986114,-0.0752299999999999,-0.0762185,-0.001989,-0.0006749999999999,0.0762185,0.001989,0.000675,-0.1287155,-0.523416,0.043631,0.1237844999999999,-0.5226660000000001,0.022617,-0.1598655,-0.922836,-0.042597,0.1757645,-0.951376,-0.08489,1
60,0.0145339999999999,0.7733525,0.052626,-0.171341,0.5513425,0.05723,-0.330521,0.7423425,-0.053032,0.187249,0.5598725,0.061323,0.346609,0.7274925,-0.0240389999999999,-0.419451,0.9845925,-0.156439,0.399289,0.9858925,-0.077079,-0.076278,-0.0020495,-0.0007199999999999,0.076278,0.0020495,0.00072,-0.128921,-0.5236375,0.042709,0.1236289999999999,-0.5227475,0.022043,-0.160161,-0.9225675,-0.043166,0.176429,-0.9522775,-0.0882189999999999,1
61,0.0147515,0.773996,0.050488,-0.1712935,0.551826,0.056357,-0.3307735,0.741946,-0.053899,0.1876664999999999,0.560476,0.059626,0.3471865,0.727276,-0.025948,-0.4196034999999999,0.984406,-0.157488,0.4001765,0.985706,-0.078988,-0.0763015,-0.002171,-0.000691,0.0763015,0.002171,0.000691,-0.1290835,-0.523904,0.041763,0.1235264999999999,-0.5228039999999999,0.021499,-0.1601135,-0.921344,-0.041553,0.1751365,-0.951164,-0.086388,1
62,0.0150185,0.7742785000000001,0.048311,-0.1712955,0.5524285,0.055709,-0.3312155,0.7412785000000001,-0.054805,0.1880545,0.5609085,0.058025,0.3479545,0.7267585000000001,-0.02779,-0.4198655,0.9842885,-0.158432,0.4011845,0.9856085,-0.080842,-0.0763405,-0.0021145,-0.000656,0.0763405,0.0021145,0.000656,-0.1292955,-0.5240615,0.040671,0.1233245,-0.5229014999999999,0.020936,-0.1603855,-0.9220315,-0.04273,0.1758945,-0.9525015,-0.090042,1
63,0.015313,0.7745985,0.045937,-0.171392,0.5530485,0.05523,-0.331952,0.7401685,-0.0558,0.1883679999999999,0.5612685,0.056332,0.349238,0.7257785,-0.029861,-0.420172,0.9836185,-0.1593939999999999,0.402308,0.9854785,-0.082674,-0.0764,-0.0020645,-0.0006479999999999,0.0764,0.0020645,0.0006479999999999,-0.129562,-0.5241515,0.039374,0.123068,-0.5229914999999999,0.020261,-0.160582,-0.9211915,-0.042635,0.1755979999999999,-0.9528815,-0.090514,1
64,0.015709,0.7748889999999999,0.0432995,-0.171414,0.553689,0.0545434999999999,-0.332964,0.7384989999999999,-0.0567194999999999,0.188656,0.561669,0.0548135,0.350976,0.724379,-0.0320064999999999,-0.420544,0.982719,-0.1603755,0.403656,0.985009,-0.0845255,-0.076463,-0.001995,-0.0005994999999999,0.076463,0.001995,0.0005994999999999,-0.129854,-0.524221,0.0380125,0.122846,-0.523061,0.0193295,-0.160854,-0.920911,-0.0433294999999999,0.175346,-0.953081,-0.0908855,1
65,0.0161319999999999,0.7750429999999999,0.0405504999999999,-0.171436,0.5543629999999999,0.0537315,-0.334136,0.7358429999999999,-0.0576845,0.188984,0.562083,0.0534245,0.353324,0.7221529999999999,-0.0344905,-0.420806,0.981273,-0.1614875,0.405444,0.982113,-0.0865375,-0.076522,-0.001973,-0.0005365,0.076522,0.001973,0.0005364999999999,-0.130136,-0.524387,0.0363275,0.122624,-0.5232870000000001,0.0180955,-0.160916,-0.920167,-0.0434345,0.176194,-0.954937,-0.0950975,1
66,0.0165619999999999,0.7750505,0.037552,-0.171422,0.5550805,0.052816,-0.335482,0.7329005,-0.058688,0.1892279999999999,0.5620905,0.052271,0.356318,0.7197905,-0.0371249999999999,-0.421572,0.9795205,-0.162763,0.407398,0.9788305,-0.0885929999999999,-0.076564,-0.0019805,-0.000406,0.076564,0.0019805,0.000406,-0.130402,-0.5244695,0.034554,0.122418,-0.5234595,0.0166909999999999,-0.161122,-0.9201595,-0.04375,0.175758,-0.9553895,-0.095063,1
67,0.0170269999999999,0.775076,0.0342615,-0.171375,0.556146,0.0516695,-0.337105,0.729826,-0.0598135,0.189405,0.5621160000000001,0.0513175,0.3593449999999999,0.717006,-0.0396175,-0.422945,0.976286,-0.1643195,0.4094049999999999,0.975206,-0.0906995,-0.076585,-0.001989,-0.0002855,0.076585,0.001989,0.0002854999999999,-0.130655,-0.524534,0.0326735,0.1222849999999999,-0.523704,0.0147514999999999,-0.161455,-0.920134,-0.0440804999999999,0.175485,-0.955194,-0.0949295,1
68,0.0174135,0.7750859999999999,0.030763,-0.1713365,0.557176,0.050308,-0.3391265,0.726526,-0.0611049999999999,0.1895835,0.562126,0.050317,0.3626735,0.714206,-0.042214,-0.4247465,0.970916,-0.165779,0.4113335,0.971436,-0.092789,-0.0766145,-0.001979,-0.0001999999999999,0.0766145,0.001979,0.0002,-0.1309265,-0.524584,0.030766,0.1221935,-0.523954,0.012466,-0.1618565,-0.920234,-0.0449109999999999,0.1750635,-0.952954,-0.093379,1
69,0.0177529999999999,0.7749904999999999,0.0271115,-0.171234,0.5583104999999999,0.0485995,-0.341344,0.7228804999999999,-0.0625255,0.189796,0.5622305,0.0494435,0.3662959999999999,0.7112504999999999,-0.0449175,-0.426804,0.9653605,-0.1671765,0.413226,0.9673605,-0.0946365,-0.076648,-0.0018065,-0.0001104999999999,0.076648,0.0018065,0.0001105,-0.131264,-0.5248195000000001,0.0285845,0.122146,-0.5244295000000001,0.0096555,-0.162124,-0.9199395,-0.0458625,0.174866,-0.9535795,-0.0934364999999999,1
70,0.0181695,0.7747085,0.0231965,-0.1710575,0.5589485000000001,0.0467675,-0.3437375,0.7194385,-0.0640845,0.1900425,0.5620585,0.0485785,0.3699725,0.7085085,-0.0476265,-0.4291175,0.9589585,-0.1687615,0.4151125,0.9631985,-0.0965515,-0.0767134999999999,-0.0016415,-4.250000000000087e-05,0.0767134999999999,0.0016415,4.250000000000087e-05,-0.1316175,-0.5250515,0.0263695,0.1221225,-0.5248815,0.0065685,-0.1625375,-0.9203715,-0.0473814999999999,0.1757425,-0.9551715,-0.0964715,1
71,0.0185539999999999,0.774119,0.018882,-0.170855,0.559269,0.044544,-0.346195,0.7158789999999999,-0.066033,0.190365,0.561869,0.047654,0.373605,0.705849,-0.050399,-0.431585,0.952139,-0.170631,0.417035,0.958919,-0.098691,-0.076765,-0.001513,2.8000000000000247e-05,0.076765,0.001513,-2.8000000000000247e-05,-0.132065,-0.525261,0.023925,0.1221849999999999,-0.525031,0.0028229999999999,-0.162765,-0.921471,-0.048795,0.175075,-0.954101,-0.095271,1
72,0.0188999999999999,0.773389,0.0145825,-0.170586,0.559659,0.0421675,-0.3487059999999999,0.712259,-0.0682045,0.191194,0.561349,0.0451095,0.376834,0.703259,-0.0530965,-0.4339659999999999,0.944949,-0.1729725,0.418814,0.954529,-0.1012325,-0.0768119999999999,-0.001423,0.0001064999999999,0.0768119999999999,0.001423,-0.0001064999999999,-0.132646,-0.525401,0.0213095,0.122364,-0.525321,-0.0011844999999999,-0.162946,-0.921561,-0.0496205,0.1742939999999999,-0.951271,-0.0908225,1
73,0.0191305,0.7724734999999999,0.0101099999999999,-0.1703225,0.5601935,0.039609,-0.3509825,0.7084834999999999,-0.071332,0.1920175,0.5609835,0.042516,0.3798675,0.7008135,-0.0562,-0.4363025,0.9354235,-0.17657,0.4201275,0.9500235,-0.1044199999999999,-0.0768455,-0.0013685,0.0002209999999999,0.0768455,0.0013685,-0.000221,-0.1335525,-0.5256765,0.0182129999999999,0.1229675,-0.5255365000000001,-0.005967,-0.1632525,-0.9213365,-0.050443,0.1733175,-0.9483165,-0.08657,1
74,0.019235,0.7712315,0.0048454999999999,-0.169948,0.5605114999999999,0.0364945,-0.353118,0.7043415,-0.0748635,0.192782,0.5607615,0.0401925,0.382292,0.6982415,-0.0596675,-0.438538,0.9252315,-0.1807305,0.420532,0.9471315,-0.1080704999999999,-0.076916,-0.0013215,0.0003074999999999,0.076916,0.0013215,-0.0003075,-0.134718,-0.5259585,0.0145934999999999,0.124392,-0.5256185,-0.0132024999999999,-0.163548,-0.9205985,-0.0509305,0.172242,-0.9450485,-0.0823405,1
75,0.01934,0.769826,-0.0005905,-0.169425,0.5606760000000001,0.0325685,-0.355205,0.697416,-0.0785845,0.193445,0.560316,0.0370985,0.384135,0.695236,-0.0636845,-0.440285,0.912886,-0.1858845,0.420425,0.944476,-0.1123245,-0.0770019999999999,-0.0011839999999999,0.0003844999999999,0.0770019999999999,0.001184,-0.0003845,-0.136815,-0.526104,0.0089204999999999,0.126045,-0.525564,-0.0207415,-0.1638949999999999,-0.919664,-0.0522045,0.171705,-0.941094,-0.0804445,1
76,0.019355,0.7681859999999999,-0.0063215,-0.168938,0.5607359999999999,0.0287195,-0.357268,0.6902759999999999,-0.0825335,0.1939519999999999,0.559896,0.0334875,0.385782,0.692336,-0.0681015,-0.441378,0.901316,-0.1915435,0.419982,0.941626,-0.1177834999999999,-0.07719,-0.000957,0.0004485,0.07719,0.000957,-0.0004484999999999,-0.138998,-0.525804,0.0027735,0.127862,-0.524514,-0.0286174999999999,-0.164318,-0.918284,-0.0537445,0.1718319999999999,-0.939014,-0.0813335,1
77,0.019154,0.766497,-0.012606,-0.1684979999999999,0.560287,0.024409,-0.359278,0.683237,-0.087017,0.194292,0.557427,0.027813,0.386752,0.6894870000000001,-0.073271,-0.442038,0.891957,-0.198177,0.419332,0.938837,-0.124137,-0.077463,-0.0006719999999999,0.000519,0.077463,0.000672,-0.0005189999999999,-0.141808,-0.525023,-0.0041309999999999,0.130012,-0.5230929999999999,-0.037461,-0.164878,-0.916213,-0.055474,0.171202,-0.934013,-0.081227,1
78,0.0188125,0.7647235,-0.0192435,-0.1681545,0.5599235,0.0201954999999999,-0.3613145,0.6760735,-0.0924915,0.1944655,0.5547235,0.0214334999999999,0.3871755,0.6862334999999999,-0.0791385,-0.4428545,0.8827035,-0.2061415,0.4185255,0.9362835,-0.1317715,-0.0777775,-0.0003414999999999,0.0006334999999999,0.0777775,0.0003414999999999,-0.0006335,-0.1447545,-0.5237865,-0.0119985,0.1323955,-0.5205365,-0.0465145,-0.1657645,-0.9135365,-0.0573064999999999,0.1706855,-0.9301865,-0.0826115,1
79,0.0181855,0.7627345,-0.0264439999999999,-0.1679825,0.5587645,0.01531,-0.3635524999999999,0.6694045,-0.098509,0.1943275,0.5522645,0.014558,0.3872175,0.6825145,-0.085599,-0.4438824999999999,0.8749645,-0.2149889999999999,0.4172475,0.9333045,-0.140589,-0.0781375,-1.1499999999999358e-05,0.000747,0.0781375,1.1499999999999358e-05,-0.0007469999999999,-0.1483124999999999,-0.5228655,-0.0217269999999999,0.1347775,-0.5167355,-0.056669,-0.1668625,-0.9096355,-0.0594839999999999,0.1699875,-0.9250155,-0.084339,1
80,0.0171659999999999,0.7604695,-0.033733,-0.168144,0.5566595,0.010095,-0.365844,0.6630595,-0.104772,0.1935259999999999,0.5497394999999999,0.007146,0.386736,0.6777394999999999,-0.092602,-0.445314,0.8682495,-0.224662,0.415206,0.9306595,-0.150002,-0.078523,0.0001764999999999,0.000873,0.078523,-0.0001764999999999,-0.0008729999999999,-0.152224,-0.5206505,-0.0321269999999999,0.137346,-0.5118405,-0.06725,-0.168354,-0.9045405,-0.0619399999999999,0.168176,-0.9182205,-0.086062,1
81,0.0157815,0.758624,-0.0415,-0.1686495,0.5541640000000001,0.004199,-0.3678194999999999,0.657294,-0.111741,0.1918605,0.5482340000000001,0.0006049999999999,0.3857705,0.673794,-0.100321,-0.4466394999999999,0.863594,-0.235261,0.4123504999999999,0.927634,-0.160931,-0.0789815,0.000435,0.000908,0.0789815,-0.000435,-0.0009079999999999,-0.1563695,-0.5164660000000001,-0.043329,0.1396505,-0.505406,-0.078517,-0.1701395,-0.8973059999999999,-0.064471,0.1665705,-0.909566,-0.089361,1
82,0.014026,0.7562265,-0.0497154999999999,-0.169333,0.5523265,-0.0018095,-0.3700529999999999,0.6527065000000001,-0.1189115,0.189997,0.5461165,-0.0064694999999999,0.384267,0.6702065,-0.1085315,-0.4476929999999999,0.8622165,-0.2455314999999999,0.409087,0.9252165,-0.1720915,-0.079452,0.0006525,0.0009325,0.079452,-0.0006525,-0.0009324999999999,-0.160643,-0.5105135,-0.0553405,0.141937,-0.4983335,-0.0910115,-0.171853,-0.8884734999999999,-0.0674805,0.1648369999999999,-0.9009235,-0.0931014999999999,1
83,0.012198,0.754393,-0.057545,-0.1703029999999999,0.5503629999999999,-0.0076899999999999,-0.372533,0.6492129999999999,-0.126367,0.188077,0.543373,-0.014322,0.382627,0.6667329999999999,-0.116947,-0.447803,0.8617929999999999,-0.255857,0.405437,0.923383,-0.183727,-0.079863,0.0008229999999999,0.001093,0.079863,-0.000823,-0.001093,-0.164903,-0.502707,-0.067989,0.143367,-0.4901469999999999,-0.101467,-0.1736329999999999,-0.8781070000000001,-0.070864,0.163277,-0.891227,-0.097467,1
84,0.0101039999999999,0.7523610000000001,-0.0657664999999999,-0.171451,0.548611,-0.0136794999999999,-0.375281,0.645391,-0.1340765,0.185839,0.5407109999999999,-0.0225404999999999,0.380719,0.664091,-0.1259165,-0.447261,0.863241,-0.2659265,0.401349,0.921911,-0.1960765,-0.0803629999999999,0.0009079999999999,0.0012325,0.0803629999999999,-0.0009079999999999,-0.0012324999999999,-0.168521,-0.4932189999999999,-0.0793474999999999,0.144689,-0.480519,-0.1122065,-0.1755509999999999,-0.866129,-0.0745175,0.160979,-0.8787889999999999,-0.1013265,1
85,0.007989,0.7504569999999999,-0.0749515,-0.172551,0.545767,-0.0205965,-0.377961,0.643147,-0.1427215,0.183339,0.538197,-0.0315205,0.378709,0.660847,-0.1359614999999999,-0.445811,0.860287,-0.2765515,0.397239,0.921167,-0.2085815,-0.080859,0.000713,0.0013174999999999,0.080859,-0.000713,-0.0013174999999999,-0.172321,-0.481133,-0.0914565,0.145999,-0.469113,-0.1236215,-0.177471,-0.851723,-0.0785575,0.158409,-0.864053,-0.1048715,1
86,0.006026,0.748821,-0.0841995,-0.173694,0.5438609999999999,-0.0277065,-0.380204,0.640331,-0.1513855,0.180986,0.537381,-0.0394445,0.376766,0.6567210000000001,-0.1460755,-0.443964,0.857901,-0.2870855,0.3931759999999999,0.920431,-0.2218355,-0.081246,0.0005259999999999,0.0014185,0.081246,-0.0005259999999999,-0.0014185,-0.175664,-0.4673489999999999,-0.1037855,0.146956,-0.4568589999999999,-0.1346055,-0.179244,-0.836479,-0.0831745,0.156546,-0.849269,-0.1100555,1
87,0.0041234999999999,0.74624,-0.094081,-0.1747515,0.54126,-0.035636,-0.3828215,0.63769,-0.160313,0.1786585,0.5362,-0.047916,0.3750585,0.65206,-0.156413,-0.4416215,0.8556499999999999,-0.297653,0.3892685,0.91538,-0.235763,-0.0816085,0.0002299999999999,0.0015019999999999,0.0816085,-0.00023,-0.0015019999999999,-0.1790315,-0.45104,-0.115863,0.1477485,-0.4402,-0.145863,-0.1813115,-0.8201700000000001,-0.088768,0.1547385,-0.83296,-0.117883,1
88,0.0021389999999999,0.744025,-0.1049415,-0.175857,0.539175,-0.0446754999999999,-0.3853769999999999,0.633775,-0.1707535,0.1761329999999999,0.534625,-0.0577935,0.373733,0.647045,-0.1678835,-0.438527,0.849815,-0.3088235,0.385613,0.911505,-0.2503235,-0.081933,-1.5000000000001124e-05,0.0015834999999999,0.081933,1.4999999999987246e-05,-0.0015834999999999,-0.182277,-0.4339149999999999,-0.1280435,0.1485429999999999,-0.422065,-0.1572135,-0.183357,-0.803045,-0.0958855,0.153033,-0.815835,-0.1276235,1
89,-2.0499999999999685e-05,0.74264,-0.1219955,-0.1772484999999999,0.53766,-0.0601504999999999,-0.3881685,0.62997,-0.1867964999999999,0.1731615,0.53437,-0.0739885,0.3724615,0.64372,-0.1856165,-0.4355585,0.84544,-0.3254065,0.3820415,0.90528,-0.2719465,-0.0821915,-0.0002099999999999,0.0016485,0.0821915,0.0002099999999999,-0.0016485,-0.1857384999999999,-0.41422,-0.1457864999999999,0.1487815,-0.40286,-0.1739965,-0.1853584999999999,-0.7843600000000001,-0.1091015,0.1515515,-0.79715,-0.1418465,1
90,-0.001679,0.741085,-0.1407195,-0.177994,0.536065,-0.0765365,-0.390324,0.627335,-0.2043295,0.170526,0.532275,-0.0911235,0.371626,0.640165,-0.2053695,-0.432214,0.840765,-0.3436194999999999,0.379266,0.900895,-0.2937895,-0.082316,-0.000425,0.0017514999999999,0.082316,0.0004249999999999,-0.0017515,-0.191214,-0.391635,-0.1685195,0.150786,-0.381625,-0.1960095,-0.187434,-0.765145,-0.1245575,0.150866,-0.777665,-0.1576595,1
91,-0.0037885,0.7392449999999999,-0.1599249999999999,-0.1791335,0.5335449999999999,-0.0933819999999999,-0.3927235,0.622665,-0.221905,0.1677664999999999,0.5303450000000001,-0.108836,0.3704565,0.634745,-0.225055,-0.4290335,0.8346549999999999,-0.362685,0.3762465,0.8974850000000001,-0.315905,-0.0824165,-0.0006749999999999,0.001826,0.0824165,0.000675,-0.001826,-0.1968435,-0.3663049999999999,-0.190905,0.1521365,-0.360975,-0.216515,-0.1898035,-0.7455050000000001,-0.140594,0.1501164999999999,-0.758375,-0.174375,1
92,-0.0061109999999999,0.7358,-0.180574,-0.180338,0.53077,-0.111384,-0.395248,0.61758,-0.240384,0.165022,0.52886,-0.127195,0.369342,0.62842,-0.245454,-0.427218,0.82776,-0.3830739999999999,0.372832,0.89292,-0.3382139999999999,-0.082552,-0.0009,0.001752,0.082552,0.0009,-0.0017519999999999,-0.202418,-0.34111,-0.2132939999999999,0.1534019999999999,-0.34007,-0.2378839999999999,-0.192188,-0.72603,-0.157872,0.149452,-0.73904,-0.1912539999999999,1
93,-0.0087125,0.7323550000000001,-0.2013585,-0.1814835,0.527425,-0.1300335,-0.3976135,0.615395,-0.2596684999999999,0.1622465,0.526775,-0.1462864999999999,0.3681665,0.621475,-0.2657985,-0.4261835,0.8207850000000001,-0.4040685,0.3694064999999999,0.8811549999999999,-0.3631285,-0.0825565,-0.0010449999999999,0.0017275,0.0825565,0.001045,-0.0017274999999999,-0.2078535,-0.316115,-0.2355285,0.1545564999999999,-0.3199749999999999,-0.2591985,-0.1943435,-0.706575,-0.1757415,0.1493364999999999,-0.720305,-0.2086184999999999,1
94,-0.0116169999999999,0.7281500000000001,-0.222489,-0.182839,0.5254,-0.148693,-0.399929,0.61015,-0.278789,0.159481,0.52361,-0.166131,0.366951,0.61382,-0.2865189999999999,-0.4266189999999999,0.81835,-0.425629,0.365901,0.86986,-0.388339,-0.082531,-0.0010499999999999,0.0018149999999999,0.082531,0.0010499999999999,-0.001815,-0.213149,-0.2928,-0.257799,0.155331,-0.29962,-0.280259,-0.196719,-0.68902,-0.194259,0.148131,-0.70214,-0.223549,1
95,-0.0147494999999999,0.72289,-0.2434899999999999,-0.1842424999999999,0.52162,-0.167209,-0.4020725,0.6046400000000001,-0.29782,0.1562975,0.52095,-0.185589,0.3651875,0.60659,-0.30765,-0.4271825,0.81,-0.44718,0.3621375,0.85745,-0.41373,-0.0824075,-0.0012899999999999,0.00183,0.0824075,0.00129,-0.0018299999999999,-0.2177825,-0.2712,-0.27949,0.1559875,-0.2795499999999999,-0.30101,-0.1992624999999999,-0.6717299999999999,-0.21288,0.1471675,-0.68335,-0.23842,1
96,-0.0181505,0.7181850000000001,-0.2639849999999999,-0.1856185,0.517685,-0.185106,-0.4048185,0.597415,-0.315865,0.1530214999999999,0.518705,-0.204666,0.3632614999999999,0.598595,-0.328875,-0.4280585,0.802095,-0.4678449999999999,0.3579715,0.8470150000000001,-0.4388149999999999,-0.0823315,-0.0015249999999999,0.001915,0.0823315,0.0015249999999999,-0.001915,-0.2219185,-0.250535,-0.300425,0.1565015,-0.261265,-0.321145,-0.2000585,-0.653735,-0.227325,0.1466015,-0.665205,-0.253405,1
97,-0.0218389999999999,0.7126300000000001,-0.283535,-0.187433,0.5129600000000001,-0.20164,-0.407563,0.591,-0.331095,0.149537,0.51583,-0.222412,0.361657,0.59229,-0.349595,-0.429173,0.7945,-0.487475,0.353247,0.83482,-0.463265,-0.0821969999999999,-0.00189,0.0019549999999999,0.0821969999999999,0.00189,-0.001955,-0.225563,-0.2319299999999999,-0.319885,0.156847,-0.24326,-0.340375,-0.201173,-0.63698,-0.240755,0.145907,-0.6476,-0.267375,1
98,-0.025775,0.706885,-0.29713,-0.189628,0.508595,-0.211909,-0.410428,0.583635,-0.3406099999999999,0.146062,0.512115,-0.23396,0.359792,0.583685,-0.36421,-0.430908,0.786465,-0.50093,0.348142,0.823685,-0.48056,-0.081982,-0.0022649999999999,0.00212,0.081982,0.002265,-0.00212,-0.229068,-0.2146249999999999,-0.33325,0.156742,-0.2265049999999999,-0.35362,-0.202548,-0.621355,-0.24866,0.1446319999999999,-0.6301749999999999,-0.27303,1
99,-0.0294369999999999,0.70076,-0.309335,-0.1915609999999999,0.50404,-0.221188,-0.412761,0.57412,-0.348755,0.142809,0.5085999999999999,-0.244672,0.357919,0.57511,-0.376825,-0.432301,0.77736,-0.512065,0.342839,0.80983,-0.496395,-0.0818889999999999,-0.00267,0.0022349999999999,0.081889,0.00267,-0.002235,-0.230451,-0.20001,-0.340925,0.1554789999999999,-0.21208,-0.361235,-0.203861,-0.60722,-0.256345,0.143649,-0.61579,-0.277715,1
100,-0.0331105,0.69533,-0.320555,-0.1935425,0.49978,-0.229939,-0.4148325,0.56341,-0.355835,0.1395375,0.50527,-0.254533,0.3557675,0.56801,-0.389075,-0.4337425,0.76705,-0.521655,0.3373375,0.7957799999999999,-0.511395,-0.0818575,-0.00295,0.0023149999999999,0.0818575,0.00295,-0.002315,-0.2318325,-0.18464,-0.3477949999999999,0.1540775,-0.19671,-0.368345,-0.2052825,-0.59241,-0.263095,0.1425375,-0.60042,-0.282065,1
101,-0.0362305,0.6901200000000001,-0.3305949999999999,-0.1949425,0.49551,-0.237641,-0.4163025,0.55279,-0.361975,0.1368575,0.50169,-0.2633649999999999,0.3540775,0.56131,-0.400205,-0.4345725,0.75458,-0.529925,0.3321775,0.77813,-0.526025,-0.0817875,-0.0032099999999999,0.002395,0.0817875,0.0032099999999999,-0.0023949999999999,-0.2329425,-0.17019,-0.353545,0.1531975,-0.18226,-0.3743149999999999,-0.2062625,-0.57846,-0.2685149999999999,0.1417175,-0.5859699999999999,-0.286525,1
102,-0.0396894999999999,0.684605,-0.340005,-0.1966235,0.492095,-0.2442369999999999,-0.4178535,0.5417150000000001,-0.366655,0.1339965,0.498595,-0.270765,0.3515765,0.555065,-0.4101249999999999,-0.4355535,0.7428250000000001,-0.536725,0.3267265,0.767715,-0.536945,-0.0818365,-0.0034749999999999,0.0024049999999999,0.0818365,0.003475,-0.0024049999999999,-0.2337635,-0.1606449999999999,-0.358755,0.1519065,-0.1727149999999999,-0.379795,-0.2059935,-0.566175,-0.271565,0.1396665,-0.573865,-0.290105,1
103,-0.0426665,0.679905,-0.34789,-0.1979195,0.488295,-0.2496789999999999,-0.4189595,0.531015,-0.37012,0.1314705,0.496055,-0.27627,0.3493405,0.546365,-0.41876,-0.4363595,0.730475,-0.54115,0.3215705,0.755215,-0.54615,-0.0818805,-0.0037349999999999,0.0024299999999999,0.0818805,0.003735,-0.00243,-0.2341195,-0.1518149999999999,-0.36287,0.1506405,-0.1640349999999999,-0.38426,-0.2054995,-0.5541849999999999,-0.27389,0.1379304999999999,-0.562045,-0.29189,1
104,-0.0454715,0.675735,-0.35522,-0.1990075,0.4856529999999999,-0.254582,-0.4197375,0.520135,-0.3727899999999999,0.1294325,0.4934749999999999,-0.28123,0.3472325,0.539025,-0.42589,-0.4370975,0.7223849999999999,-0.54504,0.3164825,0.743895,-0.5534,-0.0819925,-0.003935,0.0025199999999999,0.0819925,0.0039349999999999,-0.0025199999999999,-0.2343575,-0.143315,-0.36676,0.1493025,-0.155975,-0.3884999999999999,-0.2048174999999999,-0.5425150000000001,-0.27525,0.1362625,-0.550265,-0.29388,1
105,-0.0481565,0.671805,-0.36175,-0.2000975,0.482506,-0.258934,-0.4205375,0.509785,-0.37441,0.1273825,0.491111,-0.28541,0.3451025,0.5332250000000001,-0.4318499999999999,-0.4381375,0.714165,-0.54766,0.3113025,0.7350650000000001,-0.55884,-0.0820925,-0.0041249999999999,0.00247,0.0820925,0.004125,-0.00247,-0.2347275,-0.1350949999999999,-0.37019,0.1476525,-0.1479849999999999,-0.39243,-0.2042075,-0.531015,-0.27568,0.1345925,-0.538735,-0.29442,1
106,-0.0500805,0.6674549999999999,-0.367495,-0.2007295,0.480483,-0.262664,-0.4210695,0.4987749999999999,-0.375645,0.1262105,0.490096,-0.288865,0.3429804999999999,0.525605,-0.4365449999999999,-0.4386895,0.703775,-0.549985,0.3065205,0.7269749999999999,-0.562915,-0.0821805,-0.004315,0.002425,0.0821805,0.0043149999999999,-0.0024249999999999,-0.2348095,-0.127835,-0.373305,0.1463705,-0.140675,-0.395715,-0.2033395,-0.5209750000000001,-0.275887,0.1336605,-0.528555,-0.296155,1
107,-0.0517589999999999,0.663135,-0.37282,-0.2010529999999999,0.47786,-0.266188,-0.421283,0.489299,-0.37687,0.125237,0.48738,-0.2921,0.341177,0.520783,-0.44049,-0.438133,0.691865,-0.55232,0.301657,0.7208950000000001,-0.56638,-0.0821869999999999,-0.0043549999999999,0.0022699999999999,0.082187,0.0043549999999999,-0.00227,-0.2348929999999999,-0.1201749999999999,-0.37616,0.1452169999999999,-0.133265,-0.39888,-0.2022029999999999,-0.510265,-0.276113,0.133017,-0.518295,-0.29752,1
108,-0.053467,0.65956,-0.37729,-0.201238,0.475795,-0.269005,-0.421468,0.480651,-0.37756,0.1244619999999999,0.486026,-0.29449,0.3395019999999999,0.515723,-0.4437,-0.437638,0.67824,-0.5542100000000001,0.296712,0.71714,-0.56891,-0.082152,-0.0044799999999999,0.0021899999999999,0.082152,0.00448,-0.0021899999999999,-0.235038,-0.1116899999999999,-0.3787,0.143862,-0.12519,-0.40168,-0.202218,-0.49926,-0.276946,0.132462,-0.50758,-0.29833,1
109,-0.0548899999999999,0.655755,-0.381355,-0.201518,0.474313,-0.271377,-0.421658,0.474385,-0.377765,0.123762,0.485142,-0.296525,0.338352,0.510316,-0.446195,-0.4370579999999999,0.667415,-0.5555749999999999,0.292482,0.711785,-0.570865,-0.082152,-0.004545,0.002145,0.082152,0.004545,-0.002145,-0.235128,-0.1036949999999999,-0.3810449999999999,0.142402,-0.117765,-0.404355,-0.201958,-0.489585,-0.276859,0.132272,-0.4987049999999999,-0.299615,1
110,-0.056027,0.65254,-0.3848549999999999,-0.2015559999999999,0.473342,-0.273263,-0.421736,0.4680959999999999,-0.3775849999999999,0.123404,0.4838369999999999,-0.298195,0.337514,0.505056,-0.447405,-0.436376,0.66026,-0.556315,0.289254,0.7110799999999999,-0.571725,-0.082284,-0.00454,0.002105,0.082284,0.0045399999999999,-0.0021049999999999,-0.235166,-0.09543,-0.383175,0.141314,-0.1099,-0.4068549999999999,-0.201516,-0.47953,-0.276893,0.132274,-0.48929,-0.300555,1
111,-0.056721,0.6494800000000001,-0.38804,-0.20147,0.471437,-0.275013,-0.42157,0.462619,-0.37754,0.12319,0.48352,-0.29976,0.33723,0.499531,-0.44879,-0.43591,0.6526000000000001,-0.55721,0.28649,0.7053400000000001,-0.57235,-0.08229,-0.0049199999999999,0.0020999999999999,0.08229,0.00492,-0.0020999999999999,-0.23543,-0.0876099999999999,-0.38514,0.14037,-0.1022899999999999,-0.40928,-0.20159,-0.47058,-0.278066,0.13223,-0.48019,-0.30147,1
112,-0.0572009999999999,0.64594,-0.39123,-0.201349,0.4697869999999999,-0.276627,-0.421489,0.457547,-0.37807,0.123141,0.4823019999999999,-0.30158,0.337601,0.4976429999999999,-0.4492,-0.4355489999999999,0.6461899999999999,-0.55795,0.284431,0.70072,-0.5725899999999999,-0.082301,-0.00504,0.0020899999999999,0.082301,0.0050399999999999,-0.00209,-0.235839,-0.07888,-0.38664,0.139741,-0.09432,-0.41125,-0.2015989999999999,-0.46082,-0.278928,0.1323909999999999,-0.4702200000000001,-0.30225,1
113,-0.0575645,0.6418699999999999,-0.39419,-0.2012795,0.468564,-0.277973,-0.4211695,0.453126,-0.37831,0.1231405,0.481189,-0.30323,0.3379005,0.493545,-0.44918,-0.4352395,0.63944,-0.55838,0.2830505,0.69592,-0.57287,-0.0823405,-0.00502,0.00211,0.0823405,0.00502,-0.00211,-0.2360795,-0.07088,-0.38761,0.1391305,-0.0873399999999999,-0.41288,-0.2016895,-0.45215,-0.27993,0.1322904999999999,-0.4615,-0.3035,1
114,-0.0578515,0.636545,-0.39714,-0.2011615,0.466755,-0.279329,-0.4205514999999999,0.449114,-0.37793,0.1231884999999999,0.478205,-0.30487,0.3382085,0.488521,-0.44921,-0.4349415,0.6300950000000001,-0.5588599999999999,0.2825085,0.690615,-0.57334,-0.0824285,-0.0050049999999999,0.00207,0.0824285,0.005005,-0.0020699999999999,-0.2357814999999999,-0.0639549999999999,-0.38785,0.1385785,-0.081655,-0.4130899999999999,-0.2018215,-0.4453749999999999,-0.280711,0.1323185,-0.4536449999999999,-0.30508,1
115,-0.0580825,0.63243,-0.40068,-0.2009445,0.464413,-0.281217,-0.4197945,0.446009,-0.37803,0.1232755,0.474586,-0.30701,0.3385255,0.484323,-0.4505,-0.4347545,0.62539,-0.5592,0.2828555,0.68498,-0.57446,-0.0825455,-0.0049099999999999,0.0020799999999999,0.0825455,0.00491,-0.0020799999999999,-0.2354244999999999,-0.0574699999999999,-0.38856,0.1377455,-0.07606,-0.41376,-0.2019445,-0.4390699999999999,-0.28195,0.1324155,-0.44648,-0.30741,1
116,-0.0581885,0.6270399999999999,-0.403835,-0.2007715,0.4615229999999999,-0.282655,-0.4192714999999999,0.4404339999999999,-0.378285,0.1234384999999999,0.4714459999999999,-0.308725,0.3387785,0.4782309999999999,-0.451445,-0.4350414999999999,0.62001,-0.559565,0.2830985,0.6779099999999999,-0.575685,-0.0826185,-0.00482,0.002195,0.0826185,0.0048199999999999,-0.0021949999999999,-0.2351615,-0.0520300000000001,-0.3893149999999999,0.1364884999999999,-0.07222,-0.414455,-0.2022515,-0.43451,-0.283065,0.1325885,-0.4407900000000001,-0.308995,1
117,-0.0584805,0.6202549999999999,-0.41113,-0.2008444999999999,0.4579049999999999,-0.28828,-0.4191745,0.4344439999999999,-0.38299,0.1233855,0.4674359999999999,-0.31474,0.3387655,0.4716679999999999,-0.45653,-0.4356245,0.616045,-0.56448,0.2831255,0.6690949999999999,-0.58125,-0.0826755,-0.004605,0.00295,0.0826755,0.0046049999999999,-0.00295,-0.2339645,-0.048155,-0.39049,0.1344455,-0.0695850000000001,-0.41685,-0.2027745,-0.431255,-0.28894,0.1324354999999999,-0.4364150000000001,-0.31476,1
118,-0.0589295,0.6130599999999999,-0.41846,-0.2009785,0.453514,-0.29391,-0.4193085,0.427817,-0.38795,0.1230815,0.462124,-0.32095,0.3388815,0.464921,-0.46183,-0.4362485,0.609883,-0.56991,0.2831114999999999,0.65979,-0.58697,-0.0826715,-0.0044699999999999,0.0036799999999999,0.0826715,0.0044699999999999,-0.00368,-0.2328184999999999,-0.04493,-0.39147,0.1322115,-0.06728,-0.41924,-0.2036685,-0.4287499999999999,-0.29501,0.1322215,-0.43378,-0.32107,1
119,-0.0593055,0.6055550000000001,-0.42543,-0.2011965,0.449664,-0.2994799999999999,-0.4194965,0.420293,-0.39269,0.1227434999999999,0.45774,-0.32716,0.3387435,0.457234,-0.46685,-0.4365265,0.599888,-0.57541,0.2845935,0.646135,-0.59343,-0.0826435,-0.004475,0.0044399999999999,0.0826435,0.004475,-0.0044399999999999,-0.2317265,-0.042045,-0.3922299999999999,0.1298135,-0.0656249999999999,-0.42122,-0.2048165,-0.427505,-0.3010899999999999,0.1318234999999999,-0.4306449999999999,-0.32646,1
120,-0.0596779999999999,0.597806,-0.432565,-0.2014179999999999,0.4454799999999999,-0.3053349999999999,-0.4195979999999999,0.4118999999999999,-0.397315,0.1223919999999999,0.4506189999999999,-0.333735,0.338562,0.4487049999999999,-0.471605,-0.4366379999999999,0.589969,-0.5812649999999999,0.286642,0.6364799999999999,-0.5998950000000001,-0.0826119999999999,-0.00421,0.005255,0.082612,0.0042099999999999,-0.0052549999999999,-0.230518,-0.03985,-0.392655,0.1273119999999999,-0.06448,-0.422925,-0.205828,-0.4269200000000001,-0.307085,0.131542,-0.4291000000000001,-0.333165,1
121,-0.060148,0.5892219999999999,-0.43976,-0.201565,0.4393899999999999,-0.31146,-0.419085,0.403505,-0.40203,0.121965,0.4443359999999999,-0.34038,0.338075,0.439783,-0.4767,-0.436915,0.579993,-0.58721,0.288365,0.6263449999999999,-0.60676,-0.082655,-0.004035,0.0060699999999999,0.0826549999999999,0.004035,-0.00607,-0.229345,-0.0381449999999999,-0.3928,0.1245849999999999,-0.063945,-0.42467,-0.206815,-0.425695,-0.31278,0.131095,-0.4277850000000001,-0.34031,1
122,-0.0608154999999999,0.581101,-0.447175,-0.2019515,0.4333689999999999,-0.317535,-0.4175615,0.3934249999999999,-0.405025,0.1212385,0.4372379999999999,-0.347065,0.3375885,0.430345,-0.481955,-0.4374115,0.5715889999999999,-0.593145,0.2896685,0.6159699999999999,-0.6142350000000001,-0.0827185,-0.0039649999999999,0.0068249999999999,0.0827185,0.0039649999999999,-0.006825,-0.2283015,-0.036465,-0.392895,0.1216985,-0.062785,-0.426255,-0.2078614999999999,-0.4255150000000001,-0.318015,0.1303085,-0.426255,-0.347885,1
123,-0.0611545,0.574291,-0.45421,-0.2020605,0.428795,-0.32368,-0.4158205,0.383925,-0.40801,0.1207994999999999,0.43129,-0.3536,0.3373595,0.421155,-0.48741,-0.4372605,0.564196,-0.59899,0.2911094999999999,0.6053440000000001,-0.6222000000000001,-0.0829095,-0.003865,0.0076899999999999,0.0829095,0.003865,-0.00769,-0.2268405,-0.0344849999999999,-0.39273,0.1189994999999999,-0.060805,-0.42765,-0.2079705,-0.424855,-0.3233,0.1301995,-0.4253849999999999,-0.35625,1
124,-0.0614435,0.566895,-0.4603,-0.2023454999999999,0.423335,-0.32976,-0.4142755,0.373855,-0.41079,0.1203645,0.425685,-0.36014,0.3367745,0.4119049999999999,-0.49347,-0.4369655,0.551743,-0.60402,0.2918745,0.594626,-0.63066,-0.0831445,-0.003885,0.00822,0.0831445,0.003885,-0.00822,-0.2253355,-0.032155,-0.39275,0.1166345,-0.058725,-0.4291,-0.2090655,-0.422545,-0.32947,0.1300345,-0.4241749999999999,-0.3646,1
125,-0.0618055,0.560506,-0.467115,-0.2027325,0.4187449999999999,-0.336155,-0.4129125,0.3656749999999999,-0.414275,0.1197574999999999,0.4203149999999999,-0.366965,0.3361975,0.4035749999999999,-0.500135,-0.4365725,0.5405969999999999,-0.609605,0.2923874999999999,0.584946,-0.639695,-0.0833775,-0.003895,0.0085449999999999,0.0833775,0.0038949999999999,-0.0085449999999999,-0.2238925,-0.029515,-0.3930249999999999,0.1145374999999999,-0.055475,-0.431345,-0.2100625,-0.419545,-0.336195,0.1297974999999999,-0.4225350000000001,-0.373205,1
126,-0.0622875,0.555124,-0.46967,-0.2029814999999999,0.4149049999999999,-0.33827,-0.4118315,0.3576749999999999,-0.41383,0.1190985,0.415535,-0.36959,0.3351385,0.395475,-0.5025,-0.4356515,0.530651,-0.61076,0.2924885,0.576328,-0.64495,-0.0836385,-0.0038249999999999,0.0080399999999999,0.0836384999999999,0.0038249999999999,-0.0080399999999999,-0.2237615,-0.0257249999999999,-0.39355,0.1130885,-0.0514949999999999,-0.43324,-0.2109015,-0.416695,-0.33912,0.1295885,-0.4199349999999999,-0.37793,1
127,-0.0629175,0.550791,-0.47191,-0.2034235,0.41133,-0.34002,-0.4108635,0.35117,-0.41314,0.1182165,0.41244,-0.37193,0.3336464999999999,0.3887899999999999,-0.5049,-0.4345234999999999,0.5230279999999999,-0.6116900000000001,0.2920865,0.568977,-0.65034,-0.0838265,-0.00389,0.0078099999999999,0.0838265,0.0038899999999999,-0.00781,-0.2237335,-0.0216,-0.39398,0.1116365,-0.04668,-0.43511,-0.2116335,-0.4118,-0.34107,0.1291465,-0.41758,-0.38235,1
128,-0.0636834999999999,0.547095,-0.47395,-0.2039935,0.40718,-0.3416099999999999,-0.4099534999999999,0.34527,-0.41263,0.1173665,0.40855,-0.37411,0.3321665,0.38356,-0.50734,-0.4331035,0.517803,-0.61266,0.2916465,0.56527,-0.65498,-0.0839965,-0.00395,0.0077099999999999,0.0839965,0.00395,-0.0077099999999999,-0.2237535,-0.01805,-0.39436,0.1102765,-0.0418699999999999,-0.43698,-0.2120834999999999,-0.40732,-0.3428799999999999,0.1286465,-0.41271,-0.38361,1
129,-0.064475,0.54518,-0.47583,-0.204751,0.40461,-0.342926,-0.409181,0.34113,-0.41202,0.1164289999999999,0.40749,-0.37602,0.3307489999999999,0.38046,-0.50912,-0.431821,0.513908,-0.6135200000000001,0.291169,0.5633630000000001,-0.65954,-0.084189,-0.0040499999999999,0.00762,0.084189,0.0040499999999999,-0.00762,-0.223941,-0.01371,-0.39481,0.109059,-0.03654,-0.43866,-0.212441,-0.4032099999999999,-0.34422,0.127679,-0.4070399999999999,-0.38447,1
130,-0.065269,0.544656,-0.4772499999999999,-0.205552,0.403265,-0.3438449999999999,-0.409122,0.337955,-0.4111899999999999,0.1155779999999999,0.407195,-0.3775199999999999,0.329438,0.378115,-0.5101899999999999,-0.430612,0.509252,-0.614,0.290708,0.562164,-0.66338,-0.0841679999999999,-0.0042849999999999,0.00745,0.0841679999999999,0.0042849999999999,-0.0074499999999999,-0.224072,-0.010155,-0.39532,0.1080879999999999,-0.031815,-0.4398799999999999,-0.212792,-0.3990249999999999,-0.34497,0.126808,-0.402475,-0.3850399999999999,1
131,-0.0660815,0.5448869999999999,-0.478195,-0.2064035,0.4030249999999998,-0.344773,-0.4093235,0.3370349999999998,-0.411975,0.1147565,0.4069549999999999,-0.378835,0.3285765,0.3779549999999999,-0.5108349999999999,-0.4298135,0.5043189999999999,-0.614295,0.2893765,0.5617429999999999,-0.6657949999999999,-0.0841565,-0.004585,0.007305,0.0841565,0.0045849999999999,-0.007305,-0.2240335,-0.0077150000000001,-0.395765,0.1072065,-0.028365,-0.4408149999999999,-0.2127835,-0.3941450000000001,-0.344658,0.1261365,-0.401735,-0.389055,1
132,-0.0668685,0.5457029999999999,-0.478715,-0.2071425,0.4023999999999998,-0.34551,-0.4097024999999999,0.3367199999999999,-0.412755,0.1140575,0.4071299999999999,-0.379815,0.3277474999999999,0.3787299999999999,-0.511465,-0.4294125,0.5003319999999999,-0.614305,0.2879874999999999,0.561919,-0.667615,-0.0841575,-0.00494,0.0070449999999999,0.0841575,0.0049399999999999,-0.0070449999999999,-0.2238225,-0.00633,-0.396375,0.1066075,-0.02631,-0.441565,-0.2131525,-0.39089,-0.344389,0.1256575,-0.40187,-0.392105,1
133,-0.067579,0.545988,-0.479395,-0.208162,0.4026849999999999,-0.346139,-0.410032,0.337005,-0.413845,0.113458,0.4069049999999999,-0.380495,0.327358,0.379015,-0.511855,-0.429022,0.500617,-0.615425,0.286578,0.562204,-0.668655,-0.084268,-0.0048249999999999,0.0070649999999999,0.084268,0.0048249999999999,-0.007065,-0.223532,-0.006415,-0.396675,0.106268,-0.025815,-0.442285,-0.2135719999999999,-0.389445,-0.34448,0.1249479999999999,-0.4010249999999999,-0.392305,1
134,-0.0680715,0.545988,-0.479475,-0.2089645,0.4026849999999999,-0.346472,-0.4108645,0.337005,-0.414455,0.1131155,0.4069049999999999,-0.380625,0.3269355,0.379015,-0.512485,-0.4285345,0.500617,-0.615765,0.2857155,0.562204,-0.669275,-0.0843055,-0.0048249999999999,0.0072149999999999,0.0843055,0.0048249999999999,-0.0072149999999999,-0.2229345,-0.006475,-0.396765,0.1061455,-0.025615,-0.442595,-0.2139345,-0.388865,-0.345112,0.1250955,-0.402595,-0.394125,1
135,-0.0681505,0.545988,-0.478815,-0.2092765,0.4026849999999999,-0.3469689999999999,-0.4114665,0.337005,-0.414875,0.1130134999999999,0.4069049999999999,-0.380815,0.3266535,0.379015,-0.512735,-0.4280665,0.500617,-0.616115,0.2852834999999999,0.562204,-0.669975,-0.0842835,-0.0048249999999999,0.007335,0.0842835,0.0048249999999999,-0.007335,-0.2221265,-0.006475,-0.396865,0.1062035,-0.0254149999999999,-0.4425449999999999,-0.2143465,-0.387885,-0.345815,0.1255035,-0.403115,-0.395135,1
136,-0.068303,0.547276,-0.478315,-0.209288,0.403595,-0.346999,-0.411518,0.339065,-0.415335,0.112962,0.4069049999999999,-0.380425,0.326332,0.380945,-0.5126550000000001,-0.427588,0.503626,-0.616475,0.285142,0.562674,-0.670285,-0.084292,-0.0048249999999999,0.0074849999999999,0.084292,0.0048249999999999,-0.007485,-0.221318,-0.006475,-0.396795,0.106182,-0.025235,-0.442785,-0.214798,-0.388425,-0.34774,0.125982,-0.401505,-0.394745,1
137,-0.0680685,0.549262,-0.4768599999999999,-0.2093995,0.4048049999999999,-0.346187,-0.4114595,0.340995,-0.4152,0.1130905,0.407695,-0.37894,0.3262805,0.383455,-0.51155,-0.4269195,0.508028,-0.61603,0.2853704999999999,0.562869,-0.66901,-0.0844705,-0.0047949999999999,0.0074899999999999,0.0844705,0.0047949999999999,-0.0074899999999999,-0.2211395,-0.008085,-0.3968,0.1064604999999999,-0.026115,-0.44331,-0.2149995,-0.3887549999999999,-0.348757,0.1266005,-0.401155,-0.39343,1
138,-0.0681129999999999,0.55102,-0.4747849999999999,-0.209661,0.4058649999999999,-0.3450259999999999,-0.411691,0.3441749999999999,-0.415315,0.113029,0.4070149999999999,-0.3772049999999999,0.326099,0.3857149999999999,-0.5096149999999999,-0.426401,0.5104789999999999,-0.615435,0.285429,0.5624669999999999,-0.666725,-0.084519,-0.0045750000000001,0.007705,0.084519,0.0045749999999999,-0.0077049999999999,-0.221161,-0.011745,-0.3965849999999999,0.106719,-0.029495,-0.4434849999999999,-0.215281,-0.392025,-0.3497679999999999,0.126549,-0.402795,-0.3910349999999999,1
139,-0.068422,0.5544880000000001,-0.472645,-0.2101,0.4085750000000001,-0.343501,-0.41228,0.3474050000000001,-0.415095,0.1126,0.409035,-0.3747549999999999,0.32552,0.3883750000000001,-0.506435,-0.42632,0.51236,-0.614795,0.28517,0.5633800000000001,-0.663505,-0.08454,-0.0042649999999999,0.0080149999999999,0.08454,0.004265,-0.0080149999999999,-0.22154,-0.0167249999999998,-0.396265,0.1067299999999999,-0.0337949999999999,-0.4435449999999999,-0.21513,-0.3967549999999999,-0.3488549999999999,0.12617,-0.4056349999999999,-0.3882949999999999,1
140,-0.0681519999999999,0.5596399999999999,-0.4662349999999999,-0.2100209999999999,0.4134949999999999,-0.3375019999999999,-0.4124609999999999,0.3519549999999999,-0.411025,0.112629,0.412435,-0.3684349999999999,0.325389,0.3931549999999999,-0.499295,-0.425741,0.5171319999999999,-0.609815,0.285489,0.568507,-0.655275,-0.084559,-0.0040149999999999,0.008365,0.084559,0.0040149999999999,-0.0083649999999999,-0.222071,-0.022245,-0.3953149999999999,0.107629,-0.038625,-0.441455,-0.214631,-0.401865,-0.344145,0.126189,-0.4089750000000001,-0.3814649999999999,1
141,-0.067768,0.5670580000000001,-0.459285,-0.2098129999999999,0.419265,-0.331226,-0.412763,0.3600650000000001,-0.406985,0.112777,0.417755,-0.362055,0.325397,0.399255,-0.491905,-0.425013,0.523459,-0.604285,0.286087,0.5742750000000001,-0.646835,-0.0845469999999999,-0.0038049999999999,0.008605,0.084547,0.003805,-0.008605,-0.222553,-0.0279249999999999,-0.394425,0.108487,-0.0439649999999999,-0.438995,-0.213963,-0.4073249999999999,-0.33888,0.126337,-0.412875,-0.375305,1
142,-0.0673925,0.5749050000000001,-0.4516449999999999,-0.2098075,0.426165,-0.324895,-0.4136174999999999,0.3675750000000001,-0.402755,0.1129525,0.4229650000000001,-0.355435,0.3256425,0.405565,-0.484015,-0.4243075,0.5305810000000001,-0.598365,0.2869725,0.5809880000000001,-0.638055,-0.0844825,-0.0033849999999999,0.008635,0.0844825,0.003385,-0.008635,-0.2230774999999999,-0.0347849999999999,-0.3933649999999999,0.1089025,-0.0503249999999999,-0.4364249999999999,-0.2137475,-0.4146749999999999,-0.335142,0.1262525,-0.4179149999999999,-0.369175,1
143,-0.0669459999999999,0.58316,-0.443685,-0.2099289999999999,0.431453,-0.318054,-0.4142889999999999,0.37626,-0.398185,0.113241,0.429103,-0.348505,0.326111,0.41185,-0.476005,-0.423529,0.539567,-0.591905,0.288121,0.5875870000000001,-0.629455,-0.084381,-0.00297,0.0084549999999999,0.084381,0.00297,-0.0084549999999999,-0.223719,-0.04259,-0.392175,0.109181,-0.05757,-0.433345,-0.213579,-0.4231899999999999,-0.3307879999999999,0.126421,-0.4266,-0.364935,1
144,-0.066565,0.592657,-0.435385,-0.209995,0.436203,-0.311097,-0.415275,0.386255,-0.393455,0.113425,0.43504,-0.341475,0.326535,0.419699,-0.4676949999999999,-0.422855,0.550506,-0.584625,0.289525,0.5967950000000001,-0.620155,-0.084295,-0.0027549999999999,0.0083049999999999,0.084295,0.002755,-0.008305,-0.224675,-0.0502349999999999,-0.390965,0.109175,-0.0641549999999999,-0.430075,-0.213555,-0.4310649999999999,-0.326754,0.126465,-0.4346749999999999,-0.360345,1
145,-0.065977,0.60185,-0.426185,-0.210016,0.4433189999999999,-0.303658,-0.416226,0.3937349999999999,-0.387915,0.113694,0.4435439999999999,-0.333525,0.3272239999999999,0.4267909999999999,-0.458785,-0.422226,0.560542,-0.576745,0.2912639999999999,0.605725,-0.610165,-0.084224,-0.002685,0.008005,0.084224,0.0026849999999999,-0.008005,-0.225576,-0.059625,-0.389035,0.109354,-0.072975,-0.426235,-0.213326,-0.4405850000000001,-0.321774,0.126744,-0.444435,-0.353975,1
146,-0.0653229999999999,0.61216,-0.4166649999999999,-0.209812,0.450378,-0.296046,-0.417622,0.403333,-0.382425,0.113978,0.451588,-0.3257049999999999,0.327938,0.434687,-0.449665,-0.421602,0.568789,-0.5683149999999999,0.292958,0.61873,-0.600225,-0.084228,-0.00268,0.007615,0.084228,0.0026799999999999,-0.0076149999999999,-0.226482,-0.06854,-0.3866849999999999,0.109568,-0.0811,-0.422265,-0.2130719999999999,-0.44995,-0.316674,0.126808,-0.45191,-0.346105,1
147,-0.064741,0.62301,-0.406615,-0.209729,0.4575269999999999,-0.287637,-0.418859,0.412616,-0.376595,0.1141809999999999,0.4604999999999999,-0.317305,0.328881,0.4430189999999999,-0.440465,-0.420859,0.581395,-0.558415,0.2945609999999999,0.62991,-0.589815,-0.084251,-0.00297,0.007135,0.084251,0.0029699999999999,-0.007135,-0.227669,-0.07746,-0.383315,0.1097109999999999,-0.09036,-0.417635,-0.212579,-0.4609500000000001,-0.310964,0.126741,-0.46102,-0.337805,1
148,-0.06405,0.63346,-0.395545,-0.209333,0.463764,-0.278814,-0.418493,0.423022,-0.369415,0.114467,0.467161,-0.308745,0.329247,0.45099,-0.431125,-0.420313,0.59462,-0.548035,0.296517,0.64009,-0.578595,-0.0842469999999999,-0.0032699999999999,0.006695,0.084247,0.0032699999999999,-0.006695,-0.2289629999999999,-0.0872699999999999,-0.379535,0.109707,-0.10006,-0.411995,-0.211773,-0.47282,-0.3044,0.1268369999999999,-0.4719599999999999,-0.329165,1
149,-0.0633949999999999,0.6425850000000001,-0.38848,-0.208986,0.466931,-0.274777,-0.418176,0.433498,-0.3662499999999999,0.114814,0.472148,-0.304402,0.329764,0.458531,-0.42573,-0.419656,0.6064350000000001,-0.5418000000000001,0.298554,0.646425,-0.5723400000000001,-0.084374,-0.0035949999999999,0.0062699999999999,0.084374,0.003595,-0.0062699999999999,-0.228856,-0.0984249999999999,-0.37746,0.109694,-0.1107049999999999,-0.40991,-0.2107959999999999,-0.4845149999999999,-0.300807,0.126924,-0.484085,-0.32475,1
150,-0.0627745,0.649505,-0.381455,-0.2089085,0.471074,-0.27037,-0.4194185,0.4398849999999999,-0.3626749999999999,0.1150515,0.476747,-0.29961,0.3304614999999999,0.463175,-0.420425,-0.4190185,0.6159049999999999,-0.535325,0.3007215,0.650565,-0.5655749999999999,-0.0845315,-0.0038549999999999,0.005595,0.0845315,0.0038549999999999,-0.0055949999999999,-0.2289585,-0.111775,-0.375115,0.1098515,-0.122435,-0.407575,-0.2100385,-0.498465,-0.296212,0.1268415,-0.497885,-0.319505,1
151,-0.0621249999999999,0.657825,-0.37415,-0.2089089999999999,0.472893,-0.265911,-0.420629,0.447893,-0.3588,0.115311,0.480732,-0.295056,0.331321,0.469353,-0.41567,-0.418319,0.625505,-0.5289699999999999,0.302551,0.6562650000000001,-0.55808,-0.084671,-0.0045049999999999,0.0050099999999999,0.084671,0.004505,-0.00501,-0.228829,-0.125185,-0.37274,0.110031,-0.1333449999999999,-0.4052,-0.209729,-0.5137349999999999,-0.293837,0.126581,-0.511945,-0.31509,1
152,-0.061542,0.66432,-0.36699,-0.20895,0.47732,-0.260969,-0.42186,0.454745,-0.35469,0.11554,0.483777,-0.290382,0.3319,0.473762,-0.41122,-0.41795,0.6354200000000001,-0.5218,0.30411,0.6608100000000001,-0.5504,-0.0846,-0.0043999999999999,0.0045199999999999,0.0846,0.0044,-0.0045199999999999,-0.22853,-0.1391199999999999,-0.36816,0.11001,-0.1452799999999999,-0.39992,-0.20954,-0.5305599999999999,-0.291267,0.12624,-0.52745,-0.31077,1
153,-0.0607719999999999,0.670705,-0.3597849999999999,-0.208783,0.482254,-0.255658,-0.4226229999999999,0.460884,-0.350035,0.115847,0.488083,-0.285255,0.332787,0.477356,-0.4070249999999999,-0.417483,0.643845,-0.515185,0.304927,0.663225,-0.543415,-0.084537,-0.004255,0.004125,0.084537,0.004255,-0.0041249999999999,-0.227933,-0.1520349999999999,-0.363025,0.110417,-0.1574549999999999,-0.394625,-0.209173,-0.547015,-0.2884919999999999,0.126017,-0.543615,-0.307265,1
154,-0.0593515,0.677975,-0.352415,-0.2078925,0.484275,-0.250793,-0.4226225,0.468351,-0.345535,0.1168275,0.490455,-0.280698,0.3340375,0.480685,-0.402385,-0.4162325,0.652135,-0.508035,0.3065575,0.6689750000000001,-0.536475,-0.0845175,-0.0042749999999999,0.003785,0.0845175,0.004275,-0.0037849999999999,-0.2266725,-0.1636849999999999,-0.357855,0.1115275,-0.1681249999999999,-0.388775,-0.2085325,-0.561805,-0.285962,0.1266175,-0.558435,-0.304075,1
155,-0.0578355,0.684845,-0.344855,-0.2071635,0.485515,-0.2459339999999999,-0.4226034999999999,0.475065,-0.341125,0.1180264999999999,0.493655,-0.275742,0.3351865,0.485785,-0.397695,-0.4150534999999999,0.661665,-0.501035,0.3085565,0.670955,-0.529625,-0.0843965,-0.004415,0.003515,0.0843965,0.004415,-0.0035149999999999,-0.2254435,-0.1761649999999999,-0.352465,0.1126865,-0.1792649999999999,-0.382845,-0.2079635,-0.577405,-0.283529,0.1273165,-0.574155,-0.300965,1
156,-0.056212,0.6913,-0.336455,-0.206288,0.48882,-0.240441,-0.422088,0.48172,-0.335925,0.119382,0.49677,-0.27013,0.3366119999999999,0.48976,-0.392365,-0.413948,0.6677200000000001,-0.494335,0.3107419999999999,0.67952,-0.5216050000000001,-0.084292,-0.0042399999999999,0.0032349999999999,0.084292,0.00424,-0.003235,-0.224098,-0.1894,-0.346465,0.114022,-0.1902499999999999,-0.376385,-0.207488,-0.59302,-0.281038,0.128222,-0.58995,-0.297345,1
157,-0.054323,0.69756,-0.327945,-0.20488,0.49187,-0.234715,-0.42106,0.48754,-0.330385,0.1208499999999999,0.50019,-0.264364,0.33841,0.49447,-0.386725,-0.41262,0.67594,-0.486405,0.3132399999999999,0.68667,-0.513765,-0.08423,-0.0041599999999999,0.0030049999999999,0.08423,0.0041599999999999,-0.003005,-0.22245,-0.2024299999999999,-0.339895,0.1159699999999999,-0.20168,-0.369295,-0.20647,-0.6089100000000001,-0.27754,0.12946,-0.6062000000000001,-0.293575,1
158,-0.0518865,0.704225,-0.319215,-0.2031065,0.4965549999999999,-0.228296,-0.4197165,0.4921149999999999,-0.323965,0.1230434999999999,0.504765,-0.257861,0.3405034999999999,0.4977049999999999,-0.380725,-0.4108365,0.682805,-0.478635,0.3162835,0.694445,-0.504915,-0.0841335,-0.0039049999999999,0.002705,0.0841335,0.0039049999999999,-0.0027049999999999,-0.2201365,-0.214845,-0.333205,0.1184235,-0.2120349999999999,-0.362055,-0.2050664999999999,-0.624225,-0.273564,0.1312835,-0.620415,-0.289575,1
159,-0.048859,0.7113,-0.30983,-0.2009449999999999,0.50055,-0.221933,-0.418095,0.5003,-0.31749,0.125825,0.50799,-0.251092,0.3431249999999999,0.50316,-0.37404,-0.408745,0.6926300000000001,-0.47081,0.319805,0.70366,-0.49565,-0.083865,-0.0035399999999999,0.00264,0.083865,0.0035399999999999,-0.0026399999999999,-0.216785,-0.226,-0.3262699999999999,0.1213849999999999,-0.2223,-0.35455,-0.203255,-0.63842,-0.269424,0.133675,-0.6343000000000001,-0.2855499999999999,1
160,-0.0452034999999999,0.71734,-0.29986,-0.1982054999999999,0.50615,-0.214712,-0.4162455,0.5066999999999999,-0.31071,0.1291645,0.51095,-0.243456,0.3464645,0.50662,-0.36645,-0.4064554999999999,0.70109,-0.4623899999999999,0.3237445,0.7100299999999999,-0.4859599999999999,-0.0835845,-0.00263,0.00259,0.0835845,0.0026299999999999,-0.00259,-0.2127454999999999,-0.23728,-0.31849,0.1246545,-0.23325,-0.34689,-0.2010654999999999,-0.65337,-0.265376,0.1366545,-0.64819,-0.28061,1
161,-0.0418845,0.724575,-0.28964,-0.1959314999999999,0.509575,-0.20761,-0.4146415,0.513645,-0.30359,0.1324085,0.514905,-0.235404,0.3495185,0.513175,-0.35844,-0.4049415,0.709335,-0.45401,0.3275085,0.717275,-0.47603,-0.0833285,-0.0025249999999999,0.0026999999999999,0.0833285,0.0025249999999999,-0.0027,-0.2096714999999999,-0.247575,-0.30997,0.1277085,-0.243085,-0.33875,-0.1989814999999999,-0.666965,-0.262554,0.1393385,-0.660465,-0.27534,1
162,-0.0384124999999999,0.73084,-0.279425,-0.1934315,0.51395,-0.200291,-0.4135815,0.5181,-0.295915,0.1359085,0.51811,-0.22728,0.3527385,0.51968,-0.350005,-0.4035915,0.71682,-0.445495,0.3313785,0.73031,-0.464715,-0.0830585,-0.0021599999999999,0.0025649999999999,0.0830585,0.0021599999999999,-0.002565,-0.2062615,-0.2592799999999999,-0.301205,0.1309685,-0.2535199999999999,-0.3295949999999999,-0.1971615,-0.6812,-0.260709,0.1421185,-0.67326,-0.270615,1
163,-0.0350355,0.737365,-0.2689749999999999,-0.1912725,0.5178750000000001,-0.19272,-0.4126225,0.521895,-0.288315,0.1392375,0.521245,-0.219042,0.3558975,0.526895,-0.3420149999999999,-0.4027525,0.724685,-0.437685,0.3350975,0.739255,-0.4540349999999999,-0.0827875,-0.0018449999999999,0.002535,0.0827875,0.001845,-0.0025349999999999,-0.2027725,-0.2702549999999999,-0.2923949999999999,0.1339874999999999,-0.266995,-0.3199149999999999,-0.1947425,-0.6939850000000001,-0.257347,0.1445374999999999,-0.687975,-0.265855,1
164,-0.031442,0.743265,-0.258275,-0.1888619999999999,0.523085,-0.184701,-0.411472,0.530345,-0.280795,0.1427479999999999,0.524095,-0.210648,0.359438,0.531575,-0.333585,-0.401572,0.733035,-0.4290549999999999,0.3392779999999999,0.746435,-0.443065,-0.082458,-0.0011649999999999,0.0024649999999999,0.082458,0.0011649999999999,-0.0024649999999999,-0.199042,-0.279545,-0.282785,0.136948,-0.2819049999999999,-0.309265,-0.191892,-0.704945,-0.252998,0.147198,-0.703465,-0.261495,1
165,-0.02776,0.74963,-0.2478119999999999,-0.186296,0.52557,-0.17754,-0.410536,0.53695,-0.274215,0.1465739999999999,0.52789,-0.202532,0.362824,0.53738,-0.325565,-0.400356,0.7437199999999999,-0.4206149999999999,0.343814,0.74882,-0.432245,-0.082053,-0.0007899999999999,0.0025749999999999,0.082053,0.00079,-0.0025749999999999,-0.195336,-0.28824,-0.273925,0.139264,-0.2934,-0.2982249999999999,-0.1889259999999999,-0.71498,-0.2490979999999999,0.150154,-0.7160899999999999,-0.257905,1
166,-0.0237954999999999,0.7550349999999999,-0.236923,-0.1834005,0.5285850000000001,-0.170363,-0.4095505,0.5437449999999999,-0.26712,0.1506495,0.530705,-0.194426,0.3663495,0.543855,-0.31771,-0.3991505,0.7516050000000001,-0.41267,0.3489795,0.7550349999999999,-0.4208699999999999,-0.0817415,-0.0002449999999999,0.00261,0.0817415,0.0002449999999999,-0.00261,-0.1914105,-0.298545,-0.26437,0.1416495,-0.304655,-0.28439,-0.1853205,-0.725835,-0.244136,0.1532794999999999,-0.7280249999999999,-0.25371,1
167,-0.0201235,0.758535,-0.225704,-0.1808675,0.530885,-0.163291,-0.4084675,0.550705,-0.26051,0.1543725,0.533085,-0.186606,0.3697625,0.549985,-0.30992,-0.3982075,0.759815,-0.40438,0.3538525,0.759445,-0.41053,-0.0813575,4.500000000001725e-05,0.0026999999999999,0.0813575,-4.499999999998949e-05,-0.0027,-0.1874175,-0.310085,-0.25389,0.1431625,-0.321795,-0.2708399999999999,-0.1821975,-0.737805,-0.238873,0.1557125,-0.744745,-0.24929,1
168,-0.0169325,0.7611049999999999,-0.2143,-0.1788155,0.5330550000000001,-0.155917,-0.4072055,0.556615,-0.253885,0.1574845,0.534635,-0.179079,0.3723945,0.5568249999999999,-0.302015,-0.3978255,0.767425,-0.396085,0.3580145,0.770205,-0.399715,-0.0811465,0.0003249999999999,0.002725,0.0811465,-0.000325,-0.002725,-0.1831355,-0.326435,-0.242765,0.1440044999999999,-0.338145,-0.2572649999999999,-0.1796955,-0.7541550000000001,-0.2337989999999999,0.1576545,-0.7610950000000001,-0.241775,1
169,-0.0144825,0.7619400000000001,-0.203172,-0.1774785,0.53539,-0.148824,-0.4061985,0.5643,-0.247645,0.1598815,0.53557,-0.172268,0.3742815,0.5641,-0.294495,-0.3982185,0.7796700000000001,-0.387875,0.3613915,0.7805500000000001,-0.390275,-0.0809275,0.0006199999999999,0.0026949999999999,0.0809275,-0.0006199999999999,-0.002695,-0.1769585,-0.34233,-0.227908,0.1442314999999999,-0.35404,-0.243985,-0.1769785,-0.77005,-0.22861,0.1594515,-0.77699,-0.238445,1
170,-0.011885,0.7615,-0.1867609999999999,-0.176219,0.53757,-0.136093,-0.404769,0.57108,-0.235895,0.162251,0.53575,-0.159939,0.376261,0.57037,-0.281335,-0.398159,0.7884099999999999,-0.3750949999999999,0.364701,0.79148,-0.375135,-0.080686,0.0009799999999999,0.002555,0.080686,-0.00098,-0.0025549999999999,-0.170679,-0.35825,-0.2078169999999999,0.143241,-0.37171,-0.219831,-0.174899,-0.7859700000000001,-0.2190349999999999,0.161271,-0.79291,-0.229405,1
171,-0.0094815,0.7645759999999999,-0.168676,-0.1752305,0.538156,-0.12251,-0.4031305,0.578796,-0.222855,0.1650994999999999,0.538046,-0.14549,0.3779395,0.5753360000000001,-0.267035,-0.3980705,0.7974060000000001,-0.361165,0.3676295,0.7956559999999999,-0.359715,-0.0804355,0.0010459999999999,0.0026149999999999,0.0804355,-0.001046,-0.002615,-0.1642905,-0.379774,-0.183652,0.1420195,-0.394144,-0.194125,-0.1733205,-0.802494,-0.208926,0.1631195,-0.808854,-0.219465,1
172,-0.007442,0.7674265,-0.151444,-0.174519,0.5395965,-0.109158,-0.401839,0.5880765,-0.2092,0.1675209999999999,0.5396765,-0.131695,0.378951,0.5804064999999999,-0.25261,-0.398159,0.8062465,-0.34683,0.369761,0.8019965,-0.34379,-0.0801979999999999,0.0010835,0.0025499999999999,0.0801979999999999,-0.0010835,-0.0025499999999999,-0.158169,-0.3999735,-0.159569,0.140701,-0.4154635,-0.169622,-0.171679,-0.8179635,-0.196991,0.166091,-0.8286835,-0.21007,1
173,-0.0058005,0.77034,-0.13408,-0.1744395,0.54134,-0.09576,-0.4009295,0.59258,-0.195445,0.1695704999999999,0.54061,-0.118212,0.3793105,0.58625,-0.238083,-0.3987095,0.81423,-0.333233,0.3714205,0.81093,-0.327733,-0.0799555,0.000918,0.0027009999999999,0.0799555,-0.000918,-0.002701,-0.1523495,-0.41902,-0.135807,0.1392005,-0.43545,-0.145935,-0.1701795,-0.83265,-0.185331,0.1688105,-0.84761,-0.200843,1
174,-0.004509,0.772239,-0.1176929999999999,-0.174594,0.543439,-0.082443,-0.399344,0.5987490000000001,-0.181402,0.171146,0.5407890000000001,-0.105052,0.379486,0.592329,-0.2235539999999999,-0.399624,0.8208390000000001,-0.319694,0.372286,0.8203990000000001,-0.312884,-0.079776,0.0007539999999999,0.0027589999999999,0.079776,-0.0007539999999999,-0.0027589999999999,-0.146624,-0.437871,-0.111989,0.1376259999999999,-0.455061,-0.1231869999999999,-0.168634,-0.8475809999999999,-0.175161,0.1700459999999999,-0.863381,-0.188214,1
175,-0.0034784999999999,0.774593,-0.101754,-0.1747665,0.545573,-0.0689299999999999,-0.3978365,0.605393,-0.16787,0.1725735,0.541223,-0.091849,0.3792735,0.599023,-0.208953,-0.4005364999999999,0.8281029999999999,-0.306253,0.3730335,0.8294929999999999,-0.298093,-0.0797715,0.0005319999999999,0.002881,0.0797715,-0.0005319999999999,-0.0028809999999999,-0.1411365,-0.455377,-0.089115,0.1360035,-0.4727370000000001,-0.1033709999999999,-0.1670364999999999,-0.863337,-0.1639169999999999,0.1721235,-0.8809370000000001,-0.1805729999999999,1
176,-0.0025019999999999,0.7779505,-0.0859785,-0.174688,0.5475005000000001,-0.0557305,-0.396188,0.6123305,-0.1546145,0.173992,0.5417105000000001,-0.0785645,0.378882,0.6065005,-0.1945795,-0.401328,0.8355905,-0.2927695,0.373882,0.8421705,-0.2826895,-0.079741,0.0003335,0.0031044999999999,0.079741,-0.0003335,-0.0031045,-0.136128,-0.4734095,-0.0672525,0.134682,-0.4890494999999999,-0.0832785,-0.165488,-0.8781395,-0.1513615,0.174312,-0.8975694999999999,-0.1736495,1
177,-0.0014964999999999,0.7817255000000001,-0.070545,-0.1743605,0.5487455,-0.042704,-0.3945005,0.6178055,-0.1415179999999999,0.1754795,0.5430455000000001,-0.065245,0.3784695,0.6130555,-0.180732,-0.4020105,0.8418255,-0.279452,0.3746695,0.8490855,-0.268072,-0.0797295,9.549999999999836e-05,0.003396,0.0797295,-9.550000000000183e-05,-0.0033959999999999,-0.1318005,-0.4912445,-0.046616,0.1334695,-0.5004145,-0.063411,-0.1640105,-0.8929144999999999,-0.139539,0.1757395,-0.9069045,-0.161372,1
178,-0.0008005,0.78592,-0.056247,-0.1744575,0.5501,-0.029891,-0.3928175,0.62239,-0.12829,0.1767325,0.54528,-0.051998,0.3774625,0.61986,-0.167347,-0.4026875,0.84428,-0.266527,0.3749125,0.85743,-0.253407,-0.0794605,-0.000266,0.003713,0.0794605,0.0002659999999999,-0.003713,-0.1305775,-0.50726,-0.030376,0.1318925,-0.51115,-0.043654,-0.1637675,-0.90844,-0.129624,0.1783525,-0.91976,-0.157317,1
179,-0.000821,0.791234,-0.046921,-0.175144,0.551244,-0.022945,-0.391604,0.6273839999999999,-0.120807,0.1773559999999999,0.547774,-0.044641,0.375776,0.626414,-0.159749,-0.404024,0.848374,-0.258739,0.374356,0.865914,-0.244729,-0.079273,-0.0007339999999999,0.003942,0.079273,0.000734,-0.003942,-0.129994,-0.521286,-0.020315,0.1310559999999999,-0.5184460000000001,-0.035414,-0.164234,-0.922206,-0.1256769999999999,0.179646,-0.930616,-0.158829,1
180,-0.0009474999999999,0.7926084999999999,-0.038833,-0.1758335,0.5533285,-0.017104,-0.3902535,0.6334185,-0.114823,0.1771265,0.5480585,-0.039647,0.3741965,0.6339785,-0.153634,-0.4055235,0.8528185,-0.251724,0.3741865,0.8755185,-0.237584,-0.0790305,-0.0010735,0.004121,0.0790305,0.0010734999999999,-0.004121,-0.1299235,-0.5240715,-0.014426,0.1302565,-0.5212315000000001,-0.029822,-0.1645635,-0.9264015,-0.121259,0.1808665,-0.9387815,-0.158314,1
181,-0.0011209999999999,0.7932535,-0.0305959999999999,-0.1765509999999999,0.5547534999999999,-0.0112549999999999,-0.388791,0.6379535,-0.1092209999999999,0.177149,0.5490735,-0.0342479999999999,0.372789,0.6410635,-0.147871,-0.407041,0.8570534999999999,-0.244641,0.373999,0.8847235,-0.2309109999999999,-0.078802,-0.0013905,0.004344,0.078802,0.0013904999999999,-0.0043439999999999,-0.130021,-0.5265165,-0.0086129999999999,0.129519,-0.5236765000000001,-0.0243679999999999,-0.165581,-0.9290065,-0.117848,0.181829,-0.9448165,-0.158421,1
182,-0.0012905,0.7933915,-0.0230075,-0.1771525,0.5555715,-0.0056175,-0.3873125,0.6418315,-0.1035455,0.1771275,0.5502115000000001,-0.0290975,0.3715675,0.6475815,-0.1427005,-0.4085125,0.8604815,-0.2376905,0.3737675,0.8932415,-0.2247905,-0.0785825,-0.0015655,0.0044464999999999,0.0785825,0.0015654999999999,-0.0044465,-0.1302325,-0.5286985,-0.0033705,0.1287275,-0.5258585,-0.0193935,-0.1669425,-0.9336985,-0.1162855,0.1824075,-0.9501685,-0.1597005,1
183,-0.0014919999999999,0.7933655,-0.015115,-0.177804,0.5560655,0.0001069999999999,-0.3859039999999999,0.6446155,-0.097865,0.177036,0.5508354999999999,-0.023972,0.370356,0.6537155,-0.137664,-0.4099339999999999,0.8628454999999999,-0.2307739999999999,0.373676,0.9013255,-0.218614,-0.0783359999999999,-0.0019874999999999,0.004525,0.0783359999999999,0.0019875,-0.0045249999999999,-0.130494,-0.5287145000000001,0.0019559999999999,0.127876,-0.5252645,-0.0145619999999999,-0.168464,-0.9383945,-0.114437,0.181996,-0.9529145,-0.157474,1
184,-0.001617,0.793282,-0.0078079999999999,-0.178399,0.556212,0.005174,-0.3845989999999999,0.646632,-0.0923399999999999,0.176881,0.5515720000000001,-0.0191269999999999,0.369321,0.658092,-0.132914,-0.411389,0.8647320000000001,-0.223934,0.373751,0.907682,-0.213174,-0.078104,-0.002387,0.004587,0.078104,0.002387,-0.004587,-0.130749,-0.528708,0.006959,0.127031,-0.524668,-0.0102069999999999,-0.169959,-0.942598,-0.112916,0.180921,-0.954578,-0.153714,1
185,-0.0015864999999999,0.793257,-0.0011424999999999,-0.1786665,0.556457,0.0098925,-0.3832865,0.6482570000000001,-0.0869095,0.1768235,0.5517070000000001,-0.0149165,0.3684035,0.661907,-0.1284235,-0.4128265,0.8663270000000001,-0.2175635,0.3740335,0.911547,-0.2084835,-0.0778804999999999,-0.002687,0.0046514999999999,0.0778804999999999,0.0026869999999999,-0.0046514999999999,-0.1309765,-0.528573,0.0116665,0.1262735,-0.5241429999999999,-0.0063624999999999,-0.1701265,-0.941613,-0.1074725,0.1805635,-0.956433,-0.1519235,1
186,-0.0014825,0.7932104999999999,0.0047744999999999,-0.1788485,0.5566105,0.0140854999999999,-0.3819385,0.6495305,-0.0816974999999999,0.1767715,0.5519004999999999,-0.0111565,0.3676014999999999,0.6653905,-0.1244224999999999,-0.4142585,0.8676404999999999,-0.2114525,0.3744915,0.9149605,-0.2043625,-0.0777144999999999,-0.0030215,0.0047465,0.0777144999999999,0.0030215,-0.0047465,-0.1312085,-0.5284895000000001,0.0159255,0.1255415,-0.5236195,-0.0031785,-0.1702285,-0.9404895,-0.1021425,0.1794015,-0.9579895,-0.1488525,1
187,-0.0013629999999999,0.7930965,0.010602,-0.1790149999999999,0.5564564999999999,0.0181549999999999,-0.380785,0.6502865,-0.076586,0.176765,0.5516165,-0.007499,0.367045,0.6680864999999999,-0.120493,-0.415615,0.8685664999999999,-0.205333,0.3752649999999999,0.9172065,-0.200483,-0.077578,-0.0033705,0.004879,0.077578,0.0033705,-0.004879,-0.131355,-0.5283935000000001,0.019713,0.1249749999999999,-0.5229635,-0.00024,-0.170365,-0.9412735,-0.09865,0.178145,-0.9577335,-0.142013,1
188,-0.0010744999999999,0.7931045,0.0156195,-0.1791385,0.5563444999999999,0.0218225,-0.3795285,0.6508944999999999,-0.0718235,0.1769315,0.5512444999999999,-0.0043374999999999,0.3666915,0.6705045,-0.1170735,-0.4168385,0.8693744999999999,-0.1995835,0.3762315,0.9190345,-0.1969034999999999,-0.0774865,-0.0036105,0.0051325,0.0774865,0.0036105,-0.0051325,-0.1314084999999999,-0.5282155000000001,0.0229214999999999,0.1246115,-0.5223955,0.0023394999999999,-0.1699085,-0.9399755,-0.0943885,0.1762815,-0.9586355,-0.1373135,1
189,-0.0006369999999999,0.792968,0.0196565,-0.179147,0.556358,0.0252065,-0.378297,0.651288,-0.0674495,0.177213,0.550758,-0.0015504999999999,0.366503,0.672558,-0.1140335,-0.417807,0.8700180000000001,-0.1944135,0.377243,0.920328,-0.1936935,-0.077384,-0.0037619999999999,0.0053005,0.077384,0.003762,-0.0053005,-0.131337,-0.527942,0.0253394999999999,0.124423,-0.5219119999999999,0.0047595,-0.169407,-0.937242,-0.0896635,0.176093,-0.959122,-0.1348935,1
190,-1.5000000000001124e-05,0.792968,0.023398,-0.179062,0.556358,0.028373,-0.377172,0.651288,-0.063421,0.177478,0.550758,0.0009449999999999,0.366448,0.674018,-0.111211,-0.418452,0.8700180000000001,-0.189691,0.378368,0.921118,-0.190501,-0.077308,-0.0037619999999999,0.005397,0.077308,0.003762,-0.005397,-0.131132,-0.527942,0.0276249999999999,0.1244779999999999,-0.521712,0.006787,-0.169972,-0.938202,-0.08889,0.176948,-0.959122,-0.133141,1
191,0.0006185,0.792968,0.0269665,-0.1789465,0.556358,0.0311515,-0.3761965,0.651308,-0.0596495,0.1777635,0.550758,0.0034755,0.3665235,0.674978,-0.1084585,-0.4191665,0.8700180000000001,-0.1849984999999999,0.3793735,0.921538,-0.1873584999999999,-0.0773055,-0.0037619999999999,0.0054705,0.0773055,0.003762,-0.0054705,-0.1309065,-0.527942,0.0298424999999999,0.1245735,-0.521532,0.0086625,-0.1693565,-0.937342,-0.0851365,0.1770035,-0.959062,-0.1308985,1
192,0.001198,0.792968,0.0300665,-0.178878,0.556358,0.0335215,-0.375408,0.6513180000000001,-0.0563995,0.177952,0.550748,0.0055494999999999,0.366512,0.675318,-0.1061225,-0.419918,0.8700180000000001,-0.1808125,0.380202,0.921698,-0.1845825,-0.077302,-0.0037619999999999,0.0055534999999999,0.077302,0.003762,-0.0055535,-0.130638,-0.527942,0.0316305,0.124622,-0.521352,0.0099794999999999,-0.169968,-0.939802,-0.0856125,0.177762,-0.959062,-0.1294225,1
193,0.001704,0.792805,0.033234,-0.178784,0.556285,0.035929,-0.374724,0.651545,-0.05314,0.178126,0.549855,0.0074839999999999,0.366596,0.675595,-0.103753,-0.420754,0.869755,-0.176793,0.380876,0.922025,-0.181563,-0.077301,-0.003959,0.00556,0.077301,0.003959,-0.00556,-0.130414,-0.527705,0.0329599999999999,0.124646,-0.520985,0.01092,-0.168654,-0.936475,-0.081233,0.177076,-0.957345,-0.124983,1
194,0.0021594999999999,0.7927275,0.03625,-0.1785705,0.5562175,0.0382389999999999,-0.3741204999999999,0.6516575,-0.050224,0.1783195,0.5489175000000001,0.009278,0.3667995,0.6759075,-0.1015549999999999,-0.4214605,0.8696875000000001,-0.173065,0.3815195,0.9224775,-0.178535,-0.0772225,-0.0041814999999999,0.0055499999999999,0.0772225,0.0041814999999999,-0.0055499999999999,-0.1301005,-0.5274725,0.034068,0.1247595,-0.5206425,0.0117159999999999,-0.1681405,-0.9361625,-0.080382,0.1763595,-0.9549125,-0.120445,1
195,0.002674,0.7927895,0.03901,-0.178277,0.5564195000000001,0.040474,-0.373507,0.6518895,-0.047484,0.178663,0.5482795,0.010957,0.367153,0.6764095,-0.099337,-0.421997,0.8698595,-0.169597,0.382163,0.9230595,-0.175457,-0.07716,-0.0042295,0.00551,0.07716,0.0042295,-0.00551,-0.1296469999999999,-0.5271305,0.035195,0.125053,-0.5202304999999999,0.012489,-0.166987,-0.9348505,-0.077443,0.176453,-0.9545005,-0.118877,1
196,0.0031609999999999,0.792821,0.041527,-0.1780149999999999,0.5566610000000001,0.0423129999999999,-0.372965,0.652091,-0.045125,0.1790749999999999,0.5477110000000001,0.0126749999999999,0.367575,0.676951,-0.097214,-0.422425,0.8701610000000001,-0.166633,0.382675,0.923721,-0.172473,-0.077135,-0.00423,0.005422,0.077135,0.0042299999999999,-0.005422,-0.129155,-0.5267689999999999,0.0360889999999999,0.1253949999999999,-0.519819,0.01308,-0.1668649999999999,-0.938109,-0.07909,0.176875,-0.954069,-0.116853,1
197,0.003628,0.7928595,0.0439279999999999,-0.1777619999999999,0.5569095000000001,0.043969,-0.3724719999999999,0.6523595,-0.042971,0.179448,0.5473695000000001,0.014122,0.368028,0.6774395000000001,-0.095143,-0.422792,0.8705295000000001,-0.164045,0.383168,0.9243295,-0.169605,-0.077128,-0.0042185,0.005268,0.077128,0.0042185,-0.005268,-0.128682,-0.5263804999999999,0.036892,0.125748,-0.5194605,0.013571,-0.166632,-0.9385605,-0.078269,0.176478,-0.9515605,-0.113205,1
198,0.0041469999999999,0.79282,0.0462645,-0.177476,0.5570499999999999,0.0455375,-0.371966,0.65262,-0.0409465,0.1799339999999999,0.54718,0.0156945,0.368504,0.6777,-0.0931395,-0.423076,0.87095,-0.1616864999999999,0.383704,0.92493,-0.1667465,-0.077125,-0.00422,0.0051494999999999,0.077125,0.00422,-0.0051495,-0.128196,-0.52598,0.0376435,0.126164,-0.51912,0.0140384999999999,-0.165796,-0.93714,-0.0753645,0.1758539999999999,-0.94848,-0.1082265,1
199,0.0046049999999999,0.792884,0.048374,-0.177286,0.556984,0.046961,-0.371536,0.653454,-0.039533,0.180204,0.547244,0.016978,0.368854,0.677964,-0.091249,-0.4233559999999999,0.871524,-0.159633,0.3841839999999999,0.925654,-0.1641129999999999,-0.077113,-0.004179,0.005055,0.077113,0.004179,-0.005055,-0.127766,-0.525566,0.038249,0.126524,-0.518906,0.01435,-0.165096,-0.936046,-0.072939,0.174734,-0.944936,-0.103283,1
200,0.004996,0.7928745,0.0501695,-0.177171,0.5567945,0.0481544999999999,-0.371101,0.6542245,-0.0384605,0.1806289999999999,0.5473745,0.0183405,0.369149,0.6781545,-0.0895405,-0.423481,0.8720045000000001,-0.1579615,0.384549,0.9263045,-0.1618515,-0.077098,-0.0041545,0.0049665,0.077098,0.0041545,-0.0049664999999999,-0.127331,-0.5251855,0.0387505,0.126909,-0.5186755,0.0145825,-0.165381,-0.9388155,-0.0741635,0.173649,-0.9407655,-0.0981915,1
201,0.0052694999999999,0.7928385,0.0516845,-0.1771475,0.5564685,0.0492715,-0.3707775,0.6548685,-0.0374895,0.1808425,0.5475885,0.0194985,0.3693125,0.6781484999999999,-0.0880195,-0.4235775,0.8725085,-0.1565484999999999,0.3846925,0.9269485,-0.1598385,-0.0770825,-0.0041515,0.0048775,0.0770825,0.0041515,-0.0048775,-0.1269675,-0.5248715,0.0393055,0.1272425,-0.5184215,0.0148125,-0.1657075,-0.9400915,-0.0751725,0.1741525,-0.9375015,-0.0972685,1
202,0.0055424999999999,0.7927960000000001,0.0528239999999999,-0.1770335,0.556246,0.050265,-0.3708435,0.654896,-0.036493,0.1810765,0.547606,0.020762,0.3695165,0.6779660000000001,-0.086794,-0.4234635,0.8726360000000001,-0.155511,0.3846765,0.927016,-0.158291,-0.0770725,-0.004111,0.004821,0.0770725,0.004111,-0.0048209999999999,-0.1265335,-0.524744,0.040019,0.1276265,-0.518324,0.015255,-0.1655335,-0.941634,-0.075486,0.1738565,-0.936744,-0.097951,1
203,0.005729,0.792717,0.053771,-0.176985,0.5560069999999999,0.051207,-0.370915,0.6549269999999999,-0.03554,0.1813449999999999,0.547617,0.021918,0.369635,0.677697,-0.085621,-0.423305,0.872757,-0.154575,0.384505,0.927097,-0.156965,-0.077073,-0.004048,0.004753,0.077073,0.004048,-0.004753,-0.126095,-0.5246230000000001,0.040725,0.127995,-0.5182030000000001,0.015694,-0.1650749999999999,-0.942573,-0.074852,0.175455,-0.936643,-0.0988149999999999,1
204,0.0058614999999999,0.7925795,0.0545825,-0.1769255,0.5558795,0.0520205,-0.3710055,0.6549795,-0.0347195,0.1815945,0.5475895000000001,0.0228435,0.3696945,0.6773495,-0.0847035,-0.4231155,0.8728495000000001,-0.1537655,0.3842544999999999,0.9271895,-0.1559555,-0.0770955,-0.0039555,0.0046974999999999,0.0770955,0.0039555,-0.0046975,-0.1257855,-0.5245305,0.0413435,0.1283445,-0.5181205,0.0160345,-0.1647455,-0.9428505,-0.0743935,0.1772445,-0.9402305,-0.1025954999999999,1
205,0.0060129999999999,0.7924165000000001,0.0554175,-0.1767719999999999,0.5557165000000001,0.0528115,-0.371072,0.6554465,-0.0341545,0.181808,0.5474965,0.0236844999999999,0.369768,0.6770065000000001,-0.0838655,-0.422862,0.8730965,-0.1529325,0.383988,0.9275465,-0.1551025,-0.07712,-0.0039085,0.0046484999999999,0.07712,0.0039085,-0.0046485,-0.125482,-0.5243234999999999,0.0419905,0.128678,-0.5180334999999999,0.0163015,-0.163442,-0.9396935,-0.0704235,0.177708,-0.9401835,-0.1017724999999999,1
206,0.006172,0.7923765,0.056232,-0.1766289999999999,0.5556765,0.053528,-0.371179,0.6558965,-0.033662,0.181971,0.5475165,0.024486,0.369851,0.6768865,-0.083048,-0.4225589999999999,0.8731765,-0.152139,0.383681,0.9277865,-0.154269,-0.077132,-0.0039485,0.00465,0.077132,0.0039485,-0.00465,-0.125199,-0.5242135,0.042605,0.129001,-0.5180335,0.0166049999999999,-0.1629989999999999,-0.9397335,-0.06962,0.178201,-0.9398435,-0.100479,1
207,0.0062815,0.7920805000000001,0.0571155,-0.1765015,0.5553805,0.0543285,-0.3712715,0.6561405,-0.0330645,0.1821685,0.5473905,0.0254225,0.3699485,0.6764805,-0.0821075,-0.4221614999999999,0.8729505000000001,-0.1513245,0.3833585,0.9277705,-0.1533145,-0.0771574999999999,-0.0036525,0.0045794999999999,0.0771574999999999,0.0036525,-0.0045795,-0.1248515,-0.5236894999999999,0.0432545,0.1293285,-0.5182994999999999,0.0170724999999999,-0.1616715,-0.9367995,-0.0655095,0.1788385,-0.9427195,-0.1026245,1
208,0.0064055,0.7917209999999999,0.057937,-0.1763175,0.5550809999999999,0.055129,-0.3713275,0.6563009999999999,-0.032499,0.1823525,0.547091,0.02626,0.3700025,0.6759909999999999,-0.081282,-0.4217075,0.872621,-0.150621,0.3830125,0.927641,-0.152471,-0.0771705,-0.003273,0.004522,0.0771705,0.003273,-0.004522,-0.1244475,-0.523069,0.043987,0.1296725,-0.518669,0.01765,-0.1615475,-0.937179,-0.0645599999999999,0.1791625,-0.943319,-0.101711,1
209,0.0065745,0.7911895,0.0586034999999999,-0.1760625,0.5547695,0.0559345,-0.3715624999999999,0.6566495,-0.0322655,0.1825075,0.5469495000000001,0.0272265,0.3700475,0.6753495,-0.0806705,-0.4212525,0.8725695,-0.1500635,0.3826475,0.9276895,-0.1519435,-0.0771854999999999,-0.0029145,0.0044575,0.0771854999999999,0.0029145,-0.0044575,-0.1240624999999999,-0.5224405,0.0447515,0.1299975,-0.5187204999999999,0.0182675,-0.1608625,-0.9355805,-0.0629805,0.1797375,-0.9460305,-0.1024835,1
210,0.006742,0.7906135000000001,0.0591035,-0.17578,0.5545435000000001,0.0567255,-0.37174,0.6569035,-0.0321245,0.18278,0.5467635000000001,0.0281795,0.37009,0.6747235,-0.0801515,-0.42078,0.8725135,-0.1495525,0.38229,0.9275835,-0.1516425,-0.077205,-0.0025995,0.0044235,0.077205,0.0025995,-0.0044235,-0.12369,-0.5219064999999999,0.0455065,0.13033,-0.5187465,0.0188735,-0.16073,-0.9360865,-0.0634275,0.18035,-0.9462965,-0.1006225,1
211,0.0068654999999999,0.7885595,0.060116,-0.1757324999999999,0.5535695,0.057854,-0.3708825,0.6553795,-0.030267,0.1830575,0.5450495,0.029815,0.3706775,0.6724995,-0.0789899999999999,-0.4201525,0.8714395,-0.148416,0.3824275,0.9265395,-0.150376,-0.0773264999999999,-0.0005504999999999,0.004225,0.0773264999999999,0.0005504999999999,-0.004225,-0.1230725,-0.5196805,0.0459679999999999,0.1307775,-0.5202005,0.0193349999999999,-0.1569325,-0.9341005,-0.0569269999999999,0.1854775,-0.9587405,-0.119316,1
212,0.006764,0.7876965,0.0608295,-0.175189,0.5529365,0.0587774999999999,-0.370319,0.6544765,-0.0294055,0.183151,0.5437565000000001,0.0303955,0.370441,0.6714465000000001,-0.0786895,-0.419639,0.8705565000000001,-0.1480544999999999,0.381921,0.9260265,-0.1504145,-0.0771709999999999,0.0001974999999999,0.0040814999999999,0.0771709999999999,-0.0001975,-0.0040815,-0.122559,-0.5187335,0.0464814999999999,0.131161,-0.5206734999999999,0.0200734999999999,-0.156569,-0.9346835,-0.0549464999999999,0.187101,-0.9619935,-0.1193245,1
