sb224sc-HT22-VT27/4dt907/src/ml-research/a11/datafiles/labeled_files/A79_kinect.csv
FrameNo,nose_3d_x,nose_3d_y,nose_3d_z,left_shoulder_3d_x,left_shoulder_3d_y,left_shoulder_3d_z,left_elbow_3d_x,left_elbow_3d_y,left_elbow_3d_z,right_shoulder_3d_x,right_shoulder_3d_y,right_shoulder_3d_z,right_elbow_3d_x,right_elbow_3d_y,right_elbow_3d_z,left_wrist_3d_x,left_wrist_3d_y,left_wrist_3d_z,right_wrist_3d_x,right_wrist_3d_y,right_wrist_3d_z,left_hip_3d_x,left_hip_3d_y,left_hip_3d_z,right_hip_3d_x,right_hip_3d_y,right_hip_3d_z,left_knee_3d_x,left_knee_3d_y,left_knee_3d_z,right_knee_3d_x,right_knee_3d_y,right_knee_3d_z,left_ankle_3d_x,left_ankle_3d_y,left_ankle_3d_z,right_ankle_3d_x,right_ankle_3d_y,right_ankle_3d_z,activity_label
0,0.0206475,0.7717974999999999,0.0757195,-0.1600125,0.5587675,0.0779575,-0.3247925,0.7750975,-0.0507735,0.1926275,0.5604775,0.0660355,0.3481875,0.7444774999999999,-0.0263694999999999,-0.4137825,1.0179475,-0.1549865,0.4146575,0.9692975,-0.1024364999999999,-0.0736065,0.0039885,-0.0009645,0.0736065,-0.0039885,0.0009645,-0.1239024999999999,-0.5032025000000001,0.0457715,0.1358174999999999,-0.5210125000000001,0.0205314999999999,-0.1428025,-0.8414825,0.0263885,0.1800375,-0.9256025,-0.0614855,0
1,0.0205205,0.7717025,0.0756465,-0.1601675,0.5588225,0.0779435,-0.3246475,0.7745825,-0.0503625,0.1925625,0.5607225,0.0661565,0.3475825,0.7441025,-0.0261585,-0.4140775,1.0172225,-0.1543065,0.4138625,0.9726225,-0.1022764999999999,-0.0736485,0.0039745,-0.0010674999999999,0.0736485,-0.0039745,0.0010674999999999,-0.1239275,-0.5009575000000001,0.0452785,0.1357825,-0.5210275,0.0205135,-0.1427175,-0.8416075,0.0261875,0.1797025,-0.9257575,-0.0614315,0
2,0.0205085,0.7717134999999999,0.075707,-0.1601445,0.5589335,0.078086,-0.3240745,0.7737234999999999,-0.049777,0.1923955,0.5606435,0.066248,0.3474655,0.7443335,-0.0262659999999999,-0.4141845,1.0175634999999998,-0.154272,0.4137255,0.9688235,-0.1037419999999999,-0.0736675,0.0039535,-0.0010329999999999,0.0736675,-0.0039535,0.0010329999999999,-0.1238944999999999,-0.5006565000000001,0.045318,0.1358755,-0.5210465000000001,0.020051,-0.1416045,-0.8389465,0.027583,0.1797855,-0.9255565,-0.061738,1
3,0.023555,0.7715405000000001,0.077207,-0.157866,0.5593705,0.079274,-0.321076,0.7748605000000001,-0.0481739999999999,0.194164,0.5592605,0.067517,0.350254,0.7431905,-0.024853,-0.410366,1.0196905,-0.151969,0.417414,0.9674605,-0.102269,-0.073655,0.0041884999999999,-0.0008649999999999,0.073655,-0.0041884999999999,0.0008649999999999,-0.125266,-0.5013695,0.04416,0.134074,-0.5215095,0.018924,-0.144376,-0.8381895,0.025761,0.177074,-0.9267895,-0.0623149999999999,1
4,0.023485,0.7712614999999999,0.0772855,-0.157878,0.5594414999999999,0.0793605,-0.323758,0.7812215,-0.0522205,0.194162,0.5593215,0.0675285,0.350092,0.7435014999999999,-0.0250924999999999,-0.410408,1.0203315,-0.1518884999999999,0.417612,0.9675315,-0.1029484999999999,-0.073661,0.0041745,-0.0009084999999999,0.073661,-0.0041744999999999,0.0009085,-0.125498,-0.5004185,0.0440285,0.134182,-0.5215085,0.0187705,-0.144948,-0.8394085,0.0248155,0.177452,-0.9280485,-0.0633585,1
5,0.0234165,0.771024,0.077219,-0.1579115,0.559484,0.0795019999999999,-0.3252215,0.783634,-0.054325,0.1939885,0.559424,0.067806,0.3499385,0.743754,-0.0251269999999999,-0.4104015,1.020454,-0.151928,0.4176085,0.967674,-0.103218,-0.0736565,0.0041449999999999,-0.000944,0.0736565,-0.004145,0.0009439999999999,-0.1253815,-0.500116,0.0439539999999999,0.1341785,-0.521486,0.0187839999999999,-0.1447715,-0.838776,0.0249769999999999,0.1788485,-0.925906,-0.066818,1
6,0.0231915,0.770961,0.077108,-0.1575425,0.559731,0.079156,-0.3232224999999999,0.779901,-0.052572,0.1939074999999999,0.559431,0.067852,0.3498175,0.743951,-0.025084,-0.4099025,1.021121,-0.152076,0.4175075,0.967801,-0.103376,-0.0736365,0.00411,-0.000966,0.0736365,-0.0041099999999999,0.0009659999999999,-0.1254725,-0.5008790000000001,0.0441689999999999,0.1343275,-0.521369,0.0192229999999999,-0.1448625,-0.8387290000000001,0.0250419999999999,0.1789975,-0.926539,-0.068906,1
7,0.0227824999999999,0.77092,0.0766135,-0.1579275,0.55947,0.0795275,-0.3245274999999999,0.78215,-0.0542315,0.1937924999999999,0.55949,0.0673425,0.3494225,0.74446,-0.0251094999999999,-0.4100375,1.02185,-0.1529605,0.4164725,0.97027,-0.1031004999999999,-0.0736365,0.00404,-0.0010734999999999,0.0736365,-0.00404,0.0010735,-0.1253475,-0.50131,0.0445515,0.1342725,-0.52151,0.0181905,-0.1456975,-0.83915,0.0255385,0.1780225,-0.92643,-0.0620015,1
8,0.022777,0.77082,0.076678,-0.157916,0.55947,0.0796159999999999,-0.3246559999999999,0.78239,-0.055104,0.193784,0.55937,0.06731,0.3494239999999999,0.74449,-0.025046,-0.409856,1.02188,-0.1529049999999999,0.416524,0.9703,-0.103215,-0.073641,0.004024,-0.001091,0.073641,-0.004024,0.001091,-0.125376,-0.50133,0.044473,0.134184,-0.52148,0.018029,-0.145916,-0.8393,0.025584,0.177964,-0.9264,-0.062435,1
9,0.0227975,0.7707375000000001,0.076766,-0.1579025,0.5594775000000001,0.079715,-0.3248025,0.7827275,-0.0559359999999999,0.1937875,0.5592775000000001,0.067265,0.3494275,0.7444975,-0.024956,-0.4096625,1.0218075,-0.152825,0.4165675,0.9695875,-0.1033149999999999,-0.0736395,0.0040125,-0.0010949999999999,0.0736395,-0.0040124999999999,0.0010949999999999,-0.1254025,-0.5013725,0.044422,0.1341175,-0.5214525000000001,0.017914,-0.1460425,-0.8393425000000001,0.025635,0.1779375,-0.9264225,-0.062855,1
10,0.0228239999999999,0.770688,0.0768625,-0.157895,0.5594979999999999,0.0798234999999999,-0.325025,0.783238,-0.0567525,0.193765,0.559198,0.0672135,0.349425,0.744528,-0.0248565,-0.4094549999999999,1.021738,-0.1527335,0.416695,0.969008,-0.1033035,-0.073634,0.004007,-0.0011055,0.073634,-0.004007,0.0011054999999999,-0.125435,-0.501372,0.0444065,0.134075,-0.521442,0.0176624999999999,-0.146125,-0.839432,0.0256985,0.177915,-0.926482,-0.0631035,1
11,0.0227715,0.770606,0.076796,-0.1579284999999999,0.5595060000000001,0.0799479999999999,-0.3252285,0.783716,-0.0576,0.1937215,0.5591160000000001,0.067001,0.3493815,0.744556,-0.024839,-0.4093585,1.021766,-0.152888,0.4166815,0.969036,-0.103378,-0.0736325,0.003988,-0.0011149999999999,0.0736325,-0.003988,0.0011149999999999,-0.1254885,-0.501544,0.044396,0.1340215,-0.521434,0.017435,-0.1463284999999999,-0.839494,0.025791,0.1779514999999999,-0.926494,-0.063478,1
12,0.02272,0.770525,0.0767595,-0.157961,0.559515,0.0800965,-0.325201,0.7835949999999999,-0.0577785,0.193689,0.559025,0.0668135,0.349329,0.7445849999999999,-0.0248294999999999,-0.409221,1.021795,-0.1530294999999999,0.416649,0.969065,-0.1036695,-0.073637,0.003968,-0.0011294999999999,0.073637,-0.003968,0.0011294999999999,-0.125541,-0.5017750000000001,0.0444275,0.133959,-0.521435,0.0172195,-0.1464809999999999,-0.8395750000000001,0.0259255,0.178209,-0.926465,-0.0637494999999999,1
13,0.022664,0.770421,0.0767175,-0.157987,0.559531,0.0802654999999999,-0.324997,0.783141,-0.0580595,0.193653,0.558911,0.0665895,0.349273,0.744621,-0.0248605,-0.409107,1.0218310000000002,-0.1531095,0.416603,0.969101,-0.1040094999999999,-0.0736489999999999,0.0039469999999999,-0.0011315,0.0736489999999999,-0.003947,0.0011315,-0.125577,-0.501929,0.0444505,0.133903,-0.521469,0.0173615,-0.146547,-0.839669,0.0260465,0.177973,-0.926639,-0.0629795,1
14,0.0227995,0.770359,0.0767655,-0.1579124999999999,0.559589,0.0805205,-0.3249225,0.783529,-0.0582545,0.1937475,0.558799,0.0662965,0.3493275,0.7446590000000001,-0.0248334999999999,-0.4087625,1.022169,-0.1531455,0.4166075,0.969429,-0.1043855,-0.0736614999999999,0.003959,-0.0011265,0.0736614999999999,-0.0039589999999999,0.0011265,-0.1256324999999999,-0.5016609999999999,0.0444415,0.1337975,-0.521501,0.0175445,-0.1466225,-0.839451,0.0262005,0.1776875,-0.926631,-0.0620555,1
15,0.0229289999999999,0.7702975,0.0768355,-0.157847,0.5596374999999999,0.0807915,-0.324967,0.7839674999999999,-0.0580955,0.193823,0.5586874999999999,0.0660295,0.349383,0.7446575,-0.0248274999999999,-0.408447,1.0224075,-0.1531124999999999,0.4165029999999999,0.9693775,-0.1047325,-0.073681,0.0039745,-0.0011475,0.073681,-0.0039745,0.0011475,-0.125717,-0.5013525000000001,0.0444535,0.133663,-0.5215225,0.0176755,-0.146697,-0.8392525000000001,0.0263015,0.177473,-0.9260925,-0.0615125,1
16,0.0230599999999999,0.7701965,0.0769189999999999,-0.157794,0.5596665,0.081071,-0.324804,0.7840564999999999,-0.058091,0.193876,0.5585365,0.06577,0.349426,0.7446165,-0.024916,-0.408194,1.0226065000000002,-0.153029,0.416376,0.9697365,-0.105299,-0.073707,0.0039555,-0.001162,0.073707,-0.0039555,0.0011619999999999,-0.125834,-0.5009735,0.0444129999999999,0.1335859999999999,-0.5215135,0.0178219999999999,-0.146774,-0.8390935,0.0263729999999999,0.177736,-0.9258135,-0.061799,1
17,0.023242,0.770041,0.076965,-0.157745,0.559631,0.081371,-0.324735,0.784291,-0.05796,0.193925,0.558421,0.06577,0.349435,0.744471,-0.025122,-0.407955,1.022741,-0.152869,0.416425,0.969141,-0.1059789999999999,-0.073728,0.003894,-0.001223,0.073728,-0.003894,0.001223,-0.125905,-0.500659,0.044471,0.133485,-0.521419,0.01808,-0.146895,-0.839099,0.026415,0.178155,-0.925589,-0.062209,1
18,0.0234185,0.769935,0.0770589999999999,-0.1577265,0.5596450000000001,0.081712,-0.3245065,0.7841250000000001,-0.05783,0.1939435,0.558345,0.065769,0.3494435,0.744325,-0.025399,-0.4077565,1.022905,-0.152678,0.4164735,0.968455,-0.106658,-0.0737605,0.0038559999999999,-0.001256,0.0737605,-0.003856,0.001256,-0.1260365,-0.500365,0.044556,0.1333835,-0.521355,0.0183699999999999,-0.1470665,-0.8391149999999999,0.0264949999999999,0.1783635,-0.925405,-0.062218,1
19,0.0235879999999999,0.769838,0.0771585,-0.15772,0.5597380000000001,0.0820645,-0.32425,0.783908,-0.0576645,0.19393,0.558278,0.0657665,0.34941,0.7441880000000001,-0.0256925,-0.40758,1.022988,-0.1524384999999999,0.4165299999999999,0.968118,-0.1073585,-0.0738,0.003828,-0.0012694999999999,0.0738,-0.003828,0.0012694999999999,-0.12617,-0.500072,0.0446635,0.13315,-0.5213319999999999,0.0187075,-0.14732,-0.839162,0.0265545,0.17828,-0.925272,-0.0621585,1
20,0.0237355,0.7697635,0.077274,-0.1577115,0.5598435,0.082463,-0.3240115,0.7837435,-0.057461,0.1938985,0.5582435,0.065789,0.3493385,0.7440135,-0.026035,-0.4074215,1.0228635,-0.152163,0.4165285,0.9677835,-0.108303,-0.0738335,0.0038125,-0.001272,0.0738335,-0.0038125,0.001272,-0.1263314999999999,-0.5000565,0.04481,0.1329185,-0.5213265,0.019,-0.1476215,-0.8397065,0.026651,0.1776385,-0.9249965,-0.0612329999999999,1
21,0.0238554999999999,0.7696904999999999,0.0773244999999999,-0.1577215,0.5599405,0.0828345,-0.3238415,0.7836605,-0.0572865,0.1938285,0.5581905,0.0657195,0.3492485,0.7438305,-0.0265025,-0.4073015,1.0227405,-0.1519015,0.4165785,0.9674305,-0.1091615,-0.0738595,0.0037975,-0.0012565,0.0738595,-0.0037974999999999,0.0012565,-0.1264915,-0.4995795,0.0449284999999999,0.1326985,-0.5213295,0.0192295,-0.1479715,-0.8401695,0.0267295,0.1771785,-0.9248695,-0.0605515,1
22,0.0239684999999999,0.7696485000000001,0.077314,-0.1576205,0.5600285,0.0829449999999999,-0.3234505,0.7829985,-0.056828,0.1937495,0.5581185000000001,0.065589,0.3491695,0.7435885,-0.026995,-0.4072205,1.0227085,-0.151639,0.4163395,0.9673385,-0.109979,-0.0738885,0.0037885,-0.001211,0.0738885,-0.0037884999999999,0.0012109999999999,-0.1266605,-0.4991314999999999,0.0450949999999999,0.1324695,-0.5213315,0.0193299999999999,-0.1482705,-0.8406315,0.0268469999999999,0.1762895,-0.9249215,-0.059879,1
23,0.023903,0.7697075000000001,0.0772565,-0.157642,0.5600775,0.0830095,-0.3233419999999999,0.7824175000000001,-0.0565415,0.193558,0.5581475,0.0654965,0.348948,0.7434875000000001,-0.0276105,-0.407402,1.0225675,-0.1514275,0.416118,0.9667075,-0.1108474999999999,-0.073912,0.0038135,-0.0011784999999999,0.073912,-0.0038134999999999,0.0011784999999999,-0.126912,-0.4991925,0.0451965,0.132248,-0.5213825,0.0193174999999999,-0.148472,-0.8407625,0.0269265,0.175798,-0.9254125,-0.0595175,1
24,0.0238665,0.7697515,0.0771695,-0.1576535,0.5601214999999999,0.0830654999999999,-0.3234935,0.7823415,-0.0562345,0.1933865,0.5581714999999999,0.0653705,0.3487465,0.7433615,-0.0282525,-0.4075635,1.0225115,-0.1512125,0.4159865,0.9660915,-0.1117825,-0.0739285,0.0038364999999999,-0.0011285,0.0739285,-0.0038364999999999,0.0011284999999999,-0.1271535,-0.4991285,0.0451375,0.1320265,-0.5214685,0.0193304999999999,-0.1487135,-0.8407185,0.0271074999999999,0.1752565,-0.9257585,-0.0594025,1
25,0.023832,0.7697845000000001,0.077105,-0.157643,0.5601445,0.083123,-0.323463,0.7819345000000001,-0.0557899999999999,0.193237,0.5581645000000001,0.065209,0.3485769999999999,0.7432145,-0.028934,-0.407693,1.0223445,-0.150969,0.415807,0.9661245,-0.112439,-0.073946,0.0038565,-0.001084,0.073946,-0.0038565,0.001084,-0.127353,-0.4991855,0.045079,0.131807,-0.5215555,0.019359,-0.148853,-0.8412655,0.027289,0.174617,-0.9257255,-0.059019,1
26,0.023761,0.7697615,0.0770545,-0.157631,0.5601915000000001,0.0831225,-0.323391,0.7814015000000001,-0.0552265,0.193069,0.5581315,0.0650365,0.348379,0.7429415,-0.0295804999999999,-0.407821,1.0221015,-0.1508565,0.415539,0.9657615,-0.1132664999999999,-0.073963,0.0038315,-0.0010034999999999,0.073963,-0.0038315,0.0010035,-0.127481,-0.4987585,0.0449635,0.1316189999999999,-0.5215985,0.0193515,-0.1488209999999999,-0.8418985,0.0273515,0.174059,-0.9253785,-0.0581865,1
27,0.023656,0.7697235,0.0769644999999999,-0.1577299999999999,0.5602134999999999,0.0830755,-0.32361,0.7812235,-0.0549724999999999,0.19293,0.5580934999999999,0.0648595,0.3482099999999999,0.7428735,-0.0301904999999999,-0.40794,1.0219335,-0.1507885,0.41529,0.9656935,-0.1141685,-0.073971,0.0037765,-0.0009515,0.073971,-0.0037765,0.0009515,-0.12754,-0.4982564999999999,0.0447995,0.13159,-0.5215465,0.0190355,-0.14884,-0.8426465000000001,0.0274645,0.17361,-0.9251165,-0.0566544999999999,1
28,0.023564,0.769701,0.0768515,-0.157826,0.5602509999999999,0.0830045,-0.323796,0.780991,-0.0550475,0.192794,0.5580609999999999,0.0646585,0.348044,0.742871,-0.0308364999999999,-0.408056,1.021881,-0.1507925,0.414984,0.965861,-0.1150225,-0.073974,0.003745,-0.0009144999999999,0.073974,-0.003745,0.0009145,-0.127566,-0.497669,0.0445165,0.131524,-0.5214390000000001,0.0182115,-0.148836,-0.843419,0.0275215,0.173974,-0.924999,-0.0565615,1
29,0.0234719999999999,0.769701,0.0766719999999999,-0.157918,0.560271,0.082881,-0.323968,0.780401,-0.055008,0.192672,0.558031,0.064426,0.347892,0.742881,-0.031426,-0.408188,1.021821,-0.150891,0.414682,0.966451,-0.115651,-0.073983,0.003707,-0.000893,0.073983,-0.003707,0.0008929999999999,-0.127608,-0.498039,0.043737,0.131472,-0.521319,0.0173769999999999,-0.148768,-0.844519,0.0273659999999999,0.174472,-0.924979,-0.056691,1
30,0.0230825,0.769863,0.076402,-0.1581334999999999,0.560273,0.082726,-0.3243435,0.779753,-0.0548979999999999,0.1923065,0.558153,0.064205,0.3473965,0.742783,-0.0319739999999999,-0.4086835,1.021473,-0.1511539999999999,0.4145365,0.966933,-0.1163339999999999,-0.0739945,0.0036619999999999,-0.0008799999999999,0.0739945,-0.003662,0.0008799999999999,-0.1275335,-0.4987669999999999,0.042886,0.1315265,-0.521397,0.01639,-0.1486235,-0.845247,0.0271749999999999,0.1749264999999999,-0.925497,-0.056654,1
31,0.0227005,0.7700475,0.076142,-0.1583445,0.5602075,0.082815,-0.3245145,0.7785975,-0.054679,0.1919654999999999,0.5582974999999999,0.064042,0.3469455,0.7427075000000001,-0.032479,-0.4091345,1.0211375,-0.151526,0.4143755,0.9718375,-0.117396,-0.0739934999999999,0.0036095,-0.000896,0.0739934999999999,-0.0036095,0.000896,-0.1274545,-0.4994325,0.0419029999999999,0.1316254999999999,-0.5215425,0.0152649999999999,-0.1484545,-0.8456824999999999,0.0269659999999999,0.1749155,-0.9258025,-0.055618,1
32,0.0222905,0.770256,0.075855,-0.1585635,0.5601959999999999,0.082908,-0.3247235,0.777846,-0.05453,0.1916365,0.5584960000000001,0.063907,0.3465065,0.742766,-0.032919,-0.4094534999999999,1.020946,-0.1520449999999999,0.4141765,0.975506,-0.1181249999999999,-0.0739885,0.003588,-0.0009139999999999,0.0739885,-0.003588,0.0009139999999999,-0.1274334999999999,-0.500694,0.040505,0.1316264999999999,-0.521754,0.0138509999999999,-0.1480234999999999,-0.8461939999999999,0.027076,0.1749065,-0.925874,-0.054567,1
33,0.021886,0.770442,0.0756005,-0.158797,0.5601619999999999,0.0830055,-0.324837,0.776782,-0.0542045,0.191353,0.558682,0.0638005,0.346073,0.742792,-0.0333225,-0.4096769999999999,1.020742,-0.1526305,0.413843,0.980572,-0.1186204999999999,-0.073986,0.0035419999999999,-0.0009154999999999,0.073986,-0.003542,0.0009154999999999,-0.127417,-0.501908,0.0392625,0.131623,-0.521988,0.0123344999999999,-0.147547,-0.846678,0.0270105,0.174843,-0.926108,-0.0544225,1
34,0.0214299999999999,0.770636,0.0753269999999999,-0.159145,0.560136,0.083088,-0.3248649999999999,0.775496,-0.053883,0.191105,0.558866,0.063722,0.345695,0.742636,-0.03352,-0.409775,1.020626,-0.15322,0.413435,0.986046,-0.11902,-0.073983,0.0034779999999999,-0.000907,0.073983,-0.003478,0.0009069999999999,-0.127415,-0.503004,0.0379889999999999,0.131765,-0.522254,0.0105539999999999,-0.147025,-0.847234,0.0266179999999999,0.1749649999999999,-0.926374,-0.054475,1
35,0.020917,0.7707785,0.0750354999999999,-0.159498,0.5601285,0.0831865,-0.324908,0.7741985,-0.0534685,0.190882,0.5590385,0.0637045,0.345412,0.7422885,-0.0335905,-0.409878,1.0204084999999998,-0.1538505,0.413062,0.9917485,-0.1190005,-0.0739819999999999,0.0034094999999999,-0.0008555,0.0739819999999999,-0.0034095,0.0008554999999999,-0.127408,-0.5043015,0.0366224999999999,0.131832,-0.5225015,0.0084584999999999,-0.146618,-0.8478415,0.0262124999999999,0.175442,-0.9268115,-0.0552415,1
36,0.0203865,0.770922,0.0747424999999999,-0.1598095,0.560122,0.0832995,-0.3248195,0.7730020000000001,-0.0529385,0.1907105,0.559102,0.0637155,0.3452305,0.7418720000000001,-0.0335675,-0.4099695,1.0203019999999998,-0.1544485,0.4127004999999999,0.994262,-0.1188185,-0.0739785,0.003352,-0.0008244999999999,0.0739785,-0.0033519999999999,0.0008244999999999,-0.1275095,-0.506548,0.0351885,0.1318905,-0.522778,0.0061984999999999,-0.1461595,-0.848768,0.0258424999999999,0.1760705,-0.926998,-0.0559384999999999,1
37,0.019846,0.7710755,0.0744545,-0.160133,0.5601355,0.0830925,-0.324933,0.7718355,-0.0526364999999999,0.190567,0.5591155000000001,0.0637195,0.345167,0.7414255000000001,-0.0334005,-0.410053,1.0200955,-0.1549414999999999,0.412397,0.9988055,-0.1186414999999999,-0.073975,0.0032845,-0.0008094999999999,0.073975,-0.0032844999999999,0.0008095,-0.127703,-0.5087045,0.0337535,0.131927,-0.5230444999999999,0.0035625,-0.145843,-0.8497745,0.0254935,0.176177,-0.9269645,-0.0554814999999999,1
38,0.0192905,0.7711625,0.074115,-0.1604795,0.5601225,0.0829189999999999,-0.3250594999999999,0.7705325000000001,-0.0521299999999999,0.1905005,0.5590925,0.063738,0.3451005,0.7410525,-0.033196,-0.4099395,1.0199625,-0.155287,0.4118305,1.0036725,-0.118417,-0.0739725,0.0032164999999999,-0.000813,0.0739725,-0.0032165,0.000813,-0.1278295,-0.5103675,0.032593,0.1319505,-0.5233375,0.0009779999999999,-0.1457595,-0.8511475,0.024973,0.1760405,-0.9269175,-0.0547909999999999,1
39,0.0191025,0.771152,0.0737235,-0.1605845,0.560192,0.0824935,-0.3251045,0.769332,-0.0516264999999999,0.1904255,0.559082,0.0637925,0.3450355,0.740642,-0.0329445,-0.4095645,1.0201520000000002,-0.1553155,0.4111555,1.008392,-0.1178254999999999,-0.0739755,0.003224,-0.0007614999999999,0.0739755,-0.0032239999999999,0.0007615,-0.1279745,-0.511748,0.0311125,0.1318355,-0.523348,-0.0015774999999999,-0.1457045,-0.851398,0.0243685,0.1761154999999999,-0.926668,-0.0540485,1
40,0.018941,0.7711444999999999,0.073217,-0.160681,0.5601845000000001,0.082068,-0.3253709999999999,0.7680345,-0.051167,0.190359,0.5590744999999999,0.06382,0.345159,0.7399445,-0.032671,-0.408931,1.0203445,-0.155281,0.410679,1.0084845,-0.117031,-0.07399,0.0032314999999999,-0.000715,0.07399,-0.0032315,0.000715,-0.128141,-0.5125455000000001,0.029286,0.131719,-0.5233555000000001,-0.004122,-0.1456609999999999,-0.8510055000000001,0.023946,0.176079,-0.9266755,-0.053421,1
41,0.0188209999999999,0.771137,0.0725815,-0.160774,0.560177,0.0816234999999999,-0.325624,0.766537,-0.0508415,0.190406,0.559067,0.0638374999999999,0.345636,0.738717,-0.0323205,-0.407974,1.020537,-0.1551175,0.410226,1.0084769999999998,-0.1161774999999999,-0.074001,0.0032389999999999,-0.0006765,0.074001,-0.003239,0.0006764999999999,-0.128304,-0.512553,0.0275394999999999,0.131596,-0.523363,-0.0067055,-0.145634,-0.851073,0.0233805,0.176256,-0.926653,-0.0535405,1
42,0.0186875,0.7710910000000001,0.0717175,-0.1608445,0.5601710000000001,0.0811395,-0.3258145,0.7647010000000001,-0.0505414999999999,0.1908955,0.558911,0.0637425,0.3468255,0.7367710000000001,-0.0319855,-0.4064744999999999,1.020781,-0.1551394999999999,0.4104055,1.008521,-0.1150694999999999,-0.0740275,0.003231,-0.0007174999999999,0.0740275,-0.0032309999999999,0.0007175,-0.1287145,-0.512509,0.0250495,0.1314155,-0.523559,-0.0094764999999999,-0.1458344999999999,-0.852049,0.0228155,0.1765054999999999,-0.926419,-0.0537794999999999,1
43,0.0185185,0.7709655,0.070404,-0.1607505,0.5600155,0.080217,-0.3256805,0.7626355,-0.050168,0.1913695,0.5587055,0.063571,0.3482895,0.7345255,-0.0316929999999999,-0.4049405,1.0208355,-0.1551469999999999,0.4103894999999999,1.0053755,-0.1133069999999999,-0.0740595,0.0032415,-0.0007689999999999,0.0740595,-0.0032414999999999,0.0007689999999999,-0.1292205,-0.5124545,0.021719,0.1311895,-0.5237545,-0.012227,-0.1462305,-0.8518645,0.022567,0.1763795,-0.9258345,-0.054127,1
44,0.0183205,0.7706925,0.0688315,-0.1606185,0.5598624999999999,0.0792105,-0.3255785,0.7605525,-0.0500824999999999,0.1919215,0.5584425,0.0632105,0.3499515,0.7321525,-0.0316404999999999,-0.4034684999999999,1.0208725,-0.1552905,0.4103215,1.0021225,-0.1120305,-0.0740995,0.0032354999999999,-0.0008324999999999,0.0740995,-0.0032355,0.0008324999999999,-0.1299085,-0.5114075,0.0179255,0.1311215,-0.5239575000000001,-0.0152225,-0.1464785,-0.8525075000000001,0.0218005,0.1761215,-0.9254175,-0.0543205,1
45,0.0180854999999999,0.770268,0.066862,-0.1604455,0.5597279999999999,0.078123,-0.3254955,0.7584179999999999,-0.0500869999999999,0.1923945,0.5581179999999999,0.062745,0.3516545,0.729548,-0.031725,-0.4019655,1.020828,-0.155483,0.4102045,0.998708,-0.1113629999999999,-0.0741515,0.0032579999999999,-0.0008299999999999,0.0741515,-0.003258,0.00083,-0.1307655,-0.510302,0.013566,0.1312045,-0.5241520000000001,-0.0182569999999999,-0.1468455,-0.853472,0.02043,0.1760645,-0.924802,-0.054813,1
46,0.0182975,0.769582,0.0644769999999999,-0.1602084999999999,0.559732,0.077404,-0.3253585,0.7565219999999999,-0.050093,0.1931115,0.5577019999999999,0.062293,0.3537715,0.7268519999999999,-0.03184,-0.3999385,1.021242,-0.155704,0.4104215,0.994462,-0.111084,-0.0742195,0.0033089999999999,-0.000827,0.0742195,-0.003309,0.0008269999999999,-0.1321284999999999,-0.508618,0.0084029999999999,0.1313214999999999,-0.524328,-0.021511,-0.1477685,-0.854018,0.0190699999999999,0.1757915,-0.923708,-0.055334,1
47,0.0185055,0.7688425,0.0619305,-0.1600475,0.5598424999999999,0.0764995,-0.3252974999999999,0.7547524999999999,-0.0501685,0.1937525,0.5573024999999999,0.0617975,0.3558025,0.7243525,-0.0319385,-0.3980375,1.0216925,-0.1559325,0.4109225,0.9918825,-0.1111024999999999,-0.0742895,0.0033374999999999,-0.0008234999999999,0.0742895,-0.0033375,0.0008234999999999,-0.1337875,-0.5067775,0.0028494999999999,0.1315525,-0.5244175000000001,-0.0249765,-0.1490774999999999,-0.8543975,0.0177195,0.1753624999999999,-0.9224375,-0.0557724999999999,1
48,0.0186785,0.768004,0.0592354999999999,-0.1599925,0.560054,0.0758375,-0.3253824999999999,0.7531840000000001,-0.0506175,0.1942475,0.557064,0.0613055,0.3577575,0.7221040000000001,-0.0323445,-0.3962225,1.021954,-0.1565234999999999,0.4113575,0.987554,-0.1111435,-0.0743465,0.0033349999999999,-0.0008395,0.0743465,-0.003335,0.0008395,-0.1356925,-0.504656,-0.0030724999999999,0.1319175,-0.5243859999999999,-0.0287404999999999,-0.1505125,-0.854696,0.0163685,0.1745675,-0.920916,-0.0552734999999999,1
49,0.018773,0.7670835,0.056103,-0.160131,0.5604535,0.0747839999999999,-0.325661,0.7518035000000001,-0.051815,0.194519,0.5568835000000001,0.060453,0.359409,0.7201535,-0.033421,-0.394701,1.0219135,-0.157709,0.411719,0.9830435,-0.111439,-0.074401,0.0033015,-0.000745,0.074401,-0.0033014999999999,0.0007449999999999,-0.137761,-0.5019764999999999,-0.009361,0.132289,-0.5237664999999999,-0.0330359999999999,-0.152121,-0.8549565,0.0147409999999999,0.1736089999999999,-0.9191665,-0.055009,1
50,0.0187445,0.7662795,0.0525265,-0.1603115,0.5606795,0.0728595,-0.3262415,0.7508995,-0.0535615,0.1946284999999999,0.5561495,0.0588564999999999,0.3604785,0.7187795,-0.0350135,-0.3935715,1.0212195,-0.1599675,0.4118485,0.9790995,-0.1121475,-0.0745685,0.0033825,-0.0006195,0.0745685,-0.0033825,0.0006194999999999,-0.1401915,-0.4985904999999999,-0.0160575,0.1325585,-0.5225204999999999,-0.0376785,-0.1540615,-0.8551004999999999,0.0129324999999999,0.1724284999999999,-0.9165905,-0.0549475,1
51,0.018634,0.765495,0.048481,-0.1606679999999999,0.5611250000000001,0.070629,-0.326928,0.750075,-0.0558189999999999,0.194522,0.5555650000000001,0.056954,0.361052,0.717615,-0.0371419999999999,-0.392698,1.020835,-0.162709,0.412132,0.977585,-0.113829,-0.074782,0.0034769999999999,-0.000521,0.074782,-0.003477,0.000521,-0.142938,-0.494675,-0.022978,0.1329719999999999,-0.5207649999999999,-0.042883,-0.156248,-0.8538749999999999,0.0109679999999999,0.170902,-0.913415,-0.055192,1
52,0.018626,0.7643375,0.0442645,-0.161126,0.5619575,0.0683685,-0.327546,0.7491075,-0.0586475,0.194544,0.5544375,0.0547585,0.361524,0.7165875,-0.0398165,-0.391576,1.0194075,-0.1662875,0.412224,0.9747775,-0.1164475,-0.074992,0.0035914999999999,-0.0004694999999999,0.074992,-0.0035915,0.0004694999999999,-0.1457359999999999,-0.4909525,-0.0297624999999999,0.133544,-0.5189225,-0.0485774999999999,-0.1584259999999999,-0.8525425,0.0087114999999999,0.169394,-0.9104225,-0.0560144999999999,1
53,0.0184715,0.7635310000000001,0.0397704999999999,-0.1614015,0.5616410000000001,0.0651635,-0.3282715,0.7479210000000001,-0.0619475,0.1943585,0.553731,0.0522425,0.3617285,0.715761,-0.0432265,-0.3899515,1.013331,-0.1702975,0.4121785,0.971801,-0.1198275,-0.0752385,0.0035829999999999,-0.0003355,0.0752385,-0.0035829999999999,0.0003354999999999,-0.1486615,-0.4867789999999999,-0.0366935,0.1339585,-0.5162789999999999,-0.0543865,-0.1607715,-0.850899,0.0063134999999999,0.1676785,-0.907089,-0.0572405,1
54,0.0183189999999999,0.76292,0.0351144999999999,-0.161629,0.56115,0.0615764999999999,-0.329029,0.7466900000000001,-0.0655505,0.194011,0.55318,0.0495004999999999,0.361981,0.71523,-0.0472075,-0.388509,1.00791,-0.1744705,0.412061,0.96884,-0.1239505,-0.0755369999999999,0.003487,-2.3500000000002685e-05,0.0755369999999999,-0.003487,2.3499999999995747e-05,-0.151669,-0.4819199999999999,-0.0437165,0.1343009999999999,-0.5130399999999999,-0.0604105,-0.162919,-0.8482799999999999,0.0039614999999999,0.165811,-0.90303,-0.0586445,1
55,0.0177489999999999,0.7625675,0.0304585,-0.161906,0.5605875,0.0578415,-0.330576,0.7450675,-0.0696104999999999,0.193484,0.5527575,0.0464095,0.361904,0.7149475,-0.0515095,-0.387796,1.0026875,-0.1788904999999999,0.411184,0.9674375,-0.1286604999999999,-0.0759249999999999,0.0035434999999999,0.0002235,0.0759249999999999,-0.0035434999999999,-0.0002235,-0.154366,-0.4769025,-0.0506255,0.134664,-0.5096425,-0.0659805,-0.164636,-0.8453125,0.0013405,0.163804,-0.8987725,-0.0602995,1
56,0.017298,0.7621915,0.0256595,-0.1621599999999999,0.5600115,0.0536865,-0.3321,0.7434415,-0.0739645,0.1929699999999999,0.5526615,0.0430925,0.36209,0.7147615,-0.0562864999999999,-0.387,0.9969615,-0.1838845,0.41037,0.9657815,-0.1340245,-0.076332,0.0035175,0.0004755,0.076332,-0.0035175,-0.0004754999999999,-0.15692,-0.4711584999999999,-0.0574724999999999,0.13502,-0.5050285,-0.0719045,-0.16631,-0.8417884999999999,-0.0015594999999999,0.16154,-0.8939285,-0.0618994999999999,1
57,0.0167975,0.7618495000000001,0.020572,-0.1623605,0.5591895,0.04898,-0.3336004999999999,0.7417095,-0.0785449999999999,0.1925095,0.5515595,0.038979,0.3622595,0.7146295,-0.0613239999999999,-0.3862705,0.9914795,-0.1890649999999999,0.4096695,0.9646795,-0.139735,-0.0768234999999999,0.0034925,0.000697,0.0768234999999999,-0.0034925,-0.0006969999999999,-0.1593705,-0.4645804999999999,-0.064118,0.1352795,-0.4995005,-0.077995,-0.1681905,-0.8373505,-0.0044579999999999,0.1594795,-0.8885905,-0.0641699999999999,1
58,0.0162515,0.761546,0.0153245,-0.1625035,0.558136,0.0439325,-0.3350335,0.739806,-0.0831124999999999,0.1920965,0.5508759999999999,0.0348005,0.3624765,0.714546,-0.0663405,-0.3855435,0.986356,-0.1941925,0.4090065,0.963056,-0.1457525,-0.0773555,0.003428,0.0008825,0.0773555,-0.003428,-0.0008824999999999,-0.1618435,-0.457564,-0.0706825,0.1355164999999999,-0.4929339999999999,-0.0843425,-0.1699535,-0.831924,-0.0076004999999999,0.1579265,-0.8818440000000001,-0.0664724999999999,1
59,0.0158705,0.7606269999999999,0.010332,-0.1626595,0.557157,0.039789,-0.3363995,0.736887,-0.087683,0.1915704999999999,0.550287,0.031026,0.3628105,0.713547,-0.071563,-0.3846795,0.981437,-0.199023,0.4085304999999999,0.960297,-0.151973,-0.0777505,0.0033189999999999,0.001058,0.0777505,-0.003319,-0.001058,-0.1641495,-0.4509229999999999,-0.077293,0.1359205,-0.486433,-0.091183,-0.1714494999999999,-0.825923,-0.0107079999999999,0.1568505,-0.875573,-0.069173,1
60,0.0154514999999999,0.7597615,0.005416,-0.1627695,0.5559815,0.035309,-0.3378294999999999,0.7338815000000001,-0.092504,0.1907405,0.5497715,0.027005,0.3631205,0.7126115000000001,-0.077104,-0.3836195,0.9740515,-0.204004,0.4080905,0.9577015,-0.158524,-0.0780795,0.0032135,0.001114,0.0780795,-0.0032134999999999,-0.0011139999999999,-0.1664095,-0.4440385,-0.083974,0.1361405,-0.4796684999999999,-0.097914,-0.1728495,-0.8194785,-0.0141729999999999,0.1554505,-0.8692584999999999,-0.071764,1
61,0.0147079999999999,0.7589775000000001,0.00034,-0.1629789999999999,0.5541175,0.030613,-0.3396389999999999,0.7315475,-0.097461,0.189461,0.5496075,0.022815,0.363021,0.7116775,-0.083041,-0.383139,0.9678375,-0.209211,0.407401,0.9536675,-0.166551,-0.078402,0.0029524999999999,0.001184,0.078402,-0.0029524999999999,-0.0011839999999999,-0.1688589999999999,-0.4366024999999999,-0.090651,0.136161,-0.4725824999999999,-0.1046209999999999,-0.174459,-0.8124925000000001,-0.0179659999999999,0.153911,-0.8625725,-0.074541,1
62,0.0140279999999999,0.757915,-0.004779,-0.163319,0.5529149999999999,0.026486,-0.340999,0.729135,-0.102447,0.188331,0.549375,0.0186599999999999,0.362861,0.710295,-0.088987,-0.383299,0.965745,-0.214787,0.406651,0.950005,-0.174257,-0.078735,0.002807,0.0012289999999999,0.078735,-0.002807,-0.001229,-0.171259,-0.4288049999999999,-0.097317,0.136201,-0.465265,-0.111257,-0.175929,-0.804915,-0.021901,0.152481,-0.855515,-0.077727,1
63,0.0132805,0.7567565,-0.010207,-0.1638115,0.5525665,0.022377,-0.3424515,0.7270165000000001,-0.1078649999999999,0.1873285,0.5479365,0.014229,0.3625585,0.7083065000000001,-0.094835,-0.3833615,0.9633165,-0.220915,0.4057685,0.9464965,-0.1819349999999999,-0.0789865,0.0026805,0.0012689999999999,0.0789865,-0.0026804999999999,-0.0012689999999999,-0.1736615,-0.4204734999999999,-0.104055,0.1361985,-0.4571634999999999,-0.1180249999999999,-0.1774715,-0.7967934999999999,-0.0257829999999999,0.1510584999999999,-0.8479734999999999,-0.0815149999999999,1
64,0.0124694999999999,0.7556620000000001,-0.015811,-0.1641755,0.5519320000000001,0.018164,-0.3438755,0.7250620000000001,-0.1134029999999999,0.1863545,0.546832,0.009631,0.3621245,0.706752,-0.100983,-0.3834955,0.958492,-0.227843,0.4049245,0.942932,-0.189873,-0.0791145,0.002469,0.0012589999999999,0.0791145,-0.0024689999999999,-0.0012589999999999,-0.1759855,-0.411788,-0.1106529999999999,0.1362245,-0.4489979999999999,-0.124983,-0.1789755,-0.7883279999999999,-0.0298529999999999,0.1497245,-0.8399779999999999,-0.085723,1
65,0.0116229999999999,0.7544124999999999,-0.0218384999999999,-0.164531,0.5509125,0.0135925,-0.345341,0.7216225,-0.1191354999999999,0.1851789999999999,0.5456325,0.0047285,0.361459,0.7049225,-0.1075655,-0.383851,0.9540525,-0.2348155,0.404019,0.9403125,-0.1981855,-0.079259,0.0023574999999999,0.0011765,0.079259,-0.0023574999999999,-0.0011765,-0.178391,-0.4039475,-0.1174055,0.136259,-0.4409175000000001,-0.1322355,-0.180491,-0.7795775,-0.0341845,0.1485989999999999,-0.8317275000000001,-0.0902855,1
66,0.0108345,0.753115,-0.0279515,-0.1646535,0.549775,0.0087905,-0.3468934999999999,0.7188450000000001,-0.1249005,0.1840165,0.545575,0.0002154999999999,0.3607765,0.703195,-0.1143805,-0.3844034999999999,0.949965,-0.2423604999999999,0.4029365,0.937815,-0.2072305,-0.0793565,0.002215,0.0012034999999999,0.0793565,-0.0022149999999999,-0.0012035,-0.1807135,-0.396015,-0.1240805,0.1362865,-0.4326149999999999,-0.1396705,-0.1817935,-0.770775,-0.0386465,0.1477165,-0.823055,-0.0950905,1
67,0.010191,0.7515149999999999,-0.034029,-0.164617,0.548795,0.004018,-0.348187,0.715975,-0.130914,0.182893,0.544865,-0.0042869999999999,0.360203,0.701255,-0.1215839999999999,-0.385027,0.945595,-0.250454,0.401953,0.935815,-0.216574,-0.079463,0.002195,0.001147,0.079463,-0.0021949999999999,-0.0011469999999999,-0.182877,-0.388695,-0.130544,0.136393,-0.424155,-0.146634,-0.182967,-0.762285,-0.043368,0.1469029999999999,-0.814575,-0.099784,1
68,0.0095039999999999,0.7504,-0.0406365,-0.164416,0.5476,-0.0013545,-0.3494259999999999,0.7142,-0.1371645,0.181924,0.54408,-0.0091525,0.359804,0.70012,-0.1291645,-0.3857259999999999,0.94192,-0.2590044999999999,0.401084,0.93492,-0.2265045,-0.079664,0.0021299999999999,0.0010775,0.079664,-0.00213,-0.0010775,-0.184836,-0.38082,-0.1367545,0.136644,-0.41568,-0.1532945,-0.183976,-0.75335,-0.0483835,0.146394,-0.80557,-0.1045745,1
69,0.0088804999999999,0.749045,-0.0476715,-0.1641895,0.5465249999999999,-0.0066805,-0.3507095,0.712445,-0.1439814999999999,0.1811205,0.542995,-0.0140295,0.3595105,0.698835,-0.1368415,-0.3867495,0.940185,-0.2683515,0.4001905,0.933675,-0.2370015,-0.0797905,0.002015,0.0012035,0.0797905,-0.0020149999999999,-0.0012035,-0.1867195,-0.3733149999999999,-0.1425715,0.1368504999999999,-0.406765,-0.1597015,-0.1847795,-0.744705,-0.0532485,0.1458805,-0.797015,-0.1097315,1
70,0.0085325,0.748175,-0.054706,-0.1638785,0.5455749999999999,-0.012149,-0.3516685,0.710565,-0.151205,0.1805015,0.542365,-0.019019,0.3596115,0.697685,-0.144695,-0.3875585,0.938045,-0.278115,0.3996915,0.935215,-0.246355,-0.0799715,0.0021349999999999,0.001249,0.0799715,-0.0021349999999999,-0.001249,-0.1884485,-0.3660449999999999,-0.148375,0.1371415,-0.398325,-0.165935,-0.1853585,-0.736085,-0.058246,0.1456015,-0.788425,-0.1152649999999999,1
71,0.0082865,0.7470349999999999,-0.062112,-0.1634785,0.544945,-0.017911,-0.3524184999999999,0.7092050000000001,-0.159018,0.1798614999999999,0.540945,-0.0243,0.3599215,0.6964049999999999,-0.152538,-0.3882285,0.936385,-0.288388,0.3993615,0.936805,-0.256518,-0.0801515,0.002225,0.001263,0.0801515,-0.002225,-0.0012629999999999,-0.1901385,-0.359825,-0.154168,0.1375815,-0.391535,-0.172058,-0.1858085,-0.728245,-0.063511,0.1455415,-0.7802150000000001,-0.1210379999999999,1
72,0.0080535,0.7460399999999999,-0.069808,-0.1629275,0.54372,-0.024271,-0.3529275,0.70758,-0.167699,0.1791725,0.54088,-0.029949,0.3602625,0.69582,-0.160899,-0.3889675,0.93353,-0.299649,0.3990625,0.93861,-0.267509,-0.0803525,0.00236,0.000964,0.0803525,-0.00236,-0.0009639999999999,-0.1919074999999999,-0.3542,-0.159499,0.1379025,-0.38426,-0.178139,-0.1864074999999999,-0.7207300000000001,-0.069549,0.1452625,-0.7720100000000001,-0.125609,1
73,0.008029,0.744765,-0.077772,-0.162355,0.5425949999999999,-0.0308029999999999,-0.353365,0.7060649999999999,-0.17674,0.178645,0.540165,-0.035951,0.360865,0.694485,-0.16976,-0.389525,0.932135,-0.3111699999999999,0.398515,0.939645,-0.27901,-0.080355,0.0023449999999999,0.0009569999999999,0.080355,-0.002345,-0.0009569999999999,-0.193545,-0.346365,-0.16526,0.138565,-0.376425,-0.1840999999999999,-0.186865,-0.713295,-0.075595,0.145285,-0.764175,-0.13177,1
74,0.0080355,0.743545,-0.0856625,-0.1616385,0.541555,-0.0374665,-0.3535485,0.705785,-0.1863885,0.1782514999999999,0.539115,-0.0419275,0.3614615,0.6931149999999999,-0.1782585,-0.3904285,0.930145,-0.3233685,0.3982815,0.936495,-0.2904885,-0.0804315,0.0024049999999999,0.0009355,0.0804315,-0.0024049999999999,-0.0009354999999999,-0.1950085,-0.338895,-0.1708084999999999,0.1391814999999999,-0.368955,-0.1899485,-0.1873685,-0.706065,-0.0816165,0.1453615,-0.756665,-0.1376784999999999,1
75,0.0078249999999999,0.7426699999999999,-0.099474,-0.161326,0.54152,-0.049811,-0.353886,0.70489,-0.201793,0.177724,0.5391699999999999,-0.053658,0.361874,0.69218,-0.192173,-0.391406,0.92786,-0.341493,0.398294,0.9336,-0.307023,-0.080574,0.0024399999999999,0.0009489999999999,0.080574,-0.0024399999999999,-0.0009489999999999,-0.1968059999999999,-0.3310899999999999,-0.182113,0.139674,-0.36123,-0.201533,-0.187966,-0.69868,-0.093394,0.145344,-0.7487699999999999,-0.149383,1
76,0.0079364999999999,0.743835,-0.113491,-0.1605895,0.5420849999999999,-0.062836,-0.3537895,0.706185,-0.217544,0.1774605,0.540315,-0.0660149999999999,0.3624604999999999,0.6929449999999999,-0.206534,-0.3919795,0.927045,-0.3598439999999999,0.3987205,0.932415,-0.3242939999999999,-0.0805705,0.0024649999999999,0.001017,0.0805705,-0.002465,-0.0010169999999999,-0.2004195,-0.320555,-0.197404,0.1415905,-0.348045,-0.216614,-0.1896395,-0.689675,-0.1088379999999999,0.1462905,-0.736425,-0.162314,1
77,0.0081644999999999,0.7445249999999999,-0.1271535,-0.1597905,0.5428850000000001,-0.0754245,-0.3538305,0.706345,-0.2328735,0.1772294999999999,0.542395,-0.0779715,0.3631795,0.693395,-0.2204035,-0.3925005,0.923375,-0.3773935,0.3993195,0.931255,-0.3406335,-0.0805495,0.0023649999999999,0.0010654999999999,0.0805495,-0.002365,-0.0010655,-0.2038705,-0.309415,-0.2125335,0.1437195,-0.335385,-0.2312834999999999,-0.1914005,-0.681295,-0.1242315,0.1477095,-0.724675,-0.1760634999999999,1
78,0.0084459999999999,0.7448349999999999,-0.140423,-0.15877,0.5432049999999999,-0.08781,-0.35367,0.7060649999999999,-0.247458,0.17712,0.544925,-0.089569,0.36406,0.693635,-0.233948,-0.3928399999999999,0.919465,-0.393918,0.40003,0.929515,-0.356048,-0.08047,0.0022449999999999,0.0009279999999999,0.08047,-0.0022449999999999,-0.000928,-0.20708,-0.2987049999999999,-0.227488,0.14599,-0.323065,-0.2457579999999999,-0.19286,-0.6733450000000001,-0.139635,0.14951,-0.7132050000000001,-0.1894179999999999,1
79,0.008772,0.74514,-0.1536735,-0.15767,0.5441,-0.1002224999999999,-0.35355,0.70509,-0.2614885,0.17705,0.54681,-0.1013975,0.36485,0.69348,-0.2471085,-0.39305,0.91524,-0.4097385,0.40086,0.92668,-0.3714885,-0.08035,0.00205,0.0009535,0.08035,-0.0020499999999999,-0.0009534999999999,-0.2100199999999999,-0.28822,-0.2426285,0.14819,-0.31104,-0.2602685,-0.19407,-0.66581,-0.1549795,0.1513,-0.7019299999999999,-0.2019885,1
80,0.0089444999999999,0.745355,-0.166731,-0.1568385,0.544075,-0.11238,-0.3534985,0.7034750000000001,-0.275135,0.1769115,0.549535,-0.11291,0.3654914999999999,0.6931849999999999,-0.260325,-0.3935185,0.910845,-0.425075,0.4014715,0.923215,-0.3864649999999999,-0.0802015,0.0017149999999999,0.0009149999999999,0.0802015,-0.0017149999999999,-0.0009149999999999,-0.2129484999999999,-0.278365,-0.257475,0.1501115,-0.297815,-0.2738049999999999,-0.1953784999999999,-0.658845,-0.170064,0.1529615,-0.691115,-0.214555,1
81,0.0092159999999999,0.745355,-0.1797625,-0.156144,0.544025,-0.1243145,-0.353464,0.701765,-0.2879935,0.176696,0.551215,-0.1247214999999999,0.366066,0.692685,-0.2734435,-0.393894,0.907445,-0.4398335,0.4021059999999999,0.919915,-0.4009435,-0.080076,0.0014549999999999,0.0010534999999999,0.080076,-0.001455,-0.0010534999999999,-0.215504,-0.268335,-0.2720335,0.152056,-0.285395,-0.2881535,-0.196494,-0.651975,-0.1846634999999999,0.154706,-0.6804049999999999,-0.2266034999999999,1
82,0.0094019999999999,0.745015,-0.192683,-0.155577,0.544635,-0.135926,-0.353547,0.699255,-0.3003599999999999,0.176373,0.550685,-0.136081,0.366633,0.692545,-0.28637,-0.394487,0.904405,-0.45392,0.402543,0.916305,-0.41537,-0.079983,0.0014249999999999,0.00092,0.079983,-0.001425,-0.0009199999999999,-0.217997,-0.258295,-0.28618,0.153603,-0.273355,-0.30245,-0.197517,-0.645095,-0.199027,0.156353,-0.669945,-0.23854,1
83,0.0095839999999999,0.74478,-0.205264,-0.155183,0.54437,-0.14719,-0.353473,0.6967,-0.311705,0.1761069999999999,0.5505599999999999,-0.1472989999999999,0.367327,0.69258,-0.299465,-0.394943,0.90183,-0.467125,0.402747,0.91621,-0.4292549999999999,-0.079847,0.0011199999999999,0.000865,0.079847,-0.00112,-0.0008649999999999,-0.220313,-0.24805,-0.3001049999999999,0.155187,-0.26165,-0.3165449999999999,-0.198263,-0.63785,-0.212975,0.157807,-0.65905,-0.249215,1
84,0.0097079999999999,0.743815,-0.21182,-0.154782,0.543925,-0.152436,-0.353352,0.693775,-0.317365,0.175908,0.549085,-0.152777,0.368068,0.6914849999999999,-0.306925,-0.395412,0.898675,-0.473835,0.403148,0.914595,-0.4374249999999999,-0.079578,0.0010449999999999,0.000695,0.079578,-0.001045,-0.0006949999999999,-0.222412,-0.238815,-0.308065,0.156668,-0.250945,-0.324285,-0.198912,-0.6313650000000001,-0.220775,0.159178,-0.649745,-0.253625,1
85,0.009064,0.7407349999999999,-0.217973,-0.155006,0.5428949999999999,-0.156962,-0.353966,0.688305,-0.322245,0.175264,0.546605,-0.157612,0.368224,0.688245,-0.313625,-0.396536,0.892865,-0.479915,0.402934,0.910215,-0.444235,-0.0795839999999999,0.0009649999999999,0.000545,0.0795839999999999,-0.0009649999999999,-0.000545,-0.2227559999999999,-0.233825,-0.311735,0.156494,-0.245895,-0.327965,-0.1990859999999999,-0.6265450000000001,-0.224285,0.159734,-0.644525,-0.257795,1
86,0.0083055,0.737895,-0.22438,-0.1552275,0.5413650000000001,-0.161625,-0.3547574999999999,0.6832750000000001,-0.32727,0.1744625,0.543855,-0.162677,0.3682925,0.684685,-0.3208,-0.3976575,0.888835,-0.48616,0.4027125,0.904675,-0.4516799999999999,-0.0795925,0.000965,0.00042,0.0795925,-0.0009649999999999,-0.00042,-0.2229775,-0.2285049999999999,-0.31537,0.1563025,-0.2405749999999999,-0.33172,-0.1992475,-0.621835,-0.22761,0.1601625,-0.639205,-0.26243,1
87,0.007553,0.735475,-0.23065,-0.155384,0.5391250000000001,-0.1662719999999999,-0.355914,0.6784250000000001,-0.33218,0.173736,0.5413250000000001,-0.167709,0.3683059999999999,0.680975,-0.3278,-0.398714,0.882995,-0.49236,0.402536,0.899305,-0.45909,-0.079656,0.000865,0.00038,0.079656,-0.000865,-0.0003799999999999,-0.223074,-0.2229149999999999,-0.31882,0.156196,-0.234985,-0.33552,-0.1993539999999999,-0.617075,-0.2310999999999999,0.160606,-0.633615,-0.2667699999999999,1
88,0.00647,0.7326299999999999,-0.2369,-0.155908,0.5363199999999999,-0.1707329999999999,-0.357188,0.67391,-0.33718,0.172902,0.53973,-0.172342,0.368102,0.67707,-0.33477,-0.399798,0.8772599999999999,-0.4984699999999999,0.4020019999999999,0.89371,-0.46692,-0.079832,0.0006499999999999,0.00024,0.079832,-0.00065,-0.0002399999999999,-0.223348,-0.21896,-0.32223,0.155732,-0.2300500000000001,-0.33924,-0.199378,-0.61301,-0.23434,0.160792,-0.6288400000000001,-0.27035,1
89,0.0053589999999999,0.729965,-0.2431,-0.156528,0.5346150000000001,-0.175161,-0.358868,0.669495,-0.34219,0.171792,0.536355,-0.177603,0.3676919999999999,0.673205,-0.34169,-0.400988,0.871665,-0.50414,0.401482,0.888135,-0.47457,-0.080102,0.000645,0.00014,0.080102,-0.0006449999999999,-0.00014,-0.223588,-0.2148749999999999,-0.32569,0.155002,-0.2251949999999999,-0.34305,-0.198998,-0.608825,-0.23759,0.161302,-0.6239549999999999,-0.27415,1
90,0.0039845,0.72652,-0.249115,-0.1574285,0.53274,-0.179218,-0.3608384999999999,0.66448,-0.346805,0.1704415,0.5331,-0.182392,0.3671215,0.66874,-0.3481849999999999,-0.4021284999999999,0.86518,-0.509015,0.4006915,0.8816499999999999,-0.481985,-0.0803115,0.0006099999999999,7.499999999999174e-05,0.0803115,-0.0006099999999999,-7.499999999999174e-05,-0.2239385,-0.2111699999999999,-0.3285949999999999,0.1540815,-0.22077,-0.346285,-0.1989085,-0.60499,-0.240105,0.1615415,-0.61941,-0.277185,1
91,0.0024999999999999,0.723395,-0.25492,-0.15839,0.5299849999999999,-0.1836219999999999,-0.36318,0.660215,-0.35158,0.16896,0.531975,-0.1874239999999999,0.3664099999999999,0.6640550000000001,-0.35456,-0.40314,0.8588749999999999,-0.5138499999999999,0.3998899999999999,0.875225,-0.4893,-0.08048,0.0004149999999999,0.0002,0.08048,-0.0004149999999999,-0.0001999999999999,-0.22416,-0.207175,-0.33157,0.15334,-0.216245,-0.3496599999999999,-0.19902,-0.600875,-0.24297,0.16184,-0.614765,-0.28044,1
92,0.0013724999999999,0.72002,-0.26061,-0.1590635,0.52816,-0.1879,-0.3651635,0.65594,-0.35657,0.1676965,0.5303,-0.19244,0.3659965,0.6579699999999999,-0.36022,-0.4037035,0.8526100000000001,-0.51868,0.3994365,0.8681300000000001,-0.49638,-0.0806165,0.00045,0.00028,0.0806165,-0.00045,-0.00028,-0.2236735,-0.20334,-0.33429,0.1532265,-0.21176,-0.35289,-0.1986635,-0.59687,-0.24566,0.1621965,-0.6103000000000001,-0.28367,1
93,0.0001494999999999,0.716915,-0.26633,-0.1599925,0.525215,-0.192468,-0.3669825,0.651825,-0.36141,0.1663275,0.529395,-0.197309,0.3653075,0.652515,-0.3657,-0.4043325,0.846575,-0.52377,0.3988175,0.861835,-0.50359,-0.0807075,0.0001049999999999,0.00039,0.0807075,-0.000105,-0.00039,-0.2232925,-0.1993249999999999,-0.33703,0.1530475,-0.207015,-0.35618,-0.1984625,-0.592655,-0.24839,0.1627375,-0.605725,-0.28719,1
94,-0.0011454999999999,0.714375,-0.27248,-0.1611085,0.522135,-0.19738,-0.3687884999999999,0.6480650000000001,-0.36675,0.1648915,0.527475,-0.202729,0.3644115,0.647805,-0.37156,-0.4049784999999999,0.842385,-0.52926,0.3980015,0.857145,-0.51149,-0.0807015,-6.499999999998174e-05,0.00051,0.0807015,6.500000000003725e-05,-0.00051,-0.2228085,-0.1941849999999999,-0.3402699999999999,0.1528715,-0.2013849999999999,-0.35985,-0.1980885,-0.587465,-0.2515199999999999,0.1631915,-0.6001949999999999,-0.29147,1
95,-0.0026834999999999,0.7103349999999999,-0.27913,-0.1625475,0.518625,-0.202476,-0.3703575,0.642895,-0.37283,0.1634825,0.524575,-0.208544,0.3633524999999999,0.642515,-0.37737,-0.4055875,0.836875,-0.53586,0.3973225,0.850965,-0.52022,-0.0808325,-0.0001749999999999,0.00067,0.0808325,0.0001749999999999,-0.00067,-0.2221375,-0.188365,-0.34382,0.1528825,-0.1955449999999999,-0.3634199999999999,-0.1975475,-0.579895,-0.25419,0.1631825,-0.594355,-0.29547,1
96,-0.0043195,0.7063649999999999,-0.285965,-0.1640295,0.515995,-0.207689,-0.3718995,0.6378349999999999,-0.379005,0.1618805,0.521185,-0.214817,0.3620405,0.637635,-0.383585,-0.4063295,0.833175,-0.5426850000000001,0.3963905,0.8449949999999999,-0.5289550000000001,-0.0809105,-0.000255,0.0008649999999999,0.0809105,0.000255,-0.000865,-0.2216395,-0.182035,-0.347605,0.1527705,-0.189505,-0.367005,-0.1970195,-0.571815,-0.256885,0.1626105,-0.5876250000000001,-0.298115,1
97,-0.0061935,0.70169,-0.292635,-0.1657205,0.51431,-0.212477,-0.3736205,0.63198,-0.384905,0.1600395,0.51748,-0.220799,0.3603595,0.63269,-0.389765,-0.4073105,0.82881,-0.549285,0.3952394999999999,0.8399500000000001,-0.536735,-0.0809995,-6.999999999995898e-05,0.0010949999999999,0.0809995,7.00000000000145e-05,-0.001095,-0.2214005,-0.1758499999999999,-0.351075,0.1524495,-0.1839199999999999,-0.370305,-0.1967105,-0.56522,-0.259835,0.1615795,-0.58104,-0.298735,1
98,-0.0081464999999999,0.69758,-0.299475,-0.1674405,0.51051,-0.217818,-0.3755805,0.62689,-0.390605,0.1583795,0.5148999999999999,-0.226649,0.3585695,0.6289499999999999,-0.3960249999999999,-0.4082905,0.82389,-0.555855,0.3940295,0.8349799999999999,-0.5444450000000001,-0.0810495,-0.00019,0.0013249999999999,0.0810495,0.0001899999999999,-0.0013249999999999,-0.2213304999999999,-0.1686,-0.354955,0.1520495,-0.17765,-0.3735549999999999,-0.1963605,-0.5569500000000001,-0.262465,0.1611295,-0.57369,-0.301415,1
99,-0.0100065,0.69387,-0.3061049999999999,-0.1690154999999999,0.50678,-0.222957,-0.3775255,0.62102,-0.396125,0.1570445,0.51356,-0.231846,0.3569645,0.62452,-0.401895,-0.4091955,0.81846,-0.562155,0.3925745,0.82986,-0.551485,-0.0811245,-0.0004899999999999,0.001535,0.0811245,0.0004899999999999,-0.001535,-0.2211455,-0.16148,-0.358765,0.1517545,-0.17121,-0.376815,-0.1946955,-0.54857,-0.261905,0.1608545,-0.56643,-0.302945,1
100,-0.011738,0.690705,-0.312815,-0.170486,0.503475,-0.227681,-0.379066,0.6147750000000001,-0.401015,0.155784,0.511655,-0.237181,0.355384,0.619675,-0.407085,-0.409886,0.812725,-0.567995,0.390994,0.824525,-0.557705,-0.081164,-0.0007249999999999,0.0017449999999999,0.081164,0.000725,-0.001745,-0.2209759999999999,-0.153695,-0.362215,0.151544,-0.1643249999999999,-0.380105,-0.192936,-0.5398149999999999,-0.261757,0.160514,-0.5585049999999999,-0.302925,1
101,-0.013503,0.68736,-0.319735,-0.171851,0.50029,-0.232378,-0.380651,0.60763,-0.4054149999999999,0.154529,0.5096400000000001,-0.242521,0.354179,0.6154700000000001,-0.412375,-0.410511,0.80724,-0.573565,0.389349,0.81968,-0.563815,-0.081199,-0.0009599999999999,0.0019349999999999,0.081199,0.00096,-0.0019349999999999,-0.2209209999999999,-0.1457399999999999,-0.365745,0.151269,-0.1572899999999999,-0.383475,-0.190821,-0.53113,-0.261735,0.159989,-0.5498999999999999,-0.302085,1
102,-0.01549,0.684185,-0.326345,-0.173207,0.497225,-0.236507,-0.382387,0.600545,-0.409275,0.153113,0.506795,-0.247757,0.3528529999999999,0.6110949999999999,-0.4170549999999999,-0.411127,0.799825,-0.5783050000000001,0.387373,0.813965,-0.568925,-0.081193,-0.0010249999999999,0.002045,0.081193,0.0010249999999999,-0.0020449999999999,-0.221007,-0.137895,-0.3690449999999999,0.150873,-0.150205,-0.386695,-0.189137,-0.521595,-0.261085,0.1593429999999999,-0.541175,-0.301465,1
103,-0.0177055,0.680215,-0.332505,-0.1745574999999999,0.49386,-0.2400709999999999,-0.3842075,0.593135,-0.412355,0.1515225,0.504985,-0.252257,0.3514625,0.605885,-0.4207149999999999,-0.4119974999999999,0.792165,-0.582145,0.3851025,0.807375,-0.573075,-0.0811625,-0.001305,0.002195,0.0811625,0.001305,-0.002195,-0.2212575,-0.130595,-0.371965,0.1503025,-0.143625,-0.389625,-0.1878375,-0.512375,-0.260085,0.1584825,-0.532935,-0.300695,1
104,-0.0197569999999999,0.677395,-0.3377799999999999,-0.175603,0.490487,-0.2433659999999999,-0.386163,0.586365,-0.41467,0.150027,0.50461,-0.255922,0.349987,0.601405,-0.42352,-0.412763,0.7860050000000001,-0.58443,0.382397,0.802635,-0.5753999999999999,-0.081047,-0.001865,0.00231,0.081047,0.001865,-0.0023099999999999,-0.221843,-0.123835,-0.37434,0.149507,-0.137445,-0.3922099999999999,-0.187213,-0.503915,-0.2590949999999999,0.156917,-0.525765,-0.29857,1
105,-0.021716,0.674545,-0.34295,-0.176333,0.487393,-0.246485,-0.387913,0.579925,-0.41679,0.148747,0.502624,-0.259546,0.3488469999999999,0.596425,-0.42574,-0.413473,0.7798050000000001,-0.5862499999999999,0.379697,0.797725,-0.57736,-0.081007,-0.0021849999999999,0.0024199999999999,0.081007,0.0021849999999999,-0.00242,-0.222043,-0.1171549999999999,-0.37636,0.149007,-0.131215,-0.39475,-0.1862029999999999,-0.496295,-0.258152,0.155667,-0.5185150000000001,-0.29686,1
106,-0.024135,0.67192,-0.3478449999999999,-0.17741,0.4839949999999999,-0.249525,-0.39002,0.57339,-0.418535,0.14706,0.5004299999999999,-0.263114,0.34746,0.5911299999999999,-0.427465,-0.41446,0.77435,-0.587795,0.37633,0.79187,-0.578765,-0.08105,-0.00259,0.002555,0.08105,0.0025899999999999,-0.002555,-0.22264,-0.11047,-0.378275,0.14803,-0.12477,-0.397265,-0.1855,-0.48814,-0.256486,0.15381,-0.5115700000000001,-0.294785,1
107,-0.026834,0.668905,-0.352145,-0.178747,0.48249,-0.251811,-0.394597,0.567405,-0.425685,0.145073,0.498497,-0.266085,0.345793,0.584925,-0.428585,-0.415767,0.769965,-0.5905750000000001,0.372613,0.786945,-0.579835,-0.081103,-0.0027449999999999,0.0027149999999999,0.081103,0.0027449999999999,-0.0027149999999999,-0.2235269999999999,-0.104885,-0.379455,0.1464329999999999,-0.1198249999999999,-0.3995849999999999,-0.1850669999999999,-0.480365,-0.254275,0.1515329999999999,-0.505585,-0.292535,1
108,-0.0296,0.666265,-0.35599,-0.180319,0.480685,-0.253979,-0.399149,0.563355,-0.43282,0.142861,0.495645,-0.269114,0.344061,0.579875,-0.42968,-0.417189,0.766815,-0.59436,0.368701,0.781955,-0.58092,-0.081131,-0.0027849999999999,0.0028499999999999,0.081131,0.002785,-0.00285,-0.224519,-0.0992649999999999,-0.38056,0.144721,-0.1149449999999999,-0.40184,-0.185949,-0.4723549999999999,-0.254667,0.149351,-0.499255,-0.2933,1
109,-0.0324115,0.6627649999999999,-0.359635,-0.1818485,0.4787399999999999,-0.255947,-0.4035985,0.5597449999999999,-0.4398149999999999,0.1409814999999999,0.4936739999999999,-0.271481,0.3424915,0.574705,-0.4305949999999999,-0.4187185,0.7639549999999999,-0.598135,0.3649615,0.7762549999999999,-0.582345,-0.0811215,-0.003015,0.002925,0.0811215,0.0030149999999999,-0.002925,-0.2255085,-0.094915,-0.3814849999999999,0.1431214999999999,-0.110565,-0.4035849999999999,-0.1869785,-0.465075,-0.255322,0.1476315,-0.493305,-0.293925,1
110,-0.035285,0.6592450000000001,-0.36301,-0.183524,0.476533,-0.257774,-0.407774,0.556855,-0.4462,0.139126,0.491975,-0.273569,0.340916,0.570145,-0.43134,-0.420734,0.760985,-0.60189,0.361346,0.770905,-0.5834900000000001,-0.081106,-0.0033049999999999,0.003,0.081106,0.003305,-0.003,-0.226564,-0.0907749999999999,-0.38222,0.141456,-0.1067049999999999,-0.40519,-0.187784,-0.459595,-0.256399,0.145886,-0.4873849999999999,-0.29438,1
111,-0.0381715,0.6548,-0.3662999999999999,-0.1851685,0.474476,-0.259582,-0.4116485,0.553917,-0.45275,0.1372915,0.4901839999999999,-0.2755229999999999,0.3398315,0.56547,-0.43217,-0.4230885,0.7595099999999999,-0.6060399999999999,0.3577315,0.7669699999999999,-0.58491,-0.0810815,-0.00353,0.0031,0.0810815,0.0035299999999999,-0.0030999999999999,-0.2275185,-0.08688,-0.38287,0.1399415,-0.1030999999999999,-0.40653,-0.1884084999999999,-0.45406,-0.2568789999999999,0.1440615,-0.4827,-0.29491,1
112,-0.0408645,0.650525,-0.36943,-0.1864225,0.47242,-0.261322,-0.4151725,0.5499,-0.45902,0.1357574999999999,0.48886,-0.27726,0.3384074999999999,0.560708,-0.43309,-0.4255125,0.7562150000000001,-0.61006,0.3540775,0.763085,-0.58662,-0.0810075,-0.0039049999999999,0.0030699999999999,0.0810075,0.0039049999999999,-0.00307,-0.2283525,-0.0833049999999999,-0.3833,0.1386975,-0.0998949999999999,-0.40745,-0.1888925,-0.447955,-0.256893,0.1422475,-0.478475,-0.29557,1
113,-0.0432425,0.645715,-0.372865,-0.1875985,0.471215,-0.262938,-0.4184585,0.546284,-0.465965,0.1343415,0.487456,-0.278995,0.3369215,0.556224,-0.434745,-0.4282685,0.751915,-0.614935,0.3505315,0.759055,-0.588855,-0.0809515,-0.0041549999999999,0.0030049999999999,0.0809515,0.004155,-0.003005,-0.2290985,-0.0797949999999999,-0.383685,0.1376915,-0.0967749999999999,-0.408285,-0.1897785,-0.4432049999999999,-0.257208,0.1408015,-0.4743849999999999,-0.296515,1
114,-0.0454515,0.6408050000000001,-0.376125,-0.1887385,0.469625,-0.264433,-0.4215485,0.542116,-0.4727449999999999,0.1329315,0.488054,-0.2802449999999999,0.3350915,0.552211,-0.4375549999999999,-0.4313585,0.747085,-0.620645,0.3468515,0.754955,-0.592615,-0.0809314999999999,-0.0046449999999999,0.002905,0.0809314999999999,0.004645,-0.0029049999999999,-0.2299285,-0.077045,-0.384135,0.1367415,-0.0940949999999999,-0.409165,-0.1906885,-0.438955,-0.2575079999999999,0.1393915,-0.4707749999999999,-0.297575,1
115,-0.0471715,0.63643,-0.379445,-0.1896315,0.467197,-0.266133,-0.4243715,0.538589,-0.479895,0.1316685,0.487267,-0.282355,0.3342285,0.54644,-0.440845,-0.4344315,0.7419100000000001,-0.626475,0.3434085,0.75099,-0.597635,-0.0808685,-0.0050799999999999,0.0027349999999999,0.0808685,0.00508,-0.002735,-0.2308015,-0.0738299999999999,-0.384805,0.1358785,-0.0908999999999999,-0.410085,-0.1914415,-0.4341699999999999,-0.257837,0.1379185,-0.46696,-0.298315,1
116,-0.0489325,0.6315500000000001,-0.382755,-0.1905684999999999,0.465171,-0.267769,-0.4252884999999999,0.533303,-0.481115,0.1304015,0.486695,-0.284425,0.3332115,0.541255,-0.444215,-0.4375785,0.7336900000000001,-0.632215,0.3396315,0.74575,-0.603065,-0.0808015,-0.00544,0.0025049999999999,0.0808015,0.00544,-0.002505,-0.2316685,-0.07049,-0.385525,0.1349814999999999,-0.0870599999999999,-0.410875,-0.1922185,-0.43027,-0.258387,0.1365815,-0.4625299999999999,-0.299145,1
117,-0.050409,0.62732,-0.385895,-0.191501,0.463884,-0.269409,-0.426211,0.528137,-0.482195,0.129319,0.485927,-0.286385,0.332939,0.536622,-0.453045,-0.440471,0.72632,-0.636835,0.336179,0.74246,-0.608395,-0.080829,-0.00573,0.002405,0.080829,0.00573,-0.0024049999999999,-0.232551,-0.0662899999999999,-0.386225,0.134129,-0.0824899999999999,-0.4117349999999999,-0.192701,-0.42582,-0.258978,0.1352689999999999,-0.45747,-0.2998949999999999,1
118,-0.051514,0.62328,-0.388725,-0.192291,0.4623189999999999,-0.270909,-0.427031,0.523076,-0.483035,0.128389,0.4851629999999999,-0.288335,0.332929,0.533542,-0.461815,-0.443121,0.7191099999999999,-0.641005,0.333249,0.7404799999999999,-0.6144149999999999,-0.080899,-0.0059,0.0022449999999999,0.080899,0.0058999999999999,-0.002245,-0.233311,-0.06113,-0.386875,0.133299,-0.07777,-0.412635,-0.193031,-0.42075,-0.259898,0.133999,-0.45194,-0.300525,1
119,-0.0523285,0.619465,-0.391495,-0.1929334999999999,0.461138,-0.272452,-0.4270435,0.518463,-0.483785,0.1276165,0.484832,-0.290215,0.3329864999999999,0.531192,-0.470625,-0.4454235,0.7120650000000001,-0.645115,0.3307465,0.738855,-0.621625,-0.0809265,-0.0061149999999999,0.002005,0.0809265,0.006115,-0.002005,-0.2338635,-0.0549449999999999,-0.387445,0.1328265,-0.0715849999999999,-0.4133949999999999,-0.1930835,-0.4150149999999999,-0.260636,0.1334865,-0.445905,-0.301895,1
120,-0.0531385,0.61595,-0.39382,-0.1933075,0.459825,-0.273792,-0.4271575,0.513865,-0.48436,0.1268425,0.484578,-0.29186,0.3316524999999999,0.5288780000000001,-0.47354,-0.4474475,0.70518,-0.6484099999999999,0.3289125,0.73662,-0.6258900000000001,-0.0809725,-0.0064099999999999,0.0017499999999999,0.0809725,0.00641,-0.00175,-0.2344775,-0.0490999999999999,-0.388,0.1323725,-0.0657399999999999,-0.41396,-0.1931875,-0.4095599999999999,-0.26121,0.1330225,-0.43987,-0.3032,1
121,-0.0538865,0.611078,-0.3959,-0.1934375,0.456521,-0.275227,-0.4274274999999999,0.5092909999999999,-0.48505,0.1260925,0.4816229999999999,-0.29396,0.3320025,0.525731,-0.48179,-0.4492075,0.69811,-0.6515299999999999,0.3277025,0.7331099999999999,-0.63215,-0.0809624999999999,-0.0063999999999999,0.00156,0.0809624999999999,0.0063999999999999,-0.00156,-0.2349875,-0.0452099999999999,-0.38867,0.1317025,-0.0618499999999999,-0.4145,-0.1933575,-0.4064,-0.261985,0.1327725,-0.43598,-0.30388,1
122,-0.054487,0.606883,-0.39771,-0.193357,0.4529809999999999,-0.276613,-0.427697,0.505033,-0.48591,0.125603,0.4779839999999999,-0.29629,0.332483,0.5223779999999999,-0.48964,-0.4507569999999999,0.6922249999999999,-0.6536500000000001,0.326883,0.729935,-0.6380600000000001,-0.080993,-0.006275,0.0013699999999999,0.080993,0.0062749999999999,-0.00137,-0.235347,-0.0414350000000001,-0.38939,0.131133,-0.058355,-0.41523,-0.193457,-0.403375,-0.263261,0.132083,-0.4325650000000001,-0.30471,1
123,-0.054835,0.604585,-0.399605,-0.193267,0.45148,-0.278059,-0.428217,0.503418,-0.486915,0.125153,0.475237,-0.2987849999999999,0.333403,0.519599,-0.495965,-0.452157,0.689165,-0.654995,0.326153,0.728345,-0.642305,-0.081023,-0.0061649999999999,0.001085,0.081023,0.0061649999999999,-0.001085,-0.235777,-0.0363649999999999,-0.390285,0.130563,-0.0543449999999999,-0.416075,-0.193607,-0.398945,-0.264713,0.131533,-0.427755,-0.3052749999999999,1
124,-0.0550905,0.6000350000000001,-0.401335,-0.1932875,0.448475,-0.2794419999999999,-0.4287275,0.5002000000000001,-0.4874549999999999,0.1248125,0.471783,-0.300485,0.3347725,0.5180680000000001,-0.502165,-0.4536475,0.6849000000000001,-0.6562049999999999,0.3255025,0.72626,-0.645655,-0.0810425,-0.00605,0.000935,0.0810425,0.00605,-0.0009349999999999,-0.2359375,-0.0337899999999999,-0.3906349999999999,0.1298325,-0.0526999999999999,-0.416745,-0.1936075,-0.39691,-0.2654649999999999,0.1305724999999999,-0.42479,-0.3069449999999999,1
125,-0.0556695,0.595623,-0.407485,-0.1935695,0.4451569999999999,-0.285183,-0.4294495,0.4972769999999999,-0.492755,0.1243404999999999,0.4680269999999999,-0.306625,0.3362505,0.516215,-0.512625,-0.4552695,0.682585,-0.661675,0.3249705,0.724745,-0.653275,-0.0810405,-0.006035,0.0013449999999999,0.0810405,0.006035,-0.001345,-0.2343495,-0.031775,-0.391165,0.1287105,-0.051345,-0.418235,-0.1938295,-0.395525,-0.270745,0.1299205,-0.422305,-0.313345,1
126,-0.056336,0.590458,-0.413575,-0.193818,0.441422,-0.290832,-0.430058,0.493874,-0.497655,0.123862,0.464676,-0.312715,0.335792,0.514014,-0.516965,-0.456578,0.67962,-0.667135,0.325142,0.72217,-0.661115,-0.080842,-0.00605,0.0016849999999999,0.080842,0.00605,-0.0016849999999999,-0.232688,-0.03029,-0.391645,0.127552,-0.0510899999999999,-0.419685,-0.193948,-0.395,-0.276096,0.1290019999999999,-0.42086,-0.319435,1
127,-0.0568005,0.586422,-0.419765,-0.1940635,0.4389269999999999,-0.296625,-0.4305935,0.4912229999999999,-0.5026649999999999,0.1235465,0.462044,-0.318825,0.3375765,0.511858,-0.5268349999999999,-0.4573835,0.67742,-0.672715,0.3259565,0.72026,-0.668875,-0.0806665,-0.00605,0.001985,0.0806665,0.00605,-0.0019849999999999,-0.2308335,-0.0286699999999999,-0.392275,0.1261565,-0.0504999999999999,-0.421265,-0.1943734999999999,-0.3939399999999999,-0.281529,0.1284665,-0.4185299999999999,-0.325315,1
128,-0.0572354999999999,0.583045,-0.42598,-0.1942674999999999,0.436587,-0.302463,-0.4310675,0.488839,-0.50777,0.1233125,0.459441,-0.32508,0.3378925,0.50931,-0.53268,-0.4579074999999999,0.67564,-0.67708,0.3275525,0.71746,-0.67552,-0.0805724999999999,-0.0060299999999999,0.0022699999999999,0.0805725,0.0060299999999999,-0.00227,-0.2289574999999999,-0.0269,-0.39304,0.1246425,-0.04983,-0.42298,-0.1942375,-0.3932799999999999,-0.287218,0.1281324999999999,-0.4159199999999999,-0.33018,1
129,-0.057525,0.5798089999999999,-0.432425,-0.194467,0.4341049999999999,-0.308432,-0.431407,0.4863529999999999,-0.512915,0.1231229999999999,0.4564589999999999,-0.331435,0.338243,0.506659,-0.538525,-0.458097,0.673875,-0.681455,0.329913,0.7144349999999999,-0.681905,-0.080543,-0.006055,0.002455,0.080543,0.0060549999999999,-0.002455,-0.226937,-0.025485,-0.393695,0.1229929999999999,-0.0493650000000001,-0.424525,-0.194167,-0.3926250000000001,-0.293049,0.127783,-0.413565,-0.3352549999999999,1
130,-0.0581195,0.576076,-0.4389699999999999,-0.1946955,0.431605,-0.3143289999999999,-0.4316855,0.4823759999999999,-0.51778,0.1228645,0.453461,-0.33737,0.3385944999999999,0.503298,-0.5433,-0.4583055,0.670355,-0.6858,0.3319844999999999,0.710685,-0.68829,-0.0805345,-0.006105,0.00267,0.0805345,0.006105,-0.00267,-0.2250255,-0.024345,-0.3943,0.1212145,-0.049155,-0.42584,-0.1942555,-0.391955,-0.298696,0.1278245,-0.411705,-0.34124,1
131,-0.0585949999999999,0.57187,-0.445275,-0.1948939999999999,0.4287,-0.3200929999999999,-0.431844,0.47767,-0.522355,0.122646,0.449749,-0.343165,0.3384359999999999,0.499829,-0.547835,-0.4584439999999999,0.66612,-0.689945,0.333636,0.7062200000000001,-0.693255,-0.080456,-0.0060399999999999,0.003025,0.080456,0.00604,-0.003025,-0.223124,-0.0242599999999999,-0.394865,0.119336,-0.04847,-0.426985,-0.1942839999999999,-0.39213,-0.303842,0.127646,-0.41132,-0.347045,1
132,-0.0590525,0.5671909999999999,-0.45145,-0.1948885,0.4252349999999999,-0.325735,-0.4317685,0.4718769999999999,-0.52673,0.1226514999999999,0.4458319999999999,-0.34887,0.3385114999999999,0.4969079999999999,-0.55214,-0.4583685,0.6606449999999999,-0.69511,0.3351915,0.7022349999999999,-0.6983,-0.0803215,-0.005925,0.00353,0.0803215,0.0059249999999999,-0.00353,-0.2210785,-0.024535,-0.39522,0.1176515,-0.048675,-0.42808,-0.1941685,-0.3924850000000001,-0.308758,0.1281315,-0.4117350000000001,-0.35468,1
133,-0.0595204999999999,0.5636049999999999,-0.457685,-0.1949205,0.4227149999999999,-0.331179,-0.4316405,0.4665649999999999,-0.530845,0.1227095,0.4426289999999999,-0.354555,0.3375495,0.4940099999999999,-0.552115,-0.4579605,0.6552049999999999,-0.699405,0.3363595,0.698245,-0.701885,-0.0802595,-0.0057949999999999,0.0039649999999999,0.0802595,0.0057949999999999,-0.0039649999999999,-0.2192204999999999,-0.024345,-0.395825,0.1163595,-0.048545,-0.429215,-0.1940104999999999,-0.392155,-0.313096,0.1282095,-0.411865,-0.360005,1
134,-0.0598589999999999,0.560286,-0.45955,-0.194745,0.4204799999999999,-0.332127,-0.4311049999999999,0.4609769999999999,-0.53051,0.122865,0.439615,-0.35578,0.336825,0.487506,-0.54759,-0.456995,0.64958,-0.69939,0.337455,0.68974,-0.70121,-0.080215,-0.0057399999999999,0.0039399999999999,0.080215,0.0057399999999999,-0.0039399999999999,-0.218885,-0.02454,-0.3963799999999999,0.115315,-0.04964,-0.42949,-0.193695,-0.39256,-0.313658,0.1280649999999999,-0.41181,-0.35858,1
135,-0.0603375,0.557059,-0.46159,-0.1946255,0.41817,-0.333219,-0.4304755,0.454972,-0.53017,0.1229945,0.436678,-0.35704,0.3371245,0.482492,-0.5482,-0.4557655,0.64232,-0.6995100000000001,0.3382445,0.68379,-0.7025399999999999,-0.0801145,-0.0057399999999999,0.0039599999999999,0.0801145,0.0057399999999999,-0.0039599999999999,-0.2185755,-0.0249099999999999,-0.39683,0.1143245,-0.05081,-0.4297999999999999,-0.1933254999999999,-0.39291,-0.314509,0.1279545,-0.41181,-0.35767,1
136,-0.060628,0.5565620000000001,-0.4630849999999999,-0.1944509999999999,0.4184050000000001,-0.33393,-0.427411,0.4502900000000001,-0.525465,0.123079,0.4366400000000001,-0.357965,0.336649,0.478582,-0.5461849999999999,-0.4539609999999999,0.6355550000000001,-0.699645,0.338989,0.6776350000000001,-0.703065,-0.0800589999999999,-0.0056849999999999,0.004275,0.0800589999999999,0.005685,-0.0042749999999999,-0.218491,-0.0226349999999999,-0.396845,0.1139189999999999,-0.0488249999999998,-0.429465,-0.193171,-0.3902949999999999,-0.31501,0.127059,-0.4100949999999999,-0.357705,1
137,-0.0605585,0.554414,-0.46471,-0.1940415,0.4172099999999999,-0.334875,-0.4262815,0.4445749999999999,-0.5257499999999999,0.1233585,0.43492,-0.35919,0.3365485,0.4731189999999999,-0.54498,-0.4518215,0.627553,-0.70032,0.3397385,0.67005,-0.70391,-0.0799985,-0.00565,0.0045899999999999,0.0799985,0.0056499999999999,-0.00459,-0.2181015,-0.02139,-0.39704,0.1138984999999999,-0.04793,-0.42925,-0.1926315,-0.38854,-0.315604,0.1273485,-0.40863,-0.35914,1
138,-0.060213,0.549592,-0.4669299999999999,-0.193502,0.4135799999999999,-0.3365559999999999,-0.4249219999999999,0.4364679999999999,-0.52643,0.1237679999999999,0.4307999999999999,-0.36101,0.336618,0.465516,-0.54508,-0.4496819999999999,0.617066,-0.70155,0.340638,0.6608999999999999,-0.70553,-0.080068,-0.00565,0.0043799999999999,0.080068,0.0056499999999999,-0.0043799999999999,-0.217162,-0.02289,-0.3980599999999999,0.114398,-0.0499,-0.42961,-0.191922,-0.39017,-0.316774,0.127348,-0.41057,-0.3601,1
139,-0.059852,0.5468330000000001,-0.468895,-0.193194,0.4122950000000001,-0.338367,-0.423654,0.431935,-0.527415,0.123966,0.4292350000000001,-0.362845,0.336536,0.4604440000000001,-0.5451550000000001,-0.448004,0.6101730000000001,-0.703005,0.341406,0.6542450000000001,-0.707105,-0.080136,-0.0056349999999999,0.0042049999999999,0.080136,0.005635,-0.004205,-0.216764,-0.0218149999999999,-0.398985,0.114916,-0.0494849999999998,-0.429975,-0.1910939999999999,-0.3894149999999999,-0.31784,0.1273559999999999,-0.4095549999999999,-0.359665,1
140,-0.05944,0.544323,-0.4707,-0.1929119999999999,0.411,-0.340152,-0.422432,0.42654,-0.52824,0.1238679999999999,0.4275,-0.36472,0.336498,0.4557329999999999,-0.54541,-0.446552,0.603807,-0.70455,0.342148,0.64788,-0.7086,-0.0801679999999999,-0.0056,0.00398,0.080168,0.0055999999999999,-0.00398,-0.2163419999999999,-0.0207399999999999,-0.39974,0.1156779999999999,-0.04917,-0.4305799999999999,-0.190342,-0.38867,-0.319109,0.1270879999999999,-0.40875,-0.35932,1
141,-0.0591085,0.542152,-0.472475,-0.1927315,0.4098699999999999,-0.341775,-0.4213915,0.42186,-0.528835,0.1237284999999999,0.4259799999999999,-0.366415,0.3364884999999999,0.451395,-0.545625,-0.4453715,0.598289,-0.706105,0.3421585,0.64212,-0.709805,-0.0801885,-0.0056199999999999,0.003665,0.0801885,0.0056199999999999,-0.003665,-0.2159515,-0.01943,-0.400305,0.1164385,-0.04869,-0.431075,-0.1898915,-0.38782,-0.320238,0.1271385,-0.4077,-0.358895,1
142,-0.0588385,0.540083,-0.474005,-0.1926215,0.40867,-0.343295,-0.4204615,0.41789,-0.5292749999999999,0.1236285,0.42477,-0.3678949999999999,0.3365185,0.4475329999999999,-0.546015,-0.4443715,0.593463,-0.707875,0.3420785,0.637019,-0.711105,-0.0801985,-0.00562,0.003275,0.0801985,0.0056199999999999,-0.003275,-0.2155014999999999,-0.01799,-0.400725,0.1171585,-0.04818,-0.431485,-0.1888814999999999,-0.3875,-0.3215099999999999,0.1271185,-0.4069900000000001,-0.358645,1
143,-0.0586649999999999,0.5383169999999999,-0.4754899999999999,-0.192599,0.4074299999999999,-0.3448799999999999,-0.419649,0.4150999999999999,-0.52982,0.123551,0.4237499999999999,-0.36943,0.337261,0.4475699999999999,-0.5464,-0.443609,0.589622,-0.7100599999999999,0.342201,0.6369799999999999,-0.71269,-0.080181,-0.00563,0.00293,0.080181,0.0056299999999999,-0.0029299999999999,-0.215009,-0.01656,-0.4011,0.117831,-0.04715,-0.43186,-0.188449,-0.3856900000000001,-0.322897,0.126591,-0.40527,-0.3581299999999999,1
144,-0.058576,0.536737,-0.47684,-0.192662,0.40632,-0.34667,-0.418882,0.41294,-0.5304,0.123318,0.42279,-0.37107,0.3378379999999999,0.44781,-0.54662,-0.442982,0.58717,-0.71238,0.3422779999999999,0.637494,-0.71419,-0.080158,-0.0056399999999999,0.00273,0.080158,0.0056399999999999,-0.0027299999999999,-0.214532,-0.0149799999999999,-0.40147,0.118378,-0.04592,-0.43208,-0.187712,-0.38476,-0.323127,0.126998,-0.40398,-0.35845,1
145,-0.0585005,0.535167,-0.477915,-0.1927005,0.4053299999999999,-0.348085,-0.4181305,0.4121999999999999,-0.5310349999999999,0.1231295,0.4219799999999999,-0.372315,0.3384495,0.4478999999999999,-0.546735,-0.4424005,0.5868079999999999,-0.7146250000000001,0.3424595,0.637659,-0.715515,-0.0801595,-0.00574,0.002675,0.0801595,0.0057399999999999,-0.0026749999999999,-0.2141005,-0.01341,-0.401795,0.1188795,-0.0446,-0.432135,-0.1868605,-0.3841300000000001,-0.323593,0.1277295,-0.4016200000000001,-0.357525,1
146,-0.0586584999999999,0.5337860000000001,-0.4786749999999999,-0.1929364999999999,0.4041950000000001,-0.349175,-0.4177065,0.411045,-0.531585,0.1228235,0.421385,-0.373095,0.3394535,0.448025,-0.5515749999999999,-0.4421164999999999,0.5858540000000001,-0.716755,0.3422335,0.6377630000000001,-0.719265,-0.0801834999999999,-0.0059649999999999,0.0023849999999999,0.0801834999999999,0.0059649999999999,-0.0023849999999999,-0.2137965,-0.0121449999999999,-0.402045,0.1192435,-0.043875,-0.431815,-0.1861265,-0.3843749999999999,-0.32404,0.1281435,-0.400145,-0.357045,1
147,-0.058829,0.53284,-0.47927,-0.1931719999999999,0.40285,-0.35017,-0.417412,0.41007,-0.53222,0.122478,0.42095,-0.37377,0.340348,0.44836,-0.55628,-0.441862,0.585034,-0.71788,0.341698,0.638055,-0.72294,-0.0801979999999999,-0.0061299999999999,0.0020499999999999,0.0801979999999999,0.0061299999999999,-0.0020499999999999,-0.213552,-0.0106199999999999,-0.40225,0.119528,-0.04293,-0.43185,-0.185202,-0.38398,-0.324197,0.128378,-0.39861,-0.35672,1
148,-0.059082,0.532404,-0.47984,-0.193321,0.40185,-0.35102,-0.419281,0.40886,-0.53684,0.1221889999999999,0.42066,-0.37445,0.340559,0.4486799999999999,-0.55832,-0.441861,0.584188,-0.71969,0.341079,0.638511,-0.72532,-0.080219,-0.0062799999999999,0.0016599999999999,0.080219,0.0062799999999999,-0.0016599999999999,-0.213351,-0.00914,-0.40238,0.1197389999999999,-0.04224,-0.43179,-0.184351,-0.3829599999999999,-0.324358,0.1291189999999999,-0.39761,-0.35744,1
149,-0.059454,0.53198,-0.480355,-0.1935,0.40106,-0.351815,-0.41905,0.40889,-0.536745,0.12208,0.42072,-0.374905,0.34071,0.44852,-0.559895,-0.44184,0.583149,-0.7207250000000001,0.34035,0.638696,-0.727175,-0.08027,-0.00644,0.001305,0.08027,0.00644,-0.001305,-0.21327,-0.0077599999999999,-0.402485,0.1199799999999999,-0.0415099999999999,-0.4314949999999999,-0.1836999999999999,-0.3815999999999999,-0.324608,0.12978,-0.39574,-0.358185,1
150,-0.0597605,0.5305610000000001,-0.48067,-0.1937085,0.39938,-0.35259,-0.4188885,0.4079,-0.5367500000000001,0.1217215,0.42019,-0.37561,0.3408015,0.44764,-0.56133,-0.4417285,0.580891,-0.72197,0.3395215,0.637464,-0.72931,-0.0803015,-0.0065699999999999,0.00115,0.0803015,0.0065699999999999,-0.00115,-0.2131785,-0.0073299999999999,-0.4025499999999999,0.1202414999999999,-0.0410699999999999,-0.43168,-0.1830284999999999,-0.3812099999999999,-0.324659,0.1304115,-0.39479,-0.35858,1
151,-0.0599415,0.5297139999999999,-0.48094,-0.1938205,0.3980799999999999,-0.35344,-0.4187105,0.4070799999999999,-0.53693,0.1212594999999999,0.4199499999999999,-0.37651,0.3408895,0.4466999999999999,-0.56288,-0.4416005,0.578737,-0.72321,0.3385695,0.6356689999999999,-0.73164,-0.0803095,-0.00659,0.0010499999999999,0.0803095,0.0065899999999999,-0.0010499999999999,-0.2130705,-0.00664,-0.40276,0.1204595,-0.04042,-0.43183,-0.1824305,-0.38056,-0.3249309999999999,0.1310095,-0.39354,-0.35963,1
152,-0.0599515,0.528917,-0.48112,-0.1937735,0.397105,-0.35426,-0.4183835,0.4061749999999999,-0.53693,0.1208064999999999,0.419745,-0.37739,0.3409065,0.445825,-0.56414,-0.4414335,0.576838,-0.72424,0.3376565,0.633941,-0.73418,-0.0803165,-0.006645,0.0010499999999999,0.0803165,0.006645,-0.0010499999999999,-0.2129435,-0.005915,-0.40298,0.1206664999999999,-0.0397349999999999,-0.43199,-0.1822235,-0.379005,-0.325211,0.1314865,-0.392765,-0.35987,1
153,-0.059876,0.528588,-0.481245,-0.19358,0.396285,-0.354715,-0.418,0.405485,-0.5369550000000001,0.12051,0.4196749999999999,-0.378005,0.34062,0.4451549999999999,-0.5652550000000001,-0.44125,0.575329,-0.724915,0.33682,0.6324099999999999,-0.736565,-0.08032,-0.0065749999999999,0.0010449999999999,0.08032,0.0065749999999999,-0.001045,-0.21282,-0.004085,-0.403135,0.12067,-0.038505,-0.432155,-0.18188,-0.3770450000000001,-0.325453,0.13217,-0.391175,-0.360885,1
154,-0.0597075,0.5282709999999999,-0.48135,-0.1933225,0.3954599999999999,-0.35511,-0.4174725,0.4047199999999999,-0.53698,0.1202375,0.4195099999999999,-0.37861,0.3402575,0.44458,-0.5659700000000001,-0.4408925,0.573992,-0.72553,0.3360975,0.63062,-0.7387699999999999,-0.0803175,-0.00668,0.0010399999999999,0.0803175,0.0066799999999999,-0.00104,-0.2126325,-0.00218,-0.40315,0.1206375,-0.03686,-0.43232,-0.1818725,-0.37431,-0.325455,0.1326574999999999,-0.38926,-0.36175,1
155,-0.0595469999999999,0.527881,-0.4815899999999999,-0.193109,0.394855,-0.3552599999999999,-0.4152189999999999,0.403955,-0.53418,0.120091,0.419305,-0.3792799999999999,0.339791,0.443845,-0.56637,-0.440299,0.571959,-0.72629,0.335491,0.629096,-0.7401899999999999,-0.080321,-0.006715,0.00098,0.080321,0.006715,-0.0009799999999999,-0.212439,-0.0004849999999999,-0.4032199999999999,0.120651,-0.0353649999999999,-0.43254,-0.181509,-0.3717349999999999,-0.3259289999999999,0.133441,-0.3873449999999999,-0.363,1
156,-0.059119,0.527259,-0.482125,-0.192639,0.39471,-0.355645,-0.412669,0.40317,-0.5316449999999999,0.1201909999999999,0.41915,-0.380165,0.339451,0.44306,-0.567045,-0.439379,0.569648,-0.7273350000000001,0.335301,0.627521,-0.741705,-0.080321,-0.00677,0.000945,0.080321,0.0067699999999999,-0.000945,-0.212039,0.00126,-0.403535,0.1209409999999999,-0.03378,-0.433005,-0.180479,-0.36928,-0.326203,0.1343609999999999,-0.3852,-0.364295,1
157,-0.058654,0.526739,-0.482815,-0.192149,0.3949249999999999,-0.3562349999999999,-0.410069,0.402865,-0.5291049999999999,0.120341,0.419145,-0.381145,0.339171,0.4424849999999999,-0.567885,-0.4383789999999999,0.5677559999999999,-0.728575,0.335221,0.625927,-0.743555,-0.080321,-0.006745,0.0010249999999999,0.080321,0.006745,-0.0010249999999999,-0.211619,0.0033149999999999,-0.404045,0.121281,-0.031615,-0.4336649999999999,-0.179919,-0.366325,-0.326593,0.135281,-0.382505,-0.365875,1
158,-0.0582535,0.5262169999999999,-0.48374,-0.1915744999999999,0.39493,-0.35704,-0.4073845,0.40298,-0.52677,0.1205855,0.41942,-0.38229,0.3389355,0.44206,-0.56888,-0.4372145,0.566191,-0.73002,0.3351955,0.624571,-0.74563,-0.0803355,-0.00677,0.0012399999999999,0.0803355,0.0067699999999999,-0.00124,-0.2111845,0.00585,-0.40468,0.1217355,-0.0291,-0.43438,-0.1788145,-0.3647,-0.327464,0.1362555,-0.38011,-0.36723,1
159,-0.05776,0.525371,-0.48496,-0.19095,0.39488,-0.35805,-0.40467,0.40295,-0.52462,0.12107,0.41952,-0.38355,0.33873,0.44132,-0.57026,-0.43605,0.5645020000000001,-0.73158,0.33519,0.623982,-0.74754,-0.08035,-0.0067399999999999,0.0012699999999999,0.08035,0.0067399999999999,-0.0012699999999999,-0.21069,0.00858,-0.4055499999999999,0.12224,-0.0261399999999999,-0.4353599999999999,-0.17833,-0.36195,-0.328814,0.13707,-0.37758,-0.3681999999999999,1
160,-0.0572184999999999,0.5241739999999999,-0.4862849999999999,-0.1903115,0.3949599999999999,-0.359165,-0.4018915,0.4024599999999999,-0.522625,0.1215885,0.4192499999999999,-0.384885,0.3385384999999999,0.4405599999999999,-0.571735,-0.4347515,0.5627129999999999,-0.7333149999999999,0.3354185,0.6231369999999999,-0.749465,-0.0803585,-0.00674,0.0012549999999999,0.0803585,0.0067399999999999,-0.001255,-0.2101515,0.0112899999999999,-0.406505,0.1227685,-0.02296,-0.436515,-0.1778015,-0.3592000000000001,-0.330009,0.1377785,-0.3750800000000001,-0.369635,1
161,-0.056753,0.5229159999999999,-0.487575,-0.189781,0.3949999999999999,-0.3601149999999999,-0.3992509999999999,0.4018299999999999,-0.520645,0.121979,0.41899,-0.386215,0.338189,0.4397099999999999,-0.573325,-0.4336109999999999,0.56087,-0.735225,0.335579,0.6219979999999999,-0.750995,-0.080349,-0.00673,0.0012449999999999,0.080349,0.00673,-0.0012449999999999,-0.209711,0.0140799999999999,-0.407475,0.123199,-0.01967,-0.437725,-0.177281,-0.35688,-0.331402,0.138309,-0.3726900000000001,-0.371035,1
162,-0.056216,0.521374,-0.48838,-0.18923,0.39529,-0.36091,-0.39663,0.40112,-0.51847,0.1224,0.4191,-0.38736,0.33804,0.43867,-0.57474,-0.43265,0.559184,-0.73704,0.33577,0.620781,-0.7523599999999999,-0.08034,-0.00674,0.0010899999999999,0.08034,0.0067399999999999,-0.00109,-0.20923,0.0159699999999999,-0.40839,0.12372,-0.01714,-0.43875,-0.17679,-0.35451,-0.332706,0.13907,-0.3706400000000001,-0.37207,1
163,-0.0558945,0.520004,-0.48921,-0.1887835,0.395475,-0.36159,-0.3949135,0.400595,-0.51631,0.1228465,0.419485,-0.38838,0.3378865,0.437785,-0.57601,-0.4319935,0.557621,-0.73854,0.3358365,0.619865,-0.7535999999999999,-0.0803165,-0.0067549999999999,0.00092,0.0803165,0.006755,-0.00092,-0.2088835,0.018085,-0.40918,0.1241865,-0.0148149999999999,-0.43966,-0.1764235,-0.3517049999999999,-0.333633,0.1396065,-0.368595,-0.37281,1
164,-0.055746,0.5187229999999999,-0.489965,-0.188283,0.3955199999999999,-0.362185,-0.394783,0.4001999999999999,-0.517145,0.123277,0.4199999999999999,-0.389255,0.337667,0.4371799999999999,-0.5769850000000001,-0.431743,0.5569529999999999,-0.739655,0.335757,0.6191669999999999,-0.754735,-0.080287,-0.0068,0.0007349999999999,0.080287,0.0067999999999999,-0.000735,-0.208693,0.0202599999999999,-0.409905,0.124557,-0.0124900000000001,-0.440505,-0.176003,-0.3489200000000001,-0.334482,0.139777,-0.3665100000000001,-0.373405,1
165,-0.055758,0.517082,-0.49072,-0.187946,0.3951599999999999,-0.3628,-0.394816,0.39835,-0.51789,0.123504,0.4197499999999999,-0.3900099999999999,0.337384,0.43649,-0.57796,-0.431766,0.555572,-0.74022,0.335554,0.618337,-0.75582,-0.080294,-0.0068099999999999,0.0005499999999999,0.080294,0.0068099999999999,-0.0005499999999999,-0.208716,0.02076,-0.41052,0.124724,-0.0110099999999999,-0.44114,-0.175726,-0.3480999999999999,-0.335242,0.1401939999999999,-0.36571,-0.37417,1
166,-0.055726,0.516188,-0.49171,-0.187612,0.3946699999999999,-0.3635199999999999,-0.394862,0.39691,-0.5188699999999999,0.123718,0.4197499999999999,-0.3910099999999999,0.337098,0.43626,-0.57893,-0.431792,0.554308,-0.74082,0.335358,0.617774,-0.75692,-0.080298,-0.0068099999999999,0.0004399999999999,0.080298,0.0068099999999999,-0.0004399999999999,-0.208732,0.02076,-0.41133,0.124938,-0.00999,-0.44213,-0.175192,-0.3475899999999999,-0.3362259999999999,0.140168,-0.36556,-0.37485,1
167,-0.0556949999999999,0.516188,-0.492665,-0.187328,0.3946699999999999,-0.364315,-0.395538,0.39657,-0.5202150000000001,0.1237019999999999,0.4197499999999999,-0.391955,0.336872,0.43626,-0.579875,-0.431838,0.554061,-0.7417750000000001,0.335212,0.617774,-0.7578750000000001,-0.080302,-0.0068099999999999,0.000365,0.080302,0.0068099999999999,-0.000365,-0.208708,0.02078,-0.412135,0.125242,-0.0089299999999999,-0.442995,-0.174578,-0.34647,-0.336531,0.140162,-0.36492,-0.374995,1
168,-0.0563984999999999,0.516188,-0.493615,-0.1878405,0.3946699999999999,-0.365165,-0.3969805,0.39657,-0.521745,0.1230195,0.4197499999999999,-0.392835,0.3361695,0.43626,-0.580635,-0.4326505,0.554061,-0.742755,0.3344795,0.617774,-0.758795,-0.0802394999999999,-0.0068099999999999,0.000385,0.0802394999999999,0.0068099999999999,-0.000385,-0.2088805,0.0212599999999999,-0.412865,0.1252295,-0.0079,-0.443735,-0.1749705,-0.34542,-0.336922,0.1394595,-0.3654,-0.375245,1
169,-0.0571945,0.515678,-0.493655,-0.1885605,0.3941599999999999,-0.365555,-0.3991004999999999,0.3960599999999999,-0.522745,0.1222395,0.4192599999999999,-0.393195,0.3352895,0.4357499999999999,-0.5808949999999999,-0.4337904999999999,0.553551,-0.742865,0.3336395,0.617264,-0.759155,-0.0801395,-0.0068599999999999,0.0005049999999999,0.0801395,0.0068599999999999,-0.000505,-0.2091905,0.02115,-0.413125,0.1250195,-0.00841,-0.444005,-0.1756205,-0.34593,-0.337306,0.1390595,-0.36528,-0.376355,1
170,-0.0581579999999999,0.5141149999999999,-0.49295,-0.189494,0.3934449999999999,-0.3652999999999999,-0.401754,0.3938649999999999,-0.52321,0.121296,0.4180349999999999,-0.39283,0.334176,0.4348849999999999,-0.5806199999999999,-0.435434,0.551356,-0.74221,0.332476,0.6160869999999999,-0.75908,-0.080096,-0.006935,0.0005,0.080096,0.0069349999999999,-0.0005,-0.209754,0.0196149999999999,-0.41269,0.124526,-0.0105250000000001,-0.44372,-0.1765339999999999,-0.347555,-0.336397,0.138096,-0.3673350000000001,-0.37631,1
171,-0.0595634999999999,0.51428,-0.49214,-0.1905395,0.3936699999999999,-0.36489,-0.4046295,0.39221,-0.524,0.1202305,0.4172099999999999,-0.3922,0.3329904999999999,0.43524,-0.5797300000000001,-0.4374095,0.549626,-0.74137,0.3312005,0.615553,-0.75902,-0.0800305,-0.0068899999999999,0.0005,0.0800305,0.0068899999999999,-0.0005,-0.2106095,0.0172499999999999,-0.41224,0.1237805,-0.0134299999999999,-0.44359,-0.1775594999999999,-0.34958,-0.335643,0.1370305,-0.37024,-0.37575,1
172,-0.0610524999999999,0.5155190000000001,-0.49133,-0.1915075,0.394155,-0.36441,-0.4074075,0.391675,-0.52439,0.1191125,0.417915,-0.3911,0.3319025,0.436855,-0.57866,-0.4394775,0.550416,-0.74031,0.3300325,0.616928,-0.7582500000000001,-0.0800225,-0.0069949999999999,0.0005,0.0800225,0.0069949999999999,-0.0005,-0.2114275,0.013885,-0.41161,0.1229225,-0.0164349999999999,-0.44345,-0.1785275,-0.352515,-0.335032,0.1360325,-0.3737349999999999,-0.3757,1
173,-0.062593,0.5177069999999999,-0.49035,-0.19257,0.3945649999999999,-0.36369,-0.40937,0.392775,-0.52405,0.1178499999999999,0.4188849999999999,-0.38977,0.3307,0.438835,-0.57738,-0.44174,0.550886,-0.7387900000000001,0.32871,0.618813,-0.75688,-0.08001,-0.0072349999999999,0.0006499999999999,0.08001,0.0072349999999999,-0.00065,-0.21245,0.009105,-0.4108,0.12186,-0.0207749999999999,-0.44315,-0.17983,-0.3566249999999999,-0.334262,0.13548,-0.378515,-0.37485,1
174,-0.0638675,0.5202370000000001,-0.4889099999999999,-0.1935325,0.396185,-0.36209,-0.4111424999999999,0.393495,-0.523,0.1169575,0.419835,-0.38815,0.3298975,0.442595,-0.5754699999999999,-0.4437125,0.5512600000000001,-0.7363999999999999,0.3279375,0.6226700000000001,-0.75492,-0.0799675,-0.0074549999999999,0.0009799999999999,0.0799675,0.0074549999999999,-0.0009799999999999,-0.2129924999999999,0.003495,-0.40941,0.1212875,-0.0260849999999999,-0.44237,-0.1807325,-0.3621149999999999,-0.332953,0.1354575,-0.3844349999999999,-0.37358,1
175,-0.0652965,0.5237160000000001,-0.487385,-0.1946005,0.39741,-0.360595,-0.4134205,0.39479,-0.523495,0.1159794999999999,0.42055,-0.386275,0.3289795,0.44639,-0.5734950000000001,-0.4458305,0.554035,-0.7350650000000001,0.3273195,0.62673,-0.752595,-0.0799395,-0.0074899999999999,0.0013849999999999,0.0799395,0.0074899999999999,-0.001385,-0.2136005,-0.0039299999999999,-0.408055,0.1206494999999999,-0.0329599999999999,-0.441605,-0.1818905,-0.36973,-0.331573,0.1353895,-0.39232,-0.372985,1
176,-0.0664869999999999,0.527209,-0.485425,-0.195779,0.40032,-0.358525,-0.415369,0.39817,-0.523775,0.115181,0.42247,-0.383945,0.328271,0.45024,-0.571035,-0.4475989999999999,0.5566070000000001,-0.732675,0.326701,0.630965,-0.749715,-0.079941,-0.0073699999999999,0.001975,0.079941,0.0073699999999999,-0.0019749999999999,-0.2139589999999999,-0.0126299999999999,-0.4062949999999999,0.120261,-0.0412799999999999,-0.4403249999999999,-0.1828789999999999,-0.3787399999999999,-0.3294269999999999,0.135561,-0.4018199999999999,-0.371905,1
177,-0.067255,0.531465,-0.4830899999999999,-0.196621,0.40213,-0.35627,-0.416861,0.40171,-0.52346,0.114789,0.42473,-0.3814499999999999,0.327959,0.4532629999999999,-0.56831,-0.448801,0.558928,-0.73022,0.326529,0.63453,-0.74672,-0.0799189999999999,-0.0074699999999999,0.00245,0.079919,0.0074699999999999,-0.0024499999999999,-0.213881,-0.02254,-0.40456,0.1202289999999999,-0.0511,-0.4388999999999999,-0.183221,-0.38922,-0.327781,0.136119,-0.41161,-0.36988,1
178,-0.068114,0.53621,-0.48078,-0.19744,0.405225,-0.35357,-0.4193599999999999,0.4070749999999999,-0.5227200000000001,0.11438,0.427493,-0.37855,0.32759,0.456681,-0.56553,-0.45019,0.563611,-0.72732,0.32635,0.638355,-0.74307,-0.07993,-0.007475,0.00276,0.07993,0.007475,-0.00276,-0.21391,-0.0337549999999999,-0.40275,0.12034,-0.059975,-0.4374,-0.1835999999999999,-0.400405,-0.325715,0.13659,-0.422725,-0.36774,1
179,-0.0690045,0.542197,-0.478345,-0.1983795,0.408615,-0.350915,-0.4216195,0.4120629999999999,-0.5221750000000001,0.1141104999999999,0.430535,-0.375755,0.3272905,0.461015,-0.562825,-0.4515794999999999,0.569071,-0.724615,0.3260205,0.6442399999999999,-0.7394350000000001,-0.0799105,-0.0072499999999999,0.0031149999999999,0.0799105,0.0072499999999999,-0.003115,-0.2140095,-0.0443799999999999,-0.400895,0.1204905,-0.0689699999999999,-0.435895,-0.1839495,-0.4117699999999999,-0.323691,0.1370005,-0.43385,-0.365285,1
180,-0.068853,0.5494370000000001,-0.47529,-0.199017,0.413749,-0.34781,-0.423607,0.41727,-0.52109,0.1145629999999999,0.433342,-0.3723,0.327383,0.467327,-0.55972,-0.452507,0.575421,-0.72136,0.326123,0.65119,-0.73533,-0.080203,-0.0071299999999999,0.0035199999999999,0.080203,0.00713,-0.00352,-0.2141469999999999,-0.0576799999999999,-0.39851,0.1206429999999999,-0.07994,-0.43411,-0.184057,-0.42498,-0.321424,0.1372129999999999,-0.4472,-0.3626,1
181,-0.068204,0.5572349999999999,-0.46778,-0.199514,0.4190129999999999,-0.34038,-0.425294,0.4235699999999999,-0.51521,0.115336,0.4361259999999999,-0.3648,0.328156,0.473226,-0.5520499999999999,-0.453204,0.58148,-0.7135400000000001,0.326386,0.65742,-0.7272099999999999,-0.080456,-0.00658,0.00334,0.080456,0.0065799999999999,-0.0033399999999999,-0.215344,-0.06964,-0.39474,0.121006,-0.09005,-0.42916,-0.184664,-0.4375300000000001,-0.314799,0.1379459999999999,-0.45996,-0.35591,1
182,-0.0670485,0.566021,-0.4604,-0.1995405,0.424474,-0.3333899999999999,-0.4268705,0.430049,-0.50964,0.1162795,0.441717,-0.35757,0.3293695,0.480463,-0.54501,-0.4536305,0.590055,-0.7063999999999999,0.3270395,0.664895,-0.7193499999999999,-0.0806395,-0.0059949999999999,0.00322,0.0806395,0.005995,-0.00322,-0.2162405,-0.0803149999999999,-0.39192,0.1218195,-0.098735,-0.425,-0.1846505,-0.448925,-0.308388,0.1386695,-0.471835,-0.34909,1
183,-0.0657355,0.57524,-0.451785,-0.1987465,0.429934,-0.326395,-0.4284765,0.4378809999999999,-0.5042949999999999,0.1172535,0.4481259999999999,-0.349715,0.3306435,0.4859179999999999,-0.537135,-0.4537365,0.6002,-0.699145,0.3279735,0.67118,-0.710215,-0.0809035,-0.00559,0.0031049999999999,0.0809035,0.0055899999999999,-0.0031049999999999,-0.2170965,-0.0897,-0.389195,0.1226435,-0.10632,-0.420405,-0.1846565,-0.45953,-0.301639,0.1401835,-0.4823200000000001,-0.343435,1
184,-0.064415,0.584815,-0.442855,-0.19759,0.435393,-0.319305,-0.42966,0.4461059999999999,-0.498815,0.1181899999999999,0.4544269999999999,-0.341605,0.33195,0.491841,-0.529445,-0.4536699999999999,0.6085149999999999,-0.691095,0.32895,0.6783649999999999,-0.700695,-0.08118,-0.005665,0.002815,0.08118,0.0056649999999999,-0.002815,-0.21787,-0.098445,-0.386345,0.12355,-0.113285,-0.415015,-0.18455,-0.469115,-0.294567,0.14077,-0.4925750000000001,-0.3358649999999999,1
185,-0.0625535,0.594705,-0.43323,-0.1959625,0.4412959999999999,-0.31191,-0.4304325,0.4528419999999999,-0.49167,0.1198475,0.459623,-0.33337,0.3337475,0.498338,-0.52129,-0.4531725,0.617605,-0.68291,0.3301675,0.686535,-0.6908099999999999,-0.0814975,-0.0054049999999999,0.00234,0.0814975,0.0054049999999999,-0.00234,-0.2180425,-0.1074749999999999,-0.38341,0.1248575,-0.1205549999999999,-0.40945,-0.1840425,-0.478865,-0.287195,0.1418174999999999,-0.502785,-0.32833,1
186,-0.0607275,0.60509,-0.42337,-0.1945595,0.447962,-0.30437,-0.4314695,0.461791,-0.48447,0.1213704999999999,0.465846,-0.32508,0.3356005,0.506254,-0.51315,-0.4526395,0.63016,-0.6739900000000001,0.3313005,0.69572,-0.6807799999999999,-0.0818805,-0.0052599999999999,0.0019299999999999,0.0818805,0.00526,-0.00193,-0.2183195,-0.1155999999999999,-0.38019,0.1260005,-0.1268599999999999,-0.40364,-0.1837395,-0.4866499999999999,-0.279661,0.1428404999999999,-0.51154,-0.32123,1
187,-0.0588365,0.61453,-0.41311,-0.1937495,0.452779,-0.29666,-0.4314895,0.468053,-0.47713,0.1228805,0.47137,-0.31668,0.3375205,0.513906,-0.50475,-0.4518695,0.64001,-0.6642600000000001,0.3327704999999999,0.7050700000000001,-0.67044,-0.0822305,-0.0052099999999999,0.0014399999999999,0.0822305,0.00521,-0.0014399999999999,-0.2183395,-0.1247599999999999,-0.3761,0.1269605,-0.1350099999999999,-0.3973,-0.1834595,-0.4960599999999999,-0.27179,0.1438405,-0.5216999999999999,-0.31394,1
188,-0.0567465,0.6240049999999999,-0.4023099999999999,-0.1928045,0.457821,-0.2884799999999999,-0.4314645,0.475923,-0.4694299999999999,0.1245555,0.47768,-0.3074599999999999,0.3394655,0.521295,-0.49601,-0.4505245,0.650045,-0.6542,0.3343855,0.714065,-0.65924,-0.0826055,-0.005145,0.00095,0.0826055,0.0051449999999999,-0.0009499999999999,-0.2178745,-0.133695,-0.37116,0.1280954999999999,-0.143395,-0.39049,-0.1832944999999999,-0.506255,-0.264099,0.1449555,-0.531645,-0.30756,1
189,-0.0546775,0.631635,-0.391,-0.1917665,0.4603109999999999,-0.28025,-0.4312865,0.4842079999999999,-0.4616699999999999,0.1260835,0.484452,-0.29842,0.3413535,0.526955,-0.48657,-0.4493265,0.660825,-0.64378,0.3357834999999999,0.7213849999999999,-0.64754,-0.0828035,-0.005155,0.00039,0.0828035,0.0051549999999999,-0.00039,-0.2172165,-0.141765,-0.3652999999999999,0.1289935,-0.150465,-0.38277,-0.1834165,-0.515625,-0.256561,0.1458835,-0.540645,-0.30015,1
190,-0.0529484999999999,0.63843,-0.383855,-0.1906585,0.46458,-0.275601,-0.4310685,0.49126,-0.457065,0.1274315,0.49027,-0.293305,0.3433415,0.53172,-0.481335,-0.4483885,0.6696500000000001,-0.6378550000000001,0.3370115,0.7277,-0.639955,-0.0829315,-0.0052899999999999,0.000535,0.0829315,0.00529,-0.000535,-0.2161885,-0.15108,-0.361795,0.1296915,-0.1585099999999999,-0.379235,-0.1830584999999999,-0.52655,-0.253286,0.1467615,-0.5504399999999999,-0.296625,1
191,-0.050989,0.6454200000000001,-0.377125,-0.18932,0.468116,-0.270858,-0.43061,0.49729,-0.4522049999999999,0.1288,0.49178,-0.288505,0.34532,0.53596,-0.475725,-0.44727,0.6775800000000001,-0.631285,0.33885,0.73373,-0.632655,-0.08309,-0.0050299999999999,0.000695,0.08309,0.00503,-0.000695,-0.21521,-0.1614299999999999,-0.358125,0.13026,-0.1674999999999999,-0.375545,-0.18305,-0.53825,-0.251009,0.14759,-0.5608299999999999,-0.292845,1
192,-0.0492355,0.650215,-0.370695,-0.1874175,0.4700749999999999,-0.266153,-0.4298775,0.502625,-0.447525,0.1308525,0.4963649999999999,-0.284155,0.3474825,0.5394749999999999,-0.469865,-0.4460375,0.684045,-0.6245850000000001,0.3409725,0.738605,-0.625875,-0.0829925,-0.005105,0.000805,0.0829925,0.0051049999999999,-0.000805,-0.2141375,-0.174265,-0.354675,0.1307525,-0.178795,-0.371885,-0.1829575,-0.552705,-0.249358,0.1485125,-0.574395,-0.290985,1
193,-0.047381,0.65543,-0.363625,-0.1855149999999999,0.47375,-0.261243,-0.4291149999999999,0.50717,-0.442045,0.132855,0.5005299999999999,-0.279815,0.349295,0.54391,-0.464255,-0.444775,0.68958,-0.617415,0.343445,0.74335,-0.619085,-0.082895,-0.00463,0.0010249999999999,0.082895,0.0046299999999999,-0.0010249999999999,-0.212115,-0.18603,-0.349875,0.131095,-0.18967,-0.366785,-0.1829549999999999,-0.5674,-0.24824,0.149385,-0.5877100000000001,-0.288845,1
194,-0.0458245,0.6610149999999999,-0.356535,-0.1840365,0.477085,-0.256491,-0.4284465,0.512605,-0.436075,0.1346635,0.504715,-0.275235,0.3509335,0.548195,-0.458375,-0.4435665,0.6965049999999999,-0.6099749999999999,0.3457234999999999,0.747815,-0.612375,-0.0826835,-0.0044549999999999,0.0012049999999999,0.0826835,0.0044549999999999,-0.001205,-0.2101265,-0.196995,-0.344935,0.1311935,-0.2001549999999999,-0.361515,-0.1834164999999999,-0.581565,-0.247244,0.1499935,-0.600795,-0.288035,1
195,-0.0441089999999999,0.66686,-0.349035,-0.183106,0.48098,-0.251591,-0.4279059999999999,0.51776,-0.429915,0.1363639999999999,0.50777,-0.270075,0.352864,0.5521400000000001,-0.451955,-0.442206,0.70201,-0.602995,0.348344,0.75224,-0.6051249999999999,-0.082404,-0.0039599999999999,0.001405,0.082404,0.00396,-0.0014049999999999,-0.207816,-0.20777,-0.339175,0.131454,-0.20991,-0.355805,-0.183626,-0.5945699999999999,-0.2455979999999999,0.1510739999999999,-0.61147,-0.2860049999999999,1
196,-0.0422614999999999,0.673265,-0.341645,-0.1820425,0.485845,-0.24634,-0.4274125,0.524195,-0.4234949999999999,0.1381175,0.511745,-0.264655,0.3547774999999999,0.556735,-0.445005,-0.4408225,0.709195,-0.595575,0.3511475,0.7569049999999999,-0.598205,-0.0821375,-0.0034549999999999,0.001805,0.0821375,0.0034549999999999,-0.001805,-0.2055624999999999,-0.216555,-0.333295,0.1317575,-0.218845,-0.3503549999999999,-0.1839525,-0.606295,-0.243889,0.1519275,-0.621095,-0.282435,1
197,-0.040394,0.679365,-0.33431,-0.1809899999999999,0.489865,-0.240967,-0.42686,0.530375,-0.41736,0.13994,0.514815,-0.25966,0.35641,0.5613250000000001,-0.4376,-0.43948,0.716585,-0.58804,0.35406,0.761475,-0.59002,-0.08184,-0.0031049999999999,0.0022299999999999,0.08184,0.003105,-0.00223,-0.2033499999999999,-0.225025,-0.32735,0.13202,-0.227415,-0.34477,-0.18416,-0.616675,-0.242763,0.1527,-0.630375,-0.27895,1
198,-0.038343,0.6851100000000001,-0.326785,-0.1800189999999999,0.49523,-0.234977,-0.426359,0.53564,-0.411325,0.141891,0.51848,-0.254205,0.358441,0.56551,-0.430785,-0.438129,0.72251,-0.580445,0.356961,0.7666,-0.582245,-0.081581,-0.0027299999999999,0.0027349999999999,0.081581,0.00273,-0.0027349999999999,-0.201169,-0.2336199999999999,-0.320965,0.132351,-0.2365199999999999,-0.338495,-0.1843489999999999,-0.6275499999999999,-0.241733,0.153441,-0.6403,-0.274905,1
199,-0.035924,0.69108,-0.319465,-0.179191,0.4984699999999999,-0.229391,-0.4258309999999999,0.54118,-0.405575,0.144089,0.52179,-0.248705,0.361069,0.5708,-0.424385,-0.4366509999999999,0.72953,-0.572655,0.359709,0.7740199999999999,-0.5724549999999999,-0.081149,-0.00234,0.0030449999999999,0.081149,0.00234,-0.003045,-0.199031,-0.2414799999999999,-0.314955,0.132739,-0.24539,-0.331835,-0.184421,-0.63785,-0.239817,0.153579,-0.6493800000000001,-0.270495,1
200,-0.033489,0.69566,-0.3120549999999999,-0.178451,0.5025799999999999,-0.223635,-0.425291,0.54687,-0.399925,0.146249,0.5262399999999999,-0.242975,0.363119,0.5755299999999999,-0.416845,-0.4351609999999999,0.7363899999999999,-0.565545,0.362249,0.7797,-0.562655,-0.080729,-0.00225,0.003345,0.080729,0.0022499999999999,-0.0033449999999999,-0.197121,-0.24909,-0.308915,0.133049,-0.2539600000000001,-0.324835,-0.184131,-0.64837,-0.236582,0.153749,-0.65822,-0.265935,1
201,-0.0311704999999999,0.70211,-0.3046649999999999,-0.1777745,0.5076,-0.218045,-0.4249545,0.5530200000000001,-0.394655,0.1478955,0.52675,-0.2371329999999999,0.3658855,0.58196,-0.409695,-0.4338045,0.7439199999999999,-0.558845,0.3643254999999999,0.7867599999999999,-0.553125,-0.0805545,-0.0016299999999999,0.0036049999999999,0.0805545,0.0016299999999999,-0.0036049999999999,-0.1957345,-0.25475,-0.303415,0.1332855,-0.26142,-0.318395,-0.1840544999999999,-0.6566700000000001,-0.23317,0.1537355,-0.66604,-0.261145,1
202,-0.0288755,0.706725,-0.2970049999999999,-0.1764794999999999,0.511135,-0.2124049999999999,-0.4243495,0.5591550000000001,-0.389275,0.1495605,0.528185,-0.2309939999999999,0.3680605,0.586445,-0.401735,-0.4325495,0.751545,-0.5522050000000001,0.3663305,0.792695,-0.5438350000000001,-0.0803455,-0.0012149999999999,0.003875,0.0803455,0.0012149999999999,-0.0038749999999999,-0.1944395,-0.261005,-0.297285,0.1341705,-0.269515,-0.311465,-0.1837794999999999,-0.664465,-0.2297219999999999,0.1542705,-0.674295,-0.257725,1
203,-0.026589,0.711595,-0.28964,-0.175276,0.513585,-0.206799,-0.4239159999999999,0.564265,-0.3843799999999999,0.1510439999999999,0.531045,-0.225219,0.369874,0.590535,-0.39334,-0.431436,0.757815,-0.54583,0.368394,0.796995,-0.53449,-0.080194,-0.000975,0.0041899999999999,0.080194,0.000975,-0.0041899999999999,-0.193246,-0.267655,-0.29041,0.134964,-0.2772949999999999,-0.30454,-0.183466,-0.6715949999999999,-0.22568,0.154834,-0.682325,-0.25437,1
204,-0.024156,0.71522,-0.28167,-0.174012,0.51595,-0.201104,-0.423172,0.56936,-0.37941,0.152728,0.5341400000000001,-0.219771,0.3714079999999999,0.5955,-0.3848199999999999,-0.430282,0.76398,-0.53947,0.370388,0.8038,-0.52402,-0.080035,-0.0008499999999999,0.00437,0.080035,0.0008499999999999,-0.0043699999999999,-0.191972,-0.27399,-0.2832,0.135618,-0.28496,-0.29754,-0.183322,-0.67844,-0.222104,0.155508,-0.69023,-0.25209,1
205,-0.0216239999999999,0.718385,-0.273235,-0.173194,0.518375,-0.195622,-0.422364,0.5745549999999999,-0.374585,0.154466,0.535685,-0.214497,0.3728559999999999,0.599245,-0.376525,-0.429094,0.769775,-0.533775,0.372276,0.809015,-0.513595,-0.079805,-0.0006049999999999,0.004405,0.079805,0.0006049999999999,-0.004405,-0.1905839999999999,-0.280975,-0.275685,0.136336,-0.290945,-0.290675,-0.1832539999999999,-0.685855,-0.218106,0.1557359999999999,-0.696645,-0.247755,1
206,-0.0189705,0.7210000000000001,-0.26467,-0.1724785,0.52144,-0.190357,-0.4214684999999999,0.57968,-0.36958,0.1562615,0.53702,-0.209359,0.3744415,0.6027199999999999,-0.36832,-0.4278384999999999,0.7757400000000001,-0.52811,0.3740215,0.81369,-0.5043300000000001,-0.0795205,-0.0002599999999999,0.0043699999999999,0.0795205,0.00026,-0.0043699999999999,-0.1891885,-0.2878,-0.26817,0.1371215,-0.29663,-0.28348,-0.1830785,-0.6931700000000001,-0.213692,0.1558915,-0.7028099999999999,-0.24201,1
207,-0.016365,0.72272,-0.256415,-0.171779,0.5227299999999999,-0.185451,-0.420269,0.58419,-0.364345,0.158161,0.53913,-0.204065,0.376071,0.60483,-0.359665,-0.426589,0.78074,-0.522375,0.375811,0.81657,-0.494715,-0.079106,4.000000000001225e-05,0.004205,0.079106,-4.000000000001225e-05,-0.004205,-0.187629,-0.29462,-0.260005,0.1378909999999999,-0.30212,-0.276675,-0.182559,-0.7005600000000001,-0.208941,0.156171,-0.70872,-0.236145,1
208,-0.0140489999999999,0.723445,-0.24788,-0.17123,0.5247850000000001,-0.180435,-0.41883,0.588335,-0.35927,0.15971,0.540945,-0.199134,0.37772,0.606095,-0.35072,-0.42554,0.785225,-0.51692,0.3776899999999999,0.8181149999999999,-0.48678,-0.078789,0.000225,0.0039599999999999,0.078789,-0.000225,-0.00396,-0.18613,-0.301385,-0.2516,0.1385,-0.307235,-0.26975,-0.18197,-0.707895,-0.204059,0.15621,-0.714535,-0.22967,1
209,-0.0117395,0.723725,-0.23953,-0.1704345,0.526065,-0.175541,-0.4172945,0.592945,-0.35406,0.1613455,0.543365,-0.194343,0.3792454999999999,0.607665,-0.34277,-0.4246345,0.790125,-0.51094,0.3795754999999999,0.820385,-0.4788,-0.0784914999999999,0.0002949999999999,0.0036999999999999,0.0784914999999999,-0.000295,-0.0036999999999999,-0.1845544999999999,-0.307915,-0.24304,0.1390555,-0.312155,-0.26256,-0.1811545,-0.715015,-0.199065,0.1562255,-0.719955,-0.22289,1
210,-0.0093675,0.7256800000000001,-0.2312449999999999,-0.1692495,0.52832,-0.17099,-0.4157795,0.59758,-0.349435,0.1629605,0.5450999999999999,-0.189602,0.3805905,0.60856,-0.335105,-0.4236895,0.79504,-0.5051950000000001,0.3815405,0.82169,-0.471065,-0.0781574999999999,0.0005,0.003515,0.0781574999999999,-0.0005,-0.003515,-0.1828695,-0.3142,-0.2342449999999999,0.1396105,-0.32161,-0.255145,-0.1802695,-0.7217800000000001,-0.19383,0.1561605,-0.72841,-0.216175,1
211,-0.0072999999999999,0.727835,-0.2236375,-0.16843,0.531245,-0.1665985,-0.41479,0.602725,-0.3448075,0.16449,0.547185,-0.1852425,0.38087,0.610525,-0.3281874999999999,-0.4229099999999999,0.800915,-0.4994475,0.3833,0.823765,-0.4634375,-0.0776969999999999,0.0007449999999999,0.0033624999999999,0.0776969999999999,-0.0007449999999999,-0.0033625,-0.18124,-0.319975,-0.2256775,0.14014,-0.329845,-0.2477475,-0.17953,-0.728165,-0.1889515,0.15685,-0.735895,-0.2121775,1
