sb224sc-HT22-VT27/4dt907/src/ml-research/a11/datafiles/labeled_files/A84_kinect_mirrored.csv
FrameNo,nose_3d_x,nose_3d_y,nose_3d_z,left_shoulder_3d_x,left_shoulder_3d_y,left_shoulder_3d_z,left_elbow_3d_x,left_elbow_3d_y,left_elbow_3d_z,right_shoulder_3d_x,right_shoulder_3d_y,right_shoulder_3d_z,right_elbow_3d_x,right_elbow_3d_y,right_elbow_3d_z,left_wrist_3d_x,left_wrist_3d_y,left_wrist_3d_z,right_wrist_3d_x,right_wrist_3d_y,right_wrist_3d_z,left_hip_3d_x,left_hip_3d_y,left_hip_3d_z,right_hip_3d_x,right_hip_3d_y,right_hip_3d_z,left_knee_3d_x,left_knee_3d_y,left_knee_3d_z,right_knee_3d_x,right_knee_3d_y,right_knee_3d_z,left_ankle_3d_x,left_ankle_3d_y,left_ankle_3d_z,right_ankle_3d_x,right_ankle_3d_y,right_ankle_3d_z,activity_label
0,1.010167,0.788252,0.1266425,0.825394,0.566572,0.0974575,0.7394240000000001,0.8214819999999999,0.0471705,1.165034,0.574212,0.0935585,1.239714,0.829492,0.0312015,0.712854,1.064232,-0.0290124999999999,1.244744,1.113132,-0.0157485,0.918473,-0.001836,-0.0007915,1.081527,0.001836,0.0007915,0.878154,-0.496118,0.0180885,1.114424,-0.456878,-0.0128254999999999,0.872124,-0.880868,0.0252755,1.093742,-0.866828,0.0126725,0
1,1.009857,0.7868235,0.126223,0.825521,0.5669135,0.097429,0.7391909999999999,0.8217435,0.047635,1.166251,0.5753834999999999,0.093828,1.239841,0.8289135,0.030826,0.712611,1.0643735,-0.028467,1.246101,1.1123735,-0.016963,0.918388,-0.0020695,-0.0007769999999999,1.081612,0.0020695,0.0007769999999999,0.878301,-0.4950865,0.018052,1.114541,-0.4517365,-0.014072,0.8733210000000001,-0.8827265000000001,0.025567,1.093919,-0.8665565000000001,0.012659,1
2,1.0098035,0.7869785,0.1264965,0.8254064999999999,0.5671085,0.0975584999999999,0.7389665000000001,0.8217285000000001,0.0477934999999999,1.1667865,0.5755485,0.0939474999999999,1.2412165,0.8433885,0.0239374999999999,0.7118865,1.0630185,-0.0278744999999999,1.2483465,1.1269185,-0.0221574999999999,0.9183635,-0.0021595,-0.0009475,1.0816365,0.0021595,0.0009474999999999,0.8781365,-0.4956015,0.0179734999999999,1.1144865,-0.4514415,-0.0140915,0.8733365,-0.8826014999999999,0.0257134999999999,1.0940985,-0.8666915,0.0126414999999999,1
3,1.0086275,0.790521,0.1267565,0.8252915000000001,0.566991,0.0976185,0.7387315,0.821691,0.0479755,1.1676215,0.575481,0.0939245,1.2416415,0.847501,0.0223085,0.7111615,1.062461,-0.0272985,1.2494915,1.130961,-0.0244075,0.9184185,-0.002029,-0.0009204999999999,1.0815815,0.002029,0.0009204999999999,0.8778015,-0.493979,0.0176565,1.1147315,-0.448499,-0.0152115,0.8729015,-0.883389,0.0247115,1.0936365,-0.866019,0.0129715,1
4,1.008498,0.7918975,0.126478,0.825334,0.5671275,0.097707,0.738604,0.8213075000000001,0.048506,1.1682739999999998,0.5752075000000001,0.093734,1.241424,0.8473675,0.021588,0.710754,1.0624075,-0.0268289999999999,1.250164,1.1307075,-0.025476,0.918414,-0.0019375,-0.0008549999999999,1.081586,0.0019375,0.000855,0.878244,-0.4946725,0.017539,1.114644,-0.4470525,-0.015665,0.872694,-0.8836025,0.024105,1.093751,-0.8658925,0.013147,1
5,1.008954,0.7909864999999999,0.1265555,0.82556,0.5672864999999999,0.0976005,0.73864,0.8214265,0.0483765,1.16869,0.5753465,0.0936525,1.24181,0.8474765,0.0213175,0.71048,1.0615665,-0.0264585,1.25087,1.1307665,-0.0262325,0.918465,-0.0019524999999999,-0.0008654999999999,1.081535,0.0019525,0.0008654999999999,0.87824,-0.4907034999999999,0.0170795,1.1151,-0.4482935,-0.0158735,0.87259,-0.8814335000000001,0.0238355,1.093278,-0.8643135000000001,0.0146765,1
6,1.0090155,0.791441,0.1263754999999999,0.8256705,0.567791,0.0973594999999999,0.7386105000000001,0.822171,0.0484384999999999,1.1692005,0.575881,0.0935955,1.2416505,0.847981,0.0201934999999999,0.7099305,1.061891,-0.0263585,1.2513505,1.131191,-0.0279655,0.9185235,-0.001407,-0.0010645,1.0814765,0.001407,0.0010644999999999,0.8783505,-0.490449,0.0169334999999999,1.1147405,-0.445919,-0.0166045,0.8722505,-0.879729,0.0235024999999999,1.0933955,-0.863759,0.0143734999999999,1
7,1.0073265,0.7898474999999999,0.126934,0.8246355000000001,0.5674275,0.097956,0.7367455,0.8219375,0.049212,1.1675655,0.5761175,0.093728,1.2394855,0.8457275,0.02017,0.7080755000000001,1.0614075,-0.0251809999999999,1.2475855,1.1287075,-0.0292329999999999,0.9184425,-0.0018114999999999,-0.0007789999999999,1.0815575,0.0018115,0.000779,0.8789855,-0.4926025,0.016493,1.1156155,-0.4480725,-0.016824,0.8743255,-0.8826825,0.024067,1.0953985,-0.8638325,0.012714,1
8,1.0069055,0.789796,0.126946,0.8246525,0.568026,0.098089,0.7362325000000001,0.821916,0.049488,1.1676125,0.5764360000000001,0.093713,1.2392625,0.846896,0.019704,0.7073625,1.061196,-0.0248339999999999,1.2475525,1.129896,-0.030458,0.9184475,-0.001827,-0.0007539999999999,1.0815525,0.0018269999999999,0.000754,0.8791625,-0.491914,0.0162,1.1158425,-0.446554,-0.0171399999999999,0.8747024999999999,-0.882744,0.023779,1.0956985,-0.8633839999999999,0.012671,1
9,1.0064605,0.7899235,0.1269775,0.8246625,0.5685235,0.0982375,0.7357325,0.8218935,0.0497275,1.1676125,0.5766435,0.0936765,1.2390225,0.8481535,0.0190835,0.7066825,1.0608735,-0.0245445,1.2473925,1.1311735,-0.0316055,0.9184475,-0.0018535,-0.0007414999999999,1.0815525,0.0018535,0.0007414999999999,0.8793625,-0.4913165,0.0158425,1.1160625,-0.4454365,-0.0175125,0.8749825,-0.8828765,0.0234874999999999,1.0959925,-0.8628965,0.0126375,1
10,1.0060155,0.79003,0.1269855,0.8246614999999999,0.56888,0.0983845,0.7352415,0.82187,0.0499435,1.1676615,0.57699,0.0936305,1.2385914999999998,0.84881,0.0182995,0.7060315000000001,1.0607399999999998,-0.0243325,1.2470015,1.13174,-0.0328065,0.9184495,-0.0018899999999999,-0.0007165,1.0815505,0.00189,0.0007165,0.8795915,-0.49091,0.0155644999999999,1.1162815,-0.4449,-0.0177475,0.8753015,-0.88284,0.0232595,1.0962705,-0.86232,0.0125715,1
11,1.0055744999999998,0.7896765,0.1269745,0.8246315,0.5691065,0.0986985,0.7347715,0.8217965,0.0500834999999999,1.1675615,0.5772265,0.0935805,1.2381415,0.8489165,0.0174774999999999,0.7054515,1.0604565,-0.0242225,1.2465015,1.1317564999999998,-0.0339855,0.9184505,-0.0019895,-0.0006995,1.0815495,0.0019895,0.0006994999999999,0.8798414999999999,-0.4907135,0.0152904999999999,1.1165115,-0.4446235,-0.0179155,0.8756615000000001,-0.8828335,0.0230864999999999,1.0965935,-0.8616235,0.0124764999999999,1
12,1.005145,0.789304,0.126985,0.824566,0.5693039999999999,0.098991,0.734356,0.8217139999999999,0.050161,1.167496,0.577564,0.093539,1.237746,0.8491339999999999,0.016578,0.704886,1.060164,-0.0242069999999999,1.245956,1.131964,-0.035146,0.918454,-0.0020759999999999,-0.0006979999999999,1.081546,0.002076,0.000698,0.880066,-0.490486,0.014988,1.116766,-0.4442959999999999,-0.0180579999999999,0.876086,-0.882876,0.023008,1.096867,-0.861006,0.012367,1
13,1.0049725,0.7887970000000001,0.1269615,0.8244295,0.569007,0.0991124999999999,0.7342195,0.821677,0.0501665,1.1673995,0.5776070000000001,0.0934985,1.2375895,0.8491770000000001,0.0156345,0.7046495000000002,1.060017,-0.0241975,1.2456395,1.132017,-0.0363745,0.9184545,-0.0021069999999999,-0.0006965,1.0815454999999998,0.002107,0.0006965,0.8802495000000001,-0.490873,0.0147015,1.1168295,-0.444523,-0.0181754999999999,0.8761795,-0.8828229999999999,0.0229635,1.0968855,-0.861053,0.0122204999999999,1
14,1.00479,0.7885614999999999,0.1269485,0.8242610000000001,0.5687614999999999,0.0991915,0.734051,0.8216614999999999,0.0501925,1.167271,0.5776414999999999,0.0934365,1.237431,0.8492215,0.0147255,0.704351,1.0598815,-0.0241664999999999,1.245351,1.1319815,-0.0374855,0.918454,-0.0021414999999999,-0.0006774999999999,1.081546,0.0021415,0.0006774999999999,0.880431,-0.4912684999999999,0.0145665,1.116871,-0.4445085,-0.0182905,0.8762710000000001,-0.8827885000000001,0.0230295,1.09704,-0.8609885,0.0120825,1
15,1.0046555,0.788549,0.126865,0.8240795000000001,0.568639,0.099272,0.7338595,0.821639,0.0502349999999999,1.1670895,0.577689,0.093358,1.2372595,0.849259,0.0138429999999999,0.7040095,1.059759,-0.024201,1.2450895,1.131959,-0.038531,0.9184605,-0.0021609999999999,-0.000676,1.0815395,0.0021609999999999,0.0006759999999999,0.8805495,-0.491221,0.0144629999999999,1.1169095,-0.4444309999999999,-0.0184,0.8763295,-0.8827309999999999,0.0230589999999999,1.0971565,-0.860951,0.0120129999999999,1
16,1.0045615,0.7885270000000001,0.126644,0.8242255,0.568967,0.099317,0.7337755,0.821617,0.050133,1.1670155,0.577847,0.093208,1.2371455,0.849257,0.012946,0.7038655,1.059737,-0.0245759999999999,1.2449655,1.131937,-0.039497,0.9184635,-0.0021829999999999,-0.0006789999999999,1.0815365,0.002183,0.0006789999999999,0.8806555000000001,-0.491453,0.014483,1.1168355,-0.444033,-0.0183879999999999,0.8762455000000001,-0.8827429999999999,0.023113,1.0970685,-0.8607929999999999,0.011971,1
17,1.0044335,0.788486,0.12635,0.8243415000000001,0.569406,0.09937,0.7336515,0.821576,0.050009,1.1668815,0.5780259999999999,0.0931,1.2369915,0.849276,0.012093,0.7037015,1.059696,-0.024985,1.2448115,1.131996,-0.0404379999999999,0.9184605,-0.002224,-0.000694,1.0815395,0.0022239999999999,0.000694,0.8807715,-0.492134,0.014449,1.1167315,-0.443654,-0.0183289999999999,0.8761115000000002,-0.882754,0.023182,1.0969445,-0.860584,0.011949,1
18,1.0042985,0.78845,0.126131,0.8244265,0.56992,0.099413,0.7335165,0.8215499999999999,0.049857,1.1666565,0.5782299999999999,0.0929929999999999,1.2368565,0.8493299999999999,0.0114509999999999,0.7035564999999999,1.05966,-0.025469,1.2446465,1.13196,-0.041496,0.9184605,-0.00226,-0.000726,1.0815395,0.00226,0.0007259999999999,0.8808365000000001,-0.49249,0.0144339999999999,1.1166165,-0.44325,-0.018282,0.8759865000000001,-0.8827900000000001,0.023242,1.0967985,-0.86038,0.0119259999999999,1
19,1.004284,0.788311,0.1257815,0.824485,0.570221,0.0994085,0.7334150000000002,0.821751,0.0494735,1.166465,0.578351,0.0928045,1.236805,0.849271,0.0108225,0.703395,1.059421,-0.0260254999999999,1.244655,1.131821,-0.0426434999999999,0.918451,-0.00229,-0.0007594999999999,1.081549,0.00229,0.0007595,0.880885,-0.493079,0.0144835,1.116505,-0.442829,-0.0182484999999999,0.875835,-0.8825590000000001,0.0234725,1.096578,-0.860089,0.0119385,1
20,1.0042435,0.7883195,0.125368,0.8244225000000001,0.5703295,0.09941,0.7333225,0.8218795,0.04907,1.1664325,0.5783395,0.092596,1.2367725,0.8492495,0.010282,0.7032225,1.0591695,-0.026599,1.2447525,1.1316695,-0.043707,0.9184225,-0.0023085,-0.000785,1.0815775,0.0023085,0.000785,0.8809325000000001,-0.4935705,0.014548,1.1163725,-0.4424205,-0.0182039999999999,0.8756525,-0.8822905,0.02367,1.0963315,-0.8598205,0.011949,1
21,1.0042445,0.7881589999999999,0.124917,0.8243455,0.570439,0.099393,0.7332655,0.822049,0.0486059999999999,1.1663855,0.578319,0.092286,1.2367855,0.8491989999999999,0.009839,0.7030655,1.059039,-0.0272349999999999,1.2449455,1.131439,-0.04486,0.9183945,-0.002314,-0.000808,1.0816055,0.002314,0.000808,0.8810155000000001,-0.494271,0.014667,1.1162455,-0.442131,-0.018026,0.8754255,-0.8819210000000001,0.023853,1.0961015,-0.859531,0.011939,1
22,1.0042575,0.78799,0.1244365,0.8242615,0.5705,0.0993525,0.7332115,0.8222700000000001,0.0481135,1.1663415,0.57825,0.0919615,1.2367715,0.84909,0.0094795,0.7029015000000001,1.05892,-0.0278754999999999,1.2451415,1.13122,-0.0459824999999999,0.9183665,-0.0023239999999999,-0.0008204999999999,1.0816335,0.0023239999999999,0.0008205,0.8810115000000001,-0.49476,0.0148055,1.1161315,-0.44185,-0.0179384999999999,0.8751415000000001,-0.88164,0.0239865,1.0958905,-0.8593,0.0119155,1
23,1.004263,0.7878769999999999,0.1239575,0.824036,0.570267,0.0991165,0.7331559999999999,0.822527,0.0476155,1.166306,0.578117,0.0916685,1.236736,0.848927,0.0090315,0.702736,1.058737,-0.0285295,1.245346,1.131037,-0.0471204999999999,0.918341,-0.002353,-0.0008224999999999,1.081659,0.0023529999999999,0.0008225,0.881006,-0.4951129999999999,0.0149405,1.115986,-0.4415929999999999,-0.0178634999999999,0.874806,-0.8813730000000001,0.0241325,1.095675,-0.859193,0.0119045,1
24,1.004292,0.7877505,0.1234685,0.8238440000000001,0.5700705,0.0988925,0.733104,0.8227705000000001,0.0471175,1.166304,0.5779505,0.0913705,1.236734,0.8487305,0.0086284999999999,0.702534,1.0586405,-0.0291625,1.245604,1.1308405,-0.0482125,0.918308,-0.0023735,-0.0008164999999999,1.081692,0.0023735,0.0008164999999999,0.880964,-0.4953094999999999,0.0150525,1.115834,-0.4414295,-0.0178014999999999,0.874534,-0.8810494999999999,0.0241935,1.095426,-0.8592295,0.0118795,1
25,1.004314,0.787624,0.1230304999999999,0.8236559999999999,0.5700040000000001,0.0986855,0.733066,0.8230040000000001,0.0466055,1.166326,0.577824,0.0911455,1.236756,0.848574,0.0082245,0.702376,1.058534,-0.0298175,1.245896,1.130534,-0.0493314999999999,0.918279,-0.002382,-0.0008055,1.081721,0.002382,0.0008055,0.880966,-0.495556,0.0151085,1.1156659999999998,-0.440986,-0.0177845,0.8742160000000001,-0.880786,0.0242825,1.095171,-0.859266,0.0118275,1
26,1.004355,0.787472,0.122669,0.823508,0.570002,0.098525,0.733078,0.823142,0.0461119999999999,1.166448,0.577672,0.0909649999999999,1.236828,0.8484119999999999,0.0078129999999999,0.702248,1.058232,-0.030477,1.246248,1.130332,-0.050368,0.918253,-0.002385,-0.000805,1.081747,0.0023849999999999,0.0008049999999999,0.880958,-0.496008,0.0151909999999999,1.115548,-0.441188,-0.017781,0.873928,-0.880488,0.0243049999999999,1.094781,-0.859478,0.0117719999999999,1
27,1.004436,0.787495,0.122633,0.823413,0.569985,0.098529,0.7330829999999999,0.823145,0.045778,1.166573,0.577665,0.09096,1.236913,0.848375,0.007606,0.7021030000000001,1.058155,-0.0310939999999999,1.246643,1.130155,-0.051243,0.918231,-0.002397,-0.0008039999999999,1.081769,0.002397,0.0008039999999999,0.880973,-0.496365,0.0153429999999999,1.115443,-0.441165,-0.017777,0.873623,-0.880465,0.024316,1.094481,-0.859455,0.011716,1
28,1.00437,0.7875129999999999,0.1226065,0.823347,0.5699529999999999,0.0985024999999999,0.733007,0.823163,0.0456065,1.166817,0.5776629999999999,0.0909225,1.236977,0.848343,0.0075445,0.702017,1.058173,-0.0316355,1.246907,1.130073,-0.0519265,0.918224,-0.0024029999999999,-0.0007834999999999,1.081776,0.0024029999999999,0.0007834999999999,0.8810169999999999,-0.497477,0.0154635,1.115377,-0.441147,-0.0177845,0.873507,-0.880487,0.0242915,1.094411,-0.859437,0.0115735,1
29,1.004294,0.787503,0.122555,0.823271,0.569973,0.098454,0.732931,0.823203,0.045414,1.167141,0.577663,0.090858,1.237031,0.848353,0.007461,0.701901,1.058213,-0.032185,1.247131,1.1300130000000002,-0.052563,0.918221,-0.0024139999999999,-0.000771,1.0817789999999998,0.002414,0.000771,0.8810610000000001,-0.498567,0.015622,1.115301,-0.441677,-0.0177529999999999,0.8734110000000002,-0.880447,0.02419,1.094312,-0.859557,0.011387,1
30,1.0041755,0.787272,0.1223965,0.8231625000000001,0.5700219999999999,0.0983525,0.7328125000000001,0.823222,0.0451705,1.1675525,0.5777519999999999,0.0909105,1.2371125,0.848382,0.0072735,0.7017125,1.058162,-0.0328544999999999,1.2473425,1.129862,-0.0530905,0.9182025,-0.002333,-0.0008234999999999,1.0817975,0.002333,0.0008235,0.8810025,-0.499628,0.0156225,1.1151825,-0.441428,-0.0178115,0.8732825000000001,-0.880138,0.0235655,1.0941635,-0.859388,0.0109185,1
31,1.0039954999999998,0.7871505,0.1223005,0.8229664999999999,0.5700405000000001,0.0982935,0.7325865,0.8230005,0.0448805,1.1679065,0.5780105,0.0910064999999999,1.2371665,0.8486305000000001,0.0070484999999999,0.7011965,1.0579705,-0.0335605,1.2474865,1.1300705,-0.0536055,0.9181775,-0.0023195,-0.0008975,1.0818225,0.0023194999999999,0.0008975,0.8809965,-0.4992594999999999,0.0155205,1.1150865,-0.4411695,-0.0179275,0.8731065,-0.8796295,0.0229175,1.0940105,-0.8592295,0.0104025,1
32,1.0038129999999998,0.7870815,0.1222709999999999,0.822778,0.5700715,0.0982099999999999,0.7323379999999999,0.8227715,0.044564,1.168308,0.5782415,0.091113,1.237218,0.8488515,0.0068009999999999,0.7006479999999999,1.0578615,-0.034248,1.247558,1.1302615,-0.05405,0.918146,-0.0023055,-0.000991,1.081854,0.0023055,0.0009909999999999,0.880878,-0.4982985,0.0152819999999999,1.114948,-0.4411185,-0.018058,0.872918,-0.8791485,0.0222749999999999,1.093823,-0.8592885,0.0094939999999999,1
33,1.0035919999999998,0.7871210000000001,0.122253,0.822562,0.570131,0.098095,0.732032,0.823621,0.044195,1.168662,0.5785210000000001,0.091347,1.237212,0.849101,0.006464,0.700032,1.0576709999999998,-0.0349639999999999,1.247512,1.130471,-0.054537,0.918101,-0.0022839999999999,-0.0011199999999999,1.081899,0.0022839999999999,0.00112,0.880742,-0.4978089999999999,0.014993,1.114772,-0.441169,-0.0183429999999999,0.872692,-0.878649,0.021656,1.093612,-0.859359,0.0086299999999999,1
34,1.0033785,0.7872414999999999,0.122268,0.8223595,0.5701915,0.097929,0.7317195000000001,0.8241514999999999,0.043767,1.1689495,0.5788015,0.091539,1.2371795,0.8493715,0.0060199999999999,0.6994095,1.0574915,-0.03566,1.2474095,1.1306915,-0.0551249999999999,0.9180535,-0.0022435,-0.0012519999999999,1.0819465,0.0022435,0.001252,0.8806495,-0.4974184999999999,0.014642,1.1145995,-0.4417985,-0.018691,0.8724695,-0.8781185,0.020978,1.0934105,-0.8594285,0.007657,1
35,1.0031415,0.7875005,0.1222964999999999,0.8221594999999999,0.5702605,0.0977664999999999,0.7313895,0.8246505,0.0432804999999999,1.1691995,0.5791005,0.0917145,1.2371195,0.8496405,0.0055544999999999,0.6987995,1.0573205,-0.0363785,1.2472195,1.1310205000000002,-0.0557575,0.9180105,-0.0022045,-0.0013715,1.0819895,0.0022045,0.0013714999999999,0.8805495,-0.4969495,0.0141434999999999,1.1144195,-0.4426695,-0.0189935,0.8722695,-0.8774995,0.0202824999999999,1.0931905,-0.8595395,0.0069904999999999,1
36,1.0028674999999998,0.78793,0.122222,0.8219555000000001,0.57032,0.097486,0.7307954999999999,0.82491,0.04229,1.1693555,0.5794100000000001,0.091782,1.2370255,0.8499300000000001,0.00495,0.6982155,1.05726,-0.0372519999999999,1.2470255,1.13126,-0.056534,0.9179335,-0.002166,-0.0014959999999999,1.0820665,0.0021659999999999,0.001496,0.8804355,-0.49616,0.013493,1.1142255,-0.4434,-0.0194719999999999,0.8720955,-0.8769,0.019466,1.0929395,-0.85958,0.005948,1
37,1.0026054999999998,0.7884899999999999,0.1218984999999999,0.8217805,0.57041,0.0971495,0.7301905,0.8251299999999999,0.0412344999999999,1.1694405,0.57977,0.0917485,1.2368705,0.8502599999999999,0.0043254999999999,0.6976805000000001,1.05722,-0.0382345,1.2468305,1.1316199999999998,-0.0574325,0.9178445,-0.002131,-0.0016425,1.0821554999999998,0.0021309999999999,0.0016424999999999,0.8802705,-0.4949999999999999,0.0127534999999999,1.1140405,-0.4443499999999999,-0.0200035,0.8719405,-0.87627,0.0185664999999999,1.0925675,-0.85968,0.0051644999999999,1
38,1.00236,0.7891039999999999,0.1213545,0.8216730000000001,0.570534,0.0967185,0.729653,0.826114,0.0400765,1.169533,0.580154,0.0916095,1.236753,0.850594,0.0036015,0.697283,1.057214,-0.0393964999999999,1.246683,1.131814,-0.0587065,0.917755,-0.002072,-0.0017635,1.082245,0.0020719999999999,0.0017635,0.880223,-0.493646,0.0118745,1.113913,-0.4443359999999999,-0.0206305,0.871873,-0.875626,0.0176615,1.092145,-0.8597060000000001,0.0040655,1
39,1.0021004999999998,0.789216,0.1207005,0.8215815,0.570666,0.0960584999999999,0.7291515,0.825886,0.0387285,1.1694515,0.580256,0.0909494999999999,1.2366515,0.850526,0.0024194999999999,0.6969715000000001,1.0571160000000002,-0.0410455,1.2464115,1.131516,-0.0612184999999999,0.9176975,-0.002041,-0.0017875,1.0823025,0.002041,0.0017874999999999,0.8801815,-0.493564,0.0107475,1.1137415,-0.445744,-0.0214925,0.8718515,-0.875534,0.0169264999999999,1.0917305,-0.860284,0.0030965,1
40,1.001849,0.7893985,0.11999,0.821528,0.5708885,0.09534,0.728668,0.8257685,0.037182,1.169398,0.5804185000000001,0.090231,1.236568,0.8504085,0.000826,0.696638,1.0570385,-0.0430679999999999,1.246028,1.1311384999999998,-0.064205,0.917671,-0.0020165,-0.0018009999999999,1.082329,0.0020165,0.001801,0.880068,-0.4928515,0.009219,1.113568,-0.4461515,-0.022527,0.8718580000000001,-0.8757415,0.016205,1.091266,-0.8609915,0.0021089999999999,1
41,1.0015885,0.7893985,0.1191745,0.8215065,0.5708885,0.0945155,0.7280965000000001,0.8257685,0.0347935,1.1693765,0.5804185000000001,0.0894065,1.2364865,0.8504085,-0.0011985,0.6963165,1.0569385,-0.0456765,1.2457065,1.1310384999999998,-0.0679195,0.9176575,-0.0020165,-0.0017085,1.0823425,0.0020165,0.0017084999999999,0.8800065,-0.4928515,0.0074814999999999,1.1133665,-0.4445615,-0.0238945,0.8719165,-0.8757415,0.0153774999999999,1.0908135,-0.8609915,0.0012864999999999,1
42,1.001333,0.7898900000000001,0.1177325,0.821524,0.57088,0.0936035,0.727544,0.8266800000000001,0.0321085,1.169304,0.58045,0.0885374999999999,1.236324,0.8504400000000001,-0.0038044999999999,0.696034,1.05663,-0.0486505,1.245424,1.13063,-0.0725405,0.917613,-0.002025,-0.0015874999999999,1.082387,0.0020249999999999,0.0015874999999999,0.879934,-0.49121,0.0055995,1.113144,-0.44322,-0.0259715,0.8720140000000001,-0.8753599999999999,0.0146715,1.090362,-0.861,0.0004294999999999,1
43,1.0010385,0.7903235000000001,0.116088,0.8216635,0.5709535,0.092624,0.7270135000000001,0.8275635,0.029178,1.1692235,0.5805235000000001,0.08757,1.2362235,0.8504735,-0.0066449999999999,0.6956635,1.0562235,-0.052047,1.2452035,1.1301235,-0.077489,0.9175355,-0.0020315,-0.0014749999999999,1.0824645,0.0020314999999999,0.0014749999999999,0.8798835,-0.4896865,0.0034949999999999,1.1129035,-0.4430365,-0.0284489999999999,0.8722035000000001,-0.8749165,0.013882,1.0899625,-0.8610065,-0.000481,1
44,1.000773,0.7910714999999999,0.1137765,0.821765,0.5715015,0.0912905,0.726485,0.8276815,0.0255975,1.169135,0.5807415,0.0862005,1.236105,0.8498614999999999,-0.0102044999999999,0.695165,1.0552315,-0.0564504999999999,1.245095,1.1289315000000002,-0.0835775,0.917423,-0.0019974999999999,-0.0013545,1.082577,0.0019974999999999,0.0013545,0.879835,-0.4896985,0.0013794999999999,1.112735,-0.4433485,-0.0310964999999999,0.872405,-0.8749285,0.0130615,1.089601,-0.8612985,-0.0011385,1
45,1.000564,0.7920205,0.1111225,0.821917,0.5722205,0.0898835,0.726307,0.8274005,0.0223104999999999,1.169147,0.5808205,0.0846855,1.236077,0.8491405,-0.0140285,0.694577,1.0544505,-0.0613285,1.245057,1.1278505,-0.0899245,0.917298,-0.0019015,-0.0012385,1.082702,0.0019015,0.0012384999999999,0.879817,-0.4893094999999999,-0.0010955,1.112637,-0.4429495,-0.0339615,0.872627,-0.8748095,0.0121724999999999,1.089338,-0.8615395,-0.0019155,1
46,1.000422,0.7923025,0.1079794999999999,0.822138,0.5729925,0.0882935,0.726218,0.8272825,0.0186964999999999,1.169178,0.5807825000000001,0.0828454999999999,1.236148,0.8485625,-0.0182795,0.693948,1.0537325,-0.0664685,1.245098,1.1268325,-0.0965685,0.917162,-0.0018344999999999,-0.0011895,1.082838,0.0018344999999999,0.0011894999999999,0.879768,-0.4888475,-0.0039825,1.112618,-0.4432975,-0.0371815,0.873038,-0.8744774999999999,0.0111404999999999,1.089255,-0.8615575,-0.0029165,1
47,1.0004685,0.7924519999999999,0.104382,0.8225315,0.5738719999999999,0.086588,0.7263115,0.827432,0.014674,1.1693815,0.5809019999999999,0.080711,1.2363815,0.848082,-0.0229339999999999,0.6929915,1.053182,-0.072731,1.2453515,1.125982,-0.1038309999999999,0.9169615,-0.001774,-0.001069,1.0830385,0.001774,0.001069,0.8798414999999999,-0.488238,-0.0074989999999999,1.1127515,-0.442548,-0.040933,0.8735715,-0.873908,0.010056,1.0894615,-0.8612580000000001,-0.003941,1
48,1.0006555,0.7926485,0.100662,0.8230855,0.5746785,0.084908,0.7265555,0.8269485,0.010401,1.1697455,0.5810385,0.078295,1.2368455,0.8476085,-0.027555,0.6920755000000001,1.0525785,-0.0791,1.2458555,1.1252785,-0.1103499999999999,0.9167745,-0.0017574999999999,-0.001,1.0832255,0.0017575,0.001,0.8799255,-0.4874115,-0.011109,1.1130955,-0.4424315,-0.0450389999999999,0.8742655,-0.8733015,0.009038,1.0898855,-0.8609715,-0.004878,1
49,1.000789,0.7928345,0.096144,0.82363,0.5752045,0.083089,0.72677,0.8262245,0.005757,1.17013,0.5810645,0.075459,1.23734,0.8469545,-0.032517,0.6912499999999999,1.0515645,-0.0860229999999999,1.24641,1.1241645,-0.117223,0.916557,-0.0017164999999999,-0.0008669999999999,1.083443,0.0017164999999999,0.000867,0.87986,-0.4866355,-0.0152749999999999,1.11345,-0.4414455,-0.049557,0.87503,-0.8728755,0.007982,1.090449,-0.8604455,-0.0057679999999999,1
50,1.0009595,0.792697,0.0912315,0.8244125000000001,0.575337,0.0811555,0.7271325,0.824987,0.0004944999999999,1.1704925,0.581037,0.0724855,1.2378625,0.846047,-0.0376284999999999,0.6904525,1.050317,-0.0934955,1.2471225,1.122817,-0.1240955,0.9163395,-0.0016919999999999,-0.0008564999999999,1.0836605,0.001692,0.0008564999999999,0.8797025,-0.4858629999999999,-0.0197905,1.1139125,-0.440453,-0.0542575,0.8758325000000001,-0.872603,0.0068914999999999,1.0910955,-0.860053,-0.0069155,1
51,1.0013775,0.7924074999999999,0.086433,0.8253295,0.5756775,0.079095,0.7276994999999999,0.8240274999999999,-0.0048349999999999,1.1711695,0.5809375,0.069168,1.2385495,0.8445374999999999,-0.043369,0.6898795,1.0490675,-0.1014189999999999,1.2481395,1.1208675,-0.131409,0.9161195,-0.0015165,-0.00083,1.0838805,0.0015165,0.0008299999999999,0.8796695000000001,-0.4849725,-0.02459,1.1146095,-0.4403424999999999,-0.058749,0.8767995000000001,-0.8721525,0.0058339999999999,1.0919735,-0.8595125,-0.00784,1
52,1.0018755,0.7916945,0.081295,0.8261404999999999,0.5762045,0.076914,0.7281105,0.8228945,-0.0106929999999999,1.1718305,0.5810345,0.066051,1.2392705,0.8426845,-0.049359,0.6893705,1.0474245,-0.110009,1.2492305,1.1183245000000002,-0.139369,0.9158735,-0.0013764999999999,-0.0008599999999999,1.0841265,0.0013764999999999,0.0008599999999999,0.8793805,-0.4835455000000001,-0.029762,1.1153505,-0.4402455,-0.063332,0.8777705000000001,-0.8716155,0.0048629999999999,1.0929295,-0.8581655,-0.0088749999999999,1
53,1.0025145,0.790922,0.076103,0.8272915000000001,0.576902,0.073757,0.7286315,0.821382,-0.016671,1.1724715,0.580722,0.06241,1.2401215,0.840992,-0.055537,0.6891214999999999,1.045942,-0.118386,1.2503515,1.114342,-0.148386,0.9156155,-0.0011299999999999,-0.000934,1.0843845,0.0011299999999999,0.000934,0.8791215,-0.481308,-0.035396,1.1161715,-0.439228,-0.068469,0.8788315,-0.8706280000000001,0.0037809999999999,1.0940005,-0.856998,-0.0096599999999999,1
54,1.003424,0.78986,0.0704315,0.828692,0.57826,0.0707585,0.7291720000000002,0.8200500000000001,-0.0237585,1.173302,0.5803900000000001,0.0579485,1.241032,0.8389800000000001,-0.0627535,0.6891520000000001,1.04427,-0.1279265,1.251612,1.1105699999999998,-0.1579465,0.915239,-0.000802,-0.0012104999999999,1.084761,0.000802,0.0012104999999999,0.878842,-0.4782099999999999,-0.0418105,1.117152,-0.43746,-0.0744065,0.880092,-0.8691099999999999,0.0026795,1.095193,-0.85517,-0.0106755,1
55,1.0043625,0.7885725,0.064535,0.8299255,0.5799124999999999,0.068009,0.7296755000000001,0.8187625,-0.031333,1.1739855,0.5795325,0.053319,1.2419055,0.8367325,-0.070176,0.6893755000000001,1.0429525000000002,-0.137791,1.2528755,1.1070525,-0.167411,0.9147835,-0.0004695,-0.001402,1.0852165,0.0004694999999999,0.001402,0.8784355000000001,-0.4744375,-0.048177,1.1181355,-0.4360475,-0.080371,0.8813055,-0.8666275,0.001612,1.0963675,-0.8526875,-0.011621,1
56,1.0052675,0.7874935000000001,0.05877,0.8313435,0.5796935000000001,0.06259,0.7300535,0.8186035,-0.03944,1.1745235,0.5787935000000001,0.048651,1.2426434999999998,0.8349535,-0.077429,0.6902135,1.0423235,-0.147359,1.2539935,1.1040235,-0.176639,0.9143225,-9.449999999999736e-05,-0.001548,1.0856775,9.450000000000083e-05,0.001548,0.8776035000000001,-0.4690965,-0.05462,1.1191435,-0.4344765,-0.086159,0.8823435,-0.8634765,0.000562,1.0974335,-0.8490865,-0.0126739999999999,1
57,1.0060935,0.7861445,0.052647,0.8326525,0.5797345,0.057144,0.7304825000000001,0.8185945,-0.0478959999999999,1.1750325,0.5780345,0.04377,1.2433425,0.8331845,-0.084857,0.6908825000000001,1.0417245,-0.157607,1.2550725,1.1014245,-0.186477,0.9138025,0.0002624999999999,-0.0016639999999999,1.0861975,-0.0002624999999999,0.0016639999999999,0.8765725,-0.4634755,-0.0611499999999999,1.1199925,-0.4324355,-0.091837,0.8832625000000001,-0.8600455,-0.0003359999999999,1.0983645,-0.8452054999999999,-0.013687,1
58,1.0069625,0.7853254999999999,0.047026,0.8340545,0.5797555000000001,0.051487,0.7310145,0.8191854999999999,-0.056336,1.1754845,0.5769755000000001,0.038997,1.2440345,0.8312455000000001,-0.091802,0.6916045,1.0415155,-0.167722,1.2562745,1.0988155000000002,-0.195712,0.9132325,0.0006995,-0.0017439999999999,1.0867675,-0.0006994999999999,0.0017439999999999,0.8755945,-0.4563844999999999,-0.06738,1.1208545,-0.4291845,-0.097392,0.8842045000000001,-0.8560645,-0.001534,1.0994405,-0.8407845,-0.014918,1
59,1.0077889999999998,0.7849675,0.0414495,0.835632,0.5790375,0.0450895,0.7317220000000001,0.8197175,-0.0641395,1.1759119999999998,0.5760475,0.0342165,1.244852,0.8293975,-0.0987855,0.692382,1.0410875,-0.1775655,1.257392,1.0939475,-0.2067455,0.912707,0.0010855,-0.0018075,1.087293,-0.0010855,0.0018075,0.874652,-0.4490524999999999,-0.0735605,1.121612,-0.4263225,-0.1033655,0.885092,-0.8517725,-0.0027725,1.100567,-0.8360225,-0.0162395,1
60,1.008397,0.784251,0.035448,0.8369949999999999,0.5780609999999999,0.038419,0.732235,0.8198510000000001,-0.072712,1.176085,0.5751409999999999,0.029568,1.245435,0.827521,-0.1061889999999999,0.693405,1.040221,-0.1880089999999999,1.258385,1.089881,-0.216949,0.912215,0.0013989999999999,-0.0017889999999999,1.087785,-0.001399,0.0017889999999999,0.8734850000000001,-0.441779,-0.079569,1.122115,-0.423479,-0.108969,0.885755,-0.847429,-0.00409,1.101367,-0.8311790000000001,-0.017606,1
61,1.009028,0.783515,0.0294774999999999,0.838362,0.577525,0.0318605,0.732682,0.8202349999999999,-0.0814935,1.176242,0.573635,0.0244025,1.245792,0.825735,-0.1133435,0.694612,1.039405,-0.1986535,1.259372,1.086205,-0.2267835,0.911742,0.001757,-0.0018545,1.088258,-0.001757,0.0018544999999999,0.872552,-0.434795,-0.0851635,1.122612,-0.420455,-0.1142835,0.886342,-0.842825,-0.0054545,1.102043,-0.8263050000000001,-0.0189995,1
62,1.009681,0.7828465,0.023064,0.839878,0.5766965,0.025019,0.733148,0.8196165,-0.091886,1.176598,0.5723265,0.018664,1.246198,0.8234565,-0.121446,0.696278,1.0382565,-0.212236,1.260468,1.0838165,-0.2366859999999999,0.911098,0.0020325,-0.0019549999999999,1.088902,-0.0020324999999999,0.001955,0.871748,-0.4275835,-0.090636,1.123198,-0.4167435,-0.119286,0.887028,-0.8372835000000001,-0.0066849999999999,1.102788,-0.8207834999999999,-0.020835,1
63,1.0101334999999998,0.782022,0.016558,0.8411204999999999,0.575152,0.017594,0.7336905,0.8183819999999999,-0.10239,1.1767605,0.571452,0.013752,1.2463905,0.8214319999999999,-0.12883,0.6977605,1.037292,-0.22565,1.2613805,1.080832,-0.2475099999999999,0.9106405,0.002226,-0.002196,1.0893595,-0.0022259999999999,0.002196,0.8710405,-0.421268,-0.0951,1.1236305,-0.412178,-0.1234099999999999,0.8875205,-0.832198,-0.008191,1.1033465,-0.815808,-0.022464,1
64,1.010525,0.7809375,0.0095634999999999,0.842201,0.5730075,0.0090785,0.734421,0.8168574999999999,-0.1132385,1.176551,0.5704475,0.0081044999999999,1.246571,0.8190375,-0.1369585,0.6992510000000001,1.0354575,-0.2400885,1.262191,1.0770375,-0.2603585,0.910201,0.0023844999999999,-0.0024104999999999,1.089799,-0.0023844999999999,0.0024104999999999,0.8705309999999999,-0.4150625,-0.0994385,1.124021,-0.4077524999999999,-0.1273285,0.888111,-0.8268225,-0.0097714999999999,1.103757,-0.8107525,-0.0242325,1
65,1.0108795,0.7795219999999999,0.0020279999999999,0.8429525,0.572322,0.0024209999999999,0.7351825000000001,0.814292,-0.124402,1.1763125,0.569622,0.002558,1.2467625,0.816032,-0.145872,0.7006925000000002,1.032662,-0.255252,1.2627325,1.072602,-0.274152,0.9097725,0.0024609999999999,-0.002558,1.0902275,-0.002461,0.002558,0.8704425,-0.409188,-0.103352,1.1243125,-0.4037779999999999,-0.131182,0.8886525000000001,-0.821728,-0.011679,1.1041135,-0.805878,-0.026289,1
66,1.011158,0.7782105,-0.0057905,0.843622,0.5710005,-0.0048944999999999,0.735982,0.8110905,-0.1361535,1.176062,0.5691805000000001,-0.0026165,1.246892,0.8122805,-0.1557035,0.702182,1.0282705,-0.2706435,1.262862,1.0668305,-0.2885135,0.909372,0.0024785,-0.0026045,1.090628,-0.0024784999999999,0.0026044999999999,0.870482,-0.4036495,-0.1069335,1.124592,-0.4002595,-0.1348335,0.889152,-0.8167095,-0.0138225,1.104497,-0.8010495,-0.0285045,1
67,1.011416,0.7767975,-0.0143939999999999,0.844282,0.5694175,-0.012887,0.7368220000000001,0.8074075000000001,-0.148424,1.175682,0.5687975000000001,-0.008482,1.247022,0.8084375,-0.166514,0.703542,1.0241475,-0.287834,1.262912,1.0604875,-0.304654,0.909042,0.0024725,-0.0026319999999999,1.090958,-0.0024724999999999,0.0026319999999999,0.870652,-0.3992325,-0.110544,1.124732,-0.3972124999999999,-0.138564,0.889652,-0.8121325,-0.0160109999999999,1.104859,-0.7966125,-0.0305529999999999,1
68,1.01173,0.7747105000000001,-0.0235715,0.844948,0.5689905,-0.0202395,0.737778,0.8031005,-0.1615845,1.174788,0.5667505,-0.0163265,1.247258,0.8040705,-0.1778644999999999,0.704818,1.0198805,-0.3062145,1.263088,1.0557105,-0.3198445,0.908728,0.0025595,-0.0025405,1.091272,-0.0025594999999999,0.0025405,0.870988,-0.3950494999999999,-0.1142844999999999,1.125098,-0.3935094999999999,-0.1418944999999999,0.890308,-0.8078495,-0.0183435,1.105362,-0.7925194999999999,-0.0329095,1
69,1.0120525,0.7728200000000001,-0.0341965,0.8457095,0.56801,-0.0295724999999999,0.7382295,0.79901,-0.1765125,1.1737895,0.5649,-0.0253954999999999,1.2474695,0.7998400000000001,-0.1903125,0.7059895,1.01388,-0.3249924999999999,1.2632095,1.04878,-0.3386424999999999,0.9084395,0.0025499999999999,-0.0024465,1.0915605,-0.0025499999999999,0.0024464999999999,0.8715795,-0.38984,-0.1185925,1.1257395,-0.38828,-0.1458425,0.8911295000000001,-0.80193,-0.0212645,1.1060785,-0.7867999999999999,-0.0357215,1
70,1.012256,0.77078,-0.0455335,0.846432,0.56641,-0.0397095,0.7388520000000001,0.79463,-0.1917825,1.1728519999999998,0.5630000000000001,-0.0347505,1.247702,0.79524,-0.2036625,0.706782,1.00735,-0.3440225,1.263282,1.04167,-0.3574525,0.908132,0.00255,-0.0024374999999999,1.091868,-0.0025499999999999,0.0024375,0.872052,-0.38404,-0.1232125,1.126442,-0.38292,-0.1498525,0.892012,-0.7959200000000001,-0.0243965,1.106776,-0.78022,-0.0387765,1
71,1.0124245,0.768775,-0.056232,0.8471805,0.565455,-0.04867,0.7395305000000001,0.790915,-0.205471,1.1717805,0.560965,-0.043139,1.2478604999999998,0.790675,-0.215631,0.7072705,1.000935,-0.3606009999999999,1.2634005,1.034775,-0.374561,0.9080405,0.002585,-0.0023809999999999,1.0919595,-0.0025849999999999,0.002381,0.8725705000000001,-0.379595,-0.127501,1.1270705,-0.378185,-0.153581,0.8929505,-0.7902349999999999,-0.0274679999999999,1.1075935,-0.774635,-0.041523,1
72,1.0125115,0.7668149999999999,-0.0664575,0.8478855,0.564005,-0.0577965,0.7402155,0.787265,-0.2182685,1.1704955,0.558095,-0.0519385,1.2477655,0.785565,-0.2278185,0.7078555,0.993695,-0.3769085,1.2635355,1.027045,-0.3911085,0.9079555,0.0025349999999999,-0.0022635,1.0920445,-0.0025349999999999,0.0022635,0.8730355,-0.3755549999999999,-0.1317985,1.1276955,-0.373615,-0.1571685,0.8940155,-0.784845,-0.0302235,1.1086175,-0.769205,-0.0445345,1
73,1.012732,0.7653350000000001,-0.0765515,0.848633,0.563005,-0.0669955,0.740783,0.7838050000000001,-0.2316025,1.169383,0.556155,-0.0604125,1.247853,0.7812049999999999,-0.2395625,0.708723,0.987585,-0.3931625,1.263913,1.020385,-0.4066625,0.907813,0.002455,-0.0020464999999999,1.0921869999999998,-0.0024549999999999,0.0020464999999999,0.873613,-0.371635,-0.1367925,1.128383,-0.369405,-0.1614825,0.8952430000000001,-0.778375,-0.0333815,1.10972,-0.7626249999999999,-0.0478805,1
74,1.0124895,0.7634749999999999,-0.0864705,0.8487305,0.562155,-0.0757965,0.7408805,0.7805949999999999,-0.2447305,1.1676805,0.553415,-0.0691725,1.2473705,0.776435,-0.2510405,0.7091105000000001,0.981185,-0.4089405,1.2640705,1.012685,-0.4218205,0.9079405,0.0025049999999999,-0.0018995,1.0920595,-0.002505,0.0018994999999999,0.8736405,-0.364565,-0.1419105,1.1287905,-0.362135,-0.1655305,0.8955405,-0.7715650000000001,-0.0364305,1.1102715,-0.755655,-0.0511525,1
75,1.0122494999999998,0.76117,-0.097666,0.8488424999999999,0.56075,-0.08577,0.7415225000000001,0.77675,-0.259229,1.1656025,0.54996,-0.07942,1.2470425,0.77127,-0.2634289999999999,0.7095325,0.97502,-0.426179,1.2641725,1.00386,-0.438469,0.9080725,0.0026299999999999,-0.001756,1.0919275,-0.0026299999999999,0.001756,0.8733225,-0.35565,-0.147959,1.1293025,-0.35339,-0.169999,0.8958925,-0.76325,-0.039729,1.1110925,-0.74735,-0.0552319999999999,1
76,1.0119555,0.7597449999999999,-0.1148605,0.8488925,0.560315,-0.1016045,0.7423124999999999,0.773515,-0.2801105,1.1635925,0.5474950000000001,-0.0956284999999999,1.2469225,0.766875,-0.2819405,0.7098925,0.969165,-0.4500205,1.2642725,0.996055,-0.4607704999999999,0.9081025,0.0026249999999999,-0.0017865,1.0918975,-0.0026249999999999,0.0017865,0.8729425,-0.345545,-0.1601505,1.1299825,-0.343555,-0.1811105,0.8961925,-0.753695,-0.0491464999999999,1.1120435,-0.7377149999999999,-0.0656885,1
77,1.0112985,0.760905,-0.133244,0.8482925,0.559145,-0.118974,0.7435725,0.771645,-0.301274,1.1611325,0.547045,-0.111672,1.2468225,0.762635,-0.301104,0.7103225,0.964975,-0.475294,1.2642925,0.988945,-0.4838739999999999,0.9081525,0.0020749999999999,-0.001535,1.0918475,-0.0020749999999999,0.0015349999999999,0.8699525000000001,-0.332775,-0.179454,1.1316525,-0.330915,-0.1981339999999999,0.8947825000000001,-0.742725,-0.066869,1.1137285,-0.7274349999999999,-0.080831,1
78,1.010702,0.76104,-0.150917,0.847879,0.5588,-0.1342269999999999,0.745089,0.76895,-0.3210469999999999,1.158909,0.54634,-0.1265669999999999,1.246869,0.75825,-0.318627,0.710779,0.96128,-0.501427,1.264879,0.98187,-0.505377,0.908249,0.0017699999999999,-0.001225,1.091751,-0.0017699999999999,0.001225,0.867069,-0.32154,-0.198207,1.133639,-0.31961,-0.214837,0.8935590000000001,-0.73317,-0.084193,1.115594,-0.71925,-0.095845,1
79,1.0101045,0.7618199999999999,-0.1688265,0.8475195,0.5584,-0.1496565,0.7466195,0.7660499999999999,-0.3408265,1.1564995,0.54557,-0.1420165,1.2470395,0.7543899999999999,-0.3364765,0.7113594999999999,0.95608,-0.5272865,1.2654795,0.9745,-0.5282865,0.9083395,0.0016299999999999,-0.0009294999999999,1.0916605,-0.00163,0.0009294999999999,0.8643395,-0.31014,-0.2173565,1.1359495,-0.30832,-0.2316965,0.8923195,-0.72322,-0.1021285,1.1174725,-0.71086,-0.1110164999999999,1
80,1.009441,0.7621850000000001,-0.186788,0.8471230000000001,0.557535,-0.165418,0.748183,0.762035,-0.361408,1.154213,0.545185,-0.157438,1.247163,0.749805,-0.355278,0.712513,0.947445,-0.5522680000000001,1.266443,0.965395,-0.552718,0.908413,0.001375,-0.000662,1.091587,-0.0013749999999999,0.0006619999999999,0.861683,-0.299135,-0.236708,1.138263,-0.2973149999999999,-0.248528,0.891153,-0.713465,-0.120698,1.118243,-0.6994849999999999,-0.121801,1
81,1.0090834999999998,0.762235,-0.2049585,0.8468125,0.556515,-0.1814785,0.7499125,0.757755,-0.3826385,1.1524325,0.545115,-0.1729285,1.2475125,0.745205,-0.3743885,0.7139125,0.938535,-0.5774485,1.2678125,0.955965,-0.5777185,0.9084625,0.0012349999999999,-0.0004615,1.0915375,-0.001235,0.0004614999999999,0.8594825,-0.288145,-0.2558085,1.1406425,-0.2860749999999999,-0.2653185,0.8899825,-0.703245,-0.1390125,1.1189205,-0.687685,-0.1320465,1
82,1.008833,0.7605649999999999,-0.222611,0.846753,0.554955,-0.197141,0.751853,0.752665,-0.403321,1.151093,0.544395,-0.188321,1.247803,0.739185,-0.393851,0.715813,0.926835,-0.601991,1.269533,0.944305,-0.603211,0.908763,0.0012249999999999,-0.0004109999999999,1.091237,-0.001225,0.0004109999999999,0.857573,-0.277935,-0.274201,1.143223,-0.276005,-0.281551,0.889163,-0.694325,-0.1570369999999999,1.119761,-0.6763750000000001,-0.142084,1
83,1.0087965,0.758675,-0.240891,0.8473625,0.552075,-0.213301,0.7539825,0.7462150000000001,-0.4239809999999999,1.1498825,0.543945,-0.204371,1.2482325,0.733195,-0.414161,0.7181725,0.915405,-0.627381,1.2711725,0.932965,-0.629691,0.9089925,0.0009949999999999,-0.0004239999999999,1.0910075,-0.0009949999999999,0.000424,0.8559425,-0.267115,-0.292861,1.1459425,-0.2650549999999999,-0.298111,0.8885125,-0.685415,-0.175671,1.1207825,-0.664855,-0.1524579999999999,1
84,1.0088054999999998,0.756895,-0.257967,0.8481305,0.550025,-0.227607,0.7554905000000001,0.739765,-0.443317,1.1491405,0.543565,-0.219177,1.2490705,0.726585,-0.432507,0.7206305,0.904145,-0.652397,1.2727505,0.920595,-0.653867,0.9092705,0.0007849999999999,-0.0004539999999999,1.0907295,-0.000785,0.0004539999999999,0.8543705,-0.257725,-0.310037,1.1482805,-0.255195,-0.313767,0.8872205,-0.678705,-0.193057,1.1214814999999998,-0.655095,-0.162386,1
85,1.0087724999999998,0.7537450000000001,-0.269478,0.8489705,0.5473950000000001,-0.235508,0.7570805,0.732105,-0.456288,1.1487204999999998,0.5397750000000001,-0.228048,1.2502305,0.7176750000000001,-0.443968,0.7231704999999999,0.8896050000000001,-0.6692980000000001,1.2745005,0.906805,-0.671098,0.9096105,0.000945,-0.000268,1.0903895,-0.0009449999999999,0.0002679999999999,0.8530105,-0.2481749999999999,-0.321208,1.1506305,-0.2451549999999999,-0.322798,0.8861405,-0.6730649999999999,-0.204318,1.1224775,-0.6468649999999999,-0.166233,1
86,1.009264,0.7479,-0.2796835,0.849853,0.5418499999999999,-0.2440635,0.758433,0.72237,-0.4686734999999999,1.149303,0.53566,-0.2360935,1.251353,0.70851,-0.4549134999999999,0.7255929999999999,0.87334,-0.6847535,1.276343,0.89186,-0.6872334999999999,0.909923,0.0013799999999999,-0.0004704999999999,1.090077,-0.0013799999999999,0.0004704999999999,0.8538430000000001,-0.2419799999999999,-0.3255935,1.152043,-0.2385,-0.3265035,0.886923,-0.66809,-0.2080035,1.123338,-0.63957,-0.1690595,1
87,1.009818,0.74332,-0.290209,0.850706,0.53554,-0.252969,0.759586,0.7127399999999999,-0.481099,1.150016,0.53139,-0.244919,1.252126,0.6994,-0.467129,0.727776,0.85611,-0.698419,1.278346,0.87731,-0.703899,0.910126,0.00157,-0.000764,1.089874,-0.00157,0.000764,0.854606,-0.2357599999999999,-0.3303089999999999,1.153436,-0.23225,-0.330529,0.8876360000000001,-0.6631,-0.212009,1.12384,-0.63164,-0.172292,1
88,1.010695,0.736915,-0.299752,0.851842,0.5299050000000001,-0.261582,0.760682,0.7017850000000001,-0.492482,1.151122,0.527015,-0.253152,1.253052,0.689065,-0.480232,0.729912,0.8386950000000001,-0.711482,1.280972,0.862755,-0.720352,0.910012,0.001555,-0.001068,1.089988,-0.0015549999999999,0.0010679999999999,0.855622,-0.2302149999999999,-0.334512,1.154922,-0.226705,-0.334232,0.888652,-0.658875,-0.215842,1.124604,-0.624665,-0.175478,1
89,1.011551,0.7303,-0.309985,0.853666,0.52499,-0.269415,0.761636,0.69157,-0.502635,1.152186,0.5226500000000001,-0.260955,1.253926,0.6783,-0.492955,0.731136,0.82399,-0.724245,1.283336,0.8476299999999999,-0.7353550000000001,0.909756,0.00162,-0.001425,1.090244,-0.00162,0.0014249999999999,0.856826,-0.22635,-0.338425,1.156406,-0.22216,-0.337515,0.889746,-0.6547499999999999,-0.219485,1.124269,-0.6155200000000001,-0.173904,1
90,1.012154,0.7236,-0.320025,0.855244,0.51916,-0.277265,0.7624340000000001,0.6810799999999999,-0.513825,1.153104,0.51715,-0.269115,1.254634,0.66727,-0.505405,0.731874,0.80938,-0.737355,1.285604,0.8334699999999999,-0.749165,0.909504,0.0015699999999999,-0.0017149999999999,1.090496,-0.00157,0.0017149999999999,0.857904,-0.2224,-0.342395,1.1577339999999998,-0.2172899999999999,-0.340855,0.891084,-0.6491,-0.222975,1.123761,-0.60604,-0.172419,1
91,1.012501,0.7182499999999999,-0.330345,0.856589,0.5128499999999999,-0.285155,0.7627690000000001,0.67096,-0.524185,1.153689,0.51189,-0.277105,1.254479,0.6571799999999999,-0.517375,0.7322489999999999,0.79621,-0.7503850000000001,1.287719,0.81887,-0.7632150000000001,0.909229,0.0013499999999999,-0.0021049999999999,1.090771,-0.00135,0.0021049999999999,0.858569,-0.2183,-0.346365,1.158689,-0.21233,-0.344285,0.892109,-0.6433300000000001,-0.2260349999999999,1.123001,-0.59613,-0.170993,1
92,1.0126325,0.713425,-0.339845,0.8577675000000001,0.507895,-0.292265,0.7629875,0.661055,-0.534185,1.1541675,0.507195,-0.283965,1.2546275,0.6470849999999999,-0.528355,0.7324975,0.782305,-0.7618349999999999,1.2897475,0.8054950000000001,-0.7751049999999999,0.9090075,0.0010249999999999,-0.0024549999999999,1.0909925,-0.0010249999999999,0.0024549999999999,0.8588875,-0.214495,-0.350045,1.1595175,-0.207805,-0.347335,0.8930275,-0.638055,-0.228235,1.1230535,-0.5899350000000001,-0.173587,1
93,1.0129965,0.70758,-0.348815,0.8588985,0.50273,-0.3000549999999999,0.7631185,0.65219,-0.5431349999999999,1.1549185,0.5017,-0.291265,1.2549485,0.6383300000000001,-0.539515,0.7327485,0.76911,-0.7715650000000001,1.2918485,0.79388,-0.786225,0.9087885,0.00089,-0.0029349999999999,1.0912115,-0.00089,0.002935,0.8588485,-0.2091399999999999,-0.3538449999999999,1.1605985,-0.2023099999999999,-0.350425,0.8938685,-0.6292,-0.224115,1.1232304999999998,-0.5828199999999999,-0.176229,1
94,1.013529,0.70197,-0.35703,0.859958,0.4967399999999999,-0.30814,0.763408,0.64347,-0.55165,1.155838,0.4986899999999999,-0.29834,1.255198,0.63086,-0.55117,0.732448,0.75726,-0.78059,1.293998,0.7813300000000001,-0.797,0.908578,0.00051,-0.00338,1.091422,-0.00051,0.0033799999999999,0.858418,-0.2036899999999999,-0.35763,1.161948,-0.19677,-0.35337,0.894608,-0.61975,-0.22002,1.123428,-0.5756000000000001,-0.17874,1
95,1.013957,0.69689,-0.36516,0.860481,0.49419,-0.31381,0.763431,0.6342099999999999,-0.55905,1.156701,0.4952,-0.30448,1.255131,0.6232500000000001,-0.56185,0.731671,0.7437100000000001,-0.78788,1.296201,0.7694799999999999,-0.80676,0.908391,0.0004399999999999,-0.0037699999999999,1.091609,-0.0004399999999999,0.00377,0.857431,-0.19935,-0.36041,1.163391,-0.1920699999999999,-0.35555,0.8952710000000002,-0.61083,-0.215105,1.123587,-0.56916,-0.180412,1
96,1.014166,0.6912750000000001,-0.372195,0.860824,0.490375,-0.319835,0.7632639999999999,0.625495,-0.565655,1.157264,0.491255,-0.310375,1.254844,0.616375,-0.570875,0.730414,0.732405,-0.7952250000000001,1.297954,0.758025,-0.8149150000000001,0.908354,0.0003049999999999,-0.0039949999999999,1.091646,-0.0003049999999999,0.0039949999999999,0.8557440000000001,-0.1940649999999999,-0.363585,1.164794,-0.1863449999999999,-0.357935,0.895794,-0.600495,-0.210266,1.124033,-0.562685,-0.182275,1
97,1.014265,0.6863900000000001,-0.3790949999999999,0.86113,0.48607,-0.325535,0.7631,0.61809,-0.572105,1.15766,0.4878,-0.315965,1.25476,0.6102799999999999,-0.578155,0.729,0.7229,-0.802125,1.29891,0.74637,-0.822125,0.90839,7.00000000000145e-05,-0.0041649999999999,1.09161,-7.00000000000145e-05,0.004165,0.85372,-0.1881699999999999,-0.3668749999999999,1.16624,-0.1799199999999999,-0.360105,0.89629,-0.58951,-0.2051759999999999,1.124493,-0.55557,-0.1838149999999999,1
98,1.015016,0.6826749999999999,-0.3846549999999999,0.862018,0.480855,-0.331275,0.762928,0.6106050000000001,-0.578705,1.158398,0.484375,-0.3216449999999999,1.255028,0.605915,-0.584535,0.728058,0.713175,-0.809145,1.300388,0.737025,-0.829205,0.908478,-0.0002249999999999,-0.0042849999999999,1.091522,0.0002249999999999,0.004285,0.8520179999999999,-0.1805549999999999,-0.370485,1.168418,-0.172365,-0.3625549999999999,0.8974280000000001,-0.5772649999999999,-0.200087,1.125379,-0.547275,-0.185214,1
99,1.015632,0.678785,-0.39008,0.8628890000000001,0.4777949999999999,-0.33575,0.7630790000000001,0.603185,-0.58325,1.159229,0.482735,-0.3261699999999999,1.255129,0.601505,-0.59059,0.7273689999999999,0.703435,-0.81454,1.302079,0.726585,-0.83545,0.908559,-0.000505,-0.0044499999999999,1.091441,0.0005049999999999,0.00445,0.850169,-0.173425,-0.37416,1.170809,-0.165215,-0.3650299999999999,0.8987390000000001,-0.5654750000000001,-0.195017,1.126323,-0.540085,-0.186819,1
100,1.0165075,0.67509,-0.395435,0.8639335000000001,0.47601,-0.339325,0.7635035,0.5946400000000001,-0.587915,1.1601835,0.48147,-0.330025,1.2556735,0.59676,-0.595805,0.7270235,0.6925600000000001,-0.8191550000000001,1.3035235,0.71587,-0.839665,0.9086535,-0.0005499999999999,-0.004345,1.0913465,0.0005499999999999,0.0043449999999999,0.8483535,-0.16618,-0.377555,1.1733935,-0.15815,-0.3673349999999999,0.9000435000000001,-0.55369,-0.18964,1.1273825,-0.5330199999999999,-0.187865,1
101,1.0171065,0.67028,-0.4006,0.8652465,0.4744,-0.34411,0.7646865,0.5891,-0.5887899999999999,1.1605964999999998,0.47693,-0.33501,1.2560465,0.5928800000000001,-0.6008,0.7269965,0.68425,-0.8239799999999999,1.3050765,0.70671,-0.84477,0.9087765,-0.00034,-0.0038799999999999,1.0912235,0.00034,0.00388,0.8468465000000001,-0.1569199999999999,-0.38044,1.1760365,-0.1491299999999999,-0.37022,0.9013965,-0.53977,-0.1845359999999999,1.1285945,-0.52419,-0.18918,1
102,1.017893,0.666465,-0.405435,0.8664620000000001,0.4736249999999999,-0.348145,0.7658920000000001,0.582765,-0.593135,1.161112,0.473805,-0.339125,1.256602,0.588495,-0.6015550000000001,0.727542,0.674805,-0.8257950000000001,1.306412,0.697695,-0.8482850000000001,0.908942,-0.0001849999999999,-0.003345,1.091058,0.0001849999999999,0.0033449999999999,0.845342,-0.1480349999999999,-0.383205,1.178562,-0.140465,-0.373045,0.902722,-0.530165,-0.18532,1.130092,-0.5157849999999999,-0.190662,1
103,1.0188754999999998,0.662795,-0.409725,0.8676495000000001,0.4721789999999999,-0.3524049999999999,0.7672895,0.576975,-0.597225,1.1616995,0.4709669999999999,-0.3429649999999999,1.2572995,0.581405,-0.602385,0.7282595000000001,0.666225,-0.827615,1.3080595,0.689645,-0.852155,0.9094195,0.0007749999999999,-0.0029549999999999,1.0905805,-0.000775,0.002955,0.8440095,-0.138565,-0.385855,1.1816395,-0.131475,-0.375365,0.9042495,-0.5204350000000001,-0.185861,1.1316195,-0.507065,-0.191884,1
104,1.020224,0.65864,-0.413865,0.869224,0.470739,-0.356835,0.7692140000000001,0.56888,-0.6009450000000001,1.162264,0.467101,-0.346875,1.258254,0.57475,-0.603245,0.729224,0.6556200000000001,-0.831465,1.310304,0.68042,-0.856175,0.909964,0.00189,-0.002575,1.090036,-0.00189,0.0025749999999999,0.842104,-0.1288299999999999,-0.388205,1.185694,-0.1220199999999999,-0.377165,0.906174,-0.5105599999999999,-0.186649,1.133644,-0.4982199999999999,-0.193269,1
105,1.021494,0.65459,-0.41822,0.870799,0.4707369999999999,-0.36082,0.7712289999999999,0.56121,-0.6053299999999999,1.162459,0.464528,-0.35035,1.258749,0.56504,-0.6037399999999999,0.730219,0.64322,-0.8363799999999999,1.312389,0.66955,-0.85975,0.910519,0.0025999999999999,-0.0023999999999999,1.089481,-0.0025999999999999,0.0024,0.839269,-0.11961,-0.39043,1.190429,-0.11312,-0.37868,0.907669,-0.50125,-0.187886,1.1355799999999998,-0.49004,-0.1947999999999999,1
106,1.02263,0.65083,-0.42227,0.8721369999999999,0.468596,-0.36483,0.772707,0.55474,-0.61,1.162537,0.462342,-0.35372,1.259187,0.55645,-0.60373,0.731087,0.63201,-0.8428800000000001,1.314437,0.65856,-0.8626799999999999,0.911057,0.0029,-0.0021299999999999,1.088943,-0.0028999999999999,0.0021299999999999,0.835877,-0.1106399999999999,-0.39225,1.195647,-0.10436,-0.3801,0.909247,-0.4922099999999999,-0.189073,1.137498,-0.4821299999999999,-0.19638,1
107,1.023102,0.64588,-0.42612,0.872886,0.467428,-0.36844,0.773906,0.54959,-0.6107400000000001,1.162046,0.460415,-0.35655,1.258636,0.5477,-0.60345,0.7305159999999999,0.6213299999999999,-0.8490300000000001,1.315846,0.64602,-0.86511,0.911606,0.00302,-0.00196,1.088394,-0.0030199999999999,0.0019599999999999,0.831216,-0.10243,-0.39337,1.200586,-0.09641,-0.3813,0.910116,-0.4841299999999999,-0.1901,1.138804,-0.4752499999999999,-0.1978,1
108,1.023596,0.6417499999999999,-0.42941,0.873661,0.4660809999999999,-0.37217,0.775191,0.5455899999999999,-0.61295,1.161481,0.4580979999999999,-0.35956,1.258131,0.54006,-0.60344,0.7299910000000001,0.61179,-0.8541099999999999,1.317181,0.63559,-0.8675299999999999,0.912131,0.0031899999999999,-0.00167,1.087869,-0.00319,0.0016699999999999,0.8263510000000001,-0.09445,-0.39427,1.205941,-0.08829,-0.38246,0.911081,-0.47592,-0.191032,1.140137,-0.46749,-0.198965,1
109,1.023911,0.6374650000000001,-0.4318499999999999,0.874452,0.464349,-0.37583,0.776112,0.541015,-0.61691,1.160812,0.455429,-0.36246,1.257372,0.532945,-0.60342,0.729202,0.604185,-0.8590599999999999,1.318522,0.627155,-0.8700399999999999,0.912652,0.003305,-0.0012999999999999,1.087348,-0.0033049999999999,0.0012999999999999,0.821202,-0.086955,-0.39496,1.211222,-0.0807449999999999,-0.38371,0.912132,-0.4683649999999999,-0.191647,1.141487,-0.460225,-0.199948,1
110,1.0240669999999998,0.63348,-0.43407,0.874987,0.462271,-0.37831,0.776667,0.533345,-0.62016,1.160457,0.455467,-0.3643699999999999,1.256767,0.525767,-0.6032500000000001,0.7280070000000001,0.59434,-0.8630500000000001,1.319717,0.61685,-0.8724400000000001,0.913047,0.00284,-0.00128,1.086953,-0.00284,0.00128,0.815867,-0.08157,-0.3952,1.214537,-0.0751899999999999,-0.38424,0.912847,-0.46289,-0.192089,1.142642,-0.45509,-0.200702,1
111,1.0240295,0.629705,-0.435685,0.8754725,0.459478,-0.380525,0.7766025,0.527126,-0.622325,1.1600325,0.455649,-0.365755,1.2564825,0.519473,-0.6018749999999999,0.7266125,0.585125,-0.8638349999999999,1.3209525,0.607905,-0.8745449999999999,0.9134725,0.002545,-0.0012249999999999,1.0865275,-0.002545,0.001225,0.8106825000000001,-0.0759149999999999,-0.395355,1.2196025,-0.069415,-0.385055,0.9133525,-0.457095,-0.1921649999999999,1.1441325,-0.4496949999999999,-0.201281,1
112,1.02351,0.626815,-0.43699,0.87543,0.458481,-0.3822,0.77598,0.521169,-0.62485,1.15926,0.455362,-0.36687,1.25616,0.5171720000000001,-0.59904,0.72508,0.577165,-0.8650800000000001,1.32155,0.600975,-0.87449,0.91352,0.001495,-0.00115,1.08648,-0.0014949999999999,0.0011499999999999,0.80518,-0.0703149999999999,-0.39528,1.2238399999999998,-0.0636949999999999,-0.38554,0.91361,-0.4513349999999999,-0.192276,1.145238,-0.444295,-0.201932,1
113,1.022971,0.62489,-0.437185,0.8747930000000002,0.457569,-0.382615,0.775293,0.520195,-0.626555,1.158683,0.456935,-0.367385,1.255983,0.515115,-0.595035,0.722623,0.57308,-0.8683449999999999,1.322013,0.59587,-0.8733850000000001,0.913423,0.0004,-0.000765,1.086577,-0.0004,0.0007649999999999,0.8008130000000001,-0.06484,-0.394735,1.227283,-0.05789,-0.385205,0.913693,-0.44532,-0.191898,1.146099,-0.4385,-0.202185,1
114,1.022334,0.62531,-0.436855,0.874396,0.458819,-0.383415,0.775046,0.520697,-0.623265,1.158186,0.4601929999999999,-0.367605,1.256106,0.51803,-0.593275,0.7204460000000001,0.57216,-0.8682350000000001,1.322406,0.59476,-0.8705350000000001,0.913566,-0.0002199999999999,-0.000375,1.086434,0.0002199999999999,0.0003749999999999,0.7969360000000001,-0.0573199999999999,-0.394235,1.230806,-0.04985,-0.384495,0.913836,-0.43768,-0.19094,1.147237,-0.43046,-0.201928,1
115,1.0209514999999998,0.624745,-0.43657,0.8737845,0.461887,-0.38375,0.7741445,0.5205500000000001,-0.62114,1.1573265,0.463223,-0.36736,1.2563245,0.519804,-0.5926899999999999,0.7181945000000001,0.570435,-0.86381,1.3233245,0.590975,-0.8665,0.9137645,-0.0004349999999999,-0.0002999999999999,1.0862355,0.000435,0.0002999999999999,0.7932345000000001,-0.0505049999999999,-0.3940899999999999,1.2340745,-0.0422749999999999,-0.38402,0.9135845,-0.4305749999999999,-0.1902889999999999,1.1479345,-0.423215,-0.202172,1
116,1.0193125,0.62519,-0.4357899999999999,0.8728975,0.46393,-0.3829999999999999,0.7723275000000001,0.5203990000000001,-0.62185,1.1561255,0.465856,-0.3666,1.2563475,0.521488,-0.59198,0.7162875,0.5701080000000001,-0.8649800000000001,1.3238075,0.59118,-0.86581,0.9138275,-0.00078,-0.0003499999999999,1.0861725,0.00078,0.00035,0.7897075,-0.0436999999999999,-0.3942299999999999,1.2366875,-0.0344499999999999,-0.38341,0.9131675,-0.42323,-0.1895599999999999,1.1484325,-0.416,-0.2022159999999999,1
117,1.017456,0.626,-0.434465,0.871707,0.465068,-0.382105,0.770297,0.518462,-0.6220749999999999,1.154851,0.468776,-0.3657049999999999,1.256157,0.5234570000000001,-0.593225,0.7142470000000001,0.569075,-0.865905,1.324937,0.58946,-0.863215,0.913987,-0.00078,-0.0001249999999999,1.086013,0.00078,0.000125,0.7862169999999999,-0.0376299999999999,-0.394055,1.239057,-0.0272799999999999,-0.382795,0.912477,-0.4165099999999999,-0.188686,1.148702,-0.40901,-0.2021299999999999,1
118,1.0156714999999998,0.6279,-0.4324949999999999,0.8699735,0.466694,-0.380445,0.7684635,0.519471,-0.621655,1.1535915,0.472169,-0.364055,1.2568635,0.526128,-0.596815,0.7124035,0.568841,-0.864955,1.3259535,0.5924,-0.8631949999999999,0.9141635,-0.00078,4.500000000001725e-05,1.0858365,0.00078,-4.499999999998949e-05,0.7828235,-0.03105,-0.393295,1.2413934999999998,-0.0194099999999999,-0.382115,0.9118535,-0.4081199999999999,-0.1872819999999999,1.1491435,-0.4010199999999999,-0.2013589999999999,1
119,1.01413,0.6313900000000001,-0.430525,0.8684149999999999,0.467485,-0.378415,0.7670250000000001,0.523499,-0.6195550000000001,1.152444,0.475364,-0.361985,1.257765,0.5299170000000001,-0.5998749999999999,0.7124349999999999,0.5712870000000001,-0.861105,1.326955,0.5971000000000001,-0.862585,0.914345,-0.0007899999999999,0.0002349999999999,1.085655,0.00079,-0.000235,0.7793550000000001,-0.0236699999999999,-0.392375,1.243615,-0.0107899999999999,-0.381715,0.911375,-0.3989499999999999,-0.185432,1.149554,-0.3920499999999999,-0.20017,1
120,1.012879,0.635375,-0.42844,0.8670370000000001,0.468698,-0.3762999999999999,0.7665470000000001,0.5275780000000001,-0.61737,1.151509,0.47785,-0.3595699999999999,1.258767,0.534155,-0.6027899999999999,0.711057,0.5754610000000001,-0.85737,1.329567,0.6022850000000001,-0.86199,0.914477,-0.0009849999999999,0.00046,1.0855229999999998,0.000985,-0.0004599999999999,0.7762970000000001,-0.0165149999999999,-0.39141,1.245677,-0.0026349999999999,-0.38133,0.910887,-0.390435,-0.1837049999999999,1.1498769999999998,-0.3834049999999999,-0.1987249999999999,1
121,1.0120779999999998,0.63889,-0.425785,0.865976,0.469653,-0.374175,0.765926,0.531974,-0.614565,1.150885,0.480738,-0.357015,1.260036,0.538272,-0.605325,0.7099759999999999,0.579429,-0.8540449999999999,1.332396,0.607335,-0.861005,0.914706,-0.0012199999999999,0.0007149999999999,1.085294,0.0012199999999999,-0.000715,0.773536,-0.0099299999999999,-0.390375,1.247646,0.00495,-0.380885,0.909676,-0.3823000000000001,-0.182694,1.150183,-0.37527,-0.197241,1
122,1.011477,0.64244,-0.423035,0.865238,0.469919,-0.371735,0.7654380000000001,0.536334,-0.613845,1.150689,0.4834389999999999,-0.354215,1.261628,0.5430039999999999,-0.6069450000000001,0.708978,0.584228,-0.850905,1.335048,0.612706,-0.859585,0.914858,-0.0018,0.0008849999999999,1.085142,0.0018,-0.0008849999999999,0.7708880000000001,-0.0038799999999999,-0.389445,1.249628,0.0121499999999999,-0.380295,0.908458,-0.37421,-0.181615,1.150368,-0.36732,-0.195861,1
123,1.0110575,0.64365,-0.42028,0.8649065000000001,0.468478,-0.36954,0.7650165,0.5393060000000001,-0.61344,1.1505095,0.48422,-0.35185,1.2631765,0.5460320000000001,-0.60856,0.7087565,0.5885670000000001,-0.84836,1.3373765,0.616809,-0.85827,0.9149465,-0.00256,0.00071,1.0850535,0.00256,-0.00071,0.7688565,-2.000000000002e-05,-0.3887,1.2507465,0.0171799999999999,-0.37999,0.9074765,-0.36812,-0.181317,1.1504005,-0.3614499999999999,-0.194927,1
124,1.0109045,0.646385,-0.416815,0.8646575000000001,0.4682269999999999,-0.3668249999999999,0.7648075000000001,0.543083,-0.6115349999999999,1.1503215,0.4861839999999999,-0.3492849999999999,1.2646475,0.550627,-0.609605,0.7085775000000001,0.5942649999999999,-0.845475,1.3393475,0.622895,-0.855755,0.9149675,-0.00315,0.000505,1.0850325,0.0031499999999999,-0.0005049999999999,0.7671975000000001,0.0051799999999999,-0.388005,1.2515675,0.0232099999999999,-0.379445,0.9062375,-0.36114,-0.180976,1.1504895,-0.3547,-0.193765,1
125,1.010857,0.6496000000000001,-0.413145,0.864555,0.468899,-0.363825,0.764695,0.546849,-0.609595,1.150249,0.486896,-0.346295,1.266055,0.555694,-0.610305,0.708485,0.600354,-0.842905,1.341155,0.628803,-0.853265,0.915145,-0.002985,0.0004149999999999,1.084855,0.002985,-0.000415,0.766065,0.010575,-0.3870249999999999,1.252415,0.029505,-0.378715,0.905105,-0.3539049999999999,-0.18043,1.150634,-0.347645,-0.192442,1
126,1.010246,0.6523709999999999,-0.409275,0.863911,0.4703789999999999,-0.360895,0.764481,0.5531029999999999,-0.606545,1.149946,0.4866949999999999,-0.343045,1.266931,0.560747,-0.611085,0.707981,0.6075429999999999,-0.8412649999999999,1.342881,0.635459,-0.8508249999999999,0.915151,-0.002905,0.0003249999999999,1.084849,0.0029049999999999,-0.000325,0.764491,0.0168049999999999,-0.386005,1.252161,0.0369649999999999,-0.377845,0.903401,-0.346295,-0.180699,1.15023,-0.339825,-0.191154,1
127,1.0100055,0.654764,-0.405935,0.8634675,0.4717249999999999,-0.359105,0.7644475,0.558487,-0.604305,1.1499505,0.4860339999999999,-0.340455,1.2667975,0.564713,-0.6102650000000001,0.7076075,0.61403,-0.8404750000000001,1.3442175,0.642969,-0.8527950000000001,0.9150875,-0.0026749999999999,0.0002749999999999,1.0849125,0.0026749999999999,-0.000275,0.7633175,0.022285,-0.385525,1.2516775,0.0437949999999999,-0.377225,0.9018975,-0.340005,-0.18215,1.1498415,-0.3328650000000001,-0.19063,1
128,1.01038,0.6565099999999999,-0.40273,0.864051,0.4745999999999999,-0.35751,0.764931,0.562399,-0.60172,1.150538,0.4863109999999999,-0.33823,1.266731,0.5674159999999999,-0.6087899999999999,0.707911,0.619823,-0.8382999999999999,1.345201,0.6497149999999999,-0.8536699999999999,0.914991,-0.0020999999999999,0.00038,1.085009,0.0020999999999999,-0.0003799999999999,0.762651,0.0272,-0.38495,1.251471,0.0495299999999999,-0.37659,0.900621,-0.33436,-0.183744,1.149711,-0.3269500000000001,-0.190205,1
129,1.011107,0.658175,-0.39917,0.864147,0.4779749999999999,-0.35561,0.7650670000000002,0.5653889999999999,-0.59999,1.151181,0.4878749999999999,-0.33589,1.266757,0.5701139999999999,-0.6070599999999999,0.708367,0.6253719999999999,-0.83566,1.345097,0.6557369999999999,-0.8519399999999999,0.914947,-0.001295,0.0006199999999999,1.085053,0.0012949999999999,-0.0006199999999999,0.762107,0.0328649999999999,-0.38397,1.251347,0.0558749999999999,-0.37554,0.8997470000000001,-0.327915,-0.184437,1.149603,-0.320255,-0.1893969999999999,1
130,1.011997,0.6604889999999999,-0.39525,0.8644000000000001,0.4797549999999999,-0.3531499999999999,0.7656000000000001,0.569592,-0.59831,1.151807,0.4910649999999999,-0.33357,1.26662,0.5734729999999999,-0.6044,0.70879,0.6327659999999999,-0.83397,1.34498,0.6613519999999999,-0.8502299999999999,0.91487,-0.001615,0.00056,1.08513,0.0016149999999999,-0.0005599999999999,0.7618400000000001,0.0405449999999999,-0.38276,1.25107,0.0641049999999999,-0.37424,0.89934,-0.3196350000000001,-0.185778,1.149572,-0.311375,-0.188549,1
131,1.0128195,0.662906,-0.391625,0.8652934999999999,0.48216,-0.350725,0.7668035000000001,0.571652,-0.592885,1.1524135,0.49197,-0.331005,1.2667535,0.575871,-0.601785,0.7106435000000001,0.6355230000000001,-0.827995,1.3443135,0.664487,-0.848105,0.9147735,-0.0013299999999999,0.0006049999999999,1.0852265,0.00133,-0.000605,0.7616335000000001,0.04907,-0.3814349999999999,1.2504535,0.07291,-0.3731649999999999,0.8985835,-0.3103399999999999,-0.186933,1.1494705,-0.30201,-0.187582,1
132,1.0137115,0.665416,-0.388335,0.8661895,0.484355,-0.347995,0.7690595,0.573373,-0.5872649999999999,1.1531085,0.4926649999999999,-0.328375,1.2669395,0.577601,-0.5991150000000001,0.7126095,0.6378309999999999,-0.822455,1.3441995,0.668968,-0.846705,0.9146095,-0.000765,0.0007849999999999,1.0853905,0.000765,-0.000785,0.7615195000000001,0.0579849999999999,-0.379905,1.2497395,0.081515,-0.372165,0.8978495000000001,-0.302235,-0.188171,1.1493445,-0.293075,-0.186719,1
133,1.0144,0.6679459999999999,-0.3858049999999999,0.86691,0.4855549999999999,-0.345555,0.77113,0.574143,-0.581915,1.1536,0.492065,-0.326025,1.2669,0.578382,-0.596785,0.71444,0.638884,-0.817195,1.34312,0.669189,-0.8449150000000001,0.91438,-0.000295,0.0009649999999999,1.08562,0.0002949999999999,-0.000965,0.76126,0.0658649999999999,-0.3787049999999999,1.24877,0.088925,-0.3714349999999999,0.89689,-0.295765,-0.190313,1.149087,-0.285375,-0.186204,1
134,1.0149795,0.669959,-0.383395,0.8673005,0.4866749999999999,-0.343165,0.7730105,0.5743969999999999,-0.577145,1.1535715,0.4930749999999999,-0.324005,1.2666705,0.5786499999999999,-0.594755,0.7160105,0.6386799999999999,-0.8147150000000001,1.3418305,0.6682739999999999,-0.843365,0.9142105,-0.000265,0.0010049999999999,1.0857895,0.0002649999999999,-0.001005,0.7608405,0.0733149999999999,-0.3776549999999999,1.2475005,0.0953649999999999,-0.370735,0.8957305,-0.290135,-0.192689,1.1486985,-0.278275,-0.185766,1
135,1.0153105,0.6727160000000001,-0.380885,0.8672545,0.48839,-0.340745,0.7747945,0.574697,-0.5720850000000001,1.1531785,0.49522,-0.322135,1.2660945,0.579123,-0.5928450000000001,0.7175644999999999,0.638124,-0.812115,1.3402745,0.667201,-0.8422050000000001,0.9138145,-0.0004399999999999,0.0009149999999999,1.0861855,0.0004399999999999,-0.0009149999999999,0.7606045,0.08068,-0.3765949999999999,1.2459545,0.10166,-0.3699949999999999,0.8944845,-0.28369,-0.194255,1.1481085,-0.2712799999999999,-0.1854839999999999,1
136,1.015402,0.67527,-0.37863,0.86719,0.48924,-0.33863,0.7762700000000001,0.5756350000000001,-0.56561,1.152555,0.49738,-0.32064,1.26518,0.580254,-0.59161,0.7188300000000001,0.638568,-0.81016,1.33852,0.6666400000000001,-0.84173,0.91345,-0.0007499999999999,0.00076,1.08655,0.00075,-0.0007599999999999,0.7603,0.08789,-0.3757699999999999,1.24409,0.10838,-0.3695199999999999,0.8931,-0.2769799999999999,-0.195927,1.147373,-0.2640299999999999,-0.1856519999999999,1
137,1.015253,0.677704,-0.376775,0.8674310000000001,0.4891649999999999,-0.336845,0.777451,0.5770559999999999,-0.558985,1.15177,0.4989549999999999,-0.319595,1.264331,0.5815579999999999,-0.590665,0.719611,0.6391579999999999,-0.8099649999999999,1.336671,0.666047,-0.841495,0.913161,-0.001375,0.0007749999999999,1.086839,0.0013749999999999,-0.0007749999999999,0.759861,0.0944249999999999,-0.375215,1.242081,0.1150049999999999,-0.369465,0.891561,-0.2704350000000001,-0.197659,1.146633,-0.2572350000000001,-0.186046,1
138,1.0148324999999998,0.680042,-0.37465,0.8676195,0.48866,-0.33475,0.7783795,0.577999,-0.55339,1.1508745,0.4992,-0.31814,1.2633495,0.58241,-0.58964,0.7198694999999999,0.639747,-0.80968,1.3346595,0.665161,-0.8409599999999999,0.9128995,-0.00209,0.0007199999999999,1.0871005,0.00209,-0.0007199999999999,0.7594095,0.1003699999999999,-0.37417,1.2398094999999998,0.1207599999999999,-0.36933,0.8900595,-0.2647899999999999,-0.198969,1.1457685,-0.25104,-0.186163,1
139,1.01405,0.680513,-0.372195,0.867375,0.48956,-0.332885,0.778985,0.576938,-0.546435,1.149705,0.49753,-0.316575,1.262215,0.581469,-0.5886450000000001,0.7203550000000001,0.6394070000000001,-0.805545,1.332235,0.662868,-0.840495,0.912625,-0.00165,0.0006849999999999,1.087375,0.00165,-0.000685,0.7590450000000001,0.1047799999999999,-0.372365,1.237225,0.1243999999999999,-0.369155,0.888235,-0.26108,-0.199898,1.144623,-0.2467399999999999,-0.186255,1
140,1.0130245,0.680485,-0.36924,0.8668025,0.490265,-0.33075,0.7795125,0.5776600000000001,-0.54276,1.1482625,0.4978249999999999,-0.31492,1.2607425,0.58031,-0.58731,0.7193525000000001,0.641759,-0.80057,1.3295025,0.660086,-0.83969,0.9124025,-0.0017049999999999,0.0006099999999999,1.0875975,0.0017049999999999,-0.0006099999999999,0.7588325,0.108705,-0.37064,1.2347825,0.1270649999999999,-0.36851,0.8862225,-0.258225,-0.200353,1.1432465,-0.243085,-0.1859839999999999,1
141,1.0121555,0.680667,-0.36614,0.8663215000000001,0.4914699999999999,-0.3291,0.7792015,0.578776,-0.53918,1.1468615,0.4984499999999999,-0.31347,1.2591815,0.5795889999999999,-0.58602,0.7184915000000001,0.643793,-0.7959299999999999,1.3267715,0.658044,-0.83898,0.9122215,-0.0017099999999999,0.00032,1.0877785,0.0017099999999999,-0.00032,0.7588115,0.1130299999999999,-0.36905,1.2328415,0.1299699999999999,-0.3679,0.8843915000000001,-0.25485,-0.20098,1.1420075,-0.23928,-0.185787,1
142,1.011141,0.681803,-0.363035,0.865707,0.493225,-0.327405,0.7787670000000001,0.579586,-0.535585,1.145417,0.499085,-0.312145,1.257437,0.579241,-0.584665,0.7187070000000001,0.64539,-0.788955,1.323907,0.656575,-0.838305,0.912067,-0.0017249999999999,0.0002749999999999,1.087933,0.0017249999999999,-0.0002749999999999,0.758557,0.117255,-0.367775,1.231087,0.1332149999999999,-0.367465,0.883217,-0.250395,-0.200005,1.140603,-0.235205,-0.1856519999999999,1
143,1.0100945,0.6843060000000001,-0.3595065,0.8650735,0.495515,-0.3253865,0.7781335,0.5824250000000001,-0.5334865,1.1439535,0.500815,-0.3102365,1.2557835,0.580945,-0.5828565,0.7189435,0.65019,-0.7843665,1.3209135,0.6577700000000001,-0.8373165,0.9119535,-0.0017449999999999,0.0002284999999999,1.0880465,0.0017449999999999,-0.0002285,0.7578035,0.122345,-0.3667264999999999,1.2293935,0.137195,-0.3668865,0.8817135,-0.2457749999999999,-0.1999465,1.1393025,-0.2304049999999999,-0.1853795,1
144,1.009477,0.6873710000000001,-0.356046,0.865239,0.4963050000000001,-0.322376,0.7779590000000001,0.5847850000000001,-0.529516,1.143079,0.5023050000000001,-0.308076,1.254499,0.583335,-0.580916,0.719579,0.6539400000000001,-0.779526,1.318289,0.6602040000000001,-0.836246,0.911919,-0.0018349999999999,0.000172,1.088081,0.001835,-0.0001719999999999,0.7568990000000001,0.126095,-0.3659059999999999,1.228069,0.1397250000000001,-0.366336,0.880269,-0.2423449999999999,-0.199646,1.138425,-0.2265649999999999,-0.185035,1
145,1.0088885,0.689921,-0.3523775,0.8652525,0.498855,-0.3192675,0.7771725,0.587335,-0.5269075000000001,1.1421625,0.504855,-0.3058975,1.2530525,0.585885,-0.5785275000000001,0.7205025,0.65649,-0.7777775,1.3155325,0.6627540000000001,-0.8339975000000001,0.9118725,-0.0018449999999999,0.0001834999999999,1.0881275,0.0018449999999999,-0.0001835,0.7555925000000001,0.128365,-0.3647375,1.2267425,0.140725,-0.3656875,0.8789625000000001,-0.2398249999999999,-0.1983375,1.1377095,-0.2241849999999999,-0.1843965,1
146,1.008517,0.689921,-0.3478845,0.864909,0.498855,-0.3157545,0.7766190000000001,0.587335,-0.5240545,1.141459,0.504855,-0.3032045,1.251589,0.585885,-0.5757245,0.721529,0.656687,-0.7733045000000001,1.312549,0.6627540000000001,-0.8303645000000001,0.911719,-0.0018449999999999,-1.2499999999998623e-05,1.088281,0.0018449999999999,1.2499999999998623e-05,0.7543590000000001,0.128575,-0.3630545,1.225839,0.140725,-0.3647745,0.877419,-0.2398249999999999,-0.1968845,1.137104,-0.2241849999999999,-0.1827825,1
147,1.0087994999999998,0.689921,-0.3431984999999999,0.8647625,0.498855,-0.3125285,0.7766125,0.587335,-0.5216285,1.1411525,0.504855,-0.3009085,1.2504025,0.585885,-0.5726385,0.7229125000000001,0.657787,-0.7691685,1.3096125,0.6627540000000001,-0.8256685,0.9117025,-0.0018449999999999,-0.0003594999999999,1.0882975,0.0018449999999999,0.0003594999999999,0.7534225,0.128615,-0.3619185,1.2255625,0.140725,-0.3640485,0.8762425,-0.2398249999999999,-0.1955184999999999,1.1371035,-0.2241849999999999,-0.1814445,1
148,1.009385,0.691566,-0.3382429999999999,0.864577,0.499255,-0.308963,0.776437,0.5902780000000001,-0.520233,1.141767,0.5051950000000001,-0.297653,1.249587,0.586975,-0.569303,0.724487,0.662645,-0.766313,1.306827,0.664291,-0.8209930000000001,0.911747,-0.0018449999999999,-0.000626,1.088253,0.0018449999999999,0.000626,0.7526870000000001,0.128665,-0.361193,1.226367,0.140725,-0.363653,0.875217,-0.239515,-0.1941129999999999,1.137327,-0.2241849999999999,-0.180112,1
149,1.010082,0.6960519999999999,-0.332791,0.864642,0.5021149999999999,-0.305071,0.776212,0.5963639999999999,-0.519481,1.142602,0.5067849999999999,-0.293671,1.248842,0.5906929999999999,-0.565331,0.726442,0.6685399999999999,-0.759961,1.304382,0.6686549999999999,-0.816081,0.911702,-0.001485,-0.0008219999999999,1.088298,0.0014849999999999,0.000822,0.751502,0.1279949999999999,-0.360571,1.228472,0.1397449999999999,-0.3633109999999999,0.8744419999999999,-0.2395950000000001,-0.1925509999999999,1.137902,-0.223145,-0.1785729999999999,1
150,1.010543,0.6998629999999999,-0.3268135,0.864677,0.5038549999999999,-0.3005035,0.775597,0.6008849999999999,-0.5190435,1.143497,0.508485,-0.2894835,1.248317,0.593753,-0.5613135,0.728167,0.6727339999999999,-0.7557135,1.301797,0.6732389999999999,-0.8109635,0.911727,-0.001255,-0.0009654999999999,1.0882729999999998,0.0012549999999998,0.0009655,0.7496970000000001,0.1242449999999999,-0.3604934999999999,1.231357,0.1357649999999999,-0.3629635,0.874097,-0.2429150000000001,-0.1908134999999999,1.138397,-0.2253050000000001,-0.1768215,1
151,1.011007,0.705697,-0.319844,0.864529,0.5069049999999999,-0.294904,0.775049,0.606837,-0.517814,1.144569,0.510845,-0.284104,1.248209,0.598143,-0.556064,0.728839,0.679331,-0.752304,1.299199,0.67855,-0.804934,0.911849,-0.0010149999999999,-0.0011219999999999,1.088151,0.0010149999999999,0.0011219999999999,0.747139,0.1191949999999999,-0.360804,1.235769,0.1304149999999999,-0.362284,0.873959,-0.247855,-0.187524,1.138989,-0.2291349999999999,-0.174294,1
152,1.0111415,0.7118960000000001,-0.3137904999999999,0.8640225000000001,0.5092650000000001,-0.2900105,0.7739225000000001,0.6103120000000001,-0.5155505,1.1451725,0.5126250000000001,-0.2797604999999999,1.2472725,0.6027070000000001,-0.5519105,0.7290525,0.68481,-0.7492605,1.2961125,0.685072,-0.7993905,0.9119525,-0.0009149999999999,-0.0012905,1.0880475,0.0009149999999999,0.0012905,0.7437925000000001,0.112555,-0.3617304999999999,1.2406125,0.123495,-0.3629305,0.8735525,-0.254355,-0.1850305,1.1390425,-0.2347349999999999,-0.1725145,1
153,1.0115115,0.719314,-0.30767,0.8636145,0.5114650000000001,-0.28583,0.7731245000000001,0.617313,-0.5128199999999999,1.1456445,0.516815,-0.2756,1.2465745,0.608961,-0.54758,0.7295945000000001,0.693665,-0.7461800000000001,1.2933945,0.692944,-0.79379,0.9121745,-0.0010249999999999,-0.0014979999999999,1.0878255,0.001025,0.0014979999999999,0.7405745,0.104025,-0.3625,1.2462545,0.114705,-0.36324,0.8734345,-0.2618349999999999,-0.181272,1.1393745,-0.242255,-0.170601,1
154,1.0112545,0.723479,-0.3028,0.8627415,0.511145,-0.2827,0.7717415,0.6222989999999999,-0.51368,1.1456215,0.520555,-0.27203,1.2454615,0.612401,-0.54413,0.7290615,0.698894,-0.7484599999999999,1.2904615,0.697765,-0.7900699999999999,0.9122915,-0.001985,-0.001959,1.0877085,0.001985,0.001959,0.7378515,0.090295,-0.36416,1.2515715,0.101175,-0.36399,0.8729715,-0.274655,-0.1783799999999999,1.1390715,-0.254625,-0.1695519999999999,1
155,1.0100125,0.72723,-0.298763,0.8612065,0.51121,-0.279853,0.7694965,0.6260020000000001,-0.5148630000000001,1.1447965,0.5225900000000001,-0.268653,1.2436165,0.6157690000000001,-0.541153,0.7278865,0.701794,-0.750623,1.2869065,0.7022990000000001,-0.787533,0.9121065,-0.0024099999999999,-0.002087,1.0878935,0.00241,0.0020869999999999,0.7350865,0.07562,-0.365833,1.2557265,0.08574,-0.364623,0.8722265000000001,-0.2894799999999999,-0.176084,1.1380865,-0.2684899999999999,-0.16872,1
156,1.008732,0.73081,-0.294792,0.8593360000000001,0.514585,-0.276822,0.767286,0.6297449999999999,-0.515172,1.144456,0.5253049999999999,-0.265192,1.242106,0.6187119999999999,-0.538622,0.727186,0.70534,-0.750842,1.283696,0.7056859999999999,-0.785682,0.911866,-0.0025,-0.0021609999999999,1.088134,0.0024999999999999,0.0021609999999999,0.733346,0.0599199999999999,-0.367222,1.259536,0.0697099999999999,-0.364942,0.871696,-0.30517,-0.173786,1.137006,-0.2836700000000001,-0.167728,1
157,1.007598,0.73187,-0.292051,0.857572,0.513109,-0.274441,0.765392,0.630036,-0.5150710000000001,1.143452,0.523749,-0.262931,1.240892,0.619069,-0.535741,0.726352,0.70615,-0.7507809999999999,1.280802,0.70753,-0.784081,0.911652,-0.0029,-0.002187,1.088348,0.0029,0.0021869999999999,0.7320720000000001,0.04144,-0.368231,1.262492,0.0514,-0.365031,0.870762,-0.32392,-0.172119,1.136052,-0.30204,-0.166625,1
158,1.006897,0.7335750000000001,-0.2896885,0.8562460000000001,0.5130020000000001,-0.2719085,0.764186,0.630955,-0.5149285,1.1427459999999998,0.524417,-0.2605585,1.239916,0.6198870000000001,-0.5330485,0.7264360000000001,0.707565,-0.7512785,1.278526,0.7096450000000001,-0.7819784999999999,0.911326,-0.0031149999999999,-0.0022425,1.088674,0.003115,0.0022424999999999,0.731256,0.024185,-0.3689585,1.264356,0.033695,-0.3650085,0.8706659999999999,-0.3422149999999999,-0.1697285,1.135326,-0.3215049999999999,-0.1658145,1
159,1.0064255,0.734885,-0.2877785,0.8553435,0.51222,-0.2695685,0.7636635,0.631973,-0.5147984999999999,1.1425135,0.525983,-0.2577885,1.2394935,0.622061,-0.5294685,0.7270835,0.709875,-0.7511985000000001,1.2767535,0.712125,-0.7790085,0.9110035,-0.0035849999999999,-0.0024594999999999,1.0889965,0.003585,0.0024595,0.7309034999999999,0.006755,-0.3692085,1.2653835,0.016005,-0.3649385,0.8697535000000001,-0.361015,-0.1695865,1.1352435,-0.342075,-0.1657044999999999,1
160,1.0055395,0.7359749999999999,-0.2858665,0.8540245,0.51218,-0.2670765,0.7632345,0.6328349999999999,-0.5133265,1.1417245,0.526887,-0.2551164999999999,1.2387645,0.623575,-0.5262665,0.7274545,0.711155,-0.7489065,1.2746445,0.7159949999999999,-0.7753265,0.9105945,-0.0038949999999999,-0.0026515,1.0894055,0.0038949999999999,0.0026515,0.7307345000000001,-0.010615,-0.3691265,1.2647145,-0.0012849999999999,-0.3648365,0.8684645,-0.380515,-0.1698625,1.1349045,-0.363135,-0.1656145,1
161,1.0043335,0.737005,-0.2835445,0.8523885000000001,0.511599,-0.2647345,0.7621485,0.635645,-0.5116545,1.1401385,0.528765,-0.2524444999999999,1.2377785,0.626665,-0.5227545,0.7274685000000001,0.714965,-0.7476145,1.2723785,0.720985,-0.7718345,0.9100585,-0.004145,-0.0029555,1.0899415,0.004145,0.0029555,0.7313285,-0.0284349999999999,-0.3692045,1.2637585,-0.019105,-0.3644545,0.8674585000000001,-0.400815,-0.1698785,1.1343185,-0.385065,-0.1656854999999999,1
162,1.0033475,0.737635,-0.280286,0.8509285,0.511332,-0.261566,0.7611384999999999,0.635375,-0.508376,1.1388585,0.5282990000000001,-0.248806,1.2374085,0.628115,-0.518746,0.7277485,0.715855,-0.745336,1.2702685,0.725385,-0.767316,0.9097485,-0.0041649999999999,-0.003244,1.0902515,0.004165,0.0032439999999999,0.7326885000000001,-0.0457949999999999,-0.368646,1.2630085,-0.036895,-0.362996,0.8655385000000001,-0.422415,-0.171566,1.1345685,-0.4075149999999999,-0.167583,1
163,1.0027975,0.740445,-0.277206,0.8497195,0.513223,-0.258476,0.7605195000000001,0.638995,-0.503656,1.1380795,0.5277029999999999,-0.2458459999999999,1.2365495,0.632415,-0.5148159999999999,0.7283695,0.7205649999999999,-0.7406360000000001,1.2685295,0.7331049999999999,-0.762646,0.9096795,-0.003445,-0.0037209999999999,1.0903205,0.0034449999999999,0.003721,0.7352295,-0.061835,-0.367646,1.2620895,-0.053035,-0.361356,0.8639395,-0.442145,-0.1737139999999999,1.1355195,-0.428585,-0.17009,1
164,1.001767,0.74367,-0.274035,0.847891,0.513394,-0.255105,0.759771,0.64203,-0.499795,1.136971,0.52789,-0.243175,1.235471,0.63572,-0.511155,0.7287510000000001,0.72743,-0.7359049999999999,1.266671,0.7406900000000001,-0.758065,0.909521,-0.0032699999999999,-0.0041959999999999,1.090479,0.0032699999999999,0.004196,0.737751,-0.0798099999999999,-0.366275,1.259011,-0.07035,-0.359175,0.861711,-0.46353,-0.176829,1.135501,-0.4516,-0.1731249999999999,1
165,1.001319,0.745425,-0.2702965,0.8475230000000001,0.512145,-0.2512265,0.7592030000000001,0.646745,-0.4953464999999999,1.136133,0.530295,-0.2404265,1.234823,0.638765,-0.5067665,0.7294230000000002,0.731665,-0.7302665,1.265683,0.747255,-0.7536165,0.909303,-0.003535,-0.0044644999999999,1.090697,0.003535,0.0044644999999999,0.740943,-0.098785,-0.3642964999999999,1.254883,-0.089035,-0.3565764999999999,0.8584630000000001,-0.487135,-0.1822565,1.136623,-0.475875,-0.1763345,1
166,1.001634,0.75003,-0.265418,0.8476980000000001,0.51431,-0.246718,0.759938,0.6509199999999999,-0.490798,1.136168,0.53508,-0.236968,1.234848,0.64594,-0.502148,0.7309380000000001,0.73953,-0.723968,1.265638,0.75766,-0.747378,0.909068,-0.00335,-0.0045,1.090932,0.00335,0.0045,0.7442880000000001,-0.1153799999999999,-0.361788,1.250548,-0.10604,-0.353918,0.855738,-0.50928,-0.1879279999999999,1.138478,-0.49847,-0.179868,1
167,1.0020205,0.753605,-0.259395,0.8474025000000001,0.513395,-0.242325,0.7604225,0.6567149999999999,-0.485605,1.1367225,0.538735,-0.233055,1.2348925,0.652345,-0.496875,0.7323525,0.750915,-0.717455,1.2651325,0.766375,-0.7393149999999999,0.9091325,-0.003885,-0.004651,1.0908675,0.0038849999999999,0.0046509999999999,0.7477125,-0.132145,-0.358255,1.2454025,-0.124155,-0.350095,0.8537224999999999,-0.5313450000000001,-0.193125,1.1396025,-0.521815,-0.183705,1
168,1.0015165,0.758115,-0.253104,0.8462235000000001,0.518755,-0.237734,0.7601135000000001,0.664995,-0.479414,1.1361035,0.5410349999999999,-0.229204,1.2339635,0.658705,-0.491304,0.7328635,0.762895,-0.711184,1.2636035,0.778645,-0.732354,0.9091435,-0.003335,-0.0046119999999999,1.0908565,0.0033349999999999,0.004612,0.7502235000000002,-0.147235,-0.354104,1.2385435,-0.141075,-0.346544,0.8515835,-0.5522250000000001,-0.1965839999999999,1.1386335,-0.5449350000000001,-0.185894,1
169,1.001542,0.76448,-0.2437235,0.8456170000000001,0.52064,-0.2322735,0.760447,0.6742900000000001,-0.4708035,1.136337,0.54318,-0.2235435,1.232897,0.6672499999999999,-0.4822435,0.734367,0.77794,-0.7008435000000001,1.262397,0.79245,-0.7230635000000001,0.909137,-0.00324,-0.0047475,1.090863,0.0032399999999999,0.0047475,0.7542670000000001,-0.16393,-0.3479535,1.230777,-0.16038,-0.3402334999999999,0.8504970000000001,-0.57436,-0.1976235,1.138307,-0.56959,-0.1869635,1
170,1.001114,0.77075,-0.232949,0.844761,0.5272699999999999,-0.224799,0.7604010000000001,0.6848399999999999,-0.462029,1.136381,0.54646,-0.215809,1.231621,0.67562,-0.471989,0.735711,0.79542,-0.689599,1.260581,0.8079799999999999,-0.711229,0.909161,-0.00316,-0.004733,1.090839,0.0031599999999999,0.004733,0.7601910000000001,-0.18346,-0.338229,1.221321,-0.18156,-0.330889,0.849351,-0.59953,-0.198209,1.137741,-0.59624,-0.187689,1
171,1.000104,0.7747250000000001,-0.2201965,0.8429,0.532655,-0.2154965,0.75992,0.695515,-0.4512965,1.1357499999999998,0.547925,-0.2065364999999999,1.22965,0.683935,-0.4590965,0.73644,0.814425,-0.6760565000000001,1.2576,0.824465,-0.6970365000000001,0.9095,-0.0029849999999999,-0.0041655,1.0905,0.002985,0.0041655,0.76771,-0.2063749999999999,-0.3237465,1.2097,-0.206075,-0.3174765,0.84846,-0.6278649999999999,-0.1967465,1.13658,-0.625955,-0.1862165,1
172,0.99897,0.777685,-0.205965,0.84095,0.538955,-0.2063749999999999,0.75905,0.706555,-0.440505,1.13502,0.5505450000000001,-0.196925,1.22728,0.693715,-0.445725,0.73699,0.834965,-0.663255,1.25356,0.842625,-0.681695,0.91003,-0.002855,-0.0034819999999999,1.08997,0.0028549999999999,0.0034819999999999,0.77571,-0.230915,-0.308275,1.19794,-0.228415,-0.303135,0.8474200000000001,-0.654455,-0.195415,1.13515,-0.653505,-0.184875,1
173,0.9975725,0.779075,-0.1911795,0.8387545000000001,0.545415,-0.1979995,0.7573945,0.7198549999999999,-0.4285695,1.1344345,0.554345,-0.1870795,1.2247644999999998,0.704715,-0.4321695,0.7372045,0.855205,-0.6492994999999999,1.2492745,0.861575,-0.6646694999999999,0.9105945,-0.002735,-0.0029804999999999,1.0894055,0.0027349999999999,0.0029804999999999,0.7840745,-0.253845,-0.2924195,1.1863245,-0.249065,-0.2884195,0.8461545,-0.678255,-0.1939595,1.1334345,-0.6787449999999999,-0.1833995,1
174,0.996347,0.77935,-0.1763035,0.837295,0.55017,-0.1900635,0.7555350000000001,0.7305,-0.4159335,1.133915,0.5594399999999999,-0.1767035,1.222075,0.71797,-0.4183335,0.737425,0.87754,-0.6346335,1.244975,0.88285,-0.6466035,0.911165,-0.0025499999999999,-0.0024524999999999,1.088835,0.00255,0.0024524999999999,0.793075,-0.27954,-0.2745035,1.175015,-0.2726,-0.2724335,0.847085,-0.70077,-0.1873135,1.129705,-0.70284,-0.1790635,1
175,0.9951005,0.778125,-0.1610895,0.8357285,0.555785,-0.1819005,0.7536385,0.742615,-0.4021705,1.1333985,0.564155,-0.1666005,1.2192585,0.728745,-0.4047105,0.7373485,0.896625,-0.6186105,1.2402985,0.901245,-0.6277005,0.9118185,-0.002505,-0.0020975,1.0881815,0.0025049999999999,0.0020974999999999,0.8060085000000001,-0.304625,-0.2503305,1.1638585,-0.297685,-0.2549504999999999,0.8507685,-0.725855,-0.1754405,1.1259085,-0.727925,-0.1741105,1
176,0.9939325,0.7760050000000001,-0.1405664999999999,0.8344255,0.562235,-0.1673515,0.7520055000000001,0.753025,-0.3815815,1.1331155,0.566665,-0.1512865,1.2166555,0.739375,-0.3841915,0.7374355,0.912545,-0.5950415,1.2361755,0.921295,-0.6028614999999999,0.9124355,-0.0018849999999999,-0.0020435,1.0875645,0.0018849999999999,0.0020435,0.8188755,-0.328785,-0.2207515,1.1535555,-0.321635,-0.2294715,0.8547755,-0.750015,-0.1568985,1.1224155,-0.752085,-0.1604975,1
177,0.9926795,0.7790475,-0.120098,0.8330755000000001,0.5648974999999999,-0.1506799999999999,0.7499155,0.7615975,-0.361257,1.1330755,0.5700275,-0.134805,1.2141354999999998,0.7505075,-0.363427,0.7378355,0.9294775,-0.569887,1.2315855,0.9409375,-0.575867,0.9130755,-0.0022115,-0.002165,1.0869245,0.0022114999999999,0.002165,0.8317855000000001,-0.3510525,-0.189587,1.1429355,-0.3435825,-0.199207,0.8593755000000001,-0.7719625,-0.1374159999999999,1.1184554999999998,-0.7740325,-0.144729,1
178,0.9917735,0.779691,-0.1002885,0.8320025,0.569801,-0.1339845,0.7475324999999999,0.768201,-0.3412024999999999,1.1331225,0.573701,-0.1181485,1.2126625,0.759391,-0.3427024999999999,0.7376925,0.941891,-0.5458625,1.2270025,0.957421,-0.5484325,0.9136625,-0.0022689999999999,-0.0022105,1.0863375,0.002269,0.0022104999999999,0.8439425,-0.371939,-0.1591525,1.1342925,-0.361719,-0.1706925,0.8653525,-0.791149,-0.1166875,1.1147655,-0.7926289999999999,-0.1278055,1
179,0.99121,0.780826,-0.081608,0.830848,0.5708359999999999,-0.11848,0.745468,0.7723960000000001,-0.320592,1.133248,0.575866,-0.10345,1.211248,0.7674860000000001,-0.322612,0.737608,0.950856,-0.521602,1.222798,0.972346,-0.521622,0.914228,-0.0024259999999999,-0.0025169999999999,1.085772,0.002426,0.0025169999999999,0.853988,-0.389464,-0.1317269999999999,1.127918,-0.375254,-0.144682,0.870868,-0.806114,-0.09606,1.111503,-0.8059339999999999,-0.111455,1
180,0.9910005,0.7829495000000001,-0.0640304999999999,0.8300935,0.5722195,-0.1042964999999999,0.7440235,0.7765595000000001,-0.3013585,1.1336135,0.5785195000000001,-0.0903404999999999,1.2103935,0.7772595,-0.3019285,0.7381635000000001,0.9610295,-0.4970385,1.2193335,0.9868295,-0.4952384999999999,0.9145535,-0.0025765,-0.0033374999999999,1.0854465,0.0025765,0.0033375,0.8620335,-0.4036205,-0.1083125,1.1241135,-0.3834705,-0.1220624999999999,0.8759835,-0.8167804999999999,-0.0779265,1.1098435,-0.8135905,-0.0962695,1
181,0.990927,0.7859845,-0.047863,0.829828,0.5724845,-0.090015,0.7427079999999999,0.7814945,-0.281952,1.134078,0.5808945,-0.07772,1.210558,0.7850045,-0.282092,0.738848,0.9706945,-0.470972,1.216608,0.9997145,-0.468402,0.914748,-0.0025924999999999,-0.004281,1.085252,0.0025925,0.004281,0.869068,-0.4179855,-0.085698,1.121338,-0.3918255,-0.100247,0.880508,-0.8271455,-0.0612889999999999,1.108476,-0.8199355,-0.081096,1
182,0.9909705,0.789734,-0.030306,0.8296635,0.572954,-0.075297,0.7419135,0.785724,-0.260993,1.1351835,0.582954,-0.0625619999999999,1.2104935,0.792534,-0.260303,0.7393434999999999,0.978324,-0.443553,1.2132835,1.013154,-0.439423,0.9150405,-0.0024199999999999,-0.005071,1.0849595,0.0024199999999999,0.005071,0.8752135,-0.433306,-0.062445,1.1190335,-0.401536,-0.077919,0.8847235,-0.837536,-0.044472,1.1071905,-0.827026,-0.065632,1
183,0.9912205,0.795079,-0.011935,0.8297005,0.573909,-0.06025,0.7412605,0.790589,-0.238703,1.1364505,0.580349,-0.047176,1.2107905,0.7980389999999999,-0.236973,0.7402504999999999,0.986019,-0.413473,1.2100605,1.026119,-0.408133,0.9153985,-0.0022469999999999,-0.005788,1.0846015,0.0022469999999999,0.005788,0.8806805,-0.447181,-0.041231,1.1174405,-0.411031,-0.056469,0.8884905,-0.847681,-0.02919,1.1063435,-0.833221,-0.050766,1
184,0.9915615,0.7999505,0.0070444999999999,0.8299535,0.5736505000000001,-0.0433545,0.7406835,0.7937305,-0.2154724999999999,1.1377335,0.5791505,-0.0313635,1.2113035,0.8037205000000001,-0.2125225,0.7409735,0.9934405,-0.3822925,1.2072635,1.0392605,-0.3759225,0.9157495,-0.0021324999999999,-0.0063774999999999,1.0842505,0.0021325,0.0063774999999999,0.8821835,-0.4575895,-0.0263495,1.1165634999999998,-0.4208595,-0.0367675,0.8892935,-0.8569095,-0.0196065,1.1057485,-0.8391695,-0.0364835,1
185,0.991698,0.8056764999999999,0.020286,0.830033,0.5745564999999999,-0.032901,0.739903,0.7977065,-0.198962,1.138823,0.5797365,-0.021827,1.211633,0.8103165,-0.194362,0.741603,1.0014565,-0.357932,1.204663,1.0527365,-0.350302,0.916101,-0.0021434999999999,-0.006612,1.083899,0.0021434999999999,0.006612,0.883513,-0.4660735,-0.017826,1.115903,-0.4284934999999999,-0.02643,0.889853,-0.8637635,-0.016738,1.104984,-0.8431835000000001,-0.0305519999999999,1
186,0.9920215,0.8065465,0.0336435,0.8300565,0.5744265000000001,-0.0251015,0.7397165,0.8023965000000001,-0.1821985,1.1397365,0.5804665,-0.0137844999999999,1.2119865,0.8161265000000001,-0.1771985,0.7421964999999999,1.0100465,-0.3344985,1.2029165,1.0632965,-0.3257585,0.9162715,-0.0021364999999999,-0.0066145,1.0837285,0.0021364999999999,0.0066145,0.8847565,-0.4708835,-0.0116465,1.1158165,-0.4330335,-0.0209064999999999,0.8904065,-0.8700235,-0.0142044999999999,1.1047425,-0.8468335,-0.0271435,1
187,0.992697,0.8070395,0.0458574999999999,0.830199,0.5735995,-0.0178225,0.739849,0.8067695,-0.1666755,1.140779,0.5814195000000001,-0.0069565,1.212489,0.8221595,-0.1620955,0.742679,1.0188695,-0.3120155,1.202039,1.0742695,-0.3028455,0.916286,-0.0021235,-0.0066715,1.083714,0.0021234999999999,0.0066714999999999,0.885689,-0.4754005,-0.0059125,1.115879,-0.4363705,-0.0160915,0.8905689999999999,-0.8731504999999999,-0.0118155,1.104686,-0.8498605,-0.0240144999999999,1
188,0.9935035,0.807031,0.0578665,0.8303985,0.572621,-0.0113125,0.7399085000000001,0.811091,-0.1522785,1.1418585,0.582881,-8.850000000000004e-05,1.2132985,0.828341,-0.1474985,0.7429985,1.027161,-0.2913185,1.2015785,1.083661,-0.2812185,0.9163335,-0.002087,-0.0066495,1.0836665,0.002087,0.0066494999999999,0.8863285,-0.4794489999999999,-0.0007655,1.1158785,-0.439229,-0.0120575,0.8906985000000001,-0.875819,-0.0094825,1.1046365,-0.8525889999999999,-0.0211065,1
189,0.9939995,0.8080835000000001,0.0694495,0.8300335,0.5715235000000001,-0.0054535,0.7394735,0.8163135,-0.1394274999999999,1.1424935,0.5841835000000001,0.0066494999999999,1.2134235,0.8331535,-0.1356775,0.7429935,1.0331035,-0.2735875,1.2011135,1.0927035,-0.2612875,0.9167665,-0.0022415,-0.0066564999999999,1.0832335,0.0022414999999999,0.0066564999999999,0.8865435,-0.4820765,0.0035765,1.1163735,-0.4407865,-0.0091235,0.8903335,-0.8774664999999999,-0.0072345,1.1044365,-0.8542664999999999,-0.0183585,1
190,0.994974,0.8082855,0.081324,0.829689,0.5705055,-0.000135,0.739329,0.8182955,-0.127993,1.143299,0.5859755,0.0131729999999999,1.213619,0.8368555,-0.124053,0.743069,1.0387355,-0.258353,1.201029,1.0998355000000002,-0.2432229999999999,0.917152,-0.0022395,-0.006529,1.082848,0.0022395,0.0065289999999999,0.886769,-0.4852145,0.0070249999999999,1.116869,-0.4420845,-0.006761,0.889969,-0.8798145,-0.005197,1.104255,-0.8553845,-0.015825,1
191,0.9961995,0.8077150000000001,0.0910624999999999,0.8293855,0.5698150000000001,0.0046894999999999,0.7391855,0.819325,-0.1188365,1.1433755,0.586125,0.0165805,1.2139555,0.838975,-0.1145065,0.7430155,1.043505,-0.2466964999999999,1.2010755,1.104005,-0.2289564999999999,0.9174305,-0.0021829999999999,-0.0064065,1.0825695,0.002183,0.0064065,0.8869355,-0.487745,0.0086695,1.1172255,-0.443065,-0.0057475,0.8895655000000001,-0.881625,-0.0039015,1.1039934999999998,-0.8561949999999999,-0.0139044999999999,1
192,0.997595,0.8074705,0.0994289999999999,0.829145,0.5697105,0.008917,0.738885,0.8201205,-0.111624,1.143405,0.5866305,0.019089,1.214645,0.8404305,-0.107224,0.742585,1.0472805,-0.238064,1.200905,1.1067805,-0.218114,0.917696,-0.0021964999999999,-0.0062379999999999,1.082304,0.0021964999999999,0.006238,0.886925,-0.4889394999999999,0.009551,1.117535,-0.4433494999999999,-0.004947,0.8890750000000001,-0.8825695,-0.002858,1.103603,-0.8568994999999999,-0.012749,1
193,0.9990145,0.8073845000000001,0.1061305,0.8290655,0.5693145000000001,0.0106295,0.7382755,0.8210945000000001,-0.1067255,1.1435654999999998,0.5870845,0.0211925,1.2150455,0.8413845,-0.1015455,0.7423055000000001,1.0502745,-0.2325054999999999,1.2007055,1.1084744999999998,-0.2104855,0.9178545,-0.0022264999999999,-0.0060505,1.0821455,0.0022265,0.0060504999999999,0.8868655,-0.4900655,0.0102345,1.1176655,-0.4430455,-0.0042705,0.8886555,-0.8830055,-0.0020315,1.1032625,-0.8571354999999999,-0.0117314999999999,1
194,1.000501,0.8072935,0.112458,0.82899,0.5689435,0.012378,0.7373700000000001,0.8216635,-0.1024989999999999,1.14412,0.5876335,0.023881,1.21547,0.8414835,-0.097029,0.7419300000000001,1.0525935,-0.227799,1.20102,1.1091935,-0.204149,0.917987,-0.0022045,-0.0058379999999999,1.082013,0.0022044999999999,0.0058379999999999,0.8868900000000001,-0.4903565,0.01098,1.11768,-0.4430765,-0.003525,0.88813,-0.8831264999999999,-0.0011789999999999,1.102825,-0.8573565,-0.010776,1
195,1.00195,0.80745,0.1182495,0.828884,0.5686599999999999,0.0141005,0.736294,0.82199,-0.0993505,1.144754,0.58816,0.0266095,1.215774,0.84139,-0.0930304999999999,0.741474,1.05308,-0.2238305,1.2015239999999998,1.10998,-0.1987705,0.918112,-0.0020879999999999,-0.0057035,1.081888,0.0020879999999999,0.0057035,0.8864140000000001,-0.4906,0.0117435,1.117554,-0.44339,-0.0037715,0.8875240000000001,-0.88344,-0.0004104999999999,1.102311,-0.85745,-0.0098184999999999,1
196,1.00333,0.807591,0.1235349999999999,0.828824,0.5684009999999999,0.015902,0.7353240000000001,0.8219609999999999,-0.096625,1.145474,0.5886309999999999,0.0293189999999999,1.216054,0.8411409999999999,-0.089565,0.740964,1.0534210000000002,-0.221485,1.202184,1.110021,-0.194485,0.918199,-0.001975,-0.005498,1.081801,0.001975,0.0054979999999999,0.8859440000000001,-0.490919,0.0123969999999999,1.117394,-0.443359,-0.004073,0.886974,-0.8835890000000001,0.0003829999999999,1.101745,-0.8575590000000001,-0.008895,1
197,1.004561,0.8078685,0.1284365,0.828748,0.5682185,0.0176074999999999,0.7344480000000001,0.8218084999999999,-0.0944235,1.146168,0.5889885,0.0318834999999999,1.216488,0.8409584999999999,-0.0866235,0.7404280000000001,1.0537385,-0.2193035,1.202848,1.1099385000000002,-0.1909835,0.918274,-0.0018894999999999,-0.0053015,1.081726,0.0018895,0.0053014999999999,0.885428,-0.4907615,0.0128805,1.117178,-0.4434815,-0.0043085,0.8864180000000002,-0.8837715,0.0011725,1.101151,-0.8578315,-0.0081025,1
198,1.005555,0.808156,0.132538,0.828709,0.568076,0.0191929999999999,0.733769,0.821646,-0.092342,1.146929,0.589346,0.0343809999999999,1.216989,0.840796,-0.084132,0.7399089999999999,1.052276,-0.217142,1.203569,1.109776,-0.188112,0.918325,-0.001792,-0.005053,1.081675,0.001792,0.005053,0.8848890000000001,-0.491494,0.013323,1.116969,-0.443364,-0.004566,0.8859990000000001,-0.884124,0.0018589999999999,1.100603,-0.858024,-0.0073119999999999,1
199,1.0062879999999998,0.8086605,0.135608,0.828951,0.5681105,0.021218,0.7331910000000001,0.8215604999999999,-0.090322,1.147601,0.5896905,0.036736,1.217491,0.8406104999999999,-0.082092,0.739391,1.0525905,-0.215102,1.204381,1.1096905,-0.185652,0.918367,-0.0017745,-0.0047999999999999,1.081633,0.0017744999999999,0.0048,0.884391,-0.4915795,0.013726,1.116811,-0.4430395,-0.0045439999999999,0.885571,-0.8843095000000001,0.0024209999999999,1.100048,-0.8580995,-0.0065509999999999,1
200,1.0068644999999998,0.809275,0.1382865,0.8292795,0.568235,0.0233135,0.7326395,0.821495,-0.0886935,1.1482595,0.590035,0.0390245,1.2179295,0.8402850000000001,-0.0805034999999999,0.7388494999999999,1.052525,-0.2132635,1.2051394999999998,1.109625,-0.1836435,0.9183945,-0.001751,-0.0045495,1.0816055,0.001751,0.0045495,0.8839095,-0.491645,0.0141125,1.1166794999999998,-0.442625,-0.0045744999999999,0.8851395,-0.8845149999999999,0.0028345,1.0994765,-0.858185,-0.0057385,1
201,1.0071854999999998,0.8098985,0.1401669999999999,0.8296375,0.5684285,0.025407,0.7320575,0.8213785,-0.087523,1.1488875,0.5903385,0.0411959999999999,1.2183675,0.8399785,-0.079105,0.7382675000000001,1.0524985,-0.211893,1.2058475,1.1093985000000002,-0.181993,0.9184175,-0.0017274999999999,-0.004295,1.0815825,0.0017275,0.004295,0.8834375,-0.4916715,0.0143949999999999,1.1165175,-0.4421515,-0.004614,0.8846875,-0.8846615,0.0032519999999999,1.0989375,-0.8582115,-0.005033,1
202,1.0073824999999998,0.8099284999999999,0.1420155,0.8299065,0.5684184999999999,0.0274615,0.7313965,0.8212484999999999,-0.0864245,1.1493265,0.5903385,0.0432265,1.2187465,0.8397485,-0.0778685,0.7377765000000001,1.0524985,-0.2106845,1.2064665,1.1088985,-0.1804845,0.9184655,-0.0017274999999999,-0.0040534999999999,1.0815345,0.0017275,0.0040535,0.8828965,-0.4914415,0.0146125,1.1162665,-0.4417815,-0.0046494999999999,0.8841565000000001,-0.8847815,0.0035795,1.0982995,-0.8584215000000001,-0.0043524999999999,1
203,1.0072615,0.809669,0.1434645,0.8305675,0.568429,0.0298065,0.7308075,0.820689,-0.0855355,1.1492675,0.590369,0.0445475,1.2190375,0.839659,-0.0769895,0.7371675,1.051529,-0.2098655,1.2069575,1.108229,-0.1792855,0.9185215,-0.001697,-0.0038434999999999,1.0814785,0.0016969999999999,0.0038434999999999,0.8823175,-0.491411,0.0148165,1.1159875,-0.441331,-0.0046574999999999,0.8836375,-0.884911,0.0038865,1.0976485,-0.858781,-0.0037445,1
204,1.0070564999999998,0.8093415,0.1449165,0.8311395,0.5684515,0.0321215,0.7302394999999999,0.8200415000000001,-0.0847235,1.1489995,0.5903915000000001,0.0457095,1.2193195,0.8396215,-0.0761675,0.7365195,1.0507514999999998,-0.2091635,1.2073595,1.1075515,-0.1781435,0.9185585,-0.0016745,-0.0036464999999999,1.0814415,0.0016744999999999,0.0036465,0.8817195,-0.4913885,0.0151455,1.1156495,-0.4413085,-0.0045204999999999,0.8831095,-0.8850585,0.0042295,1.0968955,-0.8592584999999999,-0.0031414999999999,1
205,1.006746,0.8093729999999999,0.1462155,0.831557,0.5687829999999999,0.0344644999999999,0.729757,0.819503,-0.0839045,1.148557,0.590723,0.0468755,1.219557,0.8396129999999999,-0.0751675,0.735927,1.050213,-0.2084445,1.207827,1.107513,-0.1769645,0.918592,-0.0016969999999999,-0.0035274999999999,1.081408,0.0016969999999999,0.0035274999999999,0.881037,-0.490927,0.0154124999999999,1.115257,-0.440847,-0.0044725,0.882467,-0.8851070000000001,0.0046574999999999,1.096018,-0.8596370000000001,-0.0026115,1
206,1.0064405,0.8096805,0.1473795,0.8318715,0.5691005,0.0368285,0.7292915,0.8189705,-0.0830605,1.1479815,0.5908005000000001,0.0480325,1.2197615,0.8395805000000001,-0.0741345,0.7352814999999999,1.0497805,-0.2076704999999999,1.2081615,1.1074805,-0.1757405,0.9186245,-0.0017644999999999,-0.0034584999999999,1.0813754999999998,0.0017644999999999,0.0034584999999999,0.8803215,-0.4905195,0.0156924999999999,1.1148515,-0.4400495,-0.0043895,0.8818315,-0.8851595,0.0051594999999999,1.0950225,-0.8600795,-0.0020625,1
207,1.0054314999999998,0.811333,0.1481555,0.8323905,0.569403,0.0394085,0.7289905,0.818263,-0.0822445,1.1480005,0.5906429999999999,0.0495985,1.2199705,0.8396129999999999,-0.0730715,0.7345305,1.049383,-0.2069245,1.2084205,1.107583,-0.1746444999999999,0.9186625,-0.0018309999999999,-0.0034365,1.0813375,0.001831,0.0034364999999999,0.8795904999999999,-0.490337,0.0159785,1.1145105,-0.439297,-0.0043535,0.8810905,-0.8851870000000001,0.0057394999999999,1.0939905,-0.860487,-0.0015255,1
208,1.005193,0.8113205,0.1493465,0.832627,0.5698105,0.0414475,0.728667,0.8177605,-0.0814535,1.148197,0.5904305,0.0513035,1.220177,0.8397105,-0.0720295,0.733717,1.0491605000000002,-0.2062435,1.208687,1.1079605,-0.1737035,0.918707,-0.0018864999999999,-0.0034655,1.081293,0.0018865,0.0034655,0.879087,-0.4904495,0.0161015,1.114137,-0.4384595,-0.0043535,0.880287,-0.8849895,0.0063045,1.092906,-0.8609795,-0.0009785,1
209,1.005009,0.811359,0.150525,0.832756,0.570299,0.043356,0.728356,0.8172590000000001,-0.080665,1.148416,0.590249,0.053049,1.220436,0.839809,-0.0709569999999999,0.732866,1.049739,-0.205605,1.208986,1.108339,-0.172795,0.918744,-0.0019439999999999,-0.0035049999999999,1.081256,0.001944,0.003505,0.8786160000000001,-0.490471,0.016171,1.113866,-0.437591,-0.0046039999999999,0.8795660000000001,-0.885021,0.006886,1.091827,-0.8614109999999999,-0.0004249999999999,1
210,1.004823,0.8109474999999999,0.151486,0.832836,0.5707774999999999,0.0452059999999999,0.728056,0.8167475,-0.0798639999999999,1.148826,0.5897675,0.0548499999999999,1.220686,0.8399175000000001,-0.069852,0.731966,1.0503175,-0.205014,1.209406,1.1086175,-0.171884,0.91877,-0.0019834999999999,-0.00355,1.08123,0.0019835,0.00355,0.8782960000000001,-0.4923424999999999,0.0161149999999999,1.113536,-0.4368325,-0.004788,0.878856,-0.8849925000000001,0.0075089999999999,1.09072,-0.8617925,0.000174,1
211,1.0048385,0.810211,0.152391,0.8329975000000001,0.571041,0.047003,0.7277975,0.816191,-0.079109,1.1494775,0.5891310000000001,0.056605,1.2209875,0.839941,-0.068785,0.7310975,1.050821,-0.204399,1.2099375,1.1088209999999998,-0.170949,0.9187705,-0.0020159999999999,-0.003603,1.0812295,0.002016,0.003603,0.8780475000000001,-0.494259,0.016092,1.1132475,-0.436189,-0.0049649999999999,0.8782075,-0.8851289999999999,0.008142,1.0897075,-0.862239,0.000724,1
212,1.0050834999999998,0.808856,0.1533995,0.8329044999999999,0.571226,0.0485305,0.7275345,0.815936,-0.0783405,1.1501945,0.588606,0.0583115,1.2213545,0.839946,-0.0677805,0.7302345,1.051006,-0.2041505,1.2106045,1.109006,-0.1701205,0.9187545,-0.0020359999999999,-0.0036645,1.0812455,0.0020359999999999,0.0036644999999999,0.8778945,-0.496264,0.0160295,1.1130745,-0.435564,-0.0051744999999999,0.8776545,-0.885254,0.0087804999999999,1.0887745,-0.862324,0.0012704999999999,0
