sb224sc-HT22-VT27/4dt907/src/ml-research/a11/datafiles/labeled_files/A94_kinect_mirrored.csv
FrameNo,nose_3d_x,nose_3d_y,nose_3d_z,left_shoulder_3d_x,left_shoulder_3d_y,left_shoulder_3d_z,left_elbow_3d_x,left_elbow_3d_y,left_elbow_3d_z,right_shoulder_3d_x,right_shoulder_3d_y,right_shoulder_3d_z,right_elbow_3d_x,right_elbow_3d_y,right_elbow_3d_z,left_wrist_3d_x,left_wrist_3d_y,left_wrist_3d_z,right_wrist_3d_x,right_wrist_3d_y,right_wrist_3d_z,left_hip_3d_x,left_hip_3d_y,left_hip_3d_z,right_hip_3d_x,right_hip_3d_y,right_hip_3d_z,left_knee_3d_x,left_knee_3d_y,left_knee_3d_z,right_knee_3d_x,right_knee_3d_y,right_knee_3d_z,left_ankle_3d_x,left_ankle_3d_y,left_ankle_3d_z,right_ankle_3d_x,right_ankle_3d_y,right_ankle_3d_z,activity_label
0,1.0230925,0.7372744999999999,0.1488835,0.8081655,0.5745844999999999,0.0972465,0.7532855,0.7911845,0.0798465,1.1508455,0.5748745,0.1205365,1.2002655,0.8724345,0.0611925,0.7205055,1.0160245,0.0850585,1.1840255,1.1212245,0.0750005,0.9242455,-0.0021655,0.0006215,1.0757545,0.0021655,-0.0006214999999999,0.8493455,-0.5974255,-0.0096814999999999,1.1544655,-0.5928455,-0.0083654999999999,0.7683255,-1.0394755,-0.1064864999999999,1.1820155,-0.9635855,0.0150615,0
1,1.0226875,0.737113,0.1491175,0.8092145,0.574923,0.0971564999999999,0.7529345000000001,0.7911429999999999,0.0802114999999999,1.1509645,0.574533,0.1207085,1.1985445,0.872393,0.0613735,0.7187945,1.025133,0.0872375,1.1836245,1.0948330000000002,0.0460284999999999,0.9242255,-0.002189,0.0007854999999999,1.0757745,0.002189,-0.0007855,0.8494545,-0.597487,-0.0098085,1.1544445,-0.5927870000000001,-0.0078895,0.7666045,-1.041467,-0.1094125,1.1823245,-0.966467,0.0178324999999999,0
2,1.0204885,0.736749,0.1480975,0.8106774999999999,0.575739,0.0972365,0.7521575,0.791309,0.0820755,1.1510175,0.573939,0.1211435,1.1956675,0.872069,0.0603205,0.7192575,1.0233489999999998,0.0868535,1.1816975,1.119249,0.0715735,0.9241795,-0.00232,0.0011654999999999,1.0758205,0.00232,-0.0011654999999999,0.8494275,-0.597631,-0.0095395,1.1536975,-0.592831,-0.0092555,0.7661875,-1.041851,-0.1083625,1.1813075,-0.966861,0.0188785,0
3,1.019333,0.73637,0.148222,0.81355,0.5777599999999999,0.099369,0.75071,0.79213,0.082811,1.15083,0.57331,0.121206,1.19367,0.87164,0.059922,0.7195,1.02186,0.086823,1.18133,1.11876,0.071578,0.92428,-0.002114,0.00094,1.07572,0.002114,-0.0009399999999999,0.84946,-0.59741,-0.0095459999999999,1.15383,-0.5930200000000001,-0.0091639999999999,0.7658,-1.04264,-0.1085979999999999,1.1809299999999998,-0.96749,0.018896,0
4,1.018601,0.7355855,0.1480405,0.813782,0.5784655,0.0998815,0.749332,0.7923555,0.0827495,1.149982,0.5732555,0.1209155,1.191942,0.8716355,0.0591185,0.7191620000000001,1.0211155,0.0868345,1.180482,1.1185155,0.0713845,0.924822,-0.0021285,0.0011714999999999,1.075178,0.0021285,-0.0011714999999999,0.848982,-0.5973245,-0.0097635,1.153192,-0.5930445,-0.0096825,0.764962,-1.0429845,-0.1085595,1.179082,-0.9682345,0.0172275,0
5,1.016923,0.7323425,0.146333,0.814721,0.5792525,0.100398,0.7486210000000001,0.7926425,0.082787,1.150011,0.5726925,0.120685,1.190791,0.8674625,0.059544,0.7197610000000001,1.0203725,0.086851,1.180451,1.1183725,0.071318,0.924847,-0.0021355,0.0014899999999999,1.075153,0.0021355,-0.0014899999999999,0.849071,-0.5973775,-0.009915,1.153261,-0.5930275,-0.009915,0.765191,-1.0439275,-0.108707,1.179451,-0.9736875,0.016479,0
6,1.0161965,0.732981,0.1464079999999999,0.8150775,0.579681,0.10052,0.7481275000000001,0.7927909999999999,0.083525,1.1496075,0.572511,0.120455,1.1907275,0.8711409999999999,0.059689,0.7197175,1.020111,0.086729,1.1801575,1.118511,0.071323,0.9251255,-0.002048,0.001468,1.0748745,0.002048,-0.0014679999999999,0.8489075,-0.597249,-0.0101079999999999,1.1535475,-0.592959,-0.0086739999999999,0.7632475,-1.043689,-0.110912,1.1785375,-0.974469,0.017219,0
7,1.017319,0.734838,0.148069,0.8139040000000001,0.578178,0.100755,0.748084,0.791068,0.082908,1.149274,0.572448,0.12056,1.193474,0.865908,0.059335,0.718134,1.019248,0.087125,1.181684,1.119948,0.0716,0.925008,-0.00215,0.001356,1.074992,0.00215,-0.0013559999999999,0.8497340000000001,-0.597572,-0.0102009999999999,1.154384,-0.592822,-0.0094739999999999,0.7670440000000001,-1.043052,-0.1071609999999999,1.180264,-0.971932,0.016833,0
8,1.0169895,0.73469,0.148204,0.8139055,0.57839,0.101083,0.7473455,0.79115,0.082856,1.1490155,0.57226,0.1205639999999999,1.1933655,0.8637,0.0592999999999999,0.7177155,1.01927,0.087182,1.1817455,1.11997,0.07157,0.9251105,-0.002138,0.0013909999999999,1.0748895,0.002138,-0.001391,0.8500255,-0.5975900000000001,-0.010252,1.1546255,-0.5928,-0.009732,0.7676255,-1.04313,-0.106796,1.1803955,-0.97241,0.0168599999999999,0
9,1.0165384999999998,0.734576,0.1483225,0.8138815,0.578636,0.1013375,0.7466714999999999,0.7912060000000001,0.0827965,1.1488215,0.5721160000000001,0.1205855,1.1933515,0.8617060000000001,0.0592584999999999,0.7175315,1.018826,0.0871115,1.1821115,1.120126,0.0716755,0.9251245,-0.00212,0.0014324999999999,1.0748755,0.00212,-0.0014325,0.8503715000000001,-0.597594,-0.0103145,1.1549615,-0.5927739999999999,-0.0099215,0.7684915,-1.043174,-0.1060675,1.1805815,-0.972674,0.0167234999999999,0
10,1.0160475,0.734494,0.14868,0.8138735,0.5787939999999999,0.101518,0.7459935,0.7912739999999999,0.082706,1.1485935,0.5719839999999999,0.120567,1.1935635,0.8599939999999999,0.059197,0.7172935,1.018804,0.087032,1.1826035,1.120404,0.071786,0.9251245,-0.002113,0.0014199999999999,1.0748755,0.002113,-0.0014199999999999,0.8507035000000001,-0.597566,-0.010429,1.1552735,-0.592766,-0.010022,0.7694135,-1.043096,-0.10538,1.1808735,-0.972696,0.016617,0
11,1.01547,0.7344660000000001,0.1489869999999999,0.813887,0.578936,0.1016,0.745287,0.791246,0.082539,1.148357,0.5718460000000001,0.1204969999999999,1.194167,0.858276,0.059139,0.716877,1.018776,0.0868879999999999,1.183217,1.120576,0.071837,0.925126,-0.002106,0.0013639999999999,1.074874,0.002106,-0.001364,0.851017,-0.5975339999999999,-0.010603,1.155537,-0.5927539999999999,-0.010186,0.770217,-1.042924,-0.1047429999999999,1.181247,-0.972724,0.016415,0
12,1.014775,0.7344660000000001,0.1493495,0.813848,0.579126,0.1016515,0.744508,0.791236,0.0823454999999999,1.148078,0.571736,0.1204855,1.194988,0.856516,0.0591905,0.716278,1.018776,0.0867755,1.183918,1.120776,0.0720075,0.925141,-0.002106,0.0012674999999999,1.074859,0.002106,-0.0012675,0.851248,-0.5975339999999999,-0.0107384999999999,1.155618,-0.5927539999999999,-0.0101345,0.770878,-1.042724,-0.1039905,1.181728,-0.972724,0.0162895,0
13,1.014148,0.7345925,0.149837,0.813721,0.5792025,0.101664,0.743791,0.7912425,0.082141,1.147811,0.5716424999999999,0.120483,1.196001,0.8551424999999999,0.059207,0.715561,1.0188825,0.086621,1.184951,1.1208825,0.07237,0.925144,-0.0020995,0.001175,1.074856,0.0020995,-0.0011749999999999,0.851491,-0.5975675,-0.0108689999999999,1.155741,-0.5927475,-0.0099789999999999,0.771371,-1.0427175,-0.1038529999999999,1.182231,-0.9722875,0.01621,0
14,1.0135145,0.7347,0.1502365,0.8135595,0.57924,0.1016644999999999,0.7430895,0.79127,0.0817914999999999,1.1475995,0.57165,0.1205025,1.1969795,0.85356,0.0591995,0.7148895,1.01871,0.0864635,1.1861895,1.1210099999999998,0.0728415,0.9251345,-0.002101,0.0010744999999999,1.0748655,0.002101,-0.0010744999999999,0.8517895,-0.59761,-0.0110024999999999,1.1559095,-0.5927399999999999,-0.0100045,0.7718695,-1.04269,-0.1038435,1.1827895,-0.97176,0.0161434999999999,0
15,1.01278,0.735046,0.1505429999999999,0.813562,0.579746,0.10156,0.742782,0.791676,0.08133,1.147552,0.571966,0.120421,1.197992,0.8538060000000001,0.059117,0.7145619999999999,1.019226,0.086163,1.187622,1.1215259999999998,0.073319,0.925086,-0.002088,0.000797,1.074914,0.002088,-0.0007969999999999,0.851862,-0.597654,-0.011247,1.156072,-0.5927439999999999,-0.0101099999999999,0.772032,-1.042474,-0.1038169999999999,1.182972,-0.971484,0.016057,0
16,1.012287,0.7353105,0.1506565,0.813598,0.5801805,0.1014225,0.742488,0.7920105000000001,0.0807644999999999,1.147538,0.5722305,0.1203124999999999,1.198988,0.8540705000000001,0.0590644999999999,0.714268,1.0197905,0.0858744999999999,1.189098,1.1217905,0.0738945,0.925055,-0.0020515,0.0005864999999999,1.074945,0.0020515,-0.0005865,0.851958,-0.5976695,-0.0115215,1.156218,-0.5927595,-0.0102575,0.772328,-1.0425095,-0.1039735,1.183148,-0.9713195,0.0159314999999999,0
17,1.011635,0.7355904999999999,0.1507215,0.813627,0.5806405,0.1012945,0.742217,0.7923005,0.0802275,1.147527,0.5725304999999999,0.1202135,1.199967,0.8543505,0.0589965,0.713917,1.0204705,0.0855645,1.190447,1.1221705000000002,0.0745455,0.925035,-0.0020145,0.0003244999999999,1.074965,0.0020145,-0.0003244999999999,0.852047,-0.5976595,-0.0117755,1.156357,-0.5927895000000001,-0.0104855,0.772547,-1.0426295,-0.1041385,1.183237,-0.9708895,0.0158705,0
18,1.0112945,0.7358695000000001,0.1508165,0.8136485,0.5810495,0.1011405,0.7419785,0.7926195,0.0796785,1.1474885,0.5727695,0.1201025,1.2009584999999998,0.8551995,0.0589235,0.7127885,1.0262195,0.0852064999999999,1.1918785,1.1224195,0.0752535,0.9250155,-0.0019255,0.0001075,1.0749845,0.0019255,-0.0001074999999999,0.8520885,-0.5975905,-0.0120455,1.1564685,-0.5928705,-0.0107125,0.7725385,-1.0426805,-0.1046135,1.1833885,-0.9704405,0.0159295,0
19,1.0108385,0.736267,0.1508519999999999,0.8137235,0.581507,0.100983,0.7417935,0.793077,0.079169,1.1474835,0.5731970000000001,0.120006,1.2018235,0.8558370000000001,0.058823,0.7116235,1.032577,0.085007,1.1930535,1.122777,0.076099,0.9249615,-0.001861,-9.999999999999593e-05,1.0750385,0.001861,0.0001,0.8522235,-0.597523,-0.0122859999999999,1.1565835,-0.592923,-0.0106609999999999,0.7725235,-1.042423,-0.104998,1.1837335,-0.969983,0.015903,0
20,1.010513,0.7367140000000001,0.1509345,0.813803,0.582014,0.1008854999999999,0.741643,0.7935840000000001,0.0787235,1.147453,0.573654,0.1199544999999999,1.202473,0.856384,0.0587604999999999,0.7105630000000001,1.037284,0.0845185,1.194043,1.123284,0.0770184999999999,0.924894,-0.001839,-0.0002525,1.075106,0.001839,0.0002524999999999,0.852353,-0.5974759999999999,-0.0124715,1.156743,-0.5929359999999999,-0.0105805,0.772493,-1.042316,-0.1054254999999999,1.184093,-0.969476,0.0156884999999999,0
21,1.0102865,0.7371485,0.1510365,0.8138865,0.5825285,0.1007965,0.7414965,0.7940985,0.0783305,1.1474365,0.5741285,0.1199005,1.2029965,0.8568985,0.0586985,0.7096765,1.0433985,0.0840945,1.1947865,1.1236985,0.0779755,0.9248255,-0.0018245,-0.0003955,1.0751745,0.0018245,0.0003955,0.8524965000000001,-0.5974214999999999,-0.0126524999999999,1.1569165,-0.5929615,-0.0105554999999999,0.7724265000000001,-1.0422015,-0.1055734999999999,1.1843665,-0.9689615,0.0154585,0
22,1.0098995,0.7374014999999999,0.1512325,0.8138795,0.5828114999999999,0.1007665,0.7412495,0.7942615,0.0778875,1.1474194999999998,0.5743715,0.1198955,1.2033795,0.8574915,0.0587145,0.7088795,1.0498915000000002,0.0836504999999999,1.1951895,1.1241915,0.0789985,0.9247645,-0.0017885,-0.0004834999999999,1.0752355,0.0017884999999999,0.0004834999999999,0.8526295,-0.5974285,-0.0129244999999999,1.1570995,-0.5929685,-0.0105755,0.7724395,-1.0419085,-0.1053375,1.1848095,-0.9684885,0.0152085,0
23,1.0094815,0.7376015,0.1515,0.8138715,0.5830515,0.10084,0.7410615,0.7943915,0.077577,1.1473615,0.5746415,0.119972,1.2037115,0.8581015,0.058745,0.7080115,1.0542015,0.083315,1.1953515,1.1247015,0.080105,0.9247205,-0.0017404999999999,-0.0007129999999999,1.0752795,0.0017405,0.0007129999999999,0.8527415,-0.5974185000000001,-0.013083,1.1573015,-0.5929985,-0.0105299999999999,0.7724615,-1.0416985,-0.10584,1.1851615,-0.9681585,0.015101,0
24,1.0090965,0.7375970000000001,0.151886,0.8138245,0.583047,0.101034,0.7408445,0.794297,0.077434,1.1471945,0.574707,0.120194,1.2039745,0.858287,0.0588179999999999,0.7077045,1.054587,0.082908,1.1954545,1.124987,0.080928,0.9246585,-0.001745,-0.000843,1.0753415,0.0017449999999999,0.0008429999999999,0.8528145,-0.597433,-0.013088,1.1574745,-0.592973,-0.010442,0.7724345000000001,-1.041813,-0.106304,1.1854545,-0.968273,0.0150859999999999,0
25,1.0087355,0.7375575,0.1522055,0.8137695,0.5830075,0.1011825,0.7406495,0.7941575,0.0772964999999999,1.1469995,0.5747475,0.1203664999999999,1.2041895,0.8581675,0.0588604999999999,0.7077195000000001,1.0547475,0.0825125,1.1955395,1.1251475,0.0815785,0.9245745,-0.0017274999999999,-0.0009665,1.0754255,0.0017275,0.0009665,0.8528995,-0.5974325,-0.0131505,1.1576595,-0.5929725,-0.0104005,0.7725595000000001,-1.0415525,-0.1067045,1.1857295,-0.9686325,0.0149285,0
26,1.0083705,0.7374755000000001,0.1525135,0.8137585,0.5830255000000001,0.1013434999999999,0.7404485000000001,0.7940955000000001,0.0770365,1.1468385,0.5749255000000001,0.1205484999999999,1.2044185,0.8581055000000001,0.0589204999999999,0.7078884999999999,1.0546855,0.0818724999999999,1.1957885,1.1252855,0.0819874999999999,0.9244695,-0.0017815,-0.0010655,1.0755305,0.0017815,0.0010654999999999,0.8530285000000001,-0.5975045,-0.0132395,1.1578485,-0.5929144999999999,-0.0103415,0.7727085000000001,-1.0413145,-0.1069465,1.1860784999999998,-0.9690645,0.0148254999999999,0
27,1.008162,0.7370850000000001,0.1525535,0.8137920000000001,0.5827650000000001,0.1013775,0.740282,0.7937350000000001,0.0765715,1.146832,0.574755,0.1205375,1.204692,0.857415,0.0587635,0.7074119999999999,1.059965,0.0799275,1.196022,1.124965,0.0819295,0.924391,-0.001798,-0.0010034999999999,1.075609,0.001798,0.0010035,0.853212,-0.597595,-0.0134444999999999,1.158062,-0.5928749999999999,-0.0105184999999999,0.7729420000000001,-1.041235,-0.1069965,1.186262,-0.969395,0.0144475,0
28,1.007797,0.736716,0.152544,0.813697,0.582566,0.101437,0.740047,0.793426,0.076079,1.146907,0.575066,0.120518,1.204857,0.856756,0.05862,0.706917,1.065026,0.078011,1.196177,1.124726,0.081912,0.924317,-0.001805,-0.001027,1.075683,0.001805,0.001027,0.853297,-0.597664,-0.013607,1.158207,-0.592854,-0.010679,0.773227,-1.040774,-0.1068559999999999,1.186327,-0.969664,0.0141829999999999,0
29,1.007524,0.7364539999999999,0.152497,0.8136010000000001,0.582444,0.101475,0.739781,0.793204,0.075493,1.146971,0.575454,0.120481,1.205021,0.856084,0.058333,0.706701,1.070484,0.07619,1.196261,1.124384,0.081876,0.924255,-0.0018279999999999,-0.0010819999999999,1.075745,0.0018279999999999,0.001082,0.8533710000000001,-0.597716,-0.0137849999999999,1.158281,-0.592846,-0.0108769999999999,0.7735110000000001,-1.040316,-0.106793,1.186431,-0.969876,0.013622,0
30,1.007204,0.7362204999999999,0.152468,0.81349,0.5824205,0.101516,0.73949,0.7930205,0.074754,1.14679,0.5758805,0.120456,1.2052,0.8553904999999999,0.057836,0.70701,1.0707105,0.073934,1.19634,1.1241105,0.0817519999999999,0.92421,-0.0018245,-0.001177,1.07579,0.0018244999999999,0.0011769999999999,0.85344,-0.5977495,-0.013957,1.15836,-0.5928695,-0.011092,0.77384,-1.0399895,-0.106682,1.18689,-0.9698895,0.0130309999999999,0
31,1.0070435,0.736033,0.152473,0.8134635,0.582483,0.101529,0.7392835,0.792943,0.073832,1.1466035,0.576093,0.120319,1.2053835,0.854523,0.0571539999999999,0.7075335,1.070633,0.071592,1.1964035,1.123533,0.081199,0.9241555,-0.001849,-0.001294,1.0758445,0.001849,0.0012939999999999,0.8534835000000001,-0.597767,-0.014085,1.1584535,-0.592877,-0.011341,0.7740635000000001,-1.039867,-0.106797,1.1872635,-0.969837,0.0124909999999999,0
32,1.006919,0.7358615,0.1523995,0.813455,0.5825914999999999,0.1015445,0.739005,0.7929014999999999,0.0727895,1.146455,0.5762714999999999,0.1201585,1.205625,0.8534115,0.0562595,0.707865,1.0700415,0.0693745,1.196505,1.1230415,0.0802954999999999,0.924101,-0.0018725,-0.0014174999999999,1.075899,0.0018725,0.0014175,0.8535349999999999,-0.5977885000000001,-0.0142214999999999,1.1585649999999998,-0.5928785000000001,-0.0116674999999999,0.774265,-1.0398585,-0.1070204999999999,1.187655,-0.9698385,0.0121415,0
33,1.006736,0.7358340000000001,0.152358,0.8134,0.5828439999999999,0.101631,0.73865,0.793004,0.0717329999999999,1.14626,0.576554,0.1200189999999999,1.20587,0.852344,0.055323,0.70809,1.069694,0.067204,1.19667,1.122694,0.079242,0.924041,-0.001941,-0.001617,1.075959,0.0019409999999999,0.001617,0.85356,-0.597836,-0.014289,1.15866,-0.5928260000000001,-0.011894,0.77446,-1.039806,-0.107282,1.18803,-0.969676,0.011814,0
34,1.0065395,0.735832,0.1520845,0.8133115,0.583082,0.1017425,0.7382215,0.793102,0.0705985,1.1460914999999998,0.577172,0.1198445,1.2061915,0.851182,0.0540645,0.7083015000000001,1.069432,0.0653654999999999,1.1970315,1.122332,0.0778465,0.9239835,-0.001992,-0.0018344999999999,1.0760165,0.001992,0.0018345,0.8534815,-0.597868,-0.0143244999999999,1.1587015,-0.592788,-0.0120735,0.7746315,-1.039568,-0.1072755,1.1882315,-0.969718,0.0117025,0
35,1.0064924999999998,0.735832,0.151559,0.8132515,0.583122,0.101661,0.7382015,0.793102,0.069195,1.1460415,0.577692,0.119494,1.2064915,0.849852,0.052484,0.7086915,1.069632,0.063407,1.1974315,1.121732,0.075783,0.9239275,-0.001992,-0.0019859999999999,1.0760725,0.001992,0.001986,0.8533615,-0.597868,-0.0144149999999999,1.1586515,-0.592788,-0.0123329999999999,0.7744515,-1.039368,-0.106821,1.1881715,-0.969598,0.01156,0
36,1.0064405,0.7360530000000001,0.1510355,0.8131905,0.5833830000000001,0.1016495,0.7381605,0.793323,0.0679095,1.1462005,0.578543,0.1191895,1.2067905,0.849163,0.0511365,0.7092705,1.069153,0.0627655,1.1978905,1.121453,0.0738365,0.9238605,-0.0019639999999999,-0.0021235,1.0761395,0.0019639999999999,0.0021235,0.8532005,-0.597837,-0.0144015,1.1585805,-0.592807,-0.0124955,0.7743305,-1.039047,-0.1060245,1.1881005,-0.969067,0.0115965,0
37,1.0063875,0.7362690000000001,0.1502899999999999,0.8131165000000001,0.583669,0.101565,0.7381265,0.793539,0.066583,1.1463964999999998,0.579369,0.118796,1.2070965,0.8485290000000001,0.0496259999999999,0.7098965000000002,1.069269,0.0620939999999999,1.1983865,1.121169,0.071589,0.9237865,-0.002005,-0.002139,1.0762135,0.002005,0.0021389999999999,0.8530365,-0.597861,-0.014437,1.1585165,-0.592861,-0.012679,0.7741264999999999,-1.038631,-0.10599,1.1880164999999998,-0.968861,0.0115799999999999,0
38,1.0066055,0.7363474999999999,0.1494225,0.8133555,0.5840775,0.1013755,0.7382055000000001,0.7938075,0.0651974999999999,1.1466555,0.5797675,0.1182935,1.2079355,0.8475175,0.0480865,0.7105155000000001,1.0702875,0.0611095,1.1994855,1.1204875,0.0692295,0.9237285,-0.0020625,-0.0019845,1.0762714999999998,0.0020625,0.0019845,0.8525155,-0.5978625000000001,-0.0144755,1.1581455,-0.5929025,-0.0128645,0.7737655,-1.0380125,-0.1047375,1.1875455,-0.9690425,0.0115424999999999,0
39,1.0068665,0.7365225,0.1485305,0.8135785,0.5845125,0.1011805,0.7383085,0.7941525,0.0638895,1.1469185,0.5801125,0.1178245,1.2087285,0.8465125,0.0466175,0.7108085,1.0710025,0.0601245,1.2003985,1.1199025,0.0671805,0.9236485,-0.0020545,-0.0018884999999999,1.0763515,0.0020545,0.0018885,0.8518985,-0.5978575,-0.0145114999999999,1.1577085,-0.5929275,-0.0130254999999999,0.7733085,-1.0368974999999998,-0.1033195,1.1869685,-0.9689475,0.0117035,0
40,1.0071755,0.7368965000000001,0.147634,0.8138805,0.5850565,0.1009849999999999,0.7384805,0.7945465,0.062746,1.1471205,0.5801265,0.117531,1.2095205,0.8457765,0.0452199999999999,0.7108605,1.0715264999999998,0.059213,1.2013005,1.1196265,0.065188,0.9235875,-0.0020585,-0.0018499999999999,1.0764125,0.0020585,0.0018499999999999,0.8513105,-0.5978635,-0.0145409999999999,1.1573105,-0.5929234999999999,-0.013102,0.7726905,-1.0360735,-0.102446,1.1862405,-0.9687035,0.0120089999999999,0
41,1.007408,0.7373025,0.1468115,0.814162,0.5856025,0.1007735,0.738692,0.7949725,0.0617015,1.147302,0.5801025,0.1172565,1.210262,0.8452525,0.0439685,0.7108019999999999,1.0714525,0.0583195,1.2021119999999998,1.1193525,0.0632755,0.923535,-0.0020964999999999,-0.0018134999999999,1.076465,0.0020965,0.0018135,0.850692,-0.5978375,-0.0145874999999999,1.1568919999999998,-0.5929675,-0.0131494999999999,0.772362,-1.0357475,-0.1018784999999999,1.1860119999999998,-0.9687775,0.0118325,0
42,1.0075045,0.7377485,0.1459659999999999,0.8144445000000001,0.5860785,0.100535,0.7389545,0.7953785,0.0606229999999999,1.1473945,0.5799785,0.117003,1.2109745,0.8447585,0.042634,0.7113944999999999,1.0710285,0.057454,1.2028945,1.1189285,0.06125,0.9234755,-0.0021275,-0.001752,1.0765245,0.0021275,0.0017519999999999,0.8500544999999999,-0.5978015,-0.01462,1.1564645,-0.5930215,-0.013206,0.7719445,-1.0354715,-0.1018039999999999,1.1853245,-0.9690115,0.0120819999999999,0
43,1.0077065,0.7379165,0.145092,0.8147825,0.5863164999999999,0.100223,0.7393225,0.7955865,0.059606,1.1473625,0.5794165,0.116571,1.2117025,0.8437865,0.041448,0.7120725,1.0707565,0.056504,1.2047925,1.1122565,0.054532,0.9234175,-0.0020914999999999,-0.0015349999999999,1.0765825,0.0020915,0.001535,0.8494825,-0.5977135,-0.0146689999999999,1.1560525,-0.5931335000000001,-0.0133199999999999,0.7712425,-1.0353435,-0.102098,1.1847225,-0.9694835,0.012185,0
44,1.007988,0.738147,0.144261,0.8151619999999999,0.586567,0.0999569999999999,0.7398020000000001,0.7958369999999999,0.0588999999999999,1.147372,0.5788869999999999,0.1162,1.212422,0.842827,0.0404079999999999,0.712812,1.070707,0.0556779999999999,1.206702,1.105507,0.0482639999999999,0.923362,-0.002079,-0.001377,1.076638,0.002079,0.0013769999999999,0.848952,-0.597643,-0.014668,1.155652,-0.5932130000000001,-0.013333,0.7705620000000001,-1.035293,-0.102119,1.183982,-0.970163,0.0121829999999999,0
45,1.008306,0.73846,0.1435225,0.8155950000000001,0.58695,0.0997135,0.740405,0.79623,0.0582695,1.147655,0.57856,0.1158775,1.213165,0.84202,0.0393634999999999,0.713545,1.0701,0.0548255,1.208595,1.0991000000000002,0.0422125,0.923343,-0.002045,-0.0012274999999999,1.076657,0.002045,0.0012274999999999,0.8484849999999999,-0.59755,-0.0146325,1.155315,-0.59328,-0.0133355,0.7699250000000001,-1.0349,-0.1025275,1.183155,-0.97054,0.0123805,0
46,1.008673,0.7387229999999999,0.142899,0.816029,0.587293,0.09949,0.741059,0.7966129999999999,0.057715,1.147879,0.578243,0.1155779999999999,1.213899,0.8411829999999999,0.038403,0.714059,1.069363,0.053971,1.210459,1.092563,0.036433,0.923336,-0.0020239999999999,-0.0010949999999999,1.076664,0.002024,0.0010949999999999,0.847969,-0.597477,-0.014574,1.154969,-0.593337,-0.013335,0.769319,-1.034537,-0.102431,1.182529,-0.970937,0.0126429999999999,0
47,1.008734,0.738574,0.1423215,0.816059,0.587094,0.0993835,0.741189,0.796404,0.0573225,1.147879,0.577954,0.1153765,1.214089,0.840464,0.0375395,0.714079,1.0685440000000002,0.0534705,1.211619,1.086044,0.0309825,0.923333,-0.001995,-0.0009734999999999,1.076667,0.001995,0.0009735,0.847819,-0.597386,-0.0145534999999999,1.154859,-0.593406,-0.0132784999999999,0.768949,-1.0345559999999998,-0.1024284999999999,1.182159,-0.971316,0.0129715,0
48,1.008775,0.738236,0.1417729999999999,0.816136,0.586756,0.099263,0.7413259999999999,0.796066,0.056972,1.147916,0.577576,0.115176,1.214296,0.8396560000000001,0.036778,0.714146,1.0677059999999998,0.052648,1.212796,1.079506,0.025434,0.923301,-0.0019449999999999,-0.0008169999999999,1.076699,0.001945,0.0008169999999999,0.847756,-0.597294,-0.014544,1.1548159999999998,-0.593434,-0.0132549999999999,0.768626,-1.034694,-0.102427,1.182176,-0.971494,0.013121,0
49,1.008864,0.738015,0.1412255,0.816248,0.586535,0.0991855,0.741438,0.795845,0.0566705,1.147998,0.577275,0.1149415,1.214688,0.838995,0.0360975,0.7142379999999999,1.0670849999999998,0.0518094999999999,1.214028,1.0730849999999998,0.0198255,0.923294,-0.001812,-0.0007595,1.076706,0.001812,0.0007594999999999,0.8477380000000001,-0.597185,-0.0144945,1.154858,-0.593535,-0.0132035,0.7685580000000001,-1.034915,-0.1023844999999999,1.182248,-0.971355,0.0132784999999999,0
50,1.0088705,0.7382575,0.140632,0.8163775,0.5868075,0.099073,0.7415275,0.7961175,0.056271,1.1478075,0.5771275,0.114587,1.2151575,0.8385775,0.035304,0.7143475,1.0676575,0.050799,1.2152675,1.0670575,0.014147,0.9232805,-0.0019154999999999,-0.0006519999999999,1.0767195,0.0019155,0.0006519999999999,0.8477574999999999,-0.5973025,-0.0144789999999999,1.1549375,-0.5934425,-0.0131999999999999,0.7686075,-1.0355425,-0.1035879999999999,1.1824375,-0.9709425,0.013298,0
51,1.008914,0.7382575,0.1398355,0.816518,0.5866775,0.0990765,0.7416780000000001,0.7959575,0.0557615,1.147648,0.5766975,0.1142104999999999,1.215518,0.8381175,0.0343464999999999,0.714488,1.0673575,0.0496515,1.215858,1.0607575,0.0083414999999999,0.923293,-0.0019154999999999,-0.0006514999999999,1.076707,0.0019155,0.0006514999999999,0.847908,-0.5973025,-0.0145175,1.155078,-0.5934425,-0.0132395,0.768838,-1.0360425,-0.1046145,1.182788,-0.9716725,0.0132554999999999,1
52,1.008915,0.7381975000000001,0.138989,0.8166599999999999,0.5865375,0.09908,0.74185,0.7956975000000001,0.054793,1.14749,0.5762775,0.113924,1.2160099999999998,0.8379175,0.033052,0.7145900000000001,1.0666575,0.048316,1.21603,1.0605575,0.007052,0.923304,-0.0019154999999999,-0.0006509999999999,1.076696,0.0019155,0.0006509999999999,0.84805,-0.5973025,-0.0146639999999999,1.15522,-0.5934425,-0.0132829999999999,0.76935,-1.0368425,-0.1060309999999999,1.18334,-0.9724125,0.013046,1
53,1.0089674999999998,0.7381610000000001,0.1382285,0.8168705,0.586531,0.0989985,0.7419705,0.795461,0.0535395,1.1473105,0.575921,0.1136475,1.2166005,0.837771,0.0315465,0.7146805,1.065891,0.0468335,1.2162805,1.060391,0.0056285,0.9232925,-0.0017819999999999,-0.0006704999999999,1.0767075,0.001782,0.0006705,0.8482705,-0.597169,-0.0149294999999999,1.1554405,-0.593529,-0.0134074999999999,0.7699305000000001,-1.037209,-0.1070755,1.1840005,-0.973559,0.0121885,1
54,1.0081165,0.738141,0.137328,0.8171155,0.5867610000000001,0.098833,0.7413055,0.7953210000000001,0.052151,1.1465655,0.5759610000000001,0.113258,1.2171955,0.8379110000000001,0.030027,0.7137555,1.065871,0.045316,1.2165455,1.0605710000000002,0.003938,0.9232405,-0.001681,-0.0007609999999999,1.0767595,0.0016809999999999,0.000761,0.8484355,-0.597109,-0.0158619999999999,1.1561955,-0.5935189999999999,-0.0140099999999999,0.7708455000000001,-1.037129,-0.1087619999999999,1.1852855,-0.972349,0.011304,1
55,1.0071535,0.7382139999999999,0.1362165,0.8173875000000002,0.587094,0.0986475,0.7406874999999999,0.795064,0.0500885,1.1460075,0.5769139999999999,0.1128305,1.2177475,0.8376039999999999,0.0278315,0.7126075000000001,1.065274,0.0425385,1.2160575,1.060274,0.0013215,0.9231525,-0.0015599999999999,-0.0007925,1.0768475,0.00156,0.0007925,0.8485975,-0.5970460000000001,-0.0170985,1.1569775,-0.5935560000000001,-0.0149984999999999,0.7717775,-1.036926,-0.1102155,1.1865075,-0.971156,0.0102364999999999,1
56,1.005947,0.7385240000000001,0.1348205,0.817746,0.588194,0.0984124999999999,0.740286,0.795444,0.0477325,1.145576,0.579084,0.1123445,1.218256,0.8376840000000001,0.0251534999999999,0.711456,1.065564,0.0393124999999999,1.215616,1.060264,-0.0021765,0.922897,-0.0016129999999999,-0.0008895,1.077103,0.001613,0.0008894999999999,0.848836,-0.597186,-0.0184565,1.157936,-0.593386,-0.0164045,0.772886,-1.0362360000000002,-0.1119985,1.187526,-0.967476,0.0100304999999999,1
57,1.0046404999999998,0.7391070000000001,0.133274,0.8181335000000001,0.588367,0.0975989999999999,0.7398335,0.794847,0.044758,1.1451935,0.5818070000000001,0.11175,1.2186635,0.837607,0.021801,0.7101335,1.0644669999999998,0.034416,1.2150135,1.060167,-0.005948,0.9226385,-0.0016909999999999,-0.0009279999999999,1.0773615,0.001691,0.0009279999999999,0.8489935,-0.597333,-0.020286,1.1588935,-0.592603,-0.018052,0.7739535000000001,-1.035233,-0.1141919999999999,1.1889235,-0.963993,0.00885,1
58,1.0031455,0.7395554999999999,0.131166,0.8188345,0.5875555,0.095967,0.7392745000000001,0.7933255,0.041393,1.1445745,0.5840055,0.110768,1.2190845,0.8372255,0.017904,0.7088745000000001,1.0622455,0.029138,1.2143545,1.0597455,-0.010317,0.9224055,-0.0018954999999999,-0.0009819999999999,1.0775945,0.0018955,0.000982,0.8492145,-0.5976045,-0.0223929999999999,1.1598845,-0.5914145000000001,-0.0201189999999999,0.7752545,-1.0336545,-0.1163109999999999,1.1902045,-0.9602845,0.007684,1
59,1.001455,0.7396725,0.128496,0.819673,0.5861925,0.094057,0.7386630000000001,0.7912024999999999,0.037583,1.144053,0.5862025,0.109607,1.219503,0.8365125,0.0133739999999999,0.7075830000000001,1.0600625,0.0227799999999999,1.213513,1.0589625,-0.015156,0.922148,-0.0020615,-0.001005,1.077852,0.0020615,0.0010049999999999,0.849363,-0.5978575,-0.02479,1.160833,-0.5900075,-0.022416,0.776543,-1.0318375,-0.118466,1.191323,-0.9564875,0.0067569999999999,1
60,0.999751,0.7398760000000001,0.125532,0.820523,0.584906,0.091913,0.737993,0.788996,0.032891,1.143533,0.5884560000000001,0.108158,1.219943,0.835056,0.0084239999999999,0.706353,1.054616,0.0140519999999999,1.212553,1.057416,-0.0210829999999999,0.921884,-0.0022259999999999,-0.001017,1.078116,0.002226,0.0010169999999999,0.849553,-0.598084,-0.0274439999999999,1.161743,-0.588124,-0.02494,0.777763,-1.029984,-0.120596,1.192343,-0.952574,0.005344,1
61,0.9982275,0.740595,0.1225455,0.8214515,0.583785,0.0897675,0.7374615,0.786825,0.0280305,1.1431015,0.590985,0.1067245,1.2202815,0.8336450000000001,0.0036595,0.7052415000000001,1.049365,0.0054995,1.2116315,1.055865,-0.0274675,0.9215205,-0.002339,-0.0010345,1.0784795,0.002339,0.0010345,0.8497615000000001,-0.5982949999999999,-0.0299795,1.1627115,-0.5861649999999999,-0.0273015,0.7789215,-1.027535,-0.1223265,1.1932815,-0.948755,0.0040065,1
62,0.9967055,0.7413105000000001,0.119204,0.8223505,0.5824905,0.087524,0.7370105,0.7846105000000001,0.023115,1.1427505,0.5932605000000001,0.104847,1.2204005,0.8319305,-0.0010799999999999,0.7041105,1.0436505,-0.0032479999999999,1.2106205,1.0539505,-0.034577,0.9211815,-0.0024584999999999,-0.0010049999999999,1.0788185,0.0024585,0.001005,0.8499205000000001,-0.5984995,-0.032346,1.1636105,-0.5841095,-0.029418,0.7800705,-1.0251495000000002,-0.123877,1.1941305,-0.9450395,0.002681,1
63,0.9961885,0.7424415000000001,0.1158049999999999,0.8232585,0.5812015,0.085324,0.7371885,0.7825915,0.0180509999999999,1.1424685,0.5934415000000001,0.102768,1.2204285,0.8303015,-0.005937,0.7040085,1.0376915,-0.012036,1.2102085,1.0520714999999998,-0.04197,0.9208475,-0.0025555,-0.000989,1.0791525,0.0025554999999999,0.0009889999999999,0.8500485,-0.5986585,-0.03398,1.1640285,-0.5820885,-0.030949,0.7805285000000001,-1.0228285,-0.124886,1.1945185,-0.9426885,0.0021209999999999,1
64,0.99588,0.7437135,0.11237,0.8241490000000001,0.5799935,0.083065,0.737439,0.7809035000000001,0.0134139999999999,1.142159,0.5934335000000001,0.100569,1.220429,0.8294235000000001,-0.010243,0.7041390000000001,1.0328435,-0.019952,1.209879,1.0509235,-0.048652,0.920496,-0.0026735,-0.00098,1.079504,0.0026734999999999,0.00098,0.850209,-0.5988264999999999,-0.03528,1.164469,-0.5799365,-0.032072,0.7809590000000001,-1.0202765,-0.12563,1.194939,-0.9402365,0.0015859999999999,1
65,0.995798,0.7448655000000001,0.1092765,0.824913,0.5781655,0.0808825,0.737743,0.7785955,0.0091675,1.141763,0.5928855000000001,0.0984865,1.2202529999999998,0.8282355,-0.0141145,0.704143,1.0279655,-0.0270325,1.209403,1.0495455,-0.0545714999999999,0.920223,-0.0026544999999999,-0.0009914999999999,1.079777,0.0026545,0.0009914999999999,0.8503229999999999,-0.5988445,-0.0363145,1.164753,-0.5784345,-0.0326474999999999,0.7812430000000001,-1.0184545,-0.1259115,1.195223,-0.9386945,0.0014185,1
66,0.9957985,0.7459925,0.106461,0.8257215,0.5773825,0.079296,0.7380815000000001,0.7774325,0.005708,1.1414615,0.5928125,0.096543,1.2201415,0.8277825,-0.0173269999999999,0.7045315000000001,1.0289625,-0.0312119999999999,1.2090915,1.0488325,-0.059944,0.9199515,-0.0026515,-0.000923,1.0800485,0.0026515,0.000923,0.8503115,-0.5988675,-0.036782,1.1650215,-0.5771075,-0.032865,0.7818415,-1.0169275,-0.1259209999999999,1.1952515,-0.9374375,0.001393,1
67,0.996128,0.7459925,0.1042655,0.826209,0.5773825,0.0785164999999999,0.738649,0.7774325,0.0026834999999999,1.141319,0.5929325,0.0950735,1.220009,0.8277825,-0.0199825,0.7049190000000001,1.0269325,-0.0349504999999999,1.209159,1.0487125,-0.0643555,0.919661,-0.0026515,-0.0008734999999999,1.080339,0.0026515,0.0008734999999999,0.850419,-0.5988675,-0.0367414999999999,1.165309,-0.5771075,-0.0328205,0.782309,-1.0169275,-0.1258754999999999,1.195249,-0.9373875,0.0014305,1
68,0.9963585,0.7459925,0.1025645,0.8264445,0.5773825,0.0779335,0.7391545000000002,0.7774325,0.0002395,1.1412145,0.5933425,0.0937775,1.2198545,0.8277825,-0.0219604999999999,0.7051745,1.0259325,-0.0374984999999999,1.2093345,1.0486925,-0.0682204999999999,0.9194005,-0.0026515,-0.0008804999999999,1.0805995,0.0026515,0.0008805,0.8504745,-0.5988675,-0.0367404999999999,1.1653745,-0.5766875,-0.0328185,0.7821445,-1.0160275,-0.1253205,1.1949145,-0.9371575,0.0016165,1
69,0.9965765,0.7459925,0.101218,0.8266755,0.5773825,0.077429,0.7396455,0.7774325,-0.0010789999999999,1.1410355,0.5932625,0.092636,1.2198055,0.8277825,-0.0233509999999999,0.7058055000000001,1.0259325,-0.0374749999999999,1.2095855,1.0486925,-0.0709289999999999,0.9191365,-0.0026515,-0.0008809999999999,1.0808635,0.0026515,0.0008809999999999,0.8505155,-0.5988675,-0.036732,1.1654455,-0.5762675,-0.0328099999999999,0.7820355,-1.0149275,-0.124209,1.1944755,-0.9367975,0.001857,1
70,0.9967915,0.7474115,0.0997955,0.8268815,0.5777215,0.0767945,0.7398115000000001,0.7773015000000001,-0.0017124999999999,1.1407314999999998,0.5925615000000001,0.0911525,1.2198315,0.8275015,-0.0247905,0.7065915,1.0255915,-0.0374314999999999,1.2098114999999998,1.0483515,-0.0727915,0.9190015,-0.0025405,-0.0009064999999999,1.0809985,0.0025405,0.0009065,0.8504715,-0.5987885,-0.0365594999999999,1.1654315,-0.5757485,-0.0322375,0.7820515,-1.0129685000000002,-0.1226215,1.1940915,-0.9360085,0.0026165,1
71,0.997105,0.749028,0.0988795,0.827048,0.578338,0.0763435,0.739868,0.7775380000000001,-0.0016235,1.140428,0.5914280000000001,0.0902325,1.219978,0.8272980000000001,-0.0257444999999999,0.707338,1.024698,-0.0372535,1.209968,1.047938,-0.0734104999999999,0.918894,-0.0024399999999999,-0.0010135,1.081106,0.00244,0.0010135,0.8503980000000001,-0.5987020000000001,-0.0359694999999999,1.165388,-0.5758319999999999,-0.0311834999999999,0.7821580000000001,-1.011862,-0.1213704999999999,1.193668,-0.935862,0.0035805,1
72,0.9973595,0.750824,0.0983515,0.8271225,0.579194,0.0760185,0.7398925000000001,0.778274,-0.0013734999999999,1.1403125,0.5904940000000001,0.0897235,1.2200425,0.828074,-0.0262335,0.7078325000000001,1.028744,-0.0369205,1.2100825,1.048684,-0.0732605,0.9188805,-0.002352,-0.0012624999999999,1.0811195,0.002352,0.0012624999999999,0.8502325,-0.598596,-0.0350745,1.1652725,-0.575796,-0.0299154999999999,0.7821125,-1.0107160000000002,-0.1197005,1.1930925,-0.935646,0.0047085,1
73,0.997561,0.7520475,0.0981895,0.8271430000000001,0.5803475,0.0759435,0.739893,0.7795075,-0.0010724999999999,1.140193,0.5892875,0.0894365,1.220073,0.8287675000000001,-0.0264625,0.708383,1.0317975,-0.0359885,1.210293,1.0494675,-0.0729485,0.918867,-0.0023285,-0.0014515,1.081133,0.0023284999999999,0.0014515,0.850023,-0.5985324999999999,-0.0340345,1.165123,-0.5760425,-0.0285464999999999,0.781943,-1.0098325,-0.1179185,1.192663,-0.9353625,0.0059104999999999,1
74,0.9977345,0.7529885,0.0982579999999999,0.8271355000000001,0.5814085,0.0760579999999999,0.7398855000000001,0.7806485,-0.00071,1.1401155,0.5879385,0.0892319999999999,1.2200955,0.8295184999999999,-0.026396,0.7090955,1.0345685,-0.034379,1.2106755,1.0506685,-0.072576,0.9188505,-0.0023105,-0.001564,1.0811495,0.0023105,0.0015639999999999,0.8498055,-0.5984815,-0.032947,1.1650055,-0.5763815,-0.027249,0.7817355000000001,-1.0092315,-0.116416,1.1922355,-0.9354815,0.0069809999999999,1
75,0.9978805,0.753656,0.098485,0.8271175,0.582346,0.076273,0.7399975,0.781596,5.499999999999949e-05,1.1400275,0.587436,0.089171,1.2203575,0.830416,-0.0260849999999999,0.7097375,1.037166,-0.0323799999999999,1.2111875,1.051616,-0.072142,0.9188275,-0.002276,-0.0015769999999999,1.0811725,0.002276,0.001577,0.8495575,-0.5984039999999999,-0.031782,1.1648775,-0.577244,-0.0259189999999999,0.7815375,-1.008684,-0.114852,1.1918375,-0.935984,0.008331,1
76,0.997982,0.7541289999999999,0.098828,0.8271310000000001,0.583289,0.076556,0.740201,0.782689,0.0011269999999999,1.139931,0.587189,0.089208,1.2207309999999998,0.831289,-0.025624,0.710351,1.039099,-0.029521,1.211701,1.052579,-0.07113,0.918831,-0.0022539999999999,-0.001536,1.0811689999999998,0.0022539999999999,0.0015359999999999,0.849311,-0.5983310000000001,-0.030624,1.164731,-0.578081,-0.024602,0.781441,-1.008421,-0.11305,1.191471,-0.936391,0.0097169999999999,1
77,0.9981205,0.7544299999999999,0.0992045,0.8271085,0.58421,0.0769255,0.7402385,0.78369,0.0022484999999999,1.1399485,0.5871,0.0892175,1.2212385,0.83217,-0.0251655,0.7109685,1.04012,-0.0268595,1.2122885,1.0535800000000002,-0.0698755,0.9188515,-0.002216,-0.0014745,1.0811485,0.002216,0.0014744999999999,0.8490885,-0.5982700000000001,-0.0295385,1.1646185,-0.5789000000000001,-0.0233605,0.7814185,-1.00822,-0.1111955,1.1912385,-0.937,0.0109874999999999,1
78,0.9982025,0.7545545,0.0997089999999999,0.8270685,0.5850545,0.077427,0.7402085,0.7845245000000001,0.003609,1.1400085,0.5870545,0.089326,1.2218585,0.8328345,-0.024647,0.7109785,1.0384445,-0.0247659999999999,1.2128485,1.0543545,-0.068443,0.9188795,-0.0021855,-0.001353,1.0811205,0.0021855,0.001353,0.8488485,-0.5982155,-0.028396,1.1644785,-0.5796855,-0.022083,0.7814085,-1.0087455,-0.110043,1.1911185,-0.9377255,0.012216,1
79,0.9981945,0.7544409999999999,0.1002484999999999,0.8270035,0.585731,0.0779644999999999,0.7401435000000001,0.785341,0.0051444999999999,1.1400735,0.5869909999999999,0.0898325,1.2223835,0.833611,-0.0240765,0.7108935000000001,1.041641,-0.0225945,1.2131235,1.055241,-0.0669145,0.9189115,-0.002165,-0.0011915,1.0810885,0.002165,0.0011914999999999,0.8486735,-0.5981690000000001,-0.0275185,1.1643635,-0.579829,-0.0210915,0.7814435,-1.008959,-0.1090845,1.1909535,-0.938039,0.0128854999999999,1
80,0.998195,0.7540845,0.100752,0.826941,0.5863845,0.078446,0.7400610000000001,0.7861245,0.0066099999999999,1.140171,0.5869345,0.090318,1.222911,0.8343345,-0.023518,0.7108310000000001,1.0412745,-0.020433,1.2133509999999998,1.0560745,-0.0653179999999999,0.918913,-0.0021945,-0.000821,1.081087,0.0021945,0.000821,0.848511,-0.5982155,-0.0267029999999999,1.164251,-0.5800155,-0.020281,0.781471,-1.0093255,-0.108238,1.190851,-0.9383455,0.013509,1
81,0.9981705,0.7538054999999999,0.101302,0.8268885000000001,0.5871055,0.0789479999999999,0.7399785,0.7868955,0.0079699999999999,1.1402485,0.5869454999999999,0.0908009999999999,1.2234285,0.8350654999999999,-0.022875,0.7107685,1.0390555,-0.018383,1.2136285,1.0568555000000002,-0.063565,0.9189125,-0.0022324999999999,-0.000411,1.0810875,0.0022324999999999,0.0004109999999999,0.8483985,-0.5982445000000001,-0.02597,1.1641785,-0.5802745,-0.019485,0.7813385000000002,-1.0096444999999998,-0.107585,1.1907685,-0.9386045,0.0140419999999999,1
82,0.9981075,0.7538054999999999,0.1021775,0.8268195,0.5871554999999999,0.0796715,0.7398295000000001,0.7870754999999999,0.0093864999999999,1.1401895,0.5868055,0.0912955,1.2238795,0.8361955,-0.0218775,0.7102695,1.0390555,-0.0168215,1.2140695,1.0578555,-0.0616535,0.9188945,-0.0022324999999999,-8.249999999999924e-05,1.0811055,0.0022324999999999,8.249999999999924e-05,0.8482695,-0.5982445000000001,-0.0253225,1.1640595,-0.5804545000000001,-0.0188494999999999,0.7811095,-1.0099445,-0.1072434999999999,1.1905895,-0.9386045,0.0145204999999999,1
83,0.998085,0.7539295,0.103033,0.826798,0.5873195,0.080351,0.739778,0.7872595,0.0105929999999999,1.140178,0.5866395,0.0917709999999999,1.224368,0.8375295,-0.020952,0.7098180000000001,1.0393195,-0.015379,1.214498,1.0590195,-0.060006,0.918887,-0.0022345,0.0001979999999999,1.081113,0.0022345,-0.000198,0.8482080000000001,-0.5982205,-0.024758,1.163998,-0.5804705,-0.01826,0.781168,-1.0101805,-0.106636,1.190478,-0.9385305,0.0149729999999999,1
84,0.9980615,0.7540410000000001,0.103812,0.8267715000000001,0.5874910000000001,0.081023,0.7396715,0.787551,0.011692,1.1401915,0.586631,0.092265,1.2247215,0.8384010000000001,-0.0201719999999999,0.7093214999999999,1.039031,-0.0139979999999999,1.2149115,1.059931,-0.0584559999999999,0.9188855,-0.0022469999999999,0.000401,1.0811145,0.0022469999999999,-0.0004009999999999,0.8481615,-0.598209,-0.0242649999999999,1.1639315,-0.580519,-0.0177149999999999,0.7812015000000001,-1.010269,-0.1058659999999999,1.1905015,-0.938459,0.015451,1
85,0.9979695,0.7539475,0.1046175,0.8267245,0.5875075,0.0815335,0.7396045,0.7876774999999999,0.0128444999999999,1.1401945,0.5868074999999999,0.0927405,1.2250945,0.8391675,-0.0193285,0.7087645,1.0358275,-0.0130695,1.2153745,1.0607875,-0.0572955,0.9188905,-0.0023154999999999,0.0005724999999999,1.0811095,0.0023154999999999,-0.0005725,0.8480544999999999,-0.5982225000000001,-0.0238025,1.1637845,-0.5808325000000001,-0.0171965,0.7809545,-1.0105125,-0.1056855,1.1904745,-0.9388025,0.0159014999999999,1
86,0.9978905,0.7538935,0.1054085,0.8266805,0.5874735,0.0820164999999999,0.7395305,0.7877035,0.0140545,1.1402705,0.5871035,0.0932475,1.2253905,0.8397035,-0.0184835,0.7082505,1.0345835,-0.0122345,1.2158105,1.0613135,-0.0560615,0.9189175,-0.0023714999999999,0.0007554999999999,1.0810825,0.0023714999999999,-0.0007554999999999,0.8479705000000001,-0.5982265,-0.0233055,1.1636505,-0.5812465,-0.0166315,0.7807305,-1.0106865,-0.1052815,1.1905205,-0.9391965,0.0163245,1
87,0.997826,0.7538515,0.1061864999999999,0.826568,0.5875715,0.0825215,0.739348,0.7877715000000001,0.0149744999999999,1.140398,0.5873715,0.0937264999999999,1.225618,0.8398915,-0.0176554999999999,0.707738,1.0337215,-0.0115965,1.215738,1.0615515,-0.0549265,0.91891,-0.0024204999999999,0.0009245,1.08109,0.0024204999999999,-0.0009245,0.847908,-0.5982385,-0.0228354999999999,1.163558,-0.5817884999999999,-0.0160855,0.780568,-1.0106485,-0.1045585,1.190578,-0.9396685,0.0167255,1
88,0.9977205,0.7536505,0.1069835,0.8264914999999999,0.5871105,0.0830154999999999,0.7392015000000001,0.7874305,0.0157234999999999,1.1405115,0.5876405,0.0941925,1.2257915,0.8399805,-0.0168445,0.7071715000000001,1.0326905,-0.0112005,1.2159215,1.0617305,-0.0538695,0.9189345,-0.0025224999999999,0.0011055,1.0810655,0.0025224999999999,-0.0011055,0.8478215,-0.5982995,-0.0223844999999999,1.1634515,-0.5824895,-0.0155215,0.7803215,-1.0107695,-0.1039095,1.1904815,-0.9402895,0.0170195,1
89,0.997542,0.7533975,0.1076455,0.826375,0.5864775,0.0833335,0.739055,0.7868575,0.0163094999999999,1.140545,0.5879675000000001,0.0945205,1.225905,0.8400175000000001,-0.0161605,0.706545,1.0316375,-0.0109435,1.216175,1.0617575,-0.0529545,0.918973,-0.0026134999999999,0.0011924999999999,1.081027,0.0026135,-0.0011924999999999,0.847685,-0.5983525,-0.0220365,1.163315,-0.5833524999999999,-0.0150835,0.780115,-1.0108425,-0.1035394999999999,1.190325,-0.9408525,0.0170985,1
90,0.997297,0.753179,0.108193,0.826261,0.585979,0.083616,0.7388410000000001,0.7863990000000001,0.016818,1.140561,0.5882890000000001,0.094837,1.225981,0.840169,-0.0154739999999999,0.7059310000000001,1.030739,-0.0106879999999999,1.216421,1.062039,-0.051675,0.918998,-0.0027259999999999,0.001244,1.0810019999999998,0.0027259999999999,-0.0012439999999999,0.847541,-0.598421,-0.0216549999999999,1.163151,-0.584151,-0.0146279999999999,0.779961,-1.010961,-0.1032719999999999,1.190171,-0.941381,0.017126,1
91,0.9970175,0.7530145,0.1087409999999999,0.8260715000000001,0.5857545000000001,0.0839419999999999,0.7385215,0.7861145,0.0172319999999999,1.1405215,0.5886945,0.095167,1.2259815,0.8402745,-0.014789,0.7053915,1.0293445,-0.010432,1.2165415,1.0621245,-0.05066,0.9190185,-0.0028324999999999,0.0013549999999999,1.0809815,0.0028325,-0.001355,0.8473815,-0.5984754999999999,-0.02123,1.1629615,-0.5849255,-0.01415,0.7795415,-1.0111755,-0.103084,1.1900015,-0.9419555,0.0171869999999999,1
92,0.9966635,0.7533085,0.109283,0.8258985,0.5855885,0.084238,0.7382385,0.7860185,0.0176039999999999,1.1404285,0.5893785,0.095526,1.2259185,0.8408385,-0.014147,0.7048185,1.0284785,-0.010287,1.2164885,1.0627785,-0.049744,0.9190275,-0.0028764999999999,0.001478,1.0809725,0.0028765,-0.001478,0.8471585,-0.5984615,-0.020818,1.1627785,-0.5854115,-0.013699,0.7789685,-1.0111215,-0.103059,1.1897885,-0.9420715,0.017306,1
93,0.996257,0.7536195,0.109771,0.825725,0.5854295,0.084436,0.737965,0.7858295000000001,0.017889,1.1401849999999998,0.5898495,0.095819,1.2257749999999998,0.8413795000000001,-0.0135669999999999,0.704205,1.0275995,-0.0103699999999999,1.216265,1.0632695,-0.0490999999999999,0.919036,-0.0028914999999999,0.001622,1.080964,0.0028914999999999,-0.0016219999999999,0.846895,-0.5984205,-0.020471,1.162575,-0.5858005,-0.0133109999999999,0.778385,-1.0110305,-0.103038,1.1895049999999998,-0.9420505,0.017339,1
94,0.9958665,0.753904,0.1101735,0.8255605,0.5855239999999999,0.0846355,0.7377405,0.7859039999999999,0.0181495,1.1399705,0.590184,0.0960725,1.2255405,0.841844,-0.0131044999999999,0.7035804999999999,1.026484,-0.0106404999999999,1.2160905,1.063744,-0.0486585,0.9190665,-0.0028819999999999,0.0017565,1.0809335,0.002882,-0.0017565,0.8466405,-0.598386,-0.0201335,1.1624105,-0.5858760000000001,-0.0129405,0.7777905,-1.010756,-0.1029984999999999,1.1893505,-0.941866,0.0173755,1
95,0.995502,0.754092,0.1105575,0.82543,0.5855319999999999,0.0848375,0.73751,0.785952,0.0183844999999999,1.13978,0.5903719999999999,0.0963145,1.2253299999999998,0.8422320000000001,-0.0126804999999999,0.70292,1.025202,-0.0109464999999999,1.21594,1.064082,-0.0483735,0.919087,-0.0028399999999999,0.0018304999999999,1.080913,0.00284,-0.0018304999999999,0.84642,-0.5983080000000001,-0.0198044999999999,1.16229,-0.5859179999999999,-0.0125844999999999,0.7772600000000001,-1.010618,-0.1029634999999999,1.1891999999999998,-0.941728,0.0173795,1
96,0.9951625,0.754192,0.1108875,0.8253165,0.585492,0.0849765,0.7372865,0.785982,0.0185984999999999,1.1396065,0.590772,0.0965304999999999,1.2251365,0.842532,-0.0123074999999999,0.7022865,1.023672,-0.0114115,1.2158165,1.064422,-0.0481415,0.9191205,-0.0028089999999999,0.0018784999999999,1.0808795,0.0028089999999999,-0.0018784999999999,0.8462365000000001,-0.5982580000000001,-0.0195005,1.1621565,-0.5859380000000001,-0.0122635,0.7767765,-1.010478,-0.1029195,1.1890565,-0.941608,0.0173595,1
97,0.9948015,0.754212,0.1111375,0.8252035,0.585322,0.0850665,0.7369335,0.785702,0.0186925,1.1394435,0.591052,0.0966935,1.2249435,0.842722,-0.0120304999999999,0.7016735000000001,1.022122,-0.0121174999999999,1.2156135,1.064622,-0.0479685,0.9191395,-0.0028089999999999,0.0018715,1.0808605,0.0028089999999999,-0.0018714999999999,0.8460835,-0.5982580000000001,-0.0192224999999999,1.1621035,-0.586188,-0.0120374999999999,0.7765735,-1.010478,-0.1027464999999999,1.1889635,-0.941668,0.0173425,1
98,0.994642,0.754122,0.1113234999999999,0.8251140000000001,0.585312,0.0851665,0.736774,0.785652,0.0187544999999999,1.139344,0.591162,0.0968594999999999,1.224784,0.8426119999999999,-0.0118445,0.701314,1.021012,-0.0127535,1.2154539999999998,1.064682,-0.0477825,0.919156,-0.0028399999999999,0.0018624999999999,1.080844,0.00284,-0.0018625,0.845924,-0.5983080000000001,-0.0189755,1.161974,-0.586428,-0.0118015,0.776124,-1.010518,-0.1025705,1.188854,-0.941848,0.0175304999999999,1
99,0.994502,0.7540535,0.1114995,0.825074,0.5851235,0.0852485,0.736634,0.7854535,0.0188165,1.139254,0.5912835000000001,0.0970185,1.224664,0.8424535000000001,-0.0116684999999999,0.700974,1.0202835,-0.0133334999999999,1.2153139999999998,1.0651435,-0.0476064999999999,0.919189,-0.0028814999999999,0.0018565,1.080811,0.0028815,-0.0018564999999999,0.845784,-0.5983765,-0.0187714999999999,1.161854,-0.5866665,-0.0115954999999999,0.775764,-1.0103565,-0.1025645,1.188714,-0.9420465,0.0177065,1
100,0.994404,0.7539465,0.1116684999999999,0.825086,0.5850365,0.0853464999999999,0.7365360000000001,0.7853264999999999,0.0188644999999999,1.139186,0.5913864999999999,0.0971475,1.224586,0.8422864999999999,-0.0114985,0.7008460000000001,1.0199865,-0.0138335,1.215226,1.0658865,-0.0475465,0.919226,-0.0029365,0.0017574999999999,1.080774,0.0029365,-0.0017575,0.8456859999999999,-0.5984235,-0.0185735,1.161786,-0.5869135000000001,-0.0114035,0.775486,-1.0102135,-0.1023755,1.188636,-0.9422035,0.0178754999999999,1
101,0.994334,0.7539005,0.1115385,0.825259,0.5852405,0.0852765,0.736459,0.7853005,0.0184735,1.139329,0.5916705,0.0969995,1.224769,0.8420805,-0.0116814999999999,0.700769,1.0190305,-0.0148685,1.215479,1.0656305,-0.0479685,0.919244,-0.0029315,0.0016294999999999,1.080756,0.0029314999999999,-0.0016294999999999,0.8454889999999999,-0.5983695,-0.0182845,1.161719,-0.5870394999999999,-0.0111435,0.775389,-1.0102695,-0.1022174999999999,1.188539,-0.9422495,0.0181595,1
102,0.994382,0.7536705,0.111417,0.825527,0.5851205,0.085147,0.736467,0.7849805000000001,0.018132,1.139507,0.5919905000000001,0.096862,1.224997,0.8417005000000001,-0.0119249999999999,0.700747,1.0180605,-0.015855,1.215867,1.0643205,-0.0488549999999999,0.919271,-0.0029184999999999,0.001507,1.080729,0.0029185,-0.001507,0.845307,-0.5983094999999999,-0.018156,1.161727,-0.5870894999999999,-0.010956,0.7753270000000001,-1.0104795,-0.10206,1.188457,-0.9421595,0.018477,1
103,0.9944545,0.753693,0.1112385,0.8258065,0.585313,0.0850265,0.7364364999999999,0.784943,0.0177655,1.1396965,0.5923830000000001,0.0967085,1.2252365,0.8412329999999999,-0.0122675,0.7007265,1.017323,-0.0168745,1.2162665,1.063193,-0.0497325,0.9192855,-0.002848,0.0013895,1.0807145,0.0028479999999999,-0.0013895,0.8450965,-0.5981970000000001,-0.0180344999999999,1.1617265,-0.5869470000000001,-0.0107874999999999,0.7752765,-1.010407,-0.1019055,1.1884265,-0.941677,0.0187825,1
104,0.994566,0.7539060000000001,0.1109074999999999,0.826059,0.585566,0.0848724999999999,0.736449,0.784896,0.0173634999999999,1.139909,0.592856,0.0965225,1.225519,0.840576,-0.0127305,0.700719,1.016696,-0.0178385,1.216669,1.062286,-0.0505935,0.919281,-0.0027719999999999,0.0013124999999999,1.080719,0.0027719999999999,-0.0013125,0.8448789999999999,-0.598074,-0.0179225,1.161689,-0.586604,-0.0106865,0.775189,-1.010514,-0.1018545,1.188429,-0.941214,0.0190234999999999,1
105,0.9947065,0.7541734999999999,0.1105589999999999,0.8263375,0.5857135,0.084681,0.7365075,0.7847635,0.016946,1.1401475,0.5932535,0.096311,1.2258575,0.8399035,-0.013379,0.7007975,1.0161135,-0.0187859999999999,1.2173475,1.0615535,-0.0515459999999999,0.9192735,-0.0027015,0.00123,1.0807265,0.0027014999999999,-0.00123,0.8446375,-0.5979665,-0.01789,1.1616575,-0.5862165,-0.010591,0.7751975,-1.0106465,-0.1017039999999999,1.1884875,-0.9407265,0.019354,1
106,0.9949035,0.7544985,0.110248,0.8266135,0.5857385,0.084506,0.7366735,0.7845585,0.016427,1.1404235,0.5936185,0.096098,1.2262435,0.8392485,-0.0140729999999999,0.7007935000000001,1.0159585,-0.019776,1.2181435,1.0608785,-0.0526019999999999,0.9192845,-0.0026284999999999,0.001161,1.0807155,0.0026284999999999,-0.0011609999999999,0.8444235,-0.5978615,-0.0178699999999999,1.1616035,-0.5857115,-0.0104909999999999,0.7752535,-1.0108215,-0.101532,1.1884035,-0.9400915,0.019744,1
107,0.9951145,0.7547585,0.1103455,0.8269205,0.5858085,0.0843505,0.7368105,0.7843385,0.0158164999999999,1.1407205,0.5938385,0.0958785,1.2266705,0.8384385,-0.0149004999999999,0.7009505,1.0159785,-0.0209175,1.2190605,1.0600185,-0.0539614999999999,0.9193005,-0.0025775,0.0011175,1.0806995,0.0025775,-0.0011175,0.8442105,-0.5977915,-0.0178635,1.1615305,-0.5852215,-0.0104314999999999,0.7752705,-1.0108815000000002,-0.1014814999999999,1.1883805,-0.9394715,0.0200775,1
108,0.9953325,0.754844,0.110438,0.8272185,0.585464,0.084138,0.7369685,0.783704,0.015035,1.1410384999999998,0.593784,0.0956299999999999,1.2270985,0.836934,-0.0159529999999999,0.7011385,1.015854,-0.0223,1.2202185,1.058324,-0.0561269999999999,0.9193025,-0.002471,0.001027,1.0806975,0.002471,-0.001027,0.8439785,-0.597656,-0.0178959999999999,1.1614384999999998,-0.584966,-0.010456,0.7752485,-1.0112759999999998,-0.101467,1.1883185,-0.939046,0.020428,1
109,0.995709,0.7549865,0.110582,0.827529,0.5851765,0.083937,0.7371289999999999,0.7831265000000001,0.0142709999999999,1.141359,0.5937565,0.095411,1.2275589999999998,0.8352665,-0.017081,0.701379,1.0155065,-0.024001,1.221419,1.0565665,-0.058331,0.919287,-0.0023255,0.000933,1.080713,0.0023255,-0.000933,0.843749,-0.5974634999999999,-0.01788,1.161329,-0.5846435,-0.0104619999999999,0.775029,-1.0116335,-0.101411,1.188189,-0.9386135,0.020876,1
110,0.9963115,0.7552855,0.1108005,0.8277055,0.5851155,0.0839395,0.7373055,0.7830655000000001,0.0137644999999999,1.1414555,0.5937355000000001,0.0954645,1.2277954999999998,0.8341955000000001,-0.0178514999999999,0.7014855,1.0154455,-0.0253545,1.2224455,1.0553055,-0.0603465,0.9192365,-0.0022644999999999,0.0008415,1.0807635,0.0022644999999999,-0.0008415,0.8436155,-0.5973544999999999,-0.0177125,1.1612155,-0.5845144999999999,-0.0104064999999999,0.7747355,-1.0116945,-0.1017164999999999,1.1880754999999998,-0.9383045,0.0213575,1
111,0.997433,0.755625,0.1118035,0.827879,0.5851149999999999,0.0840335,0.737499,0.783065,0.0132414999999999,1.141539,0.593765,0.0956714999999999,1.228069,0.8330649999999999,-0.0185295,0.7015089999999999,1.015745,-0.0266075,1.223479,1.054005,-0.0622655,0.919179,-0.0022639999999999,0.0006274999999999,1.080821,0.0022639999999999,-0.0006275,0.843479,-0.597305,-0.0173555,1.161079,-0.584325,-0.0101755,0.774489,-1.011695,-0.1018755,1.187879,-0.938305,0.0220824999999999,1
112,0.9987175,0.756045,0.1135675,0.8279735,0.5851149999999999,0.0840165,0.7375335000000001,0.783065,0.0125585,1.1416635,0.593765,0.0958324999999999,1.2284335,0.831885,-0.0193115,0.7015635,1.015865,-0.0281035,1.2245435,1.052605,-0.0647365,0.9191295,-0.0022639999999999,0.0004124999999999,1.0808705,0.0022639999999999,-0.0004125,0.8433635000000002,-0.597305,-0.0169705,1.1609935,-0.584145,-0.0098215,0.7742735000000001,-1.011295,-0.1013665,1.1877135,-0.938305,0.0227294999999999,1
113,1.0001595,0.7568975,0.1169065,0.8280255,0.5849275,0.0838965,0.7375655,0.7826275,0.0116604999999999,1.1418355,0.5935874999999999,0.0959725,1.2288555,0.8301575000000001,-0.0200835,0.7015355000000001,1.0158675,-0.0296924999999999,1.2256254999999998,1.0506875,-0.0672735,0.9190705,-0.0022075,0.0002105,1.0809295,0.0022075,-0.0002105,0.8432055,-0.5972124999999999,-0.0166645,1.1609455,-0.5837825000000001,-0.0094614999999999,0.7742655,-1.0110125,-0.1011235,1.1875155,-0.9381025,0.0231485,1
114,1.0013085,0.757847,0.1207034999999999,0.8282365,0.5846370000000001,0.0836495,0.7375265000000001,0.782107,0.0105615,1.1418665,0.593437,0.0962415,1.2291965,0.8285870000000001,-0.0206995,0.7013165,1.015877,-0.0314594999999999,1.2260865,1.048897,-0.0693125,0.9190145,-0.0021199999999999,6.0499999999998055e-05,1.0809855,0.00212,-6.0499999999998055e-05,0.8432364999999999,-0.597083,-0.0162965,1.1609965,-0.583553,-0.0090495,0.7743465,-1.010903,-0.1006025,1.1875965,-0.937863,0.0234445,1
115,1.0023015,0.758888,0.124993,0.8284425000000001,0.5842780000000001,0.08272,0.7374825,0.781578,0.009098,1.1418525,0.593288,0.096569,1.2296325,0.8271580000000001,-0.0209779999999999,0.7008624999999999,1.015838,-0.0334769999999999,1.2266125,1.047218,-0.070822,0.9189605,-0.0019959999999999,-5.6000000000000494e-05,1.0810395,0.001996,5.6000000000000494e-05,0.8431825,-0.596982,-0.015847,1.1610325,-0.5833119999999999,-0.008597,0.7743625000000001,-1.010882,-0.1002219999999999,1.1876025,-0.937932,0.023899,1
116,1.0033025,0.7600250000000001,0.129896,0.8286745,0.583605,0.081542,0.7374345,0.780695,0.007684,1.1419545,0.5931350000000001,0.096824,1.2301045,0.826065,-0.0208499999999999,0.7001945,1.015695,-0.035731,1.2271645,1.046015,-0.071758,0.9189395,-0.001901,-0.0001629999999999,1.0810605,0.001901,0.000163,0.8431645,-0.596865,-0.015404,1.1610845,-0.583105,-0.008105,0.7744245000000001,-1.010885,-0.0998879999999999,1.1876345,-0.938105,0.024377,1
117,1.0042095,0.761611,0.135079,0.8289455,0.582471,0.080095,0.7373055,0.779501,0.006218,1.1420555,0.593231,0.09713,1.2305955,0.825661,-0.0203489999999999,0.6988055,1.015611,-0.037896,1.2275255,1.045521,-0.07151,0.9189255,-0.0018579999999999,-0.0001869999999999,1.0810745,0.0018579999999999,0.0001869999999999,0.8431055000000001,-0.596789,-0.014792,1.1611355,-0.582459,-0.0074509999999999,0.7745655,-1.010479,-0.09944,1.1876755,-0.937779,0.024949,1
118,1.004975,0.7631870000000001,0.140269,0.829218,0.581227,0.078586,0.7372080000000001,0.778347,0.004794,1.142148,0.5934670000000001,0.097467,1.231118,0.8250770000000001,-0.0198289999999999,0.697328,1.015557,-0.039876,1.227788,1.044837,-0.070995,0.918913,-0.0018299999999999,-0.000251,1.081087,0.0018299999999999,0.000251,0.8429380000000001,-0.596733,-0.0141559999999999,1.161158,-0.5817129999999999,-0.00671,0.774628,-1.0098630000000002,-0.0992049999999999,1.187718,-0.937563,0.025429,1
119,1.0053415,0.7646425,0.1450469999999999,0.8294965,0.5797424999999999,0.0770909999999999,0.7370765,0.7773325,0.0033629999999999,1.1422065,0.5937524999999999,0.097921,1.2316065,0.8245125,-0.0192849999999999,0.6957165000000001,1.0154025,-0.041971,1.2281565,1.0442325,-0.070455,0.9188865,-0.0018205,-0.000266,1.0811135,0.0018204999999999,0.0002659999999999,0.8427665,-0.5966775000000001,-0.0135269999999999,1.1611965,-0.5809175000000001,-0.005867,0.7747865,-1.0089675,-0.098665,1.1876165,-0.9371275,0.0259569999999999,1
120,1.005217,0.7660775,0.148949,0.8297670000000001,0.5783575,0.075503,0.7368669999999999,0.7764574999999999,0.0018489999999999,1.142267,0.5943674999999999,0.098285,1.232227,0.8238475,-0.01861,0.694027,1.0166475,-0.0442,1.228847,1.0435675,-0.070061,0.918836,-0.0018115,-0.000157,1.081164,0.0018115,0.0001569999999999,0.8426270000000001,-0.5965925000000001,-0.013038,1.161247,-0.5801725000000001,-0.005115,0.7749770000000001,-1.0082325,-0.098151,1.187587,-0.9365625,0.0263879999999999,1
121,1.0050655,0.7674,0.152003,0.8299465,0.577,0.074067,0.7365765,0.77562,0.000481,1.1422965,0.59502,0.098687,1.2328465,0.8229799999999999,-0.017524,0.6922865,1.01758,-0.046229,1.2296865,1.04272,-0.069382,0.9188135,-0.0017759999999999,-7.999999999999674e-05,1.0811865,0.0017759999999999,7.999999999999674e-05,0.8424465000000001,-0.59646,-0.0125349999999999,1.1612765,-0.57941,-0.004319,0.7750265000000001,-1.00748,-0.0975419999999999,1.1876865,-0.93562,0.026798,1
122,1.004954,0.7684365,0.1537725,0.8300810000000001,0.5757565,0.0727775,0.736221,0.7750465,-0.0006324999999999,1.142311,0.5956665,0.0991175,1.233551,0.8220465,-0.0161064999999999,0.6904410000000001,1.0182265,-0.0481734999999999,1.230701,1.0419565,-0.0678635,0.918807,-0.0017525,-4.549999999999693e-05,1.081193,0.0017524999999999,4.550000000000387e-05,0.842261,-0.5963535,-0.0120924999999999,1.161341,-0.5787835,-0.0034934999999999,0.7758309999999999,-1.0065435,-0.0964035,1.187931,-0.9346535,0.0272375,1
123,1.0047865,0.769447,0.1549714999999999,0.8302215,0.574457,0.0716875,0.7358515,0.774627,-0.0015094999999999,1.1423615,0.5963269999999999,0.0994125,1.2343215,0.820987,-0.0143124999999999,0.6886715,1.018827,-0.0500385,1.2318915,1.040947,-0.0659085,0.9187785,-0.0017859999999999,-0.0001084999999999,1.0812215,0.001786,0.0001085,0.8421415,-0.5963430000000001,-0.0116594999999999,1.1614515,-0.578213,-0.0026914999999999,0.7766615,-1.005953,-0.0954285,1.1881615,-0.933773,0.0275135,1
124,1.004396,0.770433,0.1554945,0.830348,0.573273,0.0713215,0.735688,0.7744530000000001,-0.0018914999999999,1.142408,0.596923,0.0997165,1.235018,0.819893,-0.0122444999999999,0.687108,1.019593,-0.0514555,1.233198,1.039933,-0.0631355,0.918751,-0.0018399999999999,-0.0001984999999999,1.081249,0.00184,0.0001985,0.842068,-0.596347,-0.0112354999999999,1.1615879999999998,-0.577637,-0.0019754999999999,0.777478,-1.005367,-0.0947654999999999,1.188418,-0.932887,0.0278525,1
125,1.003772,0.7713565,0.1559285,0.830435,0.5724165,0.0712565,0.735345,0.7747865,-0.0022604999999999,1.142455,0.5974865,0.1000575,1.235685,0.8188165000000001,-0.0100085,0.685775,1.0205065,-0.0523415,1.234555,1.0389965,-0.0601715,0.918762,-0.0018945,-0.0003314999999999,1.081238,0.0018945,0.0003314999999999,0.8420750000000001,-0.5963634999999999,-0.0107614999999999,1.161735,-0.5770035,-0.0013804999999999,0.7782950000000001,-1.0045835,-0.0939115,1.188655,-0.9319735,0.0283135,1
126,1.003286,0.77173,0.156362,0.830389,0.57215,0.071536,0.734889,0.7752100000000001,-0.002404,1.142709,0.59787,0.100389,1.236289,0.81754,-0.0076999999999999,0.685019,1.02099,-0.052538,1.235959,1.03782,-0.057358,0.918779,-0.0019069999999999,-0.0005309999999999,1.081221,0.0019069999999999,0.0005309999999999,0.8420190000000001,-0.5962999999999999,-0.0103499999999999,1.161679,-0.5766,-0.000834,0.7789890000000002,-1.0047,-0.0934479999999999,1.188779,-0.93128,0.028762,1
127,1.002837,0.7718935,0.1567485,0.830376,0.5720434999999999,0.0718775,0.7343660000000001,0.7754734999999999,-0.0025125,1.143026,0.5981434999999999,0.1007045,1.236836,0.8166534999999999,-0.0056565,0.684276,1.0213535,-0.0524715,1.2373759999999998,1.0370135,-0.0548415,0.918765,-0.0018814999999999,-0.0006485,1.081235,0.0018815,0.0006484999999999,0.8420259999999999,-0.5962265,-0.0100025,1.161606,-0.5762565000000001,-0.0004305,0.779676,-1.0049365,-0.0931415,1.188716,-0.9309165,0.0291584999999999,1
128,1.0023325,0.7719265,0.156554,0.8303225,0.5721365,0.072214,0.7339625000000001,0.7755865,-0.002321,1.1433425,0.5983065,0.100976,1.2374125,0.8157865,-0.003894,0.6838925,1.0218665,-0.052146,1.2386625,1.0364165,-0.052596,0.9187605,-0.0019055,-0.000773,1.0812395,0.0019054999999999,0.0007729999999999,0.8420525,-0.5962035,-0.0097379999999999,1.1615425,-0.5761035,-9.50000000000048e-05,0.7803725,-1.0052235,-0.093016,1.1886425,-0.9307435,0.0295869999999999,1
129,1.00186,0.7719305,0.1560079999999999,0.830289,0.5722704999999999,0.072586,0.7336389999999999,0.7755504999999999,-0.001957,1.143739,0.5984505,0.1013179999999999,1.237849,0.8151605,-0.002502,0.683529,1.0253805,-0.051774,1.239599,1.0359105,-0.050634,0.918758,-0.0018955,-0.000892,1.081242,0.0018954999999999,0.0008919999999999,0.8419390000000001,-0.5961595000000001,-0.009562,1.161459,-0.5760095000000001,0.0002759999999999,0.7803990000000001,-1.0050395,-0.093134,1.188589,-0.9305595,0.0300039999999999,1
130,1.0013845,0.7719505,0.1554175,0.8302545,0.5723605,0.0729685,0.7333245000000002,0.7756005,-0.0015825,1.1441145,0.5985505,0.1016785,1.2381445,0.8147205000000001,-0.0013514999999999,0.6834645000000001,1.0269305,-0.0513924999999999,1.2402745,1.0355505,-0.0490925,0.9187535,-0.0018805,-0.0009704999999999,1.0812465,0.0018805,0.0009704999999999,0.8418345,-0.5961295,-0.0093835,1.1613845,-0.5759894999999999,0.0006574999999999,0.7805545,-1.0053095,-0.0933425,1.1885145,-0.9304295,0.0304365,1
131,1.000859,0.7719665,0.154885,0.830184,0.5724465000000001,0.073408,0.733024,0.7756165,-0.0011509999999999,1.144434,0.5986465000000001,0.102305,1.238294,0.8144165,-0.0004349999999999,0.6833640000000001,1.0285465,-0.050646,1.240604,1.0353565,-0.0481659999999999,0.918705,-0.0018854999999999,-0.0009429999999999,1.081295,0.0018854999999999,0.0009429999999999,0.841724,-0.5961335,-0.0091329999999999,1.161274,-0.5760035,0.001041,0.780644,-1.0054935,-0.093366,1.188414,-0.9302635,0.030872,1
132,1.000344,0.7719205,0.1543355,0.8301390000000001,0.5725205,0.0739575,0.732749,0.7760305000000001,-0.0005874999999999,1.144729,0.5987205,0.1028785,1.238379,0.8141605000000001,0.0001424999999999,0.6832389999999999,1.0295705,-0.0492895,1.240679,1.0357305,-0.0476795,0.918645,-0.0019354999999999,-0.0008775,1.081355,0.0019354999999999,0.0008774999999999,0.8416290000000001,-0.5961595,-0.0089594999999999,1.161109,-0.5757494999999999,0.0012995,0.780559,-1.0054495,-0.0934095,1.188209,-0.9299295,0.0314615,1
133,0.9998865,0.771883,0.153915,0.8300845,0.5726129999999999,0.0745359999999999,0.7325045,0.776513,0.000105,1.1450145,0.5988129999999999,0.103224,1.2384045,0.813983,0.00059,0.6828245,1.033593,-0.047726,1.2405645,1.036193,-0.047236,0.9185995,-0.002003,-0.0008249999999999,1.0814005,0.0020029999999999,0.0008249999999999,0.8415845,-0.596207,-0.008789,1.1609345,-0.575497,0.0015459999999999,0.7804445,-1.005287,-0.093186,1.1880745,-0.929587,0.031989,1
134,0.9994575,0.7718825,0.153566,0.8300385,0.5727225,0.075166,0.7323885,0.7769625,0.00091,1.1452985,0.5988825,0.103531,1.2383885,0.8137624999999999,0.001086,0.6826785,1.0349325,-0.045982,1.2404485,1.0366425,-0.046742,0.9185535,-0.0020564999999999,-0.0006699999999999,1.0814465,0.0020565,0.0006699999999999,0.8415485,-0.5962375,-0.008545,1.1607885,-0.5752375000000001,0.001764,0.7801285,-1.0051375,-0.093442,1.1879985,-0.9292775,0.032484,1
135,0.9991365,0.771884,0.1532649999999999,0.8299815,0.572824,0.0757589999999999,0.7322615,0.7774040000000001,0.0017889999999999,1.1453515,0.5989340000000001,0.103672,1.2383215,0.813554,0.0015359999999999,0.6828515,1.033114,-0.043974,1.2403315,1.037084,-0.046294,0.9185165,-0.002104,-0.000497,1.0814835,0.002104,0.0004969999999999,0.8415215,-0.5962759999999999,-0.008377,1.1606815,-0.5750759999999999,0.0018919999999999,0.7794715,-1.004796,-0.093474,1.1878515,-0.929216,0.032931,1
136,0.9988315,0.7718965,0.153276,0.8299405,0.5729165,0.076419,0.7321305,0.7778065000000001,0.0027729999999999,1.1454005,0.5988365,0.103771,1.2382405,0.8132965,0.0020339999999999,0.6829905000000001,1.0336365,-0.041862,1.2401605,1.0375865,-0.046092,0.9184765,-0.0021744999999999,-0.000324,1.0815235,0.0021745,0.0003239999999999,0.8414905,-0.5963335,-0.008166,1.1605405,-0.5747335,0.0020349999999999,0.7788705000000001,-1.0045935,-0.093432,1.1876405,-0.9294435,0.0333389999999999,1
137,0.998593,0.771835,0.1534309999999999,0.82988,0.572985,0.077134,0.7319900000000001,0.778095,0.003935,1.14547,0.598625,0.103904,1.23815,0.813025,0.002502,0.6831,1.034255,-0.0397089999999999,1.2399,1.038415,-0.0458989999999999,0.918443,-0.002265,-0.0001489999999999,1.081557,0.0022649999999999,0.000149,0.84146,-0.596405,-0.0079079999999999,1.16042,-0.574495,0.002187,0.77842,-1.004025,-0.092999,1.18735,-0.929735,0.034057,1
138,0.9983735,0.771747,0.1537125,0.8298355,0.573017,0.0778374999999999,0.7318955,0.7782669999999999,0.0051564999999999,1.1455255,0.5983769999999999,0.1041874999999999,1.2380755,0.8127169999999999,0.0028574999999999,0.6832055,1.034597,-0.0380795,1.2395155,1.039257,-0.0458725,0.9184095,-0.0023609999999999,4.349999999999493e-05,1.0815905,0.002361,-4.350000000000187e-05,0.8414055,-0.596503,-0.0075415,1.1602955,-0.5741930000000001,0.0022944999999999,0.7782355000000001,-1.003783,-0.0925025,1.1872055,-0.929993,0.0344784999999999,1
139,0.998144,0.7716965,0.153942,0.829772,0.5730664999999999,0.078546,0.731752,0.7784464999999999,0.006238,1.145532,0.5981464999999999,0.1046199999999999,1.238002,0.8123965,0.003068,0.683282,1.0349465,-0.036539,1.239062,1.0396965,-0.0460659999999999,0.918359,-0.0024534999999999,0.0002409999999999,1.081641,0.0024534999999999,-0.0002409999999999,0.841352,-0.5965735000000001,-0.007194,1.160172,-0.5740335000000001,0.0022739999999999,0.778012,-1.0035335,-0.092026,1.187002,-0.9302835,0.034961,1
140,0.997981,0.7716775,0.153998,0.829733,0.5731375,0.079198,0.731673,0.7785975,0.00721,1.145573,0.5979275000000001,0.104908,1.237983,0.8120975,0.0030729999999999,0.683403,1.0353075,-0.03537,1.238693,1.0400875,-0.046403,0.918344,-0.0025395,0.000382,1.081656,0.0025395,-0.0003819999999999,0.841343,-0.5966425,-0.0069199999999999,1.160083,-0.5739624999999999,0.0021769999999999,0.777743,-1.0031725,-0.091553,1.186883,-0.9299925,0.035475,1
141,0.997852,0.7716955,0.154023,0.829623,0.5731855,0.079758,0.731553,0.7785755,0.007951,1.145583,0.5977555,0.1051749999999999,1.237963,0.8119055000000001,0.002966,0.683523,1.0320355,-0.034763,1.238443,1.0401455,-0.046942,0.918317,-0.0025545,0.000556,1.081683,0.0025544999999999,-0.000556,0.841343,-0.5966545,-0.0066159999999999,1.159973,-0.5741445,0.0021559999999999,0.777493,-1.0028145,-0.090792,1.186773,-0.9300445,0.035836,1
142,0.997728,0.7717204999999999,0.153972,0.8295270000000001,0.5732105,0.080304,0.731427,0.7786004999999999,0.008647,1.145577,0.5975505,0.105408,1.2379669999999998,0.8116205,0.0027609999999999,0.683587,1.0312405,-0.034244,1.238287,1.0400205,-0.04775,0.918267,-0.0025594999999999,0.0007679999999999,1.081733,0.0025594999999999,-0.000768,0.841317,-0.5966595,-0.0063229999999999,1.159907,-0.5741195,0.0020739999999999,0.777227,-1.0025895,-0.09008,1.186697,-0.9301895,0.036074,1
143,0.997615,0.7717385,0.1538085,0.829413,0.5732285,0.0807544999999999,0.7312529999999999,0.7786085,0.0092254999999999,1.145573,0.5973385,0.1055364999999999,1.237993,0.8113885000000001,0.0024404999999999,0.6835629999999999,1.0306885,-0.0338465,1.238213,1.0396685,-0.0485605,0.918219,-0.0025685,0.0008964999999999,1.081781,0.0025684999999999,-0.0008965,0.841283,-0.5966714999999999,-0.0060865,1.159863,-0.5741014999999999,0.0019464999999999,0.776963,-1.0022715,-0.0894405,1.186713,-0.9302015,0.0361844999999999,1
144,0.9974395,0.7718085,0.1536005,0.8293105000000001,0.5732985,0.0811995,0.7309705,0.7787885,0.0096525,1.1455505,0.5970985,0.1055675,1.2382105,0.8094785,0.0021665,0.6835105,1.0296985,-0.0334625,1.2381405,1.0392785,-0.0494275,0.9181705,-0.0025934999999999,0.0010295,1.0818295,0.0025934999999999,-0.0010295,0.8412605000000001,-0.5966915,-0.0058315,1.1598805,-0.5739115,0.0018005,0.7768705000000001,-1.0024615,-0.0891675,1.1867605,-0.9301815,0.0364865,1
145,0.9971745,0.7718165,0.1532445,0.8292205,0.5733165,0.0815005,0.7306604999999999,0.7789065000000001,0.0099474999999999,1.1455005,0.5970565,0.1057575,1.2384705,0.8083165,0.0016334999999999,0.6834405,1.0292765,-0.0331605,1.2380805,1.0389565,-0.0504165,0.9181235,-0.0026124999999999,0.0011535,1.0818765,0.0026124999999999,-0.0011535,0.8411605,-0.5967135,-0.0055425,1.1598505,-0.5737635,0.0015734999999999,0.7767205,-1.0026035,-0.0888665,1.1867005,-0.9301335,0.0367514999999999,1
146,0.9968735,0.771821,0.152838,0.8291295000000001,0.573381,0.081734,0.7302995,0.779061,0.010174,1.1454695,0.597011,0.105856,1.2388195,0.806201,0.001035,0.6833495,1.028971,-0.032927,1.2380395,1.038181,-0.0514629999999999,0.9180615,-0.0026329999999999,0.001278,1.0819385,0.002633,-0.0012779999999999,0.8410595000000001,-0.5967290000000001,-0.0053339999999999,1.1598095,-0.5737490000000001,0.00131,0.7765495,-1.002549,-0.0883729999999999,1.1866795,-0.930179,0.036994,1
147,0.996464,0.77182,0.152266,0.8290580000000001,0.57343,0.081899,0.7298880000000001,0.77928,0.010317,1.145428,0.5969599999999999,0.105866,1.239268,0.80438,0.000295,0.6833680000000001,1.02848,-0.0328499999999999,1.238148,1.03723,-0.0525019999999999,0.917998,-0.0026569999999999,0.00143,1.082002,0.0026569999999999,-0.00143,0.8409880000000001,-0.59675,-0.0052109999999999,1.159808,-0.5737000000000001,0.000986,0.776368,-1.0024,-0.087932,1.186648,-0.92995,0.036968,1
148,0.9960165,0.7718785,0.15137,0.8290255,0.5736085000000001,0.082066,0.7294754999999999,0.7796085,0.010121,1.1453955,0.5967685,0.105898,1.2398455,0.8019285,-0.0007089999999999,0.6838555,1.0271085,-0.0332779999999999,1.2385155,1.0350285,-0.0536639999999999,0.9179525,-0.0027335,0.001589,1.0820475,0.0027335,-0.0015889999999999,0.8409455,-0.5968315,-0.0051269999999999,1.1598155,-0.5737914999999999,0.000789,0.7754955,-1.0030515,-0.0875239999999999,1.1865955,-0.9299915,0.036942,1
149,0.995325,0.771923,0.1503725,0.828987,0.573783,0.0822155,0.729187,0.779873,0.0098045,1.145287,0.596643,0.1060405,1.240447,0.7991130000000001,-0.0016805,0.684417,1.025803,-0.0338305,1.238947,1.032733,-0.0549004999999999,0.917905,-0.00282,0.0017334999999999,1.082095,0.0028199999999999,-0.0017334999999999,0.840897,-0.596927,-0.0050894999999999,1.159807,-0.573747,0.0006155,0.7747269999999999,-1.002607,-0.0871105,1.186617,-0.929577,0.0371335,1
150,0.994537,0.7717820000000001,0.149289,0.828947,0.573982,0.082297,0.728937,0.7800520000000001,0.009291,1.145157,0.596442,0.1061,1.2410169999999998,0.796072,-0.002727,0.685257,1.024472,-0.034626,1.239457,1.030752,-0.056032,0.917915,-0.0029129999999999,0.001875,1.082085,0.0029129999999999,-0.001875,0.840817,-0.597028,-0.0051179999999999,1.159787,-0.573638,0.0003969999999999,0.774047,-1.002248,-0.0867619999999999,1.186617,-0.929278,0.0373509999999999,1
151,0.9936655,0.7715075,0.1481215,0.8288345,0.5742575,0.0823084999999999,0.7287445,0.7801575,0.0084614999999999,1.1450145,0.5962075,0.1060484999999999,1.2415245,0.7931874999999999,-0.0038405,0.6863645,1.0230775,-0.0358765,1.2400145,1.0289175,-0.0571865,0.9179265,-0.0030454999999999,0.0020135,1.0820735,0.0030454999999999,-0.0020135,0.8407045,-0.5971725,-0.0051925,1.1598045,-0.5736825,0.0001724999999999,0.7734645,-1.0018125,-0.0865465,1.1866445,-0.9288725,0.0375394999999999,1
152,0.992684,0.771272,0.1467895,0.828773,0.5746819999999999,0.0822695,0.728653,0.780152,0.0074895,1.144973,0.595652,0.1059275,1.242043,0.7899619999999999,-0.0051094999999999,0.687703,1.021342,-0.0375564999999999,1.240543,1.027272,-0.0585264999999999,0.917924,-0.0032029999999999,0.0021465,1.082076,0.0032029999999999,-0.0021464999999999,0.840593,-0.5973580000000001,-0.0052824999999999,1.159783,-0.573508,-0.0001094999999999,0.772913,-1.001428,-0.0866565,1.186713,-0.928348,0.0375245,1
153,0.991537,0.7710575,0.1452224999999999,0.82873,0.5752275,0.0821544999999999,0.7285900000000001,0.7801575,0.0061924999999999,1.14496,0.5952175,0.1057134999999999,1.24227,0.7876275,-0.0066225,0.6889799999999999,1.0198075,-0.0395375,1.24098,1.0260675,-0.0601374999999999,0.917913,-0.0033614999999999,0.0022625,1.082087,0.0033615,-0.0022625,0.8405,-0.5975325,-0.0053855,1.15974,-0.5730925,-0.0004525,0.77245,-1.0008225,-0.0865675,1.18673,-0.9278825,0.0374915,1
154,0.9904455,0.7708495000000001,0.1434005,0.8287405,0.5758995,0.0819085,0.7286105,0.7801095,0.0045645,1.1450305,0.5948695,0.1053605,1.2425405,0.7857695,-0.0083314999999999,0.6902604999999999,1.0185295,-0.0426155,1.2414204999999998,1.0248495,-0.0620955,0.9179215,-0.0035034999999999,0.0023815,1.0820785,0.0035034999999999,-0.0023814999999999,0.8404305000000001,-0.5977104999999999,-0.0057094999999999,1.1597605,-0.5726304999999999,-0.0008854999999999,0.7721605000000001,-1.0003105,-0.0864455,1.1868905,-0.9272005,0.0373405,1
155,0.9893305,0.7706485000000001,0.1414039999999999,0.8287275000000001,0.5764985,0.0816279999999999,0.7286375,0.7800285,0.0025319999999999,1.1451875,0.5945585,0.1043379999999999,1.2427575,0.7837385,-0.010284,0.6914175,1.0174185,-0.046326,1.2418575,1.0236485,-0.064566,0.9179265,-0.0036384999999999,0.0025429999999999,1.0820735,0.0036385,-0.002543,0.8403575,-0.5978914999999999,-0.006089,1.1597875,-0.5716715,-0.001729,0.7720375000000002,-0.9994615,-0.086386,1.1869175,-0.9266215,0.0371269999999999,1
156,0.988196,0.7704825000000001,0.13922,0.828688,0.5770225,0.0813089999999999,0.7286779999999999,0.7798625,0.0002169999999999,1.145368,0.5940425,0.1030369999999999,1.242868,0.7826425,-0.012451,0.692388,1.0162225,-0.050285,1.242208,1.0223825,-0.067515,0.917921,-0.0037675,0.0027219999999999,1.082079,0.0037675,-0.002722,0.840248,-0.5980774999999999,-0.006486,1.159768,-0.5706875,-0.002546,0.771928,-0.9987975,-0.086295,1.186968,-0.9259075,0.0369329999999999,1
157,0.9871125,0.7704825000000001,0.1371635,0.8286915,0.5770225,0.0809675,0.7287015,0.7798625,-0.0021134999999999,1.1456215,0.5936625,0.1017215,1.2429815,0.7810425000000001,-0.0144564999999999,0.6929115,1.0152325,-0.0542125,1.2424315,1.0213725,-0.0707925,0.9179045,-0.0037675,0.0028975,1.0820955,0.0037675,-0.0028974999999999,0.8401815,-0.5980774999999999,-0.0068674999999999,1.1598015,-0.5701474999999999,-0.0032714999999999,0.7719815000000001,-0.9977975,-0.0861024999999999,1.1870815,-0.9256175,0.0366815,1
158,0.9863125,0.7704825000000001,0.135097,0.8287765,0.5770225,0.080522,0.7287764999999999,0.7798625,-0.0046049999999999,1.1459765,0.5931925,0.100202,1.2431765,0.7791125,-0.0168779999999999,0.6934165,1.0142125,-0.0585239999999999,1.2426765,1.0202625,-0.074524,0.9178875,-0.0037675,0.00307,1.0821125,0.0037675,-0.0030699999999999,0.8401765000000001,-0.5980774999999999,-0.0073729999999999,1.1599065,-0.5695175,-0.004024,0.7721165,-0.9976975,-0.0858839999999999,1.1872265,-0.9256175,0.036327,1
159,0.9855875,0.7704825000000001,0.1329985,0.8287955000000001,0.5770225,0.0799425,0.7288755,0.7798625,-0.0071885,1.1463555,0.5927025,0.0986105,1.2434255,0.7769125,-0.0194535,0.6937154999999999,1.0132825,-0.0631344999999999,1.2429655,1.0191525,-0.0786544999999999,0.9178405,-0.0037675,0.0031415,1.0821595,0.0037675,-0.0031414999999999,0.8402255000000001,-0.5980774999999999,-0.0078224999999999,1.1600455,-0.5690775,-0.0046194999999999,0.7722855,-0.9974975,-0.0856645,1.1874055,-0.9256175,0.0360125,1
160,0.9849045,0.770269,0.1307809999999999,0.8287845,0.577479,0.079206,0.7289845000000001,0.779529,-0.009663,1.1467045,0.592039,0.0969049999999999,1.2436245,0.775419,-0.0224189999999999,0.6940445,1.013089,-0.067531,1.2432845,1.018279,-0.0828909999999999,0.9177995,-0.003861,0.0031629999999999,1.0822005,0.0038609999999999,-0.0031629999999999,0.8403045,-0.598231,-0.00834,1.1602145,-0.5681809999999999,-0.0052519999999999,0.7732045,-0.996821,-0.085391,1.1876245,-0.925041,0.035523,1
161,0.984299,0.770103,0.128496,0.828809,0.577833,0.07824,0.729079,0.779203,-0.012197,1.1471289999999998,0.591443,0.095109,1.243849,0.7742330000000001,-0.0253049999999999,0.6943990000000001,1.013433,-0.071652,1.243649,1.017513,-0.087272,0.917759,-0.003935,0.003159,1.082241,0.003935,-0.0031589999999999,0.840419,-0.5983569999999999,-0.0089039999999999,1.160359,-0.5672769999999999,-0.0058969999999999,0.773919,-0.996287,-0.0852319999999999,1.187679,-0.925127,0.035066,1
162,0.9839515,0.770164,0.126291,0.8288965,0.578244,0.077204,0.7292665,0.778904,-0.0145339999999999,1.1476465,0.590974,0.093272,1.2441465,0.773494,-0.0281199999999999,0.6947265,1.013834,-0.075677,1.2440265,1.016944,-0.091527,0.9176525,-0.0040079999999999,0.003148,1.0823475,0.0040079999999999,-0.0031479999999999,0.8405765000000001,-0.598486,-0.0094579999999999,1.1605465,-0.5661160000000001,-0.006538,0.7745965,-0.995686,-0.0850469999999999,1.1877965,-0.925196,0.034694,1
163,0.9837595,0.7704555000000001,0.124204,0.8291215000000001,0.5786555000000001,0.076131,0.7295015,0.7787655,-0.01666,1.1482615,0.5904955000000001,0.09143,1.2445115,0.7731955,-0.030732,0.6947415,1.0143755,-0.078814,1.2444315,1.0164955,-0.095724,0.9175265,-0.0040544999999999,0.003133,1.0824735,0.0040545,-0.003133,0.8408115,-0.5985845,-0.009987,1.1607415,-0.5649544999999999,-0.007183,0.7751915,-0.9950445,-0.0849439999999999,1.1879215,-0.9252745,0.034347,1
164,0.983626,0.770717,0.122096,0.829332,0.578837,0.074957,0.729672,0.778707,-0.0184659999999999,1.148772,0.590287,0.090153,1.244852,0.772857,-0.0332979999999999,0.6945520000000001,1.014787,-0.0815009999999999,1.244742,1.015897,-0.099581,0.91741,-0.004061,0.003089,1.08259,0.004061,-0.0030889999999999,0.840962,-0.598623,-0.010532,1.160882,-0.5637829999999999,-0.007842,0.775772,-0.994243,-0.085011,1.187762,-0.925103,0.033845,1
165,0.983635,0.7709404999999999,0.1200825,0.829555,0.5789804999999999,0.0737375,0.729865,0.7784304999999999,-0.0202974999999999,1.149275,0.5902405,0.0890355,1.245255,0.7727305,-0.0358075,0.694375,1.0152405,-0.0841535,1.245045,1.0153505,-0.1032235,0.917278,-0.0040574999999999,0.0030545,1.082722,0.0040574999999999,-0.0030545,0.841125,-0.5986695000000001,-0.0110895,1.161025,-0.5625995,-0.0086245,0.776315,-0.9935595000000002,-0.0853935,1.1877049999999998,-0.9244395,0.0332024999999999,1
166,0.9836675,0.7712184999999999,0.1181275,0.8298105,0.5789485,0.0723135,0.7298905,0.7782384999999999,-0.0221645,1.1497105,0.5902985,0.0879125,1.2456105,0.7726584999999999,-0.0384555,0.6941505,1.0156185,-0.0870195,1.2452204999999998,1.0148985,-0.1066995,0.9171225,-0.0041025,0.0030885,1.0828775,0.0041024999999999,-0.0030884999999999,0.8412105,-0.5987515,-0.0116814999999999,1.1611105,-0.5613315000000001,-0.0094974999999999,0.7768605,-0.9928015,-0.0858495,1.1875505,-0.9238215,0.0325015,1
167,0.9836345,0.7714255,0.1161475,0.8300325,0.5784755,0.0708165,0.7297525,0.7782755,-0.0241025,1.1500725,0.5904855,0.0868905,1.2459425,0.7725755,-0.0409885,0.6939525,1.0159255,-0.0898385,1.2452725,1.0145055,-0.1100385,0.9169685,-0.0041645,0.0030854999999999,1.0830315,0.0041644999999999,-0.0030854999999999,0.8411824999999999,-0.5988345,-0.0122355,1.1611125,-0.5601645000000001,-0.0100445,0.7772825,-0.9919345,-0.0862385,1.1872925,-0.9231645,0.0318155,1
168,0.98371,0.7717005,0.1139215,0.830406,0.5783505,0.0693355,0.729636,0.7785805,-0.0262265,1.150556,0.5899805,0.0850485,1.246346,0.7727205,-0.0435565,0.693846,1.0163305,-0.0927165,1.245386,1.0142905,-0.1133565,0.916836,-0.0041905,0.0030574999999999,1.083164,0.0041905,-0.0030574999999999,0.841186,-0.5988795,-0.0128884999999999,1.161156,-0.5586895000000001,-0.0106814999999999,0.7777959999999999,-0.9907595,-0.0868565,1.187126,-0.9220595,0.0307195,1
169,0.983894,0.7721845,0.111558,0.830846,0.5782245,0.067748,0.729456,0.7791145,-0.028778,1.151086,0.5892645000000001,0.082906,1.246806,0.7731445,-0.045979,0.693866,1.0170445,-0.0960389999999999,1.245586,1.0141045,-0.1167989999999999,0.916662,-0.0041525,0.002936,1.083338,0.0041524999999999,-0.002936,0.841216,-0.5988855,-0.013958,1.161266,-0.5567955,-0.0115789999999999,0.778346,-0.9892855,-0.0873289999999999,1.187106,-0.9208055,0.029621,1
170,0.9841665,0.7725565,0.1092545,0.8311755000000001,0.5780965,0.0662915,0.7292355000000001,0.7795965,-0.0314495,1.1515355,0.5886264999999999,0.0807815,1.2471755,0.7735965,-0.0486845,0.6938655,1.0176365,-0.0997245,1.2457055,1.0139365,-0.1200745,0.9164125,-0.0040854999999999,0.0027104999999999,1.0835875,0.0040854999999999,-0.0027104999999999,0.8411055000000001,-0.5988735000000001,-0.0151895,1.1613155,-0.5547135,-0.0126515,0.7787555000000002,-0.9880535,-0.0880745,1.1872355,-0.9190135,0.0285085,1
171,0.9844725,0.7726655,0.1066885,0.8316224999999999,0.5776455,0.0645785,0.7289825000000001,0.7800555,-0.0346085,1.1518925,0.5880255000000001,0.0785605,1.2475524999999998,0.7739955000000001,-0.0517145,0.6940025000000001,1.0180755,-0.1038745,1.2458025,1.0138455,-0.1236345,0.9161815,-0.0040234999999999,0.0024645,1.0838184999999998,0.0040234999999999,-0.0024644999999999,0.8410525,-0.5988445,-0.0166614999999999,1.1613725,-0.5524545000000001,-0.0142044999999999,0.7791125,-0.9866245,-0.0889244999999999,1.1874125,-0.9171745,0.0274215,1
172,0.9847415,0.772245,0.1040945,0.8320885,0.576925,0.0628755,0.7287585000000001,0.780025,-0.0380705,1.1522085,0.587395,0.0764325,1.2479485,0.774125,-0.0548154999999999,0.6942485,1.018305,-0.1082854999999999,1.2458385,1.013825,-0.1271054999999999,0.9159915,-0.0039959999999999,0.0021375,1.0840085,0.0039959999999999,-0.0021375,0.8411185,-0.598865,-0.0184615,1.1614785,-0.550045,-0.0162074999999999,0.7794285000000001,-0.985195,-0.0898954999999999,1.1875885,-0.915285,0.0264325,1
173,0.9849535,0.7718725000000001,0.1011725,0.8325835,0.5763425,0.0609904999999999,0.7285735,0.7801025,-0.0420065,1.1524635,0.5871925,0.0740575,1.2483335,0.7745225,-0.0583065,0.6945135,1.0188225,-0.1132565,1.2458335,1.0141925,-0.1309565,0.9158675,-0.0038165,0.0017524999999999,1.0841325,0.0038165,-0.0017525,0.8412735,-0.5987574999999999,-0.0208244999999999,1.1616735,-0.5477075,-0.0187075,0.7796135,-0.9838375,-0.0911164999999999,1.1877535,-0.9131375,0.0253165,1
174,0.9851675,0.771283,0.0981934999999999,0.8330385000000001,0.575523,0.0590445,0.7284185000000001,0.7803230000000001,-0.0459575,1.1527185,0.5868530000000001,0.0717665,1.2486985,0.774903,-0.0617575,0.6947485,1.019363,-0.1184774999999999,1.2457985,1.014633,-0.1349675,0.9157815,-0.0036749999999999,0.0013384999999999,1.0842185,0.003675,-0.0013384999999999,0.8414485,-0.5983569999999999,-0.0237454999999999,1.1618485,-0.5450569999999999,-0.0217785,0.7799285,-0.981777,-0.0918275,1.1878685,-0.911057,0.0241984999999999,1
175,0.985354,0.770652,0.0952119999999999,0.8333619999999999,0.574782,0.0572339999999999,0.7283820000000001,0.780312,-0.049883,1.152832,0.586532,0.069516,1.249022,0.7752720000000001,-0.065193,0.694842,1.019972,-0.123913,1.245742,1.015112,-0.138883,0.915741,-0.0034529999999999,0.0008619999999999,1.084259,0.003453,-0.000862,0.8414820000000001,-0.5961679999999999,-0.027041,1.161892,-0.5423479999999999,-0.025135,0.780142,-0.979588,-0.092453,1.187852,-0.908978,0.0231869999999999,1
176,0.9855815,0.7699440000000001,0.0922854999999999,0.8336865,0.574204,0.0554375,0.7284065,0.780084,-0.0539454999999999,1.1528965,0.586194,0.0672845,1.2493765,0.775674,-0.0687355,0.6949164999999999,1.020594,-0.1293555,1.2456365,1.015494,-0.1429655,0.9156645,-0.003309,0.0003695,1.0843355,0.0033089999999999,-0.0003695,0.8414865,-0.5938559999999999,-0.0306474999999999,1.1619865,-0.539546,-0.0287645,0.7804165000000001,-0.977176,-0.0927455,1.1881565,-0.906666,0.0221875,1
177,0.9857865,0.7687805,0.0894935,0.8340455,0.5732805,0.0536075,0.7283755000000001,0.7796105,-0.0581555,1.1529355,0.5851105,0.0648295,1.2497355,0.7759805000000001,-0.0724155,0.6950855,1.0210605,-0.1347955,1.2456055,1.0158805,-0.1471255,0.9155335,-0.0031985,-3.249999999999781e-05,1.0844665,0.0031984999999999,3.249999999999781e-05,0.8415555,-0.5922594999999999,-0.0346275,1.1621155,-0.5371195,-0.0325635,0.7802955,-0.9752495,-0.0936255,1.1883055,-0.9044095,0.0213335,1
178,0.9859685,0.7671730000000001,0.08663,0.8343085,0.5722130000000001,0.051944,0.7282584999999999,0.7788029999999999,-0.0622709999999999,1.1528985,0.584373,0.062804,1.2500585,0.775803,-0.076261,0.6953385000000001,1.020903,-0.140151,1.2454984999999998,1.016063,-0.151431,0.9153175,-0.0031079999999999,-0.0002579999999999,1.0846825,0.0031079999999999,0.000258,0.8419485,-0.5908869999999999,-0.0389419999999999,1.1621585,-0.5348269999999999,-0.0364619999999999,0.7800985,-0.973557,-0.094421,1.1882585,-0.902147,0.020486,1
179,0.9860185,0.7655045,0.084051,0.8344374999999999,0.5713245,0.050302,0.7280975000000001,0.7780745,-0.066399,1.1527975,0.5829344999999999,0.060244,1.2502375,0.7756544999999999,-0.080059,0.6955675,1.0209245,-0.1454289999999999,1.2452375,1.0163945,-0.155799,0.9150405,-0.0029775,-0.0003229999999999,1.0849595,0.0029774999999999,0.000323,0.8422575,-0.5882755,-0.043336,1.1620775,-0.5322155,-0.0404409999999999,0.7797375,-0.9713455,-0.0951689999999999,1.1880075,-0.8995355,0.019777,1
180,0.986099,0.7643055,0.081941,0.83438,0.5705655000000001,0.048867,0.72811,0.7777855,-0.069963,1.15259,0.5816055,0.057806,1.25039,0.7756855,-0.0835529999999999,0.69606,1.0212955,-0.150143,1.24474,1.0168955,-0.159773,0.914716,-0.0027814999999999,-0.0003939999999999,1.085284,0.0027815,0.0003939999999999,0.84258,-0.5841945000000001,-0.0481529999999999,1.1619,-0.5286745,-0.044508,0.77902,-0.9680045,-0.0956429999999999,1.18743,-0.8970145,0.018731,1
181,0.986155,0.7634535,0.0799475,0.83426,0.5701035,0.0474664999999999,0.7281600000000001,0.7779835,-0.0736335,1.15233,0.5803435,0.0553414999999999,1.25046,0.7760535000000001,-0.0871235,0.6965800000000001,1.0218535,-0.1550135,1.2440399999999998,1.0175935,-0.1638235,0.9144,-0.0024804999999999,-0.0005225,1.0856,0.0024804999999999,0.0005224999999999,0.84284,-0.5789765,-0.0529235,1.16163,-0.5251165,-0.0485935,0.77792,-0.9641665,-0.0959435,1.1867,-0.8945265,0.0177214999999999,1
182,0.9863085,0.7623175,0.077607,0.8342095,0.5695875,0.0459529999999999,0.7282795,0.7780175,-0.077569,1.1522295,0.5785975,0.052474,1.2506195,0.7763375,-0.090879,0.6973195,1.0224675,-0.159679,1.2433495,1.0170775,-0.168199,0.9141175,-0.0023014999999999,-0.000676,1.0858825,0.0023014999999999,0.0006759999999999,0.8431795,-0.5736025,-0.058119,1.1613794999999998,-0.5216125,-0.052999,0.7768295000000001,-0.9603025,-0.0965589999999999,1.1859495,-0.8922725,0.0166879999999999,1
183,0.9864525,0.7610675,0.075373,0.8340974999999999,0.5693374999999999,0.044562,0.7284575,0.7776875,-0.081731,1.1520975,0.5770475,0.049728,1.2507575,0.7755775,-0.0946709999999999,0.6981275,1.0229675,-0.164211,1.2426875,1.0164275,-0.172601,0.9138395,-0.0020915,-0.000848,1.0861605,0.0020914999999999,0.000848,0.8434575000000001,-0.5679825,-0.063301,1.1610375,-0.5182525,-0.057461,0.7756275000000001,-0.9565925,-0.0971109999999999,1.1850075,-0.8905124999999999,0.015665,1
184,0.98642,0.7599579999999999,0.0731815,0.834148,0.5685279999999999,0.0428965,0.728638,0.7770079999999999,-0.0854444999999999,1.151748,0.576098,0.0472235,1.250518,0.7747280000000001,-0.0984044999999999,0.6989080000000001,1.023908,-0.1684445,1.241748,1.016368,-0.1770445,0.913531,-0.001892,-0.0011544999999999,1.086469,0.0018919999999999,0.0011545,0.8434980000000001,-0.5609820000000001,-0.0685244999999999,1.160338,-0.5146919999999999,-0.0617345,0.773928,-0.952312,-0.0979544999999999,1.183728,-0.888312,0.0146735,1
185,0.986381,0.758785,0.0711064999999999,0.834271,0.568275,0.0414174999999999,0.728931,0.776305,-0.0886705,1.151971,0.573335,0.0438394999999999,1.250351,0.773715,-0.1019105,0.699851,1.025445,-0.1721905,1.240681,1.015745,-0.1814505,0.913136,-0.0015649999999999,-0.0012365,1.086864,0.0015649999999999,0.0012364999999999,0.843421,-0.553015,-0.0733805,1.159461,-0.510645,-0.0657005,0.772061,-0.946895,-0.0978405,1.182171,-0.886005,0.0141654999999999,1
186,0.9865465,0.75778,0.0689424999999999,0.8343855,0.56815,0.0400554999999999,0.7292755,0.77553,-0.0916304999999999,1.1521955,0.57214,0.0415424999999999,1.2502655,0.77234,-0.1054305,0.7010755,1.02699,-0.1759204999999999,1.2395655,1.01508,-0.1857105,0.9127265,-0.0012199999999999,-0.0013655,1.0872735,0.0012199999999999,0.0013654999999999,0.8434355,-0.5453399999999999,-0.0784305,1.1584855,-0.50678,-0.0698105,0.7701555,-0.94143,-0.0977005,1.1804154999999998,-0.88368,0.0134805,1
187,0.986842,0.757185,0.0672514999999999,0.834588,0.568265,0.0389054999999999,0.729738,0.7749750000000001,-0.0941555,1.152448,0.570725,0.0391055,1.250288,0.771115,-0.1086955,0.702538,1.029265,-0.1790955,1.238348,1.014995,-0.1894655,0.912316,-0.000945,-0.0012605,1.087684,0.000945,0.0012604999999999,0.843118,-0.537875,-0.0826755,1.157598,-0.502645,-0.0734755,0.7682880000000001,-0.935445,-0.0965355,1.178718,-0.880595,0.0132094999999999,1
188,0.98731,0.7568400000000001,0.0653745,0.834864,0.56811,0.0376645,0.7302040000000001,0.77488,-0.0964875,1.152504,0.57033,0.0373665,1.250274,0.77018,-0.1117674999999999,0.704044,1.03087,-0.1826674999999999,1.237204,1.01543,-0.1930075,0.911933,-0.0007599999999999,-0.0011584999999999,1.088067,0.0007599999999999,0.0011584999999999,0.842814,-0.5306799999999999,-0.0865175,1.156744,-0.4982299999999999,-0.0769175,0.766404,-0.929,-0.0953374999999999,1.176834,-0.87685,0.0132824999999999,1
189,0.9878045,0.75636,0.0633,0.8352235,0.56801,0.036476,0.7306035,0.77424,-0.09914,1.1526235,0.5695399999999999,0.035668,1.2501535,0.76883,-0.11492,0.7053535,1.03221,-0.18625,1.2360135,1.01556,-0.19699,0.9115485,-0.0005999999999999,-0.0010119999999999,1.0884515,0.0006,0.0010119999999999,0.8424535000000001,-0.5249,-0.09009,1.1558635,-0.49415,-0.07994,0.7648235000000001,-0.92373,-0.09439,1.1748735,-0.87335,0.013777,1
190,0.9881515,0.756,0.061256,0.8356625,0.56735,0.035032,0.7309125000000001,0.77387,-0.101378,1.1525125,0.56875,0.034191,1.2498524999999998,0.76789,-0.117808,0.7065525,1.03349,-0.189338,1.2346025,1.01597,-0.200668,0.9111955,-0.0005799999999999,-0.0008589999999999,1.0888045,0.0005799999999999,0.0008589999999999,0.8419425,-0.52005,-0.093538,1.1548725,-0.4897,-0.082828,0.7630125,-0.91785,-0.0931579999999999,1.1727325,-0.8690500000000001,0.014144,1
191,0.988386,0.755465,0.0594994999999999,0.8360800000000002,0.566775,0.0337424999999999,0.73123,0.773505,-0.1033715,1.15227,0.568535,0.0330254999999999,1.24956,0.766675,-0.1204315,0.70765,1.034535,-0.1924415,1.23318,1.014685,-0.2047115,0.9109,-0.0006649999999999,-0.0007985,1.0891,0.0006649999999999,0.0007984999999999,0.84134,-0.515385,-0.0965815,1.15382,-0.485185,-0.0854715,0.76126,-0.911965,-0.0917715,1.17053,-0.8644649999999999,0.0144434999999999,1
192,0.988621,0.755325,0.057732,0.836538,0.566015,0.032415,0.7316579999999999,0.773355,-0.105374,1.151928,0.568535,0.032028,1.249188,0.766135,-0.122954,0.7089179999999999,1.035305,-0.195804,1.231508,1.012145,-0.208804,0.910602,-0.000725,-0.0007169999999999,1.089398,0.000725,0.0007169999999999,0.840748,-0.508005,-0.099114,1.152708,-0.480345,-0.0878839999999999,0.759378,-0.905605,-0.089544,1.168448,-0.858305,0.0154429999999999,1
193,0.989325,0.75449,0.055644,0.836865,0.56579,0.031284,0.732165,0.77367,-0.1080279999999999,1.152315,0.56628,0.030129,1.249225,0.76531,-0.125658,0.710475,1.03558,-0.199388,1.230105,1.00929,-0.212428,0.910305,-0.0006899999999999,-0.0005509999999999,1.089695,0.0006899999999999,0.000551,0.840345,-0.5013799999999999,-0.1014179999999999,1.151805,-0.47621,-0.0902379999999999,0.7577849999999999,-0.8995199999999999,-0.0871279999999999,1.166665,-0.8526199999999999,0.016213,1
194,0.98999,0.75407,0.053596,0.837202,0.56524,0.029881,0.732682,0.77437,-0.111263,1.152072,0.56593,0.029599,1.249242,0.7642100000000001,-0.1283429999999999,0.712072,1.03535,-0.2032729999999999,1.228822,1.00728,-0.2154329999999999,0.910058,-0.00073,-0.0003619999999999,1.089942,0.00073,0.000362,0.840162,-0.4957,-0.1040929999999999,1.150922,-0.4726399999999999,-0.0928729999999999,0.756262,-0.8940699999999999,-0.0847229999999999,1.164892,-0.8477699999999999,0.016904,1
195,0.99072,0.7537400000000001,0.0508135,0.837456,0.56454,0.0279714999999999,0.733116,0.77505,-0.1152395,1.152046,0.56566,0.0280264999999999,1.249196,0.7635799999999999,-0.1316095,0.7132960000000002,1.03484,-0.2076795,1.227656,1.0048,-0.2189695,0.909864,-0.00079,-0.0001794999999999,1.090136,0.0007899999999999,0.0001794999999999,0.839946,-0.4899699999999999,-0.1062795,1.150096,-0.46907,-0.0955995,0.754706,-0.8869499999999999,-0.0826695,1.163176,-0.8428499999999999,0.0179685,1
196,0.991526,0.7529649999999999,0.0474895,0.8378019999999999,0.563495,0.0257445,0.733662,0.775515,-0.1196874999999999,1.152282,0.565215,0.0263564999999999,1.249302,0.7627550000000001,-0.1349975,0.714712,1.031995,-0.2131274999999999,1.226842,1.000675,-0.2234775,0.909718,-0.000815,-0.0001614999999999,1.090282,0.0008149999999999,0.0001614999999999,0.839882,-0.4855649999999999,-0.1084774999999999,1.149192,-0.466005,-0.0984075,0.753232,-0.880495,-0.0808874999999999,1.161512,-0.838395,0.0189055,1
197,0.992115,0.7521450000000001,0.044198,0.8383970000000001,0.561905,0.023209,0.7343569999999999,0.775385,-0.1242899999999999,1.152617,0.564495,0.024462,1.249467,0.7594350000000001,-0.13796,0.716167,1.029255,-0.21785,1.225847,0.995935,-0.2281399999999999,0.909593,-0.0007749999999999,-0.0001779999999999,1.090407,0.0007749999999999,0.0001779999999999,0.839867,-0.4811649999999999,-0.1109199999999999,1.148057,-0.4631449999999999,-0.1010899999999999,0.751687,-0.8742049999999999,-0.07916,1.159797,-0.833305,0.019814,1
198,0.9926575,0.75146,0.0409389999999999,0.8388495,0.56079,0.0207129999999999,0.7350995,0.7748299999999999,-0.128887,1.1529895,0.56381,0.0222669999999999,1.2496995,0.75671,-0.140827,0.7181394999999999,1.02475,-0.222857,1.2246295,0.9916,-0.232387,0.9094805,-0.00078,-0.000233,1.0905195,0.00078,0.0002329999999999,0.8398795,-0.4774,-0.113087,1.1467895,-0.45986,-0.103897,0.7501095,-0.8675899999999999,-0.077267,1.1581795,-0.8275899999999998,0.0210809999999999,1
199,0.9935665,0.750375,0.0373765,0.8391824999999999,0.560065,0.0184775,0.7361625,0.773395,-0.1337554999999999,1.1536125,0.5631550000000001,0.0198595,1.2503225,0.753005,-0.1442155,0.7204225,1.0189050000000002,-0.2280755,1.2234825,0.986555,-0.2371154999999999,0.9093875,-0.0006349999999999,-0.0002815,1.0906125,0.000635,0.0002815,0.8401125,-0.474025,-0.1153155,1.1457225,-0.457045,-0.1065854999999999,0.7488825,-0.8614949999999999,-0.0751954999999999,1.1569425,-0.822315,0.0221235,1
200,0.9944245,0.749535,0.033679,0.8396795000000001,0.558955,0.015779,0.7372795,0.772025,-0.138589,1.1544895,0.561905,0.017042,1.2509495,0.749785,-0.147419,0.7227995,1.012245,-0.2335789999999999,1.2224195,0.984615,-0.241049,0.9092405,-0.000395,-0.000237,1.0907595,0.000395,0.000237,0.8404995,-0.4701349999999999,-0.117319,1.1447295,-0.453765,-0.1088889999999999,0.7477495000000001,-0.8549850000000001,-0.073359,1.1556695,-0.816415,0.023535,1
201,0.9954475,0.74865,0.029646,0.8402895,0.55802,0.013047,0.7384895,0.77081,-0.14341,1.1555995,0.55997,0.0137909999999999,1.2518695,0.74692,-0.15095,0.7250395000000001,1.00626,-0.2389,1.2216595,0.98404,-0.24501,0.9090505,-0.00017,-0.000174,1.0909494999999998,0.0001699999999999,0.0001739999999999,0.8410795,-0.46582,-0.11935,1.1439995,-0.45052,-0.11101,0.7469695000000001,-0.8479700000000001,-0.07156,1.1545295,-0.81019,0.0250589999999999,1
202,0.996272,0.748365,0.025548,0.840989,0.557365,0.0104059999999999,0.739769,0.769775,-0.148048,1.156269,0.559285,0.0110549999999999,1.252739,0.744645,-0.154328,0.727189,0.999855,-0.244268,1.220949,0.983395,-0.249558,0.908911,-5.499999999999949e-05,-6.599999999999662e-05,1.091089,5.499999999999949e-05,6.599999999999662e-05,0.841539,-0.460885,-0.121308,1.143369,-0.447285,-0.113268,0.7460990000000001,-0.8407450000000001,-0.0699679999999999,1.153489,-0.803775,0.026434,1
203,0.997412,0.7479,0.0212629999999999,0.8416850000000001,0.5565899999999999,0.0076639999999999,0.741205,0.76827,-0.15276,1.157075,0.55826,0.0076799999999999,1.2535349999999998,0.74295,-0.15797,0.729355,0.9933,-0.24981,1.220155,0.98178,-0.2545199999999999,0.908785,6.999999999998674e-05,-3.700000000000925e-05,1.0912149999999998,-7.00000000000145e-05,3.699999999999537e-05,0.8417950000000001,-0.45533,-0.12289,1.142855,-0.44416,-0.11531,0.7452650000000001,-0.8332900000000001,-0.0686,1.152545,-0.79691,0.0276149999999999,1
204,0.99861,0.74762,0.0174875,0.842844,0.55558,0.0048535,0.743024,0.76619,-0.1571094999999999,1.157744,0.55704,0.0049965,1.254404,0.74033,-0.1614695,0.732004,0.98698,-0.2551394999999999,1.219794,0.97963,-0.2597294999999999,0.908656,0.00026,-5.3499999999998e-05,1.091344,-0.0002599999999999,5.350000000001187e-05,0.841954,-0.4496099999999999,-0.1245494999999999,1.142404,-0.44137,-0.1171895,0.7447239999999999,-0.82711,-0.0672095,1.151844,-0.79018,0.0284305,1
205,1.0000385,0.74732,0.0135944999999999,0.8440275,0.55465,0.0019124999999999,0.7450475000000001,0.76332,-0.1615144999999999,1.1585175,0.55596,0.0021754999999999,1.2551775,0.73846,-0.1649544999999999,0.7347175,0.98229,-0.2602244999999999,1.2194675,0.97874,-0.2643244999999999,0.9084025,0.0004699999999999,-0.0001624999999999,1.0915975,-0.0004699999999999,0.0001624999999999,0.8420275,-0.4438299999999999,-0.1263945,1.1421075,-0.43848,-0.1192945,0.7443175,-0.82036,-0.0665745,1.1512575,-0.78298,0.0290055,1
206,1.0016625,0.74677,0.0091395,0.8450295,0.55461,-0.0008704999999999,0.7469295,0.76089,-0.1660144999999999,1.1594795,0.55434,-0.0008744999999999,1.2559095,0.73891,-0.1695345,0.7375895,0.97817,-0.2657545,1.2198095,0.97729,-0.2693145,0.9082205,0.0006899999999999,-0.0003024999999999,1.0917795,-0.00069,0.0003025,0.8419895,-0.43857,-0.1284045,1.1419895,-0.43604,-0.1218845,0.7439994999999999,-0.81386,-0.0669344999999999,1.1507695,-0.7762600000000001,0.0289805,1
207,1.0032685,0.74609,0.004432,0.8459745000000001,0.55458,-0.0038139999999999,0.7487845,0.75862,-0.170508,1.1600945,0.55235,-0.0038989999999999,1.2565545,0.73821,-0.174428,0.7400345000000002,0.97567,-0.271578,1.2201345,0.97584,-0.274548,0.9080955,0.0009499999999999,-0.000306,1.0919045,-0.00095,0.000306,0.8421545,-0.43508,-0.130518,1.1419345,-0.43437,-0.1244479999999999,0.7440245,-0.80739,-0.068008,1.1504045,-0.76987,0.02849,1
208,1.0045965,0.74559,-0.000403,0.8471394999999999,0.55467,-0.006901,0.7504395,0.7575799999999999,-0.1750209999999999,1.1606895,0.55048,-0.006694,1.2569395,0.7384,-0.178711,0.7423995,0.97512,-0.277281,1.2198395,0.97477,-0.279601,0.9079805,0.0011699999999999,-0.000309,1.0920195,-0.00117,0.000309,0.8422895,-0.4315,-0.1323909999999999,1.1418795,-0.43295,-0.1268909999999999,0.7440195000000001,-0.8002,-0.068871,1.1500495,-0.76261,0.0280979999999999,1
209,1.006109,0.745735,-0.0045675,0.848385,0.554665,-0.0094215,0.752085,0.756595,-0.1792415,1.161285,0.5487850000000001,-0.0088815,1.257625,0.735285,-0.1827015,0.744935,0.975585,-0.2823915,1.219655,0.968555,-0.2848115,0.907795,0.001395,-0.0003134999999999,1.092205,-0.001395,0.0003134999999999,0.842535,-0.4286649999999999,-0.1339415,1.141815,-0.4322249999999999,-0.1292715,0.7441450000000001,-0.7932250000000001,-0.0697015,1.149955,-0.755455,0.0277275,1
210,1.007674,0.7458899999999999,-0.0087654999999999,0.849781,0.55404,-0.0121654999999999,0.753831,0.7553000000000001,-0.1835554999999999,1.161931,0.54779,-0.0109655,1.258361,0.73239,-0.1862754999999999,0.747691,0.97584,-0.2875355,1.219571,0.96269,-0.2898555,0.907589,0.00151,-0.0003655,1.092411,-0.00151,0.0003655,0.8427910000000001,-0.4265699999999999,-0.1354455,1.141891,-0.43158,-0.1315055,0.744441,-0.7865600000000001,-0.0707055,1.149941,-0.7485999999999999,0.0272115,1
211,1.0091264999999998,0.745595,-0.0129805,0.8512945000000001,0.5533950000000001,-0.0152405,0.7554445,0.753795,-0.1880105,1.1627145,0.546845,-0.0133905,1.2591745,0.7295050000000001,-0.1901205,0.7505845,0.976475,-0.2929805,1.2194245,0.956885,-0.2951505,0.9074355,0.001695,-0.0004775,1.0925645,-0.001695,0.0004775,0.8430345,-0.425075,-0.1371105,1.1419945,-0.430925,-0.1339405,0.7448144999999999,-0.7800449999999999,-0.0722105,1.1498545,-0.741885,0.0261664999999999,1
