sb224sc-HT22-VT27/4dt907/src/ml-research/a11/datafiles/labeled_files/A96_kinect.csv
FrameNo,nose_3d_x,nose_3d_y,nose_3d_z,left_shoulder_3d_x,left_shoulder_3d_y,left_shoulder_3d_z,left_elbow_3d_x,left_elbow_3d_y,left_elbow_3d_z,right_shoulder_3d_x,right_shoulder_3d_y,right_shoulder_3d_z,right_elbow_3d_x,right_elbow_3d_y,right_elbow_3d_z,left_wrist_3d_x,left_wrist_3d_y,left_wrist_3d_z,right_wrist_3d_x,right_wrist_3d_y,right_wrist_3d_z,left_hip_3d_x,left_hip_3d_y,left_hip_3d_z,right_hip_3d_x,right_hip_3d_y,right_hip_3d_z,left_knee_3d_x,left_knee_3d_y,left_knee_3d_z,right_knee_3d_x,right_knee_3d_y,right_knee_3d_z,left_ankle_3d_x,left_ankle_3d_y,left_ankle_3d_z,right_ankle_3d_x,right_ankle_3d_y,right_ankle_3d_z,activity_label
0,0.0172995,0.7566545,0.1297205,-0.1477435,0.6008945,0.1153925,-0.2468834999999999,0.7939045,0.0384225,0.1808565,0.5888645,0.0817374999999999,0.2786165,0.7893844999999999,0.0500105,-0.2667635,1.0344645,-0.0068645,0.3299765,1.0328645,0.0257564999999999,-0.0785184999999999,0.0020465,-0.0011035,0.0785184999999999,-0.0020465,0.0011035,-0.1620434999999999,-0.5827555,-0.0099505,0.1564865,-0.5968055,-0.0226694999999999,-0.1864235,-0.9601755,0.0272115,0.2199465,-1.0108355,-0.1095945,0
1,0.016987,0.7567594999999999,0.129824,-0.147932,0.6006294999999999,0.11549,-0.247532,0.7932195,0.037918,0.180578,0.5883794999999999,0.08176,0.278478,0.7888394999999999,0.0500559999999999,-0.267312,1.0340795,-0.007256,0.329768,1.0326795,0.0255099999999999,-0.078575,0.0020395,-0.000988,0.078575,-0.0020395,0.0009879999999999,-0.162152,-0.5828405,-0.009634,0.156388,-0.5968005000000001,-0.0224349999999999,-0.188702,-0.9580905,0.0265609999999999,0.218498,-1.0101205,-0.107303,0
2,0.016923,0.7575825,0.1261175,-0.147899,0.6010125,0.1126965,-0.2477889999999999,0.7930825,0.0341705,0.180501,0.5884725,0.0789565,0.278431,0.7887625,0.0463615,-0.267939,1.0338925,-0.0125095,0.329421,1.0327925,0.0199475,-0.07871,0.0020995,-0.0008944999999999,0.07871,-0.0020994999999999,0.0008944999999999,-0.161829,-0.5829575,-0.0068015,0.157891,-0.5968175,-0.0205515,-0.1882189999999999,-0.9575975,0.0312275,0.219141,-1.0088675,-0.1010965,0
3,0.016627,0.7576655,0.126145,-0.147994,0.6009555000000001,0.112625,-0.248184,0.7928855,0.034151,0.180666,0.5889255,0.07927,0.278426,0.7892355000000001,0.045721,-0.268644,1.0334555,-0.012852,0.329376,1.0323555,0.019392,-0.078771,0.0020774999999999,-0.000806,0.078771,-0.0020775,0.000806,-0.161904,-0.5829844999999999,-0.0066289999999999,0.1575959999999999,-0.5968344999999999,-0.020532,-0.189224,-0.9539945,0.03108,0.2193459999999999,-1.0104345,-0.106458,0
4,0.0164104999999999,0.7571445,0.1252765,-0.1480185,0.6004945,0.1122305,-0.2484385,0.7923545000000001,0.0339104999999999,0.1808415,0.5893145000000001,0.0794034999999999,0.2786115,0.7895745000000001,0.0452404999999999,-0.2693685,1.0322545,-0.0135105,0.3293315,1.0318545,0.0187304999999999,-0.0786935,0.0019934999999999,-0.0007125,0.0786935,-0.0019935,0.0007124999999999,-0.1618385,-0.5831854999999999,-0.0067635,0.1581015,-0.5967255,-0.0215805,-0.1894285,-0.9546555,0.0303834999999999,0.2175615,-1.0102255,-0.1018095,0
5,0.016309,0.756951,0.125357,-0.147969,0.6006009999999999,0.111995,-0.248629,0.792351,0.033726,0.180671,0.589241,0.079242,0.278391,0.789531,0.045044,-0.270049,1.030921,-0.01394,0.329301,1.031921,0.01841,-0.078827,0.0019379999999999,-0.0007609999999999,0.078827,-0.001938,0.0007609999999999,-0.161749,-0.583079,-0.006702,0.157881,-0.596709,-0.021384,-0.188649,-0.954399,0.030397,0.216441,-1.006879,-0.0969269999999999,1
6,0.0164695,0.7576625,0.1253495,-0.1477925,0.6004824999999999,0.1119625,-0.2487425,0.7921325,0.0338385,0.1808875,0.5898924999999999,0.0795425,0.2788275,0.7900324999999999,0.0448255,-0.2702825,1.0304525,-0.0141554999999999,0.3295375,1.0320525,0.0182935,-0.0789785,0.0020095,-0.0006664999999999,0.0789785,-0.0020094999999999,0.0006665,-0.1615725,-0.5919075,-0.0037894999999999,0.1578975,-0.5967775000000001,-0.0209264999999999,-0.1886625,-0.9535875,0.0309585,0.2142774999999999,-1.0092275,-0.0750975,1
7,0.0161715,0.7577029999999999,0.1252305,-0.1480004999999999,0.600563,0.1122094999999999,-0.2494205,0.791503,0.0336385,0.1807995,0.5898129999999999,0.0798764999999999,0.2784594999999999,0.790033,0.0449805,-0.2709905,1.029243,-0.0142154999999999,0.3293295,1.0318429999999998,0.0187575,-0.0789255,0.0019659999999999,-0.0005824999999999,0.0789255,-0.001966,0.0005824999999999,-0.1608605,-0.5878770000000001,-0.0072085,0.1572295,-0.5968070000000001,-0.0208715,-0.1886505,-0.955767,0.0313154999999999,0.2186695,-1.010207,-0.0991055,1
8,0.0160455,0.7578159999999999,0.125131,-0.1480304999999999,0.600536,0.1121839999999999,-0.2497105,0.791476,0.0335459999999999,0.1808095,0.589996,0.080021,0.2784595,0.7902159999999999,0.044909,-0.2715205,1.029216,-0.014412,0.3293495,1.032116,0.0186869999999999,-0.0789624999999999,0.001962,-0.000552,0.0789624999999999,-0.001962,0.0005519999999999,-0.1607104999999999,-0.5876140000000001,-0.006961,0.1572095,-0.596804,-0.020713,-0.1886205,-0.955794,0.0314719999999999,0.2187395,-1.009944,-0.0984589999999999,1
9,0.016013,0.7578159999999999,0.125221,-0.1480099999999999,0.600536,0.112255,-0.24998,0.791476,0.033608,0.18081,0.589996,0.080154,0.27845,0.7902159999999999,0.044967,-0.27198,1.029216,-0.0144269999999999,0.32918,1.032316,0.018855,-0.078995,0.001962,-0.0005219999999999,0.078995,-0.001962,0.000522,-0.16063,-0.5876140000000001,-0.0067459999999999,0.1571699999999999,-0.596804,-0.02055,-0.18871,-0.955794,0.031637,0.21849,-1.009944,-0.0973,1
10,0.0159945,0.757817,0.125327,-0.1479895,0.6004970000000001,0.112366,-0.2502395,0.791287,0.0337159999999999,0.1808305,0.590037,0.080311,0.2784505,0.790257,0.045084,-0.2723795,1.028957,-0.014371,0.3289805,1.032357,0.0190219999999999,-0.0790295,0.001936,-0.0004909999999999,0.0790295,-0.001936,0.0004909999999999,-0.1604395,-0.588643,-0.006599,0.1569905,-0.596803,-0.02047,-0.1888095,-0.955873,0.031566,0.2178405,-1.010383,-0.0964039999999999,1
11,0.01592,0.7578075000000001,0.1254845,-0.1479809999999999,0.6004875000000001,0.1124795,-0.250481,0.7911275,0.0338684999999999,0.180799,0.5900975,0.0804425,0.278409,0.7903175,0.0452395,-0.272771,1.0286175,-0.0142895,0.3287589999999999,1.0331175,0.0191325,-0.079056,0.0019135,-0.0004644999999999,0.079056,-0.0019135,0.0004644999999999,-0.1603109999999999,-0.5896524999999999,-0.0064905,0.156799,-0.5968025,-0.0203845,-0.188801,-0.9563625,0.0315065,0.217229,-1.0105525,-0.0954704999999999,1
12,0.0158579999999999,0.7580545,0.125606,-0.147975,0.6005245,0.112572,-0.250695,0.7910645000000001,0.033997,0.180745,0.5901945,0.0805019999999999,0.278355,0.7904145,0.045361,-0.273105,1.0285145,-0.014156,0.328495,1.0342144999999998,0.019243,-0.0790869999999999,0.0019344999999999,-0.000459,0.0790869999999999,-0.0019345,0.000459,-0.160215,-0.5902455,-0.006441,0.156735,-0.5968455,-0.0203619999999999,-0.188575,-0.9566155,0.031613,0.216865,-1.0103655,-0.094663,1
13,0.015793,0.7583475000000001,0.125711,-0.14796,0.6005575000000001,0.112665,-0.25086,0.7910375000000001,0.034107,0.1807099999999999,0.5902375000000001,0.080573,0.2783,0.7904675,0.045465,-0.2734,1.0284175,-0.0140409999999999,0.32822,1.0346175,0.019281,-0.079121,0.0019524999999999,-0.0004849999999999,0.079121,-0.0019525,0.0004849999999999,-0.16017,-0.5908025,-0.0064159999999999,0.1566199999999999,-0.5968825,-0.0203739999999999,-0.18841,-0.9568825,0.031715,0.2166499999999999,-1.0103325,-0.0943919999999999,1
14,0.015729,0.7585715000000001,0.1259075,-0.147959,0.6006115000000001,0.1127545,-0.2509789999999999,0.7910515,0.0342035,0.180641,0.5902015,0.0806165,0.278201,0.7904515000000001,0.0455685,-0.2736389999999999,1.0283315,-0.0139385,0.3280309999999999,1.0361315,0.0193894999999999,-0.079154,0.0019755,-0.0005095,0.079154,-0.0019755,0.0005094999999999,-0.160169,-0.5903185,-0.0063765,0.156501,-0.5969184999999999,-0.0203435,-0.188219,-0.9572385,0.0317514999999999,0.216831,-1.0102585,-0.0946515,1
15,0.0156789999999999,0.7587915000000001,0.126201,-0.147943,0.6006315000000001,0.1128349999999999,-0.251083,0.7910715,0.034378,0.180597,0.5902215000000001,0.080702,0.278147,0.7905015000000001,0.045702,-0.273813,1.0282215,-0.013848,0.328067,1.0377215,0.019505,-0.079202,0.0019825,-0.000543,0.079202,-0.0019825,0.000543,-0.160273,-0.5902385,-0.0061229999999999,0.156437,-0.5969384999999999,-0.0203179999999999,-0.187993,-0.9575985,0.031799,0.217077,-1.0100585,-0.094791,1
16,0.0156074999999999,0.759047,0.1265195,-0.1479205,0.6006870000000001,0.1128795,-0.2511905,0.791097,0.0345604999999999,0.1805295,0.590237,0.0807245,0.2780795,0.7905270000000001,0.0458894999999999,-0.2739405,1.0282369999999998,-0.0137515,0.3280595,1.039537,0.0195374999999999,-0.0792465,0.0020009999999999,-0.0005675,0.0792465,-0.002001,0.0005674999999999,-0.1603605,-0.5904229999999999,-0.0058895,0.1564195,-0.5969629999999999,-0.0203195,-0.1879905,-0.957083,0.0315035,0.2165794999999999,-1.009823,-0.0942475,1
17,0.0155385,0.7592435,0.1268655,-0.1478895,0.6007334999999999,0.1129455,-0.2512795,0.7911435,0.0348135,0.1804305,0.5901035,0.0806925,0.2779705,0.7904435,0.0461045,-0.2740695,1.0281535,-0.0135594999999999,0.3280405,1.0412535,0.0196195,-0.0792905,0.0020254999999999,-0.0005835,0.0792905,-0.0020254999999999,0.0005835,-0.1604295,-0.5904165,-0.0056244999999999,0.1564505,-0.5969665000000001,-0.0203285,-0.1879695,-0.9565665,0.0311995,0.2166004999999999,-1.0096165,-0.0944635,1
18,0.0154684999999999,0.7594310000000001,0.1272485,-0.1478535,0.600811,0.1130365,-0.2513734999999999,0.791201,0.0351314999999999,0.1802565,0.5899110000000001,0.0806505,0.2778365,0.7902910000000001,0.0462985,-0.2742035,1.028171,-0.0133194999999999,0.3280165,1.042871,0.0197155,-0.0793355,0.0020559999999999,-0.0005975,0.0793355,-0.002056,0.0005975,-0.1605134999999999,-0.589889,-0.0056235,0.1564065,-0.596999,-0.0203535,-0.1879635,-0.956049,0.0309505,0.2164964999999999,-1.009339,-0.0946404999999999,1
19,0.0154139999999999,0.7595385,0.12761,-0.147824,0.6008785,0.113134,-0.251484,0.7912585,0.0354589999999999,0.180086,0.5896885,0.080631,0.277706,0.7900585,0.0465239999999999,-0.274354,1.0281885000000002,-0.013057,0.327976,1.0441885000000002,0.0197879999999999,-0.079367,0.0020824999999999,-0.000607,0.079367,-0.0020825,0.0006069999999999,-0.160654,-0.5893515,-0.00551,0.156406,-0.5970115,-0.020359,-0.188204,-0.9553415,0.0307989999999999,0.216386,-1.0089315,-0.094785,1
20,0.0153859999999999,0.759602,0.1279664999999999,-0.147798,0.6009319999999999,0.1132125,-0.251568,0.791302,0.0357655,0.179982,0.589492,0.0806325,0.277642,0.789862,0.0467595,-0.274478,1.028292,-0.0128114999999999,0.328082,1.045092,0.0198415,-0.079403,0.0021069999999999,-0.0006084999999999,0.079403,-0.0021069999999999,0.0006085,-0.160828,-0.588778,-0.0054344999999999,0.156422,-0.597028,-0.0203634999999999,-0.188238,-0.954948,0.0305935,0.216172,-1.008308,-0.0946405,1
21,0.0153604999999999,0.7595845,0.128228,-0.1477585,0.6009245000000001,0.113232,-0.2516585,0.7912745,0.035948,0.1799815,0.5895245,0.080634,0.2776515,0.7899045,0.046916,-0.2745885,1.0281545,-0.0126749999999999,0.3282315,1.0451545,0.019834,-0.0794325,0.0021075,-0.0006069999999999,0.0794325,-0.0021075,0.000607,-0.1609885,-0.5885254999999999,-0.0052559999999999,0.1564414999999999,-0.5970154999999999,-0.020403,-0.1882185,-0.9550155,0.03046,0.2162115,-1.0081455,-0.094642,1
22,0.0153289999999999,0.7595555,0.128496,-0.147719,0.6009055,0.113254,-0.251749,0.7912355,0.036115,0.179971,0.5895255,0.080651,0.277671,0.7898955,0.047045,-0.274709,1.0281155,-0.012602,0.328401,1.0452155,0.019825,-0.079454,0.0021065,-0.000606,0.079454,-0.0021065,0.000606,-0.1611389999999999,-0.5884645,-0.005138,0.156461,-0.5970044999999999,-0.020475,-0.188039,-0.9551545,0.030391,0.2160909999999999,-1.0082345,-0.094634,1
23,0.0153155,0.7595299999999999,0.12863,-0.1476555,0.60088,0.11323,-0.2518255,0.7912,0.036209,0.1799045,0.58941,0.08062,0.2776145,0.7897799999999999,0.047083,-0.2747855,1.02807,-0.012559,0.3283345,1.04397,0.01977,-0.0794985,0.0021049999999999,-0.0006309999999999,0.0794985,-0.002105,0.0006309999999999,-0.1612355,-0.58872,-0.005192,0.1565645,-0.59702,-0.0206629999999999,-0.1879654999999999,-0.95547,0.030188,0.2161545,-1.00836,-0.094696,1
24,0.0152784999999999,0.759515,0.1287235,-0.1476365,0.600855,0.1131775,-0.2518964999999999,0.791145,0.0361994999999999,0.1799335,0.589285,0.0806294999999999,0.2776435,0.789675,0.0469915,-0.2749065,1.028025,-0.0126425,0.3284735,1.042825,0.0195234999999999,-0.0795194999999999,0.002106,-0.0006115,0.0795194999999999,-0.0021059999999999,0.0006114999999999,-0.1612565,-0.588755,-0.0052805,0.1567135,-0.597035,-0.0208175,-0.1876765,-0.955525,0.0300534999999999,0.2164835,-1.008445,-0.0954494999999999,1
25,0.0152664999999999,0.7594970000000001,0.128657,-0.1476405,0.600827,0.113094,-0.2519905,0.7910870000000001,0.0360809999999999,0.1799494999999999,0.589117,0.0806689999999999,0.2776995,0.789517,0.046866,-0.2750205,1.027977,-0.01276,0.3286895,1.041677,0.0191989999999999,-0.0795495,0.0021089999999999,-0.000572,0.0795495,-0.002109,0.0005719999999999,-0.1614005,-0.588283,-0.005487,0.1568594999999999,-0.597043,-0.021015,-0.1875805,-0.955603,0.0298579999999999,0.2168795,-1.008393,-0.096525,1
26,0.0152445,0.7594795,0.1285315,-0.1477385,0.6007495,0.1130545,-0.2521985,0.7909695,0.0359655,0.1799915,0.5891695,0.0807275,0.2777515,0.7895395,0.0467365,-0.2752485,1.0278095,-0.0128745,0.3288515,1.0408095,0.0188015,-0.0796004999999999,0.0020935,-0.0005275,0.0796004999999999,-0.0020935,0.0005275,-0.1615784999999999,-0.5873405,-0.0056825,0.1570015,-0.5970305,-0.0213854999999999,-0.1874785,-0.9553505,0.0296255,0.2172015,-1.0084905,-0.0975435,1
27,0.0151685,0.7593015,0.1282965,-0.1478575,0.6006815,0.1128515,-0.2524475,0.7908315,0.0357385,0.1800425,0.5892515,0.0806905,0.2778325,0.7896015,0.0464075,-0.2754175,1.0276615,-0.0131765,0.3290225,1.0419615,0.0180805,-0.0796385,0.0020724999999999,-0.0005024999999999,0.0796385,-0.0020724999999999,0.0005025,-0.1617275,-0.5865885,-0.0060305,0.1570325,-0.5970185,-0.0220694999999999,-0.1875675,-0.9549185,0.0290445,0.2172025,-1.0082385,-0.0981835,1
28,0.0150825,0.759037,0.128041,-0.1480135,0.600617,0.112599,-0.2527235,0.790587,0.035269,0.1801164999999999,0.589387,0.080548,0.2779765,0.7896569999999999,0.045655,-0.2755335,1.027207,-0.014101,0.3291365,1.041807,0.016464,-0.0796485,0.002057,-0.000486,0.0796485,-0.002057,0.000486,-0.1618335,-0.585893,-0.006629,0.1570665,-0.597023,-0.022937,-0.1877235,-0.954353,0.0284449999999999,0.2171765,-1.008193,-0.0988729999999999,1
29,0.0150905,0.758646,0.127592,-0.1481404999999999,0.600566,0.112274,-0.2530205,0.790256,0.034478,0.1801295,0.589386,0.080236,0.2781595,0.789476,0.044545,-0.2755805,1.026686,-0.015507,0.3291595,1.039586,0.014221,-0.0796755,0.002041,-0.0004419999999999,0.0796755,-0.002041,0.0004419999999999,-0.1619305,-0.585224,-0.007454,0.1571395,-0.597034,-0.024421,-0.1879704999999999,-0.953594,0.027804,0.2172595,-1.0080140000000002,-0.0998649999999999,1
30,0.015057,0.7579635,0.1267995,-0.148304,0.6005135,0.1118805,-0.253094,0.7897335,0.0330035,0.180036,0.5894435,0.0797954999999999,0.278476,0.7892335,0.0427055,-0.275684,1.0259435,-0.0178754999999999,0.328936,1.0371435,0.0096165,-0.0797,0.0019885,-0.0003415,0.0797,-0.0019885,0.0003415,-0.162084,-0.5842665,-0.0088494999999999,0.157136,-0.5970165000000001,-0.0262765,-0.188214,-0.9529665,0.0270345,0.217256,-1.0077565,-0.1008165,1
31,0.014973,0.7574430000000001,0.125632,-0.148523,0.6006530000000001,0.111227,-0.253243,0.789213,0.030801,0.1799369999999999,0.5896830000000001,0.079127,0.278837,0.7889430000000001,0.039908,-0.275893,1.024943,-0.0212569999999999,0.3287069999999999,1.032943,0.003653,-0.07973,0.001948,-0.0002149999999999,0.07973,-0.0019479999999999,0.0002149999999999,-0.162283,-0.5829669999999999,-0.0107799999999999,0.1571469999999999,-0.597047,-0.0286479999999999,-0.188303,-0.952547,0.026101,0.217167,-1.006957,-0.101741,1
32,0.0148884999999999,0.7568,0.1241955,-0.1487415,0.60079,0.1104785,-0.2534214999999999,0.7885500000000001,0.0281225,0.1798285,0.58985,0.0784325,0.2792585,0.7885300000000001,0.0365455,-0.2761515,1.02378,-0.0254275,0.3287985,1.02888,-0.0023644999999999,-0.0797655,0.001888,-1.5500000000001624e-05,0.0797655,-0.001888,1.5500000000001624e-05,-0.1625214999999999,-0.5815699999999999,-0.0129914999999999,0.1571285,-0.59703,-0.0314604999999999,-0.1883915,-0.95179,0.0250765,0.2170285,-1.00612,-0.1024045,1
33,0.014762,0.7561815,0.121957,-0.149282,0.6003514999999999,0.108816,-0.253662,0.7877215,0.024901,0.179698,0.5888715,0.07738,0.2796079999999999,0.7879214999999999,0.032408,-0.276372,1.0229615,-0.0307519999999999,0.3291079999999999,1.0258615,-0.0094809999999999,-0.079839,0.0018534999999999,0.0001859999999999,0.079839,-0.0018535,-0.0001859999999999,-0.162872,-0.5793585000000001,-0.0158309999999999,0.157128,-0.5970285000000001,-0.034806,-0.188582,-0.9503085,0.023785,0.216988,-1.0047385,-0.103599,1
34,0.0145905,0.7553175000000001,0.119323,-0.1498425,0.5999175,0.107068,-0.2539925,0.7867375000000001,0.020949,0.1794375,0.5878375,0.076085,0.2798575,0.7870375000000001,0.027555,-0.2766225,1.0216975,-0.0370179999999999,0.3294275,1.0227975,-0.017291,-0.0799745,0.0018095,0.0004009999999999,0.0799745,-0.0018095,-0.0004009999999999,-0.1633425,-0.5770725,-0.018914,0.1570975,-0.5961624999999999,-0.03839,-0.1888725,-0.9487725,0.02237,0.2168275,-1.0034025,-0.10476,1
35,0.0143874999999999,0.7542555000000001,0.1159975,-0.1504345,0.5995755,0.1052105,-0.2544545,0.7856055000000001,0.0161905,0.1789655,0.5866355,0.0746235,0.2799855,0.7863855000000001,0.0220315,-0.2769145,1.0204055,-0.0443125,0.3297454999999999,1.0194055,-0.0258585,-0.0801445,0.0017794999999999,0.0005925,0.0801445,-0.0017794999999999,-0.0005925,-0.1639745,-0.5751145,-0.0222185,0.1569855,-0.5949544999999999,-0.0423034999999999,-0.1894745,-0.9475645,0.0210964999999999,0.2164454999999999,-1.0021945,-0.1058425,1
36,0.0141105,0.75353,0.112388,-0.1511495,0.59943,0.103161,-0.2549995,0.78445,0.0107599999999999,0.1782805,0.58562,0.0728419999999999,0.2801305,0.7856799999999999,0.0160969999999999,-0.2773095,1.01925,-0.052529,0.3299305,1.01585,-0.035212,-0.0803375,0.001738,0.0008149999999999,0.0803375,-0.001738,-0.000815,-0.1647895,-0.57293,-0.025797,0.1568004999999999,-0.59351,-0.046259,-0.1902495,-0.9461,0.0196529999999999,0.2159805,-1.00075,-0.106943,1
37,0.0138195,0.7532325,0.108284,-0.1519105,0.5993425,0.100525,-0.2554105,0.7839925,0.004986,0.1772595,0.5831625,0.070407,0.2802895,0.7856425,0.009547,-0.2776805,1.0186725,-0.0613709999999999,0.3302495,1.0129725,-0.0445659999999999,-0.0805795,0.0017274999999999,0.0009959999999999,0.0805795,-0.0017274999999999,-0.0009959999999999,-0.1656605,-0.5700275,-0.0296489999999999,0.1565395,-0.5914874999999999,-0.0509629999999999,-0.1910505,-0.9440475,0.018012,0.2155595,-0.9987275,-0.1079489999999999,1
38,0.0136495,0.7529925,0.103939,-0.1526255,0.5989525,0.097565,-0.2556855,0.7842125,-0.0010479999999999,0.1763144999999999,0.5806125,0.067683,0.2805245,0.7858925,0.002621,-0.2778555,1.0180825,-0.0709479999999999,0.3306545,1.0110825,-0.054016,-0.0808115,0.0017044999999999,0.001206,0.0808115,-0.0017045,-0.0012059999999999,-0.1665355,-0.5666275000000001,-0.033433,0.1562845,-0.5887475000000001,-0.055482,-0.1918055,-0.9413675,0.016313,0.2150444999999999,-0.9962175,-0.1095479999999999,1
39,0.0134885,0.7527005,0.099391,-0.1533285,0.5986505000000001,0.094481,-0.2559185,0.7846205,-0.0074719999999999,0.1753115,0.5788805,0.064889,0.2806415,0.7859605000000001,-0.004078,-0.2780085,1.0178505,-0.080586,0.3313715,1.0098505,-0.062021,-0.0810645,0.0015894999999999,0.0014389999999999,0.0810645,-0.0015895,-0.001439,-0.1673885,-0.5634595,-0.037222,0.1560415,-0.5863594999999999,-0.05971,-0.1925085,-0.9391295,0.0146449999999999,0.2146415,-0.9939495,-0.1109759999999999,1
40,0.0133804999999999,0.7522869999999999,0.0946925,-0.1539075,0.598217,0.0913385,-0.2560975,0.784737,-0.0146705,0.1744125,0.577357,0.0621525,0.2808625,0.7862669999999999,-0.0105494999999999,-0.2781274999999999,1.017877,-0.0901825,0.3323125,1.010477,-0.0696715,-0.0813885,0.001407,0.0017404999999999,0.0813885,-0.001407,-0.0017404999999999,-0.1681675,-0.560353,-0.0407565,0.1558125,-0.583813,-0.0637445,-0.1930675,-0.936733,0.0130965,0.2142025,-0.991723,-0.1124825,1
41,0.013255,0.7521844999999999,0.0898785,-0.154423,0.5976144999999999,0.0880555,-0.2561529999999999,0.7852045,-0.0221345,0.173507,0.5761744999999999,0.0593625,0.280997,0.7867445,-0.0169585,-0.278243,1.0179745,-0.0999535,0.333037,1.0110145,-0.0778935,-0.081729,0.0013044999999999,0.0018984999999999,0.081729,-0.0013045,-0.0018985,-0.168903,-0.5571955000000001,-0.0441215,0.155607,-0.5808955,-0.0674525,-0.193503,-0.9342055,0.0113484999999999,0.213777,-0.9892255,-0.1141234999999999,1
42,0.0132159999999999,0.751963,0.0852155,-0.154874,0.597523,0.0852165,-0.256434,0.785563,-0.0297965,0.172756,0.576233,0.0566515,0.281126,0.7873330000000001,-0.0235025,-0.278414,1.0178429999999998,-0.1098595,0.333596,1.011253,-0.0862695,-0.082023,0.0011609999999999,0.0021795,0.082023,-0.001161,-0.0021795,-0.169584,-0.553877,-0.0470775,0.155456,-0.5773269999999999,-0.0708455,-0.193914,-0.931427,0.0097905,0.213446,-0.986547,-0.1156994999999999,1
43,0.0132794999999999,0.7520685,0.0804515,-0.1552555,0.5974185,0.0819955,-0.2567155,0.7860985,-0.0374415,0.1720445,0.5755085,0.0537095,0.2813445,0.7879885,-0.0302004999999999,-0.2785155,1.0181385,-0.1198005,0.3341845,1.0117685,-0.0949705,-0.0822725,0.0010514999999999,0.0026084999999999,0.0822725,-0.0010515,-0.0026084999999999,-0.1701755,-0.5504715,-0.0501215,0.1553145,-0.5733515,-0.0742674999999999,-0.1943055,-0.9285315,0.0079635,0.2131345,-0.9837415,-0.1173805,1
44,0.0133185,0.752169,0.075823,-0.1556135,0.597069,0.0780069999999999,-0.2569435,0.786509,-0.045024,0.1714065,0.5747289999999999,0.050591,0.2816364999999999,0.788739,-0.037071,-0.2785434999999999,1.018669,-0.129805,0.3347765,1.012429,-0.103645,-0.0824115,0.0009579999999999,0.0031169999999999,0.0824115,-0.000958,-0.003117,-0.1706534999999999,-0.5470710000000001,-0.053116,0.1551265,-0.569311,-0.077466,-0.1946335,-0.925631,0.0059739999999999,0.2127865,-0.980891,-0.1190949999999999,1
45,0.013382,0.7520005000000001,0.0709625,-0.155653,0.5963705,0.0737994999999999,-0.2571929999999999,0.7869705,-0.0524515,0.170827,0.5738605,0.0474625,0.281877,0.7892805,-0.0440755,-0.278543,1.0187905,-0.1397024999999999,0.335507,1.0129405,-0.1121224999999999,-0.082519,0.0007955,0.0036505,0.082519,-0.0007955,-0.0036505,-0.171033,-0.5438395,-0.0560305,0.154947,-0.5652595,-0.0806895,-0.194853,-0.9228595,0.0041015,0.212497,-0.9782295,-0.1212125,1
46,0.013498,0.7513234999999999,0.0662735,-0.155694,0.5956635,0.0700125,-0.2575139999999999,0.7871035,-0.0599424999999999,0.170696,0.5738534999999999,0.0445025,0.282196,0.7891435,-0.0508664999999999,-0.278674,1.0185135,-0.1491825,0.336366,1.0130735,-0.1206624999999999,-0.082599,0.0007085,0.0042404999999999,0.082599,-0.0007085,-0.0042405,-0.1712439999999999,-0.5410165,-0.0585414999999999,0.154926,-0.5622965000000001,-0.0831425,-0.194854,-0.9203865,0.0024814999999999,0.212446,-0.9760365,-0.1233125,1
47,0.0135825,0.7507594999999999,0.0614665,-0.1556885,0.5951295,0.0661855,-0.2577784999999999,0.7873694999999999,-0.0676935,0.1706315,0.5740295,0.0415274999999999,0.2825115,0.7889495,-0.0577245,-0.2790085,1.0183595,-0.1583875,0.3371815,1.0130795,-0.1297775,-0.0827295,0.0006155,0.0048094999999999,0.0827295,-0.0006154999999999,-0.0048095,-0.1714285,-0.5379205,-0.0613554999999999,0.1549815,-0.5595105,-0.0857675,-0.1948285,-0.9176305,0.0004664999999999,0.2123815,-0.9733605,-0.1258075,1
48,0.0135784999999999,0.749584,0.0566239999999999,-0.1556655,0.594774,0.0623409999999999,-0.2579355,0.786964,-0.075058,0.1706345,0.574354,0.038439,0.2829745,0.788564,-0.06512,-0.2792555,1.018134,-0.167585,0.3379645,1.013204,-0.138695,-0.0829125,0.0005789999999999,0.00539,0.0829125,-0.0005789999999999,-0.0053899999999999,-0.1715255,-0.5350159999999999,-0.064027,0.1551545,-0.556766,-0.088595,-0.1945955,-0.914996,-0.001542,0.2122645,-0.970666,-0.127555,1
49,0.0136379999999999,0.7489220000000001,0.051881,-0.155596,0.5932820000000001,0.057656,-0.258016,0.7868120000000001,-0.081637,0.170684,0.574242,0.034578,0.2835839999999999,0.7884920000000001,-0.072674,-0.279406,1.018172,-0.176705,0.3386639999999999,1.013462,-0.147675,-0.083189,0.000505,0.005922,0.083189,-0.0005049999999999,-0.005922,-0.171526,-0.5315679999999999,-0.066671,0.1552639999999999,-0.553808,-0.091375,-0.194256,-0.912068,-0.003459,0.212204,-0.967378,-0.1293149999999999,1
50,0.0137059999999999,0.747938,0.0471675,-0.15552,0.591818,0.0531695,-0.25825,0.7862779999999999,-0.0878755,0.1707999999999999,0.574668,0.0308654999999999,0.28422,0.7881779999999999,-0.0801745,-0.27957,1.017668,-0.1855885,0.33953,1.010708,-0.1582485,-0.083461,0.0005209999999999,0.0065275,0.083461,-0.000521,-0.0065275,-0.17154,-0.5281020000000001,-0.0695605,0.15541,-0.551142,-0.0943285,-0.19392,-0.908972,-0.0053554999999999,0.21216,-0.964302,-0.1315585,1
51,0.0140709999999999,0.7470675,0.0426125,-0.155389,0.5895175,0.0486905,-0.258369,0.7857475,-0.0936365,0.171151,0.5746375,0.0270805,0.285281,0.7884375,-0.0874785,-0.279619,1.0174375,-0.1938365,0.340571,1.0085375,-0.1677365,-0.083809,0.0004885,0.0070245,0.083809,-0.0004884999999999,-0.0070244999999999,-0.171269,-0.5248025,-0.0723735,0.155841,-0.5480925,-0.0975565,-0.193289,-0.9059225,-0.0071214999999999,0.212621,-0.9611825,-0.1336565,1
52,0.0144199999999999,0.7462305,0.0383285,-0.155346,0.5877005,0.0445545,-0.258406,0.7839105,-0.0990985,0.171544,0.5744605,0.0234925,0.286344,0.7886705,-0.0943985,-0.279686,1.0174005,-0.2015885,0.341534,1.0066005,-0.1766785,-0.084127,0.0004994999999999,0.0073455,0.084127,-0.0004994999999999,-0.0073455,-0.170976,-0.5209195,-0.0750445,0.156274,-0.5444995,-0.1007085,-0.192546,-0.9023895,-0.0084895,0.213104,-0.9574795,-0.1355085,1
53,0.0147405,0.7456225,0.0344225,-0.1552955,0.5863225,0.0413855,-0.2583955,0.7816925,-0.1040065,0.1719245,0.5740925,0.0201455,0.2872245,0.7884425,-0.1010965,-0.2797755,1.0171925,-0.2086965,0.3422945,1.0046925,-0.1850565,-0.0844255,0.0005355,0.0074235,0.0844255,-0.0005355,-0.0074234999999999,-0.1707455,-0.5168775,-0.0776275,0.1566745,-0.5407775,-0.1036765,-0.1917655,-0.8986675,-0.0094694999999999,0.2136245,-0.9536275,-0.1364165,1
54,0.0148225,0.7444204999999999,0.0307565,-0.1552235,0.5853705,0.0386865,-0.2586235,0.7790905,-0.1086235,0.1723065,0.5724705,0.0170275,0.2877364999999999,0.7881505,-0.1074435,-0.2798935,1.0171605,-0.2153735,0.3425565,1.0026105,-0.1931035,-0.0847405,0.0007745,0.0074125,0.0847405,-0.0007744999999999,-0.0074125,-0.1705735,-0.5127395,-0.0801515,0.1570165,-0.5374195,-0.1064735,-0.1909835,-0.8951395000000001,-0.0101885,0.2142365,-0.9495895,-0.1373335,1
55,0.014993,0.744189,0.0272785,-0.155451,0.584089,0.0357815,-0.258661,0.776989,-0.1129685,0.172809,0.570199,0.0138555,0.288279,0.787809,-0.1133985,-0.279921,1.018099,-0.2218085,0.343019,1.001769,-0.2006885,-0.0851369999999999,0.000965,0.0072654999999999,0.0851369999999999,-0.000965,-0.0072655,-0.170301,-0.507481,-0.0829285,0.1574789999999999,-0.532681,-0.1097985,-0.190011,-0.8905810000000001,-0.0107555,0.215049,-0.944331,-0.1379685,1
56,0.0151255,0.7441895,0.024055,-0.1558375,0.5822394999999999,0.032873,-0.2586374999999999,0.7747495,-0.1169029999999999,0.1733025,0.5677694999999999,0.010737,0.2889125,0.7871794999999999,-0.118953,-0.2800074999999999,1.0192895,-0.227873,0.3435925,1.0019995,-0.207413,-0.0855685,0.0011444999999999,0.007076,0.0855685,-0.0011444999999999,-0.007076,-0.1699175,-0.5017505,-0.085808,0.1579125,-0.5274805,-0.113173,-0.1890075,-0.8855505,-0.0113049999999999,0.2156525,-0.9383905,-0.137793,1
57,0.0150809999999999,0.7446805,0.021274,-0.15658,0.5800305,0.029782,-0.25875,0.7729705,-0.120491,0.17377,0.5654505,0.007704,0.2896499999999999,0.7863905,-0.1238209999999999,-0.28019,1.0192105,-0.233671,0.34426,1.0022005,-0.213551,-0.08605,0.0012975,0.00694,0.08605,-0.0012975,-0.00694,-0.16951,-0.4962395,-0.08872,0.15835,-0.5226795,-0.1165109999999999,-0.18769,-0.8806295,-0.011688,0.2164,-0.9329995,-0.137991,1
58,0.0147825,0.7440585,0.0186095,-0.1573165,0.5787485,0.0276475,-0.2589165,0.7703185,-0.1239565,0.1742435,0.5646185,0.0057185,0.2902335,0.7843685,-0.1283565,-0.2803664999999999,1.0191285,-0.2391265,0.3445335,1.0020685,-0.2197465,-0.0864574999999999,0.0013714999999999,0.0069605,0.0864574999999999,-0.0013714999999999,-0.0069605,-0.1691865,-0.4912015,-0.0920715,0.1583435,-0.5182615,-0.1205365,-0.1864165,-0.8762115,-0.0117495,0.2169635,-0.9279615,-0.1380165,1
59,0.0146455,0.744441,0.016022,-0.1577945,0.577731,0.025248,-0.2588145,0.768731,-0.127444,0.1747655,0.563581,0.0030419999999999,0.2908055,0.782421,-0.133014,-0.2801645,1.020731,-0.2445639999999999,0.3449055,1.006261,-0.223704,-0.0869155,0.001546,0.006983,0.0869155,-0.001546,-0.006983,-0.1685745,-0.484639,-0.095653,0.1585455,-0.512319,-0.1248639999999999,-0.1848345,-0.870399,-0.011995,0.2179855,-0.921119,-0.138064,1
60,0.0143764999999999,0.744045,0.0135175,-0.1581585,0.577815,0.0233595,-0.2590885,0.766905,-0.1311405,0.1750815,0.563075,0.0009304999999999,0.2909515,0.779175,-0.1372405,-0.2800685,1.018615,-0.2499005,0.3449815,1.010085,-0.2273505,-0.0873025,0.0017599999999999,0.0068715,0.0873025,-0.00176,-0.0068715,-0.1681585,-0.478615,-0.0995005,0.1583315,-0.506605,-0.1292905,-0.1833685,-0.865045,-0.0122215,0.2188715,-0.914295,-0.1374505,1
61,0.0144669999999999,0.744174,0.011306,-0.158184,0.576804,0.0213,-0.259144,0.766014,-0.134547,0.175426,0.561744,-0.001289,0.291136,0.776264,-0.141167,-0.279694,1.017084,-0.254627,0.344846,1.010064,-0.233677,-0.087674,0.0019119999999999,0.0067429999999999,0.087674,-0.0019119999999999,-0.006743,-0.167404,-0.4718759999999999,-0.103287,0.1583959999999999,-0.500296,-0.133567,-0.181244,-0.859396,-0.01205,0.220026,-0.906596,-0.136397,1
62,0.01448,0.7442074999999999,0.0091935,-0.158105,0.5755574999999999,0.0192265,-0.259245,0.7649775000000001,-0.1381125,0.1758449999999999,0.5602975,-0.0034145,0.291305,0.7734875000000001,-0.1448425,-0.279275,1.0152575,-0.2591825,0.344175,1.0065475,-0.2405825,-0.088064,0.0019594999999999,0.0066754999999999,0.088064,-0.0019595,-0.0066755,-0.1664649999999999,-0.4653025,-0.1069625,0.158515,-0.4936425,-0.1379425,-0.179115,-0.8530525,-0.0114175,0.221665,-0.8984025,-0.1354125,1
63,0.0144974999999999,0.7448815,0.0074125,-0.1580375,0.5741015,0.0171625,-0.2593975,0.7648515,-0.1414975,0.1761725,0.5587115,-0.0054104999999999,0.2911925,0.7704814999999999,-0.1482075,-0.2789175,1.0133815,-0.2634275,0.3431925,1.0033315,-0.2467175,-0.0884225,0.0019435,0.0066005,0.0884225,-0.0019435,-0.0066005,-0.1654375,-0.4583685,-0.1104675,0.1586524999999999,-0.4863484999999999,-0.1421974999999999,-0.1769375,-0.8460885,-0.0104715,0.2234625,-0.8896385,-0.1346474999999999,1
64,0.014095,0.74467,0.005683,-0.1577489999999999,0.57289,0.015449,-0.259909,0.76374,-0.144839,0.1762409999999999,0.55838,-0.006845,0.2906809999999999,0.76683,-0.1512889999999999,-0.278749,1.01019,-0.267659,0.341991,0.99823,-0.252419,-0.088679,0.00189,0.006456,0.088679,-0.00189,-0.006456,-0.164519,-0.4518299999999999,-0.113759,0.158561,-0.4798599999999999,-0.145919,-0.174869,-0.83957,-0.00964,0.2250309999999999,-0.88137,-0.133929,1
65,0.0134374999999999,0.7439899999999999,0.003959,-0.1575655,0.5718799999999999,0.013672,-0.2605355,0.76077,-0.147964,0.1760045,0.55714,-0.008444,0.2899945,0.7627200000000001,-0.154514,-0.2787455,1.00649,-0.271844,0.3406445,0.99241,-0.2581239999999999,-0.0889554999999999,0.00175,0.006436,0.0889554999999999,-0.00175,-0.0064359999999999,-0.1637555,-0.4463499999999999,-0.116904,0.1583145,-0.47368,-0.149524,-0.1729455,-0.83345,-0.0088379999999999,0.2263545,-0.8739300000000001,-0.132654,1
66,0.0127949999999999,0.74346,0.00233,-0.157098,0.57123,0.012155,-0.261008,0.7587900000000001,-0.150745,0.175562,0.55579,-0.0101459999999999,0.289552,0.7593000000000001,-0.157915,-0.278678,1.00324,-0.2755749999999999,0.339642,0.9876,-0.2635849999999999,-0.089098,0.0016699999999999,0.006535,0.089098,-0.00167,-0.0065349999999999,-0.163088,-0.4411,-0.119975,0.1579519999999999,-0.46667,-0.152835,-0.171358,-0.82575,-0.007719,0.2272219999999999,-0.8653,-0.131055,1
67,0.0122285,0.7433000000000001,0.0005245,-0.1566065,0.57082,0.0106995,-0.2614565,0.75704,-0.1531135,0.1749735,0.55424,-0.0119074999999999,0.2891835,0.75654,-0.1612035,-0.2786165,0.99992,-0.2790035,0.3386635,0.98208,-0.2698435,-0.0891965,0.0017399999999999,0.0068715,0.0891965,-0.0017399999999999,-0.0068714999999999,-0.1624965,-0.43611,-0.1226435,0.1578335,-0.45948,-0.1553835,-0.1697265,-0.8174,-0.0063984999999999,0.2281535,-0.85627,-0.1294435,1
68,0.0114899999999999,0.742585,-0.0012495,-0.156241,0.569975,0.0095134999999999,-0.262131,0.754325,-0.1551205,0.174399,0.553525,-0.0128665,0.288779,0.7540250000000001,-0.1647605,-0.278801,0.994455,-0.2822605,0.336899,0.972385,-0.2767005,-0.089321,0.001535,0.0070144999999999,0.089321,-0.0015349999999999,-0.0070145,-0.161981,-0.432675,-0.1251605,0.157419,-0.4531349999999999,-0.1574305,-0.168141,-0.810015,-0.0047605,0.2286989999999999,-0.848095,-0.1268505,1
69,0.010643,0.7422150000000001,-0.0029265,-0.1560659999999999,0.569125,0.0084694999999999,-0.262806,0.7520549999999999,-0.1569165,0.173184,0.551275,-0.0145205,0.287904,0.7521450000000001,-0.1685265,-0.279256,0.992685,-0.2854965,0.334684,0.962755,-0.2833165,-0.089566,0.001375,0.0070634999999999,0.089566,-0.0013749999999999,-0.0070635,-0.161706,-0.429465,-0.1273965,0.156894,-0.446425,-0.1590565,-0.166676,-0.801345,-0.0033965,0.229064,-0.8389249999999999,-0.1237665,1
70,0.0094145,0.7414149999999999,-0.0049825,-0.1565164999999999,0.568195,0.0071045,-0.2639665,0.7491049999999999,-0.1591725,0.1717635,0.5502549999999999,-0.0160505,0.2859735,0.7470950000000001,-0.1720124999999999,-0.2801265,0.989555,-0.2893225,0.3318835,0.954115,-0.2872225,-0.0898565,0.001275,0.0069145,0.0898565,-0.0012749999999999,-0.0069145,-0.1617164999999999,-0.4272849999999999,-0.1299125,0.1561135,-0.4409549999999999,-0.1609225,-0.1659465,-0.7936650000000001,-0.0024474999999999,0.2290535,-0.830365,-0.1219325,1
71,0.0082315,0.740645,-0.0073164999999999,-0.1570025,0.566925,0.0055395,-0.2650725,0.746435,-0.1615375,0.1703275,0.549625,-0.0177415,0.2839675,0.7427549999999999,-0.1751875,-0.2810025,0.987465,-0.2932575,0.3291075,0.949155,-0.2906875,-0.0901225,0.0011049999999999,0.0066875,0.0901225,-0.0011049999999999,-0.0066874999999999,-0.1618125,-0.425555,-0.1325775,0.1552575,-0.436115,-0.1626575,-0.1651725,-0.785985,-0.0016464999999999,0.2290475,-0.821875,-0.1210875,1
72,0.00722,0.7401549999999999,-0.0104479999999999,-0.157488,0.565875,0.0035129999999999,-0.266138,0.7442249999999999,-0.164458,0.168872,0.547955,-0.020415,0.281862,0.738685,-0.179138,-0.281838,0.985895,-0.2984279999999999,0.326152,0.944825,-0.295758,-0.090378,0.000925,0.006488,0.090378,-0.000925,-0.006488,-0.162008,-0.4242849999999999,-0.1356679999999999,0.154192,-0.431835,-0.164968,-0.164348,-0.7784549999999999,-0.001249,0.229202,-0.8130250000000001,-0.1203179999999999,1
73,0.006387,0.7395499999999999,-0.0137194999999999,-0.15798,0.56491,0.0012875,-0.26697,0.74017,-0.1669655,0.16737,0.54714,-0.0231375,0.27999,0.7351300000000001,-0.1834155,-0.28253,0.98419,-0.3034354999999999,0.32332,0.94251,-0.3009355,-0.09061,0.00069,0.0063775,0.09061,-0.0006899999999999,-0.0063774999999999,-0.16234,-0.4235199999999999,-0.1392354999999999,0.15292,-0.4276199999999999,-0.1677355,-0.16412,-0.76759,-0.0011224999999999,0.22907,-0.80365,-0.1196655,1
74,0.0056495,0.739465,-0.0172739999999999,-0.1584235,0.5642050000000001,-0.0009679999999999,-0.2679635,0.7385649999999999,-0.169761,0.1658965,0.546325,-0.0265009999999999,0.2781365,0.7325250000000001,-0.188111,-0.2832234999999999,0.982795,-0.308491,0.3200265,0.940275,-0.307261,-0.0909235,0.0005949999999999,0.006334,0.0909235,-0.000595,-0.0063339999999999,-0.1627735,-0.422465,-0.142871,0.1514865,-0.423965,-0.1703309999999999,-0.1639035,-0.7571650000000001,-0.0011069999999999,0.2287965,-0.7936749999999999,-0.1189909999999999,1
75,0.0050389999999999,0.738815,-0.021621,-0.158593,0.562935,-0.003879,-0.269173,0.735975,-0.174114,0.164637,0.5452250000000001,-0.030176,0.276217,0.729415,-0.194284,-0.283833,0.982145,-0.3141239999999999,0.316467,0.936785,-0.3152839999999999,-0.0912729999999999,0.0004649999999999,0.00627,0.0912729999999999,-0.0004649999999999,-0.0062699999999999,-0.163133,-0.421505,-0.146664,0.150127,-0.421215,-0.173244,-0.163213,-0.747745,-0.001542,0.228427,-0.784325,-0.118994,1
76,0.004493,0.737865,-0.0262265,-0.158847,0.561895,-0.0073364999999999,-0.270417,0.734665,-0.1792795,0.163333,0.543975,-0.0344945,0.274263,0.727015,-0.2010695,-0.284237,0.981215,-0.3205195,0.3126529999999999,0.934365,-0.3222095,-0.091777,0.0002349999999999,0.0061185,0.091777,-0.000235,-0.0061184999999999,-0.163317,-0.420545,-0.1506395,0.148793,-0.4190549999999999,-0.1764795,-0.162127,-0.738615,-0.0022884999999999,0.228043,-0.774555,-0.1191494999999999,1
77,0.004053,0.737015,-0.03117,-0.159034,0.560485,-0.011377,-0.271544,0.7336449999999999,-0.185219,0.161706,0.541605,-0.039736,0.272236,0.724645,-0.208119,-0.2846039999999999,0.979885,-0.327869,0.3092859999999999,0.934835,-0.329829,-0.092194,0.0001449999999999,0.0062459999999999,0.092194,-0.000145,-0.006246,-0.163514,-0.419435,-0.154519,0.147526,-0.417375,-0.179999,-0.161054,-0.7295450000000001,-0.003309,0.227506,-0.7646850000000001,-0.1195989999999999,1
78,0.0036169999999999,0.73636,-0.0363509999999999,-0.159309,0.55794,-0.016139,-0.272559,0.73195,-0.191324,0.160391,0.54051,-0.044777,0.270391,0.7225900000000001,-0.215424,-0.284999,0.97852,-0.335094,0.305961,0.9354,-0.338354,-0.0926589999999999,3.0000000000002247e-05,0.0065029999999999,0.0926589999999999,-3.0000000000002247e-05,-0.0065029999999999,-0.163759,-0.41816,-0.158574,0.146351,-0.41634,-0.183454,-0.159999,-0.72046,-0.0041639999999999,0.226941,-0.75497,-0.1202839999999999,1
79,0.0028275,0.7354400000000001,-0.042204,-0.1598245,0.55609,-0.0209099999999999,-0.2735545,0.73045,-0.197566,0.1589155,0.5389900000000001,-0.05055,0.2690155,0.72355,-0.2242659999999999,-0.2856745,0.97774,-0.342956,0.3027154999999999,0.93689,-0.3486559999999999,-0.0932244999999999,-0.0001999999999999,0.006565,0.0932244999999999,0.0002,-0.006565,-0.1641745,-0.4169899999999999,-0.162656,0.1449355,-0.4152,-0.1871459999999999,-0.1591545,-0.71161,-0.0050469999999999,0.2261455,-0.74517,-0.1211559999999999,1
80,0.002097,0.73416,-0.0481455,-0.160267,0.55349,-0.0261285,-0.274427,0.7283,-0.2040135,0.157273,0.53622,-0.0569155,0.267503,0.72248,-0.2331635,-0.2861869999999999,0.97652,-0.3509035,0.299693,0.93843,-0.3590435,-0.093667,-0.0003399999999999,0.0065875,0.093667,0.00034,-0.0065874999999999,-0.164517,-0.4157299999999999,-0.1664235,0.143643,-0.4141899999999999,-0.1908635,-0.158717,-0.70246,-0.0060365,0.225843,-0.73524,-0.1216035,1
81,0.0013344999999999,0.733125,-0.0539394999999999,-0.1605835,0.550725,-0.0318735,-0.2751134999999999,0.7259950000000001,-0.2108895,0.1556664999999999,0.535105,-0.0628725,0.2661465,0.7220150000000001,-0.2420595,-0.2863135,0.975245,-0.3583995,0.2969265,0.939775,-0.3690394999999999,-0.0941035,-0.0003349999999999,0.0067504999999999,0.0941035,0.000335,-0.0067504999999999,-0.1650735,-0.414145,-0.1703795,0.1424765,-0.4131049999999999,-0.1946695,-0.1581535,-0.6935749999999999,-0.0065725,0.2253065,-0.7254149999999999,-0.1228095,1
82,0.0005715,0.732135,-0.0602274999999999,-0.1606655,0.5482549999999999,-0.0381754999999999,-0.2757555,0.725285,-0.2187945,0.1541745,0.532815,-0.0695145,0.2647545,0.721135,-0.2515245,-0.2860255,0.973745,-0.3671945,0.2936345,0.937285,-0.3796644999999999,-0.0945555,-0.000265,0.0070185,0.0945555,0.000265,-0.0070184999999999,-0.1654555,-0.412495,-0.1742945,0.1414845,-0.411945,-0.1984445,-0.1575455,-0.6847350000000001,-0.0069214999999999,0.2247745,-0.715765,-0.1243745,1
83,-0.0004235,0.730575,-0.0670945,-0.1609665,0.5448850000000001,-0.0448864999999999,-0.2767665,0.723805,-0.2273894999999999,0.1523935,0.530465,-0.0760395,0.2631735,0.719895,-0.2610095,-0.2857465,0.968215,-0.3761494999999999,0.2906235,0.935865,-0.3891695,-0.0950265,-0.0001549999999999,0.0073795,0.0950265,0.000155,-0.0073795,-0.1660665,-0.410635,-0.1785495,0.1403835,-0.4106649999999999,-0.2027395,-0.1571865,-0.675505,-0.0078184999999999,0.2239635,-0.7058149999999999,-0.1261094999999999,1
84,-0.0011119999999999,0.728485,-0.0741435,-0.160927,0.542085,-0.0512734999999999,-0.277667,0.721095,-0.2354735,0.150853,0.528235,-0.0826135,0.261903,0.7175549999999999,-0.2693735,-0.285177,0.963055,-0.3850035,0.287503,0.932345,-0.3995235,-0.095237,4.500000000001725e-05,0.0077795,0.095237,-4.500000000001725e-05,-0.0077795,-0.166577,-0.408435,-0.1831934999999999,0.139323,-0.409305,-0.2072834999999999,-0.156727,-0.665695,-0.0087905,0.223633,-0.6954250000000001,-0.1281334999999999,1
85,-0.0019664999999999,0.72706,-0.080866,-0.1610965,0.5386,-0.0578099999999999,-0.2788565,0.71634,-0.243266,0.1500035,0.5255,-0.089286,0.2605135,0.71435,-0.277746,-0.2847965,0.95527,-0.393736,0.2843835,0.92875,-0.409576,-0.0957065,0.0002199999999999,0.008166,0.0957065,-0.0002199999999999,-0.008166,-0.1673665,-0.39843,-0.188106,0.1379835,-0.4007799999999999,-0.211776,-0.1572665,-0.65614,-0.0099719999999999,0.2233735,-0.6855,-0.1298959999999999,1
86,-0.002866,0.724245,-0.087482,-0.161239,0.536005,-0.063725,-0.279909,0.710485,-0.250822,0.149231,0.5235650000000001,-0.095162,0.259131,0.7100150000000001,-0.285922,-0.284419,0.947175,-0.402092,0.281321,0.924095,-0.419362,-0.096139,0.0004149999999999,0.0085489999999999,0.096139,-0.0004149999999999,-0.008549,-0.1681689999999999,-0.388735,-0.1928419999999999,0.136561,-0.3910849999999999,-0.215942,-0.157819,-0.6464449999999999,-0.011372,0.223111,-0.676105,-0.131592,1
87,-0.004233,0.7243550000000001,-0.0995745,-0.162036,0.534605,-0.0758165,-0.281126,0.708165,-0.2642945,0.147894,0.522705,-0.1071045,0.256884,0.7085250000000001,-0.2999245,-0.2842059999999999,0.942925,-0.4169345,0.277504,0.922155,-0.4350645,-0.096236,0.0006849999999999,0.0090225,0.096236,-0.0006849999999999,-0.0090225,-0.169636,-0.3757749999999999,-0.2049345,0.134354,-0.3781249999999999,-0.2274745,-0.158906,-0.633485,-0.0184755,0.222594,-0.663445,-0.1394945,1
88,-0.005941,0.724355,-0.1121564999999999,-0.162874,0.532225,-0.0883565,-0.282644,0.706245,-0.2794264999999999,0.146036,0.521355,-0.1192964999999999,0.254106,0.7057450000000001,-0.3136265,-0.284084,0.939485,-0.4324665,0.273696,0.919955,-0.4512565,-0.095974,0.000805,0.0093734999999999,0.095974,-0.000805,-0.0093735,-0.172044,-0.362475,-0.2261865,0.131226,-0.3648249999999999,-0.2487265,-0.160664,-0.619715,-0.0266295,0.221466,-0.657845,-0.1579165,1
89,-0.007582,0.7247950000000001,-0.1256695,-0.163749,0.531155,-0.1009095,-0.284109,0.705665,-0.2951594999999999,0.1445509999999999,0.521045,-0.1313595,0.251751,0.705045,-0.3283695,-0.283839,0.935165,-0.4495995,0.269801,0.917915,-0.4676794999999999,-0.095699,0.000885,0.0096725,0.095699,-0.0008849999999999,-0.0096725,-0.174389,-0.347035,-0.2481295,0.128271,-0.3508749999999999,-0.2706095,-0.162669,-0.6049749999999999,-0.0356525,0.220221,-0.644705,-0.1657195,1
90,-0.0091555,0.72316,-0.1393839999999999,-0.1646035,0.53005,-0.112854,-0.2856435,0.70354,-0.310724,0.1430465,0.52042,-0.143234,0.2493765,0.70331,-0.343474,-0.2837035,0.92985,-0.466504,0.2657365,0.91471,-0.483514,-0.0954035,0.00095,0.009783,0.0954035,-0.00095,-0.009783,-0.1768435,-0.3318099999999999,-0.270164,0.1253165,-0.3370299999999999,-0.292624,-0.1643835,-0.5914699999999999,-0.045026,0.2195264999999999,-0.6400800000000001,-0.1859539999999999,1
91,-0.0108969999999999,0.722545,-0.1527365,-0.165555,0.528105,-0.1254165,-0.287325,0.702145,-0.3262965,0.141465,0.5182249999999999,-0.1557065,0.246965,0.7027950000000001,-0.3590265,-0.2837449999999999,0.925515,-0.4828565,0.262205,0.915025,-0.4989565,-0.095055,0.0011249999999999,0.0100235,0.095055,-0.0011249999999999,-0.0100235,-0.1795749999999999,-0.3145349999999999,-0.2926765,0.122375,-0.321155,-0.3154365,-0.165875,-0.5771250000000001,-0.0546225,0.218725,-0.6347849999999999,-0.2069365,1
92,-0.012546,0.7222999999999999,-0.165799,-0.166653,0.52733,-0.137729,-0.2889529999999999,0.70032,-0.3411889999999999,0.140147,0.51793,-0.1677489999999999,0.244637,0.70181,-0.374599,-0.2838529999999999,0.92342,-0.499699,0.258347,0.91253,-0.516069,-0.094713,0.00114,0.0101839999999999,0.094713,-0.0011399999999999,-0.010184,-0.182333,-0.29599,-0.315639,0.119577,-0.30405,-0.3386889999999999,-0.167543,-0.56262,-0.064582,0.2173069999999999,-0.62232,-0.2153689999999999,1
93,-0.0141144999999999,0.7227600000000001,-0.1782075,-0.1677135,0.52643,-0.1498575,-0.2904835,0.69989,-0.3555975,0.1389965,0.51746,-0.1794075,0.2422665,0.7008000000000001,-0.3894074999999999,-0.2837935,0.92131,-0.5160575000000001,0.2549865,0.91223,-0.5316075,-0.0942635,0.00113,0.0103305,0.0942635,-0.00113,-0.0103305,-0.1849235,-0.27623,-0.3383575,0.1169865,-0.2858499999999999,-0.3619275,-0.1689034999999999,-0.54776,-0.0745025,0.2159365,-0.61005,-0.2237275,1
94,-0.015567,0.72342,-0.190551,-0.168564,0.5262020000000001,-0.1616409999999999,-0.291934,0.7007,-0.370371,0.138086,0.5166310000000001,-0.1909409999999999,0.2399659999999999,0.7004,-0.403811,-0.283594,0.92172,-0.5322209999999999,0.251736,0.91154,-0.5472509999999999,-0.093734,0.0011999999999999,0.010449,0.093734,-0.0011999999999999,-0.010449,-0.187634,-0.2552399999999999,-0.360901,0.114356,-0.26674,-0.385461,-0.170264,-0.5325,-0.0841399999999999,0.214696,-0.59629,-0.2318509999999999,1
95,-0.0169644999999999,0.7247399999999999,-0.2026985,-0.1696745,0.5257620000000001,-0.1739185,-0.2934545,0.70289,-0.3853585,0.1370055,0.515759,-0.2027285,0.2376555,0.7013,-0.4181185,-0.2831445,0.92363,-0.5479985,0.2484955,0.91219,-0.5625885,-0.0932355,0.00134,0.0104714999999999,0.0932355,-0.00134,-0.0104715,-0.1903345,-0.2319499999999999,-0.3838785,0.1117555,-0.2453,-0.4093085,-0.1710945,-0.51665,-0.0939425,0.2132655,-0.58162,-0.2397885,1
96,-0.0174254999999999,0.7213700000000001,-0.2086985,-0.1698484999999999,0.525032,-0.1793685,-0.2940385,0.70145,-0.3946185,0.1369415,0.513995,-0.2078684999999999,0.2363915,0.6986,-0.4266685,-0.2819385,0.92047,-0.5573685,0.2462915,0.90757,-0.5725285,-0.0930465,0.00129,0.0102925,0.0930465,-0.0012899999999999,-0.0102924999999999,-0.1919685,-0.21197,-0.3991685,0.1099515,-0.22687,-0.4256685,-0.1719085,-0.50449,-0.0980375,0.2129815,-0.57074,-0.2419885,1
97,-0.017815,0.71843,-0.213484,-0.169821,0.526615,-0.183934,-0.294501,0.70014,-0.402574,0.136819,0.514301,-0.211984,0.235539,0.6979299999999999,-0.435344,-0.280831,0.91621,-0.565974,0.243939,0.90521,-0.580084,-0.092802,0.00118,0.0100979999999999,0.092802,-0.00118,-0.010098,-0.1928909999999999,-0.19798,-0.406194,0.108799,-0.2143699999999999,-0.432294,-0.171991,-0.4920099999999999,-0.101084,0.212749,-0.55969,-0.243254,1
98,-0.0181334999999999,0.716695,-0.217011,-0.1697185,0.525586,-0.188961,-0.2948685,0.697535,-0.409371,0.1365915,0.513467,-0.216311,0.2345215,0.6966749999999999,-0.4427609999999999,-0.2797385,0.912645,-0.572771,0.2415415,0.902605,-0.586821,-0.0924545,0.0011749999999999,0.0098649999999999,0.0924545,-0.0011749999999999,-0.0098649999999999,-0.1937785,-0.1840049999999999,-0.412971,0.1074315,-0.201925,-0.438751,-0.1718585,-0.479995,-0.103238,0.2127115,-0.547485,-0.244221,1
99,-0.0188349999999999,0.716815,-0.219883,-0.170068,0.525682,-0.193883,-0.2952479999999999,0.696475,-0.415413,0.136192,0.513299,-0.220613,0.2328019999999999,0.695175,-0.449063,-0.278838,0.909885,-0.5793729999999999,0.238922,0.900135,-0.593693,-0.0922669999999999,0.001105,0.009663,0.0922669999999999,-0.001105,-0.0096629999999999,-0.194998,-0.168775,-0.419823,0.1057599999999999,-0.188065,-0.445413,-0.171908,-0.4666749999999999,-0.105473,0.211812,-0.533855,-0.244153,1
100,-0.019231,0.71497,-0.2227035,-0.170106,0.526465,-0.1975835,-0.295026,0.69336,-0.4206335,0.135664,0.515182,-0.2236635,0.231114,0.69177,-0.4540735,-0.277296,0.90587,-0.5853134999999999,0.236224,0.89365,-0.6007235,-0.091968,0.0007699999999999,0.0095094999999999,0.091968,-0.0007699999999999,-0.0095094999999999,-0.195516,-0.1551799999999999,-0.4259235,0.1047839999999999,-0.1758,-0.4508435,-0.170796,-0.45487,-0.1063824999999999,0.211824,-0.5141500000000001,-0.2342935,1
101,-0.0197105,0.71343,-0.2248005,-0.1704335,0.5262119999999999,-0.2009305,-0.2948335,0.69109,-0.4257005,0.1346164999999999,0.51586,-0.2265005,0.2291965,0.68913,-0.4583405,-0.2756235,0.90267,-0.5910805,0.2338164999999999,0.8895799999999999,-0.6061605,-0.0916595,0.0006399999999999,0.0093965,0.0916595,-0.00064,-0.0093965,-0.1962034999999999,-0.1415200000000001,-0.4312505,0.1035335,-0.16341,-0.4556605,-0.1700335,-0.44433,-0.1077865,0.2113864999999999,-0.4948300000000001,-0.2231005,1
102,-0.0203049999999999,0.71152,-0.2268119999999999,-0.1706849999999999,0.526829,-0.204002,-0.2951249999999999,0.68757,-0.430652,0.133635,0.5176040000000001,-0.229082,0.227175,0.6874,-0.462582,-0.274275,0.8992500000000001,-0.597002,0.2313049999999999,0.8858900000000001,-0.611542,-0.091291,0.0002499999999999,0.0092399999999999,0.091291,-0.0002499999999999,-0.0092399999999999,-0.196925,-0.1276199999999999,-0.436032,0.102068,-0.1507399999999999,-0.460172,-0.169235,-0.4350199999999999,-0.109631,0.2112049999999999,-0.47751,-0.2121019999999999,1
103,-0.020954,0.7090700000000001,-0.2286699999999999,-0.17141,0.52507,-0.2069,-0.2950899999999999,0.68422,-0.43443,0.1321999999999999,0.51608,-0.2312,0.22507,0.68508,-0.46642,-0.27319,0.89604,-0.6027899999999999,0.22841,0.8824700000000001,-0.61666,-0.091,1.0000000000065512e-05,0.009092,0.091,-9.99999999995449e-06,-0.009092,-0.19733,-0.1137699999999999,-0.44053,0.101233,-0.13761,-0.46434,-0.16817,-0.42469,-0.111499,0.21205,-0.46694,-0.21259,1
104,-0.0217619999999999,0.7071000000000001,-0.230313,-0.172085,0.523714,-0.209443,-0.294965,0.6805,-0.437583,0.130815,0.514868,-0.233293,0.222265,0.6800900000000001,-0.469703,-0.272235,0.89239,-0.6088629999999999,0.2247549999999999,0.8767100000000001,-0.6214630000000001,-0.090715,-0.00019,0.0091139999999999,0.090715,0.00019,-0.0091139999999999,-0.197565,-0.1005599999999999,-0.444433,0.100532,-0.12446,-0.468233,-0.167005,-0.41459,-0.113299,0.213195,-0.4586099999999999,-0.214303,1
105,-0.022736,0.7063050000000001,-0.2320795,-0.1727169999999999,0.523062,-0.2119895,-0.294817,0.676645,-0.4404495,0.129333,0.513661,-0.2354595,0.219343,0.675965,-0.4721795,-0.271237,0.8876350000000001,-0.6148695,0.220503,0.8720450000000001,-0.6251895000000001,-0.090397,-8.500000000000174e-05,0.0092045,0.090397,8.500000000000174e-05,-0.0092044999999999,-0.1978069999999999,-0.0853449999999999,-0.4480995,0.100219,-0.1094949999999999,-0.4725995,-0.166047,-0.4033449999999999,-0.1151005,0.214253,-0.446665,-0.2148295,1
106,-0.024085,0.7053699999999999,-0.2337054999999999,-0.173903,0.52011,-0.2145655,-0.295313,0.66763,-0.4424555,0.1273169999999999,0.5111559999999999,-0.2376355,0.215887,0.6710699999999999,-0.4739255,-0.270373,0.8823399999999999,-0.6201455,0.216197,0.86697,-0.6290155000000001,-0.090313,-4.999999999999449e-05,0.0092604999999999,0.090313,4.999999999999449e-05,-0.0092604999999999,-0.198013,-0.07179,-0.4504255,0.099725,-0.09513,-0.4764655,-0.165483,-0.3938,-0.1167165,0.215007,-0.43523,-0.2148955,1
107,-0.0255985,0.7023950000000001,-0.2350295,-0.1750025,0.5188680000000001,-0.2161295,-0.2957625,0.659205,-0.4447295,0.1258375,0.5092900000000001,-0.2389295,0.2124174999999999,0.6655550000000001,-0.4760095,-0.2696524999999999,0.8760350000000001,-0.6253194999999999,0.2107075,0.8611950000000002,-0.6327895,-0.0902425,-7.499999999993623e-05,0.0092165,0.0902425,7.500000000004725e-05,-0.0092164999999999,-0.1981525,-0.0603149999999998,-0.4520695,0.0995955,-0.0827149999999998,-0.4795294999999999,-0.1649324999999999,-0.3838649999999999,-0.1181875,0.2157775,-0.4267749999999999,-0.2153894999999999,1
108,-0.027577,0.699475,-0.2364165,-0.176429,0.5167879999999999,-0.2176265,-0.296709,0.650874,-0.4476265,0.123851,0.506432,-0.2402165,0.2085209999999999,0.660832,-0.4790965,-0.269839,0.8682049999999999,-0.6306164999999999,0.204821,0.856355,-0.6362165,-0.090449,-7.500000000004725e-05,0.0092935,0.090449,7.499999999993623e-05,-0.0092935,-0.198649,-0.0498250000000001,-0.4527665,0.0991679999999999,-0.071545,-0.4815065,-0.164859,-0.376315,-0.1197375,0.216141,-0.4191450000000001,-0.2158065,1
109,-0.029745,0.69726,-0.237811,-0.178147,0.5146390000000001,-0.219201,-0.298137,0.644155,-0.4500409999999999,0.121593,0.503533,-0.2416309999999999,0.204563,0.657018,-0.482701,-0.270437,0.86085,-0.636001,0.198593,0.8540300000000001,-0.639551,-0.090547,9.00000000000345e-05,0.00952,0.090547,-9.00000000000345e-05,-0.0095199999999999,-0.1997769999999999,-0.0396499999999999,-0.453391,0.098532,-0.0607699999999999,-0.483281,-0.165207,-0.3692799999999999,-0.12108,0.2158729999999999,-0.4119699999999999,-0.216581,1
110,-0.032041,0.694595,-0.2392719999999999,-0.179735,0.5132999999999999,-0.220412,-0.299845,0.637354,-0.451982,0.119785,0.5012699999999999,-0.242652,0.200755,0.6517899999999999,-0.4860219999999999,-0.271445,0.8533549999999999,-0.640822,0.192045,0.8506349999999999,-0.642452,-0.090665,-2.500000000005276e-05,0.009663,0.090665,2.4999999999941732e-05,-0.0096629999999999,-0.201105,-0.030955,-0.453812,0.096578,-0.050935,-0.484402,-0.166015,-0.364295,-0.121592,0.216005,-0.4062850000000001,-0.218092,1
111,-0.034198,0.692411,-0.241202,-0.181353,0.5110239999999999,-0.222022,-0.301243,0.631362,-0.454102,0.118007,0.4981069999999999,-0.244102,0.197027,0.646497,-0.489712,-0.272643,0.845625,-0.645822,0.185537,0.846665,-0.645562,-0.090723,7.499999999993623e-05,0.0098719999999999,0.090723,-7.500000000004725e-05,-0.0098719999999999,-0.202733,-0.023605,-0.4546219999999999,0.094953,-0.042235,-0.485652,-0.166603,-0.359365,-0.122976,0.215827,-0.4005850000000001,-0.218972,1
112,-0.0362545,0.690806,-0.243077,-0.1824225,0.511018,-0.223347,-0.3026525,0.6252380000000001,-0.455837,0.1167874999999999,0.49924,-0.245467,0.1935075,0.643038,-0.493297,-0.2740825,0.83791,-0.650357,0.1794675,0.84266,-0.648327,-0.0906925,-9.9999999999989e-05,0.009978,0.0906925,9.9999999999989e-05,-0.009978,-0.2047425,-0.0175299999999999,-0.454787,0.0931944999999999,-0.03515,-0.486757,-0.1673725,-0.35582,-0.123878,0.2153475,-0.39583,-0.2197569999999999,1
113,-0.0385125,0.6896260000000001,-0.2448885,-0.1836855,0.5107710000000001,-0.2245085,-0.3042355,0.6198150000000001,-0.4569585,0.1152844999999999,0.4999450000000001,-0.2464785,0.1904745,0.6424120000000001,-0.4966285,-0.2759155,0.8311650000000002,-0.6537185,0.1739945,0.8411050000000001,-0.6507885,-0.0907055,-0.0003649999999999,0.0101144999999999,0.0907055,0.000365,-0.0101145,-0.2073955,-0.0124349999999998,-0.4542684999999999,0.0911124999999999,-0.0295149999999999,-0.4876385,-0.1687155,-0.3525449999999999,-0.1248895,0.2147845,-0.3922549999999999,-0.2202285,1
114,-0.040152,0.690133,-0.2465715,-0.184553,0.5097119999999999,-0.2255215,-0.305323,0.615592,-0.4574915,0.114293,0.500315,-0.2474915,0.188017,0.642065,-0.5004215,-0.276433,0.828095,-0.6557615,0.170007,0.841215,-0.6530715,-0.090703,-0.0008249999999999,0.0102054999999999,0.090703,0.0008249999999999,-0.0102055,-0.209593,-0.010105,-0.4536314999999999,0.089513,-0.026715,-0.4883315,-0.169303,-0.3509949999999999,-0.1255335,0.214487,-0.390605,-0.2207215,1
115,-0.041405,0.690193,-0.248261,-0.184844,0.5097719999999999,-0.226301,-0.305944,0.615652,-0.459241,0.113766,0.5002249999999999,-0.248411,0.1864559999999999,0.642125,-0.503981,-0.276444,0.8271249999999999,-0.658321,0.1667259999999999,0.841275,-0.654921,-0.0906339999999999,-0.000765,0.010437,0.0906339999999999,0.0007649999999999,-0.0104369999999999,-0.211364,-0.0104550000000001,-0.452971,0.0885209999999999,-0.026455,-0.4889909999999999,-0.169754,-0.351165,-0.126113,0.214836,-0.391475,-0.221901,1
116,-0.0425025,0.690193,-0.2502385,-0.1849735,0.5097719999999999,-0.2270085,-0.3066535,0.615652,-0.4582885,0.1132395,0.5002249999999999,-0.2492685,0.1855565,0.642125,-0.5072885,-0.2766335,0.8271249999999999,-0.6600885,0.1654765,0.841275,-0.6567985000000001,-0.0905635,-0.000765,0.0105325,0.0905635,0.0007649999999999,-0.0105325,-0.2129235,-0.0110650000000001,-0.4524285,0.0875655,-0.026805,-0.4894985,-0.1703235,-0.352115,-0.1266485,0.2149065,-0.392275,-0.2232585,1
117,-0.043359,0.690193,-0.251992,-0.185377,0.5097719999999999,-0.227362,-0.307557,0.615652,-0.456682,0.112688,0.5002249999999999,-0.249792,0.185073,0.642125,-0.5093219999999999,-0.277037,0.8271249999999999,-0.660492,0.164833,0.8426549999999999,-0.658332,-0.090517,-0.000765,0.010718,0.090517,0.0007649999999999,-0.0107179999999999,-0.214337,-0.0110650000000001,-0.451582,0.0862759999999999,-0.026805,-0.489252,-0.170987,-0.352545,-0.126587,0.214663,-0.392245,-0.223712,1
118,-0.043843,0.6911980000000001,-0.2536815,-0.185825,0.5110000000000001,-0.2282715,-0.308065,0.6169950000000001,-0.4588514999999999,0.1121,0.500175,-0.2510814999999999,0.184635,0.6423080000000001,-0.5099615,-0.277445,0.827075,-0.6608514999999999,0.1643649999999999,0.844395,-0.6597415,-0.090515,-0.0007149999999999,0.0108035,0.090515,0.000715,-0.0108034999999999,-0.214855,-0.0119749999999999,-0.4510115,0.085127,-0.0268549999999999,-0.4891115,-0.171385,-0.3528249999999999,-0.1265605,0.2141249999999999,-0.3920949999999999,-0.2234914999999999,1
119,-0.0444155,0.6922159999999999,-0.255302,-0.1863405,0.511909,-0.229332,-0.3096104999999999,0.617686,-0.459262,0.1115095,0.50039,-0.252822,0.1841195,0.642987,-0.510482,-0.2778104999999999,0.82616,-0.661332,0.1637995,0.8451,-0.661192,-0.0904105,-0.0007099999999999,0.0107669999999999,0.0904105,0.0007099999999999,-0.010767,-0.2153105,-0.01527,-0.450272,0.0846484999999999,-0.0292499999999999,-0.488702,-0.1717605,-0.35467,-0.126704,0.2136694999999999,-0.3934499999999999,-0.223132,1
120,-0.045156,0.6919810000000001,-0.2563665,-0.186298,0.513568,-0.2298565,-0.312518,0.6175080000000001,-0.4589665,0.110736,0.502028,-0.2545565,0.183522,0.6429640000000001,-0.5122265,-0.277738,0.825875,-0.6617765,0.1630319999999999,0.8452550000000001,-0.6627265,-0.0901879999999999,-0.0007149999999999,0.0107664999999999,0.0901879999999999,0.000715,-0.0107664999999999,-0.215938,-0.0233349999999999,-0.4491165,0.083988,-0.0365749999999999,-0.4881764999999999,-0.172448,-0.3597849999999999,-0.1267754999999999,0.2130419999999999,-0.3978049999999999,-0.2226765,1
121,-0.0458485,0.69385,-0.2569715,-0.1864735,0.514232,-0.2302515,-0.3154035,0.619659,-0.4578015,0.1097595,0.502726,-0.2561315,0.1836665,0.6424989999999999,-0.5126315,-0.2773735,0.82788,-0.6619015,0.1631065,0.84478,-0.6643815000000001,-0.0901635,-0.0008299999999999,0.0107314999999999,0.0901635,0.0008299999999999,-0.0107315,-0.2167635,-0.03375,-0.4476715,0.0831685,-0.04704,-0.4865914999999999,-0.1733434999999999,-0.36738,-0.1267535,0.2126065,-0.40471,-0.2226515,1
122,-0.0464799999999999,0.695385,-0.25733,-0.186825,0.514151,-0.23063,-0.3181449999999999,0.621585,-0.4556,0.108567,0.502273,-0.25748,0.184545,0.6447160000000001,-0.5130699999999999,-0.2768049999999999,0.830835,-0.661,0.164895,0.8465050000000001,-0.66516,-0.090255,-0.0007249999999999,0.010802,0.090255,0.0007249999999999,-0.0108019999999999,-0.217165,-0.0469549999999999,-0.4453499999999999,0.08284,-0.060975,-0.48405,-0.173725,-0.377015,-0.126537,0.212085,-0.414805,-0.22458,1
123,-0.0465145,0.6978449999999999,-0.2573795,-0.1871175,0.5159079999999999,-0.2306595,-0.3206974999999999,0.622343,-0.4535495,0.1074605,0.501687,-0.2586495,0.1866225,0.646404,-0.5132295,-0.2763175,0.833515,-0.6592795,0.1678425,0.849505,-0.6653595,-0.0903875,-0.000365,0.0107535,0.0903875,0.0003649999999999,-0.0107535,-0.2167075,-0.063745,-0.4413694999999999,0.0824884999999999,-0.078085,-0.4798894999999999,-0.1744375,-0.389355,-0.1259965,0.2113425,-0.4278649999999999,-0.2261594999999999,1
124,-0.0464165,0.699995,-0.257181,-0.1872455,0.516903,-0.230281,-0.3225755,0.622832,-0.450391,0.1064885,0.50113,-0.259411,0.1887645,0.647917,-0.512971,-0.2758755,0.8360449999999999,-0.657041,0.1715345,0.8508450000000001,-0.665341,-0.0906715,-2.4999999999941732e-05,0.010872,0.0906715,2.500000000005276e-05,-0.010872,-0.2155955,-0.083515,-0.436521,0.0820205,-0.0977749999999999,-0.474531,-0.1752855,-0.403765,-0.125108,0.2104545,-0.443365,-0.227451,1
125,-0.045932,0.702535,-0.2567595,-0.187361,0.516475,-0.2298795,-0.324181,0.623811,-0.4473094999999999,0.105677,0.499847,-0.2599095,0.190689,0.649005,-0.5112795,-0.275321,0.840515,-0.6535695,0.176309,0.852995,-0.6653895000000001,-0.090916,6.499999999998174e-05,0.0110225,0.090916,-6.499999999998174e-05,-0.0110224999999999,-0.213931,-0.1039949999999999,-0.4311995,0.081851,-0.118325,-0.4682195,-0.175781,-0.418285,-0.1248695,0.208459,-0.466705,-0.2362995,1
126,-0.0450695,0.701965,-0.255834,-0.1873035,0.517406,-0.228894,-0.3255635,0.622885,-0.444264,0.1050395,0.50043,-0.259714,0.1929965,0.6462950000000001,-0.509514,-0.2755734999999999,0.841065,-0.650164,0.1815864999999999,0.8504149999999999,-0.664834,-0.0912825,0.0001849999999999,0.011173,0.0912825,-0.0001849999999999,-0.0111729999999999,-0.2117935,-0.128665,-0.4233139999999999,0.0818084999999999,-0.142835,-0.4590639999999999,-0.1763035,-0.437445,-0.1240459999999999,0.2067264999999999,-0.493745,-0.238754,1
127,-0.044227,0.7020500000000001,-0.2541935,-0.1873,0.517295,-0.2278135,-0.32715,0.6222300000000001,-0.4408635,0.10432,0.500473,-0.2594035,0.19635,0.64141,-0.5058735000000001,-0.27607,0.84243,-0.6457235,0.18713,0.8470599999999999,-0.6633235,-0.09165,0.0003199999999999,0.0111614999999999,0.09165,-0.0003199999999999,-0.0111615,-0.20956,-0.1526699999999999,-0.4146235,0.081739,-0.16717,-0.4491835,-0.1767599999999999,-0.4571699999999999,-0.1228965,0.20477,-0.52099,-0.2412235,1
128,-0.0428875,0.70332,-0.2522095,-0.1870705,0.518425,-0.2264095,-0.3282805,0.62323,-0.4370895,0.1040695,0.499438,-0.2589595,0.2000995,0.63663,-0.5011795,-0.2767305,0.8458,-0.6413395,0.1933395,0.84224,-0.6603895,-0.0920825,0.00057,0.0111735,0.0920825,-0.00057,-0.0111735,-0.2070305,-0.17634,-0.4047195,0.0821085,-0.19116,-0.4382895,-0.1768704999999999,-0.4788099999999999,-0.1215985,0.2035295,-0.5504,-0.2490295,1
129,-0.041504,0.70694,-0.2494704999999999,-0.186907,0.518807,-0.2243505,-0.329287,0.62495,-0.4329605,0.1044229999999999,0.498513,-0.2583705,0.203753,0.63827,-0.4976605,-0.2775269999999999,0.85006,-0.6357904999999999,0.199703,0.84503,-0.6565705,-0.092277,0.0005999999999999,0.0113634999999999,0.092277,-0.0005999999999999,-0.0113635,-0.204537,-0.19803,-0.3940205,0.0829119999999999,-0.2128,-0.4261105,-0.176737,-0.50024,-0.1201525,0.202073,-0.57784,-0.2536605,1
130,-0.039913,0.70913,-0.2462665,-0.186218,0.5190710000000001,-0.2216665,-0.328828,0.62649,-0.4285365,0.105552,0.499267,-0.2569964999999999,0.207462,0.6419900000000001,-0.4931965,-0.278138,0.8550800000000001,-0.6298465,0.206202,0.8488100000000001,-0.6520665,-0.092401,0.00063,0.0113415,0.092401,-0.0006299999999999,-0.0113414999999999,-0.202088,-0.21872,-0.3835065,0.0844729999999999,-0.2334899999999999,-0.4140665,-0.177608,-0.5219199999999999,-0.1193585,0.200702,-0.60273,-0.2543565,1
131,-0.037922,0.71204,-0.2416734999999999,-0.184833,0.5244300000000001,-0.2176335,-0.326333,0.6287200000000001,-0.4236135,0.107277,0.5004810000000001,-0.2540635,0.211167,0.6473500000000001,-0.4869934999999999,-0.278533,0.8607400000000001,-0.6230735000000001,0.2123769999999999,0.85148,-0.6454835,-0.092542,0.00101,0.0114065,0.092542,-0.0010099999999999,-0.0114065,-0.199403,-0.23997,-0.3712934999999999,0.086774,-0.2547399999999999,-0.4010034999999999,-0.178263,-0.5436,-0.1176945,0.199257,-0.62788,-0.2557735,1
132,-0.0362925,0.7155750000000001,-0.2360445,-0.1834455,0.526285,-0.2136845,-0.3235154999999999,0.632665,-0.4180545,0.1097144999999999,0.5056750000000001,-0.2507245,0.2144645,0.655645,-0.4799845,-0.2787254999999999,0.8674350000000001,-0.6156345,0.2185745,0.8562050000000001,-0.6388445,-0.0925685,0.000775,0.0111585,0.0925685,-0.0007749999999999,-0.0111585,-0.1969455,-0.260795,-0.3591045,0.0895064999999999,-0.274775,-0.3880345,-0.1787355,-0.564425,-0.1158454999999999,0.1983845,-0.652605,-0.2573345,1
133,-0.034689,0.71947,-0.229927,-0.182205,0.5294000000000001,-0.209077,-0.322125,0.64361,-0.412797,0.1119749999999999,0.51003,-0.246837,0.217725,0.66164,-0.472277,-0.279375,0.87732,-0.606917,0.224405,0.86436,-0.629747,-0.092593,0.00074,0.010786,0.092593,-0.0007399999999999,-0.0107859999999999,-0.194695,-0.2796799999999999,-0.346357,0.092558,-0.29235,-0.375087,-0.179595,-0.58909,-0.117355,0.1977449999999999,-0.67432,-0.256717,1
134,-0.0332935,0.723605,-0.223186,-0.1809925,0.534405,-0.2035259999999999,-0.3186325,0.653405,-0.406676,0.1142275,0.515575,-0.241946,0.2209175,0.669355,-0.463866,-0.2806125,0.8844650000000001,-0.5980260000000001,0.2291075,0.869685,-0.619596,-0.0923945,0.000755,0.010536,0.0923945,-0.0007549999999999,-0.010536,-0.1928625,-0.2979149999999999,-0.333106,0.0953575,-0.3089349999999999,-0.361666,-0.1807825,-0.614395,-0.118028,0.1970174999999999,-0.694825,-0.257146,1
135,-0.0320975,0.7300249999999999,-0.2161475,-0.1799715,0.538125,-0.1984075,-0.3149315,0.665005,-0.4005275,0.1165185,0.5193949999999999,-0.2368675,0.2239785,0.679295,-0.4554175,-0.2819515,0.896555,-0.5878875,0.2332185,0.878985,-0.6082075,-0.0921165,0.0008349999999999,0.0104464999999999,0.0921165,-0.000835,-0.0104465,-0.1916514999999999,-0.3104950000000001,-0.3220375,0.0982585,-0.321295,-0.3499575,-0.1819615,-0.6354650000000001,-0.1182425,0.1961685,-0.7121550000000001,-0.2566375,1
136,-0.0309295,0.73305,-0.2073809999999999,-0.1788944999999999,0.54199,-0.192541,-0.3143444999999999,0.6777,-0.393591,0.1189155,0.52452,-0.230981,0.2254555,0.6933400000000001,-0.445241,-0.2839145,0.91006,-0.577101,0.2370255,0.89564,-0.594071,-0.0916365,0.00056,0.010458,0.0916365,-0.00056,-0.010458,-0.1909245,-0.32379,-0.308471,0.1013355,-0.33333,-0.337731,-0.1838145,-0.65841,-0.118086,0.1954255,-0.73179,-0.256331,1
137,-0.029791,0.735515,-0.197896,-0.177568,0.5460050000000001,-0.186216,-0.313998,0.6887650000000001,-0.3864959999999999,0.121392,0.530945,-0.224606,0.226702,0.709255,-0.4339159999999999,-0.286138,0.921985,-0.565806,0.239912,0.911565,-0.580646,-0.091159,0.0003049999999999,0.0103969999999999,0.091159,-0.0003049999999999,-0.010397,-0.190468,-0.3360649999999999,-0.2948159999999999,0.105642,-0.3427249999999999,-0.325756,-0.185948,-0.680065,-0.117533,0.195052,-0.742745,-0.247416,1
138,-0.0280739999999999,0.7393350000000001,-0.188453,-0.17615,0.550945,-0.180013,-0.31372,0.7033450000000001,-0.379543,0.1241299999999999,0.536375,-0.218493,0.22836,0.7198850000000001,-0.422503,-0.2880399999999999,0.933885,-0.554223,0.2432099999999999,0.921265,-0.566953,-0.0903539999999999,0.000345,0.010055,0.0903539999999999,-0.0003449999999999,-0.0100549999999999,-0.18967,-0.3468049999999999,-0.281323,0.10999,-0.3509749999999999,-0.315203,-0.18751,-0.699665,-0.11638,0.19525,-0.7529349999999999,-0.239973,1
139,-0.0265865,0.742245,-0.1787004999999999,-0.1749435,0.556095,-0.1739505,-0.3130135,0.7162850000000001,-0.3712904999999999,0.1264465,0.540575,-0.2124305,0.2300165,0.7319249999999999,-0.4133105,-0.2905034999999999,0.945565,-0.5417405,0.2466364999999999,0.934685,-0.5526305,-0.0895775,0.000425,0.0098125,0.0895775,-0.000425,-0.0098124999999999,-0.1888534999999999,-0.3569949999999999,-0.2676205,0.1140465,-0.3588049999999999,-0.3048305,-0.1888834999999999,-0.716615,-0.1139235,0.1942365,-0.763745,-0.2331305,1
140,-0.0251319999999999,0.74486,-0.1694975,-0.1742409999999999,0.55658,-0.1689175,-0.311731,0.7277199999999999,-0.3625675,0.128499,0.5443199999999999,-0.2072475,0.231659,0.74098,-0.4038875,-0.292701,0.95695,-0.5297975,0.249489,0.94683,-0.5383075,-0.088541,0.0001999999999999,0.0096025,0.088541,-0.0002,-0.0096025,-0.188381,-0.36541,-0.2551474999999999,0.118209,-0.36539,-0.2947675,-0.1902309999999999,-0.73285,-0.1111595,0.193559,-0.7731999999999999,-0.2270075,1
141,-0.0233104999999999,0.7464949999999999,-0.160819,-0.1737675,0.5620449999999999,-0.163009,-0.3097675,0.7374149999999999,-0.354389,0.1301824999999999,0.5491349999999999,-0.200979,0.2330324999999999,0.746875,-0.391749,-0.2949874999999999,0.967665,-0.517839,0.2526625,0.957825,-0.523499,-0.0873285,0.0004649999999999,0.0094059999999999,0.0873285,-0.000465,-0.0094059999999999,-0.1878575,-0.372865,-0.242049,0.1222225,-0.376895,-0.283819,-0.1906375,-0.7493750000000001,-0.1081449999999999,0.1943125,-0.784915,-0.224099,1
142,-0.0213639999999999,0.74397,-0.151342,-0.17328,0.56167,-0.156722,-0.30735,0.7379,-0.344542,0.13222,0.54949,-0.194102,0.2354399999999999,0.75267,-0.379722,-0.29695,0.97274,-0.505002,0.25599,0.96202,-0.509772,-0.086131,0.00075,0.009271,0.086131,-0.00075,-0.0092709999999999,-0.18689,-0.38494,-0.226422,0.12627,-0.39332,-0.2700519999999999,-0.1911999999999999,-0.76947,-0.104506,0.1953099999999999,-0.80104,-0.216962,1
143,-0.0192099999999999,0.7399249999999999,-0.136722,-0.1726249999999999,0.561045,-0.144982,-0.304015,0.7398450000000001,-0.329072,0.134465,0.549025,-0.182082,0.2378549999999999,0.7563850000000001,-0.363762,-0.298385,0.978345,-0.4868019999999999,0.260505,0.969355,-0.4894119999999999,-0.085371,0.0011449999999999,0.0089659999999999,0.085371,-0.001145,-0.008966,-0.185385,-0.397185,-0.204302,0.1305549999999999,-0.411195,-0.248652,-0.191135,-0.789325,-0.095612,0.196095,-0.8171550000000001,-0.201142,1
144,-0.0171429999999999,0.74118,-0.121159,-0.171992,0.5640799999999999,-0.132199,-0.299372,0.74485,-0.312789,0.1364479999999999,0.55156,-0.169039,0.240368,0.76021,-0.346779,-0.298972,0.98073,-0.4681789999999999,0.264888,0.97479,-0.469509,-0.084792,0.0008099999999999,0.009159,0.084792,-0.00081,-0.009159,-0.182462,-0.41195,-0.179069,0.134758,-0.43065,-0.224209,-0.190982,-0.80985,-0.084297,0.197388,-0.8342400000000001,-0.184599,1
145,-0.015157,0.7456849999999999,-0.107068,-0.171125,0.565685,-0.119418,-0.296425,0.747105,-0.296448,0.138125,0.552425,-0.156248,0.242885,0.761705,-0.329768,-0.298975,0.981625,-0.449058,0.269775,0.972365,-0.450618,-0.084522,0.0008849999999999,0.0093759999999999,0.084522,-0.0008849999999999,-0.0093759999999999,-0.179525,-0.4263950000000001,-0.1561479999999999,0.138205,-0.450505,-0.1995579999999999,-0.189125,-0.822705,-0.067246,0.198945,-0.852265,-0.170658,1
146,-0.013265,0.7509699999999999,-0.093196,-0.170329,0.56766,-0.1068959999999999,-0.293429,0.75112,-0.279506,0.139731,0.5539499999999999,-0.143706,0.245831,0.7621800000000001,-0.312806,-0.298489,0.9832,-0.4293659999999999,0.275271,0.97137,-0.431106,-0.084244,0.00091,0.0096189999999999,0.084244,-0.0009099999999999,-0.009619,-0.1765189999999999,-0.44102,-0.133596,0.140351,-0.46998,-0.1747159999999999,-0.187349,-0.83531,-0.050448,0.200591,-0.8711599999999999,-0.155256,1
147,-0.011643,0.75317,-0.079528,-0.169547,0.56914,-0.094625,-0.290487,0.75208,-0.2629149999999999,0.141143,0.55499,-0.131455,0.249583,0.76465,-0.296255,-0.297737,0.98609,-0.409055,0.2816929999999999,0.97229,-0.4123449999999999,-0.083962,0.00082,0.0097229999999999,0.083962,-0.00082,-0.0097229999999999,-0.173517,-0.45616,-0.111555,0.1426829999999999,-0.48861,-0.149355,-0.185807,-0.84789,-0.033824,0.202153,-0.8891,-0.139395,1
148,-0.0098929999999999,0.756589,-0.066016,-0.1689429999999999,0.571599,-0.082203,-0.287563,0.753199,-0.247513,0.142897,0.557239,-0.1188429999999999,0.253127,0.764359,-0.279703,-0.296953,0.986649,-0.389233,0.288177,0.970459,-0.393893,-0.083593,0.000821,0.009888,0.083593,-0.000821,-0.009888,-0.170523,-0.471691,-0.089623,0.144837,-0.507251,-0.123603,-0.184373,-0.860641,-0.017243,0.203597,-0.907541,-0.125483,1
149,-0.0079804999999999,0.7602145,-0.052244,-0.1683185,0.5735545000000001,-0.06948,-0.2835885,0.7556045,-0.2318899999999999,0.1448715,0.5602845,-0.1056299999999999,0.2570615,0.7648445,-0.2623999999999999,-0.2960185,0.9869845,-0.3678099999999999,0.2954115,0.9698945,-0.37473,-0.0832455,0.0006985,0.009989,0.0832455,-0.0006984999999999,-0.0099889999999999,-0.1670685,-0.4877555,-0.06738,0.1467615,-0.5264955,-0.0973599999999999,-0.1828985,-0.8736355,-0.000583,0.2052415,-0.9252055,-0.10829,1
150,-0.0064489999999999,0.763642,-0.0389155,-0.167928,0.572132,-0.0581885,-0.280918,0.760752,-0.2163284999999999,0.146392,0.558322,-0.0940485,0.260652,0.767042,-0.2456885,-0.294908,0.989392,-0.3465985,0.302192,0.967952,-0.3557485,-0.082997,0.000446,0.0101754999999999,0.082997,-0.000446,-0.0101755,-0.1638379999999999,-0.503738,-0.0464185,0.148422,-0.543868,-0.0727785,-0.181888,-0.885958,0.0148744999999999,0.206012,-0.940828,-0.0925485,1
151,-0.005011,0.7714690000000001,-0.0260859999999999,-0.167627,0.575849,-0.0476699999999999,-0.275717,0.7703190000000001,-0.2016099999999999,0.147663,0.561359,-0.08321,0.2630929999999999,0.770699,-0.22909,-0.293267,0.995489,-0.3262699999999999,0.309123,0.971319,-0.33667,-0.082687,3.799999999999637e-05,0.01039,0.082687,-3.800000000000331e-05,-0.0103899999999999,-0.160927,-0.514691,-0.0279409999999999,0.149803,-0.5560309999999999,-0.05079,-0.181417,-0.8963909999999999,0.02785,0.206183,-0.951711,-0.0830299999999999,1
152,-0.0037535,0.7799134999999999,-0.0180754999999999,-0.1675705,0.5796935,-0.0425514999999999,-0.2710105,0.7787935,-0.1921614999999999,0.1485695,0.5644335,-0.0777515,0.2651795,0.7745335,-0.2169515,-0.2910805,1.0029135,-0.3109015,0.3151395,0.9727235,-0.3232715,-0.0823714999999999,-0.0002985,0.0106565,0.0823714999999999,0.0002985,-0.0106565,-0.1583905,-0.5247565000000001,-0.0160454999999999,0.1507595,-0.5678165000000001,-0.0369574999999999,-0.1808805,-0.9064565,0.0343325,0.2061895,-0.9623965,-0.0794415,1
153,-0.0026064999999999,0.782838,-0.0112465,-0.1678144999999999,0.579958,-0.0385405,-0.2690944999999999,0.7851279999999999,-0.1829535,0.1501354999999999,0.566858,-0.0713735,0.2671655,0.779148,-0.2053334999999999,-0.2886745,1.011028,-0.2963835,0.3210855,0.975988,-0.3095734999999999,-0.0822305,2.2000000000001185e-05,0.0104005,0.0822305,-2.2000000000001185e-05,-0.0104005,-0.1574645,-0.533362,-0.0058635,0.1509255,-0.575922,-0.0265865,-0.1806045,-0.914562,0.0376945,0.2059955,-0.970502,-0.0770035,1
154,-0.0013915,0.784467,-0.004756,-0.1672135,0.583047,-0.034172,-0.2669534999999999,0.791777,-0.174449,0.1518265,0.569887,-0.065669,0.2693265,0.783367,-0.194579,-0.2861535,1.017987,-0.282899,0.3263165,0.979797,-0.297089,-0.0824884999999999,4.60000000000009e-05,0.010222,0.0824884999999999,-4.60000000000009e-05,-0.010222,-0.1565335,-0.540623,0.003309,0.1513265,-0.582173,-0.0173909999999999,-0.1800035,-0.921333,0.040464,0.2058664999999999,-0.976753,-0.075679,1
155,-0.000228,0.785474,0.0017735,-0.166385,0.585364,-0.0298424999999999,-0.264725,0.797514,-0.1663055,0.1531749999999999,0.571894,-0.0602854999999999,0.271025,0.787214,-0.1843155,-0.283865,1.024074,-0.2698255,0.330905,0.983654,-0.2844055,-0.082615,0.0001949999999999,0.0100375,0.082615,-0.000195,-0.0100374999999999,-0.155865,-0.548036,0.0117235,0.151275,-0.587736,-0.0094204999999999,-0.179755,-0.928716,0.0438205,0.205735,-0.982316,-0.0741755,1
156,0.0010865,0.786806,0.0086385,-0.1654324999999999,0.586976,-0.0256485,-0.2621325,0.802946,-0.1574094999999999,0.1545475,0.5738460000000001,-0.0550294999999999,0.2719175,0.788896,-0.1733894999999999,-0.2823525,1.029016,-0.2572795,0.3344875,0.985516,-0.2706095,-0.0825974999999999,0.0002669999999999,0.0101575,0.0825974999999999,-0.000267,-0.0101575,-0.1553925,-0.553954,0.0195465,0.1510775,-0.590664,-0.0018615,-0.1803525,-0.934734,0.0469375,0.2052175,-0.986254,-0.0717995,1
157,0.002664,0.7877495,0.0158825,-0.1645749999999999,0.5882595,-0.0214914999999999,-0.258905,0.8079195,-0.1477145,0.155585,0.5748695,-0.0502445,0.272965,0.7920895,-0.1617245,-0.280945,1.0343295,-0.2444945,0.338345,0.9887295,-0.2567645,-0.082581,0.0003785,0.0102495,0.082581,-0.0003784999999999,-0.0102494999999999,-0.155045,-0.5584205,0.0264145,0.1508749999999999,-0.5926604999999999,0.0046385,-0.180605,-0.9400805,0.0499645,0.2051049999999999,-0.9896505,-0.0696445,1
158,0.004215,0.7878575,0.0227589999999999,-0.162607,0.5913975,-0.015589,-0.255947,0.8123975,-0.138532,0.157933,0.5776275000000001,-0.043472,0.273873,0.7935675,-0.150552,-0.280057,1.0385975,-0.230962,0.341603,0.9904975,-0.2425419999999999,-0.082324,0.0005405,0.0105089999999999,0.082324,-0.0005404999999999,-0.010509,-0.155047,-0.5627624999999999,0.0317729999999999,0.1505729999999999,-0.5930225,0.0092999999999999,-0.180797,-0.9454825,0.052743,0.204973,-0.9931925,-0.067732,1
159,0.0058475,0.7878085,0.0299984999999999,-0.1604965,0.5948485,-0.0095815,-0.2530265,0.8159885,-0.1289895,0.1603035,0.5804585,-0.0365695,0.2752235,0.7951685000000001,-0.1394895,-0.2795465,1.0415685,-0.2174695,0.3445535,0.9926585,-0.2283495,-0.0820724999999999,0.0006825,0.0107504999999999,0.0820724999999999,-0.0006825,-0.0107505,-0.1550865,-0.5663914999999999,0.0358954999999999,0.1502534999999999,-0.5927715,0.0131974999999999,-0.1809365,-0.9503415,0.0553034999999999,0.2047835,-0.9965015,-0.0664695,1
160,0.0075105,0.7859505,0.0368575,-0.1583515,0.5979205,-0.0030694999999999,-0.2503815,0.8171404999999999,-0.1189624999999999,0.1625785,0.5823904999999999,-0.0297624999999999,0.2768585,0.7957905,-0.1287025,-0.2794115,1.0421605,-0.2040124999999999,0.3470685,0.9937905,-0.2148925,-0.0816625,0.0010035,0.0109065,0.0816625,-0.0010035,-0.0109065,-0.1551614999999999,-0.5707995,0.0390155,0.1495685,-0.5928395000000001,0.0160655,-0.1810615,-0.9557695,0.0575625,0.2044885,-1.0008595,-0.0651925,1
161,0.0090405,0.783709,0.0431219999999999,-0.1561525,0.600209,0.0026589999999999,-0.2478425,0.818429,-0.108791,0.1649275,0.584689,-0.023372,0.2787075,0.796849,-0.118951,-0.2792825,1.0414489999999998,-0.190931,0.3496775,0.995449,-0.202531,-0.0812405,0.0012599999999999,0.0110189999999999,0.0812405,-0.00126,-0.011019,-0.1552025,-0.574801,0.0414029999999999,0.1487575,-0.592891,0.018295,-0.1810225,-0.960701,0.059515,0.2042675,-1.004971,-0.064181,1
162,0.0103875,0.7813005,0.049069,-0.1539675,0.6025705,0.0089049999999999,-0.2457475,0.8185805,-0.0992089999999999,0.1665525,0.5841505,-0.0187689999999999,0.2804825,0.7979305,-0.110119,-0.2792075,1.0408505,-0.1779289999999999,0.3522325,0.9972505,-0.191109,-0.0807625,0.0015205,0.011044,0.0807625,-0.0015204999999999,-0.0110439999999999,-0.1553375,-0.5787095,0.042165,0.1478525,-0.5930795,0.019599,-0.1810875,-0.9659495,0.061235,0.2037125,-1.0088695,-0.0633489999999999,1
163,0.0115625,0.7789585,0.054951,-0.1526945,0.6030985,0.013847,-0.2439545,0.8188985000000001,-0.0895769999999999,0.1680855,0.5841185,-0.0143019999999999,0.2820654999999999,0.7989385,-0.101847,-0.2791845,1.0401385,-0.165207,0.3546255,0.9990385,-0.180237,-0.0802765,0.0017485,0.01084,0.0802765,-0.0017485,-0.01084,-0.1555544999999999,-0.5820314999999999,0.042868,0.1468755,-0.5932815,0.020604,-0.1814144999999999,-0.9706815,0.062711,0.2031155,-1.0123715,-0.062557,1
164,0.0126019999999999,0.7765315,0.060561,-0.15155,0.6037615000000001,0.018408,-0.24252,0.8194815000000001,-0.080005,0.16952,0.5843015,-0.0100289999999999,0.2838299999999999,0.7994815000000001,-0.093765,-0.27948,1.0396915,-0.152835,0.3569,1.0001915,-0.170105,-0.079817,0.0018974999999999,0.010537,0.079817,-0.0018974999999999,-0.010537,-0.15585,-0.5849884999999999,0.043363,0.14587,-0.5933885,0.021348,-0.18203,-0.9739285,0.063302,0.2024699999999999,-1.0156285,-0.061905,1
165,0.0132019999999999,0.773447,0.0661465,-0.150133,0.604447,0.0244445,-0.241633,0.8193769999999999,-0.0708655,0.171157,0.5847669999999999,-0.0045464999999999,0.285727,0.799477,-0.0859654999999999,-0.280013,1.039177,-0.1409455,0.358697,1.000777,-0.1603454999999999,-0.079317,0.002163,0.0101225,0.079317,-0.0021629999999999,-0.0101225,-0.156253,-0.5859730000000001,0.0429565,0.144737,-0.593763,0.0219425,-0.182823,-0.977543,0.0637385,0.201767,-1.019093,-0.0611354999999999,1
166,0.013595,0.7699405,0.0707455,-0.148676,0.6051905000000001,0.0304135,-0.241296,0.8195005000000001,-0.0629315,0.172814,0.5852105000000001,0.0008434999999999,0.286944,0.7979605000000001,-0.0794014999999999,-0.280536,1.0384105,-0.1301115,0.360044,0.9999105,-0.1512514999999999,-0.078817,0.0023724999999999,0.0099585,0.078817,-0.0023724999999999,-0.0099584999999999,-0.156736,-0.5876794999999999,0.0425525,0.143474,-0.5941995,0.0222435,-0.183416,-0.9816895,0.0640465,0.200984,-1.0224395,-0.0605014999999999,1
167,0.0140174999999999,0.7672725,0.075199,-0.1482825,0.6048625000000001,0.034403,-0.2408625,0.8199525000000001,-0.0554909999999999,0.1731375,0.5840525000000001,0.003864,0.2882175,0.7972525,-0.072651,-0.2809724999999999,1.0384425,-0.1213809999999999,0.3613174999999999,0.9997425,-0.143041,-0.0784975,0.0025185,0.0098349999999999,0.0784975,-0.0025185,-0.0098349999999999,-0.1571425,-0.5883674999999999,0.042082,0.1424275,-0.5946075,0.022488,-0.1842725,-0.9843575,0.064173,0.2002475,-1.0248875,-0.059891,1
168,0.0142145,0.7646925,0.0787644999999999,-0.1479285,0.6044525000000001,0.0382154999999999,-0.2405985,0.8200825,-0.0491985,0.1736515,0.5833325,0.0074434999999999,0.2890415,0.7958525,-0.0666185,-0.2814985,1.0382625,-0.1134985,0.3623315,0.9986625,-0.1355085,-0.0782124999999999,0.0026935,0.0095264999999999,0.0782124999999999,-0.0026935,-0.0095265,-0.1576084999999999,-0.5881975,0.0408554999999999,0.1413115,-0.5950075,0.0223194999999999,-0.1855284999999999,-0.9863575,0.0638444999999999,0.1991415,-1.0274375,-0.0596085,1
169,0.0143309999999999,0.763268,0.082051,-0.147614,0.604688,0.0417079999999999,-0.240204,0.820888,-0.043678,0.174066,0.583388,0.0109719999999999,0.289526,0.795088,-0.061178,-0.2819839999999999,1.039238,-0.1061479999999999,0.363306,0.998138,-0.128508,-0.078021,0.002655,0.009105,0.078021,-0.0026549999999999,-0.009105,-0.158124,-0.588292,0.0401949999999999,0.140426,-0.595242,0.0219519999999999,-0.186604,-0.986972,0.063486,0.1980859999999999,-1.029082,-0.0592479999999999,1
170,0.0144515,0.7619279999999999,0.0850385,-0.1472405,0.605178,0.0451595,-0.2396305,0.821358,-0.0386784999999999,0.1743595,0.583218,0.0143295,0.2898194999999999,0.794338,-0.0559185,-0.2824905,1.040488,-0.0998385,0.3642094999999999,0.997688,-0.1215584999999999,-0.0778635,0.002637,0.0085055,0.0778635,-0.002637,-0.0085055,-0.1586705,-0.5883820000000001,0.0396185,0.1395695,-0.595472,0.0214225,-0.1878105,-0.987572,0.0629425,0.1972495,-1.030482,-0.0598585,1
171,0.0143395,0.7607695,0.0876835,-0.1468545,0.6058295,0.0478394999999999,-0.2392045,0.8220195,-0.0343875,0.1743855,0.5834295,0.0170864999999999,0.2900655,0.7940895,-0.0511775,-0.2827145,1.0415495,-0.0944275,0.3650755,0.9975495,-0.1154874999999999,-0.0776885,0.0025924999999999,0.0078984999999999,0.0776885,-0.0025924999999999,-0.0078985,-0.1593145,-0.5885505,0.0388474999999999,0.1386855,-0.5956105,0.0207524999999999,-0.1889045,-0.9867605,0.0622055,0.1963955,-1.0314305,-0.0606675,1
172,0.0139865,0.759537,0.0897554999999999,-0.1464915,0.6065269999999999,0.0502165,-0.2387915,0.822367,-0.0307275,0.1742485,0.5835969999999999,0.0194514999999999,0.2903085,0.793747,-0.0471575,-0.2828215,1.042287,-0.0904575,0.3657985,0.997287,-0.1104475,-0.0774485,0.002576,0.0078344999999999,0.0774485,-0.002576,-0.0078345,-0.1600015,-0.588703,0.0375854999999999,0.1377685,-0.595793,0.0197924999999999,-0.1897315,-0.987363,0.0608264999999999,0.1955384999999999,-1.032333,-0.0617475,1
173,0.0134624999999999,0.7583230000000001,0.0916455,-0.1459565,0.606203,0.0529775,-0.2384165,0.8226230000000001,-0.0280654999999999,0.1741035,0.583863,0.0218835,0.2907635,0.7933330000000001,-0.0440425,-0.2826465,1.042973,-0.0870924999999999,0.3666335,0.996873,-0.1063425,-0.0771545,0.00253,0.0080985,0.0771545,-0.0025299999999999,-0.0080984999999999,-0.1607165,-0.588897,0.0360525,0.1368835,-0.5959570000000001,0.0186525,-0.1905765,-0.991287,0.0590675,0.1946435,-1.033227,-0.0630925,1
174,0.0130354999999999,0.7573115,0.0928555,-0.1455325,0.6061814999999999,0.0541965,-0.2378725,0.8230014999999999,-0.0263204999999999,0.1737975,0.5836614999999999,0.0227394999999999,0.2915175,0.7930315,-0.0412255,-0.2818124999999999,1.0437715,-0.0847155,0.3676075,0.9966715,-0.1032255,-0.0768235,0.0024874999999999,0.0086235,0.0768235,-0.0024875,-0.0086235,-0.1611725,-0.5889485,0.0345265,0.1363075,-0.5959785,0.0173924999999999,-0.1916025,-0.9909485,0.0570125,0.1936474999999999,-1.0333885,-0.0642455,1
175,0.0125389999999999,0.756518,0.0939214999999999,-0.144951,0.606188,0.0548764999999999,-0.237271,0.823288,-0.0249245,0.173479,0.583648,0.0232714999999999,0.292219,0.792588,-0.0387655,-0.280641,1.0449080000000002,-0.0826455,0.368339,0.996208,-0.1005855,-0.076492,0.002424,0.0093614999999999,0.076492,-0.002424,-0.0093615,-0.161631,-0.589012,0.0328394999999999,0.1358089999999999,-0.596042,0.0159504999999999,-0.192601,-0.990512,0.0547714999999999,0.192769,-1.033282,-0.0655855,1
176,0.0120644999999999,0.7558174999999999,0.094904,-0.1440175,0.6063075,0.055723,-0.2367274999999999,0.8235975,-0.0238209999999999,0.1731825,0.5837475,0.023555,0.2928624999999999,0.7925074999999999,-0.0371139999999999,-0.2795975,1.0460975,-0.0811639999999999,0.3691125,0.9962975,-0.0986239999999999,-0.0761795,0.0024135,0.010333,0.0761795,-0.0024134999999999,-0.0103329999999999,-0.1620475,-0.5890225,0.031083,0.1353424999999999,-0.5960525,0.0145069999999999,-0.1936775,-0.9902025,0.052495,0.1920525,-1.0332125,-0.0669839999999999,1
177,0.0117244999999999,0.755171,0.0956024999999999,-0.1431505,0.606491,0.0560745,-0.2361805,0.823931,-0.0230855,0.1730295,0.583781,0.0225404999999999,0.2936195,0.792501,-0.0360585,-0.2786205,1.0469810000000002,-0.0803035,0.3699695,0.996281,-0.0972135,-0.0758225,0.0023429999999999,0.0110984999999999,0.0758225,-0.0023429999999999,-0.0110984999999999,-0.1623905,-0.589349,0.0292584999999999,0.1349795,-0.596109,0.0129134999999999,-0.1945505,-0.994169,0.0491775,0.1916195,-1.033299,-0.0691235,1
178,0.0114354999999999,0.7548035000000001,0.096727,-0.1421755,0.6066635,0.056052,-0.2357355,0.8246435,-0.0226429999999999,0.1730145,0.5839335,0.021382,0.2944644999999999,0.7928135000000001,-0.0350119999999999,-0.2776655,1.0485734999999998,-0.079519,0.3709444999999999,0.9966735,-0.095809,-0.0755515,0.0022524999999999,0.011972,0.0755515,-0.0022524999999999,-0.0119719999999999,-0.1626955,-0.5896965,0.027362,0.1348045,-0.5961565,0.011393,-0.1952055,-0.9934965,0.04688,0.1912445,-1.0330565,-0.071249,1
179,0.011027,0.7544280000000001,0.097576,-0.14125,0.6065480000000001,0.055931,-0.23559,0.8253079999999999,-0.0223899999999999,0.17292,0.5841179999999999,0.0202299999999999,0.29539,0.7929980000000001,-0.034272,-0.27669,1.049658,-0.078914,0.37179,0.996858,-0.0949439999999999,-0.075237,0.002118,0.012969,0.075237,-0.0021179999999999,-0.0129689999999999,-0.1630499999999999,-0.5900719999999999,0.0251629999999999,0.13459,-0.5961320000000001,0.0098439999999999,-0.19521,-0.997862,0.044159,0.1908,-1.033032,-0.073504,1
180,0.010778,0.754093,0.0983935,-0.140331,0.606213,0.0564845,-0.235371,0.8257030000000001,-0.0220795,0.172699,0.583783,0.0203575,0.296239,0.793423,-0.0336385,-0.275631,1.050793,-0.0783015,0.372639,0.997393,-0.0941615,-0.074995,0.001994,0.0137254999999999,0.074995,-0.0019939999999999,-0.0137255,-0.163221,-0.590457,0.0230564999999999,0.134459,-0.596047,0.0084114999999999,-0.195691,-0.997657,0.0413365,0.190269,-1.033327,-0.0758215,1
181,0.010619,0.7540205,0.099501,-0.139272,0.6055605000000001,0.0576599999999999,-0.235242,0.8262105000000001,-0.021748,0.172768,0.5837905,0.021377,0.297178,0.7942605,-0.032831,-0.2745519999999999,1.0519805,-0.077361,0.373598,0.9982805,-0.0932109999999999,-0.0748399999999999,0.0019645,0.0141099999999999,0.0748399999999999,-0.0019645,-0.0141099999999999,-0.163292,-0.5905695,0.021141,0.134388,-0.5959995,0.0072189999999999,-0.196552,-0.9931495,0.038898,0.190098,-1.0334395,-0.0776409999999999,1
182,0.0103165,0.7535885,0.100627,-0.1380305,0.6046385,0.059078,-0.2351504999999999,0.8270785,-0.0210709999999999,0.1729695,0.5837985,0.022579,0.2976495,0.7949685,-0.031768,-0.2734905,1.0536485,-0.076214,0.3734695,0.9989485,-0.091774,-0.0747755,0.0019514999999999,0.014248,0.0747755,-0.0019515,-0.0142479999999999,-0.1634305,-0.5907315,0.019352,0.1342595,-0.5960915,0.006089,-0.1975905,-0.9879015,0.036687,0.1898695,-1.0333315,-0.079284,1
183,0.0078405,0.755539,0.1023885,-0.1372475,0.604609,0.0546204999999999,-0.2345775,0.8290690000000001,-0.0206385,0.1711625,0.584449,0.0157874999999999,0.2991825,0.793859,-0.0312975,-0.2730375,1.058499,-0.0752835,0.3754525,0.997999,-0.0904635,-0.0743785,0.0017949999999999,0.0153104999999999,0.0743785,-0.0017949999999999,-0.0153105,-0.1634074999999999,-0.591121,0.0179095,0.1343725,-0.595961,0.0045375,-0.1983075,-0.984781,0.0360925,0.1895724999999999,-1.0313210000000002,-0.0793535,1
184,0.00864,0.7537010000000001,0.10126,-0.136801,0.606241,0.060166,-0.234681,0.829171,-0.020794,0.174849,0.583081,0.026539,0.299899,0.793331,-0.032047,-0.271271,1.0591609999999998,-0.074885,0.376959,0.997561,-0.089755,-0.074048,0.0019459999999999,0.01405,0.074048,-0.001946,-0.01405,-0.162741,-0.591149,0.015323,0.134319,-0.596399,0.003081,-0.198111,-1.031599,0.027099,0.189259,-1.032279,-0.081405,1
185,0.0088099999999999,0.752321,0.103515,-0.136497,0.605891,0.063274,-0.234757,0.8293109999999999,-0.01886,0.176333,0.584191,0.0313329999999999,0.301033,0.794291,-0.030955,-0.270827,1.060391,-0.073221,0.377653,0.998691,-0.088651,-0.074237,0.002105,0.0144899999999999,0.074237,-0.0021049999999999,-0.01449,-0.163107,-0.591099,0.0141309999999999,0.134103,-0.596549,0.0030409999999999,-0.204017,-0.984259,0.0378369999999999,0.188323,-1.032159,-0.082021,1
186,0.00853,0.749943,0.106437,-0.13246,0.598003,0.069806,-0.23667,0.835093,-0.0166639999999999,0.1760999999999999,0.583703,0.033992,0.30082,0.794123,-0.0280469999999999,-0.27055,1.059663,-0.070767,0.37746,0.998663,-0.084847,-0.07471,0.002137,0.01393,0.07471,-0.002137,-0.0139299999999999,-0.1642199999999999,-0.591027,0.011436,0.13313,-0.596867,0.001267,-0.1920899999999999,-1.023697,0.030649,0.18699,-1.0325369999999998,-0.086407,1
187,0.009721,0.7500450000000001,0.106311,-0.133439,0.599885,0.070057,-0.235039,0.833385,-0.014793,0.1767409999999999,0.5839650000000001,0.034759,0.310321,0.815145,-0.028751,-0.268749,1.060195,-0.070331,0.385551,1.019595,-0.087961,-0.074491,0.0020099999999999,0.014928,0.074491,-0.00201,-0.0149279999999999,-0.164019,-0.591315,0.0100929999999999,0.133271,-0.596665,0.00059,-0.200229,-0.978845,0.027427,0.186361,-1.035005,-0.088761,1
188,0.009571,0.7494744999999999,0.106848,-0.131328,0.5970645,0.071849,-0.235578,0.8320044999999999,-0.0137109999999999,0.176212,0.5842244999999999,0.036592,0.307302,0.8053444999999999,-0.024812,-0.269978,1.0592845,-0.068671,0.381382,1.0101845,-0.084541,-0.074822,0.0020305,0.01427,0.074822,-0.0020305,-0.0142699999999999,-0.165518,-0.5914355,0.004939,0.132432,-0.5969555000000001,-0.0001629999999999,-0.204008,-0.9779855,0.026924,0.187842,-1.0311155,-0.0890509999999999,1
189,0.0095979999999999,0.7502115,0.107994,-0.1318409999999999,0.5983215,0.072506,-0.2337709999999999,0.8287515,-0.01115,0.176929,0.5846315,0.038606,0.298309,0.7693315,-0.012344,-0.268361,1.0604715,-0.066803,0.368749,0.9750715,-0.074653,-0.074879,0.0019685,0.014787,0.074879,-0.0019684999999999,-0.0147869999999999,-0.165731,-0.5915285,0.004376,0.132489,-0.5968385,-0.0002089999999999,-0.204701,-0.9775985,0.02623,0.187689,-1.0312285,-0.089333,1
