sb224sc-HT22-VT27/4dt907/src/ml-research/a11/datafiles/labeled_files/A97_kinect.csv
FrameNo,nose_3d_x,nose_3d_y,nose_3d_z,left_shoulder_3d_x,left_shoulder_3d_y,left_shoulder_3d_z,left_elbow_3d_x,left_elbow_3d_y,left_elbow_3d_z,right_shoulder_3d_x,right_shoulder_3d_y,right_shoulder_3d_z,right_elbow_3d_x,right_elbow_3d_y,right_elbow_3d_z,left_wrist_3d_x,left_wrist_3d_y,left_wrist_3d_z,right_wrist_3d_x,right_wrist_3d_y,right_wrist_3d_z,left_hip_3d_x,left_hip_3d_y,left_hip_3d_z,right_hip_3d_x,right_hip_3d_y,right_hip_3d_z,left_knee_3d_x,left_knee_3d_y,left_knee_3d_z,right_knee_3d_x,right_knee_3d_y,right_knee_3d_z,left_ankle_3d_x,left_ankle_3d_y,left_ankle_3d_z,right_ankle_3d_x,right_ankle_3d_y,right_ankle_3d_z,activity_label
0,0.018296,0.8075920000000001,0.1190635,-0.1573739999999999,0.511982,0.0973435,-0.2371339999999999,0.242322,0.0674085,0.199016,0.502112,0.1175885,0.254546,0.277872,0.1172775,-0.272414,0.0318359999999999,-0.0279684999999999,0.247876,0.160442,-0.1791925,-0.080676,0.004089,-4.350000000000187e-05,0.080676,-0.004089,4.350000000000187e-05,-0.133954,-0.438418,0.0062685,0.128346,-0.474338,0.0390905,-0.131824,-0.826148,0.0166175,0.146426,-0.8562879999999999,0.0317115,0
1,0.010015,0.8088915,0.1250919999999999,-0.161526,0.5128214999999999,0.101491,-0.237776,0.2413815,0.0669609999999999,0.196874,0.5025315,0.115116,0.254954,0.2791515,0.117312,-0.274496,0.0329315,-0.032687,0.254514,0.1603015,-0.178644,-0.08077,0.0038125,0.00064,0.08077,-0.0038125,-0.00064,-0.133946,-0.4380085,0.0063179999999999,0.128084,-0.4752484999999999,0.039117,-0.132556,-0.8255185,0.0172599999999999,0.147814,-0.8575585,0.0300199999999999,0
2,0.0077995,0.8088639999999999,0.1277395,-0.1633535,0.511544,0.1033925,-0.2375835,0.2407939999999999,0.0674085,0.1961864999999999,0.5026039999999999,0.1144535,0.2557065,0.279704,0.1175975,-0.2742135,0.033473,-0.0348745,0.2553265,0.159624,-0.1778535,-0.0806554999999999,0.003431,0.0013065,0.0806554999999999,-0.003431,-0.0013065,-0.1334535,-0.438006,0.0065985,0.1281365,-0.466856,0.0365425,-0.1319135,-0.826176,0.0181365,0.1481565,-0.8578260000000001,0.0306155,0
3,0.0057024999999999,0.8092714999999999,0.1302505,-0.1643485,0.5105114999999999,0.1048395,-0.2374885,0.2404615,0.0676635,0.1957915,0.5023715,0.1139485,0.2596215,0.2789915,0.1133315,-0.2741485,0.0333375,-0.0350454999999999,0.2556615,0.1573515,-0.1814475,-0.0806155,0.0032295,0.0015685,0.0806155,-0.0032295,-0.0015685,-0.1334285,-0.4383585,0.0069115,0.1277015,-0.4645085,0.0362765,-0.1319285,-0.8264785,0.0183095,0.1503015,-0.8571885,0.0277065,0
4,0.0041824999999999,0.809336,0.132677,-0.1654675,0.509886,0.106678,-0.2372875,0.239506,0.068413,0.1947925,0.502656,0.11395,0.2579225,0.280956,0.119193,-0.2733975,0.032711,-0.035224,0.3109525,0.187876,-0.0935189999999999,-0.0806165,0.002849,0.0021619999999999,0.0806165,-0.002849,-0.0021619999999999,-0.1333075,-0.438194,0.0071109999999999,0.1270625,-0.458604,0.036138,-0.1316075,-0.826444,0.019697,0.1498425,-0.860404,0.02659,0
5,0.0028674999999999,0.8095230000000001,0.1344865,-0.1663995,0.5094930000000001,0.1083665,-0.2369395,0.239243,0.0686265,0.1944705,0.503213,0.1140965,0.2606805,0.279413,0.1139005,-0.2733295,0.032491,-0.0350075,0.3091005,0.1704729999999999,-0.0920604999999999,-0.0805915,0.002862,0.0024005,0.0805915,-0.002862,-0.0024005,-0.1331895,-0.438347,0.0072974999999999,0.1274105,-0.465267,0.0366635,-0.1312095,-0.8275969999999999,0.0195715,0.1483705,-0.8507969999999999,0.0367785,0
6,0.0020829999999999,0.810269,0.1366635,-0.166058,0.5099090000000001,0.1095424999999999,-0.236118,0.239389,0.0698385,0.194502,0.5039990000000001,0.1148204999999999,0.261802,0.277509,0.1116445,-0.270768,0.0323759999999999,-0.0338995,0.307802,0.161409,-0.0908015,-0.080569,0.002403,0.0036184999999999,0.080569,-0.0024029999999999,-0.0036184999999999,-0.132618,-0.438471,0.0080225,0.127822,-0.462021,0.0366255,-0.131028,-0.8266509999999999,0.0198935,0.146712,-0.856471,0.0402295,0
7,0.0014479999999999,0.8104685,0.1378505,-0.167292,0.5107685,0.1115665,-0.236502,0.2405385,0.0696305,0.194418,0.5041184999999999,0.1150455,0.261358,0.2802585,0.1130525,-0.272142,0.0331865,-0.0341385,0.273458,0.1633485,-0.1590375,-0.08075,0.0029965,0.0035415,0.08075,-0.0029965,-0.0035414999999999,-0.132532,-0.4380415,0.0079095,0.128568,-0.4677015,0.0386765,-0.130782,-0.8269314999999999,0.0198875,0.147578,-0.8562215,0.0366525,0
8,0.0004329999999999,0.811163,0.1393795,-0.167861,0.510983,0.1128415,-0.237041,0.241453,0.0691555,0.194099,0.504763,0.1151955,0.262069,0.281213,0.1120845,-0.273061,0.03561,-0.0366904999999999,0.279669,0.165313,-0.1597664999999999,-0.0807819999999999,0.002834,0.0038855,0.0807819999999999,-0.0028339999999999,-0.0038855,-0.132281,-0.437557,0.0080035,0.128709,-0.467167,0.0389185,-0.130471,-0.826987,0.0202085,0.147739,-0.855877,0.0376145,0
9,-0.000521,0.8118375,0.140529,-0.168299,0.5111375,0.113873,-0.238359,0.2448374999999999,0.0679299999999999,0.1938409999999999,0.5053974999999999,0.115179,0.263081,0.2823875,0.110999,-0.274529,0.0411355,-0.041548,0.285851,0.1680975,-0.160711,-0.080815,0.0027235,0.0040289999999999,0.080815,-0.0027235,-0.004029,-0.132119,-0.4370725,0.0078449999999999,0.128731,-0.4665625,0.038658,-0.130159,-0.8271125,0.0203319999999999,0.147711,-0.8545725,0.038729,0
10,-0.0013859999999999,0.812522,0.141563,-0.168626,0.511462,0.114686,-0.240446,0.249952,0.065793,0.193594,0.506062,0.115111,0.266024,0.283682,0.107842,-0.277556,0.049861,-0.0512829999999999,0.293184,0.175312,-0.162007,-0.080872,0.002634,0.004117,0.080872,-0.002634,-0.0041169999999999,-0.131946,-0.436598,0.00758,0.128944,-0.467328,0.038886,-0.129956,-0.827128,0.020331,0.147624,-0.853548,0.039373,0
11,-0.0021489999999999,0.813159,0.142594,-0.1689189999999999,0.512049,0.115562,-0.2438489999999999,0.2576589999999999,0.061644,0.193271,0.506699,0.115002,0.269131,0.285209,0.102561,-0.282449,0.0621739999999999,-0.065376,0.301231,0.186329,-0.1637259999999999,-0.080967,0.0025599999999999,0.0042339999999999,0.080967,-0.00256,-0.004234,-0.1317789999999999,-0.436021,0.007271,0.129201,-0.4685209999999999,0.0391279999999999,-0.129749,-0.827091,0.0203159999999999,0.147681,-0.852091,0.0399929999999999,0
12,-0.002856,0.8137055000000001,0.1438125,-0.169082,0.5127555,0.1162105,-0.248462,0.2674055,0.0566765,0.192898,0.5073255000000001,0.1148744999999999,0.274668,0.2872455,0.0950255,-0.288462,0.0817185,-0.0823875,0.306378,0.1992055,-0.1753875,-0.081067,0.0025355,0.0043735,0.081067,-0.0025354999999999,-0.0043735,-0.131592,-0.4348045,0.0069084999999999,0.129488,-0.4692145,0.0394185,-0.129552,-0.8268144999999999,0.0202255,0.147868,-0.8507245,0.0398515,0
13,-0.0034595,0.8141235,0.1452245,-0.1692865,0.5136735,0.1167785,-0.2556365,0.2812235,0.0478905,0.1924934999999999,0.5079035,0.1147185,0.2823934999999999,0.2913335,0.0852205,-0.2969365,0.1081034999999999,-0.1034155,0.3123935,0.2208335,-0.1899254999999999,-0.0811875,0.0024955,0.0045715,0.0811875,-0.0024955,-0.0045714999999999,-0.1314465,-0.4338864999999999,0.0065775,0.1297435,-0.4696964999999999,0.0400075,-0.1294265,-0.8261265,0.0201175,0.1480234999999999,-0.8505065,0.0395145,0
14,-0.0039579999999999,0.8143754999999999,0.1464235,-0.169531,0.5146155,0.1171325,-0.263381,0.2961655,0.0380505,0.192179,0.5084055,0.1143935,0.294509,0.2987355,0.0690455,-0.307071,0.1443855,-0.1267665,0.320289,0.2523455,-0.1981665,-0.081321,0.0024795,0.0046645,0.081321,-0.0024795,-0.0046645,-0.131291,-0.4326945,0.0060395,0.1299489999999999,-0.4706845,0.0404215,-0.129301,-0.8255345000000001,0.0199125,0.148309,-0.8497245,0.0388285,0
15,-0.0043635,0.8144405,0.1476155,-0.1697335,0.5156305000000001,0.1173335,-0.2716834999999999,0.3119004999999999,0.0280684999999999,0.1919864999999999,0.5089205,0.1139985,0.3073065,0.3112305,0.0519865,-0.3189835,0.1807605,-0.1501845,0.3294065,0.2895605,-0.2050745,-0.0814475,0.0024695,0.0047704999999999,0.0814475,-0.0024695,-0.0047705,-0.1310635,-0.4316195,0.0054724999999999,0.1301264999999999,-0.4715095,0.0407345,-0.1291435,-0.8247295,0.0196184999999999,0.1485165,-0.8495094999999999,0.0381805,0
16,-0.0046814999999999,0.8143210000000001,0.148569,-0.1699545,0.5167409999999999,0.117251,-0.2827945,0.331111,0.017853,0.1920355,0.5096510000000001,0.113354,0.3209655,0.326451,0.035707,-0.3308744999999999,0.228151,-0.173051,0.3398955,0.332081,-0.211761,-0.0815555,0.0024999999999999,0.00483,0.0815555,-0.0025,-0.00483,-0.1308444999999999,-0.430889,0.004725,0.1302855,-0.472229,0.040769,-0.1290045,-0.824039,0.019055,0.1484655,-0.850109,0.038094,0
17,-0.0048364999999999,0.814011,0.1494515,-0.1702115,0.5175810000000001,0.1170225,-0.2942715,0.351641,0.0079294999999999,0.1921485,0.510231,0.1126514999999999,0.3345885,0.345081,0.0191725,-0.3421615,0.282181,-0.1940585,0.3564684999999999,0.378211,-0.2178485,-0.0816485,0.002496,0.0048245,0.0816485,-0.0024959999999999,-0.0048245,-0.1306514999999999,-0.430629,0.0038554999999999,0.1304185,-0.4718989999999999,0.0406305,-0.1288915,-0.823789,0.0181875,0.1485285,-0.850289,0.0378225,0
18,-0.0049094999999999,0.8134435,0.1502495,-0.1705525,0.5189834999999999,0.1166025,-0.3047125,0.3785435,-0.0037524999999999,0.1922174999999999,0.5108535,0.1117475,0.3477175,0.3691835,0.0038405,-0.3517125,0.3424435,-0.2121305,0.3724875,0.4299535,-0.2233905,-0.0817114999999999,0.0025544999999999,0.0047515,0.0817114999999999,-0.0025545,-0.0047514999999999,-0.1305125,-0.4303665,0.0028325,0.1304875,-0.4719865,0.0401235,-0.1289525,-0.8236365,0.0171185,0.1484275,-0.8507865,0.0373015,0
19,-0.0049184999999999,0.812585,0.1509765,-0.1709445,0.520635,0.1160075,-0.3137745,0.4087449999999999,-0.0150954999999999,0.1922555,0.5119549999999999,0.1110405,0.3578255,0.395375,-0.0088284999999999,-0.3590145,0.4054149999999999,-0.2235734999999999,0.3816255,0.4822849999999999,-0.2275134999999999,-0.0816995,0.0025059999999999,0.0045845,0.0816995,-0.0025059999999999,-0.0045844999999999,-0.1304645,-0.430295,0.0015355,0.1304955,-0.472275,0.0393475,-0.1290645,-0.823715,0.0158775,0.1482755,-0.851415,0.0366225,0
20,-0.0048739999999999,0.811113,0.1515765,-0.1712,0.522683,0.1152145,-0.32121,0.442543,-0.0239234999999999,0.19235,0.513533,0.1105865,0.36586,0.425733,-0.0187394999999999,-0.3644199999999999,0.473163,-0.2290735,0.38919,0.535683,-0.2288935,-0.0816669999999999,0.002595,0.0043005,0.0816669999999999,-0.0025949999999999,-0.0043004999999999,-0.13048,-0.430187,0.0001545,0.1304499999999999,-0.473117,0.0385175,-0.12926,-0.823917,0.0145425,0.14798,-0.853857,0.0356145,0
21,-0.004918,0.8096265,0.151835,-0.171416,0.5249165,0.114348,-0.328806,0.4763965,-0.030369,0.192564,0.5154365000000001,0.110419,0.371544,0.4570165,-0.0260579999999999,-0.367796,0.5396764999999999,-0.230155,0.392904,0.5897764999999999,-0.2296949999999999,-0.081646,0.0026615,0.0040509999999999,0.081646,-0.0026614999999999,-0.0040509999999999,-0.130476,-0.4306535,-0.0012129999999999,0.130454,-0.4740435,0.037862,-0.129346,-0.8246435000000001,0.013447,0.148134,-0.8546635,0.03447,0
22,-0.0049635,0.807681,0.1517514999999999,-0.1714315,0.526941,0.1135865,-0.3336315,0.511561,-0.0318114999999999,0.1928985,0.5176510000000001,0.1104955,0.3751184999999999,0.491431,-0.0298825,-0.3679015,0.604751,-0.2312085,0.3948185,0.640931,-0.2298585,-0.0816284999999999,0.00272,0.0036505,0.0816284999999999,-0.00272,-0.0036505,-0.1304715,-0.431579,-0.0025024999999999,0.1304584999999999,-0.475669,0.0368405,-0.1293515,-0.8259289999999999,0.0124315,0.1482085,-0.856849,0.0334165,0
23,-0.0050274999999999,0.805398,0.151609,-0.1715005,0.5291279999999999,0.1129719999999999,-0.3372805,0.546578,-0.032656,0.1933095,0.519948,0.11074,0.3750394999999999,0.5267879999999999,-0.030795,-0.3679805,0.664478,-0.232121,0.3947395,0.6861379999999999,-0.230771,-0.0815785,0.0027399999999999,0.0031789999999999,0.0815785,-0.0027399999999999,-0.003179,-0.1305705,-0.4320219999999999,-0.0038569999999999,0.1304795,-0.477302,0.035926,-0.1294305,-0.827682,0.0114589999999999,0.1480995,-0.859172,0.032625,0
24,-0.0051135,0.8024225,0.151302,-0.1716285,0.5317324999999999,0.112482,-0.3394285,0.5819225,-0.033465,0.1937815,0.5224025,0.111063,0.3749114999999999,0.5563525,-0.031642,-0.3680985,0.7274725,-0.232678,0.3946515,0.7262925,-0.2293879999999999,-0.0814935,0.0027364999999999,0.0026709999999999,0.0814935,-0.0027365,-0.0026709999999999,-0.1306085,-0.4336175,-0.00513,0.1305215,-0.4807275,0.0350759999999999,-0.1295585,-0.8297475,0.0104389999999999,0.1479515,-0.8625975,0.032103,0
25,-0.005241,0.799357,0.1510645,-0.171812,0.534887,0.1122045,-0.339622,0.615247,-0.0340525,0.194288,0.524497,0.1116645,0.374718,0.583807,-0.0322295,-0.368152,0.7823869999999999,-0.2255755,0.394618,0.765537,-0.2214355,-0.081368,0.002752,0.0021195,0.081368,-0.0027519999999999,-0.0021195,-0.130702,-0.435083,-0.0062074999999999,0.130318,-0.483203,0.0343785,-0.129762,-0.831833,0.0097095,0.147888,-0.865783,0.0320305,0
26,-0.0054214999999999,0.7960025,0.1506845,-0.1719695,0.5380225,0.1120235,-0.3398795,0.6479425,-0.0338915,0.1947305,0.5270325,0.1125585,0.3731204999999999,0.6085025,-0.0265144999999999,-0.3663195,0.8306825,-0.2149754999999999,0.3944404999999999,0.8013825,-0.2092555,-0.0811735,0.0028334999999999,0.0015705,0.0811735,-0.0028334999999999,-0.0015704999999999,-0.1308995,-0.4369075,-0.0072715,0.1301205,-0.4861075,0.0337295,-0.1299195,-0.8343375000000001,0.0090445,0.1477405,-0.8698175,0.0309535,0
27,-0.0055445,0.7927635,0.150311,-0.1720695,0.5408634999999999,0.112011,-0.3401395,0.6735835,-0.03263,0.1951205,0.5297035,0.113882,0.3705004999999999,0.6281835,-0.020066,-0.3612895,0.8718135,-0.201919,0.3923804999999999,0.8329135,-0.195439,-0.0809365,0.0028265,0.001187,0.0809365,-0.0028264999999999,-0.001187,-0.1311295,-0.4390265,-0.008233,0.1299405,-0.4892165,0.033351,-0.1300895,-0.8370265,0.0085839999999999,0.1474605,-0.8735965,0.0308419999999999,0
28,-0.0056,0.7896745000000001,0.1501434999999999,-0.172111,0.5434045000000001,0.1122124999999999,-0.338921,0.6954845000000001,-0.0305855,0.195259,0.5320745,0.1152875,0.366659,0.6470545000000001,-0.0121505,-0.356331,0.9077345,-0.1873365,0.388419,0.8607645,-0.1796865,-0.080623,0.0029454999999999,0.0010184999999999,0.080623,-0.0029455,-0.0010185,-0.131361,-0.4413455,-0.0090565,0.129779,-0.4922155,0.0331194999999999,-0.130241,-0.8398654999999999,0.0083224999999999,0.147189,-0.8772854999999999,0.0306844999999999,0
29,-0.0055999999999999,0.786802,0.1501495,-0.172098,0.545712,0.1125655,-0.334518,0.713032,-0.0265725,0.195232,0.534172,0.1167325,0.362882,0.6623819999999999,-0.0031004999999999,-0.3506479999999999,0.935462,-0.1699105,0.383492,0.8850819999999999,-0.1629805,-0.080298,0.002914,0.0009625,0.080298,-0.002914,-0.0009625,-0.131598,-0.4441879999999999,-0.0096475,0.129662,-0.495038,0.0329375,-0.130368,-0.842738,0.0082605,0.147082,-0.8806080000000001,0.0306875,0
30,-0.0055635,0.784038,0.15021,-0.1719795,0.547668,0.113053,-0.3297595,0.728718,-0.01953,0.1950705,0.536108,0.118396,0.3585905,0.676628,0.005766,-0.3448695,0.957338,-0.1518699999999999,0.3777305,0.904618,-0.1451299999999999,-0.0800035,0.002855,0.000831,0.0800035,-0.002855,-0.0008309999999999,-0.1318295,-0.446832,-0.0103209999999999,0.1295705,-0.497872,0.032822,-0.1304195,-0.845632,0.008333,0.1472605,-0.883692,0.030744,0
31,-0.0055199999999999,0.781494,0.150036,-0.171902,0.549664,0.113561,-0.324612,0.739284,-0.01217,0.194908,0.5376740000000001,0.12,0.353518,0.6910240000000001,0.014571,-0.339202,0.973584,-0.134204,0.371838,0.921954,-0.127114,-0.079757,0.002789,0.000626,0.079757,-0.002789,-0.000626,-0.132102,-0.449676,-0.0108019999999999,0.129458,-0.499656,0.031997,-0.130442,-0.8486659999999999,0.008502,0.147728,-0.885606,0.030633,0
32,-0.005417,0.7790745,0.149777,-0.17187,0.5520745,0.114466,-0.31918,0.7494645,-0.0043839999999999,0.19468,0.5391545,0.12183,0.34975,0.7012545,0.023145,-0.33308,0.9855545,-0.116823,0.36621,0.9365845,-0.110013,-0.079525,0.0027324999999999,0.0004259999999999,0.079525,-0.0027325,-0.0004259999999999,-0.13236,-0.4533055,-0.011013,0.12934,-0.5010255,0.031171,-0.13049,-0.8517155000000001,0.008721,0.14815,-0.8874255,0.030785,0
33,-0.0052805,0.776767,0.149754,-0.1719015,0.554017,0.115567,-0.3139615,0.7590969999999999,0.002253,0.1944284999999999,0.5406569999999999,0.123954,0.3456085,0.711997,0.03203,-0.3270715,1.0032370000000002,-0.100466,0.3605285,0.951637,-0.094356,-0.0792684999999999,0.0026909999999999,0.000313,0.0792684999999999,-0.0026909999999999,-0.000313,-0.1325815,-0.456023,-0.011086,0.1293585,-0.5023230000000001,0.030498,-0.1305415,-0.854373,0.009054,0.1482885,-0.889203,0.03118,0
34,-0.005158,0.774532,0.149787,-0.171988,0.555322,0.11662,-0.308418,0.767052,0.0080209999999999,0.194132,0.542802,0.126419,0.341012,0.722442,0.0405829999999999,-0.322058,1.017482,-0.087273,0.3554819999999999,0.962182,-0.080453,-0.079025,0.0026409999999999,0.0003279999999999,0.079025,-0.0026409999999999,-0.000328,-0.132788,-0.458678,-0.011145,0.1294219999999999,-0.503718,0.029684,-0.130688,-0.857028,0.0094779999999999,0.148482,-0.890908,0.031637,0
35,-0.00503,0.7726375,0.149778,-0.172132,0.5565475,0.117622,-0.302872,0.7737274999999999,0.013819,0.1937479999999999,0.5442874999999999,0.128606,0.335998,0.7327775,0.047857,-0.3172919999999999,1.0302975,-0.074662,0.350468,0.9719974999999998,-0.066421,-0.078807,0.0025784999999999,0.000386,0.078807,-0.0025785,-0.0003859999999999,-0.132852,-0.4620125,-0.0112099999999999,0.129488,-0.5046825,0.028842,-0.1309219999999999,-0.8593125,0.009941,0.148708,-0.8922225,0.032093,1
36,-0.0048935,0.7704755,0.149724,-0.1723345,0.5574555,0.118518,-0.2976445,0.7791954999999999,0.019353,0.1932755,0.5456955,0.130654,0.3305355,0.7429954999999999,0.054161,-0.3128444999999999,1.0411355,-0.063324,0.3453855,0.9804355,-0.054264,-0.0786015,0.0024775,0.0004949999999999,0.0786015,-0.0024775,-0.0004949999999999,-0.1328545,-0.4658644999999999,-0.0112509999999999,0.1295755,-0.5050445,0.02801,-0.1311645,-0.8617245,0.010213,0.1489055,-0.8938345000000001,0.032181,1
37,-0.0047525,0.7684920000000001,0.149563,-0.1725685,0.558342,0.1194269999999999,-0.2925485,0.783792,0.024839,0.1924015,0.547632,0.132753,0.3248115,0.752102,0.059677,-0.3084085,1.051652,-0.052633,0.3405114999999999,0.986652,-0.042458,-0.0783935,0.0022819999999999,0.0006239999999999,0.0783935,-0.0022819999999999,-0.0006239999999999,-0.1327885,-0.469658,-0.011342,0.1296815,-0.504788,0.027171,-0.1314285,-0.864238,0.010495,0.1489515,-0.895428,0.03222,1
38,-0.0045575,0.7667265,0.149498,-0.1728085,0.5590265,0.120475,-0.2892985,0.7867065,0.029248,0.1911815,0.5494365,0.134948,0.3186814999999999,0.7613765,0.064635,-0.3043685,1.0624865,-0.043857,0.3358414999999999,0.9921865,-0.031676,-0.0781995,0.0021304999999999,0.000757,0.0781995,-0.0021305,-0.000757,-0.1327285,-0.4736134999999999,-0.011279,0.1298015,-0.5044735,0.026359,-0.1317185,-0.8665335000000001,0.010865,0.1487915,-0.8970035000000001,0.03241,1
39,-0.004359,0.7651845,0.1493545,-0.1730729999999999,0.5598545,0.1215314999999999,-0.286193,0.7896945000000001,0.0338075,0.189797,0.5510745,0.1369445,0.312337,0.7720745,0.0690355,-0.300363,1.0732644999999998,-0.0350205,0.331687,0.9985645,-0.0222825,-0.078016,0.0020445,0.0008694999999999,0.078016,-0.0020444999999999,-0.0008695,-0.132653,-0.4770554999999999,-0.0112785,0.129957,-0.5041055,0.0252745,-0.132023,-0.8687355,0.0111894999999999,0.1485969999999999,-0.8984255,0.0324975,1
40,-0.0040864999999999,0.7638780000000001,0.149151,-0.1733335,0.560548,0.122476,-0.2834035,0.7923680000000001,0.037969,0.1884964999999999,0.552748,0.138781,0.3075065,0.7783680000000001,0.073036,-0.2966835,1.084558,-0.027363,0.3273865,1.003958,-0.0137639999999999,-0.0778445,0.00196,0.00093,0.0778445,-0.0019599999999999,-0.00093,-0.1325435,-0.480332,-0.0113339999999999,0.1301265,-0.5038819999999999,0.024833,-0.1323235,-0.8707619999999999,0.011427,0.1483265,-0.899632,0.032566,1
41,-0.003801,0.7627875,0.148871,-0.173555,0.5605475,0.123068,-0.280815,0.7945175,0.041971,0.187275,0.5543475,0.140241,0.3028349999999999,0.7848375,0.076704,-0.293115,1.0957075,-0.020491,0.322895,1.0091075,-0.005661,-0.077679,0.0018864999999999,0.0009599999999999,0.077679,-0.0018864999999999,-0.0009599999999999,-0.132335,-0.4833625,-0.011446,0.130315,-0.5037025,0.024355,-0.1326149999999999,-0.8725125,0.011574,0.148085,-0.9003325000000001,0.033187,1
42,-0.0034925,0.76188,0.1484595,-0.1737834999999999,0.56045,0.1235904999999999,-0.2784935,0.79618,0.0458815,0.1858965,0.55577,0.1414294999999999,0.2981465,0.79023,0.0807075,-0.2903235,1.09785,-0.0136254999999999,0.3194065,1.01345,0.0020505,-0.0775675,0.0018169999999999,0.0009615,0.0775675,-0.0018169999999999,-0.0009615,-0.1321235,-0.48609,-0.0115795,0.1302864999999999,-0.50436,0.0238374999999999,-0.1328734999999999,-0.87372,0.0116495,0.1478765,-0.90109,0.0335564999999999,1
43,-0.0030815,0.7611575,0.148067,-0.1739885,0.5604375,0.124108,-0.2764885,0.7976675,0.049714,0.1845915,0.5567175,0.142307,0.2940414999999999,0.7946775,0.083978,-0.2873685,1.0999075,-0.0062349999999999,0.3164415,1.0177075000000002,0.009028,-0.0774735,0.0017675,0.000962,0.0774735,-0.0017675,-0.0009619999999999,-0.1318985,-0.4881225,-0.0116399999999999,0.1300715,-0.5049524999999999,0.023273,-0.1331085,-0.8745725,0.011818,0.1476015,-0.9020425,0.033852,1
44,-0.0026179999999999,0.7604245000000001,0.147737,-0.174115,0.5603945,0.124566,-0.274735,0.7988745,0.053366,0.183355,0.5576445,0.143117,0.2905649999999999,0.7979545,0.086898,-0.284765,1.1015445,0.000748,0.314315,1.0216445,0.015324,-0.077391,0.0016634999999999,0.000924,0.077391,-0.0016635,-0.0009239999999999,-0.131745,-0.4888855,-0.011664,0.129915,-0.5050955,0.022695,-0.133295,-0.8752455,0.012,0.147475,-0.9029455,0.034002,1
45,-0.002215,0.7599045,0.1475075,-0.174207,0.5603245000000001,0.1250985,-0.273287,0.7996445000000001,0.0566095,0.1823229999999999,0.5585644999999999,0.1437475,0.287653,0.8004145,0.0898615,-0.282847,1.1030445,0.0069025,0.312963,1.0261445,0.0214275,-0.077331,0.0016015,0.0008965,0.077331,-0.0016014999999999,-0.0008964999999999,-0.131607,-0.4897855,-0.0115324999999999,0.129803,-0.5054955,0.0221385,-0.133567,-0.8757155000000001,0.0122165,0.147373,-0.9035355,0.0341825,1
46,-0.0017379999999999,0.759404,0.147258,-0.174294,0.5603640000000001,0.125537,-0.272164,0.8000940000000001,0.059385,0.181776,0.5586040000000001,0.143968,0.286026,0.804184,0.0914939999999999,-0.281494,1.104214,0.012646,0.312886,1.031014,0.025811,-0.077301,0.0016309999999999,0.0008769999999999,0.077301,-0.001631,-0.000877,-0.131484,-0.490416,-0.011409,0.129706,-0.5053460000000001,0.021317,-0.133714,-0.876106,0.012419,0.147386,-0.903996,0.034353,1
47,-0.0013144999999999,0.758921,0.1470845,-0.1743565,0.560321,0.1259104999999999,-0.2713465,0.8004009999999999,0.0617765,0.1814935,0.5584509999999999,0.1441645,0.2843535,0.806921,0.0932294999999999,-0.2806165,1.104721,0.0176085,0.3129635,1.035521,0.0300294999999999,-0.0772954999999999,0.0016509999999999,0.0008704999999999,0.0772954999999999,-0.0016509999999999,-0.0008705,-0.1313464999999999,-0.490809,-0.0113255,0.1296335,-0.505339,0.0205155,-0.1338065,-0.8766590000000001,0.0126084999999999,0.1474935,-0.904879,0.0340295,1
48,-0.0008925,0.75854,0.1469705,-0.1744045,0.56022,0.1261795,-0.2708145,0.80046,0.0636704999999999,0.1812355,0.55855,0.1443405,0.2838155,0.80823,0.0946075,-0.2805445,1.10524,0.0214005,0.3130354999999999,1.03794,0.0338615,-0.0772935,0.001659,0.0008724999999999,0.0772935,-0.0016589999999999,-0.0008724999999999,-0.1312045,-0.49119,-0.0112944999999999,0.1295454999999999,-0.5054799999999999,0.0199335,-0.1338845,-0.87715,0.0128005,0.1476155,-0.90588,0.0335945,1
49,-0.0005424999999999,0.7583,0.1469875,-0.1744435,0.5600999999999999,0.1265045,-0.2705134999999999,0.80052,0.0654025,0.1809464999999999,0.55872,0.1445874999999999,0.2837265,0.81036,0.0955205,-0.2804735,1.1055,0.0249334999999999,0.3132265,1.0402,0.0370355,-0.0772855,0.001627,0.0008774999999999,0.0772855,-0.001627,-0.0008775,-0.1310835,-0.49091,-0.0111875,0.1294364999999999,-0.50501,0.0194364999999999,-0.1339635,-0.87738,0.0129754999999999,0.1477465,-0.90665,0.0329164999999999,1
50,-0.0001994999999999,0.7582085,0.1471205,-0.1744725,0.5600084999999999,0.1268405,-0.2704625,0.8004585,0.0666155,0.1807575,0.5587785,0.1447105,0.2837675,0.8121185,0.0965615,-0.2803925,1.1055085,0.0280554999999999,0.3136875,1.0424085,0.0390034999999999,-0.0772565,0.0016265,0.0009114999999999,0.0772565,-0.0016265,-0.0009115,-0.1310125,-0.4909914999999999,-0.0109485,0.1293875,-0.5048815,0.0189674999999999,-0.1340225,-0.8774915000000001,0.0131814999999999,0.1478075,-0.9072015,0.0321194999999999,1
51,0.0001185,0.7581175,0.147374,-0.1744415,0.5596475,0.127141,-0.2704115,0.8000975,0.067737,0.1807485,0.5586075,0.144704,0.2838085,0.8112775,0.096965,-0.2803314999999999,1.1051475,0.03073,0.3140585,1.0438475,0.040185,-0.0772255,0.0016174999999999,0.000963,0.0772255,-0.0016175,-0.0009629999999999,-0.1309415,-0.4910124999999999,-0.0106979999999999,0.1293385,-0.5057525,0.018588,-0.1340715,-0.8775725,0.013427,0.1478085,-0.9081925,0.031862,1
52,0.0003619999999999,0.7579899999999999,0.1476859999999999,-0.174415,0.5592999999999999,0.127468,-0.270285,0.79977,0.068758,0.180775,0.55826,0.144696,0.283835,0.81106,0.097348,-0.280775,1.1049,0.032747,0.315545,1.0455,0.0410349999999999,-0.077194,0.0015759999999999,0.001083,0.077194,-0.001576,-0.001083,-0.130915,-0.49101,-0.010389,0.129245,-0.50685,0.0184559999999999,-0.134185,-0.87775,0.0137389999999999,0.1478249999999999,-0.90872,0.031761,1
53,0.0006234999999999,0.7578765000000001,0.1479775,-0.1743934999999999,0.5589565,0.1277695,-0.2702035,0.7994265,0.0697165,0.1807765,0.5581265,0.1446675,0.2838765,0.8115965,0.0976485,-0.2817135,1.1045565,0.0343585,0.3179265,1.0471565,0.0413305,-0.0771775,0.0015184999999999,0.0012544999999999,0.0771775,-0.0015185,-0.0012544999999999,-0.1309135,-0.4913235,-0.0100774999999999,0.1290865,-0.5069035000000001,0.0182985,-0.1343135,-0.8777535,0.0140955,0.1477965,-0.9093535,0.0320635,1
54,0.0009024999999999,0.75791,0.1482755,-0.1742575,0.5587,0.1280645,-0.2701975,0.7991900000000001,0.0705735,0.1808825,0.55794,0.1445955,0.2845325,0.8127300000000001,0.0979135,-0.2828874999999999,1.10435,0.0351985,0.3200925,1.04765,0.0415875,-0.0771745,0.0014669999999999,0.0014134999999999,0.0771745,-0.001467,-0.0014134999999999,-0.1308975,-0.49156,-0.0097794999999999,0.1289425,-0.50654,0.0180145,-0.1344075,-0.8778699999999999,0.0144695,0.1477025,-0.9097,0.0323375,1
55,0.0013115,0.7579775,0.148428,-0.1739635,0.5584375,0.128352,-0.2702635,0.7989975,0.071358,0.1810465,0.5577975,0.144488,0.2854165,0.8136375,0.098062,-0.2842035,1.1041075,0.035663,0.3225165,1.0475075,0.041844,-0.0771695,0.0013984999999999,0.0015869999999999,0.0771695,-0.0013984999999999,-0.001587,-0.1308435,-0.4917025,-0.009466,0.1289364999999999,-0.5066825,0.0179639999999999,-0.1345735,-0.8780125,0.0148719999999999,0.1475965,-0.9094425,0.0321959999999999,1
56,0.0017105,0.7581045,0.148601,-0.1736285,0.5581145,0.128625,-0.2703385,0.7988645,0.072127,0.1812315,0.5577245,0.144281,0.2864115,0.8144545,0.097896,-0.2857185,1.1039345,0.036063,0.3247115,1.0474345,0.042115,-0.0771545,0.0013424999999999,0.0017759999999999,0.0771545,-0.0013424999999999,-0.0017759999999999,-0.1307785,-0.4917755,-0.009108,0.1289314999999999,-0.5054055,0.0180029999999999,-0.1346685,-0.8780855,0.0151859999999999,0.1473015,-0.9100455,0.03173,1
57,0.002046,0.758159,0.148811,-0.173324,0.557729,0.128918,-0.2703839999999999,0.798639,0.0727609999999999,0.181506,0.557399,0.144101,0.287556,0.8160689999999999,0.097235,-0.2880339999999999,1.099859,0.036426,0.326866,1.047359,0.04172,-0.077137,0.001289,0.001931,0.077137,-0.0012889999999999,-0.001931,-0.130754,-0.4920609999999999,-0.008722,0.1288959999999999,-0.502701,0.01805,-0.134724,-0.878201,0.015507,0.147026,-0.910291,0.031359,1
58,0.002433,0.758184,0.1491425,-0.17299,0.557334,0.1292225,-0.27042,0.798404,0.0733745,0.18176,0.556964,0.1439725,0.2885299999999999,0.817314,0.0966915,-0.29025,1.095574,0.0368085,0.32858,1.047074,0.0413525,-0.077127,0.001232,0.0020944999999999,0.077127,-0.0012319999999999,-0.0020944999999999,-0.13075,-0.492896,-0.0083574999999999,0.12896,-0.505566,0.0184975,-0.13475,-0.878536,0.0157345,0.14679,-0.910456,0.0314405,1
59,0.0027869999999999,0.7582175,0.149465,-0.172642,0.5568675000000001,0.129526,-0.270482,0.7982775,0.0739269999999999,0.1820179999999999,0.5565275000000001,0.143895,0.289128,0.8184275000000001,0.096328,-0.292162,1.0902975,0.037176,0.3301579999999999,1.0462975,0.041002,-0.077124,0.0011815,0.0022199999999999,0.077124,-0.0011815,-0.0022199999999999,-0.130802,-0.4939225,-0.0079559999999999,0.129018,-0.5083325000000001,0.018726,-0.134802,-0.8793925,0.01579,0.146658,-0.9104825,0.031206,1
60,0.0031244999999999,0.758235,0.1498155,-0.1723215,0.556505,0.1298395,-0.2705415,0.798185,0.0744155,0.1822585,0.556185,0.1438555,0.2896485,0.819625,0.0959875,-0.2938714999999999,1.084745,0.0371545,0.3314884999999999,1.045645,0.0406865,-0.0771255,0.001152,0.0023195,0.0771255,-0.001152,-0.0023195,-0.1308115,-0.493895,-0.0076644999999999,0.1290784999999999,-0.508385,0.0188075,-0.1349215,-0.8799849999999999,0.0160195,0.1463585,-0.910535,0.0313154999999999,1
61,0.0034479999999999,0.758281,0.1501345,-0.172067,0.556181,0.1301505,-0.270647,0.798141,0.0748175,0.182443,0.555881,0.1438045,0.2901129999999999,0.819581,0.0957055,-0.295247,1.079101,0.0368465,0.3327429999999999,1.0453009999999998,0.0404005,-0.077139,0.001138,0.0023825,0.077139,-0.001138,-0.0023824999999999,-0.130817,-0.494039,-0.0073594999999999,0.129123,-0.5085390000000001,0.0187775,-0.135117,-0.880599,0.0162395,0.146013,-0.910579,0.0313125,1
62,0.0037504999999999,0.758281,0.1505449999999999,-0.1718395,0.555891,0.130578,-0.2707595,0.798091,0.075298,0.1824905,0.556001,0.143895,0.2905804999999999,0.820821,0.09532,-0.2965895,1.073451,0.036487,0.3339904999999999,1.045051,0.040337,-0.0771604999999999,0.001126,0.002374,0.0771604999999999,-0.0011259999999999,-0.002374,-0.1308295,-0.494189,-0.006841,0.1291405,-0.508689,0.018927,-0.1354095,-0.881069,0.016665,0.1455205,-0.910499,0.032063,1
63,0.004069,0.758256,0.1507945,-0.171806,0.5558460000000001,0.1310035,-0.270806,0.798046,0.0757755,0.182624,0.5559559999999999,0.1439845,0.290994,0.8214760000000001,0.0949465,-0.297796,1.073406,0.0360045,0.335214,1.044406,0.0403405,-0.077177,0.0011179999999999,0.0023514999999999,0.077177,-0.001118,-0.0023514999999999,-0.130716,-0.494294,-0.0063635,0.1292039999999999,-0.506584,0.0187885,-0.135696,-0.881434,0.0170915,0.145064,-0.910314,0.0329515,1
64,0.004162,0.7582465,0.151067,-0.171954,0.5558365000000001,0.131457,-0.270814,0.7980665,0.076295,0.1826459999999999,0.5559464999999999,0.144157,0.291246,0.8219565,0.094723,-0.298994,1.0733965,0.03545,0.336366,1.0436965,0.040353,-0.077184,0.0011214999999999,0.002278,0.077184,-0.0011215,-0.0022779999999999,-0.130594,-0.4943435,-0.0058459999999999,0.129246,-0.5037535,0.018557,-0.1359139999999999,-0.8817335,0.017566,0.144646,-0.9103235,0.033824,1
65,0.004267,0.7582305,0.151196,-0.1720489999999999,0.5558205,0.131887,-0.270829,0.7982605,0.076561,0.182621,0.5560605000000001,0.144066,0.291391,0.8230205,0.094644,-0.299969,1.0733804999999998,0.034915,0.337451,1.0430805,0.040395,-0.077193,0.0011255,0.002176,0.077193,-0.0011255,-0.0021759999999999,-0.130469,-0.4949795,-0.0053669999999999,0.129291,-0.5018994999999999,0.01825,-0.136119,-0.8820295,0.018024,0.144251,-0.9105495,0.034644,1
66,0.004442,0.7581225,0.1512665,-0.17213,0.5557525,0.1323515,-0.2708399999999999,0.7983325,0.0767645,0.18261,0.5565225,0.1438465,0.29155,0.8238825000000001,0.0945275,-0.3003,1.0688725,0.0347965,0.33847,1.0422725,0.0402395,-0.077196,0.0011145,0.0021235,0.077196,-0.0011144999999999,-0.0021235,-0.13033,-0.4957975,-0.0048514999999999,0.1293599999999999,-0.5017675,0.0187665,-0.1362999999999999,-0.8822574999999999,0.0186025,0.1438499999999999,-0.9104075,0.0348485,1
67,0.0045785,0.7579235,0.1514355,-0.1721955,0.5554635,0.1327315,-0.2708755,0.7983835,0.0768264999999999,0.1825745,0.5572935,0.1435354999999999,0.2917945,0.8246235,0.0944915,-0.3006255,1.0686635,0.0346665,0.3392845,1.0421635,0.0400245,-0.0771985,0.0010735,0.0020765,0.0771985,-0.0010734999999999,-0.0020765,-0.1302154999999999,-0.4966065,-0.0043675,0.1294345,-0.5018265,0.0190504999999999,-0.1363555,-0.8824164999999999,0.0191485,0.1436144999999999,-0.9104465,0.0353394999999999,1
68,0.0047074999999999,0.7578135,0.151617,-0.1723205,0.5554635,0.133063,-0.2710305,0.7983835,0.076801,0.1825195,0.5569535,0.143297,0.2920895,0.8246235,0.094361,-0.3009605,1.0676635,0.034496,0.3400395,1.0418635,0.0395779999999999,-0.0772095,0.0010735,0.0020569999999999,0.0772095,-0.0010734999999999,-0.002057,-0.1301005,-0.4972565,-0.003861,0.1294795,-0.5021465,0.0190449999999999,-0.1364505,-0.8831665,0.019544,0.1437195,-0.9105665,0.0357279999999999,1
69,0.004832,0.7576935,0.151754,-0.172455,0.5554635,0.13329,-0.271205,0.7983835,0.076677,0.182555,0.5566835,0.1430739999999999,0.292445,0.8246235,0.094091,-0.301155,1.0703635,0.033458,0.3406349999999999,1.0413635,0.0390029999999999,-0.077224,0.0010735,0.0020709999999999,0.077224,-0.0010734999999999,-0.002071,-0.129985,-0.4975365,-0.0034199999999999,0.1295549999999999,-0.5030064999999999,0.019527,-0.1365449999999999,-0.8838965,0.019854,0.1435449999999999,-0.9102765,0.0355409999999999,1
70,0.004945,0.7574735,0.1518285,-0.172538,0.5554135,0.1333995,-0.271378,0.7983735,0.0764914999999999,0.182582,0.5564735,0.1426185,0.292872,0.8246235,0.0936315,-0.301328,1.0731635,0.0323755,0.341282,1.0413635,0.0381955,-0.077237,0.0010735,0.0020745,0.077237,-0.0010734999999999,-0.0020745,-0.129928,-0.4976965,-0.0030605,0.129402,-0.5051965,0.0204565,-0.136618,-0.8845864999999999,0.0201505,0.143392,-0.9107565,0.0357175,1
71,0.0050305,0.7571435,0.151541,-0.1726375,0.5551834999999999,0.133118,-0.2715674999999999,0.7983635,0.075963,0.1826225,0.5570835,0.141851,0.2932825,0.8242835,0.092974,-0.3016675,1.0783235000000002,0.0308449999999999,0.3416924999999999,1.0408235,0.037016,-0.0772745,0.0010275,0.002077,0.0772745,-0.0010275,-0.002077,-0.1299875,-0.4976265,-0.0029809999999999,0.1292325,-0.5058865,0.020936,-0.1367075,-0.8838265,0.020276,0.1432925,-0.9101765,0.03581,1
72,0.0051724999999999,0.7568025,0.1509734999999999,-0.1726705,0.5548425,0.1327445,-0.2717905,0.7982325,0.0751075,0.1826895,0.5579025,0.1410435,0.2937195,0.8236925,0.0919734999999999,-0.3020005,1.0832425,0.0292284999999999,0.3419995,1.0397425,0.0354315,-0.0773345,0.0009844999999999,0.0020784999999999,0.0773345,-0.0009844999999999,-0.0020785,-0.1301305,-0.4975575,-0.0029785,0.1290995,-0.5060675,0.0216164999999999,-0.1367305,-0.8830574999999999,0.0203174999999999,0.1431695,-0.9099975,0.0358444999999999,1
73,0.0055309999999999,0.756228,0.1497045,-0.172625,0.554438,0.1323095,-0.272035,0.798068,0.0738294999999999,0.182815,0.558618,0.1401585,0.294385,0.822778,0.0905545,-0.302245,1.087478,0.0274364999999999,0.342155,1.038578,0.0332584999999999,-0.077409,0.0009469999999999,0.0020794999999999,0.077409,-0.000947,-0.0020795,-0.130205,-0.497502,-0.0029765,0.128845,-0.505262,0.0216214999999999,-0.136715,-0.8820520000000001,0.0204364999999999,0.143125,-0.910862,0.0358955,1
74,0.0059375,0.755507,0.147885,-0.1725415,0.554097,0.131863,-0.2722815,0.797867,0.072489,0.1828185,0.559437,0.139614,0.2951085,0.821877,0.0891039999999999,-0.3025915,1.091647,0.0251729999999999,0.3423585,1.037847,0.0308169999999999,-0.0774354999999999,0.000911,0.0020799999999999,0.0774354999999999,-0.0009109999999999,-0.00208,-0.1302315,-0.497363,-0.002966,0.1285285,-0.504393,0.0220219999999999,-0.1366115,-0.881223,0.0205309999999999,0.1430585,-0.910963,0.0364689999999999,1
75,0.0063069999999999,0.7543075,0.144338,-0.172405,0.5538575,0.1312539999999999,-0.2726349999999999,0.7977175,0.070589,0.182855,0.5602775,0.139015,0.295775,0.8212174999999999,0.087307,-0.3030549999999999,1.0950975,0.0217659999999999,0.342685,1.0370975,0.0279569999999999,-0.077436,0.0008864999999999,0.0020579999999999,0.077436,-0.0008864999999999,-0.002058,-0.130265,-0.4979424999999999,-0.002919,0.128345,-0.5037125,0.0222929999999999,-0.136435,-0.8808025,0.0204079999999999,0.1427949999999999,-0.9095325,0.0363069999999999,1
76,0.0065469999999999,0.7528870000000001,0.1389345,-0.172261,0.554057,0.1301195,-0.273151,0.797867,0.0677845,0.182879,0.561427,0.1378345,0.296409,0.8209970000000001,0.0844055,-0.303791,1.096407,0.0165365,0.3430089999999999,1.036207,0.0234755,-0.077464,0.000917,0.0020044999999999,0.077464,-0.000917,-0.0020044999999999,-0.130321,-0.498073,-0.0032244999999999,0.128089,-0.502813,0.0227095,-0.136241,-0.8800129999999999,0.0196495,0.142729,-0.909683,0.0359015,1
77,0.0065855,0.7512955000000001,0.132409,-0.1721545,0.5543754999999999,0.128634,-0.2736945,0.7978855,0.063777,0.1829455,0.5623955,0.136076,0.2966155,0.8200955000000001,0.080768,-0.3046145,1.0977455,0.009451,0.3434455,1.0352455,0.016329,-0.0775625,0.0009685,0.0019979999999999,0.0775625,-0.0009684999999999,-0.0019979999999999,-0.1303244999999999,-0.4967344999999999,-0.003698,0.1278755,-0.5019345,0.022838,-0.1359544999999999,-0.8793845,0.018381,0.1426055,-0.9099245,0.03506,1
78,0.00672,0.7493035,0.1241905,-0.171898,0.5553334999999999,0.1265775,-0.274078,0.7980435,0.0585115,0.183192,0.5632935,0.1337035,0.296812,0.8192834999999999,0.0760204999999999,-0.305288,1.0970135,0.0016265,0.344082,1.0340135,0.0085564999999999,-0.077724,0.0010184999999999,0.0020244999999999,0.077724,-0.0010184999999999,-0.0020244999999999,-0.130248,-0.4952665,-0.0043424999999999,0.127742,-0.5021365,0.0243085,-0.135478,-0.8788165,0.0164295,0.143002,-0.9093065,0.0336895,1
79,0.0070254999999999,0.747231,0.1140175,-0.1714465,0.5568409999999999,0.1238305,-0.2743865,0.7985709999999999,0.0517895,0.1836335,0.564311,0.1307555,0.2971935,0.8186910000000001,0.0698345,-0.3058765,1.097121,-0.0082604999999999,0.3445135,1.032921,-0.0016554999999999,-0.0779325,0.001099,0.0021455,0.0779325,-0.0010989999999999,-0.0021455,-0.1300965,-0.4935589999999999,-0.0055325,0.1278135,-0.501949,0.0250235,-0.1348665,-0.877929,0.0138495,0.1436535,-0.909359,0.0309505,1
80,0.0075265,0.7452085,0.1023699999999999,-0.1707835,0.5577685,0.1205499999999999,-0.2745735,0.7994385,0.043821,0.1836765,0.5652385,0.126301,0.2977965,0.8188585,0.062641,-0.3061534999999999,1.0962485,-0.019718,0.3449365,1.0320485,-0.012476,-0.0781915,0.0011865,0.0023399999999999,0.0781915,-0.0011865,-0.00234,-0.1301935,-0.4921015,-0.007123,0.1280465,-0.5024715,0.0251739999999999,-0.1341135,-0.8773715,0.0107329999999999,0.1445965,-0.9098415,0.0280419999999999,1
81,0.007963,0.7430304999999999,0.090015,-0.169893,0.5586804999999999,0.116041,-0.274623,0.8003404999999999,0.034887,0.183577,0.5661505,0.120989,0.298587,0.8187905,0.054424,-0.306223,1.0971605,-0.032468,0.345477,1.0311605,-0.024027,-0.078418,0.0012845,0.002456,0.078418,-0.0012845,-0.002456,-0.130233,-0.4904995,-0.0092,0.128467,-0.5015695,0.024456,-0.133213,-0.8764595,0.007103,0.145827,-0.9108595,0.024928,1
82,0.008413,0.7409775,0.0776085,-0.168957,0.5596774999999999,0.1110184999999999,-0.274557,0.8013275,0.0253275,0.1834829999999999,0.5670375,0.1151205,0.299273,0.8190375,0.0457645,-0.306147,1.0961575,-0.0462985,0.346123,1.0305575,-0.0373005,-0.078681,0.0013854999999999,0.0026734999999999,0.078681,-0.0013855,-0.0026735,-0.130307,-0.4883625,-0.0114744999999999,0.129293,-0.4996625,0.0239934999999999,-0.132057,-0.8754625,0.0030764999999999,0.147143,-0.9103525,0.0209115,1
83,0.0089825,0.738878,0.0654365,-0.1680935,0.561598,0.1053185,-0.2743935,0.802308,0.0153005,0.1834865,0.568158,0.1089855,0.2999365,0.819418,0.0366745,-0.3057735,1.095138,-0.0604855,0.3474065,1.030038,-0.0508505,-0.0789695,0.001507,0.0029875,0.0789695,-0.001507,-0.0029875,-0.1301635,-0.4852619999999999,-0.0138055,0.1303765,-0.498382,0.0233895,-0.1305435,-0.874232,-0.0010205,0.1483665,-0.910182,0.0171295,1
84,0.0092189999999999,0.7372465,0.054527,-0.167426,0.5635665,0.0992319999999999,-0.274136,0.8032965,0.0053,0.183584,0.5695565,0.1027619999999999,0.300594,0.8202365,0.027062,-0.305076,1.0940465,-0.0741459999999999,0.348954,1.0296465,-0.065724,-0.079221,0.0016094999999999,0.003217,0.079221,-0.0016094999999999,-0.003217,-0.130336,-0.4811235,-0.016042,0.131304,-0.4964035,0.022164,-0.128816,-0.8729335,-0.0050249999999999,0.150224,-0.9094235,0.013681,1
85,0.0092515,0.735841,0.0451615,-0.1669035,0.565231,0.0932485,-0.2738735,0.803951,-0.0045235,0.1833465,0.570541,0.0965765,0.3011065,0.820311,0.0177195,-0.3040835,1.092681,-0.0869905,0.3505965,1.0286810000000002,-0.0792925,-0.0794594999999999,0.0016209999999999,0.0035225,0.0794594999999999,-0.0016209999999999,-0.0035224999999999,-0.1304835,-0.476429,-0.0181375,0.1320764999999999,-0.495979,0.0196135,-0.1269035,-0.871819,-0.0086184999999999,0.1521265,-0.908319,0.0105275,1
86,0.0090694999999999,0.734769,0.036445,-0.1667135,0.566849,0.087182,-0.2737035,0.804879,-0.0137539999999999,0.1832265,0.5714090000000001,0.090733,0.3016765,0.820729,0.008503,-0.3027035,1.091719,-0.0986489999999999,0.3526165,1.027319,-0.090253,-0.0796405,0.001605,0.003668,0.0796405,-0.0016049999999999,-0.0036679999999999,-0.1305535,-0.4716909999999999,-0.020195,0.1330065,-0.495441,0.016364,-0.1249735,-0.870471,-0.0118969999999999,0.1547165,-0.907831,0.006901,1
87,0.0083114999999999,0.734201,0.029071,-0.1671455,0.5682609999999999,0.0813759999999999,-0.2739055,0.805731,-0.022194,0.1825345,0.572071,0.085453,0.3021445,0.8215509999999999,0.00022,-0.3013555,1.090541,-0.109165,0.3543044999999999,1.026241,-0.100765,-0.0798255,0.0015739999999999,0.003623,0.0798255,-0.0015739999999999,-0.003623,-0.1308155,-0.466679,-0.022161,0.1339745,-0.495019,0.0133309999999999,-0.1229255,-0.869419,-0.0145169999999999,0.1575545,-0.907249,0.003669,1
88,0.0074614999999999,0.733858,0.0236105,-0.1678565,0.569318,0.0760214999999999,-0.2742065,0.806098,-0.0295955,0.1815735,0.572548,0.0808025,0.3024934999999999,0.820908,-0.0060385,-0.2999965,1.089258,-0.1181375,0.3558635,1.024958,-0.1081075,-0.0799885,0.00151,0.0033634999999999,0.0799885,-0.0015099999999999,-0.0033635,-0.1311465,-0.461582,-0.0236914999999999,0.1348734999999999,-0.493532,0.0109164999999999,-0.1208365,-0.869242,-0.0166335,0.1606135,-0.907132,0.0009134999999999,1
89,0.006648,0.7333985000000001,0.019702,-0.168808,0.5701685000000001,0.071228,-0.274598,0.8062585,-0.036052,0.180942,0.5728185,0.077754,0.3031419999999999,0.8202685000000001,-0.010874,-0.298798,1.0882885,-0.12573,0.357252,1.0240885,-0.11427,-0.080221,0.0014795,0.002954,0.080221,-0.0014794999999999,-0.002954,-0.1311379999999999,-0.4568314999999999,-0.024943,0.136052,-0.4917015,0.00915,-0.118638,-0.8690715,-0.0181,0.163812,-0.9077015,-0.001531,1
90,0.0057519999999999,0.7331035,0.0171599999999999,-0.170091,0.5704535000000001,0.067737,-0.275411,0.8062735,-0.041385,0.180219,0.5730735,0.075905,0.303589,0.8193635,-0.01425,-0.298221,1.0875035,-0.1323909999999999,0.358579,1.0224035,-0.119111,-0.080451,0.0014645,0.002471,0.080451,-0.0014645,-0.002471,-0.131051,-0.4521765,-0.025769,0.137379,-0.4887465,0.005464,-0.116591,-0.8684265,-0.018712,0.167479,-0.9076865,-0.002424,1
91,0.00463,0.7329435,0.0154,-0.1716839999999999,0.5705835,0.064564,-0.2765039999999999,0.8062735,-0.045948,0.179556,0.5733235,0.074707,0.303416,0.8184835,-0.016607,-0.2982039999999999,1.0865035,-0.1386059999999999,0.359726,1.0206035,-0.121136,-0.080614,0.0014645,0.002064,0.080614,-0.0014645,-0.002064,-0.1308039999999999,-0.4480464999999999,-0.026183,0.138926,-0.4857265,0.0015409999999999,-0.114774,-0.8677265,-0.018839,0.171546,-0.9071565,-0.009226,1
92,0.0034095,0.7328045000000001,0.0141135,-0.1731514999999999,0.5705845,0.0622075,-0.2777914999999999,0.8062645,-0.0501075,0.1787485,0.5735045000000001,0.0740595,0.3034085,0.8179445000000001,-0.0184475,-0.2985314999999999,1.0853045,-0.1442804999999999,0.3613085,1.0191045,-0.1226305,-0.0807115,0.0013705,0.0020435,0.0807115,-0.0013704999999999,-0.0020435,-0.1305415,-0.4440555,-0.0262115,0.1407785,-0.4821355,-0.0028335,-0.1132215,-0.8670454999999999,-0.0186415,0.1758685,-0.9062955,-0.0161655,1
93,0.0021985,0.7328009999999999,0.0129425,-0.1746055,0.570611,0.0597455,-0.2794055,0.806171,-0.0545935,0.1777745,0.5736209999999999,0.0735105,0.3036345,0.817591,-0.0196625,-0.2994055,1.0841310000000002,-0.1499855,0.3629045,1.0178310000000002,-0.1231154999999999,-0.0808155,0.001288,0.0020455,0.0808155,-0.0012879999999999,-0.0020455,-0.1298455,-0.440839,-0.0262465,0.1430745,-0.478789,-0.0079295,-0.1119055,-0.866749,-0.0186435,0.1801545,-0.907229,-0.0232164999999999,1
94,0.0008669999999999,0.7327085,0.0120075,-0.176096,0.5705185,0.0575975,-0.281316,0.8056785000000001,-0.0584755,0.176884,0.5736985,0.0735255,0.3037939999999999,0.8177685,-0.0202574999999999,-0.301026,1.0826385,-0.1551915,0.364324,1.0167385,-0.1234915,-0.080876,0.0011124999999999,0.0018095,0.080876,-0.0011125,-0.0018095,-0.129336,-0.4385615,-0.0263915,0.144684,-0.4772415,-0.0133145,-0.1111159999999999,-0.8668414999999999,-0.0183874999999999,0.184204,-0.9074615,-0.0316715,1
95,-0.0004294999999999,0.7326875,0.0117605,-0.1772935,0.5698675000000001,0.0558465,-0.2830634999999999,0.8044475000000001,-0.0617145,0.1760065,0.5737375,0.0738325,0.3039065,0.8176375,-0.0204405,-0.3034135,1.0808075,-0.1599954999999999,0.3653065,1.0164075,-0.1234654999999999,-0.0809435,0.0009075,0.0010955,0.0809435,-0.0009074999999999,-0.0010955,-0.1288135,-0.4374525,-0.0264925,0.1455965,-0.4759325,-0.0191315,-0.1107435,-0.8669724999999999,-0.0176795,0.1878765,-0.9059625,-0.0422424999999999,1
96,-0.001132,0.732781,0.0122624999999999,-0.177956,0.569121,0.0548305,-0.284696,0.803091,-0.0641365,0.175684,0.573751,0.0745385,0.3041839999999999,0.8174710000000001,-0.0200085,-0.306096,1.079051,-0.1640895,0.365594,1.016351,-0.1227295,-0.081016,0.000746,0.0005635,0.081016,-0.0007459999999999,-0.0005635,-0.128546,-0.4367189999999999,-0.0267024999999999,0.145764,-0.474909,-0.0245965,-0.111066,-0.8670789999999999,-0.0163714999999999,0.192764,-0.906229,-0.0582154999999999,1
97,-0.0011169999999999,0.732951,0.013016,-0.1779579999999999,0.568411,0.054273,-0.285588,0.801671,-0.0658,0.175712,0.573941,0.07564,0.304212,0.816581,-0.018828,-0.308438,1.077251,-0.167458,0.365622,1.016351,-0.121288,-0.081028,0.000746,-1.899999999999992e-05,0.081028,-0.0007459999999999,1.9000000000000357e-05,-0.1285379999999999,-0.4364289999999999,-0.026615,0.147272,-0.474039,-0.030052,-0.111498,-0.867389,-0.0144819999999999,0.197612,-0.907019,-0.0739509999999999,1
98,-0.0010899999999999,0.732951,0.0144254999999999,-0.177967,0.567611,0.0540695,-0.285607,0.799571,-0.0668055,0.175743,0.574041,0.0771604999999999,0.304253,0.815501,-0.0166365,-0.309907,1.075251,-0.1702225,0.3656729999999999,1.016351,-0.1189525,-0.081037,0.000746,-0.0004885,0.081037,-0.0007459999999999,0.0004884999999999,-0.1285369999999999,-0.4364289999999999,-0.0262495,0.149253,-0.474039,-0.0346944999999999,-0.1117969999999999,-0.867799,-0.0119355,0.202433,-0.907429,-0.0887265,1
99,-0.0010544999999999,0.733039,0.016323,-0.1779524999999999,0.5669890000000001,0.054599,-0.2856125,0.797419,-0.0669599999999999,0.1757675,0.574069,0.078928,0.3045475,0.8144290000000001,-0.014302,-0.3101325,1.0734089999999998,-0.171954,0.3674375,1.016509,-0.116764,-0.0810425,0.000563,-0.0007959999999999,0.0810425,-0.000563,0.0007959999999999,-0.1284525,-0.436431,-0.025242,0.1520275,-0.474081,-0.037818,-0.1119624999999999,-0.867891,-0.0088019999999999,0.2083375,-0.907731,-0.106004,1
100,-0.001906,0.7332420000000001,0.0184325,-0.178754,0.566402,0.0558995,-0.286514,0.795452,-0.0664145,0.1756559999999999,0.574362,0.0807465,0.304686,0.8141120000000001,-0.0113385,-0.311054,1.071912,-0.1724335,0.368656,1.015912,-0.1140035,-0.081154,0.0004679999999999,-0.0010565,0.081154,-0.000468,0.0010565,-0.128504,-0.436328,-0.0235895,0.1546759999999999,-0.473978,-0.0405975,-0.112844,-0.867828,-0.0047975,0.2119859999999999,-0.908808,-0.1172334999999999,1
101,-0.0024735,0.7335205,0.0210505,-0.1791344999999999,0.5659305,0.0576135,-0.2878445,0.7933605,-0.0647905,0.1759555,0.5745105,0.0824875,0.3047555,0.8136305,-0.0081725,-0.3129645,1.0704605,-0.1717385,0.3697755,1.0162605,-0.1112685,-0.0811645,0.0003295,-0.0012315,0.0811645,-0.0003294999999999,0.0012315,-0.1287444999999999,-0.4367395,-0.0212615,0.1572255,-0.4747895,-0.0432034999999999,-0.1146644999999999,-0.8677795,8.750000000000077e-05,0.2142655,-0.9085495,-0.1271085,1
102,-0.0021539999999999,0.734022,0.0232055,-0.178675,0.565672,0.0595565,-0.288475,0.791512,-0.0622035,0.176695,0.574762,0.0837665,0.305655,0.813352,-0.0059025,-0.315655,1.069162,-0.1704805,0.370865,1.016862,-0.1085205,-0.081165,0.0001909999999999,-0.0011535,0.081165,-0.000191,0.0011534999999999,-0.129465,-0.437408,-0.0181315,0.158975,-0.477028,-0.0449935,-0.1172749999999999,-0.8676980000000001,0.0055984999999999,0.215155,-0.905698,-0.1333505,1
103,-0.0015169999999999,0.734526,0.025466,-0.177449,0.565816,0.061679,-0.288879,0.789976,-0.059151,0.177651,0.575086,0.084679,0.307511,0.813346,-0.0047919999999999,-0.318239,1.068186,-0.168202,0.372421,1.017386,-0.107142,-0.081219,8.99999999999998e-05,-0.000912,0.081219,-8.99999999999998e-05,0.0009119999999999,-0.129779,-0.439944,-0.014417,0.159721,-0.4793739999999999,-0.0461979999999999,-0.120969,-0.8673540000000001,0.0118909999999999,0.214171,-0.902554,-0.136742,1
104,-0.0005285,0.7352665,0.027657,-0.1761335,0.5662065000000001,0.064247,-0.2889435,0.7891265000000001,-0.055783,0.1790265,0.5754665,0.084917,0.3093364999999999,0.8136865,-0.0045209999999999,-0.3208035,1.0675765,-0.165215,0.3734765,1.0187765,-0.1068049999999999,-0.0811875,4.950000000000093e-05,-0.0005939999999999,0.0811875,-4.949999999999399e-05,0.000594,-0.1307235,-0.4432035,-0.0102169999999999,0.1593865,-0.4823735,-0.0464949999999999,-0.1255335,-0.8671635,0.018812,0.2121665,-0.8993534999999999,-0.137935,1
105,0.0010335,0.7362805,0.0294784999999999,-0.1747585,0.5666405,0.0667244999999999,-0.2887885,0.7885504999999999,-0.0523115,0.1807015,0.5757605,0.0850094999999999,0.3109915,0.8133405,-0.0046665,-0.3232185,1.0674105,-0.1617835,0.3742915,1.0201105,-0.1069135,-0.0811274999999999,7.150000000000212e-05,-0.0003985,0.0811274999999999,-7.150000000000212e-05,0.0003984999999999,-0.1323685,-0.4456595,-0.0055765,0.1585514999999999,-0.4859095,-0.0465115,-0.1307085,-0.8670895000000001,0.0259965,0.2072415,-0.8991795,-0.1330935,1
106,0.0024484999999999,0.7373624999999999,0.0313154999999999,-0.1730975,0.5671725000000001,0.0693345,-0.2887475,0.7880825,-0.0485055,0.1820725,0.5761025,0.0847315,0.3121224999999999,0.8133725,-0.0047545,-0.3258875,1.0673425,-0.1576255,0.3742025,1.0208425,-0.1073355,-0.0812735,0.0001214999999999,0.0001034999999999,0.0812735,-0.0001215,-0.0001034999999999,-0.1345975,-0.4471975,-0.0017235,0.1556025,-0.4882675,-0.0447684999999999,-0.1370275,-0.8669175,0.0336324999999999,0.2008125,-0.8988974999999999,-0.1279855,1
107,0.0046409999999999,0.738051,0.0325084999999999,-0.171407,0.567591,0.0720695,-0.288237,0.7876409999999999,-0.0447525,0.183873,0.5759409999999999,0.0836775,0.313583,0.8122309999999999,-0.0061955,-0.327897,1.067461,-0.1531925,0.3747729999999999,1.020961,-0.1096225,-0.081396,0.0001709999999999,0.0006214999999999,0.081396,-0.0001709999999999,-0.0006215,-0.137337,-0.4481489999999999,0.0012064999999999,0.152433,-0.490969,-0.0426125,-0.143817,-0.866799,0.0409714999999999,0.193763,-0.898849,-0.1224125,1
108,0.0069004999999999,0.738707,0.032962,-0.1692235,0.568177,0.074322,-0.2872635,0.787177,-0.0411779999999999,0.1858965,0.575817,0.0822,0.3151965,0.8110170000000001,-0.0085539999999999,-0.3293335,1.067487,-0.148758,0.3746365,1.020687,-0.1116279999999999,-0.0814965,0.000197,0.001189,0.0814965,-0.0001969999999999,-0.0011889999999999,-0.1396335,-0.448923,0.000386,0.1487065,-0.493783,-0.0400779999999999,-0.1506235,-0.8667729999999999,0.047411,0.1854164999999999,-0.896253,-0.1165279999999999,1
109,0.0095074999999999,0.739373,0.033081,-0.1664495,0.5688829999999999,0.076087,-0.2858495,0.7871929999999999,-0.037543,0.1882305,0.575353,0.080258,0.3171204999999999,0.8099329999999999,-0.0118449999999999,-0.3302895,1.067503,-0.144623,0.3754004999999999,1.019903,-0.115653,-0.0815105,0.0002129999999999,0.001862,0.0815105,-0.0002129999999999,-0.001862,-0.1422495,-0.448907,-0.0022169999999999,0.1450705,-0.497157,-0.037233,-0.1570595,-0.866477,0.050998,0.1769705,-0.893267,-0.110993,1
110,0.011778,0.7399929999999999,0.032771,-0.164312,0.569723,0.077901,-0.284592,0.7871929999999999,-0.0342629999999999,0.1901479999999999,0.574943,0.078235,0.319088,0.808873,-0.0160029999999999,-0.331282,1.067403,-0.141033,0.3758579999999999,1.018903,-0.1200629999999999,-0.081398,0.0002129999999999,0.002532,0.081398,-0.0002129999999999,-0.0025319999999999,-0.145512,-0.449357,-0.0056209999999999,0.140658,-0.497517,-0.0335829999999999,-0.1633919999999999,-0.8660770000000001,0.053841,0.168758,-0.892777,-0.1048529999999999,1
111,0.0138515,0.740488,0.0324074999999999,-0.1625025,0.5707180000000001,0.0797445,-0.2834224999999999,0.787188,-0.0313095,0.1924975,0.574648,0.0760535,0.3205975,0.807668,-0.0199795,-0.3318425,1.067298,-0.1376995,0.3763175,1.015798,-0.1259394999999999,-0.0814574999999999,0.000275,0.0033445,0.0814575,-0.0002749999999999,-0.0033445,-0.1484224999999999,-0.4502819999999999,-0.0103895,0.1373774999999999,-0.499622,-0.0309195,-0.1690824999999999,-0.866082,0.0532644999999999,0.1596675,-0.889852,-0.0977895,1
112,0.0160104999999999,0.7409025,0.0316554999999999,-0.1607155,0.5716425,0.0813545,-0.2817655,0.7872125000000001,-0.0292795,0.1943345,0.5740925,0.0743294999999999,0.3219745,0.8062125,-0.0243395,-0.3319055,1.0667225,-0.1350795,0.3763145,1.0126225,-0.1316295,-0.0814945,0.0003995,0.0041594999999999,0.0814945,-0.0003994999999999,-0.0041595,-0.1515255,-0.4521375,-0.0162795,0.1345645,-0.5022575,-0.0283194999999999,-0.1742655,-0.8658674999999999,0.0504654999999999,0.1511745,-0.8841175,-0.0913095,1
113,0.0179025,0.7410655,0.0308299999999999,-0.1591665,0.5723855,0.082861,-0.2802165,0.7877255,-0.0273719999999999,0.1954035,0.5733555,0.073456,0.3231435,0.8049555,-0.028492,-0.3314565,1.0664655,-0.132882,0.3763035,1.0091655,-0.137562,-0.0815835,0.0006975,0.0049219999999999,0.0815835,-0.0006974999999999,-0.0049219999999999,-0.1545425,-0.4540345,-0.0224819999999999,0.1317935,-0.5051045000000001,-0.026002,-0.1789065,-0.8658145,0.045294,0.1433935,-0.8787145,-0.085612,1
114,0.0195494999999999,0.7413109999999999,0.03007,-0.1574045,0.573331,0.084172,-0.2785195,0.788401,-0.0257749999999999,0.1972705,0.572941,0.071492,0.3244705,0.8031309999999999,-0.0326749999999999,-0.3305495,1.065981,-0.1309749999999999,0.3767305,1.005481,-0.1441149999999999,-0.0817104999999999,0.0009819999999999,0.005775,0.0817104999999999,-0.000982,-0.0057749999999999,-0.1570265,-0.455629,-0.0289349999999999,0.1290205,-0.507529,-0.023535,-0.1821795,-0.866299,0.035516,0.1365905,-0.8750990000000001,-0.0803549999999999,1
115,0.021801,0.7412915,0.029215,-0.1554789999999999,0.5738715,0.085128,-0.276167,0.7890315,-0.0245399999999999,0.199883,0.5723015,0.069611,0.326473,0.8015415,-0.03718,-0.328547,1.0654815,-0.1296399999999999,0.377903,1.0021815,-0.1504899999999999,-0.081633,0.0012054999999999,0.00648,0.081633,-0.0012055,-0.00648,-0.158576,-0.4571185,-0.03462,0.127363,-0.5098285,-0.0213399999999999,-0.184087,-0.8671485,0.024814,0.131493,-0.8720585,-0.0747399999999999,1
116,0.0234505,0.7412515,0.0285,-0.1536415,0.5744015,0.085902,-0.2742835,0.7897314999999999,-0.0233599999999999,0.2020865,0.5717114999999999,0.068204,0.3281765,0.8001315,-0.04091,-0.3266035,1.0651015,-0.12864,0.3786065,0.9983015,-0.1555599999999999,-0.0816065,0.0015765,0.00716,0.0816065,-0.0015764999999999,-0.00716,-0.1598485,-0.4575984999999999,-0.0393,0.1257665,-0.5120285,-0.01929,-0.1851135,-0.8677485,0.01346,0.1273065,-0.8724585,-0.0696999999999999,1
117,0.0246249999999999,0.7413245,0.0281779999999999,-0.152664,0.5750445000000001,0.086708,-0.272912,0.7906245000000001,-0.02225,0.203768,0.5712945,0.0670059999999999,0.329098,0.7989645000000001,-0.0435,-0.325042,1.0647645,-0.12777,0.379018,0.9950645,-0.15994,-0.081498,0.0020304999999999,0.0076999999999999,0.081498,-0.0020304999999999,-0.0077,-0.1611719999999999,-0.4579355,-0.0406799999999999,0.124348,-0.5140855,-0.01724,-0.185052,-0.8673854999999999,0.0015399999999999,0.123778,-0.8698754999999999,-0.06679,1
118,0.0257155,0.7411570000000001,0.0280969999999999,-0.1521555,0.5753569999999999,0.087669,-0.2717145,0.7913669999999999,-0.0215,0.2051155,0.570727,0.066314,0.3301655,0.7977970000000001,-0.04558,-0.3232345,1.064207,-0.1268,0.3792955,0.991907,-0.1626399999999999,-0.0814055,0.0024639999999999,0.00809,0.0814055,-0.002464,-0.00809,-0.1613245,-0.459723,-0.04088,0.1230555,-0.516113,-0.0151199999999999,-0.1842045,-0.867173,-0.0084599999999999,0.1213455,-0.8706529999999999,-0.06322,1
119,0.0267175,0.741326,0.02808,-0.1515995,0.575786,0.088213,-0.2708025,0.792486,-0.0211799999999999,0.2064875,0.570376,0.065854,0.3311575,0.7968959999999999,-0.04671,-0.3210325,1.063946,-0.12591,0.3800575,0.990746,-0.1644199999999999,-0.0813975,0.0027249999999999,0.0083,0.0813975,-0.0027249999999999,-0.0083,-0.1607445,-0.460914,-0.0405899999999999,0.1221075,-0.516904,-0.0135199999999999,-0.1827325,-0.865854,-0.0182799999999999,0.1199075,-0.870984,-0.0597399999999999,1
120,0.0271894999999999,0.7414645,0.0287199999999999,-0.1515345,0.5761145,0.0886869999999999,-0.2703305,0.7936645,-0.02112,0.2069694999999999,0.5701745,0.0659609999999999,0.3317595,0.7964245,-0.04686,-0.3192305,1.0635445,-0.12479,0.3808295,0.9904445,-0.16399,-0.0812695,0.0029264999999999,0.0082199999999999,0.0812695,-0.0029264999999999,-0.00822,-0.1602365,-0.4634255,-0.03935,0.1207394999999999,-0.5176455,-0.01137,-0.1811485,-0.8646155,-0.02532,0.1187595,-0.8683955,-0.05692,1
121,0.027102,0.7414955,0.030025,-0.1523459999999999,0.5761155,0.089333,-0.270698,0.7942655,-0.020425,0.207542,0.5700555,0.066131,0.331902,0.7962155,-0.045545,-0.317968,1.0630355,-0.1234049999999999,0.381642,0.9902355,-0.1617549999999999,-0.081132,0.0031354999999999,0.007965,0.081132,-0.0031354999999999,-0.007965,-0.159986,-0.4667745,-0.0372849999999999,0.1199519999999999,-0.5183045000000001,-0.009495,-0.179193,-0.8637445,-0.0306749999999999,0.1179819999999999,-0.8656345,-0.0544149999999999,1
122,0.027034,0.742002,0.03172,-0.152442,0.576272,0.0894899999999999,-0.270796,0.795032,-0.01996,0.208004,0.570302,0.066893,0.3319339999999999,0.796372,-0.04336,-0.317126,1.062692,-0.12206,0.382274,0.990392,-0.15853,-0.081034,0.0034819999999999,0.00775,0.081034,-0.0034819999999999,-0.00775,-0.159273,-0.470098,-0.03564,0.119894,-0.518538,-0.00754,-0.1768489999999999,-0.862648,-0.03432,0.118214,-0.865488,-0.05196,1
123,0.0270794999999999,0.7424595,0.034315,-0.1524345,0.5763095,0.08981,-0.2707805,0.7956395,-0.019375,0.2080495,0.5703095,0.0694309999999999,0.3319994999999999,0.7963595,-0.040025,-0.3171005,1.0623795,-0.120745,0.3823395,0.9904795,-0.155195,-0.0810395,0.0036544999999999,0.007385,0.0810395,-0.0036545,-0.007385,-0.1588195,-0.4738305,-0.0339849999999999,0.1194795,-0.5186205,-0.005585,-0.1753345,-0.8618104999999999,-0.033535,0.1188594999999999,-0.8690804999999999,-0.049325,1
124,0.02714,0.7435324999999999,0.037525,-0.152462,0.5763524999999999,0.090094,-0.2707799999999999,0.7962325,-0.0193649999999999,0.2081,0.5706724999999999,0.072122,0.3320599999999999,0.7964325,-0.0368149999999999,-0.31708,1.0622925,-0.1195549999999999,0.3824,0.9912925,-0.1519849999999999,-0.08105,0.0038204999999999,0.006805,0.08105,-0.0038205,-0.0068049999999999,-0.158785,-0.4763975,-0.0321149999999999,0.11893,-0.5186575,-0.0037849999999999,-0.174055,-0.8607775000000001,-0.0324349999999999,0.11941,-0.8729675,-0.0461249999999999,1
125,0.0269719999999999,0.7449425000000001,0.0407399999999999,-0.153434,0.5763324999999999,0.0899109999999999,-0.271298,0.7967124999999999,-0.01929,0.208202,0.5711325,0.0751839999999999,0.3321619999999999,0.7967025000000001,-0.0336,-0.317018,1.0622725,-0.1183,0.382522,0.9930725,-0.14816,-0.081022,0.0039545,0.0061399999999999,0.081022,-0.0039545,-0.00614,-0.158706,-0.4769875,-0.03011,0.117882,-0.5187275,-0.00188,-0.173151,-0.8607975000000001,-0.03065,0.119612,-0.8729875,-0.04329,1
126,0.0264874999999999,0.7467905,0.04411,-0.1546295,0.5761605000000001,0.089855,-0.2719025,0.7971705,-0.0191999999999999,0.2077675,0.5714405,0.078329,0.3320575,0.7973505000000001,-0.0301499999999999,-0.3164625,1.0621405,-0.1170999999999999,0.3830575,0.9957405,-0.1418499999999999,-0.0808275,0.0040924999999999,0.0053799999999999,0.0808275,-0.0040925,-0.0053799999999999,-0.1579445,-0.4791995,-0.02753,0.1171474999999999,-0.5187195,6.0000000000004494e-05,-0.1723805,-0.8591495,-0.0275399999999999,0.1207274999999999,-0.8769895,-0.0397099999999999,1
127,0.0252704999999999,0.7491000000000001,0.04748,-0.1563015,0.5759500000000001,0.089533,-0.2733295,0.79834,-0.01966,0.2066805,0.57204,0.081531,0.3313905,0.79861,-0.02565,-0.3162295,1.06205,-0.11592,0.3833405,0.99885,-0.1341899999999999,-0.0806605,0.004252,0.0046299999999999,0.0806605,-0.0042519999999999,-0.0046299999999999,-0.1570095,-0.48093,-0.02485,0.1167604999999999,-0.51879,0.00187,-0.1712485,-0.85766,-0.0244399999999999,0.1218505,-0.87708,-0.03684,1
128,0.023708,0.75157,0.05132,-0.158212,0.57562,0.088937,-0.275042,0.79952,-0.0201099999999999,0.205258,0.57297,0.084445,0.330168,0.80007,-0.02024,-0.316212,1.0620200000000002,-0.11478,0.383308,1.00202,-0.12558,-0.080478,0.0043819999999999,0.004,0.080478,-0.004382,-0.004,-0.1564769999999999,-0.4816,-0.0224499999999999,0.116618,-0.51882,0.0039,-0.169827,-0.8568100000000001,-0.02187,0.1234779999999999,-0.88109,-0.0333799999999999,1
129,0.0220709999999999,0.754491,0.056145,-0.160264,0.5752309999999999,0.088218,-0.276688,0.800671,-0.0205049999999999,0.203612,0.573931,0.087521,0.328792,0.8014709999999999,-0.0141049999999999,-0.315908,1.0620310000000002,-0.1138049999999999,0.383172,1.0055310000000002,-0.1159449999999999,-0.080352,0.004571,0.003245,0.0803519999999999,-0.0045709999999999,-0.0032449999999999,-0.156316,-0.482429,-0.0202349999999999,0.1168719999999999,-0.5190089999999999,0.005915,-0.168156,-0.856349,-0.019455,0.125402,-0.8850790000000001,-0.0298849999999999,1
130,0.019992,0.7574415000000001,0.0613199999999999,-0.162424,0.5753315000000001,0.0872159999999999,-0.278626,0.8013315000000001,-0.02111,0.201984,0.5743815000000001,0.0906729999999999,0.326884,0.8025914999999999,-0.0076,-0.315996,1.0625215,-0.11282,0.382444,1.0089215,-0.10594,-0.080244,0.0048615,0.0025099999999999,0.080244,-0.0048614999999999,-0.00251,-0.15647,-0.4832385,-0.01848,0.117314,-0.5188385,0.0077999999999999,-0.166817,-0.8560585,-0.0172,0.127244,-0.8883085,-0.02738,1
131,0.0179379999999999,0.760239,0.067019,-0.164273,0.575419,0.0863,-0.28055,0.802049,-0.0217549999999999,0.20065,0.574979,0.093861,0.3247899999999999,0.803619,-0.0009949999999999,-0.31631,1.0627490000000002,-0.1119449999999999,0.3813499999999999,1.0121490000000002,-0.096005,-0.0801,0.0050569999999999,0.001705,0.0801,-0.005057,-0.0017049999999999,-0.156657,-0.483621,-0.0167649999999999,0.1177199999999999,-0.518931,0.008615,-0.165532,-0.855731,-0.0151849999999999,0.1288699999999999,-0.888701,-0.0251649999999999,1
132,0.0159529999999999,0.7629189999999999,0.0729799999999999,-0.165937,0.5754090000000001,0.085404,-0.28232,0.8026789999999999,-0.02232,0.19902,0.575599,0.0970839999999999,0.32268,0.804359,0.00539,-0.31693,1.062899,-0.1109699999999999,0.38017,1.015099,-0.0868299999999999,-0.07994,0.0051939999999999,0.0010199999999999,0.07994,-0.0051939999999999,-0.0010199999999999,-0.156563,-0.484211,-0.01528,0.1182899999999999,-0.518941,0.0093699999999999,-0.16423,-0.856231,-0.0135099999999999,0.1303499999999999,-0.891891,-0.02296,1
133,0.014581,0.7655150000000001,0.079458,-0.1668629999999999,0.574635,0.084897,-0.283353,0.803695,-0.022215,0.1977669999999999,0.576655,0.10038,0.321147,0.805405,0.0118349999999999,-0.317353,1.063585,-0.109555,0.379507,1.017585,-0.0781149999999999,-0.079887,0.0050699999999999,0.0003749999999999,0.079887,-0.00507,-0.000375,-0.156424,-0.4845649999999999,-0.0136749999999999,0.118947,-0.5184650000000001,0.0100349999999999,-0.16299,-0.856595,-0.011945,0.131907,-0.892415,-0.0217249999999999,1
134,0.0134085,0.767456,0.0859379999999999,-0.1674775,0.5735260000000001,0.0849669999999999,-0.2842775,0.804496,-0.02187,0.1968525,0.577296,0.102975,0.3195925,0.8059860000000001,0.01796,-0.3178775,1.063246,-0.10781,0.3789225,1.018946,-0.07006,-0.0797824999999999,0.0049,-4.999999999999449e-05,0.0797824999999999,-0.0049,4.999999999999449e-05,-0.1562494999999999,-0.483004,-0.0127899999999999,0.1203425,-0.518654,0.01069,-0.1618425,-0.856594,-0.0105399999999999,0.1333325,-0.893274,-0.02022,1
135,0.0123449999999999,0.768836,0.091982,-0.168073,0.572306,0.085303,-0.285163,0.8049459999999999,-0.02116,0.195957,0.577776,0.105297,0.3179769999999999,0.806476,0.02343,-0.318063,1.062796,-0.1061,0.3780869999999999,1.019896,-0.06334,-0.079687,0.0047289999999999,-0.0002699999999999,0.079687,-0.0047289999999999,0.0002699999999999,-0.156107,-0.482194,-0.0118999999999999,0.1213769999999999,-0.518304,0.0110399999999999,-0.160988,-0.856594,-0.00948,0.134667,-0.894904,-0.0182299999999999,1
136,0.011562,0.7699860000000001,0.0977239999999999,-0.168603,0.571146,0.0859489999999999,-0.285563,0.805446,-0.01946,0.195377,0.578326,0.1075819999999999,0.316607,0.806996,0.0281699999999999,-0.318183,1.062396,-0.10441,0.377397,1.0205959999999998,-0.05776,-0.079577,0.004532,-0.00045,0.079577,-0.004532,0.0004499999999999,-0.155946,-0.483984,-0.01096,0.122267,-0.5179739999999999,0.0113099999999999,-0.160083,-0.8555839999999999,-0.00865,0.135887,-0.896454,-0.01645,1
137,0.0109109999999999,0.7709820000000001,0.103162,-0.168903,0.570032,0.086885,-0.285883,0.805962,-0.01785,0.1948269999999999,0.578752,0.10973,0.3154969999999999,0.807512,0.03226,-0.318383,1.062212,-0.1028,0.376627,1.021412,-0.0530799999999999,-0.079477,0.0043179999999999,-0.0005899999999999,0.0794769999999999,-0.004318,0.00059,-0.15527,-0.485638,-0.0105099999999999,0.1230069999999999,-0.517638,0.01137,-0.159256,-0.854638,-0.0079899999999999,0.136367,-0.8978079999999999,-0.01485,1
138,0.0104334999999999,0.77214,0.107815,-0.1689805,0.5691900000000001,0.08808,-0.2862305,0.8066200000000001,-0.0162249999999999,0.1943995,0.57948,0.111749,0.3146095,0.80802,0.035765,-0.3186505,1.06204,-0.100825,0.3760394999999999,1.02234,-0.0493949999999999,-0.0793495,0.004237,-0.0005549999999999,0.0793495,-0.0042369999999999,0.0005549999999999,-0.1537925,-0.48427,-0.010185,0.1236195,-0.5175099999999999,0.011055,-0.1585745,-0.8542099999999999,-0.0072249999999999,0.1366394999999999,-0.89883,-0.0132149999999999,1
139,0.0099595,0.773491,0.112422,-0.1691015,0.568471,0.0894759999999999,-0.2867215,0.805161,-0.014275,0.1936284999999999,0.580101,0.113646,0.3137685,0.808221,0.038965,-0.3190715,1.061991,-0.098585,0.3754485,1.0234910000000002,-0.046265,-0.0792285,0.0041059999999999,-0.000425,0.0792285,-0.0041059999999999,0.0004249999999999,-0.1530435,-0.486359,-0.009995,0.1239685,-0.517289,0.0102749999999999,-0.1582265,-0.854369,-0.006565,0.1367685,-0.899879,-0.011845,1
140,0.0094865,0.7749254999999999,0.116592,-0.1693925,0.5678055,0.0909,-0.2872725,0.8033555,-0.012245,0.1931975,0.5803855,0.115408,0.3128575,0.8083754999999999,0.041885,-0.3197925,1.0617955,-0.0962849999999999,0.3746275,1.0248955,-0.043475,-0.0791675,0.0039755,-0.000255,0.0791675,-0.0039755,0.000255,-0.1526495,-0.4884545,-0.0100149999999999,0.1243175,-0.5171045000000001,0.0101449999999999,-0.1581524999999999,-0.8544745,-0.005755,0.1366175,-0.9004945000000001,-0.0107849999999999,1
141,0.008803,0.775981,0.1203109999999999,-0.169875,0.567351,0.0922579999999999,-0.287885,0.801581,-0.01033,0.193235,0.580591,0.1169269999999999,0.311885,0.808641,0.0446099999999999,-0.320515,1.061631,-0.09407,0.373615,1.025831,-0.04085,-0.079095,0.0038709999999999,-7.999999999999674e-05,0.079095,-0.0038709999999999,7.999999999999674e-05,-0.1525929999999999,-0.4877189999999999,-0.01074,0.124255,-0.516839,0.0100099999999999,-0.1586449999999999,-0.8545389999999999,-0.0050199999999999,0.136355,-0.901139,-0.00994,1
142,0.008358,0.7760064999999999,0.1233189999999999,-0.170165,0.5671065,0.0934599999999999,-0.288255,0.7998265,-0.008655,0.1932549999999999,0.5805265,0.1182609999999999,0.311195,0.8087965,0.0467449999999999,-0.320835,1.0605365,-0.092375,0.372905,1.0260365,-0.038905,-0.079095,0.0038634999999999,9.4999999999984e-05,0.079095,-0.0038634999999999,-9.500000000001174e-05,-0.152609,-0.4884935,-0.011415,0.124255,-0.5173635,0.0100349999999999,-0.1588149999999999,-0.8555135,-0.004195,0.136165,-0.9020235,-0.008715,1
143,0.0084089999999999,0.776242,0.125975,-0.170144,0.567002,0.0945449999999999,-0.2882139999999999,0.798052,-0.00699,0.1932859999999999,0.5803820000000001,0.1200289999999999,0.3112359999999999,0.8090820000000001,0.04879,-0.320804,1.060622,-0.09105,0.372576,1.026322,-0.03706,-0.079096,0.003833,9.999999999982244e-06,0.079096,-0.003833,-1.000000000001e-05,-0.152339,-0.486698,-0.01214,0.1242659999999999,-0.517498,0.0105899999999999,-0.158984,-0.856408,-0.00343,0.135656,-0.901738,-0.00836,1
144,0.0084539999999999,0.7765285,0.128357,-0.170129,0.5667985,0.095429,-0.288189,0.7962185,-0.00553,0.193321,0.5802285,0.121744,0.311271,0.8093685,0.05066,-0.320789,1.0607085,-0.09026,0.372601,1.0265085,-0.0353799999999999,-0.079101,0.0038224999999999,-0.00023,0.079101,-0.0038224999999999,0.00023,-0.151648,-0.4861115,-0.01341,0.124271,-0.5174515,0.0110899999999999,-0.158969,-0.8566615,-0.0029599999999999,0.135591,-0.9024015,-0.00842,1
145,0.0078089999999999,0.776924,0.130282,-0.1708,0.5664039999999999,0.096008,-0.28885,0.794084,-0.0042399999999999,0.19313,0.580044,0.123291,0.31062,0.809464,0.05211,-0.32147,1.060494,-0.0897899999999999,0.37194,1.026694,-0.0342599999999999,-0.07893,0.003751,-0.00045,0.07893,-0.0037509999999999,0.00045,-0.151249,-0.485396,-0.0151199999999999,0.12384,-0.517696,0.0113699999999999,-0.15965,-0.857126,-0.0027299999999999,0.13491,-0.902526,-0.0083999999999999,1
146,0.00659,0.777121,0.131591,-0.171834,0.565851,0.096453,-0.289984,0.792271,-0.0034599999999999,0.192586,0.579991,0.123933,0.3094559999999999,0.8093509999999999,0.05264,-0.322874,1.060621,-0.0893399999999999,0.370446,1.026921,-0.0338099999999999,-0.078856,0.0036859999999999,-0.0005399999999999,0.078856,-0.003686,0.00054,-0.151566,-0.486779,-0.0166299999999999,0.123086,-0.517869,0.01179,-0.161114,-0.858069,-0.0026699999999999,0.133406,-0.902699,-0.0085899999999999,1
147,0.0053329999999999,0.7773285,0.132486,-0.173002,0.5655685,0.096675,-0.291282,0.7905585,-0.0030399999999999,0.191788,0.5799285000000001,0.124066,0.308248,0.8093785,0.0527799999999999,-0.324692,1.0607085,-0.0891899999999999,0.368598,1.0271085,-0.0336599999999999,-0.078848,0.0037704999999999,-0.0006299999999999,0.078848,-0.0037705,0.0006299999999999,-0.152128,-0.4878215,-0.01838,0.1222579999999999,-0.5179815,0.0119299999999999,-0.163272,-0.8588915,-0.00286,0.1311679999999999,-0.9026015,-0.0084299999999999,1
148,0.004135,0.7774599999999999,0.132741,-0.1741039999999999,0.56546,0.096805,-0.292284,0.7902399999999999,-0.00268,0.190976,0.57982,0.124022,0.307386,0.8094399999999999,0.05279,-0.3264239999999999,1.0608,-0.0893399999999999,0.367296,1.0274,-0.03367,-0.0788759999999999,0.00383,-0.0006299999999999,0.078876,-0.00383,0.0006299999999999,-0.1529979999999999,-0.48876,-0.02022,0.121016,-0.51809,0.0119499999999999,-0.1654739999999999,-0.85973,-0.00315,0.128426,-0.90225,-0.00816,1
149,0.0031014999999999,0.7783549999999999,0.132759,-0.1749955,0.5652550000000001,0.096965,-0.2932755,0.790035,-0.00248,0.1909945,0.5802449999999999,0.123993,0.3068045,0.809355,0.0528,-0.3283755,1.061095,-0.0899599999999999,0.3663145,1.028095,-0.0339599999999999,-0.0789145,0.0037669999999999,-0.0006299999999999,0.0789145,-0.0037669999999999,0.0006299999999999,-0.1541605,-0.490435,-0.0220599999999999,0.1195545,-0.518115,0.0119799999999999,-0.1679054999999999,-0.861235,-0.0035199999999999,0.1253645,-0.901115,-0.0087599999999999,1
150,0.0024414999999999,0.7793565,0.132775,-0.1754735,0.5650265,0.097112,-0.2938135,0.7898065,-0.0022699999999999,0.1914564999999999,0.5806565,0.123737,0.3065465,0.8091265,0.05251,-0.3299435,1.0611665,-0.09059,0.3657165,1.0283665,-0.0348799999999999,-0.0790065,0.0036584999999999,-0.0006299999999999,0.0790065,-0.0036585,0.00063,-0.1555615,-0.4912035,-0.0233099999999999,0.1178364999999999,-0.5180935,0.01241,-0.1704725,-0.8625835000000001,-0.0037699999999999,0.1224164999999999,-0.9005035,-0.0086999999999999,1
151,0.0023449999999999,0.7803295,0.132614,-0.175363,0.5649395,0.097077,-0.293903,0.7895095,-0.0026049999999999,0.192197,0.5809995,0.122896,0.306827,0.8088295,0.051285,-0.331223,1.0613695,-0.091555,0.365597,1.0282695,-0.0368749999999999,-0.079067,0.0035945,-0.0007349999999999,0.079067,-0.0035945,0.000735,-0.157086,-0.4901405,-0.0246349999999999,0.1161569999999999,-0.5181005,0.013285,-0.173022,-0.8639605,-0.0038549999999999,0.119667,-0.8999505,-0.0087549999999999,1
152,0.00249,0.7812725,0.132168,-0.175109,0.5649525000000001,0.096814,-0.293772,0.7895425,-0.00317,0.192498,0.5812925,0.121403,0.307658,0.8084525,0.04893,-0.332162,1.0614925,-0.09289,0.365878,1.0279925,-0.04016,-0.079108,0.0034855,-0.00075,0.079108,-0.0034854999999999,0.00075,-0.158666,-0.4895475,-0.02548,0.114838,-0.5180275,0.0143,-0.175176,-0.8652175,-0.0042099999999999,0.116448,-0.8989174999999999,-0.0092299999999999,1
153,0.0032129999999999,0.7821830000000001,0.13126,-0.174529,0.565103,0.0964129999999999,-0.293366,0.7898430000000001,-0.00376,0.192884,0.581593,0.1193659999999999,0.308934,0.808053,0.0456599999999999,-0.332616,1.061493,-0.09417,0.3665239999999999,1.027593,-0.04453,-0.079174,0.003407,-0.00071,0.079174,-0.003407,0.0007099999999999,-0.160185,-0.490187,-0.02601,0.113714,-0.517917,0.0152899999999999,-0.176818,-0.866487,-0.00474,0.1135939999999999,-0.894567,-0.01025,1
154,0.0043049999999999,0.78292,0.129889,-0.173744,0.5653699999999999,0.095845,-0.292854,0.79033,-0.0044999999999999,0.1934859999999999,0.58185,0.116951,0.310426,0.80748,0.0418,-0.332854,1.06175,-0.0951199999999999,0.367316,1.02705,-0.0499599999999999,-0.079266,0.003357,-0.0005899999999999,0.079266,-0.0033569999999999,0.00059,-0.161488,-0.4899699999999999,-0.0267199999999999,0.1125859999999999,-0.51788,0.01594,-0.177958,-0.86761,-0.0053699999999999,0.1111559999999999,-0.8941,-0.0105699999999999,1
155,0.0056974999999999,0.7835274999999999,0.128144,-0.1726685,0.5656774999999999,0.095174,-0.2919575,0.7907474999999999,-0.0053499999999999,0.1946725,0.5823775,0.113725,0.3120125,0.8065675,0.03727,-0.3324574999999999,1.0620875,-0.0959599999999999,0.3685225,1.0263875,-0.0564699999999999,-0.0793325,0.0033494999999999,-0.0003199999999999,0.0793325,-0.0033494999999999,0.00032,-0.1620325,-0.4899225,-0.02754,0.1117425,-0.5178825,0.01594,-0.1783115,-0.8682725,-0.00547,0.1095424999999999,-0.8940425000000001,-0.0106499999999999,1
156,0.0072865,0.784124,0.126188,-0.1713345,0.566234,0.0945629999999999,-0.2908385,0.791084,-0.0061,0.1956715,0.582574,0.1106079999999999,0.3137115,0.8056340000000001,0.0323099999999999,-0.3315485,1.0624239999999998,-0.0967399999999999,0.3698315,1.025524,-0.0635,-0.0793514999999999,0.0033769999999999,0.0001199999999999,0.0793514999999999,-0.003377,-0.00012,-0.1626365,-0.4905859999999999,-0.02812,0.1108415,-0.517886,0.0159799999999999,-0.1781745,-0.8689359999999999,-0.0056,0.1087015,-0.893846,-0.0107,1
157,0.009047,0.7846235,0.1243259999999999,-0.169992,0.5668235,0.094053,-0.289754,0.7913835,-0.0064549999999999,0.196876,0.5825835,0.107506,0.315226,0.8045535,0.027295,-0.330524,1.0627835,-0.097365,0.370716,1.0244835,-0.0706349999999999,-0.079356,0.0033495,0.0005749999999999,0.079356,-0.0033494999999999,-0.0005749999999999,-0.162902,-0.4913265,-0.027725,0.110536,-0.5178564999999999,0.015985,-0.177769,-0.8696765,-0.0053449999999999,0.1085459999999999,-0.8939165,-0.0105649999999999,1
158,0.010914,0.7846405,0.122921,-0.168727,0.5678105,0.093719,-0.288433,0.7921604999999999,-0.006615,0.197457,0.5823505,0.105145,0.316697,0.8037004999999999,0.022965,-0.329503,1.0630505,-0.0976949999999999,0.371647,1.0239505,-0.076905,-0.079347,0.0034095,0.0009349999999999,0.079347,-0.0034094999999999,-0.0009349999999999,-0.162858,-0.4916594999999999,-0.0264349999999999,0.110617,-0.5178395,0.0160849999999999,-0.176937,-0.8699895000000001,-0.0046249999999999,0.1092569999999999,-0.8981595,-0.010025,1
159,0.0120129999999999,0.784512,0.121574,-0.168314,0.568702,0.093499,-0.287857,0.793022,-0.0066349999999999,0.197423,0.582092,0.103381,0.317453,0.802902,0.018835,-0.329377,1.063342,-0.0975749999999999,0.371753,1.023442,-0.0825249999999999,-0.079343,0.0034529999999999,0.001145,0.079343,-0.0034529999999999,-0.0011449999999999,-0.162828,-0.490708,-0.0248249999999999,0.1106129999999999,-0.517838,0.015945,-0.1762179999999999,-0.870018,-0.0037749999999999,0.109493,-0.893728,-0.0103749999999999,1
160,0.0123125,0.784497,0.120472,-0.1683164999999999,0.569427,0.093405,-0.2878475,0.793897,-0.006425,0.1974024999999999,0.581897,0.101989,0.3174524999999999,0.802257,0.015295,-0.3293675,1.063747,-0.097035,0.3716625,1.023547,-0.087105,-0.0793425,0.0034479999999999,0.0012149999999999,0.0793425,-0.0034479999999999,-0.0012149999999999,-0.1627915,-0.490903,-0.022895,0.1106124999999999,-0.517753,0.0159549999999999,-0.1758115,-0.869683,-0.002625,0.1100525,-0.893923,-0.0105949999999999,1
161,0.0123174999999999,0.7844995,0.119466,-0.1682914999999999,0.5700695,0.09348,-0.2878225,0.7947995,-0.0060899999999999,0.1973975,0.5814695,0.100837,0.3174174999999999,0.8016895,0.01236,-0.3293225,1.0646194999999998,-0.0959499999999999,0.3716175,1.0231195,-0.09058,-0.0793175,0.0034784999999999,0.00129,0.0793175,-0.0034785,-0.0012899999999999,-0.1627305,-0.4910605,-0.0208899999999999,0.1106374999999999,-0.5177705,0.01603,-0.1757115,-0.8692405,-0.0014299999999999,0.1106074999999999,-0.8940505,-0.0108599999999999,1
162,0.012992,0.7844465,0.118668,-0.167597,0.5705965,0.093745,-0.287118,0.7955565,-0.005445,0.1980519999999999,0.5810065,0.099998,0.318072,0.8012365,0.010275,-0.328608,1.0656565,-0.0946249999999999,0.372262,1.0229565,-0.092985,-0.079242,0.0035345,0.001565,0.079242,-0.0035344999999999,-0.001565,-0.162213,-0.4893735,-0.0185549999999999,0.110792,-0.5178035,0.016305,-0.1749939999999999,-0.8688435,3.500000000000725e-05,0.111572,-0.8947835,-0.0118749999999999,1
163,0.0142779999999999,0.7843184999999999,0.11817,-0.166652,0.5709685,0.094083,-0.286112,0.7965684999999999,-0.0045999999999999,0.1987979999999999,0.5804885,0.099189,0.319328,0.8007785,0.0087899999999999,-0.327652,1.0663385,-0.09294,0.373018,1.0227385,-0.094,-0.079238,0.0036274999999999,0.002,0.079238,-0.0036274999999999,-0.002,-0.161731,-0.4895715,-0.01608,0.111258,-0.5178615,0.01633,-0.173683,-0.8686415000000001,0.00126,0.1131679999999999,-0.8957515,-0.0125699999999999,1
164,0.0159845,0.784175,0.1180439999999999,-0.1655915,0.571375,0.0946469999999999,-0.2849955,0.797435,-0.003285,0.1996244999999999,0.579995,0.0984699999999999,0.3205645,0.800415,0.0080549999999999,-0.3265355,1.066895,-0.090685,0.3737645,1.0224950000000002,-0.093665,-0.0791845,0.0037379999999999,0.0023949999999999,0.0791845,-0.003738,-0.002395,-0.1607815,-0.489815,-0.012825,0.1119345,-0.517915,0.0162849999999999,-0.1717315,-0.868195,0.0022849999999999,0.1156644999999999,-0.900695,-0.011825,1
165,0.0173585,0.7838685,0.118195,-0.1648075,0.5717085,0.095465,-0.2841635,0.7984785,-0.001705,0.2001564999999999,0.5793385,0.0978339999999999,0.3215065,0.8000385,0.007885,-0.3255235,1.0673185,-0.088005,0.3743665,1.0222185,-0.092625,-0.0790765,0.0037605,0.0027849999999999,0.0790765,-0.0037605,-0.002785,-0.1599435,-0.4877015,-0.009915,0.1128965,-0.5179615,0.0157449999999999,-0.1696415,-0.8680115,0.0037049999999999,0.1185565,-0.9013815,-0.011815,1
166,0.0184185,0.7835725,0.118631,-0.1642835,0.5720924999999999,0.096464,-0.2835405,0.7993125000000001,0.0001549999999999,0.2004095,0.5785825,0.097443,0.3221795,0.7997125,0.0082649999999999,-0.3248805,1.0676925000000002,-0.084845,0.3744895,1.0223925,-0.091345,-0.0789494999999999,0.0037725,0.003145,0.0789495,-0.0037724999999999,-0.003145,-0.1592235,-0.4853675,-0.007475,0.1141695,-0.5179175,0.0153149999999999,-0.1675815,-0.8674474999999999,0.0053249999999999,0.1216095,-0.9017875,-0.0116249999999999,1
167,0.019239,0.783167,0.1192869999999999,-0.163833,0.572327,0.0976699999999999,-0.283203,0.799847,0.0023699999999999,0.200417,0.577747,0.0972589999999999,0.322627,0.799307,0.0091299999999999,-0.324463,1.067887,-0.08137,0.374557,1.022287,-0.08986,-0.0787969999999999,0.0037219999999999,0.0035099999999999,0.0787969999999999,-0.003722,-0.00351,-0.158519,-0.482793,-0.00539,0.115527,-0.517663,0.0151399999999999,-0.165562,-0.867183,0.0071899999999999,0.124677,-0.902733,-0.01087,1
168,0.019834,0.7827225,0.120091,-0.16368,0.5724525,0.098811,-0.283073,0.8001325,0.00472,0.200677,0.5772125,0.097054,0.322877,0.7988625,0.0103,-0.324503,1.0680425,-0.0777399999999999,0.374507,1.0222425,-0.0882199999999999,-0.078737,0.0036274999999999,0.00379,0.078737,-0.0036274999999999,-0.0037899999999999,-0.157641,-0.4837375,-0.0029999999999999,0.1169969999999999,-0.5174275,0.01557,-0.163653,-0.8670074999999999,0.00911,0.127467,-0.9034675,-0.0093899999999999,1
169,0.020096,0.782262,0.120985,-0.163549,0.572452,0.0999729999999999,-0.28312,0.800192,0.0071849999999999,0.20091,0.5767120000000001,0.097177,0.32303,0.798522,0.0118149999999999,-0.32479,1.0682319999999998,-0.074065,0.37446,1.022232,-0.0858549999999999,-0.0786799999999999,0.003479,0.003975,0.07868,-0.0034789999999999,-0.003975,-0.156769,-0.484588,-0.000625,0.11838,-0.517138,0.0162549999999999,-0.16185,-0.8668279999999999,0.0111549999999999,0.12993,-0.903878,-0.0080449999999999,1
170,0.0201114999999999,0.7817855,0.1218789999999999,-0.1636835,0.5724555,0.1010489999999999,-0.2832775,0.8000755,0.0095349999999999,0.2011024999999999,0.5762355,0.0973769999999999,0.3230024999999999,0.7982655,0.0132149999999999,-0.3248075,1.0679655,-0.070645,0.3743125,1.0221655,-0.083395,-0.0786225,0.0032864999999999,0.0041749999999999,0.0786225,-0.0032864999999999,-0.004175,-0.1558775,-0.4865144999999999,0.0015249999999999,0.1196725,-0.5168145000000001,0.0169149999999999,-0.1602715,-0.8662044999999999,0.0131849999999999,0.1320024999999999,-0.9045045,-0.006795,1
171,0.0199864999999999,0.7814110000000001,0.1228539999999999,-0.1638285,0.5724710000000001,0.1020479999999999,-0.2836484999999999,0.800011,0.011685,0.2010615,0.5759110000000001,0.0976769999999999,0.3228915,0.798141,0.014515,-0.3249485,1.067721,-0.0674549999999999,0.3740215,1.022121,-0.080965,-0.0785515,0.003063,0.0043549999999999,0.0785515,-0.0030629999999999,-0.0043549999999999,-0.1552825,-0.487549,0.0033949999999999,0.1210814999999999,-0.516309,0.0178149999999999,-0.1589415,-0.8655689999999999,0.0151049999999999,0.1337815,-0.904989,-0.0054349999999999,1
172,0.0197645,0.781059,0.123747,-0.1642235,0.572439,0.103032,-0.2839595,0.799789,0.0136699999999999,0.2008405,0.575719,0.098116,0.3227105,0.798009,0.0156999999999999,-0.3253295,1.0674990000000002,-0.0646,0.3735805,1.021899,-0.07863,-0.0784504999999999,0.002841,0.0045099999999999,0.0784505,-0.0028409999999999,-0.0045099999999999,-0.1543614999999999,-0.4876709999999999,0.0047,0.1222405,-0.515831,0.0189499999999999,-0.1578215,-0.865121,0.01674,0.1352805,-0.905311,-0.0041499999999999,1
173,0.0193344999999999,0.7807445,0.124594,-0.1647955,0.5722944999999999,0.10389,-0.2844765,0.7996245,0.0153299999999999,0.2004434999999999,0.5755045,0.0987359999999999,0.3223034999999999,0.7979145,0.0168899999999999,-0.3259565,1.0673345,-0.0621899999999999,0.3730135,1.0217345,-0.07668,-0.0784135,0.0026764999999999,0.0045999999999999,0.0784135,-0.0026764999999999,-0.0045999999999999,-0.1537575,-0.4867054999999999,0.0058699999999999,0.1229535,-0.5154455,0.01999,-0.1570765,-0.8644455000000001,0.0183299999999999,0.1364235,-0.9054755,-0.0029899999999999,1
174,0.0188775,0.78054,0.125325,-0.1652385,0.57224,0.104593,-0.2848695,0.79957,0.0168149999999999,0.2002105,0.57543,0.099522,0.3219105,0.79787,0.017935,-0.3267095,1.0670799999999998,-0.0602749999999999,0.3723705,1.02168,-0.075015,-0.0784405,0.0026219999999999,0.004635,0.0784405,-0.0026219999999999,-0.004635,-0.1530765,-0.48649,0.006885,0.1234205,-0.51518,0.020795,-0.1564585,-0.86363,0.019735,0.1373805,-0.90553,-0.0010249999999999,1
175,0.0185504999999999,0.7803485,0.1259989999999999,-0.1654555,0.5722984999999999,0.1051619999999999,-0.2851155,0.7992985,0.0180199999999999,0.2000644999999999,0.5754684999999999,0.1002929999999999,0.3216845,0.7979284999999999,0.0189699999999999,-0.3270655,1.0668385,-0.05899,0.3721445,1.0217385,-0.07392,-0.0785045,0.0025524999999999,0.0046699999999999,0.0785045,-0.0025525,-0.00467,-0.1522025,-0.4829814999999999,0.0070899999999999,0.1237744999999999,-0.5149115,0.0214999999999999,-0.1558645,-0.8628415,0.0209999999999999,0.1380345,-0.9049815,0.0018599999999999,1
176,0.0182519999999999,0.780133,0.126656,-0.165749,0.5723929999999999,0.1055919999999999,-0.2853489999999999,0.799003,0.01891,0.200011,0.5755629999999999,0.101048,0.321521,0.7980229999999999,0.0198599999999999,-0.327329,1.066633,-0.05803,0.371931,1.021633,-0.0730899999999999,-0.078591,0.002458,0.0046599999999999,0.078591,-0.002458,-0.0046599999999999,-0.151454,-0.479477,0.00711,0.1240109999999999,-0.514817,0.0221099999999999,-0.155443,-0.861647,0.02198,0.138851,-0.904667,0.0034899999999999,1
177,0.0179724999999999,0.7799465,0.127257,-0.1658995,0.5722965,0.106069,-0.2855395,0.7983865,0.0195849999999999,0.2000405,0.5757065,0.101726,0.3214605,0.7981364999999999,0.0206349999999999,-0.3274895,1.0665465,-0.057355,0.3717305,1.0215465,-0.0723149999999999,-0.0786305,0.0022734999999999,0.004635,0.0786304999999999,-0.0022735,-0.004635,-0.1509335,-0.4819735,0.0077049999999999,0.1241505,-0.5146235,0.0230249999999999,-0.1549845,-0.8610035,0.022655,0.1394905,-0.9046235,0.0040949999999999,1
178,0.017743,0.7797970000000001,0.127767,-0.166065,0.572157,0.106442,-0.285705,0.7978970000000001,0.0200999999999999,0.199945,0.575907,0.1022339999999999,0.321275,0.798217,0.0211699999999999,-0.3276249999999999,1.066387,-0.05684,0.371495,1.021387,-0.0716999999999999,-0.0786549999999999,0.0021189999999999,0.0046299999999999,0.078655,-0.002119,-0.0046299999999999,-0.1504249999999999,-0.479863,0.00741,0.124145,-0.514463,0.0238099999999999,-0.154739,-0.859793,0.0233599999999999,0.139875,-0.904293,0.00514,1
179,0.0175039999999999,0.779822,0.12811,-0.166106,0.572102,0.106677,-0.2859359999999999,0.797582,0.0204399999999999,0.1998339999999999,0.576132,0.1025749999999999,0.321114,0.7984020000000001,0.0215299999999999,-0.327766,1.066402,-0.0564999999999999,0.371204,1.021302,-0.07122,-0.078714,0.00203,0.0045499999999999,0.078714,-0.0020299999999999,-0.0045499999999999,-0.150023,-0.4773679999999999,0.0069599999999999,0.1240439999999999,-0.514258,0.0244699999999999,-0.1545679999999999,-0.858748,0.02387,0.140144,-0.904268,0.0058999999999999,1
180,0.017142,0.7798415000000001,0.12833,-0.1662259999999999,0.5720215000000001,0.106792,-0.286246,0.7973615000000001,0.0206349999999999,0.199624,0.5763215,0.102938,0.320844,0.7985415,0.0217749999999999,-0.3279959999999999,1.0664015,-0.0563049999999999,0.370834,1.0213015,-0.070985,-0.0787839999999999,0.0019724999999999,0.004365,0.0787839999999999,-0.0019725,-0.004365,-0.149699,-0.4775085,0.006605,0.1240139999999999,-0.5140585,0.024685,-0.15443,-0.8578285,0.024175,0.140274,-0.9039285,0.0067949999999999,1
181,0.016839,0.779833,0.128537,-0.1662539999999999,0.571923,0.106847,-0.286464,0.7973129999999999,0.02068,0.199396,0.576463,0.103263,0.320576,0.798623,0.02197,-0.328094,1.0663630000000002,-0.05627,0.370566,1.021363,-0.07087,-0.078826,0.001906,0.0042399999999999,0.078826,-0.0019059999999999,-0.0042399999999999,-0.1494079999999999,-0.480747,0.00659,0.124076,-0.513907,0.02482,-0.154298,-0.8570770000000001,0.02431,0.140426,-0.903737,0.00709,1
182,0.0165164999999999,0.7798445,0.1287309999999999,-0.1662665,0.5718345,0.106854,-0.2866765,0.7973645,0.0206,0.1991635,0.5765545000000001,0.103605,0.3203034999999999,0.7986745000000001,0.0221699999999999,-0.3281565,1.0663945,-0.05649,0.3703535,1.0214945,-0.07086,-0.0788535,0.0018574999999999,0.0042399999999999,0.0788534999999999,-0.0018575,-0.0042399999999999,-0.1491295,-0.4840655,0.00653,0.1241934999999999,-0.5137855,0.02484,-0.1540995,-0.8566754999999999,0.02426,0.1406234999999999,-0.9035555,0.00731,1
183,0.0161519999999999,0.779868,0.128973,-0.166233,0.571768,0.106849,-0.286833,0.797438,0.02046,0.198937,0.576688,0.1039699999999999,0.320057,0.798718,0.0224099999999999,-0.328113,1.0664079999999998,-0.05678,0.3702169999999999,1.021508,-0.0708899999999999,-0.078887,0.001821,0.0042399999999999,0.078887,-0.0018209999999999,-0.0042399999999999,-0.148712,-0.483952,0.0060399999999999,0.124337,-0.513802,0.02459,-0.153782,-0.8563919999999999,0.02418,0.140807,-0.903452,0.0074499999999999,1
184,0.0158185,0.779904,0.1292479999999999,-0.1661955,0.571734,0.1068249999999999,-0.2869555,0.797534,0.0202799999999999,0.1987345,0.576784,0.104265,0.3198145,0.7987339999999999,0.0227399999999999,-0.3280355,1.066404,-0.05709,0.3700845,1.021604,-0.07091,-0.0788745,0.00182,0.0042099999999999,0.0788745,-0.00182,-0.00421,-0.1483395,-0.483686,0.0058399999999999,0.1245545,-0.513806,0.0242799999999999,-0.1535575,-0.855996,0.02398,0.1410845,-0.903676,0.00694,1
185,0.015591,0.7799895,0.1294239999999999,-0.166099,0.5717895,0.106704,-0.286969,0.7976894999999999,0.0200299999999999,0.198611,0.5769394999999999,0.1044969999999999,0.319671,0.7988295,0.0230599999999999,-0.327859,1.0665595,-0.05745,0.370081,1.0217595,-0.07098,-0.078871,0.0018234999999999,0.00408,0.078871,-0.0018234999999999,-0.00408,-0.147865,-0.4830305,0.00561,0.124841,-0.5138505,0.0239299999999999,-0.15325,-0.8556405,0.0236599999999999,0.141531,-0.9035705,0.0063399999999999,1
186,0.0153789999999999,0.780081,0.1295029999999999,-0.165994,0.571851,0.1065159999999999,-0.286964,0.797821,0.0197199999999999,0.198516,0.577071,0.1046329999999999,0.319596,0.798891,0.0232999999999999,-0.327634,1.0666909999999998,-0.05783,0.370106,1.021991,-0.0711199999999999,-0.078856,0.0018379999999999,0.0039099999999999,0.078856,-0.0018379999999999,-0.0039099999999999,-0.147372,-0.480779,0.0051199999999999,0.125166,-0.513909,0.02365,-0.152855,-0.855429,0.02326,0.141836,-0.903439,0.0059599999999999,1
187,0.015331,0.7802295,0.1294119999999999,-0.1658549999999999,0.5719695,0.1062109999999999,-0.286935,0.7979795000000001,0.0193249999999999,0.198455,0.5772395,0.1046829999999999,0.3197149999999999,0.7990095,0.0232849999999999,-0.327385,1.0668395,-0.058325,0.370175,1.0220395,-0.071485,-0.0788249999999999,0.0018665,0.0036849999999999,0.0788249999999999,-0.0018665,-0.003685,-0.146863,-0.4818105,0.0046949999999999,0.125545,-0.5139905,0.0232449999999999,-0.152428,-0.8552704999999999,0.0228149999999999,0.1422749999999999,-0.9034805,0.0040449999999999,1
188,0.0153715,0.780381,0.129101,-0.1656774999999999,0.572111,0.10575,-0.2868675,0.798131,0.0187549999999999,0.1984725,0.577421,0.10456,0.3198625,0.799141,0.023035,-0.3271275,1.066891,-0.0589849999999999,0.3703225,1.0221909999999998,-0.071985,-0.0788025,0.001955,0.0034349999999999,0.0788025,-0.0019549999999999,-0.0034349999999999,-0.1463855,-0.483199,0.0042949999999999,0.1259625,-0.514159,0.0226949999999999,-0.1518255,-0.855049,0.0221949999999999,0.1427225,-0.903369,0.0034949999999999,1
189,0.015524,0.7805709999999999,0.128574,-0.165449,0.572341,0.1052029999999999,-0.286689,0.7983509999999999,0.0180799999999999,0.198541,0.5776509999999999,0.104292,0.320131,0.7993709999999999,0.0226299999999999,-0.326769,1.067121,-0.0598299999999999,0.370671,1.022421,-0.0726,-0.078821,0.0020949999999999,0.0031999999999999,0.078821,-0.0020949999999999,-0.0032,-0.146027,-0.485819,0.0039099999999999,0.126341,-0.514279,0.02207,-0.151253,-0.8548790000000001,0.0213899999999999,0.143261,-0.903139,0.0028799999999999,1
190,0.0157825,0.7808025,0.127729,-0.1651205,0.5725625,0.104425,-0.2864405,0.7985725,0.01716,0.1987095,0.5779125,0.103842,0.3204795,0.7996025,0.02193,-0.3263905,1.0672525,-0.06109,0.3710595,1.0226525,-0.07347,-0.0788794999999999,0.0022345,0.0030199999999999,0.0788794999999999,-0.0022345,-0.0030199999999999,-0.1456295,-0.4871375,0.00342,0.1267995,-0.5141775000000001,0.02122,-0.1506424999999999,-0.8547475,0.02046,0.1437395,-0.9029075,0.00203,1
191,0.0160675,0.7810315,0.1267619999999999,-0.1648175,0.5727815,0.103471,-0.2861875,0.7987915,0.01602,0.1989425,0.5781715000000001,0.103234,0.3208625,0.7998315,0.02096,-0.3260375,1.0673815,-0.0626499999999999,0.3714925,1.0228815,-0.0745699999999999,-0.0789425,0.0023514999999999,0.0028799999999999,0.0789425,-0.0023514999999999,-0.0028799999999999,-0.1452925,-0.4891885,0.0028499999999999,0.1273225,-0.5143285,0.02025,-0.1499865,-0.8547385,0.0194,0.1440625,-0.9026185,0.00075,1
192,0.0163925,0.7812905,0.12579,-0.1645345,0.5730205,0.102493,-0.2859945,0.7990205,0.014685,0.1991955,0.5784705,0.102594,0.3212655,0.8000905,0.019985,-0.3256945,1.0673405,-0.0645049999999999,0.3719255,1.0229405,-0.075915,-0.0789955,0.0024985,0.002755,0.0789955,-0.0024985,-0.002755,-0.1448404999999999,-0.4898095,0.002175,0.1277855,-0.5145195,0.019275,-0.1494694999999999,-0.8543495,0.018575,0.1443555,-0.9020495,0.0001049999999999,1
193,0.016658,0.7815255,0.1247279999999999,-0.164271,0.5732655,0.1015199999999999,-0.285821,0.7992755,0.0132599999999999,0.1994289999999999,0.5786855,0.1018529999999999,0.321629,0.8003255,0.0189499999999999,-0.325411,1.0673055,-0.06668,0.3722789999999999,1.0230055,-0.07747,-0.079059,0.0026225,0.0026599999999999,0.079059,-0.0026225,-0.00266,-0.144434,-0.4919245,0.0015999999999999,0.128209,-0.5146845,0.0183099999999999,-0.148921,-0.8544645,0.0173899999999999,0.144759,-0.9019245,-0.00088,1
194,0.0168294999999999,0.7817430000000001,0.1236379999999999,-0.1640625,0.573493,0.100599,-0.2857225,0.7994730000000001,0.0117049999999999,0.1996075,0.5788530000000001,0.1011249999999999,0.3219275,0.800513,0.0178549999999999,-0.3252325,1.067133,-0.069105,0.3725375,1.023033,-0.079195,-0.0791175,0.002737,0.002555,0.0791175,-0.0027369999999999,-0.002555,-0.1440615,-0.491697,0.0008249999999999,0.1285474999999999,-0.514797,0.017515,-0.1484715,-0.854557,0.0162749999999999,0.1450875,-0.901857,-0.001845,1
195,0.0169344999999999,0.7819039999999999,0.122308,-0.1639325,0.573714,0.099646,-0.2856725,0.799644,0.00995,0.1997374999999999,0.578994,0.100368,0.3221375,0.800674,0.01664,-0.3251425,1.0668540000000002,-0.0717899999999999,0.3727275,1.022954,-0.0811699999999999,-0.0792075,0.002856,0.00251,0.0792074999999999,-0.0028559999999999,-0.0025099999999999,-0.1438535,-0.493876,0.00019,0.1288175,-0.515016,0.01672,-0.1480795,-0.854696,0.01514,0.1453475,-0.901936,-0.0029699999999999,1
196,0.016913,0.7820525,0.120865,-0.163907,0.5737925,0.0986,-0.285727,0.7995525,0.00813,0.1997629999999999,0.5792425,0.09949,0.322273,0.8007625,0.01521,-0.325177,1.0664125,-0.07454,0.3727729999999999,1.0228125,-0.0832099999999999,-0.079313,0.0028994999999999,0.00251,0.079313,-0.0028994999999999,-0.0025099999999999,-0.143619,-0.4934175,-0.0006199999999999,0.1290929999999999,-0.5152275,0.01589,-0.147706,-0.8547475,0.01396,0.1455729999999999,-0.9017975,-0.0041799999999999,1
197,0.016874,0.7821950000000001,0.119399,-0.163903,0.573835,0.097579,-0.285783,0.799415,0.00627,0.1997769999999999,0.579495,0.098508,0.322437,0.8008350000000001,0.0137,-0.325223,1.065775,-0.0774699999999999,0.372777,1.022775,-0.0855499999999999,-0.079407,0.0029199999999999,0.00251,0.079407,-0.0029199999999999,-0.0025099999999999,-0.143372,-0.492955,-0.0013999999999999,0.129347,-0.515445,0.0151,-0.14728,-0.8550249999999999,0.01294,0.145857,-0.901635,-0.0056499999999999,1
198,0.016807,0.782359,0.1178879999999999,-0.163899,0.573859,0.096471,-0.285869,0.7992090000000001,0.0042849999999999,0.1998109999999999,0.579729,0.097435,0.322571,0.8008890000000001,0.012075,-0.325309,1.065119,-0.080655,0.372731,1.022619,-0.088005,-0.079491,0.002908,0.0024349999999999,0.0794909999999999,-0.002908,-0.0024349999999999,-0.143148,-0.493721,-0.001865,0.129591,-0.515591,0.0142049999999999,-0.14693,-0.8553109999999999,0.0118649999999999,0.1461609999999999,-0.901441,-0.007175,1
199,0.016664,0.7825460000000001,0.116464,-0.163918,0.5738960000000001,0.095453,-0.286038,0.798936,0.002305,0.199772,0.580026,0.096477,0.322622,0.800946,0.010475,-0.3254579999999999,1.0645859999999998,-0.083845,0.372672,1.022486,-0.090395,-0.079552,0.0028709999999999,0.0023549999999999,0.079552,-0.0028709999999999,-0.0023549999999999,-0.142983,-0.494904,-0.002335,0.129742,-0.515754,0.013305,-0.1466489999999999,-0.8557239999999999,0.010825,0.146262,-0.901324,-0.0084349999999999,1
200,0.0165034999999999,0.7827365000000001,0.114873,-0.1639175,0.5739265,0.0945179999999999,-0.2861975,0.7986765,0.000365,0.1997225,0.5803165,0.095605,0.3226525,0.8010165,0.0087849999999999,-0.3256475,1.0638865,-0.087085,0.3726925,1.0223865,-0.0930149999999999,-0.0796024999999999,0.0028675,0.0022449999999999,0.0796024999999999,-0.0028674999999999,-0.0022449999999999,-0.1429235,-0.4963835,-0.0028849999999999,0.1298824999999999,-0.5158435,0.012435,-0.1463475,-0.8561534999999999,0.0099549999999999,0.1464825,-0.9010335,-0.009525,1
201,0.0163395,0.7829375000000001,0.113224,-0.1639135,0.5739675,0.093505,-0.2863335,0.7983775,-0.0016649999999999,0.1996465,0.5806775,0.0947,0.3227065,0.8010575,0.007025,-0.3258635,1.0632275,-0.0903249999999999,0.3727165,1.0223275,-0.095675,-0.0796465,0.0028385,0.002165,0.0796465,-0.0028385,-0.002165,-0.1428975,-0.4989925,-0.0036549999999999,0.1300065,-0.5159225000000001,0.011525,-0.1460965,-0.8567225,0.008965,0.1468364999999999,-0.9009625,-0.0110649999999999,1
202,0.0162064999999999,0.783109,0.111437,-0.1639125,0.573989,0.092438,-0.2864825,0.797939,-0.0039549999999999,0.1995775,0.580989,0.093705,0.3228175,0.801089,0.005005,-0.3262025,1.062299,-0.0941249999999999,0.3727475,1.021799,-0.098725,-0.0796975,0.002794,0.002115,0.0796975,-0.0027939999999999,-0.0021149999999999,-0.1428255,-0.500111,-0.0044849999999999,0.1301675,-0.5160009999999999,0.010695,-0.1458355,-0.857391,0.008025,0.1471674999999999,-0.900911,-0.0123149999999999,1
203,0.0160615,0.7833165,0.1095509999999999,-0.1639515,0.5740265,0.0911949999999999,-0.2866815,0.7975165,-0.006265,0.1994884999999999,0.5813165,0.09255,0.3229785,0.8010965,0.0028549999999999,-0.3267115,1.0614265,-0.098175,0.3727385,1.0214265,-0.1019249999999999,-0.0797585,0.0027644999999999,0.0020649999999999,0.0797585,-0.0027645,-0.002065,-0.1427315,-0.4999435,-0.0053549999999999,0.1302685,-0.5161735000000001,0.0098149999999999,-0.1456205,-0.8583535,0.0067949999999999,0.1474585,-0.9007935,-0.014035,1
204,0.0159615,0.7836385,0.1074239999999999,-0.1639645,0.5741285,0.089817,-0.2869245,0.7969885,-0.0089899999999999,0.1994155,0.5816585,0.0912,0.3232555,0.8010585,0.0003199999999999,-0.3273445,1.0597485,-0.10274,0.3727454999999999,1.0207484999999998,-0.10564,-0.0798555,0.0027814999999999,0.0019899999999999,0.0798555,-0.0027814999999999,-0.0019899999999999,-0.1424375,-0.4997315,-0.00644,0.1303855,-0.5160515,0.00891,-0.1453964999999999,-0.8592615,0.00558,0.1477155,-0.9004615,-0.01511,1
205,0.0158989999999999,0.7839794999999999,0.105201,-0.164034,0.5743695,0.088337,-0.287164,0.7965395,-0.0120299999999999,0.199426,0.5819995,0.089707,0.323646,0.8008795,-0.00245,-0.328014,1.0580295000000002,-0.10804,0.372676,1.0179295000000002,-0.10983,-0.079976,0.0028565,0.0019399999999999,0.079976,-0.0028564999999999,-0.0019399999999999,-0.142196,-0.4998904999999999,-0.0076199999999999,0.130446,-0.5159905,0.0080099999999999,-0.145243,-0.8600205000000001,0.00442,0.147926,-0.9000905,-0.0161399999999999,1
206,0.015844,0.7841235000000001,0.102163,-0.164145,0.5746235000000001,0.086644,-0.287555,0.7960835,-0.0154449999999999,0.199375,0.5823235,0.087987,0.324055,0.8005535,-0.005805,-0.328795,1.0560535,-0.113695,0.372425,1.0149535,-0.1141549999999999,-0.080125,0.0028945,0.002005,0.080125,-0.0028945,-0.002005,-0.142037,-0.4995465,-0.0091849999999999,0.130435,-0.5157565,0.006805,-0.145204,-0.8603365,0.0031549999999999,0.148035,-0.8996865,-0.017235,1
