sb224sc-HT22-VT27/4dt907/src/ml-research/a11/datafiles/labeled_files/A99_kinect_mirrored.csv
FrameNo,nose_3d_x,nose_3d_y,nose_3d_z,left_shoulder_3d_x,left_shoulder_3d_y,left_shoulder_3d_z,left_elbow_3d_x,left_elbow_3d_y,left_elbow_3d_z,right_shoulder_3d_x,right_shoulder_3d_y,right_shoulder_3d_z,right_elbow_3d_x,right_elbow_3d_y,right_elbow_3d_z,left_wrist_3d_x,left_wrist_3d_y,left_wrist_3d_z,right_wrist_3d_x,right_wrist_3d_y,right_wrist_3d_z,left_hip_3d_x,left_hip_3d_y,left_hip_3d_z,right_hip_3d_x,right_hip_3d_y,right_hip_3d_z,left_knee_3d_x,left_knee_3d_y,left_knee_3d_z,right_knee_3d_x,right_knee_3d_y,right_knee_3d_z,left_ankle_3d_x,left_ankle_3d_y,left_ankle_3d_z,right_ankle_3d_x,right_ankle_3d_y,right_ankle_3d_z,activity_label
0,1.033211,0.788183,0.099698,0.8093780000000002,0.568153,0.093438,0.647038,0.756653,0.055167,1.194418,0.5796629999999999,0.085362,1.332738,0.780243,0.011844,0.639308,1.021023,-0.021586,1.327618,1.063523,-0.034723,0.920656,-0.001197,-0.00067,1.079344,0.001197,0.0006699999999999,0.8682480000000001,-0.516007,0.036819,1.140478,-0.472207,-0.001606,0.849628,-0.889757,0.019381,1.150428,-0.853977,0.0181759999999999,0
1,1.033271,0.788187,0.0990895,0.8096300000000001,0.5689069999999999,0.0934165,0.64706,0.7566369999999999,0.0546295,1.19431,0.579677,0.0850685,1.3327,0.7801969999999999,0.0114845,0.63917,1.020907,-0.0228825,1.32727,1.063807,-0.0351925,0.920648,-0.001096,-0.0008424999999999,1.079352,0.001096,0.0008425,0.86831,-0.515923,0.0365545,1.14065,-0.477313,-0.0009694999999999,0.84996,-0.8914930000000001,0.0180825,1.1508,-0.847303,0.0195515,0
2,1.0332279999999998,0.788336,0.0983795,0.80769,0.565736,0.0918995,0.6471,0.756876,0.0537455,1.19407,0.579966,0.0844294999999999,1.33246,0.780246,0.0109115,0.63917,1.021086,-0.0235885,1.32669,1.064486,-0.0360544999999999,0.920669,-0.0010969999999999,-0.0007614999999999,1.079331,0.0010969999999999,0.0007614999999999,0.8682799999999999,-0.5159940000000001,0.0361655,1.14107,-0.469174,-0.0017365,0.84992,-0.891254,0.0174855,1.1507,-0.847334,0.0198554999999999,0
3,1.033354,0.7883015,0.097916,0.808315,0.5667515,0.091732,0.647445,0.7566415,0.052901,1.194115,0.5799015,0.08424,1.332265,0.7822015,0.009146,0.639705,1.0215115,-0.024478,1.326095,1.0649115,-0.0365379999999999,0.920702,-0.0010895,-0.000896,1.079298,0.0010895,0.000896,0.868445,-0.5159985,0.036005,1.141175,-0.4681085,-0.0027189999999999,0.8500150000000001,-0.8913385,0.01714,1.150405,-0.8532385,0.018937,0
4,1.0334305,0.788353,0.0977305,0.8087385,0.567533,0.0920314999999999,0.6474885,0.7567429999999999,0.0527104999999999,1.1940385,0.579993,0.0843305,1.3320085,0.781833,0.0094014999999999,0.6398485,1.021563,-0.0251645,1.3258785,1.065263,-0.0367225,0.9206705,-0.001145,-0.0008515,1.0793295,0.001145,0.0008514999999999,0.8686285000000001,-0.516037,0.0362804999999999,1.1413185,-0.484097,0.0021794999999999,0.8497685,-0.891417,0.0174864999999999,1.1507785,-0.8537170000000001,0.0189104999999999,0
5,1.0334465,0.788536,0.0974335,0.8074355,0.565346,0.0908625,0.6475355,0.757016,0.0523075,1.1939054999999998,0.580216,0.0841985,1.3317155,0.781726,0.0091825,0.6400255,1.022056,-0.0260084999999999,1.3255555,1.065656,-0.0370905,0.9206935,-0.001197,-0.0010024999999999,1.0793065,0.001197,0.0010025,0.8689555,-0.516094,0.0362495,1.1411755,-0.474544,-9.499999999995625e-06,0.8489755,-0.893314,0.0163225,1.1518955,-0.850664,0.0191845,0
6,1.0333745,0.7884844999999999,0.0972675,0.8080375000000001,0.5665144999999999,0.0909455,0.6475775000000001,0.7568244999999999,0.0520355,1.1937175,0.5801044999999999,0.0841895,1.3315375,0.7815844999999999,0.0090585,0.6400275,1.0218445,-0.0265494999999999,1.3251975,1.0655445,-0.0373125,0.9206965,-0.0013635,-0.0010755,1.0793035,0.0013635,0.0010755,0.8692575000000001,-0.5162155,0.0366655,1.1413475,-0.4703355,-0.0009194999999999,0.8494575000000001,-0.8964255000000001,0.0191895,1.1512175,-0.8519255,0.0197435,0
7,1.033116,0.788374,0.097217,0.8080350000000001,0.567324,0.091194,0.647615,0.7566440000000001,0.0518489999999999,1.193655,0.5801940000000001,0.0842449999999999,1.331345,0.7816240000000001,0.0092969999999999,0.639405,1.020634,-0.025338,1.324355,1.066134,-0.036668,0.920662,-0.001322,-0.001135,1.079338,0.001322,0.0011349999999999,0.868825,-0.5161859999999999,0.036348,1.140925,-0.468916,-0.002051,0.850715,-0.8939459999999999,0.0189069999999999,1.150875,-0.8507159999999999,0.0188929999999999,0
8,1.033054,0.7883924999999999,0.0970325,0.807791,0.5670525,0.0909745,0.647681,0.7566325,0.0516255,1.193561,0.5803125,0.0842315,1.331121,0.7817825,0.0091285,0.639381,1.0207225,-0.0254944999999999,1.323901,1.0665225,-0.0367075,0.920664,-0.0013325,-0.0012085,1.079336,0.0013325,0.0012085,0.868851,-0.5161975,0.0363665,1.140951,-0.4680875,-0.0020384999999999,0.850811,-0.8942975,0.0192925,1.150811,-0.8500775,0.0189625,0
9,1.0329585,0.788561,0.096843,0.8074825,0.566371,0.0907309999999999,0.6477425,0.756691,0.051452,1.1934625,0.5805509999999999,0.0842159999999999,1.3309225,0.782011,0.0089849999999999,0.6394225,1.020411,-0.025611,1.3234425,1.066911,-0.036688,0.9206645,-0.001433,-0.001285,1.0793355,0.001433,0.0012849999999999,0.8688825,-0.516279,0.0363989999999999,1.1409625,-0.468399,-0.001926,0.8508725,-0.895009,0.0196779999999999,1.1507525,-0.850519,0.0189549999999999,0
10,1.032808,0.788703,0.096678,0.807245,0.566403,0.090678,0.647795,0.756723,0.051314,1.193345,0.580773,0.084205,1.330715,0.782243,0.00886,0.639425,1.020173,-0.0256309999999999,1.322975,1.067373,-0.036622,0.920671,-0.001522,-0.0013359999999999,1.079329,0.001522,0.001336,0.868845,-0.516347,0.036441,1.140965,-0.4693569999999999,-0.0017489999999999,0.8509450000000001,-0.895687,0.019935,1.150675,-0.850857,0.018938,0
11,1.032597,0.7888815,0.0965245,0.806921,0.5663215,0.0906744999999999,0.647851,0.7568015,0.0511854999999999,1.193201,0.5810215000000001,0.0842054999999999,1.330481,0.7824215000000001,0.0088264999999999,0.639371,1.0200515,-0.0255705,1.322501,1.0677515,-0.0365145,0.920678,-0.0016335,-0.0013804999999999,1.079322,0.0016335,0.0013804999999999,0.868761,-0.5164384999999999,0.0364305,1.140961,-0.4709285,-0.0015105,0.850941,-0.8962684999999999,0.0202014999999999,1.150591,-0.8506385,0.0190114999999999,0
12,1.0323275,0.7890415000000001,0.096345,0.8065305,0.5662415000000001,0.090664,0.6478805000000001,0.7569115000000001,0.051033,1.1930305,0.5812415,0.084133,1.3302305,0.7827015,0.008795,0.6393005,1.0199414999999998,-0.025347,1.3220505,1.0681415,-0.0364149999999999,0.9206845,-0.0017345,-0.001417,1.0793155,0.0017345,0.001417,0.8686505,-0.5165285,0.036431,1.1409505,-0.4698584999999999,-0.0018219999999999,0.8507905,-0.8968484999999999,0.020154,1.1503805,-0.8509485,0.018873,0
13,1.032009,0.7892685,0.0961435,0.806233,0.5662585,0.0908015,0.647913,0.7570485,0.0509355,1.192863,0.5814685,0.0840695,1.329973,0.7830285,0.0087405,0.639213,1.0199684999999998,-0.0250284999999999,1.321653,1.0685685,-0.0362875,0.92069,-0.0018375,-0.0014534999999999,1.07931,0.0018375,0.0014535,0.868553,-0.5166014999999999,0.0364315,1.140953,-0.4692715,-0.0020294999999999,0.850743,-0.8971214999999999,0.0198415,1.150073,-0.8507914999999999,0.0186825,0
14,1.0316105,0.7895045,0.0959305,0.8058145,0.5660945000000001,0.0908694999999999,0.6479845,0.7572445,0.0508975,1.1926845,0.5816945,0.0839755,1.3297345,0.7833045,0.0086764999999999,0.6391344999999999,1.0200045,-0.0245785,1.3213345,1.0689045,-0.0361415,0.9207025,-0.0019295,-0.0014485,1.0792974999999998,0.0019294999999999,0.0014484999999999,0.8684445000000001,-0.5166955,0.0364904999999999,1.1409745,-0.4700855,-0.0020464999999999,0.8506644999999999,-0.8969955,0.0199565,1.1498345,-0.8505755,0.0184125,0
15,1.031093,0.789762,0.0957244999999999,0.805363,0.565802,0.0908915,0.648093,0.757512,0.0509575,1.192483,0.581942,0.0838975,1.329503,0.783532,0.0086365,0.6390629999999999,1.020162,-0.0242075,1.321063,1.069162,-0.0359855,0.920719,-0.0020039999999999,-0.0014165,1.079281,0.0020039999999999,0.0014165,0.868353,-0.5167780000000001,0.0365285,1.140863,-0.4698679999999999,-0.0022304999999999,0.850573,-0.8968280000000001,0.0205795,1.149573,-0.8503080000000001,0.0182125,0
16,1.030521,0.790027,0.0955895,0.805016,0.565357,0.0908595,0.6482859999999999,0.7579170000000001,0.0511274999999999,1.192306,0.5821670000000001,0.0837784999999999,1.329296,0.783607,0.0086004999999999,0.6389560000000001,1.019037,-0.0237995,1.320856,1.069437,-0.0357735,0.920729,-0.002077,-0.0013425,1.079271,0.002077,0.0013424999999999,0.868276,-0.516833,0.0365954999999999,1.140796,-0.469973,-0.0023435,0.850476,-0.896863,0.0204414999999999,1.149436,-0.850053,0.0180484999999999,0
17,1.029877,0.790259,0.0954744999999999,0.8047690000000001,0.565239,0.0908664999999999,0.648509,0.758379,0.0513524999999999,1.192159,0.582359,0.0836435,1.329109,0.783659,0.0086094999999999,0.638919,1.018119,-0.0234675,1.320699,1.069719,-0.0354745,0.920736,-0.002143,-0.0012375,1.079264,0.002143,0.0012374999999999,0.868239,-0.516901,0.0366714999999999,1.140729,-0.470291,-0.0024475,0.850299,-0.897081,0.0202964999999999,1.149329,-0.849881,0.0178734999999999,0
18,1.0291235,0.790269,0.095392,0.8045275000000001,0.565339,0.090917,0.6487875000000001,0.758729,0.051745,1.1920275,0.582359,0.083522,1.3289275,0.783659,0.008693,0.6390375000000001,1.018519,-0.022995,1.3205775,1.069719,-0.035146,0.9207425,-0.002143,-0.0011079999999999,1.0792575,0.002143,0.0011079999999999,0.8681975,-0.516901,0.036787,1.1406875,-0.471041,-0.0025179999999999,0.8501675000000001,-0.896681,0.019753,1.1491875,-0.850271,0.017528,0
19,1.028327,0.790279,0.0953115,0.804316,0.565599,0.0911394999999999,0.649126,0.759079,0.0522165,1.191926,0.582359,0.0833945,1.328746,0.783659,0.0088154999999999,0.639236,1.019019,-0.0218725,1.320496,1.069719,-0.0347665,0.920738,-0.002143,-0.0009695,1.079262,0.002143,0.0009694999999999,0.868186,-0.516901,0.0368784999999999,1.140666,-0.471581,-0.0026555,0.849996,-0.896291,0.0191544999999999,1.148986,-0.850201,0.0174554999999999,0
20,1.027475,0.790279,0.0952145,0.804069,0.565709,0.0913705,0.649459,0.759449,0.0527175,1.191829,0.582359,0.0832384999999999,1.328599,0.783659,0.0088895,0.639429,1.019019,-0.0207534999999999,1.320429,1.069719,-0.0343954999999999,0.920737,-0.002143,-0.0008244999999999,1.079263,0.002143,0.0008245,0.868189,-0.516901,0.0369645,1.140499,-0.472121,-0.0029134999999999,0.849859,-0.895601,0.0188965,1.148799,-0.850201,0.0173575,1
21,1.02658,0.7904469999999999,0.095289,0.8038330000000001,0.5655169999999999,0.091567,0.6498630000000001,0.759957,0.0533859999999999,1.191753,0.582507,0.083159,1.328453,0.7837069999999999,0.0090579999999999,0.639643,1.019387,-0.019664,1.320373,1.069887,-0.03392,0.920745,-0.00217,-0.000686,1.079255,0.00217,0.0006859999999999,0.868173,-0.5169330000000001,0.037064,1.140393,-0.473643,-0.002914,0.849753,-0.895113,0.0186729999999999,1.148793,-0.8500930000000001,0.0170589999999999,1
22,1.025623,0.7906325,0.095436,0.803697,0.5655625,0.091794,0.6502870000000001,0.7605325000000001,0.054077,1.191687,0.5826425,0.083076,1.328307,0.7836525,0.009216,0.639907,1.0192724999999998,-0.0185909999999999,1.320307,1.0700725,-0.033434,0.920753,-0.0021885,-0.0005449999999999,1.079247,0.0021885,0.000545,0.868147,-0.5169575,0.03716,1.140247,-0.4750975,-0.0029669999999999,0.849657,-0.8949475,0.018402,1.148787,-0.8500775,0.016779,1
23,1.024692,0.7908225,0.0956025,0.8036170000000001,0.5657825,0.0920335,0.650727,0.7611224999999999,0.0548075,1.191637,0.5828424999999999,0.0830275,1.328167,0.7836725,0.0094145,0.640217,1.0189225,-0.0172155,1.320267,1.0703225,-0.0330095,0.920746,-0.0022264999999999,-0.0004115,1.079254,0.0022265,0.0004115,0.8681369999999999,-0.5169975,0.0372315,1.139987,-0.4765975,-0.0030644999999999,0.8496270000000001,-0.8945975,0.0181855,1.148827,-0.8499275000000001,0.0164925,1
24,1.0238695,0.7910175,0.0958,0.8035925000000002,0.5660475,0.0923219999999999,0.6511825,0.7617775,0.0555539999999999,1.1916525,0.5830575,0.0829959999999999,1.3280625,0.7837375000000001,0.0096319999999999,0.6405624999999999,1.0182875,-0.015817,1.3203125,1.0704875,-0.032653,0.9207305,-0.0022585,-0.000267,1.0792695,0.0022585,0.0002669999999999,0.8681625,-0.5170324999999999,0.037333,1.1396825,-0.4763325,-0.003266,0.8496825,-0.8943724999999999,0.0176439999999999,1.1488525,-0.8498724999999999,0.0162659999999999,1
25,1.02313,0.7912,0.0961875,0.803594,0.56616,0.0925225,0.651634,0.7627200000000001,0.0564135,1.191684,0.5832200000000001,0.0830075,1.327984,0.78369,0.0099684999999999,0.640954,1.0182099999999998,-0.0142405,1.320374,1.0707099999999998,-0.0322965,0.920714,-0.002275,-0.0001304999999999,1.079286,0.002275,0.0001304999999999,0.868124,-0.51705,0.0374555,1.139494,-0.4757099999999999,-0.0032855,0.849724,-0.89379,0.0172915,1.148884,-0.84975,0.0160874999999999,1
26,1.022474,0.791382,0.0966095,0.8036490000000001,0.5664720000000001,0.0928975,0.6520790000000001,0.7637320000000001,0.0572735,1.191729,0.5833820000000001,0.0829965,1.327899,0.783692,0.0102425,0.6413690000000001,1.018332,-0.0126024999999999,1.320449,1.070932,-0.0320685,0.920696,-0.00229,-1.0499999999996625e-05,1.079304,0.00229,1.0500000000003562e-05,0.868089,-0.517048,0.0375915,1.139329,-0.475528,-0.0032894999999999,0.8497890000000001,-0.893238,0.0169035,1.148939,-0.8496079999999999,0.0159305,1
27,1.021924,0.7915935000000001,0.0971,0.803742,0.5668635,0.093126,0.6524920000000001,0.7646635,0.058038,1.191792,0.5835335,0.082992,1.327872,0.7837735,0.0104019999999999,0.641812,1.0184435,-0.011111,1.320532,1.0710435,-0.031915,0.920675,-0.0023165,0.000119,1.079325,0.0023165,-0.000119,0.868072,-0.5170665,0.037632,1.139272,-0.4774265,-0.003235,0.849872,-0.8924165,0.0170659999999999,1.148892,-0.8489964999999999,0.015905,1
28,1.0214375,0.791817,0.097583,0.8038425000000001,0.567307,0.093515,0.6528825,0.765627,0.058728,1.1918825,0.5836969999999999,0.082959,1.3278625,0.783887,0.010475,0.6420125,1.018257,-0.0103059999999999,1.3206725,1.071157,-0.031817,0.9206505,-0.002355,0.0002349999999999,1.0793495,0.002355,-0.0002349999999999,0.8680525,-0.5171030000000001,0.037673,1.1392625,-0.480323,-0.0031769999999999,0.8498025000000001,-0.892463,0.017309,1.1488425,-0.848963,0.01582,1
29,1.021012,0.792041,0.098066,0.804005,0.567861,0.093865,0.653265,0.766501,0.0593669999999999,1.191965,0.5838409999999999,0.082922,1.327865,0.784001,0.0105089999999999,0.642145,1.017971,-0.009483,1.320875,1.071271,-0.031814,0.920629,-0.002395,0.0003729999999999,1.079371,0.002395,-0.000373,0.868055,-0.5171490000000001,0.0377,1.139305,-0.482309,-0.003199,0.849715,-0.892139,0.017157,1.148775,-0.848979,0.015669,1
30,1.020672,0.7922955,0.0984945,0.804242,0.5684655,0.0941795,0.6535820000000001,0.7672755,0.0598755,1.192052,0.5839555,0.0828425,1.327892,0.7840655,0.0104735,0.6422920000000001,1.0178455000000002,-0.0087425,1.321162,1.0712455,-0.0318885,0.920604,-0.0024275,0.0004795,1.079396,0.0024275,-0.0004795,0.868062,-0.5171945,0.0376625,1.139422,-0.4851745,-0.0030714999999999,0.849652,-0.8923545,0.0167205,1.148692,-0.8493245,0.0154815,1
31,1.0204085,0.7925289999999999,0.0989635,0.8044765,0.569149,0.0944105,0.6538565000000001,0.767899,0.0603645,1.1921365,0.5840489999999999,0.0827685,1.3279865,0.7840889999999999,0.0104105,0.6424464999999999,1.018399,-0.0078384999999999,1.3215365,1.071199,-0.0319665,0.9205815,-0.002463,0.0005905,1.0794185,0.002463,-0.0005905,0.8680464999999999,-0.5172410000000001,0.0376215,1.1394465,-0.486451,-0.0031305,0.8497965000000001,-0.892331,0.0167495,1.1486065,-0.849641,0.0153805,1
32,1.020204,0.7927035,0.0994175,0.8045820000000001,0.5696435000000001,0.0943475,0.654082,0.7684435000000001,0.0608275,1.192222,0.5840535,0.0826605,1.328092,0.7840435,0.0103475,0.6425720000000001,1.0186935,-0.0075155,1.322002,1.0711935,-0.0320504999999999,0.920557,-0.0024735,0.0007045,1.079443,0.0024735,-0.0007044999999999,0.8680320000000001,-0.5172665,0.0375655,1.139562,-0.4877465,-0.0030984999999999,0.8499019999999999,-0.8923464999999999,0.0166865,1.148612,-0.8500065,0.0152115,1
33,1.0200095,0.7928845,0.0999144999999999,0.8047664999999999,0.5701345,0.0944504999999999,0.6542365,0.7689345,0.0612535,1.1922965,0.5840445,0.0825455,1.3281965,0.7839944999999999,0.0102835,0.6425665,1.0183845,-0.0073025,1.3225465,1.0710845,-0.0322335,0.9205315,-0.0024925,0.0008174999999999,1.0794685,0.0024925,-0.0008174999999999,0.8679865,-0.5173055000000001,0.0375135,1.1396765,-0.4891355,-0.0030885,0.8498365,-0.8932255,0.0161665,1.1486865,-0.8503055,0.0150565,1
34,1.019835,0.7929345,0.100253,0.804972,0.5702245,0.094673,0.654352,0.7690245,0.061483,1.192362,0.5840545,0.08238,1.328282,0.7839345,0.010117,0.6423220000000001,1.0175745,-0.0073429999999999,1.323152,1.0709745,-0.0325749999999999,0.920505,-0.0025065,0.000919,1.079495,0.0025065,-0.0009189999999999,0.868012,-0.5173455,0.037458,1.139822,-0.4910055,-0.0031209999999999,0.8499019999999999,-0.8941455,0.01576,1.148842,-0.8510855,0.014866,1
35,1.0196385,0.7930045,0.1005754999999999,0.8052165,0.5707245,0.0950975,0.6544265,0.7690745,0.0615625,1.1924065,0.5840445,0.0821794999999999,1.3284165,0.7838645,0.0098424999999999,0.6420165,1.0170644999999998,-0.0073755,1.3238165,1.0708645,-0.0331165,0.9204835,-0.0025205,0.0010154999999999,1.0795165,0.0025204999999999,-0.0010155,0.8680565,-0.5173555,0.0373875,1.1400865,-0.4921055,-0.0032285,0.8499265,-0.8950155,0.0153435,1.1491065,-0.8517255,0.0146614999999999,1
36,1.019454,0.7930965,0.100837,0.805435,0.5712765,0.095446,0.654485,0.7689265,0.061508,1.192425,0.5840365,0.081938,1.328535,0.7837265,0.009495,0.641385,1.0161565,-0.007391,1.324495,1.0706565,-0.033852,0.920462,-0.0025265,0.0010879999999999,1.079538,0.0025265,-0.0010879999999999,0.8680950000000001,-0.5173235,0.037291,1.140345,-0.4923935,-0.0033699999999999,0.8499550000000001,-0.8954635,0.014993,1.149265,-0.8525235,0.014355,1
37,1.019273,0.7931665,0.1007945,0.8056220000000001,0.5719165,0.0956735,0.6545019999999999,0.7692565,0.0614554999999999,1.192432,0.5840365,0.0815045,1.328732,0.7837265,0.0087735,0.6408320000000001,1.0162565,-0.0075744999999999,1.325182,1.0704565,-0.0351205,0.920433,-0.0025265,0.0011425,1.079567,0.0025265,-0.0011424999999999,0.868062,-0.5173235,0.0371595,1.140582,-0.4923935,-0.0034725,0.849862,-0.8954635,0.0149455,1.149362,-0.8529835,0.0137945,1
38,1.019096,0.7932565,0.1007504999999999,0.8058910000000001,0.5725265,0.0958585,0.6544209999999999,0.7695065,0.0614055,1.192391,0.5840365,0.0810805,1.328961,0.7837265,0.0079674999999999,0.640181,1.0169565,-0.0080275,1.325891,1.0702565000000002,-0.0368385,0.920414,-0.0025265,0.0011975,1.079586,0.0025265,-0.0011974999999999,0.867971,-0.5173235,0.0369865,1.140751,-0.4923935,-0.0036044999999999,0.8496310000000001,-0.8954635,0.0149045,1.149311,-0.8532435,0.0132395,1
39,1.0188879999999998,0.7933565,0.1006745,0.80614,0.5732065,0.0959365,0.65431,0.7695565,0.0612795,1.19233,0.5840565,0.0804985,1.32919,0.7835965,0.0069455,0.63933,1.0174565000000002,-0.0089654999999999,1.32653,1.0698565000000002,-0.0390215,0.920405,-0.0025265,0.0012855,1.079595,0.0025265,-0.0012854999999999,0.86788,-0.5173235,0.0367485,1.14091,-0.4924235,-0.0038884999999999,0.84935,-0.8945535,0.0151285,1.1490999999999998,-0.8532435,0.0128375,1
40,1.0186799999999998,0.7937995,0.10048,0.806467,0.5742395,0.0958799999999999,0.654107,0.7689695,0.060688,1.192207,0.5839894999999999,0.079598,1.329717,0.7829695,0.005206,0.6386069999999999,1.0172895000000002,-0.0104599999999999,1.327297,1.0690895,-0.0422149999999999,0.920397,-0.0024255,0.00138,1.079603,0.0024255,-0.0013799999999999,0.867777,-0.5169305,0.036466,1.141117,-0.4918205,-0.0043219999999999,0.849237,-0.8937805,0.01537,1.148917,-0.8540005,0.012306,1
41,1.0184415,0.7943595,0.0999755,0.8067475,0.5753995,0.0956305,0.6537175,0.7683295,0.0596385,1.1920275,0.5838694999999999,0.0784395,1.3302475,0.7824494999999999,0.0029154999999999,0.6378675,1.0156295,-0.0125645,1.3279375,1.0683295,-0.0460244999999999,0.9203655,-0.0023495,0.0014095,1.0796345,0.0023495,-0.0014095,0.8676575,-0.5164005,0.0360485,1.1412975,-0.4913605,-0.0050634999999999,0.8490875,-0.8931205000000001,0.0155625,1.1487275,-0.8542605000000001,0.0119354999999999,1
42,1.018097,0.794993,0.0991115,0.807016,0.576633,0.0952825,0.653036,0.7676029999999999,0.0580765,1.191816,0.583743,0.0770195,1.330746,0.7819429999999999,-0.0001634999999999,0.6370560000000001,1.013843,-0.0154464999999999,1.328436,1.067443,-0.0509224999999999,0.92032,-0.0023109999999999,0.0014135,1.07968,0.0023109999999999,-0.0014134999999999,0.867516,-0.5156970000000001,0.0351995,1.141446,-0.490247,-0.0060845,0.848946,-0.8931370000000001,0.0155325,1.148686,-0.8543970000000001,0.0115595,1
43,1.0176809999999998,0.7958080000000001,0.0977545,0.807258,0.577968,0.0946865,0.6521779999999999,0.767058,0.0559724999999999,1.191558,0.583588,0.0752625,1.331208,0.781528,-0.0037885,0.636138,1.013568,-0.0191865,1.328828,1.066568,-0.0568205,0.920245,-0.002281,0.0014384999999999,1.0797549999999998,0.002281,-0.0014385,0.8673379999999999,-0.514972,0.0340365,1.141598,-0.488882,-0.0072774999999999,0.848878,-0.892872,0.0151664999999999,1.148498,-0.854242,0.0109294999999999,1
44,1.0170545,0.7964875,0.0958,0.8073445,0.5788875,0.093872,0.6511945,0.7664675000000001,0.053281,1.1911745,0.5834875,0.072946,1.3316145,0.7810975,-0.00816,0.6344945,1.0132975,-0.024014,1.3291945,1.0652975,-0.063613,0.9201445,-0.0022715,0.001473,1.0798555,0.0022715,-0.0014729999999999,0.8672645,-0.5139024999999999,0.03246,1.1416845,-0.4874325,-0.0086919999999999,0.8487045,-0.8925725,0.014205,1.1483845,-0.8540924999999999,0.0100349999999999,1
45,1.0162165,0.796786,0.093102,0.8072845000000001,0.579666,0.092461,0.6500945,0.7659060000000001,0.0499099999999999,1.1906945,0.583366,0.070072,1.3320344999999998,0.780466,-0.0136589999999999,0.6328445,1.0122259999999998,-0.0297339999999999,1.3295645,1.063826,-0.071817,0.9200485,-0.002255,0.001548,1.0799515,0.002255,-0.001548,0.8670145,-0.512714,0.03027,1.1418045,-0.486204,-0.0106049999999999,0.8484645,-0.8917839999999999,0.013344,1.1482245,-0.854024,0.008987,1
46,1.0150815,0.796825,0.0895745,0.8070915,0.580185,0.0905225,0.6488214999999999,0.7650049999999999,0.0457425,1.1900615,0.583175,0.0667065,1.3322415,0.779645,-0.0200445,0.6311815000000001,1.010755,-0.0361554999999999,1.3298815,1.062055,-0.0809045,0.9199365,-0.002238,0.0015945,1.0800635,0.002238,-0.0015944999999999,0.8667215,-0.511515,0.0275265,1.1418915,-0.484895,-0.0130424999999999,0.8482115,-0.891035,0.0120755,1.1480715,-0.854295,0.0074065,1
47,1.0135679999999998,0.7968535,0.0848075,0.806817,0.5803834999999999,0.0879645,0.647347,0.7637735,0.0406465,1.189257,0.5830235,0.0626395,1.332367,0.7785635,-0.0272675,0.628687,1.0084835,-0.0437775,1.330147,1.0599835,-0.0908245,0.919809,-0.0022195,0.0016585,1.080191,0.0022194999999999,-0.0016585,0.866317,-0.5096465,0.0236095,1.141937,-0.4829365,-0.0159624999999999,0.848147,-0.8899565,0.0106775,1.147777,-0.8544865,0.0056464999999999,1
48,1.0119045,0.7969565000000001,0.079223,0.8064845,0.5804865,0.085052,0.6456045,0.7622765,0.034829,1.1883645,0.5828065,0.058249,1.3324545,0.7771465000000001,-0.0351109999999999,0.6260545,1.0056865,-0.052667,1.3303545,1.0574865,-0.1016699999999999,0.9196345,-0.0021555,0.001744,1.0803655,0.0021555,-0.0017439999999999,0.8657945,-0.5076434999999999,0.019056,1.1420545,-0.4809835,-0.0190159999999999,0.8480045,-0.8893534999999999,0.009055,1.1475245,-0.8542535,0.0036839999999999,1
49,1.010103,0.797188,0.073116,0.806084,0.580718,0.081822,0.6436740000000001,0.760698,0.028581,1.187414,0.582628,0.053652,1.332194,0.775548,-0.043231,0.6232139999999999,1.002208,-0.061716,1.330364,1.054518,-0.1129039999999999,0.919428,-0.002099,0.0018709999999999,1.080572,0.002099,-0.001871,0.865034,-0.506282,0.0139069999999999,1.142124,-0.479132,-0.022444,0.8476840000000001,-0.889122,0.0071389999999999,1.147054,-0.8540220000000001,0.0017969999999999,1
50,1.0080215,0.7975544999999999,0.0664865,0.8054615,0.5812145,0.0776854999999999,0.6415715,0.7589245,0.0216285,1.1863015,0.5825445,0.0488274999999999,1.3318615,0.7735645,-0.0517455,0.6202615,0.9986945,-0.0711885,1.3302415,1.0513145,-0.1250445,0.9191685,-0.0020854999999999,0.0020245,1.0808315,0.0020855,-0.0020244999999999,0.8641115,-0.5046555,0.0083295,1.1422415,-0.4771655,-0.0260465,0.8473215000000001,-0.8886255,0.0050765,1.1465015,-0.8535255,-0.0003354999999999,1
51,1.0058525,0.7975409999999999,0.059292,0.8047875,0.581881,0.073421,0.6395375000000001,0.7569009999999999,0.014023,1.1850575,0.5825009999999999,0.043766,1.3315275,0.771591,-0.060158,0.6170275000000001,0.993211,-0.081091,1.3301075,1.046661,-0.1373849999999999,0.9188855,-0.002094,0.002187,1.0811145,0.0020939999999999,-0.0021869999999999,0.8629975,-0.502729,0.002477,1.1425275,-0.475379,-0.030381,0.8469075,-0.887879,0.002666,1.1460375,-0.852819,-0.002762,1
52,1.003552,0.7971010000000001,0.0519045,0.8039700000000001,0.582461,0.0692885,0.63749,0.754551,0.0061505,1.18362,0.581821,0.0383545,1.3312,0.7696310000000001,-0.0687325,0.6136699999999999,0.986601,-0.0913795,1.32997,1.042191,-0.1496994999999999,0.91863,-0.002188,0.0023184999999999,1.08137,0.002188,-0.0023185,0.8618100000000001,-0.500069,-0.0035255,1.14299,-0.472309,-0.0349615,0.84659,-0.886749,2.4500000000000216e-05,1.14559,-0.851859,-0.0048775,1
53,1.0011625,0.7962935,0.04428,0.8030875,0.5829835,0.065161,0.6352575,0.7519534999999999,-0.0021119999999999,1.1822275,0.5811735,0.033024,1.3308475,0.7673635,-0.077496,0.6107375000000002,0.9804835,-0.101571,1.3297075,1.0376635,-0.162071,0.9184145,-0.0022675,0.002425,1.0815855,0.0022675,-0.002425,0.8605575,-0.4973465,-0.009806,1.1435675,-0.4693465,-0.039905,0.8462775,-0.8855165,-0.003011,1.1452274999999998,-0.8508665,-0.0070689999999999,1
54,0.9987660000000002,0.7951315,0.036648,0.802191,0.5832815,0.06131,0.6330110000000001,0.7490215,-0.010497,1.180731,0.5802915,0.0276189999999999,1.330471,0.7652614999999999,-0.085922,0.6077510000000002,0.9747215,-0.1117809999999999,1.329401,1.0331515,-0.174091,0.918197,-0.0023264999999999,0.002482,1.081803,0.0023265,-0.002482,0.8591710000000001,-0.4939485,-0.016382,1.1442709999999998,-0.4661585,-0.044931,0.8460210000000001,-0.8841685,-0.006075,1.144891,-0.8496685,-0.009695,1
55,0.9964965,0.793813,0.029163,0.8013494999999999,0.5835429999999999,0.0575689999999999,0.6306995,0.7460829999999999,-0.0191329999999999,1.1791795,0.5791829999999999,0.022247,1.3301995,0.762903,-0.094056,0.6046795,0.969013,-0.1226559999999999,1.3290695,1.028253,-0.186156,0.9179735,-0.002386,0.002516,1.0820265,0.0023859999999999,-0.0025159999999999,0.8577795,-0.490197,-0.022858,1.1453795,-0.462887,-0.05021,0.8457895,-0.882487,-0.009107,1.1448295,-0.8479070000000001,-0.0121269999999999,1
56,0.99449,0.792567,0.022206,0.800605,0.583977,0.053834,0.628555,0.7430570000000001,-0.0275189999999999,1.177785,0.5780770000000001,0.017048,1.330075,0.760657,-0.101994,0.602095,0.963327,-0.133254,1.328655,1.023127,-0.197994,0.917768,-0.002448,0.002525,1.082232,0.002448,-0.0025249999999999,0.8562350000000001,-0.4863029999999999,-0.0288309999999999,1.146695,-0.459553,-0.055745,0.8457450000000001,-0.880443,-0.011509,1.144785,-0.846013,-0.014739,1
57,0.9925035,0.79165,0.0151155,0.7994225,0.58176,0.0468745,0.6266525000000001,0.74019,-0.0361825,1.1764724999999998,0.5771000000000001,0.0114755,1.3300225,0.759,-0.1103195,0.5995825,0.95872,-0.1430695,1.3283425,1.01857,-0.2096095,0.9175315,-0.0025939999999999,0.0025065,1.0824685,0.002594,-0.0025065,0.8546225000000001,-0.48162,-0.0346975,1.1481024999999998,-0.45546,-0.0616185,0.8456925,-0.87761,-0.0143395,1.1449225,-0.84342,-0.0174485,1
58,0.9905815,0.7909309999999999,0.0080635,0.7982975000000001,0.5799909999999999,0.0399015,0.6249175,0.737281,-0.0449835,1.1751375,0.576271,0.0058035,1.3300375,0.7572409999999999,-0.1186895,0.5969275,0.954731,-0.1536295,1.3281875,1.014041,-0.2208895,0.9172065,-0.0027119999999999,0.0024105,1.0827935,0.002712,-0.0024105,0.8529175000000001,-0.4762789999999999,-0.0405115,1.1496175,-0.4506989999999999,-0.0676175,0.8456675000000001,-0.874639,-0.0170085,1.1451375,-0.840209,-0.0198165,1
59,0.988891,0.7898160000000001,0.0008195,0.797294,0.5785060000000001,0.0334415,0.6232139999999999,0.7347560000000001,-0.0535215,1.173914,0.575196,-7.149999999999995e-05,1.330184,0.755776,-0.1270195,0.594294,0.950476,-0.1643995,1.328254,1.009956,-0.2316595,0.916853,-0.002857,0.0023604999999999,1.083147,0.0028569999999999,-0.0023604999999999,0.851084,-0.470574,-0.0463995,1.151274,-0.445704,-0.0738254999999999,0.845724,-0.871304,-0.0197655,1.145394,-0.8365039999999999,-0.0222204999999999,1
60,0.987284,0.788883,-0.0065995,0.796451,0.5767829999999999,0.0264154999999999,0.621611,0.732123,-0.0619345,1.172751,0.573873,-0.0062395,1.330491,0.7544029999999999,-0.1353805,0.591951,0.947213,-0.1753805,1.328631,1.006603,-0.2423605,0.916519,-0.0030059999999999,0.0022814999999999,1.083481,0.0030059999999999,-0.0022814999999999,0.849151,-0.464477,-0.0522695,1.152901,-0.440147,-0.0796865,0.845781,-0.8674270000000001,-0.0226205,1.145741,-0.832527,-0.0250915,1
61,0.985855,0.7878280000000001,-0.014478,0.795686,0.574918,0.0189049999999999,0.620126,0.729588,-0.0705779999999999,1.171756,0.572848,-0.012517,1.330826,0.752758,-0.143955,0.589666,0.944098,-0.186835,1.329226,1.003578,-0.253115,0.916166,-0.0032079999999999,0.002194,1.083834,0.003208,-0.002194,0.847086,-0.457782,-0.058228,1.154666,-0.433942,-0.0857329999999999,0.845766,-0.8629319999999999,-0.025649,1.145956,-0.828052,-0.028044,1
62,0.9847095,0.786838,-0.0223255,0.7949615,0.572908,0.0110024999999999,0.6189515000000001,0.7272080000000001,-0.0791635,1.1709115,0.571878,-0.0187375,1.3313715,0.751368,-0.1521974999999999,0.5877915,0.941208,-0.1979075,1.3300815,1.000478,-0.2637175,0.9158415,-0.003407,0.0020935,1.0841585,0.003407,-0.0020935,0.8450215,-0.450822,-0.0639875,1.1566515,-0.427272,-0.0917844999999999,0.8457415,-0.858162,-0.0291115,1.1462415,-0.823202,-0.0311085,1
63,0.983715,0.7857225,-0.0302915,0.794431,0.5707725,0.0026864999999999,0.617971,0.7249225,-0.0877755,1.170141,0.5711324999999999,-0.0248655,1.332031,0.7494525,-0.1603965,0.586101,0.9371425,-0.2091165,1.331311,0.9977125,-0.2739365,0.915554,-0.0035915,0.0019825,1.084446,0.0035914999999999,-0.0019825,0.842901,-0.4438975,-0.0694005,1.158631,-0.4207575,-0.0977555,0.8457910000000001,-0.8528175,-0.0325965,1.146621,-0.8178875,-0.0342135,1
64,0.98282,0.784521,-0.0382755,0.793875,0.568261,-0.0059495,0.6172150000000001,0.722881,-0.0963555,1.169555,0.570691,-0.0309435,1.332695,0.747331,-0.1683805,0.5846549999999999,0.933611,-0.2198405,1.332885,0.995211,-0.2837305,0.915331,-0.0037779999999999,0.0018604999999999,1.084669,0.003778,-0.0018604999999999,0.8407950000000001,-0.436569,-0.0748985,1.160395,-0.413469,-0.1034055,0.845835,-0.847289,-0.0360785,1.147055,-0.812339,-0.0374085,1
65,0.9819945,0.7830790000000001,-0.046498,0.7934225,0.565709,-0.014776,0.6165625,0.720839,-0.104929,1.1689525,0.570319,-0.036985,1.3335125,0.745189,-0.17619,0.5835825,0.929739,-0.23065,1.3350225,0.992729,-0.29383,0.9151445,-0.0039,0.00174,1.0848555,0.0039,-0.00174,0.8387925,-0.429451,-0.080258,1.1621024999999998,-0.406271,-0.108805,0.8458625000000001,-0.841371,-0.040261,1.1475425,-0.8065209999999999,-0.040718,1
66,0.981449,0.7814145,-0.0546335,0.793547,0.5653645,-0.0208825,0.6160670000000001,0.7183944999999999,-0.1135915,1.168347,0.5693644999999999,-0.0428805,1.335037,0.7401645,-0.1843814999999999,0.582727,0.9254045,-0.2417214999999999,1.337487,0.9874845,-0.3039914999999999,0.914996,-0.0039845,0.0015595,1.085004,0.0039845,-0.0015595,0.836817,-0.4221654999999999,-0.0857495,1.163867,-0.3998355,-0.1141955,0.845957,-0.8356155000000001,-0.0443685,1.148057,-0.8007555000000001,-0.0440805,1
67,0.9808865,0.7794065,-0.063053,0.7936205000000001,0.5644765,-0.027487,0.6154805,0.7157765,-0.122569,1.1677105,0.5681165,-0.048996,1.3361205,0.7361265,-0.192099,0.5821205,0.9210965,-0.252929,1.3399905,0.9829465,-0.313899,0.9148945,-0.0041324999999999,0.0014079999999999,1.0851055,0.0041324999999999,-0.001408,0.8348905,-0.4156335,-0.091275,1.1654505,-0.3933235,-0.119609,0.8461205,-0.8296334999999999,-0.048734,1.1485405,-0.7948635,-0.047613,1
68,0.980303,0.777377,-0.071674,0.793717,0.5629569999999999,-0.034612,0.615157,0.7128570000000001,-0.13172,1.167007,0.567037,-0.0553889999999999,1.337117,0.7327570000000001,-0.19961,0.581547,0.916117,-0.26489,1.342517,0.977177,-0.32357,0.914838,-0.0042379999999999,0.0012689999999999,1.085162,0.004238,-0.0012689999999999,0.833107,-0.409083,-0.096658,1.1668569999999998,-0.386773,-0.12486,0.846257,-0.8236429999999999,-0.053228,1.148977,-0.7889330000000001,-0.051258,1
69,0.9798285,0.775437,-0.0805315,0.7938965,0.5613969999999999,-0.0418625,0.6148665000000001,0.710057,-0.1410535,1.1663865,0.566467,-0.0619925,1.3383965,0.730007,-0.2074135,0.5810865000000001,0.911857,-0.2767435,1.3452765,0.971497,-0.3333335,0.9147365,-0.004205,0.0011064999999999,1.0852635,0.004205,-0.0011064999999999,0.8314465,-0.402263,-0.1019755,1.1683065,-0.379953,-0.1301835,0.8464465,-0.817453,-0.0578864999999999,1.1493365,-0.782573,-0.0546605,1
70,0.979657,0.77359,-0.089467,0.794377,0.5603,-0.049186,0.615127,0.70625,-0.150447,1.165867,0.56533,-0.068809,1.339447,0.7269800000000001,-0.215437,0.5808070000000001,0.90682,-0.288947,1.348237,0.96572,-0.343057,0.914702,-0.004062,0.0008699999999999,1.085298,0.0040619999999999,-0.00087,0.830017,-0.39527,-0.107432,1.169997,-0.3737399999999999,-0.135617,0.846937,-0.81112,-0.063023,1.150137,-0.7758999999999999,-0.058526,1
71,0.9797345,0.7713679999999999,-0.0994715,0.7950825,0.557698,-0.0579975,0.6156125,0.702638,-0.1608825,1.1654225,0.564258,-0.0764755,1.3410825,0.724078,-0.2241125,0.5804525,0.901428,-0.3027725,1.3515425,0.959928,-0.3536224999999999,0.9146495,-0.0039819999999999,0.0006404999999999,1.0853505,0.0039819999999999,-0.0006405,0.8281825,-0.3885619999999999,-0.1133945,1.1717825,-0.367692,-0.1415425,0.8475925,-0.8042320000000001,-0.0684605,1.1511225,-0.7686120000000001,-0.0629705,1
72,0.9799955,0.76925,-0.1097575,0.7959134999999999,0.55525,-0.0668955,0.6161235,0.69899,-0.1718785,1.1650735,0.5625600000000001,-0.0844925,1.3429035,0.72169,-0.2334385,0.5801835,0.89671,-0.3170485,1.3549235,0.95094,-0.3647585,0.9146255,-0.00389,0.0004525,1.0853745,0.00389,-0.0004524999999999,0.8263335,-0.38243,-0.1186145,1.1737435,-0.36213,-0.1467585,0.8482435,-0.7974199999999999,-0.0739985,1.1519935,-0.76144,-0.0674955,1
73,0.9804095000000002,0.76683,-0.1209735,0.7970385,0.5528500000000001,-0.0762444999999999,0.6167385000000001,0.69516,-0.1838965,1.1648385,0.5608,-0.0929315,1.3450385,0.71758,-0.2429265,0.5799785,0.8920899999999999,-0.3321965,1.3583785,0.94263,-0.3762664999999999,0.9145555,-0.00375,0.0003984999999999,1.0854445,0.0037499999999999,-0.0003985,0.8242085,-0.37433,-0.1244685,1.1758085,-0.35442,-0.1525965,0.8490385,-0.78989,-0.0798375,1.1529985,-0.75413,-0.0726825,1
74,0.980869,0.7649900000000001,-0.132516,0.7982480000000001,0.55008,-0.086502,0.617418,0.6915800000000001,-0.196799,1.164538,0.55903,-0.102176,1.346878,0.7112499999999999,-0.253249,0.5797380000000001,0.8872,-0.348949,1.361838,0.93491,-0.388279,0.914531,-0.0035,0.000196,1.085469,0.0035,-0.000196,0.822048,-0.36595,-0.130612,1.177908,-0.34646,-0.159029,0.8498680000000001,-0.7818400000000001,-0.085649,1.154088,-0.74648,-0.078452,1
75,0.981052,0.7626649999999999,-0.149984,0.799274,0.5485450000000001,-0.101727,0.617874,0.6880649999999999,-0.215453,1.163994,0.557585,-0.116874,1.347924,0.707705,-0.268043,0.579224,0.8829150000000001,-0.371813,1.365214,0.929525,-0.406443,0.914749,-0.0031849999999999,0.0001639999999999,1.085251,0.003185,-0.000164,0.819754,-0.3568949999999999,-0.142056,1.179994,-0.338045,-0.170793,0.850544,-0.7734049999999999,-0.096879,1.155124,-0.738445,-0.089594,1
76,0.981199,0.762135,-0.1684455,0.8004,0.548305,-0.1183934999999999,0.61837,0.6863650000000001,-0.2356605,1.16288,0.555035,-0.1329845,1.34868,0.704685,-0.2846205,0.57865,0.8800350000000001,-0.3958405,1.36848,0.925455,-0.4262305,0.915002,-0.0027049999999999,0.0001234999999999,1.084998,0.002705,-0.0001234999999999,0.8128299999999999,-0.342615,-0.1606334999999999,1.1847,-0.325565,-0.1885705,0.8461600000000001,-0.762955,-0.1153285,1.15914,-0.729355,-0.1071175,1
77,0.9813465,0.76147,-0.186752,0.8016814999999999,0.5489900000000001,-0.134566,0.6189914999999999,0.6844600000000001,-0.256192,1.1617915,0.55244,-0.148646,1.3492015,0.70159,-0.301532,0.5778515,0.874,-0.419132,1.3714915,0.92181,-0.446682,0.9152185,-0.0021199999999999,5.900000000000349e-05,1.0847815,0.00212,-5.900000000000349e-05,0.8060415,-0.32863,-0.1792389999999999,1.1894015,-0.31328,-0.206592,0.8418815,-0.75208,-0.133509,1.1631315,-0.72048,-0.124898,1
78,0.981466,0.7599,-0.204932,0.802885,0.55022,-0.150117,0.619685,0.6821,-0.276912,1.160605,0.54958,-0.163912,1.348815,0.6977800000000001,-0.318552,0.5769949999999999,0.8678600000000001,-0.442052,1.374065,0.9173,-0.467252,0.915463,-0.00162,7.699999999999374e-05,1.084537,0.00162,-7.700000000000762e-05,0.799375,-0.31567,-0.197562,1.193915,-0.30161,-0.224202,0.837475,-0.7417199999999999,-0.151452,1.167115,-0.71231,-0.142146,1
79,0.9813725,0.75814,-0.2230349999999999,0.8038985000000001,0.55012,-0.165898,0.6200585000000001,0.68011,-0.297645,1.1592985,0.54717,-0.178977,1.3481885,0.69421,-0.335785,0.5762785,0.86176,-0.464385,1.3764585,0.91157,-0.488235,0.9156165,-0.0011899999999999,0.000175,1.0843835,0.0011899999999999,-0.0001749999999999,0.7926985,-0.30354,-0.215745,1.1979385,-0.2902,-0.241555,0.8328385,-0.73203,-0.168654,1.1706185,-0.7047399999999999,-0.1592279999999999,1
80,0.981026,0.75662,-0.240245,0.8049100000000001,0.5486599999999999,-0.181736,0.6202300000000001,0.6777599999999999,-0.317465,1.15786,0.54455,-0.193655,1.34712,0.68931,-0.352525,0.57557,0.85532,-0.485635,1.37807,0.90572,-0.508895,0.915792,-0.0008599999999999,0.0003049999999999,1.084208,0.0008599999999999,-0.0003049999999999,0.78635,-0.29191,-0.233655,1.20151,-0.27897,-0.258345,0.8281499999999999,-0.72314,-0.185053,1.1737099999999998,-0.69729,-0.175728,1
81,0.9805235,0.75475,-0.257325,0.8057135,0.54753,-0.197523,0.6202135,0.6751,-0.336825,1.1562935,0.54218,-0.208434,1.3459534999999998,0.68408,-0.368765,0.5748635,0.84889,-0.506505,1.3791835,0.90253,-0.528865,0.9159155,-0.00057,0.000345,1.0840845,0.0005699999999999,-0.000345,0.7802935,-0.28118,-0.251345,1.2046335,-0.26727,-0.2752449999999999,0.8235635,-0.71424,-0.200992,1.1764735,-0.68964,-0.192321,1
82,0.9800425,0.752505,-0.273445,0.8064074999999999,0.546375,-0.212659,0.6201775,0.671885,-0.354885,1.1547775,0.5394049999999999,-0.223046,1.3450075,0.679945,-0.3848749999999999,0.5741775,0.841915,-0.526445,1.3801075,0.897175,-0.548535,0.9161775,-0.000345,0.0002649999999999,1.0838225,0.0003449999999999,-0.000265,0.7746075,-0.270135,-0.2689749999999999,1.2075875,-0.255635,-0.291835,0.8185675,-0.705175,-0.217061,1.1789875,-0.682465,-0.20855,1
83,0.979497,0.74952,-0.289535,0.807188,0.54413,-0.227189,0.620158,0.66775,-0.371995,1.153298,0.53639,-0.237428,1.343878,0.67813,-0.400865,0.573448,0.8357,-0.544885,1.380568,0.89138,-0.567105,0.916406,-0.0003599999999999,0.0003549999999999,1.083594,0.0003599999999999,-0.0003549999999999,0.769058,-0.25954,-0.286255,1.210178,-0.24519,-0.307945,0.813498,-0.69613,-0.233293,1.178798,-0.67327,-0.218923,1
84,0.9792595,0.74624,-0.299755,0.8084245,0.54061,-0.236506,0.6205944999999999,0.6634899999999999,-0.383015,1.1522245,0.53287,-0.246272,1.3426745,0.67484,-0.4116749999999999,0.5731245,0.8274299999999999,-0.556905,1.3809145,0.8849100000000001,-0.5792649999999999,0.9163915,-0.00046,0.000265,1.0836085,0.0004599999999999,-0.0002649999999999,0.7638945,-0.24911,-0.298015,1.2129645,-0.23465,-0.318665,0.8090345,-0.68838,-0.244641,1.1788545,-0.6644399999999999,-0.223819,1
85,0.9790835,0.7411500000000001,-0.30871,0.8097515,0.53605,-0.244051,0.6211215,0.65765,-0.3921,1.1519415,0.52962,-0.253542,1.3423015,0.67031,-0.42105,0.5729314999999999,0.81667,-0.56679,1.3811515,0.8760100000000001,-0.59075,0.9162935,-0.00053,0.00014,1.0837065,0.00053,-0.00014,0.7636015,-0.2418899999999999,-0.3021,1.2132615,-0.2273099999999999,-0.32303,0.8091615,-0.6799999999999999,-0.248236,1.1789815,-0.65711,-0.227427,1
86,0.9790205,0.7356100000000001,-0.317305,0.8111915000000001,0.5305,-0.251548,0.6216415,0.65159,-0.400465,1.1518915,0.52632,-0.260725,1.3412715,0.66462,-0.430265,0.5727715,0.8098000000000001,-0.575875,1.3814115,0.8669899999999999,-0.601795,0.9161395,-0.00068,-5.499999999999949e-05,1.0838605,0.0006799999999999,5.499999999999949e-05,0.7633415,-0.2335999999999999,-0.305865,1.2135015,-0.21902,-0.326965,0.8093315,-0.67045,-0.251461,1.1791515,-0.64849,-0.230694,1
87,0.978882,0.73047,-0.3253549999999999,0.8122860000000001,0.5244500000000001,-0.259393,0.621766,0.64533,-0.407945,1.151436,0.5223800000000001,-0.267875,1.339916,0.6585700000000001,-0.439185,0.572246,0.80183,-0.584765,1.381356,0.85805,-0.612275,0.916224,-0.0007899999999999,-0.000225,1.083776,0.00079,0.000225,0.762776,-0.2250799999999999,-0.309585,1.213506,-0.2104999999999999,-0.330875,0.809246,-0.66067,-0.254641,1.178986,-0.63962,-0.233895,1
88,0.979436,0.72492,-0.333095,0.81386,0.51883,-0.266845,0.62252,0.6392500000000001,-0.414925,1.15157,0.5182,-0.274675,1.33921,0.65238,-0.447285,0.5721499999999999,0.7937400000000001,-0.593325,1.38172,0.8502099999999999,-0.621785,0.916058,-0.0008699999999999,-0.000395,1.083942,0.00087,0.0003949999999999,0.76275,-0.2212799999999999,-0.312855,1.21404,-0.20442,-0.334445,0.8143199999999999,-0.65042,-0.248354,1.17641,-0.6295200000000001,-0.23119,1
89,0.980103,0.7191350000000001,-0.340445,0.815086,0.5156350000000001,-0.272735,0.623516,0.631865,-0.421155,1.151696,0.513495,-0.281155,1.339276,0.645175,-0.4551349999999999,0.572376,0.785285,-0.601505,1.382076,0.8411850000000001,-0.630745,0.915866,-0.0007649999999999,-0.000585,1.084134,0.000765,0.000585,0.7624759999999999,-0.2174749999999999,-0.316055,1.214666,-0.1988549999999999,-0.337515,0.819306,-0.640965,-0.242259,1.173796,-0.620115,-0.228235,1
90,0.980748,0.7138249999999999,-0.347635,0.816194,0.511825,-0.278715,0.624504,0.625245,-0.427105,1.151834,0.509005,-0.287405,1.339334,0.637065,-0.462785,0.572584,0.776895,-0.609685,1.382294,0.830385,-0.640255,0.915664,-0.000665,-0.000655,1.084336,0.000665,0.0006549999999999,0.761924,-0.213575,-0.318835,1.215424,-0.193025,-0.340775,0.824014,-0.630905,-0.235864,1.171154,-0.609975,-0.225227,1
91,0.9813685,0.708545,-0.35488,0.8171765,0.507755,-0.28486,0.6255865,0.618815,-0.43304,1.1520665,0.504645,-0.29339,1.3393765,0.630115,-0.47019,0.5727265,0.7677050000000001,-0.6178300000000001,1.3826565,0.8209850000000001,-0.6496999999999999,0.9154605,-0.0005349999999999,-0.0007,1.0845395,0.000535,0.0006999999999999,0.7611065000000001,-0.209345,-0.32153,1.2162965,-0.1872849999999999,-0.34369,0.8289565,-0.6209049999999999,-0.229511,1.1686865,-0.599775,-0.222385,1
92,0.982169,0.703225,-0.361695,0.81799,0.504455,-0.290995,0.62681,0.612625,-0.439025,1.15245,0.499985,-0.298975,1.33992,0.622825,-0.477635,0.57284,0.757745,-0.625825,1.38331,0.810795,-0.659735,0.915314,-0.0003049999999999,-0.0007849999999999,1.084686,0.000305,0.000785,0.7596700000000001,-0.2049049999999999,-0.323895,1.21722,-0.1818149999999999,-0.346305,0.83388,-0.610965,-0.222912,1.16642,-0.589505,-0.2193629999999999,1
93,0.982967,0.6980299999999999,-0.36814,0.818648,0.50106,-0.29686,0.628128,0.60603,-0.44459,1.152888,0.49576,-0.3043599999999999,1.340598,0.61606,-0.48475,0.573098,0.74882,-0.63391,1.384158,0.79985,-0.67009,0.915213,-0.0001099999999999,-0.0008599999999999,1.084787,0.0001099999999999,0.0008599999999999,0.758158,-0.19976,-0.32618,1.218228,-0.17641,-0.3487,0.838758,-0.60132,-0.216218,1.164238,-0.5793900000000001,-0.2163399999999999,1
94,0.98377,0.6922200000000001,-0.374405,0.8192900000000001,0.49722,-0.302625,0.6297200000000001,0.5986100000000001,-0.449615,1.15327,0.49287,-0.309235,1.3414,0.60868,-0.491485,0.5733600000000001,0.73987,-0.641905,1.38515,0.78928,-0.679075,0.915253,-0.0001299999999999,-0.0010349999999999,1.084747,0.00013,0.001035,0.75639,-0.19554,-0.328445,1.21917,-0.1714699999999999,-0.350925,0.84326,-0.59161,-0.209506,1.1621,-0.5702699999999999,-0.2134349999999999,1
95,0.9846615,0.68675,-0.38064,0.8199795,0.49358,-0.3084,0.6315495,0.59127,-0.45449,1.1537095,0.49036,-0.31398,1.3421795,0.60131,-0.49811,0.5736295,0.73053,-0.65029,1.3863895,0.7782800000000001,-0.68775,0.9152985,-0.0001899999999999,-0.00114,1.0847015,0.00019,0.00114,0.7545195,-0.19139,-0.33088,1.2201795,-0.1661499999999999,-0.35339,0.8476595,-0.58278,-0.2029699999999999,1.1625195,-0.56393,-0.215739,1
96,0.985497,0.6816249999999999,-0.38659,0.820582,0.489525,-0.3138499999999999,0.6334120000000001,0.5846049999999999,-0.45929,1.154052,0.4864649999999999,-0.31895,1.343052,0.593455,-0.50405,0.573642,0.7219849999999999,-0.65872,1.387762,0.7681749999999999,-0.69611,0.9153,-0.000225,-0.00136,1.0847,0.0002249999999999,0.00136,0.7526120000000001,-0.187365,-0.33332,1.221072,-0.161125,-0.35591,0.851712,-0.5737350000000001,-0.197337,1.162742,-0.5580250000000001,-0.217871,1
97,0.986322,0.676525,-0.392445,0.821162,0.485395,-0.318975,0.635262,0.577955,-0.4639649999999999,1.154392,0.4832849999999999,-0.323505,1.343802,0.585745,-0.5098550000000001,0.573652,0.712925,-0.666815,1.389132,0.757335,-0.704365,0.915358,-0.000425,-0.001555,1.084642,0.000425,0.001555,0.750562,-0.183085,-0.335455,1.221802,-0.156415,-0.358125,0.852152,-0.5682550000000001,-0.199291,1.162922,-0.5525450000000001,-0.219876,1
98,0.9872315000000002,0.672215,-0.398095,0.8218295,0.481355,-0.323795,0.6370995000000002,0.5731850000000001,-0.468785,1.1546395,0.480145,-0.327915,1.3439795,0.580345,-0.5152749999999999,0.5737795,0.705425,-0.6744950000000001,1.3905995,0.748225,-0.712015,0.9153555,-0.000485,-0.001695,1.0846445,0.000485,0.001695,0.7488295,-0.178325,-0.337425,1.2224895,-0.1513049999999999,-0.360575,0.8526295,-0.5624149999999999,-0.201011,1.1631395,-0.547185,-0.222177,1
99,0.9882765,0.667735,-0.403175,0.8226995,0.477605,-0.327995,0.6391994999999999,0.568265,-0.473165,1.1549995,0.4770150000000001,-0.331825,1.3441995,0.576235,-0.519845,0.5740795000000001,0.6986650000000001,-0.6813750000000001,1.3921695,0.741015,-0.718505,0.9153325,-0.0003949999999999,-0.001785,1.0846675,0.000395,0.001785,0.7474395,-0.173365,-0.339045,1.2231795,-0.1461649999999999,-0.362415,0.8530395,-0.556125,-0.201979,1.1634395,-0.5418149999999999,-0.223901,1
100,0.989383,0.6633549999999999,-0.4080249999999999,0.8235910000000001,0.4743449999999999,-0.331705,0.640401,0.563595,-0.476925,1.155331,0.4737949999999999,-0.335445,1.344251,0.571085,-0.524325,0.574641,0.693005,-0.687635,1.393611,0.732965,-0.7243850000000001,0.915297,-0.000235,-0.001805,1.084703,0.0002349999999999,0.001805,0.7462610000000001,-0.168495,-0.3409149999999999,1.223751,-0.141325,-0.364085,0.853071,-0.551035,-0.203413,1.163751,-0.536725,-0.225514,1
101,0.990525,0.659115,-0.412285,0.824646,0.471255,-0.334885,0.641216,0.559085,-0.480125,1.155576,0.470695,-0.338655,1.344276,0.5646950000000001,-0.527795,0.5754060000000001,0.688095,-0.693255,1.394856,0.725595,-0.729125,0.915266,-0.0001649999999999,-0.001885,1.084734,0.000165,0.0018849999999999,0.745726,-0.164455,-0.342445,1.224406,-0.1370949999999999,-0.365605,0.853246,-0.5469649999999999,-0.204968,1.164046,-0.532185,-0.226819,1
102,0.99174,0.65602,-0.41639,0.8255669999999999,0.46879,-0.33814,0.6418969999999999,0.55567,-0.48308,1.155837,0.4680499999999999,-0.34173,1.344547,0.55952,-0.53098,0.576517,0.68386,-0.6980899999999999,1.396107,0.72011,-0.7333399999999999,0.915297,-8.999999999997899e-05,-0.0019099999999999,1.084703,8.999999999997899e-05,0.00191,0.745147,-0.1600799999999999,-0.34386,1.224987,-0.1329199999999999,-0.36692,0.853267,-0.5426500000000001,-0.206332,1.164097,-0.5278400000000001,-0.2281409999999999,1
103,0.99275,0.6535249999999999,-0.42016,0.826373,0.4668049999999999,-0.34121,0.641953,0.549335,-0.48562,1.155883,0.4646949999999999,-0.34501,1.344743,0.554445,-0.53384,0.5778030000000001,0.679785,-0.7027599999999999,1.397073,0.714175,-0.73753,0.915323,0.0002049999999999,-0.0017199999999999,1.084677,-0.000205,0.00172,0.744633,-0.156085,-0.3451499999999999,1.225393,-0.128885,-0.36838,0.853133,-0.5381750000000001,-0.207335,1.163953,-0.523655,-0.229371,1
104,0.993523,0.651495,-0.4238,0.8269460000000001,0.465565,-0.34407,0.641886,0.5438350000000001,-0.48804,1.155826,0.461635,-0.34818,1.344446,0.549955,-0.53624,0.578866,0.676475,-0.70715,1.397736,0.709145,-0.74156,0.915396,0.000515,-0.0014299999999999,1.084604,-0.0005149999999999,0.0014299999999999,0.744316,-0.151995,-0.34628,1.225676,-0.1246149999999999,-0.36982,0.852896,-0.5332549999999999,-0.208316,1.163686,-0.519505,-0.230601,1
105,0.9941785,0.649295,-0.42734,0.8273845000000001,0.465045,-0.34674,0.6417945,0.538475,-0.49028,1.1557445,0.460875,-0.35074,1.3439145,0.546305,-0.53886,0.5797845000000001,0.672465,-0.71101,1.3981045,0.704465,-0.7451599999999999,0.9154545,0.0006749999999999,-0.0010599999999999,1.0845455,-0.0006749999999999,0.00106,0.7441145,-0.1479349999999999,-0.3474699999999999,1.2258445,-0.120315,-0.3710799999999999,0.8528344999999999,-0.5296050000000001,-0.209634,1.1633745,-0.5153049999999999,-0.2318629999999999,1
106,0.994652,0.6474,-0.43054,0.8275350000000001,0.46509,-0.3493699999999999,0.6416550000000001,0.53289,-0.49228,1.155705,0.46005,-0.35342,1.343485,0.54274,-0.54135,0.580535,0.6691199999999999,-0.71479,1.398375,0.69931,-0.74854,0.915485,0.0009799999999999,-0.00062,1.084515,-0.0009799999999999,0.00062,0.744005,-0.1440099999999999,-0.34869,1.226045,-0.1162599999999999,-0.37256,0.852525,-0.52548,-0.211552,1.163105,-0.51083,-0.233106,1
107,0.994974,0.64486,-0.434185,0.827565,0.46551,-0.3521149999999999,0.641265,0.52664,-0.494485,1.155635,0.459764,-0.356085,1.342815,0.53881,-0.543945,0.581415,0.66501,-0.719115,1.398635,0.69364,-0.7520450000000001,0.915515,0.00114,-0.000115,1.084485,-0.0011399999999999,0.000115,0.743895,-0.14051,-0.350035,1.226245,-0.11297,-0.374185,0.852185,-0.52202,-0.213783,1.162825,-0.5071599999999999,-0.234447,1
108,0.995267,0.6424000000000001,-0.43801,0.827514,0.46603,-0.35502,0.640774,0.52019,-0.49686,1.155524,0.459655,-0.35885,1.342224,0.5346500000000001,-0.54697,0.5822240000000001,0.66014,-0.72357,1.398984,0.68641,-0.75587,0.915594,0.00117,0.0003199999999999,1.084406,-0.00117,-0.00032,0.743784,-0.1375,-0.35145,1.226334,-0.1102199999999999,-0.37612,0.852034,-0.51834,-0.215593,1.162574,-0.50413,-0.236041,1
109,0.995423,0.6404749999999999,-0.4413849999999999,0.827358,0.465859,-0.358005,0.639988,0.514185,-0.4991549999999999,1.155368,0.458707,-0.361545,1.341538,0.531595,-0.549975,0.5828180000000001,0.655855,-0.727185,1.399318,0.6802349999999999,-0.7593349999999999,0.91569,0.001205,0.000765,1.08431,-0.001205,-0.0007649999999999,0.743598,-0.1343149999999999,-0.352695,1.226388,-0.1074249999999999,-0.3780749999999999,0.851988,-0.515175,-0.2172549999999999,1.162288,-0.500835,-0.237448,1
110,0.995475,0.6389,-0.444535,0.827514,0.465747,-0.360775,0.638854,0.50862,-0.501625,1.155234,0.457929,-0.364115,1.3412039999999998,0.5300400000000001,-0.5526850000000001,0.583294,0.65089,-0.7302150000000001,1.399574,0.67449,-0.7625850000000001,0.915853,0.0013699999999999,0.0012849999999999,1.084147,-0.0013699999999999,-0.001285,0.743384,-0.13124,-0.353735,1.226394,-0.1043999999999999,-0.379935,0.851854,-0.5113,-0.218845,1.162094,-0.49748,-0.238731,1
111,0.9953355,0.637155,-0.4471699999999999,0.8275975,0.465767,-0.36317,0.6373675,0.5030749999999999,-0.5040899999999999,1.1550075,0.457234,-0.3663999999999999,1.3408975,0.528315,-0.5548599999999999,0.5834174999999999,0.645975,-0.7328699999999999,1.3995375,0.668855,-0.76518,0.9160245,0.001605,0.00176,1.0839755,-0.001605,-0.0017599999999999,0.7431475000000001,-0.127995,-0.3546199999999999,1.2263875,-0.101395,-0.38136,0.8516675,-0.507855,-0.220098,1.1618775,-0.4942049999999999,-0.2399909999999999,1
112,0.995133,0.635515,-0.44932,0.827655,0.4657799999999999,-0.36516,0.636655,0.501405,-0.50625,1.154775,0.456923,-0.3681999999999999,1.340535,0.527045,-0.55701,0.5835049999999999,0.641895,-0.73507,1.399335,0.664215,-0.7673,0.91615,0.001705,0.00217,1.08385,-0.001705,-0.00217,0.7429049999999999,-0.124825,-0.35531,1.226455,-0.0984849999999999,-0.38248,0.851335,-0.5044649999999999,-0.221202,1.161645,-0.4910349999999999,-0.241039,1
113,0.9950125,0.633965,-0.45091,0.8277155,0.465182,-0.36683,0.6361055,0.499535,-0.5078,1.1546755,0.456044,-0.36978,1.3402855,0.526035,-0.55926,0.5836355000000001,0.637985,-0.7364999999999999,1.3991155,0.6604049999999999,-0.76886,0.9162965,0.0018449999999999,0.00242,1.0837035,-0.001845,-0.00242,0.7428755,-0.122125,-0.3559,1.2266255,-0.095825,-0.38333,0.8510655,-0.5015350000000001,-0.222232,1.1614655,-0.4883349999999999,-0.241869,1
114,0.994926,0.6329549999999999,-0.452215,0.827814,0.4644119999999999,-0.368235,0.635794,0.498115,-0.5091950000000001,1.154614,0.454989,-0.371115,1.340094,0.525245,-0.561175,0.583744,0.6351249999999999,-0.737555,1.398954,0.658295,-0.770135,0.916387,0.0020149999999999,0.002655,1.083613,-0.002015,-0.0026549999999999,0.743074,-0.120245,-0.356355,1.226794,-0.093795,-0.383955,0.850884,-0.499755,-0.2235059999999999,1.161444,-0.486095,-0.242469,1
115,0.9948695,0.632305,-0.45257,0.8276924999999999,0.463562,-0.36887,0.6354825,0.497525,-0.51033,1.1546325,0.454092,-0.37178,1.3399625,0.524865,-0.5620499999999999,0.5836425000000001,0.633185,-0.73772,1.3987625,0.657605,-0.7709400000000001,0.9163915,0.0021849999999999,0.0028299999999999,1.0836085,-0.0021849999999999,-0.0028299999999999,0.7432825000000001,-0.1185949999999999,-0.35655,1.2270025,-0.091905,-0.38424,0.8508825,-0.4984249999999999,-0.224632,1.1615125,-0.484085,-0.242653,1
116,0.9948375000000002,0.63243,-0.452565,0.8275935,0.463092,-0.369075,0.6352135,0.49741,-0.510725,1.1546835,0.453681,-0.372065,1.3398535,0.5249,-0.5624750000000001,0.5833735,0.63244,-0.7377049999999999,1.3986435,0.6577999999999999,-0.771555,0.9163865,0.0023299999999999,0.002825,1.0836135,-0.0023299999999999,-0.0028249999999999,0.7433335,-0.11705,-0.3565549999999999,1.2271335,-0.09015,-0.384345,0.8506035000000001,-0.4964099999999999,-0.2246169999999999,1.1616735,-0.48223,-0.242724,1
117,0.9947655,0.6337900000000001,-0.45256,0.8275335,0.462981,-0.36909,0.6350735000000001,0.49848,-0.51076,1.1546535,0.453789,-0.37221,1.3396835,0.5257000000000001,-0.56247,0.5830035,0.63283,-0.73769,1.3983335,0.65971,-0.7721,0.9163645,0.00248,0.0028299999999999,1.0836355,-0.0024799999999999,-0.0028299999999999,0.7433135,-0.11565,-0.35655,1.2272235,-0.08847,-0.38466,0.8503935000000001,-0.49485,-0.225049,1.1618335,-0.48048,-0.242803,1
118,0.99462,0.6352,-0.4525599999999999,0.827439,0.464022,-0.36909,0.634769,0.49989,-0.51074,1.154449,0.455199,-0.3722,1.339399,0.5271100000000001,-0.56245,0.582639,0.63424,-0.73756,1.397989,0.66112,-0.77209,0.916369,0.00252,0.0028299999999999,1.083631,-0.0025199999999999,-0.0028299999999999,0.743249,-0.11534,-0.35692,1.227129,-0.0881399999999999,-0.3852,0.850179,-0.4938899999999999,-0.225311,1.161819,-0.47995,-0.243048,1
119,0.994572,0.63586,-0.45176,0.827398,0.464682,-0.36879,0.6346080000000001,0.5005499999999999,-0.51043,1.154278,0.455859,-0.37189,1.339138,0.52777,-0.56214,0.582468,0.6349,-0.73636,1.397698,0.66178,-0.77177,0.916332,0.0025,0.00289,1.083668,-0.0025,-0.00289,0.743248,-0.11586,-0.35733,1.227068,-0.08871,-0.38571,0.8500179999999999,-0.49447,-0.225683,1.161848,-0.4800900000000001,-0.243077,1
120,0.99454,0.63586,-0.450065,0.827418,0.464682,-0.367995,0.634458,0.5005499999999999,-0.5096350000000001,1.154188,0.455859,-0.371105,1.338878,0.52777,-0.561175,0.582388,0.6349,-0.734185,1.397418,0.66276,-0.770975,0.916239,0.0025,0.002915,1.083761,-0.0025,-0.002915,0.743178,-0.1170399999999999,-0.357375,1.226858,-0.09001,-0.385845,0.849928,-0.49493,-0.225219,1.161898,-0.481,-0.242656,1
121,0.9946365,0.63667,-0.44784,0.8277825,0.464682,-0.36644,0.6344425,0.50056,-0.50763,1.1541925,0.4561119999999999,-0.36974,1.3388625,0.5278,-0.5592,0.5823525,0.6350199999999999,-0.7314999999999999,1.3971225,0.6654199999999999,-0.76982,0.9160645,0.0025,0.00275,1.0839355,-0.0025,-0.00275,0.7432225,-0.11824,-0.35728,1.2267525,-0.09125,-0.38547,0.8500125000000001,-0.49533,-0.22407,1.1620325,-0.48167,-0.24188,1
122,0.994956,0.63901,-0.4448649999999999,0.827952,0.4653879999999999,-0.3644349999999999,0.634532,0.50213,-0.504715,1.154392,0.457383,-0.367925,1.339042,0.52894,-0.556725,0.5822620000000001,0.6374599999999999,-0.7280650000000001,1.397082,0.6694,-0.7680750000000001,0.915993,0.0025,0.002555,1.084007,-0.0025,-0.002555,0.743472,-0.11923,-0.357045,1.226832,-0.09221,-0.384785,0.850292,-0.49505,-0.2222859999999999,1.162132,-0.48206,-0.240951,1
123,0.9951875,0.64203,-0.441265,0.8281275000000001,0.466629,-0.361575,0.6346475,0.5047900000000001,-0.501125,1.1545575,0.459115,-0.365265,1.3391375,0.53103,-0.553535,0.5818475000000001,0.64171,-0.7244550000000001,1.3971375,0.6748700000000001,-0.7656050000000001,0.9158875,0.00237,0.0022749999999999,1.0841125,-0.0023699999999999,-0.0022749999999999,0.7437175,-0.1206,-0.356275,1.2267975,-0.0937199999999999,-0.383635,0.8503775,-0.49563,-0.220771,1.1621175,-0.48294,-0.239756,1
124,0.995539,0.64551,-0.43725,0.828384,0.467739,-0.3582499999999999,0.634814,0.5081500000000001,-0.49759,1.154944,0.461079,-0.36212,1.340094,0.5354800000000001,-0.55046,0.581314,0.6478,-0.7207600000000001,1.397274,0.6813400000000001,-0.7621100000000001,0.915729,0.0023,0.0019399999999999,1.084271,-0.0022999999999999,-0.0019399999999999,0.744204,-0.1231099999999999,-0.35519,1.226624,-0.0960999999999999,-0.38214,0.850394,-0.4976999999999999,-0.219922,1.162154,-0.4850299999999999,-0.238641,1
125,0.996018,0.64968,-0.432495,0.828742,0.4695339999999999,-0.354515,0.635162,0.51162,-0.493535,1.155582,0.463296,-0.358495,1.341002,0.53979,-0.546725,0.580822,0.65408,-0.7167250000000001,1.397522,0.68778,-0.7581950000000001,0.915502,0.0022599999999999,0.001645,1.084498,-0.00226,-0.001645,0.744742,-0.12585,-0.354315,1.226402,-0.0993,-0.380575,0.850562,-0.50054,-0.218561,1.162232,-0.48816,-0.237333,1
126,0.9964665,0.654435,-0.42711,0.8291175,0.472033,-0.35028,0.6363375,0.5205150000000001,-0.48896,1.1562075,0.465817,-0.35444,1.3420275,0.544735,-0.54279,0.5802674999999999,0.6607149999999999,-0.71184,1.3977875,0.694585,-0.75336,0.9153315,0.002275,0.0013799999999999,1.0846685,-0.0022749999999999,-0.00138,0.7452175000000001,-0.1295049999999999,-0.35294,1.2260075,-0.1029649999999999,-0.37895,0.8507575,-0.504275,-0.216963,1.1623775,-0.492035,-0.235912,1
127,0.997062,0.659885,-0.4216649999999999,0.829561,0.473961,-0.346445,0.6375310000000001,0.529085,-0.484575,1.1569809999999998,0.467476,-0.3507249999999999,1.3433609999999998,0.550315,-0.538305,0.580011,0.6683950000000001,-0.706435,1.398301,0.701935,-0.747965,0.915177,0.002155,0.001035,1.084823,-0.002155,-0.0010349999999999,0.745861,-0.1338849999999999,-0.3515749999999999,1.225641,-0.1073449999999999,-0.3774149999999999,0.851141,-0.508915,-0.215578,1.162581,-0.496415,-0.2345259999999999,1
128,0.997688,0.6655949999999999,-0.416135,0.8301769999999999,0.477635,-0.342055,0.6384369999999999,0.5374950000000001,-0.480555,1.157777,0.471391,-0.346165,1.344867,0.556535,-0.533325,0.579907,0.676625,-0.7004049999999999,1.398967,0.708835,-0.742275,0.915005,0.0020749999999999,0.0006849999999999,1.084995,-0.0020749999999999,-0.000685,0.746327,-0.1388249999999999,-0.350285,1.225307,-0.1129149999999999,-0.375855,0.851377,-0.514485,-0.21397,1.162667,-0.501985,-0.233208,1
129,0.998356,0.6714500000000001,-0.409745,0.830839,0.48099,-0.3372549999999999,0.639229,0.5466300000000001,-0.476315,1.158619,0.4746,-0.3412349999999999,1.346489,0.56364,-0.528105,0.5798989999999999,0.6850100000000001,-0.693865,1.399699,0.71808,-0.735645,0.914829,0.00202,0.000325,1.085171,-0.0020199999999999,-0.0003249999999999,0.7465590000000001,-0.1446299999999999,-0.348935,1.224959,-0.1194999999999999,-0.374035,0.851549,-0.5217299999999999,-0.2130709999999999,1.162759,-0.50857,-0.231875,1
130,0.9991745,0.67733,-0.40268,0.8317105000000001,0.4845,-0.33191,0.6400005,0.55555,-0.47201,1.1598005,0.4775899999999999,-0.33568,1.3484905,0.57018,-0.52269,0.5800805,0.6921999999999999,-0.68675,1.4006504999999998,0.72641,-0.72852,0.9147005,0.0021299999999999,-1.999999999999225e-05,1.0852995,-0.00213,2.000000000002e-05,0.7469105,-0.1508899999999999,-0.34692,1.2246805,-0.12686,-0.3714999999999999,0.8516405,-0.53002,-0.2121639999999999,1.1629605,-0.51618,-0.2304389999999999,1
131,1.0000395,0.6829050000000001,-0.395485,0.8327605,0.488705,-0.325995,0.6405605,0.5648850000000001,-0.467305,1.1611905,0.481045,-0.329585,1.3507905,0.578045,-0.5167550000000001,0.5803105,0.701065,-0.6793750000000001,1.4017205,0.735765,-0.719795,0.9146305,0.0022449999999999,-0.000315,1.0853695,-0.0022449999999999,0.0003149999999999,0.7474405,-0.157615,-0.344625,1.2244905,-0.134245,-0.368735,0.8520205,-0.538665,-0.210669,1.1632405,-0.524605,-0.228966,1
132,1.0007155,0.68944,-0.388115,0.8334575,0.49352,-0.320095,0.6406974999999999,0.57481,-0.4625749999999999,1.1622775,0.48479,-0.323565,1.3531975,0.58645,-0.510775,0.5804675,0.70977,-0.671045,1.4026275,0.74461,-0.709585,0.9146275,0.0024399999999999,-0.0004649999999999,1.0853725,-0.0024399999999999,0.0004649999999999,0.7479275000000001,-0.1638799999999999,-0.342365,1.2239375,-0.14126,-0.365965,0.8478275,-0.5514999999999999,-0.216288,1.1632475,-0.5331600000000001,-0.227651,1
133,1.001565,0.696365,-0.3802999999999999,0.834206,0.498725,-0.31403,0.640836,0.585305,-0.45707,1.163426,0.489235,-0.3172999999999999,1.354926,0.5939650000000001,-0.50366,0.580786,0.7187049999999999,-0.66126,1.403886,0.7550749999999999,-0.69926,0.914626,0.002535,-0.0005599999999999,1.085374,-0.002535,0.00056,0.748676,-0.169585,-0.3393199999999999,1.223346,-0.148235,-0.36304,0.843726,-0.5644849999999999,-0.2222239999999999,1.163216,-0.5420050000000001,-0.2262159999999999,1
134,1.0025875,0.7033,-0.3715,0.8345835,0.50342,-0.3073599999999999,0.6408935,0.5966199999999999,-0.45106,1.1646635,0.49377,-0.3105,1.3566235,0.60164,-0.49567,0.5810835000000001,0.72832,-0.6506799999999999,1.4052835,0.76557,-0.6877599999999999,0.9145935,0.0025799999999999,-0.0005999999999999,1.0854065,-0.00258,0.0006,0.7494335000000001,-0.1755499999999999,-0.3353199999999999,1.2227335,-0.15535,-0.35968,0.8402035,-0.57698,-0.2271929999999999,1.1632935,-0.55125,-0.224404,1
135,1.003631,0.710145,-0.362155,0.834966,0.508565,-0.300165,0.640876,0.602765,-0.444365,1.166136,0.498885,-0.302995,1.359346,0.6070850000000001,-0.486185,0.581526,0.739395,-0.639315,1.407166,0.776625,-0.676075,0.914636,0.002545,-0.0005249999999999,1.085364,-0.0025449999999999,0.0005249999999999,0.750286,-0.1822549999999999,-0.331155,1.222016,-0.1631649999999999,-0.356265,0.8363659999999999,-0.589895,-0.23256,1.163366,-0.561225,-0.222283,1
136,1.0044345,0.7169049999999999,-0.35228,0.8351295,0.513665,-0.29254,0.6410395,0.610085,-0.43681,1.1674195,0.5050749999999999,-0.2946,1.3621495,0.611445,-0.47594,0.5816695000000001,0.750345,-0.62806,1.4089995,0.786855,-0.66426,0.9147295,0.0025949999999999,-0.00037,1.0852705,-0.002595,0.00037,0.7513395,-0.188955,-0.32676,1.2209395,-0.171815,-0.35267,0.8325595,-0.603205,-0.238406,1.1632395,-0.571825,-0.219944,1
137,1.0051495,0.7240850000000001,-0.34114,0.8351855,0.518615,-0.28414,0.6410855,0.618625,-0.4285,1.1685455,0.5087550000000001,-0.28646,1.3652455,0.615985,-0.46441,0.5816954999999999,0.760965,-0.61628,1.4109355,0.799025,-0.65114,0.9147655,0.002825,-0.0001099999999999,1.0852345,-0.0028249999999999,0.0001099999999999,0.7529755,-0.1969349999999999,-0.32251,1.2188955,-0.1806149999999999,-0.34893,0.8289555,-0.617055,-0.244302,1.1647255,-0.586145,-0.222828,1
138,1.0057205,0.731115,-0.330345,0.8351515,0.522825,-0.276125,0.6396315,0.627535,-0.4195649999999999,1.1695915,0.512215,-0.278553,1.3685915,0.6201749999999999,-0.4520149999999999,0.5815115,0.772475,-0.603785,1.4129715,0.809255,-0.637565,0.9148015,0.0029049999999999,0.0001549999999999,1.0851985,-0.0029049999999999,-0.0001549999999999,0.7548915,-0.204185,-0.318145,1.2164315,-0.189415,-0.345145,0.8256114999999999,-0.630765,-0.249937,1.1655715,-0.600415,-0.225152,1
139,1.006182,0.7388349999999999,-0.3186,0.835013,0.525765,-0.268365,0.6379630000000001,0.6369149999999999,-0.4105,1.170483,0.5147649999999999,-0.270942,1.371693,0.624905,-0.43955,0.581283,0.7845249999999999,-0.59158,1.415013,0.819955,-0.62361,0.914853,0.0028749999999999,0.0005199999999999,1.085147,-0.002875,-0.00052,0.7573030000000001,-0.211265,-0.31411,1.213283,-0.198165,-0.34145,0.8228530000000001,-0.6443650000000001,-0.254991,1.166093,-0.614255,-0.22762,1
140,1.0064105,0.74707,-0.306625,0.8344495000000001,0.52817,-0.260881,0.6364595,0.64621,-0.401215,1.1711795,0.5170399999999999,-0.2636509999999999,1.3745995,0.6304799999999999,-0.427315,0.5809795,0.79525,-0.579275,1.4165795,0.8314999999999999,-0.6105849999999999,0.9148335,0.00289,0.000875,1.0851665,-0.00289,-0.0008749999999999,0.7610395000000001,-0.2182299999999999,-0.3102149999999999,1.2091395,-0.20682,-0.3377549999999999,0.8207695,-0.65774,-0.259466,1.1663895,-0.62781,-0.2303569999999999,1
141,1.00669,0.753595,-0.29317,0.8336080000000001,0.5331049999999999,-0.250035,0.634998,0.653995,-0.38997,1.172038,0.523115,-0.253283,1.377218,0.634375,-0.41406,0.580728,0.804155,-0.56648,1.417858,0.842165,-0.5978399999999999,0.914771,0.0027149999999999,0.00117,1.085229,-0.0027149999999999,-0.00117,0.7660279999999999,-0.227165,-0.30519,1.2044579999999998,-0.217165,-0.33233,0.8205080000000001,-0.6697649999999999,-0.255581,1.166488,-0.642585,-0.231984,1
142,1.00684,0.7603549999999999,-0.279155,0.832458,0.536995,-0.239351,0.633588,0.660765,-0.378455,1.172578,0.527595,-0.243124,1.379748,0.6379049999999999,-0.400335,0.580388,0.8153250000000001,-0.553775,1.418328,0.8513550000000001,-0.584585,0.914686,0.0024549999999999,0.001445,1.085314,-0.002455,-0.001445,0.7720080000000001,-0.2367449999999999,-0.300105,1.198618,-0.227625,-0.326605,0.820098,-0.681535,-0.251506,1.166208,-0.6572549999999999,-0.233101,1
143,1.0068225,0.766725,-0.265745,0.8310565,0.540435,-0.22906,0.6322665000000001,0.667395,-0.366835,1.1727565,0.531925,-0.233038,1.3820665,0.6417649999999999,-0.387125,0.5798265,0.824605,-0.5415650000000001,1.4182865,0.860825,-0.571615,0.9145295,0.002235,0.0016549999999999,1.0854705,-0.0022349999999999,-0.001655,0.7793765,-0.246335,-0.295405,1.1919165,-0.2382349999999999,-0.320915,0.8195465,-0.6933549999999999,-0.247566,1.1657665,-0.671525,-0.234695,1
144,1.0066695,0.772955,-0.252383,0.8293815,0.543995,-0.218555,0.6310515000000001,0.673775,-0.35534,1.1727615,0.535365,-0.223165,1.3834315,0.647265,-0.3746899999999999,0.5792015000000001,0.832645,-0.52922,1.4182715,0.868855,-0.55816,0.9143305,0.001925,0.00156,1.0856695,-0.001925,-0.00156,0.7876015000000001,-0.255615,-0.29011,1.1844215,-0.248215,-0.31472,0.8221915,-0.703185,-0.242447,1.1652815,-0.684955,-0.236266,1
145,1.0063895,0.77888,-0.238591,0.8277915,0.54954,-0.207853,0.6299715,0.67915,-0.343495,1.1729415,0.53893,-0.212945,1.3843815,0.6538,-0.362595,0.5788315000000002,0.83956,-0.516435,1.4184215,0.8768900000000001,-0.5436449999999999,0.9142015,0.00184,0.001315,1.0857985,-0.00184,-0.0013149999999999,0.7960214999999999,-0.2654499999999999,-0.284115,1.1770715,-0.2579599999999999,-0.3081049999999999,0.8251115,-0.71339,-0.236738,1.1649215,-0.6978,-0.237262,1
146,1.005621,0.78457,-0.224963,0.826274,0.55263,-0.197837,0.6288040000000001,0.68447,-0.331405,1.1730239999999998,0.5431600000000001,-0.202474,1.384624,0.6604300000000001,-0.351365,0.5782940000000001,0.8467500000000001,-0.503355,1.418044,0.8846799999999999,-0.528275,0.914113,0.0013299999999999,0.0010649999999999,1.0858869999999998,-0.0013299999999999,-0.001065,0.803824,-0.27494,-0.277655,1.170364,-0.26722,-0.300955,0.827574,-0.7232799999999999,-0.230991,1.164404,-0.7088099999999999,-0.233164,1
147,1.0047164999999998,0.78876,-0.211024,0.8246005000000001,0.55604,-0.187121,0.6274905,0.68835,-0.31936,1.1730705,0.54798,-0.191356,1.3843204999999998,0.66689,-0.34001,0.5777905,0.8532,-0.4901799999999999,1.4166605,0.89176,-0.5126,0.9140555,0.0009699999999999,0.00076,1.0859445,-0.0009699999999999,-0.00076,0.8112205,-0.28486,-0.27081,1.1640605,-0.27652,-0.29324,0.8298705,-0.7335200000000001,-0.224889,1.1639405,-0.72033,-0.228577,1
148,1.0035995,0.7928700000000001,-0.1975309999999999,0.8228955,0.56153,-0.175862,0.6262455,0.69193,-0.307175,1.1730155,0.55353,-0.179976,1.3840055,0.6729200000000001,-0.328385,0.5772955,0.8597400000000001,-0.4765549999999999,1.4150455,0.9,-0.497205,0.9140025,0.00064,0.0004949999999999,1.0859975,-0.00064,-0.0004949999999999,0.8179955,-0.29438,-0.263015,1.1587055,-0.28517,-0.285095,0.8320155,-0.74323,-0.218718,1.1634354999999998,-0.73166,-0.2238939999999999,1
149,1.0020705,0.7961750000000001,-0.183652,0.8210355,0.566125,-0.164436,0.6247955000000001,0.695165,-0.294665,1.1726355,0.559085,-0.168055,1.3834155,0.677655,-0.316355,0.5765255,0.865715,-0.462745,1.4124955,0.907105,-0.481735,0.9140985,0.0001649999999999,0.0002649999999999,1.0859015,-0.0001649999999999,-0.000265,0.8237155,-0.3043049999999999,-0.254525,1.1540455,-0.293875,-0.276215,0.8336555,-0.7528849999999999,-0.21197,1.1611555,-0.7409749999999999,-0.218512,1
150,1.0003995,0.800395,-0.170759,0.8192235,0.568445,-0.155897,0.6234635,0.6992149999999999,-0.2832,1.1720535,0.560335,-0.159172,1.3826035,0.683495,-0.30506,0.5759835,0.8741650000000001,-0.44869,1.4093135,0.915595,-0.46628,0.9142285,-0.000135,3.0000000000002247e-05,1.0857715,0.0001349999999999,-3.0000000000002247e-05,0.8282235,-0.313815,-0.24604,1.1501935,-0.301365,-0.26826,0.8349535000000001,-0.7610650000000001,-0.204813,1.1594135,-0.749215,-0.213799,1
151,0.998813,0.804325,-0.157605,0.817313,0.571285,-0.146489,0.622343,0.7037549999999999,-0.27101,1.171563,0.562515,-0.14965,1.381593,0.6892750000000001,-0.29353,0.575523,0.881005,-0.43443,1.405673,0.923855,-0.45021,0.914387,-0.0003249999999999,-0.00025,1.085613,0.0003249999999999,0.00025,0.831893,-0.325015,-0.23662,1.146883,-0.312565,-0.25956,0.835843,-0.770875,-0.197319,1.157673,-0.7571650000000001,-0.209072,1
152,0.9975825,0.807835,-0.144034,0.8154494999999999,0.575185,-0.136162,0.6215395,0.7080649999999999,-0.258295,1.1713495,0.564765,-0.139637,1.3805195,0.6949949999999999,-0.281675,0.5752495,0.889475,-0.418815,1.4020095,0.932345,-0.433305,0.9145675,-0.000535,-0.0005549999999999,1.0854325,0.0005349999999999,0.0005549999999999,0.8361594999999999,-0.336345,-0.222675,1.1446195,-0.3236949999999999,-0.250015,0.8382795000000001,-0.7808350000000001,-0.185662,1.1562595,-0.764645,-0.203245,1
153,0.9966795,0.81031,-0.124107,0.8139915,0.577,-0.120267,0.6211715,0.71219,-0.239525,1.1713315,0.5658799999999999,-0.124044,1.3794115,0.7005600000000001,-0.263415,0.5755615000000001,0.89791,-0.397315,1.3978715,0.94035,-0.410325,0.9148085,-0.00082,-0.000755,1.0851915,0.0008199999999999,0.0007549999999999,0.8394615,-0.34803,-0.203263,1.1436115,-0.33533,-0.232995,0.8404115,-0.79111,-0.168346,1.1553215,-0.7726299999999999,-0.190356,1
154,0.9958895,0.810805,-0.1034509999999999,0.8121775,0.576905,-0.1028619999999999,0.6209575,0.714795,-0.2194749999999999,1.1716975,0.5677449999999999,-0.1067629999999999,1.3763475,0.707775,-0.243215,0.5763875,0.905005,-0.373465,1.3933875,0.945405,-0.3859849999999999,0.9150565,-0.001083,-0.0006449999999999,1.0849435,0.001083,0.000645,0.8432075,-0.367335,-0.180346,1.1425475,-0.351525,-0.2114849999999999,0.8422675,-0.802555,-0.150447,1.1536475,-0.781725,-0.1728779999999999,1
155,0.9953735,0.8104939999999999,-0.0832904999999999,0.8105605000000001,0.577024,-0.0857675,0.6209605,0.716664,-0.1993595,1.1722205,0.568634,-0.0898475,1.3733205,0.713604,-0.2236294999999999,0.5777105,0.911554,-0.3495395,1.3886705,0.950174,-0.3632295,0.9152865,-0.001239,-0.0005244999999999,1.0847135,0.001239,0.0005245,0.8467005000000001,-0.386316,-0.1576145,1.1415605,-0.367416,-0.1901695,0.8441605,-0.814036,-0.1327105,1.1522305,-0.791026,-0.1552675,1
156,0.9948635,0.8106679999999999,-0.0633415,0.8089415,0.578048,-0.0684505,0.6210415,0.719028,-0.1787665,1.1727915,0.569328,-0.0730645,1.3699915,0.7186079999999999,-0.2048964999999999,0.5800015000000001,0.919118,-0.3251365,1.3838815,0.954718,-0.3386165,0.9155745,-0.001388,-0.0003164999999999,1.0844254999999998,0.0013879999999999,0.0003164999999999,0.8500814999999999,-0.404812,-0.1349375,1.1407415,-0.383332,-0.1686234999999999,0.8460515,-0.825472,-0.1150485,1.1510915,-0.800382,-0.1373165,1
157,0.9946735,0.80939,-0.043785,0.8075625000000001,0.57754,-0.051756,0.6212425000000001,0.72156,-0.158296,1.1734225,0.56953,-0.056999,1.3663525,0.72394,-0.186375,0.5826825,0.92599,-0.300875,1.3777625,0.96328,-0.314815,0.9158965,-0.001515,-0.0001929999999999,1.0841035,0.0015149999999999,0.0001929999999999,0.8535925,-0.42207,-0.112786,1.1403125,-0.3984,-0.147695,0.8480425,-0.8362999999999999,-0.097659,1.1502925,-0.80907,-0.11964,1
158,0.995033,0.8084589999999999,-0.024313,0.806415,0.577639,-0.035472,0.6221650000000001,0.725089,-0.137725,1.1741849999999998,0.569519,-0.041531,1.362065,0.729269,-0.167216,0.5879449999999999,0.933909,-0.273416,1.371375,0.972629,-0.290446,0.916198,-0.0015729999999999,-9.40000000000038e-05,1.083802,0.0015729999999999,9.399999999999686e-05,0.857425,-0.438721,-0.090331,1.140645,-0.413791,-0.12704,0.850155,-0.846071,-0.080501,1.149905,-0.816911,-0.1017,1
159,0.9954415,0.8073005,-0.0053355,0.8052105,0.5776805,-0.0189385,0.6235505,0.7287305000000001,-0.1173935,1.1749204999999998,0.5706505000000001,-0.0253145,1.3577305,0.7344605000000001,-0.1480385,0.5935905,0.9449705,-0.2469985,1.3648605,0.9813105,-0.2667684999999999,0.9164395,-0.0016424999999999,3.249999999999781e-05,1.0835605,0.0016424999999999,-3.249999999999781e-05,0.8612005,-0.4553895,-0.0683115,1.1412605,-0.4282895,-0.1062515,0.8521905000000001,-0.8542795,-0.0640545,1.1497105,-0.8237694999999999,-0.0838305,1
160,0.995763,0.8055610000000001,0.0128334999999999,0.804187,0.577791,-0.0032074999999999,0.6252070000000001,0.7320110000000001,-0.0979994999999999,1.175447,0.571391,-0.0099975,1.353187,0.7391610000000001,-0.1301285,0.5992569999999999,0.953811,-0.2217805,1.358147,0.989401,-0.2440905,0.916758,-0.0017119999999999,0.0002165,1.083242,0.001712,-0.0002165,0.864547,-0.471619,-0.0470505,1.141737,-0.4392089999999999,-0.0859875,0.854047,-0.862229,-0.0481395,1.149457,-0.829979,-0.0662835,1
161,0.995869,0.803528,0.0303165,0.8032260000000001,0.5766680000000001,0.0113425,0.627136,0.7352080000000001,-0.0793605,1.175776,0.5724180000000001,0.0046085,1.348316,0.744558,-0.1127605,0.6051660000000001,0.962818,-0.1978214999999999,1.351386,0.998058,-0.2222815,0.917055,-0.002032,0.0004775,1.0829449999999998,0.0020319999999999,-0.0004774999999999,0.8661760000000001,-0.486152,-0.0303265,1.142256,-0.450852,-0.0660274999999999,0.8540760000000001,-0.8691319999999999,-0.0378285,1.149266,-0.8357319999999999,-0.0495165,1
162,0.995897,0.802107,0.040815,0.8023310000000001,0.576357,0.019485,0.629181,0.738567,-0.067143,1.176251,0.574457,0.013264,1.343351,0.750057,-0.101995,0.6107910000000001,0.971147,-0.180478,1.345141,1.006627,-0.207218,0.917304,-0.0019909999999999,0.000709,1.082696,0.0019909999999999,-0.0007089999999999,0.867711,-0.499003,-0.018985,1.142661,-0.460823,-0.053424,0.854051,-0.873633,-0.033402,1.148851,-0.8400029999999999,-0.040406,1
163,0.995971,0.8021134999999999,0.049551,0.801857,0.5762134999999999,0.026003,0.6310370000000001,0.7435835,-0.056783,1.176227,0.5751934999999999,0.0192889999999999,1.339917,0.7532534999999999,-0.093816,0.6158570000000001,0.9809035,-0.165483,1.338867,1.0181735,-0.194333,0.917544,-0.0021695,0.0007799999999999,1.082456,0.0021694999999999,-0.0007799999999999,0.868107,-0.5018765000000001,-0.011919,1.142717,-0.4637465,-0.0456219999999999,0.853997,-0.8769565,-0.029487,1.148707,-0.8418165000000001,-0.036009,1
164,0.9960440000000002,0.802212,0.058128,0.801398,0.576512,0.0323269999999999,0.632938,0.748022,-0.046527,1.176268,0.576022,0.0254349999999999,1.336258,0.756942,-0.085062,0.6207480000000001,0.990062,-0.150724,1.333098,1.028652,-0.180784,0.917856,-0.002259,0.0007889999999999,1.082144,0.0022589999999999,-0.000789,0.868538,-0.503988,-0.005001,1.142738,-0.465068,-0.03805,0.8539280000000001,-0.878768,-0.025692,1.148578,-0.842908,-0.031816,1
165,0.996412,0.802172,0.0664485,0.801302,0.576302,0.0379685,0.634852,0.751462,-0.0371984999999999,1.1765219999999998,0.576792,0.0310495,1.333152,0.7607119999999999,-0.0767595,0.624862,0.995652,-0.1373105,1.327642,1.038972,-0.1698704999999999,0.918016,-0.002474,0.0006385,1.081984,0.002474,-0.0006385,0.869062,-0.505368,0.0015234999999999,1.142972,-0.465848,-0.0314355,0.854042,-0.879548,-0.0232325,1.148682,-0.843568,-0.0279605,1
166,0.99646,0.8019,0.0737975,0.800963,0.5762299999999999,0.0432755,0.636363,0.75393,-0.0284425,1.176393,0.57782,0.0365805,1.3299729999999998,0.76364,-0.0690195,0.628563,1.00138,-0.1245385,1.323133,1.04335,-0.1589785,0.918336,-0.0025649999999999,0.0005095,1.081664,0.0025649999999999,-0.0005094999999999,0.8693330000000001,-0.50524,0.0070735,1.143773,-0.46391,-0.0252734999999999,0.853823,-0.8797900000000001,-0.0200214999999999,1.149193,-0.84431,-0.0245285,1
167,0.9965775,0.8017005,0.0803275,0.8007025,0.5762005,0.0488325,0.6374425,0.7545805000000001,-0.0209065,1.1762625,0.5788705000000001,0.0419735,1.3276525,0.7653605,-0.0625855,0.6298925,1.0050405,-0.1157885,1.3193825,1.0456505,-0.1490785,0.9186655,-0.0027215,0.0003674999999999,1.0813345,0.0027215,-0.0003674999999999,0.8697025,-0.5055195,0.0113984999999999,1.1446725,-0.4615495,-0.0198465,0.8536725000000001,-0.8799895,-0.0170815,1.1497025,-0.8449494999999999,-0.0214975,1
168,0.99676,0.801535,0.086429,0.800621,0.576125,0.053603,0.638091,0.7544150000000001,-0.013885,1.176111,0.578705,0.046255,1.325601,0.766365,-0.056714,0.630611,1.004875,-0.106545,1.316041,1.047185,-0.139645,0.918959,-0.002887,0.000351,1.081041,0.002887,-0.0003509999999999,0.869971,-0.506845,0.015057,1.145421,-0.461715,-0.0152509999999999,0.853531,-0.880155,-0.014768,1.150121,-0.845095,-0.018491,1
169,0.996855,0.801535,0.0920125,0.800591,0.576175,0.0580885,0.638401,0.7544150000000001,-0.0074695,1.175991,0.578705,0.0505875,1.323851,0.766365,-0.0511454999999999,0.6311610000000001,1.004875,-0.0976765,1.313201,1.048185,-0.1310975,0.919289,-0.0030349999999999,0.0004345,1.080711,0.003035,-0.0004345,0.870171,-0.507815,0.0180705,1.146131,-0.462465,-0.0112425,0.8534010000000001,-0.880585,-0.0127475,1.150481,-0.844685,-0.0158095,1
170,0.996952,0.8010685,0.097108,0.800583,0.5762585,0.062556,0.638533,0.7545085,-0.001664,1.175873,0.5787985,0.054509,1.322933,0.7664584999999999,-0.0460929999999999,0.631413,1.0049685,-0.089719,1.310873,1.0482785,-0.123667,0.919515,-0.0032014999999999,0.0005039999999999,1.080485,0.0032015,-0.000504,0.8702030000000001,-0.5093115,0.020582,1.146643,-0.4642015,-0.008453,0.8533430000000001,-0.8811515,-0.0109,1.150763,-0.8435915,-0.013429,1
171,0.9970755,0.8004749999999999,0.1019945,0.8006015,0.575525,0.0669745,0.6386415000000001,0.754195,0.0029695,1.1758015,0.579025,0.0580705,1.3227315,0.7668349999999999,-0.0416905,0.6316415,1.003365,-0.0829995,1.3088315,1.048655,-0.1174415,0.9196495,-0.0033639999999999,0.0006925,1.0803505,0.003364,-0.0006925,0.8702915,-0.510605,0.0223545,1.1470015,-0.465545,-0.0065905,0.8532715000000001,-0.881545,-0.0094375,1.1510215,-0.8421150000000001,-0.0113045,1
172,0.997053,0.7999025000000001,0.106528,0.80055,0.5747725,0.0710259999999999,0.63862,0.7528725000000001,0.006329,1.17569,0.5792525000000001,0.061758,1.32269,0.7671625,-0.03866,0.6317000000000002,1.0011625,-0.078201,1.30783,1.0493225,-0.113112,0.919717,-0.0035565,0.000899,1.080283,0.0035565,-0.0008989999999999,0.8702,-0.5116375,0.024113,1.1473,-0.4641774999999999,-0.0048539999999999,0.853,-0.8819175,-0.008682,1.15142,-0.8412175,-0.009209,0
173,0.997087,0.799725,0.1108855,0.800574,0.574665,0.0751955,0.638084,0.7502650000000001,0.0083375,1.175614,0.578865,0.0648095,1.322644,0.7654650000000001,-0.0370925,0.6315040000000001,0.997195,-0.0754465,1.307394,1.0494949999999998,-0.1102645,0.919763,-0.0035159999999999,0.0010695,1.080237,0.003516,-0.0010695,0.8701639999999999,-0.5130049999999999,0.0256795,1.147464,-0.4631949999999999,-0.0032975,0.852854,-0.883195,-0.0085265,1.151734,-0.840855,-0.0073815,0
174,0.9971265,0.799552,0.114816,0.8007275,0.574462,0.079124,0.6370275000000001,0.746242,0.009808,1.1755875,0.578202,0.067814,1.3226575,0.7623219999999999,-0.035682,0.6310775,0.992672,-0.074011,1.3073074999999998,1.0484920000000002,-0.1085339999999999,0.9198095,-0.003499,0.001387,1.0801905,0.003499,-0.0013869999999999,0.8702075,-0.514118,0.026959,1.1476475,-0.461768,-0.0018969999999999,0.8530275,-0.883908,-0.0078109999999999,1.1519775,-0.841278,-0.006004,0
175,0.997109,0.7994765,0.1186705,0.800746,0.5742365,0.0829744999999999,0.635266,0.7409965,0.0114225,1.175546,0.5775365,0.0708415,1.323336,0.7578565,-0.0342055,0.6304259999999999,0.9863165,-0.0724605,1.307306,1.0411465000000002,-0.1070195,0.919745,-0.0034754999999999,0.0016334999999999,1.080255,0.0034755,-0.0016334999999999,0.870196,-0.5150135,0.0282095,1.147806,-0.4634035,-0.0010954999999999,0.853226,-0.8840035,-0.0068685,1.152156,-0.8414035,-0.0048644999999999,0
176,0.997165,0.7993085,0.1223575,0.8007910000000001,0.5733185,0.0866115,0.6330110000000001,0.7328785,0.0130165,1.175601,0.5763185,0.0738025,1.325201,0.7521985,-0.0329155,0.629811,0.9771685,-0.0709585,1.307311,1.0334585,-0.1055525,0.919682,-0.0034754999999999,0.0018915,1.080318,0.0034755,-0.0018914999999999,0.8701909999999999,-0.5147315,0.0293815,1.147921,-0.4629415,-0.0004104999999999,0.853421,-0.8829915,-0.0044004999999999,1.1523709999999998,-0.8405315,-0.0033364999999999,0
177,0.997178,0.799599,0.1259779999999999,0.800745,0.572079,0.089948,0.630065,0.722779,0.0138269999999999,1.175545,0.574799,0.076606,1.327745,0.744779,-0.032563,0.628755,0.965839,-0.069965,1.307285,1.024229,-0.104212,0.919591,-0.0035579999999999,0.0020789999999999,1.080409,0.003558,-0.002079,0.870155,-0.513421,0.030359,1.147995,-0.465781,0.0004899999999999,0.853445,-0.8825510000000001,-0.002191,1.152435,-0.8394510000000001,-0.002005,0
178,0.997113,0.799997,0.129233,0.8008230000000001,0.570367,0.093391,0.6267130000000001,0.710467,0.013349,1.175403,0.5727369999999999,0.079143,1.331163,0.734887,-0.033669,0.627453,0.951067,-0.07077,1.307673,1.009037,-0.1039969999999999,0.919468,-0.0036029999999999,0.002205,1.0805319999999998,0.0036029999999999,-0.002205,0.869943,-0.513433,0.031447,1.148013,-0.467903,0.001232,0.853473,-0.881403,-0.0009389999999999,1.152523,-0.838043,-0.000833,0
179,0.996958,0.80055,0.132223,0.800859,0.56778,0.096677,0.622349,0.69504,0.012177,1.175129,0.5708799999999999,0.081518,1.335349,0.72242,-0.035809,0.626069,0.93196,-0.073087,1.308049,0.99356,-0.1048269999999999,0.919292,-0.0036089999999999,0.002424,1.080708,0.003609,-0.002424,0.869749,-0.51268,0.03248,1.148039,-0.47046,0.002,0.853479,-0.8800800000000001,0.000236,1.152489,-0.83672,0.000364,0
180,0.996637,0.8013675,0.134946,0.800837,0.5648974999999999,0.099611,0.618167,0.6784475,0.0100869999999999,1.174777,0.5691174999999999,0.083734,1.339857,0.7079475,-0.038476,0.6249469999999999,0.9127775,-0.077078,1.307847,0.9739375,-0.106734,0.919094,-0.0035225,0.0026209999999999,1.080906,0.0035225,-0.002621,0.869627,-0.5110425000000001,0.0333799999999999,1.147967,-0.4719525,0.0025789999999999,0.853307,-0.8785025000000001,0.0018899999999999,1.152357,-0.8351425,0.0014019999999999,0
181,0.9961805,0.802492,0.1373815,0.8008295,0.561842,0.1023655,0.6147795,0.659292,0.0074944999999999,1.1742294999999998,0.5671719999999999,0.0855694999999999,1.3442195,0.691052,-0.0411925,0.6241695,0.8909419999999999,-0.0827725,1.3078595,0.951762,-0.1096485,0.9188735,-0.003504,0.0028155,1.0811265,0.003504,-0.0028154999999999,0.8694395,-0.509768,0.0342265,1.1478594999999998,-0.472088,0.0029224999999999,0.8533495,-0.876718,0.0029494999999999,1.1523995,-0.833068,0.0020844999999999,0
182,0.9956265,0.804138,0.1389935,0.8009094999999999,0.5591379999999999,0.1045725,0.6117095,0.6381380000000001,0.0042935,1.1736895,0.565248,0.0873055,1.3476395,0.6719280000000001,-0.0437005,0.6236895,0.8653980000000001,-0.0892465,1.3079195,0.927318,-0.1131365,0.9186555,-0.0035249999999999,0.0030345,1.0813445,0.003525,-0.0030344999999999,0.8693394999999999,-0.508162,0.0350204999999999,1.1477695,-0.472012,0.0033375,0.8533195,-0.8748720000000001,0.0035045,1.1524495,-0.8307819999999999,0.0026865,0
183,0.994863,0.8060615,0.140325,0.801059,0.5562214999999999,0.106388,0.6110789999999999,0.6148015,0.0039329999999999,1.173089,0.5635915,0.0887679999999999,1.350299,0.6497415,-0.0447959999999999,0.6231789999999999,0.8363315,-0.096535,1.307539,0.8998014999999999,-0.117975,0.918433,-0.0035764999999999,0.0031789999999999,1.081567,0.0035765,-0.003179,0.8692489999999999,-0.5062884999999999,0.0357279999999999,1.147759,-0.4697785,0.0039089999999999,0.853379,-0.8723384999999999,0.0044709999999999,1.152529,-0.8276785,0.0035259999999999,0
184,0.993857,0.807928,0.140974,0.801261,0.553118,0.107667,0.611041,0.589318,0.004522,1.172501,0.561998,0.08981,1.351441,0.625968,-0.044274,0.622681,0.805138,-0.104006,1.307161,0.8715080000000001,-0.123316,0.918237,-0.003632,0.003406,1.081763,0.0036319999999999,-0.0034059999999999,0.869201,-0.504552,0.036211,1.147731,-0.465702,0.004215,0.853641,-0.869732,0.005631,1.152311,-0.825862,0.003856,0
185,0.992706,0.810113,0.1415934999999999,0.801525,0.5504330000000001,0.1085185,0.611015,0.563013,0.0050815,1.171855,0.560893,0.0904875,1.351415,0.599123,-0.0437145,0.622805,0.773333,-0.1118865,1.306785,0.8375630000000001,-0.1289765,0.91802,-0.003674,0.0035545,1.08198,0.003674,-0.0035544999999999,0.869165,-0.502997,0.0367715,1.147625,-0.464217,0.0045825,0.853855,-0.867417,0.0066615,1.152105,-0.823597,0.0042635,0
186,0.9914495,0.812017,0.142223,0.8017655000000001,0.5475869999999999,0.109109,0.6110154999999999,0.535397,0.005641,1.1712955,0.559917,0.0910779999999999,1.3514155,0.5713469999999999,-0.043155,0.6236555000000001,0.7405069999999999,-0.119007,1.3057455,0.8005669999999999,-0.135757,0.9178055,-0.0037669999999999,0.0035899999999999,1.0821945,0.0037669999999999,-0.0035899999999999,0.8691455000000001,-0.501873,0.037259,1.1474955,-0.462163,0.0050259999999999,0.8540355,-0.8644630000000001,0.007836,1.1519655,-0.821493,0.004718,0
187,0.9899315,0.8142005,0.1428185,0.8018965,0.5449505,0.1096635,0.6111565,0.5040005000000001,0.0080424999999999,1.1707065,0.5592104999999999,0.0916365,1.3514165,0.5427405,-0.0425565,0.6258265000000001,0.7072605,-0.1264015,1.3033565,0.7647905,-0.1426315,0.9175785,-0.0038385,0.0035544999999999,1.0824215,0.0038385,-0.0035545,0.8690065000000001,-0.5006995,0.0377065,1.1473865,-0.4597195,0.0055574999999999,0.8541365,-0.8611695,0.0092474999999999,1.1518465,-0.8190495,0.0052454999999999,0
188,0.988242,0.816617,0.142689,0.802103,0.542937,0.110101,0.612643,0.475427,0.0111119999999999,1.170123,0.5580170000000001,0.0921189999999999,1.350193,0.512327,-0.039219,0.629093,0.6747770000000001,-0.132991,1.300263,0.723317,-0.149471,0.917381,-0.0039,0.0033499999999999,1.082619,0.0039,-0.00335,0.868803,-0.499913,0.038177,1.147243,-0.457133,0.0060149999999999,0.8541529999999999,-0.8582329999999999,0.0102939999999999,1.151723,-0.8163729999999999,0.0057019999999999,0
189,0.986322,0.8189905,0.1417265,0.802242,0.5413605,0.1105395,0.616592,0.4468605,0.0158625,1.169522,0.5565405,0.0924115,1.347152,0.4814104999999999,-0.0333985,0.633532,0.6401205,-0.1389834999999999,1.2965719999999998,0.6796004999999999,-0.1488235,0.917158,-0.0039244999999999,0.0031225,1.082842,0.0039245,-0.0031225,0.868632,-0.4985995,0.0385615,1.147042,-0.4538995,0.0064045,0.854032,-0.8554595,0.0111885,1.151612,-0.8132895,0.0063675,0
190,0.98412,0.821207,0.1401244999999999,0.8023310000000001,0.539867,0.1106195,0.6220209999999999,0.4214469999999999,0.0215975,1.168731,0.555297,0.0925925,1.342251,0.452837,-0.0258235,0.639291,0.603707,-0.1433455,1.291601,0.632887,-0.1528955,0.916956,-0.0038969999999999,0.0028625,1.083044,0.0038969999999999,-0.0028625,0.868311,-0.497923,0.0390265,1.146911,-0.451163,0.0066035,0.853851,-0.852763,0.0118255,1.151451,-0.810403,0.0069315,0
191,0.981658,0.8230765,0.1381395,0.8023020000000001,0.5382965000000001,0.1105555,0.629712,0.3948465,0.0294764999999999,1.1677719999999998,0.5541564999999999,0.0927014999999999,1.3340519999999998,0.4273665,-0.0157955,0.645402,0.5707765,-0.1477105,1.286392,0.5844465,-0.1594805,0.91675,-0.0038084999999999,0.0026064999999999,1.08325,0.0038084999999999,-0.0026065,0.8679120000000001,-0.4978135,0.0395395,1.146692,-0.4490635,0.0068184999999999,0.853602,-0.8498635,0.0125424999999999,1.151242,-0.8079435,0.0072984999999999,0
192,0.979054,0.8241585,0.1353465,0.8023,0.5370385,0.1102775,0.63802,0.3689185,0.0355385,1.167,0.5530885000000001,0.0926265,1.32541,0.4048684999999999,-0.0052374999999999,0.65254,0.5360585,-0.1513435,1.28094,0.5339685000000001,-0.1588435,0.916548,-0.0038054999999999,0.0023925,1.083452,0.0038055,-0.0023924999999999,0.8674999999999999,-0.4981815,0.0399995,1.14646,-0.4447015,0.0070585,0.85331,-0.8483014999999999,0.0127965,1.15114,-0.8060115,0.0077825,0
193,0.9763215,0.825028,0.13161,0.8023105,0.536018,0.109835,0.6462105,0.345958,0.041104,1.1662905,0.551948,0.092412,1.3168705,0.385258,0.007405,0.6596605000000001,0.504518,-0.15426,1.2746605,0.481238,-0.1582,0.9163845,-0.003809,0.002189,1.0836155,0.003809,-0.002189,0.8670605,-0.498622,0.040453,1.1462505,-0.441172,0.007272,0.8530205000000001,-0.8471420000000001,0.012517,1.1510305,-0.804072,0.008215,0
194,0.973459,0.8253475,0.1274285,0.802325,0.5350075,0.1092825,0.654745,0.3263475,0.0459175,1.165655,0.5506275,0.0919705,1.308955,0.3697975,0.0205045,0.666715,0.4733775,-0.1562214999999999,1.267945,0.4312175,-0.1562115,0.916246,-0.0037944999999999,0.0020844999999999,1.083754,0.0037944999999999,-0.0020844999999999,0.8665550000000001,-0.4988224999999999,0.0408315,1.146085,-0.4375725,0.0074695,0.8527750000000001,-0.8459225,0.0127365,1.150985,-0.8022325,0.0085765,0
195,0.9705805,0.8254865,0.1223954999999999,0.8022415,0.5344365,0.1086255,0.6634115,0.3101565,0.0482294999999999,1.1649615,0.5496165000000001,0.0912895,1.2999815,0.3564265,0.0324155,0.6737415,0.4453065,-0.1590135,1.2620915,0.3824365,-0.1510834999999999,0.9161075,-0.0038094999999999,0.0020934999999999,1.0838925,0.0038095,-0.0020935,0.8659715,-0.4986335,0.0412935,1.1458515,-0.4344635,0.0075964999999999,0.8525815000000001,-0.8447735,0.0130854999999999,1.1508215,-0.8002335,0.0089804999999999,0
196,0.967632,0.8252740000000001,0.117141,0.802175,0.534254,0.108152,0.672285,0.300044,0.04781,1.164415,0.548864,0.0906329999999999,1.290825,0.345114,0.044134,0.679755,0.421294,-0.1626,1.256845,0.334674,-0.14495,0.915987,-0.003877,0.002182,1.084013,0.0038769999999999,-0.002182,0.865545,-0.498536,0.0418,1.145685,-0.432056,0.007728,0.8524050000000001,-0.843646,0.01315,1.150605,-0.798516,0.009332,0
197,0.9646725,0.8249405,0.111901,0.8020005,0.5341604999999999,0.107678,0.6806105,0.2905605,0.047488,1.1638505,0.5484705,0.090063,1.2831005,0.3379905,0.053781,0.6857105,0.3992205,-0.1667509999999999,1.2526905,0.2909905,-0.1366109999999999,0.9158815,-0.0040175,0.002335,1.0841185,0.0040175,-0.002335,0.8651905000000001,-0.4977894999999999,0.042219,1.1455205,-0.4295695,0.00796,0.8520705,-0.8422295000000001,0.013455,1.1504805,-0.7972195000000001,0.009623,0
198,0.961817,0.8246145,0.106894,0.8018200000000001,0.5339345,0.107224,0.68719,0.2828245,0.0472719999999999,1.16324,0.5483245,0.089586,1.27618,0.3326845,0.061474,0.69187,0.3764345,-0.171513,1.24999,0.2500445,-0.124343,0.915824,-0.0041235,0.0024939999999999,1.084176,0.0041234999999999,-0.0024939999999999,0.86502,-0.4972454999999999,0.0422909999999999,1.14533,-0.4286655,0.0081269999999999,0.8519400000000001,-0.8409755000000001,0.014102,1.15031,-0.7966355,0.009795,0
199,0.959209,0.824308,0.102057,0.8016420000000001,0.533728,0.1066319999999999,0.6927719999999999,0.275408,0.047089,1.162902,0.5481980000000001,0.088987,1.269792,0.326928,0.068168,0.6974819999999999,0.3582079999999999,-0.176186,1.248882,0.213998,-0.110206,0.915786,-0.0042719999999999,0.0026479999999999,1.084214,0.0042719999999999,-0.002648,0.8647220000000001,-0.497932,0.042876,1.145142,-0.428042,0.0084419999999999,0.8515820000000001,-0.840372,0.0140419999999999,1.150122,-0.795752,0.0100589999999999,0
200,0.956809,0.8240075,0.0971704999999999,0.8014720000000001,0.5335975,0.1059845,0.697102,0.2720875,0.0461965,1.162652,0.5479975,0.0881015,1.265522,0.3207375,0.0728775,0.703002,0.3413075,-0.1809265,1.248492,0.1784075,-0.0940965,0.915797,-0.0044155,0.0028914999999999,1.084203,0.0044154999999999,-0.0028915,0.864512,-0.4974125,0.0431595,1.144992,-0.4275225,0.0086165,0.851232,-0.8391525,0.0139325,1.149892,-0.7947725,0.0100975,0
201,0.954723,0.823651,0.092678,0.801303,0.533421,0.105319,0.700683,0.270701,0.044009,1.162403,0.5478810000000001,0.08706,1.261303,0.313731,0.0772279999999999,0.7075130000000001,0.328851,-0.185863,1.249473,0.147766,-0.075764,0.915803,-0.004538,0.0031739999999999,1.084197,0.004538,-0.0031739999999999,0.864213,-0.497819,0.043643,1.144823,-0.427009,0.008754,0.851193,-0.838089,0.014097,1.149673,-0.793899,0.010113,0
202,0.952974,0.823199,0.088805,0.80118,0.533349,0.104635,0.70384,0.269609,0.041396,1.1621,0.547939,0.085782,1.25721,0.3059489999999999,0.079145,0.7119599999999999,0.317099,-0.191348,1.25039,0.124217,-0.058402,0.915808,-0.0047499999999999,0.003487,1.084192,0.0047499999999999,-0.003487,0.86389,-0.498391,0.044006,1.14466,-0.427071,0.009173,0.8509000000000001,-0.837421,0.013557,1.14943,-0.793221,0.010066,0
203,0.9515115,0.8226275,0.0852265,0.8009375,0.5332775,0.1039375,0.7065075000000001,0.2683875,0.0367565,1.1618575,0.5479674999999999,0.0843955,1.2531475,0.2986075,0.0800205,0.7160875,0.3077075,-0.1964555,1.2510875,0.1036905,-0.0452165,0.9157885,-0.0049514999999999,0.0037995,1.0842115,0.0049515,-0.0037995,0.8637775,-0.4981825,0.0442135,1.1444675,-0.4274325,0.0095594999999999,0.8505475,-0.8369325000000001,0.0123294999999999,1.1491975,-0.7928425,0.0099374999999999,0
204,0.950111,0.82197,0.0822495,0.800615,0.53335,0.1033314999999999,0.707195,0.26697,0.0342635,1.161665,0.54799,0.0830505,1.250565,0.28924,0.0806225,0.7196750000000001,0.29884,-0.2007445,1.252195,0.0852739999999999,-0.0330845,0.915776,-0.005011,0.0041304999999999,1.084224,0.0050109999999999,-0.0041304999999999,0.863525,-0.49883,0.0444245,1.144315,-0.42791,0.0096185,0.850195,-0.83624,0.0112435,1.149025,-0.79282,0.0097355,0
205,0.949055,0.8216065,0.0796375,0.800283,0.5333865,0.1025625,0.707633,0.2656765,0.0325685,1.161463,0.5479565,0.0816524999999999,1.249253,0.2817165,0.0806605,0.723803,0.2892565,-0.2037074999999999,1.255893,0.0705135,-0.0203785,0.915765,-0.0049924999999999,0.0044244999999999,1.084235,0.0049925,-0.0044245,0.8634729999999999,-0.4994035,0.0443535,1.144163,-0.4281435,0.0096214999999999,0.849863,-0.8355735,0.0102414999999999,1.148913,-0.7928535,0.0094554999999999,0
206,0.9481825000000002,0.821419,0.077271,0.7999225,0.533479,0.101855,0.7079525,0.264569,0.0311759999999999,1.1612225,0.547969,0.080314,1.2484825,0.274769,0.080821,0.7271925,0.281339,-0.205832,1.2597625,0.0580419999999999,-0.008877,0.9157555,-0.005,0.0046919999999999,1.0842445,0.0049999999999999,-0.004692,0.8634325,-0.499501,0.04427,1.1440225,-0.428151,0.0096499999999999,0.8497525,-0.8355809999999999,0.0095799999999999,1.1488325,-0.7928609999999999,0.0092049999999999,0
207,0.9474495,0.821269,0.07516,0.7995205,0.533489,0.10106,0.7081805,0.2635989999999999,0.029828,1.1608305,0.547889,0.079027,1.2480605,0.269449,0.080898,0.7295605000000001,0.277849,-0.20721,1.2636205,0.0502689999999999,0.000153,0.9157665,-0.005135,0.005004,1.0842335,0.0051349999999999,-0.0050039999999999,0.8633405000000001,-0.499791,0.04414,1.1438505,-0.428101,0.009612,0.8497205000000001,-0.8351409999999999,0.009297,1.1487105,-0.7929809999999999,0.00873,0
208,0.9468435,0.8210235,0.0733155,0.7991775,0.5336335,0.1003805,0.7082474999999999,0.2628135,0.0287224999999999,1.1604375,0.5477435,0.0779685,1.2479775,0.2652635,0.0808494999999999,0.7315775,0.2726835,-0.2083645,1.2669375,0.0429974999999999,0.0074155,0.9157955,-0.0052465,0.0052715,1.0842045,0.0052465,-0.0052714999999999,0.8632475,-0.5003765,0.0439935,1.1437375,-0.4281665,0.0095825,0.8497375,-0.8348165,0.0090255,1.1485975,-0.7932465,0.0082615,0
209,0.946371,0.8207859999999999,0.071774,0.798851,0.533716,0.099628,0.7082809999999999,0.262046,0.027736,1.160071,0.547636,0.077056,1.247891,0.2617359999999999,0.080696,0.733371,0.267116,-0.2093469999999999,1.271031,0.040035,0.011481,0.915814,-0.005296,0.0054,1.084186,0.005296,-0.0053999999999999,0.8631610000000001,-0.500144,0.043711,1.143611,-0.428124,0.009481,0.849491,-0.835134,0.007857,1.148521,-0.7933840000000001,0.00787,0
210,0.945972,0.820596,0.0704125,0.7985050000000001,0.5337959999999999,0.0988324999999999,0.708275,0.261336,0.0266645,1.159775,0.547646,0.0762714999999999,1.247805,0.259556,0.0802225,0.735375,0.263326,-0.2101845,1.275175,0.037741,0.0133525,0.915822,-0.005329,0.0055075,1.084178,0.005329,-0.0055074999999999,0.863145,-0.4999139999999999,0.0434295,1.143495,-0.428074,0.0093935,0.849365,-0.835314,0.0066135,1.148435,-0.793534,0.0074925,0
211,0.9455785,0.8204165,0.069219,0.7981495000000001,0.5338765,0.098038,0.7082595,0.2604965,0.02569,1.1595494999999998,0.5477165,0.075684,1.2480395,0.2589565,0.079743,0.7367495,0.2587765,-0.210922,1.2786595,0.0384665,0.012927,0.9158265,-0.0053624999999999,0.005585,1.0841735,0.0053624999999999,-0.005585,0.8633795,-0.4988835,0.043001,1.1434295,-0.4282535,0.009283,0.8494595,-0.8342535,0.006217,1.1484195,-0.7938435,0.006949,0
212,0.9452365,0.8203165,0.0681615,0.7977835,0.5339865,0.0971645,0.7082435,0.2597365,0.0247835,1.1593435,0.5478265,0.0751995,1.2486135,0.2592065,0.0791195,0.7367135,0.2558865,-0.2111505,1.2816635,0.0393465,0.0125265,0.9158265,-0.0053964999999999,0.0056395,1.0841735,0.0053965,-0.0056394999999999,0.8636035000000001,-0.4965535,0.0424415,1.1433635,-0.4284335,0.0092145,0.8496135000000001,-0.8333635,0.0060575,1.1483635,-0.7942435,0.0063935,0
213,0.9449045,0.8202445,0.067254,0.7974315000000001,0.5341245,0.09623,0.7081715,0.2590845,0.023909,1.1591415,0.5480245,0.074795,1.2492115,0.2600845,0.07868,0.7366515,0.2535345,-0.211357,1.2839015,0.0402245,0.01219,0.9158065,-0.0054355,0.0056409999999999,1.0841935,0.0054355,-0.005641,0.8633014999999999,-0.4979355,0.042673,1.1433015,-0.4280354999999999,0.009151,0.8494115,-0.8330155,0.0055479999999999,1.1482815,-0.7948355,0.0057489999999999,0
214,0.944581,0.820189,0.0664595,0.79704,0.534319,0.0953975,0.70808,0.258499,0.0230425,1.15895,0.5482589999999999,0.0744445,1.24975,0.260949,0.0782965,0.73658,0.252379,-0.2115495,1.28519,0.041089,0.0113345,0.915789,-0.0054749999999999,0.0056275,1.084211,0.005475,-0.0056275,0.86327,-0.4972509999999999,0.0425175,1.14323,-0.427151,0.0090195,0.8494200000000001,-0.8327610000000001,0.0049375,1.14821,-0.795261,0.0051975,0
215,0.944234,0.8201655000000001,0.065682,0.796678,0.5345355,0.0945039999999999,0.7079580000000001,0.2580955,0.0220609999999999,1.158738,0.5485154999999999,0.073938,1.250128,0.2618155,0.077828,0.736828,0.2514755,-0.201733,1.285778,0.0426565,0.0087859999999999,0.915766,-0.0055014999999999,0.0055999999999999,1.084234,0.0055015,-0.0056,0.863218,-0.4971545,0.0423059999999999,1.143158,-0.4267944999999999,0.0089499999999999,0.849458,-0.8326445,0.0044219999999999,1.148158,-0.7958045,0.0045779999999999,0
216,0.9439075,0.82016,0.064905,0.7963095,0.53489,0.093593,0.7078694999999999,0.25772,0.02111,1.1585495,0.54881,0.073424,1.2504595,0.26363,0.077127,0.7367895,0.2507399999999999,-0.191906,1.2857295,0.0456889999999999,0.0049679999999999,0.9157365,-0.00553,0.005481,1.0842634999999998,0.00553,-0.005481,0.8631795000000001,-0.4969,0.042061,1.1431195,-0.42645,0.0089039999999999,0.8493795,-0.83235,0.0040339999999999,1.1481595,-0.79625,0.0039329999999999,0
217,0.9435565,0.820265,0.0641565,0.7959175,0.535215,0.0926255,0.7077675,0.257355,0.0201415,1.1583275,0.549185,0.0728255,1.2506375,0.265665,0.0759885,0.7356475,0.252295,-0.1823575,1.2853475,0.0490979999999999,-0.0004625,0.9157035,-0.005552,0.0053674999999999,1.0842965,0.0055519999999999,-0.0053675,0.8634775,-0.494195,0.0414555,1.1430775,-0.426155,0.0088374999999999,0.8494575,-0.831685,0.0044224999999999,1.1481175,-0.796685,0.0032584999999999,0
