sb224sc-HT22-VT27/4dt907/src/ml-research/a11/datafiles/labeled_files/B10_kinect.csv
FrameNo,nose_3d_x,nose_3d_y,nose_3d_z,left_shoulder_3d_x,left_shoulder_3d_y,left_shoulder_3d_z,left_elbow_3d_x,left_elbow_3d_y,left_elbow_3d_z,right_shoulder_3d_x,right_shoulder_3d_y,right_shoulder_3d_z,right_elbow_3d_x,right_elbow_3d_y,right_elbow_3d_z,left_wrist_3d_x,left_wrist_3d_y,left_wrist_3d_z,right_wrist_3d_x,right_wrist_3d_y,right_wrist_3d_z,left_hip_3d_x,left_hip_3d_y,left_hip_3d_z,right_hip_3d_x,right_hip_3d_y,right_hip_3d_z,left_knee_3d_x,left_knee_3d_y,left_knee_3d_z,right_knee_3d_x,right_knee_3d_y,right_knee_3d_z,left_ankle_3d_x,left_ankle_3d_y,left_ankle_3d_z,right_ankle_3d_x,right_ankle_3d_y,right_ankle_3d_z,activity_label
0,0.0034619999999999,0.7693019999999999,0.0221055,-0.175503,0.4973019999999999,0.0194995,-0.223373,0.248762,0.0049924999999999,0.141547,0.497232,0.0027664999999999,0.234627,0.263572,-0.0006685,-0.224213,0.064553,-0.0707545,0.210137,0.3943819999999999,-0.1953945,-0.07541,-0.001251,-0.0004914999999999,0.07541,0.001251,0.0004914999999999,-0.100203,-0.318508,0.0382305,0.1078369999999999,-0.329698,0.0446465,-0.1035929999999999,-0.643328,0.0794415,0.121097,-0.6419980000000001,0.0782855,0
1,0.0035084999999999,0.769357,0.0219975,-0.1754395,0.497497,0.0187525,-0.2231894999999999,0.248947,0.0048085,0.1413305,0.497287,0.0023745,0.2348105,0.262947,0.0008345,-0.2242295,0.064658,-0.0706805,0.2101205,0.394587,-0.1951204999999999,-0.0754235,-0.00129,-0.0005625,0.0754235,0.00129,0.0005625,-0.1002395,-0.318453,0.0383285,0.1078204999999999,-0.329573,0.0447155,-0.1035295,-0.6432030000000001,0.0795215,0.1213805,-0.641193,0.0780474999999999,0
2,0.0035215,0.769539,0.022038,-0.1753855,0.497519,0.018169,-0.2228355,0.248469,0.004725,0.1413444999999999,0.497369,0.002332,0.2346244999999999,0.262959,0.00189,-0.2242155,0.064901,-0.070551,0.2098944999999999,0.394679,-0.1951609999999999,-0.0754445,-0.001287,-0.000564,0.0754445,0.001287,0.000564,-0.1002154999999999,-0.318291,0.038339,0.1077745,-0.329451,0.044771,-0.1033554999999999,-0.642701,0.079601,0.1212945,-0.641551,0.078236,0
3,0.0036374999999999,0.7696324999999999,0.021986,-0.1753664999999999,0.4976325,0.018111,-0.2226765,0.2486925,0.004978,0.1413835,0.4972025,0.0019349999999999,0.2346734999999999,0.2625424999999999,0.0037509999999999,-0.2242164999999999,0.0650915,-0.070606,0.2099335,0.3947124999999999,-0.195166,-0.0754455,-0.0012725,-0.0005679999999999,0.0754455,0.0012725,0.0005679999999999,-0.1002265,-0.3180875,0.038366,0.1077635,-0.3293875,0.044799,-0.1031765,-0.6425975,0.079722,0.1211835,-0.6400875,0.078516,0
4,0.003678,0.7697284999999999,0.022045,-0.175438,0.4976885,0.017761,-0.222668,0.2488485,0.005069,0.141332,0.4972385,0.001995,0.234922,0.2627785,0.002224,-0.224178,0.0654715,-0.070355,0.210022,0.3948685,-0.195195,-0.075485,-0.0012215,-0.0004779999999999,0.075485,0.0012215,0.0004779999999999,-0.100368,-0.3178614999999999,0.038426,0.107782,-0.3292715,0.044776,-0.103258,-0.6425215000000001,0.07993,0.120792,-0.6404515000000001,0.078536,0
5,0.003779,0.7698685,0.0219635,-0.1752719999999999,0.4979885,0.0173335,-0.222622,0.2492484999999999,0.0048194999999999,0.141328,0.4973585,0.0019404999999999,0.234798,0.2626185,0.0033844999999999,-0.2240619999999999,0.0653965,-0.0702895,0.210028,0.3952785,-0.1951095,-0.075501,-0.0011985,-0.0005365,0.075501,0.0011985,0.0005365,-0.100432,-0.3175515,0.0383575,0.107948,-0.3291015,0.0447465,-0.103282,-0.6423715,0.0799315,0.120938,-0.6403115,0.0786145,0
6,0.0037865,0.769931,0.0219199999999999,-0.1752625,0.497911,0.0169959999999999,-0.2225325,0.249351,0.0047919999999999,0.1412975,0.497431,0.0019029999999999,0.2347675,0.262981,0.0014579999999999,-0.2240325,0.065505,-0.070462,0.2100275,0.395491,-0.195422,-0.0755075,-0.001204,-0.0006379999999999,0.0755075,0.001204,0.0006379999999999,-0.1004825,-0.317339,0.0383069999999999,0.1078775,-0.3290389999999999,0.044633,-0.1033125,-0.641879,0.080132,0.1207574999999999,-0.640669,0.078713,0
7,0.0039215,0.770018,0.021797,-0.1753404999999999,0.4979179999999999,0.017495,-0.2225805,0.249288,0.004667,0.1418695,0.497438,0.002568,0.2347495,0.263018,0.002424,-0.2240305,0.06526,-0.070464,0.2101795,0.395178,-0.195454,-0.0755235,-0.00121,-0.0006309999999999,0.0755235,0.00121,0.0006309999999999,-0.1004104999999999,-0.317582,0.038469,0.1078495,-0.328972,0.044634,-0.1034305,-0.642232,0.080108,0.1208295,-0.6405219999999999,0.078684,0
8,0.0040025,0.770088,0.0217155,-0.1753325,0.497998,0.0172374999999999,-0.2225825,0.249348,0.0046345,0.1419975,0.497488,0.0024944999999999,0.2347575,0.2630079999999999,0.0027974999999999,-0.2240125,0.065342,-0.0704125,0.2102375,0.395238,-0.1954925,-0.0755385,-0.0012,-0.0006565,0.0755385,0.0012,0.0006564999999999,-0.1004425,-0.317462,0.0385005,0.1078475,-0.328862,0.0446115,-0.1034625,-0.642042,0.0802104999999999,0.1207975,-0.640412,0.0787335,0
9,0.004088,0.7701640000000001,0.0216159999999999,-0.175321,0.498054,0.0169739999999999,-0.2225909999999999,0.249404,0.0046189999999999,0.142149,0.497534,0.0024709999999999,0.234709,0.2630639999999999,0.0028499999999999,-0.224011,0.065426,-0.07038,0.210329,0.395244,-0.1956999999999999,-0.07555,-0.001197,-0.000684,0.07555,0.001197,0.0006839999999999,-0.100471,-0.317366,0.0385289999999999,0.1078389999999999,-0.328746,0.0445949999999999,-0.103491,-0.641856,0.0803099999999999,0.120739,-0.640296,0.078785,0
10,0.0041594999999999,0.7702205,0.0215265,-0.1753235,0.4981204999999999,0.0166815,-0.2226135,0.2494505,0.0045974999999999,0.1422865,0.4975704999999999,0.0024474999999999,0.2346565,0.2630805,0.0027724999999999,-0.2240235,0.0654845,-0.0703355,0.2103865,0.3952604999999999,-0.1958855,-0.0755615,-0.0011985,-0.0007124999999999,0.0755615,0.0011985,0.0007124999999999,-0.1005035,-0.3172695,0.0385635,0.1078065,-0.3286495,0.0445835,-0.1035235,-0.6416995,0.0803925,0.1206865,-0.6402495,0.0788395,0
11,0.0042315,0.770276,0.0214335,-0.1753225,0.498176,0.0163965,-0.2226324999999999,0.249496,0.0045755,0.1424075,0.497596,0.0024334999999999,0.2346175,0.263166,0.0024204999999999,-0.2240325,0.065486,-0.0703065,0.2104475,0.395276,-0.1960965,-0.0755735,-0.001199,-0.0007355,0.0755735,0.001199,0.0007355,-0.1005325,-0.317174,0.0385585,0.1077675,-0.328524,0.0445645,-0.1035625,-0.641454,0.0804665,0.1206375,-0.640294,0.0788715,0
12,0.0042969999999999,0.7703239999999999,0.0213345,-0.175313,0.498234,0.0160865,-0.2226729999999999,0.249544,0.0045575,0.142527,0.497634,0.0024025,0.234537,0.263264,0.0022245,-0.224043,0.065483,-0.0702815,0.210527,0.395314,-0.1963615,-0.075581,-0.001201,-0.0007684999999999,0.075581,0.001201,0.0007685,-0.100543,-0.317066,0.0385455,0.107747,-0.328376,0.0445095,-0.103573,-0.6411760000000001,0.0805315,0.120627,-0.640306,0.0789095,0
13,0.0043529999999999,0.7703819999999999,0.021255,-0.175315,0.498282,0.015816,-0.222715,0.249592,0.004556,0.142515,0.497672,0.002367,0.234445,0.263412,0.001861,-0.224075,0.065496,-0.070251,0.2105749999999999,0.395332,-0.196591,-0.0755919999999999,-0.001199,-0.000791,0.0755919999999999,0.001199,0.000791,-0.100585,-0.316948,0.038537,0.107705,-0.3282279999999999,0.044446,-0.1035949999999999,-0.640888,0.0806149999999999,0.1206049999999999,-0.6402380000000001,0.078948,0
14,0.0043854999999999,0.770447,0.0212195,-0.1753275,0.498347,0.0155795,-0.2227575,0.249627,0.0045815,0.1424925,0.497707,0.0023315,0.2343525,0.263507,0.0016834999999999,-0.2240975,0.065489,-0.0702165,0.2105925,0.395357,-0.1968065,-0.0756034999999999,-0.001199,-0.0008084999999999,0.0756034999999999,0.001199,0.0008085,-0.1006275,-0.316823,0.0385475,0.1076725,-0.328073,0.0443855,-0.1036275,-0.640633,0.0807175,0.1205825,-0.6401129999999999,0.0789894999999999,0
15,0.0043935,0.7705145,0.0211804999999999,-0.1753775,0.4984145,0.0154814999999999,-0.2228075,0.2496545,0.0045964999999999,0.1424525,0.4977445,0.0022824999999999,0.2342425,0.2636145,0.0014164999999999,-0.2241275,0.0654855,-0.0701875,0.2105625,0.3954045,-0.1970175,-0.0756135,-0.0011995,-0.0008245,0.0756135,0.0011995,0.0008244999999999,-0.1006675,-0.3166855,0.0385434999999999,0.1076425,-0.3279255,0.0443395,-0.1036474999999999,-0.6403955,0.0807985,0.1205725,-0.6399754999999999,0.0790255,0
16,0.00438,0.770565,0.02118,-0.1753949999999999,0.498485,0.015284,-0.222845,0.249685,0.004623,0.142425,0.497795,0.002062,0.234165,0.263645,0.0013659999999999,-0.2241349999999999,0.065522,-0.070155,0.210555,0.395455,-0.1972549999999999,-0.075628,-0.001199,-0.00084,0.075628,0.001199,0.00084,-0.1006949999999999,-0.3164349999999999,0.038483,0.107625,-0.327795,0.044313,-0.1036749999999999,-0.640105,0.080886,0.120565,-0.639815,0.079076,0
17,0.0043579999999999,0.770624,0.0211875,-0.175417,0.498554,0.0151225,-0.222887,0.249704,0.0046365,0.142403,0.497844,0.0018595,0.2340829999999999,0.263724,0.0012624999999999,-0.224137,0.065557,-0.0701185,0.210563,0.395524,-0.1975084999999999,-0.075643,-0.001202,-0.0008514999999999,0.075643,0.001202,0.0008515,-0.100717,-0.316186,0.0384195,0.107603,-0.327646,0.0442585,-0.103707,-0.639916,0.0809425,0.120563,-0.639746,0.0791425,0
18,0.0043385,0.7706905000000001,0.021227,-0.1754374999999999,0.4986305,0.014998,-0.2229175,0.2497305,0.00465,0.1423025,0.4978904999999999,0.001666,0.2339725,0.2638005,0.000984,-0.2241475,0.0655765,-0.070074,0.2105624999999999,0.3956004999999999,-0.1976139999999999,-0.0756545,-0.0012085,-0.0008689999999999,0.0756545,0.0012085,0.000869,-0.1007375,-0.3159195,0.038369,0.1075725,-0.3274995,0.044225,-0.1037275,-0.6396795,0.081037,0.1205625,-0.6396295,0.079228,0
19,0.0043234999999999,0.770755,0.0212544999999999,-0.1754524999999999,0.498695,0.0148904999999999,-0.2229625,0.2497549999999999,0.0046594999999999,0.1422075,0.497915,0.0015354999999999,0.2339275,0.263845,0.0008724999999999,-0.2241324999999999,0.065594,-0.0700585,0.2105875,0.395655,-0.1977485,-0.0756655,-0.001212,-0.0008845,0.0756655,0.001212,0.0008844999999999,-0.1007625,-0.315675,0.0383144999999999,0.1075575,-0.327355,0.0441795,-0.1037325,-0.639425,0.0811234999999999,0.1205574999999999,-0.6395649999999999,0.0792985,0
20,0.0043019999999999,0.770814,0.021276,-0.175476,0.498754,0.0147979999999999,-0.2230059999999999,0.249784,0.0046549999999999,0.142094,0.497944,0.001395,0.233884,0.263874,0.0008089999999999,-0.224106,0.065526,-0.070046,0.210604,0.395714,-0.1978559999999999,-0.075678,-0.001216,-0.000903,0.075678,0.001216,0.000903,-0.100776,-0.3154659999999999,0.038292,0.107544,-0.327246,0.04417,-0.103726,-0.639256,0.081219,0.1205439999999999,-0.639386,0.079371,0
21,0.0042449999999999,0.7708775,0.0212964999999999,-0.175489,0.4988075,0.0147224999999999,-0.223059,0.2498075,0.0046544999999999,0.142001,0.4979575,0.0012674999999999,0.233851,0.2640075,0.0007334999999999,-0.224069,0.0654375,-0.0700385,0.2106009999999999,0.3958375,-0.1979285,-0.075688,-0.0012205,-0.0009185,0.075688,0.0012205,0.0009184999999999,-0.100809,-0.3152625,0.0382695,0.1075309999999999,-0.3271425,0.0441914999999999,-0.103719,-0.6391325,0.0812985,0.120531,-0.6392125,0.0794385,0
22,0.0041609999999999,0.7709275,0.0213159999999999,-0.1755,0.4988674999999999,0.0146229999999999,-0.22311,0.2498375,0.0046359999999999,0.1418999999999999,0.4979674999999999,0.0011279999999999,0.23384,0.2640975,0.0007879999999999,-0.22404,0.0653155,-0.070024,0.21061,0.3959375,-0.198034,-0.075696,-0.0012275,-0.000939,0.075696,0.0012274999999999,0.0009389999999999,-0.10084,-0.3150725,0.038255,0.1075199999999999,-0.3270625,0.044229,-0.1037,-0.6389825,0.081377,0.1205199999999999,-0.6390525,0.07947,0
23,0.0040525,0.7709875,0.0213375,-0.1755165,0.4989175,0.0145185,-0.2231465,0.2498775,0.0045965,0.1418235,0.4979874999999999,0.0009835,0.2338335,0.2641675,0.0008245,-0.2240265,0.0652775,-0.0700274999999999,0.2106035,0.3960075,-0.1981575,-0.0757005,-0.0012335,-0.0009594999999999,0.0757005,0.0012335,0.0009595,-0.1008665,-0.3148825,0.0382255,0.1075035,-0.3269825,0.0442625,-0.1036865,-0.6389024999999999,0.0814135,0.1204935,-0.6389024999999999,0.0794855,0
24,0.0039165,0.771026,0.021372,-0.1755435,0.498976,0.014424,-0.2231735,0.249916,0.0045639999999999,0.1417565,0.498006,0.0008499999999999,0.2338665,0.264126,0.0011359999999999,-0.2240035,0.065262,-0.070042,0.2106065,0.396076,-0.1981919999999999,-0.0757055,-0.001243,-0.000979,0.0757055,0.001243,0.000979,-0.1008935,-0.314694,0.038197,0.1075065,-0.3268939999999999,0.044292,-0.1036935,-0.638834,0.081454,0.1204965,-0.6387440000000001,0.0795329999999999,0
25,0.0037605,0.771046,0.0213949999999999,-0.1755575,0.499016,0.0143069999999999,-0.2232075,0.249946,0.0045209999999999,0.1416925,0.498026,0.0007279999999999,0.2339225,0.264116,0.0013669999999999,-0.2239875,0.065292,-0.070098,0.2106525,0.396136,-0.198168,-0.0757115,-0.001251,-0.000989,0.0757115,0.001251,0.0009889999999999,-0.1009075,-0.3146239999999999,0.038221,0.1075025,-0.326824,0.0443039999999999,-0.1036975,-0.638774,0.081505,0.1204725,-0.638604,0.0795839999999999,0
26,0.0035705,0.7710819999999999,0.0214204999999999,-0.1755815,0.499042,0.0141854999999999,-0.2232315,0.250002,0.0044864999999999,0.1416785,0.498082,0.0006274999999999,0.2339985,0.264122,0.0015054999999999,-0.2239915,0.0653479999999999,-0.0702105,0.2106985,0.396172,-0.1981405,-0.0757185,-0.0012569999999999,-0.0009875,0.0757185,0.001257,0.0009874999999999,-0.1009215,-0.314538,0.0382485,0.1074985,-0.326768,0.0443284999999999,-0.1037115,-0.6387280000000001,0.0815535,0.1204685,-0.638548,0.0795935,0
27,0.0033599999999999,0.7711235,0.0214655,-0.175595,0.4990635,0.0140694999999999,-0.223265,0.2500435,0.0044475,0.141675,0.4981235,0.0005724999999999,0.234105,0.2641635,0.0015924999999999,-0.223995,0.0653895,-0.0703615,0.2107649999999999,0.3961435,-0.1981514999999999,-0.075726,-0.0012595,-0.0009754999999999,0.075726,0.0012595,0.0009754999999999,-0.100935,-0.3144765,0.0382675,0.107495,-0.3267165,0.0443225,-0.103785,-0.6387665,0.0816235,0.120465,-0.6385065,0.0795955,0
28,0.0031234999999999,0.7711625,0.0215379999999999,-0.1755945,0.4990925,0.0139619999999999,-0.2232745,0.2500825,0.0044169999999999,0.1416755,0.4981625,0.0005109999999999,0.2342255,0.2642025,0.0016129999999999,-0.2239945,0.0654405,-0.070502,0.2108755,0.3961525,-0.198232,-0.0757285,-0.0012635,-0.0009629999999999,0.0757285,0.0012635,0.0009629999999999,-0.1009445,-0.3144175,0.038287,0.1075055,-0.3266675,0.044316,-0.1038445,-0.6388475,0.081681,0.1204755,-0.6384075,0.0796129999999999,0
29,0.0028745,0.7711865,0.0216549999999999,-0.1755935,0.4991164999999999,0.0138819999999999,-0.2233135,0.2501065,0.0043949999999999,0.1416765,0.4981865,0.0004889999999999,0.2343565,0.2642465,0.0016089999999999,-0.2239935,0.0655385,-0.0707049999999999,0.2109865,0.3961265,-0.198275,-0.0757305,-0.0012715,-0.000945,0.0757305,0.0012715,0.000945,-0.1009535,-0.3143935,0.038314,0.1075065,-0.3266335,0.0443379999999999,-0.1038935,-0.6389334999999999,0.081755,0.1204865,-0.6383435,0.079623,0
30,0.0026224999999999,0.7712285,0.021786,-0.1755895,0.4991385,0.0138329999999999,-0.2233895,0.2501685,0.0044159999999999,0.1417205,0.4981685,0.0004619999999999,0.2345005,0.2642685,0.001633,-0.2241095,0.0658245,-0.071173,0.2111205,0.3961485,-0.198323,-0.0757305,-0.0012785,-0.0009289999999999,0.0757305,0.0012785,0.0009289999999999,-0.1009695,-0.3143615,0.038336,0.1075105,-0.3266115,0.044357,-0.1039495,-0.6390215,0.0818329999999999,0.1205104999999999,-0.6382315,0.0796699999999999,0
31,0.0023504999999999,0.7712965,0.0220244999999999,-0.1755865,0.4991465,0.0138324999999999,-0.2235265,0.2503364999999999,0.0044405,0.1417735,0.4981665,0.0004884999999999,0.2346435,0.2643765,0.0015114999999999,-0.2244765,0.0668005,-0.0722675,0.2112435,0.3961665,-0.1983575,-0.0757345,-0.0012815,-0.0009055,0.0757345,0.0012815,0.0009054999999999,-0.1009765,-0.3143635,0.0383554999999999,0.1075035,-0.3266035,0.0443704999999999,-0.1039964999999999,-0.6391435,0.0818965,0.1205334999999999,-0.6380935,0.0796755,0
32,0.002064,0.7713665,0.022347,-0.175583,0.4991565,0.013863,-0.223733,0.2507565,0.004469,0.141837,0.4981965,0.0005189999999999,0.2347769999999999,0.2644365,0.0014629999999999,-0.225153,0.0683515,-0.073987,0.2113769999999999,0.3961665,-0.1983369999999999,-0.075736,-0.0012815,-0.000875,0.075736,0.0012815,0.000875,-0.100993,-0.3143535,0.038387,0.1075069999999999,-0.3265834999999999,0.044382,-0.104043,-0.6392535,0.081964,0.120547,-0.6379235,0.079691,0
33,0.001751,0.7715165,0.0227539999999999,-0.175555,0.4991765,0.0138889999999999,-0.223995,0.2515465,0.0045659999999999,0.141915,0.4982265,0.0005449999999999,0.234995,0.2648365,0.0007329999999999,-0.226245,0.0708215,-0.076762,0.211555,0.3962265,-0.198402,-0.075738,-0.0012815,-0.000844,0.075738,0.0012815,0.0008439999999999,-0.100995,-0.3143635,0.038414,0.107515,-0.3265535,0.0443789999999999,-0.104085,-0.6394735,0.08201,0.120605,-0.6377435,0.079716,0
34,0.0014325,0.771718,0.0232584999999999,-0.1754995,0.499268,0.0139024999999999,-0.2245695,0.252828,0.0045604999999999,0.1420805,0.498268,0.0007434999999999,0.2352405,0.265308,-0.0003795,-0.2279995,0.074615,-0.0809985,0.2117805,0.396328,-0.1985684999999999,-0.0757405,-0.00128,-0.0008235,0.0757405,0.00128,0.0008234999999999,-0.1009895,-0.314382,0.0384285,0.1075205,-0.326502,0.0443574999999999,-0.1041194999999999,-0.6396620000000001,0.0820365,0.1206905,-0.637582,0.0796854999999999,0
35,0.0011204999999999,0.7719395,0.0238309999999999,-0.1753945,0.4993795,0.013911,-0.2255145,0.2550595,0.0045079999999999,0.1423454999999999,0.4982695,0.00118,0.2356454999999999,0.2660395,-0.001777,-0.2308845,0.0803094999999999,-0.087082,0.2120955,0.3965695,-0.199062,-0.0757434999999999,-0.0012785,-0.00082,0.0757434999999999,0.0012785,0.00082,-0.1009745,-0.3143904999999999,0.038432,0.1075255,-0.3264404999999999,0.044309,-0.1041545,-0.6398604999999999,0.082042,0.1207955,-0.6374305,0.079634,0
36,0.0008114999999999,0.772225,0.0244665,-0.1752555,0.499545,0.0139585,-0.2267555,0.258755,0.0044525,0.1426345,0.498265,0.0016795,0.2366344999999999,0.267875,-0.0051205,-0.2342955,0.087825,-0.0947155,0.2126044999999999,0.397325,-0.1999455,-0.0757485,-0.0012749999999999,-0.0008164999999999,0.0757485,0.001275,0.0008165,-0.1009555,-0.314405,0.0384505,0.1075344999999999,-0.326385,0.0442685,-0.1041355,-0.639975,0.0820715,0.1209145,-0.637275,0.0795805,0
37,0.0005089999999999,0.772546,0.0251695,-0.175082,0.499716,0.0140305,-0.228632,0.263776,0.0043735,0.1429679999999999,0.498246,0.0022715,0.237778,0.269846,-0.0087244999999999,-0.238532,0.099232,-0.1042744999999999,0.213278,0.398716,-0.2009445,-0.0757539999999999,-0.001269,-0.0007964999999999,0.0757539999999999,0.001269,0.0007964999999999,-0.100932,-0.314474,0.0385065,0.1075579999999999,-0.326374,0.0442155,-0.104112,-0.640064,0.0820645,0.121068,-0.637294,0.0795435,0
38,0.000192,0.7729425000000001,0.026104,-0.174846,0.5000425000000001,0.014242,-0.230726,0.2694825,0.0041609999999999,0.143354,0.4982225,0.0029249999999999,0.239284,0.2722325,-0.012291,-0.243976,0.1138225,-0.1146939999999999,0.214404,0.4009525,-0.202474,-0.075765,-0.0012595,-0.000766,0.075765,0.0012595,0.000766,-0.100886,-0.3145575,0.0385729999999999,0.107604,-0.3263875,0.044177,-0.104076,-0.6401975,0.082044,0.121224,-0.6373975,0.079487,0
39,-0.000136,0.7733305,0.0272265,-0.174549,0.5003704999999999,0.0144915,-0.233459,0.2766805,0.0030375,0.143851,0.4981905,0.0035715,0.241711,0.2760905,-0.0178634999999999,-0.251529,0.1324705,-0.1268845,0.215941,0.4033905,-0.2041545,-0.075777,-0.0012455,-0.0007204999999999,0.075777,0.0012454999999999,0.0007205,-0.100839,-0.3146394999999999,0.0386615,0.1076609999999999,-0.3263995,0.0441465,-0.103989,-0.6402295,0.0819885,0.1213709999999999,-0.6377295,0.0793955,0
40,-0.0004729999999999,0.7736945000000001,0.0283805,-0.174395,0.5005745,0.0147375,-0.237815,0.2841445,-0.0007934999999999,0.144525,0.4981345,0.0041195,0.244545,0.2803745,-0.0238424999999999,-0.258805,0.1543445,-0.1428055,0.218435,0.4071145,-0.2065255,-0.075791,-0.0012315,-0.0006614999999999,0.075791,0.0012315,0.0006615,-0.100785,-0.3147454999999999,0.0387445,0.107685,-0.3264455,0.0441055,-0.103925,-0.6402355,0.0819445,0.121535,-0.6381654999999999,0.0792725,0
41,-0.0008109999999999,0.774078,0.0297179999999999,-0.1742439999999999,0.500748,0.014945,-0.2427339999999999,0.291538,-0.005511,0.145296,0.498028,0.0045409999999999,0.248696,0.286678,-0.031768,-0.266014,0.175798,-0.158941,0.222216,0.414948,-0.211491,-0.075816,-0.001204,-0.000577,0.075816,0.001204,0.000577,-0.100694,-0.314882,0.038817,0.107736,-0.326502,0.04403,-0.1038139999999999,-0.640332,0.081845,0.121736,-0.638332,0.079174,0
42,-0.0011385,0.774423,0.0311089999999999,-0.1741774999999999,0.500873,0.015108,-0.2485475,0.299963,-0.011069,0.1461124999999999,0.497913,0.0048899999999999,0.2531325,0.293233,-0.039437,-0.2780975,0.2006629999999999,-0.174412,0.2263425,0.424423,-0.2171219999999999,-0.0758495,-0.00117,-0.000459,0.0758495,0.0011699999999999,0.000459,-0.1005775,-0.3150469999999999,0.038872,0.1077925,-0.3265869999999999,0.043933,-0.1036875,-0.6405270000000001,0.081716,0.1219325,-0.638667,0.079028,0
43,-0.0014869999999999,0.774768,0.032624,-0.174093,0.500988,0.015874,-0.257893,0.3094079999999999,-0.020734,0.146897,0.4976879999999999,0.0049879999999999,0.258317,0.302608,-0.049351,-0.2895529999999999,0.231438,-0.192873,0.231177,0.436218,-0.223603,-0.075891,-0.001139,-0.000306,0.075891,0.001139,0.000306,-0.100433,-0.315202,0.038908,0.107887,-0.326792,0.043862,-0.1035229999999999,-0.640702,0.081542,0.122137,-0.639062,0.078842,0
44,-0.0019315,0.7752225,0.034495,-0.1739945,0.5011525,0.016437,-0.2671845,0.3183325,-0.030522,0.1476555,0.4973425,0.004808,0.2641055,0.3139025,-0.0595049999999999,-0.3008745,0.2666025,-0.209519,0.2370054999999999,0.4510525,-0.230599,-0.0759374999999999,-0.0011095,-0.000133,0.0759374999999999,0.0011095,0.000133,-0.1002445,-0.3153574999999999,0.038915,0.1080055,-0.3269975,0.043793,-0.1033445,-0.6408674999999999,0.081335,0.1223354999999999,-0.6394575,0.078601,0
45,-0.002451,0.7756365,0.0366275,-0.173958,0.5012365,0.0167925,-0.276898,0.3275665,-0.0406465,0.148442,0.4971764999999999,0.0045974999999999,0.269792,0.3250865,-0.0679055,-0.311828,0.3055565,-0.2250255,0.2438219999999999,0.4689665,-0.2371554999999999,-0.075991,-0.0010765,7.150000000000212e-05,0.075991,0.0010765,-7.150000000000212e-05,-0.1000379999999999,-0.3155635,0.0388985,0.108152,-0.3272335,0.0437365,-0.1031479999999999,-0.6409535,0.0810935,0.122502,-0.6400535,0.0783015,0
46,-0.003028,0.7760779999999999,0.0390214999999999,-0.174025,0.5013179999999999,0.0167564999999999,-0.287135,0.339528,-0.0524605,0.1492949999999999,0.497108,0.0044755,0.2760749999999999,0.338668,-0.0769505,-0.322455,0.344918,-0.2381705,0.251275,0.488508,-0.2428405,-0.076044,-0.0010479999999999,0.0002744999999999,0.076044,0.0010479999999999,-0.0002745,-0.099815,-0.315732,0.0388405,0.1083249999999999,-0.327592,0.0437044999999999,-0.102925,-0.641042,0.0808435,0.122685,-0.640652,0.0779835,0
47,-0.003583,0.7763985,0.041329,-0.174217,0.5013885,0.016538,-0.298057,0.3530884999999999,-0.065315,0.150343,0.4969685,0.004441,0.2848429999999999,0.3565985,-0.0893749999999999,-0.3325369999999999,0.3873784999999999,-0.249555,0.2591529999999999,0.5110285,-0.246685,-0.076085,-0.0010275,0.00046,0.076085,0.0010275,-0.0004599999999999,-0.099567,-0.3159715,0.038776,0.1085329999999999,-0.3280915,0.043694,-0.102687,-0.6411815,0.080601,0.1228829999999999,-0.6413015,0.077671,0
48,-0.0041175,0.7766295,0.043565,-0.1745665,0.5014995,0.016315,-0.3084865,0.3681695,-0.078703,0.1515335,0.4967495,0.0043149999999999,0.2929035,0.3738895,-0.097803,-0.3408365,0.4315695,-0.257903,0.2672234999999999,0.5365995,-0.249343,-0.0761195,-0.0010055,0.000639,0.0761195,0.0010055,-0.000639,-0.0992865,-0.3162905,0.038685,0.1087935,-0.3286905,0.043684,-0.1024165,-0.6413305,0.080319,0.1231035,-0.6420505,0.077349,0
49,-0.0046059999999999,0.776611,0.0457415,-0.174938,0.501901,0.0160675,-0.317688,0.389281,-0.0897645,0.152972,0.496791,0.0042675,0.300722,0.393531,-0.1052444999999999,-0.349518,0.476261,-0.2609745,0.275362,0.563831,-0.2499844999999999,-0.076134,-0.000979,0.0008345,0.076134,0.000979,-0.0008344999999999,-0.098938,-0.316859,0.0385805,0.109122,-0.329449,0.0436845,-0.1020879999999999,-0.641779,0.0800225,0.123412,-0.642719,0.0770515,0
50,-0.00507,0.776355,0.047803,-0.175429,0.502425,0.0156749999999999,-0.325899,0.410735,-0.100338,0.1545409999999999,0.496905,0.0040739999999999,0.307291,0.411875,-0.112078,-0.3584589999999999,0.524475,-0.262528,0.283131,0.588005,-0.250128,-0.076112,-0.000937,0.0010169999999999,0.076112,0.000937,-0.001017,-0.098549,-0.317615,0.038508,0.1095009999999999,-0.3304649999999999,0.043697,-0.101729,-0.642465,0.079744,0.1237709999999999,-0.643675,0.076769,0
51,-0.005556,0.7757394999999999,0.04985,-0.175873,0.5031595,0.015136,-0.332673,0.4353795,-0.109267,0.156247,0.4970895,0.003988,0.313677,0.4300495,-0.118337,-0.362243,0.5719995,-0.262667,0.291267,0.6120895,-0.250157,-0.076054,-0.0008714999999999,0.0010889999999999,0.076054,0.0008714999999999,-0.0010889999999999,-0.0981829999999999,-0.3187605,0.038536,0.109847,-0.3316105,0.043826,-0.101403,-0.6435605000000001,0.079562,0.124107,-0.6447105000000001,0.076623,0
52,-0.006114,0.774743,0.051778,-0.175943,0.504143,0.0146099999999999,-0.334213,0.463163,-0.112338,0.158037,0.4976629999999999,0.0041329999999999,0.318557,0.451533,-0.119288,-0.365703,0.618493,-0.262728,0.299217,0.636043,-0.250118,-0.075939,-0.0008359999999999,0.001085,0.075939,0.0008359999999999,-0.001085,-0.097863,-0.3203169999999999,0.038619,0.110097,-0.3330269999999999,0.043975,-0.101173,-0.645057,0.079404,0.1243769999999999,-0.646127,0.076613,0
53,-0.0066295,0.7732450000000001,0.053258,-0.1758805,0.505495,0.014179,-0.3346805,0.492185,-0.1143319999999999,0.1599095,0.498405,0.0044189999999999,0.3221695,0.473375,-0.119252,-0.3680105,0.659085,-0.262762,0.3063594999999999,0.659415,-0.247162,-0.0757994999999999,-0.0007889999999999,0.001081,0.0757994999999999,0.000789,-0.0010809999999999,-0.0976105,-0.3221349999999999,0.038719,0.1102995,-0.3348449999999999,0.044108,-0.1009905,-0.6467649999999999,0.079274,0.1245695,-0.647945,0.076577,0
54,-0.007096,0.771312,0.0543215,-0.175727,0.507182,0.0138975,-0.334517,0.5220119999999999,-0.1153064999999999,0.161773,0.499362,0.0048185,0.324773,0.495382,-0.1192865,-0.370197,0.700232,-0.2626165,0.312643,0.6812819999999999,-0.2417165,-0.0756469999999999,-0.000775,0.0010675,0.0756469999999999,0.000775,-0.0010674999999999,-0.097427,-0.3243879999999999,0.0387495,0.110483,-0.3370979999999999,0.0441525,-0.100837,-0.6489480000000001,0.0790385,0.124753,-0.650208,0.0765025,0
55,-0.0076025,0.7684495,0.0550325,-0.1755914999999999,0.5096495,0.0131155,-0.3343915,0.5514295,-0.1153225,0.1636585,0.5011495,0.0060044999999999,0.3260985,0.5184495,-0.1192925,-0.3716015,0.7389795,-0.2552725,0.3180885,0.7068795,-0.2337225,-0.0755214999999999,-0.0008395,0.0010515,0.0755214999999999,0.0008395,-0.0010514999999999,-0.0972814999999999,-0.3276205,0.0388165,0.1106385,-0.3402305,0.0442225,-0.1007315,-0.6522605,0.0788135,0.1248884999999999,-0.6536305,0.0764225,0
56,-0.0081145,0.76527,0.055487,-0.1754814999999999,0.51218,0.012579,-0.3342815,0.5795899999999999,-0.115323,0.1651085,0.50335,0.007494,0.3261985,0.53781,-0.117613,-0.3720615,0.77611,-0.245653,0.3224085,0.72956,-0.223483,-0.0754114999999999,-0.0008629999999999,0.0010519999999999,0.0754114999999999,0.000863,-0.0010519999999999,-0.0971315,-0.33113,0.03889,0.1107585,-0.3437099999999999,0.044222,-0.1006715,-0.65586,0.078595,0.1250085,-0.6572600000000001,0.076388,0
57,-0.0086635,0.7618754999999999,0.0557595,-0.1752085,0.5149555,0.0123015,-0.3333285,0.6071455,-0.1152825,0.1664915,0.5056754999999999,0.0092475,0.3262414999999999,0.5574355,-0.1159625,-0.3720885,0.8084454999999999,-0.2356224999999999,0.3259315,0.7504955,-0.2114725,-0.0753315,-0.0008905,0.0010225,0.0753315,0.0008904999999999,-0.0010224999999999,-0.0970485,-0.3348645,0.0389765,0.1108315,-0.3473644999999999,0.0442525,-0.1006685,-0.6597345,0.0784305,0.1250815,-0.6611745,0.0763845,0
58,-0.00924,0.7583775,0.055777,-0.1748529999999999,0.5174974999999999,0.012318,-0.330693,0.6293274999999999,-0.113959,0.167167,0.5077375,0.011009,0.326197,0.5760075,-0.1128889999999999,-0.372213,0.8373375,-0.223709,0.328177,0.7696075,-0.198699,-0.075267,-0.0009315,0.00101,0.075267,0.0009314999999999,-0.0010099999999999,-0.097043,-0.3387725,0.039054,0.110817,-0.3510625,0.044266,-0.100753,-0.6638125,0.078205,0.125097,-0.6652725,0.076368,0
59,-0.0098365,0.7548604999999999,0.055767,-0.1743055,0.5200104999999999,0.0123189999999999,-0.3265055,0.6522604999999999,-0.1106439999999999,0.1676945,0.5097605000000001,0.0127059999999999,0.3240445,0.5949405000000001,-0.104754,-0.3723955,0.8637904999999999,-0.210784,0.3290945,0.7910505000000001,-0.184994,-0.0752045,-0.0009905,0.0010149999999999,0.0752045,0.0009904999999999,-0.001015,-0.0970555,-0.3426195,0.0390919999999999,0.1107644999999999,-0.3537195,0.04424,-0.1008855,-0.6680495,0.077966,0.1250745,-0.6693895000000001,0.076344,0
60,-0.0104319999999999,0.7512905000000001,0.055795,-0.173563,0.5224705000000001,0.01236,-0.321133,0.6713405,-0.105331,0.1679169999999999,0.5120405,0.014553,0.321217,0.6147405,-0.096921,-0.372173,0.8876005,-0.197401,0.329077,0.8126805,-0.1713309999999999,-0.075102,-0.0010735,0.001081,0.075102,0.0010735,-0.0010809999999999,-0.097093,-0.3465095,0.039167,0.110687,-0.3563195,0.04422,-0.101103,-0.6725694999999999,0.077642,0.125047,-0.6736395,0.076359,0
61,-0.011025,0.7478600000000001,0.055886,-0.172698,0.52493,0.012596,-0.3159079999999999,0.68669,-0.099096,0.167922,0.51404,0.01631,0.317572,0.62947,-0.088446,-0.370818,0.90812,-0.1821459999999999,0.328832,0.8317800000000001,-0.1581759999999999,-0.074968,-0.001154,0.001152,0.074968,0.001154,-0.001152,-0.097158,-0.35021,0.039312,0.110572,-0.3587399999999999,0.044202,-0.101408,-0.6771699999999999,0.077419,0.124982,-0.67775,0.076502,0
62,-0.0116504999999999,0.7444419999999999,0.0557345,-0.1717545,0.527102,0.0131004999999999,-0.3102145,0.700782,-0.0920385,0.1677355,0.516002,0.0182395,0.3132155,0.642332,-0.0801185,-0.3688545,0.928372,-0.1673285,0.3285254999999999,0.849962,-0.1440585,-0.0748305,-0.0012409999999999,0.0012075,0.0748305,0.0012409999999999,-0.0012075,-0.0972615,-0.353938,0.0394615,0.1104354999999999,-0.361128,0.0441735,-0.1017645,-0.681878,0.0771795,0.1248755,-0.681968,0.0766294999999999,0
63,-0.0122474999999999,0.7413715,0.0553805,-0.1709445,0.5293515,0.0139035,-0.3047345,0.7128315,-0.0851055,0.1675355,0.5175915,0.0199925,0.3084854999999999,0.6556814999999999,-0.0715355,-0.3663145,0.9431215,-0.1523655,0.3282255,0.8662814999999999,-0.1308455,-0.0747205,-0.0012544999999999,0.0012635,0.0747205,0.0012544999999999,-0.0012634999999999,-0.0973584999999999,-0.3573285,0.0395705,0.1103055,-0.3633685,0.0440645,-0.1021145,-0.6863885000000001,0.0769625,0.1247554999999999,-0.6859085,0.0767235,0
64,-0.0127065,0.7391505,0.054757,-0.1703615,0.5308105000000001,0.014746,-0.3003415,0.7215405,-0.079375,0.1673885,0.5183905000000001,0.02108,0.3039285,0.6663505000000001,-0.0643649999999999,-0.3638915,0.9560605,-0.138785,0.3272485,0.8765205,-0.118515,-0.0746585,-0.0011954999999999,0.001306,0.0746585,0.0011955,-0.001306,-0.0974135,-0.3598095,0.039611,0.1102085,-0.3646295,0.043933,-0.1024015,-0.6904994999999999,0.076636,0.1246785,-0.6891495,0.076784,0
65,-0.0131174999999999,0.7371584999999999,0.0539474999999999,-0.1698454999999999,0.5322585,0.0155554999999999,-0.2965555,0.7292385,-0.0741735,0.1672445,0.5187284999999999,0.0219464999999999,0.2994445,0.6768885,-0.0577345,-0.3614255,0.9639085,-0.1269934999999999,0.3256445,0.8860184999999999,-0.1068935,-0.0746205,-0.0010915,0.0013284999999999,0.0746205,0.0010914999999999,-0.0013285,-0.0974704999999999,-0.3621115,0.0396334999999999,0.1102445,-0.3651014999999999,0.0438174999999999,-0.1026755,-0.6944615000000001,0.0762974999999999,0.1246345,-0.6922015,0.0768575,0
66,-0.0134795,0.735337,0.0529525,-0.1694324999999999,0.533437,0.0160694999999999,-0.2933825,0.734707,-0.0694585,0.1670375,0.518837,0.0225644999999999,0.2950675,0.687047,-0.0515785,-0.3590125,0.971017,-0.1145185,0.3234675,0.894257,-0.0957684999999999,-0.0745865,-0.001018,0.0014074999999999,0.0745865,0.0010179999999999,-0.0014075,-0.0975395,-0.364133,0.0395504999999999,0.1103075,-0.365433,0.0436245,-0.1029225,-0.698333,0.0758935,0.1246075,-0.695223,0.0768645,0
67,-0.013853,0.73364,0.0518654999999999,-0.1691099999999999,0.53433,0.0164274999999999,-0.29063,0.7391099999999999,-0.0649135,0.1665999999999999,0.51935,0.0234214999999999,0.2908,0.69594,-0.0461005,-0.35689,0.97726,-0.1032734999999999,0.32123,0.9024,-0.0850635,-0.074598,-0.0009969999999999,0.0015004999999999,0.074598,0.0009969999999999,-0.0015005,-0.097556,-0.36582,0.0393965,0.11036,-0.36568,0.0434135,-0.10318,-0.70196,0.0754944999999999,0.12457,-0.69824,0.0768185,0
68,-0.0142199999999999,0.7319775,0.050753,-0.1689419999999999,0.5348774999999999,0.016683,-0.288442,0.7421475,-0.060966,0.166078,0.5200175,0.024356,0.286628,0.7038875,-0.041111,-0.3549819999999999,0.9824975,-0.093335,0.319128,0.9070475,-0.075985,-0.074626,-0.0010295,0.001598,0.074626,0.0010295,-0.001598,-0.097576,-0.3674225,0.039292,0.110368,-0.3668125,0.043299,-0.1034819999999999,-0.7056925000000001,0.0750649999999999,0.124498,-0.7012025,0.076767,0
69,-0.0146045,0.7306809999999999,0.0496165,-0.1688445,0.5351509999999999,0.0168545,-0.2866145,0.744571,-0.0573135,0.1656755,0.520381,0.0251215,0.2825355,0.7110909999999999,-0.0364874999999999,-0.3535345,0.986561,-0.0846175,0.3171755,0.909801,-0.0676575,-0.0746805,-0.0010539999999999,0.0016985,0.0746805,0.0010539999999999,-0.0016984999999999,-0.0975865,-0.368689,0.0391865,0.1103555,-0.3674989999999999,0.0431975,-0.1037645,-0.7090190000000001,0.0747355,0.1244155,-0.703809,0.0766545,0
70,-0.0150044999999999,0.72951,0.0485395,-0.1688675,0.53503,0.0169815,-0.2851975,0.74614,-0.0540145,0.1651725,0.52063,0.0258965,0.2787825,0.71747,-0.0323235,-0.3528175,0.98761,-0.0783375,0.3154025,0.91343,-0.0594354999999999,-0.0747545,-0.0010539999999999,0.0017765,0.0747545,0.0010539999999999,-0.0017765,-0.0976295,-0.36978,0.0390975,0.1102625,-0.36811,0.0431155,-0.1040175,-0.71198,0.0744265,0.1243125,-0.7061,0.0765955,0
71,-0.015407,0.728646,0.047501,-0.168932,0.5347259999999999,0.017047,-0.284012,0.747286,-0.051015,0.1646379999999999,0.520846,0.026423,0.275208,0.723326,-0.0285569999999999,-0.352222,0.988456,-0.072001,0.313988,0.915276,-0.0528539999999999,-0.0748409999999999,-0.001062,0.001805,0.0748409999999999,0.001062,-0.001805,-0.097748,-0.370484,0.038981,0.110148,-0.368454,0.043017,-0.104312,-0.714584,0.074098,0.1241579999999999,-0.708144,0.076533,0
72,-0.015811,0.727818,0.046483,-0.169008,0.533928,0.01694,-0.283038,0.747938,-0.04857,0.164102,0.521248,0.026891,0.271932,0.727528,-0.0254869999999999,-0.352078,0.988578,-0.0668189999999999,0.312722,0.916788,-0.0471469999999999,-0.074933,-0.0011099999999999,0.001764,0.074933,0.0011099999999999,-0.0017639999999999,-0.097909,-0.371132,0.038838,0.110012,-0.368762,0.042865,-0.1046079999999999,-0.717002,0.073705,0.123982,-0.710072,0.076434,0
73,-0.0162065,0.7270375,0.0455645,-0.1691075,0.5331674999999999,0.0168345,-0.2823375,0.7483175,-0.0466144999999999,0.1635425,0.5217775,0.0273725,0.2689225,0.7311074999999999,-0.0227815,-0.3519575,0.9885575,-0.0624395,0.3117425,0.9183775,-0.0421345,-0.0750195,-0.0011665,0.0017124999999999,0.0750195,0.0011665,-0.0017124999999999,-0.0981095,-0.3718125,0.0387044999999999,0.1098525,-0.3691625,0.0427295,-0.1048475,-0.7186525,0.0734235,0.1238025,-0.7117025,0.0763175,0
74,-0.0165655,0.726344,0.0447884999999999,-0.1692624999999999,0.532214,0.0166894999999999,-0.2817725,0.748714,-0.0450145,0.1629375,0.522324,0.0278154999999999,0.2662675,0.7339439999999999,-0.0206255,-0.3519225,0.988474,-0.0590285,0.3110774999999999,0.919944,-0.0377015,-0.0751044999999999,-0.001298,0.0016574999999999,0.0751044999999999,0.0012979999999999,-0.0016574999999999,-0.0982865,-0.372326,0.0385205,0.1096375,-0.369936,0.0426395,-0.1050625,-0.7199960000000001,0.0731695,0.1236174999999999,-0.7129960000000001,0.0762065,0
75,-0.016954,0.7255635,0.044038,-0.169426,0.5312135,0.01652,-0.281386,0.7487335,-0.043986,0.1618339999999999,0.5246335,0.028539,0.2639439999999999,0.7357435,-0.01909,-0.351816,0.9879035,-0.056861,0.3104039999999999,0.9210435,-0.034755,-0.07517,-0.0014175,0.001596,0.07517,0.0014175,-0.001596,-0.098509,-0.3728665,0.038275,0.109404,-0.3708265,0.042523,-0.105296,-0.7213665,0.072913,0.123384,-0.7143665,0.076071,0
76,-0.0172929999999999,0.7247465,0.043343,-0.169566,0.5305865000000001,0.016406,-0.281096,0.7486165,-0.043314,0.160794,0.5259465000000001,0.028868,0.262044,0.7367165,-0.0180579999999999,-0.351156,0.9869765,-0.0555299999999999,0.3095839999999999,0.9207265,-0.032995,-0.075211,-0.0014694999999999,0.001527,0.075211,0.0014695,-0.001527,-0.0986779999999999,-0.3735835,0.038028,0.109234,-0.3717335,0.042363,-0.105456,-0.7227935000000001,0.072643,0.123214,-0.7157935,0.075922,0
77,-0.0175665,0.7240495,0.042758,-0.1696385,0.5301494999999999,0.016274,-0.2808285,0.7485894999999999,-0.0428329999999999,0.1598615,0.5270495,0.028952,0.2605015,0.7373995,-0.01727,-0.3503585,0.9859795,-0.0548199999999999,0.3088214999999999,0.9204295,-0.0320199999999999,-0.0752434999999999,-0.0014844999999999,0.001456,0.0752434999999999,0.0014844999999999,-0.0014559999999999,-0.0987695,-0.3740805,0.037792,0.1090415,-0.3723205,0.04222,-0.1055585,-0.7240905000000001,0.07243,0.1231215,-0.7170905000000001,0.07575,0
78,-0.0178055,0.723373,0.0422904999999999,-0.1697215,0.529833,0.0161604999999999,-0.2806215,0.748553,-0.0425735,0.1589585,0.528313,0.0291194999999999,0.2592985,0.7375630000000001,-0.0167655,-0.3494715,0.984803,-0.0545495,0.3080085,0.920163,-0.0313665,-0.0752625,-0.001514,0.0013844999999999,0.0752625,0.001514,-0.0013845,-0.0988425,-0.374427,0.0375814999999999,0.1088385,-0.373037,0.0420944999999999,-0.1056215,-0.7251169999999999,0.0722265,0.1230385,-0.718267,0.0755605,0
79,-0.0179974999999999,0.722796,0.0419244999999999,-0.1697615,0.529706,0.0160445,-0.2804315,0.748516,-0.0425485,0.1580085,0.529606,0.0291785,0.2584085,0.737486,-0.0166395,-0.3484414999999999,0.983766,-0.0546355,0.3071885,0.919346,-0.0314565,-0.0752645,-0.0015409999999999,0.0013205,0.0752645,0.001541,-0.0013205,-0.0989135,-0.374714,0.0373695,0.1086785,-0.373654,0.0419625,-0.1056415,-0.726014,0.0720105,0.1229985,-0.719264,0.0753445,0
80,-0.018164,0.722258,0.041664,-0.16976,0.529728,0.015986,-0.2803,0.748428,-0.042697,0.15701,0.530868,0.029284,0.25778,0.737248,-0.016727,-0.34729,0.983008,-0.054795,0.30638,0.918618,-0.031665,-0.075264,-0.001545,0.001271,0.075264,0.0015449999999999,-0.001271,-0.098978,-0.374932,0.037175,0.10854,-0.374202,0.041833,-0.1056,-0.7267220000000001,0.071811,0.1229899999999999,-0.720012,0.075166,0
81,-0.0183394999999999,0.721716,0.041471,-0.1697965,0.529826,0.016041,-0.2802265,0.748256,-0.042878,0.1559935,0.532036,0.029357,0.2573735,0.736916,-0.0169129999999999,-0.3460565,0.982186,-0.054965,0.3054935,0.917926,-0.0318549999999999,-0.0752585,-0.0015619999999999,0.001226,0.0752585,0.0015619999999999,-0.0012259999999999,-0.0990514999999999,-0.375164,0.037009,0.1084035,-0.374714,0.041715,-0.1055764999999999,-0.7272540000000001,0.071662,0.1229535,-0.720784,0.075027,0
82,-0.0185095,0.721177,0.041285,-0.1698845,0.5300969999999999,0.016095,-0.2801645,0.748097,-0.043061,0.1548155,0.533117,0.029335,0.2570555,0.736227,-0.0170999999999999,-0.3448745,0.981497,-0.0551379999999999,0.3045155,0.917177,-0.0320479999999999,-0.0752585,-0.00157,0.001183,0.0752585,0.00157,-0.0011829999999999,-0.0991015,-0.375363,0.036831,0.1082954999999999,-0.375233,0.041599,-0.1055545,-0.7278530000000001,0.071522,0.1228954999999999,-0.7214830000000001,0.074893,0
83,-0.0186935,0.7206695,0.0411025,-0.1700145,0.5304195,0.0162175,-0.2801145,0.7478995,-0.0432415,0.1536855,0.5341795,0.0293035,0.2568255,0.7353795,-0.0172825,-0.3436345,0.9813395,-0.0554775,0.3034855,0.9163295,-0.0324875,-0.0752555,-0.0016004999999999,0.0011535,0.0752555,0.0016005,-0.0011534999999999,-0.0991615,-0.3756505,0.0366505,0.1082055,-0.3756605,0.0414795,-0.1055045,-0.7283605,0.0713955,0.1228655,-0.7220805,0.0747695,0
84,-0.0188549999999999,0.7203404999999999,0.0409434999999999,-0.1701389999999999,0.5307704999999999,0.0163674999999999,-0.280039,0.7478505,-0.0434765,0.152951,0.5339005,0.0291734999999999,0.256671,0.7348604999999999,-0.0175345,-0.342409,0.9814705,-0.0562265,0.302881,0.9158305,-0.0331765,-0.075248,-0.0016074999999999,0.0011444999999999,0.075248,0.0016074999999999,-0.0011445,-0.099191,-0.3758395,0.0364754999999999,0.1081709999999999,-0.3759595,0.0413544999999999,-0.1054489999999999,-0.7285695000000001,0.0712875,0.1228509999999999,-0.7224695,0.0746665,0
85,-0.0189959999999999,0.720305,0.0408695,-0.170318,0.5310349999999999,0.0165185,-0.279988,0.747985,-0.0437764999999999,0.152152,0.533915,0.0290765,0.256532,0.734605,-0.0179415,-0.341688,0.982095,-0.0571315,0.302542,0.915625,-0.0340575,-0.0752309999999999,-0.0016049999999999,0.0011595,0.0752309999999999,0.001605,-0.0011595,-0.0992029999999999,-0.375815,0.0363385,0.1082019999999999,-0.3759249999999999,0.0412525,-0.105378,-0.728575,0.0712545,0.122852,-0.722615,0.0746015,0
86,-0.0191435,0.7203115,0.0408145,-0.1705215,0.5313215,0.0166825,-0.2799415,0.7480715,-0.0441595,0.1513485,0.5339915000000001,0.0289574999999999,0.2564185,0.7343815,-0.0184685,-0.3412415,0.9825715000000002,-0.0579705,0.3022384999999999,0.9153315,-0.0352645,-0.0752065,-0.0015934999999999,0.0011854999999999,0.0752065,0.0015934999999999,-0.0011854999999999,-0.0992005,-0.3759285,0.0361755,0.1082185,-0.3759985,0.0411315,-0.1053615,-0.7286385,0.0712275,0.1228485,-0.7226984999999999,0.0745504999999999,0
87,-0.0192875,0.7203545,0.040785,-0.1707675,0.5316844999999999,0.016829,-0.2798975,0.7480344999999999,-0.044528,0.1505725,0.5338645,0.028725,0.2563425,0.7340545,-0.019207,-0.3408975,0.9825245,-0.058868,0.3020025,0.9150845,-0.036899,-0.0751985,-0.0015765,0.0012199999999999,0.0751985,0.0015764999999999,-0.0012199999999999,-0.0991865,-0.3761755,0.035962,0.1082325,-0.3761155,0.040989,-0.1053475,-0.7287855000000001,0.0711509999999999,0.1228525,-0.7228555000000001,0.074462,0
88,-0.0194325,0.7203165,0.0407725,-0.1709854999999999,0.5320064999999999,0.0169485,-0.2798755,0.7479365,-0.0449375,0.1501845,0.5335765,0.0285065,0.2563445,0.7337064999999999,-0.0200735,-0.3406755,0.9823365,-0.0597445,0.3020145,0.9148065,-0.0386454999999999,-0.0751985,-0.0015624999999999,0.0012215,0.0751985,0.0015625,-0.0012215,-0.0991835,-0.3764634999999999,0.0356495,0.1082345,-0.3764035,0.0408305,-0.1053755,-0.7289835,0.0709905,0.1228345,-0.7231435,0.0742734999999999,0
89,-0.0195795,0.7203120000000001,0.040756,-0.1711725,0.5323220000000001,0.017024,-0.2798425,0.747862,-0.045359,0.1498775,0.533302,0.028232,0.2563474999999999,0.733382,-0.021023,-0.3405325,0.982062,-0.060641,0.3020374999999999,0.914652,-0.040872,-0.0751985,-0.001575,0.001244,0.0751985,0.0015749999999999,-0.001244,-0.0991795,-0.376738,0.03526,0.1083375,-0.3766779999999999,0.040597,-0.1054225,-0.729258,0.070719,0.1228175,-0.723468,0.074002,0
90,-0.0197145,0.720348,0.040681,-0.1712904999999999,0.5326179999999999,0.016941,-0.2798005,0.7478279999999999,-0.0458509999999999,0.1496595,0.533068,0.027859,0.2563594999999999,0.733108,-0.0220929999999999,-0.3405305,0.981828,-0.061447,0.3020595,0.914598,-0.0432309999999999,-0.0751995,-0.0015769999999999,0.001239,0.0751995,0.0015769999999999,-0.0012389999999999,-0.0991005,-0.377282,0.034747,0.1084894999999999,-0.3769119999999999,0.040262,-0.1055005,-0.7295020000000001,0.070347,0.1227995,-0.723812,0.073631,0
91,-0.0198545,0.720394,0.0405095,-0.1713704999999999,0.532784,0.0167585,-0.2797905,0.747714,-0.0463965,0.1496095,0.533114,0.0273855,0.2563395,0.732794,-0.0233285,-0.3405605,0.981374,-0.0624254999999999,0.3020595,0.914654,-0.0456935,-0.0751905,-0.001597,0.0012005,0.0751905,0.001597,-0.0012005,-0.0989994999999999,-0.377996,0.0339654999999999,0.1087195,-0.377226,0.0397314999999999,-0.1056205,-0.729766,0.0698125,0.1227495,-0.724186,0.0730975,0
92,-0.0200009999999999,0.720465,0.0402289999999999,-0.171461,0.5330349999999999,0.0164389999999999,-0.279831,0.747595,-0.047079,0.1495189999999999,0.533185,0.0268939999999999,0.256319,0.732505,-0.024719,-0.3406309999999999,0.981065,-0.063578,0.302079,0.914425,-0.048051,-0.075157,-0.001589,0.0012219999999999,0.075157,0.0015889999999999,-0.001222,-0.098881,-0.378955,0.0328939999999999,0.108929,-0.377525,0.039068,-0.105791,-0.7300650000000001,0.0690379999999999,0.122679,-0.724535,0.0723949999999999,0
93,-0.0200965,0.720542,0.0397815,-0.1715485,0.533382,0.0161504999999999,-0.2798785,0.747462,-0.0479805,0.1494315,0.533282,0.0261465,0.2563415,0.732212,-0.0263295,-0.3407385,0.980862,-0.0648125,0.3021715,0.914372,-0.0504975,-0.0751085,-0.0015479999999999,0.0013134999999999,0.0751085,0.0015479999999999,-0.0013134999999999,-0.0986975,-0.380248,0.0314445,0.1092114999999999,-0.377838,0.0381704999999999,-0.1059685,-0.730368,0.0680375,0.1225914999999999,-0.724918,0.0714625,0
94,-0.0202105,0.7206515,0.0391535,-0.1716675,0.5338215000000001,0.0156984999999999,-0.2799275,0.7473715,-0.0490805,0.1492925,0.5334015,0.0253025,0.2563824999999999,0.7319915,-0.0280745,-0.3409175,0.9806715,-0.0661664999999999,0.3023625,0.9142015,-0.0529775,-0.0750515,-0.0014805,0.0014535,0.0750515,0.0014804999999999,-0.0014535,-0.0984704999999999,-0.3815885,0.0296304999999999,0.1094924999999999,-0.3780485,0.0370555,-0.1061874999999999,-0.7306085,0.0667655,0.1225024999999999,-0.7250584999999999,0.0703375,0
95,-0.0203514999999999,0.7206809999999999,0.038287,-0.1717745,0.534251,0.0151449999999999,-0.2800045,0.7472909999999999,-0.0504089999999999,0.1491555,0.5335110000000001,0.0241069999999999,0.2564455,0.731741,-0.03006,-0.3411745,0.979601,-0.067828,0.3026355,0.914041,-0.055844,-0.0749934999999999,-0.00141,0.0015599999999999,0.0749934999999999,0.0014099999999999,-0.00156,-0.0982075,-0.383199,0.027457,0.1098455,-0.378479,0.0356439999999999,-0.1064344999999999,-0.730969,0.065096,0.1223755,-0.7254990000000001,0.068882,0
96,-0.020486,0.7206724999999999,0.0372345,-0.171853,0.5345624999999999,0.0144135,-0.280063,0.7472325,-0.0519815,0.149127,0.5335025,0.0226684999999999,0.256567,0.7315024999999999,-0.0322105,-0.341453,0.9786925,-0.0697295,0.302837,0.9137425,-0.0586495,-0.07494,-0.0014015,0.0016484999999999,0.07494,0.0014015,-0.0016485,-0.097911,-0.3848675,0.0249264999999999,0.110267,-0.3789875,0.0339215,-0.106723,-0.7318075,0.0628565,0.122257,-0.7258875,0.0670705,0
97,-0.0206285,0.7206724999999999,0.035817,-0.1718415,0.5345624999999999,0.013347,-0.2801615,0.7472325,-0.053804,0.1491485,0.5335025,0.021017,0.2567284999999999,0.7312525,-0.0346529999999999,-0.3416415,0.9774925,-0.072021,0.3029485,0.9133725,-0.061869,-0.0748965,-0.0014015,0.001753,0.0748965,0.0014015,-0.0017529999999999,-0.0977905,-0.3867675,0.021947,0.1106685,-0.3796175,0.031891,-0.1070615,-0.7326475,0.060271,0.1220884999999999,-0.7263675,0.064858,0
98,-0.0207615,0.72071,0.0340875,-0.1718015,0.5346,0.0118805,-0.2802815,0.74727,-0.0560404999999999,0.1491684999999999,0.53354,0.0191475,0.2568384999999999,0.73093,-0.0373665,-0.3418515,0.97623,-0.0748315,0.3027285,0.91294,-0.0649965,-0.0748725,-0.001364,0.0017115,0.0748725,0.0013639999999999,-0.0017114999999999,-0.0979355,-0.38862,0.0183885,0.1110585,-0.38031,0.0293725,-0.1074415,-0.73355,0.0571875,0.1218485,-0.7269100000000001,0.0621425,0
99,-0.0208765,0.7207365,0.0320845,-0.1717465,0.5347065,0.0101844999999999,-0.2803365,0.7472165,-0.0585005,0.1491735,0.5335565,0.0171195,0.2569435,0.7304465,-0.0401605,-0.3420865,0.9753365,-0.0778985,0.3024735,0.9122165,-0.0682585,-0.0748745,-0.0012574999999999,0.0017105,0.0748745,0.0012575,-0.0017105,-0.0981585,-0.3901835,0.0143644999999999,0.1115235,-0.3808735,0.0263874999999999,-0.1077765,-0.7344335,0.0537995,0.1215235,-0.7274535,0.0590185,0
100,-0.020812,0.7205805000000001,0.029723,-0.17149,0.5350405,0.008073,-0.28024,0.7470505000000001,-0.061394,0.14915,0.5336105,0.014548,0.2570599999999999,0.7299405,-0.043227,-0.34224,0.9747505,-0.081484,0.3023,0.9113705,-0.0718989999999999,-0.074975,-0.0011245,0.00169,0.074975,0.0011245,-0.00169,-0.098307,-0.3910795,0.009734,0.11204,-0.3810495,0.022751,-0.10806,-0.7350795,0.049933,0.1212599999999999,-0.7276095,0.055427,0
101,-0.0206645,0.720469,0.0271194999999999,-0.1711424999999999,0.535159,0.0056615,-0.2800525,0.7467590000000001,-0.0645925,0.1491775,0.533579,0.0117745,0.2571974999999999,0.728739,-0.0465935,-0.3421625,0.974339,-0.0854285,0.3021574999999999,0.910159,-0.0758165,-0.0751335,-0.0010509999999999,0.0017164999999999,0.0751335,0.001051,-0.0017164999999999,-0.0984215,-0.391581,0.0043675,0.1126275,-0.381011,0.0184185,-0.1082925,-0.735371,0.0458795,0.1210375,-0.727591,0.0514555,0
102,-0.0204344999999999,0.7202900000000001,0.0242505,-0.1707435,0.53512,0.0027215,-0.2797335,0.74634,-0.0683415,0.1490365,0.53308,0.0086595,0.2573165,0.72739,-0.0503445,-0.3419135,0.97436,-0.0899115,0.3019765,0.90907,-0.0801465,-0.0752984999999999,-0.000919,0.0017075,0.0752984999999999,0.0009189999999999,-0.0017074999999999,-0.0987065,-0.39148,-0.0016375,0.1131965,-0.38053,0.0133625,-0.1085235,-0.7352700000000001,0.0413505,0.1208065,-0.72712,0.0468925,0
103,-0.020196,0.720148,0.0210305,-0.170322,0.535208,-0.0006555,-0.2792719999999999,0.7455879999999999,-0.0723625,0.148898,0.5321779999999999,0.0052324999999999,0.257328,0.725988,-0.0545005,-0.341452,0.974298,-0.0949915,0.301458,0.907818,-0.0848805,-0.075465,-0.000821,0.0016444999999999,0.075465,0.0008209999999999,-0.0016445,-0.099247,-0.390682,-0.0082985,0.113838,-0.379542,0.0074645,-0.108742,-0.734722,0.0363615,0.120528,-0.7262120000000001,0.0417905,0
104,-0.0199995,0.719604,0.017666,-0.1698715,0.534954,-0.004303,-0.2788315,0.744884,-0.076702,0.1487284999999999,0.531124,0.0017919999999999,0.2571684999999999,0.7246940000000001,-0.0589339999999999,-0.3409915,0.974604,-0.100412,0.3008185,0.906834,-0.089769,-0.0756645,-0.0007289999999999,0.001581,0.0756645,0.000729,-0.001581,-0.1000305,-0.389356,-0.015488,0.1144385,-0.377906,0.0009609999999999,-0.1089815,-0.733546,0.03101,0.1201785,-0.724636,0.036141,0
105,-0.0197399999999999,0.7184474999999999,0.0138315,-0.169237,0.5338075,-0.0080155,-0.2782969999999999,0.7441975000000001,-0.0819265,0.148443,0.5294475000000001,-0.0020245,0.257083,0.7230775,-0.0641655,-0.340327,0.9759875,-0.1067155,0.300053,0.9073975,-0.0955085,-0.075991,-0.0007535,0.0015314999999999,0.075991,0.0007534999999999,-0.0015314999999999,-0.101248,-0.3862925,-0.0242725,0.1154429999999999,-0.3748025,-0.0073015,-0.109177,-0.7303925,0.0247725,0.119963,-0.7213624999999999,0.0294834999999999,0
106,-0.0195825,0.7172660000000001,0.009863,-0.1687495,0.532606,-0.011589,-0.2773595,0.741016,-0.086998,0.1480005,0.527876,-0.005881,0.2568904999999999,0.721786,-0.069465,-0.3394895,0.974996,-0.113177,0.2991105,0.908986,-0.101187,-0.0762335,-0.0008569999999999,0.00149,0.0762335,0.0008569999999999,-0.00149,-0.1027595,-0.382444,-0.033512,0.1165005,-0.370854,-0.016163,-0.1094795,-0.7262839999999999,0.018216,0.1197505,-0.7170839999999999,0.022771,0
107,-0.0194925,0.7160535,0.005784,-0.1683615,0.5315234999999999,-0.015255,-0.2765015,0.7387834999999999,-0.092222,0.1473185,0.5258035,-0.009925,0.2565785,0.7206334999999999,-0.074888,-0.3387415,0.9750235,-0.119722,0.2976884999999999,0.9080135,-0.107399,-0.0765415,-0.0010264999999999,0.0015809999999999,0.0765415,0.0010264999999999,-0.0015809999999999,-0.1044715,-0.3775064999999999,-0.043184,0.1177185,-0.3660164999999999,-0.025622,-0.1096915,-0.7213565000000001,0.011012,0.1195384999999999,-0.7115965000000001,0.015896,0
108,-0.019462,0.7144495,0.001499,-0.16801,0.5311795,-0.019084,-0.2758199999999999,0.7366395,-0.097671,0.14643,0.5236594999999999,-0.014129,0.25602,0.7194095,-0.080519,-0.33811,0.9717595,-0.127004,0.2958199999999999,0.9068195,-0.113869,-0.07679,-0.0012254999999999,0.001731,0.07679,0.0012255,-0.001731,-0.10636,-0.3719005,-0.053516,0.11903,-0.3607505,-0.035566,-0.10996,-0.7157105,0.003414,0.1192199999999999,-0.7051905,0.008906,1
109,-0.0196525,0.713512,-0.002727,-0.1676125,0.528822,-0.022924,-0.2752825,0.735392,-0.103178,0.1454275,0.5220720000000001,-0.0184,0.2552175,0.718862,-0.086148,-0.3376625,0.970332,-0.134112,0.2936775,0.907022,-0.120446,-0.0771815,-0.001527,0.001735,0.0771815,0.001527,-0.001735,-0.1083125,-0.365178,-0.064282,0.1203875,-0.354338,-0.045934,-0.1103325,-0.708568,-0.004271,0.1187874999999999,-0.6975779999999999,0.0017199999999999,1
110,-0.019862,0.7121470000000001,-0.0068124999999999,-0.167564,0.5272070000000001,-0.0266255,-0.274834,0.734087,-0.1086215,0.144306,0.520247,-0.0225735,0.254196,0.718767,-0.0919635,-0.337274,0.969917,-0.1408785,0.291396,0.907097,-0.1271435,-0.0776179999999999,-0.0018749999999999,0.0017625,0.0776179999999999,0.001875,-0.0017625,-0.110234,-0.357793,-0.0750135,0.121806,-0.347153,-0.0564795,-0.110664,-0.7006929999999999,-0.0122414999999999,0.118316,-0.6894629999999999,-0.0058094999999999,1
111,-0.0202695,0.7099089999999999,-0.010674,-0.1676515,0.5255589999999999,-0.030031,-0.2746515,0.732399,-0.113793,0.1430585,0.519619,-0.026629,0.2530285,0.7179390000000001,-0.097672,-0.3369015,0.969519,-0.147621,0.2888285,0.906459,-0.133643,-0.0781195,-0.002329,0.0017829999999999,0.0781195,0.0023289999999999,-0.0017829999999999,-0.1122415,-0.350561,-0.0856,0.1231984999999999,-0.340121,-0.06679,-0.1111315,-0.692571,-0.020189,0.1176985,-0.681341,-0.013214,1
112,-0.0207735,0.7078905,-0.0143315,-0.1676125,0.5235605,-0.0330725,-0.2747025,0.7318605,-0.1189895,0.1414975,0.5166705,-0.0305255,0.2516675,0.7171905000000001,-0.1034095,-0.3366525,0.9701605,-0.1542255,0.2861075,0.9062505,-0.1401705,-0.0787205,-0.0026184999999999,0.0018444999999999,0.0787205,0.0026185,-0.0018444999999999,-0.1142025,-0.3419295,-0.0963075,0.1246475,-0.3320395,-0.0774335,-0.1116925,-0.6827295,-0.0281685,0.1169574999999999,-0.6719094999999999,-0.0205685,1
113,-0.0212759999999999,0.706019,-0.0178699999999999,-0.167586,0.521959,-0.035995,-0.2747159999999999,0.730409,-0.124051,0.139784,0.514579,-0.0346459999999999,0.250404,0.716369,-0.109099,-0.3363359999999999,0.969759,-0.160489,0.283454,0.905889,-0.146978,-0.079316,-0.0029319999999999,0.001965,0.079316,0.0029319999999999,-0.0019649999999999,-0.1160259999999999,-0.333181,-0.107015,0.126264,-0.323671,-0.0883019999999999,-0.112216,-0.671881,-0.0360469999999999,0.116244,-0.661631,-0.0277309999999999,1
114,-0.0218315,0.7036300000000001,-0.020995,-0.1677455,0.52193,-0.038996,-0.2747954999999999,0.72831,-0.1281769999999999,0.1382745,0.51313,-0.038361,0.2491445,0.71484,-0.113955,-0.3361655,0.9652,-0.165739,0.2807845,0.90379,-0.153023,-0.0799085,-0.0031069999999999,0.0020869999999999,0.0799085,0.003107,-0.002087,-0.1175155,-0.32562,-0.116643,0.1274945,-0.31622,-0.097877,-0.1127555,-0.6616799999999999,-0.043048,0.1154745,-0.6524599999999999,-0.034105,1
115,-0.022671,0.7021945,-0.0243074999999999,-0.16807,0.5188745,-0.0421975,-0.27557,0.7284744999999999,-0.1325625,0.13651,0.5113845,-0.0423235,0.24772,0.7144545,-0.1191425,-0.33648,0.9651045,-0.1709355,0.27777,0.9019245,-0.1593304999999999,-0.080398,-0.0034765,0.0023325,0.080398,0.0034764999999999,-0.0023324999999999,-0.11923,-0.3168355,-0.1263475,0.12835,-0.3076755,-0.1077805,-0.11356,-0.6497155000000001,-0.0500824999999999,0.1144699999999999,-0.6417755,-0.0409325,1
116,-0.0233189999999999,0.6999885,-0.027561,-0.168124,0.5163385,-0.045259,-0.276144,0.7280485,-0.136678,0.135566,0.5101085,-0.046211,0.2467259999999999,0.7131485,-0.124156,-0.336524,0.9633285,-0.176392,0.275496,0.9027685,-0.165071,-0.080616,-0.0037084999999999,0.0025519999999999,0.080616,0.0037085,-0.0025519999999999,-0.1206539999999999,-0.3052915,-0.135583,0.129166,-0.2966315,-0.117459,-0.114124,-0.6372215,-0.056278,0.113926,-0.6310615,-0.047488,1
117,-0.0240874999999999,0.698146,-0.030279,-0.1683164999999999,0.513146,-0.048044,-0.2767865,0.7276360000000001,-0.14041,0.1346435,0.508586,-0.049856,0.2458035,0.712246,-0.129028,-0.3366965,0.964816,-0.181391,0.2730134999999999,0.902046,-0.170487,-0.0807615,-0.003883,0.0027119999999999,0.0807615,0.0038829999999999,-0.002712,-0.1220965,-0.293184,-0.144103,0.1296435,-0.284604,-0.126857,-0.1146664999999999,-0.623964,-0.061871,0.1132635,-0.619864,-0.053706,1
118,-0.0246955,0.698441,-0.038248,-0.1684405,0.514141,-0.055994,-0.2768204999999999,0.7278709999999999,-0.149174,0.1339395,0.508071,-0.058689,0.2450295,0.7111609999999999,-0.139284,-0.3371805,0.965571,-0.1913969999999999,0.2708895,0.900731,-0.1810169999999999,-0.0809415,-0.0039439999999999,0.003043,0.0809415,0.003944,-0.003043,-0.1233205,-0.2803289999999999,-0.157341,0.1300595,-0.2718089999999999,-0.141191,-0.1150605,-0.609799,-0.072619,0.1128194999999999,-0.6075590000000001,-0.065019,1
119,-0.0252214999999999,0.6991364999999999,-0.0471575,-0.1681885,0.5123365,-0.0647395,-0.2768585,0.7265865,-0.1579445,0.1330515,0.5070265,-0.0682975,0.2440415,0.7109565,-0.1501885,-0.3375885,0.9639265,-0.2021905,0.2690214999999999,0.9043865,-0.1922705,-0.0809904999999999,-0.0035155,0.0026714999999999,0.0809904999999999,0.0035155,-0.0026715,-0.1251185,-0.2645435,-0.1742495,0.1318315,-0.2560435,-0.1598215,-0.1155684999999999,-0.5925635,-0.0835685,0.1124515,-0.5927035,-0.0788535,1
120,-0.025497,0.699405,-0.0558915,-0.167867,0.510765,-0.0732245,-0.2769169999999999,0.726145,-0.1666055,0.1322729999999999,0.505265,-0.0775355,0.243373,0.711335,-0.1608805,-0.3374169999999999,0.962195,-0.2123545,0.267573,0.908435,-0.2033545,-0.081023,-0.0033149999999999,0.0022954999999999,0.081023,0.0033149999999999,-0.0022955,-0.126727,-0.249215,-0.1905295,0.133653,-0.240635,-0.1778535,-0.115837,-0.5756549999999999,-0.0939325,0.111843,-0.577295,-0.0906515,1
121,-0.025622,0.7004750000000001,-0.064641,-0.167128,0.507845,-0.08202,-0.276748,0.724005,-0.174716,0.131602,0.505485,-0.086782,0.242852,0.712485,-0.171372,-0.336958,0.959515,-0.222225,0.266342,0.913975,-0.214235,-0.081017,-0.0033549999999999,0.0020749999999999,0.081017,0.0033549999999999,-0.002075,-0.128458,-0.233485,-0.206901,0.135422,-0.224465,-0.196143,-0.1160279999999999,-0.5581849999999999,-0.104081,0.111122,-0.560825,-0.102332,1
122,-0.025763,0.7010700000000001,-0.073309,-0.166121,0.50578,-0.090692,-0.275761,0.72357,-0.182392,0.130629,0.50459,-0.09582,0.2422889999999999,0.7132099999999999,-0.181495,-0.336861,0.95848,-0.23171,0.265159,0.91406,-0.22516,-0.0809999999999999,-0.00323,0.00175,0.0809999999999999,0.00323,-0.00175,-0.130351,-0.21732,-0.22289,0.137019,-0.20832,-0.214059,-0.116181,-0.54081,-0.113792,0.110299,-0.5438700000000001,-0.113543,1
123,-0.0259294999999999,0.702435,-0.08218,-0.1652215,0.503255,-0.099323,-0.2748015,0.723325,-0.190089,0.1296385,0.5034350000000001,-0.104879,0.2418785,0.714725,-0.1915339999999999,-0.3369315,0.960675,-0.2410149999999999,0.2639885,0.915175,-0.2360749999999999,-0.0809315,-0.0031749999999999,0.0014649999999999,0.0809315,0.003175,-0.0014649999999999,-0.1324415,-0.2007149999999999,-0.238345,0.1383285,-0.191295,-0.231785,-0.1164115,-0.522655,-0.123111,0.1091985,-0.525795,-0.124386,1
124,-0.026042,0.70263,-0.0904489999999999,-0.164377,0.50243,-0.1076309999999999,-0.274067,0.7227199999999999,-0.197732,0.129093,0.50279,-0.1133189999999999,0.241563,0.7149399999999999,-0.2009119999999999,-0.336907,0.95991,-0.24983,0.262853,0.91522,-0.24641,-0.080998,-0.00303,0.00106,0.080998,0.00303,-0.0010599999999999,-0.134587,-0.18436,-0.25336,0.139373,-0.17498,-0.24877,-0.116477,-0.50526,-0.131904,0.1081329999999999,-0.5082,-0.134368,1
125,-0.0259125,0.703285,-0.09879,-0.1634245,0.501235,-0.115964,-0.2728045,0.7219949999999999,-0.205341,0.1287355,0.501145,-0.121607,0.2411355,0.715155,-0.210142,-0.3367545,0.960165,-0.258665,0.2619555,0.915875,-0.256785,-0.0810465,-0.0029349999999999,0.000615,0.0810465,0.0029349999999999,-0.000615,-0.1366245,-0.167675,-0.268245,0.1405855,-0.158295,-0.265275,-0.1164045,-0.487315,-0.140546,0.1072855,-0.489965,-0.144228,1
126,-0.025686,0.703835,-0.107236,-0.162551,0.499795,-0.1244039999999999,-0.271471,0.721135,-0.213089,0.128469,0.500545,-0.1300569999999999,0.241119,0.715335,-0.219547,-0.3364709999999999,0.960055,-0.267775,0.261519,0.920185,-0.267215,-0.08096,-0.002915,0.000155,0.08096,0.002915,-0.0001549999999999,-0.138641,-0.150035,-0.282925,0.141899,-0.140785,-0.2813449999999999,-0.116211,-0.468795,-0.1493169999999999,0.106519,-0.471135,-0.154161,1
127,-0.025497,0.700985,-0.110226,-0.161692,0.497065,-0.127388,-0.271472,0.7193350000000001,-0.216012,0.127998,0.499255,-0.133194,0.240828,0.714255,-0.223289,-0.336312,0.958635,-0.27166,0.261038,0.924495,-0.27222,-0.080923,-0.002905,-0.00029,0.080923,0.0029049999999999,0.0002899999999999,-0.140752,-0.133715,-0.292,0.143088,-0.124475,-0.29175,-0.116142,-0.452115,-0.152635,0.105718,-0.454065,-0.1586,1
128,-0.0253245,0.698035,-0.112614,-0.1610315,0.496435,-0.129588,-0.2708115,0.7194750000000001,-0.218003,0.1276785,0.495595,-0.135533,0.2407284999999999,0.711805,-0.226397,-0.3359514999999999,0.958955,-0.27476,0.2607485,0.925885,-0.27627,-0.0809745,-0.0029349999999999,0.0,0.0809745,0.002935,0.0,-0.1420415,-0.118755,-0.29682,0.1429385,-0.1092349999999999,-0.29722,-0.1160315,-0.4367449999999999,-0.155096,0.1050085,-0.4380349999999999,-0.161356,1
129,-0.0252355,0.6966399999999999,-0.115231,-0.1603795,0.4945199999999999,-0.131831,-0.2701495,0.71827,-0.220121,0.1274305,0.4930399999999999,-0.137792,0.2405405,0.71015,-0.229402,-0.3355595,0.95778,-0.278125,0.2605805,0.92104,-0.281235,-0.0810575,-0.00292,0.000235,0.0810575,0.0029199999999999,-0.000235,-0.1431995,-0.1022,-0.301545,0.1428205,-0.09201,-0.302855,-0.1159095,-0.4199,-0.157546,0.1043405,-0.4205,-0.1638679999999999,1
130,-0.0249824999999999,0.693365,-0.1171229999999999,-0.1599505,0.4941549999999999,-0.1338499999999999,-0.2690805,0.715255,-0.2218969999999999,0.1273995,0.4918549999999999,-0.1397359999999999,0.2404894999999999,0.706385,-0.2321749999999999,-0.3352605,0.955025,-0.28175,0.2606394999999999,0.915245,-0.2856599999999999,-0.0811515,-0.002895,0.00026,0.0811515,0.0028949999999999,-0.0002599999999999,-0.1439305,-0.087055,-0.30516,0.1429194999999999,-0.076495,-0.3069699999999999,-0.1156005,-0.404675,-0.1596069999999999,0.1038495,-0.404775,-0.1660029999999999,1
131,-0.024901,0.69083,-0.119289,-0.159702,0.49183,-0.136044,-0.269072,0.71261,-0.224302,0.126898,0.49032,-0.141774,0.240418,0.70452,-0.234821,-0.335222,0.9525,-0.28518,0.260578,0.91676,-0.28941,-0.081168,-0.0030099999999999,0.0003199999999999,0.081168,0.00301,-0.00032,-0.144522,-0.07466,-0.30841,0.142818,-0.0636199999999999,-0.31038,-0.115442,-0.3885999999999999,-0.161639,0.102868,-0.38822,-0.166778,1
132,-0.0247925,0.6886950000000001,-0.1214329999999999,-0.1594795,0.489815,-0.1380849999999999,-0.2685295,0.711145,-0.226391,0.1264605,0.489265,-0.143644,0.2402005,0.703335,-0.237078,-0.3350295,0.950625,-0.288505,0.2603704999999999,0.919395,-0.292845,-0.0811665,-0.0030749999999999,9.500000000001174e-05,0.0811665,0.0030749999999999,-9.4999999999984e-05,-0.1449395,-0.0613749999999999,-0.311165,0.1426905,-0.0500149999999999,-0.312675,-0.1152995,-0.3720149999999999,-0.1633369999999999,0.1026105,-0.371145,-0.1681139999999999,1
133,-0.024672,0.686705,-0.1234029999999999,-0.159399,0.489205,-0.1399159999999999,-0.268839,0.710405,-0.228822,0.126021,0.487875,-0.1453749999999999,0.240031,0.701845,-0.239344,-0.334989,0.949815,-0.291695,0.260161,0.917475,-0.296205,-0.081164,-0.003035,-0.0001449999999999,0.081164,0.003035,0.000145,-0.145229,-0.0481949999999999,-0.313215,0.142261,-0.0365149999999999,-0.3142049999999999,-0.115269,-0.355695,-0.164682,0.1024009999999999,-0.354385,-0.169185,1
134,-0.0246175,0.684005,-0.124958,-0.1593045,0.488845,-0.141162,-0.2694245,0.709255,-0.230728,0.1258355,0.4878549999999999,-0.146352,0.2400054999999999,0.7011149999999999,-0.241308,-0.3348845,0.947975,-0.294355,0.2599255,0.915425,-0.298865,-0.0811925,-0.003055,-0.000205,0.0811925,0.0030549999999999,0.0002049999999999,-0.1454045,-0.035425,-0.314605,0.1418555,-0.024155,-0.315265,-0.1152245,-0.340345,-0.16548,0.1022255,-0.338555,-0.169668,1
135,-0.023947,0.6833849999999999,-0.125586,-0.15849,0.4886649999999999,-0.14168,-0.26835,0.7088049999999999,-0.232059,0.12624,0.487815,-0.146533,0.24039,0.701135,-0.242566,-0.33429,0.947935,-0.2960899999999999,0.2602799999999999,0.914435,-0.30098,-0.08127,-0.003295,-0.0002099999999999,0.08127,0.0032949999999999,0.0002099999999999,-0.1448799999999999,-0.020805,-0.3154099999999999,0.14203,-0.009825,-0.31527,-0.1145799999999999,-0.323475,-0.165661,0.10271,-0.321725,-0.169782,1
136,-0.0231199999999999,0.6832,-0.126064,-0.157508,0.4877209999999999,-0.1422759999999999,-0.267968,0.7078199999999999,-0.233432,0.126722,0.4870179999999999,-0.146693,0.240872,0.7009299999999999,-0.243827,-0.3335979999999999,0.94718,-0.298675,0.260852,0.91232,-0.303315,-0.0813079999999999,-0.00352,-0.0002049999999999,0.0813079999999999,0.0035199999999999,0.000205,-0.144168,-0.00564,-0.316215,0.1425519999999999,0.0050399999999999,-0.315265,-0.113788,-0.3063100000000001,-0.165818,0.103362,-0.30466,-0.169877,1
137,-0.022215,0.68208,-0.126389,-0.156487,0.486675,-0.142667,-0.267157,0.70615,-0.234885,0.127303,0.489008,-0.146752,0.241533,0.7013100000000001,-0.244924,-0.332787,0.94506,-0.30135,0.261513,0.90504,-0.30596,-0.081478,-0.0040199999999999,-0.00021,0.081478,0.00402,0.0002099999999999,-0.143377,0.00761,-0.31695,0.143173,0.01781,-0.31521,-0.112897,-0.29138,-0.165998,0.104153,-0.28979,-0.169924,1
138,-0.021258,0.681945,-0.126241,-0.155547,0.487866,-0.142612,-0.266257,0.706665,-0.235943,0.127963,0.490158,-0.14629,0.242143,0.702365,-0.24563,-0.331707,0.945715,-0.303215,0.262323,0.907425,-0.307005,-0.081535,-0.003925,-0.000425,0.081535,0.003925,0.0004249999999999,-0.142487,0.022685,-0.317225,0.143813,0.0323749999999999,-0.314525,-0.111917,-0.274875,-0.165734,0.105073,-0.273155,-0.16946,1
139,-0.0203609999999999,0.68263,-0.125283,-0.154551,0.489123,-0.141894,-0.2649109999999999,0.70965,-0.236021,0.128639,0.490863,-0.1451,0.242789,0.70499,-0.245409,-0.330651,0.94829,-0.303795,0.263279,0.90995,-0.307335,-0.081597,-0.00378,-0.000695,0.081597,0.00378,0.000695,-0.141561,0.0385599999999999,-0.316565,0.144499,0.0473399999999999,-0.313325,-0.110901,-0.25824,-0.164753,0.106059,-0.25628,-0.168291,1
140,-0.0195464999999999,0.68339,-0.123302,-0.1535204999999999,0.491489,-0.140009,-0.2639905,0.71173,-0.234963,0.1293395,0.49243,-0.142932,0.2439895,0.70637,-0.244112,-0.3295805,0.95004,-0.30352,0.2642994999999999,0.91173,-0.30693,-0.0816865,-0.0036399999999999,-0.0011899999999999,0.0816865,0.00364,0.0011899999999999,-0.1408104999999999,0.05369,-0.3146799999999999,0.1452295,0.06146,-0.31078,-0.1099004999999999,-0.24244,-0.162721,0.1069995,-0.24038,-0.1661159999999999,1
141,-0.01869,0.683985,-0.120953,-0.152364,0.4926609999999999,-0.137798,-0.262964,0.712745,-0.233747,0.130066,0.4936299999999999,-0.140585,0.2446759999999999,0.707145,-0.242539,-0.328594,0.950335,-0.30315,0.2649359999999999,0.912745,-0.30612,-0.081805,-0.003525,-0.00174,0.081805,0.003525,0.0017399999999999,-0.140064,0.067805,-0.31233,0.145926,0.074455,-0.30774,-0.108914,-0.2279149999999999,-0.160316,0.107916,-0.225675,-0.163588,1
142,-0.017755,0.6845600000000001,-0.11849,-0.15114,0.4934489999999999,-0.135441,-0.26142,0.71339,-0.232148,0.13093,0.4944739999999999,-0.138087,0.2454799999999999,0.70772,-0.240757,-0.32737,0.95009,-0.302665,0.2658,0.91832,-0.304885,-0.08189,-0.0033299999999999,-0.002255,0.08189,0.0033299999999999,0.0022549999999999,-0.13924,0.0811799999999999,-0.309865,0.14685,0.08687,-0.304335,-0.10782,-0.2142299999999999,-0.157729,0.10894,-0.21182,-0.160851,1
143,-0.0168149999999999,0.68514,-0.116213,-0.150123,0.4936669999999999,-0.1329,-0.260563,0.71407,-0.2303339999999999,0.1316169999999999,0.4951129999999999,-0.135285,0.246107,0.7079599999999999,-0.238502,-0.326343,0.94989,-0.302125,0.266517,0.9173,-0.303585,-0.082156,-0.00317,-0.002705,0.082156,0.00317,0.002705,-0.138643,0.0937399999999999,-0.307285,0.147597,0.0988899999999999,-0.300935,-0.106933,-0.20125,-0.155149,0.109657,-0.19867,-0.157643,1
144,-0.0166014999999999,0.6840649999999999,-0.1136489999999999,-0.1498334999999999,0.4944469999999999,-0.1303349999999999,-0.2605135,0.714685,-0.228208,0.1316165,0.494081,-0.132104,0.2463665,0.7066349999999999,-0.236253,-0.3261535,0.948855,-0.30155,0.2666564999999999,0.914685,-0.3021899999999999,-0.0823525,-0.002305,-0.0027999999999999,0.0823525,0.002305,0.0028,-0.1387735,0.1040549999999999,-0.30471,0.1477065,0.1086249999999999,-0.2970199999999999,-0.1069135,-0.190355,-0.1525999999999999,0.1095965,-0.187575,-0.1543689999999999,1
145,-0.0161914999999999,0.68297,-0.111103,-0.1493335,0.495181,-0.127934,-0.2603935,0.7151799999999999,-0.226229,0.1320065,0.492826,-0.129104,0.2468265,0.70641,-0.23417,-0.3256835,0.94687,-0.30032,0.2671165,0.9126,-0.30071,-0.0823645,-0.0015399999999999,-0.00295,0.0823645,0.0015399999999999,0.00295,-0.1387235,0.1132699999999999,-0.30224,0.1480365,0.1174899999999999,-0.29344,-0.1067735,-0.18051,-0.150335,0.1096565,-0.17748,-0.150785,1
146,-0.0157805,0.683045,-0.108652,-0.1489545,0.495168,-0.125645,-0.2600044999999999,0.712535,-0.22441,0.1323555,0.49216,-0.126449,0.2472155,0.7061550000000001,-0.232461,-0.3251245,0.945235,-0.29928,0.2675155,0.914735,-0.29924,-0.0822495,-0.0010249999999999,-0.00325,0.0822495,0.001025,0.00325,-0.1387645,0.122365,-0.29962,0.1483055,0.126355,-0.29018,-0.1067245,-0.1707349999999999,-0.148171,0.1095455,-0.1673349999999999,-0.147208,1
147,-0.0153855,0.681145,-0.106877,-0.1486694999999999,0.494376,-0.123968,-0.2599495,0.708885,-0.223264,0.1327105,0.491157,-0.124456,0.2477705,0.7047950000000001,-0.231424,-0.3247195,0.942255,-0.2989199999999999,0.2679105,0.913435,-0.29858,-0.0821145,-0.000905,-0.0033799999999999,0.0821145,0.000905,0.0033799999999999,-0.1388695,0.128295,-0.29754,0.1485105,0.1321149999999999,-0.28781,-0.1065895,-0.163995,-0.14666,0.1092505,-0.160235,-0.143975,1
148,-0.0150485,0.6795850000000001,-0.105413,-0.1484185,0.494232,-0.122691,-0.2598985,0.7066950000000001,-0.222481,0.1330315,0.49055,-0.122917,0.2482915,0.7038150000000001,-0.23076,-0.3241285,0.939245,-0.29895,0.2683014999999999,0.912015,-0.29832,-0.0819575,-0.0003749999999999,-0.00343,0.0819575,0.000375,0.0034299999999999,-0.1389985,0.133965,-0.29545,0.1485915,0.137515,-0.28499,-0.1064185,-0.1569549999999999,-0.145468,0.1088114999999999,-0.1530849999999999,-0.141016,1
149,-0.0147799999999999,0.678035,-0.104596,-0.148202,0.493734,-0.121942,-0.259672,0.704655,-0.222422,0.133248,0.489886,-0.122114,0.248678,0.702735,-0.230795,-0.323672,0.936085,-0.299515,0.268538,0.909705,-0.2983449999999999,-0.081846,0.0001349999999999,-0.003365,0.081846,-0.0001349999999999,0.003365,-0.139152,0.138905,-0.293615,0.148548,0.142175,-0.282525,-0.106312,-0.150215,-0.144674,0.108248,-0.1465649999999999,-0.138713,1
150,-0.0147995,0.676315,-0.103862,-0.1484015,0.493932,-0.12146,-0.2601315,0.7032050000000001,-0.222606,0.1331785,0.489318,-0.121576,0.2489285,0.701825,-0.231038,-0.3234215,0.933585,-0.300035,0.2685385,0.906655,-0.2986149999999999,-0.0817955,0.0006749999999999,-0.003285,0.0817955,-0.0006749999999999,0.003285,-0.1395715,0.143285,-0.291715,0.1482885,0.146345,-0.280175,-0.1064615,-0.144085,-0.143674,0.1074284999999999,-0.140695,-0.13676,1
151,-0.0144829999999999,0.6742250000000001,-0.103233,-0.1484519999999999,0.494401,-0.120946,-0.260032,0.702035,-0.222987,0.133388,0.489176,-0.121167,0.249398,0.701245,-0.231462,-0.3229619999999999,0.931285,-0.3006999999999999,0.268828,0.903405,-0.299,-0.081718,0.001155,-0.0032699999999999,0.081718,-0.001155,0.0032699999999999,-0.139822,0.147145,-0.2898699999999999,0.148338,0.149915,-0.27799,-0.106352,-0.138425,-0.14274,0.106768,-0.135455,-0.134791,1
152,-0.014064,0.67318,-0.102627,-0.148509,0.494707,-0.1204669999999999,-0.260219,0.70119,-0.22336,0.133661,0.4888019999999999,-0.12086,0.249981,0.70107,-0.2318279999999999,-0.322499,0.92975,-0.30129,0.269141,0.90633,-0.2993599999999999,-0.081572,0.00168,-0.0032699999999999,0.081572,-0.00168,0.0032699999999999,-0.1399989999999999,0.15113,-0.2879,0.148331,0.1536599999999999,-0.27563,-0.106209,-0.13267,-0.141784,0.106271,-0.13014,-0.133235,1
153,-0.013635,0.6718000000000001,-0.1019689999999999,-0.148587,0.494281,-0.1198169999999999,-0.260567,0.69983,-0.2237499999999999,0.1339929999999999,0.489642,-0.1207759999999999,0.250643,0.70156,-0.232116,-0.321997,0.92763,-0.30172,0.269623,0.90787,-0.29971,-0.08142,0.00175,-0.0032599999999999,0.08142,-0.00175,0.00326,-0.140147,0.15394,-0.28611,0.148423,0.15632,-0.27379,-0.106067,-0.1282299999999999,-0.1408309999999999,0.105893,-0.12619,-0.1317169999999999,1
154,-0.013181,0.6708430000000001,-0.101294,-0.148666,0.493948,-0.119129,-0.260856,0.698625,-0.224143,0.134424,0.491112,-0.120754,0.251474,0.7019150000000001,-0.232434,-0.321476,0.927235,-0.30202,0.270154,0.909385,-0.30005,-0.081233,0.001915,-0.00326,0.081233,-0.001915,0.0032599999999999,-0.140266,0.156845,-0.28434,0.148644,0.158965,-0.27194,-0.105856,-0.1237949999999999,-0.139952,0.105624,-0.122305,-0.130702,1
155,-0.012868,0.670104,-0.10067,-0.148696,0.4945710000000001,-0.118668,-0.260836,0.7011050000000001,-0.2245059999999999,0.134794,0.4927740000000001,-0.120757,0.252174,0.7026950000000001,-0.232572,-0.321026,0.927765,-0.302285,0.270634,0.910555,-0.300355,-0.081096,0.002245,-0.003255,0.081096,-0.0022449999999999,0.003255,-0.140446,0.159555,-0.282825,0.148774,0.161285,-0.270045,-0.105726,-0.1197649999999999,-0.13913,0.105394,-0.1188049999999999,-0.129961,1
156,-0.0126925,0.670675,-0.100225,-0.1489805,0.494827,-0.118252,-0.2608904999999999,0.70338,-0.224683,0.1349794999999999,0.494628,-0.120856,0.2526595,0.7034900000000001,-0.232815,-0.3208205,0.92836,-0.30247,0.2708795,0.9118,-0.30058,-0.0810715,0.0025899999999999,-0.00329,0.0810715,-0.0025899999999999,0.0032899999999999,-0.1407405,0.16196,-0.28152,0.1487494999999999,0.16327,-0.26835,-0.1057105,-0.1162599999999999,-0.138386,0.1051795,-0.1158,-0.129604,1
157,-0.012514,0.671742,-0.099727,-0.149215,0.4940519999999999,-0.11778,-0.260915,0.7042849999999999,-0.224302,0.135135,0.495753,-0.120887,0.253285,0.7043849999999999,-0.233094,-0.320675,0.928555,-0.30259,0.271175,0.912005,-0.30072,-0.081047,0.0024849999999999,-0.0033199999999999,0.081047,-0.002485,0.0033199999999999,-0.1410249999999999,0.1629949999999999,-0.28096,0.148725,0.1640049999999999,-0.26776,-0.105725,-0.114935,-0.137685,0.105055,-0.114665,-0.1292,1
158,-0.0124325,0.671742,-0.09949,-0.1491315,0.4940519999999999,-0.1177649999999999,-0.2608315,0.7042849999999999,-0.224287,0.1353685,0.495753,-0.1209789999999999,0.2537385,0.7043849999999999,-0.2330749999999999,-0.3203715,0.928555,-0.302565,0.2716285,0.912005,-0.300775,-0.0809195,0.0024849999999999,-0.0033549999999999,0.0809195,-0.002485,0.003355,-0.1411615,0.1629949999999999,-0.280945,0.1488584999999999,0.1639949999999999,-0.267745,-0.1056015,-0.114935,-0.1372519999999999,0.1051385,-0.114665,-0.129185,1
159,-0.0120605,0.671742,-0.099437,-0.1490574999999999,0.4940519999999999,-0.1178299999999999,-0.2607575,0.7042849999999999,-0.224352,0.1356225,0.495753,-0.12117,0.2540425,0.7043849999999999,-0.2330249999999999,-0.3200175,0.928555,-0.30262,0.2720925,0.912005,-0.30103,-0.0808125,0.0024849999999999,-0.00336,0.0808125,-0.002485,0.00336,-0.1412975,0.1629949999999999,-0.28101,0.1490725,0.1639949999999999,-0.26781,-0.1055275,-0.114935,-0.137231,0.1052125,-0.114665,-0.12925,1
160,-0.011546,0.671742,-0.099499,-0.148951,0.4940519999999999,-0.117895,-0.2603209999999999,0.7042849999999999,-0.224466,0.135909,0.4960429999999999,-0.121472,0.254149,0.7043849999999999,-0.23298,-0.319501,0.928555,-0.302685,0.272739,0.912005,-0.301275,-0.080656,0.0024849999999999,-0.0033849999999999,0.080656,-0.002485,0.0033849999999999,-0.141411,0.1629949999999999,-0.2810749999999999,0.1496489999999999,0.1639949999999999,-0.267865,-0.105411,-0.114935,-0.137296,0.105319,-0.114675,-0.129315,1
161,-0.0109445,0.673724,-0.0995829999999999,-0.1483275,0.4957299999999999,-0.1181879999999999,-0.2596575,0.704375,-0.2248339999999999,0.1360425,0.4968449999999999,-0.1218729999999999,0.2547425,0.7051449999999999,-0.233391,-0.3190075,0.930115,-0.3025449999999999,0.2734125,0.911825,-0.301535,-0.0806284999999999,0.0025149999999999,-0.0033449999999999,0.0806284999999999,-0.002515,0.003345,-0.1416875,0.1621149999999999,-0.2815149999999999,0.1502225,0.1632449999999999,-0.268165,-0.1054374999999999,-0.115845,-0.1373859999999999,0.1055325,-0.115545,-0.1296689999999999,1
162,-0.010353,0.676419,-0.099628,-0.147624,0.497006,-0.118595,-0.258744,0.70726,-0.224752,0.136116,0.497271,-0.122319,0.255326,0.70582,-0.233486,-0.3183939999999999,0.93405,-0.302285,0.275166,0.91673,-0.301625,-0.080582,0.00239,-0.003335,0.080582,-0.00239,0.003335,-0.141744,0.15963,-0.282475,0.150876,0.16115,-0.269215,-0.105504,-0.1184099999999999,-0.137486,0.105786,-0.1181399999999999,-0.130158,1
163,-0.009883,0.67971,-0.099978,-0.146934,0.498184,-0.119425,-0.2581839999999999,0.70998,-0.225342,0.136086,0.4964490000000001,-0.123103,0.255926,0.7057800000000001,-0.234099,-0.317794,0.9379300000000002,-0.30207,0.2768159999999999,0.92073,-0.30193,-0.080486,0.00231,-0.00323,0.080486,-0.0023099999999999,0.0032299999999999,-0.141854,0.15472,-0.28287,0.151146,0.15681,-0.27128,-0.105734,-0.1234399999999998,-0.137879,0.106186,-0.1230699999999999,-0.131409,1
164,-0.0099684999999999,0.68044,-0.101628,-0.1466985,0.496642,-0.121888,-0.2577385,0.70941,-0.227106,0.1359815,0.496218,-0.125773,0.2558515,0.70484,-0.235848,-0.3175785,0.93838,-0.30329,0.2778015,0.91962,-0.30361,-0.0804904999999999,0.0018799999999999,-0.0026899999999999,0.0804904999999999,-0.0018799999999999,0.0026899999999999,-0.1425285,0.14385,-0.28478,0.1506915,0.14655,-0.27519,-0.1065685,-0.13461,-0.139782,0.1060214999999999,-0.13419,-0.134226,1
165,-0.0101209999999999,0.6829649999999999,-0.103533,-0.146472,0.4947819999999999,-0.124638,-0.257262,0.708995,-0.229106,0.135758,0.4957459999999999,-0.128681,0.255888,0.704835,-0.237503,-0.317542,0.940355,-0.30479,0.278708,0.920255,-0.3053,-0.080554,0.0011749999999999,-0.00229,0.080554,-0.001175,0.0022899999999999,-0.143312,0.132675,-0.28729,0.150068,0.1358149999999999,-0.27981,-0.107502,-0.146375,-0.141919,0.105818,-0.145905,-0.137284,1
166,-0.0113305,0.68233,-0.106611,-0.1473625,0.492594,-0.129013,-0.2581225,0.70705,-0.232216,0.1345174999999999,0.493871,-0.132737,0.2550175,0.70305,-0.240098,-0.3185524999999999,0.94091,-0.307525,0.2785075,0.91599,-0.308185,-0.0802865,0.0009099999999999,-0.0018749999999999,0.0802865,-0.0009099999999999,0.0018749999999999,-0.1445125,0.11541,-0.291365,0.1483775,0.11879,-0.285925,-0.1094125,-0.1644799999999999,-0.145197,0.1046574999999999,-0.16397,-0.14165,1
167,-0.0125809999999999,0.683475,-0.109372,-0.1482,0.490707,-0.133047,-0.25866,0.706455,-0.234427,0.13317,0.491882,-0.136485,0.25398,0.7019650000000001,-0.242369,-0.31954,0.941855,-0.309675,0.2782099999999999,0.917395,-0.310455,-0.079962,0.000265,-0.0014949999999999,0.079962,-0.0002649999999999,0.0014949999999999,-0.14556,0.097315,-0.295435,0.14662,0.101005,-0.291855,-0.11129,-0.1835249999999999,-0.148175,0.1035099999999999,-0.1829349999999999,-0.145822,1
168,-0.0132469999999999,0.68558,-0.1106119999999999,-0.1480739999999999,0.490193,-0.1355489999999999,-0.258474,0.7066,-0.2350429999999999,0.132486,0.491519,-0.1387919999999999,0.253726,0.70222,-0.2432029999999999,-0.319934,0.94369,-0.31023,0.278566,0.91844,-0.3111699999999999,-0.080106,-0.0003799999999999,-0.0010399999999999,0.080106,0.0003799999999999,0.00104,-0.1457939999999999,0.0780199999999999,-0.2984199999999999,0.145606,0.0827299999999999,-0.29638,-0.112424,-0.20383,-0.1497649999999999,0.103126,-0.20315,-0.1488429999999999,1
169,-0.014053,0.686795,-0.11149,-0.147976,0.493107,-0.138039,-0.258366,0.706705,-0.235485,0.132094,0.489987,-0.140809,0.253244,0.701335,-0.243537,-0.320176,0.944495,-0.31051,0.278894,0.918215,-0.31138,-0.080252,-0.0005749999999999,-0.0006299999999999,0.080252,0.0005749999999999,0.0006299999999999,-0.145926,0.056325,-0.3011399999999999,0.144484,0.062835,-0.30057,-0.113576,-0.226545,-0.151101,0.102724,-0.2256249999999999,-0.151809,1
170,-0.0150179999999999,0.68895,-0.1117499999999999,-0.14859,0.493338,-0.13943,-0.25844,0.70714,-0.235538,0.13181,0.49087,-0.141813,0.2528,0.7024900000000001,-0.243107,-0.32017,0.94509,-0.31008,0.27906,0.91795,-0.3104599999999999,-0.080484,-0.0010499999999999,-0.0003299999999999,0.080484,0.0010499999999999,0.0003299999999999,-0.1457999999999999,0.03492,-0.30321,0.14337,0.0432,-0.3038499999999999,-0.1147099999999999,-0.24961,-0.151859,0.10196,-0.2482599999999999,-0.153561,1
171,-0.015621,0.6877449999999999,-0.111358,-0.1490179999999999,0.4906529999999999,-0.140055,-0.259048,0.700765,-0.235708,0.1318619999999999,0.4898149999999999,-0.142359,0.252542,0.700915,-0.2422429999999999,-0.320828,0.939425,-0.30974,0.278472,0.911055,-0.30898,-0.080715,-0.001445,-0.0001099999999999,0.080715,0.0014449999999999,0.0001099999999999,-0.1452979999999999,0.0097349999999999,-0.30481,0.1424019999999999,0.0194649999999999,-0.30617,-0.115598,-0.276815,-0.152245,0.101382,-0.275085,-0.154893,1
172,-0.0160379999999999,0.68869,-0.110775,-0.149268,0.4891439999999999,-0.140217,-0.258808,0.6994,-0.235708,0.132142,0.491241,-0.142354,0.252382,0.70204,-0.241314,-0.321328,0.93866,-0.309135,0.278122,0.90799,-0.307285,-0.081094,-0.00189,-0.000115,0.081094,0.00189,0.000115,-0.144278,-0.0132,-0.305475,0.141442,-0.00214,-0.307185,-0.116218,-0.30244,-0.152426,0.100892,-0.30081,-0.155776,1
173,-0.0156814999999999,0.693185,-0.109558,-0.1486934999999999,0.490575,-0.140398,-0.2580935,0.701225,-0.23623,0.1328565,0.492085,-0.142348,0.2531065,0.703925,-0.240252,-0.3213135,0.941605,-0.308955,0.2785765,0.907475,-0.305505,-0.0810994999999999,-0.001915,-0.000115,0.0810994999999999,0.001915,0.000115,-0.1422834999999999,-0.0330149999999999,-0.305635,0.1409165,-0.0204749999999999,-0.307385,-0.1160735,-0.325305,-0.152566,0.1011465,-0.323695,-0.156491,1
174,-0.0153399999999999,0.695025,-0.108221,-0.148544,0.493265,-0.140412,-0.258104,0.7030350000000001,-0.236695,0.133596,0.493465,-0.142256,0.253096,0.704905,-0.239369,-0.320444,0.943205,-0.30778,0.279436,0.909185,-0.3038,-0.0811,-0.001645,-3.0000000000002247e-05,0.0811,0.001645,3.0000000000002247e-05,-0.140364,-0.0543449999999999,-0.30491,0.140246,-0.0402049999999999,-0.3073,-0.116044,-0.350475,-0.152631,0.101356,-0.348865,-0.157052,1
175,-0.0149645,0.701025,-0.1064649999999999,-0.1483695,0.496205,-0.1399599999999999,-0.2575595,0.706785,-0.235728,0.1343305,0.495785,-0.141977,0.2535005,0.708265,-0.23853,-0.3195195,0.946425,-0.3062049999999999,0.2803305,0.914195,-0.301195,-0.0811025,-0.001695,0.000195,0.0811025,0.001695,-0.0001949999999999,-0.1388295,-0.0709949999999999,-0.303115,0.1397505,-0.0556349999999999,-0.306735,-0.1160495,-0.372215,-0.152214,0.1019205,-0.3705249999999999,-0.158686,1
176,-0.0145519999999999,0.70489,-0.102768,-0.147871,0.49861,-0.137653,-0.256671,0.70855,-0.232619,0.135179,0.49952,-0.139391,0.253999,0.7104600000000001,-0.23487,-0.319091,0.94839,-0.30279,0.2814489999999999,0.91635,-0.29649,-0.081191,-0.0014899999999999,-7.999999999999674e-05,0.081191,0.00149,7.999999999999674e-05,-0.137381,-0.08759,-0.29927,0.139239,-0.0720699999999999,-0.3031,-0.1159709999999999,-0.39544,-0.150184,0.102569,-0.39354,-0.158413,1
177,-0.0137004999999999,0.7078,-0.0983529999999999,-0.1471525,0.50259,-0.134592,-0.2564125,0.70996,-0.229394,0.1363475,0.49927,-0.13599,0.2549375,0.7114400000000001,-0.230377,-0.3189625,0.95027,-0.29945,0.2829474999999999,0.9166,-0.29103,-0.0811215,-0.00084,-0.0002699999999999,0.0811215,0.00084,0.00027,-0.1356725,-0.1042799999999999,-0.29456,0.1389175,-0.0899399999999999,-0.29851,-0.1155824999999999,-0.41907,-0.1477939999999999,0.1035875,-0.4176199999999999,-0.157295,1
178,-0.0115225,0.7121500000000001,-0.09294,-0.1454575,0.50205,-0.129701,-0.2540675,0.71052,-0.223821,0.1379425,0.50318,-0.131186,0.2573225,0.71438,-0.224304,-0.3165575,0.95206,-0.29348,0.2856525,0.91748,-0.28393,-0.0812995,-0.00089,-0.0004399999999999,0.0812995,0.00089,0.0004399999999999,-0.1328774999999999,-0.1197499999999999,-0.28959,0.1396225,-0.1069,-0.29211,-0.1140775,-0.44152,-0.144015,0.1059025,-0.44023,-0.154642,1
179,-0.0090049999999999,0.713515,-0.087084,-0.143645,0.502535,-0.124606,-0.252585,0.714115,-0.218349,0.139965,0.505225,-0.126246,0.2601449999999999,0.714845,-0.218255,-0.314085,0.954575,-0.287405,0.288835,0.917315,-0.276995,-0.081487,-0.000655,-0.000465,0.081487,0.0006549999999999,0.0004649999999999,-0.129855,-0.135985,-0.283765,0.140585,-0.124845,-0.285475,-0.1122949999999999,-0.464245,-0.140183,0.108615,-0.463295,-0.151974,1
180,-0.0070139999999999,0.718375,-0.0826109999999999,-0.142338,0.506495,-0.120693,-0.2506379999999999,0.7208650000000001,-0.213748,0.142182,0.510265,-0.1224369999999999,0.2625719999999999,0.7182250000000001,-0.213561,-0.311758,0.959285,-0.28229,0.291622,0.922815,-0.27096,-0.081237,-0.000365,-0.0005,0.081237,0.000365,0.0005,-0.127238,-0.148135,-0.2781599999999999,0.1411319999999999,-0.138295,-0.27924,-0.111098,-0.482695,-0.137559,0.111302,-0.4819849999999999,-0.151033,1
181,-0.0046109999999999,0.722765,-0.07744,-0.140753,0.509245,-0.115955,-0.248663,0.723855,-0.208412,0.144727,0.513125,-0.1179279999999999,0.264917,0.719725,-0.208214,-0.309433,0.962635,-0.275815,0.294427,0.923855,-0.264165,-0.080854,1.4999999999987246e-05,-0.0005249999999999,0.080854,-1.5000000000015e-05,0.0005249999999999,-0.1245429999999999,-0.161805,-0.271155,0.141727,-0.153145,-0.271515,-0.109993,-0.501985,-0.134993,0.114187,-0.5013650000000001,-0.14948,1
182,-0.0021889999999999,0.7255449999999999,-0.072877,-0.13916,0.513115,-0.111399,-0.24675,0.727495,-0.2034159999999999,0.14709,0.5169349999999999,-0.113366,0.26737,0.722315,-0.2032979999999999,-0.30778,0.966505,-0.26965,0.29729,0.927665,-0.25758,-0.08041,0.0003449999999999,-0.0005199999999999,0.08041,-0.000345,0.00052,-0.12195,-0.173935,-0.26369,0.14246,-0.166545,-0.2631,-0.10921,-0.5196149999999999,-0.132441,0.1172999999999999,-0.518985,-0.147782,1
183,0.0002079999999999,0.731155,-0.0687339999999999,-0.137817,0.515195,-0.1075259999999999,-0.244957,0.7305849999999999,-0.199319,0.149523,0.520365,-0.1092939999999999,0.269723,0.7262649999999999,-0.198832,-0.306247,0.969615,-0.264115,0.299593,0.929385,-0.251425,-0.080053,0.0005249999999999,-0.0004549999999999,0.080053,-0.0005249999999999,0.000455,-0.119497,-0.1848649999999999,-0.255625,0.1431329999999999,-0.178505,-0.254555,-0.108447,-0.5352750000000001,-0.129745,0.120583,-0.534415,-0.146229,1
184,0.0028564999999999,0.73472,-0.0643759999999999,-0.1365795,0.52253,-0.103298,-0.2428795,0.7335400000000001,-0.194731,0.1521205,0.52184,-0.105021,0.2722104999999999,0.72807,-0.194475,-0.3039795,0.97251,-0.2577049999999999,0.3020604999999999,0.93312,-0.245465,-0.0793905,0.00101,-0.0003949999999999,0.0793905,-0.0010099999999999,0.000395,-0.1167295,-0.19571,-0.245875,0.1440105,-0.19041,-0.2448449999999999,-0.1074995,-0.55001,-0.125924,0.1236305,-0.5491199999999999,-0.143119,1
185,0.0056824999999999,0.7388125,-0.059498,-0.1352025,0.5281125,-0.098154,-0.2413325,0.7363925,-0.189126,0.1555575,0.5251425,-0.100208,0.2745875,0.7301925,-0.189093,-0.3022825,0.9740725,-0.25073,0.3045675,0.9320925,-0.23892,-0.0788345,0.0013874999999999,-0.00012,0.0788345,-0.0013874999999999,0.0001199999999999,-0.1138125,-0.2074275,-0.23396,0.1453175,-0.2022475,-0.23374,-0.1063625,-0.5650575,-0.120554,0.1268475,-0.5639675000000001,-0.13773,1
186,0.0068574999999999,0.7432445,-0.05499,-0.1354515,0.5308745,-0.093542,-0.2412115,0.7401245,-0.183921,0.1568085,0.5302245,-0.095732,0.2752185,0.7325145,-0.18404,-0.3019914999999999,0.9778245,-0.243555,0.3051585,0.9341445,-0.232635,-0.0786685,0.0014375,0.000125,0.0786685,-0.0014374999999999,-0.000125,-0.1123715,-0.2219355,-0.221535,0.1446785,-0.2144455,-0.222515,-0.1068615,-0.5809455,-0.115355,0.1269684999999999,-0.5775255,-0.132525,1
187,0.0076965,0.7468779999999999,-0.051137,-0.1360124999999999,0.535148,-0.089353,-0.2418025,0.744918,-0.179429,0.1579375,0.532008,-0.091627,0.2755775,0.736078,-0.1800749999999999,-0.3020025,0.982768,-0.2366349999999999,0.3056675,0.937658,-0.226925,-0.0786375,0.0018359999999999,0.0003549999999999,0.0786375,-0.001836,-0.0003549999999999,-0.1107924999999999,-0.235582,-0.2082149999999999,0.1439775,-0.2261719999999999,-0.211405,-0.1075025,-0.5958720000000001,-0.11058,0.1269475,-0.590422,-0.1272,1
188,0.0084564999999999,0.751332,-0.0428215,-0.1366735,0.538952,-0.0807935,-0.2424335,0.748942,-0.1701015,0.1589765,0.532762,-0.0829595,0.2757465,0.739002,-0.1714485,-0.3020835,0.987882,-0.2252245,0.3058464999999999,0.941292,-0.2166445,-0.0786365,0.002359,0.0006834999999999,0.0786365,-0.002359,-0.0006835,-0.1090035,-0.249328,-0.1894445,0.1430664999999999,-0.2380479999999999,-0.1938105,-0.1082435,-0.6109479999999999,-0.1003785,0.1268665,-0.603468,-0.1172235,1
189,0.0088165,0.750901,-0.0317169999999999,-0.1377054999999999,0.541211,-0.0697069999999999,-0.2428255,0.749441,-0.158074,0.1595245,0.531451,-0.072736,0.2756745,0.735731,-0.160061,-0.3026655,0.989871,-0.21075,0.3054544999999999,0.937861,-0.20365,-0.0783285,0.0021599999999999,0.001251,0.0783285,-0.0021599999999999,-0.001251,-0.1071455,-0.269299,-0.165466,0.1389945,-0.256459,-0.1696659999999999,-0.1091554999999999,-0.632189,-0.084974,0.1264145,-0.6227889999999999,-0.101184,1
190,0.008857,0.748551,-0.0213504999999999,-0.138698,0.543481,-0.0593144999999999,-0.243718,0.7491209999999999,-0.1474785,0.159942,0.531261,-0.0631404999999999,0.275462,0.733251,-0.1489915,-0.303308,0.988491,-0.1977875,0.305092,0.936041,-0.1914874999999999,-0.077996,0.001914,0.0018465,0.077996,-0.0019139999999999,-0.0018465,-0.105438,-0.287879,-0.1422315,0.134932,-0.272819,-0.1465225,-0.109868,-0.6513890000000001,-0.0697334999999999,0.125802,-0.640699,-0.0853844999999999,1
191,0.0085095,0.7470325,-0.0114714999999999,-0.1401704999999999,0.5445424999999999,-0.0492775,-0.2451705,0.7489524999999999,-0.1371804999999999,0.1600295,0.5303325,-0.0539735,0.2749095,0.7304625,-0.1387235,-0.3038605,0.9861425,-0.1853145,0.3044294999999999,0.9341525,-0.1797845,-0.0775995,0.0016684999999999,0.0025374999999999,0.0775995,-0.0016685,-0.0025374999999999,-0.1038605,-0.3042775,-0.1189595,0.1304495,-0.2878374999999999,-0.1236415,-0.1108005,-0.6685675000000001,-0.0549215,0.1246295,-0.6570975,-0.0699555,1
192,0.0078455,0.7435185,-0.0014345,-0.1418665,0.5463884999999999,-0.0389305,-0.2467465,0.7494885,-0.1266675,0.1596535,0.5298385,-0.0447465,0.2740534999999999,0.7263785,-0.1283655,-0.3047065,0.9842585,-0.1726605,0.3031735,0.9328585,-0.1675005,-0.0771685,0.0015335,0.0031934999999999,0.0771685,-0.0015335,-0.0031935,-0.1022665,-0.3199715,-0.0948745,0.1255235,-0.3025115,-0.0999815,-0.1117965,-0.6850215000000001,-0.0396325,0.1227835,-0.6729415,-0.0532525,1
193,0.0067535,0.7409414999999999,0.0085389999999999,-0.1435315,0.5429615,-0.028796,-0.2488215,0.7500015,-0.116673,0.1588085,0.5311315,-0.035715,0.2729185,0.7242615,-0.118235,-0.3060815,0.9825015,-0.160209,0.3016385,0.9311615,-0.155429,-0.0767505,0.0009274999999999,0.0038709999999999,0.0767505,-0.0009274999999999,-0.0038709999999999,-0.1009355,-0.3329385,-0.071807,0.1201385,-0.3148585,-0.077366,-0.1129915,-0.6992785,-0.023524,0.1205285,-0.6864285,-0.036705,1
194,0.0055854999999999,0.737992,0.0174304999999999,-0.1451095,0.541492,-0.0197735,-0.2505195,0.751322,-0.1074885,0.1576504999999999,0.5289320000000001,-0.0278565,0.2716805,0.722352,-0.1092144999999999,-0.3072795,0.984162,-0.1484985,0.2999005,0.931252,-0.1445785,-0.0763765,0.0005099999999999,0.0044655,0.0763765,-0.00051,-0.0044655,-0.0995015,-0.344568,-0.0504525,0.1146605,-0.324918,-0.0564495,-0.1140695,-0.7118979999999999,-0.0083804999999999,0.1180104999999999,-0.697568,-0.0212885,0
195,0.0045774999999999,0.7341260000000001,0.02638,-0.1464855,0.5399660000000001,-0.010947,-0.2523655,0.7513960000000001,-0.098935,0.1566545,0.527136,-0.020049,0.2706745,0.720186,-0.100279,-0.3085255,0.982386,-0.137311,0.2981945,0.930286,-0.133921,-0.0760975,5.6000000000000494e-05,0.0051049999999999,0.0760975,-5.6000000000000494e-05,-0.005105,-0.0978745,-0.355934,-0.029607,0.1096345,-0.334074,-0.036127,-0.1149854999999999,-0.7241839999999999,0.0061779999999999,0.1153845,-0.707844,-0.005978,0
196,0.003255,0.7296545,0.035579,-0.148066,0.5387045,-0.002116,-0.254416,0.7515645,-0.090095,0.155344,0.5255044999999999,-0.01206,0.269344,0.7153045,-0.090515,-0.310046,0.9803745,-0.126081,0.2958739999999999,0.9281745,-0.122961,-0.076103,-0.0004084999999999,0.005724,0.076103,0.0004085,-0.005724,-0.096689,-0.3680854999999999,-0.009531,0.1044239999999999,-0.3434055,-0.015943,-0.116206,-0.7369255,0.020377,0.112354,-0.7181955,0.009418,0
197,0.0015099999999999,0.7253275,0.0399954999999999,-0.1499579999999999,0.5374675,0.0021494999999999,-0.256768,0.7494875000000001,-0.0859685,0.153082,0.5251075000000001,-0.0088235,0.267582,0.7116475,-0.0855855,-0.311748,0.9758675,-0.1197705,0.293242,0.9268675,-0.1169804999999999,-0.075933,-0.0011394999999999,0.0061145,0.075933,0.0011395,-0.0061145,-0.095968,-0.3788224999999999,0.0043314999999999,0.099232,-0.3518125,-0.0029905,-0.117678,-0.7477825,0.0286855,0.1088819999999999,-0.7268125,0.0186095,0
198,0.001293,0.7253785,0.041603,-0.150104,0.5375285000000001,0.00377,-0.257054,0.7515285,-0.0839989999999999,0.1528459999999999,0.5261585000000001,-0.007282,0.267346,0.7140985000000001,-0.083536,-0.311944,0.9761485,-0.1168999999999999,0.292276,0.9292485,-0.1142,-0.075906,-0.0011754999999999,0.006177,0.075906,0.0011754999999999,-0.006177,-0.09409,-0.3798415,0.01232,0.098396,-0.3527915,0.0032329999999999,-0.1176639999999999,-0.7489214999999999,0.0321469999999999,0.108396,-0.7278315,0.021848,0
199,0.001065,0.7254714999999999,0.0433365,-0.15026,0.5376215,0.0054575,-0.25739,0.7531815,-0.0819345,0.15261,0.5270414999999999,-0.0056365,0.26705,0.7156015,-0.0814195,-0.31214,0.9767115,-0.1139305,0.29127,0.9316115,-0.1113305,-0.07588,-0.0012284999999999,0.0062245,0.07588,0.0012285,-0.0062245,-0.092224,-0.3808785,0.0197885,0.09764,-0.3538285,0.0095765,-0.1177,-0.7499585,0.0356795,0.10793,-0.7288685,0.0251725,0
200,0.000844,0.7253605,0.0450869999999999,-0.150432,0.5377705,0.007066,-0.257712,0.7538005,-0.0798639999999999,0.152408,0.5278105,-0.0038749999999999,0.266588,0.7165005,-0.0793509999999999,-0.312332,0.9772505,-0.111008,0.290268,0.9336505,-0.108498,-0.075857,-0.0012925,0.006284,0.075857,0.0012925,-0.006284,-0.090555,-0.3818395,0.026579,0.097078,-0.3545895,0.015427,-0.117752,-0.7509195,0.038986,0.107588,-0.7298295,0.028343,0
201,0.0007449999999999,0.7253365,0.0467305,-0.150303,0.5380965,0.0085115,-0.257853,0.7539065,-0.0779845,0.152367,0.5281965000000001,-0.0021334999999999,0.266117,0.7172865,-0.0774415,-0.312213,0.9778065,-0.1082855,0.289577,0.9329065,-0.1060855,-0.0757019999999999,-0.0013775,0.0063565,0.0757019999999999,0.0013774999999999,-0.0063565,-0.0889649999999999,-0.3818335,0.0320255,0.096947,-0.3534135,0.0204624999999999,-0.117583,-0.7516634999999999,0.0420575,0.107437,-0.7301635,0.0313425,0
202,0.0005809999999999,0.7254735,0.0481605,-0.150173,0.5384535,0.0097445,-0.257993,0.7537535,-0.0762934999999999,0.152297,0.5287035,-0.0006284999999999,0.265637,0.7177635,-0.0756314999999999,-0.312263,0.9785035,-0.1059145,0.288827,0.9335035,-0.1039245,-0.075582,-0.0014234999999999,0.0063765,0.075582,0.0014235,-0.0063765,-0.087383,-0.3810265,0.0361164999999999,0.097037,-0.3526465,0.0248195,-0.117293,-0.7519065,0.0447045,0.107347,-0.7299765,0.0339995,0
203,0.0003145,0.725401,0.049493,-0.1500955,0.538891,0.010863,-0.2582255,0.7533110000000001,-0.074802,0.1521545,0.529261,0.000703,0.2651445,0.7180010000000001,-0.0738669999999999,-0.3124355,0.978721,-0.1041619999999999,0.2880245,0.933621,-0.101932,-0.0754825,-0.0014329999999999,0.006323,0.0754825,0.001433,-0.006323,-0.0861224999999999,-0.380339,0.039223,0.0970945,-0.352099,0.02853,-0.1170555,-0.751879,0.046898,0.1072444999999999,-0.7294689999999999,0.036446,0
204,-2.6999999999996645e-05,0.7253155,0.050689,-0.150164,0.5395755,0.0118389999999999,-0.258494,0.7528755,-0.073454,0.152096,0.5298055,0.0019529999999999,0.264686,0.7180955,-0.072299,-0.312754,0.9788855,-0.102651,0.286956,0.9325855,-0.100131,-0.07541,-0.0014834999999999,0.006306,0.07541,0.0014834999999999,-0.006306,-0.0850789999999999,-0.3797945,0.041355,0.097146,-0.3514644999999999,0.031762,-0.116864,-0.7518245,0.048824,0.107166,-0.7288945,0.038575,0
205,-0.0004175,0.7253235,0.0517015,-0.1503634999999999,0.5398735,0.0127945,-0.2587835,0.7525335,-0.0723425,0.1521065,0.5301435,0.0029685,0.2642164999999999,0.7182135,-0.0709035,-0.3134135,0.9791435,-0.1013545,0.2860364999999999,0.9313435,-0.0985045,-0.0753455,-0.0015534999999999,0.0062765,0.0753455,0.0015534999999999,-0.0062765,-0.0842985,-0.3793864999999999,0.0426545,0.0972165,-0.3507564999999999,0.0343335,-0.1167435,-0.7515965,0.0502335,0.1070965,-0.7282865000000001,0.0403875,0
206,-0.0008819999999999,0.7253705,0.0524935,-0.150613,0.5400305000000001,0.0135895,-0.2591429999999999,0.7522505,-0.0713615,0.152137,0.5303005000000001,0.0037655,0.263747,0.7182405000000001,-0.0697025,-0.314283,0.9786605,-0.1000974999999999,0.285047,0.9301605,-0.0970075,-0.075291,-0.0016034999999999,0.0062615,0.075291,0.0016035,-0.0062615,-0.083764,-0.3790194999999999,0.0434785,0.097387,-0.3502195,0.0364275,-0.116653,-0.7510795,0.0514055,0.107047,-0.7277895,0.0419375,0
207,-0.0014175,0.7254769999999999,0.053199,-0.1508955,0.5400370000000001,0.014297,-0.2595055,0.751927,-0.070412,0.1521745,0.5303469999999999,0.004524,0.2632945,0.7183269999999999,-0.068582,-0.3152655,0.978447,-0.098797,0.2840045,0.929047,-0.095577,-0.0752424999999999,-0.0016389999999999,0.006247,0.0752424999999999,0.001639,-0.0062469999999999,-0.0833595,-0.378633,0.044192,0.0975445,-0.349693,0.0381569999999999,-0.1165855,-0.7504029999999999,0.052456,0.1070144999999999,-0.7273430000000001,0.043163,0
208,-0.0020229999999999,0.7256825,0.0538145,-0.151246,0.5401325,0.0148555,-0.259856,0.7515225,-0.0695335,0.152134,0.5303725,0.0052785,0.262854,0.7185325,-0.0675785,-0.316276,0.9784725,-0.0976245,0.282854,0.9289725,-0.0944545,-0.075198,-0.0016914999999999,0.0062605,0.075198,0.0016914999999999,-0.0062604999999999,-0.08302,-0.3781474999999999,0.0447575,0.097634,-0.3491375,0.0394915,-0.116536,-0.7496975,0.0532735,0.107014,-0.7268075,0.0441265,0
209,-0.002669,0.7259979999999999,0.054327,-0.151577,0.540138,0.015366,-0.260227,0.7510479999999999,-0.068666,0.152203,0.530458,0.0060609999999999,0.262443,0.7186279999999999,-0.066689,-0.317327,0.978428,-0.096501,0.281773,0.929728,-0.093511,-0.075155,-0.001736,0.006261,0.075155,0.001736,-0.0062609999999999,-0.082694,-0.3772219999999999,0.045085,0.097663,-0.348742,0.0404729999999999,-0.116497,-0.749112,0.053971,0.107023,-0.726422,0.045027,0
210,-0.00334,0.726278,0.0547934999999999,-0.151878,0.540138,0.0158015,-0.260658,0.7504879999999999,-0.0677955,0.1522919999999999,0.530558,0.0067885,0.262262,0.7186279999999999,-0.0660615,-0.318438,0.978128,-0.0952875,0.281032,0.928628,-0.0931875,-0.075113,-0.001736,0.0062135,0.075113,0.001736,-0.0062135,-0.082572,-0.376592,0.0451675,0.097702,-0.348462,0.0411625,-0.116458,-0.748882,0.0544625,0.107032,-0.726152,0.0457485,0
211,-0.003941,0.726368,0.055228,-0.15213,0.540138,0.016214,-0.26114,0.749798,-0.066931,0.15232,0.530558,0.007487,0.26234,0.7186279999999999,-0.065688,-0.31939,0.977928,-0.094151,0.28044,0.927328,-0.092921,-0.07507,-0.001736,0.00616,0.07507,0.001736,-0.00616,-0.082493,-0.376052,0.045363,0.09778,-0.348422,0.041663,-0.11638,-0.748832,0.054885,0.10708,-0.726112,0.046302,0
212,-0.0044555,0.7264005,0.055607,-0.1523965,0.5401705,0.016685,-0.2617565,0.7490405,-0.066089,0.1524935,0.5305905,0.00819,0.2624435,0.7186604999999999,-0.065477,-0.3202965,0.9779605,-0.09321,0.2800335,0.9259605,-0.09271,-0.0750345,-0.0017685,0.006122,0.0750345,0.0017684999999999,-0.006122,-0.0823875,-0.3760195,0.0453929999999999,0.0978235,-0.3483895,0.042097,-0.1162965,-0.7487995000000001,0.055215,0.1071635,-0.7260795,0.046784,0
213,-0.004914,0.726534,0.0559459999999999,-0.15255,0.5402239999999999,0.0170619999999999,-0.26267,0.7482139999999999,-0.065346,0.15273,0.5306839999999999,0.0087609999999999,0.26259,0.7186239999999999,-0.065404,-0.32113,0.978094,-0.0925769999999999,0.28018,0.923194,-0.092647,-0.075011,-0.001867,0.0060749999999999,0.075011,0.0018669999999999,-0.006075,-0.08224,-0.375886,0.045277,0.09797,-0.348256,0.0423739999999999,-0.1162199999999999,-0.748666,0.0553759999999999,0.1072799999999999,-0.725946,0.047102,0
