sb224sc-HT22-VT27/4dt907/src/ml-research/a11/datafiles/labeled_files/B16_kinect.csv
FrameNo,nose_3d_x,nose_3d_y,nose_3d_z,left_shoulder_3d_x,left_shoulder_3d_y,left_shoulder_3d_z,left_elbow_3d_x,left_elbow_3d_y,left_elbow_3d_z,right_shoulder_3d_x,right_shoulder_3d_y,right_shoulder_3d_z,right_elbow_3d_x,right_elbow_3d_y,right_elbow_3d_z,left_wrist_3d_x,left_wrist_3d_y,left_wrist_3d_z,right_wrist_3d_x,right_wrist_3d_y,right_wrist_3d_z,left_hip_3d_x,left_hip_3d_y,left_hip_3d_z,right_hip_3d_x,right_hip_3d_y,right_hip_3d_z,left_knee_3d_x,left_knee_3d_y,left_knee_3d_z,right_knee_3d_x,right_knee_3d_y,right_knee_3d_z,left_ankle_3d_x,left_ankle_3d_y,left_ankle_3d_z,right_ankle_3d_x,right_ankle_3d_y,right_ankle_3d_z,activity_label
0,-0.0181835,0.7612805,0.0533115,-0.1847865,0.4797805,-0.0014095,-0.2255665,0.2235005,-0.0240395,0.1590035,0.4744704999999999,0.0135884999999999,0.1916435,0.2240005,0.0349544999999999,-0.2018865,0.0275645,-0.0968605,0.1109835,0.3934304999999999,-0.1519705,-0.0729684999999999,-0.0015344999999999,0.0007454999999999,0.0729684999999999,0.0015344999999999,-0.0007455,-0.1001745,-0.3353495,0.0101514999999999,0.0998034999999999,-0.3423795,0.0459845,-0.1088165,-0.6468695,0.0443255,0.1029335,-0.6696894999999999,0.0671305,0
1,-0.018047,0.7619495000000001,0.0535475,-0.185001,0.4802295,-0.0004914999999999,-0.225711,0.2246795,-0.0235744999999999,0.159869,0.4746995,0.0149405,0.201459,0.2332495,0.0292675,-0.201681,0.0279855,-0.0964864999999999,0.110319,0.3984094999999999,-0.1566365,-0.073026,-0.0015135,0.0008575,0.073026,0.0015135,-0.0008574999999999,-0.1002059999999999,-0.3339305,0.0102985,0.100269,-0.3415305,0.0459495,-0.108841,-0.6457904999999999,0.0443795,0.103219,-0.6689305,0.0673705,0
2,-0.0180285,0.762035,0.053596,-0.1850095,0.480205,-0.000313,-0.2257595,0.224805,-0.023559,0.1599105,0.475245,0.0149759999999999,0.1958404999999999,0.227145,0.0342349999999999,-0.2017795,0.028727,-0.09641,0.1105905,0.394605,-0.15242,-0.0730345,-0.001514,0.0009329999999999,0.0730345,0.001514,-0.000933,-0.1001805,-0.333865,0.0103329999999999,0.1004305,-0.341475,0.045895,-0.1088695,-0.645795,0.0444289999999999,0.1032505,-0.668885,0.067406,0
3,-0.0180115,0.762228,0.0536429999999999,-0.1851335,0.480258,-0.0001219999999999,-0.2256535,0.224738,-0.0235859999999999,0.1597065,0.475288,0.014512,0.1926265,0.224168,0.037498,-0.2016335,0.027954,-0.0965459999999999,0.1103965,0.392638,-0.1496259999999999,-0.0730715,-0.0014979999999999,0.0010039999999999,0.0730715,0.0014979999999999,-0.0010039999999999,-0.1000715,-0.333912,0.010464,0.1004564999999999,-0.341182,0.045951,-0.1087635,-0.6456919999999999,0.044364,0.1032965,-0.669102,0.067273,0
4,-0.0180855,0.7621964999999999,0.0536215,-0.1852425,0.4801465,-9.149999999999436e-05,-0.2256225,0.2246965,-0.0235714999999999,0.1597275,0.4755465,0.0144195,0.1917175,0.2234665,0.0355655,-0.2020625,0.0286835,-0.0964715,0.1098875,0.3932865,-0.1504515,-0.0730635,-0.0015325,0.0010315,0.0730635,0.0015325,-0.0010314999999999,-0.1001475,-0.3339635,0.0104805,0.1003775,-0.3413335,0.0458735,-0.1088025,-0.6455335,0.0445915,0.1031375,-0.6688835000000001,0.0671615,0
5,-0.018153,0.762186,0.053613,-0.1852099999999999,0.480086,-2.2999999999995246e-05,-0.22565,0.224716,-0.0235229999999999,0.15992,0.476136,0.014789,0.19912,0.231656,0.024862,-0.20195,0.027911,-0.096947,0.10887,0.400676,-0.157797,-0.073069,-0.0015459999999999,0.001058,0.073069,0.001546,-0.0010579999999999,-0.100172,-0.334184,0.010642,0.1002899999999999,-0.341494,0.045603,-0.10874,-0.645644,0.044353,0.10314,-0.666694,0.067794,0
6,-0.018064,0.7624345,0.0537904999999999,-0.185099,0.4804645,0.0001824999999999,-0.2254689999999999,0.2250145,-0.0232475,0.160061,0.4756745,0.0148444999999999,0.201201,0.2333045,0.0244164999999999,-0.201689,0.0276365,-0.0969005,0.109041,0.4017045,-0.1578505,-0.07309,-0.0014575,0.0013054999999999,0.07309,0.0014575,-0.0013055,-0.100183,-0.3337555,0.0106554999999999,0.100391,-0.3412055,0.0458055,-0.108649,-0.6453755,0.0445485,0.103221,-0.6663855,0.0679755,0
7,-0.018274,0.762305,0.053974,-0.185189,0.480185,0.000283,-0.225459,0.224845,-0.0233229999999999,0.159991,0.476065,0.014897,0.1982709999999999,0.232825,0.023706,-0.201369,0.026927,-0.097203,0.108441,0.402055,-0.158763,-0.07306,-0.001548,0.001178,0.07306,0.001548,-0.0011779999999999,-0.100238,-0.334045,0.010733,0.1003609999999999,-0.341605,0.045741,-0.108759,-0.645385,0.044587,0.103091,-0.667755,0.067789,0
8,-0.018325,0.7623325,0.0541045,-0.18523,0.4801725,0.0003985,-0.22545,0.2248925,-0.0232185,0.16005,0.4762125,0.0150204999999999,0.19835,0.2328525,0.0233835,-0.20124,0.0266185,-0.0973275,0.10832,0.4023425,-0.1588675,-0.073074,-0.0015545,0.0012334999999999,0.073074,0.0015545,-0.0012334999999999,-0.100258,-0.3340175,0.0108515,0.10037,-0.3416875,0.0457474999999999,-0.10877,-0.6453075,0.0446305,0.10305,-0.6676775,0.0678894999999999,0
9,-0.0183925,0.7623695,0.0542035,-0.1852734999999999,0.4801795,0.0005005,-0.2254534999999999,0.2249294999999999,-0.0231704999999999,0.1600865,0.4762495,0.0150745,0.1981865,0.2331494999999999,0.0223125,-0.2011335,0.0263505,-0.0974845,0.1079265,0.4030694999999999,-0.1594245,-0.0730795,-0.0015515,0.0013055,0.0730795,0.0015515,-0.0013054999999999,-0.1002695,-0.3340505,0.0109495,0.1003665,-0.3417505,0.0457365,-0.1087835,-0.6452304999999999,0.0446655,0.1030265,-0.6676504999999999,0.0679535,0
10,-0.018457,0.762404,0.054307,-0.185311,0.480174,0.000599,-0.2254509999999999,0.224944,-0.023118,0.160099,0.476274,0.015124,0.198649,0.234214,0.021013,-0.201011,0.026066,-0.097587,0.107639,0.404074,-0.160277,-0.073084,-0.001549,0.001366,0.073084,0.001549,-0.0013659999999999,-0.100273,-0.334076,0.011037,0.100369,-0.341806,0.045764,-0.108801,-0.645136,0.044717,0.102999,-0.667616,0.068019,0
11,-0.0185289999999999,0.762424,0.0543935,-0.1853369999999999,0.480164,0.0006764999999999,-0.225457,0.224964,-0.0230845,0.160113,0.476304,0.0151534999999999,0.198643,0.234264,0.0205714999999999,-0.200917,0.025871,-0.0976695,0.107333,0.404104,-0.1602195,-0.073086,-0.00154,0.0013994999999999,0.073086,0.00154,-0.0013995,-0.100289,-0.334086,0.0110974999999999,0.100373,-0.341856,0.0457705,-0.108807,-0.6450260000000001,0.0447705,0.102963,-0.667586,0.0680725,0
12,-0.0186015,0.762483,0.0544884999999999,-0.1853795,0.480193,0.0007505,-0.2254894999999999,0.224993,-0.0230585,0.1601205,0.476333,0.0151875,0.1988405,0.234903,0.0199554999999999,-0.2008495,0.025726,-0.0977214999999999,0.1070705,0.404753,-0.1607215,-0.0730905,-0.001552,0.0014295,0.0730905,0.001552,-0.0014295,-0.1003115,-0.334077,0.0111584999999999,0.1003705,-0.341877,0.0458105,-0.1088195,-0.644897,0.0448525,0.1029305,-0.667527,0.0681205,0
13,-0.0186794999999999,0.7625445,0.054611,-0.1854195,0.4802245,0.0008459999999999,-0.2255395,0.2250144999999999,-0.0230249999999999,0.1600705,0.4762445,0.01517,0.1987205,0.2355344999999999,0.019705,-0.2008095,0.0256255,-0.0977309999999999,0.1069405,0.4053345,-0.161241,-0.0730995,-0.0015595,0.001465,0.0730995,0.0015595,-0.001465,-0.1003385,-0.3339955,0.011242,0.1003505,-0.3418355,0.04588,-0.1088394999999999,-0.6447355,0.04496,0.1029005,-0.6676555,0.068105,0
14,-0.018737,0.762608,0.0547179999999999,-0.18546,0.480248,0.0009239999999999,-0.22558,0.225018,-0.022994,0.16003,0.476178,0.0151369999999999,0.19851,0.236068,0.019398,-0.20082,0.025641,-0.097686,0.10685,0.4056579999999999,-0.161496,-0.073112,-0.001578,0.0015109999999999,0.073112,0.001578,-0.001511,-0.100351,-0.333932,0.0112989999999999,0.10035,-0.341782,0.045936,-0.10886,-0.644592,0.04505,0.10289,-0.667752,0.068075,0
15,-0.0187865,0.76266,0.0548145,-0.1854945,0.48028,0.0009895,-0.2256245,0.22505,-0.0229764999999999,0.1599954999999999,0.4759799999999999,0.0150945,0.1984955,0.23612,0.0190655,-0.2008645,0.025693,-0.0976504999999999,0.1068855,0.4058699999999999,-0.1618005,-0.0731255,-0.001594,0.0015535,0.0731255,0.001594,-0.0015534999999999,-0.1003715,-0.33389,0.0113495,0.1003355,-0.34173,0.0459785,-0.1088745,-0.6445099999999999,0.0451295,0.1028854999999999,-0.66782,0.0680515,0
16,-0.0188275,0.7627125,0.0548904999999999,-0.1855125,0.4803125,0.0010304999999999,-0.2256525,0.2250725,-0.0229675,0.1599575,0.4756825,0.0149974999999999,0.1977775,0.2357225,0.0191835,-0.2008925,0.0257555,-0.0976225,0.1068775,0.4057625,-0.1618325,-0.0731375,-0.0016095,0.0015814999999999,0.0731375,0.0016095,-0.0015814999999999,-0.1003894999999999,-0.3338275,0.0113664999999999,0.1003375,-0.3416775,0.0460075,-0.1088825,-0.6444075,0.0451925,0.1028874999999999,-0.6678775,0.0680245,0
17,-0.0188564999999999,0.7627865,0.0549439999999999,-0.1854805,0.4803565,0.0010459999999999,-0.2256705,0.2250865,-0.022968,0.1598995,0.4753565,0.0148809999999999,0.1982495,0.2363964999999999,0.0188749999999999,-0.2009205,0.0258295,-0.097612,0.1069595,0.4061565,-0.162272,-0.0731425,-0.0016255,0.0015949999999999,0.0731425,0.0016255,-0.0015949999999999,-0.1003995,-0.3338035,0.0113869999999999,0.1003495,-0.3416134999999999,0.04602,-0.1088905,-0.6443335,0.045251,0.1028795,-0.6679435,0.067977,0
18,-0.0188819999999999,0.7628634999999999,0.0549965,-0.185435,0.4804235,0.0010635,-0.225685,0.2251034999999999,-0.0229754999999999,0.159825,0.4750435,0.0147465,0.1981149999999999,0.2364834999999999,0.0190015,-0.200945,0.0259475,-0.0975924999999999,0.1070349999999999,0.4062335,-0.1621524999999999,-0.0731499999999999,-0.0016324999999999,0.0016115,0.0731499999999999,0.0016325,-0.0016114999999999,-0.10041,-0.3337564999999999,0.0113995,0.100355,-0.3415065,0.0460465,-0.108905,-0.6442465,0.0453365,0.102885,-0.6679965,0.0679345,0
19,-0.018909,0.7629915,0.055074,-0.185402,0.4805415,0.0010999999999999,-0.225692,0.2250915,-0.02299,0.159688,0.4748815,0.0145319999999999,0.198098,0.2370515,0.0184699999999999,-0.200972,0.0261265,-0.09755,0.106918,0.4055915,-0.16213,-0.07316,-0.0016415,0.0016289999999999,0.07316,0.0016415,-0.001629,-0.100422,-0.3336485,0.0114349999999999,0.100358,-0.3413585,0.0460939999999999,-0.108922,-0.6440985,0.045471,0.102898,-0.6680385,0.06791,0
20,-0.0189365,0.7631355,0.0551505,-0.1853825,0.4806955,0.0011365,-0.2257124999999999,0.2251255,-0.0230054999999999,0.1595375,0.4748155,0.0143405,0.1974375,0.2369955,0.0183185,-0.2010225,0.0263354999999999,-0.0974944999999999,0.1066975,0.4048955,-0.1613645,-0.0731715,-0.0016525,0.0016485,0.0731715,0.0016524999999999,-0.0016484999999999,-0.1004385,-0.3335245,0.0114655,0.1003474999999999,-0.3411945,0.0461675,-0.1089525,-0.6439645,0.0456325,0.1029075,-0.6680445,0.0679035,0
21,-0.018954,0.7632289999999999,0.055231,-0.185365,0.480809,0.001175,-0.225725,0.225149,-0.0230169999999999,0.159365,0.474799,0.014128,0.197055,0.237029,0.017878,-0.201075,0.026525,-0.097439,0.106645,0.405139,-0.161789,-0.073181,-0.001653,0.001663,0.073181,0.001653,-0.0016629999999999,-0.100448,-0.333411,0.011483,0.100335,-0.341051,0.046205,-0.108985,-0.6438710000000001,0.045769,0.102905,-0.668011,0.067913,0
22,-0.0189625,0.7633085000000001,0.055306,-0.1853525,0.4809085,0.001205,-0.2257225,0.2252085,-0.0230189999999999,0.1591875,0.4748885,0.013957,0.1968975,0.2373385,0.017347,-0.2011025,0.0267304999999999,-0.097422,0.1064875,0.4056485,-0.162252,-0.0731845,-0.0016575,0.001654,0.0731845,0.0016575,-0.0016539999999999,-0.1004575,-0.3333215,0.011496,0.1003275,-0.3409215,0.04623,-0.1090025,-0.6438115,0.045877,0.1028874999999999,-0.6679815,0.067938,0
23,-0.0189665,0.763374,0.055432,-0.1853385,0.480994,0.001233,-0.2257185,0.225274,-0.023028,0.1590415,0.475004,0.013804,0.1974115,0.2379939999999999,0.016887,-0.2011185,0.026938,-0.097416,0.1064815,0.406934,-0.163526,-0.0731884999999999,-0.001663,0.001643,0.0731884999999999,0.001663,-0.0016429999999999,-0.1004735,-0.333246,0.011526,0.1003314999999999,-0.340786,0.046255,-0.1090285,-0.643756,0.045978,0.1028715,-0.667936,0.067964,0
24,-0.018971,0.763446,0.055584,-0.185313,0.481086,0.00126,-0.225703,0.225366,-0.02302,0.158887,0.474956,0.013676,0.197437,0.238256,0.016515,-0.201133,0.027259,-0.097444,0.106487,0.407236,-0.163844,-0.073195,-0.001671,0.001618,0.073195,0.0016709999999999,-0.0016179999999999,-0.1004859999999999,-0.333154,0.011581,0.100327,-0.3406639999999999,0.046306,-0.109073,-0.6437039999999999,0.04609,0.102857,-0.667854,0.068007,0
25,-0.0189805,0.7634685,0.0557545,-0.1853045,0.4811285,0.0012954999999999,-0.2257045,0.2254584999999999,-0.0230135,0.1587555,0.4751185,0.0135755,0.1974555,0.2384985,0.0160825,-0.2011445,0.0275365,-0.0974925,0.1064355,0.4075884999999999,-0.1642725,-0.0732015,-0.0016855,0.0016175,0.0732015,0.0016855,-0.0016175,-0.1005055,-0.3330315,0.0116405,0.1003255,-0.3405815,0.0463625,-0.1091145,-0.6436815,0.0461855,0.1028455,-0.6678015,0.0680355,0
26,-0.0189954999999999,0.763445,0.0559395,-0.1853265,0.481155,0.0013615,-0.2257265,0.225515,-0.0229805,0.1586535,0.475195,0.0135054999999999,0.1981035,0.239145,0.0155415,-0.2011264999999999,0.02778,-0.0975714999999999,0.1064835,0.408955,-0.1650015,-0.0732115,-0.0017099999999999,0.0016154999999999,0.0732115,0.00171,-0.0016154999999999,-0.1005144999999999,-0.3329749999999999,0.0117054999999999,0.1003035,-0.340555,0.0464215,-0.1091665,-0.643675,0.0462805,0.1027935,-0.667745,0.0680715,0
27,-0.0190074999999999,0.7633965,0.0561519999999999,-0.1853495,0.4811565,0.0014559999999999,-0.2257495,0.2255364999999999,-0.022889,0.1586305,0.4752165,0.0135789999999999,0.1986105,0.2393664999999999,0.0152609999999999,-0.2011295,0.0281235,-0.097747,0.1064205,0.4090565,-0.165217,-0.0732205,-0.0017315,0.0016049999999999,0.0732205,0.0017315,-0.001605,-0.1005234999999999,-0.3329534999999999,0.0117779999999999,0.1002805,-0.3405535,0.046484,-0.1092094999999999,-0.6436535,0.046407,0.1027405,-0.6677335,0.068116,0
28,-0.0190304999999999,0.76333,0.0563725,-0.1853835,0.48113,0.0015565,-0.2257735,0.22556,-0.0228565,0.1585965,0.47546,0.0136794999999999,0.1989065,0.23958,0.0150204999999999,-0.2011335,0.028291,-0.0980365,0.1063065,0.40907,-0.1654465,-0.0732295,-0.001735,0.0016074999999999,0.0732295,0.001735,-0.0016074999999999,-0.1005355,-0.33296,0.0118374999999999,0.1002465,-0.34058,0.0465605,-0.1092635,-0.64365,0.0465094999999999,0.1026765,-0.66773,0.0681785,0
29,-0.0190605,0.7632599999999999,0.0566159999999999,-0.1854435,0.48111,0.0016619999999999,-0.2258335,0.22577,-0.022791,0.1585565,0.47573,0.0137859999999999,0.1991565,0.23988,0.0146149999999999,-0.2010535,0.028291,-0.09852,0.1063264999999999,0.40864,-0.16581,-0.0732335,-0.001735,0.0016049999999999,0.0732335,0.001735,-0.001605,-0.1005445,-0.33296,0.0119119999999999,0.1001865,-0.34058,0.0466349999999999,-0.1093335,-0.64365,0.0465859999999999,0.1025965,-0.6677200000000001,0.0682619999999999,0
30,-0.0191155,0.7631955,0.0569019999999999,-0.1855345,0.4811054999999999,0.0017849999999999,-0.2259545,0.2262655,-0.022697,0.1584954999999999,0.4760755,0.0138849999999999,0.1992255,0.2402055,0.0141499999999999,-0.2004145,0.0285845,-0.099591,0.1063055,0.4085355,-0.166231,-0.0732335,-0.0017445,0.0016069999999999,0.0732335,0.0017445,-0.001607,-0.1005855,-0.3329645,0.0119919999999999,0.1001054999999999,-0.3405845,0.046694,-0.1094045,-0.6436745,0.0466589999999999,0.1025154999999999,-0.6677145,0.06835,0
31,-0.0191749999999999,0.7630985,0.0571925,-0.1856159999999999,0.4810585,0.0019104999999999,-0.226206,0.2271785,-0.0226525,0.158474,0.4764285,0.0140915,0.199774,0.2409185,0.0132765,-0.2003559999999999,0.0288915,-0.1012585,0.106254,0.4088885,-0.1671085,-0.0732319999999999,-0.0017754999999999,0.0016164999999999,0.0732319999999999,0.0017755,-0.0016164999999999,-0.1006489999999999,-0.3330114999999999,0.0120744999999999,0.100024,-0.3406315,0.0467355,-0.109486,-0.6437315,0.0467355,0.102394,-0.6676815,0.0684295,0
32,-0.0192405,0.7629775000000001,0.0574665,-0.1856924999999999,0.4809874999999999,0.0020384999999999,-0.2266425,0.2285275,-0.0226295,0.1584975,0.4767274999999999,0.0143484999999999,0.2001275,0.2412375,0.0124844999999999,-0.2002225,0.0292365,-0.1039705,0.1061775,0.4090875,-0.1682305,-0.0732315,-0.0018084999999999,0.0016344999999999,0.0732315,0.0018085,-0.0016345,-0.1007194999999999,-0.3330225,0.0121474999999999,0.0999575,-0.3407025,0.0467615,-0.1095724999999999,-0.6437725,0.0468254999999999,0.1022474999999999,-0.6676624999999999,0.0685065,0
33,-0.0193214999999999,0.762816,0.057823,-0.1857935,0.480926,0.0021989999999999,-0.2272635,0.230316,-0.022634,0.1584964999999999,0.476976,0.014582,0.2005865,0.241636,0.01166,-0.2001235,0.029982,-0.1067979999999999,0.1061765,0.409566,-0.169358,-0.0732345,-0.001845,0.001654,0.0732345,0.001845,-0.001654,-0.1008054999999999,-0.333034,0.0122059999999999,0.0998665,-0.340704,0.046779,-0.1096635,-0.643854,0.0469119999999999,0.1021065,-0.667674,0.068545,0
34,-0.0194265,0.7626670000000001,0.058211,-0.1859135,0.480887,0.0023749999999999,-0.2280835,0.2326369999999999,-0.022654,0.1585065,0.477137,0.0148089999999999,0.2010065,0.241987,0.0110579999999999,-0.2000135,0.0373379999999999,-0.1122519999999999,0.1063165,0.4094669999999999,-0.170372,-0.0732365,-0.001889,0.0016709999999999,0.0732365,0.001889,-0.001671,-0.1009055,-0.333043,0.0122639999999999,0.0997665,-0.340683,0.0467779999999999,-0.1097735,-0.643903,0.0469819999999999,0.1019465,-0.667693,0.0685699999999999,0
35,-0.019491,0.762514,0.0586435,-0.185965,0.480904,0.0025625,-0.229125,0.235964,-0.0228454999999999,0.158575,0.477174,0.0150075,0.201695,0.242644,0.0100085,-0.199895,0.045446,-0.1182174999999999,0.1065049999999999,0.4093639999999999,-0.1714175,-0.073246,-0.001933,0.0016805,0.073246,0.001933,-0.0016804999999999,-0.100967,-0.333076,0.0122935,0.0997049999999999,-0.340636,0.0467335,-0.1098349999999999,-0.643956,0.0470165,0.1018449999999999,-0.667716,0.0685615,0
36,-0.019524,0.7623495,0.0590925,-0.185925,0.4809495,0.0027595,-0.230735,0.2403894999999999,-0.0233724999999999,0.158775,0.4771995,0.0152315,0.202495,0.2433195,0.0091275,-0.199765,0.0557995,-0.1268975,0.106635,0.4096595,-0.1724175,-0.073246,-0.0019785,0.0016805,0.073246,0.0019785,-0.0016804999999999,-0.100967,-0.3331105,0.0122935,0.099725,-0.3406005,0.0466595,-0.1098349999999999,-0.6440205,0.0470185,0.1018149999999999,-0.6677305,0.0685185,0
37,-0.019563,0.7621950000000001,0.0596175,-0.1858749999999999,0.481065,0.0029895,-0.232795,0.2460449999999999,-0.0242705,0.159055,0.477345,0.0154795,0.203255,0.244065,0.0076995,-0.200475,0.069539,-0.1366375,0.108165,0.409835,-0.1734575,-0.073246,-0.002015,0.0016805,0.073246,0.002015,-0.0016804999999999,-0.100964,-0.3331349999999999,0.0122935,0.099745,-0.340485,0.0465775,-0.109825,-0.644075,0.0470325,0.101765,-0.667715,0.0684825,0
38,-0.0196084999999999,0.762051,0.060306,-0.1857985,0.481261,0.00329,-0.2349885,0.252851,-0.025659,0.1590515,0.4772409999999999,0.015474,0.2046515,0.245851,0.004399,-0.2021385,0.086434,-0.1476869999999999,0.1109914999999999,0.410111,-0.1770769999999999,-0.0732485,-0.002023,0.001681,0.0732485,0.002023,-0.0016809999999999,-0.1009575,-0.333169,0.012294,0.0997615,-0.340379,0.046548,-0.1098085,-0.6441589999999999,0.047046,0.1017214999999999,-0.667709,0.068481,0
39,-0.0196194999999999,0.761817,0.060993,-0.1856505,0.481447,0.003514,-0.2376904999999999,0.259847,-0.0277229999999999,0.1590695,0.477187,0.015736,0.2065795,0.248087,0.000299,-0.2049305,0.107587,-0.160449,0.1141795,0.412857,-0.1813489999999999,-0.0732815,-0.001988,0.001706,0.0732815,0.001988,-0.0017059999999999,-0.1009255,-0.333273,0.01226,0.0998195,-0.340313,0.046507,-0.1097505,-0.644343,0.047017,0.1017195,-0.667783,0.068453,0
40,-0.0195734999999999,0.7614175000000001,0.0618144999999999,-0.1853544999999999,0.4815175,0.0037854999999999,-0.2412245,0.2673775,-0.0317235,0.1591955,0.4769975,0.0159064999999999,0.2091255,0.2510775,-0.0048375,-0.2079944999999999,0.1323275,-0.1756695,0.1178655,0.4171775,-0.1864195,-0.0733245,-0.0019605,0.0016315,0.0733245,0.0019605,-0.0016315,-0.1008065,-0.3335325,0.0122774999999999,0.0999455,-0.3403725,0.0463805,-0.1095845,-0.6446925,0.0469835,0.1018455,-0.6679925,0.0684195,0
41,-0.0194925,0.7608885000000001,0.06275,-0.1849545,0.4815885,0.004101,-0.2455045,0.2746885,-0.0365849999999999,0.1576354999999999,0.4766685,0.015884,0.2123654999999999,0.2566885,-0.0127199999999999,-0.2116145,0.1603784999999999,-0.192774,0.1222655,0.4247185,-0.191594,-0.0734345,-0.0019195,0.001474,0.0734345,0.0019195,-0.0014739999999999,-0.1006895,-0.3339415,0.012275,0.1001455,-0.3405415,0.046182,-0.1093445,-0.6452215,0.046872,0.1020455,-0.6683614999999999,0.068324,0
42,-0.019399,0.7601530000000001,0.0636375,-0.184234,0.481643,0.0043474999999999,-0.251054,0.281883,-0.0442455,0.1552859999999999,0.4760729999999999,0.0156425,0.216246,0.262923,-0.0219205,-0.216884,0.191913,-0.2131974999999999,0.1276459999999999,0.434083,-0.1970775,-0.073539,-0.001915,0.0011745,0.073539,0.001915,-0.0011745,-0.100556,-0.334477,0.0121614999999999,0.1003759999999999,-0.340647,0.0458705,-0.109074,-0.645987,0.0466085,0.102276,-0.6689269999999999,0.0681085,0
43,-0.0193285,0.7592085000000001,0.064498,-0.1830605,0.4815985,0.0045179999999999,-0.2574404999999999,0.2892685,-0.052813,0.1531394999999999,0.4753484999999999,0.0155429999999999,0.2212095,0.2718985,-0.032138,-0.2216305,0.2216485,-0.231106,0.1353495,0.4432284999999999,-0.202366,-0.0736415,-0.0018775,0.0007649999999999,0.0736415,0.0018775,-0.000765,-0.1004275,-0.3350515,0.0119799999999999,0.1006195,-0.3405515,0.045451,-0.1087605,-0.6469714999999999,0.0462729999999999,0.1025095,-0.6696415,0.0677799999999999,0
44,-0.0192645,0.758236,0.0654615,-0.1818695,0.481616,0.0046454999999999,-0.2638695,0.298186,-0.0644335,0.1510705,0.474566,0.0154954999999999,0.2266305,0.2815459999999999,-0.0435395,-0.2271895,0.256146,-0.2491135,0.1439305,0.454376,-0.2078335,-0.0737355,-0.0018339999999999,0.0002904999999999,0.0737355,0.001834,-0.0002904999999999,-0.1002885,-0.335694,0.0117724999999999,0.1008004999999999,-0.340244,0.0450015,-0.1084195,-0.6480239999999999,0.0459134999999999,0.1027704999999999,-0.6702239999999999,0.0674155,0
45,-0.019192,0.7572800000000001,0.066494,-0.180709,0.48173,0.0047049999999999,-0.269739,0.30706,-0.076027,0.149241,0.47386,0.0156599999999999,0.2328509999999999,0.2935999999999999,-0.05675,-0.234219,0.2925,-0.2644269999999999,0.153891,0.469,-0.213497,-0.073812,-0.001774,-0.00026,0.073812,0.001774,0.0002599999999999,-0.100122,-0.33638,0.0115219999999999,0.101011,-0.34003,0.0445629999999999,-0.108039,-0.6490699999999999,0.0454879999999999,0.103071,-0.67086,0.067006,0
46,-0.0190909999999999,0.756368,0.067686,-0.17976,0.4818179999999999,0.0046599999999999,-0.2760599999999999,0.316348,-0.087799,0.14746,0.473248,0.0160389999999999,0.24003,0.307318,-0.070079,-0.24132,0.331648,-0.2773989999999999,0.16385,0.485108,-0.218719,-0.0738699999999999,-0.001703,-0.00089,0.0738699999999999,0.0017029999999999,0.0008899999999999,-0.099911,-0.337102,0.0112769999999999,0.10124,-0.339952,0.044083,-0.1076099999999999,-0.650142,0.045014,0.10341,-0.6714819999999999,0.06656,0
47,-0.019049,0.755518,0.0688085,-0.179054,0.4818679999999999,0.0045264999999999,-0.282234,0.3304979999999999,-0.1014605,0.145666,0.472758,0.0165225,0.247666,0.322778,-0.0822905,-0.248184,0.373398,-0.2881205,0.173996,0.504518,-0.2201604999999999,-0.0739229999999999,-0.00165,-0.0015155,0.0739229999999999,0.00165,0.0015154999999999,-0.099746,-0.337912,0.0110794999999999,0.101436,-0.340002,0.0436315,-0.107204,-0.651142,0.0445515,0.103716,-0.672122,0.0661435,0
48,-0.019145,0.7548255,0.0701565,-0.17867,0.4819255,0.0042734999999999,-0.28835,0.3460955,-0.1152145,0.1438499999999999,0.4724255,0.0171555,0.25585,0.3397555,-0.0935545,-0.2550199999999999,0.4146455,-0.2958745,0.18472,0.5235055,-0.2200145,-0.073931,-0.0016345,-0.0021315,0.073931,0.0016344999999999,0.0021315,-0.099669,-0.3386345,0.0108895,0.10152,-0.3401544999999999,0.0432155,-0.1068699999999999,-0.6520645,0.0440855,0.10389,-0.6726745,0.0657645,0
49,-0.0193325,0.754336,0.0715335,-0.1785055,0.482276,0.0038965,-0.2947655,0.361716,-0.1274814999999999,0.1421345,0.472366,0.0178475,0.2645444999999999,0.357906,-0.1024415,-0.2629055,0.457126,-0.3000015,0.1958545,0.544096,-0.2178215,-0.0739025,-0.001611,-0.0027424999999999,0.0739025,0.0016109999999999,0.0027425,-0.0996345,-0.3392139999999999,0.0106755,0.1015645,-0.3402239999999999,0.0428355,-0.1065755,-0.652764,0.0436325,0.1040445,-0.673124,0.0654435,0
50,-0.019592,0.7539975,0.0728415,-0.178387,0.4827875,0.0035184999999999,-0.301057,0.3799174999999999,-0.1393025,0.142153,0.4724575,0.0188064999999999,0.273613,0.3761675,-0.1078225,-0.271027,0.4994975,-0.3010025,0.208833,0.5630175000000001,-0.2172425,-0.073826,-0.0015815,-0.0033255,0.073826,0.0015814999999999,0.0033254999999999,-0.099628,-0.3396725,0.0105034999999999,0.101533,-0.3402925,0.0425974999999999,-0.1063369999999999,-0.6533025,0.0432585,0.104153,-0.6734224999999999,0.0651605,0
51,-0.0198845,0.7538165,0.0741955,-0.1782815,0.4835165,0.0033364999999999,-0.3064115,0.4009665,-0.1490044999999999,0.1421485,0.4727365,0.0201235,0.2826085,0.3953065,-0.1114044999999999,-0.2785815,0.5429065,-0.3017545,0.2218185,0.5822765,-0.2164544999999999,-0.0737605,-0.0014904999999999,-0.0038375,0.0737605,0.0014905,0.0038375,-0.0996165,-0.3400134999999999,0.0105135,0.1014485,-0.3405335,0.0426175,-0.1061115,-0.6537335,0.0430745,0.1042384999999999,-0.6735635,0.0651125,0
52,-0.020231,0.753752,0.075521,-0.178202,0.484392,0.0032109999999999,-0.310692,0.4275219999999999,-0.156139,0.142128,0.473222,0.0214359999999999,0.291068,0.4119319999999999,-0.111869,-0.286532,0.5859719999999999,-0.302479,0.233728,0.602232,-0.2155289999999999,-0.073692,-0.0013839999999999,-0.00422,0.073692,0.0013839999999999,0.0042199999999999,-0.099618,-0.340248,0.0105549999999999,0.1013979999999999,-0.340768,0.042696,-0.1059219999999999,-0.654068,0.0429419999999999,0.104298,-0.673668,0.065113,0
53,-0.0206574999999999,0.753492,0.0766955,-0.1783274999999999,0.485332,0.0030494999999999,-0.3145874999999999,0.451922,-0.1598125,0.1426025,0.474042,0.0231465,0.2992025,0.432272,-0.1113525,-0.2942774999999999,0.6252920000000001,-0.3024325,0.2461125,0.6225120000000001,-0.2112125,-0.0736155,-0.00127,-0.0046134999999999,0.0736155,0.00127,0.0046134999999999,-0.0996575,-0.340678,0.0106265,0.1013525,-0.341198,0.0427525,-0.1057675,-0.654578,0.0428225,0.1043325,-0.674098,0.0651135,0
54,-0.0211449999999999,0.7530785000000001,0.0778155,-0.178714,0.4863085,0.0029025,-0.318274,0.4767285,-0.1622735,0.144046,0.4751685,0.0249455,0.305956,0.4510185,-0.1108635,-0.301294,0.6627585,-0.2978635,0.258216,0.6445585,-0.2061935,-0.0735,-0.0011605,-0.0049864999999999,0.0735,0.0011605,0.0049865,-0.099712,-0.3414015,0.0107765,0.101276,-0.3418215,0.0428615,-0.105644,-0.6552914999999999,0.0427615,0.104356,-0.6747215,0.0651925,0
55,-0.0216039999999999,0.752396,0.078767,-0.179286,0.487396,0.0029599999999999,-0.320696,0.503776,-0.1624489999999999,0.1454639999999999,0.476286,0.0267209999999999,0.311434,0.467796,-0.1103089999999999,-0.307956,0.696176,-0.291479,0.269714,0.664696,-0.201469,-0.073361,-0.001052,-0.005238,0.073361,0.0010519999999999,0.0052379999999999,-0.099727,-0.342724,0.0110829999999999,0.101214,-0.343104,0.043174,-0.105466,-0.656244,0.0428399999999999,0.104394,-0.675614,0.065429,0
56,-0.0219895,0.7514235,0.079622,-0.1797685,0.4885635,0.0030919999999999,-0.3225984999999999,0.5250835,-0.162366,0.1469715,0.4777035,0.028661,0.3153915,0.4823235,-0.1075059999999999,-0.3142685,0.7247235000000001,-0.284306,0.2801815,0.6818735,-0.194556,-0.0732134999999999,-0.0009365,-0.005507,0.0732134999999999,0.0009364999999999,0.0055069999999999,-0.0996845,-0.3443265,0.011437,0.1011815,-0.3449265,0.043556,-0.1052385,-0.6574865,0.0429919999999999,0.1044615,-0.6768464999999999,0.065732,0
57,-0.0223095,0.750122,0.080196,-0.1801255,0.490002,0.003383,-0.3237755,0.546262,-0.162135,0.1483745,0.479292,0.03072,0.3178545,0.500202,-0.101945,-0.3198855,0.751232,-0.2760649999999999,0.2899845,0.699822,-0.185065,-0.0730495,-0.0007799999999999,-0.0058129999999999,0.0730495,0.0007799999999999,0.005813,-0.0996255,-0.346168,0.011863,0.1011745,-0.346968,0.043955,-0.1050255,-0.659068,0.043205,0.1045545,-0.678408,0.066122,0
58,-0.022607,0.748141,0.0805144999999999,-0.1801839999999999,0.491421,0.0037195,-0.323564,0.568181,-0.1617785,0.149816,0.481341,0.0331845,0.318806,0.517271,-0.0945485,-0.324784,0.776761,-0.2659785,0.2987059999999999,0.716941,-0.1740885,-0.072859,-0.0006659999999999,-0.0061394999999999,0.072859,0.0006659999999999,0.0061394999999999,-0.099564,-0.348659,0.0122584999999999,0.101156,-0.349539,0.0442945,-0.104774,-0.661459,0.0434215,0.1046759999999999,-0.680729,0.0665365,0
59,-0.022886,0.7459345000000001,0.0808305,-0.180035,0.4929744999999999,0.0040684999999999,-0.323565,0.5882245,-0.1584645,0.151155,0.4834145,0.0355555,0.318395,0.5327445000000001,-0.0855545,-0.328985,0.7990345,-0.2559545,0.306635,0.7347945,-0.1623145,-0.072641,-0.0005655,-0.0064605,0.072641,0.0005655,0.0064604999999999,-0.099475,-0.3511655,0.0126024999999999,0.101145,-0.3521755,0.0446315,-0.104515,-0.6640054999999999,0.0436245,0.104815,-0.6832754999999999,0.0669425,0
60,-0.023185,0.7436125,0.081177,-0.179837,0.4944525,0.0044659999999999,-0.323687,0.6058125,-0.1536499999999999,0.152583,0.4853325,0.037821,0.317893,0.5481324999999999,-0.0756999999999999,-0.332607,0.8175724999999999,-0.2455699999999999,0.3130529999999999,0.7511125,-0.1505999999999999,-0.072412,-0.0004995,-0.006732,0.072412,0.0004994999999999,0.006732,-0.099427,-0.3538475,0.012976,0.101113,-0.3548575,0.044998,-0.104277,-0.6666675000000001,0.043855,0.104953,-0.6860075,0.067349,0
61,-0.0234815,0.7410755,0.081563,-0.1796424999999999,0.4959355,0.004921,-0.3236925,0.6177954999999999,-0.14753,0.1538074999999999,0.4875755,0.04003,0.3174075,0.5643555,-0.06601,-0.3359325,0.8312554999999999,-0.2346899999999999,0.3183275,0.7685255,-0.13743,-0.0721995,-0.0005385,-0.0069089999999999,0.0721995,0.0005385,0.006909,-0.0993825,-0.3568044999999999,0.013404,0.1010664999999999,-0.3578145,0.045401,-0.1040525,-0.6696145,0.044141,0.1050975,-0.6890145000000001,0.067805,0
62,-0.023777,0.738475,0.081803,-0.179521,0.497275,0.005405,-0.322131,0.630075,-0.14014,0.154679,0.489565,0.041852,0.316889,0.576875,-0.0561679999999999,-0.338711,0.843495,-0.22354,0.322109,0.784515,-0.12492,-0.072023,-0.000609,-0.0070159999999999,0.072023,0.0006089999999999,0.007016,-0.099381,-0.3597349999999999,0.013802,0.1010139999999999,-0.360865,0.045751,-0.103861,-0.6726449999999999,0.044456,0.105219,-0.692135,0.068293,0
63,-0.0240639999999999,0.7356875,0.0819405,-0.17926,0.4984075,0.0060945,-0.32072,0.6413075,-0.1312105,0.15521,0.4916175,0.0436775,0.31548,0.5892175000000001,-0.0458725,-0.3409999999999999,0.8536875,-0.2123805,0.3248,0.7954875,-0.1114105,-0.071852,-0.0007194999999999,-0.0070565,0.071852,0.0007195,0.0070565,-0.09941,-0.3627424999999999,0.0142165,0.100923,-0.3639825,0.0460535,-0.1036899999999999,-0.6758625,0.0448255,0.10533,-0.6954224999999999,0.0687985,0
64,-0.0243409999999999,0.732934,0.081961,-0.178881,0.499494,0.0069089999999999,-0.3194309999999999,0.6496339999999999,-0.1233479999999999,0.155529,0.493694,0.0453849999999999,0.313149,0.602494,-0.037046,-0.343111,0.8643139999999999,-0.199318,0.326979,0.8069339999999999,-0.097658,-0.071676,-0.0008569999999999,-0.007035,0.071676,0.000857,0.007035,-0.099471,-0.3656459999999999,0.0146189999999999,0.100808,-0.366956,0.046353,-0.103541,-0.6790860000000001,0.045221,0.105429,-0.698666,0.069323,0
65,-0.0246364999999999,0.7303005,0.0818305,-0.1784514999999999,0.5007305000000001,0.0079044999999999,-0.3177815,0.6581905,-0.1151595,0.1560085,0.4954304999999999,0.0470044999999999,0.3101885,0.6160405000000001,-0.0292875,-0.3451214999999999,0.8762905000000001,-0.1867495,0.3285185,0.8180105000000001,-0.0848895,-0.0714995,-0.0010164999999999,-0.0068785,0.0714995,0.0010165,0.0068784999999999,-0.0995315,-0.3684595,0.0150644999999999,0.1006595,-0.3696695,0.0466985,-0.1034114999999999,-0.6822895,0.0457224999999999,0.1054985,-0.7018694999999999,0.0699024999999999,0
66,-0.0249144999999999,0.7278085,0.0814415,-0.1780475,0.5017485,0.0088765,-0.3160675,0.6655085,-0.1075185,0.1562125,0.4969884999999999,0.0483785,0.3076525,0.6248685,-0.0221044999999999,-0.3472475,0.8877185,-0.1737085,0.3296225,0.8267385,-0.0730485,-0.0713615,-0.0012115,-0.0066354999999999,0.0713615,0.0012114999999999,0.0066355,-0.0995575,-0.3709715,0.0154415,0.1004905,-0.3721815,0.0470035,-0.1032875,-0.6853815,0.0462485,0.1055725,-0.7049715,0.0704735,0
67,-0.0251514999999999,0.7258135,0.0809215,-0.1778935,0.5027835,0.0097075,-0.3144935,0.6716835,-0.1011005,0.1564964999999999,0.4982835,0.0493155,0.3051765,0.6332035,-0.0157155,-0.3488735,0.8936935,-0.1629405,0.3302065,0.8330535,-0.0624205,-0.0712764999999999,-0.0013555,-0.0064164999999999,0.0712764999999999,0.0013554999999999,0.0064164999999999,-0.0995035,-0.3727465,0.0156825,0.1003125,-0.3740065,0.0472785,-0.1032134999999999,-0.6878865,0.0467105,0.1056165,-0.7075265,0.0709585,0
68,-0.0254085,0.7238145,0.0804415,-0.1778035,0.5035045,0.0106075,-0.3130335,0.6771245,-0.0948804999999999,0.1567965,0.4999945,0.0504285,0.3027864999999999,0.6408745,-0.0096494999999999,-0.3505635,0.8988845,-0.1523505,0.3304964999999999,0.8376945,-0.0525635,-0.0712285,-0.0015215,-0.0061765,0.0712285,0.0015214999999999,0.0061765,-0.0994635,-0.3742955,0.0158605,0.1000984999999999,-0.3758155,0.0475865,-0.1031835,-0.6904055,0.0472105,0.1056064999999999,-0.7100455,0.0714745,0
69,-0.0256719999999999,0.7219125,0.0798234999999999,-0.1777329999999999,0.5041525,0.0114385,-0.3116029999999999,0.6823725,-0.0890235,0.157057,0.5017625,0.0515565,0.300337,0.6475125,-0.0041874999999999,-0.352263,0.9049925,-0.1421535,0.330707,0.8419125,-0.0429994999999999,-0.071191,-0.0016745,-0.0059494999999999,0.071191,0.0016744999999999,0.0059495,-0.099423,-0.3756975,0.0160015,0.099891,-0.3774175,0.0477985,-0.103163,-0.6927775,0.0476675,0.105607,-0.7125075,0.0719575,0
70,-0.0259224999999999,0.7201415000000001,0.079205,-0.1776645,0.5047415000000001,0.0122689999999999,-0.3101545,0.6871715,-0.083791,0.1570555,0.5033115,0.0527539999999999,0.2978754999999999,0.6533215,0.000738,-0.3539245,0.9110315,-0.132631,0.3312354999999999,0.8485215,-0.033687,-0.0711675,-0.0017514999999999,-0.0057229999999999,0.0711675,0.0017515,0.0057229999999999,-0.0993844999999999,-0.3769285,0.016099,0.0996765,-0.3789185,0.047994,-0.1031545,-0.6949185,0.04809,0.1055955,-0.7147785,0.072401,0
71,-0.0261479999999999,0.7184765,0.0785695,-0.17762,0.5053265,0.0131414999999999,-0.30866,0.6915065,-0.0788794999999999,0.15704,0.5050465,0.0541575,0.29513,0.6586664999999999,0.0052854999999999,-0.35554,0.9160865,-0.1240795,0.33166,0.8546765,-0.0250985,-0.071131,-0.0018034999999999,-0.0054885,0.071131,0.0018034999999999,0.0054885,-0.09937,-0.3781135,0.0161254999999999,0.099447,-0.3802635,0.0481625,-0.10317,-0.6970435,0.0484845,0.10557,-0.7169235,0.0728215,0
72,-0.0263349999999999,0.7168844999999999,0.0779805,-0.1775989999999999,0.5059045,0.0139564999999999,-0.307119,0.6957145,-0.0744565,0.157011,0.5066245,0.0556305,0.292201,0.6638345,0.0093734999999999,-0.357449,0.9203245,-0.1155465,0.331811,0.8607345,-0.0173435,-0.0710949999999999,-0.0018304999999999,-0.0052915,0.0710949999999999,0.0018304999999999,0.0052914999999999,-0.099329,-0.3791655,0.0161454999999999,0.09924,-0.3812755,0.0481614999999999,-0.103189,-0.6990555,0.0488834999999999,0.105531,-0.7188955,0.0732334999999999,0
73,-0.0265105,0.7153105000000001,0.0774285,-0.1774925,0.5064205,0.0147655,-0.3056125,0.6993005,-0.0703435,0.1570774999999999,0.5082105,0.0573325,0.2889775,0.6685005,0.0130105,-0.3592725,0.9219505,-0.1095735,0.3317974999999999,0.8665305,-0.0105574999999999,-0.0710685,-0.0018154999999999,-0.0051445,0.0710685,0.0018155,0.0051445,-0.0992925,-0.3802295,0.0162024999999999,0.0990715,-0.3821695,0.0481435,-0.1032325,-0.7010295,0.0493365,0.1054874999999999,-0.7208195,0.0736605,0
74,-0.0266565,0.7138235,0.0768915,-0.1773535,0.5068535000000001,0.0154284999999999,-0.3041434999999999,0.7025535,-0.0665725,0.1570965,0.5097635,0.0589925,0.2854365,0.6730435,0.0163964999999999,-0.3609834999999999,0.9218635,-0.1036125,0.3313365,0.8728235,-0.0041095,-0.0710534999999999,-0.0017575,-0.0050445,0.0710534999999999,0.0017575,0.0050445,-0.0992234999999999,-0.3811765,0.0162235,0.0989065,-0.3829065,0.0480245,-0.1033135,-0.7028665,0.0497395,0.1054265,-0.7225765,0.0740645,0
75,-0.0267449999999999,0.712331,0.076472,-0.177194,0.5073110000000001,0.0160799999999999,-0.302764,0.705551,-0.063037,0.156826,0.5115010000000001,0.0607289999999999,0.281786,0.677201,0.0196529999999999,-0.362274,0.921371,-0.099237,0.330876,0.879201,0.0019109999999999,-0.0710409999999999,-0.0016849999999999,-0.004983,0.0710409999999999,0.0016849999999999,0.0049829999999999,-0.0990939999999999,-0.382029,0.0161669999999999,0.098785,-0.383639,0.0478659999999999,-0.1033939999999999,-0.704629,0.050064,0.105386,-0.7242989999999999,0.0743959999999999,0
76,-0.0268065,0.7108985,0.0761075,-0.1770215,0.5076485,0.0167274999999999,-0.3015715,0.7083385,-0.0597385,0.1565885,0.5132185,0.0627015,0.2782385,0.6807585,0.0225064999999999,-0.3630215,0.9197085,-0.0946885,0.3304585,0.8854585,0.0071754999999999,-0.0710165,-0.0016554999999999,-0.0049565,0.0710165,0.0016555,0.0049564999999999,-0.0989415,-0.3828015,0.0160744999999999,0.0986715,-0.3843015,0.0476435,-0.1034715,-0.7063615,0.0503644999999999,0.1053185,-0.7260115,0.0746894999999999,0
77,-0.0268559999999999,0.709637,0.0757265,-0.176812,0.508107,0.0173235,-0.300532,0.710937,-0.0569505,0.156378,0.514517,0.0644625,0.274798,0.6839270000000001,0.0250185,-0.363762,0.918287,-0.0893104999999999,0.330088,0.891027,0.0115805,-0.070996,-0.001618,-0.0049825,0.070996,0.001618,0.0049825,-0.0987919999999999,-0.383583,0.0159935,0.098559,-0.384723,0.0473165,-0.103552,-0.707903,0.0505595,0.105268,-0.727563,0.0749114999999999,0
78,-0.0268629999999999,0.7083665,0.0754355,-0.176623,0.5085265,0.0179025,-0.299623,0.7130164999999999,-0.0544464999999999,0.156217,0.5158465,0.0661745,0.271437,0.6867765,0.0272805,-0.364143,0.9155465,-0.0845944999999999,0.329247,0.8963565,0.0155684999999999,-0.070967,-0.0015985,-0.0050344999999999,0.070967,0.0015985,0.0050344999999999,-0.0986529999999999,-0.3843434999999999,0.0158755,0.0984319999999999,-0.3851835,0.0470085,-0.1036229999999999,-0.7093935,0.0507235,0.105227,-0.7290835,0.0750885,0
79,-0.0268665,0.7072195,0.0751755,-0.1763954999999999,0.5089695,0.0184434999999999,-0.2988955,0.7148494999999999,-0.0521895,0.1560845,0.5169794999999999,0.0676625,0.2682044999999999,0.6895994999999999,0.0292535,-0.3644855,0.9126195,-0.0803995,0.3282345,0.8977495,0.0180035,-0.0709325,-0.0015745,-0.0051225,0.0709325,0.0015744999999999,0.0051225,-0.0985655,-0.3849905,0.0157595,0.0983105,-0.3855005,0.0467005,-0.1036855,-0.7107305,0.0508465,0.1051844999999999,-0.7304505,0.0751915,0
80,-0.026864,0.7061995,0.074957,-0.176206,0.5094295,0.01899,-0.298356,0.7164395,-0.0502199999999999,0.155674,0.5178095,0.068895,0.265254,0.6920695,0.030941,-0.364796,0.9098495,-0.076398,0.326914,0.8989695,0.020165,-0.070894,-0.0015555,-0.005212,0.070894,0.0015555,0.005212,-0.098496,-0.3855505,0.015719,0.0982109999999999,-0.3856805,0.046362,-0.103746,-0.7119405,0.050917,0.105144,-0.7316805,0.075282,0
81,-0.0268465,0.7054015,0.074754,-0.1760165,0.5099215,0.019452,-0.2979064999999999,0.7176715,-0.0485589999999999,0.1554835,0.5183515000000001,0.069801,0.2627035,0.6941115,0.03227,-0.3648464999999999,0.9078215,-0.07356,0.3254935,0.8997715000000001,0.021863,-0.0708825,-0.0015365,-0.0052199999999999,0.0708825,0.0015364999999999,0.00522,-0.0985065,-0.3860085,0.01567,0.0981295,-0.3858985,0.046111,-0.1038065,-0.7129685,0.050917,0.1051235,-0.7327184999999999,0.075289,0
82,-0.0267955,0.704792,0.07467,-0.1759325,0.5104019999999999,0.019891,-0.2975425,0.718532,-0.0471319999999999,0.1551675,0.518732,0.07051,0.2606274999999999,0.695742,0.033441,-0.3647425,0.907312,-0.07105,0.3232575,0.900412,0.023234,-0.0708785,-0.001541,-0.0052199999999999,0.0708785,0.001541,0.00522,-0.0984925,-0.386248,0.015619,0.0980524999999999,-0.386088,0.045882,-0.1038525,-0.7137680000000001,0.050905,0.1051074999999999,-0.7335480000000001,0.075288,0
83,-0.026735,0.7042189999999999,0.0746675,-0.175902,0.510709,0.0203454999999999,-0.297242,0.718969,-0.0457935,0.154748,0.519139,0.0712945,0.259118,0.696669,0.0343214999999999,-0.365342,0.907769,-0.0687775,0.3209079999999999,0.900529,0.0241614999999999,-0.070878,-0.0015909999999999,-0.0052275,0.070878,0.001591,0.0052274999999999,-0.098492,-0.3864109999999999,0.0155774999999999,0.097968,-0.386281,0.0457234999999999,-0.103882,-0.714541,0.0508574999999999,0.1050879999999999,-0.734311,0.0752694999999999,0
84,-0.0266495,0.703696,0.0745955,-0.1758815,0.510946,0.0208405,-0.2968915,0.719016,-0.0445674999999999,0.1543685,0.519226,0.0719205,0.2579485,0.6972659999999999,0.0348975,-0.3656315,0.907506,-0.0667234999999999,0.3186885,0.899996,0.0244705,-0.0708575,-0.00165,-0.0053034999999999,0.0708575,0.0016499999999999,0.0053035,-0.0984915,-0.386664,0.0154995,0.0978955,-0.386364,0.0455015,-0.1039415,-0.715414,0.0507185,0.1050985,-0.7350340000000001,0.0751725,0
85,-0.0265264999999999,0.7033180000000001,0.074448,-0.1758655,0.511158,0.021266,-0.2965055,0.718728,-0.043655,0.1540045,0.5191380000000001,0.07232,0.2569545,0.6977279999999999,0.03523,-0.3656655,0.909748,-0.065187,0.3165745,0.8994280000000001,0.024504,-0.0708335,-0.0016769999999999,-0.00537,0.0708335,0.001677,0.00537,-0.0984755,-0.386872,0.015343,0.0978655,-0.386412,0.04523,-0.1039555,-0.716202,0.050509,0.1051345,-0.735622,0.075001,0
86,-0.0264139999999999,0.7030109999999999,0.074306,-0.175844,0.511271,0.021623,-0.296124,0.718371,-0.042881,0.153616,0.519041,0.072604,0.256106,0.698081,0.035429,-0.365554,0.912581,-0.065028,0.314836,0.898931,0.024352,-0.070813,-0.001695,-0.0054219999999999,0.070813,0.001695,0.005422,-0.0984839999999999,-0.387069,0.015148,0.097851,-0.386479,0.044947,-0.103974,-0.717019,0.050269,0.105196,-0.736169,0.074801,0
87,-0.0263,0.7027505000000001,0.074184,-0.175829,0.5113005,0.0219479999999999,-0.295719,0.7179505,-0.042303,0.153271,0.5189705,0.072854,0.255431,0.6982805000000001,0.0354709999999999,-0.365349,0.9158805,-0.064871,0.313531,0.8984905000000001,0.0240449999999999,-0.070796,-0.0016945,-0.005464,0.070796,0.0016945,0.0054639999999999,-0.098509,-0.3872995,0.0149729999999999,0.097867,-0.3865495,0.044653,-0.103969,-0.7177895,0.0500109999999999,0.105251,-0.7366794999999999,0.074587,0
88,-0.026172,0.7025165,0.0740755,-0.1758019999999999,0.5113165,0.0223135,-0.295312,0.7175365,-0.0418385,0.152988,0.5188765,0.0731355,0.2549579999999999,0.6982365,0.0353755,-0.365112,0.9191165,-0.0647155,0.312548,0.8979765,0.0237495,-0.070782,-0.0017075,-0.0054974999999999,0.070782,0.0017075,0.0054975,-0.0985119999999999,-0.3875435,0.0148025,0.097925,-0.3866135,0.0443305,-0.1039519999999999,-0.7185635,0.0497155,0.105298,-0.7371935,0.0743495,0
89,-0.0260405,0.7023225,0.074026,-0.1757045,0.5112925,0.022595,-0.2948944999999999,0.7171425,-0.041595,0.1529455,0.5187825,0.073413,0.2546355,0.6979825,0.035125,-0.3647844999999999,0.9187225,-0.064923,0.3117355,0.8975725,0.023462,-0.0707695,-0.0017135,-0.005504,0.0707695,0.0017134999999999,0.005504,-0.0985245,-0.3878775,0.014654,0.0979925,-0.3866875,0.043995,-0.1039245,-0.7193375,0.049406,0.1053655,-0.7376775,0.0740929999999999,0
90,-0.0259234999999999,0.702145,0.074042,-0.1755914999999999,0.511275,0.022865,-0.2944914999999999,0.716785,-0.041447,0.1529285,0.518675,0.073672,0.2544085,0.6976249999999999,0.03486,-0.3643015,0.922035,-0.0649619999999999,0.3111185,0.897085,0.022983,-0.0707615,-0.001709,-0.0054979999999999,0.0707615,0.001709,0.005498,-0.0985615,-0.388145,0.014512,0.0980795,-0.386765,0.043647,-0.1038814999999999,-0.720085,0.04907,0.1054285,-0.738115,0.073816,0
91,-0.0257795,0.7019675,0.0740649999999999,-0.1754405,0.5112475,0.0231349999999999,-0.2940405,0.7163675,-0.041361,0.1529795,0.5185075,0.07391,0.2542795,0.6972475,0.034582,-0.3641405,0.9267175,-0.064859,0.3106595,0.8964475,0.0221949999999999,-0.0707555,-0.0017004999999999,-0.005485,0.0707555,0.0017005,0.0054849999999999,-0.0985705,-0.3884625,0.0143799999999999,0.0982015,-0.3868425,0.0433,-0.1038105,-0.7208625,0.048719,0.1055494999999999,-0.7385825,0.0735359999999999,0
92,-0.0256445,0.701836,0.0741035,-0.1752965,0.511286,0.0234375,-0.2935965,0.715956,-0.0413484999999999,0.1530535,0.518336,0.0740494999999999,0.2541735,0.696916,0.0342485,-0.3638465,0.931516,-0.0647265,0.3103035,0.895786,0.0212925,-0.0707525,-0.0016709999999999,-0.0054825,0.0707525,0.001671,0.0054825,-0.0986165,-0.388724,0.0142645,0.0983295,-0.386934,0.0429665,-0.1037365,-0.721634,0.0483725,0.1056535,-0.738994,0.0732655,0
93,-0.025543,0.7018195,0.074223,-0.175162,0.5112995,0.023649,-0.2932019999999999,0.7156494999999999,-0.041353,0.153138,0.5182895,0.0740899999999999,0.254068,0.6967194999999999,0.033832,-0.363762,0.9368895,-0.064494,0.310038,0.8952495,0.0202639999999999,-0.0707599999999999,-0.0016494999999999,-0.005472,0.0707599999999999,0.0016494999999999,0.0054719999999999,-0.098592,-0.3888605,0.0141869999999999,0.09844,-0.3870105,0.042719,-0.103642,-0.7221505,0.048137,0.105738,-0.7393005,0.073075,0
94,-0.0254585,0.7017765,0.07428,-0.1750725,0.5113065,0.023821,-0.2927525,0.7153465,-0.0413729999999999,0.1532474999999999,0.5182565,0.074075,0.2539675,0.6964965,0.033337,-0.3636925,0.9427765,-0.0643509999999999,0.3097575,0.8947265,0.019076,-0.0707714999999999,-0.0016334999999999,-0.0054519999999999,0.0707714999999999,0.0016334999999999,0.005452,-0.0985824999999999,-0.3889935,0.014132,0.0985405,-0.3870734999999999,0.042468,-0.1035725,-0.7226035000000001,0.047896,0.1058175,-0.7395835000000001,0.072872,0
95,-0.0253934999999999,0.7017245,0.0743035,-0.1749835,0.5113245,0.0239454999999999,-0.2922735,0.7150845,-0.0414195,0.1533065,0.5182145,0.0740315,0.2538665,0.6962444999999999,0.0327364999999999,-0.3636135,0.9445645,-0.0644885,0.3094365,0.8942045,0.0177614999999999,-0.0707835,-0.0016004999999999,-0.0054025,0.0707835,0.0016005,0.0054024999999999,-0.0985635,-0.3891255,0.0140734999999999,0.0986235,-0.3871455,0.0422165,-0.1035035,-0.7229655,0.0476184999999999,0.1058765,-0.7398655000000001,0.0726565,0
96,-0.025339,0.7016805,0.0743395,-0.174877,0.5113505,0.0240405,-0.291767,0.7148305,-0.0414545,0.153363,0.5181505,0.0739625,0.253763,0.6960105,0.0320855,-0.3635069999999999,0.9462605,-0.0646665,0.309093,0.8935705,0.0163515,-0.070797,-0.0015765,-0.0053495,0.070797,0.0015764999999999,0.0053495,-0.098537,-0.3892695,0.0140185,0.098693,-0.3872095,0.0419955,-0.103447,-0.7233295,0.0473305,0.105933,-0.7400895,0.0724375,0
97,-0.0253074999999999,0.7016389999999999,0.0743555,-0.1747705,0.5113890000000001,0.0240615,-0.2912205,0.714629,-0.0415305,0.1534095,0.518089,0.0738455,0.2536495,0.695829,0.0314105,-0.3633205,0.947879,-0.0648435,0.3087095,0.892909,0.0148655,-0.0708135,-0.0015509999999999,-0.0052935,0.0708135,0.0015509999999999,0.0052935,-0.0985305,-0.389371,0.0139775,0.0987415,-0.387271,0.0418065,-0.1034004999999999,-0.723641,0.0470615,0.1059795,-0.7402709999999999,0.0722315,0
98,-0.025276,0.701599,0.0743205,-0.17466,0.511429,0.0240565,-0.29063,0.714429,-0.0416255,0.1535099999999999,0.518069,0.0736705,0.25354,0.695669,0.0306905,-0.3623699999999999,0.949419,-0.0650284999999999,0.30829,0.892179,0.0133745,-0.070834,-0.0015469999999999,-0.0052325,0.070834,0.001547,0.0052325,-0.09852,-0.389401,0.0139085,0.0987869999999999,-0.387301,0.0416115,-0.10336,-0.723941,0.0467935,0.10602,-0.740431,0.0720185,0
99,-0.0252484999999999,0.701586,0.074241,-0.1745305,0.511486,0.024053,-0.2900104999999999,0.714286,-0.041754,0.1535995,0.518096,0.073491,0.2534195,0.695526,0.029966,-0.3613904999999999,0.950376,-0.065273,0.3078195,0.891406,0.011846,-0.0708545,-0.001546,-0.0051699999999999,0.0708545,0.001546,0.00517,-0.0985105,-0.389424,0.013833,0.0988425,-0.387324,0.041429,-0.1033205,-0.724214,0.046537,0.1060495,-0.740574,0.071819,0
100,-0.02524,0.7015815,0.0741455,-0.174367,0.5115415,0.0240335,-0.289407,0.7141715,-0.0418875,0.153663,0.5181415,0.0733155,0.253293,0.6954115,0.0292385,-0.360437,0.9511615,-0.0655314999999999,0.307343,0.8906815,0.0104424999999999,-0.070861,-0.0015354999999999,-0.0050925,0.070861,0.0015355,0.0050925,-0.098507,-0.3893885,0.0137445,0.0988959999999999,-0.3873485,0.0412535,-0.103297,-0.7244585,0.0462785,0.1060929999999999,-0.7406785,0.0716205,0
101,-0.0252279999999999,0.701576,0.0740375,-0.174244,0.511576,0.0239645,-0.288774,0.714066,-0.0420194999999999,0.153716,0.518216,0.0731415,0.253216,0.695326,0.0285525,-0.359504,0.951756,-0.0658195,0.306906,0.889986,0.0090755,-0.070866,-0.001529,-0.0050214999999999,0.070866,0.001529,0.0050214999999999,-0.098494,-0.389324,0.0136435,0.09897,-0.387364,0.0411095,-0.1032739999999999,-0.724694,0.0460025,0.106136,-0.740764,0.0714225,0
102,-0.025211,0.7015425,0.0738824999999999,-0.174181,0.5116525000000001,0.0239084999999999,-0.288141,0.7139424999999999,-0.0421655,0.153759,0.5182825,0.0729404999999999,0.253179,0.6952324999999999,0.0279634999999999,-0.358611,0.9522325,-0.0663615,0.306499,0.8893125,0.0078944999999999,-0.0708739999999999,-0.0015305,-0.0049375,0.0708739999999999,0.0015305,0.0049374999999999,-0.098491,-0.3893375,0.0135274999999999,0.099055,-0.3873775,0.0409714999999999,-0.103241,-0.7249675,0.0457005,0.106179,-0.7408675,0.0712095,0
103,-0.0252239999999999,0.701515,0.0736965,-0.174142,0.511745,0.0238054999999999,-0.287642,0.713875,-0.0423465,0.153768,0.518335,0.0726955,0.253138,0.695145,0.0273525,-0.3578719999999999,0.952505,-0.0669545,0.306118,0.888705,0.0068544999999999,-0.0708999999999999,-0.001543,-0.0048694999999999,0.0708999999999999,0.001543,0.0048694999999999,-0.0985119999999999,-0.389375,0.0133224999999999,0.099136,-0.387365,0.0408655,-0.103242,-0.725185,0.0453765,0.106198,-0.740985,0.0709755,0
104,-0.025269,0.7014755,0.07348,-0.17414,0.5118655000000001,0.023699,-0.28717,0.7138555000000001,-0.0425949999999999,0.15373,0.5183755,0.072416,0.25309,0.6950755000000001,0.026779,-0.35724,0.9528655,-0.0676119999999999,0.30574,0.8881155000000001,0.005874,-0.07092,-0.0015784999999999,-0.0048069999999999,0.07092,0.0015784999999999,0.004807,-0.09855,-0.3894245,0.013093,0.099196,-0.3873345,0.04076,-0.10328,-0.7253645,0.045065,0.10618,-0.7411145,0.070738,0
105,-0.0253154999999999,0.701453,0.073248,-0.1741605,0.511973,0.0236089999999999,-0.2866705,0.713883,-0.042933,0.1536894999999999,0.518413,0.07213,0.2530495,0.695003,0.0262029999999999,-0.3566805,0.953123,-0.068355,0.3054395,0.887703,0.005072,-0.0709385,-0.001606,-0.004754,0.0709385,0.0016059999999999,0.004754,-0.0985805,-0.389487,0.0128619999999999,0.0992685,-0.387307,0.040662,-0.1033205,-0.725557,0.04476,0.1061595,-0.741227,0.070497,0
106,-0.0253665,0.7014435,0.073023,-0.1741675,0.5120735,0.023501,-0.2862175,0.7139435,-0.0433409999999999,0.1536325,0.5183035,0.071841,0.2530025,0.6951134999999999,0.025568,-0.3561875,0.9529935,-0.069061,0.3051825,0.8873835,0.004359,-0.0709545,-0.0016255,-0.0047159999999999,0.0709545,0.0016255,0.004716,-0.0986175,-0.3894365,0.012639,0.0993505,-0.3873065,0.040578,-0.1033675,-0.7257165,0.044472,0.1061324999999999,-0.7413265,0.070263,0
107,-0.025416,0.7014714999999999,0.0728109999999999,-0.174185,0.5121715,0.023384,-0.285835,0.7140415,-0.043774,0.153565,0.5182215,0.0715639999999999,0.252965,0.6952214999999999,0.0249849999999999,-0.3557349999999999,0.9528615,-0.069705,0.304985,0.8871614999999999,0.0037069999999999,-0.070973,-0.0016415,-0.004705,0.070973,0.0016415,0.0047049999999999,-0.098675,-0.3895085,0.0124249999999999,0.099436,-0.3873085,0.0404989999999999,-0.103415,-0.7258485,0.0441919999999999,0.106095,-0.7414185,0.070052,0
108,-0.0254729999999999,0.7014724999999999,0.072605,-0.174197,0.5122725,0.023248,-0.285497,0.7141625,-0.0442179999999999,0.153503,0.5181025,0.071295,0.252923,0.6953425,0.024445,-0.355367,0.9527425,-0.070199,0.3048929999999999,0.8870425,0.003171,-0.070991,-0.0016525,-0.004705,0.070991,0.0016525,0.004705,-0.098727,-0.3896275,0.012205,0.099515,-0.3873475,0.040366,-0.1034669999999999,-0.7260275,0.043925,0.106073,-0.7415175,0.0698469999999999,0
109,-0.0255265,0.7014940000000001,0.072406,-0.1742175,0.5123840000000001,0.023121,-0.2851674999999999,0.714294,-0.0446579999999999,0.1532524999999999,0.5179940000000001,0.070736,0.2528925,0.695484,0.023938,-0.3549874999999999,0.952734,-0.070669,0.3048425,0.886934,0.002669,-0.0710125,-0.0016609999999999,-0.004711,0.0710125,0.001661,0.004711,-0.0987775,-0.3897359999999999,0.011878,0.0996114999999999,-0.3873959999999999,0.040179,-0.1035175,-0.7261759999999999,0.04367,0.1060325,-0.741626,0.069639,0
110,-0.025573,0.7015235,0.072171,-0.174231,0.5124735,0.022967,-0.284871,0.7144035,-0.0451319999999999,0.152979,0.5178735000000001,0.070154,0.252899,0.6956035,0.023468,-0.354561,0.9528135,-0.0711739999999999,0.304789,0.8868134999999999,0.002245,-0.071034,-0.0016724999999999,-0.0047219999999999,0.071034,0.0016725,0.004722,-0.098791,-0.3898665,0.011478,0.0997089999999999,-0.3874865,0.039966,-0.103551,-0.7263664999999999,0.043389,0.105999,-0.7417465000000001,0.069413,0
111,-0.02559,0.7015825,0.071917,-0.1741909999999999,0.5125425,0.0227469999999999,-0.284611,0.7145525,-0.045611,0.152659,0.5178225,0.069337,0.252979,0.6957425,0.022975,-0.354271,0.9529225,-0.071568,0.3047689999999999,0.8867525,0.0018139999999999,-0.071073,-0.0016724999999999,-0.004761,0.071073,0.0016725,0.004761,-0.098721,-0.3900274999999999,0.0109159999999999,0.0998599999999999,-0.3875775,0.039736,-0.103571,-0.7265175,0.0430399999999999,0.105959,-0.7418375,0.06915,0
112,-0.0256109999999999,0.7016995,0.0716755,-0.1741479999999999,0.5126095,0.0225345,-0.284358,0.7146795,-0.0460955,0.152422,0.5178495,0.0684835,0.253082,0.6959295,0.0225175,-0.3539879999999999,0.9530495,-0.0719674999999999,0.304752,0.8868095,0.0013444999999999,-0.07109,-0.0016535,-0.0047924999999999,0.07109,0.0016535,0.0047924999999999,-0.0985679999999999,-0.3903205,0.0101825,0.099984,-0.3876505,0.0395045,-0.1035779999999999,-0.7267305,0.0426095,0.105922,-0.7419405,0.0688615,0
113,-0.025609,0.7018504999999999,0.0713925,-0.174054,0.5126405,0.0222825,-0.284134,0.7147705,-0.0465855,0.152246,0.5178704999999999,0.0676125,0.253266,0.6961105000000001,0.0220455,-0.353734,0.9532005,-0.0723885,0.304816,0.8869305000000001,0.0008475,-0.0710939999999999,-0.0016045,-0.0048524999999999,0.0710939999999999,0.0016044999999999,0.0048525,-0.098284,-0.3907795,0.0090525,0.100137,-0.3876995,0.0390925,-0.103554,-0.7271194999999999,0.0420825,0.105906,-0.7420495,0.0684785,0
114,-0.025571,0.7019489999999999,0.0709545,-0.173867,0.512589,0.0218634999999999,-0.283927,0.7147789999999999,-0.0471935,0.152143,0.517829,0.0665825,0.253563,0.696279,0.0214194999999999,-0.353577,0.953149,-0.0729785,0.304933,0.887019,0.0002034999999999,-0.071117,-0.0015529999999999,-0.0048925,0.071117,0.0015529999999999,0.0048925,-0.097947,-0.3912609999999999,0.0072824999999999,0.100328,-0.3878209999999999,0.0382985,-0.103477,-0.7276910000000001,0.0412434999999999,0.105933,-0.742251,0.0677375,0
115,-0.0255244999999999,0.702009,0.070278,-0.1736435,0.512589,0.021243,-0.2837535,0.7147789999999999,-0.0480079999999999,0.1521165,0.517729,0.065316,0.2539365,0.696279,0.020581,-0.3535135,0.953149,-0.073791,0.3051165,0.8870089999999999,-0.0006959999999999,-0.0711625,-0.0015529999999999,-0.0049169999999999,0.0711625,0.0015529999999999,0.004917,-0.0976534999999999,-0.391791,0.004697,0.1005255,-0.388021,0.037029,-0.1033935,-0.728511,0.039955,0.1059165,-0.742421,0.0667,0
116,-0.0254569999999999,0.7020155,0.0694309999999999,-0.173341,0.5125955,0.020442,-0.283561,0.7147855,-0.04895,0.151799,0.5175755,0.063832,0.254369,0.6962855,0.0195109999999999,-0.353491,0.9531555,-0.074782,0.3053889999999999,0.8870055,-0.001774,-0.071226,-0.0015464999999999,-0.004896,0.071226,0.0015465,0.0048959999999999,-0.097422,-0.3924445,0.0009759999999999,0.100856,-0.3883845,0.0349639999999999,-0.103301,-0.7302545,0.0380179999999999,0.105989,-0.7426345,0.065389,0
117,-0.025336,0.7020550000000001,0.068344,-0.172969,0.512615,0.019362,-0.283369,0.714825,-0.050121,0.151661,0.517415,0.062096,0.2549209999999999,0.6963250000000001,0.018089,-0.353439,0.953095,-0.076087,0.3057609999999999,0.8870450000000001,-0.0031509999999999,-0.071306,-0.0015069999999999,-0.0048319999999999,0.071306,0.0015069999999999,0.004832,-0.097147,-0.393205,-0.0032479999999999,0.101295,-0.388895,0.031991,-0.103159,-0.7324949999999999,0.035552,0.1060909999999999,-0.742945,0.063657,0
118,-0.025144,0.7022635,0.0668975,-0.172513,0.5125635,0.0179054999999999,-0.283173,0.7149535,-0.0516915,0.151737,0.5173835,0.0602584999999999,0.255607,0.6964535,0.0161914999999999,-0.353193,0.9532035,-0.0777475,0.306257,0.8872135,-0.0050595,-0.071383,-0.0014254999999999,-0.0047425,0.071383,0.0014254999999999,0.0047424999999999,-0.096812,-0.3941265,-0.0080735,0.1018179999999999,-0.3893665,0.0281064999999999,-0.1029529999999999,-0.7350365,0.0324674999999999,0.106267,-0.7432165,0.0612044999999999,0
119,-0.024824,0.702649,0.064957,-0.171955,0.512849,0.0160149999999999,-0.282865,0.715179,-0.053743,0.151975,0.516829,0.0575979999999999,0.256465,0.696709,0.0135959999999999,-0.352865,0.953619,-0.07983,0.306855,0.887689,-0.007484,-0.071509,-0.001418,-0.004647,0.071509,0.0014179999999999,0.0046469999999999,-0.096407,-0.394841,-0.013673,0.102636,-0.389621,0.0229939999999999,-0.102675,-0.737381,0.0288449999999999,0.106565,-0.743131,0.0580939999999999,0
120,-0.024345,0.70307,0.06253,-0.171345,0.5136099999999999,0.013576,-0.2824449999999999,0.71546,-0.056476,0.152305,0.51637,0.054456,0.2575349999999999,0.69705,0.010301,-0.352445,0.95423,-0.082609,0.307405,0.8883399999999999,-0.01079,-0.071717,-0.001347,-0.004539,0.071717,0.001347,0.004539,-0.096112,-0.39496,-0.0199869999999999,0.103675,-0.38954,0.016992,-0.102335,-0.7392200000000001,0.024635,0.106995,-0.74246,0.054204,0
121,-0.0236904999999999,0.702686,0.059527,-0.1706825,0.5146160000000001,0.0106599999999999,-0.2819525,0.7155360000000001,-0.059896,0.1528275,0.515946,0.050739,0.2587375,0.6971860000000001,0.0062249999999999,-0.3512825,0.948066,-0.086759,0.3078475,0.888916,-0.014809,-0.0719575,-0.0012719999999999,-0.004465,0.0719575,0.001272,0.0044649999999999,-0.0959235,-0.394614,-0.0268909999999999,0.1048574999999999,-0.389054,0.0102219999999999,-0.1019025,-0.740664,0.019909,0.1075175,-0.741324,0.04971,0
122,-0.0229715,0.7020314999999999,0.055955,-0.1700265,0.5156315,0.007246,-0.2812564999999999,0.7146215,-0.064051,0.1533235,0.5156514999999999,0.046413,0.2599535,0.6972315,0.001286,-0.3501864999999999,0.9426815,-0.091483,0.3082935,0.8896314999999999,-0.019616,-0.0721795,-0.0011874999999999,-0.0043939999999999,0.0721795,0.0011875,0.004394,-0.0959035,-0.3935785,-0.034256,0.1061235,-0.3878785,0.002752,-0.1014765,-0.7412885,0.014578,0.1080335,-0.7395985,0.044625,0
123,-0.022104,0.700712,0.0520035,-0.169322,0.516692,0.0035454999999999,-0.280422,0.712992,-0.0686125,0.153778,0.515552,0.0417005,0.261188,0.6970419999999999,-0.0041815,-0.349082,0.937642,-0.0965965,0.308828,0.888362,-0.0252335,-0.072445,-0.001177,-0.0042705,0.072445,0.0011769999999999,0.0042704999999999,-0.0960719999999999,-0.392158,-0.0417785,0.107528,-0.386318,-0.0051955,-0.101032,-0.741168,0.0090324999999999,0.108548,-0.737248,0.0391445,0
124,-0.0212234999999999,0.6996715,0.04736,-0.1684095,0.5143515,-0.000446,-0.2795095,0.7117615,-0.0738139999999999,0.1542105,0.5146015,0.036415,0.2622405,0.6976915,-0.010443,-0.3479795,0.9342715,-0.102432,0.3093505,0.8879015,-0.031846,-0.0728095,-0.0012514999999999,-0.0040649999999999,0.0728095,0.0012515,0.0040649999999999,-0.0965994999999999,-0.3892985,-0.0498949999999999,0.1090505,-0.3833185,-0.014042,-0.1005794999999999,-0.7391085,0.0029809999999999,0.1090005,-0.7333284999999999,0.032886,1
125,-0.0201955,0.6989044999999999,0.0423285,-0.1675125,0.5130144999999999,-0.0049275,-0.2785625,0.7110445,-0.0794385,0.1545775,0.5135244999999999,0.0307475,0.2631475,0.6982745,-0.0171874999999999,-0.3468925,0.9317745,-0.1087705,0.3100675,0.8880644999999999,-0.0389435,-0.0732625,-0.0013135,-0.0039454999999999,0.0732625,0.0013135,0.0039455,-0.0974125,-0.3854955,-0.0577054999999999,0.1107975,-0.3802255,-0.0233285,-0.1002525,-0.7349755,-0.0030054999999999,0.1093675,-0.7281855,0.0263295,1
126,-0.019146,0.6980265,0.0369829999999999,-0.16658,0.5123565,-0.009709,-0.27747,0.7103765,-0.085502,0.15472,0.5114464999999999,0.0242809999999999,0.26389,0.6988365,-0.024269,-0.34582,0.9304265,-0.115394,0.31032,0.8888665,-0.046545,-0.073673,-0.0013845,-0.003871,0.073673,0.0013844999999999,0.003871,-0.09829,-0.3806735,-0.065893,0.11254,-0.3759635,-0.032565,-0.09999,-0.7294235,-0.009231,0.10974,-0.7217435,0.019581,1
127,-0.0180929999999999,0.6966315,0.0315395,-0.1658049999999999,0.5122115,-0.0145265,-0.276335,0.7093915000000001,-0.0917434999999999,0.154575,0.5089115,0.0175975,0.264335,0.6987315000000001,-0.0315085,-0.344825,0.9296215,-0.1222014999999999,0.310855,0.8902215,-0.0540665,-0.074014,-0.0014564999999999,-0.0037615,0.074014,0.0014564999999999,0.0037615,-0.0993449999999999,-0.3753285,-0.0742844999999999,0.1143349999999999,-0.3709685,-0.0418705,-0.099795,-0.7228585,-0.0155895,0.110075,-0.7145684999999999,0.0129635,1
128,-0.0171694999999999,0.695705,0.025832,-0.1649745,0.510065,-0.019577,-0.2753245,0.709305,-0.098297,0.1541755,0.507715,0.011137,0.2647255,0.699105,-0.038914,-0.3439245,0.929865,-0.129335,0.3106055,0.892755,-0.06178,-0.0743485,-0.001408,-0.003772,0.0743485,0.0014079999999999,0.0037719999999999,-0.1005945,-0.368895,-0.083117,0.1160954999999999,-0.364825,-0.051227,-0.0997045,-0.714695,-0.022219,0.1102255,-0.706095,0.0062039999999999,1
129,-0.0162695,0.6931419999999999,0.0204955,-0.1641695,0.5078619999999999,-0.0242855,-0.2743295,0.7082419999999999,-0.1045485,0.1536205,0.5068919999999999,0.0052745,0.2650504999999999,0.6982619999999999,-0.0459624999999999,-0.3427795,0.929012,-0.1363085,0.3101905,0.894922,-0.0691905,-0.0746894999999999,-0.001478,-0.0038315,0.0746894999999999,0.001478,0.0038315,-0.1018895,-0.363218,-0.0918385,0.1177004999999999,-0.359728,-0.0605594999999999,-0.0995995,-0.706588,-0.0284425,0.1103504999999999,-0.697898,4.499999999999296e-06,1
130,-0.0154589999999999,0.6920195,0.0149094999999999,-0.1633129999999999,0.5051195,-0.0292145,-0.273323,0.7083095,-0.1108365,0.152867,0.5044795000000001,-0.0005995,0.265087,0.6982695,-0.0529764999999999,-0.342033,0.9358895,-0.1425005,0.309297,0.8956995000000001,-0.0767635,-0.07518,-0.0016904999999999,-0.0037905,0.07518,0.0016905,0.0037904999999999,-0.103283,-0.3557205,-0.1008485,0.119127,-0.3528205,-0.0701585,-0.099623,-0.6961904999999999,-0.0347365,0.110327,-0.6876304999999999,-0.0062115,1
131,-0.0147864999999999,0.690625,0.0096,-0.1625885,0.502455,-0.033811,-0.2722785,0.708695,-0.1167719999999999,0.1522115,0.502585,-0.0061299999999999,0.2649815,0.698325,-0.059723,-0.3406885,0.941585,-0.148321,0.3080715,0.896445,-0.084048,-0.0757615,-0.001817,-0.0037279999999999,0.0757615,0.001817,0.003728,-0.1046484999999999,-0.348045,-0.1100009999999999,0.1207115,-0.345885,-0.08007,-0.0997784999999999,-0.684865,-0.04077,0.1101015,-0.676765,-0.012497,1
132,-0.0143959999999999,0.689947,0.0046024999999999,-0.162022,0.498847,-0.0378915,-0.2711719999999999,0.709807,-0.1225285,0.151098,0.499477,-0.0116375,0.264678,0.698527,-0.0661635,-0.3388819999999999,0.946997,-0.1538195,0.306628,0.900877,-0.0906175,-0.076349,-0.001804,-0.0038515,0.076349,0.001804,0.0038515,-0.1059919999999999,-0.339523,-0.1191825,0.122258,-0.337873,-0.0899525,-0.100072,-0.672243,-0.0466395,0.109638,-0.6647730000000001,-0.0185185,1
133,-0.014038,0.6885045,0.0001734999999999,-0.161766,0.4982745,-0.0415155,-0.269946,0.7102645,-0.1278345,0.149844,0.4972745,-0.0166185,0.2642839999999999,0.6977245,-0.0719485,-0.336736,0.9486945,-0.1602465,0.304484,0.9009445,-0.0968835,-0.0768,-0.0018974999999999,-0.0040385,0.0768,0.0018974999999999,0.0040385,-0.106996,-0.3314054999999999,-0.1275985,0.1237939999999999,-0.3300455,-0.0993175,-0.100306,-0.6598855,-0.0521055,0.1091639999999999,-0.6531455,-0.0240365,1
134,-0.0137305,0.685122,-0.0045045,-0.1613625,0.497702,-0.0454345,-0.2688125,0.709592,-0.1336595,0.1489174999999999,0.495552,-0.0214285,0.2637975,0.695862,-0.0785215,-0.3338025,0.949452,-0.1670795,0.3020575,0.898782,-0.1041545,-0.0770825,-0.0019229999999999,-0.0041615,0.0770825,0.001923,0.0041614999999999,-0.1079325,-0.3199079999999999,-0.1373095,0.1255875,-0.318268,-0.1094665,-0.1004025,-0.645758,-0.0579165,0.1087075,-0.639688,-0.0298915,1
135,-0.013602,0.6820375,-0.0091424999999999,-0.161043,0.4941475,-0.0492745,-0.267363,0.7084675,-0.1392835,0.147887,0.4928075,-0.0260205,0.263227,0.6941875,-0.0850765,-0.330493,0.9456175,-0.1744735,0.299567,0.8980775,-0.1111055,-0.077405,-0.0020425,-0.0042805,0.077405,0.0020425,0.0042805,-0.108973,-0.3069024999999999,-0.1468635,0.127407,-0.3050724999999999,-0.1197485,-0.100593,-0.6300825,-0.0634335,0.108097,-0.6252624999999999,-0.0356115,1
136,-0.0134444999999999,0.679153,-0.0180724999999999,-0.1605654999999999,0.491923,-0.0575674999999999,-0.2659055,0.7055629999999999,-0.1487985,0.1470145,0.492383,-0.0345614999999999,0.2627244999999999,0.693093,-0.0957895,-0.3268655,0.942853,-0.1858385,0.2973745,0.8981129999999999,-0.1224904999999999,-0.0775115,-0.0022179999999999,-0.0044724999999999,0.0775115,0.0022179999999999,0.0044725,-0.1097455,-0.2929469999999999,-0.1603085,0.1292245,-0.291057,-0.1340175,-0.1007255,-0.613297,-0.0726975,0.1076245,-0.609627,-0.0452774999999999,1
137,-0.0132594999999999,0.67954,-0.0283234999999999,-0.1594065,0.49046,-0.0673045,-0.2642664999999999,0.70455,-0.1593135,0.1463035,0.49076,-0.0445145,0.2623335,0.6943,-0.1076375,-0.3229464999999999,0.94223,-0.1984735,0.2955335,0.8998400000000001,-0.1361205,-0.0775965,-0.0023399999999999,-0.0047924999999999,0.0775965,0.0023399999999999,0.0047924999999999,-0.1107165,-0.27444,-0.1786535,0.1323135,-0.27274,-0.1529535,-0.1007064999999999,-0.59215,-0.0830785,0.1072735,-0.58956,-0.0563035,1
138,-0.0133644999999999,0.6803000000000001,-0.0388115,-0.1583605,0.48904,-0.0770835,-0.2627305,0.70451,-0.1698355,0.1455095,0.48761,-0.0545084999999999,0.2618095,0.69522,-0.1196925,-0.3203105,0.94247,-0.2110054999999999,0.2934695,0.8989800000000001,-0.1498625,-0.0776785,-0.0023499999999999,-0.0050464999999999,0.0776785,0.00235,0.0050465,-0.1116205,-0.2553399999999999,-0.1965155,0.1352895,-0.25364,-0.1713954999999999,-0.1007705,-0.5707899999999999,-0.0933725,0.1067695,-0.5691200000000001,-0.0672914999999999,1
139,-0.013562,0.679815,-0.0487534999999999,-0.157332,0.486915,-0.0864585,-0.261582,0.7026249999999999,-0.1798485,0.144888,0.486215,-0.0640144999999999,0.261298,0.695525,-0.1314405,-0.318192,0.940835,-0.2232785,0.291848,0.899805,-0.1632075,-0.077685,-0.002305,-0.0054214999999999,0.077685,0.002305,0.0054215,-0.112412,-0.236865,-0.2141085,0.138558,-0.235205,-0.1895184999999999,-0.100732,-0.550135,-0.1031395,0.106398,-0.549165,-0.0777745,1
140,-0.0135689999999999,0.67954,-0.0588804999999999,-0.156096,0.48343,-0.0963955,-0.260126,0.69896,-0.1898135,0.144174,0.4839599999999999,-0.0738854999999999,0.260824,0.69581,-0.1431875,-0.316706,0.93732,-0.2357334999999999,0.290424,0.90125,-0.1764974999999999,-0.077652,-0.00248,-0.0057364999999999,0.077652,0.00248,0.0057365,-0.1130859999999999,-0.21727,-0.2315335,0.1416339999999999,-0.21516,-0.2073735,-0.1004159999999999,-0.5287,-0.1129175,0.106154,-0.5279699999999999,-0.0880415,1
141,-0.013364,0.6790050000000001,-0.0689225,-0.154781,0.481575,-0.1061855,-0.258741,0.696785,-0.1994705,0.143599,0.482435,-0.0837665,0.260559,0.694875,-0.1547515,-0.315581,0.934455,-0.2492305,0.288899,0.897835,-0.1906904999999999,-0.077649,-0.0025949999999999,-0.0058855,0.077649,0.002595,0.0058854999999999,-0.1135809999999999,-0.1981149999999999,-0.2484905,0.144569,-0.1955449999999999,-0.2249805,-0.099841,-0.507725,-0.1224895,0.1060589999999999,-0.506945,-0.0979615,1
142,-0.01322,0.67876,-0.078854,-0.153434,0.48089,-0.115592,-0.258254,0.6957,-0.20903,0.143156,0.48194,-0.092947,0.260436,0.6943699999999999,-0.166044,-0.314754,0.93365,-0.26099,0.288006,0.89775,-0.20389,-0.077662,-0.00254,-0.00614,0.077662,0.0025399999999999,0.0061399999999999,-0.114104,-0.1793,-0.26489,0.147236,-0.1765,-0.2419,-0.099274,-0.4870299999999999,-0.131445,0.105916,-0.4859,-0.107289,1
143,-0.0129139999999999,0.68001,-0.08818,-0.152142,0.47834,-0.124746,-0.257552,0.6950799999999999,-0.217795,0.142668,0.4793699999999999,-0.102131,0.260198,0.6949000000000001,-0.176327,-0.314052,0.93343,-0.272105,0.287778,0.8996,-0.215885,-0.077459,-0.00256,-0.0062849999999999,0.077459,0.00256,0.0062849999999999,-0.114412,-0.16177,-0.279875,0.149598,-0.15871,-0.257555,-0.098542,-0.46689,-0.139653,0.105988,-0.4655,-0.1161099999999999,1
144,-0.0126354999999999,0.6799850000000001,-0.097083,-0.1510375,0.477005,-0.133731,-0.2570975,0.693875,-0.22638,0.1420725,0.478425,-0.110899,0.2597425,0.694975,-0.186376,-0.3134575,0.936015,-0.28257,0.2876125,0.898265,-0.2281099999999999,-0.0773665,-0.0025049999999999,-0.0064199999999999,0.0773665,0.0025049999999999,0.0064199999999999,-0.1148474999999999,-0.144855,-0.29456,0.1517825,-0.141625,-0.27278,-0.0978774999999999,-0.4476249999999999,-0.147701,0.1059925,-0.445955,-0.124874,1
145,-0.0129654999999999,0.679335,-0.101992,-0.1504795,0.4723449999999999,-0.138515,-0.2570895,0.692545,-0.231265,0.1409405,0.4757849999999999,-0.1153309999999999,0.2588105,0.692485,-0.192324,-0.3131595,0.933985,-0.289495,0.2869305,0.896745,-0.236125,-0.0773875,-0.002865,-0.0065849999999999,0.0773875,0.0028649999999999,0.006585,-0.1159395,-0.127705,-0.305455,0.1534305,-0.124045,-0.283605,-0.0977095,-0.427875,-0.151397,0.1053105,-0.426205,-0.129401,1
146,-0.0136725,0.6755500000000001,-0.105013,-0.1505255,0.47045,-0.141365,-0.2571155,0.68991,-0.23443,0.1397045,0.47396,-0.11771,0.2579545,0.68967,-0.196577,-0.3133455,0.93079,-0.29464,0.2861445,0.89437,-0.24178,-0.0774685,-0.00278,-0.0064899999999999,0.0774685,0.00278,0.00649,-0.1165355,-0.1108699999999999,-0.3102399999999999,0.1537545,-0.1077099999999999,-0.2889,-0.0975645,-0.41067,-0.153271,0.1045045,-0.40908,-0.131857,1
147,-0.0144824999999999,0.67252,-0.107677,-0.1505845,0.46801,-0.143826,-0.2575045,0.68681,-0.237905,0.1384655,0.47215,-0.12003,0.2568755,0.68761,-0.200489,-0.3142945,0.92747,-0.299935,0.2853855,0.89497,-0.247285,-0.0775365,-0.0029099999999999,-0.006445,0.0775365,0.00291,0.006445,-0.1171244999999999,-0.0929699999999999,-0.314725,0.1540755,-0.0896199999999999,-0.293805,-0.0974104999999999,-0.39288,-0.155001,0.1037255,-0.39127,-0.134124,1
148,-0.014969,0.670195,-0.110087,-0.150144,0.466275,-0.145996,-0.257424,0.684855,-0.24091,0.137716,0.4701349999999999,-0.122017,0.256436,0.6854450000000001,-0.20384,-0.314664,0.925255,-0.30472,0.285136,0.891505,-0.2529599999999999,-0.0775619999999999,-0.003085,-0.00618,0.0775619999999999,0.003085,0.0061799999999999,-0.1171639999999999,-0.0743149999999999,-0.3183,0.154856,-0.070865,-0.29782,-0.0968159999999999,-0.374985,-0.156487,0.103436,-0.3735349999999999,-0.135788,1
149,-0.0158525,0.667735,-0.111703,-0.1504495,0.465755,-0.147181,-0.2578195,0.685305,-0.243585,0.1369405,0.468265,-0.122973,0.2557805,0.683165,-0.20662,-0.3150495,0.925415,-0.309085,0.2848005,0.888125,-0.258025,-0.0776175,-0.0031549999999999,-0.006165,0.0776175,0.003155,0.006165,-0.1174995,-0.0602449999999999,-0.320855,0.1553504999999999,-0.0563549999999999,-0.300645,-0.0965245,-0.3579949999999999,-0.157237,0.1029404999999999,-0.3567749999999999,-0.136649,1
150,-0.016588,0.666115,-0.1132239999999999,-0.15086,0.465149,-0.148164,-0.25793,0.684925,-0.24616,0.13631,0.4681869999999999,-0.123873,0.25532,0.683235,-0.209565,-0.31485,0.925435,-0.31243,0.28487,0.8892849999999999,-0.26213,-0.077632,-0.003365,-0.0061699999999999,0.077632,0.003365,0.00617,-0.11781,-0.044935,-0.32318,0.15594,-0.0402649999999999,-0.30286,-0.096143,-0.339965,-0.157857,0.1025589999999999,-0.339105,-0.137434,1
151,-0.0170805,0.66441,-0.1144019999999999,-0.1511125,0.4642509999999999,-0.1490719999999999,-0.2580425,0.68389,-0.2484499999999999,0.1358675,0.4663629999999999,-0.1247089999999999,0.2552075,0.68249,-0.212191,-0.3144125,0.92585,-0.31559,0.2851075,0.8903,-0.26663,-0.0775325,-0.0033299999999999,-0.0061599999999999,0.0775325,0.0033299999999999,0.0061599999999999,-0.1179625,-0.0291,-0.32532,0.1566475,-0.02372,-0.3049699999999999,-0.0956964999999999,-0.32175,-0.158267,0.1023165,-0.32153,-0.138144,1
152,-0.017403,0.6633549999999999,-0.1153189999999999,-0.151279,0.4636599999999999,-0.1495139999999999,-0.257859,0.682925,-0.250295,0.135901,0.466785,-0.1246159999999999,0.255221,0.6823349999999999,-0.214204,-0.313779,0.923225,-0.3189849999999999,0.285481,0.889405,-0.2705849999999999,-0.077544,-0.003675,-0.0061049999999999,0.077544,0.0036749999999999,0.0061049999999999,-0.117949,-0.0134549999999999,-0.326555,0.157391,-0.007155,-0.3057649999999999,-0.09508,-0.303935,-0.158576,0.10231,-0.304325,-0.1384389999999999,1
153,-0.0178094999999999,0.66343,-0.115882,-0.1516095,0.4647989999999999,-0.149258,-0.2572595,0.68355,-0.25166,0.1358705,0.4676369999999999,-0.124302,0.2553905,0.68251,-0.215717,-0.3132895,0.9227,-0.32143,0.2857205,0.8906000000000001,-0.27373,-0.0775365,-0.00396,-0.0061399999999999,0.0775365,0.00396,0.00614,-0.1179494999999999,0.0024799999999999,-0.32703,0.1581105,0.00951,-0.30576,-0.0945385,-0.28628,-0.1583709999999999,0.1023345,-0.2869299999999999,-0.1381379999999999,1
154,-0.0182235,0.66299,-0.115517,-0.1519785,0.467608,-0.148829,-0.2567585,0.68621,-0.25203,0.1357914999999999,0.468326,-0.123864,0.2556015,0.68431,-0.216588,-0.3129485,0.92463,-0.32287,0.2861215,0.89073,-0.27602,-0.0775245,-0.0037699999999999,-0.00621,0.0775245,0.0037699999999999,0.0062099999999999,-0.1179784999999999,0.01667,-0.32658,0.1586914999999999,0.02409,-0.30526,-0.0940975,-0.2709999999999999,-0.157881,0.1023805,-0.2715399999999999,-0.137677,1
155,-0.0185605,0.663235,-0.114777,-0.1525645,0.468176,-0.148107,-0.2566644999999999,0.6873549999999999,-0.25178,0.1354155,0.468719,-0.12292,0.2558155,0.684615,-0.216896,-0.3127945,0.925755,-0.32378,0.2860055,0.8898550000000001,-0.27747,-0.0775605,-0.0041649999999999,-0.00639,0.0775605,0.004165,0.0063899999999999,-0.1183444999999999,0.029865,-0.32584,0.1590455,0.037495,-0.30447,-0.0940085,-0.2569249999999999,-0.157109,0.1023195,-0.2570749999999999,-0.136916,1
156,-0.018819,0.663555,-0.113984,-0.153087,0.4686639999999999,-0.147334,-0.256497,0.688635,-0.251015,0.135033,0.470134,-0.121926,0.256043,0.6854750000000001,-0.21692,-0.312747,0.926775,-0.324095,0.285853,0.8854150000000001,-0.278395,-0.077509,-0.0043949999999999,-0.006625,0.077509,0.0043949999999999,0.0066249999999999,-0.118807,0.0427549999999999,-0.325065,0.159603,0.0506949999999999,-0.303615,-0.09395,-0.243305,-0.156292,0.102276,-0.2430949999999999,-0.136107,1
157,-0.018846,0.66333,-0.113345,-0.153605,0.469149,-0.146346,-0.256225,0.68933,-0.25059,0.134815,0.471759,-0.121283,0.256305,0.68642,-0.2171,-0.312435,0.9263,-0.32475,0.285885,0.88547,-0.27862,-0.0774199999999999,-0.0044899999999999,-0.0066999999999999,0.0774199999999999,0.0044899999999999,0.0066999999999999,-0.119325,0.0544199999999999,-0.32416,0.160185,0.0625999999999999,-0.30277,-0.094064,-0.23091,-0.155295,0.1024519999999999,-0.2303599999999999,-0.135235,1
158,-0.01884,0.662655,-0.112206,-0.154015,0.469499,-0.144794,-0.256085,0.689805,-0.24983,0.1348049999999999,0.473439,-0.120307,0.255895,0.6869750000000001,-0.21647,-0.312295,0.925645,-0.32482,0.285835,0.884395,-0.2784,-0.077526,-0.0046049999999999,-0.00672,0.077526,0.004605,0.00672,-0.120075,0.064915,-0.32257,0.160545,0.073285,-0.30111,-0.094484,-0.2195949999999999,-0.153804,0.102306,-0.2185949999999999,-0.133686,1
159,-0.018792,0.66143,-0.1106829999999999,-0.154117,0.46904,-0.142998,-0.256017,0.68947,-0.2489449999999999,0.134843,0.474363,-0.118976,0.2562029999999999,0.68673,-0.215665,-0.311987,0.92454,-0.324545,0.2859629999999999,0.8825000000000001,-0.277935,-0.077528,-0.0047,-0.006855,0.077528,0.0047,0.006855,-0.120807,0.07399,-0.320665,0.160963,0.08242,-0.299045,-0.095007,-0.20969,-0.152111,0.102163,-0.20804,-0.131914,1
160,-0.0186509999999999,0.65986,-0.109062,-0.1541679999999999,0.468273,-0.141127,-0.2561279999999999,0.68908,-0.24795,0.135002,0.476143,-0.117534,0.256872,0.6866099999999999,-0.21465,-0.311808,0.92,-0.3241199999999999,0.286152,0.88115,-0.27697,-0.077393,-0.0049599999999999,-0.00706,0.077393,0.0049599999999999,0.0070599999999999,-0.1214779999999999,0.0823599999999999,-0.31878,0.161422,0.09092,-0.2968699999999999,-0.095478,-0.20025,-0.150233,0.102051,-0.1980199999999999,-0.130086,1
161,-0.0185454999999999,0.6583899999999999,-0.107807,-0.1542925,0.4687879999999999,-0.139435,-0.2561624999999999,0.6895199999999999,-0.24717,0.1350875,0.4752759999999999,-0.116016,0.2574475,0.6857,-0.21394,-0.3116525,0.91903,-0.32353,0.2862975,0.8822999999999999,-0.27629,-0.0773185,-0.0045,-0.0070899999999999,0.0773185,0.0044999999999999,0.0070899999999999,-0.1222325,0.0904999999999999,-0.31658,0.1617974999999999,0.0987399999999999,-0.29424,-0.0960024999999999,-0.1915000000000001,-0.148618,0.1019385,-0.1883800000000001,-0.1279549999999999,1
162,-0.0183429999999999,0.6567099999999999,-0.106502,-0.154335,0.4683659999999999,-0.1378309999999999,-0.256295,0.68629,-0.2465649999999999,0.135175,0.4747599999999999,-0.11455,0.257845,0.68489,-0.213405,-0.3114949999999999,0.91681,-0.323095,0.286455,0.88255,-0.275945,-0.077206,-0.00414,-0.007105,0.077206,0.0041399999999999,0.007105,-0.1230649999999999,0.0977599999999999,-0.314425,0.162155,0.1056399999999999,-0.291565,-0.0964549999999999,-0.1837,-0.147125,0.101806,-0.17979,-0.125819,1
163,-0.0180119999999999,0.6564049999999999,-0.1050349999999999,-0.154374,0.467618,-0.136152,-0.2561739999999999,0.683505,-0.24575,0.135236,0.4744779999999999,-0.1131679999999999,0.258496,0.685165,-0.21288,-0.311254,0.914945,-0.32264,0.286746,0.8826149999999999,-0.27572,-0.077105,-0.0037949999999999,-0.0071299999999999,0.077105,0.0037949999999999,0.0071299999999999,-0.123954,0.1055949999999999,-0.31209,0.162486,0.1131349999999999,-0.28885,-0.096834,-0.175555,-0.145251,0.101564,-0.1706350000000001,-0.123209,1
164,-0.0177009999999999,0.654475,-0.10371,-0.154519,0.467137,-0.134534,-0.256559,0.680755,-0.245285,0.135231,0.47438,-0.112061,0.259111,0.684415,-0.212435,-0.311019,0.911315,-0.322085,0.286961,0.881275,-0.275745,-0.077029,-0.0033949999999999,-0.007035,0.077029,0.003395,0.007035,-0.124879,0.111455,-0.309795,0.1626409999999999,0.118545,-0.286655,-0.0972089999999999,-0.1694649999999999,-0.143559,0.101135,-0.163555,-0.120618,1
165,-0.0173715,0.653025,-0.102477,-0.1546205,0.467084,-0.1331169999999999,-0.2568805,0.67864,-0.24489,0.1354795,0.474227,-0.11089,0.2596994999999999,0.68378,-0.21209,-0.3107405,0.90795,-0.32173,0.2872595,0.8835500000000001,-0.27581,-0.0769894999999999,-0.0029599999999999,-0.0069499999999999,0.0769894999999999,0.0029599999999999,0.0069499999999999,-0.1257705,0.1169899999999999,-0.30753,0.1628595,0.12383,-0.28433,-0.0976404999999999,-0.1635799999999999,-0.141457,0.1006685,-0.1567499999999999,-0.1180269999999999,1
166,-0.016952,0.652,-0.101357,-0.154687,0.467429,-0.131902,-0.2568769999999999,0.677005,-0.244365,0.135793,0.4740339999999999,-0.109739,0.260153,0.683155,-0.211665,-0.310407,0.905895,-0.321565,0.287583,0.8850849999999999,-0.275955,-0.076962,-0.0025249999999999,-0.006845,0.076962,0.0025249999999999,0.006845,-0.126637,0.1219849999999999,-0.3053249999999999,0.163093,0.128735,-0.281925,-0.097887,-0.1580249999999999,-0.139769,0.10023,-0.150495,-0.115413,1
167,-0.01659,0.651615,-0.1003059999999999,-0.154658,0.468013,-0.130717,-0.257208,0.675845,-0.24427,0.136272,0.473769,-0.108596,0.260942,0.682875,-0.21121,-0.310018,0.904185,-0.32177,0.287932,0.886925,-0.27601,-0.076923,-0.0020249999999999,-0.0067799999999999,0.076923,0.002025,0.00678,-0.127318,0.126905,-0.30318,0.163382,0.133655,-0.27953,-0.097978,-0.1523649999999999,-0.138071,0.099856,-0.144625,-0.1131679999999999,1
168,-0.0161375,0.6510429999999999,-0.099471,-0.1545665,0.4687819999999999,-0.129801,-0.2574765,0.6748599999999999,-0.244375,0.1367934999999999,0.4728909999999999,-0.107532,0.2615735,0.6820999999999999,-0.210855,-0.3095464999999999,0.90221,-0.322405,0.2883234999999999,0.88815,-0.2764749999999999,-0.0768645,-0.00153,-0.0066449999999999,0.0768645,0.0015299999999999,0.0066449999999999,-0.1278465,0.1310699999999999,-0.301235,0.1636935,0.1377799999999999,-0.277265,-0.0980165,-0.14748,-0.136532,0.0995225,-0.13977,-0.111131,1
169,-0.015611,0.6511690000000001,-0.098807,-0.154425,0.46926,-0.128996,-0.257655,0.67376,-0.244675,0.1373349999999999,0.4717700000000001,-0.106534,0.2622049999999999,0.68178,-0.210635,-0.309205,0.90343,-0.3231549999999999,0.288775,0.8891100000000001,-0.276985,-0.07676,-0.0010899999999999,-0.006635,0.07676,0.00109,0.0066349999999999,-0.128265,0.13487,-0.299445,0.164025,0.14139,-0.275055,-0.098195,-0.1430199999999999,-0.135852,0.099254,-0.1356099999999999,-0.109364,1
170,-0.0149984999999999,0.651337,-0.0982429999999999,-0.1542285,0.469125,-0.128466,-0.2575685,0.672015,-0.2450949999999999,0.1377115,0.472445,-0.1060689999999999,0.2628915,0.681865,-0.2103749999999999,-0.3087784999999999,0.904055,-0.3241549999999999,0.2892515,0.8892150000000001,-0.277445,-0.0767015,-0.000985,-0.0066549999999999,0.0767015,0.000985,0.006655,-0.1286285,0.137395,-0.298215,0.1644415,0.143735,-0.2735149999999999,-0.0983685,-0.139985,-0.1353079999999999,0.0989895,-0.1331949999999999,-0.1082099999999999,1
171,-0.0144104999999999,0.652167,-0.097874,-0.1539995,0.470025,-0.12834,-0.2574295,0.672915,-0.245305,0.1380805,0.471945,-0.105628,0.2634105,0.681335,-0.210195,-0.3083695,0.904955,-0.325125,0.2896205,0.8892150000000001,-0.277595,-0.0766645,-0.000765,-0.006625,0.0766645,0.000765,0.0066249999999999,-0.1289195,0.138625,-0.297595,0.1649305,0.144885,-0.272525,-0.0984695,-0.1383649999999999,-0.135032,0.0991115,-0.1322949999999999,-0.10813,1
172,-0.0138515,0.652167,-0.0976809999999999,-0.1536915,0.470025,-0.1283359999999999,-0.2573715,0.672915,-0.2453199999999999,0.1384185,0.471945,-0.1054519999999999,0.2639285,0.681335,-0.2098499999999999,-0.3080015,0.904955,-0.32602,0.2899385,0.8892150000000001,-0.27759,-0.0766095,-0.000765,-0.0065999999999999,0.0766095,0.000765,0.0066,-0.1291515,0.138955,-0.29752,0.1654085,0.145115,-0.2723299999999999,-0.0987015,-0.138355,-0.134851,0.0991695,-0.1322949999999999,-0.1081449999999999,1
173,-0.0132554999999999,0.652167,-0.097631,-0.1531925,0.470025,-0.12831,-0.2573525,0.672915,-0.24533,0.1387374999999999,0.471945,-0.105448,0.2644775,0.681335,-0.20982,-0.3075725,0.904955,-0.32676,0.2902475,0.8892150000000001,-0.27785,-0.0765815,-0.000765,-0.00661,0.0765815,0.000765,0.00661,-0.1293125,0.139255,-0.29754,0.1658875,0.145275,-0.2723,-0.0987825,-0.138355,-0.134868,0.0991885,-0.1322949999999999,-0.108155,1
174,-0.0126114999999999,0.652167,-0.097568,-0.1527575,0.470405,-0.128283,-0.2569574999999999,0.673273,-0.245305,0.1389625,0.471945,-0.105436,0.2649725,0.681335,-0.209475,-0.3069075,0.905565,-0.327515,0.2906925,0.8892150000000001,-0.278055,-0.0765765,-0.000765,-0.006615,0.0765765,0.000765,0.0066149999999999,-0.1293075,0.139255,-0.297545,0.1664625,0.145245,-0.272265,-0.0986675,-0.138355,-0.134617,0.0992975,-0.1327349999999999,-0.108152,1
175,-0.0119935,0.653744,-0.097714,-0.1521945,0.4712449999999999,-0.128556,-0.2564245,0.6737789999999999,-0.2458,0.1391555,0.472985,-0.105614,0.2655355,0.682205,-0.20905,-0.3063045,0.906625,-0.32853,0.2912655,0.888755,-0.27822,-0.0765265,-0.000665,-0.0065899999999999,0.0765265,0.0006649999999999,0.0065899999999999,-0.1293445,0.1384149999999999,-0.29774,0.1669854999999999,0.1443849999999999,-0.27242,-0.0986845,-0.1392150000000001,-0.134641,0.0995855,-0.1341150000000001,-0.108901,1
176,-0.01142,0.6558579999999999,-0.098061,-0.151528,0.4715919999999999,-0.129268,-0.2557879999999999,0.6744049999999999,-0.246465,0.139282,0.4741429999999999,-0.106049,0.265412,0.683635,-0.208785,-0.305658,0.908015,-0.3292049999999999,0.292512,0.8940349999999999,-0.278515,-0.076413,-0.000845,-0.006735,0.076413,0.0008449999999999,0.0067349999999999,-0.129378,0.1357349999999999,-0.298695,0.167352,0.1416949999999999,-0.273215,-0.098718,-0.142055,-0.134854,0.099923,-0.137475,-0.110271,1
177,-0.01088,0.658594,-0.098866,-0.1507839999999999,0.4703549999999999,-0.130454,-0.254764,0.6756,-0.247545,0.139456,0.4753779999999999,-0.107219,0.265996,0.68458,-0.208953,-0.304994,0.90978,-0.3305949999999999,0.294006,0.8965799999999999,-0.2792449999999999,-0.076311,-0.00143,-0.006665,0.076311,0.0014299999999999,0.006665,-0.129334,0.1298099999999999,-0.3003949999999999,0.167846,0.1357399999999999,-0.275305,-0.098654,-0.1484499999999999,-0.13567,0.100333,-0.14416,-0.112294,1
178,-0.0104059999999999,0.6585350000000001,-0.10064,-0.149811,0.4701660000000001,-0.132553,-0.253761,0.6761950000000001,-0.24949,0.139569,0.473582,-0.10937,0.266459,0.6830750000000001,-0.209844,-0.304391,0.911735,-0.3326,0.2953389999999999,0.8935350000000001,-0.28064,-0.076467,-0.0015049999999999,-0.0061299999999999,0.076467,0.001505,0.0061299999999999,-0.129111,0.117655,-0.3031,0.168059,0.123505,-0.27878,-0.098721,-0.1611749999999999,-0.137361,0.1007879999999999,-0.1571449999999999,-0.11533,1
179,-0.009935,0.66135,-0.102451,-0.148773,0.4699569999999999,-0.134843,-0.2524329999999999,0.6773199999999999,-0.251425,0.139797,0.4715089999999999,-0.111769,0.267097,0.6822699999999999,-0.210839,-0.303683,0.91425,-0.334625,0.296497,0.89221,-0.281485,-0.076629,-0.00146,-0.0057249999999999,0.076629,0.00146,0.0057249999999999,-0.128793,0.1051399999999999,-0.305725,0.168157,0.1109699999999999,-0.282565,-0.098803,-0.17465,-0.139291,0.101296,-0.17063,-0.118736,1
180,-0.0096235,0.6627050000000001,-0.104079,-0.1473705,0.468881,-0.137362,-0.2512204999999999,0.6771450000000001,-0.25305,0.1399295,0.471128,-0.11418,0.2678195,0.682315,-0.211662,-0.3029305,0.914775,-0.33624,0.2976795,0.8946350000000001,-0.28205,-0.0767065,-0.0012849999999999,-0.00533,0.0767065,0.001285,0.0053299999999999,-0.1283105,0.087255,-0.3079,0.1680695,0.093055,-0.286,-0.0990105,-0.1937549999999999,-0.141,0.1016525,-0.1894449999999999,-0.122014,1
181,-0.009425,0.664615,-0.105411,-0.145998,0.467951,-0.1397,-0.250108,0.677215,-0.25448,0.140062,0.470495,-0.116392,0.268482,0.682265,-0.212211,-0.302178,0.916085,-0.33767,0.2987519999999999,0.895465,-0.28222,-0.076742,-0.0015849999999999,-0.00508,0.076742,0.001585,0.00508,-0.127818,0.067015,-0.30963,0.167892,0.072715,-0.28885,-0.099278,-0.215125,-0.142546,0.101935,-0.2105549999999999,-0.125158,1
182,-0.0094285,0.6661250000000001,-0.106395,-0.1450785,0.468352,-0.14163,-0.2492585,0.676465,-0.254975,0.1399315,0.469744,-0.118247,0.2685815,0.681735,-0.212424,-0.3017885,0.916305,-0.338605,0.2992915,0.894335,-0.281975,-0.0769755,-0.0015249999999999,-0.0049349999999999,0.0769755,0.0015249999999999,0.0049349999999999,-0.1272984999999999,0.043695,-0.311205,0.1674415,0.0497549999999999,-0.291215,-0.0998085,-0.2397749999999999,-0.143662,0.1020165,-0.2346549999999999,-0.128205,1
183,-0.0096025,0.6681900000000001,-0.106879,-0.1442525,0.46708,-0.142731,-0.2487924999999999,0.67762,-0.255345,0.1396974999999999,0.472441,-0.1194409999999999,0.2687275,0.68421,-0.2121259999999999,-0.3016025,0.91734,-0.338995,0.2996075,0.89303,-0.281055,-0.0771655,-0.0019899999999999,-0.0049249999999999,0.0771655,0.0019899999999999,0.0049249999999999,-0.1267225,0.01885,-0.311655,0.1666475,0.02543,-0.2921749999999999,-0.1004425,-0.26641,-0.144212,0.1015145,-0.2604999999999999,-0.1299239999999999,1
184,-0.0098944999999999,0.6694100000000001,-0.106632,-0.1434165,0.466895,-0.143076,-0.2483165,0.6794,-0.254765,0.1394035,0.47202,-0.1197869999999999,0.2687535,0.6840700000000001,-0.211506,-0.3014964999999999,0.9187,-0.338815,0.2997134999999999,0.89398,-0.2786849999999999,-0.0774565,-0.0021399999999999,-0.0048649999999999,0.0774565,0.00214,0.004865,-0.1260665,-0.0063999999999999,-0.311705,0.1657535,0.00055,-0.292335,-0.1008365,-0.29396,-0.144501,0.1010035,-0.2877099999999999,-0.13115,1
185,-0.010143,0.6715150000000001,-0.106228,-0.142756,0.465462,-0.143227,-0.248116,0.679965,-0.254055,0.139134,0.472078,-0.119809,0.268784,0.684315,-0.210684,-0.301496,0.919345,-0.337955,0.299174,0.889225,-0.276365,-0.077743,-0.0023849999999999,-0.004885,0.077743,0.002385,0.004885,-0.1254559999999999,-0.0309549999999999,-0.311655,0.164774,-0.0237949999999999,-0.292415,-0.101186,-0.321635,-0.144476,0.100478,-0.315805,-0.132061,1
186,-0.0102844999999999,0.6727000000000001,-0.1055099999999999,-0.1420825,0.46776,-0.143369,-0.2479724999999999,0.68089,-0.253415,0.1388375,0.47208,-0.119832,0.2680575,0.68466,-0.209898,-0.3015125,0.92092,-0.336795,0.2985075,0.8858600000000001,-0.273875,-0.0779985,-0.0018199999999999,-0.004905,0.0779985,0.0018199999999999,0.004905,-0.1248324999999999,-0.0555999999999999,-0.311045,0.1635675,-0.0480399999999999,-0.292505,-0.1018225,-0.35056,-0.144525,0.0998945,-0.3444599999999999,-0.132946,1
187,-0.0100339999999999,0.677605,-0.104518,-0.141436,0.468985,-0.143365,-0.247286,0.682665,-0.25299,0.139254,0.475295,-0.120119,0.268294,0.688125,-0.209452,-0.3010859999999999,0.921825,-0.33555,0.298164,0.889915,-0.27104,-0.077961,-0.001915,-0.0049099999999999,0.077961,0.001915,0.0049099999999999,-0.124006,-0.075075,-0.30981,0.162434,-0.067805,-0.2918699999999999,-0.1019159999999999,-0.376095,-0.144538,0.099742,-0.369615,-0.133718,1
188,-0.0097364999999999,0.679585,-0.102769,-0.1406365,0.4707249999999999,-0.142693,-0.2468064999999999,0.684095,-0.251975,0.1400335,0.479905,-0.119887,0.2686435,0.690905,-0.208243,-0.3005465,0.922615,-0.333455,0.2978135,0.894555,-0.268155,-0.0778335,-0.002095,-0.0047149999999999,0.0778335,0.002095,0.0047149999999999,-0.1229565,-0.096245,-0.306895,0.1611035,-0.089195,-0.289405,-0.1020964999999999,-0.4037349999999999,-0.143936,0.1001815,-0.3972449999999999,-0.135041,1
189,-0.0092074999999999,0.68538,-0.100218,-0.1401955,0.47182,-0.141208,-0.2468755,0.68607,-0.24996,0.1409145,0.48214,-0.118729,0.2692645,0.69408,-0.206108,-0.3002255,0.92552,-0.3293,0.2976245,0.8947,-0.26433,-0.0779795,-0.0025999999999999,-0.00464,0.0779795,0.0025999999999999,0.00464,-0.1220054999999999,-0.1123799999999999,-0.30296,0.1599745,-0.1055099999999999,-0.28537,-0.1020254999999999,-0.42694,-0.143089,0.1011025,-0.42101,-0.135582,1
190,-0.0087779999999999,0.689155,-0.095941,-0.14001,0.475295,-0.13828,-0.24637,0.686845,-0.245355,0.14159,0.485095,-0.116015,0.26973,0.6966749999999999,-0.202418,-0.29962,0.926395,-0.323585,0.29738,0.8935150000000001,-0.259435,-0.078016,-0.002195,-0.0050749999999999,0.078016,0.002195,0.0050749999999999,-0.12099,-0.1290549999999999,-0.296085,0.15821,-0.1225149999999999,-0.278255,-0.10219,-0.4509649999999999,-0.141432,0.10195,-0.4458649999999999,-0.134461,1
191,-0.0084985,0.6936,-0.0914369999999999,-0.1397935,0.4764199999999999,-0.13523,-0.2458334999999999,0.68823,-0.24031,0.1422965,0.49107,-0.1129039999999999,0.2697365,0.6999599999999999,-0.199106,-0.2992734999999999,0.92789,-0.31732,0.2972465,0.89436,-0.25414,-0.0780275,-0.0025499999999999,-0.0053899999999999,0.0780275,0.0025499999999999,0.00539,-0.1201335,-0.1439,-0.28883,0.1562664999999999,-0.13809,-0.27029,-0.1024235,-0.47305,-0.1394409999999999,0.1029865,-0.46844,-0.13326,1
192,-0.0075625,0.697385,-0.086787,-0.1389425,0.480575,-0.131819,-0.2447025,0.692455,-0.235305,0.1435274999999999,0.492895,-0.109696,0.2700674999999999,0.700835,-0.195494,-0.2984425,0.928775,-0.310655,0.2975275,0.897195,-0.248855,-0.0774825,-0.0020249999999999,-0.0057349999999999,0.0774825,0.0020249999999999,0.005735,-0.1185825,-0.1575249999999999,-0.280895,0.1551075,-0.152825,-0.261955,-0.1021325,-0.493475,-0.137936,0.1050975,-0.4900449999999999,-0.132116,1
193,-0.006963,0.702,-0.0820465,-0.138806,0.48312,-0.1280355,-0.244016,0.69548,-0.2299875,0.144464,0.4967499999999999,-0.1060775,0.270124,0.70313,-0.1915915,-0.297856,0.9326,-0.3034775,0.297454,0.90009,-0.2444775,-0.077097,-0.00193,-0.0056625,0.077097,0.0019299999999999,0.0056624999999999,-0.117576,-0.17038,-0.2721775,0.153474,-0.16663,-0.2528675,-0.102606,-0.51278,-0.1366785,0.106774,-0.51009,-0.1303285,1
194,-0.0061775,0.70536,-0.0772185,-0.1385625,0.48751,-0.1241955,-0.2430525,0.69957,-0.2245075,0.1456575,0.50004,-0.1023495,0.2702275,0.7044,-0.1877085,-0.2970725,0.93695,-0.2966375,0.2976475,0.90221,-0.2400175,-0.0766495,-0.0014399999999999,-0.0056124999999999,0.0766495,0.0014399999999999,0.0056125,-0.1162925,-0.18343,-0.2629475,0.1519975,-0.18019,-0.2432575,-0.1031324999999999,-0.53145,-0.1345495,0.1091574999999999,-0.5294599999999999,-0.1284805,1
195,-0.0052145,0.7105,-0.072745,-0.1380785,0.49039,-0.120633,-0.2420885,0.70313,-0.219828,0.1470815,0.50363,-0.099343,0.2705915,0.70696,-0.184047,-0.2960885,0.94066,-0.290168,0.2979015,0.90482,-0.235868,-0.0760464999999999,-0.0013299999999999,-0.005432,0.0760464999999999,0.0013299999999999,0.0054319999999999,-0.1146784999999999,-0.1945199999999999,-0.253638,0.1506315,-0.19216,-0.233478,-0.1033985,-0.54724,-0.131819,0.1117715,-0.54626,-0.126439,1
196,-0.0043374999999999,0.713915,-0.0684955,-0.1376585,0.494325,-0.1171405,-0.2408885,0.706495,-0.2150215,0.1481215,0.507745,-0.0963905,0.2709114999999999,0.708905,-0.1804744999999999,-0.2948984999999999,0.944175,-0.2840515,0.2979815,0.910725,-0.2320215,-0.0755145,-0.0010849999999999,-0.0052885,0.0755145,0.001085,0.0052885,-0.1128784999999999,-0.205845,-0.2434515,0.1489415,-0.203835,-0.2230815,-0.1036184999999999,-0.561765,-0.1283815,0.1141615,-0.561945,-0.1240435,1
197,-0.0034425,0.7186645,-0.0647075,-0.1372115,0.4982245,-0.1141764999999999,-0.2405415,0.7082145,-0.2107204999999999,0.1492685,0.5097445,-0.0940085,0.2714085,0.7104444999999999,-0.1774994999999999,-0.2944215,0.9452545,-0.2785705,0.2982585,0.9118145,-0.2286305,-0.0749425,-0.0011115,-0.0049984999999999,0.0749425,0.0011115,0.0049985,-0.1109415,-0.2164855,-0.2327405,0.1471085,-0.2139055,-0.2126405,-0.1035814999999999,-0.5755655,-0.1253544999999999,0.1158385,-0.5754655,-0.1208934999999999,1
198,-0.0021649999999999,0.7212935,-0.0610765,-0.136554,0.5034535,-0.1114165,-0.239254,0.7123035,-0.2068145,0.150776,0.5124135,-0.0919514999999999,0.271926,0.7116235,-0.1743945,-0.2926539999999999,0.9456135,-0.2741745,0.298786,0.9130035,-0.2254045,-0.074356,-0.0008634999999999,-0.0046665,0.074356,0.0008635,0.0046665,-0.1084439999999999,-0.2272165,-0.2206845,0.1453259999999999,-0.2243364999999999,-0.2017545,-0.103044,-0.5891065,-0.1224845,0.117896,-0.5886265,-0.1179095,1
199,-0.0012075,0.72611,-0.0581955,-0.1359044999999999,0.50627,-0.1093365,-0.2384744999999999,0.7172,-0.2045845,0.1521455,0.51458,-0.0905685,0.2723655,0.71373,-0.1723685,-0.2911445,0.94696,-0.2701345,0.2989655,0.9168,-0.2228245,-0.0741425,-0.0009829999999999,-0.0043585,0.0741425,0.0009829999999999,0.0043585,-0.1061745,-0.24034,-0.2097145,0.1434555,-0.23611,-0.1921945,-0.1022745,-0.6028,-0.1201165,0.1189655,-0.60106,-0.1156585,1
200,-0.0004719999999999,0.730027,-0.055742,-0.13551,0.511647,-0.107699,-0.23779,0.7237669999999999,-0.202737,0.1531799999999999,0.515757,-0.08951,0.2721,0.7158969999999999,-0.170616,-0.28981,0.947597,-0.266497,0.29883,0.919427,-0.220877,-0.073933,-0.000792,-0.0043289999999999,0.073933,0.000792,0.0043289999999999,-0.10398,-0.253763,-0.198307,0.1411,-0.248423,-0.182137,-0.10162,-0.6165630000000001,-0.117939,0.11968,-0.6139330000000001,-0.112842,1
201,-0.0003059999999999,0.7337425000000001,-0.0504685,-0.135602,0.5138425,-0.1030465,-0.238132,0.7250925,-0.1981605,0.153628,0.5174725,-0.0853105,0.272238,0.7175225000000001,-0.1658645,-0.289482,0.9526625,-0.2589205,0.298008,0.9196725,-0.2159105,-0.074042,-0.0009965,-0.0041515,0.074042,0.0009965,0.0041515,-0.102322,-0.2668675,-0.1836205,0.138178,-0.2606275,-0.1683974999999999,-0.101522,-0.6298674999999999,-0.1106035,0.119618,-0.6267475,-0.1055504999999999,1
202,-0.0006624999999999,0.7304714999999999,-0.03964,-0.1368105,0.5165315,-0.09289,-0.2391105,0.7266414999999999,-0.188114,0.1538095,0.5156915,-0.075617,0.2709195,0.7146414999999999,-0.155391,-0.2892405,0.9506415,-0.245874,0.2957495,0.9161015,-0.204674,-0.0740615,-0.0009005,-0.003777,0.0740615,0.0009005,0.0037769999999999,-0.1005705,-0.2860685,-0.161572,0.1328395,-0.2790885,-0.146067,-0.1020905,-0.6493485,-0.096885,0.1189695,-0.6458385,-0.09083,1
203,-0.0010069999999999,0.7281749999999999,-0.0291535,-0.1381649999999999,0.519195,-0.0828605,-0.2404349999999999,0.728055,-0.1789045,0.153855,0.513655,-0.0661375,0.2698149999999999,0.712035,-0.1453365,-0.289265,0.948635,-0.2329345,0.293425,0.913385,-0.1933145,-0.0740639999999999,-0.0008259999999999,-0.0032965,0.0740639999999999,0.000826,0.0032965,-0.0988149999999999,-0.303315,-0.1401005,0.127555,-0.296205,-0.1244725,-0.102475,-0.667065,-0.0825705,0.118295,-0.663115,-0.0759925,1
204,-0.0014994999999999,0.7242805,-0.018882,-0.1395945,0.5209505,-0.072978,-0.2415545,0.7287305,-0.168809,0.1536155,0.5114205,-0.056484,0.2686455,0.7087905,-0.135465,-0.2893245,0.9459905,-0.220209,0.2909555,0.9114305,-0.182829,-0.0738745,-0.0008625,-0.002817,0.0738745,0.0008624999999999,0.002817,-0.0973644999999999,-0.3187995,-0.118988,0.1221155,-0.3118395,-0.103368,-0.1029745,-0.6830495,-0.068058,0.1170055,-0.6788995,-0.060518,1
205,-0.001987,0.7212704999999999,-0.008587,-0.141019,0.5214705,-0.0629,-0.242819,0.7292905,-0.158671,0.1532509999999999,0.5083504999999999,-0.046677,0.267401,0.7056604999999999,-0.125365,-0.289449,0.9443705,-0.207281,0.288771,0.9050405,-0.1718009999999999,-0.073809,-0.0008654999999999,-0.0024069999999999,0.073809,0.0008654999999999,0.0024069999999999,-0.095959,-0.3322795,-0.098045,0.117031,-0.3246394999999999,-0.082852,-0.103189,-0.6971695,-0.052594,0.115601,-0.6928295000000001,-0.044798,1
206,-0.0026855,0.7172825,0.001865,-0.1423865,0.5215525000000001,-0.052514,-0.2442165,0.7313025000000001,-0.148476,0.1527635,0.5063125,-0.036694,0.2661035,0.7034125,-0.115078,-0.2897865,0.9448525,-0.193946,0.2865335,0.9025625,-0.160246,-0.0737055,-0.0006024999999999,-0.0020069999999999,0.0737055,0.0006024999999999,0.002007,-0.0946475,-0.3441675,-0.077738,0.1121935,-0.3346775,-0.062722,-0.1032065,-0.7092075,-0.037663,0.1135035,-0.7041075,-0.028734,1
207,-0.0035374999999999,0.7131105,0.0124335,-0.1437945,0.5218205,-0.0420365,-0.2455745,0.7317305000000001,-0.1381455,0.1522455,0.5042905,-0.0265595,0.2647155,0.7005505,-0.1046225,-0.2903645,0.9461005,-0.1805655,0.2841855,0.9006005,-0.1485855,-0.0737415,-0.0004204999999999,-0.0015945,0.0737415,0.0004205,0.0015944999999999,-0.0934305,-0.3558794999999999,-0.0580805,0.1077255,-0.3442695,-0.0425315,-0.1033045,-0.7210495,-0.0233495,0.1112855,-0.7147695,-0.0124745,1
208,-0.004425,0.7087755,0.0230195,-0.145199,0.5220155000000001,-0.0313695,-0.247009,0.7323455,-0.1278555,0.1517309999999999,0.5023455,-0.0163555,0.263411,0.6974755,-0.0940825,-0.2909489999999999,0.9474355,-0.1673454999999999,0.281521,0.8988855,-0.1368955,-0.0739259999999999,-0.0003335,-0.0011625,0.0739259999999999,0.0003335,0.0011625,-0.092274,-0.3678245,-0.0387125,0.103681,-0.3538645,-0.0220695,-0.103459,-0.7330544999999999,-0.0089015,0.109071,-0.7253045,0.0037725,0
209,-0.0054785,0.7045125,0.0336739999999999,-0.1466945,0.5206325,-0.02081,-0.2487945,0.7315025,-0.117851,0.1509255,0.4994825,-0.005869,0.2620555,0.6941225,-0.083436,-0.2918145,0.9494825,-0.154471,0.2786955,0.8977425,-0.125401,-0.0740735,-0.0001945,-0.000609,0.0740735,0.0001945,0.0006089999999999,-0.0912745,-0.3789375,-0.019746,0.1001484999999999,-0.3641275,-0.002576,-0.1039345,-0.7447775,0.0054069999999999,0.1067554999999999,-0.7362175,0.01945,0
210,-0.0061325,0.7000245,0.0413325,-0.1477475,0.5201945,-0.0133794999999999,-0.2501175,0.7311145,-0.1111025,0.1503425,0.4975445,0.0012584999999999,0.2612025,0.6910045,-0.0758635,-0.2922075,0.9458245,-0.1458424999999999,0.2764125,0.8968245,-0.1170625,-0.0739445,-0.0001494999999999,-0.0002944999999999,0.0739445,0.0001495,0.0002944999999999,-0.0900765,-0.3897155,-0.0049095,0.0971054999999999,-0.3738754999999999,0.0128475,-0.1040675,-0.7559955,0.0158965,0.1049425,-0.7463855,0.0315205,0
211,-0.006353,0.701817,0.042971,-0.147691,0.520427,-0.011813,-0.250131,0.731487,-0.109379,0.150129,0.498757,0.002478,0.260719,0.6920769999999999,-0.074268,-0.2924009999999999,0.946477,-0.143319,0.275509,0.897737,-0.115059,-0.073809,-0.0001619999999999,-0.000257,0.073809,0.0001619999999999,0.000257,-0.089048,-0.390293,0.00193,0.096479,-0.3744229999999999,0.018726,-0.104081,-0.757163,0.018986,0.104239,-0.7470530000000001,0.0351729999999999,0
