sb224sc-HT22-VT27/4dt907/src/ml-research/a11/datafiles/labeled_files/B20_kinect.csv
FrameNo,nose_3d_x,nose_3d_y,nose_3d_z,left_shoulder_3d_x,left_shoulder_3d_y,left_shoulder_3d_z,left_elbow_3d_x,left_elbow_3d_y,left_elbow_3d_z,right_shoulder_3d_x,right_shoulder_3d_y,right_shoulder_3d_z,right_elbow_3d_x,right_elbow_3d_y,right_elbow_3d_z,left_wrist_3d_x,left_wrist_3d_y,left_wrist_3d_z,right_wrist_3d_x,right_wrist_3d_y,right_wrist_3d_z,left_hip_3d_x,left_hip_3d_y,left_hip_3d_z,right_hip_3d_x,right_hip_3d_y,right_hip_3d_z,left_knee_3d_x,left_knee_3d_y,left_knee_3d_z,right_knee_3d_x,right_knee_3d_y,right_knee_3d_z,left_ankle_3d_x,left_ankle_3d_y,left_ankle_3d_z,right_ankle_3d_x,right_ankle_3d_y,right_ankle_3d_z,activity_label
0,-0.010025,0.759159,0.055927,-0.176653,0.475569,0.008071,-0.2215829999999999,0.223959,-0.0158929999999999,0.151957,0.4825689999999999,0.014279,0.185477,0.2488189999999999,-0.0599079999999999,-0.207143,0.035146,-0.092533,0.122067,0.330419,-0.230353,-0.073147,-0.002568,0.000362,0.073147,0.002568,-0.000362,-0.098726,-0.338361,0.02254,0.091759,-0.342551,0.045275,-0.106583,-0.662001,0.063641,0.090288,-0.664161,0.067889,0
1,-0.0100845,0.7591665,0.0559935,-0.1766435,0.4754865,0.0079285,-0.2217635,0.2242765,-0.0158805,0.1519665,0.4826065,0.0142995,0.1856165,0.2491965,-0.0600005,-0.2071135,0.0350035,-0.0925214999999999,0.1219364999999999,0.3304365,-0.2305315,-0.0731565,-0.0025685,0.0003565,0.0731565,0.0025685,-0.0003564999999999,-0.0987385,-0.3383835,0.0226095,0.0917635,-0.3427635,0.0455205,-0.1065835,-0.6616735,0.0633035,0.0901034999999999,-0.6645235,0.0680215,0
2,-0.0100695,0.7591225,0.0558474999999999,-0.1766095,0.4754124999999999,0.0077494999999999,-0.2218495,0.2241325,-0.0159335,0.1520205,0.4825224999999999,0.0142254999999999,0.1851305,0.2499424999999999,-0.0619915,-0.2075094999999999,0.0372695,-0.0921315,0.1212405,0.3313224999999999,-0.2323715,-0.0731634999999999,-0.0025645,0.0003844999999999,0.0731634999999999,0.0025645,-0.0003845,-0.0987135,-0.3384075,0.0226184999999999,0.0917765,-0.3425375,0.0454215,-0.1064695,-0.6622275,0.0632954999999999,0.0901535,-0.6645275,0.0679874999999999,0
3,-0.010062,0.759111,0.055926,-0.177147,0.475521,0.007938,-0.221887,0.224271,-0.0158909999999999,0.152053,0.482531,0.014318,0.192783,0.239761,-0.0342559999999999,-0.207247,0.03641,-0.092199,0.129643,0.320321,-0.211379,-0.073154,-0.002583,0.000438,0.073154,0.002583,-0.000438,-0.098713,-0.3381889999999999,0.022596,0.0917969999999999,-0.342549,0.045443,-0.1065369999999999,-0.662189,0.063367,0.090176,-0.664449,0.068016,0
4,-0.0101275,0.759131,0.0559245,-0.1770785,0.475541,0.0078065,-0.2218385,0.223971,-0.0159194999999999,0.1521715,0.482521,0.0142795,0.1872615,0.247931,-0.0534515,-0.2071885,0.034947,-0.0920314999999999,0.1242615,0.327381,-0.2251415,-0.0731695,-0.00259,0.0004695,0.0731695,0.00259,-0.0004694999999999,-0.0987135,-0.338319,0.0226475,0.0918105,-0.342039,0.0455405,-0.1064685,-0.661639,0.0634335,0.0902115,-0.664329,0.0680075,0
5,-0.010153,0.7591205000000001,0.055955,-0.177111,0.4755005,0.0078299999999999,-0.221841,0.2243005,-0.016073,0.1515389999999999,0.4829004999999999,0.0143089999999999,0.166729,0.2713405,-0.1096969999999999,-0.207181,0.0348825,-0.091957,0.097718,0.3534905,-0.2775069999999999,-0.0731739999999999,-0.0026014999999999,0.0004629999999999,0.0731739999999999,0.0026014999999999,-0.000463,-0.09878,-0.3381395,0.0226059999999999,0.0917719999999999,-0.3424895,0.045603,-0.106651,-0.6621695,0.064277,0.090031,-0.6653095,0.068148,0
6,-0.0103139999999999,0.7591105,0.0559065,-0.177075,0.4755105,0.0077464999999999,-0.221865,0.2243504999999999,-0.0161305,0.150835,0.4832504999999999,0.0143344999999999,0.167005,0.2709405,-0.1092065,-0.207165,0.0348705,-0.0919465,0.09801,0.3531605,-0.2769865,-0.073181,-0.0026055,0.0004504999999999,0.073181,0.0026055,-0.0004505,-0.098741,-0.3382495,0.0226805,0.091794,-0.3425895,0.0455644999999999,-0.106655,-0.6628995,0.0639445,0.089881,-0.6659595,0.0677845,0
7,-0.0103325,0.7590899999999999,0.055959,-0.1770955,0.4755,0.00779,-0.2217255,0.2239,-0.0160089999999999,0.1513044999999999,0.48323,0.014664,0.1840844999999999,0.25059,-0.064439,-0.2070855,0.034883,-0.091859,0.1200644999999999,0.3349399999999999,-0.2359589999999999,-0.0731874999999999,-0.002616,0.000492,0.0731874999999999,0.002616,-0.0004919999999999,-0.0987105,-0.33826,0.022854,0.0918074999999999,-0.34289,0.04559,-0.1066355,-0.6620900000000001,0.063831,0.0900505,-0.66538,0.067932,0
8,-0.0103814999999999,0.7590865,0.055959,-0.1771095,0.4755065,0.007783,-0.2217295,0.2237565,-0.016041,0.1511405,0.4833865,0.014737,0.1842505,0.2502165,-0.063417,-0.2070695,0.0347755,-0.0917969999999999,0.1204805,0.3344665,-0.2350769999999999,-0.0731914999999999,-0.0026225,0.0005,0.0731914999999999,0.0026225,-0.0004999999999999,-0.0986914999999999,-0.3382735,0.02292,0.0918134999999999,-0.3429635,0.045625,-0.1066495,-0.6620835,0.0639,0.0900405,-0.6654335,0.067911,0
9,-0.0104164999999999,0.7590795,0.0559535,-0.1771075,0.4755195,0.0078235,-0.2217275,0.2236095,-0.0160644999999999,0.1510125,0.4835394999999999,0.0148145,0.1848225,0.2493795,-0.0613014999999999,-0.2070374999999999,0.0346755,-0.0917365,0.1213025,0.3334695,-0.2331464999999999,-0.0731945,-0.0026284999999999,0.0005065,0.0731945,0.0026284999999999,-0.0005065,-0.0986634999999999,-0.3382805,0.0229755,0.0918235,-0.3430205,0.0456475,-0.1066475,-0.6620805000000001,0.0639995,0.0900445,-0.6654905,0.0678925,0
10,-0.0104675,0.7590425,0.0559279999999999,-0.1770945,0.4755425,0.0078719999999999,-0.2217145,0.2234925,-0.01606,0.1509255,0.4836425,0.0148909999999999,0.1850055,0.2491325,-0.060445,-0.2070045,0.0345745,-0.091669,0.1216355,0.3330425,-0.232429,-0.0731975,-0.0026365,0.0005019999999999,0.0731975,0.0026365,-0.000502,-0.0986335,-0.3382875,0.0230299999999999,0.0918365,-0.3431375,0.0456819999999999,-0.1066545,-0.6620475,0.064062,0.0900595,-0.6654975000000001,0.067884,0
11,-0.010503,0.759018,0.0559039999999999,-0.177061,0.475568,0.0079159999999999,-0.221691,0.223338,-0.016049,0.1508789999999999,0.483738,0.0149559999999999,0.184549,0.249898,-0.062078,-0.206971,0.034472,-0.091596,0.120999,0.333798,-0.234006,-0.0732,-0.002642,0.0004979999999999,0.0732,0.002642,-0.000498,-0.098602,-0.338322,0.0230919999999999,0.091849,-0.343242,0.0457159999999999,-0.106651,-0.662002,0.064112,0.090073,-0.665492,0.0679269999999999,0
12,-0.010533,0.758981,0.0558574999999999,-0.177056,0.4755609999999999,0.0078834999999999,-0.221666,0.223191,-0.0160405,0.150864,0.483801,0.0149894999999999,0.1844739999999999,0.249971,-0.0623795,-0.206936,0.034364,-0.0915484999999999,0.120944,0.333881,-0.2343084999999999,-0.0732,-0.002647,0.0004914999999999,0.0732,0.002647,-0.0004915,-0.098567,-0.338339,0.0231294999999999,0.091861,-0.343309,0.0457434999999999,-0.106646,-0.661999,0.0641384999999999,0.090089,-0.665489,0.0679444999999999,0
13,-0.0105745,0.7589144999999999,0.0557685,-0.1770495,0.4755545,0.0078335,-0.2216395,0.2230245,-0.0160355,0.1508804999999999,0.4838545,0.0150134999999999,0.1858604999999999,0.2484545,-0.0579085,-0.2068895,0.0342495,-0.0915095,0.1236905,0.3305845,-0.2288595,-0.0731985,-0.0026505,0.0004764999999999,0.0731985,0.0026505,-0.0004764999999999,-0.0985235,-0.3383755,0.0231685,0.0918795,-0.3433755,0.0457625,-0.1066395,-0.6619855,0.0641025,0.0901055,-0.6655355000000001,0.0679635,0
14,-0.0106205,0.7588365,0.05566,-0.1770545,0.4755465,0.007786,-0.2216145,0.2228665,-0.016033,0.1508555,0.4839465,0.015028,0.1867155,0.2475065,-0.055172,-0.2068545,0.0341075,-0.091475,0.1246555,0.3279765,-0.225475,-0.0731955,-0.0026535,0.000466,0.0731955,0.0026535,-0.000466,-0.0984905,-0.3384034999999999,0.023216,0.0918975,-0.3434335,0.045777,-0.1066345,-0.6619435,0.064069,0.0901425,-0.6655035,0.067979,0
15,-0.0106725,0.7587395,0.055515,-0.1770495,0.4755495,0.007793,-0.2215895,0.2227895,-0.016027,0.1508205,0.4839795,0.015044,0.1873304999999999,0.2467895,-0.0529489999999999,-0.2068195,0.0340045,-0.091429,0.1255504999999999,0.3265995,-0.223139,-0.0731925,-0.0026565,0.000456,0.0731925,0.0026565,-0.0004559999999999,-0.0984485,-0.3384605,0.023265,0.0919045,-0.3434605,0.045795,-0.1066295,-0.6619205,0.064036,0.0901815,-0.6654705,0.068009,0
16,-0.0107354999999999,0.7586525,0.0553725,-0.1770555,0.4755324999999999,0.0078045,-0.2215755,0.2226925,-0.0160254999999999,0.1507745,0.4840124999999999,0.0150585,0.1876045,0.2466725,-0.0517045,-0.2067955,0.0338575,-0.0914064999999999,0.1261445,0.3256325,-0.2224364999999999,-0.0731905,-0.0026595,0.0004504999999999,0.0731905,0.0026595,-0.0004504999999999,-0.0984355,-0.3384675,0.0232905,0.0919115,-0.3434875,0.0458115,-0.1066555,-0.6619075,0.0640465,0.0902325,-0.6654375,0.0680395,0
17,-0.0107965,0.758556,0.0552365,-0.1770735,0.475516,0.0078125,-0.2215535,0.2226159999999999,-0.0160164999999999,0.1507065,0.484066,0.0150885,0.1884765,0.245866,-0.0489274999999999,-0.2067635,0.033679,-0.0913854999999999,0.1272865,0.324156,-0.2201154999999999,-0.0731895,-0.002665,0.0004515,0.0731895,0.002665,-0.0004515,-0.0984195,-0.338484,0.0233445,0.0919175,-0.343514,0.0458325,-0.1066735,-0.661934,0.0640785,0.0902815,-0.665404,0.0680815,0
18,-0.0108755,0.7584515000000001,0.0550715,-0.1771255,0.4754715,0.0077765,-0.2215455,0.2225215,-0.0160074999999999,0.1506545,0.4841115,0.0150955,0.1886344999999999,0.2457315,-0.0487335,-0.2067355,0.0335335,-0.0913634999999999,0.1275145,0.3240115,-0.2200835,-0.0731874999999999,-0.0026705,0.0004515,0.0731874999999999,0.0026705,-0.0004514999999999,-0.0984055,-0.3384985,0.0233925,0.0919194999999999,-0.3435884999999999,0.0458565,-0.1066955,-0.6619685,0.0640905,0.0903205,-0.6653985,0.0681315,0
19,-0.0109495,0.7583665,0.054914,-0.1772195,0.4754265,0.0077449999999999,-0.2215295,0.2224064999999999,-0.0160099999999999,0.1506705,0.4841165,0.015103,0.1891905,0.2450165,-0.046828,-0.2067095,0.0333575,-0.091336,0.1282905,0.3231265,-0.218656,-0.0731855,-0.0026745,0.000461,0.0731855,0.0026745,-0.000461,-0.0983895,-0.3385135,0.0234079999999999,0.0919235,-0.3436735,0.045879,-0.1067295,-0.6620435,0.064101,0.0903505,-0.6653935,0.068176,0
20,-0.0110409999999999,0.7582515,0.0547135,-0.177315,0.4753815,0.0077484999999999,-0.2215249999999999,0.2222815,-0.0160034999999999,0.150695,0.4841015,0.0151055,0.1893949999999999,0.2445314999999999,-0.0457695,-0.206675,0.0331814999999999,-0.0913355,0.128795,0.3225915,-0.2178054999999999,-0.073186,-0.0026775,0.0004764999999999,0.073186,0.0026775,-0.0004764999999999,-0.098329,-0.3385485,0.0234315,0.091924,-0.3437484999999999,0.0459025,-0.106755,-0.6620885000000001,0.0641065,0.090357,-0.6653885,0.0682165,0
21,-0.0111215,0.7580925,0.0544675,-0.1774415,0.4753325,0.0077085,-0.2215315,0.2221825,-0.0159944999999999,0.1507285,0.4840725,0.0151275,0.1893185,0.2445425,-0.0456014999999999,-0.2066415,0.0330415,-0.0913475,0.1288985,0.3224825,-0.2180175,-0.0731874999999999,-0.0026785,0.0004924999999999,0.0731874999999999,0.0026785,-0.0004924999999999,-0.0982835,-0.3385475,0.0234605,0.0919214999999999,-0.3437875,0.0459405,-0.1067815,-0.6620675,0.0640845,0.0903605,-0.6654375,0.0682655,0
22,-0.0111865,0.7579705,0.054243,-0.1775765,0.4752705,0.0077049999999999,-0.2215265,0.2221604999999999,-0.015976,0.1507735,0.4840305,0.0151519999999999,0.1893135,0.2445405,-0.045492,-0.2066164999999999,0.0330395,-0.0913559999999999,0.1289834999999999,0.3223904999999999,-0.218086,-0.0731885,-0.0026785,0.0005069999999999,0.0731885,0.0026785,-0.000507,-0.0982355,-0.3385895,0.0234929999999999,0.0919255,-0.3438095,0.045977,-0.1067965,-0.6621794999999999,0.064092,0.0903645,-0.6655295,0.0683159999999999,0
23,-0.011255,0.757841,0.054027,-0.177691,0.475201,0.0077799999999999,-0.221531,0.222171,-0.015969,0.150809,0.484021,0.015119,0.189909,0.244051,-0.043779,-0.206591,0.03304,-0.091381,0.129499,0.321741,-0.217251,-0.073189,-0.002678,0.000523,0.073189,0.002678,-0.000523,-0.098198,-0.338619,0.023528,0.091924,-0.343829,0.04602,-0.106801,-0.662289,0.064116,0.090369,-0.665649,0.0683759999999999,0
24,-0.0113174999999999,0.757715,0.0538324999999999,-0.1778545,0.475185,0.0078164999999999,-0.2215245,0.222175,-0.0159745,0.1507755,0.484045,0.0150804999999999,0.1900955,0.243985,-0.0431105,-0.2065245,0.033044,-0.0914605,0.1296155,0.321625,-0.2173005,-0.0731894999999999,-0.002681,0.0005444999999999,0.0731894999999999,0.002681,-0.0005445,-0.0981404999999999,-0.338665,0.0235764999999999,0.0919195,-0.3438549999999999,0.0460634999999999,-0.1068045,-0.662415,0.0641424999999999,0.0903725,-0.6657649999999999,0.0684255,0
25,-0.0113754999999999,0.7575890000000001,0.0536185,-0.1780165,0.475179,0.0078465,-0.2215165,0.222179,-0.0159914999999999,0.1507035,0.484089,0.0150405,0.1902635,0.243959,-0.0427754999999999,-0.2064565,0.033449,-0.0917175,0.1297635,0.321439,-0.2171374999999999,-0.0731894999999999,-0.0026839999999999,0.0005585,0.0731894999999999,0.0026839999999999,-0.0005584999999999,-0.0980834999999999,-0.338701,0.0236315,0.0919055,-0.343931,0.0460825,-0.1068165,-0.6627109999999999,0.0641705,0.0903745,-0.665861,0.0684795,0
26,-0.0114365,0.7574535,0.053409,-0.1781495,0.4751634999999999,0.0078799999999999,-0.2215295,0.2222135,-0.016016,0.1506404999999999,0.4841135,0.0149949999999999,0.1902605,0.2439635,-0.042718,-0.2062995,0.0338925,-0.0922,0.1297605,0.3214435,-0.21708,-0.0731904999999999,-0.0026885,0.0005719999999999,0.0731904999999999,0.0026885,-0.000572,-0.0980284999999999,-0.3387665,0.0236859999999999,0.0918885,-0.3440065,0.0461029999999999,-0.1068395,-0.6629965,0.0642059999999999,0.0903634999999999,-0.6659765,0.0685109999999999,0
27,-0.0114925,0.7573155,0.053248,-0.1782145,0.4751654999999999,0.007985,-0.2215845,0.2225055,-0.0159889999999999,0.1505854999999999,0.4841554999999999,0.014966,0.1902555,0.2439655,-0.042641,-0.2062445,0.0344115,-0.092973,0.1297555,0.3214455,-0.217003,-0.0731914999999999,-0.0026945,0.000594,0.0731914999999999,0.0026945,-0.0005939999999999,-0.0979965,-0.3387845,0.023766,0.0918785,-0.3440045,0.046139,-0.1068445,-0.6632445,0.064299,0.0903505,-0.6661144999999999,0.068576,0
28,-0.0115415,0.7571885,0.053142,-0.1782625,0.4751685,0.008128,-0.2216925,0.2228585,-0.0158959999999999,0.1505375,0.4841885,0.014945,0.1902475,0.2439685,-0.0425419999999999,-0.2061724999999999,0.0351135,-0.0942239999999999,0.1293375,0.3222085,-0.218404,-0.0731914999999999,-0.0027004999999999,0.000618,0.0731914999999999,0.0027004999999999,-0.0006179999999999,-0.0980055,-0.3387815,0.023851,0.0918565,-0.3439514999999999,0.046192,-0.1068625,-0.6634115,0.064425,0.0903065,-0.6662315,0.068634,0
29,-0.0115719999999999,0.757089,0.0531185,-0.178304,0.475179,0.0082925,-0.2218639999999999,0.2235089999999999,-0.0157814999999999,0.150486,0.484209,0.0149465,0.190156,0.244899,-0.0446105,-0.206044,0.037502,-0.0965505,0.129426,0.323279,-0.2198204999999999,-0.073194,-0.002705,0.0006304999999999,0.073194,0.002705,-0.0006304999999999,-0.0980109999999999,-0.338781,0.0238775,0.091831,-0.3439509999999999,0.0462585,-0.106884,-0.663551,0.0645815,0.090256,-0.6664110000000001,0.0687035,0
30,-0.0116055,0.7570135,0.053221,-0.1783135,0.4751935,0.0084739999999999,-0.2221334999999999,0.2243835,-0.015674,0.1504165,0.4842335,0.01499,0.1902964999999999,0.2458435,-0.046388,-0.2059135,0.0409934999999999,-0.099707,0.1295065,0.3243835,-0.221267,-0.0732005,-0.0027065,0.00066,0.0732005,0.0027065,-0.00066,-0.0980135,-0.3387865,0.023886,0.0918105,-0.3439965,0.046322,-0.1069135,-0.6637565,0.064728,0.0902095,-0.6665165000000001,0.068796,0
31,-0.0116355,0.7569305000000001,0.0533495,-0.1783315,0.4752305,0.0086065,-0.2225715,0.2258605,-0.0155604999999999,0.1503485,0.4842705,0.0149945,0.1907485,0.2460804999999999,-0.0446154999999999,-0.2057415,0.0455405,-0.1036275,0.1298885,0.3251104999999999,-0.2216475,-0.0732085,-0.0027125,0.0006965,0.0732085,0.0027125,-0.0006964999999999,-0.0980135,-0.3387995,0.0238855,0.0917885,-0.3440595,0.0463735,-0.1069315,-0.6639094999999999,0.0648495,0.0901815,-0.6665295,0.0688975,0
32,-0.0116535,0.756838,0.0534759999999999,-0.1783305,0.475308,0.0087419999999999,-0.2231005,0.228348,-0.015528,0.1503095,0.484298,0.0150729999999999,0.1909795,0.247008,-0.043501,-0.2056705,0.0518249999999999,-0.10931,0.1302495,0.325098,-0.22218,-0.0732095,-0.002716,0.0007319999999999,0.0732095,0.002716,-0.000732,-0.0980685,-0.338752,0.0238599999999999,0.0917705,-0.344122,0.0464249999999999,-0.1069405,-0.664062,0.0649609999999999,0.0901815,-0.6665420000000001,0.0689849999999999,0
33,-0.0116655,0.7567755,0.0535775,-0.1783305,0.4753954999999999,0.0089144999999999,-0.2237005,0.2321055,-0.0155184999999999,0.1499895,0.4848155,0.0150595,0.1917795,0.2473955,-0.0405935,-0.2068205,0.0618084999999999,-0.1169075,0.1323895,0.3254855,-0.2227575,-0.0732095,-0.0027255,0.0007425,0.0732095,0.0027255,-0.0007425,-0.0981275,-0.3387045,0.0238075,0.0917615,-0.3441945,0.0464505,-0.1069405,-0.6641444999999999,0.0650594999999999,0.0901805,-0.6665645,0.0690535,0
34,-0.0116735,0.7567145,0.0536905,-0.1782865,0.4755145,0.0090755,-0.2246865,0.2367645,-0.0155835,0.1494734999999999,0.4853645,0.0149665,0.1933635,0.2484245,-0.0392645,-0.2089565,0.0735835,-0.1254664999999999,0.1350735,0.3266644999999999,-0.2237565,-0.0732125,-0.0027375,0.0007394999999999,0.0732125,0.0027375,-0.0007394999999999,-0.0981935,-0.3386555,0.0237455,0.0917675,-0.3442155,0.0464824999999999,-0.1069165,-0.6641655,0.0651665,0.0901775,-0.6665455,0.0691075,0
35,-0.011679,0.7566755,0.0538745,-0.178244,0.4757255,0.0092114999999999,-0.226004,0.2428855,-0.0154634999999999,0.1485959999999999,0.4860155,0.0148214999999999,0.195546,0.2493355,-0.0370905,-0.211924,0.0890275,-0.1367915,0.1412159999999999,0.3276755,-0.2237215,-0.0732309999999999,-0.0027375,0.0007184999999999,0.0732309999999999,0.0027375,-0.0007185,-0.0982359999999999,-0.3386145,0.0236634999999999,0.091781,-0.3442445,0.0465085,-0.106884,-0.6641845,0.0652425,0.0901899999999999,-0.6666445,0.0691825,0
36,-0.0116755,0.756662,0.0541745,-0.1781045,0.476082,0.0093484999999999,-0.2273945,0.249992,-0.0156805,0.1466955,0.486542,0.0146954999999999,0.1980855,0.250972,-0.0357465,-0.2163445,0.1077719999999999,-0.1494285,0.1472854999999999,0.331232,-0.2248085,-0.0732525,-0.002737,0.0006854999999999,0.0732525,0.002737,-0.0006855,-0.0982675,-0.338538,0.0235434999999999,0.0918255,-0.344248,0.0465045,-0.1068145,-0.664198,0.0652885,0.0902365,-0.666718,0.0692305,0
37,-0.0116599999999999,0.7566495,0.054568,-0.177919,0.4765795,0.0095199999999999,-0.229209,0.2576095,-0.01659,0.145031,0.4869495,0.0146239999999999,0.201681,0.2520794999999999,-0.037127,-0.2216989999999999,0.1265995,-0.161642,0.155491,0.3357794999999999,-0.225842,-0.073286,-0.0027385,0.0006519999999999,0.073286,0.0027385,-0.0006519999999999,-0.098262,-0.3384705,0.0234389999999999,0.091915,-0.3442605,0.046488,-0.106729,-0.6640805,0.065326,0.090327,-0.6667905,0.069248,0
38,-0.01165,0.7566305,0.055102,-0.177752,0.4770804999999999,0.0096359999999999,-0.232162,0.2654304999999999,-0.018876,0.144038,0.4870605,0.0145789999999999,0.208358,0.2536604999999999,-0.040152,-0.228412,0.1454405,-0.174921,0.1646679999999999,0.3398704999999999,-0.226731,-0.0733379999999999,-0.0027355,0.0006349999999999,0.0733379999999999,0.0027355,-0.000635,-0.09822,-0.3384295,0.023396,0.092037,-0.3442795,0.046465,-0.106602,-0.6639695,0.065336,0.090449,-0.6667995,0.069251,0
39,-0.0116635,0.7566355,0.0557869999999999,-0.1775095,0.4775955,0.0097349999999999,-0.2363995,0.2734555,-0.023626,0.1432105,0.4870455,0.0145459999999999,0.2161705,0.2556555,-0.04351,-0.2361895,0.1691955,-0.189697,0.1760005,0.3468755,-0.227717,-0.0733995,-0.0027205,0.0006149999999999,0.0733995,0.0027205,-0.000615,-0.0981735,-0.3383545,0.0233809999999999,0.0921805,-0.3442645,0.0464029999999999,-0.1064595,-0.6638445,0.065332,0.0905735,-0.6667945,0.069271,0
40,-0.0117145,0.756663,0.05662,-0.1772465,0.478163,0.009738,-0.2435465,0.282153,-0.0322169999999999,0.1427935,0.487023,0.0145719999999999,0.2258135,0.260003,-0.044405,-0.2444365,0.201233,-0.207548,0.1886035,0.355923,-0.2286679999999999,-0.0734775,-0.002708,0.000584,0.0734775,0.002708,-0.000584,-0.0980785,-0.3382869999999999,0.023376,0.0923664999999999,-0.344167,0.046354,-0.1062565,-0.663757,0.065325,0.0907355,-0.666737,0.069286,0
41,-0.0118515,0.7567554999999999,0.057633,-0.1770485,0.4787355,0.009713,-0.2508385,0.2905555,-0.0408819999999999,0.1424615,0.4870055,0.014901,0.2359815,0.2661155,-0.0441109999999999,-0.2538585,0.2374655,-0.2239979999999999,0.2020015,0.3700255,-0.2286079999999999,-0.0735585,-0.0026905,0.0005199999999999,0.0735585,0.0026905,-0.0005199999999999,-0.0979645,-0.3382345,0.023348,0.0925705,-0.3440944999999999,0.046309,-0.1060485,-0.6636545,0.065315,0.0909245,-0.6667545,0.069276,0
42,-0.0120529999999999,0.7569005000000001,0.0588559999999999,-0.17685,0.4793205,0.0096239999999999,-0.25883,0.2995105,-0.049908,0.14244,0.4867705,0.0152019999999999,0.24726,0.2752205,-0.046092,-0.26258,0.2744105,-0.238682,0.21485,0.3875205,-0.228312,-0.073641,-0.0026665,0.0004259999999999,0.073641,0.0026665,-0.000426,-0.097839,-0.3381895,0.0233079999999999,0.092799,-0.3440795,0.046296,-0.10583,-0.6635295,0.065243,0.091134,-0.6667595,0.069241,0
43,-0.012277,0.757124,0.0602285,-0.176599,0.479884,0.0095205,-0.267339,0.309934,-0.0608395,0.1426609999999999,0.486174,0.0155245,0.257941,0.286944,-0.0484254999999999,-0.270719,0.315304,-0.2523645,0.227571,0.4095439999999999,-0.2266444999999999,-0.0737309999999999,-0.002619,0.0003125,0.0737309999999999,0.002619,-0.0003125,-0.09767,-0.338136,0.0232665,0.0930719999999999,-0.344126,0.0462855,-0.1055889999999999,-0.663416,0.0651585,0.091386,-0.666796,0.0691975,0
44,-0.012542,0.7573455,0.061705,-0.176387,0.4805455,0.009317,-0.275877,0.3253855,-0.0752849999999999,0.1428829999999999,0.4857754999999999,0.015956,0.268903,0.3018754999999999,-0.0517449999999999,-0.278877,0.3588955,-0.262215,0.238313,0.4346255,-0.2254349999999999,-0.073824,-0.0026084999999999,0.000167,0.073824,0.0026084999999999,-0.000167,-0.097501,-0.3381045,0.023218,0.093356,-0.3441745,0.046267,-0.105337,-0.6632845,0.065126,0.091656,-0.6668245,0.069178,0
45,-0.0128355,0.757589,0.0631965,-0.1763515,0.481229,0.0090805,-0.2849515,0.340179,-0.0897594999999999,0.1431085,0.485329,0.0163285,0.2799184999999999,0.318379,-0.0564015,-0.2862515,0.403239,-0.2686495,0.2506685,0.461889,-0.2238495,-0.0739235,-0.0025859999999999,-5.000000000005e-07,0.0739235,0.0025859999999999,5.000000000005e-07,-0.0973275,-0.338081,0.0232075,0.0936265,-0.344121,0.0462895,-0.1050915,-0.6630910000000001,0.0651195,0.0919204999999999,-0.667011,0.0691715,0
46,-0.013149,0.7578135,0.0647125,-0.1765759999999999,0.4820435,0.0087665,-0.294716,0.3578735,-0.1047585,0.143664,0.4853235,0.0168975,0.290734,0.3369835,-0.0635485,-0.293826,0.4534235,-0.2728085,0.261694,0.4909935,-0.2226185,-0.0740089999999999,-0.0025304999999999,-0.0002085,0.0740089999999999,0.0025304999999999,0.0002085,-0.097137,-0.3381065,0.0231655,0.0939049999999999,-0.3440565,0.0462925,-0.104836,-0.6629565,0.0651095,0.092199,-0.6673965,0.0691285,0
47,-0.0134939999999999,0.757996,0.066196,-0.17688,0.483016,0.008354,-0.30377,0.378066,-0.11814,0.1449399999999999,0.485306,0.017546,0.29912,0.358306,-0.07128,-0.30066,0.504476,-0.27435,0.27291,0.522096,-0.2209799999999999,-0.074077,-0.002423,-0.000495,0.074077,0.002423,0.000495,-0.096941,-0.338204,0.023101,0.094176,-0.344064,0.046261,-0.10461,-0.662874,0.065066,0.092474,-0.667824,0.069088,0
48,-0.013766,0.7579795,0.0675645,-0.176931,0.4842595,0.0077494999999999,-0.311341,0.4025895,-0.1280695,0.147719,0.4849895,0.0183115,0.306699,0.3812595,-0.0777995,-0.306571,0.5543895000000001,-0.2747695,0.282989,0.5524595000000001,-0.2162995,-0.074133,-0.0022705,-0.0008584999999999,0.074133,0.0022705,0.0008584999999999,-0.096723,-0.3384905,0.0230455,0.094489,-0.3442405,0.0461535,-0.104361,-0.6629605,0.0650055,0.0927979999999999,-0.6684304999999999,0.0690355,0
49,-0.01395,0.7574915,0.0688175,-0.176771,0.4858415,0.0069535,-0.315491,0.4331715,-0.1328305,0.150859,0.4845915,0.0191945,0.3139889999999999,0.4060614999999999,-0.0813605,-0.312291,0.6024915,-0.2751905,0.294079,0.5859515,-0.2098505,-0.074157,-0.0020434999999999,-0.0012454999999999,0.074157,0.0020435,0.0012455,-0.096461,-0.3391785,0.0229495,0.094858,-0.3449385,0.0460345,-0.104051,-0.6635485,0.0649405,0.093179,-0.6695785,0.0689705,0
50,-0.014032,0.7567265000000001,0.06992,-0.176502,0.4876565,0.006183,-0.318662,0.4649765,-0.135981,0.153548,0.4847065,0.019835,0.320158,0.4306965,-0.0820009999999999,-0.316752,0.6449265000000001,-0.275501,0.303978,0.6184965,-0.203201,-0.074162,-0.0017925,-0.0016649999999999,0.074162,0.0017924999999999,0.0016649999999999,-0.09619,-0.3399934999999999,0.022796,0.095251,-0.3458834999999999,0.045933,-0.1037319999999999,-0.6643935,0.064924,0.093596,-0.6709435,0.068911,0
51,-0.0140214999999999,0.7555965,0.070784,-0.1760675,0.4896965,0.005517,-0.3208575,0.4963365,-0.138142,0.1562225,0.4851065,0.020626,0.3247325,0.4554465,-0.081712,-0.3211075,0.6847565,-0.272732,0.3133225,0.6476265,-0.195052,-0.0741245,-0.0015104999999999,-0.002096,0.0741245,0.0015105,0.002096,-0.0959045,-0.3410835,0.022674,0.0956565,-0.3471635,0.045957,-0.1034074999999999,-0.6656035,0.065,0.0940345,-0.6727135,0.068899,0
52,-0.0139864999999999,0.7538969999999999,0.071527,-0.1756625,0.492087,0.005287,-0.3218025,0.5265569999999999,-0.138092,0.1585475,0.4857269999999999,0.0217239999999999,0.3281575,0.478317,-0.081402,-0.3259325,0.723887,-0.263862,0.3220575,0.673477,-0.183382,-0.0740375,-0.0012269999999999,-0.002498,0.0740375,0.001227,0.002498,-0.0956615,-0.342593,0.0226039999999999,0.0960165,-0.348973,0.046085,-0.1031125,-0.667293,0.065168,0.0944504999999999,-0.675013,0.0689569999999999,0
53,-0.0139465,0.7518865,0.072028,-0.1753205,0.4945265,0.005212,-0.3217905,0.5514565,-0.137968,0.1607495,0.4868465,0.022857,0.3308695,0.4998964999999999,-0.0811279999999999,-0.3301805,0.7566065,-0.2544379999999999,0.3297295,0.6979165,-0.170478,-0.0739045,-0.0009715,-0.0028619999999999,0.0739045,0.0009715,0.002862,-0.0954595,-0.3444635,0.02256,0.0962625,-0.3508435,0.046137,-0.1028705,-0.6693735,0.065326,0.0948054999999999,-0.6776035,0.069028,0
54,-0.0139164999999999,0.7495620000000001,0.0723999999999999,-0.1750275,0.496872,0.0052489999999999,-0.3215075,0.577092,-0.137796,0.1631025,0.4889220000000001,0.0243789999999999,0.3323025,0.520122,-0.078696,-0.3341675,0.785432,-0.244186,0.3359324999999999,0.720632,-0.156086,-0.0737454999999999,-0.0007509999999999,-0.0031279999999999,0.0737454999999999,0.0007509999999999,0.0031279999999999,-0.0953094999999999,-0.3466479999999999,0.022555,0.0963914999999999,-0.352558,0.046062,-0.1026675,-0.6718379999999999,0.065501,0.0951115,-0.680408,0.069136,0
55,-0.0138585,0.7467025,0.0726354999999999,-0.1747195,0.4990425,0.0053925,-0.3213295,0.5999325,-0.1369275,0.1651205,0.4915325,0.0262045,0.3324904999999999,0.5395925,-0.0740275,-0.3370695,0.8109325000000001,-0.2308275,0.3415705,0.7411125,-0.1427075,-0.0735725,-0.0006025,-0.0033235,0.0735725,0.0006024999999999,0.0033235,-0.0952224999999999,-0.3492975,0.0226025,0.0963965,-0.3545775,0.0460105,-0.1025095,-0.6748775,0.0657185,0.0953485,-0.6837475,0.0693015,0
56,-0.0137739999999999,0.743688,0.0728155,-0.1741639999999999,0.501228,0.0055995,-0.321474,0.620838,-0.1316034999999999,0.166676,0.4940179999999999,0.0279304999999999,0.332326,0.556848,-0.0684035,-0.339634,0.8344779999999999,-0.2173835,0.346186,0.760998,-0.1290835,-0.0733969999999999,-0.000486,-0.0034875,0.0733969999999999,0.000486,0.0034874999999999,-0.095202,-0.352102,0.0226654999999999,0.096317,-0.356722,0.0459025,-0.102404,-0.678102,0.0659165,0.095528,-0.687212,0.0694585,0
57,-0.0136865,0.7406765,0.072909,-0.1732955,0.5034265,0.0057189999999999,-0.3211254999999999,0.6386165,-0.125149,0.1679545,0.4963765,0.0295309999999999,0.3321645,0.5727265,-0.063839,-0.3418454999999999,0.8530065,-0.205079,0.3497745,0.7787965,-0.116009,-0.0732775,-0.0004225,-0.003569,0.0732775,0.0004224999999999,0.0035689999999999,-0.0952115,-0.3549335,0.0226379999999999,0.0961535,-0.3587235,0.0456599999999999,-0.1023554999999999,-0.6813535000000001,0.0660139999999999,0.0956575,-0.6907635,0.069558,0
58,-0.0136359999999999,0.73774,0.07303,-0.172145,0.50526,0.005906,-0.3192049999999999,0.64975,-0.116968,0.168675,0.49831,0.030994,0.331875,0.58522,-0.05799,-0.343595,0.86759,-0.191938,0.351605,0.79203,-0.104878,-0.073216,-0.000449,-0.0036409999999999,0.073216,0.0004489999999999,0.0036409999999999,-0.09516,-0.35765,0.0226099999999999,0.09592,-0.36056,0.045433,-0.102365,-0.68454,0.066132,0.095734,-0.6942,0.069688,0
59,-0.0136074999999999,0.7348589999999999,0.072994,-0.1708975,0.507049,0.006137,-0.3162374999999999,0.660519,-0.108109,0.1692725,0.499879,0.032517,0.3308325,0.5971289999999999,-0.050135,-0.3452775,0.8841789999999999,-0.177819,0.3529425,0.8015589999999999,-0.093079,-0.0731855,-0.000521,-0.0035889999999999,0.0731855,0.000521,0.003589,-0.0951384999999999,-0.3604509999999999,0.022692,0.0956575,-0.362361,0.045243,-0.1024075,-0.687701,0.066253,0.0957765,-0.6976610000000001,0.069838,0
60,-0.013669,0.732042,0.0728125,-0.169889,0.508742,0.0064874999999999,-0.3130889999999999,0.6703020000000001,-0.0996685,0.169681,0.501372,0.0340155,0.329051,0.606472,-0.0433735,-0.346589,0.899282,-0.1648685,0.353971,0.811512,-0.0813785,-0.0731219999999999,-0.000614,-0.0034535,0.0731219999999999,0.000614,0.0034534999999999,-0.095215,-0.3632579999999999,0.0227794999999999,0.0952919999999999,-0.3641979999999999,0.0451315,-0.102549,-0.690778,0.0664025,0.095728,-0.701128,0.0700005,0
61,-0.0137089999999999,0.729433,0.072493,-0.169055,0.510383,0.007174,-0.309875,0.679353,-0.091795,0.170085,0.502843,0.035514,0.325955,0.616443,-0.035877,-0.347555,0.909393,-0.152285,0.354485,0.820553,-0.070435,-0.0730099999999999,-0.0007319999999999,-0.0032459999999999,0.0730099999999999,0.000732,0.0032459999999999,-0.0953479999999999,-0.365747,0.022919,0.094881,-0.365787,0.045088,-0.1027549999999999,-0.693747,0.066568,0.095634,-0.704447,0.070205,0
62,-0.0137315,0.7269615,0.072084,-0.1683385,0.5116814999999999,0.007902,-0.3070885,0.6874115000000001,-0.085089,0.1705815,0.5044815,0.037105,0.3226715,0.6249315,-0.028892,-0.3484784999999999,0.9194115,-0.1392689999999999,0.3547715,0.8333815,-0.058116,-0.0728695,-0.0008425,-0.0030419999999999,0.0728695,0.0008425,0.003042,-0.0954435,-0.3681785,0.023056,0.0945015,-0.3673885,0.045109,-0.1029785,-0.6966485,0.066743,0.0955095,-0.7077085000000001,0.070419,0
63,-0.013719,0.7245754999999999,0.0715985,-0.167841,0.5128955,0.0086554999999999,-0.3041109999999999,0.6947255,-0.0784105,0.1708889999999999,0.5057855,0.0384985,0.319489,0.6332755,-0.0221465,-0.349421,0.9292255,-0.1267204999999999,0.354569,0.8430255,-0.0475355,-0.072724,-0.0009344999999999,-0.0028234999999999,0.072724,0.0009344999999999,0.0028234999999999,-0.095485,-0.3701945,0.0232154999999999,0.094137,-0.3694445,0.0452824999999999,-0.103241,-0.6995345000000001,0.0669405,0.095343,-0.7109245000000001,0.0706934999999999,0
64,-0.013667,0.7224885000000001,0.0709865,-0.1674,0.5143385,0.0092774999999999,-0.30114,0.7014885,-0.0722635,0.17126,0.5072085,0.0398735,0.31636,0.6409285,-0.0159175,-0.35027,0.9356285,-0.1151835,0.3540399999999999,0.8518485,-0.0376885,-0.072611,-0.0010065,-0.0026095,0.072611,0.0010065,0.0026094999999999,-0.095484,-0.3718215,0.0233534999999999,0.093789,-0.3713815,0.0453745,-0.10348,-0.7022915000000001,0.0670505,0.095154,-0.7138415,0.0709055,0
65,-0.0134484999999999,0.720546,0.0701965,-0.1670745,0.5157160000000001,0.0099914999999999,-0.2979445,0.707966,-0.0662755,0.1715755,0.508356,0.0412895,0.3126455,0.649226,-0.0095525,-0.3507745,0.940956,-0.1028355,0.3532155,0.860196,-0.0277375,-0.0725345,-0.001065,-0.0023905,0.0725345,0.0010649999999999,0.0023904999999999,-0.0954825,-0.373494,0.0234535,0.0933695,-0.373014,0.0454624999999999,-0.1037744999999999,-0.705004,0.0671175,0.0949445,-0.716794,0.0711055,0
66,-0.0131624999999999,0.7187215,0.0693725,-0.1669184999999999,0.5167415,0.0106565,-0.2947185,0.7130415,-0.0607815,0.1717615,0.5092715,0.0425435,0.3089314999999999,0.6573515,-0.0035014999999999,-0.3509885,0.9474715,-0.0908814999999999,0.3524015,0.8682715,-0.0179954999999999,-0.0724775,-0.0011184999999999,-0.0022285,0.0724775,0.0011185,0.0022285,-0.0954614999999999,-0.3750584999999999,0.0235005,0.0929925,-0.3745185,0.0454975,-0.1040484999999999,-0.7076485,0.0671325,0.0947455,-0.7195785,0.0712635,0
67,-0.0128574999999999,0.7171925,0.0685285,-0.1668704999999999,0.5176925,0.0113025,-0.2917805,0.7175324999999999,-0.0555554999999999,0.1718595,0.5099724999999999,0.0437475,0.3054194999999999,0.6650024999999999,0.0018945,-0.3506905,0.9504325,-0.0814765,0.3516395,0.8758925,-0.0089534999999999,-0.0724295,-0.0011325,-0.0020975,0.0724295,0.0011325,0.0020975,-0.0953894999999999,-0.3764174999999999,0.0235025,0.0926375,-0.3757675,0.0455255,-0.1043105,-0.7099675000000001,0.0671455,0.0945445,-0.7220575,0.0713895,0
68,-0.0125475,0.7157375,0.0677425,-0.1667314999999999,0.5187175,0.0122274999999999,-0.2893115,0.7205775,-0.0509375,0.1720284999999999,0.5105775,0.0448885,0.3021085,0.6714275,0.0065264999999999,-0.3501915,0.9502375,-0.0733705,0.3507285,0.8831075,-0.0007085,-0.0723825,-0.0011245,-0.0019915,0.0723825,0.0011245,0.0019915,-0.0952995,-0.3774725,0.0234765,0.0923035,-0.3768825,0.0455515,-0.1045715,-0.7122125,0.0671555,0.0943775,-0.7244725,0.0714875,0
69,-0.0121999999999999,0.714535,0.067113,-0.166561,0.519555,0.013175,-0.286991,0.723185,-0.046575,0.172169,0.5110750000000001,0.04601,0.298979,0.677665,0.011039,-0.349641,0.950205,-0.064806,0.349659,0.890125,0.006974,-0.072353,-0.001131,-0.0019269999999999,0.072353,0.001131,0.0019269999999999,-0.0951549999999999,-0.378305,0.023462,0.092038,-0.377745,0.045608,-0.104741,-0.714145,0.067187,0.094254,-0.726545,0.071589,0
70,-0.011874,0.713527,0.0665625,-0.166403,0.5199870000000001,0.0139104999999999,-0.284943,0.725137,-0.0427795,0.172277,0.511417,0.0469124999999999,0.296107,0.682467,0.0144074999999999,-0.348783,0.950027,-0.0571925,0.348397,0.896727,0.0136814999999999,-0.0723429999999999,-0.0011499999999999,-0.0018905,0.0723429999999999,0.0011499999999999,0.0018904999999999,-0.0950469999999999,-0.379043,0.0234154999999999,0.09178,-0.378313,0.0456214999999999,-0.104933,-0.7157929999999999,0.0671765,0.0941249999999999,-0.728313,0.0716485,0
71,-0.011556,0.7126355,0.066101,-0.166293,0.5203855000000001,0.014609,-0.283173,0.7267155000000001,-0.039281,0.1722369999999999,0.5113255,0.047672,0.2933369999999999,0.6868255,0.017565,-0.347913,0.9499455,-0.050564,0.347157,0.8979655,0.017625,-0.072341,-0.0011645,-0.001867,0.072341,0.0011644999999999,0.001867,-0.09496,-0.3795045,0.023347,0.091527,-0.3788445,0.045625,-0.105123,-0.7172744999999999,0.067138,0.093995,-0.7298844999999999,0.071666,0
72,-0.0112805,0.7118935000000001,0.0657725,-0.1661905,0.5207635,0.0152924999999999,-0.2817405,0.7277835,-0.0362355,0.1721194999999999,0.5109935,0.0483295,0.2907194999999999,0.6905935000000001,0.0202934999999999,-0.3470005,0.9500835,-0.0444135,0.3457995,0.8994435000000001,0.0215734999999999,-0.0723505,-0.0011935,-0.0018675,0.0723505,0.0011935,0.0018674999999999,-0.0948925,-0.3800765,0.0232704999999999,0.0913225,-0.3791465,0.0456315,-0.1052905,-0.7185364999999999,0.0670824999999999,0.0938845,-0.7311265,0.0716614999999999,0
73,-0.0110694999999999,0.7111970000000001,0.06554,-0.1661095,0.5207970000000001,0.016085,-0.2806195,0.728477,-0.033578,0.1718705,0.511097,0.049231,0.2883305,0.693427,0.022555,-0.3461695,0.950427,-0.039798,0.3443104999999999,0.900967,0.0252659999999999,-0.0723584999999999,-0.0012339999999999,-0.001846,0.0723584999999999,0.0012339999999999,0.001846,-0.0948755,-0.380723,0.0231779999999999,0.0911205,-0.379423,0.045655,-0.1054495,-0.7196929999999999,0.067012,0.0937625,-0.732263,0.071657,0
74,-0.0109935,0.710544,0.0655185,-0.1661035,0.520784,0.0168044999999999,-0.2800635,0.728414,-0.0318375,0.1716565,0.511374,0.0499965,0.2867165,0.694514,0.0239064999999999,-0.3454935,0.950984,-0.0368525,0.3425165,0.901554,0.0274004999999999,-0.0723685,-0.001265,-0.0018205,0.0723685,0.001265,0.0018204999999999,-0.0948114999999999,-0.381006,0.0230874999999999,0.0909415,-0.379796,0.0456964999999999,-0.1055835,-0.7204160000000001,0.0669225,0.0936695,-0.733106,0.0716545,0
75,-0.010949,0.7099365000000001,0.065466,-0.166106,0.5207965,0.017483,-0.279696,0.7281365000000001,-0.030493,0.1714439999999999,0.5117065000000001,0.050729,0.285434,0.6951765,0.024835,-0.344946,0.9517265,-0.034305,0.340704,0.9018065,0.029003,-0.072374,-0.0013014999999999,-0.001812,0.072374,0.0013014999999999,0.001812,-0.0947139999999999,-0.3812135,0.022979,0.090774,-0.3801735,0.045722,-0.105696,-0.7211035,0.066778,0.093621,-0.7336535,0.071622,0
76,-0.0109565,0.709408,0.0653495,-0.1661145,0.520838,0.0180684999999999,-0.2794945,0.727738,-0.0294315,0.1711555,0.5122380000000001,0.0514265,0.2843355,0.6955380000000001,0.0255635,-0.3449645,0.951838,-0.0323015,0.3389555,0.901868,0.0299074999999999,-0.0723814999999999,-0.0013609999999999,-0.0018075,0.0723814999999999,0.001361,0.0018074999999999,-0.0946615,-0.381312,0.0228345,0.0905914999999999,-0.380472,0.0456865,-0.1058345,-0.721722,0.0666055,0.0935574999999999,-0.7341019999999999,0.0715105,0
77,-0.0109795,0.708969,0.065253,-0.1662185,0.5205789999999999,0.018341,-0.2793585,0.727279,-0.0286799999999999,0.1708915,0.512929,0.05211,0.2833215,0.695819,0.026111,-0.3450985,0.952059,-0.0304219999999999,0.3373615,0.901849,0.030368,-0.0723925,-0.00143,-0.0018069999999999,0.0723925,0.00143,0.001807,-0.0945785,-0.381481,0.022698,0.0905334999999999,-0.380661,0.045664,-0.1059585,-0.722291,0.06642,0.0934994999999999,-0.734381,0.071382,0
78,-0.0110599999999999,0.7085405,0.065178,-0.166358,0.5203905,0.01853,-0.2793779999999999,0.7268005,-0.028238,0.170632,0.5137105,0.052724,0.282342,0.6959305,0.026416,-0.345288,0.9522205,-0.0296229999999999,0.335732,0.9017805,0.030453,-0.072401,-0.0014924999999999,-0.0017939999999999,0.072401,0.0014924999999999,0.001794,-0.0944859999999999,-0.3817295,0.022495,0.090516,-0.3807295,0.045575,-0.106078,-0.7228895,0.066135,0.09345,-0.7346094999999999,0.071168,0
79,-0.0111774999999999,0.7081329999999999,0.0651125,-0.1664824999999999,0.5202530000000001,0.0188085,-0.2794825,0.726343,-0.0279834999999999,0.1702575,0.514553,0.0533245,0.2814175,0.696043,0.0265905,-0.3454525,0.952913,-0.0293505,0.3341475,0.901663,0.0303025,-0.0724075,-0.0015419999999999,-0.0017894999999999,0.0724075,0.001542,0.0017894999999999,-0.0943944999999999,-0.382017,0.0222305,0.0905455,-0.380877,0.0454265,-0.1062024999999999,-0.7231970000000001,0.0658225,0.0934085,-0.7348269999999999,0.0708955,0
80,-0.011319,0.7077545,0.0650044999999999,-0.166589,0.5201644999999999,0.0190305,-0.2796389999999999,0.7259245,-0.0278435,0.1698609999999999,0.5154245,0.0538495,0.280571,0.6961545,0.0266635,-0.345599,0.9531445,-0.0292735,0.332591,0.9015745,0.0299755,-0.072408,-0.0015695,-0.0017544999999999,0.072408,0.0015695,0.0017544999999999,-0.094329,-0.3823655,0.0218865,0.090601,-0.3811055,0.0452275,-0.106269,-0.7236155000000001,0.0654265,0.093372,-0.7349155,0.0705355,0
81,-0.0114505,0.7074505,0.064921,-0.1666735,0.5201705,0.019253,-0.2797735,0.7255405,-0.027821,0.1694665,0.5164205,0.054346,0.2797665,0.6962705,0.026658,-0.3457335,0.9530205,-0.0294409999999999,0.3310865,0.9014705,0.0295609999999999,-0.0724055,-0.0015814999999999,-0.0017059999999999,0.0724055,0.0015814999999999,0.0017059999999999,-0.0942575,-0.3827395,0.021528,0.0906785,-0.3813295,0.044996,-0.1063435,-0.7240095,0.0650459999999999,0.0933455,-0.7350095,0.070164,0
82,-0.0116204999999999,0.7072645000000001,0.0647955,-0.1668115,0.5201145,0.0192385,-0.2799514999999999,0.7252245,-0.0279665,0.1690085,0.5167245,0.0542185,0.2789685,0.6964745,0.0264615,-0.3462415,0.9523745,-0.0301494999999999,0.3296085,0.9014445,0.0289885,-0.0724065,-0.0016184999999999,-0.0016704999999999,0.0724065,0.0016185,0.0016704999999999,-0.0942295,-0.3830854999999999,0.0210694999999999,0.0907435,-0.3814754999999999,0.0445765,-0.1064315,-0.7243554999999999,0.0645105,0.0932705,-0.7350455,0.0696475,0
83,-0.0118025,0.7070894999999999,0.0646835,-0.1669675,0.5200895,0.0192115,-0.2801375,0.7248795,-0.0281764999999999,0.1684625,0.5171595,0.0541525,0.2782325,0.6966095,0.0262205,-0.3467375,0.9520095,-0.0305965,0.3282325,0.9013495,0.0283665,-0.0724095,-0.0016735,-0.0016544999999999,0.0724095,0.0016734999999999,0.0016545,-0.0942385,-0.3834505,0.0205875,0.0908315,-0.3817104999999999,0.0440415,-0.1065175,-0.7247205,0.0639215,0.0932025,-0.7353505,0.0690435,0
84,-0.0120185,0.706945,0.0645174999999999,-0.1671455,0.520115,0.0191624999999999,-0.2804055,0.7245050000000001,-0.0284975,0.1678645,0.5176350000000001,0.0540465,0.2775745,0.6966950000000001,0.0258404999999999,-0.3475955,0.951935,-0.0311895,0.3270145,0.901205,0.0276554999999999,-0.0723935,-0.0017,-0.0016275,0.0723935,0.0016999999999999,0.0016274999999999,-0.0942605,-0.3838249999999999,0.0200004999999999,0.0909065,-0.381995,0.0434064999999999,-0.1065955,-0.7250949999999999,0.0632315,0.0930665,-0.735725,0.0683324999999999,0
85,-0.0122425,0.70684,0.064319,-0.1673305,0.52012,0.019071,-0.2806705,0.72408,-0.0289299999999999,0.1672595,0.51791,0.05384,0.2770595,0.69668,0.025386,-0.3483905,0.95182,-0.031947,0.3259295,0.90095,0.02679,-0.0723775,-0.00174,-0.0016329999999999,0.0723775,0.00174,0.001633,-0.0941965,-0.3843999999999999,0.019289,0.0910095,-0.38241,0.042703,-0.1066305,-0.72568,0.062404,0.0929585,-0.73614,0.067542,0
86,-0.012487,0.7066755,0.0640155,-0.167518,0.5200454999999999,0.0189065,-0.280978,0.7236155,-0.0294894999999999,0.166632,0.5183555,0.0536035,0.276592,0.6966355,0.0248015,-0.349208,0.9515555,-0.0328285,0.324982,0.9005855,0.0258215,-0.072361,-0.0017825,-0.0016595,0.072361,0.0017824999999999,0.0016595,-0.09421,-0.3853745,0.0184555,0.091129,-0.3828745,0.0418725,-0.106648,-0.7265645000000001,0.0614205,0.092858,-0.7366045,0.0665885,0
87,-0.012721,0.7064845000000001,0.0636185,-0.167663,0.5199845000000001,0.0186995,-0.281283,0.7230445000000001,-0.0301454999999999,0.166017,0.5189445,0.0534385,0.276257,0.6964845000000001,0.0240805,-0.349933,0.9510245,-0.0338374999999999,0.324197,0.9000545000000001,0.0247965,-0.072347,-0.0018455,-0.0016754999999999,0.072347,0.0018455,0.0016755,-0.094285,-0.3866355,0.0175235,0.091287,-0.3834055,0.0408765,-0.106593,-0.7277355,0.0602195,0.092791,-0.7375054999999999,0.0655115,0
88,-0.012953,0.7063539999999999,0.063118,-0.167769,0.519964,0.018258,-0.281559,0.7225039999999999,-0.030944,0.165551,0.519434,0.053013,0.276021,0.6963739999999999,0.023195,-0.350639,0.950564,-0.0350419999999999,0.323531,0.899594,0.023554,-0.072341,-0.0019229999999999,-0.0016739999999999,0.072341,0.0019229999999999,0.001674,-0.094312,-0.388036,0.016307,0.091539,-0.383916,0.039613,-0.106449,-0.729186,0.05868,0.092764,-0.7385360000000001,0.06425,0
89,-0.0131314999999999,0.706187,0.0624695,-0.1678065,0.519927,0.0176885,-0.2817765,0.722047,-0.0319515,0.1651635,0.5199170000000001,0.0523915,0.2759535,0.696177,0.0220985,-0.3508065,0.949977,-0.0364885,0.3229635,0.8992070000000001,0.0220835,-0.0723655,-0.002003,-0.0017324999999999,0.0723655,0.002003,0.0017325,-0.0942605,-0.389423,0.0147655,0.0919555,-0.384523,0.0378785,-0.1062365,-0.730533,0.0569505,0.0927865,-0.739493,0.0628195,0
90,-0.013316,0.706019,0.061586,-0.167866,0.5198389999999999,0.017042,-0.281986,0.721739,-0.0331849999999999,0.164774,0.520299,0.051523,0.275964,0.695959,0.020801,-0.351386,0.949439,-0.038367,0.322444,0.8988189999999999,0.020351,-0.072391,-0.0020779999999999,-0.001777,0.072391,0.0020779999999999,0.001777,-0.094216,-0.3906309999999999,0.012699,0.092447,-0.385151,0.035576,-0.106106,-0.731691,0.054972,0.092781,-0.740301,0.06108,0
91,-0.0135275,0.706019,0.0605425,-0.1679015,0.5198389999999999,0.0162305,-0.2822015,0.7216589999999999,-0.0345625,0.1644385,0.5204489999999999,0.0505445,0.2759884999999999,0.695959,0.0193694999999999,-0.3514715,0.949039,-0.0403985,0.3220085,0.898589,0.0185094999999999,-0.0723475,-0.0020779999999999,-0.0017865,0.0723475,0.0020779999999999,0.0017865,-0.0943605,-0.3916809999999999,0.0102475,0.0930105,-0.385671,0.0328365,-0.1059515,-0.7326010000000001,0.0527005,0.0927764999999999,-0.740931,0.0591094999999999,0
92,-0.013746,0.706019,0.0592845,-0.167899,0.5198389999999999,0.0152245,-0.282439,0.721499,-0.0361085,0.164211,0.5204489999999999,0.0492765,0.2760209999999999,0.695959,0.0176535,-0.351389,0.947239,-0.0431375,0.321631,0.8981589999999999,0.0163615,-0.07232,-0.0020779999999999,-0.0017245,0.07232,0.0020779999999999,0.0017245,-0.094556,-0.392811,0.0071345,0.093759,-0.386331,0.0293055,-0.105739,-0.733951,0.0500485,0.092807,-0.7416710000000001,0.0568135,0
93,-0.013946,0.706019,0.0578319999999999,-0.167849,0.5198389999999999,0.0140729999999999,-0.282699,0.721259,-0.037809,0.1640309999999999,0.5204489999999999,0.047612,0.2760809999999999,0.695959,0.0157039999999999,-0.351219,0.941139,-0.047061,0.321301,0.8977189999999999,0.0140099999999999,-0.072337,-0.0020779999999999,-0.001647,0.072337,0.0020779999999999,0.0016469999999999,-0.094861,-0.3939709999999999,0.0034429999999999,0.094666,-0.386901,0.0252799999999999,-0.105519,-0.735931,0.047125,0.092844,-0.742401,0.054254,0
94,-0.0142035,0.705849,0.056171,-0.1678805,0.5197689999999999,0.01281,-0.2829505,0.7209289999999999,-0.039746,0.1637595,0.5204989999999999,0.045793,0.2761995,0.6958989999999999,0.013522,-0.3510904999999999,0.934889,-0.051126,0.3209495,0.897139,0.011352,-0.0724175,-0.002091,-0.0015789999999999,0.0724175,0.0020909999999999,0.001579,-0.0953185,-0.394991,-0.0013299999999999,0.0956045,-0.3874309999999999,0.020592,-0.1053505,-0.737811,0.043928,0.0928245,-0.743121,0.051349,0
95,-0.0145059999999999,0.705766,0.0542595,-0.167993,0.519726,0.0114665,-0.2831829999999999,0.720846,-0.0420165,0.163087,0.519656,0.0433994999999999,0.276437,0.696096,0.0110124999999999,-0.3510029999999999,0.928946,-0.0554545,0.3206369999999999,0.8970060000000001,0.0083124999999999,-0.072587,-0.0020389999999999,-0.0015265,0.072587,0.0020389999999999,0.0015265,-0.095965,-0.395194,-0.0068325,0.096666,-0.387364,0.0152755,-0.1051629999999999,-0.739104,0.0402855,0.092763,-0.7432139999999999,0.0480445,0
96,-0.01479,0.7054985,0.0521275,-0.1680529999999999,0.5197085,0.0096634999999999,-0.2833029999999999,0.7209185,-0.0444745,0.162677,0.5186685,0.0406275,0.276817,0.6963985,0.0082034999999999,-0.350433,0.9234785,-0.0598935,0.320427,0.8972485,0.0050084999999999,-0.072793,-0.0019875,-0.0015385,0.072793,0.0019875,0.0015384999999999,-0.096687,-0.3948615,-0.0129485,0.098035,-0.3868614999999999,0.0092784999999999,-0.104743,-0.7401814999999999,0.0362384999999999,0.0927699999999999,-0.7426415,0.0445324999999999,0
97,-0.0150439999999999,0.7049695,0.049709,-0.168116,0.5197594999999999,0.007337,-0.283236,0.7198495,-0.047233,0.162504,0.5177194999999999,0.037534,0.277394,0.6963195,0.005012,-0.349736,0.9179595,-0.064602,0.320394,0.8978094999999999,0.001353,-0.072972,-0.0019075,-0.0015469999999999,0.072972,0.0019074999999999,0.0015469999999999,-0.097552,-0.3939705,-0.019597,0.099664,-0.3858305,0.002602,-0.1043359999999999,-0.7404504999999999,0.03203,0.09281,-0.7414905,0.040547,0
98,-0.0152514999999999,0.7041875,0.0472265,-0.1680755,0.5199375,0.0050745,-0.2832055,0.7186675,-0.0501714999999999,0.1618145,0.5167175,0.0344495,0.2779844999999999,0.6960775,0.0015814999999999,-0.3490655,0.9128575,-0.0694645,0.3203145,0.8987375,-0.0025234999999999,-0.0732105,-0.0017634999999999,-0.0015275,0.0732105,0.0017635,0.0015274999999999,-0.0984895,-0.3927025,-0.0265385,0.1012445,-0.3842325,-0.0043795,-0.1039855,-0.7403125,0.0275675,0.0928425,-0.7399725,0.0361625,1
99,-0.0153435,0.7028665,0.0444679999999999,-0.1679045,0.5203265,0.002467,-0.2830745,0.7174465,-0.053374,0.1611755,0.5158564999999999,0.031109,0.2787755,0.6957065,-0.0021659999999999,-0.3483245,0.9081365,-0.074403,0.3203955,0.9000365,-0.006722,-0.0734555,-0.0016254999999999,-0.0015589999999999,0.0734555,0.0016255,0.001559,-0.0994645,-0.3909435,-0.0339239999999999,0.1028754999999999,-0.3820935,-0.011633,-0.1037345,-0.7396235,0.022815,0.0929714999999999,-0.7378635,0.031406,1
100,-0.0153205,0.7013565,0.0415295,-0.1676845,0.5209265,-0.0003204999999999,-0.2828945,0.7156965,-0.0568415,0.1604255,0.5152765,0.0275065,0.2796855,0.6949365,-0.0062244999999999,-0.3474945,0.9041765,-0.0795595,0.3205355,0.9016965,-0.0113605,-0.0737785,-0.0014344999999999,-0.0016414999999999,0.0737785,0.0014344999999999,0.0016415,-0.1004144999999999,-0.3886535,-0.0417975,0.1047255,-0.3791635,-0.0195245,-0.1034644999999999,-0.7384935,0.0177555,0.0931615,-0.7350035,0.0262905,1
101,-0.0151949999999999,0.7005104999999999,0.0380645,-0.1672659999999999,0.5193205,-0.0025464999999999,-0.282476,0.7146305,-0.0608784999999999,0.159764,0.5130905,0.0235575,0.2806039999999999,0.6952404999999999,-0.0107894999999999,-0.346646,0.9032405,-0.0846725,0.3206839999999999,0.9005205,-0.0173755,-0.074169,-0.0013395,-0.0017675,0.074169,0.0013395,0.0017675,-0.1014159999999999,-0.3851295,-0.0501565,0.106734,-0.3748395,-0.0278885,-0.103156,-0.7355095,0.0123395,0.093431,-0.7305295,0.0207555,1
102,-0.014954,0.6994619999999999,0.034437,-0.166714,0.518432,-0.005035,-0.281834,0.713592,-0.06518,0.159486,0.5107619999999999,0.0196259999999999,0.281486,0.695442,-0.0155819999999999,-0.346204,0.907572,-0.089138,0.320896,0.899992,-0.023714,-0.074571,-0.0011569999999999,-0.00194,0.074571,0.0011569999999999,0.0019399999999999,-0.102444,-0.381168,-0.058767,0.108816,-0.369788,-0.036441,-0.102824,-0.731468,0.0066919999999999,0.093757,-0.725268,0.0150019999999999,1
103,-0.0146355,0.698118,0.0306579999999999,-0.1659795,0.517278,-0.007704,-0.2810995,0.712878,-0.0695419999999999,0.1589304999999999,0.508988,0.015679,0.2822505,0.6953079999999999,-0.020678,-0.3455995,0.912978,-0.0936869999999999,0.3210205,0.8995179999999999,-0.030487,-0.0748985,-0.001062,-0.002005,0.0748985,0.001062,0.002005,-0.1034295,-0.376522,-0.067166,0.1111504999999999,-0.364452,-0.045344,-0.1025095,-0.7267020000000001,0.00084,0.0941265,-0.718952,0.009195,1
104,-0.0142654999999999,0.6964225,0.026832,-0.1651494999999999,0.5156225000000001,-0.0102079999999999,-0.2802195,0.7121125,-0.073837,0.1585205,0.5090725,0.011755,0.2828305,0.6940525000000001,-0.025721,-0.3450094999999999,0.9188425,-0.097798,0.3209705,0.8985525000000001,-0.037375,-0.0751905,-0.0010495,-0.0020769999999999,0.0751905,0.0010494999999999,0.002077,-0.1042394999999999,-0.3719975,-0.075683,0.1135805,-0.3595775,-0.05425,-0.1021094999999999,-0.7217374999999999,-0.0051629999999999,0.0944224999999999,-0.7122474999999999,0.003549,1
105,-0.0138975,0.6949985,0.0230795,-0.1642855,0.5141184999999999,-0.0126155,-0.2791855,0.7110785,-0.0782795,0.1581845,0.5080785,0.0078664999999999,0.2832745,0.6930284999999999,-0.0308485,-0.3443655,0.9254285,-0.1023165,0.3208944999999999,0.8979385,-0.0446094999999999,-0.0754955,-0.0010465,-0.0021275,0.0754955,0.0010464999999999,0.0021275,-0.1050155,-0.3669515,-0.0842084999999999,0.1157945,-0.3542015,-0.0629455,-0.1016555,-0.7156015,-0.0113145,0.0947605,-0.7053015,-0.0022435,1
106,-0.0135005,0.694156,0.019419,-0.1634675,0.512636,-0.014829,-0.2781774999999999,0.7117060000000001,-0.082621,0.1579725,0.506306,0.0040799999999999,0.2836825,0.692566,-0.035904,-0.3437774999999999,0.932596,-0.106683,0.3204625,0.8961760000000001,-0.051946,-0.0757865,-0.001109,-0.002197,0.0757865,0.0011089999999999,0.0021969999999999,-0.1058775,-0.361354,-0.092654,0.1177425,-0.348584,-0.071415,-0.1012975,-0.7083539999999999,-0.017328,0.0951374999999999,-0.6977639999999999,-0.008015,1
107,-0.0131545,0.693174,0.0158045,-0.1628665,0.5109440000000001,-0.0169015,-0.2772565,0.7128540000000001,-0.0868585,0.1576834999999999,0.504664,0.0005994999999999,0.2839735,0.692264,-0.0412845,-0.3431065,0.939794,-0.1109354999999999,0.3196735,0.893724,-0.0596915,-0.0759195,-0.001202,-0.0023325,0.0759195,0.001202,0.0023325,-0.1068765,-0.355256,-0.1013785,0.1195935,-0.342746,-0.0798445,-0.1010565,-0.699846,-0.0233365,0.0954335,-0.689036,-0.0135775,1
108,-0.01277,0.6923005,0.012516,-0.162387,0.5087205,-0.0188419999999999,-0.276447,0.7135305,-0.090869,0.157473,0.5028605,-0.0025839999999999,0.284143,0.6917105,-0.046533,-0.342117,0.9460205,-0.114935,0.318743,0.8913004999999999,-0.06733,-0.076026,-0.0013054999999999,-0.0024059999999999,0.076026,0.0013055,0.0024059999999999,-0.107797,-0.3487395,-0.109941,0.1215729999999999,-0.3368494999999999,-0.088114,-0.101037,-0.6906795,-0.029317,0.095578,-0.6801095,-0.0188979999999999,1
109,-0.0123635,0.691067,0.0093019999999999,-0.1618775,0.506517,-0.020587,-0.2757875,0.714927,-0.094812,0.1568725,0.500467,-0.005947,0.2842024999999999,0.691487,-0.051627,-0.3407875,0.947387,-0.119232,0.3177224999999999,0.8900170000000001,-0.074603,-0.0762065,-0.001434,-0.002371,0.0762065,0.001434,0.0023709999999999,-0.1086075,-0.341783,-0.11826,0.1235624999999999,-0.330793,-0.095967,-0.1009475,-0.680623,-0.035161,0.0956615,-0.670393,-0.02393,1
110,-0.012172,0.689588,0.006469,-0.161626,0.506218,-0.023149,-0.275366,0.716168,-0.098718,0.155894,0.499598,-0.0089279999999999,0.284124,0.690828,-0.0564039999999999,-0.339546,0.948698,-0.123245,0.3162939999999999,0.8891979999999999,-0.080832,-0.076521,-0.001499,-0.002375,0.076521,0.001499,0.002375,-0.109286,-0.335322,-0.1264279999999999,0.125244,-0.324872,-0.10327,-0.1009259999999999,-0.670182,-0.040908,0.095603,-0.660312,-0.028615,1
111,-0.0119449999999999,0.6879695,0.0037899999999999,-0.161379,0.5044895,-0.025446,-0.274989,0.7168295,-0.102384,0.155211,0.4981394999999999,-0.011815,0.283861,0.6894295,-0.061242,-0.338259,0.9497695,-0.1271749999999999,0.314911,0.8868395,-0.086952,-0.07683,-0.0016695,-0.0023019999999999,0.07683,0.0016694999999999,0.0023019999999999,-0.109799,-0.3286105,-0.13416,0.126921,-0.3192905,-0.110468,-0.100879,-0.6591405,-0.046516,0.095502,-0.6501005,-0.033043,1
112,-0.0117515,0.6863184999999999,0.001243,-0.1613985,0.5030985,-0.0275579999999999,-0.2746885,0.7159785,-0.105975,0.1544915,0.4961785,-0.0144929999999999,0.2834515,0.6881284999999999,-0.065803,-0.3369785,0.9506785,-0.130955,0.3137915,0.8844084999999999,-0.0925709999999999,-0.0770425,-0.0017515,-0.0023339999999999,0.0770425,0.0017514999999999,0.002334,-0.1102685,-0.3220814999999999,-0.141764,0.1284215,-0.3134515,-0.117183,-0.1008885,-0.6477015,-0.0519289999999999,0.0953285,-0.6397415000000001,-0.037214,1
113,-0.0116405,0.684763,-0.0015725,-0.1616635,0.502353,-0.0299165,-0.2744035,0.715593,-0.1097745,0.1540165,0.493303,-0.0173195,0.2829965,0.687563,-0.0707445,-0.3357435,0.951533,-0.1349325,0.3128665,0.8837130000000001,-0.0983925,-0.0772245,-0.0018079999999999,-0.0022025,0.0772245,0.001808,0.0022024999999999,-0.1107635,-0.3147069999999999,-0.1491825,0.1297965,-0.306737,-0.1241485,-0.1009735,-0.635277,-0.0572175,0.0950555,-0.6284369999999999,-0.0415915,1
114,-0.0116754999999999,0.682483,-0.0045364999999999,-0.1620555,0.501693,-0.0322155,-0.2742854999999999,0.715533,-0.1135915,0.1533244999999999,0.4917229999999999,-0.0200655,0.2826045,0.686083,-0.0755985,-0.3344654999999999,0.951893,-0.1388585,0.3119345,0.8835729999999999,-0.1039725,-0.0773625,-0.001766,-0.0021375,0.0773625,0.0017659999999999,0.0021375,-0.1113455,-0.307707,-0.1566175,0.1310744999999999,-0.299777,-0.1310215,-0.1010255,-0.6225670000000001,-0.0618185,0.0946795,-0.6164970000000001,-0.0458675,1
115,-0.0117074999999999,0.6788595000000001,-0.007365,-0.1622074999999999,0.5018395,-0.034564,-0.2741274999999999,0.7124795,-0.116652,0.1525725,0.4906494999999999,-0.02277,0.2822025,0.6837795,-0.080248,-0.3332575,0.9492595,-0.142625,0.3115425,0.8798095,-0.110095,-0.0775474999999999,-0.0016304999999999,-0.002048,0.0775474999999999,0.0016305,0.002048,-0.1116875,-0.2977204999999999,-0.163551,0.1324925,-0.2901405,-0.13766,-0.1007974999999999,-0.6107205,-0.066029,0.0943705,-0.6049905,-0.049693,1
116,-0.0119165,0.67635,-0.0100895,-0.1624324999999999,0.49876,-0.0369025,-0.2740225,0.7102599999999999,-0.1197985,0.1518675,0.48863,-0.0254614999999999,0.2817475,0.68221,-0.0845225,-0.3323625,0.9427,-0.1478695,0.3113775,0.8782399999999999,-0.1157335,-0.0776945,-0.00162,-0.0019305,0.0776945,0.0016199999999999,0.0019305,-0.1119825,-0.28647,-0.1701835,0.1337275,-0.27903,-0.1441855,-0.1005725,-0.5982799999999999,-0.0699405,0.0940594999999999,-0.5928,-0.0533465,1
117,-0.0118835,0.675405,-0.0176744999999999,-0.1623115,0.498505,-0.0440504999999999,-0.2736015,0.709455,-0.1279934999999999,0.1515485,0.487865,-0.0332935,0.2816185,0.682075,-0.0935324999999999,-0.3315615,0.939605,-0.1581245,0.3113585,0.8788849999999999,-0.1260045,-0.0778325,-0.0015349999999999,-0.0018804999999999,0.0778325,0.001535,0.0018805,-0.1119715,-0.273265,-0.1812805,0.1350585,-0.2657049999999999,-0.1553065,-0.1000415,-0.5840749999999999,-0.0784585,0.0940965,-0.578255,-0.0617124999999999,1
118,-0.0116925,0.67824,-0.0265439999999999,-0.1614375,0.49694,-0.0527539999999999,-0.2727975,0.7090799999999999,-0.137239,0.1509125,0.48665,-0.042106,0.2816525,0.68336,-0.10363,-0.3312375,0.94352,-0.168743,0.3114725,0.8814,-0.137598,-0.0778885,-0.00145,-0.0019419999999999,0.0778885,0.00145,0.0019419999999999,-0.1125475,-0.25654,-0.196176,0.1380725,-0.24874,-0.171618,-0.0993275,-0.56671,-0.08777,0.0943095,-0.56043,-0.071109,1
119,-0.0114665,0.6791,-0.0354279999999999,-0.1605155,0.49586,-0.0611989999999999,-0.2719455,0.70817,-0.14627,0.1501745,0.48567,-0.0507419999999999,0.2817544999999999,0.68387,-0.113893,-0.3307655,0.94587,-0.1792409999999999,0.3115445,0.88575,-0.149333,-0.0780225,-0.00136,-0.002014,0.0780225,0.00136,0.002014,-0.1130954999999999,-0.24012,-0.210324,0.1410245,-0.23264,-0.187514,-0.0986654999999999,-0.55053,-0.096501,0.0945495,-0.54385,-0.080242,1
120,-0.0111845,0.679975,-0.044707,-0.1596175,0.495845,-0.069669,-0.2712075,0.7077549999999999,-0.155188,0.1494224999999999,0.485175,-0.0594849999999999,0.2818525,0.6846749999999999,-0.124121,-0.3303375,0.947565,-0.189725,0.3115925,0.889745,-0.16128,-0.0781745,-0.0012249999999999,-0.002112,0.0781745,0.001225,0.002112,-0.1136475,-0.2236449999999999,-0.224505,0.1438325,-0.216505,-0.203375,-0.0980675,-0.5340849999999999,-0.105001,0.0947445,-0.526945,-0.089363,1
121,-0.0109555,0.680955,-0.054322,-0.1585945,0.494445,-0.078411,-0.2710045,0.707535,-0.164317,0.1487355,0.485085,-0.0684,0.2820055,0.685485,-0.134608,-0.3300245,0.947335,-0.200799,0.3115655,0.8935850000000001,-0.173543,-0.0783565,-0.0011649999999999,-0.0022039999999999,0.0783565,0.0011649999999999,0.0022039999999999,-0.1142245,-0.207065,-0.238619,0.1464455,-0.200235,-0.219179,-0.0976045,-0.517145,-0.113678,0.0948605,-0.5096750000000001,-0.098699,1
122,-0.01076,0.681915,-0.063724,-0.157817,0.493165,-0.087004,-0.2702569999999999,0.707055,-0.173233,0.148133,0.483975,-0.0768689999999999,0.282113,0.686005,-0.144683,-0.329667,0.944065,-0.21261,0.311763,0.895105,-0.185668,-0.078468,-0.001035,-0.0024399999999999,0.078468,0.001035,0.0024399999999999,-0.114767,-0.190685,-0.2526,0.148893,-0.184165,-0.2344399999999999,-0.097228,-0.500195,-0.122081,0.094945,-0.4925549999999999,-0.107653,1
123,-0.0105734999999999,0.6832,-0.073484,-0.1569265,0.49224,-0.09576,-0.2696064999999999,0.7057,-0.182358,0.1475235,0.48358,-0.085559,0.2821335,0.6872499999999999,-0.154971,-0.3292865,0.94173,-0.224595,0.3121035,0.89555,-0.198222,-0.0785795,-0.00104,-0.002555,0.0785795,0.0010399999999999,0.002555,-0.1153464999999999,-0.1744399999999999,-0.266245,0.1513035,-0.16852,-0.249655,-0.0968064999999999,-0.48322,-0.130744,0.0950845,-0.47535,-0.116654,1
124,-0.0103604999999999,0.6855249999999999,-0.083275,-0.1563175,0.490645,-0.104104,-0.2688675,0.707505,-0.191689,0.1468825,0.483645,-0.094164,0.2819325,0.688655,-0.165377,-0.3286875,0.942285,-0.236685,0.3125425,0.8984650000000001,-0.210244,-0.0785724999999999,-0.0011049999999999,-0.002745,0.0785724999999999,0.001105,0.0027449999999999,-0.1158474999999999,-0.1575749999999999,-0.279815,0.1536325,-0.1518549999999999,-0.264465,-0.0964434999999999,-0.4659949999999999,-0.139078,0.0952885,-0.457755,-0.125626,1
125,-0.010102,0.6857150000000001,-0.0930709999999999,-0.155734,0.491155,-0.1127099999999999,-0.268004,0.707885,-0.201372,0.146346,0.481925,-0.103154,0.281756,0.688245,-0.175754,-0.328024,0.946785,-0.247635,0.3129159999999999,0.900365,-0.2224979999999999,-0.078598,-0.000985,-0.0027749999999999,0.078598,0.000985,0.0027749999999999,-0.116254,-0.140795,-0.2931249999999999,0.156036,-0.134815,-0.2792449999999999,-0.095984,-0.448935,-0.1473729999999999,0.0955729999999999,-0.4403249999999999,-0.1346349999999999,1
126,-0.009975,0.68395,-0.097799,-0.154928,0.4896999999999999,-0.116767,-0.267358,0.70777,-0.205842,0.145702,0.47897,-0.107044,0.281352,0.6847799999999999,-0.181291,-0.327598,0.94736,-0.25356,0.312862,0.8983,-0.229973,-0.078598,-0.0009,-0.00274,0.078598,0.0008999999999999,0.0027399999999999,-0.116768,-0.12564,-0.30125,0.158042,-0.11997,-0.28878,-0.095699,-0.4342,-0.150739,0.095653,-0.4254800000000001,-0.138661,1
127,-0.0099799999999999,0.68073,-0.10144,-0.1547619999999999,0.4881299999999999,-0.119943,-0.266902,0.70663,-0.209511,0.145688,0.4779899999999999,-0.109753,0.280948,0.68255,-0.185836,-0.327442,0.94582,-0.258665,0.312438,0.8947299999999999,-0.236588,-0.078625,-0.00075,-0.002765,0.078625,0.0007499999999999,0.0027649999999999,-0.1167319999999999,-0.11127,-0.305515,0.158138,-0.1056,-0.292865,-0.095524,-0.42018,-0.153262,0.095593,-0.41174,-0.141901,1
128,-0.0097644999999999,0.67727,-0.1050809999999999,-0.1543845,0.48616,-0.1230639999999999,-0.2665444999999999,0.7016100000000001,-0.213219,0.1457755,0.47685,-0.1123719999999999,0.2806855,0.67964,-0.1901579999999999,-0.3269944999999999,0.93985,-0.2645599999999999,0.3120555,0.8912500000000001,-0.2428199999999999,-0.0786305,-0.0007599999999999,-0.0026799999999999,0.0786305,0.0007599999999999,0.00268,-0.1165145,-0.09736,-0.30967,0.1583655,-0.09169,-0.29679,-0.0952195,-0.4066,-0.1556719999999999,0.0956135,-0.3985599999999999,-0.1450459999999999,1
129,-0.009648,0.675055,-0.108194,-0.153954,0.484365,-0.125919,-0.266194,0.699225,-0.216773,0.145546,0.476255,-0.114885,0.280476,0.6786449999999999,-0.194025,-0.326464,0.936825,-0.26997,0.311566,0.891525,-0.24836,-0.078607,-0.0009049999999999,-0.0030799999999999,0.078607,0.0009049999999999,0.0030799999999999,-0.116344,-0.081795,-0.3133599999999999,0.158536,-0.076125,-0.29963,-0.094949,-0.391345,-0.157756,0.095576,-0.3837049999999999,-0.147875,1
130,-0.0095204999999999,0.672925,-0.110896,-0.1539705,0.4835049999999999,-0.128243,-0.2661305,0.697855,-0.22024,0.1453995,0.475225,-0.117056,0.2804395,0.677475,-0.197554,-0.3262005,0.935385,-0.274775,0.3107295,0.8873850000000001,-0.253405,-0.0785775,-0.001045,-0.003565,0.0785775,0.001045,0.003565,-0.1162005,-0.0692249999999999,-0.3164949999999999,0.1585395,-0.063695,-0.301885,-0.0947025,-0.3766449999999999,-0.159513,0.0954785,-0.369435,-0.150261,1
131,-0.009137,0.6703049999999999,-0.11314,-0.1538979999999999,0.4811249999999999,-0.129876,-0.265858,0.695375,-0.222992,0.145452,0.4748349999999999,-0.118678,0.280402,0.675535,-0.200612,-0.3254579999999999,0.935565,-0.2780749999999999,0.310102,0.8844449999999999,-0.257585,-0.078682,-0.001345,-0.004175,0.078682,0.0013449999999999,0.0041749999999999,-0.115848,-0.057035,-0.319065,0.158702,-0.051565,-0.3033949999999999,-0.094243,-0.362535,-0.160866,0.095576,-0.3556950000000001,-0.152197,1
132,-0.008528,0.66979,-0.114476,-0.153382,0.48053,-0.130769,-0.265052,0.69594,-0.224994,0.145658,0.473805,-0.119562,0.280638,0.67529,-0.202796,-0.324462,0.93685,-0.280695,0.309708,0.88303,-0.260715,-0.0786719999999999,-0.00134,-0.004875,0.0786719999999999,0.00134,0.0048749999999999,-0.115332,-0.0422599999999999,-0.321295,0.159028,-0.0366799999999999,-0.304245,-0.093553,-0.3459,-0.161519,0.0959009999999999,-0.33945,-0.153431,1
133,-0.00777,0.66811,-0.115488,-0.152824,0.478925,-0.1313669999999999,-0.264254,0.69503,-0.226577,0.146266,0.471955,-0.120096,0.280756,0.67488,-0.204583,-0.323244,0.93685,-0.28297,0.309826,0.88384,-0.26306,-0.078648,-0.0014799999999999,-0.0054599999999999,0.078648,0.00148,0.0054599999999999,-0.114814,-0.0276199999999999,-0.32319,0.159526,-0.0219899999999999,-0.3047999999999999,-0.092771,-0.3296399999999999,-0.162024,0.096401,-0.3236599999999999,-0.1543479999999999,1
134,-0.006912,0.667875,-0.1162669999999999,-0.152318,0.4788489999999999,-0.1318129999999999,-0.263478,0.694455,-0.227647,0.1473419999999999,0.4729,-0.1201399999999999,0.281462,0.675505,-0.206111,-0.321878,0.932925,-0.285045,0.310172,0.883515,-0.265165,-0.078575,-0.001555,-0.0058249999999999,0.078575,0.0015549999999999,0.005825,-0.114408,-0.012915,-0.324625,0.160012,-0.007245,-0.305085,-0.091912,-0.313695,-0.162289,0.097091,-0.308175,-0.1550679999999999,1
135,-0.0060099999999999,0.66769,-0.117012,-0.151737,0.477294,-0.13211,-0.262557,0.69279,-0.228687,0.148543,0.474497,-0.120165,0.282403,0.67759,-0.207497,-0.320497,0.9308,-0.28703,0.310863,0.88349,-0.26715,-0.07855,-0.00189,-0.00617,0.07855,0.00189,0.00617,-0.114017,0.0023299999999999,-0.32575,0.160533,0.00785,-0.3054,-0.090953,-0.29741,-0.16251,0.097909,-0.29231,-0.155669,1
136,-0.0051325,0.66673,-0.117122,-0.1513054999999999,0.477973,-0.1318119999999999,-0.2617955,0.69242,-0.229216,0.1496845,0.474004,-0.119837,0.2831845,0.6779299999999999,-0.20848,-0.3193255,0.92828,-0.288495,0.3116845,0.8830899999999999,-0.268655,-0.0786395,-0.00169,-0.0063249999999999,0.0786395,0.0016899999999999,0.0063249999999999,-0.1138455,0.0163799999999999,-0.325875,0.1607245,0.02176,-0.304695,-0.0901395,-0.28243,-0.162263,0.0986355,-0.27761,-0.155604,1
137,-0.00439,0.667545,-0.1170519999999999,-0.151085,0.478624,-0.1312529999999999,-0.261255,0.6959550000000001,-0.229576,0.150295,0.473929,-0.1194109999999999,0.2841249999999999,0.679295,-0.209089,-0.3186449999999999,0.931395,-0.289035,0.3122749999999999,0.882255,-0.269735,-0.078697,-0.0013849999999999,-0.0067049999999999,0.078697,0.001385,0.006705,-0.113965,0.031965,-0.325545,0.160655,0.036695,-0.303335,-0.089552,-0.2663049999999999,-0.161736,0.099136,-0.2617549999999999,-0.1552339999999999,1
138,-0.003664,0.66688,-0.116545,-0.150831,0.478455,-0.130607,-0.260711,0.69648,-0.229572,0.151019,0.472832,-0.118525,0.284699,0.67847,-0.209497,-0.318031,0.93141,-0.28952,0.312869,0.8789899999999999,-0.27071,-0.078747,-0.0010499999999999,-0.00718,0.078747,0.0010499999999999,0.0071799999999999,-0.114111,0.0449399999999999,-0.32509,0.160729,0.04896,-0.30181,-0.088976,-0.25281,-0.160999,0.099634,-0.2483899999999999,-0.15474,1
139,-0.0028234999999999,0.66682,-0.115756,-0.1502115,0.479008,-0.129767,-0.2600815,0.69728,-0.229366,0.1519885,0.472599,-0.117203,0.2854784999999999,0.67854,-0.209381,-0.3173515,0.92955,-0.28971,0.3136784999999999,0.88079,-0.27165,-0.0787325,-0.0004399999999999,-0.00798,0.0787325,0.0004399999999999,0.0079799999999999,-0.1141514999999999,0.05843,-0.32429,0.1609285,0.06187,-0.2995,-0.0883724999999999,-0.2389199999999999,-0.159876,0.1000775,-0.2343799999999999,-0.15391,1
140,-0.0022145,0.6669050000000001,-0.115087,-0.1497465,0.480278,-0.129104,-0.2596064999999999,0.6985750000000001,-0.229256,0.1528235,0.472937,-0.11596,0.2862435,0.6797150000000001,-0.2091319999999999,-0.3169165,0.925275,-0.290675,0.3145135,0.882135,-0.272835,-0.0785035,0.000205,-0.0086749999999999,0.0785035,-0.0002049999999999,0.0086749999999999,-0.1144065,0.071675,-0.3234249999999999,0.1610035,0.074485,-0.297165,-0.0879325,-0.2252349999999999,-0.158919,0.1003695,-0.2205749999999999,-0.153136,1
141,-0.0017615,0.664405,-0.114088,-0.1496425,0.479366,-0.127946,-0.2593925,0.697555,-0.228857,0.1533675,0.473211,-0.114505,0.2869675,0.678165,-0.208373,-0.3166125,0.918445,-0.291375,0.3153275,0.881495,-0.273635,-0.0784075,0.0005749999999999,-0.0089049999999999,0.0784075,-0.0005749999999999,0.0089049999999999,-0.1148125,0.081135,-0.322345,0.1611475,0.083515,-0.294775,-0.0876315,-0.2152849999999999,-0.157713,0.1005325,-0.2104249999999999,-0.151732,1
142,-0.001331,0.663925,-0.112586,-0.149459,0.480071,-0.126372,-0.259239,0.698295,-0.227912,0.153691,0.473612,-0.112512,0.287781,0.678135,-0.206923,-0.316309,0.914025,-0.291565,0.316631,0.882035,-0.273995,-0.078287,0.0015549999999999,-0.009005,0.078287,-0.0015549999999999,0.0090049999999999,-0.1151789999999999,0.091915,-0.320455,0.161241,0.093775,-0.2915149999999999,-0.087343,-0.2041349999999999,-0.15614,0.100686,-0.1989849999999999,-0.149358,1
143,-0.0009475,0.6632149999999999,-0.110996,-0.1493605,0.4804869999999999,-0.124892,-0.2590504999999999,0.698885,-0.227112,0.1539895,0.4742039999999999,-0.110568,0.2887595,0.676955,-0.205524,-0.3160004999999999,0.913095,-0.291495,0.3180695,0.8828449999999999,-0.274045,-0.0781375,0.0023149999999999,-0.0090449999999999,0.0781375,-0.002315,0.0090449999999999,-0.1154205,0.1013849999999999,-0.3183249999999999,0.1614195,0.1028149999999999,-0.288265,-0.0871725,-0.1942750000000001,-0.154645,0.1008594999999999,-0.188795,-0.146863,1
144,-0.0007725,0.6626050000000001,-0.109674,-0.1495505,0.481914,-0.123619,-0.2591505,0.700165,-0.22662,0.1544895,0.4740420000000001,-0.108665,0.2894795,0.6758050000000001,-0.204317,-0.3159605,0.911045,-0.291645,0.3192995,0.884455,-0.274045,-0.0780615,0.003275,-0.008995,0.0780615,-0.0032749999999999,0.008995,-0.1159205,0.109985,-0.315915,0.1613995,0.111195,-0.285195,-0.0873495,-0.1853449999999999,-0.153297,0.1007605,-0.1792349999999999,-0.144226,1
145,-0.0005969999999999,0.661365,-0.1085589999999999,-0.149555,0.48169,-0.1224479999999999,-0.259085,0.697335,-0.226441,0.154755,0.474675,-0.1071399999999999,0.290305,0.674185,-0.203318,-0.315695,0.909135,-0.2918849999999999,0.320475,0.885085,-0.273985,-0.0779509999999999,0.003645,-0.0088749999999999,0.0779509999999999,-0.003645,0.008875,-0.1163049999999999,0.117095,-0.313365,0.161475,0.118005,-0.282385,-0.087594,-0.1778649999999999,-0.1521559999999999,0.100676,-0.1710749999999999,-0.1415489999999999,1
146,-0.0002924999999999,0.660215,-0.1072639999999999,-0.1493985,0.4819779999999999,-0.1213949999999999,-0.2587885,0.695025,-0.2262429999999999,0.1550515,0.4746979999999999,-0.1057039999999999,0.2912215,0.6724549999999999,-0.202075,-0.3156485,0.905605,-0.29205,0.3216315,0.8869849999999999,-0.2737,-0.0778225,0.0041249999999999,-0.0087899999999999,0.0778225,-0.004125,0.00879,-0.1165384999999999,0.1234349999999999,-0.31071,0.1617015,0.1241749999999999,-0.27936,-0.0877785,-0.171225,-0.1509829999999999,0.1005475,-0.163505,-0.1386069999999999,1
147,-9.049999999999855e-05,0.659327,-0.105864,-0.1494835,0.481993,-0.120157,-0.2587635,0.69345,-0.22613,0.1552664999999999,0.4757389999999999,-0.10454,0.2919465,0.6715,-0.20064,-0.3156135,0.90187,-0.29217,0.3225665,0.88869,-0.27308,-0.0776855,0.0045999999999999,-0.0087,0.0776855,-0.0046,0.0086999999999999,-0.1169535,0.12983,-0.30817,0.1618264999999999,0.1303999999999999,-0.27625,-0.0880305,-0.16462,-0.149576,0.1002105,-0.15592,-0.135624,1
148,-2.5000000000004186e-05,0.658015,-0.1043739999999999,-0.149654,0.481936,-0.1189559999999999,-0.258764,0.69179,-0.2260559999999999,0.155386,0.4759569999999999,-0.1034109999999999,0.292546,0.66994,-0.1992689999999999,-0.3156339999999999,0.89928,-0.29228,0.323106,0.89001,-0.2722199999999999,-0.07766,0.0049099999999999,-0.0085899999999999,0.07766,-0.0049099999999999,0.00859,-0.1176039999999999,0.13504,-0.30582,0.162046,0.1354399999999999,-0.2734499999999999,-0.088364,-0.15918,-0.1481809999999999,0.099551,-0.14882,-0.1326429999999999,1
149,-9.750000000000555e-05,0.65746,-0.10292,-0.1499495,0.482504,-0.117709,-0.2588795,0.6908650000000001,-0.225882,0.1553805,0.475809,-0.102285,0.2929005,0.668887,-0.197666,-0.3156495,0.900385,-0.291805,0.3234605,0.891325,-0.271385,-0.0775845,0.005325,-0.008475,0.0775845,-0.0053249999999999,0.0084749999999999,-0.1184195,0.140055,-0.303515,0.1622505,0.140245,-0.270595,-0.0888195,-0.1540049999999999,-0.146745,0.0986615,-0.142015,-0.129664,1
150,-8.499999999998092e-06,0.657664,-0.101547,-0.1500655,0.482855,-0.116542,-0.2586854999999999,0.6900350000000001,-0.225819,0.1554245,0.475465,-0.101255,0.2932745,0.66846,-0.196001,-0.3154455,0.901575,-0.29161,0.3240645,0.8903350000000001,-0.27066,-0.0773945,0.005765,-0.00836,0.0773945,-0.0057649999999999,0.00836,-0.1190655,0.145225,-0.3012,0.1626345,0.145105,-0.26772,-0.0891355,-0.1487849999999999,-0.145149,0.0978884999999999,-0.1352549999999999,-0.126952,1
151,3.500000000000204e-05,0.656933,-0.1005959999999999,-0.150197,0.4824,-0.1158619999999999,-0.258707,0.6884300000000001,-0.226218,0.155333,0.47544,-0.100848,0.293433,0.6670290000000001,-0.194639,-0.315297,0.90147,-0.29193,0.324503,0.8879,-0.27026,-0.077414,0.00576,-0.00839,0.077414,-0.0057599999999999,0.00839,-0.119797,0.14884,-0.2993599999999999,0.163073,0.14839,-0.26566,-0.0893569999999999,-0.1449899999999999,-0.143988,0.097237,-0.13044,-0.125207,1
152,6.199999999999956e-05,0.656311,-0.099794,-0.150434,0.4819299999999999,-0.11516,-0.258754,0.6869799999999999,-0.226679,0.155176,0.4750899999999999,-0.100564,0.2935959999999999,0.66679,-0.193397,-0.315144,0.90157,-0.292345,0.3248959999999999,0.8856799999999999,-0.269755,-0.077414,0.0058199999999999,-0.008365,0.077414,-0.00582,0.0083649999999999,-0.120584,0.1522199999999999,-0.297565,0.163536,0.1513799999999999,-0.263665,-0.089454,-0.14155,-0.14295,0.096602,-0.12599,-0.123672,1
153,7.349999999999544e-05,0.656386,-0.0990299999999999,-0.1506945,0.4814,-0.114505,-0.2587745,0.685666,-0.226983,0.1550055,0.47483,-0.1002249999999999,0.2937055,0.667059,-0.192344,-0.3150145,0.90196,-0.29273,0.3252655,0.88394,-0.26924,-0.0774374999999999,0.00592,-0.00833,0.0774374999999999,-0.00592,0.00833,-0.1213845,0.1557,-0.29568,0.1639155,0.15449,-0.2616199999999999,-0.0894845,-0.13805,-0.1419059999999999,0.0961045,-0.1218099999999999,-0.122455,1
154,7.850000000000218e-05,0.65606,-0.0983989999999999,-0.1508815,0.481465,-0.1139729999999999,-0.2587615,0.68763,-0.2271389999999999,0.1548485,0.474585,-0.099935,0.2937985,0.66697,-0.191527,-0.3148215,0.901965,-0.2931399999999999,0.3255985,0.881625,-0.26863,-0.0774435,0.006005,-0.00833,0.0774435,-0.006005,0.00833,-0.1223215,0.158225,-0.2941,0.1643285,0.156825,-0.25999,-0.0895215,-0.135525,-0.1407759999999999,0.0957315,-0.118805,-0.1215329999999999,1
155,0.0001025,0.655759,-0.097885,-0.1509795,0.4813,-0.113476,-0.2587494999999999,0.689114,-0.227308,0.1547805,0.47458,-0.099587,0.2939104999999999,0.666873,-0.190901,-0.3144995,0.90249,-0.29357,0.3258204999999999,0.88043,-0.26808,-0.0774505,0.00606,-0.00834,0.0774505,-0.0060599999999999,0.0083399999999999,-0.1232595,0.16028,-0.29276,0.1648005,0.1588,-0.2586,-0.0895295,-0.1333799999999999,-0.139743,0.0955505,-0.1164199999999999,-0.12092,1
156,0.0001369999999999,0.655764,-0.0974749999999999,-0.150927,0.48194,-0.1132289999999999,-0.258687,0.6901120000000001,-0.227489,0.154833,0.47464,-0.099266,0.294003,0.666775,-0.190409,-0.314187,0.90364,-0.293985,0.326003,0.87958,-0.267545,-0.07744,0.00618,-0.0083649999999999,0.07744,-0.0061799999999999,0.008365,-0.1240969999999999,0.16181,-0.291725,0.165303,0.16033,-0.257405,-0.089497,-0.1316799999999999,-0.13904,0.0954579999999999,-0.1146799999999999,-0.1203939999999999,1
157,0.0001674999999999,0.655732,-0.0971549999999999,-0.1508875,0.4817849999999999,-0.1130739999999999,-0.2586375,0.690294,-0.2275959999999999,0.1548625,0.4750949999999999,-0.0990249999999999,0.2940724999999999,0.666526,-0.189967,-0.3137775,0.904095,-0.294375,0.3261425,0.8784749999999999,-0.267015,-0.0774595,0.0059949999999999,-0.0083949999999999,0.0774595,-0.005995,0.008395,-0.1248075,0.1623549999999999,-0.2910549999999999,0.1658325,0.1607849999999999,-0.2565449999999999,-0.0893875,-0.1310350000000001,-0.138396,0.0954774999999999,-0.114225,-0.1198759999999999,1
158,0.0001585,0.655732,-0.096997,-0.1508855,0.4817849999999999,-0.1131089999999999,-0.2586355,0.690294,-0.227651,0.1548445,0.4750949999999999,-0.0987659999999999,0.2941045,0.666526,-0.189958,-0.3133855,0.904095,-0.29471,0.3262545,0.8784649999999999,-0.26646,-0.0774575,0.0059949999999999,-0.0084299999999999,0.0774575,-0.005995,0.00843,-0.1254954999999999,0.1625449999999999,-0.29089,0.1663345,0.1607849999999999,-0.2561799999999999,-0.0893855,-0.130825,-0.1377999999999999,0.0954565,-0.114225,-0.1195339999999999,1
159,0.000154,0.655732,-0.096924,-0.150835,0.4817849999999999,-0.113126,-0.258635,0.690294,-0.227656,0.154845,0.4750949999999999,-0.098646,0.294175,0.666526,-0.189959,-0.312905,0.904095,-0.294865,0.326355,0.8784649999999999,-0.266115,-0.077458,0.0059949999999999,-0.008425,0.077458,-0.005995,0.0084249999999999,-0.126115,0.1628449999999999,-0.290925,0.166855,0.1608249999999999,-0.256155,-0.089415,-0.130615,-0.137433,0.095457,-0.114225,-0.119539,1
160,0.000181,0.655732,-0.097073,-0.1507359999999999,0.4817849999999999,-0.11327,-0.258586,0.690294,-0.227804,0.155034,0.4754949999999999,-0.0987,0.294284,0.666526,-0.189898,-0.312316,0.904775,-0.295005,0.326464,0.8784649999999999,-0.265835,-0.0774489999999999,0.0059949999999999,-0.008575,0.0774489999999999,-0.005995,0.008575,-0.126746,0.1632849999999999,-0.291115,0.167424,0.1610049999999999,-0.256265,-0.089416,-0.130435,-0.137335,0.0955459999999999,-0.114775,-0.119684,1
161,0.0002085,0.655489,-0.097548,-0.1504694999999999,0.4814449999999999,-0.1138299999999999,-0.2584495,0.689411,-0.228273,0.1550105,0.4760949999999999,-0.0991789999999999,0.2943705,0.666688,-0.1903699999999999,-0.3117495,0.905005,-0.295595,0.3265105,0.877385,-0.2658549999999999,-0.0774495,0.0057249999999999,-0.0088749999999999,0.0774495,-0.005725,0.008875,-0.1273595,0.1626849999999999,-0.291625,0.1681205,0.1601849999999999,-0.2567049999999999,-0.0894695,-0.131365,-0.137589,0.0956565,-0.116415,-0.1201549999999999,1
162,0.000132,0.655829,-0.098315,-0.14999,0.481215,-0.11486,-0.25827,0.688071,-0.229126,0.15481,0.476525,-0.099953,0.29441,0.667434,-0.191211,-0.31132,0.904715,-0.29672,0.3263,0.879095,-0.26602,-0.0773389999999999,0.005415,-0.00921,0.0773389999999999,-0.0054149999999999,0.0092099999999999,-0.12764,0.160565,-0.29252,0.16872,0.158025,-0.25758,-0.08973,-0.1336349999999999,-0.138219,0.096023,-0.1194349999999999,-0.121304,1
163,0.000226,0.6581130000000001,-0.0991769999999999,-0.149399,0.48146,-0.1161609999999999,-0.257679,0.686604,-0.2296869999999999,0.154601,0.4766,-0.1007669999999999,0.294231,0.6690360000000001,-0.1918139999999999,-0.310399,0.90691,-0.2974599999999999,0.326131,0.88092,-0.26608,-0.077131,0.00501,-0.0095399999999999,0.077131,-0.0050099999999999,0.00954,-0.127769,0.15689,-0.2941,0.169371,0.15443,-0.25915,-0.089979,-0.1374699999999999,-0.139007,0.0966229999999999,-0.1240399999999999,-0.1227319999999999,1
164,0.0003249999999999,0.659413,-0.100584,-0.148382,0.481665,-0.11794,-0.257052,0.6876850000000001,-0.230872,0.154798,0.477445,-0.102084,0.294358,0.6709280000000001,-0.193335,-0.309482,0.908755,-0.29903,0.326108,0.8842450000000001,-0.26648,-0.077184,0.004495,-0.00995,0.077184,-0.0044949999999999,0.0099499999999999,-0.127852,0.150485,-0.29649,0.170048,0.148135,-0.26128,-0.090192,-0.143775,-0.140171,0.097466,-0.131235,-0.125019,1
165,0.0003265,0.6615420000000001,-0.103186,-0.1474405,0.480422,-0.121098,-0.2562305,0.68715,-0.233219,0.1548295,0.477631,-0.104686,0.2943395,0.672517,-0.196003,-0.3087305,0.91093,-0.30191,0.3259395,0.8867800000000001,-0.26791,-0.0771475,0.00363,-0.0105,0.0771475,-0.0036299999999999,0.0105,-0.1280705,0.1413,-0.30024,0.1705795,0.13921,-0.2649,-0.0905405,-0.15286,-0.14255,0.0981545,-0.1412599999999999,-0.128624,1
166,0.0003484999999999,0.663915,-0.105913,-0.1463884999999999,0.479136,-0.1245189999999999,-0.2554085,0.687405,-0.235833,0.1548614999999999,0.47779,-0.107659,0.2943915,0.674465,-0.198841,-0.3078785,0.914405,-0.3051899999999999,0.3259315,0.890325,-0.26932,-0.0771395,0.002855,-0.01064,0.0771395,-0.0028549999999999,0.01064,-0.1279885,0.131035,-0.30339,0.1711214999999999,0.128935,-0.26914,-0.0909485,-0.1633449999999999,-0.145205,0.0987965,-0.152525,-0.1326709999999999,1
167,0.0004869999999999,0.66364,-0.1085759999999999,-0.145261,0.478219,-0.128045,-0.254341,0.68603,-0.238195,0.154879,0.477188,-0.110791,0.294369,0.67347,-0.2015199999999999,-0.307131,0.91642,-0.307845,0.325909,0.88957,-0.270885,-0.077129,0.00197,-0.0108049999999999,0.077129,-0.00197,0.010805,-0.127951,0.11412,-0.306145,0.171619,0.11207,-0.2740749999999999,-0.091431,-0.1805,-0.147915,0.09938,-0.1702899999999999,-0.136867,1
168,0.0008365,0.66538,-0.111533,-0.1441695,0.477201,-0.131925,-0.2532895,0.6859599999999999,-0.240884,0.1547505,0.4754579999999999,-0.1142929999999999,0.2944505,0.6741699999999999,-0.2045,-0.3059195,0.91788,-0.31086,0.3260005,0.8893,-0.27276,-0.0771575,0.0013299999999999,-0.0103599999999999,0.0771575,-0.00133,0.01036,-0.1274895,0.0964599999999999,-0.30912,0.1720505,0.0944499999999999,-0.27934,-0.0918895,-0.19854,-0.150942,0.0999295,-0.18883,-0.141448,1
169,0.0006984999999999,0.66778,-0.113924,-0.1438005,0.477341,-0.135076,-0.2527305,0.68616,-0.2429879999999999,0.1539295,0.47386,-0.1172179999999999,0.2939394999999999,0.67534,-0.206902,-0.3054005,0.91814,-0.3132,0.3254694999999999,0.8901600000000001,-0.27413,-0.0772905,0.0008,-0.0096799999999999,0.0772905,-0.0008,0.0096799999999999,-0.1272405,0.0738,-0.3115099999999999,0.1716995,0.0728099999999999,-0.28383,-0.0930304999999999,-0.22146,-0.15334,0.0998375,-0.21216,-0.145643,1
170,0.0002065,0.67008,-0.115577,-0.1437594999999999,0.477981,-0.137096,-0.2524395,0.68557,-0.244341,0.1530605,0.472761,-0.119334,0.2931205,0.67473,-0.208632,-0.3051395,0.92006,-0.31484,0.3247505,0.8893500000000001,-0.27459,-0.0776115,0.00023,-0.00889,0.0776115,-0.00023,0.0088899999999999,-0.1270095,0.04909,-0.3133,0.1708805,0.0499899999999999,-0.28731,-0.0943894999999999,-0.24678,-0.155159,0.0994855,-0.23775,-0.149436,1
171,-0.0004049999999999,0.6721900000000001,-0.1163839999999999,-0.144087,0.478577,-0.13828,-0.252377,0.68841,-0.2448769999999999,0.151993,0.473444,-0.1207999999999999,0.292193,0.67536,-0.2097549999999999,-0.304937,0.92491,-0.31571,0.323903,0.88947,-0.27426,-0.077818,-0.00029,-0.0082199999999999,0.077818,0.00029,0.00822,-0.126757,0.02401,-0.3143,0.169813,0.02698,-0.28933,-0.0958369999999999,-0.27315,-0.156409,0.098653,-0.26439,-0.152001,1
172,-0.0013774999999999,0.673085,-0.116384,-0.1443385,0.478223,-0.139023,-0.2528585,0.690385,-0.245009,0.1505715,0.47417,-0.121717,0.2909415,0.675655,-0.21013,-0.3055885,0.925135,-0.316145,0.3228415,0.890145,-0.273305,-0.0781385,-0.000875,-0.007505,0.0781385,0.000875,0.0075049999999999,-0.1265985,-0.001695,-0.314545,0.1685015,0.0033549999999999,-0.290145,-0.0974584999999999,-0.300705,-0.157234,0.0975095,-0.2923249999999999,-0.15393,1
173,-0.0022279999999999,0.67555,-0.1154129999999999,-0.145451,0.477904,-0.139307,-0.253621,0.69004,-0.2442079999999999,0.149259,0.475069,-0.1220129999999999,0.289759,0.67645,-0.2093989999999999,-0.306331,0.92356,-0.315485,0.321639,0.89039,-0.270935,-0.078315,-0.00134,-0.0073049999999999,0.078315,0.00134,0.007305,-0.1262609999999999,-0.02648,-0.3137649999999999,0.166939,-0.0195099999999999,-0.290455,-0.098991,-0.3286799999999999,-0.157545,0.096288,-0.3207099999999999,-0.154994,1
174,-0.0028074999999999,0.677895,-0.113635,-0.1460675,0.479485,-0.139027,-0.2541974999999999,0.691995,-0.242987,0.1484825,0.475975,-0.122051,0.2886925,0.677565,-0.208114,-0.3067474999999999,0.926315,-0.3127,0.3207325,0.891425,-0.2677,-0.0783855,-0.0013749999999999,-0.00731,0.0783855,0.001375,0.0073099999999999,-0.1259175,-0.0501049999999999,-0.3124,0.1657225,-0.0415549999999999,-0.29052,-0.1002375,-0.3562349999999999,-0.157714,0.0954075,-0.348905,-0.155731,1
175,-0.003497,0.680035,-0.11127,-0.146704,0.480935,-0.138695,-0.254644,0.692375,-0.241931,0.147626,0.478045,-0.121977,0.2875959999999999,0.679145,-0.206543,-0.307104,0.926925,-0.31009,0.319586,0.890555,-0.2642299999999999,-0.078318,-0.001535,-0.0071799999999999,0.078318,0.001535,0.0071799999999999,-0.125894,-0.0745349999999999,-0.3097,0.164266,-0.0644849999999999,-0.2904299999999999,-0.101524,-0.385535,-0.157685,0.0948239999999999,-0.378535,-0.157153,1
176,-0.004358,0.68423,-0.107928,-0.147222,0.4849099999999999,-0.136924,-0.255312,0.6967099999999999,-0.239726,0.146888,0.48083,-0.121101,0.286598,0.6825399999999999,-0.204133,-0.307392,0.9278,-0.306515,0.318428,0.8928,-0.259905,-0.078227,-0.0013299999999999,-0.006565,0.078227,0.0013299999999999,0.0065649999999999,-0.125842,-0.0944,-0.305935,0.162678,-0.08301,-0.288735,-0.102762,-0.41075,-0.157184,0.094416,-0.40417,-0.158246,1
177,-0.005343,0.688235,-0.102973,-0.147692,0.488295,-0.133633,-0.255982,0.698585,-0.2356639999999999,0.146308,0.484475,-0.118783,0.285608,0.686185,-0.200289,-0.3086219999999999,0.927485,-0.3012249999999999,0.317218,0.896615,-0.253635,-0.077946,-0.0013249999999999,-0.0055349999999999,0.077946,0.001325,0.005535,-0.126082,-0.1129749999999999,-0.300765,0.161368,-0.1014149999999999,-0.285885,-0.103962,-0.4355949999999999,-0.155948,0.09446,-0.429875,-0.158339,1
178,-0.0059774999999999,0.69238,-0.096865,-0.1477035,0.49007,-0.129235,-0.2567035,0.69925,-0.230343,0.1462264999999999,0.48677,-0.11518,0.2851965,0.6888700000000001,-0.195645,-0.3093535,0.92653,-0.29517,0.3164965,0.89737,-0.246108,-0.0775885,-0.0012299999999999,-0.00478,0.0775885,0.00123,0.0047799999999999,-0.1259635,-0.12805,-0.29459,0.1603065,-0.1173299999999999,-0.28139,-0.1046634999999999,-0.4570499999999999,-0.153871,0.0949905,-0.45233,-0.157151,1
179,-0.0067384999999999,0.696555,-0.090288,-0.1479555,0.492405,-0.124475,-0.2572755,0.704785,-0.223953,0.1454245,0.491995,-0.111664,0.2847444999999999,0.6938150000000001,-0.190473,-0.3103455,0.924435,-0.288015,0.3155544999999999,0.8993550000000001,-0.238152,-0.0775425,-0.0011249999999999,-0.003945,0.0775425,0.001125,0.003945,-0.1260055,-0.141065,-0.288285,0.1585945,-0.1324249999999999,-0.274925,-0.1056255,-0.4760849999999999,-0.15179,0.0953105,-0.4731049999999999,-0.155852,1
180,-0.007285,0.70129,-0.083329,-0.148233,0.49499,-0.119226,-0.258013,0.70657,-0.217039,0.144847,0.49515,-0.107577,0.284057,0.69713,-0.184579,-0.311153,0.92637,-0.280075,0.315127,0.90239,-0.229645,-0.077527,-0.0011099999999999,-0.0036349999999999,0.077527,0.0011099999999999,0.0036349999999999,-0.125783,-0.15328,-0.281275,0.157107,-0.1468,-0.267475,-0.106453,-0.49402,-0.149495,0.096129,-0.49265,-0.154014,1
181,-0.0074864999999999,0.705525,-0.0767069999999999,-0.1485254999999999,0.497885,-0.1142489999999999,-0.2583455,0.710465,-0.2103149999999999,0.1450145,0.499785,-0.1034219999999999,0.2842345,0.7011649999999999,-0.1789059999999999,-0.3117755,0.928215,-0.272485,0.3150544999999999,0.905745,-0.221076,-0.0775375,-0.0008849999999999,-0.0034549999999999,0.0775375,0.0008849999999999,0.003455,-0.1251255,-0.164535,-0.2741249999999999,0.1555045,-0.160185,-0.259715,-0.1070255,-0.510895,-0.148193,0.0972345,-0.5108050000000001,-0.1521379999999999,1
182,-0.0074619999999999,0.70977,-0.069848,-0.148566,0.5004200000000001,-0.109016,-0.258436,0.7133,-0.203774,0.145514,0.50204,-0.098881,0.284624,0.70362,-0.172791,-0.312876,0.93508,-0.263565,0.315324,0.90799,-0.212689,-0.077271,-0.0008199999999999,-0.003335,0.077271,0.00082,0.003335,-0.1240759999999999,-0.17641,-0.265745,0.153704,-0.1737599999999999,-0.250705,-0.1073659999999999,-0.5272,-0.145867,0.098594,-0.52838,-0.150067,1
183,-0.0072894999999999,0.7140150000000001,-0.063356,-0.1486265,0.503825,-0.1039399999999999,-0.2584165,0.716575,-0.197428,0.1461235,0.504065,-0.0943949999999999,0.2851435,0.706395,-0.167051,-0.3135464999999999,0.938245,-0.256335,0.3158134999999999,0.911255,-0.2049419999999999,-0.0768885,-0.0006249999999999,-0.003055,0.0768885,0.000625,0.003055,-0.1227964999999999,-0.1871749999999999,-0.257245,0.1517135,-0.186375,-0.2417349999999999,-0.1076565,-0.541915,-0.14332,0.1002035,-0.5442549999999999,-0.148168,1
184,-0.0066915,0.71864,-0.056963,-0.1484194999999999,0.50812,-0.098776,-0.2579295,0.7198200000000001,-0.1908099999999999,0.1480205,0.50972,-0.089309,0.2860305,0.7093100000000001,-0.161401,-0.3136995,0.94128,-0.249025,0.3166605,0.91384,-0.197257,-0.0763274999999999,-0.0004099999999999,-0.0030049999999999,0.0763274999999999,0.00041,0.003005,-0.1208495,-0.1977499999999999,-0.247925,0.1496105,-0.1982899999999999,-0.231395,-0.1075395,-0.55549,-0.139879,0.1018705,-0.5589500000000001,-0.145177,1
185,-0.005773,0.72409,-0.05113,-0.148035,0.51147,-0.094818,-0.257135,0.7214900000000001,-0.184832,0.150025,0.51414,-0.084951,0.2870049999999999,0.71309,-0.156494,-0.313645,0.9445,-0.24224,0.3177549999999999,0.91673,-0.190447,-0.075798,-0.0002999999999999,-0.0028299999999999,0.075798,0.0003,0.0028299999999999,-0.118325,-0.2072699999999999,-0.23803,0.147995,-0.2083099999999999,-0.222079,-0.1071449999999999,-0.56821,-0.1364,0.104525,-0.5714199999999999,-0.141911,1
186,-0.0043224999999999,0.728034,-0.045601,-0.1468525,0.514844,-0.091016,-0.2559924999999999,0.724224,-0.179045,0.1517375,0.517694,-0.081119,0.2883275,0.715214,-0.151754,-0.3125624999999999,0.948614,-0.235505,0.3191675,0.920024,-0.184489,-0.0752835,-0.000242,-0.002585,0.0752835,0.0002419999999999,0.002585,-0.1152324999999999,-0.217706,-0.227035,0.1468075,-0.218206,-0.212039,-0.1059525,-0.580886,-0.132599,0.1072475,-0.583406,-0.138018,1
187,-0.0032015,0.7334040000000001,-0.0411,-0.1466575,0.520664,-0.087972,-0.2553175,0.729714,-0.175972,0.1537425,0.521524,-0.077967,0.2891225,0.718264,-0.147965,-0.3119774999999999,0.954584,-0.230155,0.3199625,0.925204,-0.179609,-0.0749305,-0.0001379999999999,-0.002475,0.0749305,0.0001379999999999,0.002475,-0.1125475,-0.2316559999999999,-0.216395,0.1453225,-0.231076,-0.202652,-0.1051575,-0.5944659999999999,-0.129519,0.1080425,-0.596096,-0.134938,1
188,-0.00219,0.738775,-0.0373659999999999,-0.1460179999999999,0.525045,-0.085092,-0.254588,0.7320249999999999,-0.173087,0.155562,0.522365,-0.075235,0.289952,0.7204349999999999,-0.144649,-0.311348,0.960625,-0.22549,0.320622,0.930895,-0.175568,-0.074511,-1.000000000001e-06,-0.0024399999999999,0.074511,1.000000000001e-06,0.0024399999999999,-0.109878,-0.245195,-0.204642,0.143732,-0.2430649999999999,-0.193398,-0.1044279999999999,-0.6080650000000001,-0.126634,0.108772,-0.607715,-0.132053,1
189,-0.001439,0.743147,-0.030169,-0.145895,0.529787,-0.078933,-0.254245,0.732827,-0.166701,0.157335,0.5243869999999999,-0.069062,0.290375,0.7206670000000001,-0.138258,-0.311085,0.958097,-0.2178399999999999,0.320995,0.932077,-0.168448,-0.074026,0.0001699999999999,-0.002,0.074026,-0.00017,0.002,-0.107365,-0.260393,-0.188186,0.141415,-0.257263,-0.178655,-0.104055,-0.623283,-0.117994,0.109045,-0.621313,-0.123932,1
190,-0.0007795,0.7409555,-0.018655,-0.1460725,0.5309755,-0.068206,-0.2547325,0.7323755000000001,-0.155832,0.1592775,0.5224855,-0.058372,0.2906275,0.7147555,-0.127271,-0.3109325,0.9539255,-0.205653,0.3212475,0.9261155,-0.157461,-0.0737105,0.0001904999999999,-0.0014559999999999,0.0737105,-0.0001904999999999,0.0014559999999999,-0.1046324999999999,-0.2800645,-0.165432,0.1356274999999999,-0.2771245,-0.156339,-0.1038625,-0.6431445,-0.104252,0.1088175,-0.6408545,-0.109078,1
191,-0.000189,0.7390235,-0.0081125,-0.146536,0.5325835,-0.0583995,-0.255206,0.7326335,-0.1462485,0.161104,0.5223735,-0.0483115,0.290494,0.7104635,-0.1171255,-0.310776,0.9470235,-0.1954895,0.321364,0.9205035,-0.1472925,-0.073596,0.0003654999999999,-0.0008945,0.073596,-0.0003655,0.0008944999999999,-0.1021759999999999,-0.2964565,-0.1441035,0.130124,-0.2939965,-0.1355335,-0.103666,-0.6600165,-0.0907905,0.108404,-0.6576465,-0.0949735,1
192,0.0003244999999999,0.7371495,0.0019134999999999,-0.1470125,0.5329095,-0.0488384999999999,-0.2555825,0.7321695,-0.1369075,0.1626675,0.5232295,-0.0384744999999999,0.2903575,0.7067195,-0.1072375,-0.3107025,0.9391395,-0.1855575,0.3209475,0.9142695,-0.1373905,-0.0735295,0.0003324999999999,-0.0003024999999999,0.0735295,-0.0003325,0.0003024999999999,-0.0998125,-0.3119305,-0.1223785,0.1243775,-0.3099705,-0.1148865,-0.1033125,-0.6763205,-0.0766604999999999,0.1074875,-0.6735705,-0.0803975,1
193,0.0007534999999999,0.7351205000000001,0.011355,-0.1476505,0.5324305,-0.039873,-0.2560504999999999,0.7327105,-0.12867,0.1636594999999999,0.5192805,-0.029456,0.2899295,0.7023805000000001,-0.098226,-0.3108605,0.9323305,-0.176167,0.3200395,0.9116205,-0.128044,-0.0734455,0.0003785,0.000283,0.0734455,-0.0003785,-0.000283,-0.0977915,-0.3260295,-0.101582,0.1185394999999999,-0.3237695,-0.095277,-0.1030804999999999,-0.6906995,-0.062157,0.1062295,-0.6869595,-0.066355,1
194,0.0010849999999999,0.7329454999999999,0.0208679999999999,-0.148098,0.5299855,-0.030747,-0.256558,0.7327855,-0.120029,0.163792,0.5167355,-0.020356,0.2893619999999999,0.6988955,-0.089519,-0.310668,0.9267255,-0.16686,0.318832,0.9083255,-0.118916,-0.073403,0.0002685,0.000826,0.073403,-0.0002684999999999,-0.000826,-0.096053,-0.3395245,-0.08106,0.112432,-0.3374145,-0.075221,-0.102968,-0.7044645,-0.047963,0.1047819999999999,-0.6993845000000001,-0.051877,1
195,0.0013315,0.7304955000000001,0.0301919999999999,-0.1484494999999999,0.5279655,-0.022015,-0.2567695,0.7331755,-0.111559,0.1638805,0.5149555,-0.01153,0.2891805,0.6952155,-0.081051,-0.3102095,0.9218155,-0.157335,0.3176505,0.9019055,-0.110309,-0.0733715,0.0001964999999999,0.0012429999999999,0.0733715,-0.0001965,-0.001243,-0.0943384999999999,-0.3522944999999999,-0.061237,0.1063505,-0.3500445,-0.055628,-0.1029195,-0.7173145,-0.034022,0.1031705,-0.7105745,-0.037217,1
196,0.0014519999999999,0.726,0.039672,-0.148637,0.52451,-0.0131,-0.257017,0.73238,-0.103165,0.163823,0.51353,-0.003082,0.288713,0.69132,-0.072461,-0.309817,0.91714,-0.147705,0.316303,0.89549,-0.1019529999999999,-0.073337,0.0001099999999999,0.001638,0.073337,-0.00011,-0.001638,-0.09288,-0.36523,-0.04203,0.100372,-0.36315,-0.036191,-0.102827,-0.73015,-0.020426,0.101593,-0.72201,-0.02284,1
197,0.001629,0.721612,0.048876,-0.1488239999999999,0.5214420000000001,-0.0041659999999999,-0.257384,0.731312,-0.094957,0.163716,0.5121020000000001,0.005535,0.288406,0.687042,-0.06384,-0.309414,0.912362,-0.137932,0.314996,0.8888820000000001,-0.093638,-0.073293,5.9999999999990616e-05,0.002009,0.073293,-6.0000000000004494e-05,-0.002009,-0.0916309999999999,-0.3784079999999999,-0.023896,0.094596,-0.377048,-0.01703,-0.102724,-0.7429479999999999,-0.007189,0.099138,-0.733878,-0.008199,0
198,0.0014054999999999,0.7173375000000001,0.0544979999999999,-0.1493005,0.5176675000000001,0.0015109999999999,-0.2581605,0.7323975,-0.09035,0.1632394999999999,0.5100075000000001,0.011132,0.2878295,0.6847975000000001,-0.0588039999999999,-0.3092305,0.9151275,-0.130962,0.3134294999999999,0.8857275,-0.088823,-0.0733024999999999,3.849999999999687e-05,0.0019319999999999,0.0733024999999999,-3.849999999999687e-05,-0.0019319999999999,-0.0910245,-0.3887125,-0.010466,0.0888654999999999,-0.3886925,-0.003428,-0.1030705,-0.7524325,0.001309,0.0963924999999999,-0.7434625,0.001604,0
199,0.0015004999999999,0.719402,0.055515,-0.1495095,0.517602,0.002589,-0.2584695,0.7335320000000001,-0.0891469999999999,0.1631304999999999,0.510742,0.011981,0.2876105,0.6876220000000001,-0.058266,-0.3086795,0.921402,-0.128657,0.3123505,0.8888820000000001,-0.088479,-0.0732955,0.0001099999999999,0.001823,0.0732955,-0.0001099999999999,-0.0018229999999999,-0.0904895,-0.388948,-0.0038829999999999,0.0870295,-0.389048,0.002583,-0.1030795,-0.753188,0.004225,0.0958344999999999,-0.743908,0.00447,0
200,0.0015269999999999,0.7206565,0.056648,-0.149675,0.5182765,0.003497,-0.258785,0.7349065,-0.087915,0.163075,0.5112765,0.0129589999999999,0.287375,0.6895765,-0.05752,-0.308215,0.9270665,-0.126477,0.311345,0.8911365,-0.087937,-0.0732889999999999,0.0001685,0.0017019999999999,0.0732889999999999,-0.0001685,-0.0017019999999999,-0.090067,-0.3892635,0.002534,0.085243,-0.3894134999999999,0.008605,-0.103225,-0.7535035,0.0069619999999999,0.095249,-0.7442635,0.007515,0
201,0.0015195,0.721177,0.0577014999999999,-0.1498085,0.518837,0.0044774999999999,-0.2590685,0.735857,-0.0866875,0.1629915,0.5117069999999999,0.0143524999999999,0.2871215,0.6906869999999999,-0.0566835,-0.3080885,0.932577,-0.1247705,0.3104615,0.892457,-0.0873195,-0.0732815,0.0002309999999999,0.0015774999999999,0.0732815,-0.000231,-0.0015775,-0.0898144999999999,-0.389553,0.0079524999999999,0.0837985,-0.389703,0.0141384999999999,-0.1033684999999999,-0.753793,0.0094344999999999,0.0946785,-0.744553,0.0104594999999999,0
202,0.0018915,0.721441,0.0586115,-0.1494065,0.519691,0.0052604999999999,-0.2586165,0.736641,-0.0855924999999999,0.1627835,0.5121509999999999,0.0151195,0.2872834999999999,0.691371,-0.0559965,-0.3073365,0.937761,-0.1229415,0.3102135,0.892241,-0.0868215,-0.0732075,0.0002569999999999,0.0014644999999999,0.0732075,-0.000257,-0.0014645,-0.0893465,-0.3885889999999999,0.0123504999999999,0.0831735,-0.389919,0.0186355,-0.1030565,-0.754009,0.0116714999999999,0.0946444999999999,-0.744769,0.0130404999999999,0
203,0.0023104999999999,0.721613,0.0594154999999999,-0.1489515,0.520353,0.0060235,-0.2582115,0.737123,-0.0845715,0.1625984999999999,0.512413,0.0158785,0.2874685,0.691483,-0.0551765,-0.3065715,0.942703,-0.1212864999999999,0.3100385,0.892083,-0.0865295,-0.0731324999999999,0.000266,0.0013724999999999,0.0731324999999999,-0.000266,-0.0013725,-0.0889524999999999,-0.3878169999999999,0.0157265,0.0828075,-0.390077,0.0226665,-0.1027215,-0.754017,0.0137744999999999,0.0946374999999999,-0.744927,0.0153544999999999,0
204,0.002699,0.72168,0.060152,-0.148554,0.52128,0.006682,-0.257834,0.7374700000000001,-0.083688,0.162496,0.51273,0.0166129999999999,0.287626,0.69148,-0.054458,-0.305944,0.94755,-0.119664,0.309836,0.89193,-0.086383,-0.073067,0.000267,0.0012569999999999,0.073067,-0.000267,-0.0012569999999999,-0.0886579999999999,-0.38747,0.018325,0.08251,-0.3902199999999999,0.026069,-0.102474,-0.75368,0.015622,0.0946299999999999,-0.74493,0.017457,0
205,0.002918,0.7216710000000001,0.0606775,-0.148277,0.522341,0.0070905,-0.257507,0.737761,-0.0830445,0.1623929999999999,0.513001,0.0171865,0.2877429999999999,0.691401,-0.0539745,-0.305597,0.952211,-0.1182574999999999,0.309793,0.890651,-0.0861734999999999,-0.0729829999999999,0.0002739999999999,0.0011975,0.0729829999999999,-0.0002739999999999,-0.0011974999999999,-0.088397,-0.387239,0.0203005,0.082296,-0.3902589999999999,0.0287975,-0.1022869999999999,-0.753449,0.0171564999999999,0.094593,-0.744919,0.0192975,0
206,0.002952,0.7215925,0.0611235,-0.14815,0.5235624999999999,0.0074085,-0.25727,0.7379724999999999,-0.0825345,0.16221,0.5132525,0.0176545,0.28776,0.6912625,-0.0536075,-0.3054,0.9566725,-0.1171295,0.30971,0.8891525,-0.0860825,-0.072934,0.0002805,0.0011085,0.072934,-0.0002805,-0.0011085,-0.088182,-0.3872375,0.0215864999999999,0.082096,-0.3902375,0.0309815,-0.1021799999999999,-0.7531775,0.0185095,0.094476,-0.7449175,0.0209165,0
207,0.002936,0.721414,0.0615175,-0.148261,0.5248039999999999,0.0075175,-0.257261,0.738084,-0.0821615,0.161859,0.5134839999999999,0.0179155,0.2877289999999999,0.691064,-0.0533775,-0.305241,0.956474,-0.1164185,0.3096089999999999,0.887904,-0.0860065,-0.072883,0.000264,0.0010305,0.072883,-0.000264,-0.0010305,-0.0880199999999999,-0.387376,0.0224055,0.081952,-0.390166,0.0326285,-0.102071,-0.752826,0.0197345,0.094326,-0.744966,0.0222575,0
208,0.0028905,0.7212215000000001,0.0618439999999999,-0.1484815,0.5261915,0.007559,-0.2573515,0.7381215,-0.081884,0.1614785,0.5137415000000001,0.017949,0.2876785,0.6908515000000001,-0.053225,-0.3051115,0.9562615,-0.115767,0.3095485,0.8866015,-0.086026,-0.0728285,0.0002525,0.0009619999999999,0.0728285,-0.0002524999999999,-0.000962,-0.0878925,-0.3875484999999999,0.023097,0.0819565,-0.3901185,0.033526,-0.1020015,-0.7524985,0.020877,0.0942215,-0.7450585,0.023412,0
209,0.0027884999999999,0.721105,0.0620154999999999,-0.1487274999999999,0.5269149999999999,0.0077445,-0.2574475,0.7380049999999999,-0.0816605,0.1612025,0.513945,0.0178745,0.2875925,0.690715,-0.0531925,-0.3052075,0.956145,-0.1152145,0.3094625,0.885465,-0.0861965,-0.0727845,0.0002479999999999,0.0009114999999999,0.0727845,-0.0002479999999999,-0.0009115,-0.0878185,-0.387625,0.0236625,0.0819645,-0.389995,0.0342345,-0.1019775,-0.752075,0.0219795,0.0941185,-0.745085,0.0243205,0
210,0.0026509999999999,0.7209875,0.062243,-0.1488809999999999,0.5269375,0.007953,-0.257591,0.7378874999999999,-0.081461,0.1609089999999999,0.5141275,0.017796,0.287539,0.6905074999999999,-0.05312,-0.305551,0.9552275,-0.115544,0.309369,0.8845775,-0.086349,-0.072742,0.0002404999999999,0.000876,0.072742,-0.0002405,-0.000876,-0.087759,-0.3877224999999999,0.024256,0.081992,-0.3898825,0.034848,-0.101991,-0.7516925,0.023027,0.094044,-0.7450925,0.0252049999999999,0
