sb224sc-HT22-VT27/4dt907/src/ml-research/a11/datafiles/labeled_files/B2_kinect.csv
FrameNo,nose_3d_x,nose_3d_y,nose_3d_z,left_shoulder_3d_x,left_shoulder_3d_y,left_shoulder_3d_z,left_elbow_3d_x,left_elbow_3d_y,left_elbow_3d_z,right_shoulder_3d_x,right_shoulder_3d_y,right_shoulder_3d_z,right_elbow_3d_x,right_elbow_3d_y,right_elbow_3d_z,left_wrist_3d_x,left_wrist_3d_y,left_wrist_3d_z,right_wrist_3d_x,right_wrist_3d_y,right_wrist_3d_z,left_hip_3d_x,left_hip_3d_y,left_hip_3d_z,right_hip_3d_x,right_hip_3d_y,right_hip_3d_z,left_knee_3d_x,left_knee_3d_y,left_knee_3d_z,right_knee_3d_x,right_knee_3d_y,right_knee_3d_z,left_ankle_3d_x,left_ankle_3d_y,left_ankle_3d_z,right_ankle_3d_x,right_ankle_3d_y,right_ankle_3d_z,activity_label
0,-0.014504,0.7676445000000001,0.0287959999999999,-0.177163,0.4892245,0.0046339999999999,-0.243333,0.2790345,0.0094759999999999,0.1372469999999999,0.4640645,-0.01036,0.231117,0.2846545,-0.049381,-0.237103,0.1275744999999999,-0.121395,0.177337,0.4120545,-0.211205,-0.07402,-0.0010674999999999,-0.000413,0.07402,0.0010674999999999,0.0004129999999999,-0.108633,-0.3376455,0.0300919999999999,0.096334,-0.3303855,0.0456219999999999,-0.120213,-0.6692555,0.0558849999999999,0.092313,-0.6569455,0.06505,0
1,-0.0138154999999999,0.7669745,0.0292825,-0.1760645,0.4891645,0.0052984999999999,-0.2521644999999999,0.2932945,0.0161245,0.1419455,0.4658945,-0.0062554999999999,0.2380555,0.2959445,-0.0627575,-0.2507844999999999,0.1749245,-0.1445815,0.1869154999999999,0.4238545,-0.2109615,-0.0740514999999999,-0.0010045,-0.0004014999999999,0.0740514999999999,0.0010045,0.0004014999999999,-0.1080245,-0.3374855,0.0301445,0.0968305,-0.3307055,0.0456375,-0.1196845,-0.6697855,0.0561005,0.0927405,-0.6579355,0.0652995,0
2,-0.0133049999999999,0.765799,0.0294734999999999,-0.1751769999999999,0.490049,0.0073434999999999,-0.268667,0.326289,0.0181564999999999,0.147123,0.467349,-0.0027585,0.246363,0.310519,-0.0744925,-0.261807,0.235519,-0.2070525,0.201683,0.436919,-0.2002525,-0.074047,-0.0007199999999999,-0.0004085,0.074047,0.00072,0.0004084999999999,-0.107507,-0.338261,0.0300054999999999,0.096807,-0.329991,0.0457495,-0.119267,-0.670871,0.0562155,0.093339,-0.658561,0.0652745,0
3,-0.012967,0.7647825,0.029848,-0.173181,0.4912225,0.009461,-0.275661,0.3426925,-0.0020549999999999,0.150419,0.4681125,-0.0005989999999999,0.2586989999999999,0.3213225,-0.083572,-0.267741,0.2938024999999999,-0.246222,0.210269,0.4789225,-0.2123519999999999,-0.074095,-0.0003554999999999,-0.000784,0.074095,0.0003554999999999,0.000784,-0.1073409999999999,-0.3391375,0.030076,0.096771,-0.3308275,0.045792,-0.119011,-0.6713775,0.056084,0.093502,-0.6598675,0.065259,0
4,-0.0127519999999999,0.764104,0.029897,-0.172752,0.491564,0.010979,-0.322692,0.331874,-0.061872,0.153968,0.472534,0.004359,0.272668,0.333474,-0.0898199999999999,-0.291132,0.406114,-0.22953,0.229378,0.506024,-0.19421,-0.074071,-0.000179,-0.000744,0.074071,0.0001789999999999,0.000744,-0.1073119999999999,-0.339826,0.03005,0.096866,-0.331946,0.045824,-0.1187619999999999,-0.6715760000000001,0.056148,0.094,-0.6623560000000001,0.064556,0
5,-0.012303,0.7635075,0.0300905,-0.173704,0.4912975,0.0121395,-0.349354,0.3501074999999999,-0.0479434999999999,0.1584259999999999,0.4712874999999999,0.0090675,0.288896,0.3439574999999999,-0.0899835,-0.302734,0.4883975,-0.1923135,0.2406259999999999,0.5230675,-0.1748335,-0.073999,-0.0001025,-0.0009354999999999,0.073999,0.0001024999999999,0.0009354999999999,-0.107694,-0.3409225,0.0303205,0.097002,-0.3327325,0.0457515,-0.118874,-0.6708725,0.0559865,0.09434,-0.6646525,0.0640155,0
6,-0.011538,0.7633424999999999,0.0299709999999999,-0.176591,0.4894025,0.0126879999999999,-0.3718809999999999,0.3909325,-0.061195,0.162289,0.4697525,0.0111239999999999,0.310669,0.3570225,-0.087113,-0.304251,0.5635224999999999,-0.166923,0.251879,0.5417424999999999,-0.156993,-0.073956,-3.500000000000031e-06,-0.001021,0.073956,3.500000000000031e-06,0.001021,-0.107991,-0.3418175,0.0307409999999999,0.096968,-0.3330774999999999,0.0458709999999999,-0.118811,-0.6701675,0.055885,0.094457,-0.6647075,0.0638229999999999,0
7,-0.008881,0.761166,0.029928,-0.176462,0.492276,0.007765,-0.342832,0.449146,-0.0405539999999999,0.162968,0.469446,0.008091,0.317318,0.401306,-0.078553,-0.258202,0.579966,-0.1107329999999999,0.2344979999999999,0.576206,-0.142403,-0.073968,0.0003319999999999,-0.0017859999999999,0.073968,-0.0003319999999999,0.001786,-0.107572,-0.341854,0.029922,0.096938,-0.331994,0.045452,-0.118352,-0.675504,0.055749,0.0949879999999999,-0.666014,0.063811,0
8,-0.007435,0.759762,0.0298825,-0.176284,0.493172,0.0076344999999999,-0.351164,0.478002,-0.0421725,0.165666,0.469292,0.0092774999999999,0.328086,0.418962,-0.0790145,-0.254844,0.629542,-0.0968245,0.237056,0.598942,-0.1289845,-0.0739779999999999,0.0006009999999999,-0.0021585,0.0739779999999999,-0.000601,0.0021585,-0.1073939999999999,-0.342318,0.0296475,0.09708,-0.331908,0.0452464999999999,-0.117974,-0.676938,0.0555545,0.095521,-0.667728,0.0634575,0
9,-0.005808,0.758109,0.029824,-0.175978,0.4943189999999999,0.007346,-0.354158,0.506649,-0.042405,0.168182,0.468769,0.009848,0.337682,0.435249,-0.076501,-0.249698,0.666509,-0.080121,0.2390419999999999,0.618499,-0.115491,-0.073984,0.000897,-0.0025629999999999,0.073984,-0.000897,0.002563,-0.107118,-0.342951,0.029246,0.0973669999999999,-0.331891,0.044959,-0.117428,-0.678611,0.055247,0.0961729999999999,-0.669511,0.063055,0
10,-0.0040754999999999,0.75584,0.0298534999999999,-0.1753954999999999,0.4954499999999999,0.0069954999999999,-0.3540855,0.53514,-0.0428305,0.1709845,0.46892,0.0101304999999999,0.3458144999999999,0.45018,-0.0719985,-0.2432455,0.6939,-0.0577035,0.2403745,0.63588,-0.1036385,-0.0739175,0.001165,-0.0030565,0.0739175,-0.0011649999999999,0.0030564999999999,-0.1068055,-0.34414,0.0287414999999999,0.0977015,-0.33247,0.0445484999999999,-0.1168655,-0.68092,0.0548134999999999,0.0968094999999999,-0.67181,0.0625905,0
11,-0.0023325,0.7532169999999999,0.0300329999999999,-0.1749254999999999,0.496267,0.0064239999999999,-0.3538455,0.5592769999999999,-0.043366,0.1738945,0.469737,0.0109139999999999,0.3515645,0.463497,-0.065799,-0.2361255,0.712657,-0.037779,0.2415245,0.650787,-0.092509,-0.0738645,0.0014219999999999,-0.003585,0.0738645,-0.001422,0.0035849999999999,-0.1065655,-0.345883,0.0281119999999999,0.0979645,-0.333593,0.0440459999999999,-0.1163855,-0.683793,0.0542919999999999,0.0973435,-0.674663,0.0620329999999999,0
12,-0.00046,0.7505029999999999,0.0304644999999999,-0.17453,0.497063,0.0056594999999999,-0.35331,0.577733,-0.0381655,0.17696,0.470783,0.0121264999999999,0.35598,0.470793,-0.0576455,-0.22647,0.722113,-0.0212285,0.24199,0.6587130000000001,-0.0845815,-0.073808,0.0016849999999999,-0.0041595,0.073808,-0.0016849999999999,0.0041594999999999,-0.10638,-0.347537,0.0274314999999999,0.098205,-0.334877,0.0434875,-0.11599,-0.6869670000000001,0.0537324999999999,0.0977949999999999,-0.6777869999999999,0.0614494999999999,0
13,0.0014555,0.7481175,0.031225,-0.1742614999999999,0.4978074999999999,0.0050079999999999,-0.3529315,0.5885874999999999,-0.033793,0.1798785,0.4722174999999999,0.01353,0.3593985,0.4755474999999999,-0.0488739999999999,-0.2183815,0.7271775,-0.008723,0.2411985,0.6669875,-0.0750369999999999,-0.0737525,0.0019375,-0.00474,0.0737525,-0.0019374999999999,0.00474,-0.1063015,-0.3488925,0.02666,0.0983725,-0.3361925,0.042901,-0.1157214999999999,-0.6900525000000001,0.053187,0.0981095,-0.6808225,0.060863,0
14,0.0030975,0.7461234999999999,0.0322039999999999,-0.1740285,0.4982635,0.0044529999999999,-0.3512685,0.5968034999999999,-0.027,0.1826315,0.4740735,0.0150419999999999,0.3619615,0.4789535,-0.038946,-0.2116685,0.7299435,9.399999999999686e-05,0.2390115,0.6728835,-0.064045,-0.0737365,0.0021484999999999,-0.00529,0.0737365,-0.0021485,0.0052899999999999,-0.1063985,-0.3500864999999999,0.025854,0.0983945,-0.3376165,0.042314,-0.1156885,-0.6929565000000001,0.0526969999999999,0.0981805,-0.6836665000000001,0.060312,0
15,0.0046599999999999,0.74458,0.0333954999999999,-0.173442,0.4987899999999999,0.0038624999999999,-0.349582,0.60231,-0.0198385,0.185058,0.4757599999999999,0.0169084999999999,0.364788,0.48205,-0.0284505,-0.203412,0.73268,0.0073384999999999,0.236988,0.6773399999999999,-0.0527095,-0.073747,0.002292,-0.0057195,0.073747,-0.0022919999999999,0.0057194999999999,-0.106502,-0.35129,0.0250694999999999,0.09838,-0.33898,0.0417014999999999,-0.115682,-0.69548,0.0522005,0.0982059999999999,-0.6862900000000001,0.0597385,0
16,0.0061239999999999,0.743583,0.0347775,-0.172877,0.498743,0.0032275,-0.348637,0.605583,-0.0133485,0.187243,0.477813,0.0188695,0.367793,0.483683,-0.0177664999999999,-0.196807,0.734963,0.0130125,0.235703,0.680823,-0.0414695,-0.073754,0.002389,-0.0060204999999999,0.073754,-0.002389,0.0060205,-0.106517,-0.3524069999999999,0.0242705,0.098364,-0.340457,0.0410445,-0.115677,-0.6977369999999999,0.0516615,0.098209,-0.688647,0.0591395,0
17,0.007571,0.7428549999999999,0.0362265,-0.172353,0.498865,0.0028564999999999,-0.348013,0.6070949999999999,-0.0079585,0.189437,0.480055,0.0207634999999999,0.370987,0.485645,-0.0068044999999999,-0.193303,0.734425,0.0148935,0.235937,0.680975,-0.0315154999999999,-0.0737599999999999,0.002408,-0.0062675,0.0737599999999999,-0.002408,0.0062674999999999,-0.106543,-0.353575,0.0234395,0.098384,-0.342055,0.0403235,-0.115683,-0.699855,0.0510625,0.098198,-0.6909150000000001,0.0584625,0
18,0.008892,0.742412,0.037725,-0.1719899999999999,0.498672,0.002375,-0.34756,0.607622,-0.0032079999999999,0.19146,0.482562,0.022783,0.37065,0.487832,0.002221,-0.19115,0.733412,0.016055,0.23563,0.681472,-0.021516,-0.073729,0.002373,-0.0063959999999999,0.073729,-0.002373,0.006396,-0.10669,-0.354718,0.022635,0.098414,-0.343588,0.039537,-0.11579,-0.701658,0.05049,0.098059,-0.693008,0.057758,0
19,0.0099604999999999,0.742513,0.039175,-0.1718075,0.498423,0.002057,-0.3473175,0.607293,0.0012299999999999,0.1925724999999999,0.484373,0.0246349999999999,0.3703825,0.490323,0.0110479999999999,-0.1877375,0.733613,0.016949,0.2355324999999999,0.682383,-0.0115199999999999,-0.0737174999999999,0.0023499999999999,-0.006338,0.0737174999999999,-0.00235,0.006338,-0.1070075,-0.355367,0.021911,0.0983614999999999,-0.344497,0.038765,-0.1160775,-0.702877,0.049968,0.0977484999999999,-0.694507,0.057134,0
20,0.0107624999999999,0.743097,0.040724,-0.1718155,0.498467,0.001583,-0.3475555,0.606637,0.004964,0.1928744999999999,0.485477,0.02604,0.3731945,0.4930469999999999,0.019752,-0.1853155,0.733787,0.0172,0.2355745,0.683757,-0.0020489999999999,-0.0736775,0.0023089999999999,-0.0062299999999999,0.0736775,-0.0023089999999999,0.00623,-0.1074855,-0.355563,0.021309,0.0981705,-0.344873,0.038034,-0.1165655,-0.7036330000000001,0.049589,0.0972254999999999,-0.695543,0.056638,0
21,0.011045,0.7437985,0.0421135,-0.172007,0.4985885,0.0011534999999999,-0.348157,0.6058285000000001,0.0079394999999999,0.192563,0.4861085,0.0270005,0.374523,0.4967685,0.0277205,-0.183497,0.7339884999999999,0.0171805,0.235353,0.6850385000000001,0.0067254999999999,-0.073646,0.0022574999999999,-0.0061004999999999,0.073646,-0.0022575,0.0061004999999999,-0.108127,-0.3558715,0.0207805,0.097804,-0.3450515,0.0373285,-0.117287,-0.7041215000000001,0.0492745,0.096481,-0.6964115,0.0562215,0
22,0.010928,0.7443325000000001,0.043361,-0.1724969999999999,0.4988025,0.000797,-0.348487,0.6050325000000001,0.009997,0.191903,0.4865225,0.027821,0.375533,0.5015225,0.034941,-0.182087,0.7340425,0.016778,0.234903,0.6855825,0.014118,-0.073688,0.0021995,-0.005932,0.073688,-0.0021995,0.005932,-0.108817,-0.3563275,0.020353,0.097313,-0.3452575,0.036663,-0.118127,-0.7045675,0.049014,0.09561,-0.6972475,0.055873,0
23,0.0106399999999999,0.7447944999999999,0.044607,-0.172433,0.4989645,0.000523,-0.348823,0.6041845,0.01106,0.191177,0.4867745,0.028585,0.3762669999999999,0.5051844999999999,0.041863,-0.181193,0.7337644999999999,0.016484,0.234407,0.6854644999999999,0.020306,-0.073707,0.0021465,-0.0057559999999999,0.073707,-0.0021464999999999,0.005756,-0.109493,-0.3568555,0.020024,0.096797,-0.3455755,0.036064,-0.118993,-0.7050755000000001,0.048835,0.094722,-0.6981455000000001,0.0556,0
24,0.0100845,0.7452085,0.0459114999999999,-0.1725485,0.4989784999999999,0.0003394999999999,-0.3491884999999999,0.6032285000000001,0.0114034999999999,0.1903815,0.4868284999999999,0.0291734999999999,0.3765415,0.5083285000000001,0.0474645,-0.1815385,0.7332685,0.0163265,0.2343415,0.6855785000000001,0.0256115,-0.0737195,0.0020724999999999,-0.0056365,0.0737195,-0.0020725,0.0056364999999999,-0.1102485,-0.3574115,0.0198034999999999,0.0961615,-0.3459315,0.0355375,-0.1199784999999999,-0.7055815,0.0487665,0.0937105,-0.6989814999999999,0.0554425,0
25,0.0095045,0.7455485000000001,0.0471795,-0.1724585,0.4990285,-0.0001304999999999,-0.3494485,0.6023385,0.0113735,0.1895915,0.4866985,0.0295915,0.3768915,0.5100785,0.0521595,-0.1820685,0.7327185,0.0162555,0.2342914999999999,0.6854385000000001,0.0299015,-0.0737155,0.0020164999999999,-0.0055995,0.0737155,-0.0020164999999999,0.0055995,-0.1109585,-0.3579115,0.0196645,0.0955265,-0.3461714999999999,0.0350995,-0.1209985,-0.7058614999999999,0.0488305,0.0926805,-0.6997315,0.0553705,0
26,0.0090285,0.7459629999999999,0.0484715,-0.1717705,0.499143,-0.0008925,-0.3496105,0.601563,0.0113774999999999,0.1890195,0.4864729999999999,0.0298724999999999,0.3771095,0.5115029999999999,0.0559085,-0.1830804999999999,0.732043,0.0159484999999999,0.2346395,0.685093,0.0336285,-0.0736655,0.002036,-0.0056005,0.0736655,-0.0020359999999999,0.0056004999999999,-0.1116004999999999,-0.358417,0.0195774999999999,0.0949575,-0.346407,0.0346844999999999,-0.1219705,-0.705947,0.0488964999999999,0.0916915,-0.7004170000000001,0.0553305,0
27,0.0086615,0.7464725,0.049735,-0.1707295,0.4992925,-0.001857,-0.3496495,0.6009424999999999,0.011378,0.1885804999999999,0.4861725,0.029917,0.3769805,0.5128325,0.058683,-0.1851095,0.7308725,0.0145009999999999,0.2350205,0.6846025,0.0367959999999999,-0.0736135,0.0020664999999999,-0.005602,0.0736135,-0.0020664999999999,0.0056019999999999,-0.1122295,-0.3587975,0.019465,0.0943985,-0.3464775,0.034288,-0.1229494999999999,-0.7059975000000001,0.048975,0.0907185,-0.7009475000000001,0.055249,0
28,0.008304,0.747096,0.0510905,-0.1695519999999999,0.4994759999999999,-0.0029414999999999,-0.349602,0.600266,0.0111365,0.188228,0.485846,0.0300125,0.376718,0.5139659999999999,0.0610405,-0.1870419999999999,0.729866,0.0129925,0.235398,0.684206,0.0394775,-0.073582,0.0020939999999999,-0.0055155,0.073582,-0.0020939999999999,0.0055155,-0.112912,-0.359094,0.0194195,0.093731,-0.3465439999999999,0.0339835,-0.124032,-0.705914,0.0491075,0.08967,-0.701404,0.0551964999999999,0
29,0.0078655,0.747678,0.0523175,-0.1681794999999999,0.499588,-0.0041784999999999,-0.3494395,0.599638,0.0104725,0.1879905,0.485548,0.0301825,0.3762905,0.515158,0.0628855,-0.1887495,0.729038,0.0117185,0.2358805,0.683858,0.0414355,-0.0735395,0.002131,-0.0053605,0.0735395,-0.002131,0.0053605,-0.1135694999999999,-0.359292,0.0194065,0.0930365,-0.346592,0.0338185,-0.1251295,-0.7057420000000001,0.0492994999999999,0.0886125,-0.7017720000000001,0.0552195,1
30,0.0074744999999999,0.7482815,0.0535449999999999,-0.1667715,0.4996214999999999,-0.0053379999999999,-0.3492515,0.5991015,0.0093899999999999,0.1878285,0.4853315,0.0303869999999999,0.3757185,0.5153915,0.0642549999999999,-0.1902315,0.7283415,0.010497,0.2362685,0.6835415,0.043218,-0.0734795,0.0021705,-0.005207,0.0734795,-0.0021704999999999,0.005207,-0.1141715,-0.3594285,0.0194299999999999,0.0923465,-0.3465885,0.0336469999999999,-0.1262415,-0.7055085,0.049526,0.0875545,-0.7020885,0.055282,1
31,0.0069325,0.7488655,0.0547555,-0.1654655,0.4996254999999999,-0.0063435,-0.3490454999999999,0.5986355,0.0079694999999999,0.1876245,0.4851455,0.0305424999999999,0.3750845,0.5152654999999999,0.0655905,-0.1909955,0.7281055,0.0094024999999999,0.2365745,0.6829855,0.0447824999999999,-0.0734104999999999,0.0022105,-0.0051085,0.0734104999999999,-0.0022104999999999,0.0051084999999999,-0.1148454999999999,-0.3595144999999999,0.0195525,0.0915725,-0.3467044999999999,0.0335624999999999,-0.1274555,-0.7051745,0.0498895,0.0864185,-0.7023345,0.0554155,1
32,0.0063765,0.7493474999999999,0.0559485,-0.1647715,0.4996175,-0.0069984999999999,-0.3489915,0.5981575,0.0066424999999999,0.1873185,0.4850075,0.0306645,0.3743285,0.5151074999999999,0.0662895,-0.1923214999999999,0.7276174999999999,0.0084055,0.2370985,0.6822275,0.0461425,-0.0733715,0.0022495,-0.0050144999999999,0.0733715,-0.0022495,0.0050145,-0.1155815,-0.3595724999999999,0.0197635,0.0907565,-0.3468825,0.0335675,-0.1287415,-0.7047525,0.0503345,0.0852265,-0.7025125,0.0556045,1
33,0.0059744999999999,0.7497295,0.0570395,-0.1638715,0.4996494999999999,-0.0076205,-0.3489115,0.5977395,0.0053785,0.1871685,0.4849894999999999,0.0308415,0.3746784999999999,0.5135995,0.0668815,-0.1927815,0.7277095,0.0074585,0.2371985,0.6820095,0.0473055,-0.0733405,0.0022934999999999,-0.0049374999999999,0.0733405,-0.0022935,0.0049375,-0.1161715,-0.3596505,0.0200214999999999,0.0900575,-0.3470005,0.0335865,-0.1299215,-0.7042805,0.0508285,0.0841655,-0.7026705,0.0557915,1
34,0.005805,0.750071,0.058046,-0.163019,0.4997709999999999,-0.0080229999999999,-0.348819,0.597351,0.004375,0.187191,0.484911,0.030962,0.375151,0.512311,0.067466,-0.193919,0.7275510000000001,0.006852,0.237541,0.681701,0.048417,-0.073319,0.0023359999999999,-0.004882,0.073319,-0.002336,0.004882,-0.116659,-0.359749,0.020301,0.089495,-0.347099,0.033533,-0.131009,-0.704349,0.051303,0.083203,-0.702819,0.055981,1
35,0.005671,0.750323,0.058838,-0.162527,0.4997629999999999,-0.0082739999999999,-0.348547,0.5970530000000001,0.003468,0.1872629999999999,0.484963,0.031114,0.375213,0.512343,0.067973,-0.194717,0.727393,0.006508,0.237593,0.681693,0.049358,-0.073287,0.002344,-0.0048129999999999,0.073287,-0.0023439999999999,0.004813,-0.1171069999999999,-0.359757,0.02049,0.088983,-0.347237,0.033347,-0.132187,-0.704357,0.051734,0.082199,-0.702877,0.056095,1
36,0.0053924999999999,0.7504935,0.0594494999999999,-0.1624075,0.4997735,-0.0083925,-0.3483575,0.5967435,0.0025814999999999,0.1872724999999999,0.4849035,0.0312154999999999,0.3762225,0.5116535,0.0683894999999999,-0.1938275,0.7271335,0.0062534999999999,0.2372524999999999,0.6817035,0.0499744999999999,-0.0732375,0.0023545,-0.0046585,0.0732375,-0.0023545,0.0046584999999999,-0.1178174999999999,-0.3597464999999999,0.0205244999999999,0.0882925,-0.3477765,0.0328974999999999,-0.1337975,-0.7043465,0.0520864999999999,0.0807614999999999,-0.7029164999999999,0.0560844999999999,1
37,0.0050999999999999,0.750516,0.0597605,-0.162172,0.4997959999999999,-0.0083255,-0.348052,0.5964459999999999,0.0016995,0.187208,0.484926,0.0313635,0.3765079999999999,0.5116759999999999,0.0686845,-0.192732,0.726876,0.0059255,0.2367379999999999,0.681836,0.0505235,-0.073205,0.0023769999999999,-0.0045124999999999,0.073205,-0.002377,0.0045125,-0.118722,-0.359904,0.0201935,0.087488,-0.349304,0.0322735,-0.135952,-0.7043240000000001,0.0520915,0.078753,-0.703044,0.0559025,1
38,0.0049339999999999,0.7505580000000001,0.0599775,-0.161884,0.499778,-0.0082855,-0.347924,0.596028,0.0011215,0.187316,0.484968,0.0314075,0.376716,0.511718,0.0690045,-0.191964,0.726678,0.0056415,0.2353859999999999,0.6828380000000001,0.0510474999999999,-0.073162,0.002415,-0.0044674999999999,0.073162,-0.002415,0.0044674999999999,-0.119644,-0.360622,0.0196264999999999,0.086236,-0.350962,0.0318415,-0.138804,-0.704672,0.0518305,0.076001,-0.703132,0.0556695,1
39,0.0053405,0.75076,0.0602425,-0.1614505,0.49981,-0.0082964999999999,-0.3478405,0.59549,0.0007505,0.1867395,0.4851799999999999,0.0314215,0.3769995,0.5119199999999999,0.0693355,-0.1910204999999999,0.72643,0.0053785,0.2335094999999999,0.68406,0.0517145,-0.0731335,0.002419,-0.0044685,0.0731335,-0.0024189999999999,0.0044685,-0.1207835,-0.36041,0.0185395,0.0847695,-0.35282,0.0315515,-0.1425305,-0.70435,0.0513505,0.0724155,-0.70301,0.0554205,1
40,0.005829,0.75074,0.0604505,-0.16071,0.49946,-0.0084214999999999,-0.3470999999999999,0.59484,0.0006245,0.18775,0.48551,0.0316035,0.37719,0.51288,0.0696905,-0.1908,0.72576,0.0052654999999999,0.23134,0.68382,0.0523735,-0.07308,0.002574,-0.0043624999999999,0.07308,-0.002574,0.0043624999999999,-0.122317,-0.36027,0.0166365,0.08293,-0.35411,0.0313865,-0.14718,-0.70406,0.0504835,0.067741,-0.70301,0.0551915,1
41,0.0067994999999999,0.750536,0.060797,-0.1596604999999999,0.498996,-0.008494,-0.3463305,0.594036,0.000354,0.1888194999999999,0.485816,0.0319729999999999,0.3775395,0.5143059999999999,0.070079,-0.1909705,0.7251259999999999,0.0050169999999999,0.2288295,0.685376,0.0531849999999999,-0.0730695,0.0026829999999999,-0.00411,0.0730695,-0.0026829999999999,0.0041099999999999,-0.1238305,-0.360214,0.0130599999999999,0.0812295,-0.354974,0.0311749999999999,-0.1524505,-0.703844,0.0492429999999999,0.0622744999999999,-0.703074,0.0549029999999999,1
42,0.0080095,0.7502535,0.0611,-0.1585985,0.4985334999999999,-0.008555,-0.3455185,0.5929935,-6.699999999999762e-05,0.1895815,0.4860835,0.03235,0.3778615,0.5161735,0.070417,-0.1913185,0.7244535,0.004625,0.2260915,0.6873035,0.053849,-0.0732015,0.0027485,-0.0038769999999999,0.0732015,-0.0027485,0.003877,-0.1256455,-0.3602465,0.006828,0.0794515,-0.3556665,0.030816,-0.1582985,-0.7037165000000001,0.048302,0.0561055,-0.7032465,0.054631,1
43,0.00897,0.7499585,0.0614015,-0.157549,0.4980985,-0.0084494999999999,-0.344759,0.5917484999999999,-0.0007855,0.190391,0.4862884999999999,0.0326885,0.378111,0.5181184999999999,0.0706425,-0.190629,0.7235484999999999,0.0043524999999999,0.2247809999999999,0.6891585,0.0546015,-0.073331,0.0028045,-0.0035004999999999,0.073331,-0.0028045,0.0035005,-0.1278149999999999,-0.3579115,-0.0034044999999999,0.077421,-0.3558115,0.0301285,-0.164349,-0.7024215,0.0477115,0.049086,-0.7034915,0.0540605,1
44,0.009637,0.7495385,0.0617895,-0.15675,0.4974985,-0.0082155,-0.34451,0.5903585,-0.0014134999999999,0.19116,0.4862785,0.0331745,0.3775699999999999,0.5201385000000001,0.0708445,-0.1908699999999999,0.7221285000000001,0.0041715,0.2233899999999999,0.6912985,0.0551595,-0.07354,0.0031615,-0.0029915,0.07354,-0.0031614999999999,0.0029915,-0.130383,-0.3537615,-0.0168504999999999,0.0749,-0.3561915,0.0292185,-0.1699,-0.6971615,0.0452715,0.041252,-0.7038715,0.0532485,1
45,0.0102484999999999,0.748995,0.0622615,-0.1560325,0.496815,-0.0078174999999999,-0.3443905,0.588885,-0.0016605,0.1917595,0.486175,0.0337395,0.3765395,0.522435,0.0710794999999999,-0.1926605,0.721015,0.0041085,0.2221894999999999,0.693395,0.0555875,-0.0737695,0.003701,-0.0023654999999999,0.0737694999999999,-0.003701,0.0023654999999999,-0.1339455,-0.344985,-0.0354155,0.0723195,-0.356735,0.0283195,-0.1739705,-0.686105,0.0420115,0.0332834999999999,-0.7044050000000001,0.0523305,1
46,0.0108995,0.7482044999999999,0.0628775,-0.1555635,0.4959245,-0.0072834999999999,-0.3444325,0.5874944999999999,-0.0017164999999999,0.1923174999999999,0.4859345,0.0342545,0.3749075,0.5249045,0.0712015,-0.1947725,0.7196444999999999,0.0039755,0.2204375,0.6950544999999999,0.0558395,-0.0739675,0.0044174999999999,-0.0016215,0.0739674999999999,-0.0044174999999999,0.0016214999999999,-0.1381065,-0.3344355,-0.0567645,0.0698375,-0.3575255,0.0270755,-0.1761525,-0.6673755,0.0382944999999999,0.0255554999999999,-0.7051755000000001,0.0513205,1
47,0.0112639999999999,0.747041,0.0636015,-0.155453,0.494761,-0.0064235,-0.344126,0.585781,-0.0014184999999999,0.1926239999999999,0.485391,0.0349525,0.373114,0.527471,0.0713395,-0.196516,0.717361,0.0040754999999999,0.218904,0.696151,0.0561035,-0.074174,0.005121,-0.0007594999999999,0.074174,-0.005121,0.0007594999999999,-0.142783,-0.319509,-0.0829355,0.067044,-0.358199,0.0257435,-0.178013,-0.6445890000000001,0.0345955,0.018405,-0.7063090000000001,0.0504045,1
48,0.0111525,0.745849,0.064197,-0.1555165,0.493429,-0.005465,-0.3441435,0.584149,-0.001034,0.1937465,0.4849789999999999,0.035733,0.3711365,0.529909,0.071447,-0.1978935,0.714569,0.0041099999999999,0.2175665,0.696839,0.056146,-0.0743865,0.005856,1.9999999999999185e-05,0.0743865,-0.005856,-2.000000000000265e-05,-0.1476055,-0.3033409999999999,-0.1108049999999999,0.0639265,-0.358631,0.024554,-0.1781825,-0.613231,0.0293869999999999,0.0119464999999999,-0.707541,0.049585,1
49,0.0110119999999999,0.744356,0.0648084999999999,-0.155996,0.491796,-0.0044925,-0.345238,0.582156,-0.0004765,0.1933019999999999,0.484216,0.0361115,0.369222,0.5318959999999999,0.0714545,-0.198728,0.711946,0.0038464999999999,0.216202,0.697226,0.0562675,-0.074632,0.006557,0.0007604999999999,0.074632,-0.006557,-0.0007605,-0.152458,-0.277904,-0.1437455,0.0607719999999999,-0.358334,0.0236004999999999,-0.178163,-0.577024,0.0241254999999999,0.0064619999999999,-0.709214,0.0489794999999999,1
50,0.0104104999999999,0.7425585,0.0651995,-0.1566435,0.4899585,-0.0034195,-0.3464395,0.5799485000000001,-3.049999999999928e-05,0.1927505,0.4830985,0.0364774999999999,0.3671205,0.5331985,0.0714335,-0.1991175,0.7093785,0.0039074999999999,0.2146905,0.6971085,0.0558735,-0.0749205,0.0072135,0.0015464999999999,0.0749205,-0.0072134999999999,-0.0015464999999999,-0.1570595,-0.2518415,-0.1749725,0.0571204999999999,-0.3581915,0.0229445,-0.1780505,-0.5358115,0.0145394999999999,0.0015204999999999,-0.7113115,0.0483865,1
51,0.0095874999999999,0.74052,0.0654775,-0.1572405,0.48795,-0.0023894999999999,-0.3477725,0.57738,0.0002624999999999,0.1923875,0.48165,0.0368355,0.3649775,0.53191,0.0708505,-0.1994185,0.70644,0.0040444999999999,0.2133475,0.69586,0.0553655,-0.0750875,0.007904,0.0022355,0.0750875,-0.007904,-0.0022355,-0.1615484999999999,-0.22529,-0.2039794999999999,0.0531775,-0.3583,0.0223535,-0.1765475,-0.49515,-0.0045124999999999,-0.0029624999999999,-0.71386,0.0478575,1
52,0.0088535,0.7387315,0.065318,-0.1581605,0.4862714999999999,-0.0016469999999999,-0.3493065,0.5748115,0.0004399999999999,0.1917134999999999,0.4802415,0.037065,0.3625135,0.5305115,0.0703739999999999,-0.2015625,0.7035115000000001,0.0036479999999999,0.2103034999999999,0.6946015,0.054902,-0.0753035,0.0082305,0.002776,0.0753035,-0.0082304999999999,-0.002776,-0.1659665,-0.1988285,-0.230003,0.0489935,-0.3593385,0.021873,-0.1753395,-0.4584384999999999,-0.026276,-0.0071465,-0.7164484999999999,0.047422,1
53,0.007988,0.7370975000000001,0.064894,-0.159571,0.4848674999999999,-0.001152,-0.351042,0.5725075000000001,0.0004539999999999,0.1904579999999999,0.4790175,0.037032,0.359998,0.5299875000000001,0.069989,-0.204261,0.7006875,0.0032669999999999,0.206528,0.6935475000000001,0.054547,-0.075508,0.0082075,0.00329,0.075508,-0.0082075,-0.0032899999999999,-0.169472,-0.1736825,-0.253965,0.0444579999999999,-0.3610725,0.021212,-0.175151,-0.4275025,-0.053118,-0.010982,-0.7192124999999999,0.04711,1
54,0.0078224999999999,0.7356465000000001,0.0646905,-0.1604775,0.4836265,-0.0006725,-0.3522175,0.5705665000000001,0.0003824999999999,0.1897324999999999,0.4779965,0.0370075,0.3586025,0.5294465,0.0698155,-0.2057875,0.6984065,0.0030964999999999,0.2033025,0.6926665000000001,0.0544174999999999,-0.0756825,0.0082075,0.0038824999999999,0.0756825,-0.0082075,-0.0038825,-0.1710375,-0.1562835,-0.2736855,0.0408225,-0.3631035,0.0206624999999999,-0.1758905,-0.4043535,-0.0824955,-0.0139675,-0.7219335,0.0469745,1
55,0.0081015,0.7346655,0.0649629999999999,-0.1608784999999999,0.4828855,5.100000000000243e-05,-0.3528385,0.5693254999999999,0.000678,0.1896515,0.4774854999999999,0.037329,0.3585815,0.5280455,0.069631,-0.2061624999999999,0.6962955,0.003385,0.2008515,0.6918955,0.054253,-0.0760815,0.0079604999999999,0.004171,0.0760815,-0.0079605,-0.0041709999999999,-0.1714375,-0.1433575,-0.291259,0.0383915,-0.3645045,0.02027,-0.1779234999999999,-0.3913845,-0.118849,-0.0160484999999999,-0.7241744999999999,0.047291,1
56,0.0080699999999999,0.734179,0.0651025,-0.161265,0.4827289999999999,0.0005394999999999,-0.35373,0.568689,0.0009895,0.18964,0.477589,0.0376195,0.3590799999999999,0.527419,0.0689525,-0.207919,0.694619,0.0030845,0.1998299999999999,0.6912590000000001,0.0535195,-0.07633,0.007664,0.0044674999999999,0.07633,-0.007664,-0.0044674999999999,-0.171122,-0.142646,-0.3049275,0.03662,-0.365141,0.0195405,-0.180061,-0.387861,-0.1646175,-0.0177999999999999,-0.725671,0.0475224999999999,1
57,0.0073809999999999,0.73399,0.0649675,-0.161847,0.48267,0.0008594999999999,-0.3544589999999999,0.5685,0.0013134999999999,0.1894009999999999,0.4778,0.0379315,0.359411,0.52723,0.0679295,-0.208084,0.6937,0.0026064999999999,0.199461,0.6910700000000001,0.0522935,-0.076511,0.007475,0.0047774999999999,0.076511,-0.007475,-0.0047775,-0.170924,-0.142835,-0.3182195,0.0348809999999999,-0.36544,0.0184634999999999,-0.182145,-0.38805,-0.2152994999999999,-0.0191289999999999,-0.7266199999999999,0.0476575,1
58,0.00629,0.73399,0.0645565,-0.162677,0.48267,0.0013074999999999,-0.35519,0.5685,0.0016334999999999,0.18843,0.4778,0.0383825,0.35899,0.52775,0.0668475,-0.2091699999999999,0.69325,0.0024484999999999,0.19935,0.6910700000000001,0.0513025,-0.0766099999999999,0.007475,0.0050944999999999,0.07661,-0.007475,-0.0050944999999999,-0.1703529999999999,-0.142835,-0.3265265,0.03277,-0.3663099999999999,0.0176445,-0.184334,-0.38805,-0.2721365,-0.0202099999999999,-0.7275699999999999,0.0478355,1
59,0.0053394999999999,0.73399,0.0648435,-0.1636075,0.48267,0.0025995,-0.3561305,0.56837,0.0025275,0.1874895,0.4778,0.0394435,0.3583395,0.52758,0.0662025,-0.2101125,0.69325,0.0032275,0.1994095,0.69084,0.0505705,-0.0764995,0.007475,0.0054115,0.0764995,-0.007475,-0.0054115,-0.1687755,-0.14417,-0.3334645,0.0309894999999999,-0.36851,0.0173525,-0.1856115,-0.38805,-0.3291445,-0.0213405,-0.72871,0.0488095,1
60,0.0044029999999999,0.7342285000000001,0.066668,-0.164526,0.4830585,0.005312,-0.3570569999999999,0.5681685000000001,0.004809,0.186563,0.4781884999999999,0.041712,0.357683,0.5269785,0.06669,-0.212432,0.6922185000000001,0.004924,0.198493,0.6905585000000001,0.051336,-0.076213,0.0070865,0.005354,0.076213,-0.0070865,-0.0053539999999999,-0.166443,-0.1440755,-0.336519,0.029473,-0.3716515,0.017897,-0.187614,-0.3979615,-0.371929,-0.022747,-0.7297414999999999,0.051013,1
61,0.0038934999999999,0.7346315,0.069805,-0.1648335,0.4836314999999999,0.0091339999999999,-0.3573665,0.5678415,0.0084169999999999,0.1862334999999999,0.4788615,0.0445679999999999,0.3574235,0.5265915,0.068462,-0.2152175,0.6910015,0.0080999999999999,0.1981435,0.6900315,0.0533609999999999,-0.0758835,0.0065334999999999,0.0053909999999999,0.0758834999999999,-0.0065335,-0.005391,-0.1631625,-0.1593965,-0.33613,0.0287435,-0.3743885,0.0195499999999999,-0.1888485,-0.4170085,-0.40701,-0.0239065,-0.7304185,0.0542179999999999,1
62,0.0027895,0.7354014999999999,0.073989,-0.1654854999999999,0.4841614999999999,0.013633,-0.3576304999999999,0.5675115,0.012906,0.1857595,0.4800115,0.048014,0.3571895,0.5266915,0.071134,-0.2177194999999999,0.6905215,0.012156,0.1979195,0.6897415,0.056561,-0.0755894999999999,0.0060025,0.00545,0.0755895,-0.0060025,-0.0054499999999999,-0.1600734999999999,-0.1769585,-0.331858,0.0284295,-0.3767985,0.021768,-0.1897775,-0.4420285,-0.433658,-0.0248704999999999,-0.7300685,0.058132,1
63,0.0012929999999999,0.7362295,0.079447,-0.16666,0.4843595,0.018847,-0.358167,0.5670995000000001,0.018343,0.1849929999999999,0.4812994999999999,0.052359,0.357083,0.5270695000000001,0.07555,-0.220969,0.6897895,0.017458,0.197813,0.6896195,0.061037,-0.075373,0.0053614999999999,0.0053819999999999,0.075373,-0.0053614999999999,-0.0053819999999999,-0.157041,-0.1999405,-0.325669,0.028283,-0.3787005,0.024849,-0.188761,-0.4687005,-0.453919,-0.025697,-0.7293704999999999,0.062981,1
64,-0.0007399999999999,0.7373915,0.0868765,-0.168026,0.4847815,0.0252194999999999,-0.35877,0.5671015,0.0249294999999999,0.1836999999999999,0.4825715,0.0576114999999999,0.35708,0.5283915,0.0819795,-0.220525,0.6900215000000001,0.0242354999999999,0.19688,0.6903915,0.0673614999999999,-0.07522,0.0047885,0.0050404999999999,0.07522,-0.0047885,-0.0050405,-0.153766,-0.2260384999999999,-0.3177245,0.0282399999999999,-0.3795685,0.0294594999999999,-0.186378,-0.4963685,-0.4629045,-0.0259999999999999,-0.7281084999999999,0.0692624999999999,1
65,-0.0025505,0.738602,0.0951465,-0.1687915,0.4851419999999999,0.0316365,-0.3586505,0.567092,0.0317805,0.1830195,0.4838719999999999,0.0633715,0.3577095,0.530542,0.0895415,-0.2196665,0.690602,0.0318425,0.1961695,0.691202,0.0748025,-0.0750195,0.004358,0.0047725,0.0750194999999999,-0.004358,-0.0047724999999999,-0.1493915,-0.254378,-0.3089214999999999,0.0290394999999999,-0.380668,0.0346065,-0.1828125,-0.523898,-0.4596715,-0.0253205,-0.726598,0.0760405,1
66,-0.0050604999999999,0.73974,0.1038435,-0.1699775,0.48527,0.0379445,-0.3588305,0.56708,0.0384675,0.1818894999999999,0.4851,0.0696085,0.3562095,0.5333,0.0979715,-0.2193255,0.69143,0.0397615,0.1946995,0.69181,0.0833095,-0.0747795,0.003781,0.0044514999999999,0.0747795,-0.0037809999999999,-0.0044514999999999,-0.1450955,-0.28084,-0.2976115,0.0297395,-0.38218,0.0401005,-0.1801005,-0.55208,-0.4500015,-0.0247005,-0.72504,0.0832085,1
67,-0.0078039999999999,0.7406485,0.1125205,-0.1714109999999999,0.4852485,0.0437825,-0.359104,0.5671685000000001,0.0447165,0.180316,0.4859984999999999,0.0756275,0.3544859999999999,0.5359285,0.1069195,-0.222084,0.6924085000000001,0.0484285,0.1927259999999999,0.6922885000000001,0.0921545,-0.0745859999999999,0.0031435,0.0040325,0.074586,-0.0031435,-0.0040324999999999,-0.140676,-0.3050315,-0.2833205,0.030686,-0.3835115,0.0462055,-0.176812,-0.5781314999999999,-0.4396704999999999,-0.0240839999999999,-0.7233314999999999,0.0909105,1
68,-0.0105139999999999,0.7409475,0.1199395,-0.1727739999999999,0.4849875,0.0491145,-0.359354,0.5669675,0.0495375,0.178656,0.4866875,0.0813495,0.352466,0.5375175,0.1154405,-0.2233669999999999,0.6932375,0.0565065,0.191386,0.6928975,0.1003895,-0.074456,0.0025495,0.0034485,0.074456,-0.0025494999999999,-0.0034484999999999,-0.136359,-0.3224925,-0.2675025,0.032426,-0.3844825,0.0519905,-0.173346,-0.5993925,-0.4295525,-0.023424,-0.7219325,0.0983025,1
69,-0.0130394999999999,0.7411755,0.1260775,-0.1747754999999999,0.4843355,0.0522845,-0.3599795,0.5669955,0.0527095,0.1764005,0.4869854999999999,0.0852455,0.3502705,0.5389655,0.1229725,-0.2257365,0.6941055,0.0624115,0.1897105,0.6933255,0.1075885,-0.0744004999999999,0.0020424999999999,0.0030825,0.0744005,-0.0020425,-0.0030825,-0.1326804999999999,-0.3395444999999999,-0.2502925,0.0344105,-0.3840445,0.0577005,-0.1696855,-0.6156545,-0.4176825,-0.0225794999999999,-0.7202245,0.1051555,1
70,-0.0155415,0.7415405,0.13097,-0.1771995,0.4838105,0.054077,-0.3610215,0.5673905,0.054419,0.1742284999999999,0.4874705,0.088725,0.3476785,0.5400605,0.129581,-0.2275815,0.6959305,0.065689,0.1901484999999999,0.6938205000000001,0.113452,-0.0742085,0.0014275,0.00242,0.0742085,-0.0014275,-0.0024199999999999,-0.1302175,-0.3525895,-0.2327499999999999,0.0363485,-0.3833495,0.062809,-0.1655995,-0.6271995,-0.39948,-0.0216115,-0.7181195,0.111596,1
71,-0.0181735,0.7419764999999999,0.135023,-0.1796595,0.4836465,0.055109,-0.3622635,0.5684265,0.0552919999999999,0.1718965,0.4879165,0.0916599999999999,0.3446165,0.5405665,0.13528,-0.2288935,0.6978665,0.068724,0.1899265,0.6943165,0.11881,-0.0739965,0.0008204999999999,0.0014099999999999,0.0739964999999999,-0.0008205,-0.0014099999999999,-0.1282505,-0.3633235,-0.21582,0.0381364999999999,-0.3825835,0.067801,-0.1621605,-0.6373335,-0.37522,-0.0203935,-0.7158935000000001,0.118391,1
72,-0.0209299999999999,0.742485,0.1380149999999999,-0.18183,0.483905,0.0558209999999999,-0.36341,0.5699649999999999,0.0554479999999999,0.16964,0.488425,0.0940579999999999,0.34158,0.541235,0.1398329999999999,-0.2312099999999999,0.700185,0.0706849999999999,0.19011,0.694515,0.1217639999999999,-0.0736899999999999,0.0003049999999999,0.0004249999999999,0.07369,-0.0003049999999999,-0.000425,-0.126959,-0.369905,-0.201315,0.03989,-0.381735,0.0721289999999999,-0.159766,-0.645875,-0.354215,-0.0189899999999999,-0.713485,0.125043,1
73,-0.0232889999999999,0.7428530000000001,0.1392729999999999,-0.183852,0.484023,0.0548429999999999,-0.364429,0.571463,0.0543309999999999,0.1678009999999999,0.489133,0.0953019999999999,0.338391,0.541493,0.1425729999999999,-0.231509,0.7019930000000001,0.0713929999999999,0.1906109999999999,0.691473,0.1235029999999999,-0.0734509999999999,-0.0001659999999999,-0.000315,0.073451,0.0001659999999999,0.0003149999999999,-0.125669,-0.375557,-0.189305,0.0417509999999999,-0.381687,0.0749869999999999,-0.157921,-0.650647,-0.337625,-0.0171189999999999,-0.711127,0.1306649999999999,1
74,-0.0253775,0.7432925,0.139482,-0.1855735,0.4842324999999999,0.053319,-0.3655745,0.5729425,0.052564,0.1659255,0.4898724999999999,0.095946,0.3354054999999999,0.5414725,0.14481,-0.2308545,0.7036924999999999,0.071021,0.1913055,0.6887925,0.124886,-0.0734155,-0.0006005,-0.0010799999999999,0.0734155,0.0006005,0.0010799999999999,-0.1246675,-0.3792575,-0.1795899999999999,0.0435754999999999,-0.3807975,0.077542,-0.1562575,-0.6537675000000001,-0.32363,-0.0152045,-0.7089075,0.13586,1
75,-0.0272665,0.743707,0.138713,-0.1871695,0.484587,0.051614,-0.3668855,0.5742970000000001,0.049986,0.1641445,0.490537,0.095821,0.3330945,0.541367,0.146801,-0.2301254999999999,0.704997,0.069809,0.1922745,0.686247,0.125875,-0.0734145,-0.000965,-0.00189,0.0734145,0.0009649999999999,0.00189,-0.1236884999999999,-0.381623,-0.17221,0.0452245,-0.379303,0.079682,-0.1548165,-0.654313,-0.3126799999999999,-0.0134454999999999,-0.706803,0.139921,1
76,-0.028697,0.7442745000000001,0.137515,-0.188708,0.4849144999999999,0.0495499999999999,-0.368018,0.5753845000000001,0.0470999999999999,0.1626419999999999,0.4913344999999999,0.0951979999999999,0.3312119999999999,0.5411545000000001,0.148472,-0.227688,0.7064445,0.0681699999999999,0.193772,0.6851345000000001,0.127576,-0.073422,-0.0012534999999999,-0.00259,0.073422,0.0012535,0.0025899999999999,-0.122949,-0.3828155,-0.16804,0.0464619999999999,-0.3777755,0.0800009999999999,-0.154058,-0.6543555,-0.30575,-0.012098,-0.7048755,0.142056,1
77,-0.0294384999999999,0.7450715,0.136475,-0.1901855,0.4851515,0.047475,-0.3689195,0.5765215,0.044555,0.1615405,0.4919715,0.095639,0.3298105,0.5411715,0.149621,-0.2270495,0.7073915000000001,0.065011,0.1954205,0.6844615000000001,0.128653,-0.0734305,-0.0015315,-0.0030449999999999,0.0734305,0.0015314999999999,0.003045,-0.1224774999999999,-0.3824984999999999,-0.1657849999999999,0.0469005,-0.3760185,0.079348,-0.1538475,-0.6539285,-0.303185,-0.0111594999999999,-0.7031085,0.142293,1
78,-0.0294644999999999,0.7450665,0.136388,-0.1905025,0.4853665,0.047385,-0.3689834999999999,0.5770265,0.043515,0.1613164999999999,0.4921665,0.095643,0.3292164999999999,0.5406565,0.149634,-0.2271135,0.7074365,0.063214,0.1973265,0.6815565,0.128607,-0.0734064999999999,-0.0013805,-0.0030449999999999,0.0734065,0.0013804999999999,0.003045,-0.1221744999999999,-0.3815334999999999,-0.1646949999999999,0.0470565,-0.3753035,0.07863,-0.1537774999999999,-0.6529635,-0.303195,-0.0106234999999999,-0.7023334999999999,0.141616,1
79,-0.0295084999999999,0.744452,0.136388,-0.1905465,0.485422,0.047385,-0.3690274999999999,0.577102,0.043515,0.1612724999999999,0.492182,0.095643,0.3291725,0.5397620000000001,0.149634,-0.2271575,0.707512,0.063214,0.2010725,0.678152,0.128517,-0.0733625,-0.0013049999999999,-0.0030449999999999,0.0733625,0.001305,0.003045,-0.1218654999999999,-0.3814579999999999,-0.164705,0.0476425,-0.375278,0.078614,-0.1536785,-0.652888,-0.303195,-0.0103074999999999,-0.702438,0.141229,1
80,-0.0295904999999999,0.744452,0.136393,-0.1906284999999999,0.485422,0.0473899999999999,-0.3691095,0.577102,0.0435199999999999,0.1611905,0.492182,0.095648,0.3291005,0.5397620000000001,0.14994,-0.2272394999999999,0.707512,0.063219,0.2051005,0.676002,0.129851,-0.0732805,-0.0013049999999999,-0.0030499999999999,0.0732805,0.001305,0.0030499999999999,-0.1211415,-0.3814579999999999,-0.16518,0.0484505,-0.375278,0.0785979999999999,-0.1531595,-0.652888,-0.3032,-0.0099394999999999,-0.702608,0.140891,1
81,-0.030053,0.744452,0.135381,-0.191216,0.485422,0.04638,-0.369697,0.577102,0.04251,0.1606529999999999,0.492182,0.096762,0.3285629999999999,0.5397620000000001,0.151178,-0.227827,0.707512,0.062209,0.2093329999999999,0.674592,0.130986,-0.073213,-0.0013049999999999,-0.0032999999999999,0.073213,0.001305,0.0032999999999999,-0.120571,-0.380388,-0.16737,0.049093,-0.375208,0.077559,-0.152146,-0.652408,-0.3047299999999999,-0.010057,-0.7028179999999999,0.139556,1
82,-0.0303085,0.7441025,0.133815,-0.1915605,0.4850725,0.0458299999999999,-0.3696075,0.5769825000000001,0.0408799999999999,0.1603124999999999,0.4918325,0.097823,0.3280524999999999,0.5394125000000001,0.1520439999999999,-0.2255875,0.7087425,0.0625579999999999,0.2109125,0.6742425,0.131353,-0.0731925,-0.0009555,-0.00351,0.0731925,0.0009554999999999,0.0035099999999999,-0.1204795,-0.3766575,-0.17308,0.0493024999999999,-0.3754375,0.0750709999999999,-0.1508775,-0.6502275,-0.31233,-0.0104875,-0.7031375,0.1366039999999999,1
83,-0.0302085,0.742907,0.132008,-0.1918125,0.484597,0.0454649999999999,-0.3694495,0.576237,0.0391349999999999,0.1602104999999999,0.491237,0.0985849999999999,0.3277805,0.538527,0.1522939999999999,-0.2236195,0.708587,0.0617149999999999,0.2127305,0.6728869999999999,0.1304949999999999,-0.0731305,-0.000441,-0.003555,0.0731304999999999,0.0004409999999999,0.0035549999999999,-0.1215375,-0.370673,-0.183925,0.0482004999999999,-0.376393,0.0715359999999999,-0.1502075,-0.645413,-0.327485,-0.0115095,-0.7043330000000001,0.131458,1
84,-0.0287585,0.7415315,0.1294999999999999,-0.1911305,0.4839915,0.0442609999999999,-0.3684745,0.5752515,0.0371029999999999,0.1611355,0.4903715,0.0983059999999999,0.3285955,0.5376115,0.1514869999999999,-0.2207405,0.7083115,0.0602659999999999,0.2152355,0.6707715,0.1298599999999999,-0.0736755,0.0001184999999999,-0.00332,0.0736755,-0.0001185,0.0033199999999999,-0.1229525,-0.3605985,-0.19987,0.0472954999999999,-0.3773585,0.0671889999999999,-0.1490475,-0.6354185,-0.34841,-0.0122945,-0.7062885,0.1243299999999999,1
85,-0.0278424999999999,0.7397830000000001,0.126519,-0.1908234999999999,0.483253,0.0434129999999999,-0.3683324999999999,0.5737129999999999,0.0350739999999999,0.1615675,0.489233,0.0979079999999999,0.3291175,0.536783,0.150164,-0.2195865,0.7070129999999999,0.0578259999999999,0.2170375,0.670893,0.128069,-0.0739574999999999,0.00058,-0.00303,0.0739575,-0.0005799999999999,0.0030299999999999,-0.1252734999999999,-0.346157,-0.22123,0.0454775,-0.378847,0.0626779999999999,-0.1490874999999999,-0.625257,-0.37313,-0.0141424999999999,-0.709047,0.1159579999999999,1
86,-0.027044,0.738061,0.123555,-0.191343,0.482611,0.043048,-0.368384,0.571921,0.033405,0.1614059999999999,0.4878209999999999,0.09682,0.329526,0.536171,0.147732,-0.219343,0.705181,0.055812,0.216396,0.6705909999999999,0.125019,-0.073986,0.000886,-0.00253,0.073986,-0.000886,0.00253,-0.128025,-0.326209,-0.2442999999999999,0.0432059999999999,-0.380479,0.057627,-0.149365,-0.6036090000000001,-0.3975499999999999,-0.016504,-0.711709,0.107281,1
87,-0.026304,0.7363575,0.120714,-0.191929,0.4820975,0.042722,-0.368654,0.5700675,0.032463,0.161076,0.4863775000000001,0.095412,0.329856,0.5360275,0.144038,-0.218018,0.7038175,0.053876,0.2141159999999999,0.6711575,0.120993,-0.073956,0.0012065,-0.0016999999999999,0.073956,-0.0012064999999999,0.0017,-0.131066,-0.2975325,-0.26631,0.0405159999999999,-0.3814825,0.052459,-0.148904,-0.5793125,-0.40695,-0.018874,-0.7146625,0.099036,1
88,-0.026199,0.7341235,0.118073,-0.192726,0.4810435,0.0432,-0.369589,0.5674235000000001,0.032039,0.1603709999999999,0.4840735,0.094009,0.329721,0.5350435,0.13954,-0.220436,0.7013235,0.05027,0.2116509999999999,0.6709135,0.11529,-0.073871,0.0014074999999999,-0.0007749999999999,0.0738709999999999,-0.0014074999999999,0.0007749999999999,-0.134735,-0.2633665,-0.284955,0.0368909999999999,-0.3808265,0.048237,-0.149485,-0.5469364999999999,-0.415515,-0.021729,-0.7176965,0.092145,1
89,-0.0268845,0.731606,0.113505,-0.1940475,0.480166,0.042083,-0.3712944999999999,0.5647359999999999,0.030204,0.1587754999999999,0.4812359999999999,0.088782,0.3289554999999999,0.5336860000000001,0.132833,-0.2195195,0.6984459999999999,0.046706,0.2088555,0.6703760000000001,0.106669,-0.0739955,0.0012669999999999,-0.0001479999999999,0.0739954999999999,-0.001267,0.000148,-0.1397515,-0.220324,-0.303025,0.0322554999999999,-0.377134,0.042931,-0.1523005,-0.509514,-0.424835,-0.0249145,-0.719314,0.0845,1
90,-0.0276625,0.729736,0.108913,-0.1951315,0.479446,0.040918,-0.3728025,0.5621860000000001,0.028364,0.1575375,0.478636,0.08359,0.3283875,0.533126,0.125955,-0.2214785,0.6945060000000001,0.043814,0.2042474999999999,0.672416,0.098843,-0.0740275,0.0008609999999999,0.000363,0.0740275,-0.000861,-0.000363,-0.1442745,-0.1772639999999999,-0.31767,0.0282874999999999,-0.373234,0.037911,-0.1542905,-0.467644,-0.4289699999999999,-0.0277425,-0.720644,0.078215,1
91,-0.028188,0.7287335,0.1048055,-0.195984,0.4790735,0.0394765,-0.374078,0.5598035,0.0264155,0.156632,0.4763835,0.0783955,0.328042,0.5335235,0.1189005,-0.224852,0.6905335,0.0392475,0.1968019999999999,0.6747335,0.0919605,-0.074232,0.0003295,0.0009375,0.0742319999999999,-0.0003294999999999,-0.0009374999999999,-0.148465,-0.1385025,-0.3277474999999999,0.0243119999999999,-0.3683364999999999,0.0332525,-0.15546,-0.4234365,-0.4264074999999999,-0.030058,-0.7209765,0.0730885,1
92,-0.0281775,0.7280194999999999,0.1003395,-0.1961675,0.4788795,0.0374685,-0.3744275,0.5577795,0.0241645,0.1563425,0.4745494999999999,0.0729535,0.3283824999999999,0.5337795,0.1121575,-0.2258355,0.6869995,0.0346585,0.1899024999999999,0.6776095,0.0854415,-0.0745025,-0.0003185,0.0017375,0.0745025,0.0003184999999999,-0.0017375,-0.1525545,-0.1035785,-0.3343815,0.0209924999999999,-0.3635005,0.0286714999999999,-0.1557155,-0.3836604999999999,-0.4166815,-0.0318075,-0.7212305,0.0688035,1
93,-0.0282739999999999,0.7272755000000001,0.0962165,-0.196206,0.4785455,0.0357285,-0.374474,0.5555355000000001,0.0219135,0.156336,0.4736255,0.0682055,0.328696,0.5339355,0.1063235,-0.221993,0.6850455000000001,0.0304245,0.184946,0.6812155000000001,0.0797325,-0.074486,-0.0011115,0.0023155,0.074486,0.0011115,-0.0023154999999999,-0.157392,-0.0796625,-0.3400955,0.017526,-0.3609145,0.0246305,-0.1580119999999999,-0.3558645,-0.3975655,-0.0335739999999999,-0.7221245,0.0657735,1
94,-0.028202,0.7266985,0.092269,-0.196078,0.4782484999999999,0.033999,-0.374652,0.5535285,0.01973,0.1564479999999999,0.4729885,0.063722,0.328908,0.5342485,0.100949,-0.221711,0.6833885000000001,0.026905,0.1798679999999999,0.6837985,0.074485,-0.074648,-0.0017384999999999,0.002708,0.0746479999999999,0.0017384999999999,-0.0027079999999999,-0.164535,-0.0639465,-0.345295,0.0140279999999999,-0.3588015,0.020798,-0.161924,-0.3368514999999999,-0.370695,-0.035302,-0.7222715,0.063073,1
95,-0.0274694999999999,0.7259920000000001,0.087983,-0.1953025,0.477712,0.0316759999999999,-0.3744395,0.551512,0.017122,0.1571805,0.472482,0.059188,0.3296105,0.534192,0.0952969999999999,-0.2242044999999999,0.681052,0.0240369999999999,0.1753805,0.6864520000000001,0.0692339999999999,-0.0752304999999999,-0.00177,0.0032409999999999,0.0752305,0.00177,-0.003241,-0.1706935,-0.066334,-0.3494089999999999,0.0116805,-0.357198,0.0173459999999999,-0.1650174999999999,-0.336708,-0.329929,-0.0364694999999999,-0.7226779999999999,0.0600319999999999,1
96,-0.0251345,0.725248,0.0830165,-0.1931115,0.476998,0.0284785,-0.3726845,0.549558,0.0138555,0.1592954999999999,0.4719779999999999,0.0541275,0.3319155,0.5334679999999999,0.0888065,-0.2256215,0.6786979999999999,0.0206845,0.1722254999999999,0.688168,0.0632985,-0.0758855,-0.0014069999999999,0.0039194999999999,0.0758855,0.0014069999999999,-0.0039194999999999,-0.1750185,-0.069298,-0.3477005,0.0114755,-0.357202,0.0139335,-0.1668985,-0.339672,-0.2804405,-0.0357945,-0.7229620000000001,0.0561404999999999,1
97,-0.022071,0.7251164999999999,0.0777114999999999,-0.190291,0.4768165,0.0245925,-0.370021,0.5485265,0.0105645,0.162239,0.4723165,0.0488435,0.335149,0.5333964999999999,0.0816445,-0.226471,0.6771665,0.0168815,0.1691689999999999,0.6906565,0.0570424999999999,-0.076449,-0.0006175,0.0047685,0.0764489999999999,0.0006175,-0.0047685,-0.177092,-0.0712795,-0.3399744999999999,0.0129189999999999,-0.3589635,0.0103464999999999,-0.167735,-0.3416535,-0.2261545,-0.034011,-0.7232335,0.0515945,1
98,-0.0184135,0.7255925,0.0742105,-0.1862705,0.4766125,0.0216245,-0.3663635,0.5479225,0.0089265,0.1664665,0.4733425,0.0448345,0.3393064999999999,0.5336624999999999,0.0758705,-0.2264835,0.6761725,0.0146925,0.1684765,0.6936025,0.0524175,-0.0769265,0.0006094999999999,0.0057955,0.0769265,-0.0006095,-0.0057955,-0.1764335,-0.0725535,-0.3196894999999999,0.0157364999999999,-0.3602375,0.0087885,-0.1682635,-0.3429275,-0.1691895,-0.0311135,-0.7237975,0.0488565,1
99,-0.016359,0.726193,0.070655,-0.183738,0.476533,0.018579,-0.364079,0.547713,0.0073529999999999,0.169271,0.4746129999999999,0.040998,0.342061,0.533603,0.070018,-0.227993,0.675283,0.012652,0.1701909999999999,0.693403,0.04776,-0.076611,0.001599,0.006626,0.0766109999999999,-0.0015989999999999,-0.006626,-0.176946,-0.083379,-0.2987309999999999,0.0171309999999999,-0.361227,0.007618,-0.171189,-0.352167,-0.130471,-0.029229,-0.724697,0.046032,1
100,-0.0131945,0.726945,0.06722,-0.1801175,0.476615,0.0155349999999999,-0.3607345,0.547955,0.0059109999999999,0.1731755,0.476095,0.0370999999999999,0.3458854999999999,0.533345,0.0641269999999999,-0.2283345,0.674405,0.0103849999999999,0.1735055,0.693275,0.043224,-0.0763855,0.002267,0.0072719999999999,0.0763855,-0.0022669999999999,-0.007272,-0.1759495,-0.1031789999999999,-0.277204,0.0197754999999999,-0.361895,0.0069759999999999,-0.1729105,-0.375825,-0.095524,-0.0260735,-0.725365,0.043259,1
101,-0.008628,0.7277640000000001,0.064861,-0.175042,0.476814,0.013716,-0.355968,0.548454,0.005554,0.178402,0.477514,0.033903,0.351052,0.533134,0.059298,-0.225998,0.6753340000000001,0.009072,0.1784219999999999,0.693324,0.039933,-0.076262,0.002628,0.007964,0.076262,-0.0026279999999999,-0.0079639999999999,-0.172101,-0.137458,-0.252253,0.0239419999999999,-0.366716,0.007656,-0.171537,-0.410526,-0.064831,-0.021161,-0.7269460000000001,0.041633,1
102,-0.0041409999999999,0.728924,0.0615595,-0.169867,0.477394,0.0109855,-0.351201,0.549644,0.0040415,0.183799,0.4783539999999999,0.0300875,0.356189,0.533274,0.0534665,-0.2250309999999999,0.675164,0.0063625,0.183199,0.693614,0.0357915,-0.0761989999999999,0.002768,0.0082434999999999,0.076199,-0.0027679999999999,-0.0082435,-0.1670289999999999,-0.175186,-0.2262845,0.0283689999999999,-0.3708359999999999,0.0074895,-0.168588,-0.4560959999999999,-0.0414164999999999,-0.0157539999999999,-0.727496,0.0390455,1
103,0.0003589999999999,0.7300749999999999,0.0585684999999999,-0.164687,0.4779949999999999,0.0083855,-0.346301,0.551195,0.0024035,0.1893889999999999,0.4787949999999999,0.0268285,0.361429,0.533575,0.0482315,-0.219741,0.676295,0.0042145,0.188319,0.693915,0.0321565,-0.076069,0.003069,0.0082015,0.076069,-0.003069,-0.0082015,-0.160374,-0.213845,-0.1982715,0.0328789999999999,-0.377005,0.0081515,-0.164148,-0.507515,-0.0204764999999999,-0.010078,-0.728245,0.0368455,1
104,0.0037945,0.731244,0.056236,-0.1609045,0.4786739999999999,0.006172,-0.3421555,0.553034,0.000951,0.1938045,0.479274,0.024472,0.3659845,0.534054,0.043641,-0.2156455,0.676774,0.001442,0.1925545,0.694394,0.029317,-0.0757545,0.0035479999999999,0.0078319999999999,0.0757544999999999,-0.003548,-0.007832,-0.1540395,-0.252966,-0.1670839999999999,0.0369844999999999,-0.383466,0.009207,-0.1601775,-0.558876,-0.0073549999999999,-0.0047814999999999,-0.728816,0.035351,1
105,0.0054864999999999,0.7325900000000001,0.0555364999999999,-0.1589485,0.47972,0.0054655,-0.3398635,0.5548700000000001,0.0002374999999999,0.1958865,0.48016,0.0230805,0.3688765,0.5348,0.0406415,-0.2131535,0.6782600000000001,0.0007235,0.1951965,0.69528,0.0281265,-0.0752465,0.004337,0.0071615,0.0752465,-0.004337,-0.0071614999999999,-0.1491945,-0.28733,-0.1339034999999999,0.0397364999999999,-0.38792,0.0111995,-0.1571155,-0.6051099999999999,0.0018095,-0.0007015,-0.72883,0.0353765,1
106,0.006379,0.734509,0.055104,-0.157743,0.481249,0.0050259999999999,-0.338341,0.557139,-0.00021,0.197099,0.481619,0.021702,0.371169,0.535239,0.038081,-0.211501,0.680739,0.0002729999999999,0.197249,0.696269,0.0271749999999999,-0.0747289999999999,0.0050279999999999,0.0067369999999999,0.074729,-0.0050279999999999,-0.006737,-0.1438289999999999,-0.318521,-0.10041,0.041909,-0.391611,0.0134019999999999,-0.154032,-0.642901,0.0086679999999999,0.003147,-0.728771,0.035564,1
107,0.0066769999999999,0.7366284999999999,0.0548779999999999,-0.157553,0.4831585,0.004884,-0.337455,0.5596485,-0.0003679999999999,0.197785,0.4833985,0.020484,0.372985,0.5355285000000001,0.035999,-0.210615,0.6836085000000001,0.000115,0.1989149999999999,0.6972585,0.026552,-0.074295,0.0052495,0.00659,0.074295,-0.0052494999999999,-0.00659,-0.138833,-0.3375915,-0.0757679999999999,0.0439449999999999,-0.3947515,0.01575,-0.151178,-0.6733315,0.013702,0.0071519999999999,-0.7285415,0.035938,1
108,0.0063165,0.738715,0.0545315,-0.1573685,0.485125,0.0045345,-0.3382124999999999,0.562265,-0.0004325,0.1981975,0.485135,0.0193615,0.3746475,0.535625,0.0344045,-0.2106024999999999,0.685575,-0.0017905,0.2005875,0.6980350000000001,0.0261075,-0.0740574999999999,0.005032,0.0065235,0.0740575,-0.0050319999999999,-0.0065235,-0.1326235,-0.354775,-0.0520825,0.0459675,-0.397585,0.0180345,-0.1465715,-0.695105,0.0180035,0.0117235,-0.7274849999999999,0.0362975,1
109,0.0055899999999999,0.7407935000000001,0.054547,-0.156743,0.4871235,0.004305,-0.338734,0.5647135000000001,-0.0008369999999999,0.197596,0.4867835,0.018412,0.376106,0.5355835,0.033692,-0.210274,0.6875735000000001,-0.003095,0.202196,0.6987334999999999,0.026351,-0.073946,0.0044985,0.005998,0.073946,-0.0044984999999999,-0.005998,-0.126826,-0.3690365,-0.030509,0.048046,-0.4009165,0.020834,-0.141529,-0.7111864999999999,0.021011,0.017012,-0.7271065000000001,0.037052,1
110,0.0048509999999999,0.7426435,0.0547585,-0.157155,0.4889735,0.0036585,-0.339391,0.5669035,-0.0017014999999999,0.197039,0.4882734999999999,0.0179955,0.377189,0.5371134999999999,0.0335645,-0.210271,0.6905235,-0.0042814999999999,0.2038489999999999,0.6997635,0.0268675,-0.073809,0.0038305,0.0050645,0.073809,-0.0038305,-0.0050644999999999,-0.120636,-0.3795865,-0.0122034999999999,0.050119,-0.4044864999999999,0.0237885,-0.136068,-0.7216265000000001,0.0234585,0.02279,-0.7272565000000001,0.0380525,1
111,0.004017,0.7440545000000001,0.054827,-0.1582339999999999,0.4903645,0.0027649999999999,-0.340277,0.5685745,-0.003277,0.196063,0.4892944999999999,0.017772,0.378003,0.5385245,0.0339789999999999,-0.209607,0.6931945,-0.005348,0.205623,0.6996245,0.027686,-0.073543,0.0032565,0.004121,0.073543,-0.0032564999999999,-0.004121,-0.1141349999999999,-0.3852155,0.001646,0.052383,-0.4080355,0.026783,-0.13004,-0.7265055,0.025438,0.028987,-0.7278155,0.039165,1
112,0.0028375,0.7450295,0.054804,-0.1595625,0.4913195,0.001859,-0.3413165,0.5697295,-0.0051739999999999,0.1942735,0.4898795,0.017662,0.3783535,0.5395395,0.034721,-0.2088365,0.6955795,-0.006398,0.2063235,0.6989695,0.028669,-0.0733635,0.0028075,0.003246,0.0733635,-0.0028074999999999,-0.0032459999999999,-0.1075825,-0.3882105,0.013025,0.0548135,-0.4098205,0.029295,-0.1237254999999999,-0.7292205,0.027497,0.0352995,-0.7287405,0.040451,1
113,0.0016139999999999,0.745588,0.054958,-0.161441,0.491828,0.000716,-0.342691,0.570358,-0.0071989999999999,0.192669,0.4900779999999999,0.01813,0.375519,0.5391480000000001,0.03594,-0.207861,0.6976380000000001,-0.0073009999999999,0.2064289999999999,0.698198,0.029782,-0.073159,0.0025449999999999,0.002388,0.073159,-0.0025449999999999,-0.0023879999999999,-0.101858,-0.389572,0.021502,0.0572089999999999,-0.411452,0.031751,-0.11759,-0.730642,0.029694,0.041381,-0.729872,0.041888,1
114,0.0002275,0.745745,0.0553735,-0.1632945,0.492045,-0.0002745,-0.3441645,0.570705,-0.0089485,0.1912755,0.490015,0.0190525,0.3723555,0.537845,0.0374405,-0.2067044999999999,0.6994750000000001,-0.0078695,0.2062855,0.697015,0.0310995,-0.0730055,0.0024119999999999,0.0015504999999999,0.0730055,-0.002412,-0.0015504999999999,-0.0966275,-0.389275,0.0268465,0.0597755,-0.413315,0.0342325,-0.1115835,-0.730725,0.0321595,0.0472955,-0.731045,0.0435745,1
115,-0.0010404999999999,0.7457689999999999,0.0559555,-0.1652055,0.492079,-0.0011275,-0.3455455,0.5708489999999999,-0.0104594999999999,0.1900045,0.489979,0.0201835,0.3708145,0.536219,0.0390675,-0.2052555,0.7011689999999999,-0.0077094999999999,0.2075945,0.696029,0.0323205,-0.0729245,0.002396,0.0007255,0.0729245,-0.002396,-0.0007255,-0.0922135,-0.389171,0.0303525,0.0623644999999999,-0.415371,0.0366415,-0.1062235,-0.7305710000000001,0.0347725,0.0528854999999999,-0.731871,0.0453155,1
116,-0.0020739999999999,0.745778,0.0566865,-0.166427,0.492008,-0.0019125,-0.346837,0.570778,-0.0118224999999999,0.1886129999999999,0.489948,0.0213075,0.368673,0.534408,0.0405555,-0.203227,0.701368,-0.0075024999999999,0.209163,0.695298,0.0335195,-0.072873,0.002402,-4.500000000001031e-06,0.072873,-0.002402,4.500000000001031e-06,-0.089127,-0.3892919999999999,0.0330485,0.064893,-0.417122,0.0387335,-0.1013739999999999,-0.730372,0.0373145,0.0579299999999999,-0.732532,0.0470905,1
117,-0.0028769999999999,0.745798,0.057289,-0.167982,0.491828,-0.0025559999999999,-0.346802,0.5702579999999999,-0.0129419999999999,0.187068,0.489958,0.022245,0.365458,0.532508,0.041506,-0.2008019999999999,0.7015779999999999,-0.0069709999999999,0.213368,0.694448,0.034133,-0.072798,0.002443,-0.0005639999999999,0.072798,-0.002443,0.000564,-0.0871299999999999,-0.389812,0.03493,0.067228,-0.418292,0.040405,-0.097282,-0.730202,0.039725,0.062207,-0.7331120000000001,0.048759,1
118,-0.0035894999999999,0.7458805,0.057642,-0.1701425,0.4915404999999999,-0.0028259999999999,-0.3472425,0.5688105,-0.013675,0.1859075,0.4897604999999999,0.023209,0.3622875,0.5267705,0.04158,-0.1988525,0.7018705,-0.006487,0.2170875,0.6918805,0.03452,-0.0727174999999999,0.0023834999999999,-0.0010739999999999,0.0727174999999999,-0.0023835,0.001074,-0.0850025,-0.3901895,0.036612,0.0693874999999999,-0.4186295,0.042086,-0.0939575,-0.7299395000000001,0.042068,0.0658305,-0.7333795000000001,0.050416,0
119,-0.0041274999999999,0.744171,0.057615,-0.1713185,0.4914010000000001,-0.002069,-0.3478785,0.565021,-0.011822,0.1847015,0.489541,0.0241319999999999,0.3595215,0.519691,0.040782,-0.2010885,0.6992510000000001,-0.007157,0.2193615,0.6883910000000001,0.033684,-0.0726715,0.002306,-0.001574,0.0726715,-0.0023059999999999,0.0015739999999999,-0.0828815,-0.389819,0.0384,0.0715455,-0.4186189999999999,0.0438729999999999,-0.0910595,-0.729259,0.044334,0.0689555,-0.733039,0.052189,0
120,-0.0042959999999999,0.7445365,0.0575085,-0.172136,0.4912365000000001,-0.0007164999999999,-0.345286,0.5552165,-0.0099224999999999,0.182994,0.4890865,0.0250505,0.356454,0.5091865,0.0385975,-0.205646,0.6945965000000001,-0.0094115,0.220014,0.6803265000000001,0.0288695,-0.072737,0.0021465,-0.0019545,0.072737,-0.0021465,0.0019545,-0.08084,-0.3883735,0.0403125,0.073215,-0.4184135,0.0457345,-0.088817,-0.7278635,0.0465745,0.071343,-0.7318835,0.0541004999999999,0
121,-0.0040044999999999,0.745351,0.057144,-0.1724755,0.4908209999999999,0.0006269999999999,-0.3432754999999999,0.537661,-0.0080889999999999,0.1811345,0.488321,0.0259949999999999,0.3508145,0.4940709999999999,0.0355189999999999,-0.2133155,0.682491,-0.015192,0.2194345,0.668901,0.0203469999999999,-0.0727335,0.0019259999999999,-0.0020809999999999,0.0727335,-0.001926,0.0020809999999999,-0.0789574999999999,-0.386289,0.041774,0.0745985,-0.4178389999999999,0.047166,-0.0870215,-0.7256790000000001,0.048614,0.0731054999999999,-0.729889,0.055902,0
122,-0.003215,0.7465324999999999,0.0566345,-0.171595,0.4906425,0.0021885,-0.341555,0.5107324999999999,-0.0053515,0.178925,0.4874325,0.0267635,0.344515,0.4727024999999999,0.0301345,-0.219255,0.6610024999999999,-0.0244515,0.217475,0.6500225,0.0085355,-0.072726,0.0016945,-0.0019795,0.072726,-0.0016945,0.0019795,-0.077313,-0.3853375,0.0428945,0.0757559999999999,-0.4160875,0.0485845,-0.085399,-0.7229475000000001,0.0505695,0.0745469999999999,-0.7273375000000001,0.0576495,0
123,-0.0021699999999999,0.7480994999999999,0.0552929999999999,-0.170651,0.4906594999999999,0.0037129999999999,-0.340191,0.4812695,-0.00103,0.176319,0.4863695,0.026787,0.335109,0.4489695,0.0237899999999999,-0.2236409999999999,0.6316795,-0.036447,0.215559,0.6282495,-0.007003,-0.072738,0.0014445,-0.00171,0.072738,-0.0014445,0.0017099999999999,-0.0760759999999999,-0.3841805,0.043799,0.0765499999999999,-0.4135605,0.0498379999999999,-0.084216,-0.7197305,0.0523209999999999,0.075568,-0.7242405000000001,0.05925,0
124,-0.0012419999999999,0.749735,0.0535585,-0.169875,0.490415,0.0052355,-0.335195,0.449265,0.0043805,0.173265,0.485205,0.0263005,0.322775,0.424645,0.0173195,-0.228645,0.593855,-0.0478015,0.2143449999999999,0.603935,-0.0268385,-0.072742,0.001175,-0.0013094999999999,0.072742,-0.001175,0.0013094999999999,-0.075087,-0.383345,0.0446015,0.077205,-0.410775,0.0509255,-0.083253,-0.716205,0.0538895,0.076353,-0.720815,0.0607525,0
125,-0.0004804999999999,0.751275,0.0513619999999999,-0.1694975,0.490275,0.0066569999999999,-0.3237475,0.416745,0.0100379999999999,0.1697225,0.483905,0.0250309999999999,0.3091625,0.397475,0.0095599999999999,-0.2334775,0.545485,-0.059659,0.2140925,0.577275,-0.049857,-0.0727495,0.000909,-0.000886,0.0727495,-0.000909,0.0008859999999999,-0.0742505,-0.382525,0.045248,0.0777755,-0.407955,0.0518349999999999,-0.0824324999999999,-0.7125549999999999,0.055352,0.0769815,-0.717255,0.062153,0
126,0.0001494999999999,0.7526674999999999,0.0488824999999999,-0.1693785,0.4902375,0.0079674999999999,-0.3110185,0.3845475,0.0170734999999999,0.1661514999999999,0.4826175,0.0236014999999999,0.2948915,0.3706875,0.0020174999999999,-0.2386285,0.4874175,-0.0690455,0.2121015,0.5482575,-0.0740755,-0.0727495,0.0006745,-0.0004615,0.0727495,-0.0006744999999999,0.0004614999999999,-0.0733205,-0.3821325,0.0458714999999999,0.0782565,-0.4053925,0.0525524999999999,-0.0817415,-0.7089325000000001,0.0566784999999999,0.0774715,-0.7137025,0.0634224999999999,0
127,0.0007464999999999,0.7538745,0.0460045,-0.1693795,0.4901644999999999,0.0092674999999999,-0.2981995,0.3523245,0.0236365,0.1611205,0.4805145,0.0205025,0.2806805,0.3486645,-0.0064135,-0.2442395,0.4257745,-0.0767215,0.2081405,0.5191345,-0.1018615,-0.0727765,0.0004375,-2.7499999999999747e-05,0.0727765,-0.0004375,2.7499999999999747e-05,-0.0723435,-0.3819455,0.0464795,0.0787165,-0.4027655,0.0531345,-0.0810745,-0.7054255,0.0578685,0.0778925,-0.7102554999999999,0.0645525,0
128,0.0012225,0.7554719999999999,0.043021,-0.1694675,0.490032,0.010432,-0.2853975,0.321822,0.029905,0.1558525,0.4783119999999999,0.016986,0.2658625,0.328312,-0.0145819999999999,-0.2460275,0.362222,-0.081361,0.2037725,0.490132,-0.128741,-0.0728345,0.0001499999999999,0.000449,0.0728345,-0.00015,-0.0004489999999999,-0.0715565,-0.382028,0.046939,0.0789765,-0.400028,0.053447,-0.0806555,-0.7023280000000001,0.058739,0.0781065,-0.707198,0.065357,0
129,0.0019774999999999,0.7568075,0.039875,-0.1695525,0.4901875,0.0115179999999999,-0.2724924999999999,0.2976775,0.03601,0.1507375,0.4760775,0.0130019999999999,0.2516975,0.3118575,-0.021536,-0.2481225,0.2991975,-0.08377,0.1990775,0.4662175,-0.15201,-0.0728935,-7.249999999999965e-05,0.0009199999999999,0.0728935,7.249999999999965e-05,-0.00092,-0.0706995,-0.3821225,0.047291,0.0791655,-0.3978025,0.053678,-0.0802385,-0.6996425000000001,0.0593879999999999,0.0783285,-0.7045225,0.065964,0
130,0.002921,0.757709,0.0366725,-0.169517,0.4905689999999999,0.0123104999999999,-0.2593769999999999,0.2811789999999999,0.0416884999999999,0.1458829999999999,0.473309,0.0081844999999999,0.240193,0.299959,-0.0282425,-0.250087,0.241999,-0.0832525,0.192513,0.444909,-0.1716725,-0.072958,-0.0003009999999999,0.0012905,0.072958,0.0003009999999999,-0.0012905,-0.070047,-0.381951,0.0476005,0.079371,-0.396161,0.0537345,-0.0798,-0.697561,0.0599245,0.078634,-0.702411,0.0664395,0
131,0.0038595,0.7591235,0.033308,-0.1693075,0.4908135,0.0126879999999999,-0.2459375,0.2738035,0.0441229999999999,0.1414824999999999,0.4707935,0.0033819999999999,0.2313425,0.2946935,-0.032954,-0.2519975,0.1933035,-0.082862,0.1853525,0.4311335,-0.188352,-0.0730375,-0.0004904999999999,0.001548,0.0730375,0.0004905,-0.001548,-0.0693775,-0.3809665,0.047734,0.0796004999999999,-0.3948664999999999,0.053686,-0.0793375,-0.6958465,0.060346,0.0789485,-0.7005765,0.066813,0
132,0.0045414999999999,0.7603655,0.0304865,-0.1690655,0.4909955,0.0129265,-0.2358755,0.2688455,0.0450515,0.1374545,0.4683155,-0.0010464999999999,0.2257345,0.2919955,-0.0370495,-0.2529855,0.1521954999999999,-0.0828074999999999,0.1775745,0.4198155,-0.2014874999999999,-0.0731005,-0.0006464999999999,0.0016775,0.0731005,0.0006464999999999,-0.0016774999999999,-0.0687725,-0.3802244999999999,0.0477715,0.0797145,-0.3934545,0.0535775,-0.0789065,-0.6942545,0.0606635,0.0792644999999999,-0.6990145,0.0670615,0
133,0.0050419999999999,0.761683,0.0278614999999999,-0.168699,0.491553,0.0131894999999999,-0.229249,0.266493,0.0451204999999999,0.133141,0.465513,-0.0059245,0.223051,0.290133,-0.0410835,-0.251209,0.119723,-0.0830525,0.1708609999999999,0.411213,-0.2103924999999999,-0.073158,-0.000755,0.0017924999999999,0.073158,0.0007549999999999,-0.0017925,-0.068208,-0.379447,0.0478245,0.079904,-0.391757,0.0535714999999999,-0.078359,-0.692787,0.0609635,0.079636,-0.697557,0.0673005,0
134,0.0055825,0.7630595,0.0255825,-0.1683585,0.4922195,0.0134505,-0.2286485,0.2649395,0.0453695,0.1293415,0.4628995,-0.0102125,0.2219815,0.2898295,-0.0437315,-0.2502685,0.0979895,-0.0806735,0.1655615,0.4060295,-0.2169134999999999,-0.0732135,-0.0008105,0.0019354999999999,0.0732135,0.0008105,-0.0019354999999999,-0.0676104999999999,-0.3779705,0.0479365,0.0801425,-0.3903805,0.0536945,-0.0777415,-0.6912305,0.0613085,0.0800835,-0.6960405,0.0675575,0
135,0.0061799999999999,0.7632715,0.0235929999999999,-0.168268,0.4929215,0.0136569999999999,-0.228008,0.2635615,0.0451629999999999,0.125582,0.4602715,-0.014516,0.221512,0.2898415,-0.045771,-0.248898,0.0859675,-0.076262,0.161382,0.4039215,-0.222062,-0.073271,-0.0008505,0.0021039999999999,0.073271,0.0008505,-0.002104,-0.066963,-0.3764485,0.0480639999999999,0.080382,-0.3889285,0.053874,-0.077072,-0.6896085,0.0616609999999999,0.08058,-0.6944685,0.067833,0
136,0.0067885,0.7636015,0.0220609999999999,-0.1688865,0.4936815,0.0139899999999999,-0.2273165,0.2630415,0.0454229999999999,0.1237135,0.4585115,-0.017125,0.2210935,0.2897415,-0.045809,-0.2472465,0.0773245,-0.072471,0.1592335,0.4046214999999999,-0.223631,-0.0732895,-0.0008894999999999,0.0022649999999999,0.0732895,0.0008894999999999,-0.002265,-0.0663425,-0.3750585,0.0482159999999999,0.0806325,-0.3875585,0.0541179999999999,-0.0763685,-0.6881385,0.0620209999999999,0.0810555,-0.6929685,0.068131,0
137,0.0071985,0.7640195,0.0208275,-0.1693675,0.4943595,0.0142895,-0.2266275,0.2631195,0.0446215,0.1221125,0.4567995,-0.0195324999999999,0.2209025,0.2895895,-0.0455325,-0.2460875,0.0744904999999999,-0.0692745,0.1570524999999999,0.4034195,-0.2243745,-0.0732955,-0.0009234999999999,0.0024285,0.0732955,0.0009234999999999,-0.0024285,-0.0656834999999999,-0.3741005,0.0484445,0.0808965,-0.3864605,0.0543435,-0.0757024999999999,-0.6867705000000001,0.0623785,0.0814955,-0.6915205,0.0684285,0
138,0.007353,0.7643344999999999,0.0197715,-0.169922,0.4948145,0.0145285,-0.226822,0.2630645,0.0422015,0.120878,0.4553645,-0.0216465,0.220698,0.2892645,-0.0453135,-0.245942,0.0734674999999999,-0.0679444999999999,0.154898,0.4044045,-0.2258345,-0.0732849999999999,-0.0009385,0.0025545,0.0732849999999999,0.0009385,-0.0025545,-0.065145,-0.3734654999999999,0.0486455,0.0811679999999999,-0.3857354999999999,0.0545115,-0.075102,-0.6856055,0.0626975,0.081876,-0.6902955000000001,0.0686665,0
139,0.0077304999999999,0.764845,0.0187025,-0.1696295,0.495465,0.0139864999999999,-0.2278794999999999,0.2630849999999999,0.0426225,0.1179004999999999,0.4536249999999999,-0.0251165,0.2194105,0.2896049999999999,-0.0484685,-0.2531395,0.071646,-0.0522485,0.1557005,0.392375,-0.2298825,-0.0732595,-0.000513,0.0028125,0.0732595,0.000513,-0.0028125,-0.0640245,-0.372775,0.0493305,0.0811955,-0.384525,0.0550555,-0.0744644999999999,-0.6837150000000001,0.0631515,0.0825104999999999,-0.688525,0.0692085,0
140,0.0079065,0.764835,0.0182135,-0.1717465,0.4958349999999999,0.0148655,-0.2288164999999999,0.262955,0.0391795,0.1178135,0.4530949999999999,-0.0260525,0.2180234999999999,0.289475,-0.0496195,-0.2521565,0.073739,-0.0583404999999999,0.1529134999999999,0.389805,-0.2295105,-0.0731905,-0.000725,0.0029204999999999,0.0731905,0.000725,-0.0029204999999999,-0.0640645,-0.371075,0.0487745,0.0819325,-0.383745,0.0551185,-0.0735365,-0.683345,0.0634125,0.0828725,-0.688175,0.0692345,0
141,0.0078254999999999,0.764825,0.017616,-0.1722165,0.496075,0.015014,-0.2292565,0.262945,0.035268,0.1177935,0.452925,-0.026435,0.2173735,0.289345,-0.050127,-0.2498465,0.075807,-0.066213,0.1473535,0.407935,-0.2373129999999999,-0.0731455,-0.000777,0.002903,0.0731455,0.0007769999999999,-0.002903,-0.0640675,-0.370865,0.048896,0.0820684999999999,-0.3845449999999999,0.055019,-0.0725494999999999,-0.682705,0.063651,0.0828935,-0.6875450000000001,0.069228,0
142,0.007767,0.765055,0.01681,-0.17306,0.496435,0.0153069999999999,-0.22893,0.263605,0.0323689999999999,0.1179399999999999,0.452935,-0.0270429999999999,0.21933,0.288765,-0.043217,-0.24594,0.076778,-0.072753,0.14602,0.411775,-0.238183,-0.073125,-0.000999,0.002998,0.073125,0.0009989999999999,-0.002998,-0.063994,-0.370715,0.0488969999999999,0.082472,-0.3839849999999999,0.0547669999999999,-0.072222,-0.682325,0.063707,0.083165,-0.686755,0.069186,0
143,0.0079355,0.7651025,0.016824,-0.1734954999999999,0.4966125,0.0156159999999999,-0.2279455,0.2643325,0.0301649999999999,0.1181745,0.4529625,-0.027086,0.2199645,0.2885925,-0.041272,-0.2428455,0.0775125,-0.076383,0.1444945,0.4200925,-0.236763,-0.0730305,-0.0009845,0.0030359999999999,0.0730305,0.0009845,-0.003036,-0.0642675,-0.3708075,0.049131,0.0817845,-0.3841675,0.054644,-0.0718795,-0.6822275,0.064029,0.0833625,-0.6862675,0.069467,0
144,0.0081105,0.7653795,0.016762,-0.1733655,0.4964794999999999,0.015238,-0.2273055,0.2644995,0.028413,0.1182445,0.4531695,-0.0273419999999999,0.2207345,0.2887794999999999,-0.0392179999999999,-0.2403255,0.0776425,-0.077279,0.1488045,0.3812695,-0.2238389999999999,-0.0730524999999999,-0.0011664999999999,0.003057,0.0730524999999999,0.0011665,-0.0030569999999999,-0.0642045,-0.3705505,0.04914,0.0812275,-0.3842905,0.054837,-0.0723735,-0.6821005,0.06437,0.0834435,-0.6858805,0.069467,0
145,0.0085134999999999,0.765519,0.0167905,-0.1732575,0.496699,0.0152904999999999,-0.2265875,0.264419,0.0272565,0.1182624999999999,0.453329,-0.0275284999999999,0.2213325,0.288429,-0.0357745,-0.2366774999999999,0.076384,-0.0763115,0.1456625,0.417659,-0.2327615,-0.0730555,-0.001112,0.0029894999999999,0.0730555,0.001112,-0.0029894999999999,-0.0642265,-0.370101,0.0490675,0.0806715,-0.387101,0.0551225,-0.0721935,-0.6812210000000001,0.0642965,0.0834745,-0.685211,0.0695725,0
