sb224sc-HT22-VT27/4dt907/src/ml-research/a11/datafiles/labeled_files/B4_kinect.csv
FrameNo,nose_3d_x,nose_3d_y,nose_3d_z,left_shoulder_3d_x,left_shoulder_3d_y,left_shoulder_3d_z,left_elbow_3d_x,left_elbow_3d_y,left_elbow_3d_z,right_shoulder_3d_x,right_shoulder_3d_y,right_shoulder_3d_z,right_elbow_3d_x,right_elbow_3d_y,right_elbow_3d_z,left_wrist_3d_x,left_wrist_3d_y,left_wrist_3d_z,right_wrist_3d_x,right_wrist_3d_y,right_wrist_3d_z,left_hip_3d_x,left_hip_3d_y,left_hip_3d_z,right_hip_3d_x,right_hip_3d_y,right_hip_3d_z,left_knee_3d_x,left_knee_3d_y,left_knee_3d_z,right_knee_3d_x,right_knee_3d_y,right_knee_3d_z,left_ankle_3d_x,left_ankle_3d_y,left_ankle_3d_z,right_ankle_3d_x,right_ankle_3d_y,right_ankle_3d_z,activity_label
0,-0.0333529999999999,0.7304935,0.0420165,-0.206922,0.5198735,0.0264275,-0.343932,0.6108935,0.0573425,0.158008,0.4710335,0.0050655,0.3619279999999999,0.5147135,-0.0215425,-0.190522,0.7037335,0.0510865,0.200848,0.6690335000000001,-0.0256904999999999,-0.074206,0.0003654999999999,0.0049105,0.074206,-0.0003655,-0.0049104999999999,-0.080714,-0.3663865,-0.1602225,0.078722,-0.3376165,0.1318175,-0.102197,-0.6703965,-0.3157225,0.02644,-0.6633165,0.2755375,1
1,-0.033512,0.7306145000000001,0.0416965,-0.2070779999999999,0.5199145000000001,0.0263005,-0.3444379999999999,0.6109145,0.0571765,0.157972,0.4711945,0.0049525,0.361942,0.5152045,-0.0218424999999999,-0.1914179999999999,0.7039645,0.0565595,0.202612,0.6666945,-0.0266104999999999,-0.074155,0.0003085,0.0046925,0.074155,-0.0003084999999999,-0.0046924999999999,-0.080656,-0.3663655,-0.1602985,0.078774,-0.3374455,0.1316975,-0.102239,-0.6707355,-0.3160885,0.026504,-0.6631555,0.2753514999999999,1
2,-0.0336985,0.7304204999999999,0.0412225,-0.2071354999999999,0.5197505,0.0261125,-0.3448455,0.6106005,0.0569515,0.1579445,0.4711005,0.0047624999999999,0.3620445,0.5155004999999999,-0.0224305,-0.1901755,0.7010105,0.0567045,0.2042045,0.6650604999999999,-0.0275564999999999,-0.0741665,0.0003735,0.0048214999999999,0.0741665,-0.0003735,-0.0048214999999999,-0.0806155,-0.3664595,-0.1604685,0.0786575,-0.3375395,0.1316815,-0.1016635,-0.6688395,-0.3149285,0.0264755,-0.6634695,0.2752215,1
3,-0.033684,0.730211,0.0408925,-0.207228,0.519621,0.0259214999999999,-0.345438,0.610221,0.0566794999999999,0.157952,0.471071,0.0046304999999999,0.362092,0.5155310000000001,-0.0227435,-0.189668,0.6982510000000001,0.0608365,0.202892,0.6667810000000001,-0.0279154999999999,-0.074147,0.000433,0.0048384999999999,0.074147,-0.000433,-0.0048385,-0.080607,-0.366609,-0.1604935,0.078698,-0.337419,0.1314985,-0.101969,-0.6696089999999999,-0.3156035,0.026493,-0.6635489999999999,0.2750965,1
4,-0.033728,0.730065,0.040441,-0.207389,0.5195449999999999,0.025736,-0.345549,0.6100949999999999,0.056343,0.1578609999999999,0.471015,0.004338,0.362181,0.515515,-0.0230469999999999,-0.189679,0.6977749999999999,0.061509,0.2046509999999999,0.6646449999999999,-0.0293169999999999,-0.074169,0.0004749999999999,0.005062,0.074169,-0.000475,-0.0050619999999999,-0.080649,-0.366805,-0.160588,0.078777,-0.337785,0.131663,-0.101729,-0.668305,-0.314828,0.026469,-0.6635350000000001,0.274872,1
5,-0.033641,0.7298720000000001,0.040189,-0.207341,0.519232,0.025584,-0.345461,0.609832,0.056166,0.157909,0.470732,0.004227,0.3622889999999999,0.515252,-0.0231839999999999,-0.191541,0.701652,0.053675,0.202259,0.667042,-0.0292589999999999,-0.074195,0.0005169999999999,0.005256,0.074195,-0.000517,-0.0052559999999999,-0.080542,-0.367048,-0.160571,0.078932,-0.338048,0.131565,-0.101362,-0.667478,-0.3144909999999999,0.026375,-0.664098,0.274949,1
6,-0.03396,0.7300225,0.040243,-0.207423,0.5193025,0.0255429999999999,-0.345573,0.6099225,0.05602,0.157807,0.4708825,0.0042069999999999,0.362277,0.5153925,-0.023195,-0.191383,0.7014725,0.051424,0.205137,0.6631425000000001,-0.030476,-0.074196,0.0004374999999999,0.0051259999999999,0.074196,-0.0004375,-0.005126,-0.080595,-0.3669475,-0.160362,0.078939,-0.3376775,0.131604,-0.101775,-0.6688974999999999,-0.3154519999999999,0.026321,-0.6639275,0.274958,1
7,-0.0337325,0.730207,0.0403025,-0.2075395,0.519397,0.0255935,-0.3452894999999999,0.610297,0.0555465,0.1577405,0.470947,0.0044275,0.3624205,0.515197,-0.0229694999999999,-0.1902595,0.701607,0.0497675,0.2043105,0.664917,-0.0291025,-0.0741324999999999,0.000495,0.0048685,0.0741324999999999,-0.000495,-0.0048684999999999,-0.0807645,-0.3667229999999999,-0.1601904999999999,0.0789755,-0.337313,0.1315184999999999,-0.1019675,-0.670053,-0.3160505,0.0262945,-0.663793,0.2751795,1
8,-0.03375,0.7301755,0.040145,-0.207622,0.5193555,0.02552,-0.345232,0.6102555,0.055151,0.1576779999999999,0.4709255,0.004397,0.3625379999999999,0.5151555,-0.022993,-0.189902,0.7009155,0.049292,0.2045679999999999,0.6645055,-0.029315,-0.074129,0.0005074999999999,0.00487,0.074129,-0.0005075,-0.0048699999999999,-0.080818,-0.3667845,-0.160121,0.079062,-0.3371645,0.131506,-0.102,-0.6701445,-0.316101,0.0262199999999999,-0.6638445,0.275189,1
9,-0.0337865,0.730151,0.0399884999999999,-0.2076705,0.5193209999999999,0.0254194999999999,-0.3451705,0.6102209999999999,0.0546885,0.1576095,0.470921,0.0043395,0.3627395,0.5150809999999999,-0.0230915,-0.1898905,0.700881,0.0479695,0.2047095,0.6641309999999999,-0.0296255,-0.0741365,0.0005149999999999,0.0048675,0.0741365,-0.000515,-0.0048675,-0.0808725,-0.366829,-0.1600855,0.0791735,-0.336959,0.1314735,-0.1020675,-0.6701990000000001,-0.3161555,0.0261545,-0.663879,0.2751945,1
10,-0.0337839999999999,0.730167,0.039791,-0.20776,0.519277,0.025326,-0.34512,0.610197,0.054199,0.15755,0.470907,0.004289,0.36296,0.514947,-0.0232,-0.19027,0.701347,0.046722,0.20478,0.6639970000000001,-0.0299699999999999,-0.07414,0.000529,0.004843,0.07414,-0.000529,-0.004843,-0.080938,-0.3668929999999999,-0.160038,0.079285,-0.3367529999999999,0.131405,-0.102155,-0.670473,-0.316338,0.026088,-0.663913,0.275202,1
11,-0.033798,0.7301785000000001,0.0396475,-0.207867,0.5192185,0.0252595,-0.345027,0.6101985000000001,0.0537415,0.1574829999999999,0.4708785,0.0042655,0.363193,0.5147885000000001,-0.0233224999999999,-0.191267,0.7025085000000001,0.0458655,0.204843,0.6637985000000001,-0.0302774999999999,-0.0741469999999999,0.0005445,0.0048155,0.0741469999999999,-0.0005445,-0.0048155,-0.08102,-0.3669615,-0.1599765,0.079399,-0.3365115,0.1313525,-0.102248,-0.6706915,-0.3164665,0.025998,-0.6639415,0.2752435,1
12,-0.0337084999999999,0.7301885,0.0394435,-0.2080115,0.5191585000000001,0.0252095,-0.3449415,0.6102285000000001,0.0533325,0.1574085,0.4708485,0.0042755,0.3634285,0.5145985000000001,-0.0234424999999999,-0.1913015,0.7024085,0.0454875,0.2048885,0.6635785000000001,-0.0305164999999999,-0.0741475,0.0005575,0.0047605,0.0741475,-0.0005575,-0.0047605,-0.0811185,-0.3670315,-0.1599025,0.0795164999999999,-0.3362815,0.1312955,-0.1024144999999999,-0.6709815,-0.3165925,0.0259335,-0.6639615,0.2753375,1
13,-0.0335995,0.7302230000000001,0.0392265,-0.2081515,0.519113,0.0251644999999999,-0.3448715,0.610263,0.0529495,0.1573385,0.470833,0.0042854999999999,0.3636385,0.5144230000000001,-0.0235895,-0.1912415,0.7022830000000001,0.0454604999999999,0.2049685,0.6633030000000001,-0.0307245,-0.0741445,0.0005679999999999,0.0047064999999999,0.0741445,-0.000568,-0.0047065,-0.0812175,-0.367107,-0.1598145,0.0796065,-0.336077,0.1312625,-0.1026135,-0.671267,-0.3167045,0.0258844999999999,-0.663917,0.2754255,1
14,-0.033474,0.7302445000000001,0.0390169999999999,-0.208293,0.5190645,0.025145,-0.344793,0.6102845,0.052655,0.157287,0.4707945,0.0043069999999999,0.363867,0.5142245,-0.0237189999999999,-0.191263,0.7023845000000001,0.04543,0.205017,0.6632045,-0.030846,-0.074144,0.0005825,0.004656,0.074144,-0.0005825,-0.004656,-0.081312,-0.3671855,-0.159721,0.079687,-0.3358954999999999,0.131246,-0.102816,-0.6715355,-0.316791,0.025838,-0.6639155,0.275539,1
15,-0.0333365,0.7302535,0.038814,-0.2084025,0.5190435,0.025132,-0.3447025,0.6103535,0.052388,0.1572675,0.4707635,0.004324,0.3641075,0.5140535,-0.02386,-0.1906925,0.7019135,0.045579,0.2049274999999999,0.6632735,-0.0308979999999999,-0.0741465,0.0005885,0.004608,0.0741465,-0.0005884999999999,-0.004608,-0.0813945,-0.3672665,-0.159629,0.0797525,-0.3357565,0.13123,-0.1029755,-0.6717965,-0.316859,0.0258025,-0.6638865,0.275641,1
16,-0.0331695,0.7302215,0.038615,-0.2084705,0.5190215,0.025116,-0.3446305,0.6104215000000001,0.052229,0.1572795,0.4707415,0.004333,0.3643495,0.5138915000000001,-0.024006,-0.1910405,0.7026715,0.045253,0.2049595,0.6631215,-0.0310529999999999,-0.0741645,0.0005765,0.004599,0.0741645,-0.0005765,-0.0045989999999999,-0.0814815,-0.3673285,-0.159569,0.0797745,-0.3357084999999999,0.131222,-0.1030785,-0.6720585,-0.3169389999999999,0.0257675,-0.6638585,0.275721,1
17,-0.032935,0.730182,0.0384425,-0.208472,0.519012,0.0250984999999999,-0.344522,0.6104820000000001,0.0521294999999999,0.157348,0.4707119999999999,0.0043474999999999,0.364568,0.513792,-0.0241925,-0.191042,0.702632,0.0449404999999999,0.2048579999999999,0.663282,-0.0311455,-0.074188,0.0005559999999999,0.0046114999999999,0.074188,-0.000556,-0.0046115,-0.081535,-0.367368,-0.1595245,0.079792,-0.335718,0.1312364999999999,-0.103088,-0.672248,-0.3169845,0.025783,-0.663858,0.2757954999999999,1
18,-0.0327304999999999,0.7301565,0.038245,-0.2084575,0.5190065,0.025112,-0.3444075,0.6105565000000001,0.052087,0.1574225,0.4706864999999999,0.004378,0.3646724999999999,0.5136865,-0.0243029999999999,-0.1908274999999999,0.7027465,0.044861,0.2049125,0.6629765000000001,-0.0312249999999999,-0.0741874999999999,0.0005304999999999,0.004611,0.0741874999999999,-0.0005304999999999,-0.0046109999999999,-0.0815475,-0.3673835,-0.159486,0.0797905,-0.3357435,0.131242,-0.1030474999999999,-0.6721735,-0.316846,0.0257935,-0.6638835,0.275884,1
19,-0.032662,0.730135,0.038062,-0.208461,0.519005,0.0251179999999999,-0.344361,0.6106550000000001,0.0520449999999999,0.157439,0.470665,0.0044019999999999,0.3647089999999999,0.5135850000000001,-0.024407,-0.191371,0.703715,0.044424,0.204949,0.662755,-0.031332,-0.074183,0.0005089999999999,0.0045969999999999,0.074183,-0.0005089999999999,-0.004597,-0.08154,-0.3673949999999999,-0.159513,0.079781,-0.335765,0.13127,-0.103007,-0.672065,-0.316713,0.0257789999999999,-0.663905,0.2759669999999999,1
20,-0.0326,0.7301209999999999,0.0378705,-0.208456,0.519011,0.0251235,-0.344356,0.610741,0.0520295,0.157434,0.470651,0.0044284999999999,0.364724,0.5134909999999999,-0.0244595,-0.1919259999999999,0.704421,0.0437645,0.204984,0.662431,-0.0314355,-0.074182,0.0004949999999999,0.0045934999999999,0.074182,-0.000495,-0.0045935,-0.0816129999999999,-0.367289,-0.1597555,0.079772,-0.335779,0.1312975,-0.103032,-0.6720790000000001,-0.3166355,0.025758,-0.663919,0.2760245,1
21,-0.0325295,0.7301155,0.0377875,-0.2084265,0.5190155000000001,0.0251595,-0.3443265,0.6107455,0.0520725,0.1574635,0.4706455,0.0044665,0.3648034999999999,0.5133955,-0.0245785,-0.1924765,0.7048955,0.0429635,0.2049834999999999,0.6621855,-0.0317665,-0.0741995,0.0004905,0.0045945,0.0741995,-0.0004904999999999,-0.0045945,-0.0818175,-0.3669945,-0.1603895,0.0797175,-0.3357645,0.1313345,-0.1027915,-0.6714144999999999,-0.3159495,0.0257724999999999,-0.6639345,0.2761205,1
22,-0.0322729999999999,0.730066,0.0375775,-0.208277,0.519036,0.0253365,-0.344167,0.610766,0.0521815,0.157603,0.470646,0.0046175,0.364973,0.513316,-0.0250525,-0.192697,0.704416,0.0424225,0.205013,0.661986,-0.0324374999999999,-0.074234,0.0004699999999999,0.0046115,0.074234,-0.00047,-0.0046114999999999,-0.082103,-0.366544,-0.1614315,0.07967,-0.3356639999999999,0.1313785,-0.102396,-0.670554,-0.3150115,0.025872,-0.663974,0.2763985,1
23,-0.0319379999999999,0.729969,0.0371515,-0.20798,0.519069,0.0257715,-0.34402,0.610799,0.0522085,0.15788,0.470639,0.0049594999999999,0.36517,0.5132289999999999,-0.0257285,-0.19343,0.7045389999999999,0.0414945,0.20532,0.661839,-0.0330875,-0.074278,0.0004369999999999,0.0047135,0.074278,-0.000437,-0.0047135,-0.082464,-0.3658409999999999,-0.1628605,0.079606,-0.335661,0.1313845,-0.101765,-0.6691710000000001,-0.3136604999999999,0.026106,-0.6639710000000001,0.2770095,1
24,-0.0316905,0.7298515,0.0364139999999999,-0.2075565,0.5191315000000001,0.0265999999999999,-0.3439065,0.6108615000000001,0.0520179999999999,0.1586135,0.4702415,0.0033549999999999,0.3654135,0.5130615000000001,-0.026819,-0.1927165,0.7034615000000001,0.041523,0.2054534999999999,0.6615515000000001,-0.033963,-0.0742805,0.0003994999999999,0.0048489999999999,0.0742805,-0.0003994999999999,-0.004849,-0.0829925,-0.3644985,-0.1646,0.0795564999999999,-0.3355485,0.131496,-0.1011705,-0.6673285,-0.31224,0.0264244999999999,-0.6638485,0.27804,1
25,-0.031406,0.7296965,0.035465,-0.206791,0.5191965,0.02763,-0.343471,0.6108865,0.051654,0.1593089999999999,0.4698965,0.001467,0.3656689999999999,0.5128365,-0.028286,-0.191261,0.7024965,0.040686,0.206009,0.6611165,-0.035474,-0.074241,0.0003725,0.004992,0.074241,-0.0003725,-0.0049919999999999,-0.083646,-0.3624835,-0.166723,0.079673,-0.3352135,0.131621,-0.100557,-0.6653035,-0.310353,0.0269399999999999,-0.6635035,0.279797,1
26,-0.031117,0.7295535000000001,0.034707,-0.205545,0.5192435000000001,0.0288749999999999,-0.342925,0.6108735000000001,0.051676,0.160275,0.4695735,-0.000225,0.365885,0.5125135000000001,-0.029759,-0.190195,0.7021235,0.039841,0.206485,0.6607435,-0.036503,-0.074198,0.0003585,0.005025,0.074198,-0.0003585,-0.005025,-0.084218,-0.3596665,-0.168852,0.07986,-0.3346165,0.132081,-0.099754,-0.6631265,-0.307392,0.027741,-0.6629465,0.282478,1
27,-0.03081,0.729254,0.0341345,-0.204015,0.519234,0.0304065,-0.342615,0.610344,0.0516815,0.161075,0.469184,-0.0021675,0.366015,0.512154,-0.0313825,-0.190485,0.702904,0.0396605,0.207135,0.660504,-0.0376175,-0.074154,0.000385,0.0055144999999999,0.074154,-0.000385,-0.0055144999999999,-0.084867,-0.356456,-0.1719575,0.08011,-0.334016,0.1325345,-0.098657,-0.660696,-0.3032475,0.028899,-0.661976,0.2858925,1
28,-0.0302385,0.72899,0.033913,-0.2023855,0.51913,0.032363,-0.3420855,0.6094200000000001,0.052133,0.1621044999999999,0.46852,-0.004208,0.3664345,0.5118900000000001,-0.032974,-0.1905255,0.70301,0.0393759999999999,0.2086545,0.65957,-0.03894,-0.0741155,0.000447,0.0059769999999999,0.0741155,-0.0004469999999999,-0.005977,-0.0852665,-0.35279,-0.175155,0.0805285,-0.33313,0.132803,-0.0969595,-0.65814,-0.2978449999999999,0.0307075,-0.66027,0.290035,1
29,-0.0295024999999999,0.7284355,0.0337645,-0.2004865,0.5192355,0.0352675,-0.3412265,0.6085555,0.0531135,0.1634735,0.4679055,-0.0053884999999999,0.3673235,0.5111255,-0.0350784999999999,-0.1900665,0.7029055,0.0395175,0.2108435,0.6583855,-0.0400865,-0.0740685,0.0006305,0.0066244999999999,0.0740685,-0.0006305,-0.0066244999999999,-0.0853865,-0.3487845,-0.1786605,0.0810105,-0.3320045,0.1332885,-0.0947565,-0.6555945,-0.2916205,0.0328685,-0.6581545,0.2950095,1
30,-0.0284474999999999,0.7276159999999999,0.0336799999999999,-0.1983915,0.518786,0.0377239999999999,-0.3398914999999999,0.607416,0.05441,0.1650585,0.466796,-0.00722,0.3685085,0.5102059999999999,-0.03722,-0.1892015,0.7023459999999999,0.040308,0.2140085,0.6561159999999999,-0.04153,-0.0739645,0.000994,0.0073399999999999,0.0739645,-0.000994,-0.0073399999999999,-0.0850315,-0.344064,-0.18159,0.0814195,-0.330484,0.133745,-0.0921025,-0.653524,-0.28413,0.0354365,-0.6553140000000001,0.3009,1
31,-0.0268969999999999,0.7269075,0.0340869999999999,-0.195915,0.5186275,0.0406159999999999,-0.338435,0.6060575,0.0561809999999999,0.167165,0.4656475,-0.009021,0.370075,0.5094675,-0.038914,-0.186755,0.7006775,0.0417769999999999,0.2184849999999999,0.6533975,-0.042874,-0.073879,0.0014215,0.0080949999999999,0.073879,-0.0014215,-0.008095,-0.0842049999999999,-0.3382225,-0.184044,0.081874,-0.3288625,0.1336449999999999,-0.089004,-0.6503625,-0.275924,0.038705,-0.6512925,0.307466,1
32,-0.0251405,0.7258819999999999,0.034659,-0.1932404999999999,0.518362,0.043385,-0.3367605,0.6045119999999999,0.05833,0.1693695,0.464612,-0.0107199999999999,0.3708995,0.509072,-0.0405929999999999,-0.1842204999999999,0.698172,0.043825,0.2234895,0.650492,-0.0442329999999999,-0.0737454999999999,0.0018969999999999,0.008833,0.0737454999999999,-0.001897,-0.0088329999999999,-0.0836025,-0.332158,-0.186863,0.0822855,-0.326998,0.132388,-0.0857945,-0.646138,-0.267393,0.0422345,-0.646128,0.313847,1
33,-0.0234904999999999,0.7250135,0.0358805,-0.1903315,0.5180634999999999,0.0459105,-0.3348415,0.6030534999999999,0.0611745,0.1714385,0.4636635,-0.0105104999999999,0.3720285,0.5087834999999999,-0.0418204999999999,-0.1821615,0.6966834999999999,0.0464665,0.2284785,0.6482034999999999,-0.0451504999999999,-0.0736755,0.0025264999999999,0.0096805,0.0736755,-0.0025265,-0.0096804999999999,-0.0829965,-0.3251765,-0.1898905,0.0825875,-0.3241865,0.1296945,-0.0824915,-0.6405365000000001,-0.2588104999999999,0.0462605,-0.6403565,0.3198095,1
34,-0.0216955,0.7243295000000001,0.038025,-0.1874575,0.5177995,0.048639,-0.3329975,0.6017895000000001,0.064647,0.1734425,0.4621794999999999,-0.0101099999999999,0.3732425,0.5079795,-0.0425899999999999,-0.1801375,0.6963795,0.049982,0.2329224999999999,0.6465595000000001,-0.0441699999999999,-0.0736875,0.0031695,0.01062,0.0736875,-0.0031694999999999,-0.0106199999999999,-0.0823515,-0.3171705,-0.1929199999999999,0.0821805,-0.3199105,0.124958,-0.0790075,-0.6339705,-0.24984,0.0508895,-0.6325905,0.32474,1
35,-0.0194965,0.7226545000000001,0.040364,-0.1849625,0.5180945,0.05228,-0.3318325,0.5987345000000001,0.068594,0.1756375,0.4610745,-0.0089599999999999,0.3748675,0.5068245,-0.0429499999999999,-0.1785725,0.6937045000000001,0.053781,0.2373974999999999,0.6444945000000001,-0.04327,-0.0736055,0.0038055,0.01166,0.0736055,-0.0038054999999999,-0.01166,-0.0822025,-0.3086455,-0.198,0.0810564999999999,-0.3156155,0.117935,-0.0754945,-0.6271055,-0.2414199999999999,0.0551565,-0.6241654999999999,0.32941,1
36,-0.0170985,0.7212765,0.0437849999999999,-0.1830985,0.5168465,0.056488,-0.3296685,0.5966764999999999,0.0739219999999999,0.1785015,0.4591265,-0.00715,0.3773715,0.5059465,-0.04234,-0.1759485,0.6915765,0.0584919999999999,0.2405115,0.6434165,-0.04084,-0.0736055,0.0044965,0.0124499999999999,0.0736055,-0.0044965,-0.01245,-0.0819285,-0.2981535,-0.2019,0.0804695,-0.3137635,0.111816,-0.0713485,-0.6186235,-0.23251,0.0601285,-0.6137935,0.33275,1
37,-0.0144734999999999,0.719907,0.04775,-0.1807234999999999,0.516277,0.0610239999999999,-0.3271535,0.595577,0.079464,0.1814365,0.457707,-0.0046599999999999,0.3796664999999999,0.504637,-0.0410099999999999,-0.1729435,0.6889069999999999,0.063522,0.2412165,0.644427,-0.03811,-0.0737035,0.005157,0.01386,0.0737035,-0.005157,-0.01386,-0.0819635,-0.286013,-0.20597,0.0796385,-0.313183,0.102962,-0.0672435,-0.608653,-0.2235,0.0654725,-0.602633,0.33418,1
38,-0.0113375,0.718691,0.0520999999999999,-0.1783545,0.5151209999999999,0.064986,-0.3242945,0.594661,0.085022,0.1845355,0.455621,-0.003,0.3817655,0.503831,-0.0388199999999999,-0.1692545,0.686711,0.069353,0.2415055,0.645461,-0.03482,-0.0737545,0.005582,0.0150799999999999,0.0737545,-0.005582,-0.01508,-0.0821145,-0.273319,-0.2103,0.0795475,-0.310699,0.09344,-0.0631105,-0.597219,-0.2143499999999999,0.0728315,-0.590279,0.33621,1
39,-0.0080155,0.7173674999999999,0.0567749999999999,-0.1758434999999999,0.5139675,0.0697749999999999,-0.3218135,0.5907074999999999,0.0911999999999999,0.1877565,0.4538575,-0.000435,0.3838665,0.5026675,-0.036345,-0.1656935,0.6833675,0.0755049999999999,0.2438564999999999,0.6474774999999999,-0.029395,-0.0739135,0.0059055,0.0163049999999999,0.0739135,-0.0059054999999999,-0.016305,-0.0824935,-0.2606325,-0.215045,0.0796815,-0.3081024999999999,0.0829429999999999,-0.0588454999999999,-0.5844925,-0.205645,0.0811575,-0.5788525,0.336215,1
40,-0.005068,0.7157405,0.0611199999999999,-0.173592,0.5131405,0.0744199999999999,-0.319212,0.5883605000000001,0.0974159999999999,0.190418,0.4528304999999999,0.0023199999999999,0.385618,0.5008205,-0.03405,-0.163902,0.6817905,0.0820799999999999,0.243398,0.6492505,-0.02436,-0.0740619999999999,0.0061294999999999,0.0171599999999999,0.074062,-0.0061295,-0.01716,-0.083432,-0.2486595,-0.22073,0.0796979999999999,-0.3058595,0.0721999999999999,-0.054834,-0.5706295,-0.19717,0.089366,-0.5671495,0.33518,1
41,-0.0020425,0.71451,0.06602,-0.1712845,0.51177,0.07919,-0.3168045,0.5876,0.1035359999999999,0.1927755,0.45059,0.0046599999999999,0.3885055,0.49885,-0.03135,-0.1621245,0.6815300000000001,0.089,0.2423855,0.6510400000000001,-0.0189799999999999,-0.0743844999999999,0.00629,0.01821,0.0743844999999999,-0.0062899999999999,-0.01821,-0.0840344999999999,-0.2367999999999999,-0.22645,0.0800845,-0.3037999999999999,0.0622599999999999,-0.0504745,-0.55512,-0.18876,0.0957595,-0.55474,0.3343899999999999,1
42,0.0013715,0.7122649999999999,0.070615,-0.1692105,0.510605,0.084115,-0.3143705,0.587185,0.109821,0.1951995,0.449025,0.007255,0.3909895,0.496035,-0.029015,-0.1596505,0.680345,0.0950749999999999,0.2440395,0.648335,-0.0151749999999999,-0.0746505,0.0063149999999999,0.0193349999999999,0.0746505,-0.0063149999999999,-0.0193349999999999,-0.0845104999999999,-0.2257849999999999,-0.232225,0.0803475,-0.3029349999999999,0.052565,-0.0462504999999999,-0.539015,-0.181175,0.1005355,-0.5422250000000001,0.332615,1
43,0.0048734999999999,0.7097249999999999,0.0747849999999999,-0.1674065,0.5102249999999999,0.089255,-0.3115765,0.584415,0.1163449999999999,0.1978234999999999,0.4488749999999999,0.010275,0.3935335,0.4938349999999999,-0.026745,-0.1565265,0.677955,0.101325,0.2446134999999999,0.6466350000000001,-0.012965,-0.0748365,0.0061949999999999,0.020625,0.0748365,-0.006195,-0.020625,-0.0848265,-0.215835,-0.238235,0.0810965,-0.303535,0.0446749999999999,-0.0422075,-0.522235,-0.174195,0.1052755,-0.5273950000000001,0.331405,1
44,0.00751,0.709025,0.079065,-0.166361,0.508305,0.0933749999999999,-0.3085409999999999,0.584955,0.1225149999999999,0.199339,0.447515,0.011935,0.3949789999999999,0.493295,-0.024515,-0.152941,0.6776449999999999,0.1075349999999999,0.244849,0.6475150000000001,-0.011215,-0.075041,0.0059749999999999,0.0219349999999999,0.075041,-0.005975,-0.0219349999999999,-0.085231,-0.204425,-0.243485,0.082107,-0.304125,0.0391449999999999,-0.038814,-0.503535,-0.1668049999999999,0.112409,-0.510805,0.321183,1
45,0.0097355,0.7081599999999999,0.0822,-0.1647625,0.5082,0.09669,-0.3063225,0.58548,0.1273399999999999,0.1999075,0.44701,0.0131199999999999,0.3954075,0.4917499999999999,-0.02338,-0.1503425,0.67762,0.1124699999999999,0.2461975,0.6443300000000001,-0.01031,-0.0751024999999999,0.0055899999999999,0.0229199999999999,0.0751025,-0.00559,-0.0229199999999999,-0.0855624999999999,-0.19408,-0.24974,0.0820185,-0.30254,0.03222,-0.0361024999999999,-0.48544,-0.16019,0.1181125,-0.49518,0.3116569999999999,1
46,0.0116684999999999,0.7075750000000001,0.084235,-0.1634445,0.507765,0.098995,-0.3041645,0.586425,0.131315,0.2001655,0.446375,0.0133349999999999,0.3960955,0.491055,-0.0231049999999999,-0.1482045,0.679025,0.116505,0.2473854999999999,0.641505,-0.010415,-0.0749745,0.005375,0.0234649999999999,0.0749744999999999,-0.0053749999999999,-0.023465,-0.0856145,-0.183435,-0.256445,0.0817494999999999,-0.300525,0.0277349999999999,-0.0332645,-0.467295,-0.154725,0.1228684999999999,-0.4800149999999999,0.303504,1
47,0.0130125,0.70707,0.08559,-0.1623755,0.50789,0.1006899999999999,-0.3025155,0.58752,0.1344099999999999,0.1999245,0.44638,0.0133299999999999,0.3963645,0.49045,-0.02333,-0.1463654999999999,0.67988,0.1192299999999999,0.2485945,0.63994,-0.01062,-0.0748855,0.0051599999999999,0.0238899999999999,0.0748855,-0.0051599999999999,-0.02389,-0.0858555,-0.17277,-0.26302,0.0807665,-0.3003399999999999,0.0238299999999999,-0.0306854999999999,-0.44936,-0.15041,0.1281035,-0.46494,0.294409,1
48,0.013838,0.70662,0.0864649999999999,-0.161586,0.50944,0.1022149999999999,-0.301316,0.59223,0.136675,0.199314,0.44633,0.0130749999999999,0.396234,0.4898,-0.023745,-0.145036,0.68194,0.1210549999999999,0.250194,0.6384000000000001,-0.011645,-0.074666,0.00491,0.0241749999999999,0.074666,-0.0049099999999999,-0.024175,-0.086416,-0.1622199999999999,-0.269685,0.07964,-0.2996099999999999,0.0211449999999999,-0.0283009999999999,-0.4324399999999999,-0.145755,0.130949,-0.4503199999999999,0.28485,1
49,0.0144434999999999,0.70614,0.08748,-0.1610975,0.51023,0.1033,-0.3001275,0.5952500000000001,0.13857,0.1986625,0.44565,0.0126499999999999,0.3960125,0.48965,-0.0236799999999999,-0.1429875,0.68312,0.12289,0.2509825,0.6378699999999999,-0.01206,-0.0744175,0.0046599999999999,0.02473,0.0744175,-0.0046599999999999,-0.0247299999999999,-0.0869775,-0.15177,-0.27575,0.0787645,-0.298,0.0191399999999999,-0.0264055,-0.41604,-0.14216,0.1317925,-0.43695,0.260727,1
50,0.014377,0.70572,0.088175,-0.1612369999999999,0.5105,0.103795,-0.299187,0.5960300000000001,0.140075,0.197933,0.44634,0.0126249999999999,0.395063,0.48971,-0.0235049999999999,-0.1415969999999999,0.68448,0.1240349999999999,0.251173,0.63756,-0.012405,-0.074227,0.0043099999999999,0.024955,0.074227,-0.0043099999999999,-0.024955,-0.088017,-0.14204,-0.281325,0.077327,-0.29627,0.0176449999999999,-0.0254769999999999,-0.40135,-0.139085,0.131476,-0.4250899999999999,0.2355529999999999,1
51,0.0137839999999999,0.7061299999999999,0.08912,-0.161654,0.51033,0.1043,-0.298244,0.59625,0.14132,0.1966859999999999,0.4468799999999999,0.01273,0.3939959999999999,0.4909,-0.0226399999999999,-0.140094,0.68573,0.12612,0.250016,0.64141,-0.01078,-0.074114,0.0039899999999999,0.0250299999999999,0.0741139999999999,-0.0039899999999999,-0.0250299999999999,-0.089394,-0.13295,-0.28636,0.075732,-0.2943,0.0175299999999999,-0.025004,-0.38795,-0.13621,0.132684,-0.41494,0.210474,1
52,0.0126509999999999,0.7067300000000001,0.0900649999999999,-0.162342,0.50907,0.1041049999999999,-0.297942,0.5982799999999999,0.1419649999999999,0.195178,0.4464599999999999,0.0126949999999999,0.392478,0.4922999999999999,-0.021525,-0.139482,0.6850700000000001,0.1274949999999999,0.248548,0.64331,-0.008965,-0.0740919999999999,0.0038,0.0250149999999999,0.074092,-0.0038,-0.025015,-0.091122,-0.1245399999999999,-0.290755,0.074131,-0.29228,0.0178649999999999,-0.025962,-0.37609,-0.136005,0.133571,-0.4053,0.1845969999999999,1
53,0.0117,0.70679,0.0908499999999999,-0.162298,0.5080100000000001,0.10358,-0.297668,0.59879,0.14205,0.194222,0.44728,0.01339,0.391452,0.49312,-0.0204799999999999,-0.139708,0.68579,0.12844,0.247322,0.64391,-0.0069799999999999,-0.074158,0.00352,0.0250199999999999,0.074158,-0.0035199999999999,-0.0250199999999999,-0.0926779999999999,-0.1171899999999999,-0.2941399999999999,0.072801,-0.29016,0.0181,-0.0268979999999999,-0.3663999999999999,-0.13617,0.1303,-0.3996999999999999,0.16644,1
54,0.0109419999999999,0.70653,0.091495,-0.162544,0.50698,0.103195,-0.297674,0.59816,0.142175,0.193716,0.44828,0.014185,0.390476,0.49459,-0.019245,-0.139794,0.68537,0.129365,0.246226,0.64605,-0.0043249999999999,-0.074294,0.0033199999999999,0.025245,0.0742939999999999,-0.0033199999999999,-0.025245,-0.094404,-0.11065,-0.296715,0.0720179999999999,-0.28863,0.0185649999999999,-0.027954,-0.35822,-0.1366549999999999,0.127136,-0.39473,0.148135,1
55,0.0098435,0.705875,0.09232,-0.1631475,0.505715,0.10302,-0.2972575,0.596395,0.14286,0.1931125,0.449165,0.01532,0.3891525,0.495265,-0.0180299999999999,-0.1392375,0.6840550000000001,0.13084,0.2448225,0.646495,-0.0028,-0.0745275,0.002915,0.0252899999999999,0.0745275,-0.002915,-0.0252899999999999,-0.0964975,-0.1059549999999999,-0.2986,0.0714265,-0.286875,0.0192899999999999,-0.0295875,-0.352075,-0.13717,0.1236245,-0.390675,0.12972,1
56,0.0086205,0.70527,0.0933749999999999,-0.1641125,0.50467,0.1034749999999999,-0.2982125,0.5947,0.143945,0.1924374999999999,0.45003,0.016625,0.3879075,0.49588,-0.016685,-0.1399425,0.68282,0.132295,0.2437675,0.64598,-0.0012949999999999,-0.0747525,0.0026299999999999,0.025455,0.0747525,-0.00263,-0.025455,-0.0986125,-0.10223,-0.299845,0.0706295,-0.28528,0.0197049999999999,-0.0316425,-0.34702,-0.1374449999999999,0.1207455,-0.38883,0.1119149999999999,1
57,0.0075444999999999,0.7050449999999999,0.094645,-0.1651605,0.502845,0.103845,-0.2989305,0.5929249999999999,0.145065,0.1919295,0.451075,0.017975,0.3870095,0.497025,-0.0152249999999999,-0.1405805,0.681575,0.133785,0.2421895,0.645405,0.000975,-0.0749205,0.002305,0.025665,0.0749205,-0.002305,-0.0256649999999999,-0.1005205,-0.099185,-0.300725,0.0699185,-0.284495,0.019955,-0.0339405,-0.3427449999999999,-0.137785,0.1173845,-0.386235,0.095675,1
58,0.0068295,0.705295,0.0959,-0.1657644999999999,0.501315,0.10437,-0.2996045,0.591035,0.14652,0.1915454999999999,0.452085,0.01915,0.3865255,0.4980449999999999,-0.0142299999999999,-0.1416345,0.680735,0.13497,0.2416755,0.644665,0.00212,-0.0750245,0.0020249999999999,0.02598,0.0750245,-0.0020249999999999,-0.02598,-0.1020644999999999,-0.096325,-0.30126,0.0693015,-0.2841149999999999,0.02038,-0.0360945,-0.338885,-0.13848,0.1174725,-0.385365,0.09527,1
59,0.006494,0.70556,0.09693,-0.166027,0.5009,0.10516,-0.300077,0.58995,0.14797,0.191273,0.45286,0.0199699999999999,0.3863229999999999,0.49863,-0.0136,-0.142397,0.6795599999999999,0.13588,0.241293,0.6439699999999999,0.00303,-0.075127,0.00185,0.02631,0.075127,-0.00185,-0.02631,-0.103157,-0.09388,-0.3014999999999999,0.069029,-0.28394,0.0205899999999999,-0.037947,-0.33568,-0.13937,0.1176349999999999,-0.3853399999999999,0.09476,1
60,0.0061844999999999,0.7059,0.0975999999999999,-0.1662795,0.50077,0.10565,-0.3004995,0.58897,0.1489899999999999,0.1910505,0.4533,0.0203799999999999,0.3862204999999999,0.49867,-0.01361,-0.1430695,0.67808,0.1365799999999999,0.2410904999999999,0.6430400000000001,0.0033599999999999,-0.0752995,0.00162,0.02654,0.0752994999999999,-0.0016199999999999,-0.02654,-0.1038395,-0.0919499999999999,-0.30174,0.0690104999999999,-0.2837499999999999,0.0203599999999999,-0.0396195,-0.3329,-0.14054,0.1173825,-0.38454,0.0952599999999999,1
61,0.0056004999999999,0.706275,0.0978599999999999,-0.1669155,0.500965,0.1060799999999999,-0.3010755,0.588285,0.1495699999999999,0.1907245,0.453775,0.0205699999999999,0.3858344999999999,0.4985549999999999,-0.01415,-0.1441055,0.678205,0.1370099999999999,0.2406545,0.642695,0.0031699999999999,-0.0754955,0.001365,0.0266099999999999,0.0754955,-0.001365,-0.02661,-0.1044855,-0.090385,-0.30201,0.0686895,-0.2837749999999999,0.0198099999999999,-0.0404855,-0.331105,-0.1403,0.1175934999999999,-0.383655,0.0966999999999999,1
62,0.0050959999999999,0.70609,0.0979749999999999,-0.167436,0.50152,0.1060749999999999,-0.3016459999999999,0.58767,0.1499049999999999,0.1905339999999999,0.45407,0.020465,0.385544,0.49789,-0.015145,-0.144536,0.67767,0.137095,0.240364,0.6415299999999999,0.0025649999999999,-0.075506,0.00128,0.0267649999999999,0.0755059999999999,-0.00128,-0.026765,-0.105056,-0.08977,-0.302035,0.0684179999999999,-0.28423,0.0188649999999999,-0.041096,-0.3303099999999999,-0.140195,0.1174089999999999,-0.3836599999999999,0.0969449999999999,1
63,0.0047279999999999,0.706235,0.09807,-0.167758,0.501915,0.10616,-0.302128,0.5877049999999999,0.15038,0.190392,0.454345,0.02039,0.385222,0.4973149999999999,-0.0161999999999999,-0.144758,0.6772849999999999,0.13717,0.240222,0.6416850000000001,0.00221,-0.075468,0.001195,0.02689,0.075468,-0.001195,-0.0268899999999999,-0.105768,-0.089315,-0.3020899999999999,0.068064,-0.284235,0.01812,-0.041818,-0.329725,-0.1402299999999999,0.116723,-0.3838749999999999,0.09693,1
64,0.0045175,0.706455,0.098205,-0.1680954999999999,0.502135,0.106255,-0.3026155,0.587925,0.151085,0.1902745,0.454565,0.020415,0.3849545,0.497125,-0.0169949999999999,-0.1454355,0.677475,0.137355,0.2400745,0.641795,0.002185,-0.0754455,0.0011349999999999,0.027035,0.0754455,-0.0011349999999999,-0.0270349999999999,-0.1064954999999999,-0.088975,-0.3021349999999999,0.0674745,-0.284205,0.017745,-0.0423954999999999,-0.329535,-0.139835,0.1161495,-0.383905,0.096955,1
65,0.0045259999999999,0.706455,0.09821,-0.168925,0.502555,0.10665,-0.303075,0.587925,0.15219,0.1900549999999999,0.454565,0.02033,0.384675,0.497125,-0.0177499999999999,-0.145755,0.677475,0.1374,0.239735,0.641795,0.00208,-0.075405,0.0011349999999999,0.02705,0.0754049999999999,-0.0011349999999999,-0.0270499999999999,-0.106975,-0.088835,-0.3022899999999999,0.0667889999999999,-0.284205,0.01752,-0.043005,-0.329575,-0.1397199999999999,0.115863,-0.383355,0.09807,1
66,0.0043995,0.706455,0.098315,-0.1695134999999999,0.502935,0.107055,-0.3034135,0.588275,0.153365,0.1897265,0.4547049999999999,0.0202249999999999,0.3843765,0.497125,-0.0181349999999999,-0.1457635,0.677475,0.137545,0.2392964999999999,0.641795,0.002035,-0.0753835,0.0011349999999999,0.0270549999999999,0.0753834999999999,-0.0011349999999999,-0.0270549999999999,-0.1074035,-0.088705,-0.302425,0.0660704999999999,-0.284205,0.017295,-0.0436935,-0.329575,-0.139575,0.1146375,-0.382845,0.099035,1
67,0.004351,0.706615,0.09855,-0.169999,0.503315,0.1073899999999999,-0.303759,0.588875,0.15448,0.189481,0.454835,0.02011,0.384041,0.497125,-0.01829,-0.1456589999999999,0.677475,0.13793,0.238981,0.641795,0.00189,-0.075339,0.0011349999999999,0.02704,0.075339,-0.0011349999999999,-0.02704,-0.1076789999999999,-0.088555,-0.3025199999999999,0.065445,-0.284115,0.01705,-0.043889,-0.329835,-0.13938,0.11354,-0.383235,0.09991,1
68,0.0043289999999999,0.706715,0.098915,-0.170377,0.503645,0.107685,-0.303897,0.589985,0.155055,0.189273,0.454635,0.019845,0.383883,0.496695,-0.0185449999999999,-0.145447,0.677175,0.138275,0.238613,0.642135,0.001665,-0.075337,0.0011249999999999,0.027185,0.075337,-0.0011249999999999,-0.027185,-0.107667,-0.088905,-0.3021649999999999,0.064835,-0.283955,0.0168849999999999,-0.043347,-0.331685,-0.138285,0.113616,-0.3835949999999999,0.101035,1
69,0.0042579999999999,0.70702,0.09963,-0.170914,0.50434,0.10868,-0.3046339999999999,0.59173,0.15527,0.189016,0.4542,0.01955,0.383866,0.49671,-0.01906,-0.146294,0.67828,0.13851,0.238516,0.64284,0.00169,-0.075324,0.0010899999999999,0.0272299999999999,0.075324,-0.00109,-0.0272299999999999,-0.107334,-0.09032,-0.30161,0.064211,-0.2839400000000001,0.01688,-0.0426639999999999,-0.3342200000000001,-0.13742,0.1133889999999999,-0.38508,0.10225,1
70,0.0043534999999999,0.707605,0.09992,-0.1708945,0.5039549999999999,0.1089,-0.3043845,0.5931649999999999,0.15445,0.1888854999999999,0.4534249999999999,0.01876,0.3843755,0.497155,-0.02004,-0.1467445,0.6796249999999999,0.13796,0.2389255,0.643725,0.00136,-0.0752345,0.0012749999999999,0.0272,0.0752345,-0.001275,-0.0272,-0.1061845,-0.093675,-0.30042,0.0639605,-0.282945,0.01651,-0.0417845,-0.337845,-0.1374099999999999,0.1124884999999999,-0.387405,0.10515,1
71,0.0048335,0.7073499999999999,0.09991,-0.1705045,0.50372,0.1094499999999999,-0.3042245,0.59277,0.15368,0.1893455,0.45252,0.0180899999999999,0.3852555,0.49676,-0.02115,-0.1468245,0.6828000000000001,0.13771,0.2395855,0.64373,0.00108,-0.0751245,0.0015899999999999,0.0271899999999999,0.0751245,-0.0015899999999999,-0.0271899999999999,-0.1048045,-0.09947,-0.29802,0.0636875,-0.28467,0.01622,-0.0410244999999999,-0.34579,-0.1376399999999999,0.1136165,-0.39254,0.12195,1
72,0.0055875,0.70642,0.09994,-0.1699115,0.5033700000000001,0.1104999999999999,-0.3038815,0.58968,0.15337,0.1900385,0.4508,0.0175899999999999,0.3864385,0.49612,-0.02189,-0.1478815,0.6823600000000001,0.13735,0.2404285,0.64337,0.0005399999999999,-0.0751415,0.00225,0.0273399999999999,0.0751415,-0.0022499999999999,-0.02734,-0.1028314999999999,-0.1079799999999999,-0.29379,0.0639995,-0.28696,0.0158699999999999,-0.0396514999999999,-0.3582299999999999,-0.13873,0.1128075,-0.39856,0.14485,1
73,0.0067464999999999,0.7059599999999999,0.0996149999999999,-0.1688935,0.50376,0.1115849999999999,-0.3036035,0.59014,0.1522149999999999,0.1917765,0.45004,0.0175849999999999,0.3877465,0.49545,-0.022795,-0.1480435,0.68508,0.1365549999999999,0.2410265,0.6431899999999999,0.0002649999999999,-0.0751435,0.00278,0.0271649999999999,0.0751434999999999,-0.00278,-0.027165,-0.1008635,-0.1187599999999999,-0.288535,0.0647114999999999,-0.28878,0.0168549999999999,-0.0385435,-0.37423,-0.140955,0.1153194999999999,-0.40755,0.1700349999999999,1
74,0.007653,0.705855,0.099385,-0.167839,0.504115,0.112245,-0.303039,0.590935,0.151025,0.193531,0.448495,0.0171149999999999,0.389071,0.495145,-0.0235749999999999,-0.148639,0.686515,0.135145,0.241551,0.644625,0.000365,-0.0750189999999999,0.0032849999999999,0.026775,0.075019,-0.0032849999999999,-0.0267749999999999,-0.098699,-0.132195,-0.2813749999999999,0.065497,-0.290995,0.016925,-0.0378089999999999,-0.393065,-0.144625,0.117655,-0.421265,0.194663,1
75,0.0083254999999999,0.70675,0.0986699999999999,-0.1674195,0.50513,0.1127999999999999,-0.3035995,0.5909,0.1493099999999999,0.1951304999999999,0.44701,0.0162599999999999,0.3903304999999999,0.49521,-0.02475,-0.1495495,0.68955,0.1335499999999999,0.2430204999999999,0.64486,-0.00071,-0.0747395,0.0037399999999999,0.0262599999999999,0.0747394999999999,-0.00374,-0.02626,-0.0967295,-0.14699,-0.2729500000000001,0.0665124999999999,-0.29372,0.0179599999999999,-0.0376095,-0.41533,-0.15012,0.1190524999999999,-0.43667,0.2187459999999999,1
76,0.0089235,0.70755,0.0971649999999999,-0.1671065,0.50645,0.1129949999999999,-0.3050165,0.59025,0.1467549999999999,0.1966535,0.44555,0.0150049999999999,0.3917035,0.49559,-0.026395,-0.1510965,0.68944,0.1308049999999999,0.2434535,0.64599,-0.001775,-0.0743264999999999,0.00436,0.0254949999999999,0.0743265,-0.00436,-0.025495,-0.0949665,-0.16371,-0.263775,0.0681315,-0.2984399999999999,0.0194449999999999,-0.0385065,-0.4410699999999999,-0.156515,0.1198025,-0.4547799999999999,0.241135,1
77,0.0087505,0.709125,0.09529,-0.1666275,0.507425,0.11209,-0.3064475,0.588615,0.144043,0.1976925,0.445075,0.01395,0.3925225,0.496395,-0.0279399999999999,-0.1536875,0.690455,0.12782,0.2450025,0.646365,-0.0038499999999999,-0.0740075,0.004805,0.02437,0.0740075,-0.004805,-0.02437,-0.0937274999999999,-0.181055,-0.25453,0.0693845,-0.303635,0.02583,-0.0410875,-0.469035,-0.1655999999999999,0.1186915,-0.473975,0.266694,1
78,0.0081775,0.71094,0.09262,-0.1664365,0.50871,0.1099,-0.3075564999999999,0.5884199999999999,0.14071,0.1983635,0.44583,0.01281,0.3925635,0.49752,-0.0296499999999999,-0.1552365,0.69081,0.12424,0.2462735,0.64612,-0.00683,-0.0737165,0.00537,0.02329,0.0737165,-0.0053699999999999,-0.02329,-0.0923065,-0.2001899999999999,-0.24304,0.0709185,-0.30686,0.0304,-0.0447464999999999,-0.49856,-0.17582,0.1167925,-0.49517,0.291548,1
79,0.00661,0.7125250000000001,0.08962,-0.166537,0.510465,0.1072,-0.309797,0.587245,0.136956,0.198343,0.447365,0.01177,0.391603,0.498465,-0.0315499999999999,-0.158397,0.690965,0.120266,0.245923,0.6471450000000001,-0.0090299999999999,-0.073527,0.005725,0.02233,0.073527,-0.0057249999999999,-0.0223299999999999,-0.092057,-0.220215,-0.2320999999999999,0.072503,-0.312405,0.03694,-0.0497769999999999,-0.5276049999999999,-0.1873499999999999,0.114893,-0.518235,0.31243,1
80,0.0048739999999999,0.71509,0.0865,-0.166971,0.51162,0.10302,-0.310801,0.58865,0.1326439999999999,0.197609,0.44776,0.00914,0.390989,0.50027,-0.0335499999999999,-0.159991,0.69005,0.1156,0.245429,0.64825,-0.0118399999999999,-0.073411,0.00596,0.02223,0.073411,-0.0059599999999999,-0.02223,-0.0914609999999999,-0.23997,-0.22143,0.074879,-0.31535,0.04428,-0.055001,-0.5529,-0.20046,0.109915,-0.5408,0.31877,1
81,0.0026165,0.7183714999999999,0.083006,-0.1680094999999999,0.5131715,0.0983759999999999,-0.3121895,0.5924315,0.127106,0.1967205,0.4501815,0.0075999999999999,0.3898304999999999,0.5026014999999999,-0.03551,-0.1600694999999999,0.6925015000000001,0.111552,0.2435105,0.6510015,-0.01391,-0.0732195,0.0054184999999999,0.0208099999999999,0.0732194999999999,-0.0054185,-0.0208099999999999,-0.0918095,-0.2586685,-0.21231,0.0765174999999999,-0.3182485,0.0523899999999999,-0.0613095,-0.5751885000000001,-0.21362,0.1059215,-0.5627285,0.31798,1
82,-0.0001695,0.7211575,0.0799509999999999,-0.1698035,0.5141775,0.0937659999999999,-0.3138335,0.5937874999999999,0.1222019999999999,0.1947565,0.4513875,0.0055699999999999,0.3884964999999999,0.5051275,-0.03708,-0.1610234999999999,0.6913975,0.1075989999999999,0.2414565,0.6534675,-0.01605,-0.0729435,0.0050125,0.0196099999999999,0.0729435,-0.0050125,-0.01961,-0.0923134999999999,-0.2762725,-0.20366,0.0780975,-0.3217525,0.0599749999999999,-0.0676835,-0.5945625,-0.22617,0.0978874999999999,-0.5832725000000001,0.3142699999999999,1
83,-0.0026109999999999,0.7236484999999999,0.0770619999999999,-0.171636,0.5153485,0.089613,-0.3157959999999999,0.5947785,0.1172769999999999,0.192934,0.4534785,0.004365,0.387054,0.5073084999999999,-0.038085,-0.161836,0.6917985,0.104327,0.239734,0.6540785,-0.018215,-0.072816,0.0046394999999999,0.018525,0.072816,-0.0046394999999999,-0.018525,-0.092996,-0.2920215,-0.196195,0.079729,-0.3252914999999999,0.069078,-0.074296,-0.6107915,-0.237925,0.089646,-0.6032115,0.310945,1
84,-0.0040439999999999,0.7254094999999999,0.0749,-0.172788,0.5164394999999999,0.086153,-0.317228,0.5962695,0.11285,0.191382,0.4554295,0.004245,0.385822,0.5086695,-0.0378949999999999,-0.162958,0.6906194999999999,0.100883,0.237092,0.6558495,-0.018625,-0.072766,0.0042824999999999,0.017375,0.072766,-0.0042825,-0.017375,-0.093538,-0.3068405,-0.1896649999999999,0.0811979999999999,-0.3283105,0.077754,-0.080858,-0.6237405,-0.2486249999999999,0.081968,-0.6171105,0.307895,1
85,-0.005408,0.727596,0.074119,-0.1738009999999999,0.517536,0.083518,-0.317931,0.598376,0.109494,0.189919,0.457146,0.004834,0.384639,0.509436,-0.036666,-0.163651,0.6924359999999999,0.098677,0.235679,0.6567959999999999,-0.018236,-0.072774,0.0037689999999999,0.016356,0.072774,-0.003769,-0.016356,-0.093681,-0.319494,-0.183586,0.082151,-0.3291539999999999,0.085894,-0.086721,-0.6334540000000001,-0.259076,0.07473,-0.627614,0.306314,1
86,-0.005267,0.7294645,0.0741925,-0.174942,0.5191645,0.0821735,-0.318642,0.6015145,0.1070445,0.189028,0.4582845,0.0057264999999999,0.383978,0.5099945,-0.0351075,-0.163142,0.6936745,0.0979245,0.233108,0.6584045,-0.0161775,-0.072657,0.0034474999999999,0.0154774999999999,0.072657,-0.0034475,-0.0154775,-0.093462,-0.3290555,-0.1775775,0.08354,-0.3293954999999999,0.0892284999999999,-0.091863,-0.6403655,-0.2680275,0.0691249999999999,-0.6356955000000001,0.3016425,1
87,-0.00424,0.730947,0.0750435,-0.17586,0.520247,0.0817615,-0.31978,0.602637,0.1055735,0.1884,0.458577,0.0070765,0.38381,0.509797,-0.0328974999999999,-0.16374,0.6944170000000001,0.0976155,0.23018,0.660477,-0.0127674999999999,-0.072495,0.003029,0.0146475,0.072495,-0.003029,-0.0146474999999999,-0.093681,-0.335793,-0.1738574999999999,0.084655,-0.3314729999999999,0.0945635,-0.0961549999999999,-0.645003,-0.2756975,0.064397,-0.641703,0.2970525,1
88,-0.0023409999999999,0.7321305,0.07713,-0.176709,0.5218605,0.082703,-0.319839,0.6050305,0.105696,0.188371,0.4586004999999999,0.009078,0.384181,0.5095505,-0.0297209999999999,-0.162849,0.6951404999999999,0.098693,0.230151,0.6597505,-0.0133039999999999,-0.072308,0.0026035,0.013753,0.072308,-0.0026035,-0.0137529999999999,-0.0933259999999999,-0.3405095,-0.169781,0.085353,-0.3323095,0.098541,-0.099312,-0.6476595,-0.2813609999999999,0.060643,-0.6452695,0.294259,1
89,-0.0007245,0.7331765,0.079793,-0.1772575,0.5238765000000001,0.084817,-0.3207075,0.6061565,0.106263,0.1883725,0.4597965,0.012538,0.3838625,0.5093365,-0.0260269999999999,-0.1631775,0.6953565,0.100401,0.2304324999999999,0.6598765,-0.01331,-0.0720475,0.0021644999999999,0.011903,0.0720475,-0.0021644999999999,-0.0119029999999999,-0.0935415,-0.3454534999999999,-0.166511,0.0851715,-0.3328635,0.102029,-0.1022115,-0.6492435,-0.285471,0.0574694999999999,-0.6470935,0.2917389999999999,1
90,0.000985,0.7340785,0.082908,-0.177409,0.5254985,0.086674,-0.3213689999999999,0.6074185,0.107365,0.188251,0.4598785,0.014867,0.383841,0.5091085,-0.0223889999999999,-0.164729,0.6956785,0.101416,0.232261,0.6586884999999999,-0.0143379999999999,-0.0717339999999999,0.0021295,0.011223,0.0717339999999999,-0.0021294999999999,-0.0112229999999999,-0.0933759999999999,-0.3492715,-0.163321,0.084979,-0.3329715,0.10544,-0.1043679999999999,-0.6501015,-0.288661,0.05522,-0.6482815000000001,0.289989,1
91,0.0025345,0.7348765,0.085848,-0.1773525,0.5269265,0.088212,-0.3217725,0.6084465,0.108435,0.1881475,0.4600765,0.017061,0.3838575,0.5087365,-0.0189219999999999,-0.1655625,0.6967765,0.102736,0.2389075,0.6582965,-0.014159,-0.0714954999999999,0.0021075,0.0105439999999999,0.0714954999999999,-0.0021075,-0.0105439999999999,-0.0932035,-0.3519735,-0.160767,0.0844065,-0.3328135,0.108219,-0.1061705,-0.6504935,-0.291547,0.0535205,-0.6483435,0.288543,1
92,0.003797,0.7355165,0.088159,-0.1773829999999999,0.5281065,0.089686,-0.3221529999999999,0.6094265,0.1093659999999999,0.187947,0.4600865,0.018886,0.383977,0.5087565000000001,-0.0159379999999999,-0.165653,0.6972065,0.103931,0.245377,0.6582965,-0.014531,-0.071191,0.0021075,0.009867,0.071191,-0.0021075,-0.009867,-0.0931019999999999,-0.3540135,-0.159075,0.083738,-0.3322535,0.110498,-0.107524,-0.6504935,-0.293975,0.05227,-0.6483435,0.287095,1
93,0.0041524999999999,0.7357565,0.0900895,-0.1774804999999999,0.5286365,0.0904965,-0.3222705,0.6101265,0.1099835,0.1876695,0.4600865,0.0200455,0.3839895,0.5087765,-0.0136764999999999,-0.1654205,0.6972565000000001,0.1049265,0.2514695,0.6582865,-0.0145784999999999,-0.0709434999999999,0.0021075,0.0093785,0.0709434999999999,-0.0021075,-0.0093784999999999,-0.0929635,-0.3558035,-0.1577275,0.0830154999999999,-0.3317735,0.1123015,-0.1084805,-0.6504935,-0.2958774999999999,0.0514355,-0.6483435,0.2857125,1
94,0.0043834999999999,0.7357565,0.0912669999999999,-0.1776875,0.5288265,0.0907299999999999,-0.3224475,0.6105365,0.11018,0.1874124999999999,0.4600865,0.0207859999999999,0.3837925,0.5087365,-0.012087,-0.1652275,0.6972565000000001,0.1056049999999999,0.2569225,0.6573765,-0.01447,-0.0707645,0.0021075,0.0089939999999999,0.0707645,-0.0021075,-0.008994,-0.0930185,-0.3572435,-0.156658,0.0822615,-0.3313635,0.1140289999999999,-0.1092564999999999,-0.6508235,-0.297408,0.0507935,-0.6479735,0.284402,1
95,0.0037139999999999,0.7358395,0.092006,-0.178149,0.5289094999999999,0.090523,-0.322849,0.6107794999999999,0.109835,0.187021,0.4601495,0.02113,0.383461,0.5082694999999999,-0.0109389999999999,-0.165379,0.6973395,0.105372,0.255231,0.6577095,-0.0123189999999999,-0.070644,0.0020875,0.008794,0.070644,-0.0020875,-0.0087939999999999,-0.093137,-0.3582705,-0.155882,0.0815129999999999,-0.3310605,0.115587,-0.109904,-0.6514605000000001,-0.298682,0.0502949999999999,-0.6471105,0.283208,1
96,0.002727,0.7360185,0.092441,-0.1784619999999999,0.5290985,0.089877,-0.323082,0.6110985,0.109072,0.186668,0.4601085,0.0211009999999999,0.383058,0.5081985,-0.010445,-0.1655519999999999,0.6975185,0.1047609999999999,0.258578,0.6567685,-0.0112929999999999,-0.070597,0.0021135,0.0086089999999999,0.070597,-0.0021134999999999,-0.008609,-0.09327,-0.3588215,-0.155373,0.080855,-0.3306215,0.116988,-0.110339,-0.6519115,-0.299923,0.049931,-0.6461515,0.282047,1
97,0.0020585,0.7362035,0.092402,-0.1789025,0.5293734999999999,0.089104,-0.3234025,0.6115035,0.107965,0.1863375,0.4602135,0.020804,0.3826575,0.5083335,-0.010488,-0.1657625,0.6976535,0.103611,0.2623074999999999,0.6557135,-0.0114219999999999,-0.0705655,0.0021575,0.008473,0.0705655,-0.0021574999999999,-0.008473,-0.0933654999999999,-0.3594265,-0.155299,0.0802795,-0.3301065,0.118201,-0.1106284999999999,-0.6524665000000001,-0.301129,0.0497015,-0.6452665,0.280951,1
98,0.001611,0.7362139999999999,0.092124,-0.179166,0.5296139999999999,0.088252,-0.323596,0.611924,0.106893,0.186224,0.460364,0.020386,0.382304,0.508494,-0.010921,-0.1659359999999999,0.697734,0.10247,0.265964,0.654544,-0.012627,-0.070532,0.002116,0.008388,0.070532,-0.002116,-0.008388,-0.0933539999999999,-0.3598059999999999,-0.1554789999999999,0.079923,-0.329646,0.119085,-0.110756,-0.6530360000000001,-0.302379,0.049589,-0.644416,0.279951,1
99,0.0012375,0.736224,0.091385,-0.1792734999999999,0.529704,0.087357,-0.3236135,0.612014,0.105691,0.1862165,0.460564,0.019635,0.3821565,0.508624,-0.011727,-0.1659534999999999,0.697834,0.101253,0.2694665,0.651734,-0.014413,-0.0705905,0.002059,0.008493,0.0705905,-0.002059,-0.008493,-0.0932305,-0.360186,-0.156119,0.0798205,-0.329206,0.11924,-0.1107605,-0.653406,-0.303739,0.0496295,-0.6437660000000001,0.279011,0
100,0.0007285,0.7361575,0.0903415,-0.1793435,0.5296575,0.0864515,-0.3235335,0.6120975,0.1044845,0.1863864999999999,0.4606775,0.0187735,0.3821164999999999,0.5085775,-0.0125054999999999,-0.1658435,0.6977275,0.1000435,0.2729465,0.6488775,-0.0161464999999999,-0.0706115,0.0019914999999999,0.0085015,0.0706115,-0.0019915,-0.0085014999999999,-0.0930655,-0.3608125,-0.1567664999999999,0.0798725,-0.3288824999999999,0.1191055,-0.1106435,-0.6538325,-0.3050965,0.0497945,-0.6433625000000001,0.2781135,0
101,0.0001259999999999,0.736031,0.0891915,-0.179887,0.529621,0.0854045,-0.324007,0.612381,0.1031125,0.186513,0.460721,0.0180555,0.382163,0.508401,-0.0131734999999999,-0.166077,0.697501,0.0987365,0.2733529999999999,0.647161,-0.0174875,-0.070613,0.001934,0.0084585,0.070613,-0.001934,-0.0084585,-0.092896,-0.361699,-0.1573175,0.079966,-0.328619,0.1189335,-0.110416,-0.653869,-0.3064275,0.05003,-0.643109,0.2772525,0
102,-0.0004289999999999,0.735865,0.088084,-0.180457,0.529545,0.084365,-0.324447,0.612635,0.101833,0.186623,0.4606949999999999,0.017434,0.382163,0.508195,-0.013765,-0.166297,0.6972050000000001,0.097362,0.2737929999999999,0.6454150000000001,-0.018773,-0.070607,0.001915,0.0084269999999999,0.070607,-0.001915,-0.0084269999999999,-0.0927289999999999,-0.362675,-0.157816,0.080087,-0.328405,0.118652,-0.1101559999999999,-0.653945,-0.307706,0.050257,-0.642965,0.276474,0
103,-0.0007465,0.735654,0.0871369999999999,-0.1810215,0.5294639999999999,0.0836679999999999,-0.3249315,0.612784,0.100609,0.1867685,0.460604,0.017053,0.3821185,0.508054,-0.0142619999999999,-0.1664715,0.696884,0.096029,0.2718585,0.643734,-0.018087,-0.0705925,0.0019129999999999,0.008346,0.0705925,-0.0019129999999999,-0.008346,-0.0925575,-0.363646,-0.158313,0.0802585,-0.328256,0.118265,-0.1098645,-0.654146,-0.308903,0.0505044999999999,-0.642816,0.275767,0
104,-0.0007469999999999,0.735366,0.086445,-0.181576,0.5294359999999999,0.083147,-0.325476,0.612896,0.0994829999999999,0.186914,0.460506,0.016759,0.382014,0.5079359999999999,-0.014554,-0.166736,0.696626,0.094941,0.270184,0.642126,-0.01682,-0.070563,0.0019059999999999,0.0082109999999999,0.070563,-0.0019059999999999,-0.008211,-0.092368,-0.364614,-0.158692,0.080472,-0.3281139999999999,0.117718,-0.109469,-0.654374,-0.309882,0.050761,-0.642664,0.275098,0
105,-0.0006584999999999,0.7350565,0.0859014999999999,-0.1820314999999999,0.5293965,0.0824785,-0.3259715,0.6129765,0.0985554999999999,0.1870185,0.4604665,0.0166384999999999,0.3818184999999999,0.5078265,-0.0146085,-0.1670015,0.6963565,0.0940455,0.2683585,0.6405965,-0.0152645,-0.0704995,0.0018645,0.0079914999999999,0.0704995,-0.0018644999999999,-0.0079915,-0.0921795,-0.3655035,-0.1590325,0.0807055,-0.3279634999999999,0.1169735,-0.1090965,-0.6542235,-0.3107625,0.0510125,-0.6425135,0.2745075,0
106,-0.0006339999999999,0.734712,0.085318,-0.182228,0.529362,0.081677,-0.326318,0.613012,0.097898,0.187112,0.460422,0.016562,0.381472,0.507702,-0.0144449999999999,-0.167378,0.6961820000000001,0.093211,0.2663819999999999,0.6390720000000001,-0.0132109999999999,-0.070454,0.001822,0.007801,0.070454,-0.0018219999999999,-0.0078009999999999,-0.092065,-0.366178,-0.159308,0.080898,-0.327848,0.116123,-0.108829,-0.6540779999999999,-0.311488,0.051139,-0.6424679999999999,0.274012,0
107,-0.0007685,0.7343799999999999,0.084989,-0.1822625,0.52933,0.080933,-0.3265625,0.61288,0.097392,0.1871575,0.46042,0.016485,0.3810275,0.50762,-0.013969,-0.1678224999999999,0.69599,0.0927159999999999,0.2658775,0.63759,-0.012666,-0.0704445,0.0017689999999999,0.00764,0.0704445,-0.0017689999999999,-0.00764,-0.0920115,-0.3668099999999999,-0.159495,0.0810395,-0.32776,0.115296,-0.1086135,-0.65405,-0.312115,0.0512155,-0.64242,0.273615,0
108,-0.000869,0.73403,0.0848595,-0.182371,0.52925,0.0803685,-0.326871,0.61263,0.0971525,0.187109,0.4604,0.0166184999999999,0.380479,0.50756,-0.0131555,-0.168441,0.69577,0.0927355,0.265309,0.6376999999999999,-0.0118865,-0.070343,0.0017239999999999,0.0072604999999999,0.070343,-0.0017239999999999,-0.0072605,-0.092023,-0.3671799999999999,-0.1594395,0.0811149999999999,-0.32776,0.1147904999999999,-0.108438,-0.6540900000000001,-0.3124395,0.0511449999999999,-0.64244,0.2733905,0
109,-0.000888,0.733687,0.0847955,-0.182633,0.529167,0.0799885,-0.3273729999999999,0.612177,0.0969895,0.1868369999999999,0.460357,0.0170915,0.379817,0.5075069999999999,-0.0123074999999999,-0.169173,0.695557,0.0927855,0.264747,0.637777,-0.0113414999999999,-0.07029,0.001684,0.0070465,0.07029,-0.0016839999999999,-0.0070464999999999,-0.092056,-0.367303,-0.1594684999999999,0.081133,-0.327793,0.1145025,-0.108437,-0.654013,-0.3126185,0.050959,-0.642533,0.2733315,0
110,-0.0010519999999999,0.7334390000000001,0.084891,-0.183018,0.5290490000000001,0.079661,-0.327828,0.611649,0.09678,0.186362,0.4603089999999999,0.017452,0.378942,0.507439,-0.01165,-0.169658,0.695319,0.092864,0.265072,0.6377290000000001,-0.011914,-0.070269,0.0016229999999999,0.00694,0.070269,-0.0016229999999999,-0.00694,-0.092095,-0.367271,-0.1595929999999999,0.081083,-0.327831,0.114373,-0.108511,-0.6539609999999999,-0.312713,0.0507139999999999,-0.642571,0.273387,0
111,-0.00146,0.733426,0.0848635,-0.18354,0.529046,0.0793615,-0.32852,0.611096,0.0964855,0.18583,0.460316,0.0173895,0.3780599999999999,0.5073759999999999,-0.0111445,-0.17027,0.695136,0.0928124999999999,0.2641799999999999,0.637986,-0.0108385,-0.070264,0.001522,0.0068705,0.070264,-0.0015219999999999,-0.0068705,-0.0922,-0.367204,-0.1596965,0.081023,-0.327824,0.1142104999999999,-0.108669,-0.6539039999999999,-0.3128365,0.050417,-0.642574,0.2734235,0
112,-0.0019889999999999,0.7335225,0.084757,-0.184047,0.5290524999999999,0.079175,-0.329387,0.6104624999999999,0.096207,0.185303,0.4603325,0.017219,0.377263,0.5072625,-0.010734,-0.1709169999999999,0.6950225,0.0926039999999999,0.263843,0.6380825,-0.0109469999999999,-0.070296,0.0014385,0.0068599999999999,0.070296,-0.0014384999999999,-0.0068599999999999,-0.092352,-0.3671075,-0.159747,0.080991,-0.3277775,0.114015,-0.108902,-0.6534875,-0.3127069999999999,0.050093,-0.6425575,0.273483,0
113,-0.0025669999999999,0.733623,0.084728,-0.184243,0.529083,0.07876,-0.329993,0.609873,0.095986,0.184767,0.460343,0.017073,0.376567,0.506563,-0.010499,-0.171523,0.6947530000000001,0.0924369999999999,0.263307,0.6381830000000001,-0.0110929999999999,-0.07033,0.001369,0.006822,0.07033,-0.0013689999999999,-0.006822,-0.092539,-0.3669969999999999,-0.159793,0.081059,-0.327677,0.113681,-0.109203,-0.653107,-0.312753,0.049797,-0.642487,0.273537,0
114,-0.0032919999999999,0.7337135,0.084961,-0.1846439999999999,0.5290735,0.078326,-0.330684,0.6093635000000001,0.0956569999999999,0.184136,0.4603635,0.017012,0.375346,0.5043635,-0.0104059999999999,-0.172194,0.6948435000000001,0.092311,0.262776,0.6380235,-0.011171,-0.070341,0.0013175,0.006724,0.070341,-0.0013174999999999,-0.006724,-0.092697,-0.3667864999999999,-0.159921,0.081189,-0.3275865,0.113381,-0.10951,-0.6529365,-0.312751,0.049502,-0.6423965,0.273659,0
115,-0.0039244999999999,0.7338135,0.085202,-0.1846044999999999,0.5290935,0.077465,-0.3311044999999999,0.6087835,0.094933,0.1833955,0.4604235,0.017112,0.3735555,0.4996135,-0.0105309999999999,-0.1726345,0.6948435,0.092161,0.2615955,0.6346735,-0.011857,-0.0703225,0.0012814999999999,0.00655,0.0703225,-0.0012814999999999,-0.0065499999999999,-0.0928405,-0.3667065,-0.1602299999999999,0.0813935,-0.3275665,0.113092,-0.1098435,-0.6528565000000001,-0.3127999999999999,0.0492935,-0.6423165000000001,0.27382,0
116,-0.0044075,0.734118,0.0853575,-0.1841835,0.528988,0.0759995,-0.3311635,0.608318,0.0937125,0.1825564999999999,0.460578,0.0173185,0.3713565,0.491158,-0.0107924999999999,-0.1728235,0.695008,0.0917015,0.2597665,0.630328,-0.0137104999999999,-0.0702935,0.0011779999999999,0.0063475,0.0702935,-0.001178,-0.0063474999999999,-0.0929705,-0.366542,-0.1605915,0.0816195,-0.327452,0.1131325,-0.1102104999999999,-0.652972,-0.3129015,0.0489635,-0.642142,0.2739885,0
117,-0.0050805,0.7345435,0.085323,-0.1838305,0.5288635,0.0745909999999999,-0.3310105,0.6079835,0.092095,0.1815594999999999,0.4606935,0.0174869999999999,0.3680895,0.4788535,-0.01086,-0.1725705,0.6952435,0.090446,0.2569794999999999,0.6239435000000001,-0.017371,-0.0703185,0.0010594999999999,0.0061379999999999,0.0703185,-0.0010595,-0.006138,-0.0931285,-0.3663765,-0.160897,0.0818085,-0.3272565,0.11327,-0.1105025,-0.6529664999999999,-0.312967,0.0486595,-0.6418465,0.274143,0
118,-0.0058474999999999,0.7351385,0.0853095,-0.1835715,0.5285985000000001,0.0732974999999999,-0.3306315,0.6076885000000001,0.0899365,0.1793884999999999,0.4603285,0.0178044999999999,0.3623485,0.4634585,-0.0099685,-0.1718915,0.6959485000000001,0.0890175,0.2547985,0.6148385000000001,-0.0238455,-0.0703675,0.0009315,0.0059414999999999,0.0703675,-0.0009315,-0.0059415,-0.0932014999999999,-0.3659715,-0.1611564999999999,0.0820385,-0.3269215,0.1134395,-0.1106375,-0.6526514999999999,-0.3130365,0.0484375,-0.6414415,0.2744035,0
119,-0.006624,0.7357819999999999,0.085408,-0.1832669999999999,0.528392,0.072173,-0.330247,0.607412,0.087478,0.175933,0.4593919999999999,0.018429,0.355653,0.446252,-0.010013,-0.170957,0.696892,0.087512,0.2526029999999999,0.599362,-0.032292,-0.070384,0.000817,0.0058189999999999,0.070384,-0.000817,-0.0058189999999999,-0.09318,-0.365688,-0.161397,0.082332,-0.326428,0.11356,-0.110664,-0.652388,-0.313127,0.048317,-0.640988,0.274603,0
120,-0.007318,0.736462,0.0856165,-0.182941,0.528202,0.0711785,-0.330101,0.6070019999999999,0.0846165,0.172189,0.4583319999999999,0.0193425,0.347529,0.427212,-0.0090075,-0.169981,0.697932,0.0859935,0.249519,0.581322,-0.0432144999999999,-0.07036,0.000698,0.0057445,0.07036,-0.0006979999999999,-0.0057445,-0.093107,-0.365568,-0.1616225,0.0826959999999999,-0.325908,0.1136685,-0.1108939999999999,-0.652558,-0.3133025,0.048273,-0.640508,0.2747374999999999,0
121,-0.0079534999999999,0.7372075,0.0859544999999999,-0.1827085,0.5281475,0.0701045,-0.3303585,0.6066575,0.0814535,0.1683214999999999,0.4572775,0.0201995,0.3386815,0.4069475,-0.0096154999999999,-0.1687785,0.6991175,0.0845954999999999,0.2450415,0.5604874999999999,-0.0589805,-0.0703465,0.0005384999999999,0.0057035,0.0703465,-0.0005385,-0.0057035,-0.0930525,-0.3654125,-0.1618795,0.0830684999999999,-0.3254625,0.1137804999999999,-0.1111484999999999,-0.6526625,-0.3135595,0.0482535,-0.6399525,0.2748005,0
122,-0.0081045,0.7380335,0.086128,-0.1824795,0.5282935,0.068962,-0.3308295,0.6063634999999999,0.078195,0.1648305,0.4563535,0.02128,0.3300005,0.3853435,-0.010629,-0.1675095,0.7005035,0.083309,0.2395105,0.5394034999999999,-0.075071,-0.0703874999999999,0.0003614999999999,0.005613,0.0703874999999999,-0.0003615,-0.005613,-0.0930005,-0.3651565,-0.1621309999999999,0.0833585,-0.3248365,0.113844,-0.1112445,-0.6523165000000001,-0.313661,0.0482715,-0.6392365,0.274749,0
123,-0.0080674999999999,0.7390725,0.0864115,-0.1822635,0.5286725,0.0678505,-0.3312735,0.6061624999999999,0.0750475,0.1614565,0.4556725,0.0224795,0.3213465,0.3646824999999999,-0.0101035,-0.1661435,0.7022025,0.0819884999999999,0.2333865,0.5170425,-0.0918225,-0.0704755,0.0001885,0.0054854999999999,0.0704755,-0.0001884999999999,-0.0054854999999999,-0.0929465,-0.3648175,-0.1623524999999999,0.0835465,-0.3241375,0.1138734999999999,-0.1112025,-0.6516175000000001,-0.3137324999999999,0.0482825,-0.6383775,0.2746575,0
124,-0.007977,0.7403740000000001,0.086683,-0.182068,0.5292340000000001,0.066878,-0.331868,0.606024,0.071976,0.158102,0.455314,0.023516,0.313022,0.346314,-0.0095409999999999,-0.164288,0.7044440000000001,0.080708,0.226642,0.497754,-0.1086789999999999,-0.070549,1.4000000000000123e-05,0.005309,0.070549,-1.4000000000000123e-05,-0.0053089999999999,-0.092912,-0.364266,-0.162569,0.083686,-0.323186,0.113991,-0.111003,-0.6503559999999999,-0.3137189999999999,0.048305,-0.637226,0.274581,0
125,-0.0077725,0.7416834999999999,0.086688,-0.1820805,0.5298535,0.066259,-0.3325605,0.6061335,0.068992,0.1548695,0.4550634999999999,0.024615,0.3049695,0.3313335,-0.008804,-0.1626605,0.7069835,0.079391,0.2212995,0.4792234999999999,-0.123499,-0.0706165,-0.0001234999999999,0.0051819999999999,0.0706165,0.0001234999999999,-0.0051819999999999,-0.0928655,-0.3636565,-0.162859,0.0838225,-0.3225165,0.114205,-0.1107405,-0.6489165,-0.313729,0.0483274999999999,-0.6360465000000001,0.274391,0
126,-0.0073305,0.74292,0.0864365,-0.1820615,0.53066,0.0656795,-0.3333215,0.60634,0.0660925,0.1518084999999999,0.4549999999999999,0.0258875,0.2978685,0.31999,-0.0082245,-0.1609415,0.7094400000000001,0.0785474999999999,0.2167784999999999,0.46291,-0.1375365,-0.0706995,-0.000239,0.0050785,0.0706995,0.0002389999999999,-0.0050785,-0.0928115,-0.36299,-0.1632465,0.0839425,-0.3221,0.1145635,-0.1104475,-0.64732,-0.3137065,0.0483715,-0.63481,0.2740835,0
127,-0.006711,0.743989,0.0861659999999999,-0.182132,0.5317689999999999,0.065115,-0.334132,0.606569,0.063329,0.151768,0.4564189999999999,0.026739,0.293168,0.311749,-0.007944,-0.159262,0.7115589999999999,0.077656,0.210818,0.4490889999999999,-0.1493939999999999,-0.070838,-0.0003719999999999,0.005081,0.070838,0.000372,-0.0050809999999999,-0.092722,-0.362291,-0.163684,0.084062,-0.321891,0.114885,-0.110201,-0.6459010000000001,-0.313744,0.048413,-0.633741,0.273666,0
128,-0.0059485,0.745013,0.0858945,-0.1823735,0.532893,0.0644345,-0.3348935,0.606953,0.0606305,0.1508465,0.457283,0.0261975,0.2896165,0.3053229999999999,-0.0074214999999999,-0.1577535,0.713683,0.0764955,0.2049865,0.438123,-0.1599264999999999,-0.0710095,-0.0005159999999999,0.0051975,0.0710095,0.000516,-0.0051975,-0.0925975,-0.361467,-0.1641665,0.0840655,-0.321827,0.1151625,-0.1100095,-0.6444570000000001,-0.3136265,0.0485894999999999,-0.632707,0.2733035,0
129,-0.0048144999999999,0.7460145,0.0854925,-0.1825494999999999,0.5340445,0.0637515,-0.3355694999999999,0.6074945,0.0580485,0.1511205,0.4587445,0.0259704999999999,0.2870705,0.3007545,-0.0068515,-0.1562795,0.7158845,0.0751594999999999,0.2003405,0.4297045,-0.1678135,-0.0711815,-0.0006595,0.0053624999999999,0.0711815,0.0006595,-0.0053624999999999,-0.0924935,-0.3605055,-0.1646335,0.0839935,-0.3216954999999999,0.1154445,-0.1098585,-0.6429355,-0.3134235,0.0487805,-0.6316755,0.2729565,0
130,-0.003539,0.746936,0.084726,-0.182722,0.5351560000000001,0.063116,-0.336102,0.608016,0.055437,0.1512879999999999,0.460126,0.025777,0.285578,0.297616,-0.006282,-0.155122,0.717966,0.073571,0.1971379999999999,0.4239759999999999,-0.171254,-0.071361,-0.0007729999999999,0.005579,0.071361,0.0007729999999999,-0.005579,-0.092456,-0.359554,-0.165134,0.083863,-0.321584,0.115675,-0.109722,-0.641404,-0.313284,0.048906,-0.6306339999999999,0.272546,0
131,-0.0023485,0.747678,0.0836735,-0.1830555,0.5356179999999999,0.0621925,-0.3365255,0.6085079999999999,0.0528745,0.1515545,0.461418,0.0254744999999999,0.2844044999999999,0.296528,-0.0064325,-0.1540455,0.719938,0.0718125,0.1947245,0.418748,-0.1741285,-0.0714875,-0.0008869999999999,0.0058094999999999,0.0714875,0.0008869999999999,-0.0058095,-0.0924635,-0.3586519999999999,-0.1656085,0.0836524999999999,-0.321432,0.1158945,-0.1095115,-0.6397820000000001,-0.3131685,0.0489574999999999,-0.629702,0.2722515,0
132,-0.0013289999999999,0.748268,0.0823355,-0.183397,0.535988,0.0611424999999999,-0.336827,0.609108,0.0503444999999999,0.152123,0.462698,0.0254464999999999,0.283613,0.296068,-0.0071645,-0.153037,0.721698,0.0700185,0.193073,0.415128,-0.1764925,-0.0715679999999999,-0.0010019999999999,0.0060324999999999,0.0715679999999999,0.0010019999999999,-0.0060325,-0.092497,-0.357872,-0.1660725,0.08331,-0.321632,0.1161114999999999,-0.10941,-0.638462,-0.3132025,0.0489919999999999,-0.628892,0.2719975,0
133,-0.0004605,0.748698,0.08087,-0.1836505,0.536288,0.060046,-0.3369705,0.609758,0.0479799999999999,0.1531095,0.464038,0.02568,0.2831895,0.295848,-0.0079359999999999,-0.1524404999999999,0.723028,0.068156,0.1921595,0.411658,-0.178856,-0.0716405,-0.0010739999999999,0.0062439999999999,0.0716405,0.001074,-0.0062439999999999,-0.0925455,-0.357282,-0.166456,0.0829144999999999,-0.321942,0.116288,-0.1092475,-0.6371519999999999,-0.313066,0.0490154999999999,-0.6283219999999999,0.271794,0
134,0.0001425,0.7490315,0.0794459999999999,-0.1837415,0.5367615,0.0590959999999999,-0.3371215,0.6103014999999999,0.045867,0.1541485,0.4653815,0.025998,0.2826685,0.2958515,-0.0081159999999999,-0.1518815,0.7241415,0.0662659999999999,0.1919285,0.4083015,-0.180556,-0.0717385,-0.0011194999999999,0.0063859999999999,0.0717385,0.0011194999999999,-0.006386,-0.0926405,-0.3568985,-0.166726,0.0826025,-0.3220985,0.1164029999999999,-0.1092435,-0.6364485000000001,-0.313246,0.0489884999999999,-0.6279985,0.271634,0
135,0.0005854999999999,0.749157,0.0781045,-0.1837915,0.537057,0.0582725,-0.3372015,0.610657,0.0439564999999999,0.1552885,0.466557,0.0264314999999999,0.2822584999999999,0.295877,-0.0083675,-0.1514215,0.725127,0.0645285,0.1915385,0.404947,-0.1821755,-0.0718725,-0.001151,0.0064864999999999,0.0718725,0.0011509999999999,-0.0064864999999999,-0.0927805,-0.356713,-0.1668855,0.0823995,-0.322163,0.1164115,-0.1092935,-0.636093,-0.3134055,0.0488765,-0.627893,0.2715645,0
136,0.0009344999999999,0.7491115,0.0769025,-0.1838315,0.5371715,0.0575595,-0.3371915,0.6107715,0.0424005,0.1564085,0.4674914999999999,0.0269875,0.2816985,0.2956315,-0.0085474999999999,-0.1511415,0.7259415,0.0626885,0.1918485,0.4009614999999999,-0.1835975,-0.0719615,-0.0011254999999999,0.0064575,0.0719615,0.0011255,-0.0064574999999999,-0.0929485,-0.3567285,-0.1669375,0.0822175,-0.3222785,0.1164355,-0.1094235,-0.6359785,-0.3134475,0.0486955,-0.6279585,0.2716825,0
137,0.0013095,0.74904,0.075554,-0.1838005,0.53725,0.056854,-0.3370505,0.6108,0.040953,0.1577095,0.46854,0.027714,0.2811995,0.29531,-0.008709,-0.1508005,0.72678,0.060778,0.1917695,0.40072,-0.182833,-0.0720435,-0.0010969999999999,0.006431,0.0720435,0.001097,-0.0064309999999999,-0.0931095,-0.3568,-0.166993,0.0820704999999999,-0.32225,0.116387,-0.1095935,-0.63595,-0.313503,0.0485224999999999,-0.62802,0.271707,0
138,0.0015704999999999,0.7506005,0.0732585,-0.1851205,0.5338505,0.0536995,-0.3366505,0.6112305,0.0384265,0.1563695,0.4688605,0.0244775,0.2806995,0.2967505,-0.0069574999999999,-0.1504805,0.7280205,0.0590325,0.1916495,0.4035205,-0.1814865,-0.0723295,-0.0011994999999999,0.0068205,0.0723295,0.0011994999999999,-0.0068205,-0.0932885,-0.3552195,-0.1673965,0.0816235,-0.3212495,0.1164315,-0.1089525,-0.6321895,-0.3124464999999999,0.0484305,-0.6262495,0.2710735,0
139,0.0013669999999999,0.7502154999999999,0.0726884999999999,-0.184754,0.5362855,0.0542514999999999,-0.337284,0.6117355,0.0373465,0.1593359999999999,0.4709555,0.0269844999999999,0.280166,0.2961755,-0.0079995,-0.149724,0.7294955,0.0571445,0.190156,0.4027055,-0.1839205,-0.072318,-0.0011325,0.0066734999999999,0.072318,0.0011324999999999,-0.0066734999999999,-0.093406,-0.3556445,-0.1674105,0.081653,-0.3213944999999999,0.1162235,-0.110504,-0.6358645,-0.3148005,0.048178,-0.6269045000000001,0.2712795,0
140,0.0009819999999999,0.7497595,0.072079,-0.184864,0.5373295,0.0545149999999999,-0.337564,0.6124395,0.036765,0.160416,0.4717795,0.0282979999999999,0.2795359999999999,0.2952595,-0.009552,-0.150414,0.7302795000000001,0.053776,0.190456,0.4021895,-0.186703,-0.072365,-0.0010954999999999,0.0066479999999999,0.072365,0.0010954999999999,-0.006648,-0.093749,-0.3559805,-0.167323,0.0813039999999999,-0.3217505,0.116251,-0.110369,-0.6352105,-0.314523,0.0479719999999999,-0.6279505,0.271677,0
141,0.0023515,0.7492745,0.070497,-0.1842675,0.5382245,0.054533,-0.3373275,0.6126145,0.036029,0.1608125,0.4719145,0.028972,0.2792624999999999,0.2943945,-0.0111899999999999,-0.1505675,0.7317545,0.051508,0.1897725,0.4014344999999999,-0.188284,-0.0724384999999999,-0.0010654999999999,0.006679,0.0724384999999999,0.0010655,-0.0066789999999999,-0.0938255,-0.3563655,-0.167154,0.0813774999999999,-0.3219655,0.116198,-0.1110305,-0.6373655,-0.3162939999999999,0.0476475,-0.6274955,0.270956,0
142,0.004045,0.7487524999999999,0.067944,-0.183977,0.5382325,0.05455,-0.336507,0.6136825,0.034669,0.168133,0.4731924999999999,0.033513,0.278453,0.2935224999999999,-0.0121299999999999,-0.150597,0.7317825,0.049971,0.188893,0.4005125,-0.188854,-0.0725379999999999,-0.0009674999999999,0.006493,0.0725379999999999,0.0009674999999999,-0.0064929999999999,-0.094425,-0.3570375,-0.167014,0.080894,-0.3222875,0.116113,-0.1118859999999999,-0.6390775,-0.316844,0.046841,-0.6280275000000001,0.271156,0
143,0.004964,0.747929,0.066608,-0.184496,0.537589,0.054928,-0.336336,0.614339,0.033024,0.176984,0.479959,0.04187,0.278164,0.291579,-0.0116599999999999,-0.150826,0.7310989999999999,0.049177,0.189014,0.397309,-0.191878,-0.072628,-0.0008069999999999,0.005882,0.072628,0.0008069999999999,-0.0058819999999999,-0.095073,-0.358131,-0.166758,0.080503,-0.3229809999999999,0.116077,-0.112641,-0.6408010000000001,-0.316888,0.046354,-0.6299910000000001,0.272602,0
144,0.0062419999999999,0.747942,0.0656885,-0.184311,0.537922,0.0548065,-0.335731,0.615422,0.0313685,0.172649,0.476172,0.0373905,0.278549,0.290312,-0.0111355,-0.149401,0.730402,0.0481115,0.196209,0.394192,-0.1821055,-0.072669,-0.000791,0.0057824999999999,0.072669,0.000791,-0.0057824999999999,-0.095105,-0.358458,-0.1669155,0.080704,-0.320578,0.1148285,-0.112731,-0.6414679999999999,-0.3176655,0.046108,-0.629648,0.2727345,0
