sb224sc-HT22-VT27/4dt907/src/ml-research/a11/datafiles/labeled_files/B7_kinect_mirrored.csv
FrameNo,nose_3d_x,nose_3d_y,nose_3d_z,left_shoulder_3d_x,left_shoulder_3d_y,left_shoulder_3d_z,left_elbow_3d_x,left_elbow_3d_y,left_elbow_3d_z,right_shoulder_3d_x,right_shoulder_3d_y,right_shoulder_3d_z,right_elbow_3d_x,right_elbow_3d_y,right_elbow_3d_z,left_wrist_3d_x,left_wrist_3d_y,left_wrist_3d_z,right_wrist_3d_x,right_wrist_3d_y,right_wrist_3d_z,left_hip_3d_x,left_hip_3d_y,left_hip_3d_z,right_hip_3d_x,right_hip_3d_y,right_hip_3d_z,left_knee_3d_x,left_knee_3d_y,left_knee_3d_z,right_knee_3d_x,right_knee_3d_y,right_knee_3d_z,left_ankle_3d_x,left_ankle_3d_y,left_ankle_3d_z,right_ankle_3d_x,right_ankle_3d_y,right_ankle_3d_z,activity_label
0,1.0010115,0.7598,0.023647,0.8313855,0.5040100000000001,0.021205,0.7835555,0.28111,-0.035547,1.1814855,0.49498,0.015837,1.2288355,0.2497899999999999,0.001668,0.8871555000000001,0.35814,-0.230563,1.2198355,0.06778,-0.075043,0.9254755,0.001315,0.000938,1.0745245,-0.001315,-0.000938,0.9002035000000002,-0.33923,0.0508259999999999,1.0964865,-0.32902,0.037672,0.9009925,-0.64687,0.081991,1.1080555,-0.64267,0.078736,0
1,1.000992,0.759819,0.023633,0.83138,0.504029,0.021195,0.7837000000000001,0.280719,-0.035756,1.18159,0.495099,0.015988,1.22887,0.249869,0.0016849999999999,0.88815,0.357519,-0.230925,1.21983,0.067734,-0.0751449999999999,0.925475,0.001313,0.000937,1.074525,-0.001313,-0.000937,0.900228,-0.339351,0.050967,1.095984,-0.330081,0.037873,0.90096,-0.6469010000000001,0.082174,1.10788,-0.643091,0.078711,0
2,1.0009505,0.7596959999999999,0.0236345,0.8313235,0.5039659999999999,0.0212115,0.7839035,0.280476,-0.0360005,1.1815835,0.495016,0.0160395,1.2288935,0.249826,0.0016844999999999,0.8880535,0.357616,-0.2308675,1.2198435,0.067698,-0.0750875,0.9254715,0.001281,0.0009515,1.0745285,-0.001281,-0.0009515,0.9001915,-0.339294,0.0509395,1.0960075,-0.329774,0.0379005,0.9009215,-0.646864,0.0821785,1.1078435,-0.643084,0.0787665,0
3,1.0009395,0.7596995000000001,0.023614,0.8312645000000001,0.5039295,0.021126,0.7840045,0.2803495,-0.0361149999999999,1.1815945,0.4950695,0.016052,1.2288845,0.2497895,0.001702,0.8909645,0.3576695,-0.229794,1.2198145,0.0676455,-0.075084,0.9254705,0.0012785,0.000951,1.0745295,-0.0012785,-0.0009509999999999,0.9001175,-0.3391605,0.050863,1.0959755,-0.3298205,0.037889,0.9010135,-0.6468704999999999,0.082142,1.1079645,-0.6430904999999999,0.078462,0
4,1.000925,0.7596895,0.0234724999999999,0.831238,0.5039095,0.0210424999999999,0.784448,0.2794895,-0.0342545,1.181648,0.4951595,0.0160034999999999,1.228888,0.2497695,0.0016504999999999,0.887848,0.3570095,-0.2316875,1.219768,0.0675945,-0.0750475,0.925486,0.0012925,0.0010004999999999,1.074514,-0.0012924999999999,-0.0010005,0.900094,-0.3391705,0.0508145,1.095969,-0.3298005,0.0378164999999999,0.90098,-0.6469505,0.0821155,1.107878,-0.6427805,0.0782835,0
5,1.0008864999999998,0.759748,0.023403,0.8311565,0.503898,0.02094,0.7842765,0.281058,-0.037715,1.1816765,0.495268,0.015944,1.2288665,0.249798,0.001589,0.8875065,0.357708,-0.2309089999999999,1.2197265,0.067607,-0.075039,0.9254765,0.001318,0.000973,1.0745235,-0.001318,-0.000973,0.9000575000000001,-0.3387619999999999,0.050811,1.0958965,-0.329742,0.037734,0.9010225,-0.6469520000000001,0.0820029999999999,1.1077465,-0.6425420000000001,0.078257,0
6,1.0009214999999998,0.7597349999999999,0.0232765,0.8311265,0.5040049999999999,0.0209234999999999,0.7844765,0.280495,-0.0382124999999999,1.1818665,0.495445,0.0161344999999999,1.2289365,0.249885,0.0015504999999999,0.8870365,0.354845,-0.2363695,1.2197665,0.067558,-0.0748895,0.9254655,0.0013,0.0009064999999999,1.0745345,-0.0013,-0.0009065,0.9000275,-0.338725,0.0508275,1.0958215,-0.329385,0.0377944999999999,0.9010795,-0.6471450000000001,0.0821295,1.1078964999999998,-0.642335,0.0783725,0
7,1.0009695,0.75962,0.0230085,0.8312195,0.50408,0.0209265,0.7844095,0.28083,-0.0386305,1.1817095,0.49523,0.0159155,1.2288595,0.24986,0.0015535,0.8880395000000001,0.35855,-0.2302145,1.2197595,0.06759,-0.0748945,0.9254645,0.001304,0.0008995,1.0745355,-0.001304,-0.0008994999999999,0.9000395,-0.33869,0.0507505,1.0962165,-0.32911,0.0376265,0.9009935,-0.64681,0.0820675,1.1079095,-0.64271,0.0783775,0
8,1.00097,0.7595925,0.0228594999999999,0.8312120000000001,0.5041025,0.0208855,0.784482,0.2807825,-0.0390865,1.181732,0.4952525,0.0159035,1.228862,0.2498525,0.0015114999999999,0.888292,0.3589024999999999,-0.2299004999999999,1.219752,0.0675665,-0.0748605,0.925463,0.0013015,0.0008825,1.074537,-0.0013015,-0.0008825,0.9000270000000001,-0.3385875,0.0507175,1.096194,-0.3290975,0.0376115,0.900999,-0.6467275,0.0820775,1.107912,-0.6427474999999999,0.0783615,0
9,1.0009715,0.7595615,0.022697,0.8311935,0.5041215,0.020871,0.7845535,0.2807615,-0.0395149999999999,1.1817635,0.4952615,0.015857,1.2288635,0.2498315,0.001473,0.8884935,0.3595415,-0.22936,1.2197535,0.0675385,-0.07482,0.9254625,0.0012994999999999,0.000866,1.0745375,-0.0012994999999999,-0.0008659999999999,0.9000125,-0.3384784999999999,0.050677,1.0962275,-0.3290185,0.037571,0.9010045,-0.6466385,0.082081,1.1079235,-0.6427285,0.078372,0
10,1.0009775,0.759539,0.0225245,0.8311745,0.5041589999999999,0.0208585,0.7846245000000001,0.280799,-0.0397675,1.1817845,0.495279,0.0158195,1.2288845,0.2497489999999999,0.0014105,0.8888045,0.359909,-0.2289755,1.2197545,0.067491,-0.0747655,0.9254635,0.001299,0.0008415,1.0745365,-0.0012989999999999,-0.0008415,0.8999965,-0.3383609999999999,0.0506275,1.0962555,-0.328931,0.0375355,0.9010165,-0.646551,0.0821075,1.1079345,-0.6427010000000001,0.0783965,0
11,1.0009905,0.7595195,0.0223424999999999,0.8311605,0.5041895,0.0208424999999999,0.7846805,0.2808295,-0.0399555,1.1818005,0.4952795,0.0157784999999999,1.2289105,0.2496695,0.0013314999999999,0.8887905,0.3602694999999999,-0.2287214999999999,1.2197605,0.0674405,-0.0747315,0.9254675,0.0012985,0.0008174999999999,1.0745325,-0.0012985,-0.0008175,0.8999815,-0.3382405,0.0505834999999999,1.0962965,-0.3288505,0.0375014999999999,0.9010165,-0.6464705000000001,0.0821315,1.1079305,-0.6426605,0.0784304999999999,0
12,1.001007,0.7595005,0.022178,0.83114,0.5042504999999999,0.0208399999999999,0.7847500000000001,0.2808405,-0.040173,1.18182,0.4952705,0.015739,1.22895,0.2495805,0.0012479999999999,0.8886900000000001,0.3610305,-0.227981,1.21978,0.0673825,-0.074691,0.925468,0.0012985,0.0007869999999999,1.0745319999999998,-0.0012985,-0.000787,0.899973,-0.3381194999999999,0.050542,1.096327,-0.3288095,0.037485,0.901016,-0.6463795,0.0821669999999999,1.10792,-0.6425995,0.078464,0
13,1.0010165,0.7594885,0.022039,0.8311284999999999,0.5043084999999999,0.020836,0.7847685,0.2808885,-0.040214,1.1818385,0.4952485,0.015683,1.2289785,0.2494985,0.001168,0.8886385000000001,0.3619985,-0.227179,1.2197985,0.0673295,-0.074659,0.9254685,0.0012965,0.00076,1.0745315,-0.0012965,-0.0007599999999999,0.8999635,-0.3380215,0.050518,1.0963505,-0.3287615,0.03748,0.9010045,-0.6463115,0.082212,1.1079185,-0.6425515,0.078497,0
14,1.0010275,0.7594854999999999,0.0219425,0.8311165,0.5043455,0.0208525,0.7847765000000001,0.2808955,-0.0401665,1.1818465,0.4952155,0.0156265,1.2290165,0.2494055,0.0011045,0.8887265,0.3626855,-0.2264915,1.2198265,0.0672745,-0.0746115,0.9254695,0.0012955,0.0007495,1.0745305,-0.0012955,-0.0007495,0.8999535,-0.3379245,0.0505025,1.0963685,-0.3287144999999999,0.0374785,0.9009845,-0.6462245000000001,0.0822595,1.1078965,-0.6425145000000001,0.0785205,0
15,1.0010405,0.759493,0.0218404999999999,0.8311055,0.504393,0.0208794999999999,0.7847755000000001,0.280903,-0.0401115,1.1818555,0.495193,0.0155884999999999,1.2290455,0.249323,0.0010524999999999,0.8889155,0.362983,-0.2261865,1.2198555,0.06722,-0.0745665,0.9254695,0.001295,0.0007314999999999,1.0745305,-0.001295,-0.0007315,0.8999425,-0.337827,0.0504984999999999,1.0963925,-0.328677,0.0374754999999999,0.9009555,-0.646147,0.0823144999999999,1.1078555,-0.642447,0.0785765,0
16,1.001055,0.7594945,0.0217595,0.8310960000000001,0.5044344999999999,0.0209025,0.784816,0.2807945,-0.0400065,1.181866,0.4951845,0.0155635,1.229086,0.2492545,0.0010264999999999,0.8892460000000001,0.3632245,-0.2260335,1.219856,0.0671655,-0.0745234999999999,0.925471,0.0012945,0.0007144999999999,1.074529,-0.0012945,-0.0007144999999999,0.899937,-0.3377255,0.0504985,1.096445,-0.3286355,0.0374425,0.900924,-0.6460655000000001,0.0823835,1.107836,-0.6423755000000001,0.0786405,0
17,1.0010709999999998,0.7594945,0.0216685,0.831078,0.5044745,0.0209105,0.784828,0.2807945,-0.0400125,1.181888,0.4951645,0.0155345,1.229128,0.2491845,0.0009974999999999,0.888958,0.3632345,-0.2259845,1.219858,0.0671115,-0.0744945,0.925473,0.0012925,0.0006994999999999,1.074527,-0.0012925,-0.0006994999999999,0.89992,-0.3376455,0.0504975,1.096479,-0.3285754999999999,0.0373965,0.900894,-0.6460454999999999,0.0824705,1.107808,-0.6423055,0.0786995,0
18,1.0010975,0.759497,0.0216025,0.8310615,0.504527,0.0209305,0.7848315000000001,0.280807,-0.0401674999999999,1.1819015,0.495147,0.0155235,1.2291715,0.249127,0.0009825,0.8895215,0.363917,-0.2259255,1.2198615,0.067054,-0.0744555,0.9254735,0.001289,0.0006865,1.0745265,-0.001289,-0.0006864999999999,0.8999185000000001,-0.337573,0.0505095,1.0964905,-0.328463,0.0373475,0.9008795,-0.6460130000000001,0.0825665,1.1077615,-0.6421830000000001,0.0787665,0
19,1.001129,0.759512,0.0215274999999999,0.831045,0.504572,0.0209495,0.784825,0.280812,-0.0403125,1.181905,0.495132,0.0155184999999999,1.229195,0.249122,0.0010094999999999,0.889965,0.364662,-0.2258505,1.219865,0.0670019999999999,-0.0744405,0.925474,0.001292,0.0006894999999999,1.074526,-0.001292,-0.0006895,0.899917,-0.337508,0.0505295,1.096518,-0.328308,0.0373115,0.900854,-0.645968,0.0826575,1.107695,-0.641958,0.0788615,0
20,1.001158,0.759521,0.0214535,0.831035,0.504601,0.0209755,0.784825,0.280731,-0.0402345,1.181905,0.495131,0.0155305,1.229225,0.249101,0.0010625,0.889345,0.365541,-0.2262325,1.219855,0.066953,-0.0743925,0.925471,0.0012929999999999,0.0006945,1.074529,-0.0012929999999999,-0.0006945,0.899905,-0.337449,0.0505735,1.096534,-0.328159,0.0372855,0.900825,-0.645939,0.0827615,1.107615,-0.641799,0.0789675,0
21,1.001195,0.759521,0.0213645,0.83104,0.504611,0.0210075,0.78486,0.280691,-0.0401544999999999,1.1819,0.495101,0.0155225,1.22924,0.249071,0.0011215,0.88946,0.365541,-0.2269125,1.21983,0.066894,-0.0743625,0.925468,0.0012929999999999,0.0006995,1.074532,-0.0012929999999999,-0.0006994999999999,0.899897,-0.337429,0.0506205,1.096554,-0.328029,0.0372445,0.900791,-0.645929,0.0828705,1.10757,-0.641649,0.0790775,0
22,1.001229,0.759511,0.021289,0.8310420000000001,0.504621,0.021049,0.784892,0.280651,-0.0402299999999999,1.181912,0.495091,0.015532,1.229262,0.249031,0.001187,0.8891620000000001,0.365861,-0.227235,1.219802,0.066851,-0.074325,0.925463,0.0012929999999999,0.000694,1.074537,-0.0012929999999999,-0.000694,0.899899,-0.337389,0.050661,1.096541,-0.327959,0.037216,0.900743,-0.645909,0.082987,1.107532,-0.641519,0.079194,0
23,1.001262,0.7594875,0.0212204999999999,0.831036,0.5046275,0.0210845,0.784926,0.2806075,-0.0403205,1.181916,0.4950875,0.0155494999999999,1.229296,0.2490375,0.0012344999999999,0.888796,0.3666075,-0.2274554999999999,1.219826,0.0668475,-0.0742955,0.925458,0.0012925,0.0006794999999999,1.074542,-0.0012925,-0.0006794999999999,0.8999010000000001,-0.3373625,0.0506944999999999,1.0965459999999998,-0.3278925,0.0371974999999999,0.9007080000000001,-0.6458925000000001,0.0830944999999999,1.107486,-0.6414125,0.0793095,0
24,1.0012899999999998,0.7594774999999999,0.021187,0.831037,0.5046275,0.021136,0.784927,0.2805575,-0.0404049999999999,1.181917,0.4950875,0.015582,1.229327,0.2490375,0.001288,0.888367,0.3675275,-0.227551,1.219857,0.0668475,-0.0743009999999999,0.925455,0.0012925,0.000678,1.074545,-0.0012925,-0.0006779999999999,0.899902,-0.3373325,0.05075,1.0965459999999998,-0.3278224999999999,0.037229,0.900699,-0.6458925000000001,0.083215,1.107457,-0.6414125,0.079433,0
25,1.0013124999999998,0.759478,0.0211554999999999,0.8310455,0.5046280000000001,0.0211874999999999,0.7849355,0.2804979999999999,-0.0405165,1.1819255,0.495088,0.0156134999999999,1.2293555,0.249038,0.0013314999999999,0.8877055,0.3684779999999999,-0.2273075,1.2198855,0.066848,-0.0743475,0.9254545,0.001287,0.0006774999999999,1.0745455,-0.001287,-0.0006775,0.8999015,-0.337302,0.0507875,1.0965395,-0.327772,0.0372625,0.9006835,-0.645922,0.0833214999999999,1.1074354999999998,-0.641412,0.0795575,0
26,1.001331,0.7594799999999999,0.021175,0.83104,0.50463,0.021254,0.7849000000000002,0.2804299999999999,-0.040647,1.18194,0.49509,0.015643,1.2294,0.24904,0.001341,0.88703,0.36971,-0.226918,1.21991,0.066932,-0.074678,0.925451,0.001281,0.000675,1.074549,-0.001281,-0.000675,0.8999010000000001,-0.33727,0.050835,1.096521,-0.32772,0.037321,0.9006670000000001,-0.64595,0.08343,1.10741,-0.64141,0.079684,0
27,1.00134,0.759481,0.0212154999999999,0.831034,0.504621,0.0213294999999999,0.7848539999999999,0.280401,-0.0407485,1.181944,0.495091,0.0156854999999999,1.229444,0.249141,0.0012554999999999,0.887024,0.369711,-0.2268275,1.219954,0.0671679999999999,-0.0753275,0.925449,0.001276,0.0006774999999999,1.074551,-0.001276,-0.0006775,0.8999080000000002,-0.337259,0.0508794999999999,1.096485,-0.327689,0.0373914999999999,0.90065,-0.645949,0.0835325,1.107404,-0.641449,0.0797894999999999,0
28,1.0013379999999998,0.7594854999999999,0.021296,0.831012,0.5046054999999999,0.02141,0.784852,0.2804055,-0.040797,1.181942,0.4951055,0.015721,1.2294919999999998,0.2495255,0.0009409999999999,0.886712,0.3707155,-0.226747,1.220232,0.0679815,-0.076737,0.925444,0.0012725,0.0006659999999999,1.074556,-0.0012725,-0.0006659999999999,0.899923,-0.3372544999999999,0.05096,1.096411,-0.3276845,0.0374629999999999,0.900609,-0.6459345000000001,0.083621,1.107392,-0.6415045,0.07987,0
29,1.0013325,0.759502,0.021365,0.8309995,0.504552,0.0214789999999999,0.7848395000000001,0.2804419999999999,-0.040808,1.1819195,0.4951419999999999,0.015745,1.2295495,0.2500819999999999,0.0004249999999999,0.8862995,0.372542,-0.226718,1.2206795,0.069148,-0.078768,0.9254405,0.001268,0.0006509999999999,1.0745595,-0.001268,-0.0006509999999999,0.8999455,-0.337248,0.05103,1.0963665,-0.327678,0.037522,0.9005785,-0.6459280000000001,0.083706,1.1073695,-0.641548,0.079939,0
30,1.001332,0.7595080000000001,0.0214205,0.830986,0.504488,0.0215345,0.784796,0.280538,-0.0408314999999999,1.181906,0.495208,0.0158005,1.229636,0.250898,-0.0002514999999999,0.885256,0.374198,-0.2271325,1.221386,0.071091,-0.0820024999999999,0.925438,0.00127,0.0006295,1.074562,-0.00127,-0.0006294999999999,0.8999710000000001,-0.337242,0.0510855,1.096334,-0.327732,0.0375685,0.900564,-0.6459119999999999,0.0837645,1.107326,-0.641632,0.0799945,0
31,1.0013379999999998,0.7595345,0.0214605,0.830938,0.5044145,0.0215595,0.784718,0.2806445,-0.0411035,1.181868,0.4952945,0.0158255,1.230058,0.2524345,-0.0014025,0.884428,0.3758245,-0.2276475,1.222548,0.0743145,-0.0867275,0.925439,0.0012635,0.0006045,1.074561,-0.0012635,-0.0006045,0.900047,-0.3375855,0.0511125,1.0963079999999998,-0.3277755,0.0375825,0.900546,-0.6458855,0.0837995,1.107288,-0.6417155,0.0800425,0
32,1.0013425,0.7595765,0.0216104999999999,0.8309345000000001,0.5043365,0.0215754999999999,0.7845345000000001,0.2808365,-0.0415274999999999,1.1818145,0.4954265,0.0158484999999999,1.2307145,0.2549464999999999,-0.0027085,0.8836545,0.3779565,-0.2276335,1.2241945,0.0790255,-0.0927435,0.9254425,0.0012525,0.0005804999999999,1.0745575,-0.0012525,-0.0005805,0.9001365,-0.3378835,0.0511365,1.0962845,-0.3277735,0.0375965,0.9005205000000001,-0.6458435,0.0838235,1.1072545,-0.6417435,0.0800714999999999,0
33,1.001343,0.7596475,0.0218155,0.830917,0.5042375,0.0215725,0.783907,0.2814475,-0.0424745,1.181747,0.4956475,0.0158885,1.2319969999999998,0.2588875,-0.0051314999999999,0.882267,0.3792375,-0.2276574999999999,1.226237,0.0851364999999999,-0.1004575,0.925444,0.0012315,0.0005735,1.074556,-0.0012315,-0.0005734999999999,0.900229,-0.3381924999999999,0.0511505,1.096259,-0.3277624999999999,0.0376205,0.900479,-0.6457824999999999,0.0838385,1.107207,-0.6417425,0.0800975,0
34,1.0013645,0.7597535,0.022113,0.8308875,0.5041334999999999,0.021572,0.7828475,0.2822235,-0.0442159999999999,1.1816275,0.4959235,0.015969,1.2337775,0.2646735,-0.0082159999999999,0.8801175,0.3823435,-0.227674,1.2302175,0.0952785,-0.113044,0.9254385,0.0011995,0.000552,1.0745615,-0.0011995,-0.0005519999999999,0.9002945,-0.3384465,0.051162,1.0962035,-0.3277265,0.037657,0.9003965,-0.6457565000000001,0.083851,1.1071275,-0.6417165,0.08013,0
35,1.001236,0.7601844999999999,0.0225005,0.833124,0.4991245,0.0190915,0.7806840000000002,0.2834845,-0.0470745,1.181284,0.4965445,0.0160175,1.235414,0.2714845,-0.0115385,0.876804,0.3865345,-0.2287084999999999,1.234274,0.1079845,-0.1263085,0.925418,0.0010904999999999,0.0005065,1.074582,-0.0010904999999999,-0.0005065,0.9001669999999999,-0.3381154999999999,0.0511195,1.095967,-0.3274054999999999,0.0376495,0.900118,-0.6454355,0.0838385,1.106834,-0.6414055000000001,0.0800815,0
36,1.0009495,0.7610365,0.0230209999999999,0.8366865,0.4943465,0.0161779999999999,0.7770165,0.2853365,-0.050832,1.1806665,0.4976065,0.0160009999999999,1.2372865,0.2797965,-0.015293,0.8723365000000001,0.3926965,-0.230028,1.2397665,0.1259165,-0.1419079999999999,0.9253975,0.0008975,0.0004089999999999,1.0746025,-0.0008975,-0.0004089999999999,0.8998285,-0.3373835,0.0510129999999999,1.0955245,-0.3267035,0.0375929999999999,0.8996365,-0.6447335,0.08377,1.1063465,-0.6407535,0.079984,0
37,1.0006305,0.7618980000000001,0.0236979999999999,0.8387825000000001,0.492498,0.0144849999999999,0.7727325,0.287418,-0.055222,1.1798425,0.498658,0.015992,1.2401425,0.2885879999999999,-0.0198689999999999,0.8667025000000002,0.400078,-0.231799,1.2454925,0.145188,-0.157289,0.9253295,0.0007319999999999,0.000293,1.0746705,-0.000732,-0.000293,0.8994135,-0.336722,0.0509229999999999,1.0950645,-0.325982,0.037537,0.8990735,-0.6440819999999999,0.083703,1.1057725,-0.640162,0.079869,0
38,1.0003719999999998,0.7627229999999999,0.024618,0.840714,0.490793,0.0127509999999999,0.767814,0.290233,-0.060174,1.179004,0.499593,0.015989,1.243024,0.298653,-0.0271859999999999,0.859854,0.409243,-0.234223,1.251084,0.165473,-0.174983,0.925241,0.000579,0.000196,1.0747589999999998,-0.000579,-0.000196,0.898991,-0.336217,0.050796,1.094628,-0.325357,0.037458,0.898463,-0.643607,0.0836119999999999,1.105184,-0.6397170000000001,0.079729,0
39,1.000192,0.7635765,0.0258425,0.8425320000000001,0.4891365,0.0110135,0.762832,0.2965465,-0.0676785,1.178122,0.5004164999999999,0.0160125,1.246892,0.3092165,-0.0353505,0.852762,0.4202465,-0.2378585,1.257182,0.1927265,-0.1943685,0.925161,0.0004354999999999,9.649999999999936e-05,1.074839,-0.0004355,-9.649999999999936e-05,0.89866,-0.3354335,0.0505885,1.094235,-0.3247135,0.0373805,0.89783,-0.6432335,0.0835295,1.104572,-0.6394835000000001,0.0795675,0
40,1.000083,0.7644275,0.0272095,0.844307,0.4874175,0.0092684999999999,0.757827,0.3048275,-0.0759735,1.177217,0.5011775,0.0160405,1.251687,0.3208674999999999,-0.0472275,0.844477,0.4328674999999999,-0.2422135,1.264847,0.2207075,-0.2179735,0.925079,0.0002864999999999,-3.550000000000081e-05,1.0749209999999998,-0.0002864999999999,3.550000000000081e-05,0.898254,-0.3345825,0.0503475,1.09384,-0.3241625,0.0373345,0.8972110000000001,-0.6428725000000001,0.0834295,1.103957,-0.6394325000000001,0.0793705,0
41,1.000059,0.765235,0.028727,0.846049,0.485775,0.007598,0.7522690000000001,0.315035,-0.085533,1.176349,0.501965,0.016081,1.258149,0.333065,-0.059757,0.835149,0.446675,-0.246803,1.273089,0.254905,-0.2403529999999999,0.924999,0.000136,-0.0001779999999999,1.075001,-0.0001359999999999,0.000178,0.897815,-0.333935,0.050153,1.093419,-0.323705,0.037287,0.896589,-0.642615,0.083332,1.103319,-0.639475,0.079165,0
42,1.0000895,0.765977,0.0303649999999999,0.8477505,0.484267,0.0059489999999999,0.7464505,0.327037,-0.095943,1.1755105,0.502657,0.0160739999999999,1.2647405,0.344807,-0.071203,0.8251205,0.466147,-0.252733,1.2810805,0.292907,-0.261483,0.9249125,-1.5999999999999955e-05,-0.000308,1.0750875,1.5999999999999955e-05,0.0003079999999999,0.8973535,-0.333393,0.0499719999999999,1.0930095,-0.3233229999999999,0.0372599999999999,0.8959705,-0.642463,0.083253,1.1027105,-0.6396229999999999,0.078958,0
43,1.00013,0.766689,0.032038,0.849497,0.482829,0.004353,0.740667,0.342269,-0.107067,1.174767,0.503289,0.016055,1.271487,0.356379,-0.082007,0.815057,0.487459,-0.258187,1.287507,0.332619,-0.277647,0.924818,-0.0001179999999999,-0.0004129999999999,1.075182,0.000118,0.000413,0.896885,-0.3325909999999999,0.049778,1.092601,-0.322951,0.037232,0.895346,-0.6423610000000001,0.083189,1.102097,-0.639861,0.078764,0
44,1.0003905,0.7673289999999999,0.0338505,0.8490675,0.482829,0.0043164999999999,0.7354475,0.358049,-0.1171635,1.1742075,0.503859,0.0160164999999999,1.2793875,0.370969,-0.0945235,0.8053275,0.5101589999999999,-0.2620234999999999,1.2943075,0.375199,-0.2920135,0.9247305,-0.0001179999999999,-0.0004635,1.0752695,0.000118,0.0004634999999999,0.8965715000000001,-0.3319209999999999,0.0496125,1.0923715,-0.3227109999999999,0.0372244999999999,0.8948695,-0.642351,0.0831544999999999,1.1016175,-0.640221,0.0785984999999999,0
45,1.0008214999999998,0.7679355,0.0356035,0.8487995,0.4828155,0.0043085,0.7301695,0.3763355,-0.1273915,1.1738695,0.5044455,0.0160075,1.2873295,0.3856055,-0.1068315,0.7959995,0.5340155,-0.2648915,1.2999895,0.4171955,-0.3021415,0.9246345,-0.0001315,-0.0004964999999999,1.0753655,0.0001314999999999,0.0004965,0.8964165,-0.3312744999999999,0.0494775,1.0922935,-0.3225245,0.0372515,0.8945425,-0.6423945000000001,0.0831555,1.1012795,-0.6405945000000001,0.0784495,0
46,1.001342,0.7684915,0.0373335,0.848591,0.4827515,0.0043214999999999,0.724901,0.3970615,-0.1369285,1.173661,0.5050815,0.0160165,1.294961,0.4019415,-0.1181985,0.786471,0.5604315,-0.2670185,1.305801,0.4629415,-0.3103185,0.924583,-0.0001954999999999,-0.0005135,1.075417,0.0001954999999999,0.0005135,0.896331,-0.3306985,0.0493775,1.092301,-0.3223884999999999,0.0372675,0.894298,-0.6424585,0.0831715,1.100991,-0.6410585,0.0782684999999999,0
47,1.0018555,0.768551,0.0388565,0.8481875,0.486351,0.0053565,0.7197975,0.417801,-0.1450245,1.1734475,0.505521,0.0159795,1.3029775,0.4191209999999999,-0.1274144999999999,0.7777875,0.585731,-0.2675745,1.3117475,0.510171,-0.3149645,0.9245505,-0.000282,-0.0005314999999999,1.0754495,0.000282,0.0005314999999999,0.8962295,-0.330769,0.0492925,1.0922575,-0.322689,0.0372845,0.8940725,-0.642919,0.0831855,1.1006975,-0.641929,0.0780535,0
48,1.002316,0.7679315,0.0401355,0.846181,0.4898115,0.0068705,0.714151,0.4366315,-0.1504975,1.173181,0.5056815,0.0158875,1.310231,0.4374315,-0.1358075,0.768621,0.6110915,-0.2676975,1.317111,0.5525715,-0.3159075,0.924513,-0.0002815,-0.0005444999999999,1.075487,0.0002814999999999,0.0005445,0.896041,-0.3317085,0.0492335,1.092161,-0.3236485,0.0372945,0.893846,-0.6439385,0.0832025,1.100391,-0.6431785,0.0778475,0
49,1.0027205,0.7670859999999999,0.0412865,0.8454595,0.490506,0.0072325,0.7085195,0.454476,-0.1544054999999999,1.1728895,0.506076,0.0158075,1.3162895,0.457546,-0.1400755,0.7600795000000001,0.635666,-0.2678155,1.3205495,0.5970759999999999,-0.3158355,0.9244745,-0.000303,-0.0005304999999999,1.0755255,0.0003029999999999,0.0005305,0.8958365,-0.332764,0.0491695,1.0920495,-0.324804,0.0373015,0.8935905,-0.645154,0.0832145,1.1000595,-0.6444840000000001,0.0776645,0
50,1.0030279999999998,0.7660779999999999,0.0422325,0.84465,0.491438,0.0076655,0.70374,0.473638,-0.1558604999999999,1.17255,0.5064879999999999,0.0155565,1.32021,0.477928,-0.1427505,0.7518500000000001,0.6617179999999999,-0.2678905,1.32318,0.636108,-0.3157405,0.924422,-0.000344,-0.0004814999999999,1.075578,0.0003439999999999,0.0004815,0.8956040000000001,-0.333852,0.0491345,1.09195,-0.326022,0.0372815,0.893288,-0.646482,0.0832455,1.09972,-0.6459320000000001,0.0775105,0
51,1.0032519999999998,0.76479,0.0430465,0.843735,0.4928099999999999,0.0081435,0.699805,0.49282,-0.1558495,1.172185,0.50708,0.0153335,1.322985,0.49976,-0.1454295,0.7438750000000001,0.6813,-0.2656794999999999,1.325575,0.67324,-0.3093594999999999,0.924396,-0.000392,-0.0004245,1.075604,0.000392,0.0004245,0.895321,-0.33523,0.0491324999999999,1.091835,-0.32748,0.0372155,0.8929390000000001,-0.64806,0.0832965,1.099355,-0.64762,0.0774105,0
52,1.0034575,0.7632725,0.0438495,0.8427885000000002,0.4941725,0.0087335,0.6964385,0.5099825,-0.1557224999999999,1.1717785,0.5079625,0.0150515,1.3243385,0.5218625,-0.1473725,0.7360185,0.7003625,-0.2616325,1.3276585,0.7069125,-0.3086025,0.9243805,-0.0004425,-0.0003184999999999,1.0756195,0.0004425,0.0003185,0.8949955,-0.3370275,0.0492555,1.0917285,-0.3291374999999999,0.0371935,0.8925775,-0.6498875,0.0834455,1.0989785,-0.6494475,0.0774445,0
53,1.0036065,0.7614645,0.044466,0.8420115,0.4958045,0.009386,0.6941714999999999,0.5280745,-0.1554849999999999,1.1712815,0.5089144999999999,0.014764,1.3240015,0.5425645,-0.1471049999999999,0.7291015000000001,0.7229945,-0.256655,1.3288115,0.7371145,-0.301055,0.9243675,-0.0004615,-0.0002139999999999,1.0756325,0.0004615,0.0002139999999999,0.8947455,-0.3391254999999999,0.049441,1.0916515,-0.3309255,0.037163,0.8922335000000001,-0.6519955000000001,0.083662,1.0986215,-0.6515455,0.077566,0
54,1.0037675,0.7592530000000001,0.0449595,0.8414945,0.4977729999999999,0.0101215,0.6936945,0.544393,-0.1545015,1.1706545,0.510023,0.0145725,1.3236945,0.5636530000000001,-0.1467415,0.7225845,0.743133,-0.2489414999999999,1.3293645,0.765233,-0.2918815,0.9243595,-0.0004349999999999,-0.0001384999999999,1.0756405,0.0004349999999999,0.0001384999999999,0.8945855,-0.341557,0.0496585,1.0916645,-0.332997,0.0371575,0.8919155,-0.6544869999999999,0.0839685,1.0982945,-0.653967,0.0777865,0
55,1.0038875,0.756827,0.0453925,0.8410715,0.499447,0.0108795,0.6933215000000001,0.5597970000000001,-0.1495445,1.1699315,0.511387,0.0144555,1.3233915,0.5838270000000001,-0.1463145,0.7169715,0.7590570000000001,-0.2400545,1.3291215,0.7894070000000001,-0.2807445,0.9243665,-0.000363,-8.650000000000324e-05,1.0756335,0.000363,8.650000000000324e-05,0.8944825000000001,-0.344013,0.0499115,1.0916515,-0.335153,0.0372055,0.8915825,-0.657203,0.0843365,1.0979915,-0.6566029999999999,0.0781105,0
56,1.0039779999999998,0.7541905,0.04593,0.8407560000000001,0.5012004999999999,0.0117309999999999,0.692966,0.5748705,-0.144373,1.169166,0.5128005,0.0145069999999999,1.321896,0.6035404999999999,-0.143203,0.711596,0.7744805,-0.230203,1.328656,0.8123604999999999,-0.269143,0.924386,-0.0002334999999999,-8.400000000000074e-05,1.075614,0.0002335,8.39999999999938e-05,0.89444,-0.3465395,0.0501869999999999,1.091666,-0.3374895,0.037362,0.891273,-0.6601495000000001,0.0848009999999999,1.097706,-0.6594795,0.078573,0
57,1.0040794999999998,0.7513805,0.0465765,0.8404735,0.5031805,0.0125825,0.6925735,0.5888504999999999,-0.1364425,1.1683335,0.5142405000000001,0.0147365,1.3197435,0.6216005,-0.1392625,0.7073134999999999,0.7885005,-0.2195725,1.3282135,0.8327505,-0.2576325,0.9244095,-4.34999999999984e-05,-0.0001304999999999,1.0755905,4.350000000000187e-05,0.0001304999999999,0.8945245,-0.3490095,0.0504705,1.0916935,-0.3400595,0.0376355,0.8909905,-0.6633095,0.0853775,1.0974735,-0.6627495000000001,0.0791545,0
58,1.00417,0.748525,0.047261,0.840176,0.505075,0.0134989999999999,0.6927559999999999,0.602805,-0.127807,1.167336,0.515795,0.0151909999999999,1.316356,0.6363150000000001,-0.134397,0.703526,0.802895,-0.208077,1.327756,0.849805,-0.246437,0.924446,0.000164,-0.000247,1.075554,-0.000164,0.0002469999999999,0.894651,-0.351365,0.050801,1.091696,-0.342575,0.037977,0.890665,-0.666615,0.0860529999999999,1.097176,-0.666015,0.0798379999999999,0
59,1.0042995,0.7457035,0.0477695,0.8399085,0.5067635,0.0144125,0.6937185,0.6148235,-0.1193725,1.1663885,0.5174535,0.0158825,1.3120984999999998,0.6512535,-0.1280925,0.7009185,0.8150035,-0.1963424999999999,1.3271085,0.8655735,-0.2344025,0.9244965,0.0004035,-0.0004334999999999,1.0755035,-0.0004035,0.0004335,0.8948755,-0.3534865,0.0510905,1.0916785,-0.3450665,0.0384245,0.8903805,-0.6699665,0.0867695,1.0969285,-0.6693865,0.0805625,0
60,1.00446,0.7429870000000001,0.0482125,0.8397209999999999,0.508067,0.0153995,0.6955709999999999,0.625937,-0.1104915,1.165441,0.518937,0.0166745,1.307311,0.664177,-0.1210915,0.6990810000000001,0.829727,-0.1843814999999999,1.326111,0.879367,-0.2217315,0.924549,0.000662,-0.0007414999999999,1.075451,-0.0006619999999999,0.0007415,0.895096,-0.355373,0.0514195,1.091621,-0.347593,0.0389785,0.8900939999999999,-0.673293,0.0875575,1.096731,-0.672763,0.0813495,0
61,1.004653,0.740358,0.048507,0.839751,0.509608,0.01637,0.697651,0.636658,-0.101642,1.164661,0.520338,0.017472,1.302001,0.675798,-0.1137219999999999,0.698171,0.842738,-0.173112,1.325021,0.892288,-0.2094519999999999,0.9246,0.0008929999999999,-0.0011129999999999,1.0754,-0.000893,0.001113,0.895394,-0.3571519999999999,0.051767,1.091581,-0.3498819999999999,0.039533,0.88984,-0.676482,0.088346,1.096591,-0.676062,0.082112,0
62,1.0048735,0.7378905,0.0487055,0.8399715,0.5108805000000001,0.0172874999999999,0.6998314999999999,0.6462605,-0.0932225,1.1639515,0.5218105000000001,0.0182554999999999,1.2966015,0.6856605,-0.1066925,0.6975715,0.8507505,-0.1614025,1.3234115,0.9044405,-0.1969325,0.9246355,0.0011234999999999,-0.0015184999999999,1.0753645,-0.0011234999999999,0.0015184999999999,0.8957015000000002,-0.3587395,0.0520954999999999,1.0914715,-0.3519195,0.0400465,0.8895805,-0.6795595,0.0891435,1.0964115,-0.6792895,0.0828825,0
63,1.005177,0.7357834999999999,0.0488465,0.8400770000000001,0.5117335,0.0183075,0.702257,0.6564335,-0.0850074999999999,1.163477,0.5229834999999999,0.0191045,1.291337,0.6944334999999999,-0.0993775,0.697247,0.8586435,-0.1495574999999999,1.321667,0.9148335,-0.1849174999999999,0.924686,0.0013804999999999,-0.0019744999999999,1.075314,-0.0013804999999999,0.0019745,0.896092,-0.3598665,0.0523155,1.091387,-0.3537765,0.0406555,0.8894110000000001,-0.6823165,0.0899755,1.096327,-0.6822865,0.0836795,0
64,1.005528,0.7337445,0.0489085,0.839947,0.5131245,0.0193135,0.7048369999999999,0.6650444999999999,-0.0788425,1.163097,0.5241445,0.0200145,1.286527,0.7022444999999999,-0.0922325,0.696917,0.8668045,-0.1383825,1.319597,0.9259945,-0.1725925,0.924728,0.0015915,-0.0024594999999999,1.075272,-0.0015914999999999,0.0024595,0.8964910000000001,-0.3608854999999999,0.0525095,1.091317,-0.3555954999999999,0.0412365,0.889252,-0.6850755000000001,0.0907875,1.096257,-0.6852955000000001,0.0844675,0
65,1.0058555,0.7319295,0.0489265,0.8398705,0.5143895,0.0202445,0.7071105,0.6731195000000001,-0.0723845,1.1626805,0.5252995,0.0209334999999999,1.2833305,0.7078695,-0.0875545,0.6966105,0.8746695,-0.1276345,1.3177505,0.9352995,-0.1611545,0.9247535,0.0017584999999999,-0.0029195,1.0752465,-0.0017585,0.0029194999999999,0.8968755,-0.3614505,0.0526045,1.0912105,-0.3570405,0.0417385,0.8890745,-0.6876304999999999,0.0915354999999999,1.0961705,-0.6880505,0.0852364999999999,0
66,1.0061545,0.730248,0.0489869999999999,0.8399435,0.516058,0.0212899999999999,0.7095835000000001,0.680928,-0.067289,1.1623035,0.526318,0.0217929999999999,1.2802335,0.713568,-0.083069,0.6963035,0.881088,-0.117739,1.3160735,0.944178,-0.150529,0.9247775,0.0018229999999999,-0.003318,1.0752225,-0.0018229999999999,0.0033179999999999,0.8971445,-0.3619719999999999,0.0526639999999999,1.0911035,-0.357982,0.0421089999999999,0.8888885,-0.6900120000000001,0.092234,1.0960635,-0.690662,0.085947,0
67,1.006454,0.728649,0.0489864999999999,0.840176,0.517939,0.0223634999999999,0.712256,0.6881390000000001,-0.0625645,1.161966,0.526889,0.0225495,1.277516,0.7188990000000001,-0.0791544999999999,0.696386,0.887699,-0.1079644999999999,1.314616,0.952749,-0.1403545,0.924778,0.001888,-0.0036834999999999,1.075222,-0.001888,0.0036834999999999,0.897412,-0.362301,0.0525975,1.091006,-0.3589009999999999,0.0424444999999999,0.888768,-0.692261,0.0928635,1.096006,-0.693271,0.0866115,0
68,1.006763,0.727225,0.0490625,0.840376,0.5196350000000001,0.0233915,0.714886,0.6943050000000001,-0.0581904999999999,1.161666,0.527595,0.0232305,1.275096,0.722595,-0.0756604999999999,0.696636,0.893565,-0.0991504999999999,1.313446,0.960625,-0.1312605,0.924774,0.001901,-0.0040014999999999,1.075226,-0.001901,0.0040015,0.897625,-0.3627149999999999,0.0525775,1.090936,-0.359705,0.0427205,0.888657,-0.694365,0.0934575,1.095906,-0.695685,0.0872335,0
69,1.0070605,0.7260295,0.0490954999999999,0.8406615,0.5212795,0.0244204999999999,0.7173915,0.6998595,-0.0541265,1.1613515,0.5283095,0.0238304999999999,1.2727715,0.7261595,-0.0724865,0.6971615,0.8970295,-0.0918264999999999,1.3124415,0.9674295,-0.1232565,0.9247745,0.0019064999999999,-0.0042065,1.0752255,-0.0019064999999999,0.0042064999999999,0.8977825000000001,-0.3629805,0.0524284999999999,1.0908715,-0.3602905,0.0429354999999999,0.8885475,-0.6962905,0.0939685,1.0958115,-0.6980105,0.0877425,0
70,1.0073185,0.7249334999999999,0.0491435,0.8407344999999999,0.5227434999999999,0.0254145,0.7199045,0.7046235,-0.0504795,1.1610245,0.5288134999999999,0.0243844999999999,1.2707544999999998,0.7291034999999999,-0.0696595,0.6976745,0.9005034999999999,-0.0846295,1.3115245,0.9728135,-0.1163995,0.9247725,0.0019544999999999,-0.0043745,1.0752275,-0.0019544999999999,0.0043744999999999,0.8979055000000001,-0.3632464999999999,0.0522394999999999,1.0908045,-0.3609165,0.0430814999999999,0.8884395,-0.6981965,0.0944345,1.0957145,-0.7001765000000001,0.0882145,0
71,1.007524,0.7239565,0.0491554999999999,0.840784,0.5241365,0.0263744999999999,0.7225239999999999,0.7092164999999999,-0.0470585,1.160674,0.5291564999999999,0.0248194999999999,1.268884,0.7315665,-0.0670955,0.697944,0.9029965,-0.0786555,1.310794,0.9775265,-0.1103755,0.924765,0.0019904999999999,-0.0044865,1.075235,-0.0019905,0.0044864999999999,0.898001,-0.3635735,0.0520264999999999,1.090784,-0.3616335,0.0432505,0.888299,-0.6999835,0.0948155,1.095624,-0.7020635000000001,0.0886424999999999,0
72,1.007701,0.7231960000000001,0.049129,0.840803,0.525636,0.027247,0.724923,0.712516,-0.0441499999999999,1.160323,0.5297160000000001,0.025024,1.267233,0.733766,-0.06489,0.6979930000000001,0.905366,-0.07332,1.310253,0.982016,-0.10502,0.924759,0.001957,-0.004526,1.075241,-0.001957,0.004526,0.898083,-0.3640739999999999,0.051845,1.090763,-0.362274,0.043296,0.8881680000000001,-0.701674,0.095069,1.095513,-0.703804,0.088945,0
73,1.0077995,0.7224700000000001,0.0491239999999999,0.8407465000000001,0.5273100000000001,0.028109,0.7271165000000002,0.7155100000000001,-0.041582,1.1599965,0.5299,0.0250849999999999,1.2657965,0.7354700000000001,-0.062998,0.6978565,0.90736,-0.068738,1.3100365,0.98371,-0.101378,0.9247515,0.0018639999999999,-0.004464,1.0752485,-0.0018639999999999,0.0044639999999999,0.8981375,-0.36469,0.051661,1.0907465,-0.36301,0.0433589999999999,0.8880385,-0.70334,0.095308,1.0953865,-0.70553,0.08924,0
74,1.007882,0.721874,0.0490925,0.840721,0.528784,0.0288964999999999,0.729101,0.7182540000000001,-0.0393945,1.159761,0.530224,0.0251104999999999,1.264581,0.7373540000000001,-0.0613985,0.697751,0.908944,-0.0652385,1.309871,0.985404,-0.0978885,0.924754,0.0017439999999999,-0.0043635,1.075246,-0.001744,0.0043634999999999,0.898198,-0.365496,0.0514784999999999,1.090801,-0.363826,0.0434214999999999,0.887931,-0.704936,0.0954925,1.095281,-0.707136,0.0894885,0
75,1.0078745,0.7214685000000001,0.0490215,0.8406454999999999,0.5294885,0.0292715,0.7306155,0.7203085,-0.0376195,1.1594855,0.5306085,0.0250715,1.2635555,0.7385585,-0.0601455,0.6976454999999999,0.9101885,-0.0624655,1.3097455,0.9866385,-0.0950355,0.9247585,0.0016285,-0.0042745,1.0752415,-0.0016284999999999,0.0042745,0.8982365000000001,-0.3662014999999999,0.0512455,1.0908255,-0.3647815,0.0434984999999999,0.8877885000000001,-0.7064015,0.0955965,1.0951555,-0.7085914999999999,0.0896855,0
76,1.007853,0.7212695,0.048985,0.840597,0.5298795,0.0295059999999999,0.731787,0.7218895,-0.036266,1.159287,0.5310695,0.024966,1.262717,0.7399595,-0.059058,0.697497,0.9098795,-0.060848,1.309667,0.9874895,-0.092758,0.924756,0.0015275,-0.004158,1.075244,-0.0015274999999999,0.004158,0.898316,-0.3668905,0.051065,1.090877,-0.3656304999999999,0.0435409999999999,0.8876920000000001,-0.7076205,0.0956549999999999,1.095047,-0.7098405,0.089812,0
77,1.0077855,0.721135,0.048943,0.8403275,0.530315,0.029763,0.7326775,0.723055,-0.03526,1.1590575,0.531355,0.024853,1.2620275,0.741035,-0.058252,0.6970475,0.909395,-0.0594419999999999,1.3095975,0.988145,-0.0909119999999999,0.9247625,0.001453,-0.0040619999999999,1.0752375,-0.0014529999999999,0.004062,0.8983685,-0.3675049999999999,0.050878,1.0908775,-0.366405,0.043577,0.8875735,-0.708765,0.095688,1.0949475,-0.710935,0.089932,0
78,1.007693,0.720995,0.048936,0.840403,0.530715,0.030039,0.733283,0.723515,-0.034443,1.158813,0.531655,0.024705,1.261483,0.741825,-0.0576209999999999,0.696453,0.908965,-0.0582309999999999,1.309483,0.987215,-0.089541,0.924762,0.001373,-0.0039799999999999,1.075238,-0.0013729999999999,0.00398,0.898419,-0.368125,0.050784,1.090903,-0.367075,0.043602,0.887435,-0.709715,0.095683,1.094843,-0.712045,0.090043,0
79,1.0076189999999998,0.7209265,0.048961,0.840379,0.5311065,0.030174,0.7336590000000001,0.7237865,-0.0337719999999999,1.158589,0.5319265000000001,0.024563,1.261069,0.7425965,-0.0570409999999999,0.695829,0.9082765,-0.057341,1.309459,0.9873065,-0.088111,0.92476,0.0012894999999999,-0.0039089999999999,1.07524,-0.0012894999999999,0.003909,0.898493,-0.3686534999999999,0.050704,1.090949,-0.3677135,0.043666,0.887327,-0.7105135,0.095672,1.094769,-0.7131035,0.090146,0
80,1.0075335,0.7208485,0.0490235,0.8403205,0.5315084999999999,0.0303374999999999,0.7336205,0.7235985,-0.0334885,1.1584105,0.5321585,0.0244574999999999,1.2607905,0.7431285000000001,-0.0566075,0.6951205,0.9076085,-0.0566575,1.3094205,0.9866085,-0.0872275,0.9247675,0.0011855,-0.0038265,1.0752325,-0.0011854999999999,0.0038264999999999,0.8985795,-0.3690715,0.0506164999999999,1.0910205,-0.3683214999999999,0.0437144999999999,0.8872665,-0.7111814999999999,0.0956455,1.0947105,-0.7140715,0.0902195,0
81,1.0073925,0.7206389999999999,0.049069,0.8402735,0.5317689999999999,0.030584,0.7335735,0.723229,-0.033245,1.1582435,0.532269,0.024411,1.2606035,0.743389,-0.056301,0.6943035,0.906949,-0.0560809999999999,1.3093535,0.985889,-0.086781,0.9247755,0.0010949999999999,-0.0037309999999999,1.0752245,-0.0010949999999999,0.003731,0.8986705,-0.3694309999999999,0.050527,1.0910835,-0.368861,0.043745,0.8872165,-0.711801,0.095605,1.0946535,-0.7147910000000001,0.090351,0
82,1.007235,0.72061,0.049066,0.840226,0.5316000000000001,0.030711,0.733536,0.72295,-0.033087,1.158056,0.5324199999999999,0.024364,1.260476,0.74353,-0.056062,0.693486,0.9065,-0.0555819999999999,1.309286,0.98544,-0.086462,0.924784,0.0010719999999999,-0.0036679999999999,1.075216,-0.001072,0.0036679999999999,0.898769,-0.3695,0.050384,1.091136,-0.36918,0.043728,0.8871790000000002,-0.71221,0.0955179999999999,1.094606,-0.7152400000000001,0.090429,0
83,1.0070555,0.7206250000000001,0.049084,0.8400625000000002,0.531435,0.030846,0.7335125,0.722715,-0.032998,1.1578825,0.5323450000000001,0.02432,1.2604125,0.7434850000000001,-0.0558879999999999,0.6926525,0.906015,-0.0551379999999999,1.3092325,0.985415,-0.0862879999999999,0.9247845,0.0010599999999999,-0.0036179999999999,1.0752155,-0.00106,0.003618,0.8988725,-0.3694349999999999,0.050257,1.0911825,-0.369375,0.043725,0.8871565000000001,-0.712475,0.095447,1.0946425,-0.715565,0.09047,0
84,1.0068595,0.7206775000000001,0.0491235,0.8398105000000001,0.5313275,0.0309065,0.7333605000000001,0.7225174999999999,-0.0329415,1.1577305,0.5322175,0.0242695,1.2603605,0.7433475,-0.0556745,0.6919105,0.9058175,-0.0548445,1.3091605,0.9846175,-0.0861244999999999,0.9247865,0.0010845,-0.0035784999999999,1.0752135,-0.0010844999999999,0.0035784999999999,0.8989825,-0.3693125,0.0501585,1.0912305,-0.3694825,0.0437194999999999,0.8871645000000001,-0.7125925,0.0953725,1.0947005,-0.7157825,0.0905205,0
85,1.006662,0.7207245,0.0492079999999999,0.83967,0.5312445,0.0308859999999999,0.73306,0.7223645,-0.032892,1.15759,0.5320945,0.0242629999999999,1.26032,0.7431945,-0.055529,0.6912499999999999,0.9056645,-0.054779,1.3091,0.9840645,-0.085959,0.924786,0.0010784999999999,-0.003548,1.075214,-0.0010785,0.0035479999999999,0.8990570000000001,-0.3692655,0.0500789999999999,1.09126,-0.3695855,0.0437149999999999,0.8871630000000001,-0.7126855,0.0953,1.09474,-0.7159855,0.0905739999999999,0
86,1.0064675,0.720758,0.04932,0.8395005,0.531168,0.030897,0.7326705,0.7222379999999999,-0.0328699999999999,1.1573705,0.531988,0.024225,1.2602705,0.743068,-0.055396,0.6907105,0.905518,-0.054786,1.3090405,0.983538,-0.0857159999999999,0.9247855,0.0010729999999999,-0.0035289999999999,1.0752145,-0.001073,0.003529,0.8991205,-0.369202,0.049991,1.0912805,-0.369652,0.043692,0.8871755,-0.712762,0.095222,1.0947605,-0.716242,0.090603,0
87,1.0062605,0.720826,0.0494405,0.8393095,0.5310860000000001,0.0309264999999999,0.7322895,0.7220260000000001,-0.0328825,1.1571295,0.531906,0.0242034999999999,1.2602295,0.742946,-0.0552635,0.6903995,0.905256,-0.0548135,1.3089795,0.983016,-0.0854535,0.9247945,0.001065,-0.0035195,1.0752055,-0.0010649999999999,0.0035194999999999,0.8991595,-0.369164,0.0498884999999999,1.0912895,-0.369734,0.0436374999999999,0.8871865,-0.7128639999999999,0.0951625,1.0947895,-0.716514,0.0906235,0
88,1.006057,0.7208895,0.0495535,0.839107,0.5309895,0.0309585,0.7319169999999999,0.7217995,-0.0328995,1.156877,0.5318595,0.0242085,1.2601969999999998,0.7427695,-0.0551244999999999,0.690267,0.9050495,-0.0548245,1.308927,0.9825095,-0.0851745,0.924802,0.0010595,-0.0035084999999999,1.075198,-0.0010595,0.0035084999999999,0.899182,-0.3691305,0.0498005,1.091297,-0.3697805,0.0435795,0.887193,-0.7129705,0.0951185,1.094827,-0.7167305,0.0906395,0
89,1.005861,0.7209995,0.049664,0.83904,0.5309295,0.030955,0.7316,0.7216095,-0.032924,1.15665,0.5317995,0.024185,1.26017,0.7426094999999999,-0.0549939999999999,0.6902600000000001,0.9048995,-0.0549639999999999,1.30887,0.9820495,-0.0849039999999999,0.924809,0.0010705,-0.0034889999999999,1.075191,-0.0010705,0.0034889999999999,0.899205,-0.3690005,0.049683,1.09131,-0.3697705,0.043496,0.887208,-0.7130304999999999,0.095067,1.09485,-0.7169505,0.090649,0
90,1.0057,0.7211035,0.0497725,0.838994,0.5308835,0.0309445,0.731384,0.7214834999999999,-0.0329504999999999,1.156454,0.5317535,0.0241895,1.260154,0.7424634999999999,-0.0548665,0.690284,0.9048135,-0.0552465,1.308764,0.9819935,-0.0846665,0.924809,0.0010965,-0.0034655,1.075191,-0.0010965,0.0034655,0.899231,-0.3688565,0.0495545,1.091334,-0.3697565,0.0434105,0.887243,-0.7131265,0.0950235,1.094884,-0.7170065,0.0906595,0
91,1.0055515,0.721202,0.049874,0.8389885000000001,0.530812,0.030904,0.7312485,0.721362,-0.032998,1.1562885,0.5316919999999999,0.024205,1.2601385,0.742302,-0.0547659999999999,0.6903285,0.904742,-0.055576,1.3086485,0.981222,-0.084436,0.9248095,0.001124,-0.0034429999999999,1.0751905,-0.001124,0.003443,0.8992665,-0.368758,0.049417,1.0913585,-0.369768,0.043289,0.8872885,-0.713238,0.094984,1.0949485,-0.717078,0.090657,0
92,1.005438,0.7213145,0.0499785,0.8389700000000001,0.5307445,0.0308935,0.73114,0.7212945,-0.0330914999999999,1.15612,0.5316345,0.0242325,1.26014,0.7421345,-0.0546824999999999,0.69038,0.9046745,-0.0561524999999999,1.30857,0.9802545,-0.0843024999999999,0.92481,0.0011594999999999,-0.0034264999999999,1.07519,-0.0011595,0.0034264999999999,0.899309,-0.3687455,0.0493125,1.09138,-0.3697855,0.0431535,0.887332,-0.7133655,0.0949275,1.09502,-0.7171455,0.0906095,0
93,1.005376,0.721426,0.0500915,0.838956,0.530716,0.0309275,0.731086,0.721216,-0.0332564999999999,1.156006,0.531566,0.0242525,1.260146,0.742006,-0.0546504999999999,0.690616,0.904596,-0.0569704999999999,1.308516,0.980776,-0.0841105,0.924811,0.0012039999999999,-0.0034104999999999,1.075189,-0.0012039999999999,0.0034105,0.899357,-0.368774,0.0492205,1.091396,-0.3698039999999999,0.0429935,0.887393,-0.713494,0.0948595,1.095066,-0.717214,0.0905795,0
94,1.005343,0.7215375,0.050193,0.838981,0.5307175000000001,0.03094,0.7310909999999999,0.7211375,-0.0334719999999999,1.155951,0.5315175000000001,0.024254,1.260191,0.7419175,-0.0546319999999999,0.690951,0.9045275,-0.057752,1.308521,0.9806975,-0.084012,0.924812,0.0012474999999999,-0.0033919999999999,1.075188,-0.0012474999999999,0.0033919999999999,0.8994,-0.3687924999999999,0.049128,1.091411,-0.3698224999999999,0.042812,0.887474,-0.7136024999999999,0.094776,1.095141,-0.7172525,0.090519,0
95,1.005373,0.7216225000000001,0.0502319999999999,0.839137,0.5306125,0.0307739999999999,0.731177,0.7210725,-0.033775,1.155957,0.5314625000000001,0.0242389999999999,1.260287,0.7417925,-0.054678,0.6914370000000001,0.9045325,-0.058728,1.308537,0.9802925,-0.084178,0.924825,0.0012915,-0.003397,1.075175,-0.0012915,0.0033969999999999,0.8994310000000001,-0.3688275,0.048961,1.091447,-0.3698575,0.0425639999999999,0.8876080000000001,-0.7137375,0.0946169999999999,1.095267,-0.7172875,0.090392,0
96,1.005438,0.7216705,0.050245,0.8392850000000001,0.5305205,0.030606,0.731285,0.7210705,-0.034137,1.156005,0.5314405,0.024233,1.260385,0.7416805,-0.054742,0.691995,0.9046005,-0.059502,1.308605,0.9809905,-0.084282,0.924837,0.0013344999999999,-0.0034,1.075163,-0.0013345,0.0034,0.8994630000000001,-0.3688895,0.048785,1.091465,-0.3698694999999999,0.042292,0.887742,-0.7138895000000001,0.09446,1.095405,-0.7172795000000001,0.090222,0
97,1.0055375,0.7217089999999999,0.050246,0.8394415,0.530489,0.030441,0.7314215,0.721089,-0.0345489999999999,1.1560815,0.531409,0.024211,1.2605115,0.741539,-0.054885,0.6927715,0.904749,-0.0602449999999999,1.3087215,0.981469,-0.0844949999999999,0.9248485,0.0013909999999999,-0.003401,1.0751515,-0.001391,0.003401,0.8995085,-0.368951,0.04857,1.0915015,-0.369921,0.041965,0.8879085,-0.714041,0.094238,1.0955615,-0.717291,0.089999,0
98,1.005652,0.721746,0.050227,0.839579,0.530476,0.030289,0.731549,0.721156,-0.034994,1.156179,0.531396,0.024168,1.260649,0.741416,-0.055051,0.693519,0.904936,-0.060971,1.3088689999999998,0.981346,-0.084641,0.924859,0.001448,-0.0033899999999999,1.075141,-0.0014479999999999,0.0033899999999999,0.899561,-0.369074,0.048359,1.091559,-0.3699939999999999,0.041622,0.888065,-0.714184,0.094041,1.095709,-0.717364,0.089763,0
99,1.0057895,0.7218414999999999,0.0502175,0.8397485,0.5305015,0.0301275,0.7316985,0.7212514999999999,-0.0354854999999999,1.1562985,0.5313614999999999,0.0240345,1.2607985,0.7413015,-0.0552625,0.6942085,0.9052015,-0.0616025,1.3090585,0.9819315,-0.0848725,0.9248735,0.0014834999999999,-0.0033784999999999,1.0751265,-0.0014835,0.0033784999999999,0.8996265,-0.3691885,0.0481205,1.0916185,-0.3701185,0.0412335,0.8882395,-0.7143485,0.0937975,1.0958885,-0.7174385,0.0894505,0
100,1.0059764999999998,0.7219175,0.0501485,0.8399615,0.5305475,0.0300085,0.7318515,0.7213775,-0.0360555,1.1564415,0.5312975,0.0238195,1.2609915,0.7412175000000001,-0.0555474999999999,0.6948615,0.9054275,-0.0622975,1.3091914999999998,0.9816075,-0.0851075,0.9248945,0.0015105,-0.0033675,1.0751054999999998,-0.0015104999999999,0.0033675,0.8997025,-0.3693125,0.0478375,1.0917015,-0.3702425,0.0408115,0.8884425,-0.7145225,0.0935025,1.0961015,-0.7175624999999999,0.0891035,0
101,1.00617,0.721964,0.050018,0.8401890000000001,0.530584,0.029844,0.732029,0.721484,-0.036682,1.156589,0.531274,0.0236349999999999,1.261179,0.741104,-0.055866,0.695469,0.905644,-0.062856,1.309279,0.981174,-0.085456,0.924917,0.0015119999999999,-0.003353,1.075083,-0.0015119999999999,0.0033529999999999,0.899772,-0.369466,0.047539,1.091799,-0.370376,0.040315,0.888654,-0.7147060000000001,0.0931299999999999,1.096309,-0.7176959999999999,0.088693,0
102,1.0063535,0.7220150000000001,0.0498445,0.8403375000000001,0.530645,0.0296515,0.7322075,0.721555,-0.0373094999999999,1.1567475,0.5312650000000001,0.0234155,1.2613575,0.7409650000000001,-0.0562354999999999,0.6960875,0.905845,-0.0633455,1.3093775,0.980935,-0.0858254999999999,0.9249485,0.0014949999999999,-0.0033604999999999,1.0750515,-0.0014949999999999,0.0033605,0.8998315,-0.369665,0.0472195,1.0919375,-0.370515,0.0397815,0.8888705000000001,-0.7148950000000001,0.0927215,1.0965175,-0.717835,0.0881865,0
103,1.0065265,0.722088,0.0496859999999999,0.8404955000000001,0.530738,0.0293849999999999,0.7323755000000001,0.721598,-0.037975,1.1568755,0.531268,0.0232199999999999,1.2615355,0.740768,-0.056621,0.6966555,0.906088,-0.063931,1.3094955,0.980798,-0.086141,0.9249845,0.001463,-0.003393,1.0750155,-0.0014629999999999,0.003393,0.8998255,-0.369992,0.046748,1.0920855,-0.370742,0.0391619999999999,0.8890815,-0.715132,0.092196,1.0967455,-0.718042,0.087565,0
104,1.00667,0.7222275,0.0494649999999999,0.840668,0.5307774999999999,0.0289399999999999,0.732548,0.7214974999999999,-0.038582,1.156968,0.5312975,0.0228969999999999,1.261668,0.7405975,-0.057058,0.697198,0.9063575,-0.064588,1.309588,0.9805975,-0.086598,0.925009,0.0014004999999999,-0.003383,1.074991,-0.0014004999999999,0.0033829999999999,0.899807,-0.3702725,0.0461379999999999,1.0922379999999998,-0.3710525,0.0384479999999999,0.889258,-0.7153825,0.0915899999999999,1.096908,-0.7183124999999999,0.086787,0
105,1.0068499999999998,0.722395,0.049115,0.8408550000000001,0.530725,0.02856,0.732735,0.721405,-0.039369,1.157085,0.531335,0.022513,1.261745,0.740375,-0.057515,0.6977450000000001,0.906675,-0.065385,1.309705,0.980405,-0.087105,0.925045,0.001308,-0.00336,1.074955,-0.001308,0.0033599999999999,0.8997539999999999,-0.370665,0.045347,1.092435,-0.371775,0.037464,0.889459,-0.715725,0.090802,1.097085,-0.718895,0.085661,0
106,1.0070024999999998,0.7225630000000001,0.04871,0.8410365,0.530653,0.028132,0.7329065,0.721333,-0.040211,1.1571665,0.531383,0.022072,1.2616865,0.740083,-0.0579569999999999,0.6981165,0.906933,-0.066147,1.3098465,0.980933,-0.0876169999999999,0.9250735,0.001236,-0.0033279999999999,1.0749265,-0.001236,0.003328,0.8995965,-0.371207,0.0445,1.0925765,-0.372867,0.03615,0.8896625,-0.716127,0.089886,1.0972265,-0.719607,0.084379,0
107,1.007146,0.7227005000000001,0.0482705,0.841292,0.5305705000000001,0.0275795,0.733072,0.7209305,-0.0410925,1.1572319999999998,0.5313805,0.0216025,1.261612,0.7398405,-0.0585045,0.698482,0.9068805,-0.0669845,1.310002,0.9812805,-0.0882045,0.925108,0.0011835,-0.0032984999999999,1.074892,-0.0011834999999999,0.0032985,0.8993340000000001,-0.3719895,0.0434675,1.092752,-0.3744794999999999,0.0344145,0.8899400000000001,-0.7166595,0.0887975,1.097382,-0.7205294999999999,0.0828435,0
108,1.007283,0.722796,0.047667,0.8415630000000001,0.530586,0.026896,0.7332930000000001,0.720186,-0.041965,1.157243,0.531436,0.021046,1.261443,0.739596,-0.0591789999999999,0.698743,0.906906,-0.068009,1.310053,0.981106,-0.088919,0.925128,0.0011469999999999,-0.003262,1.074872,-0.0011469999999999,0.003262,0.899006,-0.372874,0.042135,1.092913,-0.376494,0.032186,0.890182,-0.717174,0.087506,1.097493,-0.721534,0.08097,0
109,1.007407,0.722869,0.047025,0.84183,0.530649,0.026064,0.73351,0.7193590000000001,-0.042827,1.15718,0.531509,0.020444,1.26125,0.739379,-0.059931,0.69896,0.906979,-0.069211,1.31004,0.980479,-0.089811,0.925105,0.001074,-0.0032239999999999,1.074895,-0.0010739999999999,0.0032239999999999,0.898593,-0.3738209999999999,0.040578,1.09309,-0.378841,0.029572,0.890414,-0.717711,0.08607,1.09756,-0.722641,0.078859,0
110,1.0075635,0.7229675,0.0462909999999999,0.8421755000000001,0.5306675000000001,0.0251279999999999,0.7337655000000001,0.7183975,-0.043816,1.1571355,0.5316075,0.0197849999999999,1.2610655,0.7391775,-0.060791,0.6994255,0.9065575,-0.070481,1.3101555,0.9805775,-0.090751,0.9250925,0.0009755,-0.003195,1.0749075,-0.0009754999999999,0.0031949999999999,0.8981045,-0.3749625,0.0387249999999999,1.0933155,-0.3813824999999999,0.0266279999999999,0.8906835,-0.7183025,0.084363,1.0976355,-0.7239625,0.076428,0
111,1.007702,0.7231145,0.045402,0.842619,0.5305545,0.0240519999999999,0.734039,0.7174245,-0.04496,1.157069,0.5317545,0.0190059999999999,1.260819,0.7389745000000001,-0.061715,0.6998790000000001,0.9058245,-0.072015,1.309999,0.9800245,-0.091845,0.925061,0.0008284999999999,-0.003184,1.074939,-0.0008284999999999,0.0031839999999999,0.897583,-0.3760355,0.036395,1.093589,-0.3838655,0.0230909999999999,0.890951,-0.7189355,0.082282,1.097679,-0.7253354999999999,0.073602,0
112,1.0078435,0.7232145,0.044375,0.8431335,0.5302245,0.022839,0.7343335000000001,0.7165045,-0.046291,1.1570335,0.5319545,0.018052,1.2605835,0.7388545,-0.06292,0.7005035,0.9050245,-0.07378,1.3098135,0.9790745,-0.0932499999999999,0.9250225,0.0006855,-0.003192,1.0749775,-0.0006855,0.003192,0.8970905,-0.3769455,0.033622,1.0939435,-0.3859654999999999,0.019045,0.8912145,-0.7194555,0.079929,1.0976935,-0.7265355,0.070467,0
113,1.008002,0.7232425,0.043222,0.8437250000000001,0.5298725,0.0214829999999999,0.734715,0.7154725000000001,-0.047752,1.157025,0.5320725000000001,0.0169999999999999,1.260365,0.7387725,-0.064281,0.7013050000000001,0.9043025,-0.075701,1.309635,0.9780725,-0.094831,0.924947,0.0005835,-0.0032,1.075053,-0.0005835,0.0031999999999999,0.8965790000000001,-0.3777275,0.0303869999999999,1.094365,-0.3877374999999999,0.0145349999999999,0.891513,-0.7198074999999999,0.077249,1.097735,-0.7274975,0.067053,0
114,1.0081785,0.723167,0.0419705,0.8443645,0.529297,0.0198225,0.7351545000000002,0.714307,-0.0493534999999999,1.1570645,0.532137,0.0158345,1.2602845,0.738447,-0.0656765,0.7021545,0.903437,-0.0778345,1.3094145,0.977107,-0.0967344999999999,0.9248565,0.0004939999999999,-0.0032055,1.0751435,-0.000494,0.0032055,0.8959935,-0.378243,0.0266145,1.0949245,-0.3888629999999999,0.0092825,0.8917355,-0.719963,0.0743085,1.0977745,-0.728053,0.0635315,0
115,1.0084055,0.723025,0.040477,0.8451175000000001,0.528555,0.017995,0.7357075,0.713075,-0.051247,1.1572875,0.5320050000000001,0.014524,1.2604475,0.738205,-0.067376,0.7031675,0.902785,-0.080304,1.3092375,0.976595,-0.098964,0.9247195,0.000405,-0.003265,1.0752805,-0.000405,0.003265,0.8953495,-0.378375,0.022243,1.0956275,-0.389325,0.003506,0.8919875,-0.719895,0.071026,1.0978774999999998,-0.728325,0.059572,0
116,1.0087035,0.7227315,0.038652,0.8458735,0.5278315,0.015795,0.7363035,0.7124115,-0.0537319999999999,1.1575535,0.5318615,0.012959,1.2607335,0.7380715,-0.069423,0.7043035,0.9022715,-0.083231,1.3088935,0.9750815,-0.1016509999999999,0.9244745,0.0003475,-0.003307,1.0755255,-0.0003474999999999,0.003307,0.8947275000000001,-0.3778585,0.017334,1.0964435,-0.3890985,-0.0027229999999999,0.8922935,-0.7193685,0.067247,1.0981035,-0.7281185,0.055164,0
117,1.0090834999999998,0.7222745,0.036701,0.8466975000000001,0.5268045,0.0134979999999999,0.7369375,0.7121945000000001,-0.05654,1.1578975,0.5315645,0.0112049999999999,1.2610775,0.7378945,-0.071631,0.7055475,0.9016445,-0.086339,1.3085775,0.9727345,-0.1046189999999999,0.9241635,0.0003305,-0.00335,1.0758365,-0.0003304999999999,0.0033499999999999,0.8939695,-0.3770055,0.0120739999999999,1.0973775,-0.3883455,-0.009227,0.8926705,-0.7185555,0.063087,1.0984575,-0.7277555,0.05062,0
118,1.0094489999999998,0.721419,0.0344349999999999,0.8474590000000001,0.525799,0.0108509999999999,0.737619,0.711729,-0.059681,1.158239,0.531299,0.0091239999999999,1.261269,0.737689,-0.074054,0.706809,0.901359,-0.089837,1.308259,0.970189,-0.108017,0.923848,0.0003429999999999,-0.003349,1.076152,-0.000343,0.0033489999999999,0.893089,-0.375601,0.0062919999999999,1.098329,-0.386981,-0.016151,0.892992,-0.717301,0.0584159999999999,1.098819,-0.726911,0.0457859999999999,0
119,1.0097965,0.720392,0.032088,0.8479835,0.524412,0.008223,0.7383335,0.711192,-0.062967,1.1585735,0.530522,0.006971,1.2614335,0.737452,-0.076627,0.7078735,0.902262,-0.0935879999999999,1.3079435,0.967692,-0.111688,0.9235285,0.000417,-0.0034369999999999,1.0764715,-0.000417,0.0034369999999999,0.8920375,-0.373538,-8.89999999999988e-05,1.0992935,-0.385108,-0.023464,0.8931575,-0.7155779999999999,0.053382,1.0991735,-0.725608,0.04055,0
120,1.0101445,0.7193879999999999,0.029596,0.8485715,0.523158,0.005456,0.7390515000000001,0.710808,-0.066413,1.1589815,0.5295179999999999,0.004716,1.2616015,0.7371679999999999,-0.079568,0.7089115,0.903908,-0.097587,1.3077315,0.961768,-0.115617,0.9231895,0.0004919999999999,-0.0035199999999999,1.0768105,-0.0004919999999999,0.00352,0.8908215,-0.370902,-0.007304,1.1003815,-0.3825119999999999,-0.0312089999999999,0.8933375,-0.7132120000000001,0.0479809999999999,1.0995715,-0.723562,0.035304,0
121,1.0105225,0.7180195,0.027124,0.8491305,0.5218195,0.002866,0.7397805,0.7102595,-0.069853,1.1595205,0.5285095,0.002753,1.2615905,0.7338695,-0.081588,0.7097705000000001,0.9060495,-0.101521,1.3075705,0.9567395,-0.119591,0.9227915,0.0006215,-0.003589,1.0772085,-0.0006214999999999,0.003589,0.8892005000000001,-0.3682405,-0.0152349999999999,1.1014105,-0.3795805,-0.039216,0.8936715000000001,-0.7105905,0.042186,1.1000005,-0.7210705000000001,0.030055,0
122,1.0108045,0.7166255,0.024628,0.8497005000000001,0.5207155,0.000359,0.7404605,0.7098855000000001,-0.0734,1.1600005,0.5274255,0.000778,1.2615805,0.7311755,-0.083785,0.7105105,0.9090755,-0.105442,1.3074305,0.9527555,-0.123542,0.9223895,0.0007415,-0.0036899999999999,1.0776105,-0.0007414999999999,0.00369,0.8872805,-0.3652345,-0.023814,1.1024805,-0.3757545,-0.0476269999999999,0.8940475000000001,-0.7072744999999999,0.03597,1.1005105,-0.7178145,0.02465,0
123,1.011106,0.7153935,0.0223249999999999,0.8502930000000001,0.5192835,-0.002165,0.7412430000000001,0.7101434999999999,-0.076889,1.160613,0.5259535,-0.001102,1.261693,0.7294235,-0.086154,0.711303,0.9133335,-0.109202,1.307383,0.9500835,-0.127322,0.921961,0.0008265,-0.003755,1.078039,-0.0008265,0.003755,0.884993,-0.3621065,-0.03286,1.103593,-0.3709065,-0.055967,0.894437,-0.7028665000000001,0.029626,1.101153,-0.7133865,0.019074,1
124,1.011428,0.713767,0.0201495,0.850911,0.518357,-0.0047305,0.742081,0.710177,-0.0802435,1.161021,0.524957,-0.0029405,1.261891,0.727657,-0.0883164999999999,0.712631,0.915947,-0.1126305,1.307431,0.948247,-0.1309905,0.921659,0.0009489999999999,-0.0038135,1.078341,-0.0009489999999999,0.0038135,0.882861,-0.358493,-0.0418305,1.104731,-0.365853,-0.0643935,0.894896,-0.698313,0.0229075,1.101941,-0.708283,0.0135665,1
125,1.0117145,0.713035,0.0180115,0.8515655,0.518085,-0.0071435,0.7430255,0.710355,-0.0834235,1.1613755,0.524535,-0.0047705,1.2620555,0.725865,-0.0902405,0.7142355,0.916915,-0.1160065,1.3075955,0.947975,-0.1340865,0.9214095,0.00102,-0.0037264999999999,1.0785905,-0.00102,0.0037265,0.8807655,-0.354085,-0.0509555,1.1059855,-0.360195,-0.0728525,0.8957595,-0.693005,0.0161025,1.1026855,-0.702115,0.0080655,1
126,1.0119855,0.7116545000000001,0.01615,0.8522015000000001,0.5164345,-0.0093969999999999,0.7440015,0.7103345000000001,-0.086367,1.1617015,0.5236045,-0.0061859999999999,1.2622515,0.7252445000000001,-0.092059,0.7159815,0.9164045,-0.119507,1.3077515,0.9492745,-0.1368069999999999,0.9212345,0.0011865,-0.0035779999999999,1.0787655,-0.0011865,0.003578,0.8788015,-0.3487355,-0.060334,1.1073015,-0.3543655,-0.081407,0.8967605,-0.6864555,0.009458,1.1034715,-0.6944855,0.002368,1
127,1.012268,0.710652,0.014775,0.852882,0.5156719999999999,-0.011264,0.744902,0.710642,-0.089064,1.162102,0.5216719999999999,-0.00732,1.262512,0.724992,-0.0936529999999999,0.717832,0.916352,-0.122471,1.307952,0.951792,-0.138821,0.920946,0.001409,-0.0034389999999999,1.079054,-0.0014089999999999,0.003439,0.876972,-0.342958,-0.069712,1.108722,-0.348318,-0.089783,0.89801,-0.679018,0.003203,1.104232,-0.685718,-0.003129,1
128,1.0125395,0.7089265,0.0135604999999999,0.8536575,0.5159265,-0.0131045,0.7457075,0.7102365,-0.0913875,1.1625275,0.5202365,-0.0083095,1.2627075,0.7239565,-0.0950555,0.7197775,0.9151065,-0.1252485,1.3076875,0.9495865,-0.1401485,0.9205725,0.0016755,-0.0032815,1.0794275,-0.0016755,0.0032814999999999,0.8753475,-0.3375835,-0.0787675,1.1101775,-0.3435735,-0.0983465,0.8993925,-0.6714735,-0.0025835,1.1048475,-0.6768235,-0.0082775,1
129,1.0127665,0.7075349999999999,0.012558,0.8542625,0.514875,-0.0143419999999999,0.7463825,0.710175,-0.0936449999999999,1.1628825,0.519165,-0.0090329999999999,1.2628724999999998,0.723885,-0.09611,0.7217525,0.912875,-0.12784,1.3075025,0.953495,-0.14122,0.9202045,0.001909,-0.0031519999999999,1.0797955,-0.0019089999999999,0.003152,0.8738725,-0.331545,-0.0873299999999999,1.1115725,-0.337675,-0.1065769999999999,0.9008505,-0.662815,-0.0078489999999999,1.1053225,-0.666915,-0.0132269999999999,1
130,1.013007,0.7064689999999999,0.0115494999999999,0.8549800000000001,0.5140589999999999,-0.0157365,0.74708,0.710329,-0.0956994999999999,1.16312,0.518219,-0.0098145,1.26329,0.7265889999999999,-0.0979405,0.72378,0.910309,-0.1303445,1.30735,0.957329,-0.1422645,0.919852,0.002155,-0.0030235,1.080148,-0.002155,0.0030234999999999,0.87285,-0.324801,-0.0952755,1.11302,-0.331201,-0.1144075,0.902424,-0.653421,-0.0126045,1.10588,-0.6563110000000001,-0.0183195,1
131,1.0132165,0.7056015,0.010529,0.8557635,0.5128415000000001,-0.017122,0.7478235,0.7101215,-0.0977669999999999,1.1631335,0.5166015,-0.010761,1.2636635,0.7285915,-0.099697,0.7257735000000001,0.9072315,-0.132802,1.3070135,0.9597115,-0.143392,0.9196105,0.0023094999999999,-0.002824,1.0803895,-0.0023094999999999,0.002824,0.8721035,-0.3177285,-0.102972,1.1145335,-0.3247085,-0.121914,0.9040795,-0.6435085,-0.017119,1.1064334999999998,-0.6454285,-0.023314,1
132,1.013373,0.70401,0.0092624999999999,0.856547,0.51225,-0.0184365,0.748397,0.70938,-0.0999355,1.163117,0.51522,-0.0119325,1.263977,0.7295400000000001,-0.1015195,0.727697,0.90364,-0.1353155,1.306597,0.96103,-0.1442155,0.919412,0.002554,-0.0027275,1.080588,-0.002554,0.0027275,0.871857,-0.30996,-0.1100324999999999,1.116007,-0.3182199999999999,-0.1290355,0.905674,-0.63369,-0.0214395,1.106947,-0.63476,-0.0280625,1
133,1.013491,0.7025735,0.0080724999999999,0.857233,0.5112635,-0.0197615,0.748983,0.7083834999999999,-0.1024075,1.162983,0.5135635000000001,-0.0131785,1.264233,0.7303035,-0.1035075,0.729093,0.8996235,-0.1381685,1.306173,0.9613435,-0.1453185,0.919279,0.0027445,-0.0026075,1.080721,-0.0027444999999999,0.0026074999999999,0.871643,-0.3022965,-0.1170165,1.117583,-0.3113265,-0.1356284999999999,0.907129,-0.6230265,-0.0251755,1.107313,-0.6239465,-0.0325145,1
134,1.013722,0.6994115,0.0070304999999999,0.8577350000000001,0.5103015,-0.0210175,0.749645,0.7065515,-0.1047365,1.162975,0.5119914999999999,-0.0144405,1.264495,0.7310814999999999,-0.1058155,0.7301950000000001,0.8965515,-0.1410645,1.305565,0.9596415,-0.1468645,0.919187,0.0029354999999999,-0.0026695,1.080813,-0.0029355,0.0026694999999999,0.871415,-0.2954585,-0.1237165,1.119005,-0.3052085,-0.1418145,0.908117,-0.6127885,-0.0285065,1.107465,-0.6137985,-0.0365105,1
135,1.0140265,0.6979685,0.0053479999999999,0.8582515,0.5091485,-0.022656,0.7504315,0.7065285,-0.10738,1.1632515,0.5096984999999999,-0.016216,1.2646415,0.7306484999999999,-0.108135,0.7311415,0.8970585,-0.144402,1.3048215,0.9583585,-0.149262,0.9191255,0.0030064999999999,-0.0028279999999999,1.0808745,-0.0030065,0.0028279999999999,0.8711315,-0.2883415,-0.130685,1.1203815,-0.2980515,-0.147852,0.9089775,-0.6014715,-0.031973,1.1075914999999998,-0.6025715,-0.040223,1
136,1.0142445,0.6959310000000001,0.0035369999999999,0.8587355,0.507431,-0.024512,0.7510455,0.7057610000000001,-0.110006,1.1631955,0.508501,-0.017982,1.2645555,0.730011,-0.110406,0.7320154999999999,0.8969210000000001,-0.147992,1.3037755,0.955581,-0.151812,0.9190925,0.0029889999999999,-0.003033,1.0809075,-0.002989,0.003033,0.8707055,-0.281859,-0.1374699999999999,1.1215255,-0.291289,-0.153502,0.9095695,-0.590719,-0.035243,1.1073655,-0.592209,-0.043792,1
137,1.0143535,0.6941350000000001,0.0014604999999999,0.8592145000000001,0.505275,-0.0265045,0.7514445000000001,0.705295,-0.1128865,1.1630745,0.507555,-0.0205525,1.2643245,0.7303350000000001,-0.1129525,0.7327245,0.8984650000000001,-0.1516915,1.3030545,0.957235,-0.1544015,0.9190325,0.002915,-0.0032365,1.0809675,-0.002915,0.0032364999999999,0.8701245,-0.270985,-0.1443615,1.1226444999999998,-0.280315,-0.1589315,0.9099495,-0.579435,-0.0386515,1.1069345,-0.581045,-0.0471935,1
138,1.0145365,0.691565,-0.0007889999999999,0.8595135,0.504135,-0.0290989999999999,0.7517834999999999,0.7040350000000001,-0.11598,1.1629635,0.5059750000000001,-0.0234109999999999,1.2635835,0.725595,-0.115479,0.7339935,0.897375,-0.155601,1.3022735,0.954765,-0.157271,0.9189465,0.0028649999999999,-0.0033419999999999,1.0810535,-0.0028649999999999,0.003342,0.8695835000000001,-0.260065,-0.1507609999999999,1.1237435,-0.269415,-0.164001,0.9103885,-0.568565,-0.0423529999999999,1.1064535,-0.570445,-0.050584,1
139,1.014995,0.690875,-0.008784,0.8600320000000001,0.504105,-0.037356,0.752362,0.704565,-0.124731,1.163062,0.505165,-0.031765,1.263062,0.7240650000000001,-0.123488,0.7355320000000001,0.899045,-0.164944,1.301652,0.954725,-0.165404,0.91884,0.0027749999999999,-0.003266,1.08116,-0.0027749999999999,0.0032659999999999,0.869182,-0.246505,-0.162534,1.125042,-0.2563149999999999,-0.174414,0.911052,-0.5552549999999999,-0.051577,1.106312,-0.5576949999999999,-0.058967,1
140,1.015531,0.69208,-0.0181329999999999,0.860712,0.50366,-0.046766,0.753452,0.70688,-0.134708,1.162162,0.504,-0.041199,1.262582,0.72337,-0.1323399999999999,0.7370920000000001,0.90419,-0.175306,1.301332,0.95698,-0.174996,0.918769,0.0026799999999999,-0.0032099999999999,1.081231,-0.00268,0.0032099999999999,0.8675120000000001,-0.22991,-0.179506,1.127162,-0.2401,-0.1888159999999999,0.911739,-0.5393600000000001,-0.061697,1.106312,-0.54227,-0.068388,1
141,1.016163,0.6927449999999999,-0.0273755,0.86177,0.5033650000000001,-0.0560025,0.75479,0.708285,-0.1446675,1.16149,0.503415,-0.0504625,1.26182,0.7233750000000001,-0.1411625,0.7388,0.908765,-0.1855085,1.3011899999999998,0.959245,-0.1844985,0.918581,0.002475,-0.0030485,1.081419,-0.002475,0.0030484999999999,0.86612,-0.214335,-0.1961485,1.12934,-0.224385,-0.2028785,0.912683,-0.5241549999999999,-0.0718695,1.1066,-0.5275050000000001,-0.0776365,1
142,1.01691,0.693905,-0.03674,0.862938,0.503235,-0.06536,0.7563980000000001,0.7104349999999999,-0.154778,1.160928,0.501935,-0.060092,1.261258,0.723015,-0.150327,0.7407779999999999,0.915715,-0.196092,1.301778,0.961195,-0.194302,0.918476,0.0024949999999999,-0.0027179999999999,1.081524,-0.0024949999999999,0.0027179999999999,0.865038,-0.198415,-0.212932,1.131718,-0.208165,-0.217472,0.913821,-0.508205,-0.082316,1.107158,-0.5124150000000001,-0.086579,1
143,1.01775,0.696055,-0.0465264999999999,0.8641630000000001,0.502285,-0.0754354999999999,0.758103,0.7137450000000001,-0.1655515,1.160443,0.4998249999999999,-0.0702604999999999,1.261253,0.7226649999999999,-0.1601965,0.7429129999999999,0.923585,-0.2072454999999999,1.302663,0.964385,-0.2045954999999999,0.918414,0.0025649999999999,-0.0023554999999999,1.081586,-0.002565,0.0023555,0.864173,-0.181965,-0.2298154999999999,1.134103,-0.191365,-0.2322755,0.915105,-0.4912750000000001,-0.0931775,1.107933,-0.496525,-0.0954884999999999,1
144,1.018629,0.696555,-0.056428,0.865583,0.502595,-0.085855,0.7600629999999999,0.714915,-0.176388,1.159963,0.498725,-0.0805319999999999,1.260933,0.7219949999999999,-0.16987,0.7452829999999999,0.928605,-0.218588,1.303493,0.965755,-0.214748,0.918362,0.002725,-0.002072,1.081638,-0.002725,0.002072,0.863623,-0.167025,-0.245938,1.136533,-0.176175,-0.246768,0.916529,-0.4757949999999999,-0.103855,1.108813,-0.482045,-0.104254,1
145,1.019436,0.6969000000000001,-0.067004,0.866867,0.50207,-0.0965159999999999,0.761987,0.71592,-0.187321,1.158967,0.49714,-0.091246,1.260557,0.71976,-0.179839,0.747377,0.93151,-0.230315,1.304237,0.96402,-0.226185,0.918333,0.00285,-0.001805,1.081667,-0.0028499999999999,0.001805,0.863147,-0.1514299999999999,-0.261805,1.138897,-0.16086,-0.261095,0.917874,-0.4599199999999999,-0.11456,1.109747,-0.46723,-0.113032,1
146,1.0202375,0.69703,-0.077548,0.8680565,0.5018199999999999,-0.107017,0.7637665,0.71656,-0.198106,1.1580065,0.4959599999999999,-0.101804,1.2602265,0.71653,-0.189654,0.7491365,0.93055,-0.24217,1.3048365,0.9631,-0.23724,0.9183605,0.0028799999999999,-0.0014699999999999,1.0816395,-0.0028799999999999,0.0014699999999999,0.8628465,-0.13639,-0.27712,1.1411765,-0.14578,-0.27488,0.9192725,-0.44455,-0.125092,1.1107165,-0.45295,-0.121739,1
147,1.0208374999999998,0.69777,-0.088335,0.8688385000000001,0.50135,-0.117563,0.7652384999999999,0.71749,-0.209049,1.1569885,0.4948599999999999,-0.112526,1.2602485,0.71917,-0.199769,0.7500585,0.93403,-0.253975,1.3052285,0.9649,-0.248445,0.9184595,0.0028799999999999,-0.001185,1.0815405,-0.0028799999999999,0.0011849999999999,0.8625885,-0.1199399999999999,-0.292575,1.1432885,-0.1296999999999999,-0.288665,0.9205175,-0.42837,-0.13542,1.1115485,-0.43775,-0.130686,1
148,1.0207575,0.69623,-0.0936869999999999,0.8692235,0.4983999999999999,-0.1226919999999999,0.7661835000000001,0.7151000000000001,-0.2145309999999999,1.1553635,0.49317,-0.1178469999999999,1.2597935,0.71926,-0.2042449999999999,0.7504635,0.93503,-0.2605999999999999,1.3052134999999998,0.96512,-0.25443,0.9185815,0.0026599999999999,-0.0010699999999999,1.0814185,-0.0026599999999999,0.00107,0.8619635,-0.10494,-0.3023399999999999,1.1449935,-0.1154399999999999,-0.2969199999999999,0.9212825,-0.4140899999999999,-0.1402479999999999,1.1121135,-0.42442,-0.1342629999999999,1
149,1.020592,0.693365,-0.09794,0.869579,0.497005,-0.126609,0.766659,0.712715,-0.218832,1.154639,0.4900449999999999,-0.121596,1.259429,0.715395,-0.207533,0.7508589999999999,0.931935,-0.2664849999999999,1.304929,0.961305,-0.259155,0.918615,0.002815,-0.001005,1.081385,-0.002815,0.001005,0.8623190000000001,-0.092145,-0.306235,1.145819,-0.1026449999999999,-0.300715,0.922027,-0.401565,-0.143853,1.112889,-0.4126149999999999,-0.136792,1
150,1.0200595,0.691315,-0.10207,0.8696965,0.495435,-0.1300629999999999,0.7667865,0.710515,-0.2229789999999999,1.1536165,0.487365,-0.1252319999999999,1.2587565,0.712475,-0.210695,0.7510065,0.929705,-0.272315,1.3045765,0.954515,-0.264085,0.9186235,0.0030149999999999,-0.0010149999999999,1.0813765,-0.0030149999999999,0.001015,0.8624465,-0.078365,-0.3099849999999999,1.1464365,-0.0888649999999999,-0.304515,0.9223975,-0.388085,-0.147062,1.1136165,-0.3998349999999999,-0.139236,1
151,1.019512,0.68863,-0.105812,0.8695240000000001,0.49377,-0.133057,0.7668340000000001,0.70764,-0.226722,1.152454,0.48539,-0.128553,1.258244,0.7101599999999999,-0.213551,0.751014,0.92764,-0.277265,1.304144,0.94971,-0.268685,0.918634,0.0029699999999999,-0.001115,1.081366,-0.00297,0.0011149999999999,0.862484,-0.0651,-0.313035,1.146854,-0.0756,-0.307375,0.922581,-0.37506,-0.1496,1.114234,-0.38693,-0.141586,1
152,1.0189135,0.6853199999999999,-0.10876,0.8691095,0.49259,-0.135325,0.7668794999999999,0.7033499999999999,-0.229685,1.1514095,0.48302,-0.130872,1.2577895,0.70736,-0.216146,0.7509195000000001,0.92472,-0.2815,1.3037195,0.94493,-0.27248,0.9186355,0.0030499999999999,-0.0012199999999999,1.0813645,-0.0030499999999999,0.0012199999999999,0.8630495,-0.05612,-0.31474,1.1473795,-0.06625,-0.30966,0.9227815,-0.3632599999999999,-0.151294,1.1149695,-0.37511,-0.143223,1
153,1.0182965,0.682785,-0.1110049999999999,0.8687495000000001,0.490425,-0.1369119999999999,0.7667995000000001,0.7005049999999999,-0.232049,1.1504295,0.480775,-0.1324669999999999,1.2571995,0.703515,-0.2181929999999999,0.7507595000000001,0.923675,-0.284925,1.3028295,0.940965,-0.275555,0.9186355,0.0030749999999999,-0.0012149999999999,1.0813645,-0.0030749999999999,0.001215,0.8636095,-0.0458649999999999,-0.316075,1.1481195,-0.0559149999999999,-0.311635,0.9229145,-0.350315,-0.152586,1.1156395,-0.3620349999999999,-0.1444679999999999,1
154,1.0176375,0.6809,-0.112624,0.8682755,0.48927,-0.138303,0.7664055,0.69775,-0.2343029999999999,1.1500455,0.4784899999999999,-0.13362,1.2567355,0.70161,-0.219971,0.7501555,0.9246,-0.2877349999999999,1.3023155,0.94101,-0.278015,0.9185985,0.0034199999999999,-0.0012149999999999,1.0814015,-0.00342,0.0012149999999999,0.8640055,-0.03596,-0.317215,1.1487355,-0.04616,-0.312905,0.9228155,-0.33786,-0.153752,1.1160755,-0.3492200000000001,-0.146052,1
155,1.016558,0.6811800000000001,-0.11423,0.86734,0.48891,-0.139705,0.7654,0.69898,-0.236614,1.14917,0.47838,-0.134839,1.25601,0.7038200000000001,-0.221526,0.7492099999999999,0.93189,-0.29052,1.30106,0.94379,-0.28039,0.91883,0.00325,-0.0010499999999999,1.08117,-0.0032499999999999,0.0010499999999999,0.86407,-0.0223099999999999,-0.3184099999999999,1.14885,-0.0327399999999999,-0.31421,0.922154,-0.3218999999999999,-0.1549829999999999,1.11602,-0.3328799999999999,-0.1477969999999999,1
156,1.015712,0.68007,-0.115315,0.866521,0.489169,-0.140581,0.764451,0.69821,-0.238368,1.147841,0.47731,-0.135723,1.254741,0.70295,-0.222409,0.748011,0.93607,-0.292785,1.299821,0.94481,-0.282355,0.918955,0.0032,-0.000835,1.081045,-0.0031999999999999,0.000835,0.864011,-0.0104099999999999,-0.319275,1.1488809999999998,-0.0209999999999999,-0.315075,0.921405,-0.30779,-0.155869,1.115981,-0.3184099999999999,-0.148993,1
157,1.0148785,0.68051,-0.116112,0.8656855,0.4912059999999999,-0.141095,0.7633955,0.70048,-0.23984,1.1467455,0.4772789999999999,-0.136112,1.2533555,0.70288,-0.223083,0.7468355,0.94147,-0.29454,1.2983755,0.94105,-0.28374,0.9189935,0.0036899999999999,-0.00048,1.0810065,-0.00369,0.00048,0.8639455,0.0027799999999999,-0.31933,1.1487555,-0.0077,-0.31573,0.9206035,-0.29239,-0.156534,1.1156855,-0.30273,-0.150162,1
158,1.0142405,0.6789149999999999,-0.116522,0.8650375000000001,0.492339,-0.141283,0.7625475000000002,0.699485,-0.240831,1.1460675,0.47977,-0.136251,1.2527075,0.705755,-0.2231429999999999,0.7462075,0.937955,-0.29557,1.2976575,0.939375,-0.28471,0.9190485,0.0039049999999999,-7.999999999999674e-05,1.0809515,-0.0039049999999999,7.999999999999674e-05,0.8640375,0.0138949999999999,-0.31914,1.1487975,0.003555,-0.31613,0.9200055,-0.279035,-0.15692,1.1154875,-0.289325,-0.150756,1
159,1.013813,0.67953,-0.1169269999999999,0.8646,0.492679,-0.141231,0.76185,0.7013499999999999,-0.241568,1.14563,0.481912,-0.136154,1.25199,0.7081500000000001,-0.2232139999999999,0.74579,0.9365,-0.296485,1.29724,0.9433,-0.285795,0.91907,0.00372,0.000325,1.08093,-0.00372,-0.0003249999999999,0.86422,0.0272799999999999,-0.3178149999999999,1.14898,0.0169599999999999,-0.315975,0.919626,-0.26389,-0.157267,1.11547,-0.27407,-0.1511539999999999,1
160,1.0136615,0.67999,-0.117249,0.8642415,0.493713,-0.141044,0.7612515,0.7037599999999999,-0.242093,1.1452615,0.483957,-0.135733,1.2515815,0.71035,-0.223332,0.7454415,0.9352,-0.29724,1.2968915,0.94607,-0.28654,0.9191455,0.00372,0.00064,1.0808545,-0.00372,-0.00064,0.8643815,0.0402299999999999,-0.31634,1.1491815,0.03018,-0.31554,0.9193015,-0.2493199999999999,-0.157183,1.1155015,-0.2594,-0.151473,1
161,1.013615,0.6800700000000001,-0.117276,0.8638859999999999,0.49438,-0.14059,0.760596,0.7062200000000001,-0.242262,1.144976,0.485808,-0.135027,1.250886,0.7100500000000001,-0.22339,0.7450559999999999,0.9348,-0.2977349999999999,1.296596,0.94753,-0.287045,0.919272,0.00375,0.001115,1.080728,-0.0037499999999999,-0.001115,0.8643460000000001,0.05347,-0.314545,1.149306,0.04372,-0.314915,0.918858,-0.2350799999999999,-0.156729,1.115366,-0.2449699999999999,-0.151634,1
162,1.013749,0.6809449999999999,-0.116922,0.8638640000000001,0.496482,-0.139458,0.760084,0.708475,-0.242289,1.144834,0.4881859999999999,-0.133917,1.250384,0.710055,-0.222392,0.745064,0.934465,-0.29808,1.296404,0.944335,-0.28707,0.919562,0.0036949999999999,0.0014899999999999,1.080438,-0.003695,-0.0014899999999999,0.864104,0.0660649999999999,-0.31201,1.149304,0.0568649999999999,-0.31344,0.918526,-0.221345,-0.155894,1.115324,-0.231235,-0.151535,1
163,1.0139865,0.681805,-0.116327,0.8640635,0.498668,-0.137968,0.7595835,0.711425,-0.242112,1.1452535,0.491252,-0.132261,1.2500735,0.709835,-0.221094,0.7451535,0.934915,-0.29812,1.2962835,0.941465,-0.28689,0.9198205,0.003335,0.0019499999999999,1.0801795,-0.0033349999999999,-0.00195,0.8637535000000001,0.079345,-0.30896,1.1493035,0.070715,-0.31159,0.9182145,-0.2072049999999999,-0.154751,1.1152935,-0.217105,-0.150986,1
164,1.0143915,0.6811,-0.115276,0.8644855000000001,0.499647,-0.13627,0.7592355,0.71134,-0.241756,1.1458755,0.491655,-0.130442,1.2499555,0.70655,-0.219703,0.7453455,0.93249,-0.29787,1.2964455,0.93582,-0.2866,0.9199405,0.0033799999999999,0.0022299999999999,1.0800595,-0.00338,-0.00223,0.8635855,0.08942,-0.30592,1.1495355,0.08131,-0.30917,0.9180795,-0.19645,-0.153396,1.1154355,-0.20631,-0.150146,1
165,1.0148335,0.68153,-0.114077,0.8649735000000001,0.5006799999999999,-0.134586,0.7589135000000001,0.7132299999999999,-0.241165,1.1464535,0.4936739999999999,-0.128637,1.2502035,0.7049399999999999,-0.218434,0.7455235,0.92696,-0.297495,1.2969235,0.93201,-0.286675,0.9200415,0.0032399999999999,0.0026049999999999,1.0799584999999998,-0.00324,-0.002605,0.8634335000000001,0.1003499999999999,-0.302565,1.1497935,0.0925899999999999,-0.306415,0.9180475,-0.18503,-0.151345,1.1154935,-0.1948700000000001,-0.149231,1
166,1.0153015,0.680475,-0.112832,0.8654725,0.501025,-0.1328,0.7586525,0.7130050000000001,-0.24029,1.1470925,0.494412,-0.127075,1.2504825,0.7018650000000001,-0.217077,0.7457125,0.919775,-0.29706,1.2972425,0.931525,-0.28691,0.9201815,0.002695,0.0029599999999999,1.0798185,-0.002695,-0.00296,0.8632124999999999,0.108855,-0.29954,1.1501525,0.101315,-0.30414,0.9183015,-0.176045,-0.148648,1.1155925,-0.1860649999999999,-0.148209,1
167,1.0160545,0.680705,-0.111346,0.8661365,0.501425,-0.130242,0.7585865,0.714985,-0.239028,1.1479565,0.494881,-0.1249489999999999,1.2509965,0.6993750000000001,-0.2154889999999999,0.7458265,0.922445,-0.2963599999999999,1.2977465,0.931705,-0.2869,0.9202705,0.002175,0.00325,1.0797295,-0.002175,-0.00325,0.8629265,0.118235,-0.29606,1.1506865,0.110835,-0.3013599999999999,0.9186955,-0.1662749999999999,-0.1456589999999999,1.1158465,-0.1764249999999999,-0.1470749999999999,1
168,1.0166205,0.6792050000000001,-0.10946,0.8665655,0.502824,-0.127738,0.7583655000000001,0.7144050000000001,-0.237366,1.1486755,0.494868,-0.122497,1.2513055,0.696485,-0.213824,0.7458855000000001,0.922285,-0.29552,1.2981855,0.929335,-0.28667,0.9203365,0.002035,0.00353,1.0796635,-0.002035,-0.00353,0.8625355,0.125135,-0.2930899999999999,1.1512155,0.117935,-0.29872,0.9190235,-0.159115,-0.142403,1.1160055,-0.1694149999999999,-0.145567,1
169,1.016997,0.67825,-0.107194,0.866938,0.5036150000000001,-0.124971,0.758058,0.7137200000000001,-0.235408,1.149358,0.495234,-0.120032,1.251558,0.6940400000000001,-0.211986,0.745908,0.92176,-0.294555,1.298648,0.92676,-0.286165,0.920372,0.00172,0.003695,1.079628,-0.0017199999999999,-0.003695,0.861888,0.1316000000000001,-0.289745,1.151798,0.1246600000000001,-0.295895,0.919264,-0.1524699999999998,-0.13925,1.116148,-0.1628299999999999,-0.143749,1
170,1.017231,0.67835,-0.104913,0.867293,0.5044649999999999,-0.122066,0.757683,0.7140799999999999,-0.233477,1.150103,0.496034,-0.117527,1.251553,0.6947099999999999,-0.210135,0.745753,0.92143,-0.293175,1.299043,0.92579,-0.285625,0.920371,0.0012199999999999,0.0037349999999999,1.079629,-0.0012199999999999,-0.003735,0.8611530000000001,0.1384099999999999,-0.286265,1.1522629999999998,0.1317699999999999,-0.292885,0.919429,-0.14554,-0.136247,1.116233,-0.15587,-0.142012,1
171,1.0173949999999998,0.6774800000000001,-0.102617,0.867508,0.505104,-0.119322,0.757258,0.71383,-0.231574,1.1507379999999998,0.496561,-0.1151109999999999,1.251788,0.69657,-0.209002,0.745398,0.91963,-0.29163,1.299288,0.92878,-0.28503,0.920442,0.00078,0.0036599999999999,1.079558,-0.00078,-0.0036599999999999,0.860278,0.14388,-0.28311,1.152758,0.13748,-0.29013,0.919507,-0.1401399999999999,-0.133359,1.116188,-0.1503,-0.140341,1
172,1.017557,0.676705,-0.100432,0.867734,0.5050020000000001,-0.116742,0.756854,0.713655,-0.229788,1.151194,0.496888,-0.112955,1.252034,0.698175,-0.208021,0.7449239999999999,0.916985,-0.2902,1.299554,0.930965,-0.2845,0.920506,0.0003549999999999,0.00347,1.079494,-0.0003549999999999,-0.00347,0.859394,0.148625,-0.28017,1.153464,0.142295,-0.2875,0.919592,-0.1356349999999999,-0.130579,1.116144,-0.145775,-0.13856,1
173,1.017636,0.676285,-0.0983849999999999,0.86772,0.50475,-0.1140749999999999,0.7563700000000001,0.7134750000000001,-0.2279299999999999,1.15152,0.497224,-0.1110049999999999,1.25185,0.699605,-0.207071,0.7442,0.913905,-0.28868,1.2997,0.932555,-0.28396,0.920629,4.500000000007276e-05,0.00326,1.079371,-4.499999999996174e-05,-0.0032599999999999,0.85838,0.152905,-0.2774799999999999,1.15418,0.146545,-0.28503,0.919482,-0.1317049999999999,-0.127908,1.11596,-0.141725,-0.136931,1
174,1.0176665,0.675705,-0.0966009999999999,0.8675925,0.5046799999999999,-0.1120019999999999,0.7558225000000001,0.713185,-0.226406,1.1517925,0.49715,-0.1093119999999999,1.2519425,0.7004549999999999,-0.206386,0.7431125000000001,0.915405,-0.28728,1.2997525,0.933715,-0.2835799999999999,0.9206545,-2.500000000005276e-05,0.00318,1.0793455,2.499999999994173e-05,-0.0031799999999999,0.8574125,0.1564749999999999,-0.27527,1.1549525,0.1498949999999999,-0.28291,0.9192275,-0.128735,-0.1262859999999999,1.1157325,-0.138435,-0.1355189999999999,1
175,1.0177445,0.675515,-0.095282,0.8675035,0.504719,-0.110457,0.7553135000000001,0.713275,-0.225315,1.1521935,0.496517,-0.107816,1.2520835,0.701205,-0.206151,0.7420335,0.916605,-0.286275,1.2997735,0.933985,-0.283415,0.9205855,5.000000000032756e-06,0.0031549999999999,1.0794145,-5.000000000032756e-06,-0.003155,0.8567035000000001,0.1594749999999999,-0.273395,1.1558635,0.152725,-0.281165,0.9190435,-0.126325,-0.125701,1.1155335,-0.135635,-0.134432,1
176,1.0178035,0.67542,-0.094197,0.8674965,0.504592,-0.109611,0.7548265000000001,0.71284,-0.224424,1.1524765,0.49593,-0.106882,1.2522165,0.70148,-0.206148,0.7410665000000001,0.91689,-0.285475,1.2998265,0.93364,-0.283575,0.9205095,2.999999999997449e-05,0.0031549999999999,1.0794905,-2.999999999997449e-05,-0.003155,0.8560665000000001,0.1613,-0.271975,1.1568565,0.15441,-0.279855,0.9189125,-0.1250099999999999,-0.125456,1.1153765,-0.1340099999999999,-0.13356,1
177,1.01784,0.675565,-0.0932839999999999,0.867511,0.5041309999999999,-0.108995,0.754391,0.712845,-0.2237239999999999,1.152731,0.4952419999999999,-0.1061929999999999,1.252411,0.701325,-0.206148,0.740201,0.916655,-0.28479,1.299861,0.933175,-0.2837699999999999,0.920407,0.0001249999999999,0.00315,1.079593,-0.000125,-0.0031499999999999,0.8555010000000001,0.1621449999999999,-0.27079,1.157781,0.1550549999999999,-0.2787699999999999,0.918782,-0.1247850000000001,-0.125382,1.115231,-0.133315,-0.132691,1
178,1.0178055,0.675565,-0.0926789999999999,0.8675375,0.503933,-0.1087119999999999,0.7539875,0.712845,-0.223214,1.1528975,0.4946789999999999,-0.1056349999999999,1.2525875,0.7011649999999999,-0.2060719999999999,0.7393675,0.916655,-0.28427,1.2998575,0.932875,-0.28397,0.9203405,0.0001249999999999,0.00315,1.0796595,-0.000125,-0.0031499999999999,0.8550875,0.1625849999999999,-0.27013,1.1585275,0.1552349999999999,-0.27784,0.9184725,-0.1251050000000001,-0.125386,1.1151475,-0.1330350000000001,-0.132022,1
179,1.0178035,0.675565,-0.092581,0.8675505,0.503933,-0.108921,0.7536404999999999,0.712845,-0.222963,1.1529905,0.4946789999999999,-0.105613,1.2527505,0.7011649999999999,-0.206155,0.7386105000000001,0.916655,-0.28409,1.3000305,0.932875,-0.28434,0.9203405,0.0001249999999999,0.00314,1.0796595,-0.000125,-0.00314,0.8548205,0.1629849999999999,-0.26989,1.1590505,0.1554449999999999,-0.27729,0.9182175,-0.1253550000000001,-0.1256,1.1151105,-0.132735,-0.131697,1
180,1.01781,0.675565,-0.0929859999999999,0.86756,0.503933,-0.1092529999999999,0.75331,0.712845,-0.2232909999999999,1.153,0.4946789999999999,-0.1061979999999999,1.25276,0.7011649999999999,-0.2064959999999999,0.7379300000000001,0.916655,-0.284385,1.30008,0.932875,-0.285045,0.92034,0.0001249999999999,0.003185,1.07966,-0.000125,-0.0031849999999999,0.85472,0.1633349999999999,-0.2704249999999999,1.15938,0.1556549999999999,-0.2772449999999999,0.917927,-0.125635,-0.1262019999999999,1.11506,-0.1324250000000001,-0.131789,1
181,1.0179055,0.6759949999999999,-0.094021,0.8676555,0.502883,-0.110288,0.7530955,0.7126049999999999,-0.224271,1.1530955,0.4936289999999999,-0.107233,1.2528555,0.7001149999999999,-0.207531,0.7373255000000001,0.915675,-0.2854299999999999,1.3004055,0.931825,-0.28615,0.9202575,0.0005649999999999,0.00338,1.0797425,-0.000565,-0.0033799999999999,0.8548055,0.1625249999999999,-0.27146,1.1595155,0.1550049999999999,-0.27809,0.9177115,-0.126905,-0.127472,1.1150555,-0.133275,-0.132657,1
182,1.0176225,0.67668,-0.0957929999999999,0.8674885,0.501416,-0.1120579999999999,0.7525485000000001,0.7122200000000001,-0.226047,1.1529285,0.491773,-0.1090029999999999,1.2528985,0.69867,-0.2093109999999999,0.7364685,0.914,-0.2872099999999999,1.3003685,0.93156,-0.28807,0.9201955,0.0009,0.00339,1.0798045,-0.0009,-0.0033899999999999,0.8546385000000001,0.16038,-0.27323,1.1593485,0.15303,-0.27985,0.9172145,-0.12941,-0.1297569999999999,1.1147885,-0.1354999999999999,-0.134429,1
183,1.0173585,0.6775600000000002,-0.097867,0.8673775,0.5011220000000001,-0.11436,0.7519975,0.7118900000000001,-0.228126,1.1523375,0.4923370000000001,-0.11124,1.2530175,0.6970100000000001,-0.2113789999999999,0.7358175,0.91165,-0.28929,1.3004175,0.93143,-0.2904,0.9201995,0.00111,0.00342,1.0798005,-0.0011099999999999,-0.00342,0.8546175,0.15678,-0.2753,1.1593274999999998,0.1498800000000001,-0.28179,0.9168455,-0.1331899999999999,-0.132559,1.1146475,-0.1391099999999998,-0.1365,1
184,1.0171425,0.6779900000000001,-0.1006129999999999,0.8674585,0.5002040000000001,-0.1174339999999999,0.7520285,0.7109300000000001,-0.2307439999999999,1.1518485,0.491485,-0.1141469999999999,1.2532785,0.6980700000000001,-0.2145929999999999,0.7351185,0.91092,-0.292505,1.3007185,0.93207,-0.2938449999999999,0.9200945,0.00153,0.003535,1.0799055,-0.0015299999999999,-0.0035349999999999,0.8548785,0.1510700000000001,-0.2783049999999999,1.1595784999999998,0.14461,-0.284405,0.9167265,-0.1390599999999999,-0.1363189999999999,1.1147685,-0.14486,-0.139229,1
185,1.0170439999999998,0.6783899999999999,-0.104542,0.8676159999999999,0.4994689999999999,-0.121644,0.751966,0.70943,-0.234227,1.151396,0.4904699999999999,-0.118064,1.253906,0.69865,-0.219022,0.7346159999999999,0.90999,-0.29675,1.301356,0.93185,-0.29818,0.919955,0.0018499999999999,0.0035099999999999,1.080045,-0.00185,-0.00351,0.855546,0.1431299999999999,-0.28221,1.159666,0.1372399999999999,-0.2877,0.91684,-0.14701,-0.140947,1.114976,-0.15256,-0.142727,1
186,1.016668,0.678145,-0.109193,0.867606,0.498074,-0.126378,0.751826,0.7078650000000001,-0.238378,1.150786,0.489216,-0.122702,1.254436,0.699045,-0.224319,0.734076,0.907085,-0.301665,1.301786,0.930315,-0.303425,0.919707,0.002165,0.0034949999999999,1.080293,-0.0021649999999999,-0.0034949999999999,0.856326,0.132665,-0.286905,1.159516,0.127165,-0.291585,0.91691,-0.1575349999999999,-0.14613,1.115066,-0.1629149999999999,-0.14664,1
187,1.0162865,0.6795100000000001,-0.113716,0.8676955,0.496106,-0.130808,0.7519755,0.70676,-0.242635,1.1502455,0.487634,-0.127279,1.2548355,0.69916,-0.2296389999999999,0.7335855,0.90524,-0.306675,1.3023055,0.93208,-0.308895,0.9195585,0.0021499999999999,0.0034849999999999,1.0804415,-0.0021499999999999,-0.0034849999999999,0.8572055000000001,0.12174,-0.291615,1.1592755,0.11674,-0.295255,0.9171145,-0.16849,-0.151113,1.1153555,-0.1738699999999999,-0.150347,1
188,1.016025,0.679135,-0.1184039999999999,0.8671949999999999,0.495452,-0.1350569999999999,0.752645,0.704975,-0.246715,1.149565,0.487056,-0.132012,1.255395,0.6993849999999999,-0.23502,0.733295,0.902815,-0.3118849999999999,1.302995,0.932155,-0.314505,0.919296,0.0027249999999999,0.003415,1.080704,-0.0027249999999999,-0.003415,0.858075,0.107495,-0.296575,1.159085,0.1029249999999999,-0.298755,0.917485,-0.1827149999999999,-0.155993,1.115875,-0.188295,-0.1537359999999999,1
189,1.0157474999999998,0.678475,-0.123609,0.8669915,0.492588,-0.139371,0.7527915000000001,0.702125,-0.2511029999999999,1.1490515,0.484766,-0.136904,1.2557715,0.697735,-0.240474,0.7330814999999999,0.904175,-0.3174099999999999,1.3036915,0.931055,-0.32017,0.9190925,0.002585,0.00267,1.0809075,-0.0025849999999999,-0.00267,0.8587615,0.090265,-0.30178,1.1588915,0.086155,-0.30226,0.9178745,-0.1998149999999999,-0.160874,1.1164315,-0.2056949999999999,-0.157152,1
190,1.0155355,0.67834,-0.128212,0.8666805000000001,0.490293,-0.143104,0.7531705000000001,0.70026,-0.255284,1.1485105,0.483735,-0.141229,1.2560705,0.6981200000000001,-0.245112,0.7330305000000001,0.90602,-0.322285,1.3043505,0.93201,-0.324855,0.9188995,0.0022199999999999,0.0019249999999999,1.0811005,-0.0022199999999999,-0.001925,0.8594205,0.07409,-0.306095,1.1587605,0.06979,-0.305275,0.9183115,-0.21636,-0.164897,1.1169205,-0.2225899999999999,-0.159782,1
191,1.0154055,0.6795150000000001,-0.131618,0.8663295,0.487405,-0.146025,0.7534295,0.697855,-0.258767,1.1479895,0.483324,-0.1447,1.2562795,0.698945,-0.248603,0.7330795,0.908065,-0.32606,1.3048695,0.931585,-0.3292,0.9187845,0.001985,0.00153,1.0812155,-0.0019849999999999,-0.00153,0.8601695,0.058175,-0.30956,1.1588495,0.053345,-0.30736,0.9188225,-0.2335249999999999,-0.167873,1.1174995,-0.240035,-0.161353,1
192,1.0153679999999998,0.67795,-0.134305,0.8659670000000002,0.484846,-0.148673,0.7532770000000001,0.6944,-0.261489,1.147867,0.483295,-0.1473,1.256627,0.69736,-0.252117,0.7337370000000001,0.90627,-0.328405,1.305267,0.92708,-0.332885,0.918773,0.00148,0.0013149999999999,1.081227,-0.0014799999999999,-0.001315,0.861227,0.03885,-0.311675,1.158797,0.03342,-0.308775,0.919354,-0.25471,-0.170093,1.1180169999999998,-0.2614499999999999,-0.162306,1
193,1.0156435,0.678905,-0.135911,0.8658175000000001,0.48297,-0.150411,0.7533375,0.693085,-0.2632259999999999,1.1480375,0.483423,-0.148869,1.2566375,0.693105,-0.253707,0.7341575,0.902225,-0.3295099999999999,1.3056475,0.924705,-0.33482,0.9186975,0.001255,0.00095,1.0813025,-0.001255,-0.00095,0.8624275,0.0205949999999999,-0.31275,1.1587975,0.0144949999999999,-0.30911,0.9200725,-0.275395,-0.171212,1.1186375,-0.282275,-0.1623129999999999,1
194,1.0158385,0.680655,-0.136385,0.8657425,0.4817909999999999,-0.151316,0.7535425000000001,0.693065,-0.264252,1.1483225,0.482843,-0.149439,1.2569825,0.693095,-0.254391,0.7348825,0.902415,-0.33002,1.3060525,0.926005,-0.33605,0.9185895,0.001265,0.0009499999999999,1.0814105,-0.001265,-0.00095,0.8636325,0.0038449999999999,-0.3128,1.1589525,-0.0032949999999999,-0.30903,0.9207555,-0.295245,-0.171524,1.1192825,-0.302295,-0.161623,1
195,1.016027,0.68184,-0.136828,0.86557,0.48231,-0.152344,0.75349,0.69304,-0.265645,1.14831,0.48249,-0.150019,1.25744,0.69143,-0.25519,0.7351700000000001,0.90599,-0.33068,1.30653,0.92595,-0.33692,0.918264,0.0014299999999999,0.0009399999999999,1.081736,-0.00143,-0.0009399999999999,0.86465,-0.01377,-0.31278,1.15885,-0.02204,-0.3085799999999999,0.92128,-0.31667,-0.171772,1.11973,-0.32402,-0.16133,1
196,1.0165695,0.68276,-0.137276,0.8656485,0.48291,-0.153385,0.7537484999999999,0.69328,-0.266858,1.1485085,0.48346,-0.150654,1.2577385,0.6924699999999999,-0.255184,0.7356385000000001,0.90723,-0.331365,1.3070785,0.92673,-0.337385,0.9179285,0.00157,0.0009349999999999,1.0820715,-0.00157,-0.000935,0.8659485,-0.03154,-0.312755,1.1590185,-0.0403899999999999,-0.307795,0.9220745,-0.3389999999999999,-0.171996,1.1205685,-0.3465399999999999,-0.161577,1
197,1.01683,0.685615,-0.1371579999999999,0.865835,0.482655,-0.1540979999999999,0.753635,0.694555,-0.267524,1.148375,0.483965,-0.1507069999999999,1.258055,0.6932050000000001,-0.2555079999999999,0.735735,0.907305,-0.3317949999999999,1.307305,0.927185,-0.3370249999999999,0.918159,0.0010749999999999,0.000845,1.081841,-0.0010749999999999,-0.0008449999999999,0.866805,-0.047265,-0.312295,1.158805,-0.056765,-0.306675,0.922541,-0.360025,-0.1718809999999999,1.121005,-0.368045,-0.1611119999999999,1
198,1.0166704999999998,0.688475,-0.135384,0.8656855,0.485135,-0.153452,0.7533955,0.696125,-0.266771,1.1479455,0.486125,-0.1492,1.2579555,0.6957549999999999,-0.253545,0.7355355,0.909095,-0.330685,1.3071655,0.929925,-0.335245,0.9183345,0.0012249999999999,0.0006849999999999,1.0816655,-0.001225,-0.0006849999999999,0.8674755000000001,-0.0615249999999999,-0.310375,1.1580255,-0.071575,-0.303915,0.9224295,-0.380515,-0.171613,1.1213155,-0.388655,-0.15933,1
199,1.0162415,0.69185,-0.133886,0.8654385,0.4877899999999999,-0.1530119999999999,0.7526685,0.69795,-0.265794,1.1474085,0.4866399999999999,-0.147829,1.2572885,0.69689,-0.251886,0.7352885,0.90988,-0.329635,1.3067985,0.93129,-0.333585,0.9183575,0.0015399999999999,0.000475,1.0816425,-0.00154,-0.000475,0.8681085,-0.07615,-0.308075,1.1568685,-0.08626,-0.301255,0.9220205,-0.4013500000000001,-0.171506,1.1213985,-0.40939,-0.157659,1
200,1.0157305,0.69228,-0.131118,0.8650235,0.49204,-0.151523,0.7523435,0.69867,-0.263608,1.1467835,0.48917,-0.14543,1.2564435,0.69745,-0.248188,0.7350335,0.907,-0.3265599999999999,1.3061635,0.92947,-0.33042,0.9183755,0.0014899999999999,7.999999999999674e-05,1.0816245,-0.0014899999999999,-7.999999999999674e-05,0.8684735,-0.0936,-0.30366,1.1553035,-0.1032099999999999,-0.2965799999999999,0.9213485,-0.4245099999999999,-0.17033,1.1215135,-0.4321199999999999,-0.155071,1
201,1.0153085,0.696865,-0.127395,0.8645405000000002,0.494635,-0.149086,0.7519505,0.702405,-0.260862,1.1466105,0.490205,-0.142368,1.2558005,0.700415,-0.243933,0.7348405,0.908565,-0.322555,1.3056705,0.930745,-0.326295,0.9183695,0.0018249999999999,0.0004549999999999,1.0816305,-0.0018249999999999,-0.000455,0.8688105,-0.107035,-0.2983449999999999,1.1538405,-0.1162749999999999,-0.291485,0.9204805,-0.4432750000000001,-0.169003,1.1215805,-0.450415,-0.152622,1
202,1.0145545,0.69955,-0.1232709999999999,0.8638685,0.49995,-0.146238,0.7508285,0.70382,-0.257758,1.1460885,0.4916899999999999,-0.138872,1.2554785,0.70207,-0.239717,0.7343185,0.90981,-0.31804,1.3054185,0.93236,-0.32092,0.9185305,0.0017599999999999,0.0005499999999999,1.0814695,-0.00176,-0.0005499999999999,0.8690585,-0.1214,-0.29196,1.1519985,-0.12993,-0.28559,0.9193175,-0.46263,-0.167268,1.1214784999999998,-0.4689399999999999,-0.150215,1
203,1.0134815,0.702005,-0.118973,0.8628955,0.504305,-0.143047,0.7498555,0.705585,-0.254246,1.1453455,0.494075,-0.135127,1.2552355,0.699295,-0.235002,0.7334155,0.913575,-0.31326,1.3049055,0.930415,-0.31499,0.9186765,0.001625,0.0004399999999999,1.0813235,-0.0016249999999999,-0.00044,0.8691555,-0.1361649999999999,-0.28505,1.1497355,-0.1438849999999999,-0.27916,0.9175385,-0.482135,-0.165956,1.1212955,-0.487845,-0.148799,1
204,1.0122354999999998,0.706295,-0.11461,0.8615275,0.507045,-0.139183,0.7489275,0.707775,-0.250239,1.1445275,0.497155,-0.131056,1.2542575,0.704075,-0.229928,0.7321475,0.914185,-0.30822,1.3040675,0.932225,-0.3087999999999999,0.9188775,0.001195,0.0001099999999999,1.0811225,-0.001195,-0.0001099999999999,0.8689275000000001,-0.148795,-0.27764,1.1470275,-0.155575,-0.2720599999999999,0.9150665,-0.499145,-0.164883,1.1208574999999998,-0.5040250000000001,-0.147454,1
205,1.0106805,0.71021,-0.109954,0.8596965,0.5109,-0.135354,0.7475765,0.70954,-0.24595,1.1433465,0.50008,-0.126998,1.2531865,0.70672,-0.224846,0.7305265000000001,0.91681,-0.3031049999999999,1.3033765,0.93524,-0.302765,0.9192905,0.00092,-6.50000000000095e-05,1.0807095,-0.00092,6.50000000000095e-05,0.8684665,-0.16126,-0.269995,1.1439965,-0.16776,-0.264375,0.9119895,-0.51553,-0.163914,1.1202665,-0.51978,-0.146305,1
206,1.0088815,0.7144550000000001,-0.105242,0.8576625,0.514535,-0.131372,0.7461725,0.7122050000000001,-0.241562,1.1419625,0.502825,-0.122851,1.2520925,0.709715,-0.219796,0.7288125,0.925965,-0.29818,1.3020625,0.940215,-0.29608,0.9197155,0.000695,-0.0004099999999999,1.0802845,-0.000695,0.0004099999999999,0.8676725000000001,-0.173015,-0.26189,1.1407225,-0.179185,-0.25613,0.9082635,-0.5306449999999999,-0.163307,1.1195324999999998,-0.5343749999999999,-0.144778,1
207,1.0070415,0.718815,-0.100418,0.8552315,0.518255,-0.127203,0.7445315,0.715195,-0.237049,1.1404615,0.5064150000000001,-0.118699,1.2504215,0.7129049999999999,-0.213999,0.7271615,0.928015,-0.29345,1.3005615,0.943345,-0.28922,0.9203075,0.0004249999999999,-0.0006899999999999,1.0796925,-0.000425,0.0006899999999999,0.8664215,-0.184145,-0.25304,1.1372115,-0.190125,-0.2471,0.9044365,-0.5444850000000001,-0.161325,1.1185915,-0.5481750000000001,-0.142234,1
208,1.0054705,0.7222645,-0.094796,0.8530405,0.5219445,-0.122283,0.7430405,0.7171845,-0.231696,1.1392705,0.5116645,-0.113816,1.2495305,0.7155945,-0.207598,0.7256605,0.9295545,-0.28798,1.2991605,0.9457245,-0.2817,0.9210475,-0.0001514999999999,-0.00098,1.0789525,0.0001514999999999,0.00098,0.8653204999999999,-0.1960054999999999,-0.2432,1.1336705,-0.2021154999999999,-0.23628,0.9005005000000001,-0.5587455,-0.158879,1.1177005,-0.5628155,-0.137895,1
209,1.0041975,0.7276250000000001,-0.090118,0.8514295000000001,0.524595,-0.11827,0.7417695,0.721245,-0.227107,1.1385295,0.515435,-0.109781,1.2481095,0.719035,-0.202208,0.7243895,0.934325,-0.283335,1.2978395,0.950715,-0.275415,0.9217905,-0.0001969999999999,-0.001225,1.0782095,0.000197,0.0012249999999999,0.8647895,-0.204935,-0.234435,1.1303795,-0.211915,-0.22627,0.8971695,-0.5698949999999999,-0.156609,1.1167095,-0.575145,-0.133552,1
210,1.0035875,0.732433,-0.0856069999999999,0.8506315,0.528023,-0.1144559999999999,0.7412415,0.723753,-0.2227259999999999,1.1385115,0.517863,-0.1059499999999999,1.2468715,0.724343,-0.197448,0.7238815000000001,0.939063,-0.278435,1.2972715,0.956523,-0.269515,0.9217215,-0.0002079999999999,-0.0015049999999999,1.0782785,0.0002079999999999,0.001505,0.8650715,-0.213887,-0.225355,1.1275815,-0.221917,-0.215355,0.8956215,-0.580917,-0.152244,1.1161015,-0.587407,-0.1291719999999999,1
211,1.0031325,0.737553,-0.0816839999999999,0.8502575,0.529103,-0.1112739999999999,0.7409075,0.727143,-0.219186,1.1386275,0.521263,-0.1026699999999999,1.2470475,0.730623,-0.193857,0.7235475,0.944293,-0.274005,1.2970075,0.958593,-0.2646349999999999,0.9220395,-0.000293,-0.0016249999999999,1.0779605,0.000293,0.001625,0.8656874999999999,-0.224427,-0.216687,1.1247275,-0.2348269999999999,-0.203938,0.8951675,-0.592797,-0.148384,1.1156475,-0.600757,-0.1253119999999999,1
212,1.0027925,0.742016,-0.0780409999999999,0.8499595,0.531266,-0.1084069999999999,0.7407095,0.729166,-0.215963,1.1388595,0.525866,-0.0997169999999999,1.2466395,0.736636,-0.190357,0.7233695,0.942016,-0.270345,1.2968795,0.964966,-0.260085,0.9223615,-0.0003799999999999,-0.0016849999999999,1.0776385,0.0003799999999999,0.001685,0.8665895,-0.235574,-0.207613,1.1216795,-0.248044,-0.191874,0.8947595,-0.6048640000000001,-0.1448839999999999,1.1152395,-0.6140340000000001,-0.1218119999999999,1
213,1.0025865,0.7443465,-0.069256,0.8495305,0.5314765,-0.100293,0.7407405,0.7290165,-0.207454,1.1390105,0.5274865,-0.091541,1.2463305,0.7386765,-0.181637,0.7233705,0.9396165,-0.26143,1.2968705,0.9701265,-0.24995,0.9226535,8.74999999999973e-05,-0.00181,1.0773465,-8.750000000000077e-05,0.0018099999999999,0.8688105,-0.2482635,-0.190602,1.1184505,-0.2618735,-0.173097,0.8943004999999999,-0.6180835,-0.135183,1.1147605,-0.6282235,-0.111688,1
214,1.0024035,0.7422985,-0.0577585,0.8491875,0.5306785,-0.0898805,0.7410375,0.7262085,-0.1963845,1.1402175,0.5293985,-0.0804805,1.2477375,0.7397085,-0.1719685,0.7242175,0.9348885,-0.2494965,1.2967075,0.9662085,-0.2372065,0.9228255,0.0003454999999999,-0.0023974999999999,1.0771745,-0.0003455,0.0023974999999999,0.8731875,-0.2658014999999999,-0.1676295,1.1150975,-0.2796315,-0.1501495,0.8943775,-0.6360015,-0.1201045,1.1138875,-0.6464115,-0.0971455,1
215,1.002379,0.73972,-0.0468565,0.8491230000000001,0.52975,-0.0800795,0.741463,0.72271,-0.1857385,1.141353,0.5312,-0.0698715,1.249013,0.74067,-0.1626665,0.725233,0.92651,-0.2380285,1.296503,0.96294,-0.2250985,0.922961,0.000557,-0.0029355,1.077039,-0.000557,0.0029354999999999,0.877903,-0.28214,-0.1453855,1.111893,-0.29566,-0.1279075,0.894913,-0.65242,-0.1046705,1.112913,-0.66283,-0.0821515,1
216,1.0023315,0.7370975,-0.036443,0.8491615,0.5283775,-0.070756,0.7418215,0.7201575,-0.175647,1.1424115,0.5323175,-0.059662,1.2502015,0.7417075,-0.153278,0.7262815,0.9200575,-0.227037,1.2962915,0.9610175,-0.213237,0.9231855,0.0008424999999999,-0.003541,1.0768145,-0.0008424999999999,0.003541,0.8827115000000001,-0.2965125,-0.124063,1.1086715,-0.3097225,-0.106353,0.8958315,-0.6668925,-0.089119,1.1118715,-0.6775924999999999,-0.067289,1
217,1.002152,0.7343525,-0.0264164999999999,0.849172,0.5270524999999999,-0.0618844999999999,0.7420520000000002,0.7181325,-0.1660635,1.143192,0.5329524999999999,-0.0499064999999999,1.251032,0.7434725,-0.1439555,0.7272419999999999,0.9154025,-0.2163535,1.295862,0.9606825,-0.2016534999999999,0.923428,0.0012035,-0.0042174999999999,1.076572,-0.0012034999999999,0.0042174999999999,0.887352,-0.3090675,-0.1029185,1.105382,-0.3228074999999999,-0.0855404999999999,0.896862,-0.6796275,-0.0735835,1.110492,-0.6910175000000001,-0.0524405,1
