sb224sc-HT22-VT27/4dt907/src/ml-research/a11/datafiles/labeled_files/B9_kinect_mirrored.csv
FrameNo,nose_3d_x,nose_3d_y,nose_3d_z,left_shoulder_3d_x,left_shoulder_3d_y,left_shoulder_3d_z,left_elbow_3d_x,left_elbow_3d_y,left_elbow_3d_z,right_shoulder_3d_x,right_shoulder_3d_y,right_shoulder_3d_z,right_elbow_3d_x,right_elbow_3d_y,right_elbow_3d_z,left_wrist_3d_x,left_wrist_3d_y,left_wrist_3d_z,right_wrist_3d_x,right_wrist_3d_y,right_wrist_3d_z,left_hip_3d_x,left_hip_3d_y,left_hip_3d_z,right_hip_3d_x,right_hip_3d_y,right_hip_3d_z,left_knee_3d_x,left_knee_3d_y,left_knee_3d_z,right_knee_3d_x,right_knee_3d_y,right_knee_3d_z,left_ankle_3d_x,left_ankle_3d_y,left_ankle_3d_z,right_ankle_3d_x,right_ankle_3d_y,right_ankle_3d_z,activity_label
0,1.012353,0.7652505,0.0341034999999999,0.842802,0.4828205,0.0117624999999999,0.755852,0.2715404999999999,-0.0279525,1.172452,0.4893305,0.0162824999999999,1.219512,0.2458605,0.0029194999999999,0.766942,0.4149204999999999,-0.1843105,1.222042,0.0591605,-0.0743105,0.924681,0.0007895,0.0006774999999999,1.075319,-0.0007895,-0.0006775,0.908639,-0.3386495,0.0508444999999999,1.097989,-0.3405295,0.0328225,0.913055,-0.6525995,0.0626954999999999,1.106802,-0.6670695,0.0676515,0
1,1.0121775,0.7651905,0.0342209999999999,0.8429225,0.4827905,0.013019,0.7555925,0.2721905,-0.029232,1.1724125,0.4892605,0.016307,1.2195525,0.2459705,0.0028969999999999,0.7680225,0.4207605,-0.195036,1.2220825,0.0592155,-0.074416,0.9246835,0.0007975,0.000708,1.0753165,-0.0007975,-0.000708,0.9086595,-0.3389295,0.051154,1.0979795,-0.3405195,0.032803,0.9130525,-0.6526495,0.062736,1.1068525,-0.6669995000000001,0.0675689999999999,0
2,1.012006,0.7653345,0.034246,0.843058,0.4828545,0.013635,0.755368,0.2706445,-0.025507,1.172388,0.4892245,0.016313,1.2196779999999998,0.2461944999999999,0.003014,0.767738,0.4220145,-0.194236,1.222148,0.0593715,-0.074546,0.924669,0.0008065,0.000745,1.075331,-0.0008065,-0.000745,0.908663,-0.3389054999999999,0.051077,1.09807,-0.3405855,0.032688,0.913069,-0.6527755,0.062786,1.106808,-0.6668655,0.06747,0
3,1.011657,0.7654375,0.034323,0.843109,0.4832075,0.013175,0.755579,0.2719074999999999,-0.0271509999999999,1.172319,0.4892375,0.01643,1.219849,0.2463675,0.003047,0.767799,0.4233975,-0.193629,1.222169,0.0593835,-0.074659,0.924659,0.0008165,0.000799,1.075341,-0.0008165,-0.000799,0.908805,-0.3390625,0.05105,1.098131,-0.3411025,0.03289,0.913276,-0.6529125,0.062634,1.106799,-0.6666825000000001,0.067412,0
4,1.011339,0.7656875,0.0344775,0.8431270000000001,0.4832875,0.0125775,0.755747,0.2722975,-0.0278824999999999,1.1723469999999998,0.4892675,0.0163775,1.219887,0.2463775,0.0030115,0.768047,0.4196175,-0.1885155,1.222167,0.0593855,-0.0746755,0.924649,0.0008175,0.0008254999999999,1.075351,-0.0008175,-0.0008254999999999,0.908767,-0.3388625,0.0509875,1.09817,-0.3410925,0.0328215,0.913424,-0.6524025,0.0625955,1.106757,-0.6664925,0.0673255,0
5,1.011129,0.765897,0.0346385,0.84325,0.483417,0.0135755,0.75614,0.272627,-0.0289344999999999,1.17227,0.489197,0.0161615,1.22003,0.246427,0.0030174999999999,0.7678,0.418227,-0.1860645,1.22229,0.059621,-0.0746344999999999,0.924639,0.000824,0.0008114999999999,1.075361,-0.000824,-0.0008114999999999,0.908936,-0.338863,0.0509675,1.098634,-0.339763,0.0327035,0.913862,-0.653193,0.0622595,1.10611,-0.664843,0.0679925,0
6,1.010628,0.766654,0.035147,0.843183,0.4835339999999999,0.014369,0.755603,0.272804,-0.0277339999999999,1.172313,0.489234,0.015951,1.220153,0.246544,0.002932,0.767253,0.416834,-0.183601,1.222403,0.059823,-0.074791,0.924633,0.000816,0.000885,1.075367,-0.000816,-0.0008849999999999,0.908852,-0.339196,0.051101,1.098597,-0.340186,0.032583,0.913882,-0.653446,0.062215,1.106223,-0.665046,0.067817,0
7,1.0103725,0.766775,0.0355964999999999,0.8431545,0.483415,0.0124804999999999,0.7552645,0.273775,-0.0295404999999999,1.1723245,0.489365,0.0157355,1.2207845,0.247205,0.0028455,0.7667945,0.418865,-0.1879825,1.2231445,0.063018,-0.0763525,0.9246295,0.000831,0.0009025,1.0753705,-0.000831,-0.0009025,0.9088855,-0.339155,0.0511244999999999,1.0984375,-0.340105,0.0324965,0.9136465,-0.653165,0.0624114999999999,1.1066145,-0.665605,0.0677494999999999,0
8,1.0100545,0.767069,0.035983,0.8431685,0.483469,0.012418,0.7550285,0.274459,-0.0301309999999999,1.1722885,0.4893889999999999,0.015528,1.2214385,0.248099,0.002786,0.7664985000000001,0.420409,-0.1903849999999999,1.2241485,0.0653929999999999,-0.079165,0.9246185,0.000833,0.00092,1.0753815,-0.000833,-0.0009199999999999,0.9089075,-0.339131,0.051128,1.0984765,-0.340021,0.032452,0.9136805,-0.653141,0.062383,1.1066285,-0.665461,0.067771,0
9,1.0097165,0.7673425,0.036482,0.8432015000000002,0.4834925,0.012175,0.7546415000000001,0.2754725,-0.0310889999999999,1.1722115,0.4894525,0.015297,1.2226115,0.2499624999999999,0.002656,0.7659415,0.4217525,-0.1916749999999999,1.2258015,0.0689145,-0.0834149999999999,0.9246025,0.0008365,0.000925,1.0753975,-0.0008365,-0.0009249999999999,0.9089015,-0.3391175,0.051109,1.0985075,-0.3399375,0.032397,0.9137035,-0.6531275,0.062369,1.1066415,-0.6653475,0.067771,0
10,1.0093815,0.767606,0.037015,0.8432145,0.483516,0.011851,0.7540545,0.276826,-0.0326339999999999,1.1721244999999998,0.489566,0.015025,1.2244944999999998,0.252956,0.0019979999999999,0.7653045,0.423236,-0.193147,1.2290845,0.075369,-0.091097,0.9245905,0.000839,0.000925,1.0754095,-0.000839,-0.0009249999999999,0.9088855,-0.339094,0.051082,1.0985385,-0.339864,0.032339,0.9137285,-0.653094,0.062363,1.1066445,-0.665324,0.067705,0
11,1.009059,0.7678245,0.037633,0.8432230000000001,0.4835345,0.011542,0.752843,0.2791344999999999,-0.035661,1.172013,0.4897244999999999,0.0147879999999999,1.227223,0.2575044999999999,0.0008739999999999,0.7644330000000001,0.4263245,-0.195158,1.233033,0.0840005,-0.100368,0.924582,0.0008424999999999,0.0008939999999999,1.075418,-0.0008424999999999,-0.0008939999999999,0.908857,-0.3390555,0.05106,1.098583,-0.3398155,0.0323079999999999,0.913722,-0.6531855,0.062325,1.106653,-0.6653055,0.067674,0
12,1.00873,0.7680435,0.0382765,0.843237,0.4835035,0.0111505,0.751207,0.2825535,-0.0400735,1.171847,0.4899235,0.0145295,1.230477,0.2635035,-0.0007684999999999,0.7635270000000001,0.4327035,-0.1992085,1.238417,0.0976274999999999,-0.1122985,0.924578,0.0008415,0.0008535,1.075422,-0.0008415,-0.0008535,0.908789,-0.3390364999999999,0.0510285,1.098622,-0.3397564999999999,0.0322685,0.913693,-0.6533065,0.0622635,1.106657,-0.6652365,0.0676335,0
13,1.0084179999999998,0.768231,0.0389164999999999,0.843377,0.4835009999999999,0.0104784999999999,0.7491570000000001,0.287361,-0.0457765,1.171717,0.490231,0.0143024999999999,1.233767,0.2710809999999999,-0.0031055,0.762517,0.440131,-0.2041035,1.244727,0.114041,-0.1256035,0.924568,0.000839,0.0008084999999999,1.075432,-0.000839,-0.0008085,0.908707,-0.339019,0.0509834999999999,1.0986129999999998,-0.339719,0.0322384999999999,0.913617,-0.653369,0.0622184999999999,1.106697,-0.665219,0.0676025,0
14,1.008108,0.7684085,0.039594,0.843623,0.4834985,0.009771,0.746633,0.2934184999999999,-0.052776,1.171623,0.4905385,0.014085,1.238493,0.2796085,-0.0072319999999999,0.761233,0.4487784999999999,-0.209731,1.251843,0.1352985,-0.142011,0.924544,0.0008355,0.00073,1.075456,-0.0008355,-0.0007299999999999,0.908611,-0.3389615,0.050911,1.098604,-0.3396215,0.032175,0.913529,-0.6534614999999999,0.062129,1.106723,-0.6652015,0.067542,0
15,1.0078385,0.7685660000000001,0.0402725,0.8439035,0.483446,0.0090764999999999,0.7436435,0.300736,-0.0607155,1.1715835,0.490846,0.0138944999999999,1.2441035,0.289616,-0.0146365,0.7596134999999999,0.459316,-0.2160645,1.2596435,0.156116,-0.1606345,0.9245045,0.000831,0.0006104999999999,1.0754955,-0.000831,-0.0006104999999999,0.9085005,-0.338924,0.0508254999999999,1.0985735,-0.339564,0.0321155,0.9134355,-0.653534,0.0619964999999999,1.1067335,-0.665184,0.0674505,0
16,1.0076269999999998,0.7687245,0.0410905,0.844184,0.4833845,0.0083095,0.739664,0.3098545,-0.0701535,1.171544,0.4911545,0.0136375,1.249594,0.2994445,-0.0221094999999999,0.757494,0.4724745,-0.2230035,1.267304,0.1765645,-0.1785435,0.924457,0.0008225,0.0004595,1.075543,-0.0008225,-0.0004594999999999,0.908343,-0.3389255,0.0507275,1.098555,-0.3394755,0.0320765,0.913329,-0.6536755,0.0618665,1.106714,-0.6648355,0.0673445,0
17,1.0074515,0.7688845,0.0420045,0.8444245,0.4833945,0.0075365,0.7350544999999999,0.3206645,-0.0808945,1.1714844999999998,0.4914145,0.0134325,1.2560345,0.3100845,-0.0305364999999999,0.7553845,0.4862345,-0.2281645,1.2785445,0.2076945,-0.1968145,0.9244055,0.0008225,0.0003024999999999,1.0755945,-0.0008225,-0.0003024999999999,0.9081445,-0.3389355,0.0506475,1.0985545,-0.3393755,0.0320285,0.9131915,-0.6540655,0.0617415,1.1066545,-0.6644955,0.0672375,0
18,1.0073435,0.7690945,0.043004,0.8446155000000001,0.4834145,0.006804,0.7300755,0.3338245,-0.092708,1.1714255,0.4916545,0.013269,1.2656555,0.3209845,-0.0399169999999999,0.7530355,0.5033545,-0.2340279999999999,1.2901155,0.2449045,-0.217568,0.9243515,0.0008225,0.000132,1.0756485,-0.0008225,-0.000132,0.9079355,-0.3389355,0.050566,1.0985745,-0.3392755,0.032055,0.9130335,-0.6543955,0.061595,1.1065855,-0.6640055,0.0671539999999999,0
19,1.007219,0.7693209999999999,0.0442025,0.84471,0.483431,0.0058765,0.72368,0.351331,-0.1060324999999999,1.17149,0.491971,0.0131135,1.27487,0.339251,-0.0529614999999999,0.7504500000000001,0.528991,-0.2404825,1.30032,0.287011,-0.2362125,0.924293,0.000819,-5.7500000000002e-05,1.075707,-0.000819,5.7500000000002e-05,0.907706,-0.339129,0.0504835,1.098579,-0.339169,0.0320854999999999,0.912803,-0.6549290000000001,0.0614485,1.10648,-0.663509,0.0670844999999999,0
20,1.0070739999999998,0.7695200000000001,0.045473,0.8446400000000001,0.48339,0.004951,0.7173,0.36922,-0.1183659999999999,1.17174,0.49243,0.012858,1.28391,0.35869,-0.066646,0.74778,0.55289,-0.2456959999999999,1.31004,0.33591,-0.252106,0.924235,0.000798,-0.0002809999999999,1.075765,-0.000798,0.000281,0.907491,-0.33956,0.050385,1.09855,-0.33913,0.032106,0.912528,-0.65553,0.061279,1.10634,-0.6630499999999999,0.066984,0
21,1.0068645,0.769637,0.046844,0.8444465,0.483477,0.004105,0.7107165000000001,0.387907,-0.1298309999999999,1.1720765,0.4931169999999999,0.012496,1.2931465,0.3772169999999999,-0.080211,0.7444165,0.574937,-0.248931,1.3177565,0.386997,-0.2644209999999999,0.9241795,0.000761,-0.0005039999999999,1.0758205,-0.000761,0.0005039999999999,0.9072595,-0.340093,0.050308,1.0984565,-0.339273,0.032148,0.9122005,-0.656273,0.061087,1.1061165,-0.662473,0.066881,0
22,1.0065965,0.7696615,0.0483085,0.8441845,0.4836815,0.0034855,0.7042745,0.4077415,-0.1404795,1.1725245,0.4940015,0.0120185,1.3026745,0.3960915,-0.0929794999999999,0.7404045,0.5983015,-0.2509194999999999,1.3241245,0.4377815,-0.2743195,0.9241355,0.0007185,-0.0006364999999999,1.0758645,-0.0007185,0.0006364999999999,0.9069625,-0.3408885,0.0503035,1.0983145,-0.3395085,0.0322965,0.9118315,-0.6572285,0.0609595,1.1058745,-0.6619585,0.0669035,0
23,1.006301,0.7694880000000001,0.04981,0.843808,0.484038,0.0028159999999999,0.699328,0.428408,-0.1495459999999999,1.1727679999999998,0.495118,0.0114989999999999,1.310248,0.417388,-0.104266,0.736148,0.622438,-0.252536,1.329418,0.488678,-0.280786,0.924103,0.000643,-0.0006919999999999,1.075897,-0.0006429999999999,0.0006919999999999,0.906586,-0.3417719999999999,0.050338,1.098048,-0.3399419999999999,0.032476,0.911403,-0.658152,0.06095,1.105508,-0.661642,0.06694,0
24,1.006093,0.7692,0.051424,0.843333,0.4849299999999999,0.0023029999999999,0.695433,0.4505599999999999,-0.155096,1.172853,0.4961,0.010988,1.315903,0.44345,-0.1140559999999999,0.731803,0.64612,-0.253106,1.333783,0.54427,-0.283336,0.924088,0.00058,-0.000743,1.075912,-0.00058,0.000743,0.906204,-0.34264,0.050376,1.0977629999999998,-0.3405,0.032637,0.910961,-0.65923,0.060935,1.105133,-0.66147,0.06701,0
25,1.0059015,0.768592,0.0528545,0.8426425000000001,0.486122,0.0019744999999999,0.6927125000000001,0.472852,-0.1581884999999999,1.1726225,0.497612,0.0102354999999999,1.3207125,0.470802,-0.1239585,0.7273324999999999,0.668612,-0.2530785,1.3374324999999998,0.6024120000000001,-0.2846385,0.9240825,0.0004789999999999,-0.0007925,1.0759175,-0.000479,0.0007925,0.9057635,-0.343798,0.0504155,1.0974025,-0.3413779999999999,0.0327655,0.9104505,-0.660648,0.0608905,1.1047425,-0.6616679999999999,0.0670645,0
26,1.005711,0.7676835000000001,0.054199,0.841832,0.4874435,0.0017749999999999,0.690762,0.4953535,-0.159229,1.172152,0.4994734999999999,0.0093189999999999,1.323632,0.4980435,-0.132619,0.722602,0.6950735,-0.252999,1.336942,0.6517735,-0.284539,0.924084,0.0003654999999999,-0.000793,1.075916,-0.0003654999999999,0.0007929999999999,0.905318,-0.3450065,0.0504149999999999,1.097002,-0.3425565,0.0329439999999999,0.909934,-0.6621165,0.0609089999999999,1.104302,-0.6621765,0.067184,0
27,1.0055824999999998,0.766345,0.055382,0.8409225,0.488965,0.0017529999999999,0.6895225,0.515345,-0.1590389999999999,1.1716625,0.5016550000000001,0.0084649999999999,1.3231725,0.526755,-0.139169,0.7179825,0.717765,-0.252829,1.3364525,0.696655,-0.284349,0.9241345,0.00024,-0.00068,1.0758655,-0.0002399999999999,0.00068,0.9049135,-0.346615,0.050424,1.0965825,-0.344115,0.033134,0.9094345,-0.663995,0.0609949999999999,1.1038625,-0.663075,0.0673739999999999,0
28,1.005506,0.764583,0.0563235,0.840027,0.490673,0.0020275,0.689067,0.531203,-0.1587624999999999,1.171217,0.504173,0.0077845,1.322717,0.550183,-0.1388924999999999,0.713417,0.734023,-0.2518025,1.335997,0.737193,-0.2840725,0.924249,0.000164,-0.0005254999999999,1.075751,-0.000164,0.0005255,0.90462,-0.348627,0.0505175,1.096217,-0.346097,0.0334115,0.908973,-0.666057,0.0611695,1.103477,-0.664417,0.0676375,0
29,1.0055085,0.7625014999999999,0.0570964999999999,0.8391585,0.4923514999999999,0.0024095,0.6886485,0.5471015,-0.1583784999999999,1.1707985,0.5067115,0.0073694999999999,1.3222985,0.5727215,-0.1388185,0.7089785,0.7499815,-0.2492685,1.3342885,0.7704115,-0.2818285,0.9243675,0.0001495,-0.0003794999999999,1.0756325,-0.0001494999999999,0.0003794999999999,0.9044115,-0.3509385,0.0505915,1.0958785,-0.3483685,0.0337955,0.9085545,-0.6683685,0.0614725,1.1031585,-0.6661085,0.0679984999999999,0
30,1.005628,0.7601285,0.0577525,0.8384090000000001,0.4945385,0.0028965,0.688319,0.5624385000000001,-0.1566205,1.170319,0.5089285,0.0071735,1.320899,0.5956385000000001,-0.1383405,0.705079,0.7649085,-0.2444805,1.333929,0.7973785,-0.2740005,0.924511,0.0001244999999999,-0.0001634999999999,1.075489,-0.0001245,0.0001635,0.904288,-0.3534315,0.0507055,1.095679,-0.3508415,0.0342395,0.908225,-0.6709615,0.0618855,1.102929,-0.6682115,0.0684535,0
31,1.0058545,0.7574465,0.0583869999999999,0.8376345000000001,0.4965265,0.0035999999999999,0.6891145000000001,0.5761365,-0.152118,1.1696545,0.5112765,0.0073389999999999,1.3175045,0.6180565,-0.137718,0.7017745,0.7776765,-0.237838,1.3327945,0.8232365,-0.263098,0.9246525,0.0001594999999999,3.9999999999970615e-06,1.0753475,-0.0001594999999999,-4.000000000004e-06,0.9042695,-0.3560035,0.05094,1.0955645,-0.3536435,0.034815,0.9080085,-0.6738934999999999,0.0624659999999999,1.1027745,-0.6706934999999999,0.069057,0
32,1.0061685,0.7545555,0.0591015,0.8372395,0.4985655,0.0043805,0.6907194999999999,0.5884855,-0.1467955,1.1687695,0.5135155,0.0076624999999999,1.3133895,0.6393255,-0.1346454999999999,0.6987795,0.7898055,-0.2305554999999999,1.3314495,0.8458155,-0.2515655,0.9247775,0.0002454999999999,0.0001844999999999,1.0752225,-0.0002455,-0.0001844999999999,0.9044545000000002,-0.3575045,0.0509205,1.0955895,-0.3564744999999999,0.0354425,0.9079235,-0.6769045,0.0631355,1.1027095,-0.6733245,0.0697245,0
33,1.006457,0.751456,0.0599345,0.836813,0.500196,0.0054255,0.6934830000000001,0.599326,-0.1390934999999999,1.1676129999999998,0.515946,0.0080674999999999,1.308053,0.654556,-0.1313935,0.696213,0.801356,-0.2223235,1.330493,0.863986,-0.2399934999999999,0.924907,0.000332,0.0003114999999999,1.075093,-0.0003319999999999,-0.0003114999999999,0.904672,-0.359204,0.0510064999999999,1.095733,-0.359074,0.0360305,0.907863,-0.680204,0.0639255,1.102653,-0.676204,0.0705095,0
34,1.006764,0.7483785,0.0606675,0.836422,0.5015585,0.0065714999999999,0.696812,0.6092385,-0.1302045,1.166342,0.5181285,0.0086734999999999,1.301992,0.6691285,-0.1278445,0.694372,0.8185285,-0.2125845,1.329612,0.8807785,-0.2274245,0.925014,0.0004585,0.0003354999999999,1.074986,-0.0004584999999999,-0.0003355,0.904916,-0.3607114999999999,0.0511195,1.095942,-0.3614315,0.0365924999999999,0.907814,-0.6834215,0.0647415,1.102552,-0.6793615000000001,0.0712825,0
35,1.0071245,0.7453299999999999,0.061158,0.8360295,0.50274,0.007913,0.6993895,0.6185499999999999,-0.121012,1.1651895,0.52028,0.009383,1.2959695,0.6830299999999999,-0.122912,0.6929595,0.8295699999999999,-0.202652,1.3287795,0.89848,-0.2133519999999999,0.9250975,0.00059,0.000299,1.0749025,-0.00059,-0.000299,0.9051885,-0.36191,0.051196,1.0961995,-0.36339,0.037033,0.9077655,-0.6866000000000001,0.065594,1.1024695,-0.68249,0.072079,0
36,1.0075485,0.7424810000000001,0.0613059999999999,0.8356855,0.504481,0.0093009999999999,0.7019055000000001,0.628621,-0.113542,1.1642355,0.5221210000000001,0.0101269999999999,1.2905955,0.694561,-0.115502,0.6920155,0.8407910000000001,-0.192322,1.3280855,0.913661,-0.200022,0.9251525,0.000778,0.0001359999999999,1.0748475,-0.0007779999999999,-0.000136,0.9054645,-0.3628989999999999,0.0512219999999999,1.0965155,-0.365049,0.0374369999999999,0.9077495,-0.689809,0.066452,1.1024455,-0.685699,0.072901,0
37,1.008014,0.739838,0.061273,0.835457,0.506168,0.01063,0.704677,0.6390180000000001,-0.1065919999999999,1.163537,0.523698,0.010911,1.285777,0.7032879999999999,-0.1077819999999999,0.691417,0.8502479999999999,-0.1817119999999999,1.327537,0.925528,-0.186752,0.925198,0.0009329999999999,-6.699999999999762e-05,1.074802,-0.000933,6.699999999999762e-05,0.90576,-0.363772,0.051239,1.096887,-0.366422,0.037769,0.907816,-0.6928719999999999,0.06731,1.102497,-0.688742,0.073729,0
38,1.0084315,0.7372875000000001,0.061101,0.8352315000000001,0.5081875,0.011966,0.7077915,0.6502874999999999,-0.099899,1.1630015,0.5251574999999999,0.011721,1.2813914999999998,0.7104275,-0.099659,0.6914315,0.8609475,-0.170349,1.3269015,0.9354575,-0.173379,0.9252765,0.0010474999999999,-0.0002629999999999,1.0747235,-0.0010474999999999,0.0002629999999999,0.9060695,-0.3648325,0.051302,1.0972814999999998,-0.3675725,0.037994,0.9079055,-0.6958925,0.068115,1.1025715,-0.6917925,0.074473,0
39,1.0087835,0.7349085,0.0606685,0.8351535,0.5100785,0.0133395,0.7112434999999999,0.6605885,-0.0934894999999999,1.1625535,0.5264885,0.0125495,1.2775335,0.7171185,-0.0918395,0.6914534999999999,0.8729785,-0.1588895,1.3260235,0.9441385,-0.1602294999999999,0.9253525,0.0011885,-0.0005454999999999,1.0746475,-0.0011885,0.0005455,0.9063255,-0.3659115,0.0513685,1.0975935,-0.3686915,0.0381895,0.9079835,-0.6988615,0.0689005,1.1026435,-0.6947915,0.0751885,0
40,1.009102,0.732864,0.060104,0.8351310000000001,0.512314,0.0146629999999999,0.715101,0.671054,-0.087235,1.162241,0.527334,0.01329,1.275301,0.722674,-0.086015,0.6914910000000001,0.885324,-0.147685,1.325031,0.952094,-0.147535,0.925386,0.00135,-0.000781,1.074614,-0.0013499999999999,0.0007809999999999,0.906499,-0.3666459999999999,0.051336,1.097851,-0.369456,0.038277,0.908092,-0.701466,0.069587,1.102711,-0.697556,0.075778,0
41,1.0094105,0.7311234999999999,0.059504,0.8352364999999999,0.5143734999999999,0.015938,0.7192065000000001,0.6811634999999999,-0.0809089999999999,1.1620765,0.5279134999999999,0.013984,1.2731165,0.7261335,-0.0811089999999999,0.6915665,0.8964234999999999,-0.137339,1.3239765,0.9578135,-0.136149,0.9254055,0.0015304999999999,-0.0010259999999999,1.0745945,-0.0015304999999999,0.0010259999999999,0.9066155,-0.3681365,0.051574,1.0980965,-0.3701365,0.038342,0.9082365,-0.7038865000000001,0.070249,1.1027665,-0.7000065000000001,0.0763389999999999,0
42,1.0097275,0.7295929999999999,0.058839,0.8353794999999999,0.516423,0.017089,0.7230395000000001,0.6899029999999999,-0.076174,1.1621195,0.528313,0.014571,1.2713295,0.729703,-0.076184,0.6920295000000001,0.906653,-0.1282039999999999,1.3228195,0.963173,-0.1253139999999999,0.9254235,0.001716,-0.001223,1.0745765,-0.001716,0.001223,0.9067605,-0.369337,0.051698,1.0982595,-0.370997,0.038409,0.9084065,-0.706047,0.070809,1.1028595,-0.7022470000000001,0.076797,0
43,1.010046,0.7282805000000001,0.0581599999999999,0.835574,0.5185005,0.0181619999999999,0.726754,0.6976705000000001,-0.071839,1.162204,0.5282804999999999,0.0150139999999999,1.269844,0.7325405,-0.071919,0.692844,0.9095305,-0.120779,1.321654,0.9670005000000002,-0.116079,0.925427,0.0019155,-0.001414,1.074573,-0.0019154999999999,0.0014139999999999,0.906926,-0.3703495,0.0517269999999999,1.098424,-0.3718395,0.038411,0.908605,-0.7080394999999999,0.0713179999999999,1.102974,-0.7043195,0.0771719999999999,0
44,1.0103365,0.7271325000000001,0.0575025,0.8358845,0.5206825,0.0191184999999999,0.7303345,0.7041025000000001,-0.0679775,1.1623645,0.5278625,0.0153054999999999,1.2687145,0.7348425000000001,-0.0683475,0.6938345,0.9125325,-0.1133975,1.3202745,0.9673925,-0.1085975,0.9253995,0.0021394999999999,-0.0016265,1.0746005,-0.0021395,0.0016264999999999,0.9070365,-0.3714075,0.0517635,1.0986345,-0.3729075,0.0384204999999999,0.9088395,-0.7098774999999999,0.0717005,1.1031345,-0.7062275,0.0774235,0
45,1.0105505,0.7261225,0.056867,0.8362065,0.5220525,0.019828,0.7334665,0.7096325000000001,-0.064612,1.1625565,0.5274025,0.015491,1.2678865,0.7368025,-0.065312,0.6947865,0.9153825,-0.1067719999999999,1.3188164999999998,0.9677025,-0.101562,0.9253865,0.0023265,-0.0017919999999999,1.0746135,-0.0023264999999999,0.001792,0.9071215,-0.3723875,0.051832,1.0988265,-0.3737675,0.038395,0.9090315,-0.7114974999999999,0.071997,1.1033065,-0.7079375000000001,0.077563,0
46,1.01079,0.725229,0.0562765,0.836502,0.523329,0.0204945,0.736252,0.714419,-0.0616774999999999,1.162762,0.526749,0.0156355,1.267272,0.738469,-0.0627175,0.695792,0.917719,-0.1009075,1.317402,0.967809,-0.0956875,0.925355,0.0025149999999999,-0.0019204999999999,1.074645,-0.002515,0.0019204999999999,0.907241,-0.373071,0.0518485,1.098992,-0.374571,0.0383685,0.909255,-0.712831,0.0722165,1.103502,-0.709441,0.0776635,0
47,1.0110374999999998,0.7245029999999999,0.0557055,0.8367045,0.5243530000000001,0.0210535,0.7385645000000001,0.717023,-0.0590805,1.1629845,0.525933,0.0157894999999999,1.2668945,0.7398530000000001,-0.0606605,0.6965245000000001,0.919673,-0.0962104999999999,1.3163045,0.968133,-0.0911805,0.9253065,0.002692,-0.0020165,1.0746935,-0.002692,0.0020164999999999,0.9072935,-0.373537,0.0518235,1.0991445,-0.375267,0.0383494999999999,0.9094835,-0.7139869999999999,0.0724235,1.1037045,-0.710847,0.0777275,0
48,1.0112555,0.7239614999999999,0.0553455,0.8370394999999999,0.5248915000000001,0.0214615,0.7402695,0.7191615,-0.0571005,1.1631795,0.5252815,0.0159625,1.2666895,0.7407515,-0.0592705,0.6969695,0.9203115,-0.0930205,1.3155195,0.9687815,-0.0880205,0.9252535,0.0028684999999999,-0.0020654999999999,1.0747465,-0.0028685,0.0020654999999999,0.9073315,-0.3736885,0.0517685,1.0992595,-0.3757985,0.0383795,0.9096605,-0.7148185,0.0725995,1.1038795,-0.7119285,0.0777455,0
49,1.0113925,0.723417,0.055014,0.8372915,0.5251469999999999,0.021767,0.7412515,0.720177,-0.0557629999999999,1.1633015,0.5247069999999999,0.016115,1.2665115,0.741297,-0.058283,0.6972615,0.920567,-0.090733,1.3149515,0.968797,-0.086153,0.9252455,0.0029749999999999,-0.0020779999999999,1.0747545,-0.0029749999999999,0.002078,0.9073535,-0.373733,0.051678,1.0992915,-0.376303,0.038386,0.9097845,-0.715553,0.072725,1.1039715,-0.712783,0.077764,0
50,1.011489,0.72293,0.0547265,0.8374969999999999,0.52541,0.0220725,0.741857,0.72064,-0.0547105,1.163397,0.52425,0.0162585,1.266427,0.74164,-0.0575805,0.697357,0.92102,-0.0889705,1.314567,0.96883,-0.0847005,0.925244,0.0030579999999999,-0.0020955,1.074756,-0.0030579999999999,0.0020955,0.907364,-0.37368,0.0515935,1.099327,-0.37674,0.0383685,0.909886,-0.7161,0.0728115,1.104047,-0.71353,0.0777465,0
51,1.0115515,0.722501,0.054481,0.8375765,0.5256909999999999,0.022416,0.7421565,0.7209209999999999,-0.0538469999999999,1.1634765,0.523681,0.016384,1.2664065,0.741521,-0.057037,0.6974065,0.921691,-0.087457,1.3143465,0.969461,-0.0836069999999999,0.9252515,0.0031189999999999,-0.0021319999999999,1.0747485,-0.0031189999999999,0.002132,0.9074005,-0.3736089999999999,0.051528,1.0993564999999998,-0.377119,0.038336,0.9099515,-0.716489,0.072889,1.1040865,-0.714249,0.07771,0
52,1.01159,0.7220635,0.0543269999999999,0.837594,0.5258335,0.0227139999999999,0.7422139999999999,0.7210535,-0.053201,1.1635339999999998,0.5238435,0.0166099999999999,1.266404,0.7413935,-0.056635,0.697424,0.9224035,-0.0863449999999999,1.314264,0.9699735,-0.083025,0.925262,0.0031525,-0.00218,1.074738,-0.0031525,0.0021799999999999,0.907418,-0.3735165,0.0514769999999999,1.099374,-0.3774765,0.0382879999999999,0.909967,-0.7168065,0.072956,1.104074,-0.7148465,0.077662,0
53,1.011628,0.7217125,0.0541865,0.8376030000000001,0.5259425,0.0230005,0.742213,0.7206625,-0.0526575,1.163583,0.5240425,0.0168315,1.266403,0.7412225,-0.0563134999999999,0.697203,0.9232825,-0.0855235,1.314273,0.9705825,-0.0826635,0.925271,0.0031704999999999,-0.0022155,1.0747289999999998,-0.0031704999999999,0.0022155,0.907427,-0.3734975,0.0514095,1.099383,-0.3777375,0.0382365,0.909972,-0.7170375,0.0730035,1.104053,-0.7153375000000001,0.0776245,0
54,1.011665,0.721376,0.0540615,0.8376050000000002,0.5260659999999999,0.0232735,0.7422150000000001,0.720306,-0.0521605,1.163625,0.5242359999999999,0.0170315,1.266405,0.741016,-0.0560905,0.696725,0.924096,-0.0849104999999999,1.314275,0.971126,-0.0825804999999999,0.925273,0.003179,-0.0022474999999999,1.074727,-0.003179,0.0022474999999999,0.907429,-0.373534,0.0513225,1.099385,-0.378074,0.0382005,0.909987,-0.717224,0.0730245,1.104035,-0.715784,0.0776025,0
55,1.0117029999999998,0.7210995,0.0539645,0.837607,0.5261494999999999,0.0235025,0.742217,0.7199995,-0.0517455,1.163697,0.5244295,0.0172145,1.266407,0.7407095,-0.0559574999999999,0.696027,0.9248095,-0.0845974999999999,1.314277,0.9719195,-0.0826075,0.925274,0.0031754999999999,-0.0022674999999999,1.074726,-0.0031754999999999,0.0022675,0.907456,-0.3736105,0.0512255,1.099387,-0.3783805,0.0381695,0.909988,-0.7173605000000001,0.0730035,1.104017,-0.7161405000000001,0.0775505,0
56,1.0117334999999998,0.7208805,0.0538935,0.8375855,0.5262505,0.0237405,0.7420255,0.7196505,-0.0512185,1.1637354999999998,0.5246405,0.0173765,1.2664255,0.7404705,-0.0558285,0.6953455,0.9248005,-0.0845185,1.3146855,0.9728805,-0.0826585,0.9252855,0.0031744999999999,-0.0022744999999999,1.0747145,-0.0031745,0.0022744999999999,0.9075175,-0.3736195,0.0511685,1.0993855,-0.3785995,0.0381715,0.9099745,-0.7174495,0.0729825,1.1039755,-0.7163995,0.0775225,0
57,1.0117575,0.7206729999999999,0.053821,0.8375025,0.5263230000000001,0.0239689999999999,0.7417825,0.7192130000000001,-0.050685,1.1637725,0.5249330000000001,0.0175549999999999,1.2664825,0.740243,-0.055671,0.6945825,0.924823,-0.084461,1.3151525,0.973653,-0.082731,0.9253085,0.0031749999999999,-0.002281,1.0746915,-0.0031749999999999,0.0022809999999999,0.9075895,-0.373627,0.051128,1.0993825,-0.378817,0.038172,0.9099525,-0.7175469999999999,0.0729539999999999,1.1039225,-0.716637,0.0775069999999999,0
58,1.0117664999999998,0.720512,0.0537585,0.8374015,0.5264220000000001,0.0241795,0.7414715000000001,0.718612,-0.0501795,1.1637915,0.525292,0.0177395,1.2665715,0.740032,-0.0555195,0.6937515000000001,0.924872,-0.0844095,1.3155915,0.974162,-0.0827995,0.9253395,0.003172,-0.0022935,1.0746604999999998,-0.003172,0.0022934999999999,0.9076415,-0.373648,0.0511065,1.0993814999999998,-0.379008,0.0381785,0.9099095,-0.717698,0.0729055,1.1038415,-0.716928,0.0774785,0
59,1.0117835,0.7203839999999999,0.053727,0.8373015,0.526474,0.02434,0.7411615,0.7179139999999999,-0.0496929999999999,1.1638015,0.525654,0.017907,1.2666915,0.739784,-0.055361,0.6929915,0.924754,-0.084341,1.3160715,0.974694,-0.082851,0.9253725,0.0031549999999999,-0.002304,1.0746275,-0.0031549999999999,0.002304,0.9076795,-0.373696,0.051091,1.0993715,-0.379236,0.038185,0.9098535,-0.7178460000000001,0.07286,1.1037515,-0.7170960000000001,0.077464,0
60,1.0117865,0.720255,0.0537425,0.8371895,0.526465,0.0244565,0.7408595,0.717235,-0.0492315,1.1638995,0.526115,0.0182985,1.2668295,0.739475,-0.0552244999999999,0.6922695000000001,0.924605,-0.0842344999999999,1.3165095,0.974705,-0.0829345,0.9254005,0.0031299999999999,-0.0023115,1.0745995,-0.00313,0.0023115,0.9076865,-0.373765,0.0510605,1.0993295,-0.379425,0.0381455,0.9097955,-0.717945,0.0728105,1.1036395,-0.717265,0.0774425,0
61,1.011813,0.720178,0.053826,0.837092,0.526508,0.0245759999999999,0.7405920000000001,0.716588,-0.048793,1.164042,0.526238,0.0185939999999999,1.267002,0.739228,-0.055045,0.691632,0.924508,-0.084095,1.316912,0.974678,-0.082995,0.925411,0.0031179999999999,-0.002318,1.074589,-0.003118,0.0023179999999999,0.907678,-0.373812,0.0510749999999999,1.099312,-0.379552,0.0381259999999999,0.909726,-0.718072,0.07278,1.103572,-0.717392,0.077436,0
62,1.0118545,0.720133,0.0539529999999999,0.8370055000000001,0.526553,0.0246979999999999,0.7403155,0.7160730000000001,-0.04848,1.1641655,0.5262830000000001,0.0188599999999999,1.2671955,0.738973,-0.054823,0.6911054999999999,0.924443,-0.083973,1.3172355,0.974553,-0.082983,0.9254215,0.0031069999999999,-0.002323,1.0745785,-0.003107,0.0023229999999999,0.9076695,-0.373877,0.0510609999999999,1.0992855,-0.379687,0.0381109999999999,0.9096755,-0.718197,0.072752,1.1035055,-0.717517,0.077413,0
63,1.0119079999999998,0.7201029999999999,0.054123,0.836927,0.526613,0.024825,0.740047,0.7156129999999999,-0.0481879999999999,1.1642769999999998,0.526323,0.019115,1.267367,0.738773,-0.054603,0.690707,0.924373,-0.083843,1.317437,0.974843,-0.082993,0.925434,0.0030999999999999,-0.002314,1.074566,-0.0030999999999999,0.0023139999999999,0.907645,-0.373927,0.05106,1.099257,-0.379817,0.038113,0.909631,-0.718257,0.072736,1.103437,-0.717637,0.077429,0
64,1.0119595,0.7200925,0.0543125,0.8368615,0.5266725,0.0249485,0.7398615,0.7151125,-0.0479054999999999,1.1644415,0.5262425000000001,0.0193625,1.2675515,0.7386125,-0.0543724999999999,0.6904315000000001,0.9243225,-0.0837125,1.3174815,0.9744425,-0.0830025,0.9254465,0.0030844999999999,-0.0023044999999999,1.0745535,-0.0030844999999999,0.0023045,0.9076395,-0.3739575,0.0510655,1.0992315,-0.3799275,0.0381085,0.9095585,-0.7182875,0.0726365,1.1034015,-0.7178775,0.0774195,0
65,1.0120165,0.7200709999999999,0.054559,0.8367975,0.526721,0.02507,0.7397175,0.7149810000000001,-0.0477849999999999,1.1645975,0.526181,0.019617,1.2677075,0.7384710000000001,-0.05413,0.6903675,0.924181,-0.083603,1.3174175,0.974341,-0.083003,0.9254525,0.00307,-0.0023039999999999,1.0745475,-0.0030699999999999,0.002304,0.9076285,-0.3739989999999999,0.051082,1.0992075,-0.379999,0.038092,0.9094985,-0.718329,0.072542,1.1033575,-0.7181690000000001,0.077419,0
66,1.0120625,0.7200445000000001,0.0547949999999999,0.8367325,0.5267545,0.0251559999999999,0.7396325,0.7148745000000001,-0.047666,1.1647225,0.5261245,0.0198439999999999,1.2678525,0.7383645000000001,-0.053942,0.6903025,0.9239645,-0.083479,1.3173525,0.9742345,-0.082889,0.9254505,0.0030434999999999,-0.0023,1.0745495,-0.0030434999999999,0.0022999999999999,0.9076175,-0.3740655,0.0510979999999999,1.0991925,-0.3800755,0.0380859999999999,0.9094415,-0.7183854999999999,0.072446,1.1033025,-0.7184455,0.077397,0
67,1.012106,0.720045,0.0550635,0.8366629999999999,0.526775,0.0252314999999999,0.739563,0.7147650000000001,-0.0475185,1.164833,0.5260849999999999,0.0200664999999999,1.267973,0.7382550000000001,-0.0537445,0.690223,0.923745,-0.0832545,1.317273,0.974125,-0.0826745,0.92545,0.00302,-0.0022945,1.07455,-0.0030199999999999,0.0022944999999999,0.907609,-0.3741649999999999,0.0511115,1.099173,-0.380185,0.0380864999999999,0.909373,-0.718545,0.0723574999999999,1.1032829999999998,-0.7187749999999999,0.0773725,0
68,1.012126,0.7200344999999999,0.0553485,0.836588,0.5267744999999999,0.0253085,0.7394879999999999,0.7147745000000001,-0.0473825,1.164928,0.5260545000000001,0.0202855,1.268048,0.7381445,-0.0535485,0.6902280000000001,0.9235245,-0.0830314999999999,1.316818,0.9735145,-0.0823414999999999,0.925444,0.0029854999999999,-0.0022674999999999,1.074556,-0.0029855,0.0022674999999999,0.907594,-0.3742755,0.0511525,1.099148,-0.3802955,0.0380935,0.909298,-0.7187655,0.0722875,1.103258,-0.7191055,0.0773675,0
69,1.01216,0.7200415,0.0556105,0.836569,0.5268015,0.0253805,0.739449,0.7148715,-0.0472314999999999,1.164919,0.5259915000000001,0.0203215,1.268109,0.7380815000000001,-0.0533595,0.690469,0.9233315,-0.0828455,1.316389,0.9730515,-0.0820155,0.925443,0.0029625,-0.0022355,1.074557,-0.0029625,0.0022355,0.907607,-0.3743384999999999,0.0511945,1.099169,-0.3803185,0.0380755,0.909242,-0.7190084999999999,0.0722095,1.103289,-0.7193885,0.0773615,0
70,1.012183,0.7200535,0.0558585,0.836564,0.5268235,0.0254464999999999,0.739484,0.7149835,-0.0470925,1.164904,0.5259335,0.0203574999999999,1.268164,0.7380535,-0.0531825,0.690964,0.9230535,-0.0826595,1.315974,0.9726935,-0.0816495,0.925437,0.0029394999999999,-0.0022055,1.074563,-0.0029395,0.0022054999999999,0.90762,-0.3744065,0.0512464999999999,1.099194,-0.3803465,0.0380524999999999,0.90915,-0.7191965,0.0720995,1.103324,-0.7196365,0.0773395,0
71,1.012198,0.720058,0.056074,0.836551,0.526838,0.025494,0.7395510000000001,0.715138,-0.046984,1.164871,0.5258780000000001,0.020391,1.268181,0.738038,-0.053089,0.691641,0.922818,-0.082466,1.315541,0.972338,-0.081286,0.925431,0.002915,-0.00218,1.074569,-0.002915,0.00218,0.907631,-0.374542,0.051302,1.099211,-0.380362,0.038027,0.909059,-0.719382,0.07199,1.103381,-0.7198519999999999,0.077333,0
72,1.012197,0.7200475000000001,0.0562595,0.8365480000000001,0.5268275,0.0255265,0.7396579999999999,0.7153175,-0.0468975,1.164848,0.5256475,0.0203765,1.268198,0.7380275000000001,-0.0529995,0.692518,0.9223975,-0.0822834999999999,1.315068,0.9720775,-0.0809034999999999,0.925424,0.0028955,-0.0021455,1.074576,-0.0028954999999999,0.0021455,0.907623,-0.3746725,0.0513565,1.099228,-0.3803825,0.0380034999999999,0.908962,-0.7195325,0.0718825,1.103438,-0.7200624999999999,0.0773145,0
73,1.0121905,0.720044,0.0564245,0.8365525,0.526804,0.0255495,0.7397724999999999,0.7155440000000001,-0.0468384999999999,1.1648125,0.5254340000000001,0.0203545,1.2681825,0.738064,-0.0529395,0.6934325,0.921984,-0.0821105,1.3146125,0.971714,-0.0805305,0.9254165,0.0028819999999999,-0.0021204999999999,1.0745835,-0.002882,0.0021205,0.9075875,-0.3748559999999999,0.0514255,1.0992325,-0.3804059999999999,0.0379665,0.9088625,-0.7196359999999999,0.0718175,1.1034525,-0.720186,0.0772915,0
74,1.0121895,0.7200624999999999,0.056537,0.8365595,0.5267824999999999,0.0255729999999999,0.7399595,0.7157924999999999,-0.046796,1.1647895,0.5252724999999999,0.0203459999999999,1.2681895,0.7381325,-0.052862,0.6943895,0.9215525,-0.081938,1.3142095,0.9714525,-0.080188,0.9254015,0.0028664999999999,-0.002101,1.0745985,-0.0028665,0.0021009999999999,0.9075635,-0.3750175,0.051474,1.0992495,-0.3804375,0.0379269999999999,0.9087945,-0.7196675,0.071765,1.1034495,-0.7202475,0.077265,0
75,1.0122015,0.720086,0.056632,0.8366015000000001,0.5267660000000001,0.025578,0.7401715,0.716046,-0.046782,1.1647815,0.525126,0.02033,1.2681815,0.7381660000000001,-0.052823,0.6954215,0.921076,-0.081818,1.3138915,0.971396,-0.079978,0.9253935,0.002864,-0.00209,1.0746064999999998,-0.0028639999999999,0.00209,0.9075555,-0.375154,0.0514919999999999,1.0992615,-0.380484,0.037878,0.9087525,-0.719714,0.071714,1.1034515,-0.720304,0.077215,0
76,1.0122165,0.7200820000000001,0.056678,0.8366415,0.526742,0.02557,0.7403715,0.716342,-0.0467809999999999,1.1647715,0.5249919999999999,0.020301,1.2682015,0.7382420000000001,-0.052798,0.6964715,0.920572,-0.081808,1.3136715,0.971442,-0.079788,0.9253935,0.002861,-0.00209,1.0746064999999998,-0.0028609999999999,0.00209,0.9075545,-0.375258,0.05148,1.0992815,-0.380528,0.037813,0.9087565,-0.7195879999999999,0.071657,1.1034515,-0.720358,0.0771459999999999,0
77,1.0122325,0.7200850000000001,0.0567135,0.8366815000000001,0.526725,0.0255475,0.7405615,0.7166250000000001,-0.0467785,1.1647715,0.524845,0.0202614999999999,1.2682115,0.738315,-0.0527744999999999,0.6973715,0.920025,-0.0818085,1.3134815,0.971595,-0.0796685,0.9253935,0.002876,-0.0020895,1.0746064999999998,-0.0028759999999999,0.0020895,0.9075305,-0.375415,0.0514765,1.0992815,-0.380545,0.0377735,0.9087485,-0.7195149999999999,0.0716094999999999,1.1034515,-0.720395,0.0770655,0
78,1.0122535,0.7201009999999999,0.0567585,0.8367155,0.5267010000000001,0.0255265,0.7407355,0.716861,-0.0467805,1.1647755,0.5247010000000001,0.0202175,1.2682555,0.7384809999999999,-0.0527544999999999,0.6982155,0.919441,-0.0818115,1.3133255,0.971441,-0.0796315,0.9253895,0.0028929999999999,-0.0020864999999999,1.0746105,-0.002893,0.0020865,0.9074865,-0.375609,0.0514735,1.0992855,-0.380589,0.0377365,0.9087395,-0.719579,0.0715605,1.1034555,-0.7205090000000001,0.0769735,0
79,1.012303,0.72014,0.056763,0.836787,0.52667,0.0254649999999999,0.7408870000000001,0.71714,-0.046853,1.164787,0.52454,0.020128,1.268327,0.7386699999999999,-0.052783,0.699037,0.91888,-0.081867,1.313207,0.97118,-0.0796669999999999,0.925383,0.0029099999999999,-0.002085,1.074617,-0.00291,0.0020849999999999,0.907412,-0.37579,0.051392,1.099317,-0.38065,0.037652,0.908764,-0.71974,0.0714839999999999,1.1034769999999998,-0.72062,0.076806,0
80,1.012403,0.720194,0.0566865,0.836901,0.526624,0.0253185,0.7410909999999999,0.717344,-0.0470154999999999,1.164861,0.5244040000000001,0.0199665,1.268451,0.7388539999999999,-0.0529075,0.699811,0.918354,-0.0820375,1.313291,0.971214,-0.0797975,0.925383,0.002931,-0.0020864999999999,1.074617,-0.0029309999999999,0.0020864999999999,0.907367,-0.375946,0.0511945,1.099401,-0.380716,0.0374675,0.908829,-0.719956,0.0713125,1.103521,-0.7207159999999999,0.0765475,0
81,1.012521,0.7202854999999999,0.0565564999999999,0.837046,0.5265854999999999,0.0251165,0.741296,0.7175555,-0.0472804999999999,1.164946,0.5242755,0.0197605,1.268596,0.7390355,-0.0530895,0.700476,0.9179755,-0.0822695,1.313396,0.9714355,-0.0799794999999999,0.925386,0.0029445,-0.0020804999999999,1.074614,-0.0029444999999999,0.0020804999999999,0.907251,-0.3761345,0.0508335,1.099476,-0.3808344999999999,0.0370805,0.908896,-0.7202045,0.0710775,1.103476,-0.7208145,0.0762265,0
82,1.0126535,0.7203799999999999,0.056362,0.8372014999999999,0.5265099999999999,0.024856,0.7415115,0.7175999999999999,-0.0476149999999999,1.1650414999999998,0.5241399999999999,0.019517,1.2687315,0.73918,-0.053326,0.7011415,0.91763,-0.0825559999999999,1.3134615,0.97156,-0.080236,0.9253905,0.002958,-0.0020859999999999,1.0746095,-0.002958,0.002086,0.9070825,-0.37621,0.050266,1.0995715,-0.38095,0.036459,0.9089895,-0.72028,0.070789,1.1034315,-0.7209500000000001,0.075795,0
83,1.012842,0.72046,0.0559675,0.837408,0.5264500000000001,0.0244245,0.7417480000000001,0.7175900000000001,-0.0481485,1.165208,0.52405,0.0190855,1.268928,0.7393200000000001,-0.0537575,0.701878,0.91727,-0.0830974999999999,1.313628,0.97197,-0.0808474999999999,0.925398,0.002985,-0.0021484999999999,1.074602,-0.0029849999999999,0.0021485,0.906911,-0.37632,0.0492565,1.099738,-0.38125,0.0353265,0.909134,-0.72037,0.0702105,1.103378,-0.72143,0.0749555,0
84,1.013049,0.7204395,0.055408,0.837633,0.5263495,0.023816,0.742013,0.7175195,-0.048862,1.165383,0.5239495,0.018485,1.269113,0.7393995,-0.054379,0.702583,0.9169195,-0.083848,1.313793,0.9720695,-0.081708,0.925393,0.0030115,-0.0022029999999999,1.074607,-0.0030114999999999,0.002203,0.906732,-0.3764404999999999,0.047751,1.099933,-0.3818804999999999,0.033677,0.909302,-0.7205305000000001,0.0693469999999999,1.103233,-0.7220805,0.073895,0
85,1.013271,0.720429,0.0545225,0.838004,0.526339,0.0228715,0.742324,0.717509,-0.0499015,1.165564,0.5238889999999999,0.0175585,1.269314,0.739389,-0.0553245,0.7033240000000001,0.916659,-0.0849844999999999,1.313934,0.972059,-0.0829945,0.925376,0.0030219999999999,-0.0023024999999999,1.074624,-0.003022,0.0023025,0.906478,-0.376431,0.0453835,1.100144,-0.382721,0.0314805,0.909373,-0.720831,0.0679235,1.103074,-0.722991,0.0722485,0
86,1.0135055,0.720429,0.053144,0.8384365,0.5263289999999999,0.021448,0.7426565,0.717509,-0.051444,1.1657465,0.5238489999999999,0.016422,1.2695265,0.739389,-0.056749,0.7040765,0.916429,-0.086699,1.3141265,0.972059,-0.0848489999999999,0.9253675,0.0030219999999999,-0.002373,1.0746325,-0.003022,0.002373,0.9061455,-0.3763809999999999,0.042064,1.1004465,-0.383571,0.028388,0.9093975,-0.721141,0.065927,1.1030065,-0.723971,0.070033,0
87,1.0137645,0.720429,0.0514285,0.8389395,0.5262789999999999,0.0196675,0.7430295,0.717509,-0.0532835,1.1659295,0.523789,0.0149345,1.2697495,0.739389,-0.0585254999999999,0.7048695,0.916249,-0.0888504999999999,1.3143195,0.971959,-0.0870504999999999,0.9253445,0.0030219999999999,-0.0024294999999999,1.0746555,-0.003022,0.0024295,0.9057335,-0.376471,0.0378275,1.1008194999999998,-0.384461,0.0246365,0.9093615,-0.7216210000000001,0.0631945,1.1030795,-0.7251810000000001,0.0674045,0
88,1.014036,0.720329,0.049337,0.8395440000000001,0.526099,0.01748,0.7434339999999999,0.717499,-0.055498,1.166094,0.523779,0.013059,1.269934,0.739409,-0.0607399999999999,0.705624,0.916179,-0.0914249999999999,1.314524,0.971599,-0.089585,0.925286,0.0030619999999999,-0.0025869999999999,1.074714,-0.003062,0.0025869999999999,0.905269,-0.376571,0.032925,1.101294,-0.385371,0.02009,0.909332,-0.722321,0.059893,1.1032339999999998,-0.726411,0.064317,0
89,1.014327,0.7199405,0.0468445,0.8401640000000001,0.5259105000000001,0.0148305,0.743924,0.7174705,-0.0582065,1.166194,0.5237205,0.0108524999999999,1.269974,0.7389505000000001,-0.0634255,0.706534,0.9160005,-0.0945445,1.314754,0.9712105,-0.0924744999999999,0.925195,0.0030924999999999,-0.0028115,1.074805,-0.0030925,0.0028115,0.904631,-0.3766195,0.0270814999999999,1.101784,-0.3862295,0.0147785,0.909331,-0.7231295,0.0559115,1.103464,-0.7276294999999999,0.0607305,0
90,1.0146095,0.719355,0.0438055,0.8414225000000001,0.5252349999999999,0.0116235,0.7448025,0.7168049999999999,-0.0615084999999999,1.1661725,0.523855,0.0083095,1.2699625,0.738345,-0.0666205,0.7083524999999999,0.913605,-0.0982315,1.3149525,0.970315,-0.0957715,0.9250585,0.0029939999999999,-0.0029695,1.0749415,-0.002994,0.0029695,0.9039535,-0.376305,0.0204835,1.1023725,-0.386875,0.0087925,0.9093705,-0.7236149999999999,0.0512975,1.1037225,-0.7284250000000001,0.0564315,0
91,1.014932,0.7185954999999999,0.0402799999999999,0.8427560000000001,0.5248655,0.0077559999999999,0.745886,0.7160854999999999,-0.065436,1.166216,0.5240855,0.0051119999999999,1.269926,0.7375955,-0.070259,0.710236,0.9115455,-0.102661,1.315216,0.9697255,-0.099711,0.924852,0.0028955,-0.003048,1.075148,-0.0028955,0.0030479999999999,0.90325,-0.3756145,0.0131369999999999,1.103106,-0.3871145,0.0022139999999999,0.909485,-0.7236745,0.046044,1.104056,-0.7288145,0.0515029999999999,0
92,1.015277,0.717459,0.0363185,0.8441529999999999,0.524789,0.0034094999999999,0.747123,0.715019,-0.0699515,1.166243,0.524389,0.0013824999999999,1.269903,0.736799,-0.0743035,0.712173,0.909749,-0.1075935,1.315503,0.969229,-0.1041935,0.924523,0.002771,-0.0031065,1.075477,-0.002771,0.0031064999999999,0.902322,-0.374621,0.0050244999999999,1.103933,-0.386821,-0.0049855,0.909642,-0.723511,0.0401285,1.104433,-0.728461,0.0461525,0
93,1.015656,0.7157725,0.032131,0.845894,0.5236025,-0.0011909999999999,0.748444,0.7141225,-0.074698,1.166084,0.5236325000000001,-0.0018899999999999,1.269864,0.7359625,-0.078671,0.714224,0.9082525,-0.112826,1.315784,0.9696125,-0.109386,0.924163,0.0026974999999999,-0.0033219999999999,1.075837,-0.0026974999999999,0.003322,0.901194,-0.3728075,-0.0035569999999999,1.104864,-0.3854475,-0.012877,0.909828,-0.7225675,0.033875,1.104994,-0.7272675,0.040462,0
94,1.01606,0.7137855000000001,0.027687,0.8476810000000001,0.5228355,-0.006135,0.7497309999999999,0.7128855000000001,-0.079778,1.165941,0.5233855000000001,-0.0054839999999999,1.269771,0.7344455000000001,-0.083191,0.716281,0.9071155,-0.11838,1.316001,0.9701355,-0.11494,0.923778,0.0026025,-0.0034779999999999,1.076222,-0.0026025,0.003478,0.899969,-0.3705545,-0.012327,1.105901,-0.3837945,-0.0213079999999999,0.910213,-0.7210044999999999,0.027387,1.105621,-0.7252544999999999,0.034499,0
95,1.0164445,0.711981,0.023111,0.8494455,0.521341,-0.010755,0.7510455,0.712171,-0.085034,1.1657155,0.5231910000000001,-0.0090279999999999,1.2690055,0.730971,-0.087347,0.7183055,0.907111,-0.124142,1.3156055,0.968571,-0.120562,0.9233425,0.0024689999999999,-0.0036179999999999,1.0766575,-0.0024689999999999,0.003618,0.8985755,-0.367469,-0.021495,1.1068655,-0.381469,-0.030152,0.9106135,-0.718199,0.0205979999999999,1.1063655,-0.722139,0.028076,0
96,1.0167495,0.710074,0.018414,0.8515135,0.518864,-0.015424,0.7524335,0.711334,-0.090335,1.1654535,0.523304,-0.012347,1.2681835,0.728184,-0.091545,0.7202535,0.907844,-0.130071,1.3151635,0.963814,-0.126251,0.9228685,0.00238,-0.003843,1.0771315,-0.00238,0.003843,0.8970335,-0.363746,-0.030739,1.1077335,-0.3785659999999999,-0.039315,0.9109555,-0.714276,0.013885,1.1073335,-0.717926,0.021243,1
97,1.0169525,0.7080515,0.01375,0.8534795,0.5167514999999999,-0.019944,0.7538995,0.7102115,-0.095546,1.1651794999999998,0.5231115,-0.015381,1.2674095,0.7258515,-0.095658,0.7225695,0.9060915,-0.135813,1.3147095,0.9606215,-0.1315829999999999,0.9224375,0.0021475,-0.0039,1.0775625,-0.0021474999999999,0.0039,0.8952795,-0.3603285,-0.040491,1.1085595,-0.3747585,-0.048831,0.9112765,-0.7094885000000001,0.007213,1.1083795,-0.7133785,0.014043,1
98,1.017134,0.7060995,0.0092505,0.855411,0.5150095,-0.0242594999999999,0.7553110000000001,0.7092995,-0.1006904999999999,1.164531,0.5215395,-0.0182975,1.266721,0.7242595000000001,-0.0998034999999999,0.724901,0.9046395,-0.1416325,1.314161,0.9587395,-0.1368225,0.921982,0.0019475,-0.0038804999999999,1.078018,-0.0019474999999999,0.0038805,0.8935109999999999,-0.3561105,-0.0503225,1.109451,-0.3700604999999999,-0.0587475,0.911674,-0.7034905,0.0005485,1.109321,-0.7079305,0.0063225,1
99,1.017268,0.7047025,0.004907,0.856734,0.5138925,-0.028095,0.756424,0.7092725,-0.1057849999999999,1.163994,0.5205624999999999,-0.02132,1.266094,0.7235524999999999,-0.103882,0.726484,0.9062625,-0.14748,1.313604,0.9584925,-0.142,0.921562,0.0019385,-0.0037839999999999,1.078438,-0.0019384999999999,0.0037839999999999,0.8917440000000001,-0.3506675,-0.060617,1.110264,-0.3638774999999999,-0.068799,0.912207,-0.6961375000000001,-0.006085,1.110104,-0.7011875000000001,-0.0018239999999999,1
100,1.0174124999999998,0.702476,0.0009314999999999,0.8580415,0.512436,-0.0314065,0.7575615,0.7074060000000001,-0.1101705,1.1634715,0.5201260000000001,-0.0239745,1.2655315,0.722496,-0.1078155,0.7282415,0.904406,-0.1530194999999999,1.3128515,0.957826,-0.1468795,0.9211825,0.0018799999999999,-0.0037165,1.0788175,-0.0018799999999999,0.0037164999999999,0.8900415,-0.345354,-0.0708095,1.1113115,-0.357944,-0.0792225,0.9127695,-0.689164,-0.0123625,1.1108515,-0.694194,-0.0096885,1
101,1.01752,0.701187,-0.003071,0.8595560000000001,0.509867,-0.034628,0.7583759999999999,0.7068369999999999,-0.114537,1.162696,0.5178969999999999,-0.026179,1.264966,0.722197,-0.111794,0.729816,0.904167,-0.1586,1.311916,0.959007,-0.15173,0.920794,0.001944,-0.0036699999999999,1.079206,-0.001944,0.0036699999999999,0.8885660000000001,-0.338223,-0.080955,1.112396,-0.350863,-0.089971,0.913199,-0.6804330000000001,-0.018711,1.111416,-0.6854830000000001,-0.017562,1
102,1.0177189999999998,0.7001620000000001,-0.0069064999999999,0.860811,0.508742,-0.0377315,0.759101,0.705982,-0.1188075,1.1621709999999998,0.516552,-0.0289745,1.264501,0.721702,-0.1155325,0.731421,0.904732,-0.1640535,1.310311,0.956382,-0.1565535,0.920315,0.002076,-0.0036265,1.079685,-0.0020759999999999,0.0036264999999999,0.887231,-0.330748,-0.0912655,1.113641,-0.343468,-0.1004625,0.913646,-0.670738,-0.0251495,1.111901,-0.675738,-0.0253935,1
103,1.0179345,0.6988845,-0.0103885,0.8618165,0.5069345,-0.0404865,0.7597165,0.7056845,-0.1227315,1.1616965,0.5148445,-0.0314665,1.2640865,0.7218045,-0.1192135,0.7327165,0.9056345,-0.1692045,1.3087865,0.9544245,-0.1611545,0.9198555,0.0023094999999999,-0.0036425,1.0801445,-0.0023094999999999,0.0036425,0.8860465,-0.3234654999999999,-0.1012285,1.1148465,-0.3354855,-0.1106955,0.9141305,-0.6603855,-0.0312085,1.1123665,-0.6652255,-0.0328265,1
104,1.018168,0.697127,-0.0134789999999999,0.8628439999999999,0.505277,-0.043273,0.7602340000000001,0.703997,-0.126434,1.161144,0.513827,-0.034186,1.264254,0.7239469999999999,-0.123006,0.733744,0.905917,-0.174117,1.307664,0.953047,-0.165627,0.919475,0.002522,-0.0037209999999999,1.080525,-0.0025219999999999,0.003721,0.885114,-0.316363,-0.110545,1.116034,-0.327593,-0.12042,0.914626,-0.650153,-0.036848,1.112774,-0.654623,-0.039761,1
105,1.0184375,0.695724,-0.016433,0.8634284999999999,0.504894,-0.045918,0.7606485000000001,0.702654,-0.130476,1.1606585,0.510614,-0.036977,1.2646285,0.724574,-0.127147,0.7345385,0.903024,-0.178958,1.3064385,0.954244,-0.170138,0.9190775,0.002631,-0.003725,1.0809225,-0.002631,0.0037249999999999,0.8842485,-0.309246,-0.119845,1.1172385,-0.318976,-0.129906,0.9151435,-0.639346,-0.04241,1.1131985,-0.6432859999999999,-0.046317,1
106,1.018767,0.6936195,-0.0192345,0.863853,0.5041495,-0.0483615,0.761063,0.7001694999999999,-0.1340474999999999,1.160163,0.5081595,-0.0398635,1.264803,0.7247494999999999,-0.1307635,0.735153,0.9038695,-0.1838645,1.305733,0.9545395,-0.1744845,0.91867,0.0029034999999999,-0.0037925,1.08133,-0.0029035,0.0037924999999999,0.883663,-0.2983505,-0.1285915,1.118393,-0.3076005,-0.1387615,0.915573,-0.6278904999999999,-0.0476645,1.113633,-0.6310505,-0.0523185,1
107,1.019287,0.6919704999999999,-0.022319,0.864464,0.5030105,-0.051133,0.761684,0.6987905,-0.137874,1.160234,0.5064505,-0.043129,1.264964,0.7245505,-0.13447,0.735814,0.9068005,-0.188906,1.305324,0.9539205,-0.1789359999999999,0.918418,0.0031754999999999,-0.003802,1.081582,-0.0031754999999999,0.003802,0.883374,-0.2861295,-0.137088,1.119654,-0.2949395,-0.147295,0.916269,-0.6153795000000001,-0.05298,1.114174,-0.6174895,-0.057927,1
108,1.0199135,0.6902364999999999,-0.0302395,0.8652045000000002,0.5028165,-0.0591234999999999,0.7621345000000002,0.6975064999999999,-0.1465315,1.1604445,0.5059065,-0.0512675,1.2651045,0.7249365,-0.1429905,0.7365545,0.9092265,-0.1986814999999999,1.3049845,0.9519765,-0.1879315,0.9182965,0.0032665,-0.0037774999999999,1.0817035,-0.0032665,0.0037774999999999,0.8831545000000001,-0.2738835,-0.1501145,1.1210645,-0.2825835,-0.1604915,0.9170575,-0.6028535,-0.0630495,1.1145145,-0.6039435000000001,-0.0677155,1
109,1.0204959999999998,0.692735,-0.0394744999999999,0.865675,0.502175,-0.0675954999999999,0.762275,0.700595,-0.1564614999999999,1.159385,0.5027349999999999,-0.0605094999999999,1.264925,0.724125,-0.1523545,0.737175,0.914885,-0.2094255,1.305055,0.950325,-0.1988255,0.918295,0.0033949999999999,-0.0035274999999999,1.081705,-0.003395,0.0035275,0.881195,-0.256715,-0.1680295,1.123235,-0.265295,-0.1774255,0.917922,-0.5848450000000001,-0.0743765,1.114775,-0.585655,-0.0780424999999999,1
110,1.021025,0.693515,-0.0482824999999999,0.866143,0.502455,-0.0755555,0.762283,0.701895,-0.1657394999999999,1.158813,0.501465,-0.0695664999999999,1.264703,0.721645,-0.1609805,0.737503,0.918785,-0.2197985,1.305103,0.947015,-0.2088785,0.918344,0.0034349999999999,-0.0032014999999999,1.081656,-0.0034349999999999,0.0032015,0.879243,-0.241555,-0.1849084999999999,1.125303,-0.2494749999999999,-0.1930785,0.918764,-0.568475,-0.0848775,1.115093,-0.569195,-0.0876845,1
111,1.021361,0.6940700000000001,-0.0572855,0.866475,0.50086,-0.0835505,0.762035,0.7028800000000001,-0.1751295,1.158245,0.49946,-0.0786935,1.264125,0.71977,-0.1695185,0.738095,0.91815,-0.2301085,1.305615,0.94775,-0.2189285,0.918509,0.0033499999999999,-0.0027564999999999,1.081491,-0.0033499999999999,0.0027564999999999,0.877185,-0.22606,-0.2016685,1.127295,-0.2334699999999999,-0.2085985,0.919407,-0.55174,-0.0950475,1.115255,-0.55238,-0.0971375,1
112,1.021805,0.69465,-0.066584,0.867235,0.49997,-0.09176,0.761675,0.70373,-0.18459,1.157625,0.49836,-0.087742,1.263795,0.71885,-0.178275,0.738315,0.91784,-0.24052,1.306495,0.94863,-0.22938,0.918683,0.00312,-0.002259,1.081317,-0.0031199999999999,0.0022589999999999,0.875305,-0.2099099999999999,-0.21858,1.129545,-0.2171199999999999,-0.2239,0.920206,-0.53431,-0.105295,1.115385,-0.53557,-0.106637,1
113,1.022581,0.69545,-0.075609,0.867919,0.49958,-0.100221,0.761779,0.70514,-0.194043,1.157739,0.4949,-0.096968,1.263869,0.7166399999999999,-0.186774,0.738749,0.91862,-0.250715,1.307259,0.94968,-0.2397449999999999,0.918858,0.00317,-0.0017749999999999,1.0811419999999998,-0.00317,0.0017749999999999,0.873779,-0.19354,-0.2354649999999999,1.132169,-0.2004099999999999,-0.239095,0.921393,-0.5163,-0.11562,1.115839,-0.51814,-0.116043,1
114,1.0233545,0.695595,-0.084771,0.8687035,0.498765,-0.108747,0.7618535,0.705835,-0.20342,1.1579435,0.493645,-0.106126,1.2637035,0.715675,-0.19517,0.7391935000000001,0.917845,-0.260795,1.3086235,0.951755,-0.250005,0.9190325,0.0032149999999999,-0.001185,1.0809675,-0.0032149999999999,0.001185,0.8724435,-0.176815,-0.251865,1.1347435,-0.183695,-0.254145,0.9225715,-0.498005,-0.125787,1.1163635,-0.500465,-0.125481,1
115,1.0237995,0.6964250000000001,-0.093952,0.8692335000000001,0.497325,-0.117322,0.7620535000000002,0.7080150000000001,-0.212764,1.1575035,0.492095,-0.115311,1.2631535,0.7122649999999999,-0.203584,0.7394235,0.916505,-0.270545,1.3096435,0.950515,-0.260705,0.9193165,0.0031849999999999,-0.000665,1.0806835,-0.0031849999999999,0.0006649999999999,0.8708335,-0.160065,-0.268155,1.1369235,-0.166325,-0.269105,0.9233655,-0.479365,-0.136061,1.1165335,-0.4823849999999999,-0.134854,1
116,1.0241349999999998,0.6955100000000001,-0.102884,0.8696200000000001,0.49687,-0.125668,0.76164,0.70931,-0.222068,1.15682,0.49087,-0.124221,1.2631,0.70627,-0.212309,0.7396199999999999,0.91225,-0.28008,1.31063,0.94675,-0.27175,0.919489,0.00307,-0.00026,1.080511,-0.0030699999999999,0.00026,0.86923,-0.1418399999999999,-0.2843299999999999,1.13893,-0.1475999999999999,-0.28393,0.923978,-0.45952,-0.1461,1.11655,-0.4631399999999999,-0.143924,1
117,1.0242365,0.693825,-0.106726,0.8698105,0.495455,-0.128702,0.7612205000000001,0.707875,-0.226034,1.1557205,0.488045,-0.12801,1.2630505,0.699285,-0.215889,0.7395805000000001,0.906075,-0.2842949999999999,1.3115105,0.941785,-0.277425,0.9196035,0.003115,-5.000000000005e-06,1.0803965,-0.0031149999999999,5.000000000005e-06,0.8678705000000001,-0.1240949999999999,-0.294815,1.1406305,-0.1298349999999999,-0.293165,0.9244155,-0.440805,-0.150848,1.1164705,-0.4449149999999999,-0.147639,1
118,1.024309,0.6908,-0.109438,0.869824,0.4928099999999999,-0.130642,0.760804,0.7056,-0.228627,1.155774,0.48612,-0.130411,1.263024,0.69731,-0.21809,0.739304,0.90352,-0.286905,1.312224,0.93941,-0.281515,0.919512,0.00312,-1.5000000000015e-05,1.080488,-0.00312,1.4999999999987246e-05,0.868084,-0.10758,-0.299965,1.141174,-0.11351,-0.298165,0.924715,-0.42363,-0.154072,1.116484,-0.42823,-0.149505,1
119,1.0243215,0.68805,-0.112112,0.8695444999999999,0.4906399999999999,-0.132409,0.7601645000000001,0.70383,-0.231199,1.1556045,0.48419,-0.132871,1.2630345,0.69668,-0.220225,0.7388645,0.90111,-0.28947,1.3125545,0.93685,-0.2855499999999999,0.9195095,0.0033299999999999,-1.000000000001e-05,1.0804904999999998,-0.0033299999999999,9.999999999982244e-06,0.8681045000000001,-0.08986,-0.30513,1.1415445,-0.09594,-0.30304,0.9248725,-0.40575,-0.157159,1.1164245,-0.41091,-0.151338,1
120,1.0243304999999998,0.685425,-0.114254,0.8695525,0.490265,-0.13397,0.7600425,0.7030449999999999,-0.233003,1.1556125,0.483305,-0.134959,1.2630425,0.6944250000000001,-0.22213,0.7383025000000001,0.902565,-0.291795,1.3128725,0.933825,-0.289245,0.9195095,0.003425,-2.4999999999997247e-05,1.0804904999999998,-0.003425,2.4999999999997247e-05,0.8681225000000001,-0.072235,-0.308995,1.1416025,-0.078455,-0.307015,0.9250365,-0.3883549999999999,-0.1598939999999999,1.1164125,-0.3942549999999999,-0.152969,1
121,1.0243395,0.682845,-0.11643,0.8698494999999999,0.488685,-0.135695,0.7594695,0.7016450000000001,-0.235198,1.1560395,0.480175,-0.136776,1.2633495,0.691485,-0.224532,0.7377994999999999,0.899005,-0.294415,1.3130495,0.929785,-0.2927849999999999,0.9195095,0.003665,1.4999999999987246e-05,1.0804905,-0.0036649999999999,-1.4999999999987246e-05,0.8683895,-0.0590649999999999,-0.312235,1.1416495,-0.064975,-0.310505,0.9252315,-0.3711249999999999,-0.161603,1.1164195,-0.3780949999999999,-0.154508,1
122,1.024249,0.6803699999999999,-0.1180089999999999,0.8700209999999999,0.48711,-0.1367529999999999,0.758921,0.70015,-0.236844,1.156291,0.4784899999999999,-0.1379189999999999,1.263301,0.68909,-0.226458,0.7371909999999999,0.8936200000000001,-0.29638,1.313161,0.92719,-0.29594,0.919376,0.0035999999999999,-2.999999999997449e-05,1.080624,-0.0035999999999999,3.0000000000002247e-05,0.8686110000000001,-0.0464,-0.31475,1.141651,-0.05202,-0.31316,0.925305,-0.3550399999999999,-0.1633389999999999,1.116241,-0.36264,-0.155576,1
123,1.023844,0.6797599999999999,-0.118862,0.869857,0.48665,-0.137259,0.757947,0.7005699999999999,-0.2378139999999999,1.156117,0.47943,-0.138404,1.263127,0.68946,-0.2279739999999999,0.7360869999999999,0.89558,-0.2977499999999999,1.312847,0.92751,-0.29851,0.919398,0.0033799999999999,-0.0002399999999999,1.080602,-0.0033799999999999,0.00024,0.868627,-0.0307299999999999,-0.31649,1.1411369999999998,-0.0361199999999999,-0.3150199999999999,0.924891,-0.3364,-0.164204,1.115547,-0.34459,-0.156076,1
124,1.023133,0.678215,-0.119236,0.869378,0.486871,-0.137216,0.7568480000000001,0.7004049999999999,-0.2380189999999999,1.155708,0.479692,-0.138406,1.262458,0.6914450000000001,-0.22885,0.734758,0.894865,-0.298695,1.312128,0.930145,-0.300165,0.919504,0.0031249999999999,-0.0002449999999999,1.080496,-0.0031249999999999,0.0002449999999999,0.8683879999999999,-0.0161049999999999,-0.3174249999999999,1.140328,-0.0216149999999999,-0.3162049999999999,0.924143,-0.319125,-0.16448,1.114738,-0.327905,-0.156385,1
125,1.0219115,0.678105,-0.119455,0.8682675,0.48724,-0.137159,0.7555175000000001,0.699945,-0.2380229999999999,1.1546375,0.480975,-0.138409,1.2617275,0.694045,-0.229885,0.7331975,0.895065,-0.29886,1.3108275,0.929825,-0.30159,0.9194905,0.0031849999999999,-0.0002399999999999,1.0805095,-0.0031849999999999,0.0002399999999999,0.8675775,-0.002835,-0.31742,1.1388375,-0.008205,-0.31674,0.9227925,-0.303655,-0.164629,1.1132275,-0.313095,-0.156634,1
126,1.0204959999999998,0.67825,-0.119499,0.8669390000000001,0.487718,-0.137036,0.7535689999999999,0.70112,-0.23818,1.153349,0.4821439999999999,-0.138369,1.260449,0.6969099999999999,-0.231107,0.7308790000000001,0.89672,-0.29933,1.309179,0.93124,-0.30291,0.919493,0.0031299999999999,-0.00024,1.080507,-0.00313,0.0002399999999999,0.866499,0.0111299999999999,-0.31743,1.137229,0.0060299999999999,-0.31718,0.921192,-0.2878400000000001,-0.164642,1.111549,-0.29786,-0.156797,1
127,1.0193215,0.67668,-0.119298,0.8658494999999999,0.49116,-0.136454,0.7517294999999999,0.7004699999999999,-0.238091,1.1525795,0.482083,-0.13771,1.2590295,0.6967,-0.23188,0.7287995,0.89598,-0.2994799999999999,1.3076995,0.93182,-0.30349,0.9194175,0.00363,-0.0001599999999999,1.0805825,-0.00363,0.0001599999999999,0.8656695,0.0233999999999999,-0.31723,1.1360795,0.0184699999999999,-0.31698,0.9198065,-0.2737799999999999,-0.164441,1.1101395,-0.2844,-0.156697,1
128,1.01806,0.6771499999999999,-0.118602,0.8647400000000001,0.4913679999999999,-0.13504,0.75004,0.7009,-0.237156,1.1516,0.48389,-0.136286,1.25747,0.69768,-0.231855,0.72673,0.8933800000000001,-0.298905,1.30628,0.93397,-0.303695,0.919325,0.00334,-9.500000000001174e-05,1.080675,-0.00334,9.500000000001174e-05,0.86465,0.03736,-0.316365,1.13489,0.03253,-0.316285,0.918302,-0.25831,-0.163746,1.10874,-0.26948,-0.1561,1
129,1.016881,0.6768700000000001,-0.11793,0.863639,0.491336,-0.133638,0.748279,0.70038,-0.236427,1.150669,0.484452,-0.134833,1.255949,0.6995100000000001,-0.231804,0.724619,0.8898,-0.298525,1.3048689999999998,0.93537,-0.303795,0.91928,0.0033,6.50000000000095e-05,1.08072,-0.0032999999999999,-6.50000000000095e-05,0.863399,0.05035,-0.315365,1.133779,0.04556,-0.315615,0.916839,-0.24395,-0.163072,1.1074389999999998,-0.2557399999999999,-0.155333,1
130,1.0158865,0.67757,-0.1168669999999999,0.8627835,0.4928289999999999,-0.132012,0.7465535,0.7013699999999999,-0.235558,1.1502534999999998,0.48672,-0.133046,1.2545135,0.70183,-0.2309589999999999,0.7227635,0.8918299999999999,-0.297925,1.3036135,0.93635,-0.303745,0.9194255,0.0031999999999999,0.000195,1.0805745,-0.0032,-0.000195,0.8621835,0.0639799999999999,-0.313195,1.1326635,0.0591399999999999,-0.314025,0.9154665,-0.22916,-0.1620819999999999,1.1061335,-0.24111,-0.1543629999999999,1
131,1.0151345,0.6783250000000001,-0.115481,0.8621865000000001,0.494807,-0.130268,0.7453065,0.702835,-0.23432,1.1503365,0.489624,-0.130994,1.2532965,0.7053050000000001,-0.23,0.7211965,0.894455,-0.297285,1.3026565,0.934465,-0.303255,0.9196995,0.003135,0.0002149999999999,1.0803005,-0.0031349999999999,-0.000215,0.8611265000000001,0.077615,-0.310655,1.1318765,0.072755,-0.311965,0.9143705,-0.214415,-0.160813,1.1051365,-0.226495,-0.153072,1
132,1.014675,0.67737,-0.113514,0.8618049999999999,0.495976,-0.128171,0.744455,0.70218,-0.232667,1.150615,0.4897399999999999,-0.128381,1.252315,0.7057899999999999,-0.228692,0.719955,0.89419,-0.29625,1.302095,0.92973,-0.3024,0.919831,0.0032699999999999,0.0002599999999999,1.080169,-0.0032699999999999,-0.00026,0.860345,0.0877399999999999,-0.30765,1.131855,0.0826299999999999,-0.30947,0.913811,-0.20332,-0.158595,1.104515,-0.21563,-0.151437,1
133,1.0142235,0.677135,-0.1116389999999999,0.8614555,0.497554,-0.1261449999999999,0.7436555,0.7018650000000001,-0.231035,1.1508255,0.4892540000000001,-0.125892,1.2514655,0.706315,-0.2273669999999999,0.7189055,0.8957550000000001,-0.294825,1.3014955,0.926005,-0.301525,0.9198755,0.003665,0.000445,1.0801245,-0.0036649999999999,-0.000445,0.8595855,0.097995,-0.304565,1.1320454999999998,0.092775,-0.306905,0.9133145,-0.1921049999999999,-0.1563169999999999,1.1039155,-0.2046949999999999,-0.150111,1
134,1.01386,0.6761249999999999,-0.1095899999999999,0.8609439999999999,0.4981259999999999,-0.1241869999999999,0.743514,0.7006649999999999,-0.229246,1.151204,0.4879299999999999,-0.123482,1.250944,0.7086649999999999,-0.225773,0.717894,0.8963949999999998,-0.2935999999999999,1.301164,0.927425,-0.3004,0.920012,0.0039049999999999,0.00073,1.079988,-0.003905,-0.00073,0.859074,0.1069349999999998,-0.3015799999999999,1.132554,0.1016349999999999,-0.30423,0.913053,-0.1822650000000001,-0.154104,1.103434,-0.1950950000000001,-0.148735,1
135,1.0136005,0.6754549999999999,-0.107699,0.8605655,0.4990239999999999,-0.122336,0.7431455,0.7005649999999999,-0.2278879999999999,1.1516355,0.4867019999999999,-0.121223,1.2505755,0.7106249999999998,-0.22427,0.7170255,0.8973949999999999,-0.292425,1.3009255,0.928375,-0.299265,0.9200965,0.0041949999999999,0.0011649999999999,1.0799035,-0.004195,-0.0011649999999999,0.8586155,0.1157449999999998,-0.298795,1.1331955,0.1102249999999999,-0.301935,0.9129295,-0.172765,-0.152004,1.1030755,-0.1856350000000001,-0.147424,1
136,1.0134,0.674715,-0.1060489999999999,0.860291,0.498752,-0.120664,0.7429509999999999,0.700965,-0.226764,1.152051,0.487625,-0.1196039999999999,1.250301,0.7121649999999999,-0.223206,0.7163809999999999,0.8975249999999999,-0.29154,1.300701,0.927435,-0.29851,0.920178,0.0038849999999999,0.00134,1.079822,-0.003885,-0.0013399999999999,0.858191,0.1232149999999999,-0.29602,1.133901,0.1174349999999999,-0.29984,0.913095,-0.164525,-0.149527,1.102851,-0.177525,-0.1463539999999999,1
137,1.013022,0.67322,-0.1041189999999999,0.859494,0.498259,-0.1181319999999999,0.742444,0.7001400000000001,-0.2254729999999999,1.152344,0.4874860000000001,-0.1179079999999999,1.250294,0.7097300000000001,-0.2219459999999999,0.7157840000000001,0.8999400000000001,-0.290555,1.300374,0.92512,-0.297505,0.920332,0.00375,0.001435,1.079668,-0.0037499999999999,-0.0014349999999999,0.857684,0.12933,-0.292975,1.134534,0.1234,-0.2972249999999999,0.91315,-0.1576199999999999,-0.147002,1.102604,-0.1707999999999999,-0.1450429999999999,1
138,1.0125925,0.6731199999999999,-0.1020409999999999,0.8586505,0.4983149999999999,-0.1155439999999999,0.7418205,0.7002499999999999,-0.224155,1.1525505,0.4884559999999999,-0.1160459999999999,1.2501705,0.7082299999999999,-0.22057,0.7151705000000002,0.90323,-0.2894899999999999,1.2999905,0.92333,-0.29642,0.9204855,0.0034699999999999,0.00148,1.0795145,-0.00347,-0.0014799999999999,0.8570905,0.1359699999999999,-0.2895999999999999,1.1352205,0.1299099999999999,-0.2943599999999999,0.9131685,-0.15027,-0.1443699999999999,1.1022505,-0.1637,-0.1434819999999999,1
139,1.0122585,0.6724249999999999,-0.100042,0.8578215000000001,0.497725,-0.113067,0.7411415,0.699525,-0.222844,1.1526215,0.488706,-0.114269,1.2500415,0.706135,-0.219148,0.7146315000000001,0.904675,-0.288475,1.2996615,0.921885,-0.295355,0.9206765,0.0032249999999999,0.0015149999999999,1.0793235,-0.003225,-0.001515,0.8565715,0.1414149999999999,-0.286655,1.1361315,0.1351349999999999,-0.291915,0.9133735,-0.144295,-0.141719,1.1021215,-0.157855,-0.141991,1
140,1.0118965,0.6715599999999999,-0.098332,0.8571535,0.4968629999999999,-0.110833,0.7405135,0.6989299999999999,-0.221901,1.1524135,0.4886839999999999,-0.112787,1.2498535,0.7036499999999999,-0.217866,0.7141035,0.90572,-0.287875,1.2993035,0.92298,-0.294425,0.9207425,0.0030099999999999,0.001615,1.0792575,-0.00301,-0.001615,0.8558735,0.1460699999999999,-0.283905,1.1370735,0.1396099999999999,-0.289705,0.9135715,-0.13911,-0.139218,1.1020335,-0.15273,-0.140517,1
141,1.0114605,0.6712080000000001,-0.096569,0.8563655,0.4961100000000001,-0.10864,0.7398855000000001,0.6993550000000001,-0.220667,1.1520355,0.488439,-0.11125,1.2497655,0.701335,-0.216338,0.7135855,0.906575,-0.287135,1.2988855,0.923825,-0.293405,0.9208845,0.002805,0.0017349999999999,1.0791155,-0.0028049999999999,-0.001735,0.8551155,0.1503850000000001,-0.281185,1.1377755,0.1438250000000001,-0.287605,0.9136225,-0.1345449999999999,-0.136925,1.1018755,-0.1479249999999998,-0.139016,1
142,1.010882,0.671426,-0.0948789999999999,0.855628,0.495339,-0.106721,0.739228,0.699855,-0.219596,1.151608,0.489295,-0.109793,1.249818,0.699975,-0.215033,0.713048,0.907525,-0.286485,1.298438,0.924525,-0.292715,0.92101,0.002375,0.001755,1.07899,-0.002375,-0.001755,0.854328,0.1544249999999999,-0.278475,1.138338,0.1478249999999999,-0.285635,0.913592,-0.130235,-0.134678,1.101668,-0.1433849999999999,-0.137503,1
143,1.0102515,0.6725110000000001,-0.0933399999999999,0.8549015,0.494588,-0.1049209999999999,0.7387115,0.701245,-0.218746,1.1511415,0.490552,-0.1083769999999999,1.2498915,0.698885,-0.213824,0.7124915,0.909115,-0.2858699999999999,1.2978515,0.925285,-0.29195,0.9211205,0.0018449999999999,0.0017199999999999,1.0788795,-0.0018449999999999,-0.0017199999999999,0.8535515000000001,0.158365,-0.2758,1.1388315,0.151765,-0.2836999999999999,0.9135355,-0.1260949999999999,-0.1324439999999999,1.1014315,-0.1389449999999999,-0.1362789999999999,1
144,1.0095225,0.6730349999999999,-0.092194,0.8541265,0.494398,-0.1037299999999999,0.7380165000000001,0.70224,-0.2184209999999999,1.1505065,0.4911609999999999,-0.107389,1.2497865,0.6968799999999999,-0.212995,0.7118165000000001,0.90985,-0.285665,1.2971565,0.9251,-0.291545,0.9211745,0.00151,0.0016549999999999,1.0788255,-0.00151,-0.0016549999999999,0.8527264999999999,0.1609499999999999,-0.273845,1.1391665,0.15435,-0.282215,0.9132705,-0.12344,-0.130779,1.1011565,-0.13572,-0.1354199999999999,1
145,1.008986,0.67375,-0.09171,0.8536090000000001,0.49384,-0.103323,0.737449,0.702955,-0.218422,1.150139,0.491535,-0.107167,1.249759,0.694785,-0.212527,0.711319,0.910005,-0.285835,1.296619,0.924115,-0.291475,0.921194,0.0013349999999999,0.0016549999999999,1.078806,-0.0013349999999999,-0.0016549999999999,0.852139,0.161705,-0.272815,1.139559,0.155065,-0.281375,0.912901,-0.1227249999999999,-0.1304,1.101069,-0.134345,-0.135102,1
146,1.0087125,0.67375,-0.091534,0.8533284999999999,0.49384,-0.103322,0.7371384999999999,0.702955,-0.218513,1.1499385,0.491535,-0.107031,1.2496185,0.694785,-0.2124579999999999,0.7110585,0.910005,-0.285835,1.2962685,0.924115,-0.291475,0.9211595,0.0013349999999999,0.0016549999999999,1.0788405,-0.0013349999999999,-0.0016549999999999,0.8517885000000001,0.161745,-0.272615,1.1400685,0.1550949999999999,-0.281085,0.9127605,-0.1227249999999999,-0.1304,1.1011685,-0.133595,-0.134791,1
147,1.0085155,0.67375,-0.0915399999999999,0.8533185,0.49384,-0.1033269999999999,0.7369485,0.702955,-0.2185379999999999,1.1498185,0.491535,-0.1070359999999999,1.2496185,0.694785,-0.212333,0.7108685,0.910005,-0.28584,1.2960485,0.924115,-0.2914799999999999,0.9211595,0.0013349999999999,0.00165,1.0788405,-0.0013349999999999,-0.0016499999999999,0.8517885000000001,0.1619749999999999,-0.27262,1.1404885,0.155215,-0.2810899999999999,0.9127605,-0.1227249999999999,-0.1304049999999999,1.1011985,-0.133135,-0.1347659999999999,1
148,1.008101,0.674546,-0.091731,0.853195,0.49384,-0.103517,0.736475,0.703265,-0.21878,1.149535,0.491535,-0.107227,1.249595,0.694785,-0.212523,0.710485,0.910005,-0.2860399999999999,1.295745,0.924115,-0.29168,0.921135,0.0013349999999999,0.00161,1.078865,-0.0013349999999999,-0.00161,0.851765,0.162395,-0.27281,1.1405249999999998,0.155545,-0.28128,0.912595,-0.1228049999999999,-0.130672,1.101175,-0.1328749999999999,-0.134956,1
149,1.0076219999999998,0.675721,-0.0922729999999999,0.8535969999999999,0.4960739999999999,-0.1047609999999999,0.7363770000000001,0.704735,-0.21932,1.149067,0.4915119999999999,-0.1077689999999999,1.248967,0.694715,-0.2131099999999999,0.710047,0.909505,-0.28676,1.295147,0.924805,-0.29239,0.921135,0.0014549999999999,0.00165,1.078865,-0.001455,-0.0016499999999999,0.8517669999999999,0.1615449999999999,-0.27335,1.1405269999999998,0.1548349999999999,-0.2818199999999999,0.912448,-0.124225,-0.1312459999999999,1.101127,-0.134025,-0.1354959999999999,1
150,1.007158,0.677272,-0.09329,0.854159,0.497243,-0.106522,0.735839,0.70562,-0.220614,1.148319,0.491846,-0.108858,1.248289,0.69418,-0.214096,0.7096090000000002,0.90873,-0.28795,1.294509,0.92532,-0.29364,0.921066,0.0015699999999999,0.0016899999999999,1.078934,-0.0015699999999999,-0.0016899999999999,0.851879,0.15875,-0.27472,1.140609,0.15247,-0.2827699999999999,0.912356,-0.12719,-0.132326,1.101229,-0.13687,-0.136545,1
151,1.0067065,0.6779200000000001,-0.0955469999999999,0.8543795,0.4979860000000001,-0.109512,0.7354095,0.7057100000000001,-0.223124,1.1472595,0.4917270000000001,-0.1113299999999999,1.2475995,0.6961600000000001,-0.216577,0.7090795,0.90964,-0.290895,1.2939495,0.9265,-0.296555,0.9210575,0.00162,0.001555,1.0789425,-0.0016199999999999,-0.001555,0.8524595,0.1530400000000001,-0.277705,1.1407695,0.14717,-0.284995,0.9122275,-0.1330599999999999,-0.134872,1.1013395,-0.1424999999999999,-0.138675,1
152,1.006169,0.68039,-0.0983569999999999,0.8546,0.498014,-0.1127119999999999,0.73488,0.7058900000000001,-0.225929,1.14622,0.491846,-0.1141349999999999,1.2469599999999998,0.6983900000000001,-0.2193729999999999,0.70851,0.91072,-0.2942399999999999,1.29337,0.92859,-0.29973,0.920974,0.00157,0.00132,1.079026,-0.0015699999999999,-0.0013199999999999,0.85341,0.14675,-0.28112,1.14068,0.14106,-0.2876499999999999,0.9121,-0.1397799999999999,-0.138013,1.10147,-0.1490099999999999,-0.141064,1
153,1.005905,0.679465,-0.102463,0.855113,0.4975439999999999,-0.11749,0.735163,0.7039249999999999,-0.229546,1.145443,0.4905299999999999,-0.1183869999999999,1.246573,0.698005,-0.2234209999999999,0.7082630000000001,0.908265,-0.29886,1.293093,0.925035,-0.30416,0.920825,0.0017349999999999,0.001,1.079175,-0.001735,-0.001,0.854873,0.1340049999999999,-0.28639,1.140773,0.1284149999999999,-0.29168,0.912121,-0.153085,-0.142825,1.101983,-0.162115,-0.14482,1
154,1.0059364999999998,0.6795800000000001,-0.106986,0.8559995,0.494523,-0.122247,0.7353095000000001,0.7005100000000001,-0.233835,1.1448995,0.486649,-0.122824,1.2465695,0.69547,-0.228073,0.7082595,0.90439,-0.30362,1.2931495,0.92448,-0.30879,0.9203855,0.00182,0.00075,1.0796145,-0.0018199999999999,-0.00075,0.8569495,0.11745,-0.29212,1.1411195,0.1121,-0.29598,0.9125445,-0.1701799999999999,-0.148094,1.1028595,-0.1790099999999999,-0.148583,1
155,1.0059415,0.6802849999999999,-0.111686,0.8566345,0.4920199999999999,-0.127132,0.7354245000000001,0.6981449999999999,-0.2383969999999999,1.1441945,0.4833849999999999,-0.127582,1.2465245,0.6938349999999999,-0.232983,0.7079345,0.901995,-0.3085,1.2932045,0.924645,-0.31369,0.9199845,0.0019749999999999,0.00055,1.0800155,-0.001975,-0.0005499999999999,0.8595045,0.1008049999999999,-0.29818,1.1413545,0.0952649999999998,-0.3001899999999999,0.9129655,-0.187865,-0.1534279999999999,1.1036345,-0.1964350000000001,-0.152523,1
156,1.006203,0.68194,-0.1159849999999999,0.857603,0.4883959999999999,-0.1317199999999999,0.735683,0.69631,-0.242662,1.143803,0.480342,-0.132036,1.246623,0.69323,-0.237616,0.707473,0.90487,-0.3132199999999999,1.293493,0.92541,-0.31843,0.91964,0.0020499999999999,0.00035,1.08036,-0.0020499999999999,-0.0003499999999999,0.862483,0.0839699999999999,-0.30349,1.141723,0.0780099999999999,-0.3038999999999999,0.913771,-0.20599,-0.1582789999999999,1.104573,-0.21452,-0.1561329999999999,1
157,1.006279,0.681365,-0.1190979999999999,0.8578400000000002,0.487163,-0.135346,0.73556,0.694185,-0.246079,1.14313,0.479744,-0.135949,1.24677,0.693605,-0.2415339999999999,0.7067399999999999,0.904965,-0.3167149999999999,1.29341,0.926025,-0.3225449999999999,0.919342,0.001975,0.000235,1.080658,-0.001975,-0.0002349999999999,0.86511,0.064985,-0.307535,1.14157,0.0579649999999999,-0.3065949999999999,0.914302,-0.2269549999999999,-0.16215,1.10506,-0.235375,-0.158873,1
158,1.0064995,0.680975,-0.121313,0.8578555,0.484411,-0.138222,0.7353755,0.691425,-0.248474,1.1425555,0.479743,-0.139276,1.2468455,0.692915,-0.244703,0.7059655,0.904275,-0.318875,1.2935855,0.922265,-0.325835,0.9190045,0.0016049999999999,0.000115,1.0809955,-0.001605,-0.000115,0.8677055,0.0453249999999999,-0.310555,1.1412255,0.0363649999999999,-0.308575,0.9148765,-0.249575,-0.16499,1.1055155,-0.2579950000000001,-0.160923,1
159,1.006774,0.68031,-0.122644,0.857857,0.4839839999999999,-0.140509,0.735447,0.69019,-0.250117,1.142367,0.478248,-0.1418859999999999,1.247007,0.69452,-0.247335,0.705337,0.90314,-0.3202049999999999,1.293937,0.92264,-0.327775,0.918706,0.0017199999999999,-3.500000000000725e-05,1.081294,-0.0017199999999999,3.500000000000725e-05,0.8703270000000001,0.0241699999999999,-0.312415,1.140927,0.0137399999999999,-0.309915,0.915493,-0.2738900000000001,-0.167097,1.106177,-0.28247,-0.162253,1
160,1.0067445,0.680755,-0.122641,0.8575805,0.483241,-0.141393,0.7354005,0.688975,-0.250112,1.1420605,0.4773759999999999,-0.1428289999999999,1.2473904999999998,0.692785,-0.248278,0.7045105,0.899315,-0.32023,1.2942505,0.921405,-0.32823,0.9183225,0.0016449999999999,-3.999999999998449e-05,1.0816775,-0.001645,4.000000000001225e-05,0.8721305,0.0037749999999999,-0.3124,1.1404705,-0.008155,-0.30991,0.9157915,-0.298085,-0.167677,1.1064905,-0.3068349999999999,-0.162248,1
161,1.006768,0.6802900000000001,-0.1226419999999999,0.857086,0.48276,-0.142167,0.735016,0.6882300000000001,-0.250149,1.141606,0.476364,-0.1437649999999999,1.247606,0.69179,-0.2488189999999999,0.703526,0.8995000000000001,-0.32033,1.294456,0.91786,-0.32871,0.918117,0.00165,-3.999999999998449e-05,1.081883,-0.0016499999999999,4.000000000001225e-05,0.873526,-0.0178399999999999,-0.3124,1.140006,-0.0307799999999999,-0.3096799999999999,0.915918,-0.3240099999999999,-0.1679999999999999,1.1066159999999998,-0.3327399999999999,-0.1622489999999999,1
162,1.0067455,0.68364,-0.1226169999999999,0.8564885,0.4829099999999999,-0.1426569999999999,0.7346585,0.6896100000000001,-0.250374,1.1412585,0.4766499999999999,-0.144537,1.2478885,0.69258,-0.2494779999999999,0.7023984999999999,0.90206,-0.3203399999999999,1.2946985,0.92358,-0.3290499999999999,0.9179085,0.0015699999999999,-3.999999999998449e-05,1.0820915,-0.00157,4.000000000001225e-05,0.8745985000000001,-0.03501,-0.31239,1.1393385,-0.04842,-0.30918,0.9160055,-0.34602,-0.1681649999999999,1.1067684999999998,-0.35474,-0.162349,1
163,1.0067069999999998,0.686245,-0.122076,0.8561170000000001,0.485305,-0.142865,0.734097,0.692555,-0.250501,1.141257,0.480695,-0.144461,1.247837,0.6961250000000001,-0.249153,0.7012970000000001,0.904635,-0.319285,1.294697,0.925655,-0.328805,0.917908,0.001305,9.4999999999984e-05,1.082092,-0.001305,-9.500000000001174e-05,0.875467,-0.0503349999999999,-0.311975,1.138417,-0.064525,-0.308065,0.915984,-0.3672049999999999,-0.167941,1.106767,-0.375955,-0.162032,1
164,1.0065,0.6881200000000001,-0.120646,0.8556010000000001,0.48707,-0.142485,0.7335510000000001,0.69444,-0.249914,1.141181,0.4837,-0.143904,1.247411,0.6988000000000001,-0.2482639999999999,0.7004509999999999,0.90931,-0.317485,1.294291,0.926,-0.327875,0.917834,0.00107,0.000425,1.082166,-0.00107,-0.000425,0.875831,-0.0673599999999999,-0.310295,1.137181,-0.0821399999999999,-0.3060049999999999,0.91554,-0.39033,-0.167885,1.106711,-0.39919,-0.1611719999999999,1
165,1.0064289999999998,0.69055,-0.1176319999999999,0.855044,0.4905799999999999,-0.1402109999999999,0.733214,0.6961999999999999,-0.247108,1.1410239999999998,0.4871199999999999,-0.142007,1.247384,0.70127,-0.2454529999999999,0.700134,0.90772,-0.314455,1.294474,0.9247,-0.325445,0.917866,0.0007999999999999,0.000635,1.082134,-0.0008,-0.0006349999999999,0.8761140000000001,-0.08481,-0.3062749999999999,1.136044,-0.09973,-0.301775,0.91497,-0.41385,-0.1664149999999999,1.1068239999999998,-0.42259,-0.1590589999999999,1
166,1.006009,0.69289,-0.1139119999999999,0.854098,0.49284,-0.137653,0.732348,0.69879,-0.243869,1.140608,0.48835,-0.139599,1.247238,0.70024,-0.242213,0.699368,0.9063,-0.31061,1.294398,0.922,-0.32276,0.918145,0.00062,0.00102,1.081855,-0.00062,-0.0010199999999999,0.8758980000000001,-0.1015599999999999,-0.30025,1.134368,-0.1157599999999999,-0.29629,0.913964,-0.43628,-0.165265,1.106658,-0.4447299999999999,-0.156792,1
167,1.005371,0.696405,-0.1096219999999999,0.8529720000000001,0.4977049999999999,-0.134539,0.731292,0.701545,-0.2401669999999999,1.140022,0.488475,-0.1364429999999999,1.246782,0.700265,-0.2385199999999999,0.698392,0.907285,-0.3055799999999999,1.293982,0.924995,-0.3190699999999999,0.918496,0.0008849999999999,0.0012,1.081504,-0.0008849999999999,-0.0011999999999999,0.875312,-0.1176649999999999,-0.2936799999999999,1.132632,-0.1301349999999999,-0.2904099999999999,0.912602,-0.4573149999999999,-0.1635319999999999,1.106522,-0.4650449999999999,-0.1545819999999999,1
168,1.004513,0.6998949999999999,-0.104677,0.851798,0.500715,-0.130705,0.730118,0.703155,-0.236262,1.139358,0.491085,-0.132905,1.246618,0.702195,-0.2346659999999999,0.697228,0.906665,-0.299745,1.293618,0.925765,-0.3144949999999999,0.918649,0.0006649999999999,0.001285,1.081351,-0.0006649999999999,-0.001285,0.874738,-0.132455,-0.286505,1.130888,-0.143645,-0.283595,0.910857,-0.4769049999999999,-0.16192,1.106408,-0.484065,-0.152314,1
169,1.0035645,0.7038800000000001,-0.099608,0.8505305000000001,0.5042,-0.126473,0.7290605,0.7053499999999999,-0.231126,1.1387505,0.49382,-0.1289819999999999,1.2461405,0.70533,-0.229655,0.6958504999999999,0.91245,-0.2939,1.2932705,0.92603,-0.30934,0.9187545,0.0005699999999999,0.0011899999999999,1.0812455,-0.00057,-0.0011899999999999,0.8742004999999999,-0.1466799999999999,-0.27896,1.1290005,-0.15593,-0.2764999999999999,0.9089035,-0.49555,-0.160379,1.1064205,-0.5016100000000001,-0.150619,1
170,1.002562,0.708285,-0.0944359999999999,0.8492390000000001,0.507145,-0.1225209999999999,0.7278990000000001,0.7084050000000001,-0.225869,1.138119,0.496205,-0.1245119999999999,1.245689,0.707545,-0.2246159999999999,0.6945490000000001,0.914775,-0.28849,1.293099,0.932355,-0.30376,0.918971,0.0003849999999999,0.0012,1.081029,-0.0003849999999999,-0.0011999999999999,0.8735990000000001,-0.1592449999999999,-0.2712299999999999,1.126939,-0.167505,-0.2693299999999999,0.906475,-0.512355,-0.158763,1.106429,-0.517925,-0.148967,1
171,1.001373,0.7116399999999999,-0.088452,0.8472109999999999,0.51242,-0.117539,0.726531,0.71055,-0.219969,1.137431,0.50161,-0.119165,1.244961,0.70982,-0.218572,0.693071,0.91599,-0.2819399999999999,1.292891,0.93394,-0.29747,0.919471,-3.0000000000002247e-05,0.0012699999999999,1.080529,3.0000000000002247e-05,-0.0012699999999999,0.8724810000000001,-0.17264,-0.26162,1.124391,-0.18015,-0.26012,0.903787,-0.52957,-0.156772,1.106321,-0.5342100000000001,-0.146361,1
172,1.000288,0.71449,-0.082598,0.845518,0.51703,-0.112776,0.725508,0.71361,-0.214207,1.137318,0.5045,-0.113765,1.244248,0.71198,-0.212622,0.691728,0.92248,-0.27535,1.292818,0.93641,-0.29132,0.920235,6.999999999998674e-05,0.0010799999999999,1.079765,-7.00000000000145e-05,-0.0010799999999999,0.871708,-0.18544,-0.25125,1.1219279999999998,-0.19191,-0.25056,0.901338,-0.54536,-0.155211,1.106568,-0.54914,-0.143186,1
173,0.9989975,0.7194999999999999,-0.076875,0.8437015000000001,0.52288,-0.108285,0.7243115,0.71681,-0.208566,1.1371715,0.51119,-0.108563,1.2433215,0.71397,-0.206557,0.6903414999999999,0.92405,-0.26885,1.2921115,0.93888,-0.28532,0.9211665,-2.0000000000006124e-05,0.0006999999999999,1.0788335,1.999999999999225e-05,-0.0007,0.8708615,-0.19682,-0.24162,1.1193415,-0.20287,-0.2406599999999999,0.8985445,-0.55918,-0.152748,1.1063815,-0.5633400000000001,-0.138563,1
174,0.997692,0.724197,-0.071416,0.8420290000000001,0.526527,-0.103826,0.723179,0.720227,-0.203016,1.1365489999999998,0.517277,-0.103922,1.242429,0.7167669999999999,-0.200728,0.689019,0.927127,-0.26246,1.291259,0.943247,-0.2794999999999999,0.922041,-0.0003289999999999,0.00041,1.077959,0.0003289999999999,-0.0004099999999999,0.870209,-0.207313,-0.23213,1.116759,-0.213153,-0.23047,0.895893,-0.571823,-0.148331,1.105929,-0.576003,-0.1339219999999999,1
175,0.9971475,0.7307805,-0.066622,0.8411045,0.5285305,-0.099893,0.7229245,0.7224904999999999,-0.198412,1.1368744999999998,0.5231505000000001,-0.099745,1.2423445,0.7230405,-0.196518,0.6885245,0.9333205,-0.25649,1.2911245,0.9493105,-0.27372,0.9223975,-0.0004765,9.9999999999989e-05,1.0776024999999998,0.0004765,-0.0001,0.8704545,-0.2194595,-0.22346,1.1149645,-0.2261495,-0.22034,0.8957285,-0.5846994999999999,-0.144122,1.1060245,-0.5899295,-0.129711,1
176,0.996738,0.736753,-0.062391,0.840475,0.529583,-0.096526,0.722925,0.7257129999999999,-0.194463,1.1374449999999998,0.528963,-0.096005,1.242525,0.729893,-0.192772,0.688365,0.937723,-0.2513849999999999,1.291165,0.954823,-0.267915,0.922746,-0.000633,-0.000135,1.077254,0.000633,0.0001349999999999,0.871265,-0.231297,-0.214515,1.112495,-0.239057,-0.207794,0.8958240000000001,-0.596987,-0.140377,1.106125,-0.603737,-0.125966,1
177,0.9961355,0.7406735,-0.054686,0.8397034999999999,0.5331935,-0.089824,0.7227735,0.7254735000000001,-0.187178,1.1379435,0.5343735000000001,-0.0891319999999999,1.2427035,0.7291734999999999,-0.1854859999999999,0.6880335,0.9408335,-0.2429,1.2910535,0.9549035,-0.2586699999999999,0.9230485,-0.0007585,-0.0005299999999999,1.0769515,0.0007584999999999,0.00053,0.8721535,-0.2456864999999999,-0.199265,1.1097335,-0.2543865,-0.190925,0.8957895,-0.6119965,-0.132387,1.1060835,-0.6197665000000001,-0.117481,1
178,0.9959815,0.7387324999999999,-0.041686,0.8392375,0.5313525,-0.077571,0.7227175,0.7220725,-0.174394,1.1384575,0.5354924999999999,-0.077193,1.2434575,0.7292424999999999,-0.173112,0.6882775,0.9350825,-0.229114,1.2912375,0.9569525,-0.243704,0.9237165,-0.0007255,-0.000959,1.0762835,0.0007255,0.000959,0.8758975,-0.2643375,-0.175378,1.1074575,-0.2733975,-0.16733,0.8960325000000001,-0.6310075,-0.116927,1.1063275,-0.6392575,-0.102133,1
179,0.995766,0.7361705000000001,-0.029175,0.838692,0.5305005,-0.065806,0.722612,0.7178605,-0.161963,1.138842,0.5372005000000001,-0.065444,1.244262,0.7292505,-0.162043,0.688472,0.9292305,-0.215702,1.291442,0.9544105,-0.229492,0.924193,-0.0005735,-0.001475,1.075807,0.0005735,0.0014749999999999,0.8796120000000001,-0.2825595,-0.151936,1.105282,-0.2912095,-0.143944,0.8963510000000001,-0.6494095,-0.100991,1.106502,-0.6576595,-0.086351,1
180,0.9953815,0.7344465,-0.017691,0.8384355,0.5270665,-0.0552039999999999,0.7223554999999999,0.7147165,-0.1506009999999999,1.1394855,0.5365265,-0.0544179999999999,1.2446555,0.7297765,-0.1514229999999999,0.6884855,0.9258465,-0.2035259999999999,1.2911655,0.9530365,-0.2161759999999999,0.9245045,-0.0003735,-0.001985,1.0754955,0.0003734999999999,0.001985,0.8832955000000001,-0.2975235,-0.130234,1.1031955,-0.3057634999999999,-0.1222999999999999,0.8968585,-0.6645835,-0.0849709999999999,1.1063255,-0.6726735,-0.0709569999999999,1
181,0.9951415,0.7331019999999999,-0.0063704999999999,0.8381895,0.5243519999999999,-0.0447954999999999,0.7222295000000001,0.7105619999999999,-0.1397465,1.1402295,0.537222,-0.0437414999999999,1.2449694999999998,0.729752,-0.1407215,0.6885895,0.918802,-0.1917545,1.2909995,0.952532,-0.2030645,0.9249025,-0.000451,-0.0023374999999999,1.0750975,0.000451,0.0023375,0.8875095,-0.3113479999999999,-0.1089965,1.1012895,-0.319548,-0.1005554999999999,0.8976445000000001,-0.678498,-0.0688005,1.1060895,-0.6874680000000001,-0.0549025,1
182,0.995122,0.7296739999999999,0.005073,0.837712,0.522094,-0.034177,0.722272,0.706224,-0.12885,1.141182,0.535084,-0.03292,1.245862,0.7302139999999999,-0.130213,0.688842,0.913364,-0.17998,1.290742,0.952634,-0.18987,0.925451,-0.0004839999999999,-0.0025309999999999,1.074549,0.0004839999999999,0.0025309999999999,0.892092,-0.323836,-0.086633,1.099502,-0.332306,-0.07853,0.899068,-0.691276,-0.0514919999999999,1.105802,-0.701106,-0.038363,1
183,0.9954995,0.725511,0.0163975,0.8376925,0.520411,-0.0234875,0.7226825,0.701201,-0.1179425,1.1421425,0.533291,-0.0217725,1.2466325,0.7296910000000001,-0.1193895,0.6894525,0.908221,-0.1682544999999999,1.2906925,0.952241,-0.1768545,0.9257925,-0.0003199999999999,-0.0027875,1.0742075,0.00032,0.0027874999999999,0.8969335,-0.336839,-0.0638765,1.0979325,-0.345639,-0.0565685,0.9007775,-0.7043790000000001,-0.0343445,1.1058425,-0.714979,-0.0216395,1
184,0.995611,0.7207570000000001,0.0278124999999999,0.837403,0.519577,-0.0125885,0.722823,0.696577,-0.1070315,1.142813,0.5318769999999999,-0.0105015,1.247303,0.7284569999999999,-0.1088195,0.6899230000000001,0.902937,-0.1565514999999999,1.290463,0.952387,-0.1639614999999999,0.925872,-0.000265,-0.0031335,1.074128,0.0002649999999999,0.0031334999999999,0.90156,-0.348883,-0.0411245,1.096153,-0.358143,-0.0351045,0.902172,-0.7163729999999999,-0.0174395,1.105403,-0.727543,-0.0052475,0
185,0.995973,0.715229,0.0395865,0.837235,0.5189090000000001,-0.0016084999999999,0.7231350000000001,0.691669,-0.0957635,1.143555,0.530549,0.0005754999999999,1.248255,0.726989,-0.0980385,0.6904950000000001,0.897839,-0.1445685,1.290665,0.949489,-0.1516685,0.925688,-0.0002829999999999,-0.0035294999999999,1.074312,0.000283,0.0035294999999999,0.905948,-0.361731,-0.0186045,1.095245,-0.370711,-0.0158125,0.904388,-0.7289709999999999,0.0005325,1.105455,-0.7400209999999999,0.0098795,0
186,0.9962925,0.711479,0.0472605,0.8371035,0.515629,0.0059685,0.7234835,0.689959,-0.0885445,1.1443035,0.5283089999999999,0.0084645,1.2492935,0.728939,-0.0915515,0.6910935,0.8962589999999999,-0.1365305,1.2909335,0.949969,-0.1433605,0.9254855,-0.000322,-0.0037565,1.0745145,0.000322,0.0037565,0.9099525,-0.3700509999999999,-0.0023495,1.0943805,-0.379281,-0.0013505,0.9066995,-0.737911,0.0127455,1.1055735,-0.747861,0.0203115,0
187,0.9962845,0.7130105,0.0490755,0.8369345,0.5177305,0.0076415,0.7234845,0.6914505,-0.0869615,1.1447845,0.5302705,0.0104545,1.2495545,0.7296305,-0.0896405,0.6914045,0.8985205,-0.1344945,1.2909245,0.9501305,-0.1412044999999999,0.9254855,-0.0003994999999999,-0.0038504999999999,1.0745145,0.0003995,0.0038505,0.9110255,-0.3711395,0.0051215,1.0930355,-0.3802195,0.0061795,0.9070265,-0.7392295,0.0162445,1.1054645,-0.7487995,0.0237535,0
188,0.9962775,0.7139795,0.0509885,0.8368255,0.5197195,0.0093815,0.7234754999999999,0.6923195,-0.0852715,1.1452055,0.5316795,0.0125185,1.2498355,0.7301595,-0.0876435,0.6917455,0.9000794999999999,-0.1325905,1.2909155,0.9502795,-0.1389705,0.9254865,-0.0004445,-0.0039655,1.0745135,0.0004445,0.0039655,0.9120505,-0.3719905,0.0125745,1.0917665,-0.3810705,0.0136035,0.9073545,-0.7402405000000001,0.0197575,1.1053355,-0.7496505,0.0271925,0
189,0.9963865,0.7145895,0.0528435,0.8367265,0.5215695,0.0110265,0.7234665,0.6928395,-0.0836165,1.1455965,0.5326895,0.0145605,1.2501065,0.7305395000000001,-0.0857235,0.6921265000000001,0.9009895,-0.1307615,1.2909065,0.9505495000000002,-0.1368214999999999,0.9254865,-0.0004384999999999,-0.0041175,1.0745135,0.0004385,0.0041175,0.9128625,-0.3727205,0.0195445,1.0906525,-0.3818005,0.0204015,0.9076145,-0.7410905000000001,0.0230384999999999,1.1052265,-0.7503804999999999,0.0305394999999999,0
190,0.99628,0.7149915,0.054629,0.83645,0.5235114999999999,0.012393,0.7235,0.6934315,-0.082005,1.14571,0.5335315,0.016301,1.25016,0.7308515,-0.0839039999999999,0.69234,0.9015215,-0.129084,1.29079,0.9502815,-0.134894,0.9255790000000002,-0.0003584999999999,-0.004269,1.0744209999999998,0.0003584999999999,0.004269,0.913157,-0.3720885,0.025626,1.0894629999999998,-0.3811985,0.0261539999999999,0.907634,-0.7417585,0.0262379999999999,1.10485,-0.7497784999999999,0.033828,0
191,0.996196,0.7153375,0.0561995,0.836213,0.5237474999999999,0.0134885,0.723603,0.6940075,-0.0806534999999999,1.145793,0.5336075,0.0176695,1.250123,0.7307174999999999,-0.0823484999999999,0.692713,0.9017075,-0.1276875,1.290763,0.9500775,-0.1333375,0.925673,-0.0001955,-0.0044724999999999,1.074327,0.0001955,0.0044725,0.913177,-0.3712625,0.0304345,1.088556,-0.3798525,0.0305595,0.907657,-0.7419925,0.0290935,1.104473,-0.7482525,0.0368225,0
192,0.996134,0.7155915,0.0575915,0.8359420000000001,0.5238315,0.0144304999999999,0.723712,0.6946015000000001,-0.0795285,1.145872,0.5335915,0.0187875,1.250072,0.7306315,-0.0810014999999999,0.693182,0.9016215,-0.1265244999999999,1.290972,0.9499915,-0.1320744999999999,0.925745,-0.0001125,-0.0046265,1.074255,0.0001125,0.0046264999999999,0.913041,-0.3704485,0.0344445,1.087826,-0.3785485,0.0341155,0.907652,-0.7420985,0.0318035,1.104112,-0.7467284999999999,0.0394685,0
193,0.9960805,0.7158180000000001,0.0589035,0.8356525000000001,0.523898,0.0152594999999999,0.7238424999999999,0.695098,-0.0785065,1.1459825,0.533598,0.0198025,1.2500725,0.730598,-0.0797855,0.6937425000000002,0.901588,-0.1255544999999999,1.2912025,0.949358,-0.1309245,0.9257845,-9.699999999999986e-05,-0.0047045,1.0742155,9.699999999999986e-05,0.0047044999999999,0.9128745,-0.369342,0.0373784999999999,1.0872175,-0.3774119999999999,0.0369285,0.9076205,-0.742112,0.0343735,1.1037325,-0.745172,0.0418785,0
194,0.9960515,0.715918,0.060064,0.8356705,0.523898,0.016096,0.7239305,0.695388,-0.077661,1.1461205,0.533658,0.020591,1.2501004999999998,0.730598,-0.078813,0.6943205,0.901588,-0.124847,1.2914905,0.948758,-0.1300569999999999,0.9258015,-9.699999999999986e-05,-0.004732,1.0741985,9.699999999999986e-05,0.004732,0.9126735,-0.3681819999999999,0.039667,1.0868395,-0.376442,0.03894,0.9075185,-0.7420019999999999,0.036552,1.1033505,-0.743532,0.04406,0
195,0.9960355,0.7159575,0.0610565,0.8356515,0.5239375,0.0167485,0.7239915,0.6957274999999999,-0.0770275,1.1463115,0.5337675,0.0212095,1.2501015,0.7304975,-0.0780005,0.6948615,0.9015075,-0.1243245,1.2917815,0.9480975,-0.1293945,0.9258345,-5.7500000000002e-05,-0.0047545,1.0741655,5.7500000000002e-05,0.0047544999999999,0.9124615,-0.3671125,0.0411545,1.0864695,-0.3755425,0.0403175,0.9073485,-0.7419525,0.0383764999999999,1.1029515,-0.7421425,0.0457985,0
196,0.996034,0.7160295000000001,0.0619365,0.8356669999999999,0.5239895000000001,0.0172835,0.724017,0.6960495,-0.0765825,1.146537,0.5339095,0.0217395,1.250087,0.7303195,-0.0772905,0.695327,0.9011095,-0.1239025,1.292037,0.9474695,-0.1288425,0.92585,-1.4499999999986746e-05,-0.0047815,1.07415,1.4500000000000624e-05,0.0047814999999999,0.912237,-0.3661005,0.0421075,1.086035,-0.3746405,0.0412695,0.907109,-0.7418804999999999,0.0399604999999999,1.1024569999999998,-0.7409505000000001,0.0473465,0
197,0.996049,0.7161405000000001,0.0626515,0.835937,0.5240205,0.0175255,0.724017,0.6964405,-0.0763225,1.146777,0.5340005,0.0221155,1.250077,0.7301605,-0.0766755,0.695737,0.9006705,-0.1236195,1.292247,0.9469805,-0.1283695,0.925864,6.4500000000009e-05,-0.0047554999999999,1.074136,-6.449999999999512e-05,0.0047555,0.911992,-0.3652295,0.0429105,1.0855549999999998,-0.3738295,0.0420725,0.90685,-0.7417695,0.0414045,1.101927,-0.7398395,0.0486334999999999,0
198,0.9961115,0.7162775,0.0632305,0.8363285,0.5239775,0.0175595,0.7239585,0.6966375,-0.0761565,1.1470285,0.5341075,0.0224485,1.2500985,0.7298875,-0.0761725,0.6960985,0.8999575,-0.1234454999999999,1.2924485,0.9471175,-0.1279955,0.9258545,0.0001335,-0.0046894999999999,1.0741455,-0.0001334999999999,0.0046895,0.9116985,-0.3650725,0.0435955,1.0852335,-0.3730025,0.0427575,0.9064985,-0.7416325,0.0425805,1.1013485,-0.7388725,0.0497854999999999,0
199,0.996202,0.716366,0.0635995,0.836598,0.523856,0.0175935,0.723848,0.696736,-0.0761695,1.147268,0.534206,0.0226695,1.250188,0.729596,-0.0758515,0.6963980000000001,0.899076,-0.1234205,1.2925879999999998,0.947016,-0.1277805,0.925854,0.00018,-0.0046714999999999,1.074146,-0.0001799999999999,0.0046715,0.911372,-0.364974,0.0438815,1.085058,-0.372314,0.0431465,0.906103,-0.741554,0.0435455,1.100728,-0.7382340000000001,0.0506605,0
200,0.9963345,0.7164320000000001,0.0639205,0.8370555,0.523572,0.0174645,0.7237055,0.6968420000000001,-0.0762355,1.1474655,0.5342720000000001,0.0229565,1.2502955,0.729372,-0.0755715,0.6965255,0.898282,-0.1234455,1.2926755,0.946822,-0.1275855,0.9258515,0.000154,-0.0046795,1.0741485,-0.000154,0.0046795,0.9110905,-0.3648679999999999,0.0440465,1.0848615,-0.372208,0.0433285,0.9056615,-0.7414879999999999,0.0444014999999999,1.1001455,-0.738028,0.0512945,0
201,0.9964835,0.7164645000000001,0.064229,0.8376785,0.5231545000000001,0.0173,0.7235484999999999,0.6969445000000001,-0.0763409999999999,1.1477185,0.5342845,0.023276,1.2504285,0.7292145,-0.075271,0.6965885,0.8975645,-0.1235219999999999,1.2929485,0.9466245,-0.127362,0.9258455,0.0001445,-0.0046959999999999,1.0741545,-0.0001444999999999,0.004696,0.9109225,-0.3650255,0.044189,1.0847295,-0.3721055,0.043471,0.9052155,-0.7414255,0.045111,1.0995685,-0.7378655,0.05186,0
202,0.9967075,0.716486,0.0644405,0.8384015,0.522726,0.0170835,0.7231615,0.696906,-0.0765915,1.1480215,0.534276,0.0236205,1.2506415,0.728966,-0.0749894999999999,0.6966114999999999,0.896976,-0.1236315,1.2931815,0.946416,-0.1272415,0.9258445,0.0001,-0.0047164999999999,1.0741555,-0.0001,0.0047165,0.9107875,-0.365064,0.0442445,1.0846345,-0.372014,0.0434965,0.9048225,-0.741414,0.0456835,1.0990315,-0.737714,0.0523165,0
203,0.997003,0.7165325,0.064597,0.83921,0.5222225,0.016778,0.7226700000000001,0.6966025,-0.0769179999999999,1.14836,0.5343125000000001,0.023914,1.25105,0.7285125,-0.074772,0.6966400000000001,0.8963525,-0.123841,1.29328,0.9461025,-0.127151,0.925856,5.7500000000002e-05,-0.0047409999999999,1.074144,-5.7500000000002e-05,0.004741,0.910696,-0.3654475,0.044269,1.084563,-0.3719975,0.043457,0.904466,-0.7414575,0.0461,1.09854,-0.7376075,0.052709,0
204,0.997297,0.7165999999999999,0.0648685,0.8400740000000001,0.52155,0.0165425,0.7221839999999999,0.6959500000000001,-0.0774585,1.148764,0.5343800000000001,0.0242225,1.251734,0.7276100000000001,-0.0745325,0.696604,0.89591,-0.1241265,1.293064,0.94574,-0.1270565,0.925838,-1.000000000001e-06,-0.0047174999999999,1.074162,1.000000000001e-06,0.0047174999999999,0.910595,-0.36569,0.0442845,1.08451,-0.37193,0.0434055,0.904103,-0.7413799999999999,0.0465405,1.098054,-0.7374700000000001,0.0530835,0
205,0.997613,0.7166365,0.065187,0.84078,0.5206965,0.016493,0.72173,0.6929865000000001,-0.0779509999999999,1.14934,0.5343965,0.024553,1.2529499999999998,0.7260565,-0.074281,0.69689,0.8928765,-0.125081,1.29274,0.9451565,-0.1271209999999999,0.925836,-7.250000000000312e-05,-0.0047029999999999,1.074164,7.250000000000312e-05,0.0047029999999999,0.910536,-0.3659834999999999,0.044509,1.084532,-0.3718535,0.043345,0.903769,-0.7411935,0.046992,1.0976,-0.7372535,0.0534339999999999,0
206,0.997921,0.7167224999999999,0.065593,0.841252,0.5198624999999999,0.016834,0.721252,0.6888025,-0.078538,1.150042,0.5342525,0.0249999999999999,1.254932,0.7235425,-0.0739269999999999,0.696922,0.8899925,-0.126018,1.292282,0.9438825,-0.127448,0.925851,-0.0001365,-0.004713,1.074149,0.0001364999999999,0.0047129999999999,0.910508,-0.3660675,0.0448139999999999,1.084509,-0.3716475,0.043369,0.903426,-0.7408375,0.047473,1.097152,-0.7368275,0.053869,0
207,0.9982095,0.7167395000000001,0.0660129999999999,0.8415815,0.5188895,0.017254,0.7204714999999999,0.6837994999999999,-0.079211,1.1508415,0.5337194999999999,0.0254849999999999,1.2577615,0.7193995,-0.073755,0.6970514999999999,0.8861695,-0.127211,1.2918615,0.9405195,-0.127791,0.9258715,-0.0001975,-0.004748,1.0741285,0.0001974999999999,0.0047479999999999,0.9104985,-0.3659305,0.04516,1.0844685,-0.3714905,0.043479,0.9031225,-0.7402405000000001,0.0480059999999999,1.0967215,-0.7361905,0.0543369999999999,0
208,0.998494,0.716849,0.0665435,0.84182,0.517859,0.0177245,0.71906,0.677599,-0.0804335,1.15171,0.532899,0.0260795,1.26135,0.713259,-0.0735785,0.69728,0.882719,-0.1286435,1.29146,0.936089,-0.1286035,0.925867,-0.0001559999999999,-0.0047775,1.074133,0.000156,0.0047775,0.910523,-0.365791,0.0455535,1.084566,-0.371231,0.0435765,0.90284,-0.739281,0.0485925,1.09634,-0.7352609999999999,0.0548725,0
209,0.9987755,0.7172945,0.0672234999999999,0.8418805,0.5168745,0.0181814999999999,0.7172205,0.6698244999999999,-0.0820775,1.1528105,0.5316845,0.0267024999999999,1.2657705,0.7054845,-0.0735495,0.6974905,0.8746145,-0.1314775,1.2909005,0.9297645,-0.1297174999999999,0.9258615,-6.049999999999112e-05,-0.0048065,1.0741385,6.0500000000004994e-05,0.0048064999999999,0.9105625,-0.3651655,0.0459235,1.0847485,-0.3709055,0.0437344999999999,0.9025885,-0.7379055,0.0491555,1.0960005,-0.7339255,0.0553925,0
210,0.999068,0.718157,0.0681239999999999,0.841762,0.515907,0.018857,0.714912,0.660597,-0.083832,1.153922,0.529957,0.0275279999999999,1.271482,0.695797,-0.07432,0.6976519999999999,0.865697,-0.134592,1.290072,0.919457,-0.131622,0.925851,6.40000000000085e-05,-0.004877,1.0741489999999998,-6.399999999999462e-05,0.0048769999999999,0.910634,-0.364183,0.04643,1.084987,-0.370413,0.0440119999999999,0.902354,-0.7360329999999999,0.049809,1.095652,-0.7320829999999999,0.056011,0
211,0.9994045,0.719376,0.0691865,0.8416695,0.5146360000000001,0.0196245,0.7121495,0.6490659999999999,-0.0861325,1.1550195,0.527776,0.0284104999999999,1.2781695,0.684396,-0.0756675,0.6979895,0.853626,-0.1383825,1.2892395,0.904546,-0.1337325,0.9258565,0.0002129999999999,-0.0049865,1.0741435,-0.000213,0.0049864999999999,0.9107075,-0.362974,0.0470214999999999,1.0853495,-0.369504,0.0443434999999999,0.9021645,-0.733654,0.0504875,1.0953695,-0.7297640000000001,0.0566575,0
212,0.9996305,0.7210425,0.0704545,0.8415325000000001,0.5130725,0.0203584999999999,0.7091324999999999,0.6357525,-0.0886935,1.1559825,0.5251725,0.0294154999999999,1.2852025,0.6698425,-0.0773135,0.6985525,0.8398325,-0.1425235,1.2881625,0.8856125,-0.1358835,0.9258485,0.0004035,-0.0050644999999999,1.0741515,-0.0004035,0.0050644999999999,0.9106015,-0.3615675,0.0476665,1.0857125,-0.3683275,0.0447184999999999,0.9019705,-0.7307775,0.0512035,1.0950725,-0.7269575,0.0573425,0
213,0.999814,0.7231235,0.071837,0.8413870000000001,0.5112335,0.02095,0.706277,0.6206535,-0.091383,1.156697,0.5224435,0.030259,1.291527,0.6527835,-0.079173,0.6996169999999999,0.8236035,-0.147133,1.286647,0.8642635,-0.138243,0.925851,0.0006275,-0.0051539999999999,1.0741489999999998,-0.0006275,0.0051539999999999,0.910432,-0.3600165,0.048271,1.086117,-0.3671565,0.045058,0.901796,-0.7274665,0.051863,1.0947969999999998,-0.7237165,0.057972,0
214,0.99998,0.7257175,0.0733235,0.8412930000000001,0.5091875,0.0214915,0.7043429999999999,0.6050475,-0.0946115,1.157223,0.5193975,0.0309705,1.296393,0.6335875,-0.0817215,0.7012929999999999,0.8081575,-0.1512915,1.284443,0.8400575,-0.1408714999999999,0.925861,0.0008955,-0.0052194999999999,1.074139,-0.0008955,0.0052195,0.910178,-0.3585025,0.0488635,1.086533,-0.3655925,0.0453615,0.901658,-0.7237225,0.0524465,1.094553,-0.7200325000000001,0.0585565,0
