sb224sc-HT22-VT27/4dt907/src/ml-research/a11/datafiles/kinect_good_preprocessed_not_cut_A11_mediapipe/A137_kinect_mirrored.csv
FrameNo,nose_3d_x,nose_3d_y,nose_3d_z,left_shoulder_3d_x,left_shoulder_3d_y,left_shoulder_3d_z,left_elbow_3d_x,left_elbow_3d_y,left_elbow_3d_z,right_shoulder_3d_x,right_shoulder_3d_y,right_shoulder_3d_z,right_elbow_3d_x,right_elbow_3d_y,right_elbow_3d_z,left_wrist_3d_x,left_wrist_3d_y,left_wrist_3d_z,right_wrist_3d_x,right_wrist_3d_y,right_wrist_3d_z,left_hip_3d_x,left_hip_3d_y,left_hip_3d_z,right_hip_3d_x,right_hip_3d_y,right_hip_3d_z,left_knee_3d_x,left_knee_3d_y,left_knee_3d_z,right_knee_3d_x,right_knee_3d_y,right_knee_3d_z,left_ankle_3d_x,left_ankle_3d_y,left_ankle_3d_z,right_ankle_3d_x,right_ankle_3d_y,right_ankle_3d_z
0,0.992088,0.7444055,0.038745,0.8377829999999999,0.4495755,0.0615249999999999,0.8080430000000001,0.2089955,0.05393,1.164453,0.4463654999999999,0.060461,1.1764929999999998,0.2104555,0.051987,0.796003,0.0106865,-0.021299,1.188723,0.0081785,-0.033984,0.929049,-1.650000000000002e-05,-0.001478,1.070951,1.650000000000002e-05,0.001478,0.876303,-0.3496045,0.011049,1.119113,-0.3333045,-0.016521,0.860533,-0.6633545,0.033833,1.139283,-0.6857245,0.015353
1,0.992214,0.744518,0.038639,0.837777,0.449838,0.0608309999999999,0.800657,0.220908,0.041368,1.163047,0.446268,0.060395,1.180167,0.213748,0.044678,0.787347,0.018672,-0.049722,1.200857,0.014729,-0.059406,0.928992,-5.199999999999996e-05,-0.0012859999999999,1.071008,5.199999999999996e-05,0.001286,0.876587,-0.3489919999999999,0.010792,1.119597,-0.3331719999999999,-0.016452,0.860857,-0.662752,0.03254,1.139467,-0.685292,0.014275
2,0.992259,0.744416,0.0389785,0.838033,0.450206,0.0610935,0.795363,0.229086,0.0349155,1.163723,0.446246,0.0600705,1.186533,0.224546,0.0325985,0.781983,0.031455,-0.0724544999999999,1.211023,0.026392,-0.0847245,0.928973,-3.199999999999991e-05,-0.0013624999999999,1.071027,3.199999999999991e-05,0.0013625,0.8764730000000001,-0.348734,0.0107675,1.1195330000000001,-0.333184,-0.0160205,0.860743,-0.662294,0.0318125,1.139483,-0.685054,0.0140135
3,0.992027,0.7444715,0.039706,0.838061,0.4503014999999999,0.060999,0.787711,0.2388115,0.023559,1.163981,0.4463114999999999,0.059664,1.192861,0.2346015,0.023337,0.760811,0.0371065,-0.1213519999999999,1.226971,0.0697485,-0.098802,0.9289870000000001,2.7499999999999747e-05,-0.0012389999999999,1.071013,-2.750000000000018e-05,0.0012389999999999,0.876391,-0.3482185,0.01079,1.119611,-0.3332285,-0.016159,0.860601,-0.6622785,0.031654,1.139311,-0.6851985,0.0138059999999999
4,0.992114,0.7445130000000001,0.0405055,0.8384050000000001,0.450613,0.0607545,0.781185,0.2487829999999999,0.0108165,1.164025,0.446393,0.0590425,1.199555,0.241773,0.0116185,0.755495,0.083794,-0.1246544999999999,1.235765,0.0803,-0.1145844999999999,0.928955,0.0001239999999999,-0.0009554999999999,1.071045,-0.000124,0.0009555,0.876235,-0.346427,0.0106505,1.119875,-0.333247,-0.0158474999999999,0.860355,-0.661997,0.0311815,1.139135,-0.685747,0.0134825
5,0.9921020000000002,0.7446969999999999,0.041811,0.839414,0.452317,0.058959,0.771674,0.2453169999999999,-0.0280079999999999,1.159984,0.448367,0.058893,1.212974,0.244687,-0.0235559999999999,0.744984,0.08591,-0.160071,1.260274,0.092784,-0.158001,0.928844,0.0001579999999999,-0.0008929999999999,1.071156,-0.000158,0.000893,0.876344,-0.346223,0.010607,1.120324,-0.3331929999999999,-0.0154929999999999,0.8603540000000001,-0.662103,0.031019,1.1391639999999998,-0.686963,0.013509
6,0.992248,0.744595,0.0433905,0.840769,0.452925,0.0574405,0.763409,0.273775,-0.0231364999999999,1.1575090000000001,0.450235,0.0583295,1.219849,0.255845,-0.0313965,0.734829,0.1387749999999999,-0.1807295,1.268339,0.128095,-0.1894995,0.928693,0.000184,-0.0005894999999999,1.071307,-0.000184,0.0005894999999999,0.8765090000000001,-0.346015,0.0104815,1.120679,-0.333175,-0.0155334999999999,0.860339,-0.662855,0.0306195,1.139129,-0.687155,0.0132024999999999
7,0.9923145,0.744156,0.0459375,0.8439905,0.4551659999999999,0.0539375,0.7553205000000001,0.304886,-0.0537225,1.1571005,0.451976,0.0555805,1.2378305,0.3004159999999999,-0.0489785,0.7106805,0.201576,-0.2437695,1.2851205,0.208546,-0.2218294999999999,0.9284335,0.0002619999999999,-0.0012204999999999,1.0715665,-0.0002619999999999,0.0012204999999999,0.8780005,-0.344584,0.0105225,1.1212505,-0.333294,-0.0159125,0.8606505,-0.6632939999999999,0.0299255,1.1397405,-0.687384,0.0125725
8,0.992298,0.7438929999999999,0.047331,0.844915,0.456303,0.05202,0.747155,0.327503,-0.06996,1.155795,0.453223,0.054251,1.248635,0.321793,-0.064834,0.700585,0.251553,-0.2697299999999999,1.298915,0.255353,-0.24764,0.928286,0.000336,-0.001334,1.071714,-0.0003359999999999,0.001334,0.878455,-0.3440669999999999,0.010269,1.121585,-0.333337,-0.0160529999999999,0.860705,-0.663737,0.029252,1.139855,-0.688087,0.012083
9,0.9923125,0.743491,0.0486305,0.8457215,0.457541,0.0500204999999999,0.7396315,0.353711,-0.0853105,1.1544714999999999,0.454441,0.0524985,1.2594714999999999,0.345601,-0.0794805,0.6919415,0.303121,-0.2914905,1.3118015,0.306731,-0.2692305,0.9281275,0.000366,-0.0014914999999999,1.0718725,-0.000366,0.0014914999999999,0.8789015,-0.343769,0.0099864999999999,1.1218914999999998,-0.333349,-0.0162534999999999,0.8607615,-0.6643290000000001,0.0286205,1.1400015,-0.688949,0.0116705
10,0.9924110000000002,0.7426625,0.0497544999999999,0.8463200000000001,0.4593224999999999,0.0479325,0.7332799999999999,0.3865825,-0.0957935,1.15349,0.4555425,0.0503155,1.2705,0.3754125,-0.0902135,0.68491,0.3667125,-0.3073234999999999,1.32154,0.3685425,-0.2843735,0.927973,0.0004055,-0.0015715,1.072027,-0.0004054999999999,0.0015715,0.87939,-0.3439175,0.0096074999999999,1.1222,-0.3333875,-0.0165375,0.8608900000000002,-0.6653374999999999,0.0280074999999999,1.14021,-0.6902375,0.0112094999999999
11,0.9925575000000001,0.7416745,0.050778,0.8467935,0.4610545,0.046054,0.7282935000000001,0.4182345,-0.103761,1.1527835,0.4565045,0.047991,1.2800635,0.4071345,-0.0987409999999999,0.6799135000000001,0.4292445,-0.3161009999999999,1.3294435,0.4310745,-0.291161,0.9278655000000001,0.0004504999999999,-0.0016299999999999,1.0721345,-0.0004504999999999,0.0016299999999999,0.8798035,-0.3442555,0.009252,1.1224935,-0.3335355,-0.016781,0.8610535,-0.6664955,0.027491,1.1404334999999999,-0.6916655,0.010856
12,0.9926965000000001,0.7404520000000001,0.0514489999999999,0.8469405,0.462562,0.0444679999999999,0.7243705,0.449822,-0.107725,1.1522005,0.457292,0.045897,1.2853705,0.437302,-0.100975,0.6800005,0.488022,-0.3164749999999999,1.3346005,0.490582,-0.2919449999999999,0.9278095000000001,0.0004819999999999,-0.001686,1.0721904999999998,-0.000482,0.001686,0.8801205,-0.344898,0.0088619999999999,1.1227505,-0.333878,-0.016968,0.8611705000000001,-0.6678980000000001,0.027117,1.1406105,-0.6932579999999999,0.010622
13,0.992887,0.7389954999999999,0.0519045,0.847096,0.4639855,0.0432965,0.721686,0.4836955,-0.1088815,1.151616,0.4579355,0.0438315,1.289506,0.4685055,-0.1020715,0.680226,0.5476354999999999,-0.3167715,1.3366959999999999,0.5491455,-0.2923915,0.927795,0.0004835,-0.0017355,1.072205,-0.0004834999999999,0.0017355,0.880406,-0.3461145,0.0085605,1.122986,-0.3343744999999999,-0.0170954999999999,0.861306,-0.6695045000000001,0.0268265,1.140776,-0.6949845,0.0104755
14,0.9930995,0.7371355,0.0521785,0.8472145,0.4652354999999999,0.0423405,0.7197845,0.5188655,-0.1088704999999999,1.1511945,0.4589755,0.0419795,1.2918945,0.5028155000000001,-0.1024005,0.6804045000000001,0.6098855000000001,-0.3169205,1.3377145,0.6094355,-0.2926105,0.9278255,0.0004805,-0.0017294999999999,1.0721745,-0.0004805,0.0017295,0.8805945,-0.3476245,0.0084105,1.1231545,-0.3352845,-0.0171035,0.8613744999999999,-0.6714745,0.0266785,1.1408744999999998,-0.6971244999999999,0.0104685
15,0.993249,0.735065,0.052393,0.847193,0.466835,0.041801,0.718693,0.5526449999999999,-0.108816,1.150813,0.460205,0.040468,1.2927330000000001,0.536755,-0.1025059999999999,0.680643,0.669225,-0.315706,1.338023,0.667945,-0.290456,0.927897,0.000505,-0.001738,1.072103,-0.000505,0.001738,0.880813,-0.348915,0.008348,1.123223,-0.336495,-0.017143,0.861393,-0.673505,0.026629,1.140923,-0.699245,0.010481
16,0.9933135000000001,0.7329165,0.052388,0.8466475,0.4683265,0.041547,0.7187575000000002,0.5822365,-0.108821,1.1505975,0.4616465,0.039095,1.2929175,0.5662765,-0.102521,0.6823375,0.7201165,-0.304261,1.3385475,0.7174365,-0.284771,0.9279615,0.0005094999999999,-0.001743,1.0720385000000001,-0.0005095,0.0017429999999999,0.8808575000000001,-0.3501535,0.008093,1.1232075,-0.3378835,-0.017119,0.8613275,-0.6756435,0.0266159999999999,1.1409075,-0.7014635,0.010525
17,0.9933870000000001,0.7307864999999999,0.0523825,0.8459760000000001,0.4698565,0.0415275,0.718986,0.6095965,-0.1068865,1.150446,0.4629665,0.0377895,1.2930760000000001,0.5945965,-0.1013065,0.685836,0.7665065,-0.2856065,1.339396,0.7649965,-0.2750565,0.92803,0.0004945,-0.0017485,1.07197,-0.0004945,0.0017485,0.880906,-0.3514035,0.0077365,1.123186,-0.3393635,-0.0171155,0.8612960000000001,-0.6778035,0.0266195,1.140896,-0.7036435000000001,0.0105815
18,0.9936215,0.728482,0.0524165,0.8454725000000001,0.471702,0.0416215,0.7196225,0.633702,-0.0995875,1.1505225000000001,0.464812,0.0371855,1.2934225,0.620802,-0.0976674999999999,0.6881525,0.8059019999999999,-0.2687275,1.3385425,0.8075119999999999,-0.2579675,0.9280865000000001,0.0005189999999999,-0.0016994999999999,1.0719135,-0.000519,0.0016994999999999,0.8808425,-0.352548,0.0072815,1.1230925,-0.341188,-0.0170784999999999,0.8611925,-0.6802180000000001,0.0266145,1.1408325,-0.7061280000000001,0.0107205
19,0.9940715,0.7263355,0.0524715,0.8450065,0.4728254999999999,0.0418855,0.7216265,0.6513255,-0.0910185,1.1503565,0.4673854999999999,0.0371985,1.2933664999999999,0.6412455,-0.0911984999999999,0.6925365,0.8327455,-0.2452385,1.3371765,0.8387955,-0.2413685,0.9281565,0.0005514999999999,-0.0016275,1.0718435,-0.0005514999999999,0.0016275,0.8806565,-0.3534945,0.0069824999999999,1.1228565,-0.3433645,-0.0168834999999999,0.8608365,-0.6824645,0.0268185,1.1405165,-0.7087045000000001,0.0110475
20,0.994516,0.72414,0.052443,0.844727,0.47416,0.0422349999999999,0.7238169999999999,0.66786,-0.081938,1.150217,0.46985,0.037535,1.292117,0.6587299999999999,-0.083008,0.697167,0.85771,-0.220778,1.3337970000000001,0.86573,-0.220518,0.9282390000000001,0.0005549999999999,-0.001546,1.071761,-0.0005549999999999,0.0015459999999999,0.880467,-0.35445,0.0067689999999999,1.1226269999999998,-0.34568,-0.016587,0.860487,-0.68479,0.027132,1.140177,-0.7112700000000001,0.0114769999999999
21,0.994951,0.7219610000000001,0.0524085,0.8446400000000001,0.475541,0.0428355,0.7258,0.682081,-0.0719375,1.1501299999999999,0.472701,0.0379065,1.28982,0.672621,-0.0738675,0.70106,0.8787510000000001,-0.1989874999999999,1.3302800000000001,0.888961,-0.2001974999999999,0.928353,0.0005559999999999,-0.0014544999999999,1.071647,-0.000556,0.0014545,0.88029,-0.355449,0.0066055,1.1224,-0.3480189999999999,-0.0162345,0.8601,-0.687159,0.0274875,1.13983,-0.7138789999999999,0.0119575
22,0.9953440000000001,0.7199055000000001,0.052347,0.8445480000000001,0.4769055,0.043673,0.7284379999999999,0.6920855,-0.061444,1.149938,0.4756054999999999,0.038322,1.285538,0.6843455,-0.0640189999999999,0.7046680000000001,0.8988055,-0.177778,1.326988,0.9083355,-0.180088,0.928521,0.0005804999999999,-0.0014239999999999,1.071479,-0.0005805,0.001424,0.880088,-0.3562945,0.006538,1.122138,-0.3503045,-0.0158569999999999,0.8596779999999999,-0.6893745,0.027889,1.139428,-0.7163444999999999,0.012495
23,0.995677,0.718199,0.0521275,0.844399,0.478279,0.0444895,0.731249,0.699259,-0.0517275,1.149649,0.478279,0.0388235,1.2816889999999999,0.692829,-0.0542325,0.7075089999999999,0.915199,-0.1575504999999999,1.324509,0.921539,-0.1613804999999999,0.928675,0.000587,-0.0014305,1.071325,-0.000587,0.0014305,0.879869,-0.356941,0.0064554999999999,1.121899,-0.352251,-0.0155805,0.859289,-0.691401,0.0281885,1.139019,-0.718491,0.0129305
24,0.995983,0.7165889999999999,0.051751,0.8442419999999999,0.479169,0.0453569999999999,0.734112,0.704869,-0.042127,1.149382,0.480779,0.039436,1.2790519999999999,0.698529,-0.046335,0.709962,0.927279,-0.139925,1.322192,0.932409,-0.143635,0.928825,0.0005749999999999,-0.001432,1.071175,-0.0005749999999999,0.0014319999999999,0.879632,-0.357771,0.0064009999999999,1.121692,-0.354121,-0.015385,0.858882,-0.6933410000000001,0.0283599999999999,1.138612,-0.720561,0.0132149999999999
25,0.9961795,0.7149865,0.0513435,0.8442565,0.4800065,0.0462475,0.7367865,0.7097665,-0.0330325,1.1491265,0.4832065,0.0402104999999999,1.2763765,0.7036765,-0.0385565,0.7118264999999999,0.9357465,-0.1213495,1.3199565,0.9411865,-0.1269195,0.9289505000000001,0.0005515,-0.0014195,1.0710495,-0.0005514999999999,0.0014195,0.8793365,-0.3587335,0.0064175,1.1213965,-0.3558635,-0.0152195,0.8584465,-0.6953135,0.0285215,1.1381265,-0.7226135,0.0134225
26,0.9962745,0.713408,0.050964,0.8443385,0.480728,0.047081,0.7392084999999999,0.714168,-0.024658,1.1488185,0.485938,0.041013,1.2738685,0.708098,-0.031328,0.7131885,0.943128,-0.107038,1.3179485,0.945558,-0.1111279999999999,0.9290675,0.000514,-0.0014009999999999,1.0709325,-0.000514,0.0014009999999999,0.8790485000000001,-0.359712,0.006486,1.1210285,-0.357522,-0.015105,0.8579585000000001,-0.6973119999999999,0.028627,1.1375785,-0.724702,0.013597
27,0.9963410000000001,0.712183,0.050446,0.8445690000000001,0.480983,0.047674,0.741579,0.717653,-0.01718,1.148449,0.488333,0.041772,1.2713489999999998,0.711473,-0.0249689999999999,0.7144890000000002,0.950713,-0.091671,1.315779,0.949093,-0.0953909999999999,0.929172,0.0004549999999999,-0.0013819999999999,1.0708280000000001,-0.0004549999999999,0.001382,0.8787590000000001,-0.360907,0.006537,1.120679,-0.3587769999999999,-0.0150059999999999,0.857479,-0.699087,0.028691,1.137039,-0.7266469999999999,0.013722
28,0.9962845,0.7112704999999999,0.0499965,0.8449365,0.4812605,0.0482145,0.7436565000000002,0.7206604999999999,-0.0102114999999999,1.1481165,0.4899104999999999,0.0425325,1.2687564999999998,0.7143305,-0.0185764999999999,0.7152465,0.9586405,-0.0781945,1.3135065,0.9524005,-0.0805845,0.9292385,0.0003695,-0.0013874999999999,1.0707615,-0.0003695,0.0013874999999999,0.8784965000000001,-0.3619295,0.0065585,1.1204165,-0.3596094999999999,-0.0149264999999999,0.8571565,-0.7005795,0.0287175,1.1367165,-0.7281995,0.0137485
29,0.9962650000000001,0.7106239999999999,0.049679,0.8454889999999999,0.481284,0.048711,0.745679,0.7234339999999999,-0.003789,1.147769,0.491824,0.043292,1.266289,0.7176039999999999,-0.0127999999999999,0.7159789999999999,0.963794,-0.065158,1.311629,0.957904,-0.066174,0.929295,0.0002819999999999,-0.001392,1.070705,-0.000282,0.0013919999999999,0.8782690000000001,-0.3629259999999999,0.0065769999999999,1.120179,-0.360396,-0.014838,0.856839,-0.701616,0.0287429999999999,1.136399,-0.729236,0.0137739999999999
30,0.9962345000000001,0.7103155,0.0493269999999999,0.8462215000000001,0.4813054999999999,0.049013,0.7477115000000001,0.7258155,0.0021549999999999,1.1473115,0.4934054999999999,0.043884,1.2638615,0.7208255,-0.007475,0.7166414999999999,0.9683355,-0.052797,1.3096014999999999,0.9621355,-0.053166,0.9293495,0.0001994999999999,-0.001382,1.0706505,-0.0001994999999999,0.0013819999999999,0.8779515,-0.3637344999999999,0.0066749999999999,1.1199815,-0.3610145,-0.014753,0.8564915000000001,-0.7024745,0.028744,1.1360615,-0.7300945,0.0137869999999999
31,0.996226,0.7101355,0.0488959999999999,0.846997,0.4813455,0.0491749999999999,0.749567,0.7280855,0.007873,1.146727,0.4948154999999999,0.044355,1.261717,0.7245355,-0.00215,0.717167,0.9717455,-0.040812,1.307667,0.9664455,-0.0401629999999999,0.9294020000000001,0.0001075,-0.001285,1.070598,-0.0001074999999999,0.001285,0.877687,-0.3643945,0.0067429999999999,1.1198569999999999,-0.3615945,-0.014826,0.856197,-0.7033245,0.0286,1.135717,-0.7309645,0.013656
32,0.9962545000000002,0.7100675,0.0485,0.8477695000000001,0.4813475,0.049349,0.7512495,0.7294975,0.012905,1.1461195,0.4958975,0.044773,1.2598395,0.7266775,0.002247,0.7170795000000001,0.9729575,-0.0315489999999999,1.3056895,0.9697575,-0.029886,0.9294435,1.8499999999997685e-05,-0.0012479999999999,1.0705565,-1.8499999999997685e-05,0.0012479999999999,0.8774295,-0.3649425,0.00673,1.1197295,-0.3621325,-0.0150149999999999,0.8558895,-0.7045525,0.028334,1.1353795,-0.7323325,0.013277
33,0.9963885,0.710152,0.0481775,0.8486715,0.4813219999999999,0.0493875,0.7529415,0.730612,0.0180345,1.1454515,0.4967719999999999,0.0450855,1.2579915,0.728642,0.0067014999999999,0.7169715,0.974132,-0.0212435,1.3040415,0.973332,-0.0198215,0.9294725000000001,-3.900000000000431e-05,-0.0012034999999999,1.0705274999999999,3.899999999999737e-05,0.0012034999999999,0.8772115,-0.365198,0.0067565,1.1196214999999998,-0.362458,-0.0152015,0.8556215,-0.7056279999999999,0.0280575,1.1350615,-0.733528,0.0128725
34,0.996622,0.7103865,0.0478925,0.849524,0.4813365,0.0493765,0.754534,0.7315365,0.0228655,1.144784,0.4975765,0.0453675,1.256314,0.7308765,0.0111955,0.716754,0.9755665,-0.0106894999999999,1.302514,0.9767665,-0.0101544999999999,0.929494,-0.0001004999999999,-0.0011884999999999,1.070506,0.0001005,0.0011885,0.877074,-0.3653035,0.0068145,1.119554,-0.3626935,-0.0153615,0.855384,-0.7065435,0.0277975,1.134794,-0.7345535,0.0124305
35,0.9969570000000001,0.7106445,0.0476025,0.850388,0.4815044999999999,0.0493745,0.756108,0.7320445,0.0274675,1.144348,0.4982644999999999,0.0456535,1.254858,0.7332245000000001,0.0155355,0.716488,0.9763545,-0.0003664999999999,1.3012380000000001,0.9801545,-0.0011744999999999,0.9295100000000001,-0.0001045,-0.0012054999999999,1.07049,0.0001045,0.0012055,0.876988,-0.3654055,0.0068565,1.119508,-0.3628555,-0.0155264999999999,0.855168,-0.7074054999999999,0.0275285,1.134598,-0.7355054999999999,0.0119845
36,0.997364,0.71085,0.0473195,0.851286,0.48165,0.0493804999999999,0.757526,0.73225,0.0324934999999999,1.143956,0.4987,0.0460555,1.2536559999999999,0.7355499999999999,0.0199234999999999,0.7160760000000002,0.97713,0.0088274999999999,1.299836,0.98373,0.0080104999999999,0.929511,-0.000118,-0.0012045,1.070489,0.000118,0.0012044999999999,0.876946,-0.36564,0.0069035,1.119436,-0.36299,-0.0157465,0.854986,-0.70829,0.0272744999999999,1.134446,-0.73649,0.0115504999999999
37,0.9977705,0.710947,0.047088,0.8520805000000001,0.481697,0.049412,0.7588305000000001,0.732357,0.037399,1.1436405,0.499127,0.0464549999999999,1.2526505000000001,0.7378170000000001,0.024093,0.7155505000000001,0.978007,0.0177809999999999,1.2985205,0.986907,0.016841,0.9295165,-0.0001279999999999,-0.0011989999999999,1.0704835,0.000128,0.0011989999999999,0.8769205,-0.365933,0.006943,1.1193405,-0.363123,-0.015965,0.8547905,-0.709123,0.027036,1.1343105,-0.7374729999999999,0.01114
38,0.9981505,0.711067,0.0468995,0.8527175,0.481867,0.0494585,0.7599175,0.732537,0.0419055,1.1434875,0.499997,0.0471495,1.2517775,0.739827,0.0281455,0.7149675,0.978937,0.0259515,1.2971275,0.988037,0.0240505,0.9295375,-0.000127,-0.0011725,1.0704625,0.0001269999999999,0.0011725,0.8768775,-0.366193,0.0069355,1.1192375,-0.363283,-0.0161894999999999,0.8545975,-0.7099329999999999,0.0268195,1.1341675,-0.738393,0.0107455
39,0.998558,0.711309,0.0468149999999999,0.853334,0.482009,0.049498,0.760744,0.7326889999999999,0.046142,1.143314,0.500799,0.047841,1.251164,0.741239,0.031949,0.7142840000000001,0.978719,0.033864,1.2959640000000001,0.988919,0.031148,0.92955,-0.0001629999999999,-0.0011539999999999,1.07045,0.000163,0.0011539999999999,0.8768440000000001,-0.366511,0.0069169999999999,1.1191039999999999,-0.363521,-0.016411,0.854444,-0.7106910000000001,0.026614,1.134074,-0.7392310000000001,0.010346
40,0.998952,0.7115275000000001,0.046904,0.85388,0.4821375,0.049584,0.76119,0.7327775000000001,0.049511,1.1432,0.5014974999999999,0.048568,1.25054,0.7415775,0.0352139999999999,0.71355,0.9772075,0.040623,1.29497,0.9887075,0.036781,0.9295599999999999,-0.0002045,-0.001144,1.07044,0.0002044999999999,0.0011439999999999,0.87686,-0.3668825,0.0069059999999999,1.1190399999999998,-0.3638725,-0.016583,0.8543499999999999,-0.7114324999999999,0.0263729999999999,1.13404,-0.7400424999999999,0.0099949999999999
41,0.999338,0.7117370000000001,0.0470695,0.85439,0.4822669999999999,0.0495735,0.76135,0.732767,0.0522775,1.14312,0.502257,0.0493674999999999,1.2499,0.741927,0.0381895,0.7129099999999999,0.976897,0.0462785,1.2942,0.989297,0.0417265,0.9295720000000001,-0.000233,-0.0011035,1.070428,0.0002329999999999,0.0011034999999999,0.87688,-0.367233,0.0069494999999999,1.11899,-0.364093,-0.0166775,0.85427,-0.711713,0.0262215,1.13402,-0.740273,0.0098544999999999
42,0.9996295,0.7121540000000001,0.0472955,0.8546885,0.482474,0.0496235,0.7614485,0.732674,0.0544075,1.1428984999999998,0.502804,0.0500624999999999,1.2494385,0.742104,0.0407925,0.7123385,0.976804,0.0502765,1.2933785,0.989204,0.0452715,0.9295805,-0.000267,-0.0010594999999999,1.0704195,0.0002669999999999,0.0010595,0.8768585,-0.367546,0.0069535,1.1189285,-0.364206,-0.0168004999999999,0.8542285000000001,-0.711866,0.0260895,1.1339985,-0.740386,0.0097165
43,0.9998805000000001,0.7125145,0.047523,0.8549905,0.4826445,0.049703,0.7615605,0.7325445,0.056319,1.1428505,0.5034245,0.05078,1.2491905,0.7423645,0.042939,0.7120705,0.9780045,0.053175,1.2927105,0.9883045,0.048226,0.9295965,-0.0002715,-0.0010189999999999,1.0704035,0.0002715,0.001019,0.8768305000000001,-0.3677455,0.006918,1.1189105,-0.3642155,-0.016924,0.8542305,-0.7119155,0.025961,1.1340005,-0.7403955,0.009588
44,1.0000865,0.7127905,0.0477345,0.8552435,0.4827005,0.0498145,0.7617035,0.7324205,0.0579475,1.1427135,0.5036405,0.0514685,1.2493435,0.7426605000000001,0.0448325,0.7118535000000001,0.9792205,0.0553735,1.2920835,0.9830205,0.0503055,0.9296095,-0.0002624999999999,-0.0009655,1.0703905,0.0002624999999999,0.0009654999999999,0.8768135,-0.3680095,0.0068934999999999,1.1189135000000001,-0.3642395,-0.0169945,0.8542735000000001,-0.7122695,0.0259095,1.1340435,-0.7406895,0.0094834999999999
45,1.0002375,0.7131205,0.0480195,0.8552575,0.4825405,0.0500125,0.7616775,0.7322605,0.0588515,1.1427075,0.5034805,0.0519435,1.2493975,0.7427505,0.0462255,0.7115675,0.9809605,0.0573565,1.2917775,0.9775605,0.0509895,0.9296125000000001,-0.0002575,-0.0009284999999999,1.0703874999999998,0.0002575,0.0009285,0.8768075,-0.3681595,0.0068445,1.1189274999999999,-0.3642095,-0.0169975,0.8543775,-0.7126295,0.0261055,1.1340575,-0.7408895,0.0094095
46,1.000363,0.713492,0.048333,0.855272,0.482432,0.050192,0.761572,0.732152,0.059515,1.142762,0.503372,0.052304,1.249402,0.742762,0.0473699999999999,0.711462,0.980952,0.058693,1.291682,0.972052,0.050925,0.929617,-0.0002529999999999,-0.00088,1.070383,0.000253,0.0008799999999999,0.876812,-0.368268,0.006786,1.118932,-0.364238,-0.016989,0.854462,-0.712978,0.026309,1.1340819999999998,-0.741058,0.009359
47,1.0004875,0.7139345,0.0487225,0.8552855,0.4824245,0.0502915,0.7614155,0.7320544999999999,0.0602395,1.1428755,0.5033645,0.0522945,1.2494155,0.7426445,0.0481925,0.7113355,0.9809445,0.0596625,1.2915855,0.9665445,0.0508735,0.9296255,-0.0002455,-0.0008424999999999,1.0703745,0.0002454999999999,0.0008425,0.8767855,-0.3683355,0.0067425,1.1189455,-0.3642155,-0.0169664999999999,0.8545455,-0.7132655,0.0265705,1.1341055,-0.7411355000000001,0.0093465
48,1.0006545,0.7143445,0.0490855,0.8552315,0.4822545,0.0503615,0.7613715,0.7317645,0.0608945,1.1430215,0.5032445,0.0522295,1.2494615,0.7422245,0.0487805,0.7113515,0.9803445,0.0603315,1.2916414999999999,0.9605445,0.0507965,0.9296275,-0.0002455,-0.0007945,1.0703725,0.0002454999999999,0.0007945,0.8767915,-0.3684655,0.0066755,1.1190015,-0.3642155,-0.0169785,0.8546615,-0.7135255,0.0270405,1.1341915,-0.7412255,0.0093215
49,1.0008314999999999,0.7147344999999999,0.0494055,0.8550115,0.4818745,0.0503715,0.7613715,0.7313145,0.0615005,1.1431415,0.5029245,0.0521445,1.2495715,0.7417045,0.0490675,0.7114015,0.9795445,0.0609095,1.2916715,0.9538445,0.0506565,0.9296345,-0.0002455,-0.0007474999999999,1.0703655,0.0002454999999999,0.0007475,0.8768015,-0.3686555,0.0065995,1.1190915,-0.3642155,-0.0169944999999999,0.8547815,-0.7137455,0.0274455,1.1343015,-0.7413055,0.0092935
50,1.001028,0.7150755,0.049757,0.854779,0.4812655,0.050397,0.761439,0.7307455,0.062074,1.143189,0.5020555,0.052084,1.249609,0.7411755,0.049216,0.711579,0.9808455,0.061412,1.291669,0.9473955,0.050187,0.929624,-0.0002445,-0.0006999999999999,1.070376,0.0002444999999999,0.0007,0.876849,-0.3688445,0.006549,1.119209,-0.3642145,-0.0169799999999999,0.854939,-0.7140345,0.027791,1.134459,-0.7413945,0.009284
51,1.001248,0.7153225,0.0500874999999999,0.854511,0.4807025,0.0504904999999999,0.761521,0.7302325,0.0625034999999999,1.143241,0.5011224999999999,0.0520845,1.249631,0.7407425,0.0491545,0.7118310000000001,0.9750625,0.0613304999999999,1.291531,0.9407625,0.0490435,0.929609,-0.0002155,-0.0006645,1.070391,0.0002155,0.0006644999999999,0.8769210000000001,-0.3689575,0.0064824999999999,1.119311,-0.3642775,-0.0170485,0.855121,-0.7142975,0.0279495,1.1346409999999998,-0.7414675000000001,0.0092384999999999
52,1.001471,0.7155739999999999,0.0504205,0.85421,0.480044,0.0505785,0.7616200000000001,0.7296739999999999,0.0628595,1.14327,0.500234,0.0520405,1.2497099999999999,0.740544,0.0490675,0.71225,0.969104,0.0610595,1.2913999999999999,0.940804,0.0479265,0.929583,-0.000181,-0.0006134999999999,1.070417,0.000181,0.0006134999999999,0.877,-0.369036,0.0063714999999999,1.1194099999999998,-0.364336,-0.0171365,0.85533,-0.714566,0.0282644999999999,1.13484,-0.741486,0.0091425
53,1.001769,0.715808,0.0506755,0.85395,0.479718,0.0506724999999999,0.76179,0.729418,0.0631035,1.14346,0.500058,0.0518845,1.2498399999999998,0.740608,0.0489165,0.7127399999999999,0.963068,0.0606545,1.2913700000000001,0.940868,0.0468865,0.9295430000000001,-0.0001239999999999,-0.0005465,1.070457,0.0001239999999999,0.0005464999999999,0.8770900000000001,-0.369102,0.0061904999999999,1.11953,-0.364432,-0.0172865,0.8555699999999999,-0.7147819999999999,0.0282254999999999,1.1351,-0.7414919999999999,0.0089804999999999
54,1.0022095,0.7160975,0.0508315,0.8537975,0.4791975,0.0507135,0.7620175,0.7290875,0.0630215,1.1438175,0.4997275,0.0517385,1.2503175,0.7409475,0.0483965,0.7130475000000001,0.9617575,0.0591815,1.2915174999999999,0.9411375,0.0459315,0.9294825,-7.350000000000412e-05,-0.0004514999999999,1.0705175,7.349999999999718e-05,0.0004515,0.8771774999999999,-0.3690925,0.0058535,1.1196575,-0.3646125,-0.0175275,0.8558975,-0.7148825,0.0279795,1.1355075000000001,-0.7414425,0.0087265
55,1.0027725,0.7163985,0.050866,0.8537494999999999,0.4785685,0.050646,0.7624295,0.7287385000000001,0.06269,1.1442695,0.4993685,0.051496,1.2508195,0.7414285,0.047727,0.7135295000000001,0.9675785,0.058221,1.2919794999999998,0.9475185,0.044778,0.9293935,-5.55e-05,-0.0002689999999999,1.0706065,5.55e-05,0.000269,0.8773295,-0.3690715,0.00536,1.1198395,-0.3647715,-0.0178969999999999,0.8563295,-0.7152314999999999,0.027646,1.1360295,-0.7413514999999999,0.008364
56,1.003375,0.7166685,0.050738,0.853741,0.4779185,0.050475,0.762891,0.7282985,0.062258,1.144751,0.4989785,0.051093,1.251331,0.7418285,0.04683,0.7139409999999999,0.9733885,0.057134,1.292311,0.9476085,0.043876,0.9293089999999999,-3.0500000000002747e-05,-6.399999999999809e-05,1.070691,3.0499999999995808e-05,6.400000000000156e-05,0.877471,-0.3690715,0.004728,1.120041,-0.3649515,-0.018372,0.8567810000000001,-0.7155915,0.027214,1.136601,-0.7412715,0.007891
57,1.0039285,0.7169139999999999,0.050676,0.8539045000000001,0.477634,0.050206,0.7633845,0.728044,0.061795,1.1453145,0.498594,0.050702,1.2518544999999999,0.742304,0.045929,0.7135445,0.979214,0.056067,1.2928145,0.953914,0.04295,0.9292395,1.5000000000001124e-05,0.0001199999999999,1.0707605,-1.5000000000001124e-05,-0.00012,0.8775445,-0.369056,0.004045,1.1201344999999998,-0.365116,-0.018957,0.8571145,-0.715886,0.026482,1.1371544999999998,-0.741166,0.0073839999999999
58,1.0044465,0.7171585,0.050446,0.8541485,0.4777485,0.049695,0.7635885,0.7281585,0.060878,1.1457885,0.4984585,0.049995,1.2522785,0.7427185000000001,0.044717,0.7123284999999999,0.9782285,0.053986,1.2932985,0.9602285,0.041789,0.9291505,1.7499999999996685e-05,0.0002179999999999,1.0708495,-1.7500000000003624e-05,-0.0002179999999999,0.8774985000000001,-0.3692614999999999,0.0028709999999999,1.1201285,-0.3653814999999999,-0.019937,0.8573785,-0.7162415,0.025362,1.1377085,-0.7410915,0.0066109999999999
59,1.0048255,0.7173320000000001,0.050109,0.8544355000000001,0.477782,0.048895,0.7635355,0.7281920000000001,0.059744,1.1462554999999999,0.498492,0.049205,1.2524655,0.7427520000000001,0.043368,0.7110155,0.978262,0.05174,1.2935155,0.966562,0.040523,0.9290655,-1.1999999999998123e-05,0.000303,1.0709345,1.2000000000005062e-05,-0.0003029999999999,0.8773255,-0.3695779999999999,0.001412,1.1200255,-0.365838,-0.0211249999999999,0.8575355,-0.7166779999999999,0.024116,1.1381055,-0.741108,0.005651
60,1.0050469999999998,0.7175325,0.0495665,0.854706,0.4778325,0.0481535,0.763236,0.7282625,0.0584125,1.146586,0.4986024999999999,0.0485115,1.252496,0.7429425,0.0417595,0.709956,0.9783125,0.0492975,1.293626,0.9730125,0.0390735,0.928993,-4.649999999999793e-05,0.0004634999999999,1.071007,4.649999999999793e-05,-0.0004635,0.8770560000000001,-0.3700475,-0.0003144999999999,1.119826,-0.3662775,-0.0225155,0.857576,-0.7170275,0.0222615,1.138336,-0.7411475000000001,0.0044244999999999
61,1.0050285,0.7177285,0.0487645,0.8547925000000001,0.4781984999999999,0.0476955,0.7624725,0.7285185,0.0568185,1.1464725,0.4988785,0.0477155,1.2522525,0.7432785,0.0398685,0.7082025000000001,0.9782585,0.0466085,1.2933824999999999,0.9793585,0.0372055,0.9289285,-9.249999999999536e-05,0.0005535,1.0710715,9.25000000000023e-05,-0.0005534999999999,0.8765625000000001,-0.3705414999999999,-0.0022825,1.1194425,-0.3667614999999999,-0.0241214999999999,0.8573925,-0.7174615,0.0202515,1.1383025,-0.7411915,0.0029575
62,1.0049039999999998,0.7178885,0.047692,0.8548439999999999,0.4788284999999999,0.047105,0.761444,0.7288885,0.054936,1.146124,0.4993884999999999,0.046753,1.251914,0.7437285,0.037659,0.706124,0.9779185,0.043611,1.293054,0.9862185,0.03482,0.92887,-0.0001215,0.000492,1.07113,0.0001214999999999,-0.0004919999999999,0.876044,-0.3709915,-0.0045279999999999,1.119034,-0.3673415,-0.0260149999999999,0.8571139999999999,-0.7181915,0.017964,1.138164,-0.7412314999999999,0.001224
63,1.0045754999999998,0.7179745,0.04638,0.8546985,0.4795644999999999,0.046221,0.7602285,0.7293145,0.052823,1.1455485,0.5000145,0.045659,1.2514285,0.7438045,0.035321,0.7036985,0.9775945,0.041157,1.2926585,0.9920945,0.032257,0.9288665,-0.0001345,0.0004289999999999,1.0711335,0.0001345,-0.000429,0.8754985,-0.3717255,-0.006951,1.1186585,-0.3679655,-0.0280629999999999,0.8566385,-0.7188955,0.01546,1.1378385,-0.7413255,-0.000695
64,1.0042075,0.7180529999999999,0.0445985,0.8545435,0.480403,0.0449105,0.7587935,0.729883,0.0501345,1.1449635,0.500663,0.0441585,1.2509135,0.743883,0.0323985,0.7009635000000001,0.977473,0.0382785,1.2921735,0.992673,0.0291425,0.9288514999999999,-0.000139,0.0002424999999999,1.0711485,0.000139,-0.0002424999999999,0.8749935,-0.372527,-0.0097885,1.1183635,-0.368687,-0.0305495,0.8561635,-0.719267,0.0125635,1.1374735,-0.741417,-0.0030764999999999
65,1.003838,0.718142,0.042675,0.8543960000000002,0.481282,0.043556,0.757386,0.730432,0.047194,1.144446,0.501132,0.042376,1.250376,0.743972,0.02924,0.697916,0.976762,0.035022,1.291636,0.992762,0.025485,0.928832,-0.000146,4.000000000000531e-06,1.071168,0.000146,-4.000000000000531e-06,0.874506,-0.373458,-0.012788,1.118126,-0.369978,-0.033186,0.8556760000000001,-0.719608,0.009576,1.137066,-0.7415080000000001,-0.005611
66,1.0034394999999998,0.718224,0.040282,0.8542385,0.481954,0.042038,0.7558985,0.730714,0.043934,1.1439485,0.501484,0.040352,1.2497185,0.7436740000000001,0.025589,0.6956785,0.977344,0.031107,1.2911085,0.992744,0.021461,0.9288115,-0.000164,-0.000179,1.0711885,0.0001639999999999,0.0001789999999999,0.8740384999999999,-0.373936,-0.016046,1.1178585,-0.370926,-0.036031,0.8552985,-0.720016,0.0067029999999999,1.1365885,-0.741526,-0.008553
67,1.0029665,0.7180890000000001,0.0377005,0.8537795000000001,0.482369,0.0400495,0.7545495,0.7307990000000001,0.0407765,1.1434194999999998,0.501699,0.0380425,1.2489595,0.743079,0.0218145,0.6936795,0.977829,0.0268225,1.2902795,0.991629,0.0161115,0.9288385,-0.000169,-0.0002535,1.0711615,0.000169,0.0002534999999999,0.8735695,-0.374321,-0.0192055,1.1174495,-0.371751,-0.0388625,0.8548395000000001,-0.7205109999999999,0.0037034999999999,1.1359795,-0.741641,-0.0116595
68,1.00245,0.717976,0.0348565,0.853165,0.482326,0.0376425,0.753125,0.730486,0.0373815,1.142865,0.5017159999999999,0.0351415,1.248205,0.742236,0.0177765,0.6914750000000001,0.978246,0.0221915,1.289545,0.991046,0.0101564999999999,0.928863,-0.000152,-0.0004095,1.071137,0.0001519999999999,0.0004095,0.873055,-0.374724,-0.0223975,1.116955,-0.372224,-0.0418145,0.854265,-0.720894,0.0004035,1.135315,-0.7416240000000001,-0.0149294999999999
69,1.00195,0.717911,0.031574,0.852568,0.482441,0.034816,0.7516880000000001,0.730351,0.033253,1.142358,0.501611,0.031771,1.247518,0.741241,0.012861,0.689108,0.978051,0.016562,1.288738,0.990751,0.003046,0.928867,-0.0001419999999999,-0.0005809999999999,1.0711330000000001,0.000142,0.0005809999999999,0.872518,-0.374779,-0.025948,1.116558,-0.372469,-0.045251,0.853648,-0.721249,-0.003382,1.134668,-0.741329,-0.018579
70,1.0013859999999999,0.7177184999999999,0.0281455,0.851908,0.4825185,0.0313135,0.750418,0.7304084999999999,0.0288845,1.141788,0.5016885,0.0282695,1.246818,0.7402685,0.0077585,0.686868,0.9781285,0.0108025,1.287858,0.9904285,-0.0042065,0.928885,-0.0001654999999999,-0.0005665,1.071115,0.0001654999999999,0.0005664999999999,0.8719080000000001,-0.3748015,-0.0296145,1.116238,-0.3725615,-0.0488355,0.852958,-0.7215915,-0.0073215,1.133978,-0.7410615,-0.0223585
71,1.0009055,0.7174145,0.0247695,0.8513835000000001,0.4825845,0.0279034999999999,0.7493635000000001,0.7304545,0.0245715,1.1413035,0.5017545,0.0248555,1.2462035,0.7392945,0.0027365,0.6848935,0.9782945,0.0051745,1.2871435,0.9901945,-0.0113675,0.9289025,-0.0001805,-0.0004894999999999,1.0710975,0.0001805,0.0004895,0.8713435,-0.3750254999999999,-0.0331905,1.1160535,-0.3724955,-0.0523325,0.8523735,-0.7216555,-0.0112085,1.1333734999999998,-0.7408855000000001,-0.0260265
72,1.000533,0.7168955,0.021444,0.850937,0.4826555,0.024583,0.7484570000000001,0.7305255,0.020347,1.140957,0.5018255,0.021528,1.245677,0.7381755,-0.002241,0.6831670000000001,0.9784655,-0.0003909999999999,1.2866469999999999,0.9898655,-0.018302,0.928922,-0.0001515,-0.0004589999999999,1.071078,0.0001514999999999,0.000459,0.8708670000000001,-0.3751744999999999,-0.036721,1.115977,-0.3724245,-0.05577,0.851947,-0.7216645,-0.014935,1.132857,-0.7407045,-0.029676
73,1.000378,0.71626,0.018436,0.8504849999999999,0.48233,0.021504,0.7478549999999999,0.73007,0.016498,1.140975,0.5018100000000001,0.018506,1.245365,0.7367400000000001,-0.006883,0.681775,0.97855,-0.005447,1.286465,0.9895500000000002,-0.0246839999999999,0.9289270000000001,-0.0001289999999999,-0.0003969999999999,1.071073,0.000129,0.0003969999999999,0.8705350000000001,-0.37513,-0.040017,1.116055,-0.37224,-0.058933,0.851695,-0.72151,-0.01831,1.132495,-0.7404799999999999,-0.033082
74,1.0002455,0.7156325,0.0153579999999999,0.8502835000000001,0.4820025,0.0188829999999999,0.7473035,0.7296725,0.012488,1.1411735,0.5017425,0.015708,1.2451535,0.7353824999999999,-0.011566,0.6805034999999999,0.9784425,-0.010491,1.2864434999999999,0.9890425,-0.030918,0.9289375,-7.549999999999918e-05,-0.0002649999999999,1.0710625,7.549999999999918e-05,0.0002649999999999,0.8701734999999999,-0.3752175,-0.043411,1.1161235,-0.3718174999999999,-0.06222,0.8513435,-0.7211575,-0.022071,1.1321634999999999,-0.7400075,-0.036621
75,1.000188,0.7148840000000001,0.01235,0.850076,0.481504,0.016304,0.746796,0.7291540000000001,0.008468,1.141266,0.5017240000000001,0.0129369999999999,1.245036,0.734494,-0.016167,0.6793360000000002,0.978254,-0.015338,1.286566,0.988654,-0.036552,0.928951,-4.499999999999643e-05,-0.000106,1.071049,4.500000000000337e-05,0.0001059999999999,0.869766,-0.374956,-0.046814,1.116156,-0.371146,-0.065477,0.851036,-0.7207760000000001,-0.025936,1.131846,-0.7393860000000001,-0.040024
76,1.0002719999999998,0.713989,0.0093859999999999,0.849962,0.481039,0.0136879999999999,0.746252,0.7286689999999999,0.0044129999999999,1.141522,0.501539,0.0100719999999999,1.2450919999999999,0.733829,-0.020747,0.678302,0.978299,-0.020172,1.2869220000000001,0.988399,-0.042239,0.9289810000000001,0.0,5.699999999999802e-05,1.071019,0.0,-5.700000000000149e-05,0.869402,-0.374501,-0.050239,1.116252,-0.3711609999999999,-0.068718,0.850862,-0.7202510000000001,-0.029784,1.131612,-0.738681,-0.043523
77,1.0004685,0.7126990000000001,0.0060685,0.8498965,0.480169,0.0107185,0.7458365,0.7276590000000001,-0.0002084999999999,1.1418765,0.500739,0.0068665,1.2452865,0.732839,-0.0258645,0.6773264999999999,0.978579,-0.0254084999999999,1.2873765,0.986379,-0.0488274999999999,0.9290235,7.499999999999868e-05,0.0004395,1.0709765,-7.499999999999868e-05,-0.0004394999999999,0.8689165,-0.373991,-0.0546595,1.1164165,-0.370221,-0.0725465,0.8506865,-0.7193109999999999,-0.0341565,1.1314365,-0.737591,-0.0476425
78,1.001018,0.7111989999999999,0.0026879999999999,0.850089,0.4794689999999999,0.0079329999999999,0.7455890000000001,0.726739,-0.004695,1.142359,0.499039,0.0037199999999999,1.245979,0.731619,-0.03089,0.676489,0.979179,-0.03031,1.288129,0.984879,-0.055102,0.929029,0.0002399999999999,0.0006229999999999,1.0709710000000001,-0.00024,-0.0006229999999999,0.868479,-0.373671,-0.059944,1.116769,-0.368711,-0.076601,0.850639,-0.717951,-0.038553,1.131389,-0.7359910000000001,-0.0517959999999999
79,1.0017274999999999,0.7093554999999999,-0.000585,0.8503645,0.4788455,0.0048519999999999,0.7453145,0.7257555,-0.0091,1.1427645,0.4971755,0.000723,1.2468045,0.7302455,-0.035804,0.6757345,0.9797955,-0.035021,1.2889045000000001,0.9828955,-0.061458,0.9290435,0.0003984999999999,0.0006779999999999,1.0709565,-0.0003985,-0.000678,0.8680645,-0.3732545,-0.065372,1.1175345,-0.3669845,-0.081528,0.8506745,-0.7162045,-0.042868,1.1314045,-0.7340745000000001,-0.055795
80,1.0025815,0.7074689999999999,-0.0043244999999999,0.8509774999999999,0.477819,0.0010625,0.7450075,0.7242090000000001,-0.0139984999999999,1.1433275,0.4954789999999999,-0.0024504999999999,1.2477675,0.728699,-0.0411755,0.6745375,0.979189,-0.0408624999999999,1.2895475,0.981889,-0.0684124999999999,0.9290505,0.0005719999999999,0.0007585,1.0709495,-0.000572,-0.0007584999999999,0.8675275,-0.371931,-0.0720325,1.1183275,-0.364651,-0.0876005,0.8506675000000001,-0.7134309999999999,-0.0479275,1.1314875,-0.7310810000000001,-0.0606064999999999
81,1.0034684999999999,0.7059145,-0.0080999999999999,0.8515565,0.4774145,-0.0025969999999999,0.7449965000000001,0.7232745,-0.0192569999999999,1.1438964999999999,0.4940845,-0.0056419999999999,1.2487765,0.7277945,-0.0467989999999999,0.6736165000000001,0.9786045,-0.046917,1.2901365,0.9814045,-0.075585,0.9290935,0.0006595,0.001008,1.0709065,-0.0006595,-0.0010079999999999,0.8668565,-0.3699755,-0.079104,1.1191164999999998,-0.3621955,-0.094145,0.8505564999999999,-0.7099555,-0.053542,1.1315265,-0.7276355,-0.06565
82,1.0044009999999999,0.7044644999999999,-0.0119864999999999,0.852516,0.4773545,-0.0056794999999999,0.744916,0.7226245,-0.0244814999999999,1.1444860000000001,0.4928045,-0.0086445,1.249886,0.7270445,-0.0523205,0.672796,0.9781445,-0.0529824999999999,1.290746,0.9808445,-0.0826165,0.929141,0.0008165,0.0011725,1.070859,-0.0008165,-0.0011725,0.866196,-0.3677355,-0.0862165,1.119916,-0.3596755,-0.1007754999999999,0.850446,-0.7063455000000001,-0.0590754999999999,1.131586,-0.7239955,-0.0705075
83,1.0053025,0.7024195000000001,-0.0157709999999999,0.8536025,0.4774695,-0.008541,0.7447925,0.7221595000000001,-0.0298069999999999,1.1450025,0.4916594999999999,-0.0115949999999999,1.2509925,0.7263395,-0.058141,0.6720524999999999,0.9778895,-0.058899,1.2913225,0.9795095,-0.0898539999999999,0.9291845,0.0009975,0.0013179999999999,1.0708155,-0.0009974999999999,-0.0013179999999999,0.8655525,-0.3650205,-0.093412,1.1207225,-0.3570005,-0.107553,0.8503225,-0.7022805,-0.064495,1.1316424999999999,-0.7199304999999999,-0.075268
84,1.006187,0.7008025,-0.0198115,0.854855,0.4768125,-0.0116875,0.744585,0.7209325,-0.0352055,1.145685,0.4905025,-0.0148805,1.251655,0.7247024999999999,-0.0640095,0.671675,0.9767625,-0.0649405,1.291855,0.9778125,-0.0974785,0.929202,0.0011424999999999,0.0013904999999999,1.070798,-0.0011424999999999,-0.0013905,0.8649249999999999,-0.3615775,-0.1008405,1.121525,-0.3537475,-0.1146005,0.850185,-0.6977175000000001,-0.0700125,1.131685,-0.7151575,-0.0804485
85,1.0070265,0.6992010000000001,-0.0237815,0.8562205,0.475731,-0.0149525,0.7443305,0.719291,-0.0406475,1.1461405,0.489391,-0.0183455,1.2522605,0.7237210000000001,-0.0699895,0.6711405000000001,0.974981,-0.0711815,1.2921905,0.976731,-0.1053085,0.9291365,0.001215,0.0014914999999999,1.0708635,-0.001215,-0.0014914999999999,0.8642205000000001,-0.3575489999999999,-0.1083295,1.1226205,-0.352819,-0.1222995,0.8499405,-0.692639,-0.0754945,1.1316205,-0.710089,-0.0854965
86,1.007751,0.697729,-0.027379,0.857249,0.4751189999999999,-0.018441,0.744129,0.718199,-0.045767,1.146479,0.488479,-0.021779,1.252659,0.723589,-0.075595,0.6706390000000001,0.973699,-0.0770909999999999,1.292319,0.978259,-0.112232,0.929046,0.001297,0.0015089999999999,1.070954,-0.001297,-0.001509,0.863659,-0.352521,-0.114906,1.123649,-0.351951,-0.129508,0.849629,-0.6873509999999999,-0.080497,1.131559,-0.704931,-0.089888
87,1.008286,0.6959660000000001,-0.0311985,0.858223,0.474016,-0.0218145,0.7439629999999999,0.7158460000000001,-0.0510485,1.146643,0.487946,-0.0250875,1.252763,0.720736,-0.0810185,0.670053,0.971256,-0.0833214999999999,1.292313,0.976986,-0.1192975,0.928997,0.0013099999999999,0.0017635,1.071003,-0.00131,-0.0017635,0.862933,-0.346554,-0.1211095,1.124613,-0.350844,-0.1367695,0.849333,-0.6809839999999999,-0.0856055,1.131443,-0.699144,-0.0944045
88,1.0083229999999999,0.694715,-0.0360535,0.8590990000000001,0.472785,-0.0257154999999999,0.743849,0.714175,-0.0571825,1.146359,0.487195,-0.0288954999999999,1.252279,0.7189949999999999,-0.0874415,0.669289,0.965545,-0.0932925,1.291769,0.976785,-0.1275365,0.928979,0.0014099999999999,0.0019485,1.071021,-0.00141,-0.0019484999999999,0.861939,-0.338025,-0.1280385,1.125159,-0.343165,-0.1437625,0.848979,-0.672825,-0.0914275,1.131259,-0.691535,-0.0994585
89,1.007949,0.6935764999999999,-0.040677,0.8596460000000001,0.4725665,-0.029398,0.743266,0.7136564999999999,-0.063116,1.145896,0.4864465,-0.032614,1.2517559999999999,0.7169365,-0.09383,0.6685559999999999,0.9617965,-0.102208,1.291106,0.9757265,-0.1355259999999999,0.9289870000000001,0.0013515,0.0022009999999999,1.071013,-0.0013514999999999,-0.0022009999999999,0.860816,-0.3297635,-0.134276,1.125676,-0.3355634999999999,-0.150031,0.848746,-0.6647935,-0.095116,1.130976,-0.6845335,-0.103864
90,1.007448,0.6921255,-0.0458405,0.8599140000000001,0.4713855,-0.0340395,0.743154,0.7122054999999999,-0.0696195,1.145474,0.4856755,-0.0367815,1.251164,0.7147755,-0.1001525,0.667894,0.9587155,-0.1112695,1.290354,0.9744855,-0.1438605,0.928912,0.0012694999999999,0.0023154999999999,1.071088,-0.0012694999999999,-0.0023154999999999,0.8595740000000001,-0.3213045,-0.1405545,1.126084,-0.3275045,-0.1561785,0.848334,-0.6562745,-0.0997835,1.130674,-0.6770645,-0.1084985
91,1.0064019999999998,0.692141,-0.0570284999999999,0.859436,0.471111,-0.0443605,0.742516,0.711361,-0.0827985,1.144446,0.485101,-0.0471894999999999,1.249356,0.709391,-0.1121385,0.666606,0.957761,-0.1276305,1.288886,0.969361,-0.1602355,0.928695,0.001003,0.0026334999999999,1.071305,-0.0010029999999999,-0.0026334999999999,0.856386,-0.3084889999999999,-0.1555805,1.1266459999999998,-0.3151489999999999,-0.1719985,0.847876,-0.643389,-0.1089945,1.129916,-0.665369,-0.1190015
92,1.0054364999999998,0.6927035,-0.0682484999999999,0.8589335,0.4704135,-0.0548334999999999,0.7417935,0.7098335,-0.0956384999999999,1.1429235,0.4844035,-0.0581164999999999,1.2464235,0.7011735,-0.1236095,0.6658635000000002,0.9560835,-0.1441955,1.2872035,0.9613435,-0.1763414999999999,0.9285595,0.0007725,0.0028835,1.0714405,-0.0007724999999999,-0.0028834999999999,0.8531635,-0.2956364999999999,-0.1707814999999999,1.1273435,-0.3024064999999999,-0.1878415,0.8486835,-0.6309965,-0.1180835,1.1292734999999998,-0.6534965,-0.1297615
93,1.0042335,0.6926509999999999,-0.0799435,0.8583905000000001,0.470031,-0.0655234999999999,0.7407405,0.7045509999999999,-0.1088035,1.1409005,0.482961,-0.0693095,1.2436004999999999,0.694601,-0.1349575,0.6650005,0.948681,-0.1612175,1.2860805,0.953551,-0.1932295,0.9283335,0.0006049999999999,0.0031225,1.0716665,-0.0006049999999999,-0.0031225,0.8497304999999999,-0.282369,-0.1866554999999999,1.1280904999999999,-0.289289,-0.2041675,0.8493905000000002,-0.6179190000000001,-0.1279635,1.1285905,-0.6409689999999999,-0.1403725
94,1.0028615,0.692251,-0.091583,0.8576885,0.469891,-0.076105,0.7396985,0.700191,-0.122476,1.1384685,0.4802909999999999,-0.08086,1.2409385,0.687401,-0.146511,0.6639785,0.942191,-0.178411,1.2850985,0.945331,-0.209805,0.9280925,0.0005959999999999,0.0033149999999999,1.0719075,-0.0005959999999999,-0.0033149999999999,0.8462285,-0.268949,-0.202608,1.1284985,-0.276189,-0.219955,0.8498985,-0.604349,-0.138088,1.1277285,-0.627179,-0.149279
95,1.001539,0.692535,-0.103179,0.85702,0.469635,-0.086712,0.7387,0.695945,-0.135912,1.13605,0.478025,-0.092481,1.23844,0.680685,-0.157791,0.6625099999999999,0.936665,-0.195419,1.28417,0.937665,-0.226265,0.927882,0.000585,0.003405,1.072118,-0.000585,-0.003405,0.8427700000000001,-0.2553149999999999,-0.218845,1.1289799999999999,-0.2624649999999999,-0.235975,0.8504400000000001,-0.5902649999999999,-0.148191,1.12691,-0.6127349999999999,-0.158237
96,1.0002054999999999,0.69292,-0.1141789999999999,0.8562625,0.46856,-0.0974039999999999,0.7373525000000001,0.6934899999999999,-0.149975,1.1333225,0.47655,-0.1036449999999999,1.2363925,0.67778,-0.1688299999999999,0.6608925,0.93333,-0.213049,1.2829625,0.93287,-0.24384,0.9276805,0.00042,0.0033699999999999,1.0723195,-0.00042,-0.0033699999999999,0.8394325,-0.24184,-0.2346099999999999,1.1294025,-0.24916,-0.2515799999999999,0.8508425,-0.5764400000000001,-0.158027,1.1259425,-0.5982400000000001,-0.166885
97,0.9991865000000001,0.693105,-0.124306,0.8557115,0.467805,-0.107667,0.7362215000000001,0.6914549999999999,-0.163118,1.1309515,0.4753549999999999,-0.114036,1.2350715,0.674605,-0.179433,0.6606315,0.934325,-0.227192,1.2819215,0.928115,-0.25999,0.9276005,9.500000000001174e-05,0.0033499999999999,1.0723995,-9.500000000001174e-05,-0.00335,0.8365715000000001,-0.2291649999999999,-0.24978,1.1300615,-0.235395,-0.26666,0.8518215,-0.564065,-0.165895,1.1250615,-0.584755,-0.174969
98,0.9983240000000001,0.692555,-0.134442,0.855031,0.4667249999999999,-0.117854,0.735311,0.689225,-0.176082,1.128761,0.474525,-0.124134,1.233851,0.671815,-0.190244,0.6595610000000001,0.934715,-0.24142,1.280721,0.923895,-0.27588,0.927527,-0.0001549999999999,0.0033299999999999,1.072473,0.0001549999999999,-0.0033299999999999,0.834021,-0.216905,-0.26449,1.130501,-0.222325,-0.28135,0.8530409999999999,-0.5523549999999999,-0.173071,1.124141,-0.571105,-0.182924
99,0.997391,0.6919150000000001,-0.144332,0.854484,0.466385,-0.127554,0.734714,0.6881950000000001,-0.188553,1.126784,0.474345,-0.1339779999999999,1.2326139999999999,0.6689449999999999,-0.201293,0.658204,0.933145,-0.255645,1.2801339999999999,0.919655,-0.291645,0.927459,-0.0004049999999999,0.0033549999999999,1.072541,0.000405,-0.0033549999999999,0.8316940000000002,-0.205185,-0.278795,1.130904,-0.209065,-0.2957849999999999,0.8544039999999999,-0.5419149999999999,-0.179451,1.123204,-0.5578350000000001,-0.190442
100,0.997287,0.6895549999999999,-0.149162,0.854499,0.464595,-0.132303,0.735259,0.6860649999999999,-0.19541,1.126189,0.471735,-0.138776,1.232319,0.670685,-0.208484,0.6574990000000001,0.925455,-0.26351,1.280579,0.920545,-0.3016,0.927252,-0.0002549999999999,0.00334,1.072748,0.000255,-0.00334,0.831469,-0.1949449999999999,-0.28523,1.1311390000000001,-0.1981049999999999,-0.30146,0.856719,-0.533415,-0.179138,1.122769,-0.547005,-0.192735
101,0.9971095,0.68632,-0.154771,0.8546374999999999,0.46258,-0.137259,0.7358475,0.68405,-0.2030749999999999,1.1259075,0.46884,-0.144167,1.2318875,0.67484,-0.21725,0.6565575,0.91983,-0.2725249999999999,1.2809775,0.92194,-0.3133249999999999,0.9270785,-0.00012,0.003455,1.0729215,0.0001199999999999,-0.0034549999999999,0.8312174999999999,-0.18365,-0.291705,1.1312375000000001,-0.18617,-0.3072549999999999,0.8580675,-0.5233,-0.1786599999999999,1.1223275,-0.53551,-0.1957219999999999
102,0.9968105000000002,0.68354,-0.159834,0.8545855,0.4609799999999999,-0.141917,0.7361555,0.68655,-0.21042,1.1256054999999998,0.4664,-0.149201,1.2312854999999998,0.67835,-0.226092,0.6556155,0.9211,-0.28106,1.2813755,0.92133,-0.32454,0.9269805,9.9999999999989e-05,0.00364,1.0730195,-9.9999999999989e-05,-0.00364,0.8308755,-0.17244,-0.2972599999999999,1.1312855,-0.17459,-0.31248,0.8588255000000001,-0.5122,-0.180481,1.1217555,-0.52411,-0.198417
103,0.9965645000000001,0.68057,-0.1651419999999999,0.8547465,0.45824,-0.1468549999999999,0.7364065,0.68746,-0.217211,1.1253165,0.4653,-0.154111,1.2312965,0.6816,-0.235808,0.6544765,0.92296,-0.28916,1.2823165,0.92099,-0.3366,0.9269135,7.999999999999674e-05,0.00395,1.0730865,-7.999999999999674e-05,-0.0039499999999999,0.8305965000000001,-0.16207,-0.30288,1.1312165,-0.1657,-0.31786,0.8600365,-0.50142,-0.1797409999999999,1.1208665,-0.51136,-0.19998
104,0.9967330000000001,0.677245,-0.170398,0.854994,0.455855,-0.1515719999999999,0.736964,0.688545,-0.223947,1.125184,0.464155,-0.158689,1.232684,0.6830849999999999,-0.246219,0.653884,0.923885,-0.29772,1.283834,0.920305,-0.3485399999999999,0.926888,2.5000000000025e-05,0.00432,1.073112,-2.4999999999997247e-05,-0.0043199999999999,0.8306640000000001,-0.1514149999999999,-0.30818,1.131334,-0.156775,-0.32297,0.861164,-0.488725,-0.180422,1.120144,-0.4982049999999999,-0.201102
105,0.9970295,0.67386,-0.175837,0.8552585,0.45455,-0.156078,0.7366885000000001,0.68896,-0.229627,1.1253685,0.4628,-0.163342,1.2336384999999999,0.6836500000000001,-0.256363,0.6531985,0.92381,-0.3048849999999999,1.2841585,0.92,-0.355965,0.9267965,0.0001,0.004845,1.0732035,-9.9999999999989e-05,-0.0048449999999999,0.8309285000000001,-0.1398499999999999,-0.3132049999999999,1.1313785,-0.1471699999999999,-0.328185,0.8614785,-0.47536,-0.183757,1.1195085,-0.4846199999999999,-0.201643
106,0.997508,0.67067,-0.181135,0.8555150000000001,0.45335,-0.16,0.7364550000000001,0.68845,-0.235058,1.125845,0.46182,-0.167749,1.2340749999999998,0.6825600000000001,-0.265865,0.652995,0.92293,-0.30992,1.284235,0.91866,-0.36378,0.926681,0.0002,0.0053799999999999,1.073319,-0.0001999999999999,-0.0053799999999999,0.8312550000000001,-0.12866,-0.31773,1.131515,-0.13777,-0.33327,0.861605,-0.46196,-0.187766,1.119325,-0.47168,-0.203275
107,0.9979955,0.667895,-0.1860979999999999,0.8556345,0.452785,-0.1636729999999999,0.7355145000000001,0.688375,-0.240302,1.1263845,0.457785,-0.172848,1.2341745,0.681635,-0.274465,0.6519645000000001,0.918215,-0.316145,1.2844945,0.917305,-0.373565,0.9265685,0.000695,0.0058549999999999,1.0734315,-0.000695,-0.0058549999999999,0.8313645000000001,-0.1169149999999999,-0.3221549999999999,1.1315745,-0.127575,-0.338485,0.8613145,-0.4475149999999999,-0.192334,1.1189445,-0.458045,-0.204698
108,0.998468,0.665745,-0.19072,0.8560909999999999,0.448575,-0.167705,0.736001,0.6848050000000001,-0.24516,1.126941,0.454185,-0.177785,1.234441,0.681525,-0.28215,0.651221,0.916025,-0.32192,1.284811,0.917945,-0.38291,0.926533,0.000925,0.0063799999999999,1.073467,-0.0009249999999999,-0.0063799999999999,0.831521,-0.1036049999999999,-0.32649,1.131691,-0.1155949999999999,-0.3436099999999999,0.861391,-0.4321049999999999,-0.195597,1.118671,-0.4429349999999999,-0.206134
109,0.9990190000000001,0.663485,-0.194236,0.8565600000000001,0.445405,-0.170653,0.73583,0.682115,-0.248765,1.1278299999999999,0.452395,-0.181637,1.23454,0.679765,-0.28783,0.65063,0.917895,-0.32669,1.2849599999999999,0.916885,-0.38972,0.926471,0.000945,0.0068999999999999,1.073529,-0.0009449999999999,-0.0068999999999999,0.83184,-0.091945,-0.32953,1.13197,-0.104875,-0.34737,0.8613,-0.418745,-0.197544,1.11853,-0.430115,-0.20665
110,0.9993615,0.6614599999999999,-0.196762,0.8568215,0.44315,-0.172867,0.7364415,0.6794800000000001,-0.251415,1.1285415,0.45119,-0.18449,1.2346314999999999,0.67856,-0.29196,0.6506715000000001,0.91748,-0.32991,1.2849715,0.91708,-0.39443,0.9264305,0.00095,0.00741,1.0735695,-0.00095,-0.00741,0.8319715,-0.08093,-0.3321699999999999,1.1322015,-0.09419,-0.35082,0.8611415,-0.40598,-0.198688,1.1183014999999998,-0.41796,-0.20652
111,0.9997995000000001,0.65862,-0.1987689999999999,0.8570345,0.44132,-0.174529,0.7370545,0.67767,-0.253577,1.1294045,0.44974,-0.1870679999999999,1.2348345,0.67404,-0.295535,0.6512745000000001,0.91634,-0.3327449999999999,1.2850245,0.91566,-0.398935,0.9263755,0.0009,0.007845,1.0736245,-0.0009,-0.0078449999999999,0.8319145,-0.06868,-0.334595,1.1323945,-0.08213,-0.354155,0.8610445,-0.39188,-0.199428,1.1182145,-0.40448,-0.2071579999999999
112,1.0000085,0.656145,-0.200171,0.8568455,0.4415849999999999,-0.175423,0.7374355,0.6771849999999999,-0.25519,1.1298155,0.4476349999999999,-0.1889549999999999,1.2347855,0.6704749999999999,-0.297475,0.6500155000000001,0.914825,-0.334855,1.2848255,0.913255,-0.402455,0.9261545,0.0012749999999999,0.008065,1.0738455,-0.001275,-0.0080649999999999,0.8314855000000001,-0.057645,-0.336315,1.1323055,-0.070725,-0.356875,0.8598055,-0.3771650000000001,-0.2039399999999999,1.1178955,-0.392265,-0.2073849999999999
113,1.000003,0.653565,-0.201179,0.856544,0.440346,-0.175671,0.7375440000000001,0.675825,-0.256473,1.1299739999999998,0.446145,-0.190429,1.234424,0.669305,-0.29874,0.649474,0.913885,-0.33665,1.284634,0.906345,-0.40584,0.925873,0.001365,0.00809,1.074127,-0.001365,-0.0080899999999999,0.831094,-0.046185,-0.33762,1.132544,-0.058725,-0.35939,0.858804,-0.362825,-0.207447,1.117614,-0.3797649999999999,-0.20736
114,0.9997155000000001,0.651375,-0.201579,0.8562335,0.43886,-0.17588,0.7371435,0.674385,-0.2572149999999999,1.1299435,0.444342,-0.191681,1.2340435,0.6688050000000001,-0.299165,0.6490335,0.912905,-0.337835,1.2841035,0.901255,-0.408185,0.9255325000000001,0.001485,0.008115,1.0744675,-0.0014849999999999,-0.008115,0.8306635,-0.0341949999999999,-0.3387449999999999,1.1326535,-0.0461049999999999,-0.361575,0.8579235000000001,-0.348885,-0.21123,1.1175435,-0.366745,-0.207743
115,0.9993915000000001,0.64901,-0.201622,0.8558875000000001,0.43752,-0.176052,0.7365675,0.6732,-0.257873,1.1298975,0.44201,-0.193052,1.2336274999999999,0.66901,-0.29974,0.6485974999999999,0.90895,-0.33929,1.2834475,0.89728,-0.41014,0.9252165,0.0016499999999999,0.00816,1.0747835000000001,-0.0016499999999999,-0.00816,0.8301675,-0.02194,-0.33977,1.1326475,-0.03423,-0.36349,0.8570375,-0.33441,-0.215256,1.1183175,-0.35557,-0.213257
116,0.9992535,0.64681,-0.2010219999999999,0.8556495,0.435951,-0.175596,0.7360595,0.6718,-0.257894,1.1297495,0.442349,-0.19305,1.2331295,0.66937,-0.2999,0.6483595,0.91079,-0.33998,1.2828395,0.89498,-0.41083,0.9248365000000001,0.0014,0.0084,1.0751635,-0.0014,-0.0083999999999999,0.8295795,-0.00828,-0.3403899999999999,1.1324795,-0.0212799999999999,-0.36485,0.8566795,-0.3187299999999999,-0.215919,1.1193294999999999,-0.3431799999999999,-0.2182889999999999
117,0.9993430000000001,0.64428,-0.1996469999999999,0.855709,0.437911,-0.1742189999999999,0.735679,0.67313,-0.25656,1.129789,0.442142,-0.1922379999999999,1.233119,0.66564,-0.2992849999999999,0.648109,0.91167,-0.339615,1.282369,0.88993,-0.4104649999999999,0.924322,0.0013299999999999,0.008505,1.075678,-0.0013299999999999,-0.0085049999999999,0.8290590000000001,0.00512,-0.340125,1.132439,-0.0083499999999999,-0.365055,0.8567290000000001,-0.30387,-0.2146239999999999,1.120619,-0.33085,-0.2230219999999999
118,0.999442,0.64193,-0.198127,0.855957,0.438982,-0.172859,0.736067,0.67372,-0.255211,1.129947,0.442177,-0.191253,1.233117,0.66305,-0.29886,0.649097,0.91215,-0.33832,1.281937,0.8862,-0.41024,0.923867,0.0011599999999999,0.0085,1.076133,-0.0011599999999999,-0.0085,0.828607,0.0185299999999999,-0.33979,1.132517,0.00468,-0.36499,0.856847,-0.28744,-0.213388,1.122147,-0.31864,-0.227684
119,0.9989870000000001,0.639885,-0.196439,0.855935,0.4394099999999999,-0.171427,0.7356250000000001,0.674375,-0.253531,1.129815,0.441546,-0.189813,1.232625,0.660705,-0.2983099999999999,0.648795,0.911245,-0.33651,1.281225,0.884155,-0.4099,0.923629,0.0010049999999999,0.0084299999999999,1.076371,-0.001005,-0.0084299999999999,0.8280350000000001,0.0313649999999999,-0.33832,1.132355,0.0170849999999999,-0.36396,0.856715,-0.270045,-0.211948,1.123355,-0.306925,-0.232287
120,0.9983210000000001,0.63903,-0.194641,0.85554,0.439736,-0.169078,0.7347100000000001,0.67376,-0.251727,1.1296,0.441922,-0.188065,1.23223,0.66344,-0.29726,0.64811,0.91128,-0.33419,1.28088,0.88721,-0.40917,0.923449,0.0007,0.0081499999999999,1.076551,-0.0006999999999999,-0.00815,0.8276399999999999,0.04366,-0.33656,1.13208,0.02903,-0.3622,0.8569100000000001,-0.2552299999999999,-0.209909,1.1245999999999998,-0.29593,-0.236832
121,0.9975945,0.6382049999999999,-0.192848,0.8551025,0.4393519999999999,-0.16668,0.7337625,0.668145,-0.248998,1.1295825,0.442465,-0.186396,1.2321024999999999,0.665505,-0.29532,0.6471125,0.906165,-0.3324399999999999,1.2807525,0.891015,-0.4075,0.9233305,0.0002449999999999,0.00783,1.0766695,-0.0002449999999999,-0.00783,0.8274925,0.0561249999999999,-0.33488,1.1316725,0.0412649999999999,-0.3605,0.8570725,-0.239985,-0.208254,1.1258225,-0.284695,-0.241479
122,0.9967515000000001,0.63775,-0.190518,0.8546965,0.440648,-0.163832,0.7332865,0.6669700000000001,-0.246057,1.1293564999999999,0.442036,-0.184605,1.2318764999999998,0.66581,-0.2929049999999999,0.6463665000000001,0.90399,-0.329525,1.2801465,0.89548,-0.404975,0.9231195000000001,0.00039,0.0075449999999999,1.0768805,-0.00039,-0.0075449999999999,0.8272565000000001,0.07088,-0.333065,1.1309565,0.0559,-0.358785,0.8580565,-0.2224,-0.206669,1.1269665,-0.27136,-0.245917
123,0.9962160000000001,0.636985,-0.188169,0.854687,0.442296,-0.161146,0.732457,0.666275,-0.243397,1.129137,0.441682,-0.182785,1.231937,0.665595,-0.29141,0.645527,0.902365,-0.32687,1.280167,0.898055,-0.40297,0.922901,0.0005249999999999,0.00722,1.077099,-0.0005249999999999,-0.00722,0.827367,0.084035,-0.33076,1.130427,0.068875,-0.35688,0.859497,-0.2064749999999999,-0.205286,1.127917,-0.259575,-0.249207
124,0.9957685,0.636165,-0.1853869999999999,0.8548344999999999,0.443167,-0.158294,0.7323345,0.666675,-0.2404029999999999,1.1290545,0.441729,-0.1806529999999999,1.2319745,0.662785,-0.28994,0.6446845,0.904715,-0.3243499999999999,1.2802345,0.897785,-0.40107,0.9227845000000001,0.000585,0.00698,1.0772154999999999,-0.0005849999999999,-0.0069799999999999,0.8275345000000001,0.0978649999999999,-0.32765,1.1300845,0.0833849999999999,-0.354,0.8610945,-0.1891749999999999,-0.2053009999999999,1.1279445,-0.245025,-0.247877
125,0.9955575,0.63488,-0.183273,0.8549785,0.443541,-0.156289,0.7314285,0.6664800000000001,-0.238235,1.1291085,0.441561,-0.179143,1.2320484999999999,0.65986,-0.288875,0.6440385,0.90453,-0.322555,1.2803285,0.89296,-0.400165,0.9226615,0.0007099999999999,0.0068149999999999,1.0773385,-0.0007099999999999,-0.0068149999999999,0.8277785,0.10927,-0.325245,1.1298485,0.09549,-0.351605,0.8627285,-0.17445,-0.205957,1.1279885,-0.2329599999999999,-0.247172
126,0.9955955000000001,0.6339239999999999,-0.181932,0.8551055,0.443893,-0.154852,0.7303455000000001,0.66648,-0.236788,1.1291955,0.4408499999999999,-0.178129,1.2321455000000001,0.66093,-0.28771,0.6435855000000001,0.90251,-0.3211,1.2804255,0.89238,-0.39952,0.9225505,0.00102,0.00669,1.0774495,-0.00102,-0.00669,0.8281255,0.1192099999999999,-0.32313,1.1297755,0.1057799999999999,-0.3493199999999999,0.8642255,-0.1618199999999999,-0.207341,1.1280055,-0.22252,-0.247037
127,0.9956530000000001,0.633206,-0.1806009999999999,0.855221,0.444825,-0.153489,0.729411,0.666875,-0.2353539999999999,1.129251,0.440605,-0.1771479999999999,1.232681,0.662105,-0.286505,0.643931,0.900925,-0.318945,1.280481,0.8918550000000001,-0.398795,0.9225099999999999,0.001395,0.006615,1.07749,-0.001395,-0.0066149999999999,0.828631,0.128895,-0.320795,1.129821,0.115565,-0.346755,0.865791,-0.1495649999999999,-0.2088549999999999,1.127961,-0.212465,-0.2469469999999999
128,0.9955775000000001,0.6329,-0.1793779999999999,0.8553815000000001,0.4463499999999999,-0.1521839999999999,0.7283215000000001,0.66774,-0.234098,1.1291514999999999,0.44097,-0.1762139999999999,1.2335915,0.662482,-0.28512,0.6441615,0.90064,-0.31767,1.2803915,0.8906799999999999,-0.39783,0.9226015,0.00178,0.00656,1.0773985,-0.00178,-0.0065599999999999,0.8292415000000001,0.1376299999999999,-0.31845,1.1297115,0.1242899999999999,-0.34401,0.8672015000000001,-0.13775,-0.21059,1.1282615,-0.20355,-0.24697
129,0.995291,0.633158,-0.178197,0.855324,0.4477299999999999,-0.150867,0.7270840000000001,0.669111,-0.233289,1.128994,0.4405199999999999,-0.175029,1.234554,0.660617,-0.28434,0.644574,0.89874,-0.31653,1.281204,0.8878299999999999,-0.3974,0.922677,0.00231,0.00644,1.077323,-0.00231,-0.00644,0.829794,0.1438399999999999,-0.31665,1.129494,0.1306799999999999,-0.34188,0.867814,-0.12733,-0.212402,1.128164,-0.19727,-0.247039
130,0.9949515,0.634082,-0.177013,0.8552045,0.44858,-0.149553,0.7265145,0.675246,-0.232753,1.1288945,0.4406,-0.173439,1.2352945,0.6581830000000001,-0.2829,0.6449545,0.9004300000000001,-0.31614,1.2819945,0.88485,-0.39654,0.9227555000000001,0.00262,0.00631,1.0772445,-0.0026199999999999,-0.00631,0.8304345000000001,0.14861,-0.31515,1.1291945,0.13546,-0.34023,0.8676845,-0.1186899999999999,-0.214006,1.1279045,-0.1926899999999999,-0.247026
131,0.994967,0.635019,-0.176361,0.85521,0.44857,-0.148755,0.7263300000000001,0.676596,-0.232298,1.1290499999999999,0.44152,-0.172251,1.23589,0.6554409999999999,-0.2810249999999999,0.6459000000000001,0.90178,-0.315775,1.2830599999999999,0.8848,-0.3949749999999999,0.922697,0.00261,0.006205,1.077303,-0.00261,-0.0062049999999999,0.83118,0.1487199999999999,-0.3147649999999999,1.12903,0.1355,-0.339515,0.86732,-0.11665,-0.215719,1.12787,-0.19266,-0.247074
132,0.9953345000000001,0.635289,-0.175881,0.8551805,0.44833,-0.147993,0.7267105,0.676866,-0.231738,1.1293004999999998,0.44179,-0.171046,1.2361105000000001,0.652171,-0.27856,0.6467205,0.90205,-0.31535,1.2841705,0.88391,-0.393,0.9226855,0.0023999999999999,0.0062399999999999,1.0773145,-0.0024,-0.00624,0.8316505000000001,0.1477899999999999,-0.31431,1.1288705,0.1342299999999999,-0.33901,0.8669305,-0.11638,-0.217977,1.1278005,-0.1936999999999999,-0.247036
133,0.995805,0.635289,-0.1754659999999999,0.8551190000000001,0.44833,-0.147535,0.726469,0.677416,-0.2316959999999999,1.129499,0.44179,-0.170127,1.235869,0.652171,-0.27693,0.6464290000000001,0.90205,-0.3158499999999999,1.284459,0.88391,-0.39182,0.9226840000000001,0.0023999999999999,0.00635,1.077316,-0.0024,-0.0063499999999999,0.831629,0.1469499999999999,-0.31386,1.1287989999999999,0.1331199999999999,-0.33855,0.8667190000000001,-0.11638,-0.2175639999999999,1.127379,-0.1945299999999999,-0.247309
134,0.9964485000000001,0.635289,-0.1755189999999999,0.8551845000000001,0.44833,-0.1475419999999999,0.7264444999999999,0.677906,-0.2318279999999999,1.1299245,0.44179,-0.169645,1.2359445,0.652171,-0.2758199999999999,0.6467345,0.90348,-0.31743,1.2849145,0.88391,-0.3909,0.9226985,0.0023999999999999,0.00635,1.0773015,-0.0024,-0.0063499999999999,0.8316045,0.1460699999999999,-0.314,1.1292945,0.13215,-0.33859,0.8658945,-0.11638,-0.217499,1.1270745,-0.19537,-0.247573
135,0.997136,0.637207,-0.175192,0.855261,0.44833,-0.147166,0.726791,0.678909,-0.231976,1.130411,0.44374,-0.168827,1.236071,0.652171,-0.27423,0.647151,0.90535,-0.31842,1.2852709999999998,0.88391,-0.3897,0.922693,0.0023999999999999,0.00623,1.077307,-0.0024,-0.0062299999999999,0.831541,0.1454499999999999,-0.31475,1.129801,0.1315899999999999,-0.33889,0.864291,-0.11675,-0.2169869999999999,1.126731,-0.19586,-0.247441
136,0.9976805,0.6401260000000001,-0.174814,0.8552675000000001,0.44803,-0.146499,0.7273375,0.67888,-0.231097,1.1309075,0.44706,-0.167685,1.2360975,0.651246,-0.272665,0.6482975,0.90596,-0.319115,1.2855875,0.88743,-0.388085,0.9227115,0.002,0.006035,1.0772885,-0.002,-0.0060349999999999,0.8312675,0.14235,-0.3164249999999999,1.1302975,0.12828,-0.340175,0.8624475,-0.1228899999999999,-0.215305,1.1263874999999999,-0.1986299999999999,-0.246799
137,0.9981200000000001,0.643561,-0.174016,0.8552150000000001,0.44696,-0.14536,0.7282850000000001,0.6785800000000001,-0.230034,1.131335,0.44965,-0.166185,1.2362549999999999,0.6489940000000001,-0.271595,0.6489050000000001,0.90558,-0.319575,1.286345,0.88673,-0.3870949999999999,0.922728,0.00146,0.0058249999999999,1.077272,-0.0014599999999999,-0.0058249999999999,0.830705,0.13729,-0.318585,1.130925,0.12313,-0.342005,0.860285,-0.1311099999999999,-0.213172,1.125995,-0.2033399999999999,-0.245718
138,0.9980495000000001,0.647296,-0.174735,0.8547775,0.44692,-0.14557,0.7289575000000001,0.6788099999999999,-0.229898,1.1313775,0.45296,-0.165924,1.2365875,0.6459429999999999,-0.272045,0.6497475000000001,0.90811,-0.320505,1.2867975,0.88496,-0.387615,0.9228055,0.00095,0.0060149999999999,1.0771945,-0.00095,-0.0060149999999999,0.8297775000000001,0.1296099999999999,-0.321925,1.1313275,0.1156199999999999,-0.345435,0.8575775,-0.1416899999999999,-0.212509,1.1252775,-0.21059,-0.245546
139,0.9980115,0.6509800000000001,-0.175616,0.8544285,0.445075,-0.1456409999999999,0.7297285,0.678305,-0.2302389999999999,1.1314384999999998,0.4553650000000001,-0.1656849999999999,1.2366584999999999,0.6418330000000001,-0.27201,0.6501885000000001,0.909035,-0.3223199999999999,1.2874485,0.881815,-0.38831,0.9229115,0.000235,0.00606,1.0770885,-0.0002349999999999,-0.0060599999999999,0.8289085,0.119245,-0.3252,1.1316085,0.105785,-0.3488,0.8546585,-0.1549449999999999,-0.2120129999999999,1.1248485,-0.2202649999999999,-0.245471
140,0.9980935,0.65496,-0.175341,0.8543225,0.446879,-0.145171,0.7313625,0.67967,-0.2299089999999999,1.1313825,0.457293,-0.1650289999999999,1.2358225,0.642615,-0.270685,0.6509425000000001,0.91097,-0.321915,1.2884025000000001,0.88251,-0.387235,0.9232165,-9.00000000000345e-05,0.006135,1.0767835,9.00000000000345e-05,-0.006135,0.8282825,0.10719,-0.327065,1.1315925,0.09405,-0.350705,0.8519025,-0.1703399999999999,-0.211617,1.1245625,-0.2319299999999999,-0.2449859999999999
141,0.997923,0.65706,-0.174013,0.854398,0.446723,-0.143863,0.733418,0.67737,-0.228568,1.131198,0.458566,-0.1635069999999999,1.2357479999999998,0.6451600000000001,-0.267495,0.651778,0.91284,-0.320665,1.288778,0.8854200000000001,-0.384715,0.923481,-0.0002699999999999,0.006025,1.076519,0.0002699999999999,-0.006025,0.827808,0.09071,-0.326505,1.131508,0.07799,-0.350305,0.849798,-0.1902699999999999,-0.210261,1.124368,-0.2477199999999999,-0.2436559999999999
142,0.997722,0.65866,-0.172713,0.854357,0.4465159999999999,-0.142576,0.7352270000000001,0.67779,-0.227091,1.131017,0.459721,-0.162031,1.2345869999999999,0.64717,-0.263985,0.653267,0.91588,-0.319505,1.288637,0.8876999999999999,-0.381795,0.923768,-0.0004199999999999,0.0058749999999999,1.076232,0.0004199999999999,-0.0058749999999999,0.827157,0.0729799999999999,-0.325955,1.131377,0.0606399999999999,-0.349415,0.848437,-0.2108999999999999,-0.208743,1.124057,-0.2648400000000001,-0.24231
143,0.997557,0.66183,-0.171128,0.8541719999999999,0.447387,-0.140591,0.7371719999999999,0.67936,-0.224806,1.1308919999999998,0.461996,-0.159864,1.233142,0.65335,-0.2603,0.6551020000000001,0.912,-0.3173,1.288002,0.89209,-0.37828,0.92403,-0.0006599999999999,0.00561,1.07597,0.0006599999999999,-0.00561,0.826592,0.0483299999999999,-0.32447,1.131212,0.03721,-0.34783,0.847562,-0.2393,-0.206458,1.122752,-0.28821,-0.239759
144,0.9974210000000001,0.66491,-0.168984,0.854002,0.448667,-0.138312,0.737792,0.67961,-0.2208129999999999,1.130542,0.462437,-0.157429,1.232582,0.6578,-0.256555,0.655672,0.91219,-0.314115,1.288282,0.89428,-0.373895,0.924285,-0.0006599999999999,0.0054349999999999,1.075715,0.0006599999999999,-0.0054349999999999,0.826402,0.0186,-0.322865,1.131032,0.00913,-0.346225,0.8474820000000001,-0.27241,-0.203537,1.121362,-0.3172999999999999,-0.237171
145,0.997327,0.667515,-0.166273,0.853896,0.4503709999999999,-0.135516,0.738586,0.679685,-0.216263,1.130296,0.4619839999999999,-0.154532,1.232086,0.661955,-0.251795,0.6560159999999999,0.912305,-0.310155,1.288556,0.897975,-0.367315,0.9245,-0.000435,0.0052049999999999,1.0755,0.0004349999999999,-0.005205,0.826326,-0.009505,-0.320905,1.130956,-0.018465,-0.344265,0.847426,-0.304165,-0.201363,1.120326,-0.345495,-0.233512
146,0.9973055,0.670595,-0.162703,0.8537905,0.455229,-0.1321089999999999,0.7393405,0.6783049999999999,-0.2113729999999999,1.1299605,0.462374,-0.151049,1.2324805,0.666355,-0.2458479999999999,0.6574705000000001,0.911895,-0.30418,1.2895604999999999,0.901415,-0.35919,0.9247725,-4.999999999977245e-06,0.00489,1.0752275,4.999999999977245e-06,-0.0048899999999999,0.8263505,-0.0375249999999999,-0.31869,1.1308905,-0.046325,-0.34151,0.8474805,-0.336445,-0.198794,1.1194105,-0.374125,-0.229499
147,0.9972565000000001,0.67365,-0.158384,0.8537915,0.45802,-0.128428,0.7396315,0.68148,-0.206107,1.1298215,0.46293,-0.14677,1.2331415,0.67241,-0.239724,0.6583815,0.91535,-0.297885,1.2907214999999999,0.90808,-0.3503549999999999,0.9249985000000001,0.0003799999999999,0.0047549999999999,1.0750015,-0.0003799999999999,-0.004755,0.8264815,-0.0667499999999999,-0.315395,1.1305815,-0.0751399999999999,-0.337355,0.8478815,-0.37117,-0.196158,1.1185815,-0.40456,-0.225276
148,0.997318,0.6775549999999999,-0.1533649999999999,0.853622,0.4626949999999999,-0.124327,0.739942,0.685775,-0.2004599999999999,1.129772,0.464205,-0.142119,1.2345819999999998,0.678395,-0.2335439999999999,0.658782,0.920195,-0.29106,1.292592,0.915035,-0.3419299999999999,0.925235,0.0008849999999999,0.00471,1.074765,-0.000885,-0.0047099999999999,0.826692,-0.094775,-0.31125,1.130072,-0.102665,-0.33226,0.848232,-0.404875,-0.193291,1.117922,-0.434485,-0.221188
149,0.9975100000000001,0.68109,-0.147665,0.853468,0.4644299999999999,-0.1192599999999999,0.740218,0.68919,-0.194707,1.129838,0.46584,-0.13698,1.236528,0.6827,-0.2270279999999999,0.659448,0.92332,-0.28376,1.294618,0.92135,-0.33268,0.925591,0.0010199999999999,0.0047,1.074409,-0.00102,-0.0046999999999999,0.8273280000000001,-0.12165,-0.30567,1.129348,-0.12922,-0.3254899999999999,0.848688,-0.43774,-0.1903289999999999,1.117458,-0.46406,-0.2169629999999999
150,0.9977525,0.686015,-0.141216,0.8533554999999999,0.468315,-0.113955,0.7407255000000001,0.6963550000000001,-0.188406,1.1296855,0.468655,-0.131342,1.2381555,0.684495,-0.220204,0.6604555,0.931045,-0.27532,1.2966054999999999,0.924065,-0.32276,0.9259545,0.0010049999999999,0.0046799999999999,1.0740455,-0.001005,-0.0046799999999999,0.8280455,-0.144195,-0.30012,1.1285055,-0.151675,-0.31827,0.8489455,-0.466615,-0.18734,1.1174655,-0.490385,-0.213843
151,0.9980370000000001,0.6919299999999999,-0.1337119999999999,0.8532649999999999,0.4723199999999999,-0.1078239999999999,0.740165,0.7005600000000001,-0.1810159999999999,1.129595,0.47207,-0.1242969999999999,1.239585,0.68874,-0.2119789999999999,0.661655,0.93711,-0.26637,1.298575,0.9289,-0.31042,0.926216,0.0008799999999999,0.0045,1.073784,-0.00088,-0.0044999999999999,0.828795,-0.16733,-0.2932399999999999,1.127765,-0.1740499999999999,-0.31037,0.849215,-0.4963499999999999,-0.1834269999999999,1.117495,-0.5183,-0.209218
152,0.9983050000000001,0.696015,-0.12622,0.853003,0.474895,-0.101978,0.740713,0.703495,-0.173272,1.129803,0.473555,-0.117645,1.241383,0.689945,-0.201451,0.6629430000000001,0.945475,-0.25733,1.300123,0.932675,-0.29702,0.926273,0.000875,0.0044399999999999,1.073727,-0.0008749999999999,-0.00444,0.829643,-0.1836549999999999,-0.28656,1.127523,-0.190355,-0.30288,0.849573,-0.517935,-0.179356,1.117653,-0.5395349999999999,-0.204307
153,0.9988730000000001,0.700365,-0.117049,0.852782,0.4787749999999999,-0.094022,0.740362,0.708845,-0.164684,1.1303320000000001,0.476035,-0.109234,1.242482,0.693445,-0.189576,0.663852,0.949335,-0.245925,1.3023019999999998,0.938815,-0.282665,0.926593,0.0008849999999999,0.004165,1.073407,-0.0008849999999999,-0.004165,0.8308920000000001,-0.195785,-0.277665,1.127642,-0.202385,-0.293875,0.850202,-0.5343950000000001,-0.173286,1.1179219999999999,-0.5553250000000001,-0.197538
154,0.9995445,0.705055,-0.106928,0.8527475,0.482535,-0.085669,0.7399875,0.7149049999999999,-0.15492,1.1309575,0.477355,-0.1007359999999999,1.2436975,0.697975,-0.17779,0.6658075,0.952685,-0.232815,1.3048175,0.943395,-0.268185,0.9271115,0.0010449999999999,0.0038249999999999,1.0728885,-0.0010449999999999,-0.0038249999999999,0.8322775,-0.209385,-0.2680949999999999,1.1279175,-0.2147649999999999,-0.284495,0.8510175,-0.551625,-0.166542,1.1184775,-0.571655,-0.190466
155,0.999982,0.7092700000000001,-0.097601,0.852597,0.4849,-0.077785,0.738767,0.72372,-0.145379,1.1314469999999999,0.48006,-0.092854,1.245677,0.70475,-0.167271,0.666357,0.95689,-0.220075,1.307137,0.95073,-0.254965,0.927409,0.00098,0.0035349999999999,1.072591,-0.00098,-0.003535,0.8335170000000001,-0.2219199999999999,-0.258385,1.127907,-0.22568,-0.275185,0.8517170000000001,-0.5678599999999999,-0.159627,1.119057,-0.58637,-0.183798
156,1.0003624999999998,0.711585,-0.088045,0.8522745,0.487005,-0.0693439999999999,0.7385645000000001,0.7262850000000001,-0.1345879999999999,1.1318145,0.480965,-0.084942,1.2466945,0.7078450000000001,-0.156177,0.6674945,0.952115,-0.20543,1.3097945,0.954735,-0.24034,0.9277625,0.0007849999999999,0.0032599999999999,1.0722375,-0.000785,-0.0032599999999999,0.8349445,-0.233685,-0.2472099999999999,1.1278044999999999,-0.236245,-0.26402,0.8523345,-0.584145,-0.152832,1.1196145,-0.600515,-0.175207
157,1.0004665,0.7138565,-0.0790895,0.8517835,0.4888165,-0.0613365,0.7384335,0.7284565,-0.1243175,1.1319935,0.4818064999999999,-0.0775295,1.2476235,0.7115265,-0.1458125,0.6684734999999999,0.9475265,-0.1912645,1.3118335,0.9592165,-0.2263685,0.9279805,0.0006835,0.0029234999999999,1.0720195,-0.0006835,-0.0029234999999999,0.8361135,-0.2449535,-0.2360385,1.1274935,-0.2464935,-0.2529285,0.8525435,-0.5995035,-0.1457395,1.1201135,-0.6139635,-0.1669195
158,1.00098,0.7168545,-0.0711724999999999,0.851854,0.4899445,-0.0550214999999999,0.738624,0.7298545,-0.1151664999999999,1.133054,0.4823945,-0.0708895,1.2493139999999998,0.7118045,-0.1365565,0.669124,0.9448145,-0.1778715,1.3140139999999998,0.9600745,-0.2135234999999999,0.928411,0.0003104999999999,0.0025455,1.071589,-0.0003105,-0.0025454999999999,0.837804,-0.2594055,-0.2249535,1.127504,-0.2619055,-0.2419335,0.853234,-0.6139155000000001,-0.1390984999999999,1.120794,-0.6284255,-0.1591805
159,1.0015744999999998,0.7197395000000001,-0.0639155,0.8519985,0.4910195,-0.0492305,0.7390185,0.7314295000000001,-0.1056855,1.1341685,0.4829195,-0.0648585,1.2511485,0.7135995,-0.1278555,0.6697885,0.9391395,-0.1652205,1.3161385,0.9623895,-0.2009805,0.9287815000000001,-6.149999999999212e-05,0.0023625,1.0712184999999999,6.1500000000006e-05,-0.0023625,0.8395585,-0.2732805,-0.2135105,1.1276285,-0.2772105,-0.2308505,0.8538785,-0.6271105,-0.1329625,1.1217385,-0.6420005,-0.1517205
160,1.0022739999999999,0.7201584999999999,-0.0538329999999999,0.852375,0.4897885,-0.040511,0.739765,0.7308184999999999,-0.093541,1.135585,0.4815085,-0.0559599999999999,1.2531949999999998,0.7118785,-0.1169149999999999,0.670925,0.9320585,-0.149853,1.317785,0.9610885,-0.186362,0.9291830000000001,-0.0001125,0.002514,1.070817,0.0001125,-0.002514,0.841785,-0.2867714999999999,-0.197952,1.127845,-0.2926815,-0.215772,0.854795,-0.6400415,-0.1229889999999999,1.122955,-0.6548815,-0.141065
161,1.003092,0.7201744999999999,-0.0426109999999999,0.852942,0.4907445,-0.030148,0.7408520000000001,0.7321045,-0.0802539999999999,1.1371419999999999,0.4826045,-0.045369,1.2552219999999998,0.7131645,-0.104693,0.672092,0.9261045,-0.133186,1.319502,0.9599645,-0.1702739999999999,0.929574,-0.0001545,0.002212,1.070426,0.0001545,-0.002212,0.845322,-0.3003955,-0.177464,1.126822,-0.3085955,-0.1948539999999999,0.855812,-0.6542655,-0.111127,1.124342,-0.6688555,-0.128023
162,1.00373,0.7193945,-0.0320525,0.85346,0.4904544999999999,-0.0202535,0.74194,0.7324645000000001,-0.0674895,1.13873,0.4837145,-0.0352835,1.25698,0.7136945,-0.0931195,0.6736,0.9210845,-0.1185245,1.3211199999999999,0.9586345,-0.1547995,0.929888,-0.0002855,0.0018384999999999,1.070112,0.0002854999999999,-0.0018384999999999,0.84884,-0.3130355,-0.1577715,1.12573,-0.3228355,-0.1744715,0.85673,-0.6680855,-0.0999435,1.1256599999999999,-0.6828255,-0.1154645
163,1.004379,0.718331,-0.0225279999999999,0.853967,0.490391,-0.0107169999999999,0.742917,0.732691,-0.056281,1.139997,0.485511,-0.026146,1.258467,0.714321,-0.0830809999999999,0.675007,0.917051,-0.105122,1.3225369999999999,0.957661,-0.141194,0.9298,-0.0005549999999999,0.001568,1.0702,0.0005549999999999,-0.001568,0.852607,-0.323769,-0.138542,1.124667,-0.334729,-0.1541219999999999,0.8575969999999999,-0.680119,-0.089091,1.126867,-0.695979,-0.103055
164,1.0048835,0.717372,-0.0130585,0.8545905,0.489072,-0.0013364999999999,0.7437105000000002,0.731892,-0.0452165,1.1412005,0.485742,-0.0170655,1.2597604999999998,0.713812,-0.0731505,0.6762205,0.913762,-0.0924275,1.3234805,0.955502,-0.1283135,0.9297155,-0.0006809999999999,0.0013355,1.0702845,0.000681,-0.0013355,0.8565105,-0.333488,-0.1185755,1.1237705,-0.345628,-0.1337795,0.8581605,-0.690918,-0.0782105,1.1279305,-0.707928,-0.0909595
165,1.0050899999999998,0.7180300000000001,-0.0050804999999999,0.855133,0.48891,0.0063894999999999,0.744183,0.73207,-0.0365115,1.142353,0.48692,-0.0094955,1.260553,0.7155400000000001,-0.0650294999999999,0.676653,0.91872,-0.0830645,1.323683,0.95329,-0.1188174999999999,0.929746,-0.000693,0.0012335,1.070254,0.0006929999999999,-0.0012334999999999,0.859963,-0.33985,-0.1002094999999999,1.123143,-0.3539299999999999,-0.1158965,0.858413,-0.69789,-0.0685045,1.128723,-0.71597,-0.0817114999999999
166,1.0047735,0.7177795,0.0029474999999999,0.8553645,0.4886095,0.0141414999999999,0.7443845,0.7319795,-0.0273905,1.1432445,0.4883195000000001,-0.0015655,1.2610445000000001,0.7166294999999999,-0.0565625,0.6764245,0.9249395,-0.0732805,1.3234745,0.9503795,-0.1091235,0.9296185,-0.0008505,0.0012975,1.0703815,0.0008505,-0.0012975,0.8636645000000001,-0.3458004999999999,-0.0795795,1.1225445,-0.3608504999999999,-0.0966575,0.8585945,-0.7047905,-0.0577545,1.1292745,-0.7238305,-0.0718985
167,1.0044365,0.716821,0.0110605,0.8555705,0.4877209999999999,0.0218575,0.7446505,0.731231,-0.0182935,1.1442705,0.489641,0.0064355,1.2614805,0.718051,-0.0480905,0.6756905,0.931081,-0.0633685,1.3229305,0.947881,-0.0993715,0.9294835,-0.0007579999999999,0.0013895,1.0705165,0.000758,-0.0013895,0.8674105,-0.351459,-0.0594855,1.1220904999999999,-0.367529,-0.0779995,0.8588005000000001,-0.710619,-0.0467345,1.1298405,-0.731739,-0.0618735
168,1.0040734999999998,0.7153835,0.0188979999999999,0.8557565,0.4866135,0.029536,0.7449265,0.7302235,-0.0095459999999999,1.1453565,0.4906834999999999,0.014443,1.2615265,0.7193035,-0.039744,0.6739065,0.9368935,-0.053957,1.3222365,0.9453635,-0.090014,0.9293875,-0.0006864999999999,0.0013439999999999,1.0706125,0.0006864999999999,-0.001344,0.8709865,-0.3582965,-0.040051,1.1216165,-0.3748765,-0.059937,0.8591465,-0.7160665,-0.0353,1.1307364999999998,-0.7403565,-0.052165
169,1.003251,0.7154945,0.0225085,0.855666,0.4880544999999999,0.0329625,0.7447360000000001,0.7314944999999999,-0.0052315,1.146246,0.4929344999999999,0.0183555,1.261336,0.7224845,-0.0356234999999999,0.671406,0.9450845,-0.0488715,1.320986,0.9454245,-0.0848735,0.929254,-0.0007385,0.0011145,1.070746,0.0007384999999999,-0.0011144999999999,0.873996,-0.3630455,-0.0265394999999999,1.121106,-0.3798655,-0.0470915,0.859166,-0.7189555,-0.0286935,1.131326,-0.7464055,-0.0467734999999999
170,1.0023819999999999,0.7159850000000001,0.024375,0.8555630000000001,0.487895,0.0347479999999999,0.744613,0.731195,-0.002747,1.146563,0.4929849999999999,0.020334,1.261253,0.722175,-0.033482,0.6693830000000001,0.952175,-0.045238,1.3195329999999998,0.944715,-0.082022,0.929262,-0.000829,0.001303,1.070738,0.0008289999999999,-0.001303,0.8757330000000001,-0.364945,-0.0184919999999999,1.121553,-0.381765,-0.040651,0.8591430000000001,-0.7208549999999999,-0.024267,1.131823,-0.7484649999999999,-0.044067
171,1.001486,0.7161875,0.0262205,0.855416,0.4875175,0.0364305,0.7443660000000001,0.7308175,-0.0004565,1.146706,0.4926075,0.0222825,1.261146,0.7221475,-0.0318035,0.667416,0.9588275,-0.0421885,1.318086,0.9443375,-0.0794435,0.929257,-0.0009185,0.0014934999999999,1.070743,0.0009184999999999,-0.0014935,0.877406,-0.3665425,-0.0108895,1.122016,-0.3836625,-0.0346915,0.8596960000000001,-0.7212324999999999,-0.0202825,1.132226,-0.7494225,-0.0418345
172,1.0006045,0.7161465,0.027863,0.8552425000000001,0.4872865,0.038015,0.7437825,0.7305865,0.00187,1.1468525,0.4923765,0.0241259999999999,1.2612725,0.7219565,-0.030243,0.6654424999999999,0.9655065,-0.039337,1.3165325,0.9441065,-0.0769919999999999,0.9292735,-0.0010044999999999,0.001697,1.0707265,0.0010044999999999,-0.001697,0.8788925,-0.3679734999999999,-0.003961,1.1224425,-0.3853835,-0.029338,0.8602525,-0.7214735,-0.016515,1.1325825,-0.7501234999999999,-0.039618
173,0.9995425,0.7160974999999999,0.0293265,0.8548445,0.4872375,0.0394264999999999,0.7429445,0.7305375,0.0040225,1.1467745,0.4923275,0.0256315,1.2605645,0.7219074999999999,-0.0284875,0.6634245000000001,0.9657575,-0.0367065,1.3148745,0.9440575,-0.0747834999999999,0.9291235,-0.0010384999999999,0.0019075,1.0708765,0.0010384999999999,-0.0019075,0.8798845,-0.3680225,0.0015125,1.1229145,-0.3838625,-0.0248795,0.8602145,-0.7218325000000001,-0.0130265,1.1328245,-0.7507225000000001,-0.0375765
174,0.998408,0.7160345,0.03046,0.854346,0.4869645,0.040874,0.741976,0.7301045,0.006548,1.146526,0.4923045,0.026789,1.259656,0.7218445,-0.026487,0.661546,0.9702945,-0.03372,1.312886,0.9433245,-0.072395,0.929039,-0.0010555,0.00206,1.070961,0.0010555,-0.00206,0.880666,-0.3680854999999999,0.005491,1.123296,-0.3831854999999999,-0.021689,0.860236,-0.7225155,-0.0102599999999999,1.133156,-0.7522654999999999,-0.035884
175,0.9976185,0.715981,0.0310119999999999,0.8540075,0.486591,0.041888,0.7410875,0.729511,0.008643,1.1463875,0.492131,0.02748,1.2588375,0.721791,-0.0250409999999999,0.6597075,0.970441,-0.0313759999999999,1.3112175,0.942191,-0.070938,0.9290484999999999,-0.0010679999999999,0.00214,1.0709515,0.0010679999999999,-0.00214,0.8809075,-0.368139,0.006596,1.1236275,-0.382969,-0.020355,0.8603375,-0.723059,-0.008899,1.1334274999999998,-0.753739,-0.035024
176,0.9967245,0.7156885000000001,0.0310855,0.8536765,0.4870484999999999,0.0428835,0.7401465,0.7287485,0.0102285,1.1461265,0.4916784999999999,0.0276345,1.2588765,0.7212785,-0.0246345,0.6585665,0.9703485,-0.0299925,1.3094565,0.9412085,-0.0703125,0.9290495,-0.0011175,0.0021505,1.0709505,0.0011175,-0.0021505,0.8809465,-0.3687115,0.0070765,1.1236765,-0.3830615,-0.0196714999999999,0.8602865,-0.7235714999999999,-0.0081194999999999,1.1336765,-0.7549714999999999,-0.0344415
177,0.9956785,0.715334,0.031318,0.8532545,0.487724,0.043844,0.7390445,0.7281540000000001,0.011783,1.1457045,0.491384,0.02776,1.2589044999999999,0.720464,-0.0242,0.6575745,0.970394,-0.029442,1.3077744999999998,0.940384,-0.069706,0.9290545,-0.0011949999999999,0.002215,1.0709455,0.001195,-0.002215,0.8809845000000001,-0.369176,0.007544,1.1237145,-0.382716,-0.019204,0.8602145,-0.723706,-0.007643,1.1339045,-0.7555459999999999,-0.03399
178,0.994769,0.714981,0.0317055,0.852835,0.488251,0.0446495,0.7379450000000001,0.727461,0.0128885,1.145375,0.490861,0.0280885,1.258945,0.719871,-0.0238545,0.656915,0.963561,-0.0291854999999999,1.3065449999999998,0.939371,-0.0693425,0.929068,-0.001181,0.0022495,1.070932,0.0011809999999999,-0.0022494999999999,0.881025,-0.369719,0.0079135,1.123755,-0.381849,-0.0188344999999999,0.860235,-0.723579,-0.0072715,1.1341350000000001,-0.755549,-0.0336345
179,0.993524,0.714434,0.031943,0.8504849999999999,0.488564,0.045656,0.731995,0.723744,0.014387,1.145095,0.490404,0.028391,1.261485,0.715554,-0.0242429999999999,0.6570950000000001,0.956304,-0.028634,1.305405,0.934254,-0.070447,0.92915,-0.001166,0.0023419999999999,1.07085,0.001166,-0.002342,0.880835,-0.370546,0.008006,1.1244349999999999,-0.381696,-0.018072,0.8610450000000001,-0.723416,-0.00652,1.134965,-0.754486,-0.032658
180,0.9922775,0.7138525,0.032018,0.8481765,0.4885625,0.046873,0.7249165,0.7173324999999999,0.015989,1.1448565,0.4897525,0.028525,1.2653265,0.7088925,-0.025248,0.6572865,0.9441325,-0.0276189999999999,1.3041865,0.9257925,-0.072504,0.9291655,-0.0011895,0.00238,1.0708345,0.0011894999999999,-0.00238,0.8807265,-0.3710275,0.007462,1.1253165,-0.3813575,-0.017276,0.8622065000000001,-0.7234375000000001,-0.006036,1.1361765,-0.7532275,-0.0315089999999999
181,0.991161,0.7133695,0.0319105,0.845835,0.4886195,0.0484565,0.717155,0.7093895,0.0180105,1.144905,0.4888295,0.0283205,1.271035,0.7012495,-0.0270515,0.656285,0.9305695,-0.0261425,1.3032949999999999,0.9142595,-0.0763655,0.9292279999999999,-0.0012624999999999,0.0024495,1.070772,0.0012624999999999,-0.0024495,0.8811450000000001,-0.3711104999999999,0.0068325,1.126535,-0.3832104999999999,-0.0164204999999999,0.8639750000000002,-0.7233005,-0.0057165,1.138045,-0.7517305000000001,-0.0300815
182,0.9899385,0.713696,0.031533,0.8433775,0.488986,0.050353,0.7085475,0.698746,0.020496,1.1452775,0.487846,0.028029,1.2763375,0.691956,-0.030338,0.6554074999999999,0.913906,-0.0254539999999999,1.3018275,0.901196,-0.0809459999999999,0.9292865,-0.0013249999999999,0.002581,1.0707135,0.0013249999999999,-0.002581,0.8818775,-0.370004,0.006173,1.1280375,-0.385104,-0.015359,0.8661775,-0.722444,-0.0053869999999999,1.1405375,-0.751124,-0.028776
183,0.988825,0.714309,0.0309025,0.8411320000000001,0.488889,0.0522344999999999,0.6990820000000001,0.686389,0.0232344999999999,1.146062,0.486869,0.0274584999999999,1.280882,0.6766490000000001,-0.0336865,0.653822,0.8951290000000001,-0.0253625,1.299622,0.884879,-0.0865485,0.929352,-0.001367,0.0027854999999999,1.070648,0.001367,-0.0027854999999999,0.882802,-0.369081,0.0053934999999999,1.129792,-0.3865409999999999,-0.0142945,0.868762,-0.721541,-0.0050125,1.143622,-0.750351,-0.0272945
184,0.9874830000000001,0.7149865,0.0300924999999999,0.838801,0.4888465000000001,0.0540475,0.6880110000000002,0.6710865,0.0262945,1.147031,0.4854665,0.0266874999999999,1.284241,0.6586565,-0.0370395,0.6527610000000001,0.8735065,-0.0250735,1.295841,0.8657765000000001,-0.0930395,0.9294020000000001,-0.0013984999999999,0.0030714999999999,1.070598,0.0013985,-0.0030715,0.883951,-0.3678435,0.0045674999999999,1.131901,-0.3884935,-0.0129795,0.871961,-0.7203435,-0.0044785,1.147451,-0.7492135,-0.0255305
185,0.9862195,0.7155615,0.0282989999999999,0.8367855,0.4886714999999999,0.055687,0.6764155000000001,0.6458915,0.030119,1.1469655,0.4830415,0.02516,1.2884555,0.6322114999999999,-0.042006,0.6529055,0.8436115,-0.024459,1.2921755,0.8343115,-0.102867,0.9293945,-0.0014514999999999,0.0033399999999999,1.0706055,0.0014515,-0.00334,0.8854255,-0.3665285,0.0039819999999999,1.1347455,-0.3898985,-0.011041,0.8761955,-0.7190385,-0.003114,1.1525355,-0.7478985,-0.024923
186,0.98506,0.716505,0.0258685,0.8348450000000001,0.489135,0.0568655,0.6659649999999999,0.619055,0.0347955,1.146875,0.480595,0.0232515,1.293665,0.600735,-0.0470495,0.6534949999999999,0.811495,-0.0253685,1.286525,0.797545,-0.1142075,0.929352,-0.0015149999999999,0.0035064999999999,1.070648,0.001515,-0.0035064999999999,0.886885,-0.364695,0.0033674999999999,1.137905,-0.390645,-0.0090384999999999,0.8809650000000001,-0.717015,-0.0013234999999999,1.158105,-0.744995,-0.0235855
187,0.9838445,0.7182595,0.0231984999999999,0.8331135000000001,0.4893995,0.0582004999999999,0.6578535,0.5881895,0.0398145,1.1464935,0.4777694999999999,0.0209574999999999,1.2998935,0.5650695,-0.0517925,0.6552235,0.7787795,-0.0283035,1.2781535,0.7580895,-0.1270215,0.9292835,-0.0015705,0.0036934999999999,1.0707165,0.0015704999999999,-0.0036935,0.8890435,-0.3629305,0.0030774999999999,1.1414035,-0.3912505,-0.0073275,0.8865835,-0.7142605,0.0010984999999999,1.1650635,-0.7424605,-0.0218935
188,0.9826055,0.72048,0.0206975,0.8334315,0.4889599999999999,0.0587494999999999,0.6555215,0.55746,0.0444495,1.1459214999999998,0.4752499999999999,0.0192175,1.3041515000000001,0.52861,-0.0506205,0.6566915,0.74134,-0.0337755,1.2700915,0.7149,-0.1392155,0.9291815,-0.0016279999999999,0.0039475,1.0708185000000001,0.001628,-0.0039475,0.8916115,-0.3608,0.0032685,1.1444515,-0.39153,-0.0066135,0.8921415,-0.7110000000000001,0.0037995,1.1720515,-0.73939,-0.0206775
189,0.9812165,0.72324,0.0180715,0.8342404999999999,0.48827,0.0592064999999999,0.6609404999999999,0.5239699999999999,0.0491285,1.1447945,0.47314,0.0170705,1.3050804999999999,0.49044,-0.0489205,0.6590705,0.70096,-0.0396245,1.2612505,0.66786,-0.1510594999999999,0.9290905,-0.0016719999999999,0.0043395,1.0709095,0.0016719999999999,-0.0043395,0.8939205,-0.35817,0.0036694999999999,1.1471105,-0.39155,-0.0067694999999999,0.8982005,-0.70739,0.0071305,1.1791105,-0.73883,-0.0207655
190,0.9794275,0.725938,0.0151684999999999,0.8353725000000001,0.486988,0.0595365,0.6690925000000001,0.488328,0.0548135,1.1431224999999998,0.471358,0.0151395,1.3035625,0.451248,-0.0434085,0.6657325000000001,0.655418,-0.0451795,1.2508625,0.618188,-0.1621215,0.9289525,-0.0017909999999999,0.0047284999999999,1.0710475,0.001791,-0.0047285,0.8959925,-0.355942,0.0038844999999999,1.1484905,-0.391462,-0.0093115,0.9045825,-0.703422,0.0110085,1.1862725,-0.733542,-0.0225865
191,0.9778475,0.7289145,0.012105,0.8367995,0.4849245,0.060337,0.6778095,0.4493045,0.05911,1.1409714999999998,0.4696045,0.012967,1.2985595,0.4105745,-0.0382279999999999,0.6735995,0.6043245,-0.051432,1.2426795,0.5626145,-0.159944,0.9289395,-0.0019065,0.005093,1.0710605,0.0019065,-0.005093,0.8982495,-0.3571455,0.004391,1.1493165,-0.3906355,-0.0137769999999999,0.9117095,-0.6992355,0.015417,1.1939095,-0.7279155,-0.026205
192,0.975628,0.7315725000000001,0.0078714999999999,0.838198,0.4825425,0.0617604999999999,0.6881079999999999,0.4078225,0.0646315,1.139143,0.4681324999999999,0.0111104999999999,1.287318,0.3736925,-0.0323554999999999,0.682498,0.5410925,-0.0568415,1.234258,0.4958624999999999,-0.1536415,0.929158,-0.0021005,0.0056394999999999,1.070842,0.0021005,-0.0056394999999999,0.902298,-0.3543275,0.0061504999999999,1.146825,-0.3856575,-0.0235994999999999,0.920518,-0.6946475,0.0212944999999999,1.195128,-0.7227374999999999,-0.0287595
193,0.9731295000000001,0.7337985,0.003367,0.8405395,0.4804684999999999,0.063922,0.6991195,0.3689985,0.070555,1.1379115,0.4671785,0.010034,1.2722695,0.3394985,-0.026668,0.6908095000000001,0.4778785,-0.063225,1.2280095,0.4281284999999999,-0.145485,0.9295995000000001,-0.0023325,0.00645,1.0704005,0.0023325,-0.00645,0.9068595,-0.3523115,0.008276,1.1413185000000001,-0.3808115,-0.0373159999999999,0.9295995000000001,-0.6896215,0.027612,1.1910095,-0.7167715,-0.0326119999999999
194,0.9712655,0.7350289999999999,-0.0012864999999999,0.8441855,0.476469,0.0655875,0.7143255,0.339949,0.0779135,1.1391965,0.466649,0.0081145,1.2611255,0.313649,-0.0184135,0.7026355,0.413849,-0.0665465,1.2260555,0.363059,-0.1341565,0.9298355,-0.00267,0.0082425,1.0701645,0.00267,-0.0082425,0.9130655,-0.350421,0.0126315,1.1303195,-0.3759209999999999,-0.0586965,0.9398855,-0.684471,0.0356785,1.1772415,-0.711441,-0.0483464999999999
195,0.9688630000000001,0.7356925,-0.0064169999999999,0.8475630000000001,0.4723325,0.066744,0.727643,0.3124225,0.083921,1.1403159999999999,0.4661125,0.005462,1.250113,0.2924025,-0.0096389999999999,0.715123,0.3504025,-0.068057,1.2265030000000001,0.3016325,-0.1246569999999999,0.930203,-0.0030574999999999,0.010097,1.0697969999999999,0.0030575,-0.0100969999999999,0.914153,-0.3493875,0.012823,1.116334,-0.3692275,-0.0833869999999999,0.941983,-0.6793075,0.01212,1.153014,-0.7053675,-0.0672869999999999
196,0.9665885,0.7349525,-0.0111534999999999,0.8509985000000001,0.4678625,0.0680035,0.7430985,0.2891225,0.0895084999999999,1.1421465,0.4656625,0.0034784999999999,1.2407685,0.2752325,7.749999999999424e-05,0.7279085000000001,0.2929425,-0.0674135,1.2298784999999999,0.2427625,-0.1161234999999999,0.9304885,-0.0036294999999999,0.0118334999999999,1.0695115,0.0036295,-0.0118334999999999,0.9156285000000001,-0.3493575,0.0142154999999999,1.1028805,-0.3615375,-0.1066935,0.9410485000000001,-0.6743575,-0.0126035,1.1264265,-0.7011075,-0.0862035
197,0.9658760000000001,0.7332835,-0.015326,0.855486,0.4638535,0.0696719999999999,0.758276,0.2690935,0.093619,1.144873,0.4644235,0.0007639999999999,1.235798,0.2641235,0.0131179999999999,0.742596,0.2404435,-0.064526,1.2349160000000001,0.1927735,-0.109766,0.9308260000000002,-0.0040625,0.0136759999999999,1.069174,0.0040624999999999,-0.013676,0.9189960000000001,-0.3511265,0.0165029999999999,1.088524,-0.3535965,-0.129746,0.939666,-0.6699065,-0.038206,1.100803,-0.6915265,-0.102486
198,0.9654120000000002,0.7301654999999999,-0.02081,0.859992,0.4597955,0.0700159999999999,0.7762020000000001,0.2542355,0.0947339999999999,1.148973,0.4627355,-0.00303,1.235755,0.2595455,0.0266179999999999,0.7540620000000001,0.1978855,-0.06653,1.242947,0.1511555,-0.10107,0.931342,-0.0044785,0.0157399999999999,1.068658,0.0044785,-0.01574,0.923152,-0.3523045,0.0192399999999999,1.072947,-0.3455345,-0.15285,0.9363220000000001,-0.6660745,-0.06547,1.076495,-0.6863745,-0.11819
199,0.96495,0.7270945,-0.0258999999999999,0.86397,0.4557945,0.070308,0.79348,0.2422745,0.095948,1.152885,0.4614745,-0.0067599999999999,1.237774,0.2578945,0.039687,0.76259,0.1654145,-0.0702699999999999,1.252273,0.1156705,-0.0894599999999999,0.93172,-0.0048484999999999,0.0177,1.06828,0.0048485,-0.0176999999999999,0.92701,-0.3527355,0.02204,1.05694,-0.3372355,-0.17445,0.93189,-0.6627555,-0.0934699999999999,1.05124,-0.6816555,-0.1308599999999999
200,0.9618,0.723881,-0.0311249999999999,0.8666,0.4519309999999999,0.069867,0.81062,0.237601,0.095671,1.154852,0.461121,-0.011185,1.238862,0.260721,0.049685,0.76561,0.141951,-0.0773049999999999,1.260522,0.089111,-0.071385,0.93176,-0.0052859999999999,0.0196949999999999,1.06824,0.005286,-0.0196949999999999,0.9284500000000001,-0.351029,0.025285,1.0406199999999999,-0.328599,-0.192565,0.92512,-0.660239,-0.120825,1.0259399999999999,-0.678779,-0.1386649999999999
201,0.957905,0.7205400000000001,-0.0354649999999999,0.868325,0.44828,0.068395,0.822765,0.23718,0.090515,1.1553609999999999,0.4611699999999999,-0.0157149999999999,1.2434569999999998,0.26292,0.053235,0.766585,0.13348,-0.082785,1.2694809999999999,0.078323,-0.0539949999999999,0.931525,-0.005531,0.021475,1.0684749999999998,0.005531,-0.0214749999999999,0.927595,-0.34957,0.028655,1.027235,-0.32034,-0.2039849999999999,0.916235,-0.65864,-0.1476349999999999,1.0068249999999999,-0.67758,-0.1449149999999999
202,0.953685,0.7171265,-0.0411099999999999,0.868555,0.4442665,0.06416,0.832215,0.2383265,0.08211,1.154286,0.4614965,-0.0228799999999999,1.250268,0.2640665,0.05469,0.761265,0.1269265,-0.0907799999999999,1.278192,0.0728645,-0.0378699999999999,0.931195,-0.0060654999999999,0.023,1.0688049999999998,0.0060654999999999,-0.0229999999999999,0.925775,-0.3484935,0.03158,1.016975,-0.3163035,-0.21237,0.906855,-0.6582535,-0.1750899999999999,0.992845,-0.6764335,-0.1504999999999999
203,0.948115,0.714653,-0.046385,0.8676150000000001,0.442113,0.0607649999999999,0.8344750000000001,0.238913,0.072555,1.151678,0.462493,-0.0284449999999999,1.252279,0.268173,0.048075,0.751065,0.127923,-0.099165,1.282605,0.073861,-0.027565,0.931145,-0.006418,0.023515,1.068855,0.006418,-0.023515,0.9220650000000001,-0.343357,0.032525,1.012305,-0.312547,-0.212755,0.8961749999999999,-0.6581870000000001,-0.203315,0.988515,-0.6754370000000001,-0.145255
204,0.9421950000000001,0.7119074999999999,-0.052055,0.8658050000000002,0.4396375,0.055405,0.8299450000000002,0.2386575,0.064175,1.148915,0.4628775,-0.034285,1.254064,0.2689875,0.039355,0.738205,0.1266855,-0.1127449999999999,1.285705,0.0742455,-0.020735,0.9308850000000001,-0.0068024999999999,0.024005,1.069115,0.0068024999999999,-0.024005,0.9235850000000001,-0.3415625,0.037615,1.010895,-0.3107025,-0.2093749999999999,0.8934750000000001,-0.6597125,-0.1994349999999999,0.9923450000000001,-0.6750525,-0.139005
205,0.9336150000000001,0.7093955,-0.0593949999999999,0.8622850000000001,0.4376455,0.0488949999999999,0.818515,0.2392955,0.051375,1.143035,0.4629255,-0.0418049999999999,1.254016,0.2744755,0.028045,0.719855,0.1248505,-0.128875,1.2875510000000001,0.0742935,-0.017695,0.9306750000000001,-0.0068504999999999,0.0244349999999999,1.069325,0.0068504999999999,-0.0244349999999999,0.9227950000000001,-0.3400645,0.041385,1.007785,-0.3084545,-0.206915,0.8940850000000001,-0.6613345,-0.1917749999999999,0.9968850000000001,-0.6773845,-0.132065
206,0.92301,0.707117,-0.06778,0.85678,0.4358869999999999,0.0412599999999999,0.80589,0.238537,0.0389499999999999,1.13567,0.463007,-0.04926,1.251881,0.280447,0.0155499999999999,0.7008300000000001,0.125937,-0.14407,1.285717,0.077664,-0.02932,0.93037,-0.0069089999999999,0.0244999999999999,1.06963,0.0069089999999999,-0.0245,0.91999,-0.338673,0.0445899999999999,1.00538,-0.307593,-0.20381,0.89469,-0.661393,-0.18276,0.99931,-0.679543,-0.12578
207,0.909715,0.706277,-0.07573,0.8488450000000001,0.4347169999999999,0.03408,0.7919350000000001,0.2379669999999999,0.0279699999999999,1.125025,0.463937,-0.0561599999999999,1.246307,0.287817,0.00434,0.6787550000000001,0.129127,-0.15979,1.281194,0.084291,-0.04298,0.9298850000000001,-0.0069089999999999,0.0240199999999999,1.070115,0.0069089999999999,-0.0240199999999999,0.9163250000000001,-0.338673,0.0470099999999999,1.004705,-0.308413,-0.1977099999999999,0.8974150000000001,-0.664543,-0.16996,0.9985350000000001,-0.679063,-0.11552
208,0.8943,0.70524,-0.0847549999999999,0.83999,0.43348,0.027305,0.7750900000000001,0.23688,0.014025,1.11388,0.46569,-0.062265,1.239423,0.29566,-0.0064349999999999,0.65908,0.13194,-0.1724049999999999,1.2761289999999998,0.092302,-0.0554549999999999,0.92952,-0.00744,0.0234949999999999,1.0704799999999999,0.0074399999999999,-0.0234949999999999,0.91213,-0.33879,0.049485,1.0049199999999998,-0.30937,-0.189005,0.90048,-0.66969,-0.1539949999999999,0.99888,-0.679,-0.1065149999999999
209,0.880265,0.703898,-0.0936299999999999,0.830215,0.431948,0.0189599999999999,0.7593850000000001,0.235558,0.0001999999999999,1.1026049999999998,0.468468,-0.06933,1.232665,0.302338,-0.01484,0.643015,0.133638,-0.18071,1.271521,0.0996779999999999,-0.0654899999999999,0.9293750000000001,-0.0082659999999999,0.0229599999999999,1.070625,0.0082659999999999,-0.0229599999999999,0.909175,-0.339222,0.05123,1.005345,-0.310632,-0.1812099999999999,0.904745,-0.6757219999999999,-0.13824,0.9984750000000001,-0.6803119999999999,-0.1000099999999999
210,0.865905,0.701411,-0.10368,0.8210350000000001,0.429821,0.0106499999999999,0.745045,0.234391,-0.01245,1.091855,0.471781,-0.07633,1.227145,0.306671,-0.0208599999999999,0.6287450000000001,0.133841,-0.18976,1.268562,0.105914,-0.07271,0.9293750000000001,-0.009095,0.0222899999999999,1.070625,0.009095,-0.02229,0.906595,-0.339559,0.0515299999999999,1.0063549999999999,-0.3123289999999999,-0.1735799999999999,0.910275,-0.682109,-0.1232699999999999,0.9992150000000001,-0.6819189999999999,-0.0934399999999999
211,0.85345,0.6986715,-0.1118599999999999,0.81345,0.4276515,0.00396,0.7328600000000001,0.2339615,-0.0228899999999999,1.08257,0.4748715,-0.08182,1.22247,0.3104615,-0.0257299999999999,0.62027,0.1327415,-0.1948799999999999,1.267059,0.1114935,-0.07713,0.92944,-0.0099874999999999,0.02155,1.07056,0.0099875,-0.02155,0.90558,-0.3400085,0.05198,1.0086,-0.3152885,-0.1647499999999999,0.9174800000000001,-0.6890085,-0.1070299999999999,1.00286,-0.6820285,-0.0723399999999999
212,0.8416100000000001,0.6957895000000001,-0.1194649999999999,0.8054300000000001,0.4250295,-0.0029949999999999,0.72269,0.2323795,-0.031675,1.07342,0.4772595,-0.087275,1.21795,0.3129995,-0.0295349999999999,0.61139,0.1311595,-0.202815,1.2656399999999999,0.1158355,-0.080225,0.9294700000000001,-0.0107335,0.020855,1.07053,0.0107335,-0.020855,0.9046600000000001,-0.3400904999999999,0.0550249999999999,1.01051,-0.3195205,-0.156565,0.9243800000000001,-0.6910505,-0.0917049999999999,1.00593,-0.6836105,-0.0496049999999999
