sb224sc-HT22-VT27/4dt907/src/ml-research/a11/datafiles/kinect_good_preprocessed_not_cut_A11_mediapipe/A139_kinect.csv
FrameNo,nose_3d_x,nose_3d_y,nose_3d_z,left_shoulder_3d_x,left_shoulder_3d_y,left_shoulder_3d_z,left_elbow_3d_x,left_elbow_3d_y,left_elbow_3d_z,right_shoulder_3d_x,right_shoulder_3d_y,right_shoulder_3d_z,right_elbow_3d_x,right_elbow_3d_y,right_elbow_3d_z,left_wrist_3d_x,left_wrist_3d_y,left_wrist_3d_z,right_wrist_3d_x,right_wrist_3d_y,right_wrist_3d_z,left_hip_3d_x,left_hip_3d_y,left_hip_3d_z,right_hip_3d_x,right_hip_3d_y,right_hip_3d_z,left_knee_3d_x,left_knee_3d_y,left_knee_3d_z,right_knee_3d_x,right_knee_3d_y,right_knee_3d_z,left_ankle_3d_x,left_ankle_3d_y,left_ankle_3d_z,right_ankle_3d_x,right_ankle_3d_y,right_ankle_3d_z
0,0.0018379999999999972,0.7352544999999999,0.019789,-0.166853,0.4433645,0.048344,-0.183363,0.1922845,0.04505,0.147807,0.44906450000000003,0.051066,0.179947,0.1994445,0.049302,-0.199333,-0.0009975000000000001,-0.03649500000000001,0.198047,0.0036315,-0.006673999999999999,-0.06286800000000001,-0.0003014999999999997,0.000782999999999999,0.06286800000000001,0.0003015000000000001,-0.000782999999999999,-0.127813,-0.3350655,-0.009947999999999999,0.122527,-0.3499355,0.015043,-0.14239300000000002,-0.6838455,0.017236,0.138257,-0.6713555,0.039218
1,0.0020190000000000017,0.7354305,0.021568500000000004,-0.166462,0.44346050000000004,0.048267500000000005,-0.18402200000000002,0.1923705,0.0427665,0.14784799999999998,0.44917050000000003,0.0509995,0.18137799999999998,0.20171050000000001,0.046700500000000006,-0.199052,0.0021255,-0.0434615,0.19763799999999998,0.0030685,-0.012524499999999994,-0.062872,-0.0003315000000000002,0.0008555000000000021,0.062872,0.0003315000000000002,-0.0008554999999999952,-0.127782,-0.3351195,-0.0100805,0.122658,-0.3498695,0.014937500000000003,-0.14222200000000002,-0.6837595000000001,0.017122500000000002,0.13829799999999998,-0.6712195000000001,0.0390655
2,0.0019779999999999976,0.7355119999999999,0.021626,-0.167708,0.44136200000000003,0.051404,-0.18695799999999999,0.196432,0.037771,0.147382,0.44946200000000003,0.049749999999999996,0.181732,0.20208199999999998,0.044536,-0.200558,0.00145,-0.05543300000000001,0.199002,0.00572,-0.018376000000000003,-0.06295100000000001,-0.00047100000000000006,0.0009829999999999978,0.06295100000000001,0.00047100000000000006,-0.0009830000000000047,-0.127568,-0.33526799999999995,-0.008342000000000002,0.123262,-0.349458,0.015847999999999998,-0.141188,-0.683508,0.018714999999999996,0.138862,-0.670558,0.040395
3,0.002425999999999996,0.7356365,0.023434000000000003,-0.168431,0.4402865,0.054106,-0.18965100000000001,0.20641649999999998,0.032241,0.147229,0.4494465,0.049662,0.183459,0.20439649999999998,0.038916,-0.204811,0.006898499999999999,-0.07016,0.202159,0.012365500000000001,-0.031771,-0.062907,-0.0004985,0.0008660000000000022,0.062907,0.0004985,-0.0008659999999999987,-0.127671,-0.33524349999999997,-0.008195999999999995,0.123479,-0.34933349999999996,0.015731000000000002,-0.140911,-0.6827035,0.018888000000000002,0.138769,-0.6703735,0.040302000000000004
4,0.003032500000000004,0.7354655,0.0267845,-0.16501749999999998,0.4400155,0.0548965,-0.19317749999999997,0.2144655,0.0266095,0.14948250000000002,0.4492655,0.0511005,0.1871325,0.20898550000000002,0.0323155,-0.2141775,0.0176895,-0.0952915,0.2191325,0.0183195,-0.056417499999999995,-0.0628545,-0.0005265000000000001,0.0005005000000000009,0.0628545,0.0005265000000000001,-0.0005005000000000009,-0.12774749999999999,-0.3351845,-0.0078605,0.1238925,-0.3491345,0.015238500000000002,-0.14056749999999998,-0.6827445,0.0185235,0.1388925,-0.6705645,0.0398275
5,0.0038115000000000015,0.735072,0.0321225,-0.1601755,0.441442,0.0553385,-0.2073555,0.250372,0.0072785,0.15131450000000002,0.44951199999999997,0.051769499999999996,0.2116345,0.23758200000000002,0.0026095000000000007,-0.2330055,0.085314,-0.11408049999999999,0.2457145,0.085141,-0.1035405,-0.0631785,-0.0005560000000000001,0.0009715000000000001,0.0631785,0.0005560000000000001,-0.0009715000000000001,-0.12874549999999998,-0.33500800000000003,-0.006781500000000003,0.1247145,-0.347968,0.0145145,-0.1388255,-0.686108,0.018404499999999997,0.1391145,-0.671338,0.0387585
6,0.0036715000000000046,0.7340899999999999,0.038193,-0.1610365,0.44211,0.055529999999999996,-0.2287565,0.28149,-0.023225,0.15167350000000002,0.44979,0.050894999999999996,0.2248435,0.28198,-0.021479,-0.2652665,0.15444,-0.15928599999999998,0.2710535,0.15988,-0.16236599999999998,-0.0634435,-0.000827,0.0011619999999999998,0.0634435,0.000827,-0.0011619999999999998,-0.1296165,-0.33518,-0.006945999999999997,0.12463350000000001,-0.34773,0.01437,-0.1385665,-0.68886,0.016943,0.13871350000000002,-0.67328,0.037975
7,0.0018679999999999981,0.7323875,0.037917,-0.16009199999999998,0.44343750000000004,0.049973000000000004,-0.240812,0.3019675,-0.028591,0.149378,0.4523575,0.049116,0.233018,0.3157575,-0.036407,-0.280642,0.20637750000000002,-0.185691,0.28599800000000003,0.2124475,-0.17247099999999999,-0.063438,-0.0008814999999999999,0.0014409999999999978,0.063438,0.0008815000000000003,-0.0014410000000000013,-0.129302,-0.3355525,-0.008231000000000002,0.12273799999999999,-0.3486125,0.013642,-0.140592,-0.6908624999999999,0.014776999999999998,0.137518,-0.6756624999999999,0.035498
8,0.001447499999999996,0.7312599999999999,0.040368,-0.1589545,0.44435,0.048219,-0.2497745,0.33171,-0.038217,0.1493555,0.4536,0.048198000000000005,0.2408555,0.34956000000000004,-0.045616000000000004,-0.2935145,0.26532,-0.19696000000000002,0.29738549999999997,0.27346000000000004,-0.18686000000000003,-0.0636015,-0.0009690000000000002,0.0014949999999999998,0.0636015,0.0009690000000000002,-0.0014949999999999998,-0.1297245,-0.33594999999999997,-0.008589,0.1222955,-0.3489,0.012981,-0.1409645,-0.69201,0.013231,0.1370955,-0.67679,0.033914
9,0.0008625000000000039,0.7298724999999999,0.042415999999999995,-0.1580665,0.4452625,0.046910999999999994,-0.2578265,0.36331250000000004,-0.045056,0.1493635,0.45528250000000003,0.047189999999999996,0.24667350000000002,0.38456250000000003,-0.050888,-0.3040965,0.3299925,-0.200238,0.30416350000000003,0.3417025,-0.191948,-0.0637325,-0.0010685000000000009,0.0015410000000000007,0.0637325,0.0010685,-0.0015410000000000007,-0.1301965,-0.3365875,-0.009087000000000001,0.1217935,-0.3494675,0.012256,-0.1413965,-0.6935275000000001,0.011519999999999999,0.1365935,-0.6781775,0.032196
10,8.300000000000321e-05,0.727573,0.0441905,-0.157664,0.44700300000000004,0.0455485,-0.264114,0.406903,-0.0491125,0.149016,0.458723,0.046454499999999996,0.249546,0.432863,-0.0525625,-0.312264,0.406383,-0.2026925,0.307716,0.426503,-0.19357249999999998,-0.063745,-0.0012199999999999997,0.0014984999999999998,0.063745,0.0012200000000000006,-0.0014984999999999998,-0.130754,-0.337997,-0.009843500000000002,0.121146,-0.350857,0.0115425,-0.141924,-0.696747,0.0097635,0.136006,-0.681287,0.0305145
11,-0.0005579999999999986,0.7250915,0.045471,-0.157183,0.4485415,0.044585,-0.267683,0.4483415,-0.050893,0.148487,0.4624115,0.046133999999999994,0.25026699999999996,0.47816149999999996,-0.05404,-0.315763,0.4854115,-0.20447200000000001,0.307797,0.5088515,-0.19509200000000002,-0.063681,-0.0013655000000000004,0.0014589999999999985,0.063681,0.0013655000000000004,-0.001459000000000002,-0.131193,-0.3397585,-0.010618000000000002,0.120587,-0.3526285,0.010998999999999998,-0.14238299999999998,-0.7000485,0.008280999999999998,0.135547,-0.6845585,0.029037
12,-0.0010349999999999964,0.7221425,0.046516,-0.156713,0.45134250000000004,0.043796,-0.269543,0.4907825,-0.052313,0.148067,0.46621250000000003,0.046368,0.24995699999999998,0.5231825,-0.055348999999999995,-0.316243,0.5593925,-0.205791,0.307487,0.5905325,-0.196401,-0.063535,-0.0015325000000000009,0.0013920000000000009,0.063535,0.0015325000000000009,-0.0013920000000000009,-0.131473,-0.3419175,-0.011337,0.120137,-0.3548775,0.010474,-0.142723,-0.7038075,0.0069700000000000005,0.135227,-0.6882475,0.027789
13,-0.0013899999999999984,0.7191350000000001,0.0472945,-0.15628,0.45404500000000003,0.0431995,-0.26976,0.5318550000000001,-0.0532925,0.14772000000000002,0.46987500000000004,0.046939499999999995,0.24974,0.565875,-0.056294500000000004,-0.31674,0.6335350000000001,-0.2029405,0.30707999999999996,0.6669050000000001,-0.19472050000000002,-0.063379,-0.0016570000000000022,0.0012774999999999991,0.063379,0.0016569999999999988,-0.0012775000000000009,-0.13152,-0.344245,-0.011945500000000001,0.11974,-0.357105,0.0101675,-0.14311,-0.707685,0.0059784999999999994,0.13502,-0.692035,0.0268785
14,-0.0017844999999999988,0.715611,0.047744,-0.1556525,0.457751,0.042747,-0.2700825,0.572371,-0.051398,0.1471775,0.473051,0.047589,0.2492975,0.603931,-0.052703,-0.31762250000000003,0.703351,-0.193002,0.3059775,0.739151,-0.18174200000000001,-0.0631895,-0.0017680000000000022,0.0012119999999999995,0.0631895,0.0017679999999999987,-0.0012120000000000013,-0.1314725,-0.347159,-0.012493999999999998,0.1193075,-0.359799,0.009992000000000001,-0.1433725,-0.711689,0.0053159999999999995,0.13490749999999999,-0.6959890000000001,0.026194000000000002
15,-0.002147500000000004,0.712125,0.0479165,-0.1551375,0.461585,0.0428095,-0.27052750000000003,0.604715,-0.046591499999999994,0.14645249999999999,0.47560500000000006,0.048518500000000006,0.24723250000000002,0.633475,-0.0438345,-0.3189575,0.762405,-0.1757515,0.3019425,0.798055,-0.1621115,-0.0630705,-0.0018719999999999987,0.0010454999999999996,0.0630705,0.0018719999999999987,-0.0010455000000000013,-0.13146750000000001,-0.350445,-0.012796500000000002,0.1188825,-0.362635,0.0099565,-0.1436075,-0.715645,0.0050504999999999994,0.1349025,-0.700025,0.0259475
16,-0.0025710000000000012,0.708836,0.048099,-0.154767,0.46560599999999996,0.043053,-0.270677,0.634506,-0.039013,0.145493,0.47810600000000003,0.049557000000000004,0.243533,0.658906,-0.030805,-0.319187,0.815126,-0.151205,0.295053,0.848926,-0.132915,-0.062995,-0.001971999999999998,0.0009449999999999997,0.062995,0.0019720000000000015,-0.0009449999999999997,-0.13150699999999999,-0.353684,-0.012929000000000001,0.11851300000000001,-0.365414,0.00998,-0.14382699999999998,-0.719574,0.004947999999999999,0.134913,-0.7039340000000001,0.025892
17,-0.003164499999999998,0.7058369999999999,0.04820049999999999,-0.1543745,0.46967700000000007,0.0434645,-0.2684245,0.660057,-0.0310595,0.1443955,0.480397,0.0504675,0.2387255,0.681327,-0.014680499999999999,-0.3180545,0.859937,-0.1237395,0.2858755,0.891857,-0.1008695,-0.0629685,-0.002061000000000004,0.0009505,0.0629685,0.0020610000000000003,-0.0009505,-0.1315245,-0.35690299999999997,-0.0129335,0.1182055,-0.368093,0.010059499999999999,-0.1440245,-0.724043,0.0049805000000000006,0.1350255,-0.7084130000000001,0.026110500000000002
18,-0.0037105,0.7031985,0.0481675,-0.1539025,0.4736885,0.0441295,-0.2629825,0.6829185,-0.0161695,0.1433375,0.4822485,0.051292500000000005,0.2324375,0.7020385,0.0011315000000000006,-0.3120325,0.8978585,-0.0859325,0.2754475,0.9268985,-0.0637515,-0.06286649999999999,-0.0021284999999999984,0.0009575,0.06286649999999999,0.0021284999999999984,-0.0009575,-0.13141250000000002,-0.3599115,-0.0130675,0.11802750000000001,-0.3705215,0.010155500000000001,-0.1440525,-0.7281315,0.004965499999999999,0.1352475,-0.7126815000000001,0.0263305
19,-0.004229000000000001,0.7014689999999999,0.048161,-0.153427,0.47705899999999996,0.044969,-0.25972700000000004,0.689989,-0.004687,0.142233,0.48232899999999995,0.051683,0.227193,0.7062189999999999,0.014152,-0.30667700000000003,0.9167190000000001,-0.052819,0.26746299999999995,0.937859,-0.034777999999999996,-0.0627,-0.002132000000000002,0.0009639999999999996,0.0627,0.002132000000000002,-0.0009639999999999996,-0.131217,-0.362221,-0.013359,0.11796300000000001,-0.372321,0.010276,-0.143907,-0.731341,0.004981000000000001,0.135523,-0.7159409999999999,0.026563
20,-0.004719500000000001,0.7000695,0.048298999999999995,-0.1529445,0.48062950000000004,0.046133,-0.25784450000000003,0.6957995,0.004955000000000001,0.1411155,0.4821495,0.05186400000000001,0.2231355,0.7082595,0.025008000000000002,-0.30491450000000003,0.9252595,-0.030948,0.2621655,0.9427695,-0.011038,-0.0624665,-0.002099500000000004,0.0009680000000000018,0.0624665,0.002099499999999997,-0.0009680000000000001,-0.1310445,-0.3643805,-0.013607999999999999,0.11794550000000001,-0.3737805,0.010501000000000002,-0.1437245,-0.7342105,0.005136000000000002,0.1358355,-0.7188305,0.026925
21,-0.0051660000000000005,0.699215,0.048622,-0.15255100000000002,0.482835,0.047183,-0.256521,0.699315,0.012599000000000003,0.13982899999999998,0.481665,0.052099,0.220719,0.708535,0.032807,-0.304541,0.9329149999999999,-0.013703,0.259649,0.944275,0.007835000000000002,-0.062246,-0.002023999999999998,0.0010230000000000013,0.062246,0.002023999999999998,-0.0010229999999999996,-0.13082100000000002,-0.366035,-0.013756999999999998,0.117949,-0.374755,0.010916000000000002,-0.143491,-0.736575,0.005477000000000001,0.136189,-0.721205,0.027461
22,-0.005491000000000002,0.6988584999999999,0.048630999999999994,-0.15218199999999998,0.4849985,0.04826,-0.255382,0.7025485,0.019863,0.138718,0.4811985,0.052427,0.218638,0.7087785,0.040393,-0.304282,0.9379685,0.0013579999999999998,0.25774800000000003,0.9454885,0.025923,-0.062136,-0.001974500000000004,0.0011079999999999996,0.062136,0.001974499999999997,-0.0011080000000000013,-0.130522,-0.3672115,-0.013773,0.11806799999999999,-0.37572150000000004,0.011411000000000001,-0.143092,-0.7382815,0.005927,0.136668,-0.7230215,0.028129
23,-0.005855,0.6990555,0.048476,-0.151933,0.48606550000000004,0.048848,-0.25445300000000004,0.7044155,0.025942,0.137807,0.48113550000000005,0.052612,0.217507,0.7088955,0.046440999999999996,-0.30492300000000006,0.9392655,0.014473000000000001,0.257057,0.9456655,0.0397,-0.062099,-0.0019214999999999996,0.001170000000000001,0.062099,0.0019214999999999996,-0.0011699999999999974,-0.130333,-0.3678945,-0.013770999999999999,0.118177,-0.37623449999999997,0.011770000000000001,-0.142763,-0.7393945,0.006266000000000001,0.137057,-0.7242145,0.02864
24,-0.0062879999999999985,0.6995385000000001,0.0482685,-0.151785,0.4870685,0.0492245,-0.254115,0.7057885,0.0306345,0.137085,0.4811485,0.0523925,0.21715500000000001,0.7086885,0.0509415,-0.30547500000000005,0.9406285,0.024743499999999998,0.25639500000000004,0.9454785,0.0515205,-0.062092999999999995,-0.001867500000000001,0.001256499999999999,0.062092999999999995,0.0018674999999999942,-0.0012565000000000007,-0.130245,-0.3682815,-0.0137615,0.118265,-0.37664149999999996,0.011967499999999999,-0.142515,-0.7401314999999999,0.006517499999999999,0.137335,-0.7250415,0.029034499999999998
25,-0.006664499999999999,0.7000460000000001,0.048068,-0.1516435,0.48775599999999997,0.04946300000000001,-0.2541435,0.7064360000000001,0.033382999999999996,0.1366665,0.481136,0.052024,0.2171365,0.708346,0.053461999999999996,-0.3056335,0.940976,0.029192000000000003,0.2561365,0.944816,0.057426000000000005,-0.0620855,-0.0018159999999999982,0.0013340000000000001,0.0620855,0.0018159999999999982,-0.0013339999999999984,-0.1301635,-0.368574,-0.013732999999999999,0.1183165,-0.376924,0.012140000000000001,-0.1422835,-0.740704,0.006732,0.1375865,-0.725684,0.029395
26,-0.006908499999999999,0.700266,0.048049999999999995,-0.1516015,0.48810600000000004,0.04958,-0.2541915,0.706676,0.035445,0.1364385,0.481136,0.051875,0.21710849999999998,0.708346,0.0554,-0.3059715,0.941456,0.032386,0.2560185,0.944816,0.062803,-0.0620865,-0.0018159999999999982,0.0013339999999999984,0.0620865,0.0018159999999999982,-0.0013340000000000019,-0.1301215,-0.368574,-0.013774000000000002,0.1183285,-0.376924,0.012229999999999998,-0.1421615,-0.740704,0.006739999999999998,0.13770849999999998,-0.725684,0.029403
27,-0.007131500000000002,0.700406,0.048037500000000004,-0.1515645,0.488386,0.0496485,-0.2542145,0.706846,0.037194500000000005,0.1362855,0.481136,0.0517385,0.2170755,0.708346,0.0571375,-0.3066545,0.941486,0.0360825,0.2562655,0.944816,0.06771150000000001,-0.0620795,-0.0018159999999999982,0.0013385000000000011,0.0620795,0.0018159999999999982,-0.0013384999999999994,-0.1300645,-0.368574,-0.013809499999999999,0.11834549999999999,-0.376924,0.012323500000000001,-0.1420545,-0.740704,0.0067525000000000016,0.13782550000000002,-0.725684,0.0294155
28,-0.007325499999999997,0.700446,0.0480275,-0.1515835,0.48846600000000007,0.0497755,-0.2543835,0.706926,0.0386815,0.1361765,0.481136,0.0516465,0.2173465,0.708346,0.058512499999999995,-0.3078035,0.941526,0.0388875,0.2565265,0.944816,0.0716575,-0.0620815,-0.0018159999999999982,0.001341499999999999,0.0620815,0.0018159999999999982,-0.001341499999999999,-0.1300135,-0.368574,-0.013847499999999999,0.1183665,-0.376924,0.012352499999999999,-0.1419435,-0.740704,0.006762499999999999,0.1379265,-0.725684,0.0294255
29,-0.0075060000000000005,0.700735,0.0483165,-0.151617,0.48879500000000004,0.050072500000000006,-0.254587,0.707225,0.040163500000000005,0.136103,0.48112499999999997,0.0515935,0.217683,0.707865,0.059785500000000005,-0.30880700000000005,0.9417049999999999,0.040996500000000005,0.257043,0.944225,0.0748615,-0.062083,-0.0017739999999999978,0.0013595000000000013,0.062083,0.0017739999999999978,-0.0013594999999999996,-0.129947,-0.368755,-0.013932499999999997,0.118393,-0.377055,0.012351500000000001,-0.141877,-0.741055,0.006675500000000001,0.138013,-0.7259650000000001,0.0293645
30,-0.007675499999999996,0.701043,0.04871349999999999,-0.15169749999999999,0.489133,0.050389500000000004,-0.2547975,0.707503,0.0415055,0.13602250000000002,0.48109300000000005,0.051586499999999993,0.2179425,0.707413,0.060963500000000004,-0.3097175,0.941863,0.0431625,0.2577525,0.943623,0.0751095,-0.0620845,-0.0017380000000000034,0.0013784999999999995,0.0620845,0.0017380000000000034,-0.0013785000000000013,-0.1298875,-0.368907,-0.014016500000000001,0.11840250000000001,-0.377177,0.012359499999999999,-0.14181749999999999,-0.7413970000000001,0.006614499999999999,0.1381125,-0.7262470000000001,0.0293215
31,-0.007817000000000001,0.701403,0.0491005,-0.151795,0.489463,0.0507005,-0.255025,0.707793,0.0426085,0.135945,0.481063,0.0515835,0.218175,0.707043,0.0620315,-0.310865,0.941783,0.044150499999999995,0.257775,0.943093,0.0773595,-0.062082,-0.0017050000000000051,0.0013854999999999996,0.062082,0.0017049999999999982,-0.0013855000000000013,-0.129845,-0.368987,-0.014113500000000001,0.118405,-0.37721699999999997,0.0123695,-0.141775,-0.741677,0.006540500000000001,0.138205,-0.726497,0.0292465
32,-0.0079475,0.701759,0.0494815,-0.1519125,0.48980899999999994,0.0509835,-0.2552025,0.7080489999999999,0.0434035,0.1359375,0.48102899999999993,0.0515775,0.2183875,0.706799,0.0628845,-0.3119725,0.941669,0.0445725,0.25770750000000003,0.9427789999999999,0.0794995,-0.062079499999999996,-0.001690000000000004,0.0013874999999999981,0.062079499999999996,0.001689999999999997,-0.0013874999999999998,-0.12984249999999997,-0.36907100000000004,-0.014222500000000003,0.1184075,-0.377281,0.012371499999999999,-0.1417525,-0.7419410000000001,0.006449499999999999,0.1382675,-0.726701,0.0291415
33,-0.0080545,0.7020259999999999,0.04984,-0.1520125,0.4902059999999999,0.051283999999999996,-0.25528249999999997,0.708386,0.044107999999999994,0.1359375,0.48095599999999994,0.051564,0.21856750000000003,0.706616,0.063666,-0.3128825,0.941126,0.044977,0.2576075,0.9425359999999999,0.081417,-0.062079499999999996,-0.001680000000000001,0.0013909999999999981,0.062079499999999996,0.001680000000000001,-0.0013909999999999999,-0.1298225,-0.369144,-0.014339000000000001,0.1184175,-0.37740399999999996,0.012319999999999998,-0.1417425,-0.7421340000000001,0.006336999999999999,0.1383375,-0.726874,0.029009
34,-0.008145499999999996,0.7021989999999999,0.050189,-0.1520335,0.490779,0.051596,-0.25532350000000004,0.708899,0.044769,0.13594650000000003,0.480909,0.051545999999999995,0.21869650000000002,0.706449,0.064414,-0.3129735,0.941529,0.046272,0.2576865,0.9423189999999999,0.08322399999999999,-0.062079499999999996,-0.0016719999999999999,0.001387000000000001,0.062079499999999996,0.0016719999999999999,-0.0013869999999999993,-0.1297835,-0.369261,-0.014487999999999997,0.1184165,-0.377561,0.012265000000000002,-0.1417435,-0.742391,0.006253000000000002,0.13840650000000002,-0.727071,0.028875
35,-0.008232,0.7023235,0.050549000000000004,-0.152058,0.4913335,0.051928,-0.255368,0.7090635,0.045411,0.135942,0.4808335,0.051583,0.218802,0.7062635,0.065132,-0.313058,0.9403135,0.047411999999999996,0.258232,0.9421035,0.08393600000000001,-0.062077999999999994,-0.0016684999999999964,0.001387000000000001,0.062077999999999994,0.0016685000000000033,-0.0013869999999999993,-0.129728,-0.3693965,-0.014602999999999998,0.11844199999999999,-0.3776965,0.012158,-0.141728,-0.7426265,0.006184,0.138482,-0.7272765,0.028745
36,-0.008305500000000004,0.702392,0.050829,-0.1521045,0.491772,0.052283,-0.2554345,0.7094820000000001,0.046048000000000006,0.1359455,0.48083200000000004,0.051641,0.2188755,0.706102,0.065816,-0.3131645,0.940702,0.048795,0.2591355,0.9420120000000001,0.08468300000000001,-0.0620685,-0.0016669999999999949,0.0013980000000000017,0.0620685,0.0016670000000000018,-0.001398,-0.1296845,-0.369548,-0.014700999999999999,0.11845549999999999,-0.377688,0.01207,-0.1417345,-0.7428279999999999,0.0061210000000000014,0.1385455,-0.727468,0.028639
37,-0.0083745,0.7024015,0.0509125,-0.1521055,0.49180150000000006,0.0523715,-0.2553555,0.7095015,0.0461425,0.1359145,0.4808415,0.0517185,0.2189245,0.7061014999999999,0.0659075,-0.3129255,0.9407015,0.049683500000000005,0.26000449999999997,0.9414914999999999,0.0847515,-0.062060500000000005,-0.0016664999999999944,0.0014225000000000002,0.062060500000000005,0.0016665000000000013,-0.0014225000000000002,-0.1296255,-0.3695285,-0.014770500000000002,0.11847450000000001,-0.3776785,0.0119305,-0.1417455,-0.7428285,0.0062085000000000005,0.1386045,-0.7274685000000001,0.0287325
38,-0.008439499999999999,0.702426,0.051001,-0.15209350000000002,0.49181600000000003,0.052465,-0.2546135,0.709086,0.046617,0.13589649999999998,0.480826,0.051796999999999996,0.2189565,0.706086,0.066003,-0.3113935,0.940046,0.050342,0.2600565,0.941476,0.08484900000000001,-0.062047500000000005,-0.0016679999999999959,0.0014519999999999984,0.062047500000000005,0.0016680000000000028,-0.001452000000000002,-0.12958350000000002,-0.369534,-0.014795000000000003,0.1185365,-0.377694,0.011773999999999998,-0.1417535,-0.742844,0.006301999999999999,0.1386665,-0.727484,0.028829999999999998
39,-0.008488000000000002,0.702406,0.0511265,-0.15202500000000002,0.49193600000000004,0.0525995,-0.25377500000000003,0.709196,0.0468055,0.13591499999999998,0.48087599999999997,0.051908499999999996,0.218995,0.706106,0.0661345,-0.310235,0.9401660000000001,0.050534499999999996,0.259755,0.941426,0.0845475,-0.062038,-0.001675999999999997,0.0014654999999999998,0.062038,0.001675999999999997,-0.0014655000000000015,-0.129555,-0.36957399999999996,-0.0147655,0.11857499999999999,-0.377714,0.011618499999999999,-0.14178500000000002,-0.7428939999999999,0.0064294999999999995,0.13866499999999998,-0.727534,0.0289705
40,-0.00851,0.7024585,0.0509955,-0.15185,0.4922285,0.052679500000000004,-0.25284999999999996,0.7083784999999999,0.047198500000000004,0.13593999999999998,0.4808585,0.05169749999999999,0.21903999999999998,0.7059885,0.0663295,-0.30901999999999996,0.9394184999999999,0.050879499999999994,0.2606,0.9404684999999999,0.08362349999999999,-0.062032000000000004,-0.0016675000000000023,0.0015014999999999994,0.062032000000000004,0.0016675000000000023,-0.0015014999999999994,-0.12947,-0.3697315,-0.014515499999999997,0.11861000000000001,-0.37759149999999997,0.0116995,-0.14178000000000002,-0.7431015000000001,0.0069345,0.13863,-0.7280215,0.0296365
41,-0.008516500000000001,0.7024905,0.0505915,-0.1516805,0.4925005,0.0525625,-0.2518705,0.7090005,0.047285499999999994,0.1359695,0.48088050000000004,0.0513565,0.2190895,0.7059205000000001,0.06618550000000001,-0.3077205,0.9401305,0.0508835,0.2617795,0.9388105,0.0819105,-0.0620315,-0.0016614999999999963,0.001570499999999999,0.0620315,0.0016615000000000033,-0.0015705000000000024,-0.1294005,-0.36984949999999994,-0.014228499999999998,0.1186395,-0.37738950000000004,0.0118125,-0.1417905,-0.7432595,0.0076005,0.1385695,-0.7284495,0.0304895
42,-0.008511999999999999,0.7025094999999999,0.0500595,-0.15148,0.49275949999999996,0.0524655,-0.25084,0.7096095,0.0471255,0.13602,0.4808895,0.0510025,0.21927000000000002,0.7058595000000001,0.06597249999999999,-0.3064,0.9408295,0.050881499999999996,0.26304,0.9328395,0.0796775,-0.062032,-0.0016585000000000003,0.0016704999999999984,0.062032,0.0016585000000000003,-0.0016705000000000018,-0.12932,-0.3699905,-0.013915500000000004,0.11867,-0.3771805,0.011962499999999997,-0.14179,-0.7434305000000001,0.008265499999999999,0.13853000000000001,-0.7289005,0.0315025
43,-0.008455999999999998,0.7025239999999999,0.0494155,-0.15123599999999998,0.49303400000000003,0.0523465,-0.249766,0.7102339999999999,0.046939499999999995,0.136114,0.480914,0.0506155,0.21954400000000002,0.7057939999999999,0.06566949999999999,-0.304766,0.9414939999999999,0.0514795,0.26463400000000004,0.929264,0.0766715,-0.062037,-0.0016590000000000008,0.0017824999999999994,0.062037,0.0016590000000000008,-0.0017825000000000028,-0.12925599999999998,-0.370156,-0.0135715,0.118704,-0.377036,0.012111499999999997,-0.141806,-0.7435860000000001,0.008916499999999997,0.138514,-0.729286,0.0324145
44,-0.008325499999999996,0.7025195,0.0486825,-0.1509525,0.4932795,0.0522305,-0.2487125,0.7108395,0.0466705,0.1362575,0.48093949999999996,0.0501895,0.2199275,0.7057095,0.0650895,-0.3031225,0.9422395,0.0522735,0.2657675,0.9290795000000001,0.0753205,-0.0620405,-0.0016565000000000052,0.0018924999999999984,0.0620405,0.0016564999999999983,-0.0018925000000000018,-0.1291725,-0.3703405,-0.013249500000000004,0.1187275,-0.3768805,0.012290499999999998,-0.1418125,-0.7437405,0.009563499999999997,0.1385075,-0.7296205,0.0333285
45,-0.0081695,0.7025335,0.047925999999999996,-0.1506645,0.49343349999999997,0.052106,-0.2476945,0.7113935,0.046386,0.1363955,0.48097350000000005,0.049762,0.2203655,0.7056535,0.064454,-0.3016645,0.9428735,0.051804,0.2667255,0.9333835,0.074253,-0.0620445,-0.0016484999999999972,0.0020009999999999993,0.0620445,0.0016484999999999972,-0.0020009999999999993,-0.1290645,-0.37051649999999997,-0.012933,0.1187455,-0.37660649999999996,0.01246,-0.14182450000000002,-0.7438965,0.01022,0.13850549999999998,-0.7299365,0.034248
46,-0.007974500000000002,0.70255,0.047079,-0.15045150000000002,0.49336,0.051975,-0.2467515,0.71199,0.046060000000000004,0.1365685,0.48105,0.049291,0.2208685,0.70563,0.063628,-0.3010615,0.9448099999999999,0.052198,0.2684685,0.93323,0.071027,-0.0620435,-0.0016470000000000026,0.0021130000000000003,0.0620435,0.0016469999999999957,-0.002112999999999997,-0.12894150000000001,-0.37065000000000003,-0.012653999999999999,0.1187785,-0.37668999999999997,0.012643000000000001,-0.1418315,-0.74403,0.010855000000000002,0.1384985,-0.73022,0.035136
47,-0.0077554999999999985,0.702558,0.0462055,-0.1502395,0.493278,0.0518355,-0.2464695,0.712528,0.0456845,0.1367305,0.48108800000000007,0.0489155,0.2214105,0.705608,0.06275549999999999,-0.3008495,0.946658,0.0525615,0.27011050000000003,0.933088,0.06871050000000001,-0.0620425,-0.0016439999999999996,0.0022205000000000003,0.0620425,0.0016439999999999996,-0.0022205000000000003,-0.12879949999999998,-0.37080199999999996,-0.012375499999999998,0.11878050000000001,-0.37662199999999996,0.012844499999999998,-0.1418495,-0.744172,0.0115065,0.13849050000000002,-0.7305119999999999,0.0360225
48,-0.007521000000000004,0.7025644999999999,0.045318,-0.150077,0.4932145,0.051618,-0.246267,0.7128045,0.045233999999999996,0.136923,0.4811345,0.048499,0.222053,0.7055745,0.061723,-0.30063700000000004,0.9469145,0.052876,0.27152299999999996,0.9329645,0.066343,-0.062034000000000006,-0.0016464999999999952,0.002335999999999998,0.062034000000000006,0.0016464999999999952,-0.0023360000000000013,-0.128657,-0.3709555,-0.012150000000000001,0.118813,-0.37660550000000004,0.013002999999999997,-0.141847,-0.7443455,0.012106999999999998,0.138503,-0.7307755,0.036825
49,-0.007312000000000001,0.7025525,0.0448845,-0.149975,0.49324250000000003,0.0516785,-0.246085,0.7142125,0.0446965,0.13710499999999998,0.4811525,0.0483695,0.222665,0.7055525,0.061121499999999995,-0.300395,0.9482625000000001,0.052587499999999995,0.272815,0.9342725000000001,0.0648095,-0.062029,-0.0016504999999999923,0.0024384999999999997,0.062029,0.0016504999999999992,-0.0024384999999999997,-0.12854500000000002,-0.37100750000000005,-0.0121115,0.11901500000000001,-0.3764775,0.0129025,-0.141875,-0.7443875,0.012243500000000001,0.138545,-0.7308275,0.0371325
50,-0.007251000000000001,0.7025525,0.044655,-0.149974,0.49324250000000003,0.051701,-0.24629399999999999,0.7142125,0.044704,0.137356,0.4811525,0.04841,0.223296,0.7055525,0.06074499999999999,-0.30048400000000003,0.9482625000000001,0.052219,0.27393599999999996,0.9350725000000001,0.063698,-0.062023,-0.0016504999999999923,0.0024610000000000014,0.062023,0.0016504999999999992,-0.0024610000000000014,-0.12842399999999998,-0.37100750000000005,-0.012164999999999999,0.11921599999999999,-0.3764775,0.012693,-0.141894,-0.7443875,0.012264,0.13864600000000002,-0.7308275,0.037162
51,-0.007173999999999999,0.7025525,0.044487,-0.14998,0.49324250000000003,0.051701000000000004,-0.24634,0.7142125,0.044701000000000005,0.13755,0.4811525,0.048410999999999996,0.22381,0.7055525,0.060366,-0.30032000000000003,0.9482625000000001,0.051758,0.27507,0.9357825000000001,0.063265,-0.062012,-0.0016504999999999923,0.002461999999999999,0.062012,0.0016504999999999992,-0.002461999999999999,-0.12828,-0.37100750000000005,-0.012227000000000002,0.11943,-0.3764775,0.012467,-0.14193,-0.7443875,0.012262,0.13872,-0.7308275,0.037168
52,-0.007144499999999997,0.702554,0.044399999999999995,-0.1499935,0.49316400000000005,0.051695,-0.2463935,0.713484,0.044714000000000004,0.1376865,0.48115399999999997,0.048413,0.22424650000000002,0.705534,0.060011,-0.3001735,0.947664,0.051282999999999995,0.2758765,0.9384440000000001,0.063537,-0.0620005,-0.0016490000000000046,0.0024670000000000004,0.0620005,0.0016489999999999977,-0.0024670000000000004,-0.1281035,-0.371136,-0.012337,0.1196565,-0.376606,0.012189,-0.14198349999999998,-0.744416,0.012218999999999999,0.1387865,-0.730846,0.03697
53,-0.007168999999999998,0.702585,0.044216000000000005,-0.150078,0.493145,0.051966,-0.246618,0.7142350000000001,0.044549000000000005,0.13780199999999998,0.48125499999999993,0.048338,0.224582,0.705535,0.059686,-0.300218,0.948475,0.050727,0.27673200000000003,0.938355,0.062748,-0.061999,-0.0016510000000000066,0.00255,0.061999,0.0016509999999999997,-0.00255,-0.127818,-0.37145500000000004,-0.012563999999999999,0.120042,-0.37662500000000004,0.011695,-0.141818,-0.744555,0.011924,0.13901200000000002,-0.730815,0.036452
54,-0.007203000000000002,0.7026110000000001,0.044006500000000004,-0.150149,0.493211,0.0521605,-0.24664899999999998,0.7143210000000001,0.0445315,0.137901,0.48135100000000003,0.048240500000000006,0.22490100000000002,0.7055410000000001,0.0592545,-0.300129,0.948701,0.0500615,0.277581,0.938301,0.0621265,-0.062001,-0.0016450000000000006,0.0026265000000000004,0.062001,0.0016450000000000006,-0.002626499999999997,-0.127549,-0.371819,-0.012816500000000002,0.12044099999999999,-0.376659,0.011082500000000002,-0.14165899999999998,-0.7446689999999999,0.011566500000000002,0.139261,-0.730849,0.0359385
55,-0.007248999999999998,0.702651,0.043706999999999996,-0.150235,0.493301,0.052294,-0.246625,0.714241,0.044653,0.137975,0.481441,0.048112,0.225175,0.7055410000000001,0.058792,-0.30005499999999996,0.9487110000000001,0.04937,0.27832500000000004,0.938241,0.061279,-0.062004,-0.0016329999999999956,0.002716999999999997,0.062004,0.0016330000000000025,-0.0027170000000000007,-0.127305,-0.372209,-0.013092,0.120835,-0.376719,0.010441999999999998,-0.141495,-0.744799,0.011109999999999998,0.139515,-0.730869,0.035355
56,-0.007320000000000001,0.702677,0.043289,-0.150343,0.49341700000000005,0.052309999999999995,-0.24668299999999999,0.7144269999999999,0.044294,0.138047,0.481527,0.047899,0.22545700000000002,0.7055469999999999,0.058219999999999994,-0.300033,0.9490070000000002,0.048502,0.278657,0.938957,0.060984,-0.062011000000000004,-0.0016209999999999974,0.0028399999999999988,0.062011000000000004,0.0016210000000000044,-0.0028399999999999988,-0.127073,-0.372693,-0.013494000000000003,0.12123700000000001,-0.376803,0.009577,-0.141353,-0.744953,0.010526,0.139757,-0.7307330000000001,0.034485
57,-0.007366000000000001,0.7026735000000001,0.042663,-0.150437,0.4936035,0.052153,-0.24678699999999998,0.7146335,0.04374599999999999,0.138123,0.48165349999999996,0.047521999999999995,0.225713,0.7056035,0.057503,-0.299987,0.9493634999999999,0.047355999999999995,0.279083,0.9396535,0.060523,-0.062031,-0.0015925000000000036,0.0029,0.062031,0.0015924999999999967,-0.0029000000000000033,-0.126797,-0.3734165,-0.014059000000000002,0.12167299999999999,-0.37706649999999997,0.008495999999999998,-0.141187,-0.7451665,0.009781999999999999,0.140013,-0.7307265,0.033441
58,-0.007428499999999999,0.7026605,0.041844000000000006,-0.15050249999999998,0.49381050000000004,0.051772,-0.2468925,0.7148605,0.043004,0.1382075,0.4818205,0.046978000000000006,0.22599750000000002,0.7056905,0.056553,-0.2998825,0.9498205,0.045803,0.27957750000000003,0.9403805000000001,0.059832,-0.0620485,-0.0015584999999999974,0.0029310000000000013,0.0620485,0.0015584999999999974,-0.0029309999999999996,-0.1264925,-0.37418949999999995,-0.014857999999999996,0.12202750000000001,-0.3771495,0.007140000000000002,-0.1410025,-0.7453894999999999,0.008810000000000002,0.1403075,-0.7307595,0.032106
59,-0.007423999999999997,0.702697,0.0408475,-0.150502,0.494097,0.051210500000000006,-0.24693199999999998,0.715147,0.041583499999999995,0.138368,0.4820169999999999,0.0463045,0.226378,0.705847,0.0553285,-0.299582,0.9502269999999999,0.0437115,0.28029800000000005,0.940377,0.05816350000000001,-0.062067,-0.0015130000000000005,0.0029825000000000008,0.062067,0.0015130000000000005,-0.002982499999999999,-0.126122,-0.37493299999999996,-0.015834499999999998,0.12248800000000001,-0.37713300000000005,0.0055835,-0.140712,-0.745583,0.0076255,0.140658,-0.730873,0.0305565
60,-0.007386500000000001,0.7027535,0.039474999999999996,-0.15048350000000002,0.49442349999999996,0.050293,-0.24695350000000002,0.7154935,0.039708,0.13862649999999999,0.48220349999999995,0.045357,0.2269265,0.7059935,0.053718,-0.2992535,0.9507535,0.0408,0.2814465,0.9403935,0.055884,-0.0621025,-0.0014715000000000006,0.003156000000000001,0.0621025,0.0014715000000000006,-0.003155999999999999,-0.1256835,-0.3758665,-0.017251000000000002,0.12299649999999998,-0.37718650000000004,0.0035000000000000014,-0.14032350000000002,-0.7458064999999999,0.005975000000000001,0.14106649999999998,-0.7309764999999999,0.028507
61,-0.007322499999999999,0.7028504999999999,0.0378805,-0.1504015,0.4944705,0.0490525,-0.2468115,0.7154904999999999,0.0375765,0.13896850000000002,0.4822705,0.0442605,0.22735850000000002,0.7060605,0.051810499999999995,-0.2988615,0.9508305,0.037541500000000005,0.2827785,0.9404405,0.0531045,-0.062120499999999995,-0.0014645000000000005,0.0032895000000000008,0.062120499999999995,0.0014645000000000005,-0.0032895000000000008,-0.1252015,-0.3770595,-0.018940500000000002,0.12353850000000001,-0.3772895,0.0011435000000000004,-0.1398915,-0.7459595,0.004016500000000001,0.1415085,-0.7309295,0.0262025
62,-0.007226499999999999,0.7029455,0.036172499999999996,-0.1502705,0.49427550000000003,0.0473495,-0.2466305,0.7152354999999999,0.035228499999999996,0.13931949999999999,0.48221549999999996,0.0428125,0.2277895,0.7060354999999999,0.0497285,-0.2984205,0.9504654999999999,0.0340735,0.28412950000000003,0.9405055,0.0499995,-0.0621295,-0.0014974999999999988,0.0034205,0.0621295,0.0014974999999999988,-0.0034205,-0.1248705,-0.37800449999999997,-0.0207325,0.1239095,-0.3775945,-0.0012224999999999996,-0.1396805,-0.7459545000000001,0.0020914999999999996,0.14178949999999998,-0.7310645,0.0238915
63,-0.007088000000000003,0.7029455,0.034219,-0.150132,0.49427550000000003,0.045396000000000006,-0.24643199999999998,0.7152354999999999,0.032472,0.139718,0.4820355,0.040877,0.228388,0.7058755,0.047403,-0.297882,0.9504654999999999,0.029797999999999998,0.285528,0.9404454999999999,0.046517,-0.062139,-0.0014974999999999988,0.0035529999999999997,0.062139,0.0014974999999999988,-0.0035530000000000006,-0.12466200000000001,-0.37817449999999997,-0.02274,0.124148,-0.3775945,-0.0036900000000000006,-0.139532,-0.7459545000000001,0.0,0.141958,-0.7310645,0.021447
64,-0.006873,0.7029455,0.031812,-0.149887,0.49427550000000003,0.042991,-0.246157,0.7152354999999999,0.029095,0.140603,0.4815255,0.038518,0.229033,0.7056555,0.044514,-0.29716699999999996,0.9504654999999999,0.024957,0.28694299999999995,0.9401455,0.042294,-0.062197,-0.0014974999999999988,0.0036680000000000003,0.062197,0.0014974999999999988,-0.0036679999999999994,-0.124397,-0.37856449999999997,-0.025171000000000002,0.12443299999999999,-0.3775945,-0.006577999999999999,-0.139307,-0.7459545000000001,-0.0026029999999999994,0.142213,-0.7310645,0.018534000000000002
65,-0.006592499999999996,0.7028504999999999,0.0290485,-0.14952149999999997,0.4944705,0.0404155,-0.24560149999999997,0.7154904999999999,0.0252675,0.1415185,0.48094050000000005,0.0360125,0.2296285,0.7053404999999999,0.0413235,-0.29633149999999997,0.9508305,0.0196785,0.2882985,0.9396105,0.0377585,-0.0622895,-0.0014645000000000005,0.0037844999999999997,0.0622895,0.0014645000000000005,-0.0037844999999999997,-0.1241515,-0.37897949999999997,-0.0277475,0.1246885,-0.37768949999999996,-0.0094805,-0.1390515,-0.7460895000000001,-0.0053644999999999995,0.1424685,-0.7309595,0.0155745
66,-0.006176499999999998,0.703299,0.025868,-0.1491105,0.49459900000000007,0.03755,-0.2450805,0.7157089999999999,0.02097,0.1425795,0.479929,0.033671,0.2302195,0.704619,0.037724,-0.2954805,0.9511689999999999,0.013851,0.2897295,0.938669,0.032734,-0.062383499999999995,-0.0013880000000000003,0.0039510000000000005,0.062383499999999995,0.0013880000000000003,-0.003951,-0.1239205,-0.379581,-0.030247000000000003,0.12493950000000001,-0.37794099999999997,-0.012205,-0.1388005,-0.745641,-0.008033,0.1426395,-0.731021,0.013149
67,-0.005826500000000002,0.7035775000000001,0.022689499999999998,-0.1487155,0.49460750000000003,0.0346735,-0.2446555,0.7157875,0.0167275,0.14350449999999998,0.47901750000000004,0.0314005,0.2307545,0.7039475000000001,0.0341375,-0.2946755,0.9513375,0.0078125,0.29103450000000003,0.9377675000000001,0.027806499999999998,-0.0624785,-0.0013225000000000042,0.004082499999999999,0.0624785,0.0013224999999999973,-0.004082499999999999,-0.12369550000000001,-0.38001250000000003,-0.0327935,0.1251745,-0.37829250000000003,-0.014926499999999999,-0.13857550000000002,-0.7451724999999999,-0.0107425,0.1428345,-0.7308925,0.010529499999999999
68,-0.005528500000000002,0.7037135,0.019391,-0.1483165,0.4944535,0.031747,-0.2443265,0.7156835,0.012928,0.14454350000000002,0.47807349999999993,0.029162999999999998,0.2312935,0.7033134999999999,0.030557,-0.29391649999999997,0.9513535000000001,0.0019839999999999997,0.2922735,0.9369434999999999,0.022912,-0.0625685,-0.0012334999999999985,0.004155,0.0625685,0.0012334999999999985,-0.004155,-0.1234465,-0.38029650000000004,-0.035415,0.1254535,-0.37851650000000003,-0.017674,-0.1383365,-0.7445265,-0.013506,0.1430835,-0.7307865,0.007632
69,-0.0052790000000000024,0.7036775,0.0163495,-0.147956,0.4944175,0.0290175,-0.244086,0.7154475,0.0092225,0.145464,0.4772475,0.0270905,0.231784,0.7027775,0.0272195,-0.293276,0.9513175,-0.0033035,0.293114,0.9362075000000001,0.0186575,-0.062616,-0.0011355000000000046,0.004125500000000001,0.062616,0.0011354999999999976,-0.004125500000000001,-0.123276,-0.3803325,-0.037865499999999996,0.125754,-0.3785225,-0.0201245,-0.138156,-0.7436125,-0.0160595,0.143354,-0.7303824999999999,0.0048725
70,-0.005084999999999999,0.7037165,0.0134645,-0.147644,0.49430650000000004,0.0263985,-0.24404399999999998,0.7154864999999999,0.005474499999999999,0.146316,0.47615650000000004,0.025128499999999998,0.232236,0.7019565,0.0240585,-0.293174,0.9513565,-0.0085355,0.293856,0.9352364999999999,0.0145145,-0.062624,-0.0010965000000000003,0.0041245000000000006,0.062624,0.0010965000000000003,-0.0041245,-0.123184,-0.3801035,-0.0402125,0.12597599999999998,-0.3789835,-0.022558500000000002,-0.13800400000000002,-0.7426735000000001,-0.0186875,0.14357599999999998,-0.7300135000000001,0.0022425000000000006
71,-0.004887499999999998,0.703932,0.010427000000000002,-0.14731249999999999,0.494152,0.023629999999999998,-0.24389249999999998,0.715322,0.0014780000000000019,0.1471875,0.475122,0.023042,0.2326075,0.7011919999999999,0.020754,-0.2928025,0.9513019999999999,-0.013866,0.2946275,0.934372,0.010301000000000001,-0.0626245,-0.0009689999999999976,0.0041340000000000005,0.0626245,0.0009690000000000046,-0.004133999999999999,-0.1231125,-0.379608,-0.042802,0.1262075,-0.379378,-0.025360999999999998,-0.1378325,-0.7415980000000001,-0.021574999999999997,0.1438075,-0.7295980000000001,-0.0005419999999999991
72,-0.004735499999999998,0.704176,0.007117500000000002,-0.14700449999999998,0.49405599999999994,0.020610500000000004,-0.2437845,0.715146,-0.0027384999999999996,0.1480255,0.474066,0.0206275,0.23304550000000002,0.700386,0.0171765,-0.2925045,0.951116,-0.0190095,0.29533550000000003,0.933516,0.0058735,-0.0626715,-0.0008809999999999998,0.004120500000000001,0.0626715,0.0008809999999999998,-0.004120499999999999,-0.12314449999999999,-0.378354,-0.0458425,0.1264255,-0.37953400000000004,-0.0288255,-0.13773449999999998,-0.740334,-0.0246865,0.1440255,-0.729034,-0.0036314999999999984
73,-0.004642499999999999,0.7039985000000001,0.0037960000000000008,-0.1468085,0.49389849999999996,0.017681,-0.2437885,0.7149385,-0.007023999999999999,0.1484415,0.4735185,0.01812,0.2334815,0.6998485000000001,0.013697,-0.2922685,0.9508985000000001,-0.024898999999999998,0.2959715,0.9329985000000001,0.001549,-0.0627615,-0.0007974999999999996,0.004015000000000001,0.0627615,0.0007974999999999996,-0.0040149999999999995,-0.1233585,-0.37643150000000003,-0.049194,0.1268615,-0.3792515,-0.03308,-0.13762850000000001,-0.7389914999999999,-0.0279,0.1442015,-0.7284615,-0.006862999999999999
74,-0.004624999999999997,0.7035865,0.0005199999999999996,-0.146687,0.4933765,0.014775999999999997,-0.243867,0.7142565,-0.011341,0.148743,0.4729765,0.015608999999999998,0.233873,0.6992364999999999,0.010155999999999998,-0.29218700000000003,0.9502864999999999,-0.030433,0.296443,0.9324264999999999,-0.0027160000000000014,-0.062836,-0.0007744999999999974,0.0037750000000000006,0.062836,0.0007745000000000044,-0.0037750000000000006,-0.123707,-0.3749835,-0.052788,0.127223,-0.37910350000000004,-0.037483,-0.13764700000000002,-0.7377135,-0.031181,0.144363,-0.7277835,-0.010296000000000001
75,-0.0046380000000000015,0.702873,-0.0024579999999999984,-0.14663,0.49273300000000003,0.011914000000000001,-0.24405000000000002,0.713433,-0.015347999999999999,0.14897,0.472423,0.012771999999999999,0.23431,0.698633,0.006904,-0.29209999999999997,0.949513,-0.035600999999999994,0.29671000000000003,0.9319029999999999,-0.006482999999999999,-0.062916,-0.0006999999999999992,0.0035400000000000015,0.062916,0.0006999999999999992,-0.003539999999999998,-0.124,-0.374357,-0.056871,0.1276,-0.379037,-0.042328,-0.13767000000000001,-0.737087,-0.034767,0.14446,-0.727157,-0.013995999999999998
76,-0.004721500000000002,0.7016605,-0.005434500000000002,-0.1466325,0.4922605,0.0090475,-0.24450249999999998,0.7127305,-0.0194245,0.1488475,0.4723005,0.009757500000000002,0.23476750000000002,0.6984205,0.003647499999999998,-0.29226250000000004,0.9487805,-0.0405345,0.29686749999999995,0.9317305,-0.0101875,-0.06296750000000001,-0.0006385000000000002,0.003374499999999999,0.06296750000000001,0.0006385000000000002,-0.003374499999999999,-0.1244325,-0.3738895,-0.0611035,0.12791750000000002,-0.3792395,-0.0474165,-0.1377525,-0.7366195,-0.0384875,0.1445375,-0.7266895,-0.0177585
77,-0.004823999999999998,0.7002255,-0.008372499999999998,-0.146673,0.49190550000000005,0.0062205,-0.245033,0.7120755000000001,-0.0234225,0.148727,0.4722055,0.0067855,0.23527700000000001,0.6981955,0.0004264999999999998,-0.29262299999999997,0.9480955,-0.0454155,0.297087,0.9315454999999999,-0.0138395,-0.062996,-0.0005454999999999974,0.003207500000000002,0.062996,0.0005455000000000043,-0.0032074999999999985,-0.124973,-0.3733745,-0.06579650000000001,0.12839699999999998,-0.3793145,-0.053026500000000004,-0.137863,-0.7361044999999999,-0.042236499999999996,0.14458700000000002,-0.7261745,-0.0215325
78,-0.004985999999999996,0.6986205,-0.011422499999999999,-0.14673399999999998,0.4916404999999999,0.003409500000000003,-0.245134,0.7114305,-0.0275505,0.148546,0.4719805,0.003967500000000006,0.23572600000000002,0.6978004999999999,-0.0029704999999999974,-0.292644,0.9475405,-0.050347499999999996,0.29769599999999996,0.9311404999999999,-0.0177885,-0.063033,-0.0004484999999999975,0.0030335000000000015,0.063033,0.00044850000000000445,-0.003033499999999998,-0.125694,-0.37321950000000004,-0.0719155,0.129056,-0.3790395,-0.0590785,-0.13788399999999998,-0.7345795,-0.0462095,0.144846,-0.7249695,-0.0257545
79,-0.005056500000000004,0.6968070000000001,-0.0146545,-0.14667750000000002,0.49156700000000003,0.0004704999999999987,-0.2451275,0.7109270000000001,-0.0318675,0.1484525,0.47167699999999996,0.0009245000000000017,0.2363125,0.697257,-0.006659500000000002,-0.2925875,0.9470970000000001,-0.055468500000000004,0.29844249999999994,0.930547,-0.0220345,-0.0630725,-0.00035199999999999815,0.0028344999999999967,0.0630725,0.00035199999999999815,-0.0028345,-0.1263275,-0.37323300000000004,-0.0782525,0.1299325,-0.37833300000000003,-0.0653755,-0.1377575,-0.732733,-0.0502595,0.1451725,-0.7234029999999999,-0.0302095
80,-0.0050880000000000005,0.695143,-0.017870999999999998,-0.146529,0.491773,-0.002477999999999994,-0.245049,0.710753,-0.036104,0.148291,0.471603,-0.002127999999999998,0.236951,0.696923,-0.010460999999999998,-0.29242900000000005,0.946933,-0.060805,0.29949099999999995,0.9301429999999999,-0.026351,-0.063113,-0.0003140000000000018,0.0027490000000000014,0.063113,0.0003140000000000018,-0.002748999999999998,-0.126869,-0.373217,-0.08452,0.130871,-0.377527,-0.07167,-0.137719,-0.730587,-0.054202,0.145481,-0.721547,-0.034627
81,-0.004997499999999999,0.693856,-0.021406,-0.1461715,0.490626,-0.005253000000000001,-0.2451315,0.709476,-0.040547,0.1477185,0.470716,-0.005381999999999998,0.2376785,0.695676,-0.014758,-0.29204149999999995,0.945576,-0.066831,0.30065850000000005,0.928726,-0.031296,-0.0631615,-0.00027699999999999947,0.0026339999999999975,0.0631615,0.00027699999999999947,-0.0026339999999999975,-0.1274815,-0.372294,-0.091199,0.1318185,-0.376034,-0.07818,-0.13760150000000002,-0.727444,-0.05851,0.1457485,-0.718554,-0.039277
82,-0.004802000000000004,0.6923735,-0.024721,-0.145733,0.48936350000000006,-0.007857999999999997,-0.245213,0.7081035,-0.045189999999999994,0.147397,0.46945349999999997,-0.008442999999999999,0.238467,0.6939335,-0.019513,-0.291343,0.9442235,-0.072623,0.302407,0.9267235,-0.036767999999999995,-0.063217,-0.0002484999999999987,0.0026370000000000005,0.063217,0.0002484999999999987,-0.0026370000000000005,-0.128013,-0.3708265,-0.097857,0.132657,-0.37327649999999996,-0.084244,-0.13736299999999999,-0.7235165,-0.062649,0.146057,-0.7149765,-0.043842
83,-0.004438500000000001,0.690847,-0.028341000000000005,-0.14529150000000002,0.48847700000000005,-0.010704000000000005,-0.2451615,0.7071770000000001,-0.050269,0.14702849999999998,0.46820700000000004,-0.011870000000000006,0.23927849999999998,0.692217,-0.024687000000000004,-0.29067149999999997,0.943327,-0.079175,0.3042885,0.924687,-0.042820000000000004,-0.0632285,-0.0001989999999999978,0.0026609999999999967,0.0632285,0.00019900000000000473,-0.0026610000000000036,-0.1287415,-0.368513,-0.10519200000000001,0.1335785,-0.369263,-0.090963,-0.1370615,-0.718513,-0.067096,0.1464085,-0.710123,-0.048746000000000005
84,-0.004112000000000001,0.6894334999999999,-0.0318965,-0.14486,0.4876535,-0.0134535,-0.24498999999999999,0.7061335,-0.0554785,0.1465,0.4665535,-0.015234499999999998,0.23999,0.6900735,-0.0298515,-0.28996,0.9424035,-0.0856735,0.30623,0.9222134999999999,-0.048897499999999997,-0.063226,-0.0001454999999999998,0.0025975000000000026,0.063226,0.0001454999999999998,-0.0025975000000000026,-0.1295,-0.36640649999999997,-0.11237449999999999,0.13449,-0.3647265,-0.0975515,-0.13677,-0.7133765000000001,-0.0713135,0.14678,-0.7050465,-0.0536395
85,-0.003816999999999996,0.6881225,-0.03543,-0.14441299999999999,0.48674249999999997,-0.01641,-0.24429299999999998,0.7049325000000001,-0.060627,0.145897,0.4649325,-0.018598000000000003,0.240677,0.6879725,-0.034985,-0.288883,0.9413625,-0.092192,0.308177,0.9197425,-0.055089,-0.063236,-9.94999999999989e-05,0.002599999999999998,0.063236,9.950000000000236e-05,-0.002600000000000005,-0.130403,-0.3647475,-0.11962300000000001,0.135387,-0.3591875,-0.103961,-0.13655299999999998,-0.7078475,-0.075222,0.147157,-0.6995374999999999,-0.058438000000000004
86,-0.0035169999999999997,0.686446,-0.038975,-0.143836,0.486056,-0.019431999999999998,-0.243586,0.703886,-0.065767,0.145304,0.463626,-0.021990000000000003,0.241514,0.686126,-0.040162,-0.287666,0.937736,-0.100843,0.311284,0.916916,-0.063333,-0.063285,-6.899999999999962e-05,0.002599999999999998,0.063285,6.899999999999962e-05,-0.002599999999999998,-0.131256,-0.362684,-0.12642399999999998,0.136174,-0.353894,-0.109925,-0.136326,-0.702194,-0.079269,0.14757399999999998,-0.693744,-0.06317
87,-0.003189999999999998,0.684686,-0.042307500000000005,-0.14332599999999998,0.485456,-0.021942500000000004,-0.242916,0.702676,-0.0705755,0.144684,0.46271599999999996,-0.024912500000000004,0.242424,0.6843359999999999,-0.045241500000000004,-0.286456,0.934296,-0.1091705,0.313794,0.914506,-0.0710785,-0.063339,-3.500000000000031e-05,0.0025994999999999976,0.063339,3.500000000000031e-05,-0.0025995000000000046,-0.13200599999999998,-0.359224,-0.1318215,0.137024,-0.348964,-0.11555950000000001,-0.13608599999999998,-0.696704,-0.0829305,0.148074,-0.687984,-0.0675885
88,-0.0028135000000000013,0.6836080000000001,-0.045782,-0.1427825,0.483918,-0.024882,-0.2421025,0.701188,-0.07535700000000001,0.1442275,0.461888,-0.028152,0.2432375,0.682818,-0.050387,-0.2849025,0.9317380000000001,-0.117458,0.3161275,0.912408,-0.078724,-0.06343950000000001,-1.4000000000000015e-05,0.002607999999999999,0.06343950000000001,1.3999999999999988e-05,-0.002607999999999999,-0.1327225,-0.354552,-0.137332,0.1378675,-0.343722,-0.121221,-0.1358825,-0.690762,-0.086679,0.1485775,-0.6816319999999999,-0.072123
89,-0.0023934999999999976,0.6827015,-0.0490645,-0.1421965,0.4823515,-0.027646499999999997,-0.2412765,0.6996815,-0.0799375,0.14384349999999999,0.4609215,-0.031136499999999994,0.2441335,0.6812615,-0.055196499999999996,-0.2833265,0.9297915,-0.1254165,0.3183035,0.9102714999999999,-0.08598549999999999,-0.06352350000000001,5.949999999999966e-05,0.0024744999999999975,0.06352350000000001,-5.9500000000000525e-05,-0.0024744999999999975,-0.1334165,-0.3494285,-0.1427625,0.1387735,-0.3380885,-0.1266035,-0.1356065,-0.6844185,-0.09028349999999999,0.1490935,-0.6747885,-0.0764765
90,-0.0021480000000000006,0.6817920000000001,-0.051875500000000005,-0.14179,0.482252,-0.03007950000000001,-0.24062,0.699442,-0.0840265,0.14387,0.460742,-0.03372150000000001,0.24491,0.680652,-0.05924850000000001,-0.28223,0.9292520000000001,-0.1323135,0.32027,0.909142,-0.0923195,-0.063599,0.00013800000000000097,0.002286499999999997,0.063599,-0.00013799999999999923,-0.002286500000000004,-0.13392,-0.34494800000000003,-0.1475265,0.13969,-0.332548,-0.1313765,-0.13533,-0.678368,-0.09368850000000001,0.14959,-0.668338,-0.0804465
91,-0.002095000000000003,0.6812210000000001,-0.05479900000000001,-0.141501,0.48195099999999996,-0.03256300000000001,-0.23991099999999999,0.699091,-0.08791600000000001,0.14370899999999998,0.46081099999999997,-0.03632200000000001,0.245579,0.680431,-0.06294300000000001,-0.28131100000000003,0.928601,-0.138934,0.321629,0.908441,-0.098293,-0.063692,0.00016500000000000195,0.002012,0.063692,-0.00016499999999999848,-0.002012,-0.134641,-0.340629,-0.15222200000000002,0.14059899999999997,-0.32749900000000004,-0.13604500000000003,-0.13531100000000001,-0.671999,-0.097058,0.149959,-0.661389,-0.084404
92,-0.0019544999999999996,0.6805275,-0.057496500000000006,-0.1410045,0.48176749999999996,-0.0347295,-0.2390545,0.6986475,-0.09150050000000001,0.1435855,0.4608775,-0.03862950000000001,0.2464155,0.6801775,-0.06625750000000001,-0.2802845,0.9278474999999999,-0.1451075,0.3228755,0.9077275,-0.10395650000000001,-0.0637355,0.00018649999999999917,0.0017534999999999912,0.0637355,-0.00018649999999999917,-0.001753500000000005,-0.1350645,-0.3339925,-0.15608850000000002,0.1415555,-0.3213825,-0.1399555,-0.1351345,-0.6664525,-0.10033650000000001,0.1503055,-0.6556425,-0.08779450000000001
93,-0.0016735000000000022,0.679524,-0.0610705,-0.1405265,0.480994,-0.0382775,-0.2386665,0.6976739999999999,-0.0966275,0.14359349999999999,0.461204,-0.0416745,0.2474035,0.680124,-0.0706235,-0.2795765,0.9265939999999999,-0.15269749999999999,0.32474349999999996,0.907214,-0.11100850000000001,-0.0637905,0.00010100000000000386,0.0015674999999999994,0.0637905,-0.00010099999999999693,-0.0015674999999999994,-0.1355165,-0.326096,-0.1603515,0.1425335,-0.314106,-0.1443125,-0.13493650000000001,-0.6595359999999999,-0.10437450000000001,0.1506635,-0.6485460000000001,-0.0917295
94,-0.0009745000000000018,0.679138,-0.069221,-0.1397525,0.48071800000000003,-0.04641100000000001,-0.2378625,0.697408,-0.10536500000000001,0.1439375,0.462338,-0.049274000000000005,0.24876749999999997,0.680888,-0.07964800000000001,-0.2782425,0.925878,-0.16435300000000003,0.3269775,0.907548,-0.12266400000000001,-0.0638135,8.700000000000374e-05,0.0012409999999999921,0.0638135,-8.69999999999968e-05,-0.001241000000000006,-0.13550250000000003,-0.317592,-0.168888,0.14408749999999998,-0.306182,-0.15341100000000002,-0.1343225,-0.651982,-0.11299500000000001,0.15132749999999998,-0.640772,-0.100021
95,-0.0002279999999999986,0.6799919999999999,-0.07750800000000001,-0.138488,0.47927200000000003,-0.05495900000000001,-0.23702800000000002,0.696222,-0.11421300000000001,0.144322,0.46301200000000003,-0.057053000000000006,0.250152,0.681022,-0.08977600000000001,-0.277278,0.926812,-0.17416500000000001,0.328582,0.908092,-0.132562,-0.063802,0.0001229999999999981,0.0008629999999999888,0.063802,-0.0001229999999999981,-0.0008630000000000027,-0.13611800000000002,-0.307598,-0.181157,0.146482,-0.297658,-0.165572,-0.133638,-0.6434580000000001,-0.121479,0.151762,-0.6321880000000001,-0.108295
96,0.0005520000000000004,0.6806685,-0.086202,-0.136957,0.4776985,-0.063853,-0.235427,0.6944185,-0.12323999999999999,0.144763,0.4643385,-0.064969,0.251093,0.6821285,-0.100037,-0.276247,0.9266785000000001,-0.184194,0.329783,0.9089785,-0.143944,-0.063827,2.2499999999994746e-05,0.0005210000000000076,0.063827,-2.2500000000008624e-05,-0.0005209999999999937,-0.136787,-0.29746150000000005,-0.19364599999999998,0.148933,-0.2885215,-0.178028,-0.132887,-0.6342515,-0.13015,0.151973,-0.6232814999999999,-0.116633
97,0.0013444999999999972,0.680845,-0.094672,-0.13533650000000003,0.476765,-0.07258300000000001,-0.23035650000000002,0.688635,-0.131891,0.1450735,0.466185,-0.07264000000000001,0.2520135,0.683495,-0.110204,-0.2733065,0.921205,-0.19397999999999999,0.3311635,0.910165,-0.155117,-0.0638425,-0.00010100000000000386,0.00025599999999999234,0.0638425,0.00010100000000000386,-0.0002560000000000062,-0.13752650000000002,-0.288435,-0.205854,0.1513435,-0.281165,-0.19026900000000002,-0.1322865,-0.625535,-0.13859,0.15211349999999998,-0.614905,-0.124665
98,0.0020900000000000033,0.680895,-0.10311,-0.133702,0.475885,-0.08115299999999999,-0.22553199999999998,0.683085,-0.140716,0.145378,0.467795,-0.08055899999999999,0.253158,0.684595,-0.12064399999999999,-0.269802,0.915285,-0.203646,0.331788,0.911115,-0.16644599999999998,-0.063901,-0.00014999999999999736,5.0000000000050004e-06,0.063901,0.00014999999999999736,-4.999999999991123e-06,-0.138322,-0.279645,-0.218045,0.153788,-0.273825,-0.20262599999999997,-0.131762,-0.616985,-0.146892,0.151988,-0.606885,-0.132661
99,0.002640999999999999,0.6813889999999999,-0.11164,-0.131872,0.47379899999999997,-0.090003,-0.222402,0.677399,-0.149792,0.145818,0.46799899999999994,-0.08923400000000001,0.25358800000000004,0.6846089999999999,-0.131367,-0.267332,0.909219,-0.21357500000000001,0.332218,0.9109389999999999,-0.178073,-0.063954,-0.00020500000000001073,-0.00019500000000000073,0.063954,0.00020499999999999685,0.00019499999999998685,-0.13925200000000001,-0.27110100000000004,-0.230445,0.156288,-0.266791,-0.21518500000000002,-0.131292,-0.6084010000000001,-0.15491300000000002,0.151718,-0.598831,-0.14058
100,0.002943999999999999,0.68223,-0.12037899999999999,-0.13029600000000002,0.47242,-0.09916599999999999,-0.22037600000000002,0.67282,-0.158827,0.146044,0.46785,-0.098213,0.253724,0.68431,-0.142089,-0.266276,0.90422,-0.223515,0.332494,0.9103100000000001,-0.18972699999999998,-0.063973,-0.00023999999999999022,-0.0003549999999999942,0.063973,0.0002400000000000041,0.0003550000000000081,-0.140496,-0.26178,-0.243055,0.15849400000000002,-0.25844,-0.228055,-0.13103599999999999,-0.59899,-0.16324499999999997,0.15084399999999998,-0.59033,-0.14851799999999998
101,0.0032494999999999976,0.6831349999999999,-0.12901200000000002,-0.1288845,0.470825,-0.10843600000000002,-0.2187345,0.668365,-0.16765200000000002,0.1461755,0.467435,-0.10731000000000002,0.2539455,0.683375,-0.15297700000000003,-0.2655145,0.899315,-0.233665,0.3327955,0.9093749999999999,-0.20120900000000003,-0.0639805,-0.00032500000000000584,-0.0004850000000000132,0.0639805,0.00032499999999999196,0.00048499999999998544,-0.1417545,-0.25200500000000003,-0.255705,0.1607555,-0.24989500000000003,-0.241075,-0.1307645,-0.589145,-0.171306,0.1499755,-0.581245,-0.15642
102,0.003548999999999998,0.684,-0.136709,-0.127295,0.46957,-0.11659,-0.21765500000000002,0.66376,-0.175712,0.146135,0.4664,-0.115841,0.25422500000000003,0.68216,-0.162577,-0.264975,0.89411,-0.242425,0.333105,0.90805,-0.211385,-0.063995,-0.00027000000000000635,-0.0006049999999999944,0.063995,0.00026999999999999247,0.0006049999999999944,-0.143095,-0.24301,-0.267905,0.162995,-0.24209999999999998,-0.253685,-0.130535,-0.58015,-0.178419,0.148865,-0.57324,-0.163592
103,0.0036549999999999994,0.6833199999999999,-0.140523,-0.12598600000000001,0.46773,-0.12078800000000002,-0.216956,0.66008,-0.17971600000000001,0.145774,0.46391,-0.12025100000000002,0.254204,0.67946,-0.16793400000000003,-0.26456599999999997,0.88934,-0.24933000000000002,0.333094,0.9052800000000001,-0.21773200000000004,-0.064016,-0.0002500000000000002,-0.0007300000000000084,0.064016,0.0002500000000000002,0.0007299999999999807,-0.144816,-0.23279,-0.27627,0.164734,-0.23288000000000003,-0.26242,-0.130586,-0.57023,-0.181321,0.147414,-0.56444,-0.166693
104,0.003624999999999998,0.6817850000000001,-0.144353,-0.12528,0.466785,-0.12474500000000001,-0.21611000000000002,0.657535,-0.18407,0.14515999999999998,0.461645,-0.12466,0.25462,0.6772750000000001,-0.172237,-0.26437,0.886085,-0.25616500000000003,0.33341000000000004,0.902795,-0.223804,-0.064148,-0.0002849999999999797,-0.0007650000000000157,0.064148,0.00028500000000000747,0.0007649999999999879,-0.14606000000000002,-0.222715,-0.28108500000000003,0.16557,-0.22374499999999997,-0.268265,-0.13065000000000002,-0.5606850000000001,-0.184006,0.14611,-0.555815,-0.169772
105,0.003504,0.68041,-0.148623,-0.124909,0.46509,-0.12925799999999998,-0.216139,0.65626,-0.18964199999999998,0.14450100000000002,0.45831,-0.12975899999999999,0.254951,0.67409,-0.177707,-0.264499,0.88432,-0.26443,0.333791,0.89948,-0.230069,-0.064158,-0.00019000000000002348,-0.0007899999999999852,0.064158,0.00018999999999999573,0.0007900000000000129,-0.147309,-0.21105000000000002,-0.28647,0.166171,-0.21258,-0.27475,-0.130719,-0.54995,-0.187172,0.14489100000000002,-0.54545,-0.17330399999999999
106,0.003472500000000001,0.678825,-0.153304,-0.12469749999999999,0.46331500000000003,-0.133974,-0.2156475,0.658855,-0.196141,0.14379250000000002,0.45421500000000004,-0.135079,0.2545125,0.6701349999999999,-0.183536,-0.2642575,0.883865,-0.275065,0.3336425,0.895385,-0.236929,-0.0640645,-9.500000000001174e-05,-0.0009349999999999914,0.0640645,9.500000000001174e-05,0.0009349999999999914,-0.1484675,-0.198495,-0.292155,0.16677250000000002,-0.20167500000000002,-0.281505,-0.1307075,-0.538325,-0.19054,0.1437225,-0.534165,-0.176654
107,0.002912000000000002,0.6761900000000001,-0.158333,-0.124918,0.46038,-0.138876,-0.21570799999999998,0.65991,-0.203893,0.142742,0.4509,-0.140236,0.253552,0.66595,-0.190237,-0.264968,0.8834200000000001,-0.286195,0.33329200000000003,0.89114,-0.245589,-0.064124,-0.0002500000000000002,-0.0011150000000000049,0.064124,0.0002500000000000002,0.0011150000000000049,-0.14984799999999998,-0.18980999999999998,-0.297815,0.166872,-0.19172,-0.28803500000000004,-0.131158,-0.5260499999999999,-0.193334,0.142372,-0.52271,-0.180042
108,0.002103500000000002,0.673185,-0.16336900000000001,-0.1254015,0.45828500000000005,-0.14385,-0.2157715,0.660255,-0.211711,0.1416585,0.449365,-0.14472500000000002,0.2527185,0.663375,-0.196887,-0.26524149999999996,0.883035,-0.29695499999999997,0.3330285,0.8883850000000001,-0.254095,-0.0641715,-0.0004750000000000032,-0.001365000000000005,0.0641715,0.0004750000000000032,0.0013649999999999773,-0.1511915,-0.181125,-0.303275,0.1667985,-0.181665,-0.294175,-0.1317215,-0.513895,-0.19601100000000002,0.1410385,-0.5113249999999999,-0.18341000000000002
109,0.0012949999999999984,0.669655,-0.168356,-0.12585,0.455545,-0.148627,-0.21911999999999998,0.6595150000000001,-0.220516,0.14082,0.446445,-0.149496,0.25171,0.659745,-0.203424,-0.26800999999999997,0.881095,-0.308805,0.3325,0.884535,-0.262285,-0.064264,-0.0005850000000000022,-0.0016049999999999953,0.064264,0.0005850000000000022,0.0016049999999999953,-0.1522,-0.173155,-0.308185,0.16675,-0.172315,-0.299635,-0.13224999999999998,-0.503445,-0.198588,0.13979,-0.500875,-0.186298
110,0.00045599999999999894,0.666415,-0.17383200000000001,-0.126365,0.453055,-0.15369,-0.219285,0.658245,-0.229273,0.14008500000000002,0.443885,-0.15437700000000001,0.251035,0.6570050000000001,-0.210003,-0.26809499999999997,0.878995,-0.320685,0.332035,0.880955,-0.27120500000000003,-0.064329,-0.0006749999999999812,-0.0018549999999999955,0.064329,0.0006750000000000089,0.0018549999999999955,-0.153235,-0.165385,-0.312965,0.166525,-0.16341499999999998,-0.304895,-0.132615,-0.493445,-0.201146,0.138465,-0.49087499999999995,-0.189215
111,-0.00036699999999999754,0.662845,-0.17926499999999998,-0.12719,0.450105,-0.15880199999999997,-0.21961,0.657885,-0.23799499999999998,0.13944,0.441585,-0.15894199999999997,0.25105,0.654485,-0.21701499999999999,-0.2682,0.877505,-0.33247499999999997,0.33196000000000003,0.878045,-0.280985,-0.064378,-0.0009349999999999914,-0.0019349999999999923,0.064378,0.0009349999999999914,0.00193500000000002,-0.15429,-0.158005,-0.317445,0.16617,-0.155345,-0.30983499999999997,-0.13309,-0.484925,-0.20356899999999997,0.13721,-0.48144499999999996,-0.192046
112,-0.0010149999999999977,0.6602650000000001,-0.18404800000000002,-0.127943,0.447465,-0.16332700000000003,-0.219973,0.656325,-0.245668,0.13886700000000002,0.43996500000000005,-0.16309,0.25060699999999997,0.652115,-0.22319300000000003,-0.26843300000000003,0.8752850000000001,-0.341445,0.33103699999999997,0.875165,-0.289145,-0.06449099999999999,-0.0011249999999999871,-0.0017550000000000066,0.06449099999999999,0.0011250000000000149,0.0017549999999999788,-0.155163,-0.15092499999999998,-0.321075,0.16578700000000002,-0.14781499999999997,-0.31369500000000006,-0.13322299999999998,-0.476805,-0.20519400000000002,0.13603700000000002,-0.47246499999999997,-0.19407400000000002
113,-0.0016359999999999986,0.65735,-0.18857999999999997,-0.128807,0.44448,-0.16776099999999997,-0.220537,0.65029,-0.252756,0.138303,0.43828999999999996,-0.16699999999999998,0.250143,0.6494800000000001,-0.230257,-0.268637,0.86874,-0.35046499999999997,0.33036299999999996,0.87206,-0.29767499999999997,-0.064627,-0.0013300000000000256,-0.0014849999999999863,0.064627,0.0013299999999999979,0.001485000000000014,-0.155987,-0.14404,-0.324335,0.165373,-0.14046000000000003,-0.31715499999999996,-0.13336699999999999,-0.46894,-0.20662499999999998,0.134583,-0.46426999999999996,-0.19484799999999997
114,-0.002092,0.6548,-0.192251,-0.129646,0.44225000000000003,-0.17150100000000001,-0.221056,0.64412,-0.258012,0.137894,0.43846,-0.17002,0.249924,0.6481600000000001,-0.23609000000000002,-0.26903600000000005,0.86172,-0.35801000000000005,0.329904,0.87054,-0.30493000000000003,-0.064898,-0.0011599999999999944,-0.0012400000000000189,0.064898,0.0011600000000000221,0.0012399999999999911,-0.156926,-0.13723999999999997,-0.32687,0.165284,-0.13378999999999996,-0.32065,-0.133146,-0.46134,-0.206377,0.133364,-0.45641,-0.194888
115,-0.002237,0.652245,-0.195599,-0.13008,0.44020499999999996,-0.17497,-0.22068,0.6383749999999999,-0.26245799999999997,0.13771,0.439175,-0.172793,0.24999,0.644835,-0.24163099999999998,-0.26821,0.857815,-0.36324500000000004,0.33013,0.866905,-0.31210499999999997,-0.065208,-0.0008750000000000147,-0.0009550000000000114,0.065208,0.0008750000000000147,0.0009550000000000114,-0.15756,-0.13105500000000003,-0.32898499999999997,0.16554,-0.12810500000000002,-0.323935,-0.13258,-0.454315,-0.20585799999999999,0.13249,-0.44920499999999997,-0.194655
116,-0.002276000000000004,0.65067,-0.198875,-0.13037,0.43895999999999996,-0.178402,-0.22014,0.6339299999999999,-0.26598,0.13774,0.4376399999999999,-0.175801,0.25037,0.64255,-0.246006,-0.26802,0.8536999999999999,-0.368045,0.3304,0.8641,-0.317735,-0.06547800000000001,-0.00030000000000002247,-0.0005149999999999877,0.06547800000000001,0.00029999999999996696,0.0005149999999999877,-0.15822,-0.12398000000000003,-0.331055,0.16587,-0.12157000000000007,-0.32759499999999997,-0.13211,-0.44632000000000005,-0.20637,0.13169999999999998,-0.44094,-0.194435
117,-0.002287999999999995,0.6487,-0.202043,-0.130899,0.43794,-0.181392,-0.219499,0.62894,-0.268569,0.137771,0.43537000000000003,-0.178576,0.250521,0.6401600000000001,-0.250091,-0.26786899999999997,0.84809,-0.3724,0.330341,0.86135,-0.32314,-0.06578300000000001,0.00035000000000001696,-3.0000000000002247e-05,0.06578300000000001,-0.00035000000000001696,3.0000000000002247e-05,-0.158999,-0.11726999999999999,-0.33289,0.166081,-0.11496,-0.33111999999999997,-0.13169899999999998,-0.43857,-0.206737,0.130941,-0.43289999999999995,-0.194035
118,-0.002301500000000005,0.6469,-0.205009,-0.1313985,0.43679,-0.18404399999999999,-0.2189885,0.62489,-0.271849,0.13779149999999998,0.43481,-0.180391,0.2506215,0.6394299999999999,-0.253921,-0.26715849999999997,0.8437399999999999,-0.37773999999999996,0.3303115,0.86031,-0.32891000000000004,-0.0660505,0.0008999999999999564,0.0004699999999999982,0.0660505,-0.0009000000000000119,-0.0004699999999999982,-0.1598985,-0.10925000000000001,-0.33472,0.1663615,-0.10690000000000005,-0.33462000000000003,-0.1312785,-0.4295,-0.206983,0.1306215,-0.42341000000000006,-0.194123
119,-0.002197499999999997,0.644045,-0.20757599999999998,-0.1317835,0.435685,-0.186354,-0.2186535,0.620975,-0.275097,0.1379165,0.43437499999999996,-0.18190199999999998,0.25057650000000004,0.6385449999999999,-0.257434,-0.2664335,0.8386549999999999,-0.38369,0.3298565,0.8593649999999999,-0.33403,-0.0662655,0.0014949999999999686,0.0008200000000000152,0.0662655,-0.001495000000000024,-0.0008199999999999874,-0.1607135,-0.10134500000000002,-0.33657,0.1666765,-0.09884500000000002,-0.33818,-0.1309935,-0.420195,-0.20737199999999997,0.1305165,-0.41376500000000005,-0.19427199999999997
120,-0.0019379999999999992,0.6418200000000001,-0.21001799999999998,-0.132016,0.43462,-0.188348,-0.218366,0.61759,-0.27854,0.138204,0.43423999999999996,-0.18329,0.250734,0.63789,-0.260463,-0.265726,0.83446,-0.38915,0.330004,0.85835,-0.33826,-0.06639400000000001,0.0021499999999999853,0.0011099999999999999,0.06639400000000001,-0.0021500000000000408,-0.0011099999999999999,-0.161366,-0.09230000000000005,-0.33845000000000003,0.167074,-0.08996000000000004,-0.34165,-0.13059600000000002,-0.40975000000000006,-0.207582,0.130554,-0.4032,-0.194508
121,-0.0016639999999999984,0.6396649999999999,-0.212129,-0.13223400000000002,0.43365499999999996,-0.189863,-0.217854,0.614675,-0.28205,0.138516,0.433955,-0.184328,0.251286,0.6376249999999999,-0.26330200000000004,-0.26496400000000003,0.830905,-0.39476,0.33067599999999997,0.857795,-0.34189,-0.066473,0.002754999999999952,0.0013199999999999878,0.066473,-0.0027550000000000074,-0.0013199999999999878,-0.162014,-0.08322500000000005,-0.34042,0.167436,-0.08106500000000005,-0.34502,-0.130184,-0.399265,-0.207787,0.13097599999999998,-0.392505,-0.19575
122,-0.0011874999999999993,0.63778,-0.214108,-0.1324725,0.43315000000000003,-0.190848,-0.21689250000000002,0.61642,-0.285475,0.13867749999999998,0.434,-0.18487199999999998,0.25170750000000003,0.63774,-0.264565,-0.26444249999999997,0.8316,-0.400085,0.3312875,0.85765,-0.344555,-0.06660949999999999,0.0033600000000000296,0.0016450000000000076,0.06660949999999999,-0.003359999999999974,-0.0016449999999999798,-0.16255250000000002,-0.07405,-0.342245,0.1677275,-0.07234999999999997,-0.34819500000000003,-0.1297025,-0.38939,-0.207926,0.1315575,-0.38151,-0.196839
123,-0.000533500000000004,0.6357299999999999,-0.215607,-0.1325335,0.43248,-0.191338,-0.2159935,0.6183299999999999,-0.288725,0.1389365,0.43229999999999996,-0.185302,0.2520865,0.6366499999999999,-0.265256,-0.2638535,0.83268,-0.405095,0.3316865,0.8559599999999999,-0.346905,-0.0668665,0.003589999999999982,0.0020550000000000013,0.0668665,-0.0035900000000000376,-0.0020550000000000013,-0.1627535,-0.06587000000000004,-0.343765,0.1680765,-0.06396000000000002,-0.349895,-0.1294035,-0.3804700000000001,-0.208339,0.1323365,-0.37183,-0.197716
124,0.0001940000000000008,0.6336949999999999,-0.216701,-0.132421,0.43093699999999996,-0.191687,-0.215431,0.619995,-0.291615,0.139309,0.43076899999999996,-0.185632,0.252779,0.638155,-0.265581,-0.263201,0.833755,-0.409405,0.332299,0.857105,-0.348475,-0.06719,0.003644999999999954,0.0025249999999999995,0.06719,-0.0036450000000000093,-0.0025249999999999995,-0.162811,-0.056725000000000025,-0.345225,0.16855900000000001,-0.05428500000000003,-0.351215,-0.129001,-0.370645,-0.208667,0.132909,-0.36173500000000003,-0.197404
125,0.0011835000000000027,0.631505,-0.21710400000000002,-0.1321125,0.429934,-0.19176,-0.2175125,0.622025,-0.294225,0.1398075,0.429967,-0.185619,0.2534375,0.638265,-0.265759,-0.2646625,0.833075,-0.413555,0.3331375,0.857015,-0.34935499999999997,-0.0675035,0.003695000000000004,0.0028650000000000064,0.0675035,-0.003695000000000004,-0.0028650000000000064,-0.1626225,-0.046715000000000007,-0.34631500000000004,0.16920749999999998,-0.04383500000000001,-0.351845,-0.1284825,-0.36014500000000005,-0.20872200000000002,0.13365749999999998,-0.350935,-0.19731900000000002
126,0.0023220000000000064,0.6291,-0.217164,-0.1316,0.42889600000000005,-0.191686,-0.21773,0.62529,-0.29633,0.14041,0.42942300000000005,-0.185415,0.2541,0.6377900000000001,-0.26571500000000003,-0.26482,0.83467,-0.41653,0.3343,0.85598,-0.34984000000000004,-0.067662,0.003740000000000021,0.003030000000000005,0.067662,-0.0037399999999999656,-0.003030000000000005,-0.16219999999999998,-0.036569999999999936,-0.34709999999999996,0.16992000000000002,-0.03304999999999997,-0.35223000000000004,-0.1278,-0.34922,-0.20921800000000002,0.13452,-0.34019,-0.197075
127,0.003433000000000003,0.6271599999999999,-0.217072,-0.131114,0.428362,-0.191383,-0.217914,0.62748,-0.29741,0.140986,0.429227,-0.185026,0.255226,0.63727,-0.265622,-0.264924,0.83667,-0.41815,0.336316,0.85502,-0.3498,-0.06781100000000001,0.00383,0.003030000000000005,0.06781100000000001,-0.00383,-0.003030000000000005,-0.161674,-0.02731,-0.34781,0.170616,-0.023229999999999973,-0.35239,-0.127134,-0.33937,-0.209642,0.135326,-0.33086999999999994,-0.196653
128,0.004541000000000006,0.62608,-0.21699000000000002,-0.130545,0.427349,-0.19076100000000001,-0.217995,0.62985,-0.29811,0.141535,0.429116,-0.184178,0.25550500000000004,0.6368400000000001,-0.265317,-0.264495,0.83934,-0.41867,0.336685,0.85431,-0.34977,-0.06797500000000001,0.00381999999999999,0.003019999999999995,0.06797500000000001,-0.00381999999999999,-0.003019999999999995,-0.161135,-0.01761999999999997,-0.3486,0.171305,-0.01307999999999998,-0.35259,-0.12648500000000001,-0.32899,-0.20975,0.136305,-0.32048999999999994,-0.196581
129,0.005716499999999999,0.62501,-0.216908,-0.12987349999999998,0.42727,-0.190042,-0.2178335,0.63132,-0.29844,0.14217649999999998,0.429029,-0.182995,0.2561365,0.6362,-0.265092,-0.2640135,0.84118,-0.41876,0.3373165,0.85345,-0.34972,-0.0682045,0.003939999999999999,0.0030000000000000027,0.0682045,-0.003939999999999999,-0.002999999999999975,-0.1606435,-0.008130000000000026,-0.34958,0.17208649999999998,-0.0030300000000000327,-0.35284,-0.12577349999999998,-0.31881000000000004,-0.20987999999999998,0.1373565,-0.31031,-0.19658699999999998
130,0.006779,0.6239250000000001,-0.21638,-0.129239,0.42678900000000003,-0.189125,-0.217689,0.632245,-0.298145,0.142911,0.429439,-0.18165499999999998,0.25726099999999996,0.635365,-0.26409499999999997,-0.263529,0.842395,-0.41844499999999996,0.339201,0.852725,-0.348915,-0.06842699999999999,0.003954999999999986,0.003025,0.06842699999999999,-0.003954999999999986,-0.003025,-0.16030899999999998,0.0006950000000000012,-0.350225,0.172911,0.006325000000000025,-0.352925,-0.12514899999999998,-0.30927499999999997,-0.209663,0.138321,-0.300725,-0.196346
131,0.007887500000000006,0.622945,-0.215146,-0.1285465,0.426105,-0.187945,-0.2169665,0.632775,-0.29742,0.1435735,0.430049,-0.180021,0.2578135,0.632235,-0.262628,-0.2628065,0.8431850000000001,-0.41772,0.3396535,0.8498049999999999,-0.3473,-0.0687285,0.003915000000000002,0.002950000000000008,0.0687285,-0.003915000000000002,-0.0029499999999999804,-0.16005650000000002,0.009184999999999999,-0.35091,0.1738735,0.015415000000000012,-0.35285,-0.1244765,-0.300015,-0.209026,0.1390435,-0.291765,-0.19568999999999998
132,0.008966000000000002,0.622315,-0.21295499999999998,-0.127823,0.425742,-0.186158,-0.216283,0.633045,-0.29586,0.14410699999999999,0.430075,-0.17757699999999998,0.259077,0.629065,-0.26071599999999995,-0.262123,0.843655,-0.41616,0.341797,0.846685,-0.34565999999999997,-0.069178,0.003954999999999986,0.002920000000000006,0.069178,-0.003954999999999986,-0.002919999999999978,-0.15987300000000002,0.018455,-0.35123,0.174977,0.025365000000000026,-0.35233,-0.124033,-0.29020500000000005,-0.20757299999999998,0.139827,-0.282145,-0.194208
133,0.009998500000000002,0.62198,-0.2103,-0.12704749999999998,0.42644699999999996,-0.184081,-0.21546749999999998,0.63367,-0.293855,0.1445625,0.429733,-0.17485599999999998,0.2609125,0.6255,-0.25822999999999996,-0.2613475,0.8443499999999999,-0.41383499999999995,0.3438925,0.8430899999999999,-0.343435,-0.0695585,0.0040999999999999925,0.002915000000000001,0.0695585,-0.004100000000000048,-0.002915000000000001,-0.15971749999999998,0.02688999999999997,-0.351315,0.1761425,0.034599999999999964,-0.35157499999999997,-0.12363749999999998,-0.28119000000000005,-0.205732,0.1405525,-0.2735000000000001,-0.19216699999999998
134,0.010869999999999998,0.6216550000000001,-0.207249,-0.1262,0.426914,-0.18158899999999997,-0.21409999999999998,0.630245,-0.28930999999999996,0.14497000000000002,0.42929700000000004,-0.17199499999999998,0.26153,0.623835,-0.254167,-0.25982,0.843485,-0.40843999999999997,0.34442,0.841215,-0.33934,-0.069989,0.004215000000000024,0.002950000000000008,0.069989,-0.004214999999999969,-0.0029499999999999804,-0.15964,0.03432500000000005,-0.35109999999999997,0.17752,0.04269500000000004,-0.35045,-0.12334,-0.27361499999999994,-0.20330499999999999,0.14126,-0.2663249999999999,-0.189523
135,0.011559,0.62183,-0.203634,-0.125546,0.42772299999999996,-0.178407,-0.212956,0.62567,-0.284395,0.14527400000000001,0.42938,-0.16842300000000002,0.26295399999999997,0.62283,-0.25064600000000004,-0.258556,0.84042,-0.402355,0.345504,0.84051,-0.335795,-0.070409,0.004159999999999997,0.0028849999999999987,0.070409,-0.004159999999999997,-0.0028849999999999987,-0.159626,0.041679999999999995,-0.350615,0.178714,0.05038999999999999,-0.348525,-0.12321599999999999,-0.26639000000000007,-0.200268,0.141734,-0.25872,-0.18640800000000002
136,0.012032,0.62122,-0.19974199999999998,-0.125129,0.42758399999999996,-0.174752,-0.212609,0.62203,-0.27954999999999997,0.14554099999999998,0.42959899999999995,-0.164653,0.26388100000000003,0.62015,-0.246863,-0.258549,0.83707,-0.3979,0.346571,0.8383,-0.33209999999999995,-0.070731,0.004009999999999958,0.002810000000000007,0.070731,-0.0040100000000000136,-0.002809999999999979,-0.15940900000000002,0.048719999999999986,-0.34921,0.17973099999999997,0.05790999999999996,-0.34597,-0.12297899999999999,-0.25950000000000006,-0.196904,0.142131,-0.25121000000000004,-0.18306599999999998
137,0.012464000000000003,0.620625,-0.195904,-0.12456700000000001,0.428034,-0.171213,-0.212747,0.619135,-0.27514,0.14602300000000001,0.42937600000000004,-0.160945,0.265613,0.6177950000000001,-0.24274,-0.258077,0.834525,-0.39368000000000003,0.34781300000000004,0.836195,-0.32846,-0.071039,0.004005000000000036,0.0027600000000000124,0.071039,-0.004004999999999981,-0.0027599999999999847,-0.158767,0.05593500000000001,-0.34733,0.180883,0.06527500000000003,-0.34292,-0.122447,-0.252525,-0.193526,0.142713,-0.24284499999999998,-0.179745
138,0.013107999999999998,0.61958,-0.192368,-0.123898,0.428602,-0.168029,-0.21279800000000001,0.6171899999999999,-0.27127,0.146592,0.429145,-0.15773600000000002,0.267602,0.61643,-0.238905,-0.25750799999999996,0.8330599999999999,-0.38985000000000003,0.348362,0.83494,-0.32488,-0.071266,0.0040999999999999925,0.00272,0.071266,-0.004100000000000048,-0.00272,-0.158008,0.06339999999999996,-0.34536,0.182112,0.07263999999999998,-0.33984000000000003,-0.121788,-0.24516000000000004,-0.190386,0.14340199999999997,-0.23411000000000004,-0.176819
139,0.013748,0.6185,-0.189025,-0.123229,0.427986,-0.165139,-0.212189,0.61583,-0.267525,0.147131,0.429034,-0.154783,0.269591,0.61593,-0.235798,-0.257089,0.83133,-0.385975,0.349051,0.8344400000000001,-0.321695,-0.071493,0.0038799999999999946,0.0026750000000000107,0.071493,-0.0038799999999999946,-0.0026750000000000107,-0.157279,0.07196000000000002,-0.34331500000000004,0.183241,0.08095999999999998,-0.337025,-0.121109,-0.23696999999999996,-0.18751299999999999,0.144231,-0.22442,-0.174346
140,0.014343000000000002,0.6173649999999999,-0.186307,-0.12274999999999998,0.427612,-0.162829,-0.21195,0.615185,-0.26427,0.14758,0.42884199999999995,-0.15236,0.27133,0.617995,-0.233224,-0.25694,0.830625,-0.38244999999999996,0.34965999999999997,0.836425,-0.31904,-0.071639,0.0036249999999999893,0.002689999999999998,0.071639,-0.003625000000000045,-0.002689999999999998,-0.15663000000000002,0.08124499999999996,-0.34126999999999996,0.18425999999999998,0.09008499999999997,-0.33474,-0.12049,-0.22816500000000006,-0.185217,0.1477,-0.21208500000000008,-0.178866
141,0.014913,0.615335,-0.184355,-0.12232300000000002,0.42705699999999996,-0.161248,-0.21163300000000002,0.614305,-0.261785,0.147927,0.42944899999999997,-0.150771,0.272937,0.620315,-0.230771,-0.256913,0.8297749999999999,-0.37922500000000003,0.349857,0.839045,-0.316705,-0.071658,0.003304999999999947,0.0026549999999999907,0.071658,-0.0033050000000000024,-0.0026549999999999907,-0.155913,0.08940499999999996,-0.339825,0.18512699999999999,0.09822499999999995,-0.333235,-0.11990300000000001,-0.22020499999999998,-0.183697,0.15098699999999998,-0.200855,-0.183899
142,0.015425500000000002,0.6134149999999999,-0.18287799999999999,-0.12187350000000001,0.4257909999999999,-0.160127,-0.2112835,0.612625,-0.259895,0.14826650000000002,0.43023199999999995,-0.149659,0.27349650000000003,0.6231349999999999,-0.22952099999999998,-0.25685349999999996,0.8282049999999999,-0.376815,0.3504165,0.8421449999999999,-0.315305,-0.0717165,0.0029249999999999554,0.0025350000000000095,0.0717165,-0.0029250000000000664,-0.0025349999999999817,-0.15496349999999998,0.09730499999999992,-0.338845,0.18590649999999997,0.1060049999999999,-0.331885,-0.1192235,-0.21255500000000005,-0.182665,0.1541365,-0.18932500000000008,-0.189214
143,0.0157755,0.611336,-0.181811,-0.12162049999999999,0.424691,-0.15934399999999999,-0.2111505,0.614607,-0.259125,0.1485795,0.432072,-0.148898,0.2752495,0.62508,-0.228872,-0.2568305,0.82997,-0.375345,0.3518595,0.84447,-0.314685,-0.07172049999999999,0.0024699999999999722,0.0023950000000000082,0.07172049999999999,-0.0024699999999999722,-0.0023949999999999805,-0.1538505,0.10410999999999998,-0.338245,0.1865495,0.11315999999999998,-0.33042499999999997,-0.11851049999999999,-0.20547000000000004,-0.18203599999999998,0.1571795,-0.17872,-0.19483999999999999
144,0.016032500000000005,0.609361,-0.18126799999999998,-0.1214245,0.42362500000000003,-0.15903199999999998,-0.21113449999999997,0.6183,-0.25905,0.1489455,0.433914,-0.148801,0.2763055,0.626985,-0.22879699999999997,-0.2578145,0.833655,-0.37443,0.3523955,0.846605,-0.31464,-0.0717055,0.002134999999999998,0.0023900000000000032,0.0717055,-0.002134999999999998,-0.0023899999999999755,-0.1525645,0.110765,-0.33758,0.18711550000000002,0.12004500000000001,-0.32876,-0.11679450000000001,-0.19877500000000003,-0.18118199999999998,0.1601855,-0.16834499999999997,-0.200869
145,0.0162395,0.6078340000000001,-0.18079800000000001,-0.1212425,0.42334000000000005,-0.158644,-0.2113325,0.62126,-0.258725,0.1492975,0.43538000000000004,-0.148667,0.27664750000000005,0.630573,-0.228053,-0.25860249999999996,0.8367500000000001,-0.372655,0.3530375,0.85029,-0.313955,-0.0717045,0.0018600000000000838,0.0023950000000000082,0.0717045,-0.0018599999999999728,-0.0023950000000000082,-0.1512625,0.11675000000000008,-0.336565,0.1875775,0.12615000000000004,-0.32659499999999997,-0.11520250000000001,-0.19272999999999996,-0.18023,0.1606675,-0.16196999999999995,-0.200834
146,0.016287000000000003,0.6064499999999999,-0.180318,-0.121255,0.42283499999999996,-0.158137,-0.212745,0.623738,-0.25927500000000003,0.14946500000000001,0.437045,-0.148347,0.277385,0.633822,-0.22839500000000001,-0.260605,0.839415,-0.372795,0.353755,0.853795,-0.313905,-0.071709,0.001475000000000004,0.0023949999999999805,0.071709,-0.001475000000000004,-0.0023950000000000082,-0.15020499999999998,0.12188499999999997,-0.335275,0.18782500000000002,0.13142499999999996,-0.324295,-0.11379499999999998,-0.18761499999999998,-0.17924800000000002,0.16093500000000002,-0.156215,-0.200735
147,0.016069000000000003,0.606732,-0.179673,-0.12149499999999999,0.422095,-0.157326,-0.214155,0.626205,-0.25925,0.149485,0.438965,-0.147969,0.277415,0.636677,-0.227326,-0.262775,0.8417049999999999,-0.37283,0.353705,0.856895,-0.31261,-0.07169500000000001,0.0009249999999999536,0.0024200000000000055,0.07169500000000001,-0.0009249999999999536,-0.0024200000000000055,-0.14935500000000002,0.12604500000000002,-0.33365999999999996,0.187795,0.135795,-0.32235,-0.112925,-0.183705,-0.178422,0.160975,-0.15153499999999998,-0.20049699999999998
148,0.015899500000000004,0.6074039999999999,-0.17920599999999998,-0.1217275,0.4225499999999999,-0.156825,-0.2152175,0.627736,-0.25928999999999996,0.14948250000000002,0.44005999999999995,-0.14767599999999997,0.2772825,0.6388029999999999,-0.22625299999999998,-0.2638475,0.8438899999999999,-0.37293,0.3532725,0.85924,-0.31155,-0.0716865,0.0007599999999999829,0.0024500000000000077,0.0716865,-0.0007600000000000939,-0.00244999999999998,-0.14884750000000002,0.12810999999999995,-0.33287,0.18784250000000002,0.13810999999999996,-0.3212,-0.1123975,-0.1816000000000001,-0.177801,0.16064250000000002,-0.14885000000000004,-0.19991799999999998
149,0.015739000000000003,0.6074039999999999,-0.178931,-0.121726,0.4225499999999999,-0.15684,-0.215536,0.627736,-0.259325,0.149404,0.44005999999999995,-0.147417,0.277284,0.6388029999999999,-0.226268,-0.265056,0.8438899999999999,-0.372885,0.35326399999999997,0.85924,-0.311385,-0.071685,0.0007599999999999829,0.0024349999999999927,0.071685,-0.0007600000000000939,-0.0024349999999999927,-0.148846,0.12751999999999997,-0.332885,0.18793400000000002,0.13775999999999994,-0.32120499999999996,-0.112376,-0.18180000000000007,-0.177492,0.160254,-0.14885000000000004,-0.198828
150,0.015654500000000002,0.6074039999999999,-0.17907,-0.12169050000000001,0.4225499999999999,-0.156953,-0.2154505,0.627736,-0.259605,0.1494295,0.44005999999999995,-0.147545,0.2772695,0.6388029999999999,-0.225077,-0.2649905,0.8438899999999999,-0.373155,0.35322950000000003,0.85924,-0.310705,-0.0717135,0.0007599999999999829,0.0023849999999999982,0.0717135,-0.0007600000000000939,-0.0023849999999999982,-0.1487305,0.12693999999999994,-0.333275,0.1881595,0.13740999999999992,-0.321585,-0.1122805,-0.18224000000000007,-0.177882,0.1603795,-0.15012000000000003,-0.199227
151,0.015555499999999998,0.6074039999999999,-0.179473,-0.12167549999999999,0.4225499999999999,-0.156996,-0.2154055,0.627736,-0.259595,0.1494645,0.44005999999999995,-0.147921,0.2772545,0.6388029999999999,-0.224202,-0.2650255,0.8438899999999999,-0.371985,0.3528245,0.85924,-0.309905,-0.0716615,0.0007599999999999829,0.0023249999999999937,0.0716615,-0.0007600000000000939,-0.0023249999999999937,-0.1486555,0.12637999999999994,-0.333665,0.1882345,0.13703999999999994,-0.321975,-0.11220550000000001,-0.18270000000000008,-0.178299,0.1604145,-0.15143000000000006,-0.199712
152,0.0154095,0.609202,-0.17984300000000003,-0.1216925,0.425485,-0.157177,-0.2154125,0.625857,-0.25878,0.1494375,0.438825,-0.14824700000000002,0.2756675,0.638876,-0.222891,-0.2650825,0.842245,-0.37059000000000003,0.35171749999999996,0.859155,-0.30855,-0.0716875,0.0011849999999999916,0.0022599999999999842,0.0716875,-0.0011849999999999916,-0.002260000000000012,-0.1485125,0.123365,-0.33494,0.1883575,0.134355,-0.32305000000000006,-0.1121225,-0.185075,-0.17876300000000003,0.1576975,-0.15759499999999993,-0.19367600000000001
153,0.015135499999999998,0.6119810000000001,-0.18050100000000002,-0.12174750000000001,0.42676000000000003,-0.15747800000000003,-0.2156475,0.623225,-0.257625,0.1493325,0.43673000000000006,-0.14889300000000003,0.2730225,0.637116,-0.22138400000000003,-0.2662075,0.8400700000000001,-0.37045500000000003,0.3489725,0.85745,-0.30656500000000003,-0.07159549999999999,0.0017100000000001003,0.0022849999999999815,0.07159549999999999,-0.0017099999999999893,-0.0022850000000000092,-0.14847749999999998,0.11756000000000005,-0.336635,0.1884825,0.12772000000000006,-0.324835,-0.11264750000000001,-0.18979999999999997,-0.18016000000000001,0.1551625,-0.16621999999999992,-0.188396
154,0.014839999999999996,0.614718,-0.18129699999999999,-0.12187100000000001,0.429015,-0.157883,-0.215281,0.621649,-0.25619000000000003,0.149069,0.43742000000000003,-0.149561,0.270039,0.634885,-0.222245,-0.266361,0.8388249999999999,-0.36807,0.34684899999999996,0.855135,-0.30724,-0.071389,0.0020249999999999435,0.0023100000000000065,0.071389,-0.0020250000000000545,-0.0023100000000000065,-0.148511,0.10873499999999997,-0.33829,0.188549,0.11783500000000002,-0.32731,-0.11316100000000001,-0.19777500000000003,-0.181555,0.153029,-0.17759499999999995,-0.183772
155,0.014404,0.6187779999999999,-0.182587,-0.12220400000000001,0.4320649999999999,-0.15849300000000002,-0.215634,0.62076,-0.25627,0.148726,0.43731299999999995,-0.15046,0.267436,0.63147,-0.2233,-0.26767399999999997,0.83793,-0.36777000000000004,0.344646,0.85158,-0.30827000000000004,-0.071193,0.00270999999999999,0.002339999999999981,0.071193,-0.002710000000000101,-0.0023400000000000087,-0.148704,0.09863999999999995,-0.33999999999999997,0.188106,0.10649999999999993,-0.33025000000000004,-0.11386399999999999,-0.2072400000000001,-0.183195,0.150836,-0.19045,-0.179402
156,0.013756500000000003,0.622465,-0.183987,-0.1227095,0.434168,-0.159396,-0.21608950000000002,0.621615,-0.25647000000000003,0.14781049999999998,0.437059,-0.15158500000000003,0.2644205,0.627505,-0.224721,-0.2679495,0.837825,-0.36698000000000003,0.3419405,0.847545,-0.30931000000000003,-0.07097149999999999,0.003114999999999979,0.0023799999999999932,0.07097149999999999,-0.003114999999999979,-0.002380000000000021,-0.1490895,0.086345,-0.34174000000000004,0.1873405,0.09325499999999998,-0.33348,-0.1154895,-0.21909500000000004,-0.18577000000000002,0.14853049999999998,-0.20572500000000005,-0.17525700000000002
157,0.012955000000000001,0.62642,-0.18542499999999998,-0.123192,0.43622599999999995,-0.16045099999999998,-0.216422,0.62178,-0.25637,0.14682800000000001,0.43674699999999994,-0.15284799999999998,0.261048,0.62852,-0.225819,-0.268742,0.83701,-0.36597,0.338608,0.8482399999999999,-0.31022,-0.070606,0.0035299999999999776,0.0024000000000000132,0.070606,-0.003530000000000033,-0.0023999999999999855,-0.149412,0.07245999999999997,-0.3435,0.186218,0.07877999999999996,-0.33551,-0.11693200000000001,-0.23276000000000008,-0.188659,0.148338,-0.21961000000000008,-0.17640499999999998
158,0.012070500000000001,0.63063,-0.186477,-0.12371849999999998,0.438216,-0.161284,-0.2168985,0.62435,-0.25525400000000004,0.1457815,0.436651,-0.15397900000000003,0.2569715,0.62927,-0.22778700000000002,-0.2695985,0.83935,-0.364555,0.33517149999999996,0.84882,-0.310145,-0.07020850000000001,0.003910000000000025,0.0022049999999999847,0.07020850000000001,-0.003909999999999969,-0.0022050000000000125,-0.14949849999999998,0.05625000000000002,-0.34443500000000005,0.1847615,0.06257000000000001,-0.33653500000000003,-0.1183285,-0.24851999999999996,-0.191398,0.14801150000000002,-0.23582000000000003,-0.17733000000000002
159,0.011018999999999998,0.6347400000000001,-0.187561,-0.124364,0.44033,-0.161906,-0.217904,0.62473,-0.254138,0.144626,0.43679,-0.154928,0.253206,0.63025,-0.229279,-0.27080400000000004,0.8399000000000001,-0.363835,0.331316,0.84982,-0.310295,-0.069693,0.004280000000000006,0.0018449999999999855,0.069693,-0.004280000000000006,-0.0018450000000000133,-0.149664,0.036160000000000025,-0.34519500000000003,0.18293600000000002,0.04248000000000002,-0.337415,-0.119504,-0.26789,-0.193884,0.14713600000000002,-0.25692,-0.176013
160,0.010017500000000002,0.63827,-0.18863,-0.12493950000000001,0.44257399999999997,-0.162447,-0.2188895,0.62399,-0.253375,0.1434905,0.43574999999999997,-0.155895,0.2494905,0.6301399999999999,-0.229682,-0.27233949999999996,0.83956,-0.36216499999999996,0.3273505,0.84952,-0.310025,-0.0691895,0.003939999999999999,0.0013249999999999929,0.0691895,-0.003939999999999999,-0.0013249999999999929,-0.1497695,0.01415999999999995,-0.345885,0.1808105,0.020199999999999996,-0.338245,-0.12046950000000001,-0.2892600000000001,-0.19628400000000001,0.1472405,-0.27906,-0.177649
161,0.009121499999999998,0.641345,-0.188806,-0.1256865,0.44270200000000004,-0.16231900000000002,-0.2199965,0.625855,-0.252672,0.1422435,0.43763700000000005,-0.156039,0.24688349999999998,0.6331950000000001,-0.228958,-0.2740465,0.841245,-0.35956,0.3245535,0.853205,-0.30879,-0.0686285,0.003365000000000007,0.0013900000000000023,0.0686285,-0.0033649999999999514,-0.0013900000000000023,-0.1497165,-0.009724999999999984,-0.34521999999999997,0.1787635,-0.004054999999999975,-0.33811,-0.1209765,-0.31293499999999996,-0.197762,0.14719349999999998,-0.304725,-0.177047
162,0.008178999999999999,0.64505,-0.188811,-0.126363,0.44461500000000004,-0.162186,-0.221393,0.6322000000000001,-0.25157399999999996,0.141127,0.44121400000000005,-0.156424,0.245107,0.63865,-0.227393,-0.276613,0.84674,-0.357125,0.322307,0.8589,-0.306745,-0.06805,0.0025800000000000267,0.001375000000000015,0.06805,-0.002579999999999971,-0.0013749999999999873,-0.149473,-0.03267999999999999,-0.344325,0.176787,-0.027539999999999953,-0.337465,-0.12098300000000001,-0.33612,-0.198373,0.147517,-0.32819,-0.179509
163,0.0072565,0.64866,-0.188844,-0.12694049999999998,0.446608,-0.16220400000000001,-0.2230805,0.6384,-0.250242,0.1402995,0.441157,-0.156667,0.2437895,0.6431100000000001,-0.225674,-0.27955050000000004,0.85328,-0.35468500000000003,0.3199895,0.8636699999999999,-0.30491500000000005,-0.0675065,0.0021299999999999653,0.0013749999999999873,0.0675065,-0.0021300000000000208,-0.001375000000000015,-0.1490005,-0.05402000000000001,-0.342935,0.1750295,-0.049460000000000004,-0.336285,-0.12097050000000001,-0.35821000000000003,-0.19898100000000002,0.1478195,-0.35065,-0.18161000000000002
164,0.006435000000000003,0.6521250000000001,-0.188492,-0.127268,0.447995,-0.161601,-0.225238,0.643455,-0.248918,0.139532,0.442475,-0.156679,0.24261200000000002,0.649755,-0.22454400000000002,-0.281848,0.858395,-0.35173,0.31825200000000003,0.870655,-0.30296,-0.067131,0.0013050000000000006,0.0010300000000000031,0.067131,-0.0013050000000000006,-0.0010300000000000031,-0.14801799999999998,-0.07732499999999998,-0.33945000000000003,0.173482,-0.07411499999999999,-0.33291000000000004,-0.120728,-0.38437499999999997,-0.198586,0.14814200000000002,-0.37635500000000005,-0.181843
165,0.005297499999999998,0.65601,-0.18739,-0.1278905,0.44994,-0.160128,-0.22829049999999998,0.64659,-0.247273,0.1389295,0.44412999999999997,-0.155848,0.24095950000000002,0.65675,-0.22345399999999999,-0.2860805,0.8631599999999999,-0.348715,0.3163695,0.87798,-0.30079500000000003,-0.0666375,0.0007800000000000029,0.0004649999999999932,0.0666375,-0.0007800000000000029,-0.0004649999999999932,-0.1474605,-0.09801000000000004,-0.335075,0.1718395,-0.09493000000000001,-0.328415,-0.1206405,-0.40839,-0.197372,0.1479095,-0.39967,-0.181246
166,0.004476999999999997,0.6602250000000001,-0.184824,-0.128272,0.451685,-0.157692,-0.23081200000000002,0.6494850000000001,-0.244303,0.138658,0.44816500000000004,-0.153909,0.23995799999999998,0.657835,-0.220867,-0.288432,0.866405,-0.34424,0.31540799999999997,0.879795,-0.29761000000000004,-0.066252,5.500000000002725e-05,0.0,0.066252,-5.499999999997174e-05,0.0,-0.14655200000000002,-0.119815,-0.32944,0.17060799999999998,-0.11674499999999999,-0.32165,-0.120452,-0.433905,-0.195077,0.148288,-0.426145,-0.178779
167,0.003585500000000002,0.664455,-0.181352,-0.1286985,0.45406499999999994,-0.154524,-0.2329085,0.6491849999999999,-0.240566,0.1382915,0.45094499999999993,-0.151403,0.2386215,0.658525,-0.21773,-0.2908485,0.8649549999999999,-0.33865,0.3132715,0.881135,-0.29255,-0.0658755,-0.0005450000000000177,-0.0005300000000000027,0.0658755,0.0005449999999999622,0.0005300000000000027,-0.1456685,-0.14035500000000006,-0.32321,0.1694015,-0.13713500000000006,-0.31414,-0.12035850000000001,-0.4584750000000001,-0.192048,0.1481715,-0.45023500000000005,-0.17499599999999998
168,0.0027374999999999986,0.66777,-0.177037,-0.1293295,0.45623,-0.150595,-0.23473950000000002,0.65333,-0.235039,0.1378005,0.45255,-0.147947,0.2377605,0.65769,-0.213605,-0.2934395,0.86953,-0.33109,0.31178049999999996,0.88071,-0.28676,-0.0655045,-0.0010799999999999976,-0.0011599999999999944,0.0655045,0.0010799999999999976,0.0011599999999999944,-0.1448195,-0.15846999999999997,-0.31633,0.1683905,-0.15523,-0.30577,-0.1203795,-0.48086000000000007,-0.188257,0.1477705,-0.47243,-0.17052900000000001
169,0.002044999999999998,0.671645,-0.17171999999999998,-0.13014799999999999,0.45921500000000004,-0.14548899999999998,-0.236618,0.659535,-0.228748,0.137642,0.456535,-0.14315399999999998,0.237632,0.657605,-0.20596299999999998,-0.296118,0.8756550000000001,-0.32306999999999997,0.31103200000000003,0.8809450000000001,-0.27723,-0.064946,-0.0009450000000000014,-0.0015099999999999836,0.064946,0.0009450000000000014,0.0015100000000000113,-0.143918,-0.176115,-0.30779,0.16792200000000002,-0.172955,-0.29713999999999996,-0.120278,-0.5040749999999999,-0.183939,0.147982,-0.496285,-0.165733
170,0.0014759999999999981,0.675685,-0.165582,-0.130745,0.46119499999999997,-0.139712,-0.238385,0.6649849999999999,-0.22114899999999998,0.137565,0.459165,-0.137714,0.237035,0.655945,-0.19747,-0.298715,0.881975,-0.314035,0.310075,0.879175,-0.267465,-0.064641,-0.0010250000000000259,-0.0016450000000000076,0.064641,0.0010249999999999981,0.0016450000000000076,-0.143505,-0.18978500000000004,-0.29923500000000003,0.167585,-0.187425,-0.288245,-0.120275,-0.5230750000000001,-0.179125,0.14813500000000002,-0.515345,-0.160309
171,0.0011630000000000008,0.67884,-0.159117,-0.131304,0.46334,-0.133612,-0.23981400000000003,0.66675,-0.21375899999999998,0.137656,0.46207,-0.131914,0.236506,0.65386,-0.188703,-0.300184,0.88492,-0.30498000000000003,0.309056,0.87712,-0.25722,-0.064438,-0.0010300000000000031,-0.0016400000000000026,0.064438,0.0010300000000000031,0.0016400000000000026,-0.14308400000000002,-0.20295,-0.29016,0.167346,-0.20120999999999997,-0.27888,-0.120244,-0.54163,-0.17373,0.148466,-0.53398,-0.154643
172,0.0006069999999999982,0.682885,-0.15008100000000002,-0.131963,0.466035,-0.125353,-0.241243,0.6695949999999999,-0.202567,0.137827,0.466895,-0.12392900000000001,0.236457,0.658855,-0.177576,-0.30160299999999995,0.887885,-0.292175,0.30890700000000004,0.880415,-0.24471500000000002,-0.064164,-0.0011049999999999949,-0.0013850000000000112,0.064164,0.0011049999999999949,0.0013849999999999973,-0.142523,-0.217785,-0.277855,0.16683699999999999,-0.21641500000000002,-0.266415,-0.12037300000000001,-0.563385,-0.165969,0.149007,-0.5558350000000001,-0.147565
173,4.050000000000234e-05,0.687055,-0.141594,-0.1325785,0.467355,-0.117601,-0.24236850000000001,0.672015,-0.193163,0.1380915,0.470355,-0.116337,0.2368015,0.662305,-0.167127,-0.30292850000000004,0.891215,-0.279835,0.3093515,0.881555,-0.232275,-0.0639005,-0.0013149999999999828,-0.0012950000000000045,0.0639005,0.0013150000000000106,0.0012950000000000045,-0.1415485,-0.23018499999999997,-0.265815,0.1665415,-0.22812500000000002,-0.254305,-0.1203485,-0.583015,-0.158467,0.1497915,-0.575565,-0.137577
174,-0.0005725000000000001,0.69104,-0.133029,-0.1333695,0.47016,-0.109626,-0.24365950000000003,0.6752400000000001,-0.182618,0.1383105,0.47235,-0.108496,0.2368805,0.66486,-0.157432,-0.3042195,0.89484,-0.26686,0.3094805,0.88476,-0.22078,-0.0635575,-0.0012899999999999995,-0.0011000000000000038,0.0635575,0.0012899999999999995,0.0011000000000000038,-0.1404895,-0.24331999999999998,-0.25302,0.1661205,-0.24087999999999998,-0.24158999999999997,-0.1205695,-0.60331,-0.151178,0.1514905,-0.59535,-0.133143
175,-0.0012015000000000046,0.6942825,-0.124719,-0.13429449999999998,0.4723625,-0.10177499999999999,-0.24454449999999997,0.6789125,-0.172368,0.1391555,0.47427250000000004,-0.10032699999999999,0.23734550000000001,0.6705725,-0.148174,-0.30547450000000004,0.9001925000000001,-0.25441400000000003,0.30942549999999996,0.8907925,-0.209374,-0.0631395,-0.0011245000000000005,-0.0007159999999999944,0.0631395,0.0011245000000000005,0.0007160000000000083,-0.1390345,-0.25475749999999997,-0.239954,0.1656555,-0.2519375,-0.22877399999999998,-0.1207545,-0.6215575,-0.14412799999999998,0.15272550000000001,-0.6141375,-0.125967
176,-0.0019634999999999965,0.69716,-0.11650750000000001,-0.13520849999999998,0.4737,-0.0941695,-0.24481849999999997,0.68303,-0.16244550000000002,0.1399215,0.47711,-0.0920745,0.2379515,0.67645,-0.1394705,-0.30657850000000003,0.90659,-0.24220350000000002,0.3091815,0.89685,-0.19971350000000002,-0.0625645,-0.001013,-0.00033750000000000446,0.0625645,0.001013,0.0003374999999999906,-0.13758849999999997,-0.26569,-0.2270735,0.1651215,-0.26257,-0.2159235,-0.1208185,-0.6391199999999999,-0.13685650000000002,0.1535715,-0.6312899999999999,-0.1190655
177,-0.002929000000000001,0.699548,-0.10861,-0.136235,0.474868,-0.086996,-0.24621500000000002,0.683618,-0.152791,0.14047500000000002,0.480918,-0.084306,0.238265,0.683688,-0.131447,-0.308355,0.9076879999999999,-0.229794,0.309565,0.9044179999999999,-0.190574,-0.062245999999999996,-0.0009900000000000048,0.0001239999999999991,0.062245999999999996,0.0009899999999999978,-0.0001239999999999991,-0.136125,-0.279212,-0.214084,0.16419499999999998,-0.276462,-0.20280399999999998,-0.120995,-0.6557320000000001,-0.129378,0.153395,-0.6480220000000001,-0.110845
178,-0.004042999999999998,0.701932,-0.10123750000000001,-0.137126,0.47502200000000006,-0.0804015,-0.248076,0.683542,-0.1433385,0.140574,0.48361200000000004,-0.0772205,0.23771399999999998,0.691072,-0.1239465,-0.309616,0.908392,-0.2180215,0.309384,0.912412,-0.1817315,-0.062122,-0.0009389999999999954,0.0003095000000000042,0.062122,0.0009390000000000023,-0.0003095000000000042,-0.134776,-0.291168,-0.2022215,0.163124,-0.288768,-0.1905115,-0.120936,-0.669798,-0.1219825,0.15301399999999998,-0.661788,-0.1026215
