sb224sc-HT22-VT27/4dt907/src/ml-research/a11/datafiles/kinect_good_preprocessed_not_cut_A11_mediapipe/A151_kinect_mirrored.csv
FrameNo,nose_3d_x,nose_3d_y,nose_3d_z,left_shoulder_3d_x,left_shoulder_3d_y,left_shoulder_3d_z,left_elbow_3d_x,left_elbow_3d_y,left_elbow_3d_z,right_shoulder_3d_x,right_shoulder_3d_y,right_shoulder_3d_z,right_elbow_3d_x,right_elbow_3d_y,right_elbow_3d_z,left_wrist_3d_x,left_wrist_3d_y,left_wrist_3d_z,right_wrist_3d_x,right_wrist_3d_y,right_wrist_3d_z,left_hip_3d_x,left_hip_3d_y,left_hip_3d_z,right_hip_3d_x,right_hip_3d_y,right_hip_3d_z,left_knee_3d_x,left_knee_3d_y,left_knee_3d_z,right_knee_3d_x,right_knee_3d_y,right_knee_3d_z,left_ankle_3d_x,left_ankle_3d_y,left_ankle_3d_z,right_ankle_3d_x,right_ankle_3d_y,right_ankle_3d_z
0,1.0340485,0.7301730000000001,-0.0546515,0.8442385,0.512173,-0.0302444999999999,0.7138785000000001,0.312673,0.0092574999999999,1.2079385,0.491083,-0.0267575,1.2991285,0.275813,-0.0141024999999999,0.8470685,0.168343,-0.1170575,1.1708185,0.1096429999999999,-0.1148574999999999,0.9219785,0.005936,-0.0008915,1.0780215,-0.005936,0.0008914999999999,0.8742185,-0.4568569999999999,0.0510505,1.1048985,-0.461097,0.0481985,0.8441085,-0.835297,0.0908045,1.1270085,-0.839837,0.0884335
1,1.0341319999999998,0.7299615,-0.054918,0.844172,0.5122115,-0.030906,0.713652,0.3125715,0.0082899999999999,1.208222,0.4908915,-0.027228,1.302832,0.2763915,-0.014701,0.849262,0.1694015,-0.116667,1.171622,0.1104715,-0.111757,0.921956,0.0061185,-0.000822,1.078044,-0.0061185,0.0008219999999999,0.874042,-0.4539285,0.0497819999999999,1.104902,-0.4613185,0.0479869999999999,0.844152,-0.8358985,0.0905499999999999,1.127002,-0.8401985,0.088318
2,1.0344369999999998,0.7296360000000001,-0.055426,0.8442090000000001,0.512356,-0.031466,0.713919,0.312386,0.0078279999999999,1.208389,0.490616,-0.028075,1.304689,0.276776,-0.014898,0.849309,0.168916,-0.117008,1.191599,0.092275,-0.0992779999999999,0.921953,0.006222,-0.000605,1.078047,-0.006222,0.0006049999999999,0.874079,-0.454244,0.0494869999999999,1.104879,-0.4615039999999999,0.0475849999999999,0.8442390000000001,-0.836544,0.090254,1.127529,-0.841414,0.087531
3,1.0346815,0.7293094999999999,-0.0557875,0.8443235,0.5123395,-0.0324575,0.7141835000000001,0.3128495,0.0082665,1.2085535,0.4899895,-0.0290655,1.3046635,0.2761495,-0.0148324999999999,0.8493335000000001,0.1689295,-0.1163115,1.1917935,0.0915435,-0.0992815,0.9219325,0.0062485,-0.0006745,1.0780675,-0.0062485,0.0006745,0.8742135,-0.4548304999999999,0.0493585,1.1050335,-0.4619705,0.0474165,0.8443035,-0.8365205,0.0898555,1.1276735,-0.8419505,0.0873095
4,1.0351659999999998,0.728664,-0.0569625,0.845147,0.513044,-0.0343625,0.7146669999999999,0.311944,0.0074034999999999,1.208847,0.489464,-0.0295905,1.3046769999999999,0.275554,-0.0148025,0.850657,0.167324,-0.1153025,1.176617,0.09797,-0.0914825,0.922033,0.006144,-0.0009154999999999,1.077967,-0.006144,0.0009154999999999,0.8742570000000001,-0.4557859999999999,0.0490554999999999,1.1051769999999999,-0.462506,0.0469474999999999,0.8443970000000001,-0.8370460000000001,0.0894425,1.1282969999999999,-0.841546,0.0863925
5,1.035557,0.7281785000000001,-0.058014,0.8456589999999999,0.5135185,-0.036103,0.7155389999999999,0.3114385,0.0063889999999999,1.2091889999999998,0.4889584999999999,-0.0307069999999999,1.306009,0.2749685,-0.01408,0.851549,0.1659284999999999,-0.115156,1.176789,0.0987635,-0.092126,0.921989,0.0061565,-0.000721,1.078011,-0.0061565,0.0007209999999999,0.874549,-0.4561715,0.048416,1.1055089999999999,-0.4629015,0.046303,0.844339,-0.8366115,0.088629,1.128549,-0.8421615,0.0859149999999999
6,1.0361905,0.727566,-0.059162,0.8466715000000001,0.5137660000000001,-0.037793,0.7162515,0.311066,0.005738,1.2098315,0.488566,-0.031492,1.3064715,0.274866,-0.0137899999999999,0.8526015,0.164826,-0.114447,1.1765715,0.099829,-0.0935369999999999,0.9219545000000001,0.006238,-0.0006159999999999,1.0780455,-0.006238,0.0006159999999999,0.8751115,-0.456514,0.047864,1.1060515,-0.463184,0.045758,0.8450615000000001,-0.835674,0.087723,1.1292815,-0.8430139999999999,0.085497
7,1.035638,0.724044,-0.0650845,0.846285,0.513474,-0.0401475,0.7184250000000001,0.310484,0.0049194999999999,1.209935,0.4875939999999999,-0.0340025,1.307395,0.274804,-0.0148445,0.8458550000000001,0.153604,-0.1107924999999999,1.1838449999999998,0.09615,-0.0936425,0.921952,0.006166,-0.0004895,1.078048,-0.006166,0.0004894999999999,0.875415,-0.457626,0.0468645,1.106285,-0.463686,0.0441955,0.8458950000000001,-0.837516,0.0868655,1.128905,-0.844386,0.0839785
8,1.036011,0.722329,-0.0687789999999999,0.846727,0.513629,-0.0424299999999999,0.720027,0.3101089999999999,0.004167,1.2102870000000001,0.4869389999999999,-0.0360429999999999,1.3081669999999999,0.274619,-0.015456,0.8455969999999999,0.148829,-0.1067369999999999,1.184397,0.0955049999999999,-0.0934369999999999,0.9219140000000001,0.006175,-0.0002979999999999,1.0780859999999999,-0.006175,0.0002979999999999,0.875767,-0.458201,0.045851,1.106617,-0.464031,0.04301,0.846357,-0.8378410000000001,0.085701,1.129267,-0.845121,0.082737
9,1.0364465,0.7203594999999999,-0.0732449999999999,0.8472545000000001,0.5136594999999999,-0.0448819999999999,0.7218745000000001,0.3097695,0.003355,1.2106945,0.4861795,-0.0384439999999999,1.3089845,0.2744895,-0.016358,0.8453345000000001,0.1437594999999999,-0.1029349999999999,1.1848945,0.0948654999999999,-0.094265,0.9218695000000001,0.0061765,-8.400000000000074e-05,1.0781304999999999,-0.0061765,8.400000000000074e-05,0.8761945000000001,-0.4588405,0.044823,1.1069745,-0.4643104999999999,0.041635,0.8468745,-0.8381305,0.084304,1.1296045000000001,-0.8457705,0.081266
10,1.0368935,0.718145,-0.0786989999999999,0.8477755000000001,0.513585,-0.047758,0.7237955,0.309375,0.0022639999999999,1.2111155,0.485225,-0.041476,1.3099155,0.274405,-0.017893,0.8450355,0.138775,-0.099359,1.1843255,0.095472,-0.095549,0.9218245,0.006182,0.0001789999999999,1.0781755,-0.006182,-0.000179,0.8766355,-0.459505,0.0434159999999999,1.1073155,-0.464565,0.039881,0.8473655,-0.838525,0.082457,1.1299055,-0.8464849999999999,0.0793909999999999
11,1.037321,0.7156385000000001,-0.085005,0.848273,0.5134285000000001,-0.051104,0.725793,0.3088685,0.0008479999999999,1.211583,0.4842085,-0.045026,1.310813,0.2742885,-0.019943,0.844223,0.1337585,-0.0959349999999999,1.183763,0.0959235,-0.0972249999999999,0.921773,0.0061835,0.000517,1.078227,-0.0061835,-0.000517,0.877013,-0.4602115,0.04189,1.107613,-0.4648215,0.0378089999999999,0.8478330000000001,-0.8388614999999999,0.080247,1.130193,-0.8472014999999999,0.077114
12,1.03766,0.7130145,-0.091899,0.848738,0.5132645,-0.0548339999999999,0.727768,0.3084645,-0.0007719999999999,1.212018,0.4831844999999999,-0.048971,1.312018,0.2744344999999999,-0.0223229999999999,0.843068,0.1288645,-0.092919,1.184128,0.0965145,-0.098979,0.921704,0.0061595,0.000911,1.078296,-0.0061595,-0.0009109999999999,0.877328,-0.4608555,0.040163,1.107818,-0.4650355,0.035519,0.848298,-0.8392155,0.077683,1.130408,-0.8479154999999999,0.074507
13,1.0379845,0.7103395,-0.0991375,0.8491815,0.5130595,-0.0587305,0.7297115000000001,0.3082094999999999,-0.0024334999999999,1.2124415,0.4821594999999999,-0.0532635,1.3134115,0.2744594999999999,-0.0248644999999999,0.8426815,0.1261594999999999,-0.0901475,1.1844215,0.0974995,-0.1006475,0.9216365,0.0061295,0.0012535,1.0783635,-0.0061295,-0.0012535,0.8776115,-0.4613605,0.0384375,1.1080015,-0.4651605,0.0332285,0.8487815,-0.8394105,0.0749055,1.1306915,-0.8484904999999999,0.0717365
14,1.0384315,0.7075895,-0.1067314999999999,0.8496055,0.5128995,-0.0628814999999999,0.7310455,0.3079595,-0.0042265,1.2128755,0.4810595,-0.0577825,1.3146955,0.2744295,-0.0275265,0.8421855,0.1240395,-0.0866615,1.1837955,0.0989595,-0.1012115,0.9215765,0.0061075,0.0016235,1.0784235,-0.0061075,-0.0016235,0.8778855,-0.4618605,0.0367095,1.1082055,-0.4652505,0.0309475,0.8492655,-0.8395805000000001,0.0718825,1.1310655,-0.8489805,0.0687435
15,1.0392025,0.7045680000000001,-0.1151544999999999,0.8500695,0.5128180000000001,-0.0672725,0.7319995,0.308148,-0.0060505,1.2133795,0.479618,-0.0627705,1.3159094999999998,0.274388,-0.0300575,0.8415295,0.122558,-0.0838205,1.1811595,0.101948,-0.1022145,0.9215125,0.006101,0.0020134999999999,1.0784875,-0.006101,-0.0020135,0.8781695,-0.462252,0.0350715,1.1084695,-0.465352,0.0286005,0.8497695000000001,-0.839672,0.0686245,1.1314095,-0.8493219999999999,0.0654975
16,1.040031,0.7016990000000001,-0.1232615,0.8505199999999999,0.512769,-0.0716115,0.73247,0.308869,-0.0079065,1.21386,0.478049,-0.0674615,1.31701,0.2743089999999999,-0.0320465,0.84134,0.122129,-0.0817345,1.17835,0.104899,-0.1032815,0.921465,0.006096,0.0024024999999999,1.078535,-0.006096,-0.0024025,0.87842,-0.462611,0.0336145,1.1086999999999998,-0.465471,0.0264545,0.8502000000000001,-0.839741,0.0653035,1.13172,-0.849571,0.0622734999999999
17,1.0408184999999999,0.6990474999999999,-0.1306415,0.8509655,0.5127375,-0.0754635,0.7328555,0.3100875,-0.0097275,1.2143354999999998,0.4765175,-0.0717975,1.3178555,0.2740775,-0.0336475,0.8408655,0.1217575,-0.0824595,1.1754055,0.1077175,-0.1042915,0.9214375,0.0060665,0.0027175,1.0785625,-0.0060665,-0.0027175,0.8785955,-0.4629425,0.0323695,1.1088755,-0.4655025,0.0246394999999999,0.8505555,-0.8398125000000001,0.0622515,1.1319855,-0.8497325,0.0593195
18,1.041666,0.696613,-0.137286,0.851399,0.512803,-0.078865,0.733159,0.311573,-0.011362,1.214849,0.475093,-0.075736,1.318339,0.273753,-0.03487,0.8395090000000001,0.121433,-0.083641,1.172669,0.110023,-0.105216,0.921407,0.006058,0.0030429999999999,1.078593,-0.006058,-0.0030429999999999,0.878709,-0.463217,0.031285,1.109009,-0.465547,0.0230669999999999,0.850849,-0.839877,0.059484,1.132179,-0.849507,0.056721
19,1.042519,0.6944455,-0.1428735,0.851874,0.5130155000000001,-0.0815955,0.733134,0.3138455,-0.0126035,1.215424,0.4738854999999999,-0.0789515,1.318714,0.2734855,-0.0354625,0.8379940000000001,0.1213255,-0.0853895,1.172204,0.1102455,-0.1057935,0.9213840000000001,0.0060575,0.0033014999999999,1.0786159999999998,-0.0060574999999999,-0.0033014999999999,0.878794,-0.4634445,0.0306655,1.109144,-0.4655945,0.0219645,0.851084,-0.8398945,0.0572354999999999,1.132354,-0.8492244999999999,0.0546495
20,1.0433155,0.692608,-0.1474735,0.8523505,0.513388,-0.0835385,0.7324805,0.316538,-0.0133175,1.2160405,0.472808,-0.0815595,1.3191405,0.273308,-0.0353545,0.8366905,0.123378,-0.0872185,1.1714705,0.111538,-0.1070335,0.9213705,0.006057,0.0034745,1.0786295,-0.006057,-0.0034745,0.8788905,-0.463592,0.0302795,1.1092805000000001,-0.465612,0.0212725,0.8512505,-0.840052,0.0554615,1.1325105,-0.848852,0.0530715
21,1.0440605,0.6910540000000001,-0.1512025,0.8527625,0.513834,-0.0848765,0.7308025,0.3200039999999999,-0.0131935,1.2165625,0.472004,-0.0835795,1.3196925,0.273264,-0.0347505,0.8349925,0.126724,-0.0884965,1.1709725,0.1126939999999999,-0.1083425,0.9213884999999999,0.006084,0.0036225,1.0786115,-0.006084,-0.0036225,0.8789425000000001,-0.463676,0.0302115,1.1094025,-0.465606,0.0209835,0.8513325,-0.840156,0.0542225,1.1326325,-0.8484459999999999,0.0520255
22,1.044694,0.690024,-0.153846,0.853119,0.514374,-0.08576,0.728519,0.323964,-0.012546,1.2169789999999998,0.471364,-0.084913,1.320179,0.273144,-0.033822,0.833159,0.131554,-0.089319,1.170789,0.1138039999999999,-0.109216,0.9214140000000001,0.0061379999999999,0.0037949999999999,1.0785859999999998,-0.006138,-0.003795,0.878949,-0.463826,0.0303799999999999,1.109419,-0.465596,0.020996,0.851329,-0.8402660000000001,0.053423,1.132669,-0.848116,0.051425
23,1.045189,0.6893595,-0.155435,0.853539,0.5150395,-0.086121,0.7257290000000001,0.3285995,-0.011141,1.217339,0.4708995,-0.085567,1.320669,0.2731895,-0.032456,0.831339,0.1382995,-0.091201,1.170779,0.1143995,-0.109565,0.921417,0.0062124999999999,0.003921,1.078583,-0.0062125,-0.003921,0.878959,-0.4639005,0.0307089999999999,1.109429,-0.4655405,0.021293,0.851329,-0.8403605,0.053138,1.132689,-0.8478405,0.051298
24,1.0454329999999998,0.689321,-0.155745,0.853879,0.515721,-0.085993,0.722599,0.333151,-0.009539,1.2175289999999999,0.470861,-0.08566,1.320989,0.273141,-0.031043,0.830369,0.146131,-0.093059,1.170779,0.1143609999999999,-0.109605,0.921417,0.006251,0.003921,1.078583,-0.006251,-0.003921,0.878969,-0.463929,0.03088,1.109449,-0.4654189999999999,0.0217279999999999,0.851329,-0.8404090000000001,0.05316,1.132759,-0.847589,0.051498
25,1.045548,0.689321,-0.1557545,0.85414,0.516531,-0.0855655,0.71915,0.337461,-0.0081105,1.2176,0.470861,-0.0857325,1.32105,0.273141,-0.0302175,0.82953,0.153221,-0.0951535,1.17075,0.1143609999999999,-0.1099945,0.921426,0.006251,0.0039204999999999,1.078574,-0.006251,-0.0039204999999999,0.87896,-0.463969,0.0308805,1.1095,-0.465289,0.0218215,0.85134,-0.840499,0.0531605,1.13282,-0.847439,0.0515515
26,1.0454435,0.689333,-0.1557519999999999,0.8542055,0.517343,-0.084975,0.7159555,0.340483,-0.006864,1.2174954999999998,0.470873,-0.085738,1.3209655,0.273153,-0.029538,0.8270855,0.1592329999999999,-0.100707,1.1721454999999998,0.113963,-0.112172,0.9214785,0.0062629999999999,0.003919,1.0785215,-0.006263,-0.003919,0.8788955,-0.463997,0.030882,1.1094855,-0.4651869999999999,0.021822,0.8512554999999999,-0.8405870000000001,0.053162,1.1327855,-0.847427,0.051552
27,1.045172,0.6895039999999999,-0.15552,0.853954,0.5180939999999999,-0.083951,0.7128639999999999,0.342584,-0.005329,1.2172239999999999,0.471064,-0.085506,1.320794,0.273164,-0.028831,0.824474,0.163964,-0.10567,1.174554,0.112104,-0.1143,0.921565,0.0062729999999999,0.003974,1.078435,-0.006273,-0.003974,0.878764,-0.464026,0.03111,1.109324,-0.465176,0.02205,0.8510139999999999,-0.840716,0.053387,1.132574,-0.8474160000000001,0.051782
28,1.044856,0.6898365,-0.1547289999999999,0.853658,0.5185865,-0.082271,0.710618,0.3426265,-0.003156,1.216908,0.4714565,-0.084715,1.320688,0.2734265,-0.027704,0.8219380000000001,0.1662865,-0.109279,1.177038,0.1100465,-0.116459,0.921679,0.0062945,0.0039889999999999,1.078321,-0.0062945,-0.003989,0.8786080000000001,-0.4640535,0.031746,1.109168,-0.4651235,0.022837,0.850738,-0.8410434999999999,0.054144,1.132318,-0.8473735,0.052571
29,1.0445225,0.6905859999999999,-0.1532925,0.8533585,0.518806,-0.0801795,0.7090185,0.342716,-0.0008755,1.2165585,0.472096,-0.0835955,1.3206985,0.273936,-0.0265795,0.8195685,0.1672259999999999,-0.1118325,1.1798384999999998,0.1078259999999999,-0.1183825,0.9218014999999999,0.00628,0.0040385,1.0781985,-0.0062799999999999,-0.0040385,0.8784585,-0.4640439999999999,0.0326075,1.1090185,-0.465034,0.0238625,0.8504585,-0.841344,0.0552245,1.1320685,-0.8473040000000001,0.0536085
30,1.0439345,0.691716,-0.1510044999999999,0.8530025,0.518946,-0.0778555,0.7084825,0.342856,0.0012424999999999,1.2161025,0.473016,-0.0822175,1.3207825,0.274556,-0.0253035,0.8173325000000001,0.167366,-0.1136245,1.1827825,0.105876,-0.1199645,0.9219255000000001,0.006255,0.0040655,1.0780744999999998,-0.006255,-0.0040655,0.8783025000000001,-0.464024,0.0335554999999999,1.1088524999999998,-0.464894,0.0249705,0.8501725,-0.841574,0.0564895,1.1318825000000001,-0.847574,0.0546665
31,1.043189,0.6932459999999999,-0.1480585,0.852455,0.519196,-0.0752174999999999,0.708145,0.342926,0.0036125,1.215545,0.474166,-0.0804565,1.320915,0.275386,-0.0236915,0.814905,0.167616,-0.1136885,1.184115,0.1055759999999999,-0.1210785,0.922037,0.006197,0.0040695,1.077963,-0.0061969999999999,-0.0040695,0.878145,-0.463904,0.0347515,1.108675,-0.464644,0.0262785,0.8498749999999999,-0.841704,0.0580715,1.131705,-0.847744,0.0560495
32,1.0423165,0.6949935,-0.144249,0.8518485,0.5195735,-0.072223,0.7077985,0.3422835,0.006095,1.2148984999999999,0.4754935,-0.07823,1.3211884999999999,0.2764735,-0.02162,0.8126485,0.1679935,-0.111549,1.1852384999999999,0.1054835,-0.121109,0.9221535,0.0061155,0.004121,1.0778465,-0.0061155,-0.004121,0.8779585,-0.4636765,0.036153,1.1084885,-0.4643265,0.027879,0.8495885000000001,-0.8416965,0.060095,1.1315485,-0.8479165,0.057765
33,1.0413585,0.697345,-0.1395519999999999,0.8512935,0.519975,-0.068938,0.7075435000000001,0.340465,0.008827,1.2142534999999999,0.476885,-0.0756589999999999,1.3212035,0.277715,-0.019537,0.8103835,0.1673049999999999,-0.109092,1.1862035,0.105455,-0.120862,0.9222445,0.006054,0.00417,1.0777555,-0.006054,-0.00417,0.8778435,-0.463375,0.037679,1.1083535,-0.4638649999999999,0.029621,0.8493835000000001,-0.841485,0.062414,1.1314635,-0.847905,0.059759
34,1.0402275,0.700043,-0.134211,0.8506125,0.5201629999999999,-0.0656549999999999,0.7080525000000001,0.337743,0.0119639999999999,1.2135825,0.478503,-0.07294,1.3211625,0.279103,-0.017497,0.8082125,0.164433,-0.106501,1.1871924999999999,0.106583,-0.120401,0.9223285,0.005906,0.0042179999999999,1.0776715000000001,-0.005906,-0.0042179999999999,0.8777325,-0.462897,0.039296,1.1082125,-0.463247,0.031382,0.8491925,-0.8410470000000001,0.064865,1.1313825,-0.8476570000000001,0.061903
35,1.038956,0.7029455,-0.1283105,0.8496780000000002,0.5201155000000001,-0.0621435,0.709418,0.3338255,0.0153685,1.2128079999999999,0.4802154999999999,-0.0700565,1.320938,0.2803954999999999,-0.0157334999999999,0.807418,0.1588855,-0.1036105,1.188908,0.1065855,-0.1195805,0.9224060000000001,0.0057415,0.0041775,1.077594,-0.0057415,-0.0041774999999999,0.877578,-0.4623945,0.0409734999999999,1.108028,-0.4626445,0.0332164999999999,0.848968,-0.8405745,0.0674885,1.131258,-0.8474045,0.0642825
36,1.0375355,0.7058289999999999,-0.1218645,0.8485985,0.519709,-0.0584124999999999,0.7116685,0.3290889999999999,0.0190525,1.2119285,0.481969,-0.0669645,1.3205285,0.281429,-0.0142005,0.8065285,0.151329,-0.1001244999999999,1.1895885,0.107119,-0.1180145,0.9224675,0.005559,0.0041405,1.0775325,-0.005559,-0.0041405,0.8773385000000001,-0.461861,0.0427675,1.1077385,-0.462101,0.0351515,0.8486485,-0.840041,0.0702935,1.1310385,-0.847091,0.0668655
37,1.0360624999999999,0.708845,-0.115066,0.8474845,0.519035,-0.0547589999999999,0.7144345,0.323635,0.022508,1.2110845000000001,0.483685,-0.0640189999999999,1.3201444999999998,0.282155,-0.0128849999999999,0.8052545,0.143725,-0.096526,1.1901145,0.1074349999999999,-0.116116,0.9224965,0.005401,0.004117,1.0775035,-0.005401,-0.0041169999999999,0.8771045000000001,-0.461335,0.044232,1.1074445,-0.461785,0.036914,0.8483545,-0.839365,0.072962,1.1307845,-0.846705,0.069358
38,1.03458,0.711694,-0.108209,0.8463350000000001,0.518074,-0.051202,0.717565,0.3187439999999999,0.02522,1.210205,0.4853139999999999,-0.06116,1.319695,0.282864,-0.011697,0.802645,0.135574,-0.089679,1.190335,0.107904,-0.114149,0.922507,0.005263,0.0040809999999999,1.077493,-0.005263,-0.004081,0.876765,-0.460816,0.0455509999999999,1.107135,-0.461746,0.038589,0.847985,-0.838696,0.075518,1.1304249999999998,-0.846166,0.07184
39,1.0331884999999998,0.7148235000000001,-0.101269,0.8453695,0.5169335,-0.047852,0.7210495,0.3138535,0.02762,1.2093194999999999,0.4868335,-0.0583029999999999,1.3192195,0.2837335,-0.010372,0.7995895,0.1272635,-0.083799,1.1902595,0.1087735,-0.112119,0.9224475,0.0050685,0.004008,1.0775525,-0.0050685,-0.004008,0.8764295,-0.4604565,0.046914,1.1068395,-0.4615364999999999,0.040296,0.8476395,-0.8378964999999999,0.078121,1.1300895,-0.8454265,0.0743979999999999
40,1.0319875,0.717881,-0.094423,0.8445975,0.515571,-0.044813,0.7248575000000002,0.309301,0.0298879999999999,1.2084375,0.488181,-0.055652,1.3185875,0.284481,-0.009248,0.7955375,0.118571,-0.078343,1.1902375,0.110271,-0.1102529999999999,0.9223915,0.004903,0.0039839999999999,1.0776085,-0.004903,-0.003984,0.8761075,-0.460079,0.04803,1.1065375,-0.461409,0.041807,0.8472975,-0.837099,0.080516,1.1297275,-0.844629,0.0767549999999999
41,1.0310335,0.7210650000000001,-0.088034,0.8439715,0.5141450000000001,-0.042186,0.7289015000000001,0.303735,0.031922,1.2076115,0.489425,-0.053313,1.3180215,0.285205,-0.00827,0.7911715000000001,0.1090349999999999,-0.073342,1.1901315000000001,0.1118649999999999,-0.108574,0.9223365,0.004726,0.0039059999999999,1.0776634999999999,-0.004726,-0.0039059999999999,0.8757715,-0.459725,0.048854,1.1062315,-0.461255,0.043048,0.8469015,-0.836325,0.0826,1.1293515,-0.8437549999999999,0.078863
42,1.0302799999999999,0.7238344999999999,-0.082191,0.843384,0.5124345,-0.0400129999999999,0.732774,0.2965645,0.033021,1.2067739999999998,0.4905545,-0.0511579999999999,1.317514,0.2859744999999999,-0.0072899999999999,0.784884,0.0955854999999999,-0.068553,1.190194,0.1130045,-0.1073809999999999,0.922282,0.0045225,0.0038119999999999,1.077718,-0.0045225,-0.0038119999999999,0.875414,-0.4593655,0.0495909999999999,1.105914,-0.4611555,0.04409,0.846484,-0.8355655000000001,0.084409,1.128954,-0.8429155,0.080683
43,1.029841,0.726345,-0.076828,0.842945,0.510735,-0.038035,0.735805,0.289375,0.03343,1.206025,0.491525,-0.0490219999999999,1.317115,0.286605,-0.0062899999999999,0.7778849999999999,0.0821819999999999,-0.064482,1.190375,0.1137649999999999,-0.106468,0.9222430000000001,0.004391,0.003724,1.0777569999999999,-0.004391,-0.0037239999999999,0.875135,-0.459065,0.050143,1.105635,-0.461165,0.045016,0.846095,-0.8348949999999999,0.086058,1.128585,-0.842155,0.082325
44,1.0296325,0.7288595,-0.0715915,0.8426395,0.5090494999999999,-0.0364955,0.7375695,0.2820395,0.0334014999999999,1.2054195,0.4923895,-0.0470815,1.3168495,0.2874395,-0.0052565,0.7697495,0.0685725,-0.0605345,1.1907195,0.1145595,-0.1062615,0.9221725000000001,0.0042334999999999,0.0036714999999999,1.0778275,-0.0042334999999999,-0.0036715,0.8749595,-0.4587905,0.0505694999999999,1.1054395,-0.4611805,0.0457105,0.8457795,-0.8341805,0.0874465,1.1283095,-0.8412705,0.0837374999999999
45,1.0295785,0.731368,-0.0668045,0.8424845000000001,0.507478,-0.0353175,0.7379445,0.275158,0.0327895,1.2050345,0.493158,-0.0452775,1.3166945,0.288208,-0.0042384999999999,0.7603645,0.054804,-0.0576855,1.1916844999999998,0.115328,-0.1069945,0.9220945,0.004077,0.0035745,1.0779055,-0.004077,-0.0035745,0.8749045,-0.458522,0.0508415,1.1054045,-0.461242,0.0461675,0.8455945000000001,-0.833522,0.0885475,1.1281945,-0.8404119999999999,0.0848965
46,1.0295355,0.733836,-0.0622439999999999,0.8423435000000001,0.505936,-0.034189,0.7377435,0.269306,0.03158,1.2047235,0.493976,-0.04346,1.3167735,0.289046,-0.0033089999999999,0.7500635000000001,0.041752,-0.0562879999999999,1.1914735,0.114966,-0.1086429999999999,0.9220065,0.003916,0.003421,1.0779935,-0.003916,-0.003421,0.8748635000000001,-0.458494,0.051248,1.1053535,-0.461074,0.046525,0.8453935000000001,-0.833234,0.089589,1.1280635,-0.839414,0.085995
47,1.029622,0.7362945,-0.057878,0.842376,0.5045245,-0.033117,0.737546,0.2651345,0.029533,1.204466,0.4947845,-0.0416439999999999,1.317296,0.2899045,-0.0024179999999999,0.738656,0.0341965,-0.0549229999999999,1.192406,0.1139845,-0.110797,0.921956,0.0037645,0.003155,1.078044,-0.0037645,-0.0031549999999999,0.874866,-0.4583455,0.051578,1.105316,-0.4607255,0.046787,0.8452459999999999,-0.8329455,0.090541,1.127976,-0.8382355,0.086989
48,1.02992,0.738348,-0.0537124999999999,0.842531,0.503238,-0.0321535,0.737351,0.263638,0.0264635,1.204261,0.495328,-0.0399014999999999,1.3186609999999999,0.291198,-0.0019924999999999,0.725681,0.03275,-0.0536905,1.202821,0.1145979999999999,-0.1141074999999999,0.921937,0.0036759999999999,0.0029345,1.078063,-0.003676,-0.0029344999999999,0.874891,-0.458022,0.0517955,1.105301,-0.460572,0.0469435,0.845131,-0.832692,0.0913275,1.127911,-0.8372120000000001,0.0878075
49,1.030377,0.740203,-0.049692,0.842805,0.502313,-0.031332,0.736175,0.264123,0.022039,1.204045,0.4957129999999999,-0.038173,1.3207149999999999,0.2930629999999999,-0.002346,0.7091350000000001,0.033235,-0.053604,1.215845,0.1155129999999999,-0.119437,0.9219040000000001,0.003586,0.0026829999999999,1.078096,-0.0035859999999999,-0.0026829999999999,0.8748750000000001,-0.457767,0.051934,1.105255,-0.460417,0.047066,0.844985,-0.8325269999999999,0.092009,1.127805,-0.836337,0.088504
50,1.030952,0.7419255,-0.0455734999999999,0.8432,0.5015455,-0.0307435,0.73315,0.2644355,0.0162895,1.20376,0.4960354999999999,-0.0364345,1.32369,0.2956454999999999,-0.0044085,0.68879,0.0335475,-0.0582315,1.2322,0.1164455,-0.1277945,0.921848,0.0035124999999999,0.0024225,1.078152,-0.0035125,-0.0024225,0.8749,-0.4575645,0.0520495,1.10524,-0.4603945,0.0471105,0.84482,-0.8323445,0.0925285,1.12771,-0.8356645,0.0889995
51,1.0316345,0.7434244999999999,-0.041547,0.8435865000000001,0.5011145,-0.0302689999999999,0.7282065,0.2645545,0.010113,1.2034665,0.4961545,-0.0348089999999999,1.3273964999999999,0.2989945,-0.0076019999999999,0.6677265,0.0336665,-0.0662809999999999,1.2542164999999998,0.1173245,-0.139341,0.9217435,0.0034334999999999,0.002147,1.0782565,-0.0034335,-0.0021469999999999,0.8749365,-0.4574955,0.052008,1.1052464999999998,-0.4605455,0.047088,0.8446665000000001,-0.8323455000000001,0.092825,1.1276165,-0.8351855,0.089363
52,1.0323095,0.744856,-0.037154,0.8437545,0.501016,-0.0298809999999999,0.7209145,0.267106,0.002562,1.2030945,0.496176,-0.0331239999999999,1.3323945,0.303746,-0.011658,0.6451045,0.041802,-0.07663,1.2812744999999999,0.122756,-0.1539,0.9216345,0.0034119999999999,0.0018519999999999,1.0783655,-0.003412,-0.0018519999999999,0.8749245,-0.457474,0.051925,1.1052445,-0.460744,0.0470369999999999,0.8445045,-0.832454,0.093036,1.1275244999999998,-0.8347340000000001,0.089639
53,1.03278,0.746076,-0.0329214999999999,0.84361,0.501016,-0.0295594999999999,0.7121,0.274356,-0.0058534999999999,1.20274,0.496176,-0.0312085,1.33853,0.309976,-0.0171604999999999,0.62081,0.058182,-0.0896365,1.31213,0.136496,-0.1682765,0.9215500000000001,0.0034119999999999,0.0016195,1.07845,-0.003412,-0.0016194999999999,0.8748400000000001,-0.457474,0.0517835,1.10519,-0.460874,0.0469575,0.84434,-0.832554,0.0931655,1.12736,-0.834314,0.0898125
54,1.0330395,0.7471559999999999,-0.0284579999999999,0.8433755000000001,0.501016,-0.029059,0.7005155000000001,0.287256,-0.0158639999999999,1.2023754999999998,0.496396,-0.0293869999999999,1.3461655000000001,0.318786,-0.0242639999999999,0.5948255,0.084992,-0.105615,1.3472955,0.157266,-0.184085,0.9214905,0.0034119999999999,0.001414,1.0785095,-0.003412,-0.0014139999999999,0.8746655,-0.457474,0.051552,1.1050555,-0.460954,0.046825,0.8440955,-0.8327140000000001,0.093291,1.1271255,-0.8339040000000001,0.089909
55,1.033139,0.7481185,-0.024099,0.8431569999999999,0.5009585,-0.028157,0.687717,0.3048585,-0.027102,1.202097,0.4966385,-0.0275789999999999,1.355337,0.3320585,-0.033843,0.567517,0.1207885,-0.124228,1.385737,0.1839385,-0.200898,0.92144,0.0033545,0.001308,1.07856,-0.0033545,-0.0013079999999999,0.874517,-0.4575115,0.051247,1.104937,-0.4610115,0.046765,0.843847,-0.8327915,0.093376,1.1268969999999998,-0.8336614999999999,0.090002
56,1.0330555,0.7488665,-0.019747,0.8429135,0.5009865,-0.027109,0.6747535,0.3267065,-0.039014,1.2017735,0.4968165,-0.025678,1.3649735,0.3489065,-0.045227,0.5384635,0.1655464999999999,-0.146888,1.4262234999999999,0.2181165,-0.218208,0.9214035,0.0033025,0.0012869999999999,1.0785965,-0.0033025,-0.001287,0.8743335,-0.4574434999999999,0.050883,1.1047735,-0.4611834999999999,0.0467179999999999,0.8435735,-0.8330935,0.093415,1.1266035,-0.8337035,0.090005
57,1.0328215,0.749235,-0.0157235,0.8423475000000001,0.501505,-0.0255395,0.6624375,0.352835,-0.0511275,1.2013075,0.497015,-0.0236335,1.3740975,0.368165,-0.0570765,0.5125975,0.220415,-0.1708245,1.4563575,0.260575,-0.2345045,0.9213915,0.003264,0.0012814999999999,1.0786085,-0.003264,-0.0012815,0.8740675,-0.457545,0.0504774999999999,1.1045375,-0.461605,0.0466834999999999,0.8432675000000001,-0.833625,0.0934234999999999,1.1262475,-0.834005,0.0899824999999999
58,1.032584,0.749321,-0.0118769999999999,0.841584,0.502281,-0.023763,0.650394,0.381811,-0.0635979999999999,1.200824,0.497201,-0.021669,1.383434,0.390001,-0.069548,0.49418400000000007,0.285371,-0.192898,1.485464,0.311541,-0.2499679999999999,0.9214120000000001,0.003221,0.001271,1.0785879999999999,-0.003221,-0.001271,0.873794,-0.457519,0.050053,1.104304,-0.4623089999999999,0.046668,0.843014,-0.834099,0.0933809999999999,1.125894,-0.834569,0.089959
59,1.032338,0.748976,-0.0083994999999999,0.840651,0.503406,-0.0217785,0.6403210000000001,0.414266,-0.0746995,1.200281,0.497456,-0.0198474999999999,1.393001,0.414976,-0.0808795,0.48123099999999996,0.354296,-0.2112795,1.510311,0.370216,-0.2589094999999999,0.921447,0.003174,0.0012655,1.078553,-0.0031739999999999,-0.0012654999999999,0.873471,-0.458534,0.0497635,1.104061,-0.4632239999999999,0.0466585,0.842711,-0.8351339999999999,0.0933165,1.125551,-0.8354739999999999,0.0899415
60,1.0320525,0.748336,-0.0051325,0.8393585,0.505066,-0.0197065,0.6321085,0.446666,-0.0839635,1.1997685,0.4980259999999999,-0.0180395,1.4014685,0.443806,-0.0896035,0.4757085,0.425946,-0.2220135,1.5288485,0.434316,-0.2621435,0.9214955,0.003069,0.0012584999999999,1.0785045,-0.003069,-0.0012585,0.8731485,-0.459844,0.0495584999999999,1.1038284999999999,-0.464344,0.0466414999999999,0.8424285,-0.836444,0.0933035,1.1252285,-0.836674,0.0899285
61,1.031632,0.7474850000000001,-0.002377,0.837958,0.506815,-0.017664,0.626478,0.4797349999999999,-0.090735,1.199288,0.4987749999999999,-0.016399,1.4060380000000001,0.471885,-0.095985,0.47394800000000004,0.494655,-0.229235,1.540958,0.500125,-0.262285,0.9215550000000001,0.002954,0.0012509999999999,1.0784449999999999,-0.002954,-0.001251,0.872818,-0.461375,0.049432,1.103578,-0.465675,0.0467179999999999,0.842148,-0.837985,0.0934319999999999,1.124918,-0.8381449999999999,0.090069
62,1.031139,0.7465985,-0.0001479999999999,0.836533,0.5085185,-0.015647,0.623193,0.5127985,-0.095341,1.198833,0.4998285,-0.0150449999999999,1.408903,0.5011785,-0.1003609999999999,0.473583,0.5650385,-0.231811,1.548173,0.5623485,-0.262211,0.921625,0.0028255,0.00123,1.078375,-0.0028255,-0.00123,0.872533,-0.4631015,0.049415,1.103333,-0.4670315,0.046858,0.841913,-0.8396414999999999,0.093616,1.124633,-0.8397215,0.090325
63,1.030554,0.745544,0.001252,0.835012,0.5103840000000001,-0.0137499999999999,0.622782,0.543704,-0.0981929999999999,1.198302,0.501144,-0.0137979999999999,1.4091420000000001,0.529034,-0.102153,0.47331199999999995,0.630084,-0.2315029999999999,1.5479020000000001,0.619624,-0.261903,0.921724,0.002689,0.001191,1.078276,-0.002689,-0.0011909999999999,0.8722719999999999,-0.464876,0.049449,1.103072,-0.468436,0.047017,0.8416520000000001,-0.841536,0.093918,1.124362,-0.841386,0.090603
64,1.0297325,0.7441239999999999,0.0022744999999999,0.8335535000000001,0.5120739999999999,-0.0120905,0.6224435000000001,0.5715439999999999,-0.0991964999999999,1.1977235,0.5028539999999999,-0.0125175,1.4088435000000001,0.555334,-0.1017165,0.4730135,0.688094,-0.2310664999999999,1.5476835,0.674384,-0.2585965,0.9218765,0.002516,0.0011354999999999,1.0781235,-0.0025159999999999,-0.0011355,0.8719735,-0.467076,0.0496654999999999,1.1027635,-0.4702159999999999,0.0472815,0.8413535,-0.843816,0.0943405,1.1240935,-0.843446,0.0910074999999999
65,1.028825,0.7425205,0.002914,0.8321149999999999,0.5138505,-0.010527,0.6221750000000001,0.5966705,-0.0986519999999999,1.197125,0.5046705,-0.0113969999999999,1.408575,0.5780005,-0.101172,0.476055,0.7409305,-0.230612,1.547555,0.7252105,-0.253052,0.9220740000000001,0.0023194999999999,0.0010959999999999,1.077926,-0.0023194999999999,-0.0010959999999999,0.871705,-0.4694095,0.050028,1.102495,-0.4721694999999999,0.047624,0.841085,-0.8464594999999999,0.094839,1.123885,-0.8456994999999999,0.091526
66,1.0278395,0.7407775000000001,0.0035854999999999,0.8307845,0.5154475000000001,-0.0093255,0.6219945,0.6208475,-0.0980035,1.1966245,0.5064075,-0.0104735,1.4083945,0.5989275000000001,-0.1005235,0.48532450000000005,0.7863275000000001,-0.2272235,1.5470945,0.7690875,-0.2411135,0.9222735,0.0021355,0.0011164999999999,1.0777265,-0.0021355,-0.0011165,0.8715245,-0.4719425,0.0505245,1.1023044999999998,-0.4743025,0.0480685,0.8409044999999999,-0.8491124999999999,0.0954634999999999,1.1237645,-0.8481124999999999,0.0921765
67,1.0268739999999998,0.7390885,0.0042815,0.829574,0.5169485,-0.0083544999999999,0.6238239999999999,0.6419785,-0.0973805,1.196104,0.5081085,-0.0095934999999999,1.406574,0.6168685,-0.0988505,0.49894400000000005,0.8228785,-0.2199205,1.542274,0.8059185,-0.2258804999999999,0.922443,0.0019504999999999,0.0011395,1.077557,-0.0019505,-0.0011394999999999,0.871324,-0.4744015,0.0510785,1.102134,-0.4763815,0.0486105,0.8407640000000001,-0.8515715,0.0960965,1.123664,-0.8504415,0.0928485
68,1.025917,0.737547,0.0049315,0.828472,0.518247,-0.0076994999999999,0.627092,0.6583169999999999,-0.0968444999999999,1.195432,0.509797,-0.0088044999999999,1.403972,0.631547,-0.0952845,0.517842,0.851887,-0.2082445,1.534022,0.8348869999999999,-0.2087144999999999,0.922573,0.00179,0.0011425,1.077427,-0.0017899999999999,-0.0011424999999999,0.871152,-0.4767929999999999,0.0516175,1.101972,-0.4782229999999999,0.0491645,0.840632,-0.853813,0.0966645,1.123602,-0.852593,0.0934645
69,1.024953,0.736164,0.005204,0.827642,0.5193840000000001,-0.007162,0.631012,0.673114,-0.095358,1.194732,0.5111140000000001,-0.0082179999999999,1.401022,0.641614,-0.090758,0.536702,0.8737240000000001,-0.194108,1.524082,0.856854,-0.190518,0.922698,0.001714,0.001118,1.077302,-0.0017139999999999,-0.001118,0.871022,-0.479236,0.052135,1.101822,-0.479946,0.049683,0.840492,-0.855906,0.09708,1.1235719999999998,-0.854576,0.093967
70,1.0240795,0.734865,0.0048509999999999,0.8269135,0.520455,-0.006932,0.6363635000000001,0.684315,-0.0925069999999999,1.1941035,0.512225,-0.007926,1.3970135,0.651265,-0.085077,0.5527935000000002,0.890505,-0.179747,1.5120935,0.872795,-0.171087,0.9228045,0.0016509999999999,0.0010629999999999,1.0771955,-0.001651,-0.001063,0.8709235,-0.4816049999999999,0.052389,1.1016935,-0.481485,0.0498959999999999,0.8404635,-0.857905,0.097273,1.1235835,-0.856375,0.0941809999999999
71,1.023308,0.7335164999999999,0.0040084999999999,0.826235,0.5216065000000001,-0.0069125,0.6415850000000001,0.6928065000000001,-0.0894985,1.193655,0.5128965000000001,-0.0078855,1.391935,0.6581265000000001,-0.0792985,0.5680050000000001,0.8996265000000001,-0.1657485,1.5008249999999999,0.8842565,-0.1552985,0.9229140000000001,0.0015944999999999,0.0010594999999999,1.077086,-0.0015944999999999,-0.0010595,0.870955,-0.4834935,0.0524724999999999,1.1016650000000001,-0.4829635,0.0498975,0.840525,-0.8597835,0.0972605,1.123665,-0.8581135,0.0941815
72,1.0225235,0.7322725000000001,0.002921,0.8256185,0.5226225,-0.007153,0.6467585,0.7001625,-0.0869709999999999,1.1933485,0.5132725,-0.007868,1.3872385,0.6640824999999999,-0.075241,0.5788485,0.9083825,-0.155951,1.4908484999999998,0.8928825,-0.142321,0.9230075000000001,0.0015545,0.001057,1.0769924999999998,-0.0015545,-0.001057,0.8710185,-0.4851975,0.052508,1.1016485,-0.4843475,0.049925,0.8406184999999999,-0.8615474999999999,0.097241,1.1237585,-0.8597775000000001,0.094181
73,1.0218589999999999,0.7312805,0.0017845,0.825047,0.5236505,-0.0074604999999999,0.651187,0.7066005000000001,-0.0853244999999999,1.193157,0.5133305,-0.0078634999999999,1.385147,0.6670405,-0.0728645,0.588337,0.9165005,-0.1476745,1.482067,0.8978205,-0.1328745,0.923126,0.0015504999999999,0.0010535,1.076874,-0.0015504999999999,-0.0010534999999999,0.871097,-0.4864295,0.0525085,1.101647,-0.4853395,0.0500685,0.8407470000000001,-0.8628494999999999,0.0972315,1.1238869999999999,-0.8610095,0.0941915
74,1.0213055,0.730396,0.000611,0.8246405,0.524566,-0.007889,0.6544605,0.712246,-0.084991,1.1930405,0.5133260000000001,-0.007911,1.3831205,0.669846,-0.071341,0.5963805,0.922046,-0.141041,1.4740005,0.899356,-0.125981,0.9232895000000001,0.0016149999999999,0.00102,1.0767105,-0.001615,-0.00102,0.8712505,-0.487114,0.05233,1.1016805,-0.486124,0.05024,0.8409805,-0.863614,0.097181,1.1240504999999998,-0.861974,0.094136
75,1.021091,0.7299415,-0.0008179999999999,0.824553,0.5254615,-0.0088709999999999,0.657553,0.7144315,-0.0854329999999999,1.193053,0.5133115,-0.008425,1.382073,0.6714415,-0.071823,0.601773,0.9261515,-0.137313,1.469063,0.8999515,-0.1245629999999999,0.923474,0.0017215,0.0009559999999999,1.076526,-0.0017215,-0.0009559999999999,0.871533,-0.4873385,0.051692,1.101853,-0.4864885,0.0499659999999999,0.841343,-0.8639085,0.096663,1.124323,-0.8626185000000001,0.093732
76,1.0209525,0.7298140000000001,-0.002874,0.8246735000000001,0.526364,-0.010644,0.6603335,0.715774,-0.086444,1.1931835,0.5131840000000001,-0.009482,1.3814235,0.6719240000000001,-0.072734,0.6059034999999999,0.929364,-0.1359739999999999,1.4649035,0.9000940000000001,-0.125364,0.9236044999999999,0.001849,0.0008179999999999,1.0763955,-0.001849,-0.000818,0.8719435,-0.487246,0.0506829999999999,1.1023335,-0.486466,0.048975,0.8417935,-0.8639159999999999,0.095722,1.1247435,-0.862926,0.0928219999999999
77,1.021007,0.7298140000000001,-0.0058845,0.824963,0.5270140000000001,-0.0132925,0.662813,0.7160040000000001,-0.0881615,1.193423,0.5131840000000001,-0.0113315,1.380823,0.6719240000000001,-0.0743715,0.6107929999999999,0.934764,-0.1362415,1.461713,0.9000940000000001,-0.1269315,0.923651,0.001849,0.0007114999999999,1.076349,-0.001849,-0.0007115,0.8723730000000001,-0.487096,0.0486084999999999,1.102963,-0.486356,0.0472794999999999,0.842383,-0.8639159999999999,0.0940385,1.125313,-0.8631559999999999,0.0911495
78,1.021241,0.7295440000000001,-0.0099609999999999,0.825454,0.5270140000000001,-0.0169529999999999,0.664914,0.7160040000000001,-0.090701,1.193744,0.5131840000000001,-0.0141859999999999,1.3805640000000001,0.6719240000000001,-0.077041,0.6149640000000001,0.939384,-0.138351,1.459464,0.9000940000000001,-0.1293409999999999,0.923643,0.001849,0.000566,1.076357,-0.001849,-0.0005659999999999,0.872694,-0.486946,0.044744,1.103764,-0.486266,0.04478,0.843154,-0.8639159999999999,0.091486,1.126104,-0.863436,0.08865
79,1.021566,0.7286374999999999,-0.0158434999999999,0.82607,0.5270375,-0.0215874999999999,0.6663399999999999,0.7160275,-0.0946404999999999,1.19412,0.5131475,-0.0180054999999999,1.3804,0.6719475,-0.0816605,0.61928,0.9394075,-0.1415104999999999,1.45769,0.9001175,-0.1328405,0.923591,0.0018724999999999,0.0004945,1.076409,-0.0018724999999999,-0.0004944999999999,0.87282,-0.4868425,0.0388155,1.10494,-0.4861025,0.0401515,0.84415,-0.8638925,0.0883395,1.12711,-0.8637525,0.0855805
80,1.022214,0.72665,-0.0234524999999999,0.8271390000000001,0.52761,-0.0271914999999999,0.667789,0.7166,-0.1005285,1.194649,0.5124299999999999,-0.0233475,1.380579,0.67131,-0.0882985,0.623779,0.93998,-0.1456385,1.4565190000000001,0.89986,-0.1387785,0.923476,0.0020739999999999,0.0003165,1.076524,-0.0020739999999999,-0.0003165,0.873119,-0.48629,0.0304535,1.106949,-0.4850399999999999,0.0326865,0.845459,-0.8633500000000001,0.0841315,1.128519,-0.86356,0.0813735
81,1.02327,0.7242755,-0.032498,0.82857,0.5250555,-0.036132,0.66959,0.7162455,-0.108485,1.19528,0.5108255,-0.030565,1.38122,0.6705355000000001,-0.096885,0.62859,0.9419255,-0.1505949999999999,1.45572,0.8997455,-0.147675,0.923295,0.0023234999999999,-2.8000000000000247e-05,1.076705,-0.0023234999999999,2.8000000000000247e-05,0.87349,-0.4844245,0.019492,1.1099,-0.4829144999999999,0.022137,0.84719,-0.8617345,0.078878,1.1303699999999999,-0.8619745,0.076101
82,1.024533,0.721039,-0.0432945,0.8302590000000001,0.523189,-0.0461354999999999,0.671589,0.714189,-0.1190695,1.1961089999999999,0.5084190000000001,-0.0392685,1.382329,0.6694990000000001,-0.1074995,0.633509,0.943279,-0.1586095,1.455339,0.900719,-0.1584895,0.923042,0.002491,-0.0002245,1.076958,-0.0024909999999999,0.0002244999999999,0.873649,-0.480931,0.0059474999999999,1.113509,-0.4792909999999999,0.0095224999999999,0.8490489999999999,-0.858501,0.0726344999999999,1.132549,-0.8588709999999999,0.0696845
83,1.0257315,0.7158045,-0.055639,0.8320475,0.5205245,-0.056911,0.6736275,0.7112445,-0.130802,1.1970175,0.5055845,-0.048857,1.3836775000000001,0.6660245,-0.119752,0.6383274999999999,0.9456545,-0.167542,1.4548675,0.9006945,-0.171622,0.9227615,0.0026964999999999,-0.0005479999999999,1.0772385,-0.0026965,0.0005479999999999,0.8736174999999999,-0.4761055,-0.0094539999999999,1.1176775,-0.4739355,-0.0050409999999999,0.8508775,-0.8536055,0.065869,1.1349675,-0.8540555,0.062627
84,1.0269490000000001,0.7107650000000001,-0.068766,0.833894,0.518225,-0.068242,0.675844,0.706265,-0.143741,1.198254,0.501745,-0.059194,1.385114,0.6624450000000001,-0.132691,0.6434340000000001,0.949725,-0.177391,1.4544839999999999,0.902885,-0.184621,0.922478,0.002904,-0.000863,1.077522,-0.0029039999999999,0.000863,0.873324,-0.468955,-0.026246,1.122314,-0.466025,-0.020892,0.852734,-0.8467749999999999,0.058502,1.137614,-0.846645,0.0550699999999999
85,1.0281835,0.7047895,-0.0829815,0.8356215,0.5133995,-0.0808055,0.6774815000000001,0.7002795,-0.1579315,1.1989415,0.4975895,-0.0705404999999999,1.3864515,0.6570695,-0.1473015,0.6487415000000001,0.9534295,-0.1898315,1.4532315,0.9053995,-0.1988315,0.9223695000000001,0.0029335,-0.0010775,1.0776305,-0.0029335,0.0010775,0.8725215,-0.4599605,-0.0448025,1.1272715,-0.4556604999999999,-0.0384265,0.8543015,-0.8377005,0.0498505,1.1402115,-0.8369905,0.0462534999999999
86,1.0295135,0.698441,-0.097177,0.8375325,0.5092110000000001,-0.09306,0.6788625000000001,0.693331,-0.1723799999999999,1.1997725,0.492461,-0.082137,1.3878625,0.651111,-0.16224,0.6530325,0.956291,-0.20316,1.4516525,0.898231,-0.21422,0.9222715,0.003127,-0.0012979999999999,1.0777285,-0.003127,0.001298,0.8717225,-0.448479,-0.063974,1.1332725,-0.444369,-0.057274,0.8558125,-0.826459,0.040457,1.1434825,-0.825489,0.036123
87,1.0308555,0.691076,-0.1109995,0.8392995,0.503996,-0.1050545,0.6799695,0.684986,-0.1873155,1.2005495,0.486756,-0.0936355,1.3890995,0.6446459999999999,-0.1770055,0.6569495000000001,0.957436,-0.2173855,1.4493895,0.892046,-0.2291355,0.9222125,0.0032039999999999,-0.0014825,1.0777875,-0.003204,0.0014824999999999,0.8703295,-0.435864,-0.0835965,1.1404495,-0.431544,-0.0776125,0.8570895000000001,-0.813144,0.0304705,1.1469395,-0.811174,0.0257985
88,1.032279,0.6840945,-0.1282285,0.8408249999999999,0.4984845,-0.1213984999999999,0.680685,0.6781845,-0.2062885,1.2012450000000001,0.4816745,-0.1095485,1.390535,0.6394645,-0.1964485,0.660265,0.9566045,-0.2377585,1.446555,0.8884645,-0.2484985,0.922082,0.0030474999999999,-0.0019024999999999,1.077918,-0.0030475,0.0019025,0.868685,-0.4203955,-0.1074924999999999,1.147455,-0.4160755,-0.1015005,0.858085,-0.7970254999999999,0.0158595,1.150235,-0.7938955,0.0107085
89,1.0332715,0.678176,-0.146172,0.8427525,0.492696,-0.139792,0.6813225,0.6739259999999999,-0.2272719999999999,1.2011725,0.477166,-0.127238,1.3911825,0.633876,-0.2169519999999999,0.6630825,0.954286,-0.260792,1.4429025,0.882386,-0.271772,0.9219984999999999,0.0029449999999999,-0.001987,1.0780015,-0.002945,0.001987,0.8664425,-0.399394,-0.138682,1.1565725,-0.394834,-0.131916,0.8590525,-0.7755040000000001,-0.00216,1.1548225,-0.7737240000000001,-0.00997
90,1.0338845,0.6736650000000001,-0.163233,0.8446575000000001,0.489985,-0.1550929999999999,0.6818474999999999,0.668335,-0.247353,1.2007975,0.473655,-0.143247,1.3914475,0.628985,-0.236453,0.6654675,0.944995,-0.284423,1.4387875,0.876715,-0.293523,0.9220145,0.002855,-0.001936,1.0779855,-0.0028549999999999,0.001936,0.8638775000000001,-0.3787049999999999,-0.1683029999999999,1.1651174999999998,-0.3737549999999999,-0.160243,0.8595475000000001,-0.753795,-0.019424,1.1589375,-0.7536149999999999,-0.0303179999999999
91,1.0345515,0.667775,-0.1789965,0.8467775,0.487355,-0.1697365,0.6824475,0.6632150000000001,-0.2656865,1.2010175,0.469735,-0.1581365,1.3920375,0.625105,-0.2551465,0.6678474999999999,0.940235,-0.3054865,1.4341675,0.870315,-0.3151565,0.9221725000000001,0.003175,-0.0019974999999999,1.0778275,-0.003175,0.0019974999999999,0.8616475,-0.356865,-0.1970765,1.1736075,-0.351595,-0.1882965,0.8600175,-0.7306349999999999,-0.0358905,1.1605275,-0.7304250000000001,-0.0462635
92,1.0353645,0.6653,-0.193493,0.8490345,0.48537,-0.184153,0.6830745,0.65793,-0.283583,1.2013945,0.46644,-0.172533,1.3924845000000001,0.6218,-0.272793,0.6704445,0.93615,-0.326573,1.4300245,0.86115,-0.336173,0.9222855,0.0032899999999999,-0.002109,1.0777145,-0.0032899999999999,0.0021089999999999,0.8595545,-0.33523,-0.224873,1.1818745,-0.32922,-0.215723,0.8605745000000001,-0.70608,-0.052026,1.1619345,-0.70592,-0.061738
93,1.0357045,0.66222,-0.207443,0.8507495,0.48077,-0.197713,0.6831895,0.6542600000000001,-0.300683,1.2007695,0.46358,-0.1861229999999999,1.3926895,0.61941,-0.2896729999999999,0.6719895,0.93025,-0.3481329999999999,1.4263095,0.8512299999999999,-0.356653,0.9224395,0.00331,-0.00211,1.0775605,-0.00331,0.00211,0.8563195,-0.31349,-0.2527629999999999,1.1890494999999999,-0.30648,-0.242863,0.8605595,-0.6803699999999999,-0.067232,1.1624895,-0.68055,-0.076301
94,1.03622,0.6564650000000001,-0.220447,0.8528249999999999,0.479265,-0.209787,0.6842250000000001,0.648835,-0.316377,1.2003249999999999,0.461145,-0.198587,1.392995,0.6167750000000001,-0.304927,0.6729849999999999,0.919555,-0.368397,1.423225,0.8440350000000001,-0.375737,0.922683,0.0034949999999999,-0.002255,1.077317,-0.0034949999999999,0.0022549999999999,0.8533850000000001,-0.291145,-0.280187,1.195865,-0.284495,-0.269377,0.8604350000000001,-0.6540950000000001,-0.0814,1.163075,-0.6545749999999999,-0.08961
95,1.0363405,0.653195,-0.2332365,0.8543895,0.479145,-0.2214465,0.6849195,0.644335,-0.3317065,1.1993895,0.460695,-0.2102865,1.3927395,0.614375,-0.3192065,0.6732495000000001,0.906425,-0.3885065,1.4199395,0.844295,-0.3943065,0.9227535,0.003865,-0.0024755,1.0772465,-0.003865,0.0024755,0.8501894999999999,-0.269835,-0.3069265,1.2012895,-0.2621349999999999,-0.2951065,0.8599095,-0.6277349999999999,-0.0942725,1.1630595,-0.628355,-0.1010555
96,1.0364119999999999,0.6529849999999999,-0.2455115,0.855967,0.476985,-0.2330515,0.685487,0.6413949999999999,-0.3462015,1.198497,0.459465,-0.2216715,1.392407,0.617085,-0.3331915,0.6737569999999999,0.897445,-0.4073615,1.416827,0.8451550000000001,-0.4131114999999999,0.922822,0.003525,-0.0027304999999999,1.077178,-0.003525,0.0027305,0.847507,-0.2456649999999999,-0.3333414999999999,1.205977,-0.2369349999999999,-0.3199915,0.859347,-0.598795,-0.1059195,1.163037,-0.6003350000000001,-0.1116274999999999
97,1.0365375000000001,0.651195,-0.253043,0.8575885,0.475365,-0.239293,0.6863085,0.636595,-0.3558329999999999,1.1977185,0.458175,-0.227913,1.3919785,0.620375,-0.341273,0.6743985,0.891915,-0.419593,1.4141585,0.8447849999999999,-0.4263829999999999,0.9228685000000001,0.0037949999999999,-0.002697,1.0771315,-0.0037949999999999,0.0026969999999999,0.8447585,-0.223435,-0.353543,1.2109385,-0.213215,-0.339123,0.8588385000000001,-0.571345,-0.112375,1.1632585,-0.5740050000000001,-0.116726
98,1.036675,0.6498550000000001,-0.2579375,0.858515,0.4727949999999999,-0.2424575,0.687085,0.630225,-0.3620274999999999,1.197145,0.456465,-0.2308875,1.391635,0.617345,-0.3466675,0.675115,0.887655,-0.4284675,1.411885,0.841875,-0.4345974999999999,0.923112,0.0037349999999999,-0.0028024999999999,1.076888,-0.0037349999999999,0.0028024999999999,0.841355,-0.204505,-0.3645775,1.2137850000000001,-0.193235,-0.3494275,0.858035,-0.546535,-0.1144675,1.163365,-0.549065,-0.1176525
99,1.036784,0.647185,-0.2617015,0.859295,0.471095,-0.2451215,0.687745,0.626185,-0.3675815,1.196535,0.454783,-0.2333615,1.391665,0.615905,-0.3512815,0.675435,0.8833650000000001,-0.4366015,1.409955,0.839565,-0.4417515,0.923166,0.003855,-0.0027284999999999,1.076834,-0.0038549999999999,0.0027285,0.837375,-0.184635,-0.3746615,1.217385,-0.172215,-0.3590015,0.857105,-0.520295,-0.1161234999999999,1.163225,-0.523025,-0.1182805
100,1.0367915,0.64706,-0.2641885,0.8600205000000001,0.468279,-0.2461985,0.6887805,0.62172,-0.3721685,1.1963005,0.45416,-0.2345985,1.3916905,0.61204,-0.3546285,0.6760705,0.88138,-0.4438885,1.4082405,0.8375900000000001,-0.4476685,0.9232495000000001,0.0034799999999999,-0.0025615,1.0767505,-0.0034799999999999,0.0025614999999999,0.8330005,-0.1652999999999999,-0.3829085,1.2211504999999998,-0.1521499999999999,-0.3665285,0.8560004999999999,-0.49466,-0.1169435,1.1632704999999999,-0.49791,-0.1187375
101,1.036697,0.645215,-0.265981,0.860586,0.46637,-0.2465909999999999,0.6895360000000001,0.6186849999999999,-0.376201,1.196116,0.454449,-0.235291,1.391916,0.610765,-0.357311,0.676076,0.878665,-0.450781,1.406706,0.835845,-0.452251,0.923432,0.003305,-0.0022389999999999,1.076568,-0.003305,0.002239,0.828686,-0.144975,-0.389911,1.224956,-0.132195,-0.373101,0.8559060000000001,-0.468925,-0.1168839999999999,1.161726,-0.472885,-0.1162989999999999
102,1.0365335,0.643445,-0.26677,0.8612075000000001,0.466594,-0.24688,0.6899675000000001,0.6148750000000001,-0.37933,1.1956175,0.455333,-0.23554,1.3917175,0.6079950000000001,-0.35941,0.6760975,0.876895,-0.45624,1.4051075,0.834785,-0.45644,0.9236015,0.003305,-0.0019799999999999,1.0763985,-0.003305,0.0019799999999999,0.8234975,-0.125595,-0.39483,1.2291675,-0.113885,-0.37829,0.8557775,-0.4443749999999999,-0.116515,1.1608975,-0.4487449999999999,-0.112791
103,1.0358225,0.646315,-0.2670099999999999,0.8611005,0.466321,-0.24713,0.6896605,0.614385,-0.38227,1.1946405,0.455994,-0.2357699999999999,1.3906805,0.606995,-0.3610299999999999,0.6757504999999999,0.878905,-0.4607099999999999,1.4029905,0.8330949999999999,-0.4602499999999999,0.9236855,0.003375,-0.0017299999999999,1.0763145,-0.003375,0.00173,0.8154905,-0.105755,-0.39793,1.2336905,-0.0942349999999999,-0.3824299999999999,0.8547105,-0.4187349999999999,-0.1160769999999999,1.1603005,-0.423145,-0.1121649999999999
104,1.0350245,0.6473249999999999,-0.2672,0.8610345,0.464319,-0.24699,0.6894745,0.6135349999999999,-0.38431,1.1935444999999998,0.455747,-0.2359399999999999,1.3900845,0.606135,-0.3625,0.6755645,0.878205,-0.46374,1.4011345,0.830675,-0.4628899999999999,0.9237685,0.003035,-0.00142,1.0762315,-0.003035,0.00142,0.8058244999999999,-0.0861849999999999,-0.40002,1.2385945,-0.074795,-0.3855099999999999,0.8523745,-0.3958049999999999,-0.116217,1.1597645,-0.398335,-0.111567
105,1.0343685,0.64644,-0.266765,0.8611115,0.465367,-0.246165,0.6896315,0.6123730000000001,-0.385625,1.1925315,0.456088,-0.235935,1.3894615,0.5999420000000001,-0.363025,0.6749915,0.8751500000000001,-0.466615,1.3999915,0.8255300000000001,-0.464435,0.9237435,0.0036,-0.0009549999999999,1.0762565,-0.0035999999999999,0.0009549999999999,0.7970715000000002,-0.06994,-0.400005,1.2435114999999999,-0.0587499999999999,-0.387135,0.8502215000000001,-0.3767899999999999,-0.11618,1.1594715,-0.3774499999999999,-0.110875
106,1.0337385,0.64705,-0.266675,0.8613425,0.465948,-0.2447949999999999,0.6898925,0.612202,-0.386555,1.1915625,0.4564210000000001,-0.235585,1.3886725,0.592852,-0.363415,0.6750025,0.8718300000000001,-0.469305,1.3991725,0.8200400000000001,-0.465695,0.9237405,0.00374,-0.0006049999999999,1.0762595,-0.0037399999999999,0.0006049999999999,0.7888225,-0.0541499999999999,-0.399805,1.2480224999999998,-0.04347,-0.388395,0.8484525,-0.3585299999999999,-0.115732,1.1611524999999998,-0.3590599999999999,-0.109905
107,1.033031,0.646943,-0.26585,0.86126,0.466945,-0.24359,0.6899300000000002,0.610992,-0.38758,1.19059,0.45718,-0.23555,1.38812,0.592748,-0.36417,0.67479,0.8659000000000001,-0.47208,1.399,0.81931,-0.46713,0.923713,0.0039,-0.0007,1.076287,-0.0039,0.0007,0.78149,-0.0416099999999999,-0.39997,1.25141,-0.03132,-0.3892799999999999,0.84668,-0.34397,-0.115415,1.1627,-0.34402,-0.109308
108,1.0323475,0.646868,-0.2647899999999999,0.8612345,0.46734,-0.24183,0.6895344999999999,0.609257,-0.3881,1.1899345000000001,0.45689,-0.2347699999999999,1.3872445,0.591255,-0.36438,0.6746945000000001,0.86607,-0.47296,1.3981145,0.82386,-0.4682599999999999,0.9237465,0.0039099999999999,-0.0006099999999999,1.0762535,-0.0039099999999999,0.0006099999999999,0.7751345000000001,-0.0329599999999999,-0.40003,1.2535445,-0.0233499999999999,-0.3895699999999999,0.8451645,-0.33387,-0.114768,1.1642245,-0.3334199999999999,-0.1086829999999999
109,1.0316915,0.646011,-0.26319,0.8612465,0.4672470000000001,-0.24011,0.6891065000000001,0.607349,-0.38827,1.1892465,0.45863,-0.23401,1.3864065,0.58991,-0.36444,0.6744265,0.8673000000000001,-0.47337,1.3972365,0.81857,-0.4677,0.9237095,0.00378,-0.0004199999999999,1.0762905,-0.00378,0.00042,0.7695565,-0.0294799999999999,-0.40005,1.2546365,-0.02049,-0.38978,0.8438865,-0.32941,-0.1138079999999999,1.1656265000000001,-0.3287199999999999,-0.108107
110,1.031086,0.6465299999999999,-0.261845,0.8613970000000001,0.466955,-0.238595,0.688917,0.606324,-0.388635,1.188707,0.4579749999999999,-0.2334549999999999,1.385467,0.589237,-0.364795,0.674017,0.866205,-0.473725,1.3965269999999999,0.817595,-0.468225,0.923736,0.003885,-5.499999999999949e-05,1.076264,-0.003885,5.499999999999949e-05,0.764957,-0.028905,-0.399385,1.255177,-0.0208949999999999,-0.390175,0.8429670000000001,-0.329375,-0.113012,1.1671369999999999,-0.328325,-0.1079339999999999
111,1.0304974999999998,0.6465299999999999,-0.26101,0.8614655,0.466955,-0.23747,0.6890155,0.606324,-0.38934,1.1882355,0.4579749999999999,-0.23318,1.3847255,0.589237,-0.3658,0.6735855,0.866205,-0.47452,1.3956555,0.817595,-0.46933,0.9237855000000001,0.003885,0.00032,1.0762144999999999,-0.003885,-0.00032,0.7614655,-0.028905,-0.39836,1.2552755,-0.0208949999999999,-0.39052,0.8421155000000001,-0.330325,-0.112647,1.1685655,-0.328915,-0.1083269999999999
112,1.029914,0.6465299999999999,-0.26108,0.8614459999999999,0.466955,-0.2377,0.689076,0.606324,-0.39059,1.1879559999999998,0.4579749999999999,-0.23401,1.383796,0.589237,-0.3672299999999999,0.673056,0.866205,-0.47584,1.394676,0.817595,-0.47061,0.923845,0.003885,0.00055,1.076155,-0.003885,-0.0005499999999999,0.760746,-0.028905,-0.3969899999999999,1.255406,-0.0208949999999999,-0.3905999999999999,0.842086,-0.330515,-0.1128719999999999,1.169946,-0.328915,-0.1097039999999999
113,1.029522,0.6465299999999999,-0.26161,0.861289,0.466955,-0.23872,0.6893290000000001,0.606324,-0.39168,1.187549,0.4579749999999999,-0.23535,1.382919,0.589237,-0.36898,0.672389,0.866205,-0.47733,1.393209,0.818105,-0.47204,0.923788,0.003885,0.0007299999999999,1.076212,-0.003885,-0.00073,0.7608690000000001,-0.028905,-0.39607,1.255509,-0.0208949999999999,-0.3905,0.842169,-0.3305949999999999,-0.113671,1.170919,-0.328915,-0.1115
114,1.029376,0.647282,-0.26276,0.8611170000000001,0.466481,-0.2403799999999999,0.689837,0.606624,-0.3931,1.187567,0.45714,-0.23712,1.382277,0.591797,-0.3711799999999999,0.6718770000000001,0.8634600000000001,-0.47843,1.3926969999999999,0.82233,-0.4742499999999999,0.92374,0.00378,0.00067,1.07626,-0.00378,-0.0006699999999999,0.761167,-0.0315799999999999,-0.3953099999999999,1.255337,-0.0246299999999999,-0.3900399999999999,0.8422170000000001,-0.3350299999999999,-0.115896,1.171187,-0.33282,-0.1141809999999999
115,1.0295645,0.647401,-0.26443,0.8612655000000001,0.465785,-0.2425,0.6903555,0.606377,-0.39448,1.1878255,0.456769,-0.23915,1.3819455,0.5926830000000001,-0.37342,0.6716155000000001,0.85961,-0.47916,1.3931655,0.82438,-0.47626,0.9238085,0.0038099999999999,0.00046,1.0761915,-0.0038099999999999,-0.00046,0.7617155,-0.0393899999999999,-0.3944,1.2542155,-0.0331299999999999,-0.38922,0.8425155,-0.3459099999999999,-0.118312,1.1716455,-0.34339,-0.116632
116,1.0298839999999998,0.647845,-0.265755,0.861408,0.4654279999999999,-0.244815,0.690858,0.605658,-0.395625,1.188218,0.4559379999999999,-0.241125,1.381738,0.59331,-0.375075,0.6717580000000001,0.860605,-0.4794549999999999,1.394618,0.817105,-0.476835,0.9238530000000001,0.003765,0.0001749999999999,1.076147,-0.003765,-0.000175,0.762608,-0.049995,-0.393275,1.252508,-0.044665,-0.387845,0.8429180000000001,-0.360985,-0.120873,1.172388,-0.3587950000000001,-0.11963
117,1.030369,0.648185,-0.2670599999999999,0.861637,0.465062,-0.24752,0.691307,0.606698,-0.3966699999999999,1.188857,0.45703,-0.2432399999999999,1.381937,0.596802,-0.3760099999999999,0.671787,0.858865,-0.4794699999999999,1.395297,0.8189150000000001,-0.4774,0.92394,0.003665,-2.999999999998837e-05,1.07606,-0.003665,3.0000000000002247e-05,0.764357,-0.0629549999999999,-0.39176,1.250307,-0.059045,-0.3862299999999999,0.843427,-0.3796349999999999,-0.1252599999999999,1.173167,-0.377985,-0.122974
118,1.0314785,0.64964,-0.26733,0.8624965,0.464733,-0.25014,0.6920965,0.60665,-0.39725,1.1901864999999998,0.456893,-0.2449,1.3827665,0.59889,-0.37673,0.6729565,0.8605,-0.47697,1.3966465000000001,0.8194,-0.47623,0.9240635000000001,0.00379,-0.00025,1.0759364999999999,-0.0037899999999999,0.00025,0.7675365000000001,-0.0791799999999999,-0.38956,1.2483265000000001,-0.0766799999999999,-0.3835,0.8441465,-0.40259,-0.130148,1.1744865,-0.4015499999999999,-0.126208
119,1.0327665,0.65113,-0.2670949999999999,0.8635835000000001,0.465421,-0.252105,0.6931835,0.60832,-0.397105,1.1914635,0.454512,-0.246175,1.3840935,0.60293,-0.376305,0.6742135,0.86228,-0.473925,1.3983135,0.82199,-0.473635,0.9241035,0.00438,-0.000445,1.0758965,-0.0043799999999999,0.000445,0.7715335,-0.0963199999999999,-0.386625,1.2464235,-0.09521,-0.379965,0.8448935,-0.4267999999999999,-0.134985,1.1767035,-0.4269499999999999,-0.130941
120,1.0341355,0.654045,-0.265915,0.8647665,0.466179,-0.253405,0.6943765,0.610095,-0.395965,1.1929265,0.45698,-0.2455649999999999,1.3856365,0.605675,-0.3747049999999999,0.6752565000000001,0.863945,-0.470725,1.4004965,0.8225750000000001,-0.470395,0.9243065,0.0042349999999999,-0.0005949999999999,1.0756935,-0.0042349999999999,0.000595,0.7760865,-0.1142849999999999,-0.383035,1.2445665,-0.1140149999999999,-0.375125,0.8462665,-0.451895,-0.139683,1.1790465,-0.453365,-0.1353639999999999
121,1.0355884999999998,0.657105,-0.26385,0.8659295000000001,0.469176,-0.2539099999999999,0.6955595,0.614045,-0.39429,1.1943595,0.456468,-0.2439299999999999,1.3868195,0.609595,-0.37143,0.6765194999999999,0.8663350000000001,-0.4669,1.4030295,0.823515,-0.4653299999999999,0.9244695,0.0047349999999999,-0.0007299999999999,1.0755305,-0.0047349999999999,0.00073,0.7809794999999999,-0.130595,-0.37868,1.2430695,-0.132085,-0.3690799999999999,0.8475295,-0.476985,-0.145195,1.1815995,-0.479485,-0.139557
122,1.0368725,0.660075,-0.26134,0.8669985,0.470291,-0.25402,0.6965885,0.616175,-0.39235,1.1956185,0.457934,-0.24186,1.3878085,0.612705,-0.3668599999999999,0.6776285,0.867235,-0.46317,1.4057884999999999,0.824455,-0.45999,0.9246285,0.004725,-0.0007899999999999,1.0753715,-0.0047249999999999,0.00079,0.7862485,-0.1483549999999999,-0.3733499999999999,1.2414985,-0.151015,-0.36191,0.8488884999999999,-0.503435,-0.149766,1.1841685,-0.506675,-0.142323
123,1.0382605,0.66232,-0.256985,0.8680035,0.47252,-0.252735,0.6976435000000001,0.6194500000000001,-0.389505,1.1967335000000001,0.459529,-0.238595,1.3887935,0.6143799999999999,-0.361005,0.6785734999999999,0.86802,-0.458725,1.4089535,0.82664,-0.4523749999999999,0.9248135,0.00491,-0.0007949999999999,1.0751865,-0.0049099999999999,0.0007949999999999,0.7918335000000001,-0.1662599999999999,-0.3662149999999999,1.2399735,-0.16956,-0.353265,0.8504035,-0.5293599999999999,-0.152611,1.1871935,-0.53368,-0.144685
124,1.039437,0.6658,-0.251715,0.868571,0.47548,-0.249955,0.698671,0.62393,-0.385175,1.198121,0.46199,-0.233825,1.389891,0.61636,-0.351965,0.680021,0.87474,-0.452245,1.411271,0.82837,-0.442255,0.924631,0.00478,-0.000795,1.0753689999999998,-0.00478,0.0007949999999999,0.798131,-0.18616,-0.356425,1.238011,-0.19008,-0.341275,0.852101,-0.55815,-0.153943,1.189651,-0.56285,-0.145644
125,1.040307,0.66718,-0.24507,0.868923,0.4783,-0.24712,0.699303,0.62917,-0.3809,1.199413,0.46457,-0.22858,1.390793,0.62191,-0.34319,0.681333,0.8798600000000001,-0.44627,1.4134630000000001,0.83585,-0.43108,0.924533,0.00478,-0.00079,1.075467,-0.00478,0.0007899999999999,0.805083,-0.20654,-0.34499,1.235503,-0.21051,-0.32816,0.853913,-0.5864199999999999,-0.155352,1.191753,-0.5911899999999999,-0.145707
126,1.040732,0.66926,-0.23836,0.8691,0.4801799999999999,-0.24391,0.70004,0.63427,-0.37658,1.20067,0.46669,-0.223425,1.39134,0.62593,-0.33498,0.6824800000000001,0.8900399999999999,-0.4387,1.4151799999999999,0.84475,-0.41929,0.92448,0.0044399999999999,-0.00079,1.07552,-0.0044399999999999,0.0007899999999999,0.81198,-0.2272,-0.33344,1.23261,-0.23091,-0.31418,0.85589,-0.6139100000000001,-0.155409,1.19313,-0.61927,-0.145747
127,1.040114,0.668295,-0.23136,0.86757,0.483975,-0.23959,0.69972,0.639695,-0.3714699999999999,1.20065,0.470415,-0.217777,1.39106,0.631605,-0.32585,0.68283,0.9002749999999999,-0.43206,1.416,0.850645,-0.40879,0.92453,0.004225,-0.0008599999999999,1.07547,-0.004225,0.0008599999999999,0.81883,-0.247055,-0.3203,1.2284,-0.250885,-0.29919,0.85727,-0.639835,-0.155233,1.19346,-0.646655,-0.144909
128,1.0388115,0.666865,-0.222696,0.8654895,0.486635,-0.2348799999999999,0.6986295,0.645155,-0.3649,1.2000495,0.475565,-0.2116309999999999,1.3905195,0.636405,-0.31631,0.6827795,0.909075,-0.42461,1.4163595,0.856935,-0.39596,0.9245295,0.003425,-0.0009199999999999,1.0754705,-0.0034249999999999,0.00092,0.8253695,-0.2669249999999999,-0.30632,1.2231195,-0.270595,-0.28251,0.8581395,-0.665675,-0.154547,1.1932995,-0.673045,-0.143555
129,1.037334,0.6633249999999999,-0.212692,0.863424,0.492065,-0.22905,0.697574,0.650755,-0.35727,1.199304,0.479255,-0.205005,1.3898139999999999,0.641655,-0.30564,0.682894,0.916425,-0.41551,1.416244,0.8685350000000001,-0.38227,0.924534,0.0033749999999999,-0.0008999999999999,1.075466,-0.003375,0.0009,0.832614,-0.285545,-0.28975,1.217324,-0.289725,-0.26412,0.8602240000000001,-0.690555,-0.15055,1.193144,-0.6980649999999999,-0.140411
130,1.035644,0.660145,-0.201954,0.861433,0.495685,-0.2226999999999999,0.6967030000000001,0.6573450000000001,-0.348315,1.198513,0.483385,-0.198274,1.388763,0.649135,-0.2952749999999999,0.682423,0.919325,-0.405555,1.4151129999999998,0.879125,-0.3694849999999999,0.924533,0.0027749999999999,-0.0008949999999999,1.075467,-0.0027749999999999,0.000895,0.840543,-0.3041649999999999,-0.271895,1.210873,-0.307175,-0.245095,0.862393,-0.7132149999999999,-0.1453289999999999,1.193233,-0.720855,-0.136949
131,1.0336954999999999,0.6577850000000001,-0.192304,0.8589815000000001,0.500375,-0.215864,0.6955215,0.664145,-0.338885,1.1982815,0.487255,-0.1915,1.3868615,0.6559649999999999,-0.285155,0.6824315000000001,0.923915,-0.3943149999999999,1.4132514999999999,0.8896249999999999,-0.355615,0.9247815,0.0025249999999999,-0.000675,1.0752185,-0.0025249999999999,0.0006749999999999,0.8483915000000001,-0.328375,-0.252625,1.2032115,-0.330055,-0.225355,0.8645415000000001,-0.7371449999999999,-0.138471,1.1911915,-0.743595,-0.129731
132,1.031302,0.6609875000000001,-0.182729,0.856156,0.5050775,-0.208593,0.694526,0.6700575,-0.328245,1.197476,0.4919675,-0.184514,1.3840759999999999,0.6618075,-0.274075,0.682016,0.9289275,-0.382615,1.410346,0.8957875000000001,-0.342405,0.924886,0.0021805,-0.000425,1.075114,-0.0021805,0.0004249999999999,0.855796,-0.3519825,-0.231275,1.194316,-0.3522125,-0.20454,0.866266,-0.7598625,-0.130023,1.187676,-0.7647025,-0.12056
133,1.0286565,0.6623805,-0.169352,0.8532365,0.5088305,-0.197758,0.6933564999999999,0.6763805,-0.31335,1.1961864999999998,0.4954404999999999,-0.174139,1.3812265,0.6696405,-0.26063,0.6808665,0.9301805,-0.36739,1.4066465,0.9047005,-0.3265,0.9245565,0.0020194999999999,-6.0000000000004494e-05,1.0754435,-0.0020195,5.9999999999990616e-05,0.8621165,-0.3720595,-0.205461,1.1850165,-0.3721394999999999,-0.180818,0.8675565000000001,-0.7774995,-0.11342,1.1832765,-0.7818594999999999,-0.105537
134,1.0261765,0.6688540000000001,-0.154993,0.8500285000000001,0.511914,-0.183302,0.6921885,0.6801240000000001,-0.29567,1.1948984999999999,0.499204,-0.160662,1.3785685,0.672744,-0.24486,0.6795685,0.939064,-0.34664,1.4032585,0.906614,-0.30839,0.9242785,0.002095,-7.000000000000062e-05,1.0757215,-0.0020949999999999,7.000000000000062e-05,0.8678684999999999,-0.393096,-0.175208,1.1747584999999998,-0.3932259999999999,-0.152517,0.8684285,-0.796576,-0.094081,1.1779385,-0.800636,-0.087756
135,1.0238885,0.6749415,-0.1411569999999999,0.8465855,0.5159515,-0.169595,0.6907355,0.6835515,-0.278383,1.1934055,0.5025514999999999,-0.147654,1.3755855000000001,0.6759115,-0.229713,0.6784555,0.9449515,-0.327783,1.3997955,0.9065215,-0.291313,0.9240855,0.0024035,-4.399999999998849e-05,1.0759145,-0.0024034999999999,4.400000000000237e-05,0.8728955,-0.4115185,-0.145288,1.1645955,-0.4116485,-0.125775,0.8687555,-0.8137584999999999,-0.0758379999999999,1.1726355,-0.8169885,-0.070546
136,1.02157,0.6830269999999999,-0.1283989999999999,0.843734,0.518377,-0.156866,0.688844,0.6880769999999999,-0.261657,1.191674,0.505547,-0.135159,1.372144,0.679047,-0.215337,0.6771940000000001,0.947157,-0.309707,1.395964,0.910397,-0.273817,0.924024,0.0023199999999999,7.300000000000362e-05,1.075976,-0.00232,-7.300000000000362e-05,0.876234,-0.426123,-0.116248,1.154464,-0.426253,-0.099981,0.868254,-0.827823,-0.058546,1.167124,-0.830723,-0.054048
137,1.0194075,0.6916525,-0.117003,0.8409535,0.5214224999999999,-0.1438019999999999,0.6872435,0.6915325,-0.245914,1.1899535,0.5094325,-0.122759,1.3690235,0.6811625,-0.201504,0.6759435,0.9510125,-0.291454,1.3926435,0.9118925,-0.2586239999999999,0.9239535,0.0025475,0.000395,1.0760465,-0.0025475,-0.0003949999999999,0.8787135000000001,-0.4398275,-0.0877859999999999,1.1450434999999999,-0.4397675,-0.0755999999999999,0.8675835000000001,-0.8398875,-0.0413499999999999,1.1617335,-0.8426475000000001,-0.0383629999999999
138,1.0172815,0.7014625,-0.106432,0.8384685000000001,0.5219125,-0.131177,0.6858885,0.6950925,-0.2309429999999999,1.1884185,0.5109925000000001,-0.1116119999999999,1.3664085,0.6833125,-0.188693,0.6747885,0.9567325,-0.2740829999999999,1.3906485,0.9089425,-0.243483,0.9238805,0.0026175,0.000568,1.0761195,-0.0026175,-0.0005679999999999,0.8801885,-0.4511775,-0.0621089999999999,1.1366485,-0.4510675,-0.0536959999999999,0.8665385000000001,-0.8490375,-0.0257459999999999,1.1569585,-0.8515975,-0.0241339999999999
139,1.0152875,0.711313,-0.0958775,0.8363005,0.522813,-0.1185985,0.6847805,0.696923,-0.2166045,1.1867705,0.513153,-0.1005615,1.3642105,0.683553,-0.1760045,0.6733705,0.963153,-0.2571645,1.3887805,0.906833,-0.2285145,0.9236275,0.0028919999999999,0.0007934999999999,1.0763725,-0.002892,-0.0007935,0.8806705000000001,-0.463217,-0.0384255,1.1293505,-0.462627,-0.0336075,0.8654305,-0.857547,-0.0111345,1.1525405,-0.859277,-0.0104955
140,1.0139205,0.7195025,-0.0856504999999999,0.8348445000000001,0.5240125,-0.1062595,0.6841444999999999,0.6986525,-0.2026155,1.1862945,0.5148725,-0.0895845,1.3628145,0.6837525,-0.1639155,0.6727845,0.9702525,-0.2410555,1.3874245,0.9047125,-0.2146055,0.9232975,0.0030505,0.0008895,1.0767025000000001,-0.0030505,-0.0008895,0.8808645000000002,-0.4740675,-0.0172855,1.1236945,-0.4732874999999999,-0.0154644999999999,0.8642145000000001,-0.8645675,0.0016815,1.1491245,-0.8654075,0.0021545
141,1.0131665,0.7230545,-0.0754065,0.8337114999999999,0.5244745000000001,-0.0942695,0.6839415,0.6999045,-0.1894064999999999,1.1863215,0.5157545,-0.0788985,1.3616415,0.6836145,-0.1529464999999999,0.6726415,0.9777745,-0.2255565,1.3864714999999999,0.9027045,-0.2012465,0.9229715000000001,0.0032355,0.0010174999999999,1.0770285,-0.0032354999999999,-0.0010175,0.8807515,-0.4853155,0.0005634999999999,1.1193415,-0.4841155,0.0003784999999999,0.8630615,-0.8716655,0.0127144999999999,1.1468815,-0.8714655,0.0131934999999999
142,1.013347,0.726834,-0.0693324999999999,0.833121,0.5253639999999999,-0.0866035,0.684241,0.699244,-0.1813115,1.187171,0.516724,-0.0725285,1.360941,0.683124,-0.1470515,0.673111,0.985294,-0.2153715,1.386611,0.901444,-0.1925115,0.922978,0.0033729999999999,0.0011405,1.077022,-0.003373,-0.0011405,0.8807510000000001,-0.495416,0.0110965,1.1161949999999998,-0.494216,0.0098485,0.862341,-0.877366,0.0180275,1.1453509999999998,-0.876556,0.0187465
143,1.013647,0.727169,-0.0661255,0.832478,0.526489,-0.0821785,0.684418,0.701099,-0.1759455,1.187378,0.5175690000000001,-0.0695695,1.360338,0.684389,-0.1435855,0.672398,0.986509,-0.2105054999999999,1.3872879999999999,0.902859,-0.1873155,0.922956,0.003258,0.0017295,1.077044,-0.0032579999999999,-0.0017295,0.880328,-0.4956109999999999,0.0152365,1.114757,-0.4950009999999999,0.0130095,0.861488,-0.877551,0.0200095,1.144178,-0.876741,0.0208905
144,1.014239,0.7272965,-0.0624645,0.831754,0.5275365,-0.0775745,0.684704,0.7019165,-0.1705555,1.187784,0.5181365,-0.0663825,1.360334,0.6848265,-0.1398855,0.671674,0.9863565,-0.2056855,1.388604,0.9034465,-0.1820554999999999,0.922902,0.0031505,0.0023255,1.0770979999999999,-0.0031505,-0.0023255,0.879954,-0.4957634999999999,0.0182024999999999,1.113604,-0.4956635,0.0157205,0.860634,-0.8777035,0.0219344999999999,1.143114,-0.8768935,0.0228545
145,1.015061,0.7274419999999999,-0.0592025,0.83131,0.5283819999999999,-0.0729625,0.68502,0.7020820000000001,-0.1654965,1.18841,0.518302,-0.0634245,1.36098,0.6848320000000001,-0.1363065,0.67107,0.986252,-0.2011765,1.39017,0.903642,-0.1774365,0.922814,0.003089,0.0028805,1.077186,-0.003089,-0.0028804999999999,0.87965,-0.495868,0.0197785,1.112897,-0.495768,0.0172075,0.85991,-0.8778079999999999,0.0234175,1.14219,-0.8769979999999999,0.0245615
146,1.0160635,0.7276845,-0.0557115,0.8314225,0.5292545,-0.0689605,0.6852325,0.7021145,-0.1607644999999999,1.1890225,0.5183544999999999,-0.0605635,1.3616424999999999,0.6848744999999999,-0.1328645,0.6702725,0.9847245,-0.1969445,1.3918625,0.9038245,-0.1733045,0.9228375,0.0030564999999999,0.0033044999999999,1.0771625,-0.0030565,-0.0033044999999999,0.8792325,-0.4957255,0.0209495,1.1121095,-0.4957955,0.0183895,0.8591225,-0.8775855,0.0247815,1.1412525,-0.8766055,0.0260345
147,1.0169715,0.7278720000000001,-0.0524505,0.8315615000000001,0.529972,-0.0652565,0.6854515000000001,0.702252,-0.1560045,1.1895615,0.518362,-0.0577265,1.3623715,0.684902,-0.1296045,0.6694315,0.982432,-0.1932645,1.3935914999999999,0.904172,-0.1697645,0.9228705000000001,0.0030239999999999,0.0035434999999999,1.0771294999999999,-0.0030239999999999,-0.0035435,0.8788315,-0.495338,0.0221675,1.1112585,-0.495788,0.0196194999999999,0.8582815,-0.8773679999999999,0.0262225,1.1402515,-0.876238,0.0275095
148,1.0178025,0.728052,-0.049597,0.8318285,0.530662,-0.061808,0.6856185,0.702492,-0.151725,1.1901685,0.5183719999999999,-0.054998,1.3632585,0.684912,-0.12669,0.6686785,0.979742,-0.1899549999999999,1.3954985,0.904492,-0.166605,0.9228905000000001,0.003014,0.0037759999999999,1.0771095,-0.0030139999999999,-0.003776,0.8784285000000001,-0.495278,0.023354,1.1105655,-0.495768,0.020815,0.8574585,-0.8771680000000001,0.0276049999999999,1.1392685,-0.876098,0.0289369999999999
149,1.018699,0.728166,-0.0469925,0.8321390000000001,0.531196,-0.0586794999999999,0.685829,0.702766,-0.1477845,1.190699,0.518376,-0.0524595,1.364129,0.684846,-0.1240025,0.6682790000000001,0.979746,-0.1871545,1.397209,0.904796,-0.1636945,0.922879,0.0030039999999999,0.0040345,1.077121,-0.0030039999999999,-0.0040345,0.8780490000000001,-0.494884,0.0242625,1.110042,-0.495644,0.0215895,0.856719,-0.877024,0.0290195,1.138369,-0.876094,0.0303665
150,1.019525,0.728244,-0.0446245,0.832403,0.531624,-0.0558344999999999,0.686033,0.703024,-0.1443005,1.191243,0.518294,-0.0501165,1.364813,0.6847139999999999,-0.1216055,0.6677430000000001,0.979334,-0.1845905,1.398483,0.904814,-0.1611405,0.922889,0.0029949999999999,0.0042355,1.077111,-0.002995,-0.0042355,0.8776330000000001,-0.494636,0.0251425,1.109481,-0.495536,0.0222885,0.855973,-0.8770060000000001,0.0303525,1.137463,-0.876106,0.0317485
151,1.020325,0.728245,-0.0424595,0.8326390000000001,0.531985,-0.0533545,0.686249,0.7032550000000001,-0.1413355,1.1915689999999999,0.518165,-0.0482095,1.365369,0.684675,-0.1195695,0.667179,0.978305,-0.1822655,1.399459,0.904975,-0.1591354999999999,0.922915,0.0030009999999999,0.0043225,1.077085,-0.0030009999999999,-0.0043225,0.8772190000000001,-0.494455,0.0257765,1.108914,-0.495455,0.0227885,0.855219,-0.876975,0.0315125,1.136599,-0.876135,0.0329285
152,1.02102,0.7282635,-0.040609,0.832865,0.5323635,-0.051287,0.6864750000000002,0.7036235,-0.138713,1.191825,0.5180334999999999,-0.046672,1.365805,0.6845835,-0.117973,0.666445,0.9757235,-0.180223,1.400205,0.9052935,-0.157623,0.922947,0.0030224999999999,0.0043619999999999,1.077053,-0.0030225,-0.004362,0.876825,-0.4942165,0.026184,1.108362,-0.4953065,0.023082,0.8545050000000001,-0.8768965000000001,0.0324949999999999,1.135785,-0.8761165000000001,0.033899
153,1.0216589999999999,0.728267,-0.038942,0.833046,0.532677,-0.049307,0.686516,0.703997,-0.136662,1.192096,0.517887,-0.045393,1.365966,0.6841769999999999,-0.116742,0.6653260000000001,0.973037,-0.178532,1.400556,0.905377,-0.156842,0.9229700000000001,0.0030649999999999,0.0043979999999999,1.07703,-0.003065,-0.004398,0.876426,-0.493963,0.0265609999999999,1.107833,-0.495073,0.023333,0.8537859999999999,-0.8768330000000001,0.033461,1.134976,-0.876143,0.034834
154,1.0222055,0.7282515,-0.037413,0.8331995,0.5329815,-0.047472,0.6858695,0.7041815,-0.134773,1.1923995,0.5177115,-0.044228,1.3660095,0.6836915,-0.115725,0.6642395,0.9703215,-0.176993,1.4010194999999999,0.9056915,-0.156073,0.9229995,0.0030934999999999,0.004382,1.0770005,-0.0030935,-0.0043819999999999,0.8760495000000001,-0.4937285,0.026896,1.1073085,-0.4948585,0.023564,0.8531295,-0.8767185,0.034399,1.1342195,-0.8762085,0.035757
155,1.0226305,0.728206,-0.0362145,0.8333655,0.533276,-0.0458035,0.6851655,0.7043159999999999,-0.1329705,1.1927455,0.517506,-0.0431695,1.3661655,0.683226,-0.1148405,0.6631755000000001,0.970326,-0.1760105,1.4018555,0.905696,-0.1553205,0.9230165,0.0031069999999999,0.0044195,1.0769835,-0.0031069999999999,-0.0044195,0.8757155000000001,-0.493484,0.0271924999999999,1.1068085,-0.494614,0.0238185,0.8525455,-0.876544,0.0353145,1.1334955,-0.8762340000000001,0.0366205
156,1.023146,0.7281169999999999,-0.0352205,0.8335000000000001,0.533307,-0.0443365,0.6845,0.7041569999999999,-0.1313905,1.19315,0.517277,-0.0422605,1.3667500000000001,0.682537,-0.1141015,0.6622,0.970337,-0.1753205,1.40373,0.905707,-0.1547805,0.923009,0.0031269999999999,0.0045884999999999,1.076991,-0.003127,-0.0045885,0.87539,-0.493203,0.0273885,1.1063290000000001,-0.494363,0.0240955,0.85197,-0.876413,0.0361004999999999,1.13279,-0.876303,0.0373725
157,1.023736,0.7280095,-0.0342925,0.8335560000000001,0.5333495,-0.0430215,0.683836,0.7041295,-0.1296344999999999,1.193536,0.5170295,-0.0413925,1.368596,0.6815795,-0.1130704999999999,0.659716,0.9694795,-0.1745445,1.407606,0.9057495,-0.1544945,0.923031,0.0031254999999999,0.0046955,1.076969,-0.0031255,-0.0046955,0.8750660000000001,-0.4928905,0.0275765,1.105862,-0.4939905,0.0243815,0.851396,-0.8762505,0.0369265,1.132096,-0.8763405,0.0381565
158,1.0243725,0.727809,-0.0335575,0.8337545,0.5333990000000001,-0.0418445,0.6816745,0.704119,-0.1279395,1.1939745,0.516749,-0.0405875,1.3717545,0.679269,-0.1119054999999999,0.6541245,0.969229,-0.1737395,1.4148844999999999,0.904729,-0.1550695,0.9230975,0.003116,0.0047145,1.0769025,-0.003116,-0.0047145,0.8748245,-0.492531,0.0277055,1.1054545,-0.493621,0.0246525,0.8508745,-0.876081,0.0376705,1.1314645,-0.876521,0.0388815
159,1.0245315,0.727531,-0.0320364999999999,0.8338645,0.5348310000000001,-0.0400645,0.6869645,0.707871,-0.1273255,1.1951445,0.516471,-0.0393975,1.3679245,0.680571,-0.1126415,0.6641845,0.969331,-0.1733454999999999,1.4075644999999999,0.906151,-0.1529655,0.9230605000000001,0.003126,0.0050065,1.0769395,-0.0031259999999999,-0.0050064999999999,0.8748245,-0.492359,0.0277125,1.1050145,-0.493679,0.0251545,0.8507345,-0.875449,0.0383735,1.1311445,-0.8772989999999999,0.0396895
160,1.025574,0.727121,-0.031324,0.8338490000000001,0.535041,-0.039258,0.684739,0.707891,-0.125155,1.195549,0.516121,-0.0388219999999999,1.3717489999999999,0.679061,-0.111382,0.658469,0.968481,-0.172515,1.417359,0.904431,-0.156515,0.923041,0.0032229999999999,0.005289,1.076959,-0.003223,-0.005289,0.874379,-0.491869,0.028065,1.104739,-0.493159,0.025722,0.850149,-0.875569,0.039132,1.130199,-0.877099,0.040513
161,1.0268565,0.7265705,-0.0308369999999999,0.8338194999999999,0.5346505,-0.038278,0.6788395,0.7055205,-0.1213989999999999,1.1955594999999999,0.5153205,-0.038277,1.3832295000000001,0.6758605,-0.108057,0.6440195,0.9668205,-0.170229,1.4359795,0.9094705,-0.156859,0.9232505,0.0033154999999999,0.004882,1.0767495,-0.0033154999999999,-0.0048819999999999,0.8739195000000001,-0.4917995,0.02835,1.1044695,-0.4927395,0.025821,0.8495095,-0.8758795,0.04015,1.1298495,-0.8773595,0.041326
162,1.0280395,0.7261080000000001,-0.030888,0.8351095,0.5342180000000001,-0.0376699999999999,0.6645995,0.7052480000000001,-0.120097,1.1959195,0.514868,-0.037848,1.3946695,0.663408,-0.105665,0.6131895,0.989208,-0.165237,1.4665995,0.894958,-0.1614769999999999,0.9234635,0.0033089999999999,0.004517,1.0765365,-0.0033089999999999,-0.0045169999999999,0.8740295,-0.491302,0.0285179999999999,1.1042195,-0.492442,0.025842,0.8491095,-0.875852,0.040742,1.1294595,-0.8773019999999999,0.041636
163,1.029155,0.7261755,-0.030643,0.8384739999999999,0.5324055,-0.037412,0.653384,0.6953655,-0.115127,1.196784,0.5137855,-0.036448,1.408654,0.6358955,-0.098275,0.578314,0.9792055,-0.172457,1.503594,0.8787655,-0.169077,0.923571,0.0032854999999999,0.004042,1.076429,-0.0032855,-0.004042,0.8739939999999999,-0.4902745,0.028828,1.103884,-0.4918845,0.026064,0.848564,-0.8757645000000001,0.041398,1.1287639999999999,-0.8771745,0.042366
164,1.0299565,0.727676,-0.0296355,0.8399985,0.5323960000000001,-0.0363155,0.6389185,0.671496,-0.1098175,1.1972585,0.513726,-0.0357515,1.4167785,0.619796,-0.0953265,0.5436385,0.865526,-0.1753785,1.5474185,0.859766,-0.1784585,0.9233915,0.003521,0.0042805,1.0766085,-0.003521,-0.0042805,0.8737885,-0.488434,0.0297095,1.1035385,-0.489924,0.0272125,0.8479785,-0.873904,0.0426615,1.1283385,-0.875424,0.0438775
165,1.0302514999999999,0.7291694999999999,-0.028434,0.8427765,0.5301595,-0.0351869999999999,0.6193965,0.6524095,-0.107847,1.1968865,0.5139095,-0.033837,1.4420465,0.5879495,-0.088847,0.5081264999999999,0.8367494999999999,-0.177085,1.5712264999999999,0.7789594999999999,-0.179035,0.9232085,0.0038964999999999,0.0051199999999999,1.0767915,-0.0038965,-0.00512,0.8742065,-0.4869905,0.030508,1.1035665,-0.4880405,0.0280909999999999,0.8478865,-0.8722505,0.043771,1.1281765,-0.8737705,0.045094
