sb224sc-HT22-VT27/4dt907/src/ml-research/a11/datafiles/kinect_good_preprocessed_not_cut_A11_mediapipe/A154_kinect_mirrored.csv
FrameNo,nose_3d_x,nose_3d_y,nose_3d_z,left_shoulder_3d_x,left_shoulder_3d_y,left_shoulder_3d_z,left_elbow_3d_x,left_elbow_3d_y,left_elbow_3d_z,right_shoulder_3d_x,right_shoulder_3d_y,right_shoulder_3d_z,right_elbow_3d_x,right_elbow_3d_y,right_elbow_3d_z,left_wrist_3d_x,left_wrist_3d_y,left_wrist_3d_z,right_wrist_3d_x,right_wrist_3d_y,right_wrist_3d_z,left_hip_3d_x,left_hip_3d_y,left_hip_3d_z,right_hip_3d_x,right_hip_3d_y,right_hip_3d_z,left_knee_3d_x,left_knee_3d_y,left_knee_3d_z,right_knee_3d_x,right_knee_3d_y,right_knee_3d_z,left_ankle_3d_x,left_ankle_3d_y,left_ankle_3d_z,right_ankle_3d_x,right_ankle_3d_y,right_ankle_3d_z
0,1.033617,0.7305025,-0.0059204999999999,0.832314,0.5243725,-0.0265814999999999,0.634924,0.7014925000000001,-0.1181294999999999,1.200444,0.5079925000000001,-0.0199584999999999,1.4148239999999999,0.6703125000000001,-0.0851595,0.463124,0.8544025000000001,-0.2090294999999999,1.589524,0.8377425000000001,-0.1747895,0.923487,0.0021604999999999,0.0001345,1.076513,-0.0021605,-0.0001344999999999,0.879294,-0.4940075,0.0422875,1.091451,-0.4892575,0.0401235,0.858634,-0.8686474999999999,0.0727555,1.104664,-0.8649275,0.0755155
1,1.033303,0.7290479999999999,-0.0075014999999999,0.8325570000000001,0.524328,-0.0259664999999999,0.665997,0.7305579999999999,-0.1147985,1.199387,0.512458,-0.0189364999999999,1.384497,0.685338,-0.0687885,0.520297,0.890378,-0.1792284999999999,1.523257,0.848178,-0.1430585,0.923782,0.00188,0.0002175,1.076218,-0.00188,-0.0002174999999999,0.878547,-0.499052,0.0430805,1.091008,-0.492672,0.0405745,0.858487,-0.872502,0.0736075,1.103987,-0.8684120000000001,0.0760865
2,1.0322425,0.7278055,-0.0095069999999999,0.8342835,0.5283155,-0.0272209999999999,0.6658935,0.7733755,-0.1033989999999999,1.1967835,0.5146655,-0.0190759999999999,1.3761135,0.7081555,-0.066769,0.5266035,0.9669355,-0.174659,1.5185035,0.9110755,-0.136759,0.9239605,0.0015475,-0.0004729999999999,1.0760395,-0.0015474999999999,0.000473,0.8781335,-0.5026945,0.04343,1.0907095,-0.4956144999999999,0.040597,0.8577735000000001,-0.8754744999999999,0.074102,1.1034435,-0.8720245,0.076223
3,1.031717,0.726978,-0.0113149999999999,0.835855,0.530528,-0.0275119999999999,0.696725,0.7629279999999999,-0.092272,1.1947549999999998,0.519268,-0.016977,1.362425,0.7271679999999999,-0.064902,0.577145,0.973148,-0.151412,1.502165,0.959868,-0.1290819999999999,0.924003,0.001706,-0.001471,1.075997,-0.001706,0.001471,0.877545,-0.505282,0.044426,1.090228,-0.497612,0.04174,0.857325,-0.878262,0.074688,1.102945,-0.873272,0.0769
4,1.0308345,0.725701,-0.0134989999999999,0.8363995,0.529991,-0.0281439999999999,0.7022495,0.774581,-0.0877159999999999,1.1938995000000001,0.523841,-0.015922,1.3522995,0.741911,-0.0593759999999999,0.6045395,1.0124110000000002,-0.129846,1.4621395,0.989191,-0.116046,0.9239915,0.001376,-0.0018449999999999,1.0760085,-0.0013759999999999,0.0018449999999999,0.8772595,-0.507289,0.04432,1.0898215,-0.499519,0.04176,0.8567895,-0.880499,0.074723,1.1025495,-0.875779,0.077025
5,1.029216,0.7248385,-0.0159824999999999,0.8405760000000001,0.5380485,-0.0267644999999999,0.725966,0.7884885,-0.0736624999999999,1.191176,0.5234985,-0.0136265,1.333176,0.7530485,-0.0524074999999999,0.6656759999999999,1.0408485,-0.1052724999999999,1.405036,1.0125485,-0.0916225,0.9239670000000001,0.0013434999999999,-0.0018455,1.0760329999999998,-0.0013435,0.0018455,0.877266,-0.5114215,0.0457255,1.090532,-0.5025715000000001,0.0438955,0.856206,-0.8847715,0.0758325,1.102006,-0.8811515,0.0788295
6,1.0280399999999998,0.7243635,-0.0180955,0.843074,0.5353935000000001,-0.0278614999999999,0.739654,0.7780435,-0.0707355,1.190444,0.5232935000000001,-0.0128134999999999,1.324634,0.7502135000000001,-0.0498495,0.698374,1.0427435,-0.0983155,1.3842539999999999,1.0190435,-0.0829055,0.9237070000000001,0.0011465,-0.0013524999999999,1.076293,-0.0011465,0.0013524999999999,0.876974,-0.5120264999999999,0.0465345,1.0909239999999998,-0.5002865,0.0450915,0.855364,-0.8863464999999999,0.0761995,1.101724,-0.8813865,0.0794305
7,1.027809,0.7210075,-0.018417,0.841627,0.5341374999999999,-0.025865,0.736957,0.7813875,-0.074653,1.191437,0.5231975,-0.011999,1.326287,0.7435475,-0.050225,0.6949069999999999,1.0333875,-0.098823,1.385977,1.0061875,-0.083123,0.9237710000000001,0.0011394999999999,-0.0012329999999999,1.0762289999999999,-0.0011394999999999,0.0012329999999999,0.8773170000000001,-0.5120125,0.047053,1.091256,-0.5001725,0.045102,0.855527,-0.8855525000000001,0.0767559999999999,1.101947,-0.8807025,0.080236
8,1.027313,0.7196695,-0.01958,0.842784,0.5346894999999999,-0.025161,0.744814,0.7832494999999999,-0.071244,1.191074,0.5237594999999999,-0.010549,1.319864,0.7453495,-0.047399,0.7161139999999999,1.0415095,-0.089714,1.365304,1.0120095,-0.075484,0.923747,0.0011005,-0.0011429999999999,1.076253,-0.0011005,0.0011429999999999,0.877364,-0.5134405,0.047736,1.091537,-0.5007505,0.045843,0.855344,-0.8869505,0.0773669999999999,1.101894,-0.8818905,0.080996
9,1.027009,0.718356,-0.0204265,0.8441680000000001,0.535606,-0.0243275,0.7525180000000001,0.7851859999999999,-0.0681875,1.1908679999999998,0.523756,-0.0090314999999999,1.314528,0.745336,-0.0450905,0.7344480000000001,1.045176,-0.0828175,1.349108,1.014376,-0.0692975,0.923734,0.001145,-0.0010775,1.076266,-0.0011449999999999,0.0010775,0.877488,-0.514824,0.0485135,1.091884,-0.501294,0.0467055,0.8552379999999999,-0.888314,0.0781085,1.101938,-0.882964,0.0818774999999999
10,1.0268955,0.7174035,-0.020922,0.8450625,0.5358134999999999,-0.023509,0.7576025,0.7865335,-0.066586,1.1908425,0.5237434999999999,-0.007661,1.3112025,0.7447435,-0.043464,0.7460725,1.0456035,-0.078566,1.3392125,1.0141035,-0.065846,0.9237325,0.0011975,-0.000974,1.0762675,-0.0011975,0.0009739999999999,0.8775825,-0.5158365,0.049293,1.0921015,-0.5016265,0.0475219999999999,0.8551525,-0.8893365000000001,0.0788349999999999,1.1019225,-0.8839865,0.082743
11,1.0268675,0.7165054999999999,-0.0212205,0.8456395000000001,0.5360554999999999,-0.0226815,0.7613095,0.7872055,-0.0650735,1.1908095,0.5237755,-0.0063565,1.3086695,0.7441955,-0.0421715,0.7539095,1.0459655,-0.0751335,1.3315595,1.0133655,-0.0634635,0.9237305000000001,0.0012735,-0.0008575,1.0762695,-0.0012735,0.0008574999999999,0.8776595000000001,-0.5168145000000001,0.0499644999999999,1.0922165,-0.5022645,0.0482185,0.8551394999999999,-0.8903345,0.0794574999999999,1.1019094999999999,-0.8851045000000001,0.0835165
12,1.0268725,0.7155370000000001,-0.0215365,0.8462915,0.536447,-0.0219145,0.7643015,0.787227,-0.0638664999999999,1.1907714999999999,0.523807,-0.0052774999999999,1.3066715,0.743707,-0.0415175,0.7595015,1.0463669999999998,-0.0728965,1.3265415,1.012467,-0.0625965,0.9237285000000001,0.0013909999999999,-0.0007734999999999,1.0762714999999998,-0.0013909999999999,0.0007735,0.8777015,-0.517743,0.0503425,1.0922635,-0.502853,0.0486265,0.8551314999999999,-0.891343,0.0798645,1.1019315,-0.886153,0.0839255
13,1.026919,0.714703,-0.021942,0.846862,0.536473,-0.0216159999999999,0.766742,0.786633,-0.062999,1.190842,0.5240330000000001,-0.004378,1.305112,0.742973,-0.041218,0.7633220000000001,1.046833,-0.071629,1.3225719999999999,1.011733,-0.062509,0.923719,0.0015209999999999,-0.0007099999999999,1.076281,-0.001521,0.00071,0.877772,-0.518527,0.05042,1.0923939999999999,-0.503377,0.048755,0.855172,-0.892197,0.07999,1.101982,-0.886887,0.084093
14,1.0269815,0.714318,-0.0223359999999999,0.8473145,0.5368879999999999,-0.021318,0.7685845,0.786318,-0.062648,1.1908745,0.524378,-0.0036809999999999,1.3038245,0.742668,-0.041243,0.7648445,1.0474180000000002,-0.071398,1.3197745,1.0111180000000002,-0.062558,0.9237095,0.001698,-0.0007099999999999,1.0762905,-0.0016979999999999,0.00071,0.8778645,-0.518892,0.050282,1.0925615,-0.503692,0.048682,0.8552445,-0.892522,0.079934,1.1021045,-0.887232,0.084095
15,1.0270495,0.714108,-0.0226359999999999,0.8476315,0.536988,-0.021245,0.7698315,0.786238,-0.062606,1.1909715,0.524558,-0.0031949999999999,1.3026715,0.742518,-0.0412649999999999,0.7654115,1.048418,-0.071396,1.3173815,1.0111180000000002,-0.062606,0.9236645,0.001698,-0.0007109999999999,1.0763355,-0.0016979999999999,0.000711,0.8781515,-0.519172,0.049615,1.0927645,-0.503692,0.048405,0.8554315,-0.893022,0.079888,1.1022615,-0.887262,0.084098
16,1.0271005,0.713708,-0.0229875,0.8481595,0.536988,-0.0212344999999999,0.7704695,0.786238,-0.0625935,1.1910794999999998,0.524558,-0.0031925,1.3016695,0.742478,-0.0412844999999999,0.7655195,1.048418,-0.0713935,1.3152195,1.010818,-0.0627435,0.9235785,0.001698,-0.0007124999999999,1.0764215,-0.0016979999999999,0.0007124999999999,0.8785895,-0.5193720000000001,0.0481845,1.0929754999999999,-0.503692,0.0476175,0.8556195,-0.8935620000000001,0.0798355,1.1024295,-0.887422,0.0839864999999999
17,1.0271845,0.7129479999999999,-0.0237965,0.8486305000000001,0.536988,-0.0216025,0.7705705,0.786068,-0.0629685,1.1911805,0.524558,-0.0035675,1.3008905,0.742478,-0.0420175,0.7656205,1.048418,-0.0717685,1.3148905,1.009918,-0.0643084999999999,0.9234895,0.001698,-0.0009434999999999,1.0765105,-0.0016979999999999,0.0009434999999999,0.8791005000000001,-0.5193720000000001,0.0455665,1.0932315,-0.503962,0.0453685,0.8558205,-0.894082,0.0794045,1.1026205,-0.887812,0.0832855
18,1.0274205,0.7118249999999999,-0.0255099999999999,0.8492035,0.537355,-0.0226509999999999,0.7708135,0.785705,-0.064023,1.1913035,0.524925,-0.0046249999999999,1.3002034999999998,0.7428049999999999,-0.043687,0.7658635,1.048785,-0.073083,1.3145935,1.008685,-0.066883,0.9234725,0.0018239999999999,-0.0012459999999999,1.0765275,-0.0018239999999999,0.0012459999999999,0.8797335,-0.519005,0.040708,1.0937365,-0.503995,0.040979,0.8561935,-0.8943450000000001,0.078248,1.1030735,-0.8880950000000001,0.08176
19,1.0276625,0.7107015,-0.0280389999999999,0.8497185,0.5364815000000001,-0.0249299999999999,0.7710485,0.7850915,-0.066355,1.1908285,0.5237415000000001,-0.006446,1.2994885,0.7433315,-0.046393,0.7654785,1.0487715,-0.076075,1.3140085,1.0069715,-0.0705949999999999,0.9234285,0.0019255,-0.0015919999999999,1.0765715,-0.0019255,0.001592,0.8804285000000001,-0.5175985,0.034288,1.0944695,-0.5032385,0.034697,0.8565685000000001,-0.8936084999999999,0.076499,1.1035585,-0.8874084999999999,0.079392
20,1.0277975,0.7088735,-0.0315789999999999,0.8502285,0.5333835,-0.028761,0.7706285000000002,0.7833535,-0.07027,1.1903185,0.5229635,-0.009147,1.2988184999999999,0.7435035,-0.05046,0.7644885000000001,1.0491834999999998,-0.08027,1.3135385,1.0053835,-0.07526,0.9233385000000001,0.0018724999999999,-0.001874,1.0766615,-0.0018725,0.001874,0.8812685000000001,-0.5153965,0.0256119999999999,1.0956885,-0.5016865,0.0264489999999999,0.8570985,-0.8921365,0.073972,1.1041085,-0.8861865,0.076069
21,1.028092,0.7075994999999999,-0.0371274999999999,0.850989,0.5294795,-0.0347284999999999,0.7693490000000001,0.7828695,-0.0773415,1.189939,0.5215195,-0.0136114999999999,1.2981989999999999,0.7412894999999999,-0.0570325,0.7635689999999999,1.0497095,-0.0876215,1.312999,1.0067095,-0.0814715,0.923067,0.0019554999999999,-0.0023204999999999,1.076933,-0.0019555,0.0023204999999999,0.882459,-0.5108305,0.0130115,1.097771,-0.4973905,0.0149085,0.8579289999999999,-0.8877805,0.0698565,1.104999,-0.8823905,0.0711195
22,1.0283179999999998,0.7042565,-0.043444,0.851649,0.5255865,-0.04135,0.767939,0.7825065,-0.085447,1.189559,0.5189865,-0.0185579999999999,1.297739,0.7394864999999999,-0.064327,0.762549,1.0465265,-0.097637,1.3122189999999998,1.0086265,-0.0886069999999999,0.922769,0.0019915,-0.0027539999999999,1.077231,-0.0019915,0.0027539999999999,0.883769,-0.5049935,-0.0013619999999999,1.100169,-0.4921335,0.0022369999999999,0.858869,-0.8822535,0.065133,1.1060089999999998,-0.8771035,0.065409
23,1.0286374999999999,0.7004925,-0.0504825,0.8525555,0.5207725,-0.0484594999999999,0.7665455,0.7812425,-0.0948225,1.1893655,0.5169825,-0.0239845,1.2974855,0.7377125,-0.0727994999999999,0.7617155,1.0414925000000002,-0.1096425,1.3112555000000001,1.0029525,-0.0996525,0.9223965000000001,0.0020235,-0.0032645,1.0776035,-0.0020235,0.0032645,0.8852255,-0.4976874999999999,-0.0171974999999999,1.1030555,-0.4854575,-0.0117514999999999,0.8600055,-0.8754175,0.0597865,1.1073454999999999,-0.8703175,0.0590145
24,1.028965,0.6961714999999999,-0.0578464999999999,0.853394,0.5160515,-0.0560895,0.764554,0.7755915,-0.1055845,1.189254,0.5149414999999999,-0.0296784999999999,1.297454,0.7359415,-0.0818345,0.7616240000000001,1.0359715,-0.1219845,1.310414,0.9988315,-0.1105245,0.9219310000000001,0.0021065,-0.0039245,1.078069,-0.0021064999999999,0.0039245,0.8863740000000001,-0.4886685,-0.0337885,1.106434,-0.4773685,-0.0267385,0.8612540000000001,-0.8663985000000001,0.0539375,1.108964,-0.8628785,0.0518815
25,1.0296525,0.691747,-0.0658925,0.8547075,0.512487,-0.0639415,0.7630475,0.771917,-0.1167955,1.1895475,0.510937,-0.0360925,1.2979175,0.734547,-0.0915155,0.7625175,1.031437,-0.1352455,1.3099175,0.995947,-0.1223155,0.9215725,0.002274,-0.0046115,1.0784275,-0.0022739999999999,0.0046114999999999,0.8880175,-0.478063,-0.0507305,1.1107075,-0.467863,-0.0421365,0.8630375,-0.855873,0.0474085,1.1112175,-0.853533,0.0442275
26,1.030544,0.6873334999999999,-0.0740525,0.856201,0.5059735,-0.0728005,0.761871,0.7690935,-0.1286815,1.189921,0.5070235,-0.0426025,1.298711,0.7310135,-0.1014815,0.764291,1.0273435,-0.1496615,1.309731,0.9940235,-0.1351115,0.9212940000000001,0.0022814999999999,-0.0049815,1.078706,-0.0022814999999999,0.0049815,0.889941,-0.4658764999999999,-0.0677145,1.115421,-0.4565765,-0.0571514999999999,0.8651409999999999,-0.8439765,0.0400535,1.113631,-0.8421765000000001,0.0366495
27,1.031267,0.682468,-0.0815795,0.8577170000000001,0.499988,-0.0807825,0.7607570000000001,0.763618,-0.1403145,1.190167,0.502568,-0.0486145,1.299587,0.7278479999999999,-0.1107145,0.766127,1.023318,-0.1637145,1.309307,0.992608,-0.1475745,0.921006,0.002417,-0.0052844999999999,1.078994,-0.0024169999999999,0.0052845,0.8916370000000001,-0.452442,-0.0835775,1.1202969999999999,-0.444642,-0.0707145,0.867257,-0.831512,0.0327015,1.115937,-0.829762,0.0295935
28,1.032073,0.6771795,-0.088576,0.8592810000000001,0.4953695,-0.087644,0.759951,0.7590195000000001,-0.1511249999999999,1.190791,0.4993595,-0.053769,1.300381,0.7241995,-0.119745,0.7674110000000001,1.0210395,-0.177195,1.308931,0.9921895,-0.159745,0.920747,0.0024425,-0.005434,1.079253,-0.0024425,0.005434,0.892891,-0.4387504999999999,-0.098685,1.125481,-0.4327405,-0.083641,0.869471,-0.8186005,0.025582,1.118291,-0.8164105,0.022732
29,1.032992,0.67246,-0.095173,0.8609190000000001,0.49246,-0.0932429999999999,0.7596890000000001,0.75451,-0.161136,1.191599,0.49524,-0.058364,1.301389,0.7212299999999999,-0.128016,0.7689490000000001,1.01766,-0.190566,1.308759,0.98579,-0.171526,0.920559,0.002734,-0.005639,1.079441,-0.002734,0.005639,0.893889,-0.4250599999999999,-0.112246,1.130819,-0.42105,-0.095701,0.8718290000000001,-0.8044,0.0189289999999999,1.121179,-0.80157,0.016206
30,1.0336925,0.6670320000000001,-0.100571,0.8623825,0.489302,-0.0981689999999999,0.7598525,0.7483420000000001,-0.169531,1.1920724999999999,0.491772,-0.0624469999999999,1.3023625,0.720442,-0.135301,0.7706325,1.015192,-0.202021,1.3083925,0.977232,-0.182891,0.9204855,0.0027179999999999,-0.00579,1.0795145,-0.002718,0.00579,0.8943325,-0.414528,-0.1236709999999999,1.1357324999999998,-0.4114479999999999,-0.106401,0.8740225,-0.791118,0.012769,1.1239125,-0.787338,0.009991
31,1.034554,0.663285,-0.1060255,0.8639430000000001,0.487495,-0.1026855,0.760773,0.7403850000000001,-0.1776855,1.192653,0.488785,-0.0667985,1.303343,0.719005,-0.1426355,0.772823,1.009115,-0.2118355,1.308373,0.968555,-0.1938555,0.920354,0.002975,-0.0059545,1.0796459999999999,-0.0029749999999999,0.0059545,0.8948230000000001,-0.404725,-0.1346755,1.141033,-0.4010249999999999,-0.1169655,0.876183,-0.7769649999999999,0.0067865,1.126733,-0.772555,0.0040375
32,1.0353905,0.65972,-0.110894,0.8652285,0.4860799999999999,-0.107064,0.7614985000000001,0.73348,-0.185074,1.1931485,0.48439,-0.071318,1.3041785,0.71633,-0.149644,0.7751185,1.00593,-0.219794,1.3084785,0.96642,-0.202094,0.9202505,0.0032699999999999,-0.006166,1.0797495,-0.00327,0.006166,0.8952585,-0.39449,-0.1451339999999999,1.1465785,-0.38988,-0.1274539999999999,0.8783885,-0.76183,0.001049,1.1294585,-0.7575500000000001,-0.00166
33,1.0362685,0.657435,-0.119006,0.8665745,0.483645,-0.115086,0.7629845,0.732475,-0.1946459999999999,1.1936745,0.480525,-0.079565,1.3051045000000001,0.713965,-0.160026,0.7762745,1.004625,-0.230636,1.3085645000000001,0.964705,-0.213746,0.9203655,0.003595,-0.006254,1.0796345,-0.0035949999999999,0.006254,0.8957945,-0.382735,-0.1587059999999999,1.1519945,-0.378065,-0.141006,0.8806545,-0.745765,-0.007678,1.1320145,-0.740855,-0.009964
34,1.036792,0.655175,-0.1303045,0.8677509999999999,0.482475,-0.1268945,0.764111,0.732165,-0.2076145,1.193131,0.4780549999999999,-0.0925195,1.305641,0.712935,-0.1739145,0.7774110000000001,1.005695,-0.2443545,1.308521,0.965475,-0.2290445,0.92056,0.0037049999999999,-0.0059895,1.07944,-0.003705,0.0059895,0.896131,-0.367195,-0.1812645,1.1594209999999998,-0.362805,-0.1643245,0.8827110000000001,-0.725655,-0.0206605,1.134441,-0.720985,-0.0213595
35,1.037274,0.6531,-0.141469,0.86863,0.48428,-0.137659,0.76484,0.7305999999999999,-0.220459,1.19273,0.47582,-0.105431,1.30654,0.7128099999999999,-0.188019,0.77896,1.00506,-0.257109,1.30836,0.96169,-0.244599,0.920597,0.00384,-0.005523,1.0794030000000001,-0.0038399999999999,0.005523,0.89625,-0.35437,-0.203169,1.1663999999999999,-0.34901,-0.187089,0.8843900000000001,-0.7070099999999999,-0.033061,1.13676,-0.7028399999999999,-0.032558
36,1.0384535,0.65136,-0.152901,0.8697375,0.4850799999999999,-0.148591,0.7657674999999999,0.72777,-0.232391,1.1928275,0.47363,-0.118256,1.3076775,0.70989,-0.202711,0.7806175,0.9956,-0.269991,1.3087575,0.95458,-0.261051,0.9207095,0.00408,-0.005346,1.0792905,-0.00408,0.005346,0.8969675,-0.34138,-0.224381,1.1739975,-0.33514,-0.209181,0.8860675000000001,-0.6880700000000001,-0.045189,1.1394175,-0.6848,-0.04335
37,1.039786,0.64838,-0.163978,0.871125,0.48582,-0.159588,0.766915,0.72569,-0.244568,1.193445,0.47139,-0.130987,1.309255,0.70903,-0.2173979999999999,0.782365,0.98838,-0.282218,1.309645,0.9493,-0.277008,0.921015,0.0045099999999999,-0.005208,1.078985,-0.00451,0.0052079999999999,0.898205,-0.3266799999999999,-0.245968,1.182565,-0.3193399999999999,-0.230468,0.887715,-0.6674,-0.056783,1.142315,-0.66564,-0.053256
38,1.0414165,0.646215,-0.1745995,0.8727564999999999,0.486345,-0.1703095,0.7681565000000001,0.724075,-0.2568695,1.1942965,0.4701349999999999,-0.1432995,1.3109264999999999,0.708085,-0.2321795,0.7841765,0.982335,-0.2937295,1.3104765,0.949715,-0.2930195,0.9213465,0.0046649999999999,-0.0052704999999999,1.0786535,-0.004665,0.0052704999999999,0.8993465,-0.3114949999999999,-0.2671695,1.1913765,-0.303045,-0.2506295,0.8893565,-0.647645,-0.0680995,1.1447965,-0.647415,-0.0623035
39,1.0430305,0.6453,-0.185281,0.8743695000000001,0.4855899999999999,-0.180721,0.7695295000000001,0.722,-0.268251,1.1952695,0.4682499999999999,-0.155131,1.3124995,0.7062299999999999,-0.246151,0.7858995,0.97717,-0.304671,1.3113595,0.95033,-0.309081,0.9217395,0.0049199999999999,-0.005122,1.0782605,-0.00492,0.005122,0.9002295,-0.29506,-0.2882909999999999,1.2005795,-0.28539,-0.269721,0.8908995,-0.6277900000000001,-0.078627,1.1469395,-0.62914,-0.070068
40,1.0443575,0.6448149999999999,-0.19561,0.8756995,0.483855,-0.19101,0.7704495,0.7208049999999999,-0.27946,1.1960295,0.4671849999999999,-0.16642,1.3138895,0.7048749999999999,-0.25957,0.7873295,0.978575,-0.3159599999999999,1.3120495,0.951175,-0.32504,0.9221195,0.0049549999999999,-0.0050519999999999,1.0778805,-0.0049549999999999,0.005052,0.9004795,-0.2781349999999999,-0.30896,1.2094695,-0.2687449999999999,-0.2884,0.8921395,-0.608735,-0.0888829999999999,1.1487395,-0.6113249999999999,-0.077402
41,1.0452675,0.645285,-0.2069939999999999,0.8767565000000002,0.482085,-0.201764,0.7710065,0.719415,-0.2912639999999999,1.1964065,0.467545,-0.177644,1.3148265000000001,0.704745,-0.272734,0.7874765,0.979885,-0.3280639999999999,1.3128865,0.953985,-0.341024,0.9224265,0.004635,-0.0049159999999999,1.0775735,-0.004635,0.004916,0.8999265,-0.261525,-0.3303439999999999,1.2175965,-0.2523849999999999,-0.306744,0.8927365,-0.590025,-0.0992199999999999,1.1499665000000001,-0.5936049999999999,-0.085017
42,1.046041,0.645125,-0.214519,0.877744,0.482125,-0.208169,0.771864,0.716835,-0.299639,1.196704,0.4669149999999999,-0.184799,1.315604,0.7040649999999999,-0.281679,0.787644,0.979605,-0.336819,1.313734,0.954845,-0.353639,0.922644,0.004495,-0.0047909999999999,1.077356,-0.0044949999999999,0.004791,0.8990140000000001,-0.246665,-0.347639,1.225474,-0.2369249999999999,-0.321149,0.892954,-0.572975,-0.105762,1.151084,-0.577115,-0.0891169999999999
43,1.0466905,0.6448400000000001,-0.2189549999999999,0.8784465,0.48132,-0.210845,0.7721565000000001,0.7119800000000001,-0.305195,1.1970965,0.46797,-0.1870049999999999,1.3162565,0.70183,-0.286985,0.7877565,0.97727,-0.342225,1.3142464999999999,0.95254,-0.362225,0.9226565,0.00434,-0.0047479999999999,1.0773435,-0.00434,0.004748,0.8973165000000001,-0.23604,-0.3564549999999999,1.2304065,-0.22512,-0.326215,0.8926465000000001,-0.56008,-0.1079989999999999,1.1517165,-0.5639,-0.0903539999999999
44,1.0469725,0.646285,-0.222966,0.8785475000000001,0.478035,-0.2137659999999999,0.7720475000000001,0.7092350000000001,-0.310046,1.1971375,0.468215,-0.188636,1.3167375,0.7020649999999999,-0.291236,0.7877275,0.969895,-0.3489359999999999,1.3143675,0.951165,-0.368926,0.9226575,0.004135,-0.0047789999999999,1.0773425,-0.004135,0.004779,0.8950475,-0.221445,-0.365806,1.2350175,-0.209165,-0.332096,0.8918075,-0.5441050000000001,-0.109733,1.1518075,-0.547875,-0.09118
45,1.047475,0.6473599999999999,-0.226012,0.878905,0.47572,-0.216172,0.7720850000000001,0.7087600000000001,-0.315142,1.197375,0.468866,-0.189852,1.317485,0.70411,-0.294532,0.7879849999999999,0.9704,-0.355062,1.314695,0.95407,-0.373622,0.922735,0.0037999999999999,-0.0047779999999999,1.077265,-0.0038,0.004778,0.892875,-0.2071,-0.3749119999999999,1.239195,-0.1934599999999999,-0.338322,0.891155,-0.52775,-0.1108509999999999,1.152065,-0.53141,-0.0920759999999999
46,1.048145,0.6502249999999999,-0.2282215,0.878845,0.474032,-0.2174815,0.771595,0.707105,-0.3191815,1.1978049999999998,0.470547,-0.1901115,1.3182450000000001,0.703565,-0.2963314999999999,0.788165,0.968195,-0.3607215,1.315165,0.954025,-0.3772215,0.922755,0.0033949999999999,-0.0052364999999999,1.077245,-0.003395,0.0052365,0.890195,-0.195415,-0.3824315,1.2420149999999999,-0.181725,-0.3439314999999999,0.890565,-0.5118550000000001,-0.1104024999999999,1.151905,-0.5155150000000001,-0.0916205
47,1.048574,0.6534800000000001,-0.228843,0.878851,0.472933,-0.218003,0.771441,0.7063,-0.321763,1.198051,0.471794,-0.189773,1.318771,0.70387,-0.296303,0.788171,0.96741,-0.365643,1.315581,0.95496,-0.378553,0.922721,0.00285,-0.005844,1.077279,-0.0028499999999999,0.005844,0.887291,-0.1827599999999999,-0.390033,1.244151,-0.1688799999999999,-0.349683,0.8897510000000001,-0.4961299999999999,-0.110663,1.151751,-0.49829,-0.090753
48,1.048767,0.655905,-0.2286145,0.8788050000000001,0.473631,-0.2171145,0.771255,0.704705,-0.3238945,1.198125,0.47322,-0.1888745,1.319355,0.7054750000000001,-0.2957145,0.788755,0.965975,-0.3698444999999999,1.316085,0.955535,-0.3787445,0.922725,0.002605,-0.0061334999999999,1.077275,-0.0026049999999999,0.0061335,0.884205,-0.170575,-0.3962345,1.2453949999999998,-0.1567549999999999,-0.3548445,0.888935,-0.481085,-0.1107425,1.151595,-0.481735,-0.0891624999999999
49,1.048511,0.658365,-0.2275995,0.8784100000000001,0.474431,-0.2161595,0.7705700000000001,0.704885,-0.3253395,1.19768,0.47406,-0.1878695,1.3195299999999999,0.706815,-0.2948395,0.7888700000000001,0.966785,-0.3724195,1.31612,0.957285,-0.3783995,0.92253,0.002415,-0.0062655,1.07747,-0.002415,0.0062654999999999,0.88087,-0.1580249999999999,-0.4019595,1.24592,-0.1440049999999999,-0.3598595,0.88781,-0.465325,-0.1106995,1.15129,-0.465595,-0.0885635
50,1.048084,0.65851,-0.226417,0.8779420000000001,0.47626,-0.214977,0.769902,0.70377,-0.3259769999999999,1.197212,0.475096,-0.186687,1.3196819999999998,0.70494,-0.293777,0.788822,0.95977,-0.3740369999999999,1.316202,0.9522,-0.377437,0.9223820000000001,0.0025499999999999,-0.006315,1.077618,-0.0025499999999999,0.006315,0.877102,-0.1456999999999999,-0.406767,1.2465419999999998,-0.1319,-0.364657,0.8862120000000001,-0.44919,-0.11124,1.1509619999999998,-0.4492699999999999,-0.087747
51,1.047412,0.660445,-0.2255185,0.8772140000000002,0.47619,-0.2140785,0.769014,0.7050449999999999,-0.3263185,1.196464,0.475564,-0.1850785,1.3195540000000001,0.705865,-0.2930085,0.788464,0.955575,-0.3751785,1.315914,0.949965,-0.3767585,0.922324,0.002145,-0.0063645,1.077676,-0.002145,0.0063644999999999,0.872834,-0.1313349999999999,-0.4116885,1.247304,-0.117645,-0.3691185,0.884214,-0.4312249999999999,-0.1121185,1.150304,-0.431355,-0.0870035
52,1.0466445,0.662695,-0.2246044999999999,0.8764475,0.475892,-0.2131045,0.7681375,0.706965,-0.3260945,1.1956175,0.475431,-0.1832645,1.3193975,0.7074050000000001,-0.2922545,0.7881575000000001,0.951075,-0.3760645,1.3155075,0.948055,-0.3760645,0.9223574999999999,0.002345,-0.0063815,1.0776425,-0.002345,0.0063814999999999,0.8686075,-0.116835,-0.4155045,1.2485075,-0.103445,-0.3727545,0.8822875,-0.413485,-0.1124875,1.1495575,-0.413405,-0.0867135
53,1.046049,0.663595,-0.222682,0.875661,0.477713,-0.211432,0.767341,0.708105,-0.325502,1.194731,0.47627,-0.181112,1.319361,0.708305,-0.291312,0.787881,0.953375,-0.375172,1.315081,0.949965,-0.375022,0.922491,0.0023549999999999,-0.006414,1.077509,-0.0023549999999999,0.006414,0.864311,-0.1039449999999999,-0.418332,1.2502309999999999,-0.0913049999999999,-0.375042,0.8805810000000001,-0.397595,-0.112619,1.1489909999999999,-0.397085,-0.086327
54,1.045385,0.6645399999999999,-0.2205205,0.874753,0.4786039999999999,-0.2098005,0.7661830000000001,0.7111099999999999,-0.3246905,1.193773,0.4770159999999999,-0.1787205,1.319283,0.70983,-0.2901405,0.7873829999999999,0.95626,-0.3743404999999999,1.314443,0.95085,-0.3733404999999999,0.922693,0.0021799999999999,-0.0064245,1.077307,-0.00218,0.0064245,0.859853,-0.09174,-0.4208805,1.252143,-0.0798000000000001,-0.3767604999999999,0.878733,-0.3826600000000001,-0.1120665,1.148393,-0.38172,-0.0860355
55,1.0446499999999999,0.665675,-0.2178915,0.873793,0.479023,-0.2082315,0.764873,0.7139949999999999,-0.3241015,1.192773,0.476974,-0.1763914999999999,1.319123,0.712595,-0.2888515,0.786423,0.959695,-0.3737515,1.313803,0.952715,-0.3715315,0.922894,0.002055,-0.0063694999999999,1.077106,-0.002055,0.0063695,0.855583,-0.079685,-0.4234515,1.254263,-0.069075,-0.3779815,0.876823,-0.3685049999999999,-0.1115964999999999,1.148203,-0.3671149999999999,-0.0857845
56,1.0437625,0.6657730000000001,-0.2149019999999999,0.8727525,0.4795140000000001,-0.2058019999999999,0.7632625,0.7165050000000001,-0.323442,1.1916825,0.4769650000000001,-0.1739919999999999,1.3184624999999999,0.7145750000000001,-0.287482,0.7857625,0.961475,-0.372572,1.3131225,0.954145,-0.369692,0.9230645000000001,0.002195,-0.0061249999999999,1.0769354999999998,-0.0021949999999999,0.006125,0.8517925,-0.0691449999999999,-0.424772,1.2567125,-0.0601049999999999,-0.378182,0.8749425,-0.3563349999999999,-0.110986,1.1481325,-0.3542849999999999,-0.085337
57,1.042577,0.666355,-0.2116714999999999,0.8715260000000001,0.479926,-0.2032015,0.7614259999999999,0.719975,-0.3227015,1.190406,0.477695,-0.1712914999999999,1.317726,0.717185,-0.2860315,0.785026,0.962765,-0.3709814999999999,1.312356,0.955525,-0.3679715,0.923209,0.002045,-0.0058514999999999,1.076791,-0.0020449999999999,0.0058514999999999,0.848256,-0.059505,-0.4257815,1.259746,-0.0516249999999999,-0.3780814999999999,0.873026,-0.3455549999999999,-0.1109405,1.148256,-0.3426249999999999,-0.0847725
58,1.041317,0.6676930000000001,-0.208859,0.870365,0.4794650000000001,-0.2012089999999999,0.759855,0.7226650000000001,-0.321569,1.1893150000000001,0.478995,-0.169009,1.317015,0.7195850000000001,-0.284789,0.784305,0.962225,-0.369279,1.311555,0.955145,-0.366429,0.923337,0.001735,-0.005724,1.076663,-0.0017349999999999,0.005724,0.844775,-0.0518949999999999,-0.426319,1.262855,-0.0457349999999999,-0.377889,0.871305,-0.3370449999999999,-0.111657,1.148475,-0.3335949999999998,-0.084407
59,1.040579,0.671811,-0.2066765,0.869721,0.47818,-0.1994665,0.7588710000000001,0.72626,-0.3206865,1.188541,0.47894,-0.1669165,1.316541,0.72479,-0.2834765,0.783731,0.96757,-0.3673465,1.310521,0.96076,-0.3646665,0.923537,0.0015699999999999,-0.0057195,1.076463,-0.0015699999999999,0.0057195,0.842261,-0.04678,-0.4263665,1.265961,-0.04183,-0.3778365,0.870331,-0.33191,-0.1126855,1.148781,-0.32824,-0.0840545
60,1.0402775,0.671811,-0.2042209999999999,0.8694465,0.47818,-0.198271,0.7586265000000001,0.72626,-0.319621,1.1882565,0.47894,-0.165451,1.3157165,0.72479,-0.281471,0.7827765,0.96757,-0.365391,1.3092665,0.96076,-0.362591,0.9237915,0.0015699999999999,-0.005715,1.0762085,-0.0015699999999999,0.005715,0.8410065,-0.04678,-0.426391,1.2677365,-0.04183,-0.377801,0.8698365,-0.33229,-0.113428,1.1492365,-0.32843,-0.083515
61,1.0399675,0.671811,-0.201758,0.8691745000000001,0.47818,-0.197108,0.7584545,0.72626,-0.318408,1.1879645,0.47894,-0.164048,1.3143844999999998,0.72479,-0.278958,0.7819445,0.96757,-0.363518,1.3077645,0.96076,-0.360188,0.9236625,0.0015699999999999,-0.005656,1.0763375,-0.0015699999999999,0.005656,0.8407445,-0.04678,-0.426458,1.2674745,-0.04183,-0.377488,0.8694645,-0.3325899999999999,-0.114041,1.1495845,-0.32858,-0.0830579999999999
62,1.0397765,0.671811,-0.199274,0.8689804999999999,0.47818,-0.196424,0.7582205000000001,0.72626,-0.317254,1.1877505,0.47894,-0.162984,1.3131805,0.72479,-0.276354,0.7813405,0.96757,-0.362034,1.3057805,0.96134,-0.357554,0.9234525000000001,0.0015699999999999,-0.0054799999999999,1.0765475,-0.0015699999999999,0.0054799999999999,0.8405405,-0.0467499999999999,-0.426634,1.2672505,-0.04183,-0.376844,0.8692505,-0.3327099999999999,-0.113801,1.1499605,-0.32865,-0.082905
63,1.0397535,0.675023,-0.1968285,0.8690585,0.48121,-0.1956085,0.7580285,0.72875,-0.3155885,1.1876285,0.48165,-0.1618685,1.3119485,0.72973,-0.2733285,0.7806885,0.96875,-0.3608585,1.3033885,0.96826,-0.3543785,0.9232795,0.0018799999999999,-0.0053665,1.0767205,-0.0018799999999999,0.0053664999999999,0.8403585,-0.04732,-0.4260185,1.2670585,-0.0429499999999999,-0.3758085,0.8690685,-0.33412,-0.1135615,1.1503685,-0.32968,-0.0833215
64,1.0399025,0.6754870000000001,-0.195995,0.8693065,0.481475,-0.195855,0.7582665000000001,0.7276750000000001,-0.315075,1.1876165,0.481245,-0.161978,1.3108365,0.730365,-0.271475,0.7805665000000002,0.971905,-0.360075,1.3013865,0.970325,-0.352125,0.9231185,0.0017449999999999,-0.0052899999999999,1.0768815,-0.0017449999999999,0.00529,0.8405065,-0.0547449999999999,-0.424145,1.2666765,-0.050485,-0.374695,0.8689665,-0.3434049999999999,-0.1147969999999999,1.1504265,-0.338765,-0.0851509999999999
65,1.040198,0.675485,-0.1950635,0.870008,0.482279,-0.1963535,0.759048,0.726555,-0.3141535,1.187798,0.481461,-0.1621925,1.309678,0.731805,-0.2692535,0.780498,0.973365,-0.3595534999999999,1.299658,0.971545,-0.3493334999999999,0.9229890000000001,0.0019649999999999,-0.0051715,1.077011,-0.0019649999999999,0.0051714999999999,0.841618,-0.0641549999999999,-0.4219535,1.265688,-0.0593749999999999,-0.3736235,0.868548,-0.355965,-0.1168125,1.150408,-0.350535,-0.0870565
66,1.0408185,0.676835,-0.194711,0.8709275,0.482469,-0.197361,0.7603575,0.724615,-0.313041,1.1882575,0.481159,-0.162536,1.3086375000000001,0.732475,-0.267061,0.7806474999999999,0.971385,-0.359281,1.2981375,0.972795,-0.346511,0.9228785,0.0022349999999999,-0.005039,1.0771215,-0.0022349999999999,0.005039,0.8437275,-0.0753949999999999,-0.419281,1.2640275,-0.070895,-0.372001,0.8685775,-0.3723349999999999,-0.118962,1.1505575,-0.366065,-0.0891619999999999
67,1.0414575,0.6774199999999999,-0.1943905,0.8723085000000002,0.4823639999999999,-0.1986005,0.7621285,0.72388,-0.3122705,1.1887485,0.4809839999999999,-0.1630995,1.3080384999999999,0.73227,-0.2651105,0.7812785000000001,0.9762,-0.3581105,1.2969285,0.97723,-0.3441705,0.9226915,0.0023199999999999,-0.0049475,1.0773085,-0.0023199999999999,0.0049474999999999,0.8463185,-0.0893,-0.4160105,1.2616285,-0.08492,-0.3699705,0.8690385,-0.39137,-0.1205955,1.1507785,-0.3851799999999999,-0.0910065
68,1.0424495,0.677945,-0.1946725,0.8740645,0.481002,-0.2004125,0.7643145,0.7225550000000001,-0.3117625,1.1894045,0.478519,-0.1643035,1.3076645,0.7325349999999999,-0.2635725,0.7819145000000001,0.978655,-0.3576125,1.2963045,0.979645,-0.3430125,0.9223685000000001,0.002855,-0.0049495,1.0776314999999999,-0.002855,0.0049494999999999,0.8498745,-0.104495,-0.4122725,1.2584645,-0.1005749999999999,-0.3678025,0.8696745,-0.412985,-0.1227425,1.1514945,-0.407255,-0.0939625
69,1.043534,0.679395,-0.194854,0.875733,0.479488,-0.202544,0.766713,0.723075,-0.311354,1.189933,0.475697,-0.165714,1.307523,0.732085,-0.262334,0.781863,0.980775,-0.356924,1.296573,0.982985,-0.341124,0.9226870000000001,0.0031349999999999,-0.0050739999999999,1.077313,-0.0031349999999999,0.0050739999999999,0.854023,-0.1210549999999999,-0.408294,1.254243,-0.1174249999999999,-0.365234,0.870443,-0.436945,-0.127018,1.152043,-0.4313149999999999,-0.097232
70,1.04447,0.67753,-0.1951554999999999,0.877537,0.480821,-0.2040055,0.768867,0.72312,-0.3111355,1.190557,0.47665,-0.1662385,1.307347,0.7323500000000001,-0.2612055,0.782987,0.98093,-0.3558155,1.296827,0.98392,-0.3388055,0.923115,0.00335,-0.0051604999999999,1.076885,-0.00335,0.0051604999999999,0.858837,-0.14009,-0.4028155,1.248827,-0.13615,-0.3610755,0.871497,-0.46398,-0.1338565,1.152507,-0.45858,-0.1007214999999999
71,1.045644,0.67614,-0.195675,0.87957,0.482137,-0.205375,0.77145,0.72305,-0.310945,1.19186,0.477711,-0.166486,1.30785,0.73209,-0.260055,0.78408,0.9806,-0.354695,1.29759,0.9835,-0.336715,0.923071,0.0034,-0.00531,1.076929,-0.0034,0.0053099999999999,0.86429,-0.15929,-0.396655,1.2432699999999999,-0.15507,-0.3561149999999999,0.87317,-0.49097,-0.137712,1.1541,-0.48649,-0.105932
72,1.046559,0.67317,-0.194501,0.8805330000000001,0.482968,-0.2062709999999999,0.773763,0.7250000000000001,-0.3098309999999999,1.193093,0.475475,-0.166526,1.308463,0.73236,-0.256581,0.785093,0.98251,-0.353091,1.297463,0.97933,-0.332991,0.923015,0.0034899999999999,-0.005454,1.076985,-0.0034899999999999,0.005454,0.869253,-0.1776899999999999,-0.389101,1.238323,-0.1740499999999999,-0.350291,0.875243,-0.5171999999999999,-0.141237,1.155753,-0.5137,-0.110652
73,1.0476429999999999,0.67422,-0.1917885,0.881739,0.484383,-0.2060885,0.775649,0.72846,-0.3075084999999999,1.194199,0.47997,-0.1640625,1.3092089999999998,0.73431,-0.2518685,0.786829,0.98701,-0.3501984999999999,1.297569,0.97799,-0.3267185,0.923139,0.0029199999999999,-0.0056914999999999,1.076861,-0.00292,0.0056915,0.873399,-0.1928699999999999,-0.3816184999999999,1.234389,-0.1900199999999999,-0.3421085,0.877499,-0.53979,-0.1428975,1.156909,-0.53769,-0.1127344999999999
74,1.048374,0.67066,-0.190173,0.882512,0.4828099999999999,-0.206736,0.776792,0.72798,-0.306446,1.195132,0.47983,-0.162603,1.309772,0.73211,-0.247906,0.788062,0.98773,-0.348336,1.298052,0.97381,-0.321516,0.923502,0.00272,-0.00592,1.076498,-0.00272,0.0059199999999999,0.876542,-0.2102799999999999,-0.371506,1.228682,-0.20893,-0.331516,0.879352,-0.5666500000000001,-0.144775,1.157702,-0.5662100000000001,-0.115903
75,1.048607,0.6666449999999999,-0.1876155,0.882654,0.486575,-0.2065785,0.777404,0.7297849999999999,-0.3054485,1.195674,0.4811149999999999,-0.1612365,1.309944,0.733645,-0.2436885,0.788664,0.990275,-0.3463285,1.299004,0.977925,-0.3165585,0.923594,0.0026349999999999,-0.0060115,1.076406,-0.0026349999999999,0.0060115,0.878624,-0.2272449999999999,-0.3605885,1.2227839999999999,-0.226505,-0.3207685,0.880444,-0.5922149999999999,-0.1470555,1.158334,-0.593215,-0.1193355
76,1.0486525,0.6646449999999999,-0.18513,0.8835965,0.487825,-0.206402,0.7785664999999999,0.730035,-0.3042519999999999,1.1965465,0.483365,-0.159201,1.3103265,0.7348049999999999,-0.239222,0.7895965,0.991545,-0.345362,1.3004965,0.979635,-0.311232,0.9241265,0.0025049999999999,-0.005848,1.0758735,-0.0025049999999999,0.0058479999999999,0.8808165,-0.244805,-0.346642,1.2159865,-0.2451149999999999,-0.306662,0.8815165,-0.618645,-0.149146,1.1595464999999998,-0.621505,-0.122805
77,1.0488155,0.66075,-0.1815875,0.8845975000000001,0.49026,-0.2054295,0.7801775,0.7313700000000001,-0.3027094999999999,1.1973075,0.48663,-0.1566535,1.3106975,0.73457,-0.2344895,0.7906275,0.99303,-0.3441395,1.3021775,0.98214,-0.3053194999999999,0.9244775,0.0018699999999999,-0.0057104999999999,1.0755225,-0.0018699999999999,0.0057105,0.8827975,-0.2626199999999999,-0.3316795,1.2092775,-0.2638,-0.2914394999999999,0.8827975,-0.64458,-0.1502815,1.1608575,-0.64953,-0.1252445
78,1.0488205,0.65463,-0.177857,0.8853625,0.49238,-0.204156,0.7818325,0.73377,-0.300652,1.1979925,0.48926,-0.15399,1.3111325,0.7376400000000001,-0.229762,0.7917425,0.99422,-0.343062,1.3036124999999998,0.98406,-0.299872,0.9248225,0.0016599999999999,-0.0054379999999999,1.0751775,-0.0016599999999999,0.0054379999999999,0.8844425,-0.2796599999999999,-0.316082,1.2028625,-0.28234,-0.275772,0.8843125000000001,-0.6694,-0.150925,1.1619725,-0.6765000000000001,-0.127371
79,1.048487,0.651275,-0.173368,0.8855999999999999,0.491425,-0.2029369999999999,0.78318,0.736335,-0.297705,1.19835,0.4871749999999999,-0.151969,1.31066,0.7396449999999999,-0.224905,0.79085,0.997865,-0.341685,1.30467,0.989145,-0.294385,0.92488,0.0014849999999999,-0.005135,1.07512,-0.001485,0.005135,0.88582,-0.294245,-0.301255,1.19686,-0.298695,-0.260465,0.88565,-0.691265,-0.1509619999999999,1.16272,-0.700385,-0.1287049999999999
80,1.047818,0.6471,-0.168999,0.8862340000000001,0.4895199999999999,-0.202543,0.784304,0.7383700000000001,-0.29438,1.198354,0.4842499999999999,-0.150597,1.309544,0.7413500000000001,-0.22031,0.7897040000000001,1.00236,-0.34031,1.305264,0.99423,-0.28893,0.925104,0.0015699999999999,-0.00482,1.074896,-0.0015699999999999,0.0048199999999999,0.887084,-0.30862,-0.28595,1.190744,-0.31465,-0.24513,0.8865440000000001,-0.712,-0.147291,1.163184,-0.72386,-0.130108
81,1.047006,0.643915,-0.166161,0.886735,0.483925,-0.202906,0.785315,0.736675,-0.291925,1.198225,0.481875,-0.149582,1.308055,0.739485,-0.217585,0.788545,1.009575,-0.337505,1.306235,1.001115,-0.284555,0.925325,0.001315,-0.004455,1.074675,-0.001315,0.0044549999999999,0.888355,-0.322125,-0.270635,1.184125,-0.329325,-0.229245,0.8872450000000001,-0.731735,-0.145229,1.163515,-0.7450950000000001,-0.130959
82,1.04538,0.63917,-0.160649,0.886505,0.47825,-0.201247,0.786435,0.73631,-0.285915,1.197455,0.47455,-0.147751,1.305025,0.73894,-0.211492,0.786905,1.0108,-0.333155,1.305785,1.00945,-0.278725,0.925525,0.00183,-0.004455,1.074475,-0.0018299999999999,0.0044549999999999,0.889325,-0.3338899999999999,-0.251865,1.176895,-0.34226,-0.211605,0.886835,-0.74974,-0.140848,1.163065,-0.76376,-0.128903
83,1.044487,0.6384,-0.156571,0.8858480000000001,0.47628,-0.199109,0.786518,0.73987,-0.280095,1.197178,0.46992,-0.145921,1.303568,0.74039,-0.205571,0.785778,1.0174,-0.328355,1.306008,1.01981,-0.272825,0.925288,0.00192,-0.004355,1.074712,-0.00192,0.0043549999999999,0.8907880000000001,-0.34929,-0.235205,1.1707079999999999,-0.3554299999999999,-0.195373,0.887108,-0.76211,-0.135804,1.161408,-0.77608,-0.12342
84,1.043882,0.637375,-0.154377,0.885318,0.469815,-0.198048,0.786238,0.741615,-0.274455,1.197238,0.464175,-0.144611,1.302648,0.738275,-0.200193,0.784768,1.025085,-0.323295,1.305838,1.021275,-0.266215,0.924968,0.0020649999999999,-0.004405,1.075032,-0.0020649999999999,0.004405,0.892028,-0.364005,-0.217855,1.164218,-0.3683349999999999,-0.178435,0.8877180000000001,-0.773135,-0.129049,1.159328,-0.787895,-0.117403
85,1.043468,0.638381,-0.148306,0.8841400000000001,0.466981,-0.192759,0.7856799999999999,0.744541,-0.26517,1.19723,0.457371,-0.1397499999999999,1.30148,0.7362209999999999,-0.190552,0.78298,1.027841,-0.31333,1.3051,1.021221,-0.2537,0.92475,0.0025489999999999,-0.00401,1.07525,-0.0025489999999999,0.00401,0.89267,-0.374249,-0.195716,1.15725,-0.378589,-0.156861,0.88751,-0.782209,-0.117394,1.1568,-0.7971790000000001,-0.105882
86,1.0425765,0.64531,-0.137924,0.8819715,0.4721999999999999,-0.180657,0.7845815,0.7499600000000001,-0.251032,1.1967215,0.45386,-0.129095,1.3000115,0.7372500000000001,-0.1765229999999999,0.7807715,1.03135,-0.2979819999999999,1.3045015,1.02205,-0.236422,0.9249715000000001,0.0031859999999999,-0.0036179999999999,1.0750285,-0.003186,0.0036179999999999,0.8920715,-0.3896,-0.166497,1.1490015,-0.39391,-0.129643,0.8867215000000002,-0.79633,-0.100537,1.1531414999999998,-0.80946,-0.090464
87,1.041481,0.6551175,-0.127689,0.880379,0.4780675,-0.168118,0.783409,0.7526675,-0.236738,1.195959,0.4563775,-0.116679,1.298299,0.7358275,-0.162265,0.778389,1.0347375,-0.282128,1.3043390000000001,1.0219175,-0.219238,0.925119,0.0036035,-0.003294,1.074881,-0.0036034999999999,0.003294,0.891419,-0.4045025,-0.137532,1.140739,-0.4086725,-0.103386,0.885689,-0.8101325,-0.083514,1.149249,-0.8214825,-0.07452
88,1.040587,0.664257,-0.1168805,0.8785200000000001,0.484017,-0.1549674999999999,0.7827500000000001,0.754937,-0.2222954999999999,1.1952099999999999,0.463727,-0.1027104999999999,1.2972299999999999,0.735317,-0.1474955,0.77671,1.037197,-0.2658655,1.30412,1.021347,-0.2009254999999999,0.92511,0.004059,-0.0031744999999999,1.07489,-0.004059,0.0031745,0.89125,-0.4223429999999999,-0.1084314999999999,1.13267,-0.424013,-0.0779594999999999,0.88465,-0.8242130000000001,-0.0658805,1.14551,-0.8336530000000001,-0.0579794999999999
89,1.040059,0.6722885,-0.106404,0.876893,0.4909485,-0.14195,0.782413,0.7579885,-0.208794,1.194623,0.4700285,-0.089492,1.296633,0.7358385,-0.133349,0.775453,1.0398985,-0.249834,1.303933,1.0212685,-0.183624,0.924783,0.0042185,-0.003128,1.075217,-0.0042185,0.003128,0.8911830000000001,-0.4405615,-0.081132,1.125241,-0.4395715,-0.053961,0.883883,-0.8377515,-0.049367,1.142203,-0.8455315,-0.041686
90,1.0392935,0.6799645,-0.095968,0.8750355,0.4986745,-0.128818,0.7820455,0.7619944999999999,-0.195773,1.1938955,0.4792745,-0.075776,1.2958055,0.7368745,-0.11995,0.7741055,1.0390045,-0.235483,1.3035255000000001,1.0192445,-0.167493,0.9242755,0.0044375,-0.0032369999999999,1.0757245,-0.0044375,0.003237,0.8902755,-0.4582354999999999,-0.055538,1.1185315,-0.4542954999999999,-0.031608,0.8832055,-0.8502655,-0.033582,1.1386155,-0.8562755000000001,-0.0259039999999999
91,1.0383605,0.687722,-0.0853755,0.8733195,0.507022,-0.1158984999999999,0.7815195,0.765962,-0.1837595,1.1931794999999998,0.489052,-0.0617044999999999,1.2948395,0.738042,-0.1074594999999999,0.7726795,1.038102,-0.2211495,1.3028295,1.016402,-0.1520194999999999,0.9238395000000001,0.0045209999999999,-0.0035074999999999,1.0761604999999999,-0.004521,0.0035075,0.8893595,-0.475528,-0.0322854999999999,1.1125135,-0.4687679999999999,-0.0110664999999999,0.8823195,-0.862348,-0.0186094999999999,1.1350395,-0.866438,-0.0104814999999999
92,1.036962,0.6959865,-0.074493,0.87128,0.5145065,-0.102642,0.78016,0.7692165,-0.171158,1.19215,0.4995165,-0.0469679999999999,1.2935699999999999,0.7397265,-0.09482,0.77127,1.0368265,-0.206738,1.30161,1.0137265000000002,-0.1366669999999999,0.92382,0.0045945,-0.0039459999999999,1.07618,-0.0045945,0.0039459999999999,0.88809,-0.4924435,-0.010372,1.1071550000000001,-0.4830335,0.007794,0.88087,-0.8743635,-0.003596,1.13152,-0.8762435000000001,0.004444
93,1.035599,0.7041385,-0.063593,0.8686870000000001,0.5222285,-0.088582,0.778537,0.7725785,-0.158605,1.191147,0.5105185,-0.031775,1.292777,0.7416885,-0.082289,0.769497,1.0354085,-0.192885,1.300657,1.0112085,-0.122359,0.923747,0.0045625,-0.004118,1.076253,-0.0045625,0.004118,0.886897,-0.5087615,0.009444,1.1026779999999998,-0.4964715,0.02488,0.879397,-0.8856115000000001,0.0107949999999999,1.128417,-0.8855615,0.018577
94,1.0346485,0.708871,-0.05932,0.8662195,0.528761,-0.080742,0.7761994999999999,0.7747310000000001,-0.152762,1.1903595,0.5224810000000001,-0.022865,1.2930895,0.744251,-0.076896,0.7681395,1.0323909999999998,-0.186482,1.3002295,1.009191,-0.116674,0.9238755,0.0043349999999999,-0.004403,1.0761245,-0.004335,0.004403,0.8854995000000001,-0.523519,0.018268,1.1005285,-0.508229,0.030452,0.8780595,-0.894809,0.01681,1.1263395,-0.893079,0.023607
95,1.033766,0.70982,-0.0579855,0.864978,0.52738,-0.0787225,0.774978,0.77366,-0.1504935,1.189688,0.53096,-0.0189425,1.292538,0.74456,-0.0749785,0.766908,1.03108,-0.1840035,1.300188,1.00758,-0.1146524999999999,0.924024,0.00402,-0.0045604999999999,1.075976,-0.0040199999999999,0.0045605,0.884298,-0.52573,0.0196674999999999,1.099327,-0.51049,0.0317805,0.876878,-0.8968900000000001,0.0183945,1.125088,-0.89529,0.0250794999999999
96,1.0329234999999999,0.708626,-0.056414,0.8638005,0.526106,-0.076499,0.7738005,0.772636,-0.148209,1.1891205,0.534226,-0.016038,1.2918905,0.7440159999999999,-0.073014,0.7657105,1.029676,-0.181549,1.2999205,1.006776,-0.112166,0.9242085,0.003721,-0.004739,1.0757915,-0.0037209999999999,0.004739,0.8831305,-0.527734,0.0212319999999999,1.0981595,-0.5125040000000001,0.033345,0.8757205,-0.8987440000000001,0.020152,1.1238404999999998,-0.8972840000000001,0.026821
97,1.0326265000000001,0.708027,-0.0545865,0.8630915,0.525457,-0.0740445,0.7731015,0.772147,-0.1456984999999999,1.1887714999999999,0.533537,-0.0137965,1.2917915,0.743237,-0.0708755,0.7650215,1.028957,-0.1790385,1.3005715,1.006657,-0.1096055,0.9246195,0.0034579999999999,-0.0047885,1.0753805,-0.003458,0.0047885,0.8824415,-0.528963,0.0230524999999999,1.0974705,-0.513743,0.0351655,0.8751015,-0.8999630000000001,0.0219735,1.1230815,-0.898503,0.0287634999999999
98,1.031695,0.7077085,-0.0519665,0.8617760000000001,0.5251185,-0.0715235,0.7722460000000001,0.7717385,-0.1430074999999999,1.187736,0.5330285,-0.0117434999999999,1.291156,0.7426985,-0.0686495,0.763646,1.0281684999999998,-0.1766174999999999,1.300256,1.0057684999999998,-0.1069985,0.9247879999999999,0.0032405,-0.0048954999999999,1.075212,-0.0032405,0.0048955,0.881396,-0.5294215,0.0249995,1.096734,-0.5140315,0.0355064999999999,0.873756,-0.9008615,0.0239145,1.121686,-0.8996215,0.0308125
99,1.0308365,0.707763,-0.049443,0.8604925,0.5250130000000001,-0.069131,0.7712325000000001,0.771263,-0.140376,1.1867725,0.532683,-0.009905,1.2906725,0.7424430000000001,-0.066632,0.7623525,1.028193,-0.174596,1.3000025,1.004993,-0.1046349999999999,0.9249285,0.0030069999999999,-0.004863,1.0750715,-0.0030069999999999,0.004863,0.8806825000000001,-0.529667,0.026519,1.0959785,-0.514207,0.0360059999999999,0.8724625,-0.901357,0.0257459999999999,1.1203125,-0.9001969999999999,0.032734
100,1.0300655,0.7080895,-0.046976,0.8594005,0.5249795,-0.066559,0.7699305000000001,0.7709895,-0.137578,1.1858305,0.5325495,-0.0079709999999999,1.2903704999999999,0.7424295,-0.064685,0.7610605,1.0287195,-0.172668,1.2998604999999999,1.0037195,-0.103155,0.9250355,0.0027925,-0.004743,1.0749645,-0.0027925,0.004743,0.8803605,-0.5298605,0.027718,1.0952865,-0.5142805,0.036558,0.8711705000000001,-0.9016305,0.027668,1.1189605,-0.9005405,0.0347149999999999
101,1.0293809999999999,0.709103,-0.044687,0.858444,0.524953,-0.064233,0.7687539999999999,0.770813,-0.135122,1.185114,0.532373,-0.006166,1.290284,0.7422529999999999,-0.062868,0.759884,1.028543,-0.170872,1.299874,1.003543,-0.101979,0.9251030000000001,0.002616,-0.004574,1.074897,-0.002616,0.004574,0.8801740000000001,-0.529957,0.028813,1.0947,-0.514327,0.037009,0.870004,-0.901807,0.0294129999999999,1.117724,-0.900797,0.0365329999999999
102,1.028678,0.710093,-0.042501,0.8574390000000001,0.524903,-0.062081,0.767579,0.770293,-0.133418,1.184419,0.532223,-0.004546,1.290339,0.7421129999999999,-0.061151,0.7584790000000001,1.028403,-0.169178,1.300099,1.003403,-0.100857,0.925207,0.0024759999999999,-0.004573,1.074793,-0.0024759999999999,0.004573,0.8799890000000001,-0.530057,0.029913,1.094037,-0.514377,0.037395,0.868889,-0.901987,0.03102,1.116479,-0.900967,0.038284
103,1.028093,0.7109829999999999,-0.04048,0.856484,0.524903,-0.060163,0.766304,0.769413,-0.131854,1.183814,0.532223,-0.00308,1.290914,0.7420629999999999,-0.059572,0.756894,1.028403,-0.1678639999999999,1.301164,1.002503,-0.099829,0.925287,0.0024759999999999,-0.004504,1.074713,-0.0024759999999999,0.0045039999999999,0.879874,-0.530057,0.031007,1.093471,-0.514377,0.037664,0.867974,-0.902157,0.032464,1.115364,-0.900967,0.039914
104,1.027506,0.7117975,-0.0386475,0.855464,0.5249375000000001,-0.0584235,0.764364,0.7678275,-0.1304445,1.1833339999999999,0.5322575,-0.0020425,1.292164,0.7416475,-0.0584535,0.753664,1.0254375,-0.1679745,1.303604,1.0008374999999998,-0.0992005,0.925386,0.0024414999999999,-0.0045535,1.074614,-0.0024414999999999,0.0045535,0.8796940000000001,-0.5300225,0.0321015,1.092878,-0.5143425,0.0379535,0.8670840000000001,-0.9023725,0.0337725,1.114304,-0.9009225,0.0413275
105,1.027027,0.712472,-0.037112,0.854543,0.5250020000000001,-0.0569929999999999,0.7614230000000001,0.765142,-0.129338,1.182903,0.5322520000000001,-0.0013779999999999,1.294853,0.740082,-0.0579309999999999,0.749683,1.021302,-0.169138,1.308453,0.998002,-0.099851,0.92544,0.0023769999999999,-0.004526,1.07456,-0.002377,0.004526,0.8795130000000001,-0.5299579999999999,0.032959,1.092348,-0.5143179999999999,0.03812,0.866293,-0.902508,0.034807,1.113353,-0.900838,0.042484
106,1.0266579999999998,0.713138,-0.036165,0.8538140000000001,0.525298,-0.055946,0.7572340000000001,0.761088,-0.1290549999999999,1.182854,0.531818,-0.0015559999999999,1.299604,0.737808,-0.058365,0.744754,1.0154379999999998,-0.1717449999999999,1.315464,0.995538,-0.102567,0.925496,0.002146,-0.0045369999999999,1.074504,-0.0021459999999999,0.004537,0.8793340000000001,-0.5297219999999999,0.033507,1.0919,-0.514052,0.038153,0.8657239999999999,-0.902392,0.035403,1.112574,-0.900432,0.043229
107,1.026425,0.7139835,-0.0353995,0.853248,0.5256735,-0.0550935,0.751728,0.7553735,-0.1296845,1.183038,0.5312635,-0.0019895,1.306658,0.7334435,-0.0592025,0.738108,1.0081835,-0.1768145,1.326768,0.9854835,-0.1077645,0.925488,0.0019654999999999,-0.0044275,1.074512,-0.0019655,0.0044275,0.8792580000000001,-0.5294865,0.0339895,1.091581,-0.5137265,0.0381015,0.865308,-0.9019265,0.0358265,1.111918,-0.8999165,0.0438105
108,1.026211,0.714859,-0.0346594999999999,0.852235,0.525989,-0.0540084999999999,0.743735,0.7462190000000001,-0.1311864999999999,1.183265,0.530239,-0.0022675,1.315595,0.724569,-0.0592354999999999,0.728735,0.997059,-0.1851265,1.340595,0.972179,-0.1147364999999999,0.925475,0.0018659999999999,-0.0041955,1.074525,-0.0018659999999999,0.0041955,0.879195,-0.528891,0.0344715,1.091346,-0.513211,0.0379935,0.864975,-0.901111,0.0362295,1.111345,-0.899161,0.0443365
109,1.026042,0.716071,-0.0340945,0.851234,0.526061,-0.0528435,0.733784,0.734521,-0.1328085,1.183624,0.528871,-0.0025835,1.326144,0.713461,-0.0593025,0.7178640000000001,0.981471,-0.1960085,1.358104,0.955711,-0.1248985,0.925427,0.00177,-0.0039974999999999,1.074573,-0.00177,0.0039974999999999,0.879224,-0.527949,0.0346825,1.0912719999999998,-0.512659,0.0377495,0.864804,-0.899929,0.0364045,1.110944,-0.8979889999999999,0.0445825
110,1.0259175,0.7178845,-0.0332415,0.8502575,0.5258544999999999,-0.0514725,0.7213475,0.7209045000000001,-0.1333885,1.1839475,0.5268645000000001,-0.0025595,1.3374875,0.6964545,-0.0590105,0.7048575,0.9603845,-0.2098285,1.3778475000000001,0.9290845,-0.1352684999999999,0.9253095000000001,0.0017045,-0.0038035,1.0746905,-0.0017045,0.0038035,0.8792875,-0.5263655,0.0348615,1.0912805,-0.5117155,0.0374395,0.8646975,-0.8981155000000001,0.0365645,1.1105375,-0.8962055,0.0447855
111,1.025825,0.7200955,-0.0321295,0.849336,0.5254354999999999,-0.0499495,0.707306,0.6984954999999999,-0.1332124999999999,1.184236,0.5247554999999999,-0.0024135,1.349656,0.6729755,-0.0586365,0.689696,0.9314555,-0.2254425,1.402716,0.8972955,-0.1508025,0.925136,0.0016294999999999,-0.0037235,1.074864,-0.0016294999999999,0.0037235,0.879336,-0.5242345,0.0349675,1.091341,-0.5104345,0.0371414999999999,0.864596,-0.8958945,0.0366494999999999,1.110196,-0.8940745,0.0449535
112,1.025744,0.7223284999999999,-0.0306915,0.848332,0.5247685,-0.0482255,0.694752,0.6747685,-0.1332775,1.184632,0.5219785,-0.0022675,1.360392,0.6459885,-0.0582935,0.672222,0.8953585,-0.2412475,1.4285219999999998,0.8597785,-0.1627675,0.924955,0.0015865,-0.0037495,1.075045,-0.0015864999999999,0.0037495,0.879422,-0.5216915,0.0351075,1.091455,-0.5088415,0.0368765,0.864522,-0.8933015,0.0367495,1.1098919999999999,-0.8915015000000001,0.0450825
113,1.0256554999999998,0.7241234999999999,-0.028952,0.8480185,0.5234635,-0.0468059999999999,0.6865485,0.6457434999999999,-0.133371,1.1849485,0.5189134999999999,-0.0025729999999999,1.3668285,0.6166935,-0.0581499999999999,0.6540785,0.8520034999999999,-0.249341,1.4472485,0.8112935,-0.167091,0.9247825000000001,0.0015405,-0.003773,1.0752175,-0.0015405,0.003773,0.8794985,-0.5187465,0.035106,1.0915925,-0.5068865,0.036492,0.8644585,-0.8903265,0.036732,1.1096484999999998,-0.8884365000000001,0.045096
114,1.025786,0.7274775,-0.0277115,0.843628,0.5229975,-0.0425715,0.6534679999999999,0.6457375000000001,-0.1592945,1.1851779999999998,0.5150275,-0.0050735,1.393368,0.5889075,-0.0656815,0.635488,0.8403475,-0.2860445,1.476288,0.7629475,-0.1896845,0.924558,0.0017005,-0.0028085,1.075442,-0.0017004999999999,0.0028085,0.879578,-0.5160325,0.0361365,1.091945,-0.5052925,0.0365835,0.864628,-0.8863825,0.0374955,1.109008,-0.8863925,0.0458825
115,1.0248305,0.7299055000000001,-0.0248055,0.8432245,0.5213755000000001,-0.0408515,0.6099145,0.5648655,-0.1488335,1.1845845,0.5134255000000001,-0.0030605,1.4308545,0.5316855,-0.0575414999999999,0.6134345,0.7676755000000001,-0.3037335,1.5248944999999998,0.7199955,-0.2330035,0.9241045,0.0012604999999999,-0.0018905,1.0758955000000001,-0.0012605,0.0018905,0.8790545,-0.5120444999999999,0.0359155,1.0916315,-0.5023345,0.0362805,0.8638445,-0.8821545,0.0373565,1.1083945,-0.8825445,0.0456495
116,1.024576,0.7311380000000001,-0.0220295,0.843473,0.519228,-0.0393995,0.628233,0.549178,-0.1442885,1.185053,0.507358,-0.0015115,1.425443,0.500688,-0.0552635,0.589943,0.7024980000000001,-0.3360484999999999,1.548043,0.661718,-0.2586585,0.92384,0.001542,-0.0023274999999999,1.07616,-0.001542,0.0023275,0.879043,-0.507962,0.0350135,1.091501,-0.499432,0.0353965,0.8634930000000001,-0.879052,0.0368675,1.1080329999999998,-0.878142,0.0449375
117,1.025097,0.7328005000000001,-0.018879,0.843618,0.5136605000000001,-0.036772,0.632798,0.4953105,-0.1338069999999999,1.185338,0.5038605,0.000227,1.407738,0.4750605,-0.052396,0.5728679999999999,0.6131805,-0.356607,1.5642079999999998,0.5567205000000001,-0.269857,0.9238840000000001,0.0014145,-0.002587,1.0761159999999999,-0.0014145,0.002587,0.879798,-0.5044495,0.034711,1.092204,-0.4961695,0.035044,0.864088,-0.8747995,0.036802,1.1084479999999999,-0.8746594999999999,0.04485
118,1.0254415,0.7354155,-0.013447,0.8438745,0.5117155,-0.036331,0.6366245000000001,0.4481355,-0.120849,1.1867444999999999,0.4991255,0.002326,1.4007945,0.4248355,-0.039518,0.5590845000000001,0.5003055,-0.335839,1.5553845,0.4424855,-0.2399089999999999,0.9238325000000001,0.0018555,-0.003294,1.0761675,-0.0018555,0.003294,0.8798245,-0.5008345000000001,0.034065,1.0922365,-0.4948345,0.034506,0.8639645000000001,-0.8717145000000001,0.036414,1.1080645,-0.8724245,0.044908
119,1.026187,0.7379135,-0.01085,0.845027,0.5082835,-0.03696,0.646007,0.4085135,-0.102514,1.187327,0.4968435,0.000987,1.3918169999999999,0.3960035,-0.0306609999999999,0.536637,0.3965135,-0.3096839999999999,1.541947,0.3496035,-0.203514,0.923731,0.0018074999999999,-0.004147,1.076269,-0.0018075,0.004147,0.880457,-0.4966464999999999,0.034155,1.092963,-0.4912065,0.034238,0.8644769999999999,-0.8675865,0.036416,1.1087069999999999,-0.8670865,0.044596
120,1.028496,0.74434,-0.0061779999999999,0.8519220000000001,0.49816,-0.042481,0.679242,0.34959,-0.0828329999999999,1.187942,0.49153,-0.0038499999999999,1.3595920000000001,0.32981,-0.020388,0.561472,0.2372,-0.250851,1.493512,0.18207,-0.139711,0.923338,0.002463,-0.004189,1.076662,-0.002463,0.004189,0.881302,-0.48717,0.03236,1.093802,-0.48352,0.032738,0.865402,-0.85959,0.035155,1.109592,-0.85609,0.043161
