sb224sc-HT22-VT27/4dt907/src/ml-research/a11/datafiles/kinect_good_preprocessed_not_cut_A11_mediapipe/A27_kinect.csv
FrameNo,nose_3d_x,nose_3d_y,nose_3d_z,left_shoulder_3d_x,left_shoulder_3d_y,left_shoulder_3d_z,left_elbow_3d_x,left_elbow_3d_y,left_elbow_3d_z,right_shoulder_3d_x,right_shoulder_3d_y,right_shoulder_3d_z,right_elbow_3d_x,right_elbow_3d_y,right_elbow_3d_z,left_wrist_3d_x,left_wrist_3d_y,left_wrist_3d_z,right_wrist_3d_x,right_wrist_3d_y,right_wrist_3d_z,left_hip_3d_x,left_hip_3d_y,left_hip_3d_z,right_hip_3d_x,right_hip_3d_y,right_hip_3d_z,left_knee_3d_x,left_knee_3d_y,left_knee_3d_z,right_knee_3d_x,right_knee_3d_y,right_knee_3d_z,left_ankle_3d_x,left_ankle_3d_y,left_ankle_3d_z,right_ankle_3d_x,right_ankle_3d_y,right_ankle_3d_z
0,-0.0003535000000000018,0.762875,0.0640725,-0.1649365,0.462155,0.0608795,-0.1802165,0.211945,0.0568635,0.1519035,0.463945,0.0730295,0.1862735,0.213005,0.0738825,-0.1927165,0.009565,-0.017382499999999995,0.2017335,0.011088,-0.001632499999999995,-0.0734895,0.000848,0.0012554999999999997,0.0734895,-0.0008479999999999998,-0.0012554999999999997,-0.1217265,-0.391255,-0.014016500000000001,0.1130435,-0.414385,0.017892500000000002,-0.12511650000000002,-0.734715,-0.015345499999999998,0.1225135,-0.738215,-0.013257499999999998
1,-0.000226999999999995,0.7628315,0.0634895,-0.16477199999999997,0.4620315,0.0610205,-0.18004199999999998,0.2121515,0.0564285,0.151988,0.4637615,0.0725175,0.18591800000000003,0.2129215,0.0736935,-0.19279200000000002,0.009844499999999999,-0.017968500000000005,0.20144800000000002,0.0109325,-0.0015715000000000034,-0.073461,0.0009534999999999999,0.0007285,0.073461,-0.0009534999999999999,-0.0007285,-0.12170199999999999,-0.3913585,-0.014623500000000005,0.112888,-0.4168085,0.018098499999999997,-0.125342,-0.7357885000000001,-0.0168405,0.122058,-0.7387085,-0.0125725
2,-0.00010250000000000016,0.7628975,0.063523,-0.16532550000000001,0.46273749999999997,0.059209000000000005,-0.17977549999999998,0.2127775,0.05648700000000001,0.1520745,0.46367749999999996,0.07239100000000001,0.18584450000000002,0.21297750000000001,0.074423,-0.1926255,0.0104855,-0.017937999999999996,0.2012045,0.0111395,-0.001333999999999995,-0.0734375,0.0009895,0.0005770000000000011,0.0734375,-0.0009895000000000004,-0.0005769999999999942,-0.1217255,-0.39134250000000004,-0.014807999999999995,0.1128745,-0.41687250000000003,0.018224000000000004,-0.1252455,-0.7357325,-0.017050999999999997,0.1216745,-0.7388425000000001,-0.009772999999999997
3,-8.450000000000558e-05,0.7630899999999999,0.063635,-0.16572750000000003,0.46327,0.05834400000000001,-0.17971750000000003,0.21314,0.056507,0.1518525,0.46354,0.072185,0.18540249999999997,0.21346,0.074992,-0.1925775,0.010961,-0.018268,0.2009125,0.011575,-0.0006019999999999984,-0.0733795,0.0010090000000000001,0.00024500000000000216,0.0733795,-0.001009,-0.0002449999999999952,-0.12166750000000001,-0.39131,-0.015206999999999998,0.1130525,-0.417,0.017669000000000004,-0.1248775,-0.7378600000000001,-0.016869999999999996,0.12185249999999999,-0.73873,-0.010368999999999996
4,0.0003334999999999974,0.7634375,0.059133000000000005,-0.1653685,0.4635875,0.056009,-0.1795185,0.2135975,0.055242,0.15203149999999999,0.46383749999999996,0.069386,0.1854315,0.2137375,0.07391400000000001,-0.1927285,0.011019500000000002,-0.018373999999999995,0.2002415,0.011231499999999998,-0.00010399999999999299,-0.07337650000000001,0.0010555000000000009,0.0002020000000000008,0.07337650000000001,-0.0010554999999999991,-0.00020199999999999385,-0.1219385,-0.3911625,-0.012820999999999999,0.1126915,-0.41548250000000003,0.019889000000000004,-0.12493850000000001,-0.7372425,-0.012495999999999993,0.1213515,-0.7390924999999999,-0.006541999999999999
5,0.00046300000000000117,0.7634595000000001,0.05913499999999999,-0.166053,0.4643295,0.053922,-0.179353,0.2137495,0.05499599999999999,0.151767,0.46375950000000005,0.069382,0.184407,0.2142595,0.075027,-0.192823,0.010678500000000002,-0.016997000000000005,0.199297,0.0118355,0.000783999999999993,-0.073329,0.0010875,1.0999999999997123e-05,0.073329,-0.0010875,-1.1000000000004062e-05,-0.121873,-0.39121049999999996,-0.012973000000000005,0.112987,-0.41525049999999997,0.019866999999999996,-0.124683,-0.7362704999999999,-0.012023000000000006,0.122167,-0.7389205,-0.008521000000000008
6,0.0006039999999999982,0.7632135,0.058885999999999994,-0.16621000000000002,0.4650435,0.05331799999999999,-0.17980000000000002,0.2131835,0.05402,0.15143,0.4636135,0.069194,0.18372,0.2147235,0.074388,-0.19973000000000002,0.008740500000000002,-0.025530000000000004,0.19698,0.010429500000000001,-0.007130000000000004,-0.073319,0.0011184999999999997,-0.00048400000000000526,0.073319,-0.0011184999999999997,0.0004839999999999983,-0.12184,-0.3913065,-0.013325000000000004,0.11288,-0.41375649999999997,0.019020999999999996,-0.12407,-0.7379265,-0.011164000000000007,0.12156,-0.7365565,-0.007646000000000007
7,0.00023749999999999943,0.762374,0.061034,-0.1647445,0.466034,0.055901,-0.1990845,0.232384,0.032706,0.1500755,0.464694,0.06826,0.2021055,0.234114,0.05555499999999999,-0.2293545,0.047146,-0.069457,0.2275055,0.049054,-0.045535000000000006,-0.0735035,0.0010690000000000005,-0.0002909999999999996,0.0735035,-0.0010689999999999988,0.0002909999999999996,-0.1221545,-0.386566,-0.012794,0.1124755,-0.412536,0.019282,-0.1242645,-0.737066,-0.013317000000000002,0.1218955,-0.738936,-0.009327000000000002
8,0.00026549999999999664,0.7619425,0.0607365,-0.16421850000000002,0.46727250000000004,0.0554995,-0.20864850000000001,0.24332250000000002,0.0209405,0.1490915,0.4652025,0.0670675,0.21075149999999998,0.2441925,0.045213500000000004,-0.2454385,0.0692315,-0.09299450000000001,0.2425915,0.0717525,-0.0682815,-0.0735825,0.0010785000000000013,-0.0004605000000000026,0.0735825,-0.0010784999999999996,0.0004604999999999991,-0.1222385,-0.3845975,-0.012436500000000003,0.1122715,-0.41149749999999996,0.0194445,-0.12413850000000001,-0.7370475000000001,-0.013090499999999998,0.1219315,-0.7391375,-0.0096305
9,9.150000000000477e-05,0.7617965,0.060506500000000005,-0.1635135,0.46841649999999996,0.054996500000000004,-0.2203635,0.2576365,0.006990500000000004,0.1482165,0.4657365,0.0659035,0.2211765,0.2575265,0.0316885,-0.2638235,0.0968465,-0.1197705,0.26073650000000004,0.09876650000000001,-0.0940905,-0.0736995,0.0011115000000000014,-0.000615499999999998,0.0736995,-0.0011114999999999996,0.0006155000000000015,-0.12228349999999999,-0.3825035,-0.012365499999999995,0.11203650000000001,-0.4104335,0.019347500000000004,-0.1240835,-0.7366834999999999,-0.013035499999999998,0.1220765,-0.7391435,-0.009936499999999994
10,-0.0001509999999999988,0.7616685000000001,0.06032900000000001,-0.162874,0.4694985,0.054051,-0.232874,0.2743385,-0.008509999999999997,0.147426,0.4662785,0.064573,0.232606,0.2733285,0.016485000000000003,-0.284134,0.1311985,-0.149035,0.279566,0.1329185,-0.123005,-0.073819,0.001145499999999999,-0.0006639999999999979,0.073819,-0.0011455000000000007,0.0006640000000000014,-0.12235399999999999,-0.3803915,-0.012398,0.111766,-0.4093815,0.019078000000000005,-0.12406400000000001,-0.7365514999999999,-0.013089999999999997,0.122226,-0.7391515,-0.010430999999999996
11,-0.00046449999999999964,0.7614690000000001,0.060172,-0.1621635,0.47046899999999997,0.053079,-0.2466635,0.293259,-0.024231000000000003,0.1468365,0.466889,0.063177,0.2458665,0.292729,0.0007479999999999987,-0.30372350000000004,0.171779,-0.179514,0.2988065,0.172389,-0.152954,-0.0739575,0.0011579999999999993,-0.0006490000000000003,0.0739575,-0.0011579999999999993,0.0006490000000000003,-0.1224635,-0.378321,-0.012527000000000003,0.1114565,-0.408561,0.018763,-0.1241135,-0.736571,-0.013312000000000004,0.1223765,-0.739301,-0.011020000000000002
12,-0.000862499999999997,0.76069,0.0603705,-0.16153250000000002,0.4717,0.0519035,-0.2617525,0.32037000000000004,-0.0407965,0.14680749999999998,0.46813,0.0615605,0.2597775,0.31905,-0.0164795,-0.3257325,0.22466,-0.21099849999999998,0.3191675,0.22444,-0.1851485,-0.0741185,0.0011630000000000008,-0.0005105000000000005,0.0741185,-0.001162999999999999,0.0005104999999999971,-0.1225825,-0.37600999999999996,-0.012865500000000002,0.1111575,-0.40792,0.0180875,-0.1241425,-0.73685,-0.013899500000000002,0.1224675,-0.73974,-0.012186500000000003
13,-0.0012625000000000023,0.7598365,0.060564999999999994,-0.1611065,0.4728265,0.050711,-0.2758265,0.3518965,-0.056900000000000006,0.1467935,0.4695965,0.05985,0.2736235,0.34746649999999996,-0.032378000000000004,-0.34591649999999996,0.2833965,-0.23629599999999998,0.3373335,0.28235649999999995,-0.210506,-0.07430049999999999,0.0011424999999999994,-0.0003370000000000005,0.07430049999999999,-0.0011424999999999994,0.0003370000000000005,-0.1227065,-0.3740135,-0.013278000000000002,0.1108635,-0.4074335,0.017387,-0.12411649999999999,-0.7374035,-0.014577000000000003,0.12249349999999998,-0.7403635,-0.013197000000000004
14,-0.0016759999999999995,0.7588630000000001,0.06082750000000001,-0.160719,0.473993,0.049488500000000005,-0.287049,0.381253,-0.06853050000000001,0.146791,0.471413,0.05805250000000001,0.28297100000000003,0.37523300000000004,-0.0444575,-0.361169,0.341803,-0.2540675,0.350841,0.340583,-0.23071749999999996,-0.07447899999999999,0.001115999999999999,-0.00021250000000000088,0.07447899999999999,-0.0011160000000000007,0.00021250000000000088,-0.122809,-0.372367,-0.013760499999999998,0.11063100000000001,-0.407157,0.0166215,-0.124059,-0.737977,-0.0153795,0.122671,-0.741217,-0.014410500000000003
15,-0.0020965000000000024,0.7575265,0.0610675,-0.16069450000000002,0.47507649999999996,0.048299499999999995,-0.2952645,0.41391649999999997,-0.07604549999999999,0.1467655,0.4734365,0.0564375,0.2900555,0.40741649999999996,-0.0534845,-0.3713245,0.4044565,-0.2623455,0.3585855,0.3930865,-0.24051550000000002,-0.0746105,0.0010985000000000005,-0.00019950000000000176,0.0746105,-0.0010984999999999988,0.0001994999999999983,-0.1228745,-0.3727535,-0.014448500000000003,0.1104655,-0.4075335,0.0157665,-0.1240045,-0.7388435,-0.0161045,0.12282549999999999,-0.7423435,-0.0155555
16,-0.002461499999999996,0.7555634999999999,0.0611615,-0.1606725,0.4765635,0.0469325,-0.3014625,0.44996349999999996,-0.0807965,0.14690750000000002,0.4753135,0.0549115,0.2963475,0.4418435,-0.0598555,-0.3784225,0.4708535,-0.2648065,0.3626175,0.45828349999999995,-0.2415865,-0.07469049999999999,0.0011234999999999995,-0.0003114999999999993,0.07469049999999999,-0.0011234999999999995,0.00031150000000000275,-0.1228225,-0.37390650000000003,-0.015192499999999998,0.1103575,-0.4091765,0.014793500000000001,-0.12381249999999999,-0.7405565000000001,-0.016774499999999998,0.12297750000000002,-0.7440965,-0.016635499999999998
17,-0.002770500000000001,0.753551,0.061149,-0.1606445,0.477681,0.045544,-0.30480450000000003,0.48446100000000003,-0.082122,0.1472655,0.477171,0.053723,0.2997755,0.476921,-0.06055800000000001,-0.38078449999999997,0.535501,-0.266042,0.3629755,0.524011,-0.24257199999999998,-0.0747235,0.0011789999999999995,-0.0003740000000000028,0.0747235,-0.0011789999999999995,0.00037399999999999933,-0.1227045,-0.375479,-0.015789000000000004,0.11032549999999999,-0.411089,0.013964999999999998,-0.1235945,-0.742409,-0.017186,0.12311549999999999,-0.746109,-0.017415
18,-0.0028925,0.751259,0.061032,-0.16061750000000002,0.479129,0.044287,-0.3052875,0.5163789999999999,-0.082944,0.14810250000000003,0.47909900000000005,0.052962,0.3008325,0.5109889999999999,-0.061243000000000006,-0.3807975,0.596649,-0.26682399999999995,0.36296249999999997,0.5887089999999999,-0.243354,-0.0746425,0.0012379999999999995,-0.00044399999999999995,0.0746425,-0.0012379999999999995,0.00044399999999999995,-0.1226475,-0.37771099999999996,-0.016259000000000003,0.1103025,-0.41329099999999996,0.013314000000000001,-0.1233675,-0.744861,-0.017945999999999997,0.1231925,-0.748251,-0.017901
19,-0.002944499999999999,0.7488950000000001,0.060721,-0.16060349999999998,0.480805,0.043512999999999996,-0.3060235,0.546775,-0.08352599999999999,0.1491565,0.481095,0.052509,0.3008265,0.543765,-0.06176500000000001,-0.3808035,0.6530750000000001,-0.267346,0.36295649999999996,0.6466550000000001,-0.24387599999999998,-0.07457549999999999,0.0012889999999999985,-0.0005950000000000018,0.07457549999999999,-0.001289000000000002,0.0005949999999999983,-0.1225735,-0.380015,-0.016544000000000003,0.1103265,-0.415665,0.012908999999999999,-0.12308350000000001,-0.747405,-0.018442,0.1232165,-0.750645,-0.018213
20,-0.0029984999999999942,0.746183,0.060451500000000005,-0.1611135,0.483413,0.042814500000000005,-0.3062735,0.579283,-0.0814135,0.1501565,0.48369300000000004,0.0523365,0.3007565,0.578603,-0.0616275,-0.3815835,0.711693,-0.2593535,0.3623865,0.706193,-0.23824350000000002,-0.0745025,0.0013230000000000013,-0.0008064999999999982,0.0745025,-0.0013230000000000013,0.0008065000000000017,-0.12250349999999999,-0.382817,-0.016642499999999998,0.11035650000000001,-0.418487,0.012668500000000003,-0.12285349999999999,-0.750117,-0.0186845,0.12322650000000002,-0.753367,-0.018277499999999995
21,-0.0030834999999999986,0.7440355000000001,0.06037,-0.1617365,0.4861655,0.042133000000000004,-0.3067365,0.6061255000000001,-0.07697200000000001,0.1507935,0.48578550000000004,0.05232,0.30031349999999996,0.6070455,-0.057461000000000005,-0.38218650000000004,0.7585555,-0.247072,0.35704349999999996,0.7538255,-0.222522,-0.07443549999999999,0.001358500000000002,-0.0008739999999999998,0.07443549999999999,-0.0013584999999999986,0.0008739999999999998,-0.12247649999999999,-0.3853345,-0.016714,0.1103035,-0.4210045,0.01259,-0.1226265,-0.7530144999999999,-0.018923000000000002,0.1231835,-0.7557444999999999,-0.018140000000000003
22,-0.0031190000000000033,0.74201,0.060323499999999995,-0.16215800000000002,0.48907000000000006,0.0417275,-0.30693800000000004,0.63255,-0.0710595,0.15122200000000002,0.48751000000000005,0.0523875,0.298952,0.63423,-0.0509875,-0.380388,0.8003,-0.2304465,0.35054199999999996,0.79601,-0.20296650000000002,-0.074354,0.0014290000000000032,-0.0009105000000000016,0.074354,-0.0014289999999999997,0.0009104999999999981,-0.122418,-0.38788,-0.016751500000000002,0.110312,-0.42353999999999997,0.012547499999999998,-0.12246800000000001,-0.75587,-0.0191145,0.12322199999999998,-0.75829,-0.018031500000000006
23,-0.0030825000000000006,0.7400765,0.0600845,-0.1623075,0.49232649999999994,0.0414145,-0.30582750000000003,0.6576165,-0.0642065,0.1512725,0.48912649999999996,0.0525795,0.2945725,0.6582565,-0.0419275,-0.37741749999999996,0.8380165,-0.20787350000000002,0.34323250000000005,0.8346965000000001,-0.17873350000000002,-0.0742575,0.0014885000000000037,-0.0009014999999999995,0.0742575,-0.0014885000000000002,0.0009014999999999995,-0.12228750000000001,-0.39059350000000004,-0.016739499999999997,0.1104125,-0.4262035,0.0125565,-0.1224175,-0.7585934999999999,-0.0192875,0.1232325,-0.7610034999999999,-0.017940499999999998
24,-0.002985499999999998,0.7384375000000001,0.0597095,-0.16233350000000002,0.49534750000000005,0.0414075,-0.3023935,0.6761775,-0.0555515,0.1513065,0.4904275,0.0528975,0.28937650000000004,0.6778875,-0.031002500000000002,-0.3713935,0.8650375,-0.1828375,0.3341565,0.8736775,-0.1506575,-0.0741325,0.0015294999999999961,-0.0011224999999999985,0.0741325,-0.001529500000000003,0.001122500000000002,-0.1221035,-0.3937125,-0.0166025,0.11057650000000001,-0.42871250000000005,0.0127235,-0.1223535,-0.7611325,-0.019250499999999997,0.12323650000000001,-0.7635325,-0.017708500000000002
25,-0.0028589999999999952,0.7374325,0.059174500000000005,-0.162261,0.4979225,0.0416295,-0.298951,0.6898325000000001,-0.0463455,0.15136900000000003,0.49185249999999997,0.0533545,0.28379899999999997,0.6936525,-0.0202625,-0.364641,0.8852125000000001,-0.1595965,0.326489,0.8963325000000001,-0.1265565,-0.074005,0.001529500000000003,-0.0014055000000000005,0.074005,-0.0015294999999999961,0.0014055000000000005,-0.121901,-0.39646750000000003,-0.0164465,0.110779,-0.4307075,0.0129125,-0.122251,-0.7632975,-0.019308500000000003,0.123259,-0.7655974999999999,-0.0174125
26,-0.0027550000000000014,0.73662,0.0584105,-0.162191,0.50076,0.0420365,-0.294841,0.7024400000000001,-0.0367475,0.151419,0.4933,0.0539495,0.278429,0.7073200000000001,-0.010377500000000005,-0.358101,0.90291,-0.1366345,0.318809,0.91302,-0.1018045,-0.073877,0.0014889999999999973,-0.0016215000000000014,0.073877,-0.0014890000000000042,0.001621499999999998,-0.121641,-0.39926,-0.0164295,0.11099899999999999,-0.43274,0.013150499999999999,-0.12210100000000002,-0.76544,-0.0193845,0.12323900000000002,-0.76766,-0.0168385
27,-0.002693999999999996,0.7358950000000001,0.057499,-0.162144,0.503335,0.04252500000000001,-0.29102399999999995,0.7142350000000001,-0.027885999999999994,0.150886,0.494895,0.054581000000000005,0.273096,0.7185050000000001,0.0004650000000000036,-0.35221399999999997,0.919045,-0.115335,0.311736,0.926405,-0.078315,-0.07374900000000001,0.0014349999999999988,-0.0016979999999999981,0.07374900000000001,-0.0014349999999999988,0.0016980000000000016,-0.12137400000000001,-0.401865,-0.016472999999999995,0.11119600000000002,-0.43469500000000005,0.013436000000000002,-0.121864,-0.767255,-0.018838,0.123286,-0.769655,-0.016308999999999997
28,-0.0026980000000000038,0.7353540000000001,0.0565225,-0.161854,0.5057640000000001,0.0431485,-0.287314,0.726974,-0.0195295,0.15009599999999998,0.496604,0.0553655,0.267806,0.7288939999999999,0.0108135,-0.346744,0.9334640000000001,-0.09542450000000001,0.30574599999999996,0.9395739999999999,-0.0587645,-0.07364799999999999,0.0013750000000000012,-0.0016464999999999987,0.07364799999999999,-0.0013750000000000012,0.0016464999999999987,-0.12109400000000001,-0.404526,-0.016493499999999998,0.11138599999999999,-0.436576,0.0137605,-0.12182400000000002,-0.768856,-0.018415499999999998,0.123306,-0.771406,-0.015749500000000003
29,-0.002741499999999999,0.7350675000000001,0.0555355,-0.1614545,0.5072975000000001,0.0437835,-0.2844345,0.7355075000000001,-0.014455499999999996,0.14918550000000003,0.4975375,0.0560475,0.2628555,0.7334075,0.017493500000000002,-0.3426045,0.9396475000000001,-0.0808875,0.3004855,0.9457175,-0.040664500000000006,-0.0735645,0.0013415000000000024,-0.0015454999999999983,0.0735645,-0.0013415000000000024,0.0015455000000000017,-0.1207645,-0.4068625,-0.0166505,0.1115855,-0.4380825,0.0138355,-0.1218445,-0.7706124999999999,-0.0182285,0.1230355,-0.7735124999999999,-0.0152855
30,-0.0028244999999999937,0.734603,0.054454,-0.16095149999999997,0.508443,0.044414999999999996,-0.28162149999999997,0.741563,-0.009701000000000001,0.1481185,0.49835299999999993,0.056547,0.2588785,0.737433,0.023462,-0.33857149999999997,0.945283,-0.06747900000000001,0.29719850000000003,0.9506629999999999,-0.029462000000000002,-0.0735185,0.0013289999999999969,-0.0014289999999999997,0.0735185,-0.0013290000000000038,0.0014289999999999997,-0.1203915,-0.40923699999999996,-0.016977,0.1118185,-0.439747,0.013602,-0.1218015,-0.772607,-0.01822,0.12276850000000002,-0.775807,-0.014832999999999999
31,-0.0029934999999999966,0.734062,0.053385,-0.1604305,0.5096919999999999,0.045018,-0.2793305,0.743502,-0.005177000000000001,0.1469695,0.49931200000000003,0.056996,0.2558795,0.7408119999999999,0.02862,-0.3349305,0.949722,-0.055858,0.2939595,0.954612,-0.01917,-0.0734795,0.0012940000000000035,-0.0012840000000000004,0.0734795,-0.0012939999999999965,0.0012840000000000004,-0.12001049999999999,-0.411628,-0.017484,0.1120595,-0.441338,0.012967,-0.1218305,-0.7747080000000001,-0.018171,0.1224995,-0.778078,-0.014609999999999998
32,-0.0030410000000000046,0.733551,0.052301,-0.15960400000000002,0.5105109999999999,0.045549,-0.276944,0.745931,-0.0014500000000000034,0.145946,0.500201,0.057419,0.254426,0.743231,0.031942,-0.332214,0.952471,-0.048426,0.291786,0.955771,-0.012042000000000004,-0.073468,0.001240000000000005,-0.0010560000000000014,0.073468,-0.001239999999999998,0.001055999999999998,-0.119784,-0.413389,-0.018338,0.11224599999999998,-0.44227900000000003,0.011620999999999998,-0.12201400000000001,-0.776459,-0.018237000000000003,0.12220600000000001,-0.779729,-0.014693999999999999
33,-0.003168499999999999,0.7332854999999999,0.051118,-0.15884350000000003,0.5107855,0.046042,-0.2752635,0.7486955,0.0007980000000000001,0.1452465,0.4999955,0.05784,0.2532365,0.7446455,0.034399,-0.3297935,0.9550855,-0.042776999999999996,0.2899365,0.9562854999999999,-0.006608000000000003,-0.0734455,0.001177500000000005,-0.0007929999999999986,0.0734455,-0.001177499999999998,0.000793000000000002,-0.1196135,-0.4151545,-0.019332000000000002,0.1125165,-0.44261449999999997,0.009634,-0.12213349999999999,-0.7775545,-0.018371,0.1218465,-0.7809545,-0.014706999999999998
34,-0.003336500000000005,0.7332574999999999,0.050070500000000004,-0.1581545,0.5108275,0.046435500000000005,-0.2738245,0.7517075,0.002157500000000003,0.14478549999999998,0.49986749999999996,0.0582615,0.2523755,0.7463875,0.035971500000000003,-0.3275945,0.9572575000000001,-0.039051499999999996,0.2884155,0.9564575,-0.0032074999999999985,-0.0733995,0.0011125000000000024,-0.0005174999999999971,0.0733995,-0.0011125000000000024,0.0005175000000000006,-0.11944450000000001,-0.4163425,-0.0203995,0.11286550000000001,-0.4425125,0.0066295000000000034,-0.12228450000000002,-0.7784424999999999,-0.018576499999999996,0.1214955,-0.7818825,-0.014926499999999995
35,-0.003420999999999999,0.7332574999999999,0.049025,-0.157518,0.5108275,0.046693,-0.272588,0.7543975,0.002645999999999999,0.14475200000000002,0.49986749999999996,0.058427,0.251772,0.7473075,0.036517,-0.325268,0.9581575,-0.037707,0.287542,0.9564575,-0.001680000000000001,-0.07336200000000001,0.0011125000000000024,-0.00028599999999999806,0.07336200000000001,-0.0011125000000000024,0.00028600000000000153,-0.11918799999999999,-0.4179225,-0.021504000000000002,0.113152,-0.4423325,0.0029190000000000015,-0.12265799999999999,-0.7797125,-0.018888000000000002,0.12082200000000001,-0.7832425000000001,-0.015431
36,-0.0032789999999999946,0.7332574999999999,0.047911499999999996,-0.156795,0.5108275,0.0468915,-0.271115,0.7566975,0.0031694999999999987,0.145105,0.49986749999999996,0.0582765,0.251595,0.7473075,0.0368895,-0.322525,0.9584575,-0.037067499999999996,0.287075,0.9564575,-0.0013325000000000004,-0.073407,0.0011125000000000024,-0.00010549999999999796,0.073407,-0.0011125000000000024,0.00010550000000000143,-0.11878499999999999,-0.4199125,-0.0229435,0.11364500000000001,-0.4423925,-0.001222499999999998,-0.122975,-0.7813425,-0.019936500000000003,0.120205,-0.7852524999999999,-0.0158885
37,-0.0030094999999999996,0.7332574999999999,0.046855,-0.1560855,0.5108275,0.047018000000000004,-0.26965550000000005,0.7566975,0.0037459999999999993,0.1455345,0.49955750000000004,0.058134,0.2514645,0.7473075,0.037322,-0.3198255,0.9584575,-0.03637800000000001,0.28677450000000004,0.9564575,-0.0009160000000000001,-0.0734895,0.0011125000000000024,0.00010599999999999846,0.0734895,-0.0011125000000000024,-0.00010600000000000193,-0.1182955,-0.4218125,-0.024628000000000004,0.1142745,-0.4424525,-0.005651000000000003,-0.1232355,-0.7829425000000001,-0.020978999999999998,0.1194645,-0.7873524999999999,-0.016369
38,-0.0026534999999999987,0.7334324999999999,0.04563,-0.1553835,0.5105925,0.047058,-0.2682335,0.7570425,0.0036699999999999997,0.1459565,0.49907250000000003,0.057916999999999996,0.2518165,0.7462325,0.037757,-0.3171735,0.9588024999999999,-0.03573400000000001,0.2864865,0.9563024999999999,-0.0005390000000000013,-0.0735925,0.001062500000000001,0.00026299999999999935,0.0735925,-0.001062500000000001,-0.0002630000000000028,-0.1178435,-0.4237675,-0.026812000000000002,0.1150965,-0.4421375,-0.010114999999999999,-0.1233935,-0.7845975000000001,-0.022059000000000002,0.1189465,-0.7889575,-0.016767000000000004
39,-0.0022260000000000005,0.733457,0.0440595,-0.154693,0.510227,0.0470665,-0.26664299999999996,0.757647,0.002944499999999999,0.146057,0.49811700000000003,0.0575035,0.252267,0.745557,0.0370455,-0.31443299999999996,0.9594069999999999,-0.035517499999999994,0.286207,0.956007,-0.00017549999999999857,-0.073706,0.001015000000000002,0.0004254999999999988,0.073706,-0.001015000000000002,-0.0004254999999999988,-0.117353,-0.426133,-0.0295015,0.115997,-0.441643,-0.014634500000000002,-0.123613,-0.785463,-0.023378499999999997,0.118547,-0.790263,-0.0183255
40,-0.0015540000000000016,0.733158,0.041868,-0.15393,0.509858,0.046862,-0.26471,0.7584380000000001,0.0007230000000000014,0.14621,0.497078,0.056917999999999996,0.25285,0.744738,0.035573,-0.31122,0.959898,-0.03747399999999999,0.28651,0.9555980000000001,-0.001728999999999998,-0.073866,0.001017999999999998,0.0005710000000000021,0.073866,-0.001018000000000005,-0.0005709999999999986,-0.11695,-0.42777200000000004,-0.033951999999999996,0.11703,-0.440122,-0.020044,-0.12382,-0.7855719999999999,-0.024807999999999997,0.11815,-0.790982,-0.019804999999999996
41,-0.0008155000000000007,0.7324225,0.0394255,-0.15309050000000002,0.5092425,0.046385499999999996,-0.2625205,0.7590525,-0.0023035,0.1463895,0.4961225,0.0562525,0.25410950000000004,0.7441125000000001,0.0328275,-0.30773049999999996,0.9594225000000001,-0.0402855,0.2871195,0.9553425,-0.004451499999999997,-0.07404350000000001,0.0009445000000000009,0.0006934999999999997,0.07404350000000001,-0.0009445000000000009,-0.0006934999999999997,-0.11656050000000001,-0.4288975,-0.0391615,0.11813950000000001,-0.4382675,-0.025889499999999996,-0.12409049999999999,-0.7849275,-0.026717499999999998,0.11780950000000001,-0.7910874999999999,-0.021270499999999998
42,3.750000000000324e-05,0.731414,0.036569000000000004,-0.15192150000000001,0.508574,0.045102,-0.2590215,0.7556740000000001,-0.005631999999999998,0.1468585,0.49455400000000005,0.054314,0.2554485,0.742684,0.029815,-0.3039215,0.958684,-0.043879,0.2880185,0.955004,-0.007889,-0.07428950000000001,0.0008550000000000016,0.0007440000000000016,0.07428950000000001,-0.0008550000000000016,-0.0007439999999999981,-0.11626149999999999,-0.428836,-0.045554,0.11938850000000001,-0.43580599999999997,-0.032043,-0.12444150000000001,-0.7837959999999999,-0.02955,0.1175985,-0.7905059999999999,-0.022731
43,0.000896500000000001,0.7296404999999999,0.033457,-0.1503505,0.5077605000000001,0.042756,-0.2555705,0.7528904999999999,-0.009305999999999995,0.1472095,0.49280050000000003,0.05147500000000001,0.2566195,0.7411304999999999,0.025873000000000004,-0.2998505,0.9588705,-0.04926699999999999,0.2889995,0.9547805,-0.013477999999999997,-0.0745995,0.0008605000000000002,0.0006200000000000025,0.0745995,-0.0008605000000000002,-0.000619999999999999,-0.1161505,-0.4258595,-0.053813,0.1212295,-0.4310795,-0.040439,-0.12492049999999999,-0.7797495000000001,-0.032573,0.1172395,-0.7869595,-0.023965
44,0.0018099999999999987,0.7270274999999999,0.02969,-0.148964,0.5075675,0.040275000000000005,-0.252604,0.7493875000000001,-0.013523,0.147476,0.49096749999999995,0.048334,0.258076,0.7388874999999999,0.021011000000000002,-0.29631399999999997,0.9602774999999999,-0.056129,0.290016,0.9555374999999999,-0.020349,-0.07489699999999999,0.0009284999999999988,0.0006460000000000007,0.07489699999999999,-0.0009285000000000022,-0.0006459999999999973,-0.11616399999999999,-0.4209525,-0.064833,0.122996,-0.4251025,-0.049853999999999996,-0.12515400000000002,-0.7732625,-0.035429,0.116986,-0.7810824999999999,-0.024959999999999996
45,0.0024615,0.724453,0.025784500000000002,-0.1478495,0.508113,0.0377735,-0.2499795,0.745963,-0.0177765,0.1475905,0.490373,0.0453875,0.2592605,0.736143,0.0159415,-0.2934295,0.9617330000000001,-0.0633955,0.2909805,0.9562430000000001,-0.0276405,-0.0749625,0.0010030000000000004,0.0005915000000000017,0.0749625,-0.0010030000000000004,-0.0005915000000000017,-0.1162795,-0.41503700000000004,-0.0762525,0.1245505,-0.41851700000000003,-0.059654500000000006,-0.1254795,-0.765737,-0.037384499999999994,0.1166605,-0.773837,-0.025828499999999997
46,0.0029824999999999973,0.7217275,0.02172,-0.14680949999999998,0.5079475,0.034843,-0.24788949999999998,0.7417075,-0.022398,0.1477505,0.4895075,0.041818,0.2604005,0.7334674999999999,0.010426999999999999,-0.29095950000000004,0.9634775,-0.07125599999999999,0.2921105,0.9572575,-0.035379,-0.0749575,0.0010685,0.0005389999999999978,0.0749575,-0.0010685,-0.0005389999999999978,-0.11645950000000001,-0.4086225,-0.08798600000000001,0.1260905,-0.41159250000000003,-0.06975600000000001,-0.1258595,-0.7575325,-0.039057,0.1164405,-0.7657425,-0.026597999999999997
47,0.0033305000000000023,0.7187724999999999,0.017910500000000003,-0.1459545,0.5078024999999999,0.0319105,-0.2458445,0.7373824999999999,-0.026854499999999996,0.1477155,0.48858250000000003,0.0382845,0.2613555,0.7303624999999999,0.004968500000000001,-0.2886845,0.9654425,-0.0790675,0.2930755,0.9587424999999999,-0.04343949999999999,-0.0749855,0.0010765000000000002,0.0004704999999999987,0.0749855,-0.0010764999999999998,-0.0004704999999999987,-0.1167145,-0.4005775,-0.09955750000000001,0.1280355,-0.4036075,-0.0805475,-0.1263445,-0.7481475000000001,-0.04020649999999999,0.1160655,-0.7563575,-0.0273575
48,0.0036340000000000014,0.7157835,0.014489499999999999,-0.14505099999999999,0.5080435,0.029075499999999997,-0.24372100000000002,0.7327835,-0.031322499999999996,0.147459,0.4879435,0.0347825,0.26204900000000003,0.7285435,-0.0005845000000000017,-0.28657099999999996,0.9639135,-0.08704049999999999,0.294119,0.9610835,-0.0512915,-0.075118,0.0010305000000000002,0.0003604999999999997,0.075118,-0.0010305000000000002,-0.0003604999999999997,-0.117091,-0.3909265,-0.11109050000000001,0.12992900000000002,-0.3945065,-0.09158050000000001,-0.12693100000000002,-0.7374865,-0.04079850000000001,0.115909,-0.7457465,-0.0268735
49,0.0039065000000000055,0.7124925,0.012070500000000001,-0.1441645,0.5072125,0.025953500000000004,-0.24189449999999998,0.7290825,-0.0351905,0.1473355,0.48647250000000003,0.0310155,0.26279549999999996,0.7274025000000001,-0.005531499999999995,-0.2850645,0.9644825,-0.0936655,0.2951155,0.9581625,-0.05832849999999999,-0.07552249999999999,0.0009625000000000015,0.00021750000000000241,0.07552249999999999,-0.0009624999999999981,-0.00021749999999999547,-0.1177745,-0.3772375,-0.1229955,0.1327355,-0.3811675,-0.1045755,-0.1276145,-0.7204975,-0.0403405,0.1157655,-0.7288775,-0.025814500000000004
50,0.004482499999999999,0.7091395,0.006780500000000002,-0.14301550000000002,0.5070895,0.020072500000000004,-0.2399755,0.7251595,-0.041734499999999994,0.1474145,0.4854195,0.0243095,0.2638345,0.7266895,-0.012858499999999995,-0.2835755,0.9650894999999999,-0.10322450000000001,0.2965045,0.9545295,-0.0680345,-0.07593649999999999,0.0008644999999999972,-0.00015449999999999492,0.07593649999999999,-0.0008644999999999972,0.00015450000000000186,-0.1184055,-0.3633805,-0.13794449999999997,0.13593449999999999,-0.3675205,-0.1204445,-0.1280955,-0.7024505,-0.043413499999999994,0.1161345,-0.7104605,-0.028221499999999997
51,0.005234500000000004,0.7054444999999999,0.0007954999999999976,-0.1420405,0.5064945,0.0138515,-0.2389105,0.7220544999999999,-0.048809500000000006,0.1479095,0.48436450000000003,0.0181255,0.2646195,0.7231445,-0.020963499999999996,-0.2822905,0.9600345,-0.1136045,0.2980195,0.9489445,-0.0776145,-0.0762565,0.0008285000000000028,-0.0006644999999999984,0.0762565,-0.0008284999999999959,0.0006644999999999984,-0.11945049999999999,-0.3472055,-0.1544445,0.1401995,-0.3511955,-0.1377445,-0.12866049999999998,-0.6816655,-0.04660449999999999,0.11636950000000001,-0.6890155,-0.0316515
52,0.0058774999999999964,0.7033845,-0.006065999999999995,-0.1414805,0.5051045,0.0069099999999999995,-0.23787049999999998,0.7200145,-0.057318999999999995,0.1483795,0.4832645,0.011250000000000003,0.2652895,0.7212545,-0.029411999999999994,-0.2815205,0.9576145,-0.123759,0.29905950000000003,0.9458845,-0.08641900000000001,-0.0765025,0.0007675000000000043,-0.0008209999999999953,0.0765025,-0.0007675000000000043,0.0008210000000000023,-0.12136050000000001,-0.3285055,-0.17228900000000003,0.14517950000000002,-0.33274549999999997,-0.15502899999999997,-0.1292105,-0.6589355,-0.050426,0.1166495,-0.6651155,-0.035989999999999994
53,0.006248000000000002,0.70538,-0.013384,-0.14115799999999998,0.50532,-0.0004870000000000013,-0.237478,0.72053,-0.066529,0.148502,0.48429999999999995,0.004177,0.265962,0.72085,-0.037759,-0.28106800000000004,0.95611,-0.133699,0.299892,0.9443199999999999,-0.09517900000000001,-0.07666999999999999,0.0007599999999999968,-0.0012809999999999974,0.07666999999999999,-0.0007600000000000107,0.0012809999999999974,-0.12345799999999998,-0.30928,-0.188249,0.14980200000000002,-0.31381000000000003,-0.171199,-0.130348,-0.6353300000000001,-0.054723999999999995,0.11672199999999999,-0.6401,-0.040797
54,0.0068045000000000015,0.705435,-0.021209000000000006,-0.1401105,0.501025,-0.009946000000000003,-0.2373005,0.7190650000000001,-0.07652300000000001,0.1486395,0.48428499999999997,-0.004179000000000002,0.2668695,0.7177849999999999,-0.047305,-0.2807205,0.955255,-0.144443,0.3005295,0.941255,-0.105333,-0.0768565,0.0004649999999999932,-0.001451000000000001,0.0768565,-0.00046500000000002095,0.001451000000000001,-0.1267505,-0.288275,-0.20871299999999998,0.1561195,-0.293315,-0.19154300000000002,-0.1316905,-0.610085,-0.059643,0.1166295,-0.613405,-0.045851
55,0.007645999999999998,0.7061850000000001,-0.029726000000000002,-0.139021,0.49862500000000004,-0.018775000000000007,-0.236621,0.718585,-0.086177,0.149019,0.485845,-0.011711000000000006,0.267539,0.715305,-0.056229,-0.279981,0.953885,-0.155137,0.301189,0.937685,-0.114877,-0.077065,0.00010500000000002174,-0.001470000000000006,0.077065,-0.00010499999999999399,0.001469999999999999,-0.12995099999999998,-0.266655,-0.228787,0.162699,-0.272495,-0.211527,-0.132961,-0.583965,-0.06475700000000001,0.11665900000000001,-0.586685,-0.05074300000000001
56,0.008158,0.70551,-0.03891649999999999,-0.137778,0.49687,-0.028466500000000006,-0.236318,0.72068,-0.09815750000000001,0.149332,0.48564999999999997,-0.0206605,0.268152,0.71453,-0.0664675,-0.27960799999999997,0.94862,-0.1689475,0.301902,0.93596,-0.1260375,-0.077232,-4.000000000001225e-05,-0.0015534999999999993,0.077232,3.999999999998449e-05,0.0015534999999999993,-0.133238,-0.24314000000000002,-0.24981750000000003,0.169162,-0.24825000000000003,-0.23171750000000002,-0.133078,-0.55654,-0.0681475,0.11666199999999999,-0.55645,-0.0521595
57,0.0086045,0.704595,-0.048443499999999994,-0.13649350000000002,0.494915,-0.0383225,-0.23607350000000002,0.7231749999999999,-0.1104685,0.1496265,0.485315,-0.029788500000000002,0.2685465,0.714695,-0.0770885,-0.2794835,0.947395,-0.1819185,0.30270650000000004,0.933475,-0.1379685,-0.07738249999999999,-0.00010500000000002174,-0.0017215000000000008,0.07738249999999999,0.00010499999999999399,0.0017215000000000008,-0.1366535,-0.218945,-0.2703285,0.1755665,-0.22368500000000002,-0.2515485,-0.1332035,-0.529315,-0.0711185,0.1163865,-0.5267850000000001,-0.0570785
58,0.008878999999999995,0.7043550000000001,-0.057257499999999996,-0.135398,0.493775,-0.047038500000000004,-0.235368,0.719275,-0.1207985,0.149862,0.484965,-0.0376545,0.268902,0.7147049999999999,-0.08733849999999999,-0.278778,0.940005,-0.19440849999999998,0.303452,0.936445,-0.1494885,-0.07760600000000001,-6.499999999998174e-05,-0.0021995,0.07760600000000001,6.50000000000095e-05,0.0021995,-0.13977799999999999,-0.19775500000000001,-0.28748850000000004,0.180862,-0.202335,-0.2670285,-0.133428,-0.5075149999999999,-0.07326849999999999,0.116002,-0.5019549999999999,-0.0602985
59,0.009577,0.703615,-0.069846,-0.13394499999999998,0.49155499999999996,-0.059119000000000005,-0.23422500000000002,0.717325,-0.135196,0.15037499999999998,0.483935,-0.04896400000000001,0.269855,0.711985,-0.101746,-0.277585,0.934455,-0.21192599999999998,0.304695,0.939505,-0.167286,-0.077923,0.00013499999999999623,-0.0025560000000000027,0.077923,-0.00013499999999999623,0.0025560000000000027,-0.14248499999999997,-0.16950500000000002,-0.30528599999999995,0.18593500000000002,-0.173775,-0.283856,-0.13242500000000001,-0.47904500000000005,-0.076246,0.115805,-0.470225,-0.065216
60,0.010568500000000003,0.702885,-0.081445,-0.1326775,0.487935,-0.070805,-0.2334275,0.718275,-0.148985,0.15116249999999998,0.48346500000000003,-0.060066999999999995,0.2714725,0.712225,-0.11569499999999999,-0.2765875,0.932505,-0.22886499999999999,0.3064625,0.941565,-0.185515,-0.0781395,5.500000000002725e-05,-0.0028900000000000037,0.0781395,-5.499999999997174e-05,0.0028899999999999967,-0.14424749999999997,-0.14197499999999996,-0.320235,0.19001250000000003,-0.146345,-0.297965,-0.1307775,-0.451615,-0.079575,0.1159525,-0.439655,-0.070845
61,0.011850499999999996,0.70102,-0.094794,-0.13130950000000002,0.48559,-0.083494,-0.2321495,0.7124,-0.16376400000000002,0.1517305,0.48264000000000007,-0.072484,0.2731405,0.71084,-0.131444,-0.2753695,0.9238000000000001,-0.246884,0.3084005,0.9428000000000001,-0.20529399999999998,-0.0784035,-2.999999999997449e-05,-0.0032960000000000003,0.0784035,3.0000000000030003e-05,0.003295999999999997,-0.14525949999999999,-0.11595999999999995,-0.333984,0.19306050000000002,-0.12001999999999996,-0.310814,-0.12915949999999998,-0.4254,-0.086284,0.1164105,-0.41052,-0.07745400000000001
62,0.012813500000000002,0.69599,-0.105219,-0.13024850000000002,0.48135,-0.093449,-0.2313485,0.70476,-0.175449,0.1521215,0.47997999999999996,-0.082169,0.2742115,0.70766,-0.144359,-0.2744085,0.91383,-0.26155900000000004,0.3100715,0.94162,-0.221979,-0.0786625,-0.00020000000000003348,-0.0033889999999999997,0.0786625,0.00019999999999997797,0.0033889999999999997,-0.14653850000000002,-0.09253,-0.344159,0.1959115,-0.09514,-0.320639,-0.1275085,-0.40152,-0.090209,0.1164415,-0.38604000000000005,-0.08151900000000001
63,0.013507999999999997,0.69136,-0.11511000000000002,-0.129123,0.480595,-0.10213,-0.231683,0.70061,-0.18805,0.152577,0.47711899999999996,-0.09104999999999999,0.27607699999999996,0.7079899999999999,-0.15636,-0.274173,0.90293,-0.27684,0.312087,0.9404,-0.23727,-0.079062,-1.0000000000010001e-05,-0.0036640000000000006,0.079062,9.99999999995449e-06,0.0036640000000000006,-0.146813,-0.06856000000000001,-0.349,0.197157,-0.06995000000000001,-0.3253,-0.125413,-0.37788,-0.09351999999999999,0.11563699999999999,-0.36295,-0.09111
64,0.013839,0.68587,-0.12406849999999998,-0.12803799999999999,0.478737,-0.11094849999999999,-0.232238,0.69564,-0.20040850000000002,0.15245199999999998,0.472982,-0.09999849999999999,0.27789200000000003,0.70781,-0.16851850000000002,-0.274368,0.89141,-0.2914785,0.314122,0.93923,-0.25205849999999996,-0.07935,0.00024000000000001798,-0.0039875000000000015,0.07935,-0.00024000000000001798,0.0039875000000000015,-0.147428,-0.04246,-0.35329849999999996,0.19825199999999998,-0.04393999999999998,-0.32932849999999997,-0.123868,-0.35469999999999996,-0.0962285,0.116142,-0.34047999999999995,-0.0956585
65,0.013991999999999997,0.68188,-0.1320935,-0.127079,0.476281,-0.11841349999999999,-0.232999,0.6879500000000001,-0.2099935,0.15212099999999998,0.47068699999999997,-0.10700349999999999,0.279341,0.70495,-0.17871350000000003,-0.27520900000000004,0.88342,-0.3026935,0.315901,0.9353899999999999,-0.2641135,-0.07962,0.00031999999999998696,-0.0041045000000000005,0.07962,-0.00031999999999998696,0.004104499999999999,-0.148269,-0.021589999999999998,-0.3564835,0.199171,-0.022139999999999993,-0.3323435,-0.12229899999999999,-0.33380000000000004,-0.0984835,0.11672099999999999,-0.32239,-0.0995035
66,0.013676000000000004,0.6784250000000001,-0.1395205,-0.126905,0.473805,-0.1256205,-0.233985,0.680085,-0.2188905,0.151735,0.468462,-0.1135205,0.280815,0.7018949999999999,-0.1872805,-0.276465,0.874295,-0.3144205,0.31776499999999996,0.931475,-0.2746905,-0.07991999999999999,0.0004049999999999887,-0.0043314999999999985,0.07991999999999999,-0.0004049999999999887,0.0043315,-0.14934499999999998,-0.005025000000000002,-0.3597505,0.20028500000000002,-0.0035350000000000104,-0.3354205,-0.12098500000000001,-0.31380500000000006,-0.10094049999999999,0.117395,-0.306235,-0.10358049999999999
67,0.013190499999999999,0.6749350000000001,-0.146097,-0.1269785,0.471353,-0.131637,-0.2349485,0.677635,-0.227467,0.1512815,0.467016,-0.118927,0.2819915,0.697995,-0.194057,-0.2777785,0.8698049999999999,-0.324897,0.3197415,0.926435,-0.28333699999999995,-0.0802745,0.0003150000000000097,-0.004462000000000001,0.0802745,-0.0003150000000000097,0.004461999999999999,-0.1507985,0.009344999999999992,-0.362797,0.20198149999999998,0.01292500000000002,-0.33817699999999995,-0.1199385,-0.29591500000000004,-0.103607,0.1181115,-0.29200499999999996,-0.10738700000000001
68,0.012866999999999996,0.672515,-0.14855100000000002,-0.127193,0.469517,-0.134421,-0.235283,0.674145,-0.231651,0.150927,0.46581100000000003,-0.12088100000000002,0.282937,0.6968650000000001,-0.196021,-0.278873,0.8643350000000001,-0.330291,0.321457,0.921865,-0.285111,-0.080639,0.00018500000000004624,-0.004723999999999999,0.080639,-0.00018499999999999073,0.004724000000000001,-0.15210300000000002,0.016525000000000012,-0.363671,0.203687,0.021465000000000012,-0.33881100000000003,-0.119053,-0.285775,-0.105131,0.11910699999999999,-0.28571499999999994,-0.110211
69,0.012660499999999996,0.670835,-0.15065,-0.1275425,0.469486,-0.13641999999999999,-0.2355125,0.670605,-0.23543999999999998,0.1506775,0.46466999999999997,-0.12237,0.28361749999999997,0.695855,-0.19741999999999998,-0.28027250000000004,0.8615349999999999,-0.3347,0.32306749999999995,0.9206650000000001,-0.28643,-0.0808875,0.0002449999999999952,-0.0049700000000000005,0.0808875,-0.0002449999999999952,0.004969999999999999,-0.1530925,0.022565,-0.36413,0.2055875,0.02863500000000002,-0.33873000000000003,-0.1181025,-0.27764500000000003,-0.10650000000000001,0.1200575,-0.28083500000000006,-0.11233000000000001
70,0.012456999999999996,0.67032,-0.1519095,-0.127998,0.469514,-0.1376995,-0.236578,0.6725399999999999,-0.2374695,0.15073199999999998,0.464047,-0.12359949999999999,0.28416199999999997,0.69618,-0.19860950000000002,-0.281968,0.86626,-0.3374395,0.324322,0.91903,-0.2875495,-0.08118600000000001,0.00024999999999997247,-0.0051395,0.08118600000000001,-0.000250000000000028,0.005139500000000001,-0.15332800000000002,0.026099999999999957,-0.3641895,0.20732199999999998,0.032979999999999954,-0.3383395,-0.116668,-0.2728900000000001,-0.1073095,0.11974199999999999,-0.27917000000000003,-0.11574949999999999
71,0.012051499999999998,0.6707299999999999,-0.1531035,-0.12869250000000002,0.46884999999999993,-0.1389235,-0.2376825,0.6761599999999999,-0.23873350000000002,0.1505775,0.46290699999999996,-0.12477350000000001,0.2847275,0.6974099999999999,-0.19971350000000002,-0.2837925,0.86988,-0.3399235,0.32533749999999995,0.9183399999999999,-0.28862350000000003,-0.0814305,0.00017999999999995797,-0.0052345,0.0814305,-0.000180000000000069,0.0052345,-0.15314250000000001,0.02896999999999994,-0.36427350000000003,0.2090875,0.03638999999999992,-0.3373735,-0.1158425,-0.26943000000000006,-0.1079935,0.1190275,-0.2767200000000001,-0.1227135
72,0.011683500000000003,0.6707299999999999,-0.15365199999999998,-0.1292455,0.46884999999999993,-0.13949199999999998,-0.2379155,0.6761599999999999,-0.23927199999999998,0.15022449999999998,0.46290699999999996,-0.12515199999999999,0.2849245,0.6974099999999999,-0.19986199999999998,-0.28527549999999996,0.86988,-0.34057200000000004,0.3262745,0.9183399999999999,-0.288322,-0.08125850000000001,0.00017999999999995797,-0.0052109999999999995,0.08125850000000001,-0.000180000000000069,0.005211,-0.1529455,0.028619999999999923,-0.364182,0.2104645,0.036079999999999945,-0.336552,-0.11559549999999999,-0.26958000000000004,-0.108492,0.1192745,-0.2767200000000001,-0.123212
73,0.011302500000000004,0.6707299999999999,-0.1530955,-0.1298855,0.46884999999999993,-0.1392455,-0.2380555,0.67651,-0.2396555,0.1499045,0.46290699999999996,-0.1246755,0.28504450000000003,0.6974099999999999,-0.1984555,-0.2870055,0.8715499999999999,-0.3411055,0.32704449999999996,0.9183399999999999,-0.2863955,-0.0811375,0.00017999999999995797,-0.0052535,0.0811375,-0.000180000000000069,0.0052535,-0.1527155,0.028619999999999923,-0.3645355,0.2114945,0.03579999999999994,-0.33585550000000003,-0.1158655,-0.26948000000000005,-0.10918549999999999,0.1189545,-0.2775900000000001,-0.1290955
74,0.010740000000000001,0.6707299999999999,-0.15134950000000003,-0.130511,0.46884999999999993,-0.13896950000000002,-0.23902099999999998,0.6766099999999999,-0.2396195,0.14959899999999998,0.46290699999999996,-0.1240495,0.28523899999999996,0.6974099999999999,-0.19643950000000002,-0.288501,0.87347,-0.3416595,0.327469,0.9183399999999999,-0.2835495,-0.081012,0.00017999999999995797,-0.0052375,0.081012,-0.000180000000000069,0.005237500000000001,-0.152621,0.028619999999999923,-0.3641795,0.21208900000000003,0.036079999999999945,-0.3350795,-0.115741,-0.2693500000000001,-0.10958949999999999,0.119219,-0.2775900000000001,-0.12980950000000002
75,0.010224500000000001,0.67359,-0.148468,-0.1318505,0.471564,-0.135568,-0.2406605,0.6807099999999999,-0.236528,0.14902949999999998,0.46461399999999997,-0.120548,0.2849795,0.69665,-0.192038,-0.2907105,0.88032,-0.339368,0.3277295,0.91784,-0.278568,-0.0808085,0.00010999999999999899,-0.005219,0.0808085,-0.00010999999999999899,0.0052190000000000005,-0.1520805,0.02306999999999998,-0.363318,0.2125095,0.03053,-0.334358,-0.1171005,-0.27469,-0.110888,0.12036949999999999,-0.28314000000000006,-0.12969799999999998
76,0.009798999999999999,0.676635,-0.144884,-0.13303900000000002,0.473897,-0.132164,-0.242679,0.684505,-0.233254,0.148731,0.465271,-0.117114,0.284641,0.6966749999999999,-0.187114,-0.292899,0.886605,-0.336624,0.32826099999999997,0.918095,-0.27328399999999997,-0.080657,0.00013499999999999623,-0.005205,0.080657,-0.00013499999999999623,0.0052049999999999996,-0.150169,0.01621499999999998,-0.362224,0.212891,0.02290500000000001,-0.333734,-0.118169,-0.28234499999999996,-0.111044,0.122001,-0.29088500000000006,-0.125704
77,0.009334999999999998,0.680705,-0.14079,-0.134117,0.475876,-0.12813,-0.244567,0.6870350000000001,-0.22899999999999998,0.14855300000000002,0.467108,-0.11346,0.284493,0.6991050000000001,-0.1818,-0.295177,0.890815,-0.33247,0.32886299999999996,0.9197649999999999,-0.26748,-0.080459,-2.4999999999997247e-05,-0.005187,0.080459,2.5000000000052758e-05,0.005187,-0.147707,0.005725000000000036,-0.36129,0.213093,0.011855000000000004,-0.33308,-0.11912700000000001,-0.29344499999999996,-0.11137,0.12390299999999999,-0.29998499999999995,-0.12155999999999999
78,0.008698500000000005,0.685705,-0.134536,-0.1353315,0.480008,-0.12209600000000001,-0.24639149999999999,0.692655,-0.222626,0.1480985,0.46910799999999997,-0.108376,0.2839785,0.702525,-0.175086,-0.2981215,0.902335,-0.325526,0.3287385,0.922855,-0.25934599999999997,-0.0801645,-7.499999999999174e-05,-0.005069,0.0801645,7.499999999999174e-05,0.005069000000000001,-0.1448515,-0.012905,-0.358506,0.2129585,-0.0067050000000000165,-0.33039599999999997,-0.12027149999999999,-0.315805,-0.113706,0.1257885,-0.320105,-0.117266
79,0.007817000000000001,0.689855,-0.12744799999999998,-0.136192,0.482471,-0.115288,-0.24897200000000003,0.697925,-0.214938,0.14729799999999998,0.47141299999999997,-0.102128,0.283038,0.703945,-0.167398,-0.301302,0.910855,-0.317318,0.328538,0.926515,-0.250568,-0.07988899999999999,-0.00022499999999997522,-0.004880000000000001,0.07988899999999999,0.00022499999999997522,0.004880000000000001,-0.14186200000000002,-0.034194999999999975,-0.35459799999999997,0.212228,-0.027455000000000007,-0.326538,-0.120922,-0.341355,-0.11143800000000001,0.127248,-0.343045,-0.116408
80,0.006938500000000002,0.69627,-0.11992699999999999,-0.1370795,0.48578,-0.107687,-0.25101949999999995,0.70263,-0.206277,0.1466005,0.474015,-0.095527,0.2820805,0.7059,-0.15900699999999998,-0.3038495,0.91953,-0.307407,0.3283805,0.92832,-0.241377,-0.0793275,-0.00039000000000000146,-0.004671,0.0793275,0.00039000000000000146,0.004671,-0.1387295,-0.05726999999999999,-0.349747,0.2112705,-0.05014000000000002,-0.321917,-0.12175949999999999,-0.36898000000000003,-0.109727,0.1280305,-0.36811,-0.114537
81,0.005697500000000005,0.701945,-0.111239,-0.1382575,0.488645,-0.099689,-0.25336749999999997,0.7069650000000001,-0.196509,0.1459325,0.476995,-0.088181,0.28122250000000004,0.709105,-0.14976899999999999,-0.3067275,0.9275450000000001,-0.296449,0.32785250000000005,0.9330750000000001,-0.230789,-0.07874249999999999,-0.0006249999999999867,-0.004383,0.07874249999999999,0.0006249999999999867,0.004383,-0.1361175,-0.08159500000000003,-0.34409900000000004,0.2096325,-0.07466499999999998,-0.316439,-0.1230175,-0.39862499999999995,-0.107419,0.1282725,-0.395415,-0.112719
82,0.004855,0.7093149999999999,-0.099441,-0.139347,0.49153499999999994,-0.089681,-0.255767,0.712385,-0.183431,0.145553,0.482205,-0.077336,0.280213,0.712105,-0.136551,-0.309237,0.9335249999999999,-0.281011,0.327023,0.935165,-0.21618099999999998,-0.077958,-0.0008250000000000202,-0.004125,0.077958,0.0008249999999999647,0.0041249999999999985,-0.133237,-0.11461500000000002,-0.330911,0.207103,-0.10789500000000002,-0.303701,-0.124477,-0.43988499999999997,-0.102891,0.127893,-0.435685,-0.109361
83,0.0045829999999999985,0.7164699999999999,-0.0863445,-0.140649,0.49564,-0.0782275,-0.257789,0.71695,-0.16909449999999998,0.145521,0.48682000000000003,-0.0652945,0.27920100000000003,0.7142900000000001,-0.12159450000000001,-0.312039,0.93723,-0.2631545,0.326591,0.9381200000000001,-0.20048449999999998,-0.07722000000000001,-0.0006800000000000139,-0.0038335,0.07722000000000001,0.0006800000000000139,0.0038334999999999984,-0.13119899999999998,-0.15027000000000001,-0.3135345,0.20278100000000002,-0.14493,-0.28753449999999997,-0.125449,-0.48472,-0.09768450000000001,0.125321,-0.48016,-0.10473450000000001
84,0.004440500000000002,0.72181,-0.073528,-0.14180749999999998,0.49594000000000005,-0.068827,-0.2598875,0.71992,-0.155329,0.1456925,0.48897999999999997,-0.055343,0.2784425,0.72038,-0.107349,-0.3142275,0.94165,-0.246129,0.3259025,0.94201,-0.185289,-0.0765695,-0.0008100000000000052,-0.0036409999999999984,0.0765695,0.0008100000000000052,0.003641000000000002,-0.1296675,-0.18056999999999998,-0.295069,0.1978125,-0.17734999999999998,-0.269669,-0.12652750000000001,-0.52473,-0.092259,0.1230225,-0.51951,-0.098199
85,0.0039004999999999995,0.72649,-0.0567415,-0.1433725,0.49620000000000003,-0.054460499999999995,-0.2627025,0.72084,-0.1369315,0.14563749999999998,0.49077000000000004,-0.040511500000000006,0.2771975,0.7214700000000001,-0.0891215,-0.31694249999999996,0.94413,-0.22450150000000002,0.32447750000000003,0.94169,-0.1656215,-0.0758455,-0.0008599999999999997,-0.003446499999999998,0.0758455,0.0008599999999999997,0.003446499999999998,-0.1290825,-0.21423999999999999,-0.2691615,0.1915775,-0.21191,-0.2444515,-0.12884250000000003,-0.5675399999999999,-0.0827515,0.1214275,-0.5613,-0.0852315
86,0.0034679999999999997,0.729565,-0.039819499999999994,-0.145032,0.497975,-0.039969500000000005,-0.265422,0.724985,-0.11890949999999999,0.145638,0.49189499999999997,-0.0255615,0.27601800000000004,0.724915,-0.0712495,-0.319602,0.9478249999999999,-0.20340950000000002,0.32340800000000003,0.941525,-0.1463295,-0.07514599999999999,-0.0007250000000000034,-0.0030504999999999977,0.07514599999999999,0.0007249999999999757,0.0030504999999999977,-0.12776200000000001,-0.24601500000000004,-0.2386395,0.182608,-0.24461500000000003,-0.21413949999999998,-0.131802,-0.6084149999999999,-0.0712795,0.11948800000000001,-0.604355,-0.0697895
87,0.0031624999999999986,0.732085,-0.024494500000000002,-0.1459635,0.49731499999999995,-0.02720950000000001,-0.2671335,0.727905,-0.10215150000000002,0.1457065,0.492795,-0.011938500000000005,0.27517650000000005,0.7268549999999999,-0.05504550000000001,-0.32162349999999995,0.945615,-0.1839115,0.32242649999999995,0.940245,-0.12866149999999998,-0.0745055,-0.0007449999999999957,-0.0026815000000000033,0.0745055,0.0007449999999999957,0.0026814999999999964,-0.12658350000000002,-0.270305,-0.21007149999999997,0.1735765,-0.27178500000000005,-0.18500149999999999,-0.1337335,-0.639165,-0.060521500000000006,0.11752649999999999,-0.6374150000000001,-0.054581500000000005
88,0.002855000000000005,0.735305,-0.009737499999999996,-0.146905,0.498915,-0.014956500000000005,-0.26870499999999997,0.7313949999999999,-0.0866375,0.145755,0.494375,0.0008145000000000027,0.27494500000000005,0.731205,-0.04000549999999999,-0.323565,0.946125,-0.1652275,0.321765,0.939915,-0.1118075,-0.074095,-0.0005980000000000013,-0.002408500000000001,0.074095,0.0005980000000000013,0.002408500000000001,-0.125415,-0.29301499999999997,-0.1822375,0.164465,-0.297925,-0.1565275,-0.135665,-0.667535,-0.04931749999999999,0.115595,-0.6679550000000001,-0.040298499999999994
89,0.0025599999999999963,0.7359485,0.004754000000000001,-0.147951,0.5001485,-0.0030859999999999985,-0.270571,0.7351885,-0.07209099999999999,0.145619,0.4954685,0.013246,0.274799,0.7345785,-0.025931999999999997,-0.325481,0.9460585,-0.14777099999999999,0.32104900000000003,0.9412785,-0.095771,-0.07379,-0.00046550000000000064,-0.0020899999999999946,0.07379,0.00046550000000000064,0.0020900000000000016,-0.12437100000000001,-0.3149215,-0.154651,0.15534900000000001,-0.32349150000000004,-0.128241,-0.137531,-0.6950115,-0.03905,0.11349899999999999,-0.6969515000000001,-0.027301999999999993
90,0.002382500000000001,0.737591,0.018088999999999994,-0.1489655,0.501791,0.008173999999999994,-0.27207549999999997,0.739471,-0.05852,0.1455345,0.496601,0.024919999999999998,0.2745845,0.737721,-0.012898000000000007,-0.3267555,0.946551,-0.13118,0.3206545,0.939811,-0.08145,-0.0736685,-0.00017800000000000107,-0.0018740000000000007,0.0736685,0.0001779999999999976,0.0018739999999999937,-0.12341550000000001,-0.335909,-0.12709,0.1457245,-0.348349,-0.09954000000000002,-0.1394455,-0.7209990000000001,-0.025285000000000002,0.11109450000000001,-0.725289,-0.018442
91,0.002013999999999995,0.7367199999999999,0.027359499999999988,-0.150477,0.503,0.01682349999999999,-0.273227,0.74201,-0.049295500000000006,0.145573,0.49555,0.03291749999999999,0.27481300000000003,0.7394799999999999,-0.004340500000000011,-0.327277,0.94307,-0.11984550000000002,0.320743,0.9395199999999999,-0.07194550000000002,-0.073579,0.00012399999999999998,-0.0016145000000000048,0.073579,-0.00012399999999999998,0.001614499999999991,-0.123227,-0.34937,-0.10659550000000001,0.137113,-0.3624,-0.0776655,-0.140707,-0.73489,-0.015629500000000005,0.106933,-0.7391500000000001,-0.007297500000000012
92,0.0012890000000000002,0.7351025,0.0349305,-0.15168500000000001,0.5034425,0.024239500000000004,-0.274015,0.7428925,-0.0416855,0.145365,0.49517250000000007,0.03973550000000001,0.27519499999999997,0.7415225,0.0022365000000000024,-0.327875,0.9419825,-0.11074549999999998,0.320555,0.9378924999999999,-0.06384549999999999,-0.073575,0.00017450000000000018,-0.0013895000000000018,0.073575,-0.00017450000000000018,0.0013895000000000018,-0.12271499999999999,-0.3606975,-0.0895855,0.13011499999999998,-0.3737875,-0.058535500000000004,-0.14186500000000002,-0.7461575,-0.00655349999999999,0.103625,-0.7507975,0.002639500000000003
93,0.000597000000000002,0.7342905,0.042451,-0.152877,0.5049604999999999,0.031841,-0.274777,0.7433405,-0.03401,0.145203,0.4951605,0.04667,0.275283,0.7409905,0.008468000000000003,-0.327997,0.9388504999999999,-0.10188,0.320483,0.9365804999999999,-0.05618000000000001,-0.07356399999999999,0.00046350000000000037,-0.0010890000000000066,0.07356399999999999,-0.00046350000000000037,0.0010890000000000066,-0.122527,-0.3706295,-0.07222,0.12335299999999999,-0.38409950000000004,-0.03967999999999999,-0.14258700000000002,-0.7562895000000001,0.001230999999999996,0.10072300000000001,-0.7618295,0.011556999999999998
94,-1.734723475976807e-18,0.7339910000000001,0.046216999999999994,-0.15362599999999998,0.507031,0.03559499999999999,-0.27544599999999997,0.746591,-0.030087000000000003,0.14516400000000002,0.49660100000000007,0.04951099999999999,0.275644,0.744441,0.011093999999999993,-0.32789599999999997,0.938891,-0.09654700000000002,0.320434,0.938691,-0.05240700000000001,-0.073576,0.0006579999999999989,-0.0010900000000000076,0.073576,-0.0006580000000000023,0.0010899999999999938,-0.122536,-0.376359,-0.06048700000000001,0.11789399999999998,-0.393109,-0.02641700000000001,-0.14327600000000001,-0.763079,0.005136999999999989,0.09951399999999999,-0.769509,0.01508099999999999
95,-0.000706,0.7343885,0.049870000000000005,-0.154483,0.5079085,0.038933,-0.275823,0.7467785,-0.025918999999999998,0.14507699999999998,0.4974885,0.052205,0.275827,0.7450485,0.014055000000000005,-0.327633,0.9385785,-0.09114900000000001,0.319867,0.9396185,-0.048679,-0.073662,0.0008794999999999983,-0.0010980000000000018,0.073662,-0.0008795000000000018,0.0010980000000000018,-0.123623,-0.38103149999999997,-0.052438999999999986,0.11503700000000001,-0.4001115,-0.017742999999999995,-0.14361300000000002,-0.7680115,0.00608800000000001,0.098987,-0.7744415,0.015653000000000007
96,-0.0014535,0.734315,0.053343,-0.15537050000000002,0.5088550000000001,0.042219000000000007,-0.27620049999999996,0.744905,-0.021883,0.1450695,0.498335,0.055046000000000005,0.2750695,0.743545,0.017306000000000002,-0.3275105,0.937515,-0.085991,0.31909950000000004,0.939095,-0.045351,-0.0736635,0.001131,-0.0010980000000000018,0.0736635,-0.001131,0.0010980000000000018,-0.1247205,-0.38542499999999996,-0.04405099999999999,0.1122895,-0.40635499999999997,-0.009057999999999997,-0.1439205,-0.772245,0.007033999999999999,0.0984595,-0.778675,0.016346000000000006
97,-0.001975499999999998,0.7341595000000001,0.056215999999999995,-0.1561055,0.5091395000000001,0.04419699999999999,-0.2765055,0.7422995,-0.01843800000000001,0.14533449999999998,0.4981995,0.05660899999999999,0.2745245,0.7411395000000001,0.02020199999999999,-0.3274055,0.9360495,-0.081646,0.31850449999999997,0.9380195,-0.04183600000000001,-0.0735785,0.0013504999999999975,-0.000793000000000002,0.0735785,-0.0013504999999999975,0.0007929999999999882,-0.1255855,-0.3891405,-0.03636600000000001,0.10985450000000001,-0.4118005,-0.00038400000000000933,-0.14334550000000001,-0.7757404999999999,0.007285,0.0979845,-0.7821705,0.016113999999999996
98,-0.0022480000000000035,0.7342175,0.05855799999999999,-0.156526,0.5087775000000001,0.045267999999999996,-0.276516,0.7398475,-0.014300000000000007,0.14584399999999997,0.49821750000000004,0.057669,0.27473400000000003,0.7410375,0.023133999999999995,-0.32723599999999997,0.9347675,-0.077453,0.31813400000000003,0.9379774999999999,-0.03846300000000001,-0.073519,0.0016124999999999959,-0.0007840000000000069,0.073519,-0.0016125000000000028,0.000783999999999993,-0.12629600000000002,-0.3912825,-0.02962300000000001,0.107884,-0.4162825,0.007648999999999989,-0.142816,-0.7776825,0.00873299999999999,0.098814,-0.7846225,0.015599999999999996
99,-0.0024405000000000017,0.733983,0.060662499999999994,-0.1570205,0.508633,0.04749149999999999,-0.2763105,0.7377830000000001,-0.010622500000000007,0.1456995,0.497733,0.05975549999999999,0.2743095,0.739873,0.027865499999999988,-0.3271905,0.9334330000000001,-0.0735655,0.3176995,0.937003,-0.03413550000000001,-0.0735255,0.0018370000000000053,-0.0007165000000000088,0.0735255,-0.0018369999999999984,0.0007164999999999949,-0.1268905,-0.39299700000000004,-0.02377950000000001,0.10642950000000001,-0.420207,0.01390149999999999,-0.14223049999999998,-0.7787769999999999,0.009771499999999989,0.0997795,-0.786397,0.01483149999999999
100,-0.0026394999999999995,0.7336484999999999,0.06285850000000001,-0.1575715,0.5081884999999999,0.0495565,-0.2761015,0.7362385,-0.0068534999999999985,0.1456385,0.4973685,0.06199350000000001,0.27332850000000003,0.7386185,0.032178500000000006,-0.32747149999999997,0.9325285,-0.0697055,0.3168285,0.9364785,-0.029693499999999998,-0.0735365,0.0020284999999999956,-0.0005904999999999938,0.0735365,-0.0020285000000000025,0.0005905000000000077,-0.1273815,-0.39419150000000003,-0.0185395,0.1051485,-0.4234515,0.019426500000000006,-0.1414815,-0.7793715,0.010405500000000005,0.10063849999999999,-0.7875915,0.014248500000000004
101,-0.002924000000000003,0.7332865,0.06476749999999999,-0.158075,0.5075065,0.05145849999999999,-0.275945,0.7349965,-0.0034835000000000144,0.145475,0.4970065,0.06409649999999999,0.27220500000000003,0.7379765,0.03617849999999999,-0.327775,0.9320065,-0.06611250000000002,0.315915,0.9365665,-0.025537500000000005,-0.07351099999999999,0.002190500000000005,-0.0005885000000000057,0.07351099999999999,-0.002190499999999998,0.0005884999999999918,-0.127795,-0.3953035,-0.013867500000000005,0.10405500000000001,-0.4263135,0.024243499999999994,-0.14066499999999998,-0.7796135,0.010878499999999992,0.10169500000000001,-0.7884435,0.013529499999999993
102,-0.0032609999999999983,0.7328279999999999,0.0662975,-0.15864299999999998,0.506918,0.0534265,-0.275933,0.7336379999999999,-0.0005944999999999978,0.145367,0.49680799999999997,0.0659265,0.270887,0.737598,0.0403125,-0.32798299999999997,0.931858,-0.0631605,0.314867,0.936808,-0.021568500000000004,-0.07345299999999999,0.002343999999999999,-0.0005764999999999937,0.07345299999999999,-0.002343999999999999,0.0005764999999999937,-0.128043,-0.396242,-0.010567499999999994,0.103467,-0.428232,0.027632499999999997,-0.13977299999999998,-0.779482,0.011043499999999998,0.10261700000000001,-0.7887620000000001,0.012671500000000002
103,-0.0035630000000000045,0.7323795,0.0676255,-0.15908300000000003,0.5062995,0.054920500000000004,-0.27602299999999996,0.7318895,0.002107500000000005,0.14526699999999998,0.49667949999999994,0.0679435,0.269727,0.7377495,0.04439850000000001,-0.328063,0.9318695,-0.0605435,0.313917,0.9373095,-0.01783549999999999,-0.073395,0.002425499999999997,-0.0007085000000000008,0.073395,-0.002425500000000004,0.0007085000000000008,-0.128093,-0.3969805,-0.00824649999999999,0.10317699999999999,-0.4299505,0.030096500000000005,-0.13875300000000002,-0.7792405,0.010936500000000002,0.103547,-0.7889505,0.011731500000000006
104,-0.004014499999999998,0.732142,0.06888849999999999,-0.1595505,0.506062,0.056249499999999994,-0.2760905,0.730102,0.004521499999999998,0.1450695,0.49659200000000003,0.0700085,0.2685895,0.737582,0.048035499999999995,-0.3282805,0.931802,-0.0580335,0.31281950000000003,0.937782,-0.0138355,-0.0733525,0.002471000000000001,-0.0008985000000000035,0.0733525,-0.002471000000000001,0.0008984999999999965,-0.1280705,-0.39756800000000003,-0.0069745000000000085,0.1030295,-0.43104800000000004,0.03168649999999999,-0.1376805,-0.778948,0.0103305,0.1044195,-0.789118,0.010303499999999993
105,-0.004495499999999997,0.7320165,0.069988,-0.1599715,0.5059365,0.05772399999999999,-0.2761315,0.7280665,0.006847999999999993,0.1448885,0.4966465,0.07199699999999999,0.2674885,0.7360964999999999,0.05143199999999999,-0.3288315,0.9314565,-0.05574000000000001,0.3117585,0.9383765,-0.009898000000000004,-0.0733505,0.0024814999999999976,-0.0010650000000000034,0.0733505,-0.0024815000000000045,0.0010649999999999965,-0.12794149999999999,-0.3981035,-0.00621300000000001,0.10313850000000001,-0.4319635,0.03258099999999999,-0.1365415,-0.7786335,0.009597999999999995,0.1053085,-0.7892435,0.008796999999999992
106,-0.004499499999999996,0.7320165,0.0706635,-0.1601275,0.5058465,0.0594835,-0.27617749999999996,0.7258765,0.008884500000000004,0.1446725,0.4966965,0.07417750000000001,0.2666425,0.7343265,0.054295500000000003,-0.32945749999999996,0.9309465,-0.0538045,0.31125250000000004,0.9388265,-0.006652499999999999,-0.0733635,0.0024814999999999976,-0.0011175000000000004,0.0733635,-0.0024815000000000045,0.0011175000000000004,-0.1277075,-0.39836350000000004,-0.006308500000000002,0.10347250000000001,-0.43256350000000005,0.0319465,-0.1360275,-0.7780335,0.008698500000000005,0.1058825,-0.7892735000000001,0.007119500000000001
107,-0.004414499999999998,0.7317395,0.071311,-0.1601955,0.5053095,0.061396000000000006,-0.27612549999999997,0.7246095,0.009911000000000003,0.1445745,0.4967095,0.07646,0.2660145,0.7335995,0.056777,-0.3298455,0.9307195,-0.052197999999999994,0.3107545,0.9391895,-0.003462999999999994,-0.07340849999999999,0.0024745000000000045,-0.0010829999999999937,0.07340849999999999,-0.0024744999999999975,0.0010830000000000006,-0.1274255,-0.3983705,-0.006512999999999998,0.10390450000000001,-0.4331905,0.030878000000000003,-0.13540549999999998,-0.7776605,0.006387000000000004,0.1064245,-0.7892805,0.0055660000000000015
108,-0.004302499999999999,0.731383,0.071839,-0.1600595,0.504713,0.061976,-0.27606949999999997,0.723473,0.010874000000000002,0.1446105,0.496903,0.07735,0.2656905,0.732733,0.057501,-0.3300395,0.930583,-0.050941999999999994,0.3105405,0.939483,-0.0014860000000000012,-0.0734435,0.002472000000000002,-0.0011390000000000011,0.0734435,-0.002472000000000002,0.0011390000000000011,-0.1270795,-0.398627,-0.006945,0.1043905,-0.43377699999999997,0.02999,-0.1347695,-0.777277,0.004262999999999996,0.1070005,-0.789317,0.004129000000000001
109,-0.004277999999999999,0.7311955,0.0720815,-0.159989,0.5043955,0.062413500000000004,-0.275779,0.7228855000000001,0.011510500000000007,0.144771,0.4971155,0.0780515,0.265781,0.7324555,0.058307500000000005,-0.330159,0.9307855,-0.050298499999999996,0.310441,0.9397155,-3.0499999999995808e-05,-0.073495,0.0024865000000000026,-0.0012614999999999987,0.073495,-0.0024865000000000026,0.0012615000000000057,-0.126949,-0.3989245,-0.0074164999999999925,0.10473099999999999,-0.4340345,0.029184500000000006,-0.134239,-0.7769444999999999,0.0023945000000000077,0.10730100000000001,-0.7892644999999999,0.0025905000000000025
110,-0.004314,0.7309055,0.072213,-0.15989799999999998,0.5039555,0.06275499999999999,-0.275808,0.7222655,0.011993999999999998,0.144812,0.49722550000000004,0.07875299999999999,0.265932,0.7322755,0.059112,-0.330278,0.9313254999999999,-0.049842,0.31031200000000003,0.9398154999999999,0.0012779999999999944,-0.073552,0.0024904999999999997,-0.0012660000000000032,0.073552,-0.0024904999999999997,0.0012659999999999963,-0.126828,-0.3993645,-0.007981000000000002,0.105022,-0.4343045,0.028386999999999996,-0.13383799999999998,-0.7768045,0.0004789999999999933,0.10756199999999999,-0.7893345,0.0010579999999999964
111,-0.0043335,0.7305995,0.07228,-0.1597435,0.5036495,0.062695,-0.2759335,0.7216695,0.012344,0.1448765,0.49745950000000005,0.079658,0.2662065,0.7333295,0.05925,-0.3303635,0.9318195,-0.049608,0.31030650000000004,0.9404895,0.002124000000000001,-0.07360649999999999,0.0024554999999999993,-0.0012749999999999984,0.07360649999999999,-0.0024554999999999993,0.0012749999999999984,-0.1266635,-0.3998605,-0.008648000000000003,0.10531650000000001,-0.43451049999999997,0.027583,-0.13341350000000002,-0.7765905,-0.0012790000000000024,0.1079965,-0.7891205,-0.0005999999999999964
112,-0.0043219999999999995,0.730303,0.072279,-0.15968,0.5034230000000001,0.062792,-0.27606,0.721373,0.012308999999999997,0.14503,0.497723,0.080184,0.26650999999999997,0.733583,0.059141,-0.33035000000000003,0.932103,-0.049937,0.31059,0.940743,0.002582000000000001,-0.073654,0.0023989999999999984,-0.001236000000000001,0.073654,-0.0023990000000000053,0.001236000000000001,-0.12652,-0.400297,-0.009262,0.10561,-0.43460699999999997,0.026869999999999998,-0.13302000000000003,-0.775967,-0.0025630000000000028,0.10845,-0.788857,-0.0018550000000000025
113,-0.0041960000000000035,0.7300089999999999,0.072057,-0.15960600000000003,0.503279,0.062855,-0.276146,0.7211289999999999,0.011968999999999997,0.14523399999999997,0.497959,0.080519,0.266794,0.7327589999999999,0.05898099999999999,-0.33024600000000004,0.9323589999999999,-0.05081100000000001,0.310864,0.9406190000000001,0.002601999999999993,-0.073685,0.002341000000000003,-0.0011610000000000023,0.073685,-0.002340999999999996,0.0011609999999999954,-0.126376,-0.400771,-0.009653000000000002,0.10588399999999999,-0.434741,0.026294999999999995,-0.13267600000000002,-0.7753209999999999,-0.0031940000000000024,0.10882399999999999,-0.7886610000000001,-0.0027320000000000053
114,-0.004013500000000003,0.72977,0.0716755,-0.1595535,0.50314,0.0628005,-0.27619350000000004,0.7209599999999999,0.0108785,0.1454865,0.49829999999999997,0.0806875,0.2670565,0.73235,0.0584195,-0.3301835,0.93265,-0.0519745,0.31116649999999996,0.94091,0.0014824999999999977,-0.07367850000000001,0.0023080000000000045,-0.0011265000000000025,0.07367850000000001,-0.0023079999999999976,0.0011265000000000025,-0.1262935,-0.40121,-0.010055500000000002,0.1060865,-0.43483,0.0257515,-0.1323735,-0.7748200000000001,-0.004151500000000002,0.10907649999999999,-0.78837,-0.0035994999999999985
115,-0.0038109999999999993,0.7295145,0.07120499999999999,-0.15952,0.5030045,0.062696,-0.27625,0.7207245,0.01004,0.14565,0.49847450000000004,0.080695,0.26829000000000003,0.7324445,0.058025,-0.33006,0.9329345,-0.052797,0.31145999999999996,0.9411945,0.000675999999999996,-0.073681,0.0022754999999999997,-0.0011429999999999982,0.073681,-0.0022754999999999997,0.0011429999999999982,-0.12627,-0.40162549999999997,-0.010231000000000004,0.10622,-0.4349155,0.025403000000000002,-0.13213,-0.7747054999999999,-0.005033000000000003,0.10948,-0.7880855,-0.004636000000000001
116,-0.003699499999999999,0.729352,0.0704465,-0.1595685,0.503002,0.06246750000000001,-0.27658849999999996,0.720432,0.009240500000000006,0.1457115,0.498342,0.0804945,0.2698815,0.7311219999999999,0.057524500000000006,-0.3300285,0.932712,-0.0535625,0.3119015,0.9409219999999999,-5.3499999999997994e-05,-0.0736475,0.0022760000000000002,-0.001182499999999996,0.0736475,-0.0022759999999999933,0.001182500000000003,-0.1263285,-0.401758,-0.010475499999999999,0.1062515,-0.434948,0.025006500000000004,-0.1319785,-0.7749280000000001,-0.005938499999999999,0.1096015,-0.787868,-0.005407499999999996
117,-0.0036424999999999973,0.72921,0.06982050000000001,-0.15961150000000002,0.503,0.062198500000000004,-0.2778615,0.71861,0.008493500000000001,0.1457385,0.49821000000000004,0.0801885,0.2738485,0.72665,0.0572545,-0.3299615,0.93175,-0.0555205,0.3130185,0.93954,-0.0005824999999999997,-0.0736445,0.002259000000000004,-0.0012164999999999954,0.0736445,-0.002258999999999997,0.0012165000000000023,-0.1264515,-0.40184,-0.010641499999999998,0.10628850000000001,-0.43498,0.024490500000000002,-0.1318415,-0.77522,-0.0065635,0.1094985,-0.78771,-0.006048499999999998
118,-0.0035150000000000003,0.729222,0.0694015,-0.15957300000000002,0.503032,0.06177150000000001,-0.280053,0.714862,0.007159500000000006,0.146017,0.498152,0.07978350000000001,0.279437,0.719642,0.05748750000000001,-0.329693,0.929772,-0.058442499999999994,0.314637,0.936942,-0.001628499999999991,-0.073637,0.002250000000000002,-0.001294499999999997,0.073637,-0.002249999999999995,0.001294500000000004,-0.126513,-0.401688,-0.010783499999999994,0.106327,-0.434828,0.024063500000000005,-0.131753,-0.7752279999999999,-0.007047499999999991,0.109537,-0.7873479999999999,-0.006475499999999995
119,-0.0032349999999999983,0.7292055,0.069222,-0.159557,0.5030555,0.0616,-0.283427,0.7075855,0.0052899999999999996,0.146473,0.4983455,0.079652,0.285873,0.7092055,0.058032,-0.329297,0.9233655,-0.06279799999999999,0.318403,0.9257055,-0.0027570000000000025,-0.073626,0.0022305000000000033,-0.0014119999999999966,0.073626,-0.0022304999999999964,0.0014120000000000035,-0.126517,-0.4014945,-0.010706,0.10634300000000001,-0.4345545,0.023892,-0.131677,-0.7750245,-0.007212999999999997,0.109663,-0.7865345,-0.006837999999999997
120,-0.0024989999999999995,0.7293059999999999,0.0686245,-0.159614,0.5030359999999999,0.061594499999999996,-0.28758399999999995,0.6977559999999999,0.003066499999999993,0.147046,0.498516,0.0797035,0.293876,0.697986,0.0582945,-0.328904,0.914466,-0.06782450000000001,0.32246600000000003,0.912616,-0.0038345000000000046,-0.073617,0.0022849999999999954,-0.001411500000000003,0.073617,-0.0022850000000000023,0.001411499999999996,-0.12659399999999998,-0.40122399999999997,-0.010460500000000005,0.106286,-0.434214,0.023886499999999995,-0.131624,-0.774754,-0.0071995000000000045,0.109756,-0.785714,-0.007163500000000003
121,-0.0010949999999999996,0.729488,0.0666425,-0.15950899999999998,0.502138,0.0607905,-0.293889,0.680798,-0.001513500000000008,0.14897100000000002,0.49818799999999996,0.07917849999999999,0.30482099999999995,0.678508,0.058802499999999994,-0.328429,0.8967579999999999,-0.07516650000000001,0.327681,0.893328,-0.005813500000000006,-0.07369400000000001,0.002361000000000002,-0.001418500000000003,0.07369400000000001,-0.002361000000000002,0.0014184999999999962,-0.127079,-0.400312,-0.010334500000000003,0.106121,-0.433272,0.023463499999999995,-0.13197899999999999,-0.7752020000000001,-0.007843500000000003,0.10950099999999999,-0.784832,-0.007572500000000003
122,0.0005124999999999991,0.729882,0.064234,-0.1593885,0.501112,0.05978700000000001,-0.29824849999999997,0.6625420000000001,-0.006447999999999995,0.15106150000000002,0.49777199999999994,0.078154,0.3161415,0.657072,0.059751,-0.3272685,0.875662,-0.08425099999999999,0.3332815,0.870862,-0.008431999999999995,-0.07376650000000001,0.002479999999999996,-0.0014249999999999957,0.07376650000000001,-0.002480000000000003,0.0014250000000000027,-0.1278885,-0.399148,-0.010408999999999995,0.1059415,-0.432178,0.022584000000000003,-0.1326485,-0.775118,-0.008161999999999996,0.1091115,-0.783758,-0.008443999999999993
123,0.002257999999999998,0.7309965,0.061232999999999996,-0.15795700000000001,0.4991765,0.057739,-0.30377699999999996,0.6401165,-0.013270999999999998,0.152923,0.4973965,0.076632,0.327753,0.6325265,0.06096,-0.325737,0.8503665,-0.095178,0.340013,0.8441365000000001,-0.012896999999999999,-0.07389599999999999,0.0026025000000000006,-0.0014100000000000015,0.07389599999999999,-0.0026025000000000006,0.0014100000000000015,-0.129227,-0.39732350000000005,-0.010369000000000003,0.105433,-0.4306335,0.021270999999999998,-0.13395700000000002,-0.7744435,-0.008407999999999999,0.10806299999999999,-0.7822534999999999,-0.009260999999999998
124,0.004297499999999996,0.7325075,0.0577755,-0.1568915,0.49744750000000004,0.0556505,-0.3051415,0.6139475,-0.0205775,0.15480850000000002,0.49685750000000006,0.07482849999999999,0.33865850000000003,0.6040575,0.062425499999999995,-0.3241515,0.8201875000000001,-0.1087825,0.3461785,0.8154375,-0.018084500000000003,-0.07402349999999999,0.0026684999999999973,-0.0013195000000000012,0.07402349999999999,-0.0026684999999999973,0.0013195000000000012,-0.1308815,-0.3955525,-0.0100465,0.1048385,-0.4289325,0.0196315,-0.1357315,-0.7733225,-0.008331499999999999,0.10670849999999998,-0.7802525,-0.009793499999999997
125,0.006487499999999997,0.734532,0.053937,-0.15414850000000002,0.49458199999999997,0.052145,-0.3074785,0.583332,-0.025522000000000003,0.15658149999999998,0.496062,0.072992,0.34713150000000004,0.5713320000000001,0.064107,-0.3220785,0.7856920000000001,-0.12263099999999999,0.3538115,0.777672,-0.023447000000000003,-0.0741605,0.0027449999999999974,-0.0012770000000000004,0.0741605,-0.0027450000000000044,0.0012770000000000004,-0.1330085,-0.393248,-0.009364999999999998,0.1038915,-0.42675799999999997,0.01792,-0.13813850000000003,-0.7722479999999999,-0.008198000000000004,0.1045715,-0.777938,-0.009974999999999998
126,0.008723999999999999,0.736727,0.0498305,-0.151671,0.491787,0.0485165,-0.310841,0.5484870000000001,-0.028313500000000005,0.158229,0.495247,0.07143949999999999,0.347459,0.539107,0.0655365,-0.319131,0.746347,-0.13643349999999999,0.360499,0.736507,-0.029398500000000008,-0.07422100000000001,0.002819000000000002,-0.0013595000000000065,0.07422100000000001,-0.0028189999999999986,0.0013594999999999996,-0.135521,-0.390523,-0.0084725,0.102629,-0.42417299999999997,0.016168499999999995,-0.141421,-0.770623,-0.007491500000000005,0.101409,-0.775403,-0.009635500000000005
127,0.010939499999999998,0.739647,0.045307,-0.1481165,0.48893700000000007,0.043769,-0.3117565,0.509457,-0.029524999999999996,0.1585335,0.494637,0.07050200000000001,0.3411335,0.5030370000000001,0.07065400000000001,-0.31539649999999997,0.6958570000000001,-0.151776,0.36239350000000004,0.682797,-0.027767,-0.0741415,0.0029509999999999988,-0.0016259999999999955,0.0741415,-0.0029510000000000022,0.0016260000000000024,-0.1389265,-0.38699300000000003,-0.007591999999999995,0.1003635,-0.42068300000000003,0.014600000000000005,-0.1466565,-0.769123,-0.006097999999999999,0.0962835,-0.7717729999999999,-0.008265999999999996
128,0.013386499999999999,0.7434335,0.040496000000000004,-0.1439575,0.4860835,0.038104,-0.3072375,0.46946350000000003,-0.029388000000000004,0.15950250000000002,0.4933335,0.069102,0.3325925,0.4632635,0.07677,-0.3104375,0.6369835,-0.159034,0.3587925,0.6248535000000001,-0.027056000000000004,-0.0741225,0.003235499999999999,-0.001903000000000002,0.0741225,-0.003235499999999999,0.001903000000000002,-0.1421075,-0.3825265,-0.007848,0.09726249999999999,-0.4166765,0.013441000000000002,-0.1544075,-0.7666364999999999,-0.003596000000000002,0.0885625,-0.7672565,-0.005585
129,0.015554499999999999,0.7474935,0.035720499999999995,-0.13945950000000001,0.4832235,0.031980499999999995,-0.2992675,0.4287535,-0.027464500000000003,0.1594525,0.49194350000000003,0.0677995,0.3211425,0.4251335,0.0839645,-0.3033775,0.5689035,-0.16484749999999998,0.3505525,0.5574235000000001,-0.02502850000000001,-0.07387250000000001,0.003617499999999999,-0.0024995000000000017,0.0738725,-0.003617500000000001,0.0024994999999999948,-0.1442975,-0.3807565,-0.010622500000000007,0.0934225,-0.4132965,0.013246499999999994,-0.1643375,-0.7633065,-0.000851500000000005,0.0780725,-0.7623365,-0.0014445000000000013
130,0.017175499999999996,0.751448,0.031901,-0.1354165,0.481308,0.026812,-0.2882225,0.394558,-0.023768000000000004,0.1577575,0.490758,0.067219,0.3094575,0.393718,0.089945,-0.2948325,0.5040680000000001,-0.164517,0.3398075,0.4915280000000001,-0.022151999999999998,-0.0735775,0.0038840000000000003,-0.0032150000000000026,0.0735775,-0.0038840000000000003,0.0032150000000000026,-0.1448145,-0.37884199999999996,-0.015237999999999995,0.08906750000000001,-0.411292,0.014052000000000002,-0.1736025,-0.757792,0.0001270000000000021,0.0665675,-0.757852,0.0033219999999999986
131,0.019252999999999992,0.755209,0.0277255,-0.132219,0.47927899999999996,0.021819500000000006,-0.274375,0.36078899999999997,-0.017032499999999992,0.155435,0.489019,0.0669785,0.294625,0.360849,0.0974205,-0.284905,0.434399,-0.1580785,0.324785,0.418139,-0.017174499999999995,-0.07308500000000001,0.004112,-0.004300499999999999,0.073085,-0.004112000000000001,0.004300500000000006,-0.1413,-0.37596100000000005,-0.023013499999999992,0.08159499999999999,-0.412661,0.017344500000000006,-0.17455500000000002,-0.752331,-0.002763500000000002,0.052474999999999994,-0.7543110000000001,0.0049435000000000034
132,0.02056749999999999,0.7583345,0.023847,-0.1311195,0.4783345,0.017799999999999996,-0.2596225,0.33065449999999996,-0.010329000000000005,0.1520875,0.48707449999999997,0.067389,0.27832749999999995,0.3308345,0.105122,-0.27443249999999997,0.3660345,-0.148928,0.31006749999999994,0.3473845,-0.014274999999999996,-0.0722875,0.0043085,-0.006096000000000004,0.0722875,-0.0043085,0.006095999999999997,-0.1340245,-0.3738155,-0.033098,0.0732775,-0.4071655,0.021184999999999996,-0.1711125,-0.7471855000000001,-0.009147000000000002,0.0367875,-0.7504955,0.008363999999999996
133,0.02130950000000001,0.7605925,0.019996,-0.12952249999999998,0.47703249999999997,0.012426000000000006,-0.2428005,0.3041525,-0.0031920000000000004,0.14888949999999998,0.4853325,0.067922,0.25940949999999996,0.3041125,0.112969,-0.2636905,0.3006125,-0.137878,0.29297950000000006,0.2768825,-0.008251999999999995,-0.0720295,0.0045725,-0.007612999999999995,0.0720295,-0.0045725,0.007612999999999995,-0.1258155,-0.3693975,-0.04993800000000001,0.06366950000000002,-0.4027675,0.021554999999999998,-0.1647015,-0.7427875,-0.019740999999999995,0.021389500000000006,-0.7460975,0.012223999999999999
134,0.022183499999999995,0.7623095,0.015802499999999997,-0.1294095,0.4769095,0.007564500000000002,-0.2267965,0.2822695,0.003307500000000005,0.14596350000000002,0.4837795,0.0680525,0.24038350000000003,0.2823295,0.1209005,-0.25255649999999996,0.23711949999999998,-0.1265105,0.2786235,0.21502949999999998,-0.0044944999999999985,-0.0717035,0.0048085,-0.009024500000000005,0.0717035,-0.0048085,0.009024500000000005,-0.1143875,-0.3652205,-0.0688705,0.05384349999999999,-0.3986505,0.021984500000000004,-0.1530585,-0.7379305,-0.035200499999999996,0.0034835000000000005,-0.7420705,0.020951499999999998
135,0.023496000000000017,0.763724,0.011145000000000002,-0.12864099999999998,0.476574,0.002048000000000008,-0.210716,0.265194,0.010815000000000005,0.142986,0.482194,0.06791100000000001,0.22154600000000002,0.262974,0.12870800000000002,-0.24248399999999998,0.177534,-0.114759,0.263396,0.15418400000000002,0.00039300000000000446,-0.07130599999999998,0.005039,-0.01036899999999999,0.07130600000000001,-0.005039,0.010369000000000003,-0.10045299999999999,-0.361446,-0.09062899999999999,0.048986,-0.394436,0.018349000000000004,-0.13551999999999997,-0.731296,-0.056509000000000004,-0.013943999999999984,-0.7380059999999999,0.029777000000000012
136,0.0259905,0.764045,0.005925,-0.12910649999999999,0.476095,-0.002940000000000012,-0.2008505,0.25327500000000003,0.01705699999999999,0.1413405,0.480135,0.067005,0.2038905,0.248685,0.134013,-0.2319955,0.127835,-0.09815000000000002,0.2495805,0.107179,0.007161000000000001,-0.07101049999999999,0.005262000000000001,-0.01175000000000001,0.0710105,-0.005261999999999999,0.011749999999999997,-0.0842995,-0.355845,-0.11566000000000001,0.04538049999999999,-0.390655,0.012184,-0.1038625,-0.723795,-0.08936,-0.030359499999999984,-0.734315,0.03930099999999999
137,0.027389999999999998,0.7625335000000001,0.0007549999999999918,-0.13120900000000002,0.47510349999999996,-0.00711500000000001,-0.197497,0.2452935,0.022669999999999996,0.13827999999999996,0.4778535,0.066573,0.18680999999999998,0.2411135,0.1366,-0.222891,0.0905195,-0.08576500000000001,0.23419999999999996,0.0726275,0.014515,-0.07053000000000001,0.0052815,-0.013335000000000014,0.07052999999999998,-0.0052815000000000015,0.013335,-0.06920000000000001,-0.3513565,-0.13885499999999998,0.040569999999999995,-0.3872565,0.0057849999999999985,-0.07138000000000001,-0.7178665,-0.12196500000000002,-0.045930000000000026,-0.7281265,0.044083
138,0.027694999999999997,0.7599605,-0.004459999999999964,-0.134399,0.4732605,-0.011369999999999991,-0.1982,0.2400305,0.029456000000000024,0.13479500000000003,0.47519049999999996,0.06628400000000002,0.17005499999999998,0.2335305,0.13693000000000002,-0.218405,0.0645625,-0.07331999999999997,0.218525,0.0488925,0.02354000000000002,-0.070475,0.0049955,-0.014779999999999988,0.07047499999999998,-0.0049955,0.014780000000000015,-0.053834999999999994,-0.34757950000000004,-0.15985,0.03576499999999999,-0.3844195,-0.0010199999999999654,-0.03576499999999999,-0.7122395,-0.15467999999999998,-0.061514999999999986,-0.7211394999999999,0.04918700000000002
139,0.027424999999999977,0.7570635,-0.009610000000000007,-0.138042,0.47077349999999996,-0.015640000000000015,-0.201327,0.2351935,0.03283,0.131125,0.4726335,0.06473699999999999,0.153385,0.2275135,0.132405,-0.21782500000000002,0.044394499999999996,-0.059590000000000004,0.20044499999999998,0.0295495,0.03485999999999999,-0.070605,0.004962499999999998,-0.015730000000000022,0.07060499999999997,-0.004962500000000002,0.015729999999999994,-0.04055500000000001,-0.3439665,-0.17901,0.031984999999999986,-0.3820365,-0.008260000000000017,0.0021449999999999803,-0.6940765,-0.18849,-0.07728500000000002,-0.7140565,0.05489999999999999
140,0.025739999999999985,0.7554735,-0.014174999999999993,-0.14211400000000002,0.46983349999999996,-0.019614999999999994,-0.20698000000000003,0.2328135,0.03307500000000001,0.12590999999999997,0.4716935,0.062628,0.14115,0.2253335,0.126358,-0.22284700000000002,0.033924499999999996,-0.04244500000000001,0.18555,0.0221805,0.04202500000000001,-0.07092000000000001,0.004962499999999998,-0.016795000000000004,0.07091999999999998,-0.004962500000000002,0.016795000000000004,-0.02756000000000003,-0.33832650000000003,-0.193245,0.03071999999999997,-0.3778365,-0.017345,0.030179999999999985,-0.6756665000000001,-0.214405,-0.09259000000000003,-0.7041065,0.062249
141,0.02396999999999999,0.7546134999999999,-0.018119999999999997,-0.14528,0.46944349999999996,-0.023790000000000006,-0.21272799999999997,0.23232350000000002,0.03356999999999999,0.12159000000000003,0.4711435,0.06074,0.13515,0.2242935,0.120958,-0.229872,0.027722499999999997,-0.024249999999999994,0.17309000000000002,0.019645499999999996,0.046469999999999984,-0.07164999999999999,0.004962499999999998,-0.016960000000000003,0.07164999999999999,-0.004962500000000002,0.016960000000000003,-0.018619999999999998,-0.32907650000000005,-0.20503000000000002,0.030330000000000024,-0.37185650000000003,-0.026880000000000015,0.05398000000000003,-0.6567565000000001,-0.23657999999999998,-0.10688999999999999,-0.6935865,0.06827
142,0.022260000000000002,0.7541595,-0.021134999999999987,-0.14957,0.4689895,-0.025365,-0.21801399999999999,0.23281949999999998,0.03436500000000001,0.11735000000000001,0.47068950000000004,0.06009500000000001,0.13263000000000003,0.2238395,0.116915,-0.238253,0.0254655,-0.0035349999999999826,0.16555000000000003,0.0191915,0.046455000000000024,-0.07150000000000001,0.004992499999999999,-0.018095,0.07150000000000001,-0.0049925,0.018095,-0.01050000000000001,-0.3203105,-0.20919499999999996,0.031110000000000027,-0.3652505,-0.032995,0.07496999999999998,-0.6403504999999999,-0.25115499999999996,-0.12018999999999999,-0.6817905,0.076145
143,0.019930000000000003,0.7530485,-0.023539999999999978,-0.15448,0.4678785,-0.02667,-0.223397,0.23170849999999998,0.033930000000000016,0.11243999999999998,0.4696285,0.05897000000000002,0.13123,0.2227285,0.11232,-0.247098,0.0243545,0.00717000000000001,0.16170999999999996,0.0180805,0.04385,-0.07137000000000002,0.004547500000000001,-0.018820000000000003,0.07136999999999999,-0.0045474999999999995,0.018820000000000003,-0.006989999999999996,-0.3142915,-0.21042999999999998,0.028739999999999988,-0.3565915,-0.03902999999999998,0.08790999999999999,-0.6347815,-0.25486,-0.13405,-0.6747215,0.09060000000000001
144,0.017459999999999976,0.7521135,-0.025065000000000004,-0.15958000000000006,0.46694349999999996,-0.02721499999999999,-0.22838200000000003,0.2307735,0.03348499999999999,0.10801999999999995,0.46884349999999997,0.057675000000000004,0.13057999999999997,0.2217935,0.10819499999999999,-0.2546550000000001,0.0234195,0.015494999999999981,0.16202999999999995,0.0171455,0.04120499999999999,-0.07163000000000003,0.004167499999999999,-0.018915000000000015,0.07162999999999997,-0.004167500000000001,0.018914999999999987,-0.006130000000000024,-0.3103265,-0.207335,0.02132999999999996,-0.3570065,-0.040805000000000036,0.09436999999999995,-0.6300665,-0.251025,-0.14591000000000004,-0.6738164999999999,0.10619499999999998
145,0.014239999999999975,0.7509475,-0.025855000000000017,-0.16421000000000002,0.4661375,-0.027105000000000046,-0.23317000000000002,0.22949750000000002,0.03338499999999997,0.10383999999999999,0.4676375,0.05707499999999999,0.13030999999999998,0.2218675,0.10512499999999997,-0.262424,0.0212035,0.015744999999999953,0.16506999999999994,0.0164275,0.03698499999999999,-0.07180000000000003,0.0044265,-0.018835000000000046,0.07179999999999997,-0.0044265,0.01883499999999999,-0.005549999999999999,-0.3125425,-0.198745,0.015669999999999962,-0.3592225,-0.051295000000000035,0.08737,-0.6266925,-0.233705,-0.15421,-0.6749425,0.11647499999999997
146,0.012095000000000022,0.7500604999999999,-0.025999999999999968,-0.16805499999999998,0.4658105,-0.026059999999999972,-0.236665,0.2300705,0.03312000000000004,0.10051500000000002,0.4668505,0.05714000000000005,0.13142499999999996,0.2227105,0.10260000000000005,-0.26941499999999996,0.0213295,0.010250000000000037,0.16918499999999997,0.0182745,0.03067000000000003,-0.07166499999999998,0.004825500000000001,-0.01923999999999998,0.07166499999999998,-0.0048255,0.019240000000000035,-0.005475000000000008,-0.3149895,-0.18878999999999996,0.01121500000000003,-0.3603495,-0.05962999999999996,0.08077499999999999,-0.6237395,-0.21594999999999998,-0.153855,-0.6690795,0.12828000000000003
147,0.012795,0.7482629999999999,-0.025709999999999955,-0.16998500000000002,0.466443,-0.02393999999999996,-0.23811500000000002,0.233223,0.032200000000000006,0.10033500000000001,0.465553,0.05779000000000001,0.13582499999999997,0.225223,0.09915000000000002,-0.27120500000000003,0.025939,-0.0009599999999999609,0.17764499999999994,0.026453,0.021230000000000027,-0.07139500000000004,0.005118,-0.019389999999999963,0.07139499999999999,-0.005117999999999999,0.01939000000000002,-0.0072850000000000414,-0.31793699999999997,-0.17497999999999997,0.008604999999999974,-0.36039699999999997,-0.06459999999999999,0.07181499999999996,-0.619997,-0.19546999999999992,-0.143235,-0.670687,0.12722000000000003
148,0.015064999999999995,0.746356,-0.025285000000000002,-0.170985,0.467516,-0.021235000000000004,-0.237995,0.238126,0.030675000000000008,0.101605,0.464066,0.05998500000000001,0.14150500000000005,0.229346,0.09608499999999998,-0.269425,0.034574,-0.015874999999999972,0.18795500000000004,0.035910000000000004,0.009514999999999996,-0.07094499999999998,0.005157999999999999,-0.019755000000000023,0.07094499999999998,-0.005158,0.019755000000000023,-0.009004999999999985,-0.322674,-0.16041500000000003,0.007595000000000018,-0.36093400000000003,-0.067905,0.05948500000000001,-0.620184,-0.17050499999999996,-0.12128499999999998,-0.6743939999999999,0.10863500000000001
149,0.02018000000000003,0.7446985,-0.025805000000000022,-0.16928999999999994,0.4700385,-0.01958500000000002,-0.23606999999999995,0.2448085,0.02701500000000001,0.10619,0.4626285,0.061145000000000005,0.1477400000000001,0.2339485,0.093105,-0.26191999999999993,0.0435035,-0.033665,0.20123000000000002,0.0493045,-0.0038349999999999773,-0.07056999999999997,0.0052885,-0.019405000000000006,0.07057000000000002,-0.0052885,0.019405000000000006,-0.015089999999999937,-0.3277315,-0.14631499999999997,0.013900000000000023,-0.3609715,-0.07276500000000002,0.047650000000000026,-0.6210315,-0.14693500000000004,-0.09389999999999993,-0.6793115,0.08716499999999999
150,0.029725,0.7436130000000001,-0.028209999999999957,-0.165815,0.473813,-0.017759999999999998,-0.232705,0.252143,0.02346999999999999,0.11245500000000003,0.462013,0.058760000000000034,0.16067499999999996,0.23880300000000002,0.08218000000000003,-0.25238499999999997,0.052818000000000004,-0.050350000000000006,0.219505,0.063872,-0.02294999999999997,-0.07025500000000001,0.005528,-0.01874999999999999,0.07025500000000001,-0.005528000000000001,0.018750000000000044,-0.02279500000000001,-0.332737,-0.13027999999999995,0.02502500000000002,-0.359597,-0.07946999999999999,0.03304499999999999,-0.6226269999999999,-0.11987999999999999,-0.05284500000000003,-0.686647,0.05867
151,0.040264999999999995,0.7426985,-0.031179999999999986,-0.16053499999999998,0.4782385,-0.01715,-0.22936499999999996,0.2597185,0.020569999999999977,0.11893500000000001,0.4617085,0.05473,0.17310500000000006,0.2435685,0.0716,-0.24280499999999997,0.0619895,-0.06496000000000002,0.23670500000000005,0.0794015,-0.041100000000000025,-0.07036499999999996,0.005655500000000001,-0.017280000000000018,0.07036500000000001,-0.0056555,0.017279999999999962,-0.03041499999999997,-0.33679149999999997,-0.11443000000000003,0.03625500000000004,-0.35793149999999996,-0.08565999999999996,0.018025000000000013,-0.6311315,-0.09542000000000006,-0.011614999999999986,-0.6946015,0.02943000000000001
152,0.053344999999999976,0.740917,-0.03497000000000006,-0.153715,0.482407,-0.01545000000000002,-0.225425,0.266777,0.02196999999999999,0.127575,0.461327,0.05026999999999998,0.187295,0.247477,0.06052999999999997,-0.23495499999999997,0.070265,-0.07074999999999998,0.25124500000000005,0.09178700000000001,-0.05393999999999999,-0.07069500000000001,0.00604,-0.015770000000000006,0.07069500000000006,-0.006039999999999999,0.01576999999999995,-0.037024999999999975,-0.342213,-0.09776000000000007,0.050124999999999975,-0.35658300000000004,-0.09013000000000004,0.004615000000000036,-0.639343,-0.07108000000000003,0.027985000000000038,-0.704433,0.0017499999999999738
153,0.06646000000000007,0.7392550000000001,-0.03882000000000008,-0.14575,0.486795,-0.013870000000000049,-0.22122999999999998,0.273305,0.025199999999999945,0.13627,0.461135,0.04623999999999995,0.20083000000000006,0.251045,0.050299999999999956,-0.22969999999999996,0.07758899999999999,-0.07125999999999999,0.2632,0.101145,-0.06519000000000008,-0.07068999999999998,0.006335,-0.014800000000000035,0.07069000000000003,-0.006335,0.01479999999999998,-0.04341999999999996,-0.346895,-0.08179000000000003,0.06364999999999998,-0.355285,-0.09428999999999998,-0.008469999999999978,-0.646365,-0.04854000000000003,0.06474999999999997,-0.714285,-0.02510000000000001
154,0.07948499999999992,0.7386874999999999,-0.04274499999999998,-0.13772500000000004,0.49088750000000003,-0.01237499999999997,-0.21723500000000007,0.2788875,0.029515000000000013,0.14492499999999997,0.4613575,0.04130499999999998,0.21372499999999994,0.2536575,0.04095500000000002,-0.22589500000000007,0.0837295,-0.06837500000000002,0.273485,0.10968750000000001,-0.076675,-0.07078500000000004,0.006264499999999999,-0.013734999999999997,0.07078499999999999,-0.006264500000000001,0.013734999999999997,-0.05151500000000009,-0.35009250000000003,-0.06771500000000003,0.07489499999999993,-0.3533425,-0.08720500000000003,-0.02073500000000006,-0.6523325,-0.026095000000000035,0.09858499999999992,-0.7245225,-0.04806499999999997
155,0.09287499999999993,0.7377345000000001,-0.04737999999999998,-0.12836500000000006,0.4947445,-0.01152999999999993,-0.21314500000000008,0.2834545,0.03506000000000009,0.15383499999999994,0.4603945,0.03576000000000007,0.22536499999999993,0.2544845,0.03294000000000008,-0.22357500000000008,0.0879845,-0.06062999999999996,0.2841849999999999,0.1166045,-0.09121999999999997,-0.07134500000000005,0.006436500000000001,-0.01193999999999995,0.07134499999999999,-0.0064364999999999995,0.011940000000000062,-0.059705000000000064,-0.3526555,-0.05391999999999997,0.08637499999999998,-0.3523755,-0.08117999999999992,-0.03355500000000006,-0.6533555,-0.0024999999999999467,0.12526499999999996,-0.7326455,-0.06345999999999996
156,0.104715,0.736694,-0.052425000000000055,-0.12074500000000005,0.49768399999999996,-0.010335000000000094,-0.20945500000000006,0.286344,0.041244999999999976,0.16105499999999995,0.459424,0.029304999999999914,0.23397499999999993,0.253514,0.02770499999999998,-0.224005,0.089144,-0.048315,0.2913549999999999,0.119824,-0.10214500000000004,-0.07181500000000002,0.006768,-0.01020500000000002,0.07181499999999996,-0.0067680000000000014,0.010204999999999909,-0.06814500000000001,-0.353626,-0.04331499999999999,0.09656500000000001,-0.351786,-0.07864500000000008,-0.045945000000000014,-0.6543260000000001,0.018845,0.14359499999999992,-0.738166,-0.07602500000000001
157,0.11554500000000001,0.734081,-0.05752499999999994,-0.11249500000000001,0.5004109999999999,-0.010524999999999896,-0.20626500000000003,0.288211,0.047595000000000054,0.16723500000000002,0.457561,0.02257500000000001,0.24077499999999996,0.252411,0.0237750000000001,-0.22591500000000003,0.08857100000000001,-0.035374999999999934,0.29522499999999996,0.11873100000000002,-0.10900499999999991,-0.07215500000000002,0.007125999999999999,-0.008664999999999923,0.07215499999999997,-0.0071259999999999995,0.008665000000000034,-0.07647500000000002,-0.354729,-0.03314499999999998,0.10450499999999996,-0.349159,-0.07751499999999989,-0.059535000000000005,-0.655429,0.039265000000000105,0.151455,-0.740239,-0.0715349999999999
158,0.12448000000000004,0.7311145,-0.061860000000000026,-0.10547999999999996,0.5022645,-0.010300000000000087,-0.20301999999999998,0.2883245,0.05459999999999998,0.17300000000000004,0.45533450000000003,0.017349999999999977,0.24665000000000004,0.2513345,0.02008999999999994,-0.23018999999999995,0.0874945,-0.02245000000000008,0.2940900000000001,0.11765450000000001,-0.11123000000000005,-0.07230999999999999,0.007390500000000001,-0.007589999999999986,0.07230999999999999,-0.0073904999999999995,0.007589999999999986,-0.08423999999999998,-0.3558055,-0.02400000000000002,0.10560999999999998,-0.3459355,-0.07483000000000006,-0.07105999999999996,-0.6546555000000001,0.056339999999999946,0.15561999999999998,-0.7421155,-0.06785000000000008
159,0.12994499999999998,0.7286495,-0.065025,-0.10019500000000003,0.5035395,-0.010175000000000045,-0.20021500000000003,0.2875295,0.06115499999999996,0.17778499999999997,0.4531495,0.01513500000000001,0.24514499999999995,0.24966950000000002,0.024904999999999955,-0.23486500000000005,0.08620950000000001,-0.014085000000000014,0.285805,0.11636950000000001,-0.105935,-0.07219500000000001,0.0078025,-0.007264999999999966,0.07219500000000001,-0.0078025,0.007264999999999966,-0.09229500000000002,-0.3563905,-0.01709499999999997,0.10208499999999998,-0.3466205,-0.06978499999999999,-0.07949500000000004,-0.6556505,0.06959499999999996,0.14612499999999995,-0.7428505000000001,-0.05604500000000001
160,0.13469999999999993,0.726249,-0.068295,-0.09548000000000001,0.5044390000000001,-0.010284999999999989,-0.19708000000000003,0.286229,0.06691500000000006,0.18199999999999994,0.450959,0.013604999999999978,0.24302999999999997,0.247039,0.029665000000000052,-0.23801000000000005,0.08473900000000001,-0.0063349999999999795,0.27801,0.11489900000000002,-0.10194499999999995,-0.07199,0.008282999999999999,-0.007205000000000017,0.07199,-0.008283,0.007205000000000017,-0.10124000000000005,-0.35635100000000003,-0.010904999999999943,0.09845999999999999,-0.347441,-0.06447499999999995,-0.08779000000000003,-0.6566909999999999,0.08205499999999999,0.13668000000000002,-0.7437809999999999,-0.04386499999999993
161,0.1373549999999999,0.7243350000000001,-0.07096499999999994,-0.09167500000000006,0.504885,-0.011044999999999972,-0.19330500000000006,0.28476500000000005,0.06931500000000002,0.185145,0.44893500000000003,0.013805000000000067,0.23807499999999993,0.243905,0.035295000000000076,-0.23743500000000006,0.08183499999999999,-0.0008949999999999791,0.2698649999999999,0.106215,-0.09764499999999998,-0.071635,0.008764000000000001,-0.007654999999999967,0.071635,-0.008764000000000001,0.007655000000000078,-0.10840500000000003,-0.35572499999999996,-0.005794999999999995,0.09563499999999991,-0.34835499999999997,-0.06036499999999989,-0.09601500000000007,-0.657405,0.0921050000000001,0.128085,-0.7452949999999999,-0.03335499999999991
162,0.13953500000000008,0.72273,-0.07372000000000001,-0.08974499999999996,0.505,-0.011140000000000039,-0.18995499999999993,0.28350000000000003,0.07038999999999995,0.1878550000000001,0.44725,0.01415999999999995,0.23294500000000007,0.24082000000000003,0.04032999999999998,-0.2357749999999999,0.07908000000000001,0.008260000000000045,0.26234500000000005,0.09606999999999999,-0.09224999999999994,-0.07140499999999994,0.009042000000000001,-0.00812999999999997,0.07140500000000005,-0.009042,0.00812999999999997,-0.11156499999999991,-0.355,-0.0010999999999999899,0.09348500000000004,-0.3497,-0.05649000000000004,-0.1025649999999999,-0.65813,0.10072000000000003,0.12012500000000004,-0.7465900000000001,-0.02436000000000005
163,0.142575,0.7212810000000001,-0.07559500000000008,-0.08618500000000007,0.506761,-0.012135000000000007,-0.18989500000000004,0.288221,0.07741500000000001,0.19278499999999998,0.44329100000000005,0.014355000000000007,0.22691499999999998,0.235171,0.05374499999999993,-0.244025,0.081341,0.045134999999999925,0.279655,0.100441,-0.110035,-0.070515,0.009832999999999998,-0.009454999999999991,0.070515,-0.009833,0.009454999999999991,-0.114485,-0.355029,0.003854999999999942,0.09176499999999999,-0.35149899999999995,-0.052425000000000055,-0.10883500000000002,-0.6603789999999999,0.11017500000000002,0.11140499999999998,-0.748769,-0.011045000000000083
164,0.14322499999999994,0.7202595,-0.0775849999999999,-0.084515,0.5054895,-0.013644999999999907,-0.18585500000000005,0.2871395,0.07549500000000009,0.19218499999999994,0.4416295,0.014935000000000032,0.22296499999999997,0.2334095,0.05638500000000002,-0.23570500000000005,0.07972950000000001,0.038775000000000004,0.271115,0.08645950000000001,-0.09784499999999996,-0.07018500000000005,0.009965499999999999,-0.010604999999999976,0.07018499999999994,-0.009965499999999999,0.010605000000000087,-0.11667500000000008,-0.3542805,0.005635000000000057,0.09006499999999995,-0.3519605,-0.04920499999999994,-0.11328500000000008,-0.6604304999999999,0.11507500000000004,0.10635499999999998,-0.7494004999999999,-0.007574999999999998
