sb224sc-HT22-VT27/4dt907/src/ml-research/a11/datafiles/kinect_good_preprocessed_not_cut_A11_mediapipe/A28_kinect_mirrored.csv
FrameNo,nose_3d_x,nose_3d_y,nose_3d_z,left_shoulder_3d_x,left_shoulder_3d_y,left_shoulder_3d_z,left_elbow_3d_x,left_elbow_3d_y,left_elbow_3d_z,right_shoulder_3d_x,right_shoulder_3d_y,right_shoulder_3d_z,right_elbow_3d_x,right_elbow_3d_y,right_elbow_3d_z,left_wrist_3d_x,left_wrist_3d_y,left_wrist_3d_z,right_wrist_3d_x,right_wrist_3d_y,right_wrist_3d_z,left_hip_3d_x,left_hip_3d_y,left_hip_3d_z,right_hip_3d_x,right_hip_3d_y,right_hip_3d_z,left_knee_3d_x,left_knee_3d_y,left_knee_3d_z,right_knee_3d_x,right_knee_3d_y,right_knee_3d_z,left_ankle_3d_x,left_ankle_3d_y,left_ankle_3d_z,right_ankle_3d_x,right_ankle_3d_y,right_ankle_3d_z
0,0.9866305,0.7618284999999999,0.0617625,0.8387025,0.4633385,0.0717275,0.8144025,0.2165485,0.0634465,1.1562225,0.4670385,0.0661235,1.1758924999999998,0.2145285,0.0677345,0.8009525,0.0057825,-0.0243125,1.1953325,0.0122655,-0.0048204999999999,0.9266985000000001,-0.0020664999999999,-0.0004875,1.0733015,0.0020665,0.0004875,0.8860425,-0.4108615,0.0043985,1.1221725,-0.3837515,-0.0152385,0.8822825,-0.7392015000000001,-0.0301274999999999,1.1243425,-0.7405815,-0.0209224999999999
1,0.9862920000000001,0.7616715,0.061519,0.8384770000000001,0.4632515,0.071521,0.8140470000000001,0.2168815,0.0633389999999999,1.1563169999999998,0.4671715,0.066941,1.175967,0.2143415,0.067551,0.798907,0.0183355,-0.021298,1.200547,-0.0115544999999999,-0.018751,0.926744,-0.0020715,-0.000369,1.073256,0.0020715,0.0003689999999999,0.8862369999999999,-0.4107584999999999,0.0046689999999999,1.121957,-0.3805385,-0.015064,0.881707,-0.7382785000000001,-0.030632,1.124837,-0.7408385000000001,-0.02137
2,0.9860955,0.7617254999999999,0.061449,0.8381784999999999,0.4632955,0.071588,0.8136285,0.2171555,0.062702,1.1563984999999999,0.4672355,0.0667059999999999,1.1759585,0.2143355,0.067253,0.7983985,0.0181335,-0.020677,1.1933785,0.0125105,-0.007278,0.9267255000000001,-0.0021065,-0.000352,1.0732745,0.0021065,0.0003519999999999,0.8861985,-0.4106345,0.0047689999999999,1.1220385,-0.3811144999999999,-0.014877,0.8813185,-0.7386845000000001,-0.032041,1.1256585000000001,-0.7412845,-0.022199
3,0.985981,0.7616565000000001,0.0614229999999999,0.837988,0.4630365,0.071909,0.813768,0.2171565,0.0622139999999999,1.156418,0.4672165,0.06662,1.175848,0.2143864999999999,0.067018,0.7984180000000001,0.0180375,-0.020859,1.192928,0.0127105,-0.008046,0.926734,-0.0021425,-0.000329,1.073266,0.0021425,0.0003289999999999,0.886158,-0.4110835,0.0049439999999999,1.122058,-0.3813034999999999,-0.014849,0.881068,-0.7386035,-0.031721,1.125228,-0.7403035,-0.020875
4,0.9857470000000002,0.7617805,0.061571,0.838294,0.4631504999999999,0.071804,0.815974,0.2176905,0.052843,1.156564,0.4675705,0.068141,1.176464,0.2151005,0.064333,0.800134,0.0173545,-0.026823,1.196364,0.0174095,-0.0210899999999999,0.92673,-0.0022145,-0.0001689999999999,1.07327,0.0022145,0.000169,0.886104,-0.4115295,0.005127,1.121944,-0.3774995,-0.0156129999999999,0.882014,-0.7396295,-0.0307029999999999,1.125304,-0.7402395,-0.0210279999999999
5,0.985752,0.76172,0.0617459999999999,0.8384380000000001,0.46309,0.071905,0.817328,0.21811,0.046824,1.156728,0.46745,0.068084,1.178488,0.21768,0.057648,0.801848,0.018637,-0.035338,1.200398,0.020642,-0.028915,0.926801,-0.002282,-5.6000000000000494e-05,1.073199,0.0022819999999999,5.6000000000000494e-05,0.885918,-0.41069,0.0051749999999999,1.122148,-0.37795,-0.015322,0.883698,-0.73956,-0.0271189999999999,1.125378,-0.74094,-0.0208879999999999
6,0.9863185,0.7623745000000001,0.062615,0.8396935,0.4633945,0.070668,0.8091135,0.2410344999999999,0.0065769999999999,1.1576335,0.4679844999999999,0.067189,1.1963134999999998,0.2500045,0.015074,0.7844135,0.0620235,-0.11502,1.2449035,0.0849435,-0.11869,0.9265105,-0.0023835,0.000691,1.0734895,0.0023834999999999,-0.0006909999999999,0.8868235,-0.4096555,0.005234,1.1230134999999999,-0.3761855,-0.014704,0.8846535,-0.7393354999999999,-0.027746,1.1258135,-0.7370755,-0.0209299999999999
7,0.986242,0.7609085,0.0657835,0.84267,0.4661585,0.0653565,0.78101,0.2888985,-0.0201104999999999,1.15398,0.4707385,0.0665495,1.22202,0.3008085,-0.0097914999999999,0.76101,0.1615984999999999,-0.1708545,1.2618800000000001,0.1744085,-0.1529744999999999,0.9262319999999999,-0.0020434999999999,-0.0002934999999999,1.073768,0.0020434999999999,0.0002935,0.88815,-0.4085415,0.0053435,1.12352,-0.3708815,-0.0136174999999999,0.88534,-0.7401314999999999,-0.0280814999999999,1.12694,-0.7362015,-0.0194314999999999
8,0.9864855000000001,0.759811,0.0670794999999999,0.8440145,0.468451,0.0631635,0.7710845,0.324421,-0.0380815,1.1531045,0.472241,0.0660605,1.2342145,0.337971,-0.0246335,0.7503245000000001,0.227911,-0.1999335,1.2758345,0.244841,-0.1778635,0.9260275,-0.0019,-0.0005595,1.0739725,0.0018999999999999,0.0005594999999999,0.8888545,-0.408259,0.0054054999999999,1.1238545,-0.369319,-0.0135285,0.8855745000000002,-0.741069,-0.0278155,1.1274545,-0.735249,-0.0185015
9,0.9867375,0.7584274999999999,0.0684435,0.8452835000000001,0.4707075,0.0610675,0.7609135000000001,0.3614275,-0.0557764999999999,1.1522935,0.4738475,0.0656395,1.2454635,0.3771875,-0.0383415,0.7401635000000001,0.3001275,-0.2265755,1.2888835,0.3200575,-0.2015455,0.9258345,-0.0017465,-0.0008084999999999,1.0741654999999999,0.0017465,0.0008085,0.8895135000000001,-0.4082725,0.0054455,1.1241635,-0.3688125,-0.0134984999999999,0.8862035,-0.7424125,-0.0274504999999999,1.1278035,-0.7357725,-0.0179075
10,0.9869635,0.7567564999999999,0.069734,0.8462565,0.4729765,0.059203,0.7509165000000001,0.4039365,-0.071834,1.1515265,0.4757564999999999,0.065198,1.2561665,0.4196865,-0.0502489999999999,0.7304065,0.3792465,-0.250694,1.3014865,0.3980265,-0.222954,0.9256475000000001,-0.0016415,-0.0010299999999999,1.0743524999999998,0.0016414999999999,0.0010299999999999,0.8901565,-0.4084735,0.005473,1.1244165,-0.3690635,-0.013371,0.8867965,-0.7432135,-0.0272919999999999,1.1281165,-0.7365335,-0.0174
11,0.9871635000000001,0.7547834999999999,0.070787,0.8470665,0.4752635,0.057587,0.7416665,0.4451535,-0.082452,1.1507265,0.4778535,0.064832,1.2633965,0.4603035,-0.057174,0.7230565000000001,0.4558635,-0.260382,1.3074965,0.4724534999999999,-0.2313819999999999,0.9255295,-0.0015524999999999,-0.00127,1.0744704999999999,0.0015525,0.00127,0.8907665,-0.4090065,0.005513,1.1246365,-0.3698365,-0.0131629999999999,0.8874165,-0.7444965,-0.0271019999999999,1.1284365,-0.7375565000000001,-0.0162949999999999
12,0.987428,0.752318,0.0710659999999999,0.848322,0.4770479999999999,0.056278,0.735582,0.487098,-0.0861,1.149922,0.480408,0.064647,1.267212,0.500038,-0.05953,0.7181919999999999,0.532618,-0.2603,1.310872,0.5499780000000001,-0.23167,0.9254020000000001,-0.00154,-0.001402,1.074598,0.0015399999999999,0.001402,0.8912720000000001,-0.410022,0.005777,1.1249019999999998,-0.370782,-0.012922,0.887672,-0.745922,-0.027027,1.128742,-0.7383419999999999,-0.01494
13,0.9876865,0.7497515,0.0710069999999999,0.8494605,0.4789015,0.055303,0.7320405,0.5276115,-0.085989,1.1495005,0.4830215,0.064549,1.2674705,0.5371515,-0.059589,0.7151405,0.6029114999999999,-0.260209,1.3111305,0.6211415,-0.231729,0.9252635,-0.0015474999999999,-0.0014429999999999,1.0747365,0.0015475,0.0014429999999999,0.8915605,-0.4111185,0.0058259999999999,1.1251605,-0.3722185,-0.012881,0.8879705,-0.7472885,-0.026821,1.1290205,-0.7396485,-0.013881
14,0.9879235,0.746966,0.0709964999999999,0.8505875,0.480546,0.0544105,0.7307675,0.570526,-0.0859294999999999,1.1490075,0.485636,0.0645425,1.2677075,0.576686,-0.0595995,0.7134375,0.675146,-0.2601394999999999,1.3113675,0.693536,-0.2317395,0.9251405,-0.001557,-0.0014375,1.0748595,0.0015569999999999,0.0014375,0.8917975,-0.412794,0.0058155,1.1253975,-0.373874,-0.0128915,0.8883275,-0.748624,-0.0263785,1.1293075,-0.7412340000000001,-0.0126285
15,0.98828,0.7435215000000001,0.0710165,0.85138,0.4830015,0.0540654999999999,0.73083,0.6082915,-0.0858955,1.14893,0.4882915,0.0640375,1.26798,0.6110215,-0.0595755,0.7137900000000001,0.7389315,-0.2583455,1.31164,0.7539115,-0.2316155,0.9250970000000001,-0.0015585,-0.0014715,1.074903,0.0015585,0.0014714999999999,0.89207,-0.4151885,0.0058394999999999,1.12544,-0.3770084999999999,-0.0128575,0.88848,-0.7515285,-0.0258705,1.12955,-0.7447485,-0.0121065
16,0.988774,0.740016,0.0705295,0.852185,0.485006,0.0537915,0.731205,0.636456,-0.0840865,1.148815,0.4911959999999999,0.0635324999999999,1.268395,0.634176,-0.0557384999999999,0.714665,0.785816,-0.2454965,1.311255,0.795486,-0.2203565,0.9251850000000001,-0.0016769999999999,-0.0015984999999999,1.0748149999999999,0.001677,0.0015984999999999,0.8923850000000001,-0.418064,0.0059484999999999,1.1253549999999999,-0.380464,-0.0127305,0.888315,-0.754474,-0.0255165,1.129615,-0.748594,-0.0119865
17,0.9894600000000001,0.7366820000000001,0.0693265,0.8528200000000001,0.4863319999999999,0.0537015,0.73197,0.6580020000000001,-0.0766785,1.1485400000000001,0.4943319999999999,0.0630365,1.26679,0.6560520000000001,-0.0483105,0.71601,0.8225720000000001,-0.2248285,1.30708,0.830302,-0.2013484999999999,0.925304,-0.001794,-0.0017194999999999,1.074696,0.001794,0.0017195,0.89275,-0.420478,0.0061575,1.12533,-0.384218,-0.0124724999999999,0.88811,-0.757448,-0.0251894999999999,1.12994,-0.752778,-0.0116835
18,0.990242,0.733596,0.0676145,0.853159,0.487586,0.0539355,0.735449,0.6796960000000001,-0.0675545,1.148229,0.497686,0.0628465,1.262709,0.677026,-0.0413174999999999,0.718499,0.854676,-0.1978444999999999,1.300489,0.860326,-0.1785445,0.925423,-0.0019319999999999,-0.0017724999999999,1.0745770000000001,0.0019319999999999,0.0017724999999999,0.893149,-0.422834,0.0064375,1.125299,-0.387944,-0.0122564999999999,0.888129,-0.760394,-0.0242015,1.130349,-0.756504,-0.0111445
19,0.9910555,0.730819,0.065556,0.8535505000000001,0.488839,0.054394,0.7391805,0.693539,-0.056006,1.1478405,0.500769,0.062844,1.2570105,0.694419,-0.034045,0.7224904999999999,0.879879,-0.170286,1.2943305,0.886449,-0.157716,0.9255645000000001,-0.002019,-0.0017059999999999,1.0744354999999999,0.002019,0.0017059999999999,0.8934305,-0.425041,0.0066889999999999,1.1252805,-0.391811,-0.0118419999999999,0.8885005,-0.7638510000000001,-0.023046,1.1308105,-0.760881,-0.010921
20,0.9918750000000001,0.7282415,0.063539,0.853966,0.4900414999999999,0.055019,0.7428160000000001,0.7063315,-0.04484,1.147446,0.5035814999999999,0.062963,1.251986,0.7100915,-0.027434,0.7260759999999999,0.9027215,-0.14691,1.288656,0.9100015,-0.13897,0.925727,-0.0020545,-0.001597,1.074273,0.0020545,0.001597,0.893676,-0.4271385,0.007067,1.125246,-0.3955285,-0.011352,0.8886360000000001,-0.7667285,-0.0225539999999999,1.131296,-0.7652885,-0.010678
21,0.9927010000000001,0.726085,0.0614175,0.8543540000000001,0.491745,0.0556065,0.746604,0.715495,-0.0333025,1.146954,0.5058849999999999,0.0631005,1.247684,0.724505,-0.0207335,0.729204,0.921155,-0.1241144999999999,1.282954,0.928795,-0.1187145,0.92591,-0.0019969999999999,-0.0015184999999999,1.07409,0.0019969999999999,0.0015184999999999,0.893864,-0.428745,0.0072494999999999,1.125184,-0.398785,-0.0110565,0.888734,-0.769015,-0.0215185,1.131754,-0.7693350000000001,-0.0104954999999999
22,0.9935265000000001,0.7239525,0.05936,0.8547405000000001,0.4933225,0.056184,0.7502305,0.7236225000000001,-0.0213529999999999,1.1464805,0.5077225,0.063247,1.2436505,0.7372725,-0.014945,0.7319005000000001,0.9368525,-0.102746,1.2777405,0.9454325,-0.099666,0.9260845,-0.0019025,-0.0015009999999999,1.0739155,0.0019024999999999,0.001501,0.8940405,-0.4304874999999999,0.007385,1.1251205,-0.4020674999999999,-0.0108079999999999,0.8894905,-0.7725275,-0.0210809999999999,1.1322305,-0.7727575,-0.0100499999999999
23,0.9943990000000001,0.7219685,0.057505,0.855236,0.4948985,0.0566959999999999,0.753676,0.7267385,-0.010214,1.145946,0.5095885,0.063404,1.241186,0.7442785,-0.0093,0.7337659999999999,0.9455285,-0.086802,1.2742259999999999,0.9530385,-0.083542,0.926247,-0.0018024999999999,-0.001597,1.073753,0.0018025,0.001597,0.894276,-0.4321015,0.007486,1.125106,-0.4052715,-0.010562,0.890166,-0.7758615,-0.020608,1.132696,-0.7765515000000001,-0.010157
24,0.9951295,0.7211654999999999,0.0563105,0.8557075000000001,0.4948055,0.0569454999999999,0.7549575,0.7294455,-0.0039375,1.1451175,0.5110355,0.0637795,1.2404275,0.7498655,-0.0053935,0.7346775,0.9522155,-0.0775655,1.2719775,0.9575555,-0.0729655,0.9263505,-0.0017375,-0.0017935,1.0736495,0.0017374999999999,0.0017934999999999,0.8945975,-0.4329245,0.0071944999999999,1.1252075,-0.4064945,-0.0106055,0.8903975,-0.7771245,-0.0203155,1.1332075,-0.7775645,-0.0100695
25,0.99574,0.720908,0.05544,0.85604,0.4948879999999999,0.057188,0.7555100000000001,0.731388,0.001098,1.1442999999999999,0.5117980000000001,0.064024,1.24026,0.754868,-0.0025629999999999,0.73536,0.954678,-0.069672,1.2701500000000001,0.961478,-0.064892,0.926399,-0.001712,-0.0020439999999999,1.073601,0.0017119999999999,0.002044,0.89483,-0.433302,0.006764,1.12527,-0.406932,-0.010872,0.89072,-0.7781819999999999,-0.0203389999999999,1.13352,-0.778262,-0.010138
26,0.9961445000000001,0.7209715,0.055096,0.8562434999999999,0.4949515,0.0573329999999999,0.7557735000000001,0.7335615,0.0026639999999999,1.1438635,0.5115715,0.064122,1.2402035,0.7547515,-0.001517,0.7357135,0.9545215,-0.066056,1.2690535,0.9622215,-0.0614339999999999,0.9264265,-0.0016974999999999,-0.0022949999999999,1.0735735,0.0016974999999999,0.0022949999999999,0.8949535,-0.4331985,0.006288,1.1252235,-0.4075485,-0.011337,0.8909135,-0.7794585,-0.0205,1.1337635,-0.7788985,-0.010741
27,0.9963500000000001,0.7207365,0.0547794999999999,0.856305,0.4952565,0.0571895,0.7559850000000001,0.7355965,0.0037605,1.143875,0.5109665,0.0639204999999999,1.240055,0.7546065000000001,-0.0014625,0.735955,0.9538465,-0.0642455,1.268185,0.9630465,-0.0603514999999999,0.9264630000000001,-0.0015685,-0.0023444999999999,1.073537,0.0015685,0.0023444999999999,0.8950250000000001,-0.4340035,0.0055064999999999,1.125145,-0.4096535,-0.0120075,0.891315,-0.7813235,-0.0206855,1.134095,-0.7808535,-0.0113425
28,0.996583,0.7201615,0.0544645,0.8565119999999999,0.4954415,0.0569725,0.756102,0.7344515,0.0037555,1.144112,0.5110515,0.0636635,1.239942,0.7546915000000001,-0.0014585,0.735402,0.9539315,-0.0642264999999999,1.2669920000000001,0.9631315,-0.0602985,0.92651,-0.0015155,-0.0023465,1.07349,0.0015155,0.0023465,0.895002,-0.4333085,0.0042535,1.124922,-0.4111085,-0.0134784999999999,0.891782,-0.7822085,-0.0210775,1.1343320000000001,-0.7820484999999999,-0.0120515
29,0.996843,0.7199895,0.053589,0.85668,0.4953795,0.056652,0.75526,0.7344395,0.003739,1.14399,0.5113995,0.063443,1.23986,0.7553895,-0.0014579999999999,0.7345999999999999,0.9546295,-0.064194,1.2659099999999999,0.9629295,-0.0602559999999999,0.926559,-0.0015255,-0.0023529999999999,1.073441,0.0015254999999999,0.002353,0.89481,-0.4325205,0.002323,1.12483,-0.4119305,-0.0154009999999999,0.89224,-0.7833905,-0.0219079999999999,1.13473,-0.7824205,-0.0133779999999999
30,0.9974440000000001,0.719968,0.0520715,0.857168,0.4953580000000001,0.0561535,0.754578,0.7320880000000001,0.0035625,1.144228,0.511678,0.0631145,1.2399580000000001,0.7559980000000001,-0.0018814999999999,0.733428,0.954928,-0.0643504999999999,1.265158,0.962328,-0.0604295,0.926596,-0.001541,-0.0025624999999999,1.073404,0.001541,0.0025625,0.894618,-0.432052,-0.0015894999999999,1.125298,-0.411782,-0.0189164999999999,0.8928580000000002,-0.783502,-0.0230994999999999,1.135438,-0.782632,-0.0156744999999999
31,0.9980755000000001,0.7182135,0.048483,0.8575925,0.4958634999999999,0.0548079999999999,0.7535625000000001,0.7293335,0.0025099999999999,1.1446525,0.5110935,0.0618009999999999,1.2388525,0.7526934999999999,-0.004538,0.7314425,0.9525635,-0.0657349999999999,1.2636125,0.9616835,-0.064305,0.9264114999999999,-0.0014435,-0.00279,1.0735885,0.0014435,0.00279,0.8921325,-0.4306465,-0.010298,1.1257025,-0.4112564999999999,-0.027759,0.8935525,-0.7819465000000001,-0.025562,1.1361525000000001,-0.7812765,-0.0199859999999999
32,0.99891,0.7162015,0.042957,0.857477,0.4941015,0.051952,0.751927,0.7269815000000001,-0.001117,1.144957,0.5098615000000001,0.058127,1.237857,0.7487415000000001,-0.0097459999999999,0.7285470000000001,0.9501815,-0.070849,1.261997,0.9607015,-0.073089,0.926235,-0.0012995,-0.0026629999999999,1.073765,0.0012994999999999,0.002663,0.888517,-0.4260785,-0.0214919999999999,1.126177,-0.4077985,-0.039962,0.894307,-0.7771985,-0.0288879999999999,1.136917,-0.7765285,-0.0255209999999999
33,0.9997635,0.7136285,0.0365854999999999,0.8575785,0.4931885,0.0482255,0.7504085,0.7230885,-0.0073735,1.1453685,0.5087985,0.0532744999999999,1.2366385,0.7439685,-0.0176605,0.7258085000000001,0.9481685,-0.0792565,1.2601485000000001,0.9573385,-0.0853665,0.9259945,-0.0011785,-0.0024565,1.0740055,0.0011784999999999,0.0024564999999999,0.8837085000000001,-0.4194615,-0.0343625,1.1266685,-0.4022015,-0.0540555,0.8949785,-0.7701015,-0.0326885,1.1379285000000001,-0.7693215,-0.0316005
34,1.0005955,0.7111145,0.0293914999999999,0.8578055,0.4922745,0.0434924999999999,0.7484655,0.7214145000000001,-0.0153215,1.1457355,0.5072745000000001,0.0475334999999999,1.2354055,0.7393845,-0.0268455,0.7231455,0.9436845,-0.0891885,1.2579555,0.9543545,-0.1003385,0.9257305,-0.0010994999999999,-0.0021995,1.0742695,0.0010994999999999,0.0021994999999999,0.8782355,-0.4125555,-0.0477295,1.1271355,-0.3968155,-0.0690575,0.8954355,-0.7622955,-0.0369885,1.1387855,-0.7616054999999999,-0.0383095
35,1.0013895,0.7079920000000001,0.021436,0.8581555,0.4910619999999999,0.037987,0.7468155000000001,0.719462,-0.024376,1.1462655,0.505742,0.041042,1.2339255,0.734442,-0.0372229999999999,0.7203955,0.940212,-0.102432,1.2560155,0.951302,-0.1170919999999999,0.9252765000000001,-0.0008649999999999,-0.001843,1.0747235,0.0008649999999999,0.001843,0.8718355,-0.402808,-0.061917,1.1276455,-0.389258,-0.085432,0.8957155,-0.752118,-0.0414009999999999,1.1396855,-0.7505879999999999,-0.045193
36,1.0019595,0.7051465,0.011966,0.8581915,0.4888765,0.030503,0.7450615,0.7173865,-0.035329,1.1465515,0.5029965000000001,0.032818,1.2321415,0.7276065,-0.0496499999999999,0.7174815000000001,0.9337865,-0.1161799999999999,1.2539315,0.9441165,-0.1349699999999999,0.9248355,-0.0007955,-0.0016039999999999,1.0751645,0.0007955,0.001604,0.8637515,-0.3898035,-0.07762,1.1281415,-0.3778635,-0.1031999999999999,0.8956115,-0.7380234999999999,-0.0460429999999999,1.1403815,-0.7350935,-0.0524269999999999
37,1.002298,0.7023244999999999,0.0019585,0.8581110000000001,0.4867045,0.0225375,0.7435510000000001,0.7153244999999999,-0.0468525,1.146491,0.5007345,0.0244265,1.230091,0.7218144999999999,-0.0625564999999999,0.714971,0.9268045,-0.1306675,1.252191,0.9386445,-0.1529374999999999,0.924281,-0.0007204999999999,-0.0013234999999999,1.075719,0.0007205,0.0013235,0.855151,-0.3764855,-0.0934375,1.128471,-0.3657955,-0.1209974999999999,0.894891,-0.7220755000000001,-0.0507285,1.140681,-0.7191855,-0.0597055
38,1.0020095,0.6986,-0.0089454999999999,0.8577815,0.48402,0.0133885,0.7416515,0.71134,-0.0594605,1.1459115,0.4986299999999999,0.0151615,1.2281315,0.71441,-0.0762105,0.7121815,0.92132,-0.1466875,1.2504015,0.93386,-0.1722774999999999,0.9240505,-0.0005949999999999,-0.0010144999999999,1.0759495000000001,0.0005949999999999,0.0010145,0.8451115000000001,-0.35764,-0.1099275,1.1287315,-0.34935,-0.1396675,0.8928015,-0.70186,-0.0553725,1.1407215,-0.6992,-0.0670215
39,1.001573,0.6953545,-0.0195925,0.857369,0.4817245,0.0040315,0.7399290000000001,0.7071445,-0.0725335,1.145019,0.4965845,0.0054125,1.226399,0.7072545,-0.0895715,0.710199,0.9170545,-0.1632414999999999,1.248909,0.9298145,-0.1915415,0.924067,-0.0005345,-0.0006355,1.075933,0.0005345,0.0006355,0.8344389999999999,-0.3372955,-0.1251815,1.129139,-0.3325755,-0.1575514999999999,0.890569,-0.6793355,-0.0595464999999999,1.140209,-0.6777255,-0.0735245
40,1.001098,0.6949719999999999,-0.0334305,0.856768,0.479742,-0.0094605,0.738748,0.705722,-0.0895135,1.143948,0.496142,-0.0085005,1.225338,0.7051219999999999,-0.1060045,0.709158,0.916732,-0.1830045,1.247858,0.926862,-0.2125045,0.924086,-0.0006759999999999,-0.0002015,1.075914,0.0006759999999999,0.0002015,0.825688,-0.315148,-0.1411845,1.129778,-0.313598,-0.1749445,0.8877880000000001,-0.653768,-0.0668175,1.139658,-0.6541680000000001,-0.0828235
41,1.0006825,0.694545,-0.0471945,0.8561135000000001,0.4811149999999999,-0.0228355,0.7376235,0.702715,-0.1068205,1.1427435,0.494325,-0.0219895,1.2239335,0.703325,-0.1223004999999999,0.7078535,0.917065,-0.2023405,1.2462935,0.921955,-0.2307005,0.9240225,-0.000465,-0.0001954999999999,1.0759775,0.0004649999999999,0.0001954999999999,0.8152835,-0.294945,-0.1610305,1.1317335,-0.293795,-0.1962205,0.8858935000000001,-0.629765,-0.0735985,1.1392735,-0.631085,-0.0910504999999999
42,0.9997925000000001,0.69371,-0.0620475,0.8550485000000001,0.48092,-0.0383335,0.7361584999999999,0.70225,-0.1252625,1.1408585,0.4925,-0.0369455,1.2218885,0.70308,-0.1400225,0.7060985,0.9148,-0.2231125,1.2440585,0.92256,-0.2516325,0.9236275,-0.0003599999999999,-0.0002284999999999,1.0763725,0.0003599999999999,0.0002284999999999,0.8045885,-0.2717199999999999,-0.1810025,1.1332785,-0.27107,-0.2174625,0.8840785000000001,-0.6023,-0.0807155,1.1385185,-0.60419,-0.0991605
43,0.9986285,0.6913849999999999,-0.0769304999999999,0.8539235000000001,0.479585,-0.0540104999999999,0.7342735,0.7006650000000001,-0.1441734999999999,1.1385535,0.490625,-0.0520065,1.2196535,0.7001949999999999,-0.1578435,0.7041535000000001,0.914865,-0.2434135,1.2417235,0.923935,-0.2723534999999999,0.9233955000000001,-0.000215,-0.0003284999999999,1.0766045,0.0002149999999999,0.0003285,0.7938235,-0.247865,-0.2008935,1.1345335,-0.247645,-0.2383335,0.8818135,-0.5727249999999999,-0.0874305,1.1374835,-0.5748550000000001,-0.1069565
44,0.9975250000000001,0.689265,-0.093068,0.854232,0.477985,-0.071006,0.733062,0.700045,-0.164719,1.136862,0.488365,-0.068433,1.217992,0.697555,-0.175809,0.7030620000000001,0.913365,-0.262769,1.2402119999999999,0.920115,-0.2932289999999999,0.923238,-0.000335,-0.000382,1.076762,0.000335,0.000382,0.784282,-0.2194249999999999,-0.220999,1.136282,-0.219445,-0.259479,0.880842,-0.538305,-0.0959889999999999,1.136342,-0.5434950000000001,-0.115019
45,0.9970650000000001,0.68724,-0.1089889999999999,0.8552540000000001,0.47725,-0.087126,0.732634,0.69684,-0.184194,1.135914,0.48684,-0.084171,1.217064,0.69584,-0.193414,0.702574,0.91454,-0.2834939999999999,1.239404,0.91557,-0.313424,0.922926,-0.0002,-0.0003709999999999,1.077074,0.0002,0.0003709999999999,0.777174,-0.1921699999999999,-0.240044,1.138504,-0.19193,-0.279454,0.8805640000000001,-0.50631,-0.1045489999999999,1.135734,-0.51381,-0.1233939999999999
46,0.996492,0.68442,-0.124775,0.855981,0.47668,-0.103445,0.732181,0.6935100000000001,-0.203623,1.134591,0.48483,-0.100195,1.215751,0.69345,-0.211453,0.7019310000000001,0.91684,-0.304803,1.237751,0.91265,-0.334063,0.9226600000000001,-1.000000000001e-05,-0.0002349999999999,1.07734,1.000000000001e-05,0.000235,0.770111,-0.16309,-0.258713,1.141151,-0.1628299999999999,-0.297743,0.879291,-0.47441,-0.11405,1.135751,-0.48488,-0.131893
47,0.9957650000000001,0.6810350000000001,-0.1404159999999999,0.856414,0.475565,-0.120156,0.7317640000000001,0.6910449999999999,-0.223566,1.133234,0.4813449999999999,-0.116388,1.214344,0.690215,-0.230086,0.701044,0.917445,-0.328196,1.235894,0.909285,-0.357676,0.922602,0.0001849999999999,-0.0002049999999999,1.077398,-0.000185,0.0002049999999999,0.764764,-0.130435,-0.2764459999999999,1.143624,-0.130285,-0.314416,0.8780340000000001,-0.442535,-0.126266,1.135694,-0.451715,-0.142446
48,0.9950045,0.676565,-0.155961,0.8567355,0.4732949999999999,-0.136601,0.7310755,0.6876249999999999,-0.243031,1.1315655,0.4767749999999999,-0.132287,1.2133855,0.685665,-0.248621,0.7000455,0.912305,-0.350951,1.2345255,0.902725,-0.380991,0.9225885,0.0004449999999999,-0.000174,1.0774115,-0.000445,0.000174,0.7599454999999999,-0.097025,-0.293221,1.1459355,-0.095555,-0.329761,0.8760955,-0.410285,-0.139794,1.1368155,-0.4187350000000001,-0.153361
49,0.9943285,0.670515,-0.1660605,0.8568745,0.469607,-0.1479105,0.7304845,0.6816550000000001,-0.2567205,1.1300845,0.472079,-0.1427215,1.2123745,0.6800550000000001,-0.2633505,0.6993045,0.907035,-0.3680704999999999,1.2336745,0.894715,-0.3986205,0.9225635000000001,0.000495,-0.0004625,1.0774365,-0.0004949999999999,0.0004624999999999,0.7570445,-0.0609949999999999,-0.3039805,1.1485245,-0.0597649999999999,-0.3394304999999999,0.8752345,-0.3772649999999999,-0.1489905,1.1377045,-0.3844249999999999,-0.1588505
50,0.9936065,0.66521,-0.174508,0.8570115,0.465034,-0.157968,0.7298515,0.6748799999999999,-0.267848,1.1290615,0.469257,-0.151468,1.2117815,0.67485,-0.2759479999999999,0.6986915,0.90039,-0.382838,1.2329815,0.8862099999999999,-0.414788,0.9224725,0.00034,-0.0004969999999999,1.0775275,-0.00034,0.000497,0.7569315,-0.02638,-0.308418,1.1494315,-0.0262999999999999,-0.341698,0.8755315,-0.34701,-0.157848,1.1376715,-0.3528199999999999,-0.164138
51,0.9930285,0.6603749999999999,-0.181216,0.8571275,0.4619239999999999,-0.165416,0.7294875000000001,0.667215,-0.277476,1.1283075,0.466883,-0.157916,1.2115175,0.668145,-0.285476,0.6982475,0.894805,-0.395316,1.2326375,0.874735,-0.427456,0.9223255,-1.5000000000042755e-05,-0.000473,1.0776745,1.4999999999987246e-05,0.000473,0.7571475,0.0045149999999999,-0.310926,1.1499575,0.0035849999999999,-0.343306,0.8758575,-0.3214950000000001,-0.166136,1.1378375,-0.325445,-0.168656
52,0.9925120000000001,0.65746,-0.1872125,0.8575969999999999,0.459007,-0.1718724999999999,0.729287,0.66099,-0.2864425,1.127997,0.464147,-0.1633725,1.211957,0.66275,-0.2943125,0.6976370000000001,0.88588,-0.4082925,1.232347,0.86082,-0.4389825,0.9221050000000001,-0.0007399999999999,-0.0005065,1.0778949999999998,0.00074,0.0005065,0.757417,0.0296,-0.3131825,1.150617,0.0279,-0.3449824999999999,0.876297,-0.30027,-0.1727925,1.137907,-0.30232,-0.1702125
53,0.9925405,0.654695,-0.1915755,0.8585645,0.456906,-0.1766054999999999,0.7295745,0.652085,-0.2928155,1.1282145,0.462072,-0.1671755,1.2124845,0.657875,-0.3023754999999999,0.6968745000000001,0.876535,-0.4194954999999999,1.2326445,0.850155,-0.4481455,0.9215965,-0.001245,-0.0007954999999999,1.0784035,0.0012449999999999,0.0007955,0.7578345000000001,0.0454949999999999,-0.3150555,1.1517245,0.043265,-0.3465155,0.8772044999999999,-0.2870750000000001,-0.1779655,1.1385545,-0.2850750000000001,-0.1713255
54,0.9928870000000001,0.6521699999999999,-0.194809,0.860034,0.4536239999999999,-0.180589,0.729814,0.6505099999999999,-0.298839,1.128784,0.4613179999999999,-0.170229,1.213504,0.65425,-0.3082789999999999,0.696224,0.8710199999999999,-0.428489,1.233234,0.85053,-0.458219,0.9210119999999999,-0.00217,-0.0011989999999999,1.078988,0.00217,0.0011989999999999,0.759194,0.0578799999999999,-0.316919,1.153324,0.0548699999999999,-0.347489,0.879234,-0.27675,-0.1821789999999999,1.139574,-0.2719,-0.1723589999999999
55,0.9927875,0.6513899999999999,-0.198027,0.8612995,0.4492109999999999,-0.184557,0.7297195000000001,0.64743,-0.304897,1.1287395,0.4600409999999999,-0.173377,1.2140294999999999,0.6523599999999999,-0.313237,0.6951195,0.8642799999999999,-0.436527,1.2338895,0.84944,-0.467657,0.9204405,-0.00314,-0.001714,1.0795595,0.0031399999999999,0.001714,0.7606995,0.0660699999999999,-0.319467,1.1544094999999999,0.0624999999999999,-0.348727,0.8814295,-0.2702800000000001,-0.1867269999999999,1.1397795,-0.26292,-0.172717
56,0.992389,0.6513899999999999,-0.1993674999999999,0.8618890000000001,0.4492109999999999,-0.1859374999999999,0.729969,0.64743,-0.3079775,1.128339,0.4600409999999999,-0.1747175,1.214409,0.6523599999999999,-0.3150675,0.694349,0.86344,-0.4396375,1.234629,0.84924,-0.4702675,0.920011,-0.00314,-0.0022275,1.079989,0.0031399999999999,0.0022275,0.7616990000000001,0.0642599999999999,-0.3218375,1.154319,0.0617199999999999,-0.3488675,0.883129,-0.2702800000000001,-0.1881574999999999,1.1390289999999998,-0.2637400000000001,-0.1714375
57,0.9911695000000001,0.6513899999999999,-0.200132,0.8616305,0.4492109999999999,-0.186752,0.7294805,0.64743,-0.308782,1.1280005,0.4600409999999999,-0.175522,1.2142505,0.6523599999999999,-0.315882,0.6940805,0.86344,-0.440442,1.2349305,0.84924,-0.471102,0.9201465,-0.00314,-0.0021769999999999,1.0798535,0.0031399999999999,0.0021769999999999,0.7633805000000001,0.0625099999999999,-0.322972,1.1532705,0.0609499999999999,-0.3487519999999999,0.8838604999999999,-0.2702800000000001,-0.189012,1.1376905,-0.2637400000000001,-0.172962
58,0.9898765,0.6513899999999999,-0.200407,0.8611275,0.4492109999999999,-0.187057,0.7281275,0.64743,-0.309047,1.1272575,0.4600409999999999,-0.175827,1.2144475,0.6523599999999999,-0.316217,0.6938975000000001,0.86344,-0.440767,1.2353375,0.84924,-0.471447,0.9202975,-0.00314,-0.002201,1.0797025,0.0031399999999999,0.0022009999999999,0.7648375000000001,0.0622799999999999,-0.323667,1.1517075,0.0606399999999999,-0.348717,0.8841075,-0.2702800000000001,-0.189357,1.1352275,-0.2624700000000001,-0.170187
59,0.9885955,0.652405,-0.200277,0.8605475,0.450304,-0.186877,0.7278675,0.648245,-0.309037,1.1265875,0.460649,-0.175547,1.2150275,0.651885,-0.316247,0.6939775,0.861925,-0.440107,1.2358275,0.8477250000000001,-0.471477,0.9202975,-0.003765,-0.002201,1.0797025,0.003765,0.0022009999999999,0.7662075,0.061825,-0.322957,1.1502875,0.059555,-0.347567,0.8835375,-0.269305,-0.188107,1.1359375,-0.2627349999999999,-0.170827
60,0.987597,0.6544599999999999,-0.1985434999999999,0.860043,0.4507049999999999,-0.1859035,0.727643,0.6491199999999999,-0.3086035,1.126643,0.4624409999999999,-0.1737035,1.215873,0.65337,-0.3142035,0.694013,0.8654199999999999,-0.4391635,1.236783,0.84976,-0.4680935,0.920293,-0.00394,-0.0023055,1.079707,0.0039399999999999,0.0023055,0.767483,0.0510499999999999,-0.3222335,1.148253,0.0471799999999999,-0.3461635,0.883013,-0.27871,-0.1850435,1.135683,-0.27378,-0.1674735
61,0.986895,0.65747,-0.1957335,0.859583,0.452754,-0.1836235,0.727563,0.65386,-0.3075535,1.1266829999999999,0.464598,-0.1710035,1.216083,0.65558,-0.3096635,0.694113,0.86802,-0.4352434999999999,1.238233,0.8508199999999999,-0.4617834999999999,0.9203570000000001,-0.00379,-0.0025734999999999,1.079643,0.00379,0.0025734999999999,0.769383,0.03259,-0.3216535,1.145263,0.0271799999999999,-0.3444035,0.883533,-0.2939299999999999,-0.1797235,1.133833,-0.29301,-0.1634235
62,0.9863005000000001,0.661405,-0.1917375,0.8586155,0.4549709999999999,-0.1803475,0.7272955,0.659745,-0.3041375,1.1264355,0.467703,-0.1672275,1.2162455,0.658075,-0.3029675,0.6939655,0.872395,-0.4291975,1.2401955,0.8602749999999999,-0.4548675,0.9206425,-0.003895,-0.0026474999999999,1.0793575,0.0038949999999999,0.0026474999999999,0.7714455,0.0088249999999999,-0.3208574999999999,1.1419555,0.000815,-0.3425875,0.8838455000000001,-0.316475,-0.1732775,1.1323555,-0.319115,-0.1586975
63,0.9856245,0.6660999999999999,-0.186498,0.8579065000000001,0.4582499999999999,-0.175538,0.7269665000000001,0.6678799999999999,-0.297878,1.1260565,0.470255,-0.162088,1.2152065,0.6646099999999999,-0.295188,0.6944064999999999,0.8794599999999999,-0.4204279999999999,1.2414565,0.86847,-0.443828,0.9209465,-0.00346,-0.0028319999999999,1.0790535,0.0034599999999999,0.002832,0.7740165,-0.01935,-0.3186279999999999,1.1382364999999999,-0.0286,-0.340088,0.8834165,-0.34458,-0.169448,1.1314265,-0.34975,-0.156088
64,0.984798,0.671575,-0.180317,0.856791,0.4617,-0.170377,0.7268610000000001,0.675315,-0.2902369999999999,1.125351,0.474098,-0.156527,1.213991,0.671795,-0.286377,0.6954210000000001,0.890585,-0.409417,1.242281,0.8775550000000001,-0.430897,0.921409,-0.0027949999999999,-0.002623,1.078591,0.0027949999999999,0.002623,0.775281,-0.0462449999999999,-0.316537,1.134801,-0.0559449999999999,-0.337747,0.882051,-0.3714349999999999,-0.166507,1.1304809999999998,-0.378835,-0.153397
65,0.983681,0.677915,-0.172746,0.855411,0.4650849999999999,-0.163826,0.726851,0.683885,-0.2808859999999999,1.124581,0.4784049999999999,-0.149806,1.2124309999999998,0.680875,-0.275766,0.696771,0.901985,-0.3961559999999999,1.242611,0.887745,-0.4161559999999999,0.921925,-0.002415,-0.002294,1.0780750000000001,0.002415,0.0022939999999999,0.776671,-0.073705,-0.313046,1.131231,-0.083565,-0.334456,0.880241,-0.398615,-0.1628959999999999,1.129351,-0.407955,-0.149656
66,0.982766,0.686035,-0.160984,0.853969,0.4706349999999999,-0.153524,0.7281390000000001,0.690355,-0.266034,1.123999,0.4827549999999999,-0.139758,1.212039,0.6863349999999999,-0.259204,0.6992590000000001,0.910845,-0.376314,1.2436989999999999,0.897675,-0.394234,0.9226920000000001,-0.001695,-0.001883,1.077308,0.001695,0.001883,0.779479,-0.105115,-0.3052439999999999,1.127789,-0.114935,-0.326804,0.878649,-0.432695,-0.155984,1.128219,-0.443945,-0.142924
67,0.9819465,0.693735,-0.147922,0.8525535000000001,0.477835,-0.141482,0.7293935,0.698345,-0.249062,1.1238035,0.487665,-0.12816,1.2118235,0.6888449999999999,-0.241892,0.7021035,0.919875,-0.355252,1.2450035,0.905845,-0.371062,0.9236125,-0.000975,-0.001402,1.0763875,0.000975,0.001402,0.7831335,-0.1366049999999999,-0.295312,1.1246835,-0.146055,-0.316782,0.8782235,-0.468255,-0.147872,1.1272635,-0.480255,-0.137072
68,0.9812870000000001,0.70064,-0.134172,0.8512919999999999,0.47899,-0.129502,0.730782,0.70313,-0.231302,1.123952,0.49164,-0.116315,1.211112,0.69238,-0.223682,0.704852,0.92852,-0.333932,1.246622,0.91451,-0.346742,0.924608,-0.0007299999999999,-0.000959,1.075392,0.00073,0.0009589999999999,0.787792,-0.16612,-0.2839919999999999,1.1220620000000001,-0.17572,-0.304912,0.878042,-0.5029899999999999,-0.139002,1.127222,-0.5154799999999999,-0.131212
69,0.9808010000000001,0.70782,-0.1213434999999999,0.8504610000000001,0.48394,-0.1174955,0.732291,0.7077399999999999,-0.2142635,1.124281,0.49672,-0.1051655,1.211071,0.69556,-0.2065435,0.706591,0.93345,-0.3141535,1.247771,0.92264,-0.3259935,0.925414,-0.0007999999999999,-0.0012134999999999,1.074586,0.0007999999999999,0.0012134999999999,0.7926210000000001,-0.18868,-0.2717535,1.120381,-0.19831,-0.2913935,0.877781,-0.53277,-0.1298435,1.127381,-0.54425,-0.1244634999999999
70,0.9804885,0.71395,-0.108915,0.8498945,0.4866,-0.106308,0.7335545,0.71146,-0.197293,1.1246845,0.50061,-0.094571,1.2111345,0.70314,-0.189933,0.7082345,0.93818,-0.295783,1.2485945,0.93226,-0.306403,0.9263515,-0.0011299999999999,-0.001381,1.0736485,0.00113,0.001381,0.7975845,-0.20865,-0.259223,1.1192644999999999,-0.21809,-0.276953,0.8775345,-0.56153,-0.120053,1.1276345,-0.57079,-0.117323
71,0.9805740000000001,0.71974,-0.097326,0.849666,0.48922,-0.095774,0.7345560000000001,0.7159,-0.182554,1.125236,0.50305,-0.084735,1.212846,0.7083900000000001,-0.174444,0.709936,0.9407,-0.278324,1.249566,0.93445,-0.286374,0.9267920000000001,-0.0011299999999999,-0.001431,1.073208,0.00113,0.001431,0.803046,-0.2299,-0.246084,1.118506,-0.2372599999999999,-0.262214,0.877556,-0.58653,-0.109904,1.127526,-0.59368,-0.110104
72,0.9808185,0.724915,-0.086309,0.8495265,0.4901149999999999,-0.086068,0.7355665,0.7171649999999999,-0.168575,1.1255865,0.505995,-0.075452,1.2145865,0.709955,-0.159435,0.7113864999999999,0.942765,-0.261905,1.2505565,0.937625,-0.268785,0.9270715,-0.001305,-0.001401,1.0729285,0.001305,0.001401,0.8089065,-0.248685,-0.233185,1.1182265,-0.254885,-0.247235,0.8776865000000001,-0.6091150000000001,-0.100645,1.1276165,-0.614315,-0.101855
73,0.9814190000000002,0.7286725000000001,-0.070522,0.849703,0.4899925,-0.071505,0.736923,0.7188524999999999,-0.149689,1.1263130000000001,0.5076625,-0.061081,1.2161629999999999,0.7103824999999999,-0.140009,0.713063,0.9434225,-0.240649,1.251733,0.9403625,-0.245139,0.927206,-0.0013974999999999,-0.0014149999999999,1.072794,0.0013974999999999,0.0014149999999999,0.815993,-0.2699675,-0.213769,1.118303,-0.2741375,-0.225399,0.878213,-0.6340574999999999,-0.088269,1.128083,-0.6368974999999999,-0.0891189999999999
74,0.982658,0.7309265,-0.054673,0.850238,0.4926565,-0.056129,0.7384580000000001,0.7232665,-0.131153,1.1280379999999999,0.5104165,-0.046096,1.2185380000000001,0.7132565,-0.120863,0.715508,0.9439665,-0.220023,1.252608,0.9472965,-0.221603,0.927503,-0.0009195,-0.0017549999999999,1.072497,0.0009194999999999,0.0017549999999999,0.825848,-0.2928035,-0.1894229999999999,1.117778,-0.2952035,-0.1989729999999999,0.880418,-0.6600735,-0.074881,1.128588,-0.6610235,-0.0737269999999999
75,0.983698,0.7313434999999999,-0.0424175,0.850486,0.4940735,-0.0438295,0.739356,0.7255834999999999,-0.1171315,1.129636,0.5118935,-0.0337865,1.220116,0.7195834999999999,-0.1074115,0.7172960000000002,0.9439235,-0.2058515,1.253176,0.9476635,-0.2049015,0.9277670000000001,-0.0005104999999999,-0.0021405,1.072233,0.0005105,0.0021404999999999,0.834266,-0.3106465,-0.1687815,1.117266,-0.3114264999999999,-0.1763515,0.882706,-0.6785865,-0.0635585,1.128916,-0.6775465,-0.0607655
76,0.984786,0.73173,-0.030061,0.85063,0.49439,-0.032081,0.74019,0.7274200000000001,-0.104068,1.13113,0.51387,-0.021588,1.2217500000000001,0.72724,-0.0940179999999999,0.7192700000000001,0.94457,-0.191458,1.25369,0.94901,-0.187978,0.928004,-0.0003499999999999,-0.002556,1.071996,0.00035,0.0025559999999999,0.84248,-0.32776,-0.148328,1.11689,-0.32762,-0.153998,0.88493,-0.69636,-0.052242,1.12929,-0.6939799999999999,-0.047573
77,0.9859585000000001,0.7328185,-0.0184594999999999,0.8509375,0.4959985,-0.0208614999999999,0.7411375,0.7293885,-0.0917975,1.1328475,0.5160685,-0.0099924999999999,1.2231975,0.7350885,-0.0816675,0.7213175000000001,0.9419685,-0.1776474999999999,1.2542975,0.9502485,-0.1721475,0.9283865,-0.0001605,-0.0029774999999999,1.0716135,0.0001605,0.0029775,0.8505775000000001,-0.3433315,-0.1283175,1.1169175,-0.3422215,-0.1325174999999999,0.8871875000000001,-0.7128115,-0.0411585,1.1299875,-0.7093715,-0.0354594999999999
78,0.9873975000000002,0.733102,-0.006752,0.8512945000000001,0.495822,-0.009739,0.7420045,0.731882,-0.080023,1.1346945,0.517082,0.0014149999999999,1.2261745,0.741982,-0.070363,0.7233145000000001,0.941592,-0.164603,1.2555545000000001,0.950652,-0.1558729999999999,0.9284185000000001,-0.0001099999999999,-0.003164,1.0715815,0.00011,0.0031639999999999,0.8581145,-0.357248,-0.108923,1.1165045,-0.355138,-0.111693,0.8908145000000001,-0.726728,-0.027665,1.1304045,-0.723218,-0.022873
79,0.9887720000000001,0.733676,0.0044774999999999,0.8515429999999999,0.496166,0.0013154999999999,0.7425930000000001,0.732556,-0.0683135,1.136443,0.518086,0.0127834999999999,1.228913,0.743056,-0.0588335,0.725063,0.940426,-0.1518635,1.256603,0.950136,-0.1404335,0.92854,0.000114,-0.0035945,1.07146,-0.000114,0.0035945,0.865293,-0.370784,-0.0894135,1.116028,-0.368454,-0.0912735,0.893723,-0.740044,-0.0148425,1.130903,-0.736434,-0.0105235
80,0.9902075,0.7336795,0.0152275,0.8517935,0.4964895,0.0116195,0.7431435,0.7334495,-0.0571814999999999,1.1381835,0.5193595,0.0235405,1.2315535,0.7456395,-0.0485714999999999,0.7266435,0.9398995,-0.1400414999999999,1.2575335,0.9507995,-0.1261115,0.9284365,0.0002144999999999,-0.0041905,1.0715635,-0.0002145,0.0041905,0.8717035000000001,-0.3838305,-0.0705714999999999,1.1157165,-0.3801505,-0.0723115,0.8962035,-0.7519905,-0.0029034999999999,1.1314435,-0.7482505,0.0010625
81,0.9915665,0.7336265,0.0252899999999999,0.8519055,0.4968965,0.0214979999999999,0.7435555,0.7346364999999999,-0.046895,1.1398455,0.5204664999999999,0.0339459999999999,1.2337855,0.7482165,-0.038575,0.7279255,0.9379165,-0.129015,1.2578655,0.9518865,-0.112855,0.9282645,0.0002055,-0.004766,1.0717355,-0.0002055,0.0047659999999999,0.8778555,-0.3972735,-0.051435,1.1155905,-0.3908535,-0.054215,0.8984655,-0.7642135000000001,0.0082639999999999,1.1318855,-0.7594435,0.0116289999999999
82,0.992482,0.733761,0.0297979999999999,0.8517020000000001,0.499131,0.0262579999999999,0.7435620000000001,0.735791,-0.0421529999999999,1.141132,0.522281,0.0387719999999999,1.234572,0.752401,-0.033403,0.728702,0.936731,-0.123833,1.257812,0.954511,-0.106523,0.92799,0.0002529999999999,-0.005241,1.07201,-0.000253,0.0052409999999999,0.882802,-0.4079589999999999,-0.038863,1.115479,-0.3990889999999999,-0.042993,0.900182,-0.773549,0.0134059999999999,1.132292,-0.7676090000000001,0.0169159999999999
83,0.992911,0.73459,0.0336109999999999,0.851721,0.4982499999999999,0.0294889999999999,0.743401,0.73466,-0.038191,1.141601,0.52213,0.042246,1.234891,0.75178,-0.028951,0.7290110000000001,0.93614,-0.119631,1.2575509999999999,0.95267,-0.101171,0.92786,-0.0001609999999999,-0.005365,1.07214,0.000161,0.0053649999999999,0.884931,-0.41328,-0.031601,1.115871,-0.40426,-0.036951,0.900581,-0.77902,0.014837,1.132471,-0.77251,0.0187409999999999
84,0.9931815,0.7345125,0.037493,0.8516115,0.4974525,0.033002,0.7430315000000001,0.7332525,-0.0345069999999999,1.1418615,0.5219925,0.045972,1.2350615,0.7509125,-0.0250969999999999,0.7291715,0.9347825,-0.1160369999999999,1.2570815,0.9511425,-0.096047,0.9278565,-0.0006034999999999,-0.00544,1.0721435,0.0006034999999999,0.00544,0.8869615,-0.4182375,-0.023687,1.1161645,-0.4088475,-0.030347,0.9008815,-0.7841075000000001,0.01679,1.1325515,-0.7770075000000001,0.020505
85,0.9932375,0.7337935,0.0408679999999999,0.8514365,0.4970235,0.0366229999999999,0.7424165,0.7320935,-0.031051,1.1418865,0.5210035,0.0491679999999999,1.2350665,0.7496135,-0.022141,0.7292265,0.9331535,-0.113331,1.2563365,0.9499435,-0.091971,0.9277315,-0.0008304999999999,-0.005434,1.0722685,0.0008304999999999,0.0054339999999999,0.8887365,-0.4218465,-0.016241,1.1163025,-0.4120465,-0.024401,0.9010865,-0.7873065,0.0183979999999999,1.1324665,-0.7802065,0.0214739999999999
86,0.993297,0.7327400000000001,0.04425,0.851326,0.49681,0.040554,0.7419359999999999,0.73102,-0.027697,1.141846,0.51992,0.052526,1.2351359999999998,0.74816,-0.018497,0.7292460000000001,0.93147,-0.1108069999999999,1.255656,0.9488,-0.088347,0.9276409999999999,-0.001001,-0.00543,1.072359,0.001001,0.00543,0.890466,-0.42498,-0.0089629999999999,1.117165,-0.41379,-0.0185869999999999,0.901266,-0.79013,0.019858,1.132916,-0.78303,0.0224889999999999
87,0.9932555000000001,0.73174,0.0477224999999999,0.8511605000000001,0.4958,0.0442544999999999,0.7414405000000002,0.73021,-0.0242585,1.1417305,0.5189199999999999,0.0558955,1.2349904999999999,0.74718,-0.0151784999999999,0.7290305,0.93019,-0.1085385,1.2548705,0.94785,-0.0853985,0.9275365,-0.001195,-0.0054255,1.0724635,0.0011949999999999,0.0054255,0.8921205000000001,-0.42748,-0.0014455,1.1181805,-0.41459,-0.0127445,0.9013905,-0.79212,0.0213084999999999,1.1333405,-0.78454,0.0251295
88,0.992896,0.73061,0.0509209999999999,0.850649,0.4948599999999999,0.0476389999999999,0.7407890000000001,0.72952,-0.021239,1.141379,0.51802,0.0586309999999999,1.234399,0.74641,-0.012506,0.7284390000000001,0.92932,-0.106559,1.253549,0.94711,-0.082859,0.927538,-0.001474,-0.005428,1.072462,0.0014739999999999,0.005428,0.893459,-0.42947,0.0059439999999999,1.119279,-0.41425,-0.007352,0.901169,-0.7936,0.0220849999999999,1.133449,-0.78547,0.0273859999999999
89,0.992469,0.7294785,0.0536745,0.850122,0.4940984999999999,0.0505675,0.7402420000000001,0.7289385,-0.0185534999999999,1.140962,0.5173085000000001,0.0605885,1.233732,0.7460385,-0.0102654999999999,0.727932,0.9286185,-0.1047934999999999,1.251992,0.9468785,-0.0808835,0.927536,-0.0017664999999999,-0.0054154999999999,1.072464,0.0017665,0.0054155,0.894512,-0.4309915,0.0124205,1.120292,-0.4134915,-0.0024794999999999,0.900912,-0.7946015,0.0223205,1.133422,-0.7859514999999999,0.0291755
90,0.9918645,0.7287455,0.055823,0.8495685,0.4934055,0.052948,0.7397085,0.7285355,-0.0163419999999999,1.1404284999999998,0.5167055,0.061553,1.2329585,0.7461055000000001,-0.0087769999999999,0.7273585,0.9282355,-0.103466,1.2502785,0.9468455,-0.079646,0.9275105,-0.0019814999999999,-0.0054029999999999,1.0724895,0.0019815,0.005403,0.8949185,-0.4318745,0.01698,1.1211185,-0.4122645,0.001155,0.9005285,-0.7950044999999999,0.022197,1.1331285,-0.7859745,0.030601
91,0.991231,0.728107,0.0577814999999999,0.849033,0.492807,0.0550064999999999,0.7391730000000001,0.728367,-0.0144775,1.139943,0.5161669999999999,0.0624804999999999,1.232153,0.746177,-0.0076935,0.726783,0.927977,-0.1023285,1.248443,0.947007,-0.0788785,0.927482,-0.0022129999999999,-0.0052355,1.072518,0.0022129999999999,0.0052354999999999,0.895153,-0.432563,0.0208074999999999,1.121833,-0.410803,0.0038524999999999,0.900143,-0.795203,0.0215314999999999,1.132703,-0.785883,0.0312014999999999
92,0.9905180000000001,0.727525,0.0592384999999999,0.84844,0.4923849999999999,0.0566094999999999,0.73857,0.728395,-0.0129775,1.13946,0.5157349999999999,0.0632954999999999,1.23132,0.7463449999999999,-0.0070615,0.7261700000000001,0.927925,-0.1012555,1.24651,0.947475,-0.0784155,0.927449,-0.0024119999999999,-0.0049475,1.072551,0.002412,0.0049474999999999,0.89518,-0.433125,0.0236144999999999,1.12236,-0.409695,0.0059734999999999,0.89972,-0.795115,0.0207234999999999,1.1322,-0.785505,0.0315444999999999
93,0.989833,0.726841,0.060235,0.847928,0.4920909999999999,0.0576639999999999,0.7381580000000001,0.728641,-0.011799,1.1388880000000001,0.515001,0.063674,1.230518,0.746181,-0.006669,0.725848,0.928161,-0.09985,1.244738,0.948071,-0.0781,0.92741,-0.0025299999999999,-0.004707,1.07259,0.0025299999999999,0.004707,0.895268,-0.433329,0.025326,1.122768,-0.408939,0.007258,0.899258,-0.794649,0.0190349999999999,1.131848,-0.7848890000000001,0.031195
94,0.9892880000000001,0.7260964999999999,0.061022,0.847564,0.4916965,0.058406,0.7380540000000001,0.7288265,-0.0104189999999999,1.138374,0.5142465,0.064004,1.229864,0.7460465000000001,-0.00615,0.725824,0.9283465,-0.098229,1.243264,0.9486665,-0.0776989999999999,0.9273359999999999,-0.0026415,-0.004457,1.072664,0.0026414999999999,0.004457,0.895244,-0.4335335,0.026624,1.123094,-0.4082135,0.008162,0.898774,-0.7943035,0.0172929999999999,1.131504,-0.7843135000000001,0.030444
95,0.9888480000000001,0.725357,0.0616599999999999,0.847444,0.491257,0.0589179999999999,0.7382340000000001,0.728927,-0.008922,1.1379839999999999,0.513427,0.064368,1.2292939999999999,0.745917,-0.005604,0.726044,0.928627,-0.096217,1.241974,0.949347,-0.077067,0.927239,-0.002745,-0.00431,1.072761,0.0027449999999999,0.0043099999999999,0.895234,-0.433933,0.0278019999999999,1.123404,-0.407663,0.0089979999999999,0.898354,-0.793943,0.0154889999999999,1.1312039999999999,-0.783953,0.0295119999999999
96,0.988587,0.7248000000000001,0.0621045,0.847535,0.4908999999999999,0.0593415,0.7387349999999999,0.7292400000000001,-0.0076065,1.1377449999999998,0.51275,0.0645795,1.228985,0.7458100000000001,-0.0046404999999999,0.726575,0.92894,-0.0939665,1.241055,0.94984,-0.0761765,0.927137,-0.002875,-0.0041834999999999,1.072863,0.002875,0.0041835,0.895265,-0.43436,0.0283335,1.123655,-0.40725,0.0091345,0.8981250000000001,-0.7935700000000001,0.0136305,1.131075,-0.7839700000000001,0.0271765
97,0.9884815,0.7244715,0.0622285,0.8478415,0.4907314999999999,0.0596785,0.7395315,0.7289015000000001,-0.0065454999999999,1.1376415,0.5124715000000001,0.0647975,1.2289014999999999,0.7457315,-0.0038864999999999,0.7273615,0.9294915,-0.0918255,1.2406415,0.9502715,-0.0755555,0.9270275,-0.0029484999999999,-0.0041384999999999,1.0729725,0.0029484999999999,0.0041385,0.8952015000000001,-0.4348585,0.0279785,1.1237515,-0.4069585,0.0087425,0.8980315000000001,-0.7932984999999999,0.0119595,1.1309515,-0.7839085,0.0256235
98,0.9883965,0.724194,0.062179,0.8482375,0.4905639999999999,0.060148,0.7403475000000002,0.7291639999999999,-0.0056959999999999,1.1376075,0.5121640000000001,0.065419,1.2288475,0.745674,-0.0033109999999999,0.7281475,0.930204,-0.089782,1.2404775,0.950604,-0.074962,0.9269495,-0.002976,-0.0040569999999999,1.0730505,0.0029759999999999,0.004057,0.8951575,-0.435306,0.027507,1.1237875,-0.406426,0.008299,0.8979075,-0.793066,0.010439,1.1310975,-0.783766,0.024322
99,0.9883805,0.7239225,0.0619105,0.8486205,0.4902825,0.0603794999999999,0.7412305,0.7295225,-0.0049804999999999,1.1377605,0.5118425,0.0660355,1.2288605,0.7456325,-0.0028905,0.7289105,0.9309425,-0.0878995,1.2404605,0.9507425,-0.0745595,0.9269505000000001,-0.0030004999999999,-0.0039325,1.0730495,0.0030005,0.0039324999999999,0.8951505,-0.4357275,0.0268785,1.1238905,-0.4059175,0.0077505,0.8978405,-0.7929475,0.0087264999999999,1.1311505,-0.7836875,0.0225114999999999
100,0.9882505,0.7236865,0.0613335,0.8487775,0.4901765,0.0605775,0.7417275,0.7294164999999999,-0.0034995,1.1378175,0.5115965,0.0662895,1.2288175,0.7455265,-0.0026704999999999,0.7290975,0.9311365,-0.0861754999999999,1.2404475,0.9506365,-0.0740655,0.9269545,-0.0030275,-0.0038284999999999,1.0730455,0.0030275,0.0038285,0.8951175,-0.4360934999999999,0.0262205,1.1239775,-0.4054235,0.0072115,0.8977675,-0.7929035,0.0070805,1.1312175,-0.7836935,0.0205775
101,0.9881415,0.723533,0.0600954999999999,0.8488045,0.4902229999999999,0.0604785,0.7418245,0.729393,-0.0020685,1.1378345,0.511533,0.0660205,1.2288245,0.745333,-0.0031134999999999,0.7291745000000001,0.931293,-0.0850885,1.2402745,0.950613,-0.0748585,0.9269255,-0.003051,-0.0037494999999999,1.0730745,0.0030509999999999,0.0037494999999999,0.8950945,-0.436307,0.0251954999999999,1.1240545,-0.404947,0.0066914999999999,0.8977645,-0.7929269999999999,0.0055954999999999,1.1314545,-0.783717,0.0188515
102,0.988115,0.723383,0.0589815,0.848877,0.4903929999999999,0.0602315,0.741967,0.728993,-0.0007484999999999,1.137897,0.511493,0.0655415,1.228927,0.744913,-0.0035484999999999,0.729287,0.931293,-0.0844454999999999,1.240097,0.950613,-0.0759755,0.926857,-0.003051,-0.0034404999999999,1.073143,0.0030509999999999,0.0034404999999999,0.8950870000000001,-0.436577,0.0240804999999999,1.124117,-0.404697,0.0062284999999999,0.897767,-0.7929269999999999,0.0045105,1.131657,-0.783717,0.0172625
103,0.988223,0.723252,0.0580865,0.849021,0.4904019999999999,0.0599335,0.742181,0.7276020000000001,0.0004345,1.138031,0.511352,0.0648385,1.2291509999999999,0.744352,-0.0043074999999999,0.729511,0.931302,-0.0832604999999999,1.240071,0.950622,-0.0768605,0.926777,-0.00306,-0.0031314999999999,1.073223,0.00306,0.0031315,0.895131,-0.436858,0.0231895,1.124281,-0.405218,0.0058075,0.898011,-0.7929179999999999,0.0036105,1.132041,-0.783948,0.0157965
104,0.98811,0.7231395,0.0575375,0.84878,0.4904495,0.0594014999999999,0.74063,0.7247795,0.0017374999999999,1.13841,0.5112695,0.0642675,1.22977,0.7416195,-0.0048895,0.729,0.9313495,-0.0821964999999999,1.2404600000000001,0.9497695,-0.0774265,0.926745,-0.0030794999999999,-0.0028585,1.073255,0.0030794999999999,0.0028585,0.8952700000000001,-0.4372005,0.0226284999999999,1.12478,-0.4059604999999999,0.0053145,0.89858,-0.7929904999999999,0.0028884999999999,1.13287,-0.7842905,0.0146864999999999
105,0.987928,0.723126,0.0569995,0.8485389999999999,0.4907259999999999,0.0594065,0.7377290000000001,0.720816,0.0030924999999999,1.139139,0.511216,0.0642305,1.231319,0.737106,-0.0049625,0.728029,0.931336,-0.0816235,1.241219,0.948246,-0.0780635,0.926717,-0.00309,-0.0028525,1.073283,0.0030899999999999,0.0028525,0.895639,-0.437284,0.0225835,1.125699,-0.406214,0.0052685,0.899509,-0.7929339999999999,0.0024524999999999,1.134009,-0.7846639999999999,0.0141164999999999
106,0.9871855,0.7232230000000001,0.055922,0.8477985,0.491353,0.05944,0.7329885,0.715813,0.004359,1.1399285,0.5110830000000001,0.064195,1.2337585,0.731723,-0.005071,0.7238485,0.925413,-0.0814449999999999,1.2416985,0.945493,-0.080155,0.9267315,-0.003131,-0.002853,1.0732685,0.003131,0.002853,0.8961485,-0.437427,0.021896,1.1270485,-0.405777,0.0052079999999999,0.9008484999999999,-0.792657,0.001682,1.1353685,-0.784847,0.0135349999999999
107,0.9863210000000001,0.723321,0.0543004999999999,0.8465860000000001,0.492241,0.0594935,0.7260960000000001,0.7089409999999999,0.0050855,1.141036,0.511081,0.0637264999999999,1.237976,0.7250909999999999,-0.0067834999999999,0.719676,0.918201,-0.0812514999999999,1.2422659999999999,0.938941,-0.0844615,0.926733,-0.0031909999999999,-0.0028535,1.073267,0.003191,0.0028534999999999,0.8969360000000001,-0.4374289999999999,0.0205865,1.128846,-0.404399,0.0051284999999999,0.902726,-0.792069,0.0008624999999999,1.137276,-0.785219,0.0126184999999999
108,0.985116,0.723862,0.0513569999999999,0.8442540000000001,0.493882,0.05968,0.716344,0.697862,0.0059249999999999,1.141454,0.510102,0.0616069999999999,1.244254,0.714812,-0.012143,0.713954,0.905992,-0.080595,1.242614,0.926662,-0.091555,0.926864,-0.003201,-0.002453,1.073136,0.003201,0.0024529999999999,0.898264,-0.436888,0.0183089999999999,1.131644,-0.403268,0.0049139999999999,0.9060940000000001,-0.790698,0.0003239999999999,1.140844,-0.7849079999999999,0.0120139999999999
109,0.9833805,0.7251755,0.047877,0.8415265000000001,0.4958155,0.060196,0.7041865,0.6821955,0.0083319999999999,1.1414065,0.5079655,0.058683,1.2496965,0.6968255,-0.0184439999999999,0.7066965000000001,0.8878455,-0.0801439999999999,1.2440265,0.9055255,-0.100754,0.9270065,-0.0033154999999999,-0.0020459999999999,1.0729935,0.0033154999999999,0.0020459999999999,0.9004765,-0.4350245,0.015799,1.1345365,-0.4023545,0.003737,0.9114565,-0.7880645000000001,0.00082,1.1463565,-0.7842245,0.012021
110,0.9815035,0.727456,0.0439655,0.8389615,0.497626,0.0611084999999999,0.6904715,0.6606759999999999,0.0120515,1.1422815,0.506146,0.0556145,1.2578315,0.670656,-0.0225425,0.6997015,0.862576,-0.0806775,1.2449715000000001,0.874386,-0.1127975,0.9273615,-0.003289,-0.0015435,1.0726385,0.003289,0.0015434999999999,0.9035715,-0.4329539999999999,0.0135974999999999,1.1358115,-0.4007739999999999,-0.0016644999999999,0.9193015,-0.7840440000000001,0.0022804999999999,1.1537015,-0.781224,0.0113964999999999
111,0.979954,0.7302625,0.0399965,0.837044,0.4995825,0.0623735,0.676474,0.6360224999999999,0.0167845,1.142383,0.5034725,0.0519045,1.267354,0.6399524999999999,-0.0256055,0.692204,0.8327825,-0.0818235,1.246904,0.8372625,-0.1270035,0.927694,-0.0032784999999999,-0.0011334999999999,1.072306,0.0032785,0.0011334999999999,0.907294,-0.4314375,0.0120904999999999,1.137084,-0.3993875,-0.0078244999999999,0.9285140000000001,-0.7798274999999999,0.0033314999999999,1.161764,-0.7780175,0.0099174999999999
112,0.9776875,0.7333985000000001,0.035361,0.8355625,0.5007185000000001,0.063891,0.6625525,0.6039685,0.0213389999999999,1.1430195,0.5012285,0.0485079999999999,1.2777425,0.6001585,-0.0248639999999999,0.6841425,0.7928985000000001,-0.084942,1.2492424999999998,0.7847185,-0.143172,0.9281025,-0.0033575,-0.0003589999999999,1.0718975,0.0033574999999999,0.0003589999999999,0.9158725,-0.4283915,0.0118589999999999,1.1342364999999999,-0.3959815,-0.018139,0.9395725,-0.7749415,0.0043699999999999,1.1635625,-0.7719815,0.002389
113,0.9761500000000001,0.736256,0.031159,0.835217,0.501136,0.065895,0.656407,0.571046,0.0268759999999999,1.142982,0.4980459999999999,0.0442819999999999,1.2860369999999999,0.558666,-0.021752,0.677737,0.748386,-0.089588,1.253047,0.724376,-0.158378,0.928267,-0.0032739999999999,0.0003289999999999,1.0717329999999998,0.0032739999999999,-0.0003289999999999,0.922957,-0.421694,0.012891,1.129656,-0.392224,-0.031398,0.951707,-0.7682439999999999,0.0059719999999999,1.1614209999999998,-0.765284,-0.008702
114,0.974082,0.7389505,0.026673,0.834972,0.5010104999999999,0.068109,0.653302,0.5366405,0.032746,1.142704,0.4945505,0.040274,1.291812,0.5164304999999999,-0.019719,0.671702,0.6982105,-0.0951989999999999,1.256182,0.6570805,-0.171309,0.928462,-0.0032924999999999,0.0010209999999999,1.0715379999999999,0.0032925,-0.0010209999999999,0.930582,-0.4151395,0.013465,1.119686,-0.3865395,-0.044309,0.964082,-0.7616895,0.0068489999999999,1.15426,-0.7587295000000001,-0.023179
115,0.9725405000000001,0.741367,0.0222794999999999,0.8356905,0.5000969999999999,0.0704945,0.6540205,0.497837,0.0390875,1.1424835,0.490637,0.0360785,1.2933905,0.472047,-0.0190535,0.6694105,0.6497069999999999,-0.1018734999999999,1.2592505,0.585637,-0.1714935,0.9284905,-0.003309,0.0015944999999999,1.0715095,0.0033089999999999,-0.0015944999999999,0.9377805,-0.409543,0.0126965,1.1086045,-0.380943,-0.0644334999999999,0.9756805000000001,-0.756093,0.0137955,1.1427065,-0.753133,-0.0408935
116,0.9711040000000001,0.7435735,0.0175044999999999,0.8372040000000001,0.4983235,0.0727024999999999,0.6568340000000001,0.4602635,0.0456924999999999,1.141897,0.4866335,0.0313974999999999,1.294394,0.4281535,-0.0165865,0.6678040000000001,0.5953835,-0.1090165,1.263344,0.5089135,-0.1672965,0.928534,-0.0032604999999999,0.0025064999999999,1.071466,0.0032604999999999,-0.0025065,0.9370240000000001,-0.4006665,0.0082334999999999,1.096277,-0.3755465,-0.0880265,0.9875140000000001,-0.7490065,0.0212534999999999,1.127008,-0.7438965,-0.0647065
117,0.9691845000000001,0.744799,0.0120289999999999,0.8397245,0.494519,0.0728419999999999,0.6646345,0.422669,0.051521,1.1425995,0.482649,0.027434,1.2884645,0.385649,-0.010845,0.6695045,0.535779,-0.114165,1.2668545,0.424759,-0.1573449999999999,0.9283145000000002,-0.003263,0.0033849999999999,1.0716855,0.003263,-0.0033849999999999,0.9358845000000001,-0.392831,0.0048349999999999,1.0839725,-0.370971,-0.1105049999999999,0.9996445,-0.7422110000000001,0.0297739999999999,1.1039855,-0.7280810000000001,-0.096455
118,0.9679955,0.7452745000000001,0.0069649999999999,0.8432455,0.4901445,0.073517,0.6745155,0.3889645,0.0597199999999999,1.1426105,0.4794845,0.0226149999999999,1.2783155,0.3485145,-0.0021049999999999,0.6744155000000001,0.4770645,-0.118695,1.2659255,0.3467045,-0.143665,0.9279555,-0.0031775,0.0040049999999999,1.0720445,0.0031775,-0.004005,0.9342155,-0.3847355,0.0041849999999999,1.0707525,-0.3679354999999999,-0.131115,1.0110754999999998,-0.7332855,0.038981,1.0727775,-0.7162255,-0.132015
119,0.9668565000000001,0.7445465,0.002205,0.8461565,0.4849365,0.072954,0.6829965,0.3581265,0.066784,1.1420065,0.4754265,0.018055,1.2646665000000001,0.3187665,0.008085,0.6794665,0.4236165,-0.1213349999999999,1.2623365,0.2764565,-0.132675,0.9276565,-0.0035555,0.005025,1.0723435000000001,0.0035555,-0.005025,0.9405965000000001,-0.3821735,0.007615,1.0580065,-0.3663335,-0.148415,1.0252664999999999,-0.7289435000000001,0.051156,1.0383365,-0.7033935,-0.167775
120,0.9650450000000002,0.7439265,-0.00364,0.8485950000000001,0.4797365,0.0712259999999999,0.691885,0.3314665,0.0744339999999999,1.142025,0.4726665,0.0130199999999999,1.248951,0.2918365,0.0174499999999999,0.6841350000000002,0.3705164999999999,-0.12306,1.257651,0.2098465,-0.12486,0.927125,-0.0038655,0.0058699999999999,1.072875,0.0038655,-0.00587,0.9460050000000001,-0.3799735,0.0069499999999999,1.046145,-0.3644435,-0.16451,1.038265,-0.7256735,0.0617499999999999,1.003655,-0.6918635,-0.20292
121,0.964405,0.7439265,-0.0075399999999999,0.851605,0.4773465,0.06993,0.7027950000000001,0.3143665,0.080712,1.1432689999999999,0.4718865,0.0085899999999999,1.236718,0.2772664999999999,0.02907,0.692205,0.3281365,-0.1231299999999999,1.253057,0.1620365,-0.11671,0.9268550000000001,-0.0038655,0.0068999999999999,1.073145,0.0038655,-0.0068999999999999,0.9468050000000001,-0.3746035,0.01092,1.037925,-0.3600335,-0.17654,1.0501349999999998,-0.7193835,0.076261,0.973595,-0.6789135,-0.2285799999999999
122,0.963135,0.7439265,-0.0110599999999999,0.854215,0.4773465,0.06839,0.716465,0.3010465,0.08794,1.143543,0.4718865,0.00399,1.227174,0.2732665,0.04166,0.699775,0.2909065,-0.1200199999999999,1.249077,0.1322265,-0.1031199999999999,0.926845,-0.0038655,0.00762,1.073155,0.0038655,-0.0076199999999999,0.949175,-0.3676635,0.01964,1.0320649999999998,-0.3536835,-0.1838099999999999,1.063005,-0.7129535,0.09478,0.950275,-0.6636335,-0.24635
123,0.96282,0.743773,-0.0138349999999999,0.85732,0.477193,0.067245,0.73556,0.288463,0.094915,1.145586,0.471733,0.000345,1.220418,0.272813,0.052725,0.70902,0.257123,-0.1153249999999999,1.247528,0.1115729999999999,-0.0871349999999999,0.92687,-0.004019,0.008245,1.07313,0.004019,-0.008245,0.95146,-0.359417,0.027995,1.03185,-0.348137,-0.1910849999999999,1.07565,-0.7035370000000001,0.110145,0.93408,-0.651367,-0.257565
124,0.961615,0.743129,-0.01601,0.859515,0.475499,0.0661699999999999,0.755825,0.280349,0.0992099999999999,1.147605,0.470039,-0.00307,1.219236,0.271119,0.0586999999999999,0.717885,0.2281689999999999,-0.10718,1.250568,0.09613,-0.06378,0.927135,-0.004593,0.0089499999999999,1.072865,0.004593,-0.00895,0.956325,-0.353161,0.0132799999999999,1.0328549999999999,-0.344421,-0.18946,1.0856249999999998,-0.690561,0.1243399999999999,0.927275,-0.640241,-0.2576800000000001
125,0.9580950000000001,0.742948,-0.017955,0.860295,0.472248,0.065145,0.7724550000000001,0.271758,0.100815,1.148435,0.469518,-0.0052249999999999,1.217891,0.267768,0.060115,0.7233450000000001,0.204648,-0.101605,1.252044,0.087878,-0.0508649999999999,0.9275450000000001,-0.00472,0.0104049999999999,1.072455,0.00472,-0.0104049999999999,0.9554050000000001,-0.351192,0.007555,1.035755,-0.343192,-0.1798449999999999,1.086965,-0.679892,0.142825,0.9275850000000001,-0.635062,-0.2450649999999999
126,0.9544300000000001,0.7428945,-0.0186899999999999,0.8606800000000001,0.4692345,0.06486,0.7807300000000001,0.2677245,0.09667,1.1486,0.4698644999999999,-0.0067899999999999,1.22146,0.2643445,0.05717,0.72384,0.1916445,-0.10429,1.254047,0.0844545,-0.0430299999999999,0.9280300000000001,-0.0048454999999999,0.01158,1.07197,0.0048455,-0.0115799999999999,0.9507900000000001,-0.3495055,-0.0013499999999999,1.03829,-0.3437855,-0.17159,1.07486,-0.6699255000000001,0.13437,0.9344000000000001,-0.6335255000000001,-0.2239399999999999
127,0.9486800000000001,0.7426425,-0.0197249999999999,0.85962,0.4664525,0.062125,0.79051,0.2641425,0.091485,1.14853,0.4711625,-0.0073649999999999,1.22739,0.2658125,0.051855,0.72029,0.1838625,-0.1091049999999999,1.259587,0.0808725,-0.0341949999999999,0.9286400000000001,-0.0052045,0.012915,1.0713599999999999,0.0052044999999999,-0.0129149999999999,0.94299,-0.3479975,-0.0109049999999999,1.0439399999999999,-0.3446175,-0.1608649999999999,1.05558,-0.6719175,0.124915,0.94971,-0.6344075,-0.1958949999999999
128,0.942725,0.741905,-0.020365,0.859455,0.463755,0.0610049999999999,0.793595,0.260615,0.0853849999999999,1.148045,0.472695,-0.007695,1.232545,0.266775,0.0458849999999999,0.7167049999999999,0.1748849999999999,-0.1141849999999999,1.268053,0.077345,-0.0290549999999999,0.928975,-0.005697,0.0136049999999999,1.071025,0.0056969999999999,-0.013605,0.938685,-0.349225,-0.025235,1.0509149999999998,-0.345415,-0.1486549999999999,1.035115,-0.674615,0.1059249999999999,0.966985,-0.636255,-0.165985
129,0.936275,0.7413535,-0.0195699999999999,0.858245,0.4617635,0.0597699999999999,0.794955,0.2562035,0.07903,1.1472149999999999,0.4750435,-0.00656,1.2380049999999998,0.2710135,0.0418999999999999,0.714805,0.1710735,-0.1182299999999999,1.276595,0.0821445,-0.0277499999999999,0.929405,-0.0061485,0.01423,1.070595,0.0061485,-0.0142299999999999,0.930465,-0.3494365,-0.0389599999999999,1.057575,-0.3464465,-0.1355299999999999,1.0068949999999999,-0.6784264999999999,0.08433,0.984275,-0.6398465,-0.13417
130,0.9287700000000001,0.7407235,-0.0199049999999999,0.8558400000000002,0.4595235,0.058225,0.79479,0.2526035,0.073625,1.14394,0.4782935,-0.0059349999999999,1.2417,0.2784435,0.037525,0.71059,0.1675235,-0.1202149999999999,1.28312,0.0893235,-0.0406649999999999,0.9294800000000001,-0.0066614999999999,0.014255,1.07052,0.0066615,-0.0142549999999999,0.9196900000000001,-0.3500065,-0.0562149999999999,1.06413,-0.3484965,-0.1205649999999999,0.9735500000000001,-0.6840665,0.055745,1.00424,-0.6452665000000001,-0.1043149999999999
131,0.91896,0.7397955,-0.0207199999999999,0.85233,0.4581955,0.05667,0.7890900000000001,0.2518955,0.0643099999999999,1.14147,0.4819555,-0.0024399999999999,1.24347,0.2861755,0.0363399999999999,0.70476,0.1640855,-0.11931,1.28789,0.0976055,-0.0523099999999999,0.92938,-0.0069415,0.0142999999999999,1.07062,0.0069415,-0.0142999999999999,0.90814,-0.3502045,-0.07676,1.07123,-0.3498544999999999,-0.1053199999999999,0.94008,-0.6900744999999999,0.02755,1.02333,-0.6502745,-0.0749499999999999
132,0.907645,0.7373240000000001,-0.0228999999999999,0.8465750000000001,0.456714,0.05296,0.7803850000000001,0.250034,0.05309,1.1355549999999999,0.4857339999999999,-0.0008599999999999,1.242975,0.294124,0.03628,0.698725,0.159074,-0.1182299999999999,1.289895,0.106024,-0.0574799999999999,0.9292549999999999,-0.007105,0.0141499999999999,1.070745,0.007105,-0.0141499999999999,0.8971150000000001,-0.350066,-0.09514,1.078995,-0.352106,-0.0902099999999999,0.9076150000000001,-0.695836,-0.0016599999999999,1.041725,-0.654866,-0.0465399999999999
133,0.8968650000000001,0.7364695,-0.025865,0.840835,0.4558595,0.048525,0.7700250000000001,0.2491795,0.0425849999999999,1.128995,0.4894795,0.000565,1.240075,0.3003795,0.037775,0.6932050000000001,0.1563195,-0.1191149999999999,1.288755,0.1125795,-0.0552449999999999,0.9290650000000001,-0.0071815,0.013985,1.070935,0.0071815,-0.013985,0.8842650000000001,-0.3492105,-0.088395,1.086805,-0.3529005,-0.0764949999999999,0.880305,-0.7019005,-0.0208749999999999,1.055545,-0.6557205,-0.025545
134,0.88781,0.7364695,-0.0291449999999999,0.83665,0.4558595,0.044775,0.76142,0.2491795,0.0344849999999999,1.12428,0.4913895,0.001865,1.23673,0.3004495,0.041695,0.69059,0.1560495,-0.1211449999999999,1.28768,0.1125795,-0.0418349999999999,0.9286900000000001,-0.0071815,0.0126749999999999,1.07131,0.0071815,-0.0126749999999999,0.8795800000000001,-0.3480904999999999,-0.086395,1.0940699999999999,-0.3533305,-0.0671549999999999,0.8619600000000001,-0.7019005,-0.0448449999999999,1.0679400000000001,-0.6557205,-0.0098949999999999
135,0.8778000000000001,0.7364695,-0.034785,0.83048,0.4558595,0.0388749999999999,0.7554700000000001,0.2491795,0.031625,1.11605,0.4929794999999999,0.0008049999999999,1.23101,0.3004995,0.0470049999999999,0.6886,0.1528995,-0.122885,1.28448,0.1125795,-0.026065,0.92845,-0.0071815,0.0114249999999999,1.07155,0.0071815,-0.011425,0.87954,-0.3479305,-0.083355,1.10134,-0.3535005,-0.056875,0.8577700000000001,-0.7019005,-0.041585,1.08095,-0.6557205,0.0056549999999999
136,0.869945,0.7343295,-0.0393999999999999,0.8253149999999999,0.4547495,0.035,0.7480450000000001,0.2484695,0.02634,1.109635,0.4938995,0.0008299999999999,1.2245149999999998,0.3005195,0.05353,0.687935,0.1498195,-0.1212299999999999,1.281415,0.1125795,-0.01383,0.928225,-0.0071815,0.0102499999999999,1.071775,0.0071815,-0.0102499999999999,0.884225,-0.3479305,-0.0777299999999999,1.106715,-0.3544405,-0.0496699999999999,0.862235,-0.7161505,-0.0335299999999999,1.091475,-0.6556405000000001,0.01773
137,0.86235,0.7310015000000001,-0.04503,0.82055,0.4525814999999999,0.03078,0.74261,0.2468415,0.02368,1.1041699999999999,0.4956215,0.00106,1.21777,0.3014314999999999,0.06086,0.6883,0.1437015,-0.1197099999999999,1.27746,0.1113115,-0.0020399999999999,0.92797,-0.0077524999999999,0.00899,1.0720299999999998,0.0077524999999999,-0.0089899999999999,0.8890000000000001,-0.3471285,-0.0718099999999999,1.11204,-0.3547185,-0.0421899999999999,0.8710200000000001,-0.7295285,-0.0225099999999999,1.10104,-0.6569284999999999,0.02872
138,0.85593,0.727589,-0.0510549999999999,0.81542,0.450489,0.0265349999999999,0.7379,0.246789,0.021255,1.09842,0.497269,0.0003849999999999,1.21093,0.301559,0.067265,0.68933,0.139539,-0.118865,1.2731,0.1082489999999999,0.0081849999999999,0.92794,-0.008303,0.008005,1.07206,0.008303,-0.008005,0.89432,-0.3464009999999999,-0.0658149999999999,1.11987,-0.353981,-0.0364649999999999,0.88191,-0.740661,-0.011985,1.10909,-0.656531,0.0381249999999999
139,0.850225,0.724556,-0.0571500000000001,0.810515,0.448466,0.0219199999999999,0.7346149999999999,0.246196,0.0196199999999998,1.093365,0.4989359999999999,-0.00059,1.204465,0.299926,0.0728399999999999,0.6933349999999999,0.131926,-0.1155800000000001,1.269305,0.1037859999999999,0.0193799999999999,0.927935,-0.0087359999999999,0.0070599999999999,1.0720649999999998,0.008736,-0.00706,0.899765,-0.3484939999999999,-0.0598100000000001,1.1226349999999998,-0.3533539999999999,-0.0312700000000001,0.893815,-0.742484,-0.0028300000000001,1.116115,-0.657814,0.0460099999999998
140,0.84717,0.722407,-0.0629349999999999,0.8064100000000001,0.447117,0.017775,0.73689,0.244967,0.018175,1.0891,0.5002869999999999,-0.0030549999999999,1.19914,0.2986069999999999,0.0749750000000001,0.69741,0.124257,-0.1185249999999998,1.26508,0.099507,0.0262350000000001,0.9280900000000001,-0.0091189999999999,0.006515,1.07191,0.009119,-0.0065149999999999,0.90398,-0.349813,-0.0548349999999999,1.12436,-0.352573,-0.0274949999999999,0.9028900000000001,-0.743643,0.002465,1.12065,-0.658473,0.050325
141,0.840205,0.717591,-0.07421,0.809675,0.445961,0.01587,0.729325,0.2457909999999999,0.0081999999999999,1.087835,0.5031909999999999,-0.0030799999999999,1.187685,0.291881,0.0812899999999999,0.670435,0.108171,-0.15027,1.257285,0.088421,0.0675599999999999,0.927745,-0.0094159999999999,0.0048899999999999,1.072255,0.009416,-0.0048899999999999,0.909775,-0.351029,-0.0557699999999999,1.128295,-0.349959,-0.02432,0.9222850000000001,-0.744309,0.0108599999999999,1.1341350000000001,-0.659979,0.0567499999999999
142,0.843375,0.7179880000000001,-0.0755700000000001,0.798435,0.447858,0.0072799999999999,0.735085,0.242228,0.0162699999999998,1.081065,0.5053880000000001,-0.00818,1.188045,0.292438,0.0825299999999998,0.678045,0.110298,-0.1478100000000001,1.2583250000000001,0.089248,0.0664999999999998,0.928395,-0.009497,0.0049699999999999,1.071605,0.0094969999999999,-0.00497,0.9126650000000001,-0.351632,-0.05048,1.127505,-0.351582,-0.0205600000000001,0.9294350000000001,-0.7452719999999999,0.0139399999999999,1.127715,-0.6566719999999999,0.0559899999999998
143,0.843965,0.7176745,-0.076725,0.797715,0.4478445,0.0077549999999999,0.736875,0.2417645,0.0200249999999999,1.0809549999999999,0.5058945,-0.007835,1.187925,0.2928044999999999,0.0819349999999999,0.692025,0.0953945,-0.1354149999999999,1.2571849999999998,0.0893645,0.063195,0.928355,-0.0095745,0.004735,1.071645,0.0095745,-0.004735,0.9137250000000001,-0.3519355,-0.048135,1.126825,-0.3514755,-0.0186849999999999,0.931525,-0.7456555,0.0157249999999999,1.1254549999999999,-0.6551855,0.055655
144,0.84485,0.7173160000000001,-0.07704,0.79634,0.447246,0.0091099999999999,0.73906,0.240436,0.02437,1.0816899999999998,0.5058060000000001,-0.00755,1.18757,0.293296,0.08072,0.6969799999999999,0.095956,-0.1337399999999999,1.256,0.089776,0.0585099999999999,0.9286900000000001,-0.009673,0.00524,1.07131,0.009673,-0.00524,0.91435,-0.352154,-0.0458,1.12595,-0.351834,-0.01687,0.93222,-0.746054,0.01717,1.1240299999999999,-0.656584,0.0565999999999999
145,0.8460250000000001,0.7170690000000001,-0.076515,0.796025,0.445689,0.010475,0.742405,0.238779,0.031945,1.082405,0.505329,-0.0071149999999999,1.187275,0.2927289999999999,0.079335,0.703705,0.0957689999999999,-0.1284949999999999,1.2555749999999999,0.089489,0.052705,0.929005,-0.0098489999999999,0.0058949999999999,1.070995,0.009849,-0.0058949999999999,0.9151150000000001,-0.352481,-0.042605,1.126455,-0.352341,-0.0147149999999999,0.933735,-0.7467809999999999,0.018155,1.122485,-0.658501,0.0588549999999999
146,0.84857,0.7171375,-0.0757749999999999,0.79444,0.4424875,0.0146249999999999,0.75412,0.2337975,0.044685,1.0839699999999999,0.5048575,-0.0067649999999999,1.18813,0.2918175,0.075045,0.7329400000000001,0.0658045,-0.0928649999999999,1.25455,0.0890675,0.038505,0.92988,-0.0100635,0.007725,1.07012,0.0100635,-0.0077249999999999,0.91595,-0.3528625,-0.0342049999999999,1.12709,-0.3520525,-0.0100949999999999,0.93706,-0.7483125,0.019835,1.12245,-0.6595725,0.062815
147,0.85092,0.7173535,-0.0744949999999999,0.7953400000000002,0.4415135,0.018545,0.77293,0.1765335,0.0220449999999999,1.08672,0.5038935,-0.0067049999999999,1.18918,0.2902935,0.069635,0.7229300000000001,0.0126635,-0.111925,1.25374,0.0873635,0.030155,0.9305100000000001,-0.0099315,0.0092949999999999,1.06949,0.0099315,-0.009295,0.9169700000000001,-0.3527665,-0.0231249999999999,1.1268,-0.3506865,-0.004475,0.93765,-0.7498064999999999,0.021105,1.12334,-0.6580165,0.0656949999999999
