sb224sc-HT22-VT27/4dt907/src/ml-research/a11/datafiles/kinect_good_preprocessed_not_cut_A11_mediapipe/A32_kinect_mirrored.csv
FrameNo,nose_3d_x,nose_3d_y,nose_3d_z,left_shoulder_3d_x,left_shoulder_3d_y,left_shoulder_3d_z,left_elbow_3d_x,left_elbow_3d_y,left_elbow_3d_z,right_shoulder_3d_x,right_shoulder_3d_y,right_shoulder_3d_z,right_elbow_3d_x,right_elbow_3d_y,right_elbow_3d_z,left_wrist_3d_x,left_wrist_3d_y,left_wrist_3d_z,right_wrist_3d_x,right_wrist_3d_y,right_wrist_3d_z,left_hip_3d_x,left_hip_3d_y,left_hip_3d_z,right_hip_3d_x,right_hip_3d_y,right_hip_3d_z,left_knee_3d_x,left_knee_3d_y,left_knee_3d_z,right_knee_3d_x,right_knee_3d_y,right_knee_3d_z,left_ankle_3d_x,left_ankle_3d_y,left_ankle_3d_z,right_ankle_3d_x,right_ankle_3d_y,right_ankle_3d_z
0,0.9904720000000001,0.75901,0.060919,0.834069,0.46093,0.058012,0.812539,0.20925,0.071602,1.141409,0.46796,0.062982,1.1740490000000001,0.20997,0.068838,0.797629,0.0082329999999999,-0.0059429999999999,1.202789,0.007516,0.001328,0.927304,-0.002899,-0.0006989999999999,1.072696,0.0028989999999999,0.0006989999999999,0.882519,-0.4109899999999999,0.005424,1.122859,-0.3790099999999999,-0.0100449999999999,0.878609,-0.7409300000000001,-0.018979,1.126099,-0.73833,-0.008346
1,0.9900835,0.7590009999999999,0.0604554999999999,0.8374585,0.460201,0.0606285,0.8123085,0.209531,0.0706665,1.1395885,0.468611,0.0615395,1.1739985,0.210161,0.0685775,0.7998085,0.008036,-0.0098005,1.1994585,0.008764,-0.0039645,0.9273305000000001,-0.0029449999999999,-0.0005695,1.0726695,0.002945,0.0005695,0.8824685,-0.412099,0.0054265,1.1228684999999998,-0.381829,-0.0095065,0.8773585,-0.741569,-0.0201355,1.1258585,-0.7368790000000001,-0.0103555
2,0.989433,0.7589,0.060181,0.840221,0.4596699999999999,0.062923,0.810071,0.21203,0.066726,1.147191,0.46514,0.070361,1.175701,0.2119799999999999,0.067968,0.799871,0.005487,-0.020523,1.215891,0.017043,-0.0157259999999999,0.92725,-0.002832,-0.0008599999999999,1.07275,0.002832,0.0008599999999999,0.881991,-0.41278,0.0053509999999999,1.122511,-0.38111,-0.0092679999999999,0.877051,-0.74151,-0.019993,1.125041,-0.73766,-0.0109749999999999
3,0.9893935,0.7586965,0.0605085,0.8404415000000001,0.4595365,0.0641635,0.8075815,0.2165965,0.0634755,1.1478315000000001,0.4648465,0.0710725,1.1815915,0.2148965,0.0618705,0.7980115,0.0095685,-0.0317885,1.2243015,0.0242695,-0.0309025,0.9272755,-0.0028335,-0.0007194999999999,1.0727245,0.0028335,0.0007194999999999,0.8818915,-0.4126734999999999,0.0053974999999999,1.1225415,-0.3812534999999999,-0.0088595,0.8771515,-0.7420635,-0.0198225,1.1251615,-0.7389135,-0.0106735
4,0.98778,0.758162,0.0649135,0.8347740000000001,0.460192,0.0637274999999999,0.8035240000000001,0.233312,0.0550865,1.147244,0.464512,0.0737045,1.190184,0.229782,0.0515614999999999,0.7840739999999999,0.0477029999999999,-0.0562105,1.234254,0.0433329999999999,-0.0494325,0.927274,-0.002988,-0.0005775,1.072726,0.0029879999999999,0.0005775,0.883184,-0.411148,0.0035855,1.124374,-0.375378,-0.0100234999999999,0.8791640000000001,-0.7420979999999999,-0.0235085,1.126184,-0.739068,-0.0135855
5,0.9878785,0.7576904999999999,0.0660925,0.8329165000000001,0.4611305,0.0623505,0.7947165,0.2484205,0.0439805,1.1472165,0.4645005,0.0736305,1.2012265,0.2450205,0.0385715,0.7812565,0.0585595,-0.0604764999999999,1.2489265,0.0658735,-0.0742515,0.9272475,-0.0029674999999999,-0.0006094999999999,1.0727525,0.0029674999999999,0.0006094999999999,0.8833965,-0.4075995,0.0036245,1.1245165,-0.3753995,-0.0098055,0.8787165000000001,-0.7427195000000001,-0.0236475,1.1261365,-0.7395695000000001,-0.0146695
6,0.987679,0.757567,0.067717,0.836892,0.461007,0.06466,0.783982,0.2519969999999999,0.0359899999999999,1.147082,0.464777,0.0738389999999999,1.213962,0.262537,0.0277289999999999,0.764542,0.081525,-0.098689,1.267072,0.096133,-0.101989,0.92716,-0.002939,-0.000615,1.07284,0.002939,0.0006149999999999,0.883992,-0.405883,0.0044199999999999,1.125392,-0.372103,-0.008483,0.8787119999999999,-0.742613,-0.023989,1.126152,-0.7372829999999999,-0.013846
7,0.9883155,0.7532555000000001,0.070503,0.8390755,0.4639454999999999,0.0610249999999999,0.7570955,0.2976155,-0.009888,1.1464455,0.4680355,0.071436,1.2434255,0.3165055,-0.010902,0.7335054999999999,0.1973655,-0.172448,1.3036455,0.2057855,-0.165678,0.9266465000000002,-0.0026674999999999,-0.0010469999999999,1.0733534999999998,0.0026674999999999,0.0010469999999999,0.8847855,-0.4074845,0.004045,1.1248455,-0.3714445,-0.0085039999999999,0.8799555,-0.7464744999999999,-0.022069,1.1254555,-0.7367644999999999,-0.0114469999999999
8,0.9883985,0.7532555000000001,0.0717805,0.8396764999999999,0.4649954999999999,0.0600814999999999,0.7450165,0.3281655,-0.0279905,1.1466465000000001,0.4683555,0.0705145,1.2567465,0.3494454999999999,-0.0257654999999999,0.7202865,0.2609754999999999,-0.1986865,1.3187165,0.2686455,-0.1886665,0.9266365,-0.0026674999999999,-0.0012305,1.0733635,0.0026674999999999,0.0012304999999999,0.8852065,-0.4074845,0.0036165,1.1248565,-0.3704845,-0.0086364999999999,0.8801065,-0.7464744999999999,-0.0224395,1.1254265,-0.7367245,-0.0116684999999999
9,0.9884835000000001,0.7532555000000001,0.072541,0.8402575,0.4667754999999999,0.059236,0.7338475,0.3609155,-0.044204,1.1468575,0.4691355,0.069689,1.2682274999999998,0.3841954999999999,-0.037981,0.7088275000000002,0.3283055,-0.22083,1.3321775,0.3368555,-0.20833,0.9265945,-0.0026674999999999,-0.001382,1.0734055,0.0026674999999999,0.0013819999999999,0.8854375,-0.4073145,0.003261,1.1248875,-0.3691745,-0.008682,0.8801375,-0.7464744999999999,-0.022527,1.1253775,-0.7367245,-0.011587
10,0.988639,0.7528285,0.0731915,0.840537,0.4691185,0.0583135,0.7241770000000001,0.3996885,-0.0583844999999999,1.1470069999999999,0.4706585,0.0689335,1.278467,0.4247785,-0.0479634999999999,0.6983269999999999,0.4037185,-0.2406005,1.343197,0.4133385,-0.2238505,0.926479,-0.0025415,-0.0014955,1.073521,0.0025414999999999,0.0014955,0.885727,-0.4074615,0.0029775,1.124997,-0.3683015,-0.0086654999999999,0.880247,-0.7469015,-0.0225825,1.125387,-0.7371415,-0.0114064999999999
11,0.98886,0.750764,0.0736655,0.8408869999999999,0.4716439999999999,0.0570995,0.7162670000000001,0.4421839999999999,-0.0703465,1.147137,0.472464,0.0676855,1.2869169999999999,0.464584,-0.0557675,0.690027,0.4803639999999999,-0.2535885,1.351327,0.488384,-0.2338585,0.926377,-0.0023979999999999,-0.0016215,1.073623,0.002398,0.0016215,0.885967,-0.407876,0.0028814999999999,1.125137,-0.368446,-0.0086445,0.8803970000000001,-0.7486959999999999,-0.0222225,1.125287,-0.738046,-0.0109394999999999
12,0.9892850000000001,0.7484815,0.073853,0.8416939999999999,0.4738915,0.055995,0.711384,0.4817915,-0.0768389999999999,1.147394,0.4743815,0.066068,1.290964,0.5016415,-0.057398,0.684984,0.5547215,-0.2567689999999999,1.354814,0.5606115,-0.234599,0.92628,-0.0022255,-0.0017429999999999,1.07372,0.0022255,0.001743,0.886184,-0.4093185,0.002806,1.125084,-0.3702485,-0.0086569999999999,0.880444,-0.7507085,-0.021377,1.125064,-0.7395285,-0.0102809999999999
13,0.9896585,0.7460475,0.0734585,0.8423965,0.4757875,0.0551785,0.7088665000000001,0.5203775,-0.0777905,1.1477765,0.4767375,0.0645435,1.2910965,0.5350075,-0.0577795,0.6842665,0.6187675,-0.2571105,1.3549465,0.6257975,-0.2349805,0.9262295,-0.0020835,-0.0018264999999999,1.0737705,0.0020835,0.0018265,0.8863365,-0.4111125,0.0027985,1.1249565,-0.3727324999999999,-0.0086334999999999,0.8804365000000001,-0.7529425,-0.0208544999999999,1.1248364999999998,-0.7414324999999999,-0.0098134999999999
14,0.9900230000000001,0.7433995,0.0732755,0.842938,0.4778495,0.0544375,0.708968,0.5591995,-0.0779595,1.148288,0.4794195,0.0633835,1.291198,0.5667395,-0.0579485,0.684348,0.6817595,-0.2572695,1.355048,0.6859595,-0.2351495,0.9262400000000001,-0.0018915,-0.0019284999999999,1.0737599999999998,0.0018915,0.0019284999999999,0.8864480000000001,-0.4131505,0.0029444999999999,1.124608,-0.3757205,-0.0085044999999999,0.880368,-0.7554505,-0.0204025,1.124598,-0.7434305,-0.0090324999999999
15,0.9904300000000001,0.7405995,0.0732545,0.843208,0.4796395,0.0537875,0.709078,0.5877495,-0.0779655,1.148818,0.4821295,0.0624325,1.291308,0.5904195,-0.0579545,0.684458,0.7337994999999999,-0.2572755,1.355188,0.7354195,-0.2344955,0.926331,-0.0017794999999999,-0.0019335,1.073669,0.0017794999999999,0.0019335,0.886568,-0.4154805,0.0031275,1.124228,-0.3789405,-0.0082464999999999,0.880298,-0.7583705000000001,-0.0196985,1.124398,-0.7457605,-0.0081844999999999
16,0.990866,0.7381445,0.0731499999999999,0.843542,0.4812545,0.053187,0.709222,0.6115345,-0.077973,1.148772,0.4847944999999999,0.061528,1.290562,0.6146845,-0.054214,0.6851320000000001,0.7723045,-0.247493,1.353192,0.7753545,-0.224963,0.926424,-0.0016775,-0.0019379999999999,1.073576,0.0016775,0.0019379999999999,0.886642,-0.4175055,0.0031619999999999,1.1239519999999998,-0.3818455,-0.008232,0.879952,-0.7611955,-0.019037,1.124422,-0.7489455,-0.008015
17,0.99132,0.735938,0.0724055,0.844028,0.482738,0.0526805,0.709938,0.6340979999999999,-0.0751815,1.1488779999999998,0.487848,0.0606214999999999,1.289008,0.6357579999999999,-0.0483555,0.686118,0.809298,-0.2319515,1.348348,0.8110679999999999,-0.2097615,0.92653,-0.001591,-0.0019435,1.07347,0.0015909999999999,0.0019434999999999,0.886598,-0.419782,0.0031644999999999,1.1236879999999998,-0.384992,-0.0082175,0.8796980000000001,-0.764032,-0.0187145,1.124478,-0.7524620000000001,-0.0080175
18,0.9917020000000001,0.7340884999999999,0.071275,0.844536,0.4841284999999999,0.05209,0.712916,0.6577685,-0.0678209999999999,1.149046,0.4908384999999999,0.060211,1.285136,0.6556385,-0.041278,0.6907559999999999,0.8403284999999999,-0.209792,1.340296,0.8418485,-0.188262,0.926609,-0.0015214999999999,-0.001985,1.073391,0.0015215,0.0019849999999999,0.886606,-0.4221815,0.0033149999999999,1.123476,-0.3881915,-0.008056,0.879676,-0.7671315000000001,-0.018503,1.124616,-0.7556415000000001,-0.0075049999999999
19,0.9920725,0.7328685,0.0700225,0.8454245000000001,0.4852385,0.0519545,0.7174445,0.6751885,-0.0584685,1.1492545,0.4941584999999999,0.0605945,1.2798045,0.6720484999999999,-0.0321715,0.6965345000000001,0.8644385,-0.1860105,1.3318845000000001,0.8638885,-0.1644205,0.9266915,-0.0015335,-0.0019174999999999,1.0733085,0.0015335,0.0019175,0.8864845,-0.4244715,0.0039045,1.1231545,-0.3912915,-0.0074884999999999,0.8796845,-0.7704115,-0.0179205,1.1248545,-0.7592915,-0.0065925
20,0.9922160000000001,0.7315389999999999,0.0693375,0.8461110000000001,0.485939,0.0523914999999999,0.721741,0.6887789999999999,-0.0488515,1.1494010000000001,0.497259,0.0614264999999999,1.274781,0.6876289999999999,-0.0228395,0.701821,0.8867189999999999,-0.1623175,1.324471,0.884639,-0.1423575,0.926754,-0.001569,-0.0018525,1.073246,0.001569,0.0018525,0.886481,-0.426701,0.0046924999999999,1.1230209999999998,-0.393541,-0.0067804999999999,0.879881,-0.773221,-0.0169945,1.125071,-0.762101,-0.0055505
21,0.9924195000000001,0.7304865,0.0687224999999999,0.8467875,0.4862565,0.0528665,0.7262875000000001,0.7016264999999999,-0.0381365,1.1490974999999999,0.5005765,0.0623325,1.2699375,0.7015165,-0.0130565,0.7070075,0.9040565,-0.1372635,1.3165475,0.9021965,-0.1180235,0.9268545,-0.0016945,-0.0018585,1.0731455,0.0016944999999999,0.0018584999999999,0.8865375,-0.4290035,0.0054474999999999,1.1229275,-0.3956635,-0.0061674999999999,0.8800675,-0.7759635,-0.0161075,1.1253375,-0.7648435,-0.0044635
22,0.992623,0.7296285,0.0681075,0.847499,0.4862085,0.0533395,0.7305189999999999,0.7117985,-0.0273344999999999,1.148539,0.5035285,0.0632315,1.264999,0.7141185000000001,-0.0035834999999999,0.7117089999999999,0.9190985,-0.1132865,1.309189,0.9166685,-0.0944965,0.9269890000000001,-0.0017964999999999,-0.0019134999999999,1.073011,0.0017964999999999,0.0019135,0.886549,-0.4311115,0.0061605,1.1227989999999999,-0.3975815,-0.0056285,0.880269,-0.7784415,-0.0152484999999999,1.125559,-0.7673814999999999,-0.0036064999999999
23,0.9928075000000001,0.7288055,0.067486,0.8481405000000001,0.4857654999999999,0.053835,0.7345805000000001,0.7200854999999999,-0.0172359999999999,1.1478205,0.5058555,0.064426,1.2603505,0.7257555,0.005349,0.7161605000000001,0.9301255,-0.091255,1.3024105000000001,0.9291355,-0.072605,0.9271435000000001,-0.0019684999999999,-0.0019619999999999,1.0728564999999999,0.0019684999999999,0.001962,0.8865305,-0.4329445,0.0067,1.1227405,-0.3999045,-0.0052269999999999,0.8804905000000001,-0.7810945,-0.014785,1.1259305,-0.7702645,-0.0029659999999999
24,0.9929720000000001,0.7284135,0.0668334999999999,0.848681,0.4851135,0.0543265,0.738651,0.7282735,-0.0077165,1.147001,0.5079935,0.0656295,1.256271,0.7364634999999999,0.0135444999999999,0.720221,0.9398935,-0.0701415,1.296251,0.9401835,-0.0520884999999999,0.927268,-0.0020775,-0.0020384999999999,1.072732,0.0020774999999999,0.0020384999999999,0.886521,-0.4344565,0.0071604999999999,1.122611,-0.4017965,-0.0050014999999999,0.8806309999999999,-0.7834965,-0.0144835,1.126271,-0.7727965000000001,-0.0026065
25,0.9931535,0.7280865,0.0662925,0.8491785000000001,0.4842664999999999,0.0547905,0.7424685,0.7358264999999999,0.0015205,1.1459185,0.5098265,0.0668945,1.2536985,0.7430464999999999,0.0214155,0.7235985,0.9487365,-0.0519014999999999,1.2905585,0.9478565,-0.0326485,0.9273715,-0.0021894999999999,-0.0021375,1.0726285,0.0021895,0.0021375,0.8864685,-0.4359935,0.0075475,1.1224685,-0.4034434999999999,-0.0048334999999999,0.8808085,-0.7856335,-0.0141854999999999,1.1265985,-0.7748735,-0.0021744999999999
26,0.9933505000000001,0.7277545000000001,0.0660525,0.8495315,0.4831445,0.0552874999999999,0.7445815,0.7404845,0.0087724999999999,1.1446315,0.5112045000000001,0.0679724999999999,1.2513615,0.7490345,0.0286414999999999,0.7260515000000001,0.9530445,-0.0369915,1.2857515,0.9536145,-0.0159555,0.9274755,-0.0022944999999999,-0.0022435,1.0725245,0.0022944999999999,0.0022434999999999,0.8864515,-0.4371555,0.0078754999999999,1.1222715,-0.4039055,-0.0047825,0.8810015,-0.7873855,-0.0138875,1.1269414999999998,-0.7768655,-0.0018765
27,0.9935340000000001,0.7274765,0.06598,0.849746,0.4820664999999999,0.055716,0.746346,0.7414265,0.015352,1.1433659999999999,0.5124465,0.06888,1.249576,0.7542765,0.034494,0.728036,0.9567965,-0.024859,1.282156,0.9583965,-0.002951,0.9275990000000001,-0.0024334999999999,-0.0023639999999999,1.072401,0.0024335,0.002364,0.886436,-0.4380535,0.008163,1.122066,-0.4040835,-0.004892,0.8811760000000001,-0.7888235,-0.013748,1.127306,-0.7783734999999999,-0.001806
28,0.9937055,0.727147,0.066074,0.8499105,0.4813369999999999,0.0559459999999999,0.7472705,0.740817,0.0199929999999999,1.1426705,0.513087,0.069516,1.2481205,0.7555369999999999,0.038553,0.7288005,0.958167,-0.017784,1.2795405,0.961367,0.0053149999999999,0.9276625000000001,-0.0025599999999999,-0.002523,1.0723375,0.0025599999999999,0.0025229999999999,0.8864105,-0.438533,0.0083409999999999,1.1219405,-0.404263,-0.005057,0.8814105,-0.789753,-0.013749,1.1276205,-0.7795430000000001,-0.001845
29,0.9938775,0.726946,0.0661285,0.8500285000000001,0.4807359999999999,0.0560985,0.7478785,0.740216,0.0241265,1.1420085,0.514166,0.0702635,1.2466185,0.756396,0.0422945,0.7291985000000001,0.957566,-0.0118674999999999,1.2771284999999999,0.963666,0.0122775,0.9276835,-0.0027019999999999,-0.0026354999999999,1.0723165,0.002702,0.0026355,0.8863985,-0.438904,0.0084595,1.1217885,-0.404324,-0.0052624999999999,0.8816285,-0.790434,-0.0137784999999999,1.1278885,-0.780454,-0.0020014999999999
30,0.994004,0.726944,0.0661585,0.850141,0.480324,0.0561905,0.748201,0.739824,0.0264835,1.141681,0.5149140000000001,0.0705485,1.245791,0.7575740000000001,0.0443075,0.7294309999999999,0.957374,-0.0085324999999999,1.275701,0.964874,0.0153975,0.927689,-0.0027769999999999,-0.0026964999999999,1.072311,0.002777,0.0026965,0.886331,-0.439106,0.0086085,1.121611,-0.404176,-0.0053044999999999,0.881671,-0.790806,-0.0137755,1.127941,-0.7808459999999999,-0.0019694999999999
31,0.993952,0.726993,0.066194,0.849973,0.479383,0.056338,0.748333,0.739483,0.0286769999999999,1.141413,0.515623,0.070795,1.245053,0.758553,0.045859,0.7295929999999999,0.957633,-0.005721,1.274473,0.966033,0.0178889999999999,0.927681,-0.002855,-0.002725,1.072319,0.0028549999999999,0.0027249999999999,0.886233,-0.439297,0.0087489999999999,1.121393,-0.403997,-0.005315,0.8816930000000001,-0.791147,-0.013641,1.127953,-0.781147,-0.001731
32,0.993878,0.7271015000000001,0.066188,0.849859,0.4785215,0.056495,0.748459,0.7389714999999999,0.030558,1.141199,0.5162815000000001,0.070996,1.244409,0.7593414999999999,0.046956,0.7294689999999999,0.9577315,-0.003214,1.273509,0.9670315,0.019469,0.927671,-0.0029274999999999,-0.0027229999999999,1.072329,0.0029274999999999,0.002723,0.886159,-0.4394385,0.008844,1.121189,-0.4037585,-0.005364,0.881679,-0.7914485,-0.01355,1.127979,-0.7809785,-0.0015859999999999
33,0.9938975,0.726754,0.0662325,0.8497985,0.477394,0.0565705,0.7485985,0.738094,0.0328185,1.1409985,0.516854,0.0711495,1.2437985,0.759904,0.0478065,0.7289685,0.956944,-0.0009024999999999,1.2726885000000001,0.967644,0.0204205,0.9276625000000001,-0.0030099999999999,-0.0027094999999999,1.0723375,0.00301,0.0027095,0.8860185,-0.439096,0.0090595,1.1208585,-0.403636,-0.0053524999999999,0.8813585,-0.791546,-0.0134164999999999,1.1279485,-0.781646,-0.0015384999999999
34,0.9939195000000001,0.726497,0.0662855,0.8497605000000001,0.4765169999999999,0.0566925,0.7484505,0.737267,0.0347755,1.1409105,0.5173369999999999,0.0712455,1.2432805,0.759957,0.0480585,0.7281805,0.956167,0.0010075,1.2721105,0.967567,0.0204645,0.9276715,-0.0031109999999999,-0.0026964999999999,1.0723285,0.003111,0.0026965,0.8859505,-0.438853,0.0092755,1.1205605,-0.403533,-0.0053864999999999,0.8810205,-0.791533,-0.0132814999999999,1.1278405,-0.781713,-0.0015195
35,0.9938575000000001,0.7265305000000001,0.066257,0.8497285,0.4758105,0.0567509999999999,0.7480685,0.7365605000000001,0.0365119999999999,1.1408885,0.5178005,0.0712569999999999,1.2428485,0.7598105,0.0480489999999999,0.7271585,0.9556605,0.0026149999999999,1.2715585,0.9673605,0.0204619999999999,0.9276775,-0.0031794999999999,-0.002729,1.0723225,0.0031795,0.0027289999999999,0.8858985,-0.4385495,0.0094639999999999,1.1203385,-0.4035495,-0.005426,0.8806885,-0.7913895,-0.013361,1.1276884999999999,-0.7817495,-0.001673
36,0.99367,0.7265969999999999,0.066383,0.8496210000000001,0.4751269999999999,0.056887,0.747521,0.735877,0.038231,1.140861,0.518247,0.071283,1.242421,0.759657,0.048022,0.726071,0.955377,0.004129,1.2709709999999999,0.967077,0.020443,0.927674,-0.003235,-0.0027789999999999,1.072326,0.003235,0.002779,0.8858610000000001,-0.438223,0.0096639999999999,1.120141,-0.403553,-0.005475,0.880361,-0.7913330000000001,-0.013336,1.127561,-0.781783,-0.0018
37,0.993285,0.7265475,0.0665875,0.849522,0.4745375,0.0570575,0.746862,0.7353675,0.0398225,1.140832,0.5187375,0.0713185,1.2418420000000001,0.7593775,0.0479875,0.724912,0.9552275,0.0055935,1.2702719999999998,0.9665275,0.0201855,0.927673,-0.0032784999999999,-0.0028144999999999,1.072327,0.0032785,0.0028145,0.885822,-0.4380225,0.0098795,1.119922,-0.4034725,-0.0055394999999999,0.880032,-0.7915625,-0.0134854999999999,1.127452,-0.7817825,-0.0018684999999999
38,0.9928045,0.726574,0.066678,0.8494085,0.474224,0.0573059999999999,0.7460285,0.735004,0.041164,1.1407985,0.518714,0.07133,1.2411285,0.759054,0.047764,0.7237685,0.955104,0.0069429999999999,1.2695485,0.966004,0.019534,0.9276705000000001,-0.0033329999999999,-0.002807,1.0723295,0.003333,0.002807,0.8857885,-0.437786,0.010067,1.1197085,-0.403396,-0.005631,0.8799785,-0.791626,-0.0133749999999999,1.1272985,-0.781716,-0.001742
39,0.9922855,0.726514,0.0668055,0.8492935,0.473954,0.0575685,0.7451335,0.734594,0.0425835,1.1406135,0.518694,0.0713655,1.2403834999999999,0.758454,0.0474165,0.7226835,0.955104,0.0082275,1.2687835,0.965404,0.0187715,0.9276695,-0.0034,-0.0027804999999999,1.0723305,0.0034,0.0027805,0.8857435,-0.437596,0.0102475,1.1194834999999999,-0.403246,-0.0056864999999999,0.8798835,-0.7917160000000001,-0.0132334999999999,1.1271335,-0.781806,-0.0016424999999999
40,0.9917345,0.7260065,0.0669505,0.8491755,0.4736464999999999,0.0578385,0.7442955,0.7339764999999999,0.0437945,1.1404455,0.5186864999999999,0.0714404999999999,1.2395555,0.7578465,0.0469384999999999,0.7217555,0.9549965,0.0092204999999999,1.2679755,0.9647965,0.0178125,0.9276745,-0.0034864999999999,-0.0027555,1.0723255,0.0034865,0.0027554999999999,0.8856855,-0.4374335,0.0104424999999999,1.1192655,-0.4031034999999999,-0.0057555,0.8797655,-0.7916735,-0.0130815,1.1271455,-0.7817435,-0.0016805
41,0.9911385000000001,0.7254695,0.067116,0.8490685,0.4733495,0.058092,0.7434784999999999,0.7333495,0.044933,1.1402885,0.5186795,0.071284,1.2386985,0.7573095,0.046395,0.7209885,0.9549095,0.009921,1.2671485,0.9642095,0.016753,0.9276715000000001,-0.0035625,-0.0027469999999999,1.0723284999999998,0.0035624999999999,0.002747,0.8856185,-0.4371905,0.01061,1.1190585,-0.4029705,-0.0058239999999999,0.8796385000000001,-0.7916605,-0.01292,1.1270885,-0.7816705,-0.0015039999999999
42,0.9905380000000001,0.7254655,0.067274,0.848939,0.4733455,0.058319,0.7426290000000001,0.7332155,0.045253,1.1401189999999999,0.5187455,0.071115,1.237829,0.7571154999999999,0.046061,0.720279,0.9548055,0.010377,1.266369,0.9641055,0.016002,0.927665,-0.0036194999999999,-0.002706,1.072335,0.0036194999999999,0.002706,0.885589,-0.4372945,0.010682,1.119009,-0.4028945,-0.0059559999999999,0.879499,-0.7916945,-0.012837,1.127109,-0.7815345,-0.0013929999999999
43,0.990016,0.7254655,0.067373,0.8487709999999999,0.4733455,0.058475,0.7420610000000001,0.7331755,0.045398,1.139951,0.5187455,0.070924,1.237061,0.7569255,0.045768,0.719671,0.9548055,0.0106449999999999,1.2656209999999999,0.9641055,0.0151819999999999,0.927671,-0.0036194999999999,-0.002727,1.072329,0.0036194999999999,0.002727,0.885551,-0.4372945,0.010495,1.1190509999999998,-0.4028945,-0.0061589999999999,0.8795610000000001,-0.7916945,-0.013041,1.127181,-0.7815345,-0.001597
44,0.989583,0.7254655,0.0674965,0.848661,0.4733455,0.0586085,0.7416510000000001,0.7331655,0.0455095,1.139831,0.5187455,0.0707085,1.236371,0.7566955,0.0452765,0.7191609999999999,0.9548055,0.0107585,1.2650109999999999,0.9641055,0.0144095,0.927687,-0.0036194999999999,-0.0027814999999999,1.072313,0.0036194999999999,0.0027815,0.885521,-0.4372945,0.0102745,1.119021,-0.4028945,-0.0063784999999999,0.879641,-0.7916945,-0.0132665,1.127261,-0.7815345,-0.0018224999999999
45,0.9892175,0.725094,0.067419,0.8486184999999999,0.473264,0.058632,0.7412485000000001,0.7331840000000001,0.045512,1.1396784999999998,0.518754,0.070623,1.2357185,0.756014,0.044677,0.7185085,0.954624,0.010712,1.2644585,0.963724,0.013647,0.9276915,-0.003638,-0.0028889999999999,1.0723085,0.0036379999999999,0.002889,0.8855085,-0.437616,0.010018,1.1189985,-0.402876,-0.0066589999999999,0.8798285,-0.792006,-0.0135839999999999,1.1274685,-0.781816,-0.0021689999999999
46,0.9888665,0.7251350000000001,0.0672895,0.8485145000000001,0.473195,0.0586335,0.7406245,0.7331150000000001,0.0454985,1.1393345,0.518915,0.0704714999999999,1.2348145,0.755125,0.0436495,0.7172845,0.953995,0.0104785,1.2637345,0.964695,0.0125395,0.9276925,-0.0036769999999999,-0.0030584999999999,1.0723075,0.0036769999999999,0.0030585,0.8855245,-0.437995,0.0093605,1.1189945,-0.402765,-0.0074614999999999,0.8800445000000001,-0.792485,-0.0147525,1.1277845,-0.7820149999999999,-0.0030134999999999
47,0.9885185,0.725222,0.0666495,0.8483795000000001,0.473192,0.0581405,0.7397695,0.732702,0.0451945,1.1388894999999999,0.519072,0.0698185,1.2340195,0.754412,0.0420925,0.7156195000000001,0.953602,0.0095625,1.2625994999999999,0.965902,0.0099375,0.9276635,-0.0036749999999999,-0.0031114999999999,1.0723365,0.003675,0.0031114999999999,0.8855495,-0.438388,0.0080295,1.1189895,-0.404158,-0.0089244999999999,0.8802195,-0.792948,-0.0165554999999999,1.1279694999999998,-0.782288,-0.0044274999999999
48,0.9881420000000001,0.7256835,0.0657385,0.848197,0.4732034999999999,0.0574714999999999,0.7388670000000002,0.7322635000000001,0.0445725,1.138547,0.5192135,0.0688874999999999,1.233217,0.7537235,0.0402175,0.713767,0.9531135,0.0082925,1.261387,0.9671135,0.0067214999999999,0.927645,-0.0036814999999999,-0.0030914999999999,1.072355,0.0036814999999999,0.0030915,0.8855670000000001,-0.4387865,0.0063824999999999,1.118947,-0.4058665,-0.0106305,0.880307,-0.7933764999999999,-0.0186175,1.128107,-0.7825664999999999,-0.0063305
49,0.987733,0.7259105,0.064649,0.848052,0.4742305,0.056619,0.737762,0.7318505,0.043933,1.138102,0.5193504999999999,0.067739,1.232442,0.7535705,0.038006,0.711532,0.9524605,0.006818,1.260102,0.9681705,0.003018,0.927666,-0.0036474999999999,-0.003025,1.072334,0.0036474999999999,0.003025,0.885522,-0.4391695,0.004383,1.118812,-0.4077695,-0.0126699999999999,0.880422,-0.7937395,-0.020803,1.128322,-0.7827895,-0.008539
50,0.9873335000000001,0.7261804999999999,0.0633035,0.8478705,0.4747305,0.0555854999999999,0.7365205,0.7313004999999999,0.0430335,1.1376305,0.5195405,0.0663425,1.2316205,0.7537105,0.0354615,0.7089905000000001,0.9516405,0.0050855,1.2587605,0.9692205,-0.0011815,0.9276815,-0.0036064999999999,-0.0029175,1.0723185,0.0036065,0.0029175,0.8854305000000001,-0.4397095,0.0018774999999999,1.1186105,-0.4104695,-0.0152375,0.8805505000000001,-0.7942594999999999,-0.0233175,1.1285205,-0.7829394999999999,-0.0109825
51,0.9871970000000001,0.725999,0.060746,0.847784,0.475779,0.053939,0.735244,0.730629,0.040574,1.137314,0.520369,0.0637949999999999,1.230724,0.7529589999999999,0.031654,0.706154,0.950999,0.0025789999999999,1.256944,0.970269,-0.00692,0.927693,-0.003488,-0.002698,1.072307,0.0034879999999999,0.0026979999999999,0.885134,-0.440911,-0.001896,1.118304,-0.414841,-0.01897,0.880494,-0.7944610000000001,-0.026562,1.1283139999999998,-0.783451,-0.014999
52,0.9870135,0.7262925,0.0573085,0.8476605,0.4769325,0.0515545,0.7338605,0.7299625000000001,0.0372415,1.1369805,0.5212225,0.0603655,1.2297805,0.7522825,0.0263005,0.7031505,0.9502525,-0.0010094999999999,1.2547405,0.9716625,-0.0146424999999999,0.9277165,-0.0033805,-0.0022564999999999,1.0722835,0.0033805,0.0022565,0.8847905,-0.4418375,-0.0068804999999999,1.1179105,-0.4189874999999999,-0.0243984999999999,0.8803105,-0.7944175,-0.0311245,1.1280305,-0.7836974999999999,-0.0203034999999999
53,0.9867715,0.7269789999999999,0.053578,0.8475115,0.477949,0.048907,0.7324915000000001,0.729699,0.03357,1.1367114999999999,0.5217989999999999,0.056637,1.2287415,0.7521089999999999,0.02048,0.7000815,0.949769,-0.0051219999999999,1.2524215,0.9731189999999998,-0.0230879999999999,0.9277425,-0.003332,-0.0017789999999999,1.0722575,0.0033319999999999,0.001779,0.8843615,-0.442861,-0.0123699999999999,1.1174215,-0.422711,-0.030681,0.8800015,-0.7940510000000001,-0.0362609999999999,1.1276915,-0.7836510000000001,-0.0266249999999999
54,0.9865150000000001,0.7275965,0.049414,0.847463,0.4786365,0.045777,0.7310030000000001,0.7294865,0.029401,1.136103,0.5225365,0.05237,1.227523,0.7519865,0.0134419999999999,0.697093,0.9494165,-0.011101,1.249963,0.9745265,-0.0337419999999999,0.927753,-0.0032584999999999,-0.001259,1.072247,0.0032585,0.0012589999999999,0.883803,-0.4435535,-0.018792,1.116543,-0.4262734999999999,-0.038551,0.8797429999999999,-0.7933935,-0.042061,1.127033,-0.7832335,-0.03389
55,0.986138,0.7279915,0.0450935,0.84728,0.4784315,0.0429775,0.7297100000000001,0.7293514999999999,0.0252375,1.13532,0.5226215,0.0480725,1.22649,0.7514115,0.0063605,0.69459,0.9494215,-0.0172114999999999,1.24762,0.9744215,-0.0446615,0.9277150000000001,-0.0032694999999999,-0.0005435,1.072285,0.0032695,0.0005435,0.88307,-0.4435885,-0.0254745,1.11546,-0.4297485,-0.0467365,0.8794500000000001,-0.7924585000000001,-0.0474145,1.12612,-0.7825485000000001,-0.0408965
56,0.985539,0.7269645,0.0404019999999999,0.846898,0.4781845,0.0398489999999999,0.7285079999999999,0.7289945,0.020686,1.134358,0.5227445,0.043432,1.225148,0.7494945,-0.001468,0.692338,0.9491745,-0.024293,1.245428,0.9730645,-0.0558079999999999,0.927571,-0.0031995,0.0001949999999999,1.072429,0.0031995,-0.000195,0.881688,-0.4433055,-0.0340479999999999,1.114138,-0.4317455,-0.05612,0.878998,-0.7914655,-0.053258,1.124858,-0.7816955,-0.0482029999999999
57,0.9849555000000001,0.7256045,0.0355415,0.8465495000000001,0.4786844999999999,0.0364855,0.7272895000000001,0.7286045,0.0158695,1.1333795,0.5217945,0.0386585,1.2239395,0.7482045,-0.0095595,0.6902495,0.9493545,-0.0315915,1.2435095,0.9716645,-0.0670845,0.9273385,-0.0030055,0.0009124999999999,1.0726615,0.0030055,-0.0009125,0.8801595,-0.4415255,-0.0435415,1.1126695,-0.4329055,-0.0665105,0.8785495,-0.7896655,-0.0592765,1.1235995,-0.7801355,-0.0556725
58,0.9844535000000001,0.72442,0.0301045,0.8462475,0.48028,0.0333495,0.7261675000000001,0.72837,0.0103535,1.1323475,0.52076,0.0334265,1.2228475,0.7472599999999999,-0.0179945,0.6882874999999999,0.94977,-0.0395725,1.2417575,0.9715899999999998,-0.0785614999999999,0.9269895,-0.00272,0.0015725,1.0730105,0.00272,-0.0015725,0.8783375,-0.4391899999999999,-0.0538705,1.1110875,-0.43316,-0.0776574999999999,0.8780075,-0.7869700000000001,-0.0654105,1.1219875,-0.7777000000000001,-0.0631205
59,0.983954,0.72344,0.0249655,0.846077,0.48188,0.0301885,0.725017,0.72752,0.0042154999999999,1.131467,0.51938,0.0281654999999999,1.221757,0.746,-0.0268075,0.6864870000000001,0.95084,-0.0477595,1.240277,0.97142,-0.0904395,0.926582,-0.002507,0.0022515,1.073418,0.002507,-0.0022515,0.876417,-0.43652,-0.0646335,1.109397,-0.43159,-0.0893895,0.877427,-0.7834300000000001,-0.0716725,1.120417,-0.7743300000000001,-0.0705515
60,0.983645,0.7219365,0.0196704999999999,0.846021,0.4832765,0.0270865,0.724051,0.7265365,-0.0019785,1.130981,0.5179365,0.0232215,1.220851,0.7446165,-0.0352345,0.685071,0.9529665,-0.0562995,1.239191,0.9718365,-0.1022375,0.926146,-0.0022575,0.0026344999999999,1.073854,0.0022574999999999,-0.0026344999999999,0.874551,-0.4318135,-0.0768345,1.107821,-0.4267935,-0.1020295,0.877041,-0.7779335,-0.0782405,1.119181,-0.7688335,-0.0773495
61,0.9833295000000001,0.7202744999999999,0.015655,0.8459025,0.4847045,0.024815,0.7229525,0.7249145,-0.007498,1.1303525,0.5161145,0.019055,1.2199025,0.7432245,-0.042339,0.6834925000000001,0.9535345,-0.064537,1.2380925,0.9693045,-0.112082,0.9256555,-0.0020564999999999,0.002921,1.0743445,0.0020564999999999,-0.002921,0.8725925000000001,-0.4264955,-0.088307,1.1061725,-0.4214255,-0.113513,0.8766325000000001,-0.7721255,-0.0834029999999999,1.1178825,-0.7628155,-0.083201
62,0.9830274999999999,0.7171335,0.011595,0.8457875,0.4858735,0.0226099999999999,0.7218475,0.7221635,-0.013257,1.1296475,0.5145135,0.0149569999999999,1.2190175,0.7406535,-0.049481,0.6818875,0.9545135,-0.07257,1.2369575,0.9675335,-0.12265,0.9251385,-0.0019054999999999,0.0032499999999999,1.0748615,0.0019055,-0.0032499999999999,0.8705475,-0.4204665,-0.100807,1.1045375,-0.4152065,-0.125893,0.8761975,-0.7651665,-0.08893,1.1166075,-0.7560065,-0.088539
63,0.9823515,0.7146465,0.0076104999999999,0.8454165000000001,0.4862264999999999,0.0207795,0.7210365000000001,0.7201565,-0.0179435,1.1288865,0.5121665,0.0110504999999999,1.2184765,0.7384965,-0.0555555,0.6809265,0.9567765,-0.0782575,1.2358765,0.9657565,-0.1302405,0.9246515,-0.0016564999999999,0.0035685,1.0753485,0.0016565,-0.0035684999999999,0.8687265,-0.4128835,-0.1131455,1.1031765,-0.4080935,-0.1373205,0.8753865000000001,-0.7565535,-0.0939174999999999,1.1156765,-0.7474035,-0.0932625
64,0.9815815,0.7118319999999999,0.003099,0.8450135,0.485172,0.018026,0.7202335,0.718452,-0.0227409999999999,1.1281835,0.509192,0.00706,1.2177835,0.737582,-0.061595,0.6798835,0.952052,-0.084223,1.2352135,0.968102,-0.137274,0.9241785,-0.001532,0.0037839999999999,1.0758215,0.001532,-0.0037839999999999,0.8667835,-0.4004479999999999,-0.127358,1.1016635,-0.397588,-0.150084,0.8747834999999999,-0.7437480000000001,-0.0995819999999999,1.1147634999999998,-0.7344780000000001,-0.098636
65,0.9810025,0.7102944999999999,-0.0005095,0.8448105,0.4841944999999999,0.0155015,0.7195905,0.7176345,-0.0267925,1.1276105,0.5061145,0.0035315,1.2168305,0.7380645,-0.0665125,0.6789005,0.9482445,-0.0892215,1.2346705,0.9734845,-0.1434045,0.9237915,-0.0013964999999999,0.0037844999999999,1.0762085,0.0013965,-0.0037844999999999,0.8655605,-0.3874555,-0.1398045,1.1002504999999998,-0.3863655,-0.1616545,0.8745205,-0.7296855,-0.1049835,1.1140005,-0.7204755,-0.1034635
66,0.9803475000000001,0.7094175,-0.0036665,0.8445315,0.4833775,0.0127984999999999,0.7188114999999999,0.7142775,-0.0306685,1.1267415,0.5047775,0.0004914999999999,1.2159615,0.7391875,-0.0712375,0.6776515000000001,0.9416775,-0.0944535,1.2337915,0.9716775,-0.1494335,0.9234305,-0.0014544999999999,0.0036194999999999,1.0765695,0.0014545,-0.0036195,0.8644315,-0.3752625,-0.1516135,1.0988515,-0.3750725,-0.1725135,0.8743515,-0.7156125,-0.1105215,1.1132315,-0.7060825,-0.1082075
67,0.979735,0.70871,-0.00668,0.844311,0.48286,0.0099639999999999,0.7181109999999999,0.71046,-0.034441,1.1260009999999998,0.50401,-0.002372,1.215301,0.73796,-0.075528,0.6765410000000001,0.93474,-0.099417,1.233131,0.96856,-0.155083,0.923135,-0.001592,0.0034929999999999,1.076865,0.0015919999999999,-0.003493,0.863301,-0.3608,-0.162793,1.0974409999999999,-0.3611,-0.183243,0.874331,-0.70115,-0.115376,1.112541,-0.6921400000000001,-0.113077
68,0.9792305,0.7064235,-0.0099655,0.8440945,0.4812435,0.0069335,0.7174845000000001,0.7081335,-0.0387505,1.1252345,0.5028935,-0.0054985,1.2148245,0.7346635,-0.0796965,0.6755344999999999,0.9298435,-0.1044085,1.2325945,0.9666535,-0.1604135,0.9227225,-0.0018514999999999,0.0036324999999999,1.0772775,0.0018515,-0.0036324999999999,0.8622745,-0.3423865,-0.1742035,1.0957245,-0.3451965,-0.1938935,0.8743045,-0.6837465,-0.1202595,1.1119645,-0.6751865,-0.1179995
69,0.9783595,0.7054885000000001,-0.0178214999999999,0.8437155000000001,0.4819985,-0.0004725,0.7165655,0.7076185,-0.0479174999999999,1.1243055,0.5040085,-0.0132614999999999,1.2141555,0.7338285,-0.0883905,0.6742655,0.9257685,-0.1139725,1.2319054999999999,0.9658385,-0.1694775,0.9222925,-0.0021354999999999,0.0036885,1.0777075,0.0021354999999999,-0.0036884999999999,0.8611455,-0.3235015,-0.1881975,1.0936125,-0.3297015,-0.2079375,0.8740255,-0.6653015,-0.1291875,1.1108955,-0.6574315,-0.1273845
70,0.9773825,0.703705,-0.025747,0.8435135,0.480445,-0.008991,0.7156335,0.705035,-0.057895,1.1230134999999999,0.504115,-0.021513,1.2132535,0.732625,-0.097783,0.6727135,0.919385,-0.125356,1.2311334999999999,0.966075,-0.179979,0.9218284999999999,-0.002415,0.0037689999999999,1.0781715,0.002415,-0.003769,0.8597735000000001,-0.302595,-0.206429,1.0910815,-0.3115549999999999,-0.2243089999999999,0.8737135,-0.643805,-0.138125,1.1096135,-0.636755,-0.136397
71,0.975862,0.7020550000000001,-0.0350615,0.843245,0.478375,-0.0186345,0.714345,0.703095,-0.0695515,1.1212849999999999,0.502335,-0.0315405,1.2120549999999999,0.732855,-0.1092995,0.670655,0.911725,-0.1385355,1.229585,0.966255,-0.1937885,0.92152,-0.002485,0.0039904999999999,1.0784799999999999,0.0024849999999999,-0.0039905,0.858135,-0.279145,-0.2250885,1.087955,-0.290455,-0.2413584999999999,0.873325,-0.6191150000000001,-0.1473265,1.107235,-0.613475,-0.1457935
72,0.9743065000000001,0.699065,-0.045292,0.8426165,0.476285,-0.029355,0.7128965,0.700715,-0.082952,1.1195564999999998,0.499515,-0.042677,1.2103265,0.7332150000000001,-0.123078,0.6684464999999999,0.902025,-0.153344,1.2274765,0.967715,-0.209893,0.9210245,-0.0024849999999999,0.0041969999999999,1.0789755,0.002485,-0.004197,0.8564365,-0.2542049999999999,-0.244223,1.0839125,-0.267225,-0.258803,0.8730365,-0.592795,-0.1565409999999999,1.1037965,-0.588925,-0.155301
73,0.9725020000000001,0.69672,-0.0560125,0.8420440000000001,0.47576,-0.0406765,0.7110740000000001,0.69458,-0.0965875,1.117544,0.49724,-0.0546005,1.207854,0.73275,-0.1378715,0.6659740000000001,0.89876,-0.1687115,1.224824,0.96486,-0.2274265,0.920625,-0.00262,0.0045375,1.079375,0.00262,-0.0045375,0.854634,-0.23068,-0.2613465,1.07962,-0.24519,-0.2751965,0.872534,-0.5684199999999999,-0.1656435,1.099634,-0.56616,-0.1640085
74,0.9708745,0.692935,-0.067845,0.8410055,0.473435,-0.05282,0.7093355,0.6884049999999999,-0.110571,1.1155755,0.495355,-0.066997,1.2048755,0.726925,-0.152625,0.6635255,0.894515,-0.184751,1.2215055,0.955325,-0.244863,0.9200765,-0.002795,0.004969,1.0799235,0.0027949999999999,-0.004969,0.8526855,-0.206725,-0.278163,1.0749374999999999,-0.221995,-0.291443,0.8717555,-0.543155,-0.175252,1.0952255,-0.542785,-0.172449
75,0.9692710000000001,0.6879299999999999,-0.0801405,0.840206,0.4714,-0.0654905,0.707356,0.6839,-0.1260405,1.113596,0.49274,-0.0802865,1.201806,0.72018,-0.1682075,0.660826,0.89531,-0.2028005,1.218116,0.95132,-0.2633605,0.919686,-0.0028699999999999,0.0054794999999999,1.080314,0.00287,-0.0054794999999999,0.8509060000000002,-0.1782099999999999,-0.2943805,1.069915,-0.1941399999999999,-0.3076805,0.870976,-0.51336,-0.1847245,1.090606,-0.51511,-0.1806435
76,0.9676845000000001,0.682545,-0.092106,0.8392945,0.4688449999999999,-0.078251,0.7053245,0.679855,-0.141403,1.1115445,0.489125,-0.093837,1.1989245,0.716405,-0.183884,0.6580645,0.892025,-0.222515,1.2149945,0.949625,-0.282135,0.9191135,-0.0029549999999999,0.0059349999999999,1.0808865,0.0029549999999999,-0.0059349999999999,0.8492545000000001,-0.148035,-0.310085,1.0649505,-0.164605,-0.323345,0.8701945,-0.4822349999999999,-0.194286,1.0859185,-0.486525,-0.188635
77,0.9654395000000001,0.678885,-0.104415,0.8376725,0.4679449999999999,-0.0909,0.7028325,0.6747749999999999,-0.157372,1.1091825,0.4874549999999999,-0.107242,1.1955925,0.7128049999999999,-0.2004159999999999,0.6544225,0.887235,-0.244095,1.2111124999999998,0.947105,-0.3047149999999999,0.9188635,-0.0032449999999999,0.006015,1.0811365,0.0032449999999999,-0.0060149999999999,0.8470925000000001,-0.109935,-0.324385,1.0589994999999999,-0.127615,-0.338275,0.8688225,-0.445885,-0.203745,1.0804615,-0.451425,-0.1951649999999999
78,0.963506,0.6731100000000001,-0.1119429999999999,0.8362450000000001,0.4645,-0.098713,0.700635,0.6670200000000001,-0.1681969999999999,1.107185,0.48182,-0.115894,1.192805,0.70692,-0.2126579999999999,0.6507550000000001,0.88105,-0.25992,1.207405,0.93943,-0.3224,0.918532,-0.0034199999999999,0.0063799999999999,1.081468,0.00342,-0.0063799999999999,0.8452450000000001,-0.0738999999999999,-0.33214,1.053568,-0.0927099999999999,-0.34697,0.8670550000000001,-0.41164,-0.2079329999999999,1.075491,-0.4182199999999999,-0.196601
79,0.96182,0.66825,-0.119516,0.834842,0.463723,-0.105741,0.698732,0.66106,-0.178429,1.105392,0.478142,-0.124354,1.1907320000000001,0.70093,-0.225135,0.647392,0.8769,-0.273775,1.204052,0.92783,-0.339285,0.9184,-0.0034799999999999,0.006705,1.0816,0.0034799999999999,-0.006705,0.8438320000000001,-0.04091,-0.335095,1.048813,-0.0603199999999999,-0.352225,0.865442,-0.38065,-0.212505,1.0709710000000001,-0.38819,-0.197871
80,0.9601365000000001,0.66446,-0.125429,0.8334745,0.46384,-0.111597,0.6968345,0.65422,-0.186549,1.1036345,0.475806,-0.1307579999999999,1.1887845,0.6912,-0.234995,0.6446145,0.87253,-0.285065,1.2016545,0.91526,-0.352915,0.9183055,-0.0035199999999999,0.0068749999999999,1.0816945,0.00352,-0.006875,0.8423045,-0.0113899999999999,-0.337125,1.0445625,-0.0312299999999999,-0.355135,0.8635945,-0.35395,-0.218561,1.0669345,-0.3613599999999999,-0.197908
81,0.9586575,0.661165,-0.130527,0.8323405,0.464229,-0.11651,0.6951404999999999,0.646835,-0.192681,1.1023205,0.475042,-0.13617,1.1869605,0.681725,-0.2427,0.6421105,0.867865,-0.2938199999999999,1.1996105,0.903475,-0.36466,0.9180895,-0.0036349999999999,0.0069899999999999,1.0819105,0.0036349999999999,-0.00699,0.8410205,0.017135,-0.33886,1.0416204999999998,-0.0030649999999999,-0.35731,0.8608105,-0.328475,-0.2249,1.0645175,-0.3348549999999999,-0.197114
82,0.9580325,0.65617,-0.134899,0.8315605,0.463052,-0.120651,0.6935205,0.64379,-0.198234,1.1021405,0.473625,-0.140883,1.1853505,0.67311,-0.2492,0.6394605,0.8641300000000001,-0.30167,1.1977705,0.8933800000000001,-0.37451,0.9179895,-0.0034399999999999,0.00706,1.0820105,0.0034399999999999,-0.0070599999999999,0.8402305,0.04258,-0.33954,1.0391965,0.0222399999999999,-0.35855,0.8568804999999999,-0.30511,-0.23234,1.0629375,-0.30854,-0.1951729999999999
83,0.958081,0.65265,-0.138524,0.830854,0.46355,-0.123948,0.692504,0.64,-0.203195,1.102394,0.471836,-0.145136,1.183964,0.66963,-0.255565,0.636904,0.85993,-0.3081049999999999,1.196064,0.88866,-0.3844349999999999,0.918236,-0.00318,0.0071549999999999,1.081764,0.00318,-0.0071549999999999,0.839874,0.0663199999999999,-0.339165,1.037218,0.0458799999999999,-0.359705,0.853174,-0.28384,-0.2397949999999999,1.061535,-0.2848099999999999,-0.192941
84,0.958323,0.6503750000000001,-0.141383,0.8305750000000001,0.4638190000000001,-0.126503,0.691495,0.637175,-0.206327,1.102975,0.4698380000000001,-0.14835,1.183115,0.6663150000000001,-0.260745,0.634605,0.8522150000000002,-0.312075,1.194555,0.8858450000000001,-0.393055,0.9184950000000001,-0.0029749999999999,0.0072949999999999,1.081505,0.002975,-0.007295,0.839815,0.0848250000000001,-0.337945,1.035585,0.0642350000000001,-0.360755,0.849615,-0.2679949999999998,-0.247655,1.060294,-0.2653349999999999,-0.190465
85,0.9587865,0.648245,-0.1438789999999999,0.8305685,0.4641119999999999,-0.128708,0.6906585000000001,0.6342049999999999,-0.2091789999999999,1.1039485,0.4684279999999999,-0.1509869999999999,1.1831285,0.661385,-0.26569,0.6327985,0.848665,-0.3147999999999999,1.1936085,0.881755,-0.40112,0.9188515,-0.002765,0.00742,1.0811485,0.002765,-0.0074199999999999,0.8400285000000001,0.1023649999999999,-0.3367599999999999,1.0342345,0.0813049999999999,-0.36177,0.8462485000000001,-0.252965,-0.25556,1.0592945,-0.247005,-0.1883789999999999
86,0.9596365,0.645634,-0.145657,0.8311625,0.4638839999999999,-0.130029,0.6905825,0.631462,-0.210412,1.1051525,0.465621,-0.15282,1.1838825,0.6585099999999999,-0.269415,0.6318125,0.84413,-0.3158849999999999,1.1941225,0.8766,-0.404865,0.9188375,-0.00221,0.0076649999999999,1.0811625,0.00221,-0.007665,0.8407425,0.1092099999999999,-0.335065,1.0339145,0.08742,-0.362295,0.8437125,-0.24706,-0.261525,1.0590595,-0.23917,-0.187209
87,0.960614,0.644241,-0.146388,0.831846,0.4640329999999999,-0.130426,0.690546,0.6297699999999999,-0.2108229999999999,1.106366,0.4645399999999999,-0.153499,1.184916,0.6556449999999999,-0.271355,0.631826,0.8392149999999999,-0.316215,1.1948159999999999,0.874265,-0.407635,0.918824,-0.001765,0.007865,1.081176,0.0017649999999999,-0.0078649999999999,0.841276,0.1150749999999999,-0.3325249999999999,1.033686,0.0925449999999999,-0.361485,0.841126,-0.2421350000000001,-0.2667049999999999,1.058872,-0.232415,-0.185283
88,0.9616715,0.6434810000000001,-0.1473529999999999,0.8325125000000001,0.463512,-0.131041,0.6903925,0.6297900000000001,-0.2114869999999999,1.1075425,0.463277,-0.154337,1.1861424999999999,0.653977,-0.272865,0.6312625000000001,0.837635,-0.316895,1.1961525,0.877745,-0.409965,0.9188075,-0.0013849999999999,0.008055,1.0811925,0.001385,-0.0080549999999999,0.8417225,0.121205,-0.329935,1.0334805,0.097625,-0.360265,0.8385425,-0.237155,-0.272045,1.0586805,-0.2256949999999999,-0.183633
89,0.9627965,0.642798,-0.148732,0.8331935,0.46246,-0.13204,0.6900835000000001,0.631773,-0.212753,1.1086535,0.46214,-0.155516,1.1874035,0.655621,-0.27468,0.6307834999999999,0.84006,-0.31756,1.1978235,0.8806700000000001,-0.4121,0.9189065,-0.00119,0.00827,1.0810935,0.00119,-0.00827,0.8420435,0.12639,-0.32811,1.0336345,0.10174,-0.35939,0.8383835,-0.2327599999999999,-0.27295,1.0585965,-0.2197799999999999,-0.18256
90,0.963893,0.643359,-0.149111,0.833815,0.46152,-0.1319129999999999,0.690205,0.635176,-0.2129609999999999,1.109615,0.46154,-0.1555649999999999,1.189005,0.657157,-0.274945,0.630665,0.84341,-0.317395,1.200155,0.88078,-0.4118549999999999,0.918855,-0.00114,0.008275,1.081145,0.00114,-0.0082749999999999,0.8422150000000002,0.12882,-0.327515,1.034058,0.10357,-0.3592349999999999,0.838515,-0.23084,-0.2729549999999999,1.0589,-0.2169999999999999,-0.181412
91,0.9644155,0.643564,-0.1491569999999999,0.8339645,0.461225,-0.131913,0.6903545,0.635381,-0.213073,1.1099245,0.461265,-0.155583,1.1903645,0.657362,-0.275235,0.6305244999999999,0.843615,-0.317335,1.2026745,0.879965,-0.411995,0.9188355,-0.0012349999999999,0.008275,1.0811645,0.0012349999999999,-0.0082749999999999,0.8423645000000001,0.128215,-0.3275249999999999,1.0344675,0.1030249999999999,-0.359255,0.8388545000000001,-0.2311349999999999,-0.2729749999999999,1.0591475,-0.217415,-0.181161
92,0.964647,0.643564,-0.1490159999999999,0.8340460000000001,0.461225,-0.131855,0.690456,0.635381,-0.212672,1.110156,0.461265,-0.1555909999999999,1.1914959999999999,0.657362,-0.2752949999999999,0.6303259999999999,0.843615,-0.316945,1.205126,0.879965,-0.412115,0.918864,-0.0012349999999999,0.008275,1.081136,0.0012349999999999,-0.0082749999999999,0.842446,0.127245,-0.3275249999999999,1.034917,0.101995,-0.359275,0.840016,-0.231465,-0.272175,1.0597979999999998,-0.217105,-0.181192
93,0.964756,0.643564,-0.148566,0.834153,0.461225,-0.131556,0.690253,0.635381,-0.21268,1.110253,0.461265,-0.155258,1.192733,0.657362,-0.27513,0.6300129999999999,0.843615,-0.3167,1.207943,0.879965,-0.41204,0.918947,-0.0012349999999999,0.0082299999999999,1.081053,0.0012349999999999,-0.00823,0.8425130000000001,0.126775,-0.3273,1.035108,0.1017549999999999,-0.35905,0.842943,-0.231465,-0.26952,1.059993,-0.217105,-0.180972
94,0.9648200000000001,0.647044,-0.147806,0.834167,0.461225,-0.130723,0.690327,0.63878,-0.211764,1.110347,0.461265,-0.15405,1.1938469999999999,0.661795,-0.27429,0.630117,0.8463849999999999,-0.31509,1.211087,0.879965,-0.40996,0.918923,-0.0012349999999999,0.00816,1.081077,0.0012349999999999,-0.00816,0.842087,0.126405,-0.32789,1.035185,0.1017549999999999,-0.3598,0.8467970000000001,-0.231465,-0.26568,1.06008,-0.217105,-0.180213
95,0.9649145,0.64935,-0.146856,0.8339315,0.461165,-0.129501,0.6904615000000001,0.640833,-0.210641,1.1104815,0.462025,-0.152209,1.1951815,0.662689,-0.2726,0.6305415000000001,0.846565,-0.31347,1.2142514999999998,0.876115,-0.40534,0.9188785,-0.001645,0.0080899999999999,1.0811215,0.001645,-0.00809,0.8413714999999999,0.1217949999999999,-0.3292899999999999,1.0352365,0.0971449999999999,-0.36079,0.8501815,-0.236075,-0.26144,1.0603085,-0.221715,-0.180139
96,0.9653960000000001,0.65173,-0.14588,0.834014,0.4601119999999999,-0.12817,0.690974,0.6468039999999999,-0.209666,1.1107639999999999,0.463551,-0.150289,1.197034,0.6623,-0.270965,0.631544,0.85002,-0.312365,1.217724,0.8708400000000001,-0.399695,0.918716,-0.00187,0.008055,1.081284,0.00187,-0.0080549999999999,0.840754,0.1133,-0.331285,1.035764,0.0885699999999999,-0.361435,0.853934,-0.24363,-0.256255,1.061122,-0.23028,-0.180697
97,0.9660435,0.6545399999999999,-0.144279,0.8343935,0.4593989999999999,-0.126602,0.6918535,0.6504399999999999,-0.208158,1.1108735,0.4647619999999999,-0.148208,1.1988435,0.66924,-0.2681,0.6328735,0.85525,-0.31044,1.2213335,0.87418,-0.3933,0.9183065,-0.00199,0.00792,1.0816935,0.0019899999999999,-0.0079199999999999,0.8403535,0.0969599999999999,-0.33347,1.0368175,0.0721699999999999,-0.36174,0.8579535,-0.25806,-0.24956,1.0622385,-0.24674,-0.181311
98,0.96689,0.658225,-0.142486,0.835134,0.459148,-0.124969,0.6927639999999999,0.6543749999999999,-0.206522,1.111424,0.466022,-0.146073,1.200344,0.6746749999999999,-0.26477,0.634884,0.863515,-0.30859,1.224824,0.876155,-0.38678,0.918186,-0.001935,0.0077399999999999,1.081814,0.001935,-0.00774,0.8403240000000001,0.0777049999999999,-0.33502,1.038238,0.0540949999999999,-0.36118,0.861924,-0.273495,-0.24137,1.0637919999999998,-0.264885,-0.182017
99,0.967769,0.66246,-0.140348,0.8359470000000001,0.458716,-0.123119,0.6940569999999999,0.65974,-0.204085,1.112037,0.468594,-0.143463,1.201597,0.6807000000000001,-0.260635,0.637097,0.86892,-0.306115,1.227297,0.87758,-0.378685,0.918063,-0.00207,0.0075149999999999,1.081937,0.00207,-0.007515,0.840347,0.05496,-0.336345,1.040045,0.03297,-0.360525,0.865727,-0.29223,-0.232865,1.065389,-0.2864399999999999,-0.182842
100,0.968668,0.66792,-0.137689,0.83659,0.457875,-0.120966,0.69552,0.66444,-0.2009989999999999,1.1131399999999998,0.469954,-0.140548,1.2029999999999998,0.68518,-0.2551299999999999,0.6397900000000001,0.87311,-0.3021,1.2307199999999998,0.8782399999999999,-0.36867,0.91788,-0.0021499999999999,0.00722,1.08212,0.0021499999999999,-0.00722,0.84064,0.03048,-0.33681,1.042286,0.0099699999999999,-0.35892,0.86938,-0.31302,-0.223858,1.067154,-0.30999,-0.18379
101,0.969781,0.67273,-0.134455,0.837452,0.458526,-0.1180109999999999,0.697252,0.6708000000000001,-0.1972959999999999,1.1145019999999999,0.473144,-0.1368849999999999,1.205412,0.68663,-0.247795,0.642722,0.87494,-0.297285,1.2342719999999998,0.87602,-0.357295,0.917898,-0.0023099999999999,0.006855,1.082102,0.0023099999999999,-0.0068549999999999,0.841262,0.0023699999999999,-0.336785,1.045617,-0.01627,-0.356885,0.871012,-0.33805,-0.2172089999999999,1.0694110000000001,-0.33778,-0.183991
102,0.9712345000000001,0.6777249999999999,-0.13066,0.8383775,0.458549,-0.115014,0.6993475,0.675515,-0.193496,1.1156475,0.4753579999999999,-0.133431,1.2080175,0.686835,-0.239475,0.6466974999999999,0.880025,-0.291225,1.2376975,0.874225,-0.344945,0.9179625,-0.002425,0.006665,1.0820375,0.0024249999999999,-0.006665,0.8423175,-0.025865,-0.335335,1.0493815,-0.042855,-0.355045,0.8726175,-0.3644550000000001,-0.2114079999999999,1.0724035,-0.365635,-0.184615
103,0.9731385000000001,0.68135,-0.1245,0.8397915000000001,0.46036,-0.110004,0.7019515000000001,0.67929,-0.18676,1.1172015,0.47955,-0.127139,1.2111015,0.68479,-0.22886,0.6513515000000001,0.88547,-0.28265,1.2418815,0.88138,-0.33174,0.9183425000000001,-0.0024399999999999,0.0064099999999999,1.0816575,0.0024399999999999,-0.0064099999999999,0.8438415000000001,-0.05823,-0.33197,1.0541765,-0.07277,-0.35186,0.8745815,-0.3965299999999999,-0.204222,1.0760685,-0.39839,-0.183554
104,0.9750940000000001,0.68663,-0.118298,0.841328,0.46119,-0.105175,0.704488,0.68486,-0.179275,1.118728,0.48261,-0.121197,1.214188,0.69123,-0.21852,0.6562680000000001,0.8955299999999999,-0.27303,1.2456779999999998,0.89115,-0.32016,0.918651,-0.00221,0.0061399999999999,1.081349,0.0022099999999999,-0.00614,0.845458,-0.0864,-0.32855,1.059203,-0.09862,-0.34832,0.875368,-0.42427,-0.197296,1.079869,-0.42711,-0.181931
105,0.9770860000000001,0.69272,-0.110463,0.842925,0.4642699999999999,-0.098979,0.707615,0.6897899999999999,-0.170974,1.120605,0.4855199999999999,-0.113592,1.216915,0.69973,-0.206111,0.661555,0.90196,-0.261935,1.2496450000000001,0.90088,-0.306335,0.9192460000000001,-0.00189,0.0056849999999999,1.080754,0.00189,-0.005685,0.8469450000000001,-0.1153899999999999,-0.323975,1.064544,-0.1249899999999999,-0.342065,0.876305,-0.4540599999999999,-0.189463,1.083768,-0.45748,-0.17859
106,0.9790625,0.69984,-0.1024124999999999,0.8442445000000001,0.46642,-0.0924524999999999,0.7104145,0.69635,-0.1630145,1.1223045,0.48781,-0.1057704999999999,1.2192245,0.7009000000000001,-0.1946065,0.6665745000000001,0.90615,-0.2513495,1.2534245,0.90131,-0.2909994999999999,0.9202065000000001,-0.0016899999999999,0.0052405,1.0797934999999999,0.00169,-0.0052404999999999,0.8481845,-0.1375699999999999,-0.3186295,1.0696815,-0.1443399999999999,-0.3345194999999999,0.8769945000000001,-0.47867,-0.1830534999999999,1.0874575,-0.4816,-0.1749505
107,0.980856,0.704905,-0.0935335,0.845067,0.471085,-0.0847815,0.7127570000000001,0.7025250000000001,-0.1542445,1.123637,0.4912149999999999,-0.0968315,1.221447,0.701245,-0.1816265,0.671087,0.909265,-0.2393815,1.257487,0.908165,-0.2749515,0.921071,-0.001545,0.0047485,1.078929,0.0015449999999999,-0.0047485,0.849187,-0.158675,-0.3106315,1.074558,-0.164235,-0.3247115,0.8772570000000001,-0.5052650000000001,-0.1775465,1.090767,-0.507215,-0.1701555
108,0.98321,0.71083,-0.0832049999999999,0.8460529999999999,0.4736399999999999,-0.0763409999999999,0.715183,0.7065,-0.144316,1.125063,0.49454,-0.086542,1.224413,0.69931,-0.166078,0.675573,0.91603,-0.2271699999999999,1.2617829999999999,0.9133,-0.25832,0.921983,-0.00139,0.00435,1.078017,0.00139,-0.0043499999999999,0.850413,-0.1788499999999999,-0.29957,1.080119,-0.18332,-0.31275,0.8776930000000001,-0.5317999999999999,-0.171168,1.094403,-0.5324599999999999,-0.164237
109,0.9857235,0.71503,-0.0721965,0.8470405,0.47902,-0.0671565,0.7175205,0.7097899999999999,-0.1338105,1.1267805,0.49793,-0.0754985,1.2266005,0.70177,-0.1500045,0.6797305,0.92049,-0.2154325,1.2662404999999999,0.91837,-0.2414025,0.9228295,-0.0010499999999999,0.0037154999999999,1.0771705,0.0010499999999999,-0.0037155,0.8514205,-0.1993599999999999,-0.2862325,1.0856555,-0.2026899999999999,-0.2990725,0.8776005,-0.55888,-0.1641755,1.0979205,-0.55836,-0.1575305
110,0.9878565,0.719625,-0.061222,0.8473965,0.482275,-0.058412,0.7193665,0.711195,-0.12327,1.1276865,0.499215,-0.064891,1.2283165,0.706315,-0.135376,0.6835665,0.926225,-0.203991,1.2703764999999998,0.931895,-0.224861,0.9236165000000001,-0.0007449999999999,0.0031039999999999,1.0763835,0.000745,-0.003104,0.8522865,-0.216725,-0.273111,1.0899175,-0.219335,-0.285331,0.8769865,-0.5824449999999999,-0.157291,1.1006665,-0.5806549999999999,-0.151212
111,0.990103,0.723655,-0.0507539999999999,0.847757,0.4859949999999999,-0.049733,0.721317,0.713205,-0.112674,1.128767,0.500395,-0.05431,1.229577,0.7109650000000001,-0.121679,0.686427,0.932265,-0.193703,1.274397,0.944765,-0.209913,0.924472,-0.0004949999999999,0.002425,1.075528,0.0004949999999999,-0.0024249999999999,0.853317,-0.234295,-0.259343,1.094327,-0.235905,-0.270443,0.876407,-0.606115,-0.149824,1.102917,-0.603825,-0.1445699999999999
112,0.9918985,0.72682,-0.0422834999999999,0.8481425,0.4876,-0.0433034999999999,0.7226125,0.71607,-0.1048004999999999,1.1298825,0.4999,-0.0465395,1.2313125,0.7155199999999999,-0.1103565,0.6884825,0.93743,-0.1853285,1.2774925,0.94835,-0.1959685,0.9251175,-0.00037,0.0018535,1.0748825,0.0003699999999999,-0.0018534999999999,0.8544525000000001,-0.2530099999999999,-0.2473685,1.0969325,-0.2524699999999999,-0.2571084999999999,0.8763925,-0.62629,-0.1436204999999999,1.1045725,-0.6235200000000001,-0.1385914999999999
113,0.9937975000000001,0.7300975000000001,-0.0338525,0.8487055,0.4895175,-0.0370115,0.7241955000000001,0.7190975000000001,-0.0970845,1.1311455,0.5003275,-0.0389135,1.2331855,0.7152675000000001,-0.0989565,0.6905855000000001,0.9412575,-0.1769555,1.2807755,0.9526675,-0.1814755,0.9256305,-0.0003284999999999,0.0013564999999999,1.0743695,0.0003284999999999,-0.0013565,0.8557954999999999,-0.2722025,-0.2349055,1.0995255,-0.2686625,-0.2433455,0.8765055,-0.6468725,-0.1372965,1.1062855,-0.6431925,-0.1327185
114,0.9956455000000001,0.73216,-0.021533,0.8493975,0.4883,-0.026522,0.7258775,0.7174,-0.084654,1.1324074999999998,0.499,-0.027288,1.2353775,0.71292,-0.083555,0.6925574999999999,0.94451,-0.164178,1.2839075,0.95685,-0.164028,0.9259364999999999,-0.000519,0.0008739999999999,1.0740635,0.000519,-0.0008739999999999,0.8574075,-0.2906499999999999,-0.217328,1.1019174999999999,-0.2839899999999999,-0.224648,0.8767575,-0.66541,-0.126492,1.1079675,-0.66128,-0.122399
115,0.9975820000000001,0.7328075000000001,-0.0090525,0.8502330000000001,0.4887674999999999,-0.0157265,0.727333,0.7167075,-0.0709435,1.134253,0.5014375,-0.0143525,1.237353,0.7134375000000001,-0.0678965,0.6944530000000001,0.9474575,-0.1498025,1.2869329999999999,0.9608575,-0.1462525,0.92626,-0.0005534999999999,0.0002044999999999,1.07374,0.0005534999999999,-0.0002045,0.8594729999999999,-0.3119125,-0.1936325,1.104313,-0.3028625,-0.2008925,0.877073,-0.6861324999999999,-0.1134975,1.109813,-0.6814024999999999,-0.1098905
116,0.9992005,0.7349000000000001,0.0025779999999999,0.8507735,0.48622,-0.0059799999999999,0.7284335,0.7182200000000001,-0.057874,1.1358135,0.5025999999999999,-0.002446,1.2397434999999999,0.7190399999999999,-0.053654,0.6957135000000001,0.94864,-0.136376,1.2888635,0.96034,-0.128683,0.9265395,-0.000749,-0.0003669999999999,1.0734605,0.0007489999999999,0.0003669999999999,0.8614035,-0.33076,-0.170836,1.1064435,-0.31946,-0.178236,0.8770935,-0.7038200000000001,-0.101335,1.1112635,-0.69845,-0.097825
117,0.9998555,0.735403,0.012731,0.8509415,0.485883,0.0033009999999999,0.7290615,0.720423,-0.0465649999999999,1.1371315,0.502433,0.007861,1.2406315,0.726183,-0.042421,0.6964315,0.948533,-0.123395,1.2896415,0.962273,-0.11294,0.9269255,-0.0007989999999999,-0.000923,1.0730745,0.000799,0.000923,0.8628715,-0.345377,-0.149675,1.1079315,-0.334427,-0.157235,0.8774615,-0.7187870000000001,-0.090231,1.1123115,-0.713417,-0.086177
118,1.0003665,0.735791,0.0219175,0.8511265,0.484021,0.0119564999999999,0.7296465000000001,0.722571,-0.0360005,1.1385165,0.5036109999999999,0.0174205,1.2416765,0.729371,-0.0325305,0.6971365,0.950611,-0.1110115,1.2901865,0.964601,-0.0991555,0.9272655,-0.001104,-0.0012655,1.0727345,0.001104,0.0012654999999999,0.8644165,-0.3561589999999999,-0.1300645,1.1094165,-0.346049,-0.1372245,0.8775565,-0.7304090000000001,-0.0798925,1.1132965,-0.725039,-0.0752164999999999
119,1.0007775,0.736282,0.03087,0.8514605,0.482772,0.02002,0.7301005,0.724042,-0.025887,1.1399804999999998,0.504752,0.026875,1.2429204999999999,0.733362,-0.022834,0.6978305,0.950472,-0.098425,1.2907705,0.961612,-0.085747,0.9274155,-0.0012399999999999,-0.0016239999999999,1.0725845,0.0012399999999999,0.001624,0.8663704999999999,-0.366228,-0.109278,1.1109805,-0.356418,-0.116328,0.8778405,-0.740778,-0.06862,1.1143605,-0.735408,-0.063867
120,1.001169,0.736216,0.0399655,0.851805,0.481836,0.0276485,0.730525,0.725566,-0.0156424999999999,1.141235,0.506436,0.0361265,1.2437649999999998,0.7364660000000001,-0.0131485,0.6984250000000001,0.946826,-0.0849415,1.2913949999999998,0.959726,-0.0717005,0.92753,-0.001368,-0.0020464999999999,1.07247,0.0013679999999999,0.0020464999999999,0.8693150000000001,-0.376814,-0.0883545,1.112655,-0.366214,-0.0936205,0.8781950000000001,-0.750394,-0.0580015,1.115975,-0.7449939999999999,-0.0525765
121,1.001438,0.736531,0.048831,0.852021,0.481241,0.035424,0.730871,0.726451,-0.004898,1.142311,0.508201,0.045493,1.244391,0.738411,-0.003428,0.698951,0.943761,-0.070827,1.291641,0.957771,-0.057541,0.927503,-0.0014229999999999,-0.00251,1.072497,0.001423,0.0025099999999999,0.872731,-0.389019,-0.067084,1.113851,-0.377399,-0.071283,0.8788009999999999,-0.761399,-0.047119,1.117451,-0.755749,-0.041318
122,1.0017859999999998,0.7364335,0.0574709999999999,0.852334,0.4810335,0.043046,0.731194,0.7271735,0.005578,1.143514,0.5093835,0.054691,1.245204,0.7407334999999999,0.005998,0.699484,0.9408435,-0.056702,1.291574,0.9558135,-0.044029,0.92758,-0.0013484999999999,-0.003015,1.07242,0.0013485,0.0030149999999999,0.876104,-0.4017465,-0.046138,1.1150039999999999,-0.3883465,-0.04983,0.879724,-0.7720665,-0.036081,1.118874,-0.7662165,-0.030193
123,1.0017745,0.736283,0.060328,0.8522975,0.482593,0.044821,0.7311175,0.729253,0.01004,1.1445875,0.512753,0.058204,1.2458375,0.744303,0.00996,0.6995374999999999,0.939663,-0.0488669999999999,1.2911074999999999,0.955263,-0.036681,0.9275575000000001,-0.001318,-0.003349,1.0724425,0.0013179999999999,0.0033489999999999,0.8789775,-0.412537,-0.032167,1.1154175,-0.397457,-0.0354369999999999,0.8805075,-0.780237,-0.031172,1.1198775,-0.774157,-0.0245689999999999
124,1.0018745,0.735908,0.06222,0.8523415,0.4830579999999999,0.045778,0.7309215,0.7310380000000001,0.013133,1.1447015,0.513198,0.059912,1.2464015,0.746128,0.013311,0.6995315,0.939178,-0.043325,1.2907815,0.955728,-0.0314389999999999,0.9275545000000001,-0.0014359999999999,-0.0034089999999999,1.0724455,0.0014359999999999,0.0034089999999999,0.8806315,-0.414492,-0.024761,1.1158815,-0.399722,-0.026853,0.8809515,-0.782612,-0.0295509999999999,1.1207915,-0.7769419999999999,-0.021504
125,1.0019725,0.7351015,0.0640495,0.8524015,0.4836315,0.0467905,0.7304515,0.7299615,0.0162015,1.1448315,0.5137015,0.0615885,1.2465715,0.7450515,0.0164525,0.6994715,0.9387815,-0.0379275,1.2904214999999999,0.9557815,-0.0266115,0.9275495,-0.0015034999999999,-0.0035024999999999,1.0724505,0.0015034999999999,0.0035024999999999,0.8820515,-0.4160585,-0.0178035,1.1162915,-0.4016885,-0.0190224999999999,0.8810315,-0.7845385,-0.0280515,1.1216715,-0.7794285,-0.0189625
126,1.001865,0.7343385,0.0656865,0.852286,0.4842085,0.0476015,0.729746,0.7291285000000001,0.0191045,1.144836,0.5142885,0.0631075,1.246746,0.7446485,0.0194255,0.6991960000000002,0.9384385,-0.0328465,1.289886,0.9559485,-0.0220875,0.927386,-0.0015514999999999,-0.0037004999999999,1.072614,0.0015515,0.0037004999999999,0.883226,-0.4173114999999999,-0.0116814999999999,1.116506,-0.4032415,-0.0121375,0.8809359999999999,-0.7862115,-0.0268595,1.122316,-0.7815615,-0.0166825
127,1.0014234999999998,0.733872,0.0671535,0.8517805,0.484172,0.0487315,0.7291205000000001,0.728662,0.0219085,1.1446505,0.514422,0.0646825,1.2466605,0.744182,0.0223785,0.6985405,0.938132,-0.0274144999999999,1.2893705,0.956382,-0.0176145,0.9272994999999999,-0.001578,-0.0038195,1.0727005,0.0015779999999999,0.0038195,0.8843005,-0.417808,-0.0060634999999999,1.1172305,-0.403918,-0.0064455,0.8806705,-0.7874680000000001,-0.0259165,1.1229105,-0.783168,-0.0145465
128,1.0010215,0.7334849999999999,0.068353,0.8512515,0.484135,0.049614,0.7287315,0.727475,0.025189,1.1445915,0.514675,0.066055,1.2461115,0.743305,0.02546,0.6978115,0.937835,-0.022639,1.2889315,0.956895,-0.01398,0.9272975,-0.001667,-0.003819,1.0727025000000001,0.0016669999999999,0.0038189999999999,0.8850215,-0.418285,-0.002597,1.1178215,-0.404845,-0.002964,0.8804215,-0.788535,-0.025529,1.1234214999999999,-0.7846850000000001,-0.0131319999999999
129,1.0009465,0.7329225,0.0690045,0.8507365,0.4841524999999999,0.0505285,0.7286465,0.7256525,0.0279685,1.1445665,0.5149025,0.0673005,1.2460965,0.7425725000000001,0.0279325,0.6969065,0.9374825,-0.0191395,1.2889465,0.9573325,-0.0115835,0.9272975,-0.0017535,-0.0038195,1.0727025000000001,0.0017534999999999,0.0038195,0.8850665,-0.4184675,-0.0003394999999999,1.1178165,-0.4052075,-0.0028474999999999,0.8802365,-0.7889375,-0.0252035,1.1233865,-0.7850475,-0.0120365
130,1.0008695,0.732475,0.069588,0.8502215,0.4840249999999999,0.05154,0.7286115,0.723495,0.03012,1.1445115,0.515235,0.068584,1.2461315,0.742095,0.03031,0.6959415000000001,0.937235,-0.0166569999999999,1.2889415,0.957805,-0.009797,0.9272915,-0.0018789999999999,-0.0038189999999999,1.0727085,0.0018789999999999,0.0038189999999999,0.8850515,-0.418535,0.00105,1.1177715,-0.405335,-0.002845,0.8800315,-0.789065,-0.0248649999999999,1.1233615,-0.7851750000000001,-0.0110989999999999
131,1.0007985,0.7321949999999999,0.070061,0.8497065,0.4840249999999999,0.052627,0.7286265000000001,0.721325,0.032183,1.1444965,0.515155,0.069855,1.2458265,0.740785,0.032492,0.6950265000000001,0.937145,-0.0145189999999999,1.2889365,0.958005,-0.008221,0.9272885,-0.0018789999999999,-0.0038049999999999,1.0727115,0.0018789999999999,0.0038049999999999,0.8850165000000001,-0.418545,0.001913,1.1177465,-0.405335,-0.0029579999999999,0.8799565,-0.789065,-0.0248359999999999,1.1233165,-0.7851750000000001,-0.0103329999999999
132,1.0007225,0.7317724999999999,0.070551,0.8491715,0.4840025,0.053798,0.7286515,0.7186825,0.03424,1.1446015,0.5150524999999999,0.071077,1.2457315,0.7397425,0.033898,0.6941815,0.9367825,-0.0124179999999999,1.2889315,0.9582125,-0.0068149999999999,0.9272795,-0.0019574999999999,-0.0038599999999999,1.0727205,0.0019575,0.00386,0.8849615000000001,-0.4192575,0.002625,1.1177115,-0.4053575,-0.0030509999999999,0.8797315,-0.7892275000000001,-0.024798,1.1232115,-0.7853575,-0.009633
133,1.000622,0.7311975000000001,0.0708515,0.8486549999999999,0.4840075,0.0549015,0.7281950000000001,0.7177175,0.0356724999999999,1.144705,0.5149775,0.0721364999999999,1.245705,0.7391375,0.0349265,0.6933850000000001,0.9364175,-0.0108295,1.288985,0.9583475,-0.0057735,0.927261,-0.0020254999999999,-0.0039235,1.0727389999999999,0.0020254999999999,0.0039235,0.884825,-0.4204925,0.0030904999999999,1.117685,-0.4054425,-0.0033145,0.879385,-0.7895925,-0.0249374999999999,1.123085,-0.7856025,-0.0092055
134,1.0004989999999998,0.7305135,0.070992,0.848186,0.4840135,0.055837,0.727646,0.7164535,0.036843,1.144796,0.5148835,0.073009,1.245696,0.7387835,0.035703,0.6926460000000001,0.9360535,-0.009696,1.289036,0.9584035,-0.004975,0.9272390000000001,-0.0021004999999999,-0.0039969999999999,1.0727609999999999,0.0021005,0.003997,0.884656,-0.4213365,0.003223,1.117626,-0.4055465,-0.0036679999999999,0.879016,-0.7896665,-0.025249,1.1229559999999998,-0.7858465,-0.008999
135,1.000351,0.729812,0.0710065,0.8476980000000001,0.484022,0.0567095,0.727028,0.714922,0.0378515,1.144888,0.514702,0.0736935,1.246048,0.7393419999999999,0.0362415,0.6919379999999999,0.935722,-0.0090364999999999,1.289058,0.958372,-0.0044724999999999,0.927217,-0.0021639999999999,-0.0040944999999999,1.072783,0.002164,0.0040945,0.8844879999999999,-0.422018,0.0031895,1.117558,-0.4057179999999999,-0.0040504999999999,0.878598,-0.789678,-0.0256305,1.122828,-0.7862680000000001,-0.0089054999999999
136,1.0001195,0.7291685,0.0705964999999999,0.8472685,0.4839585,0.0572214999999999,0.7266185000000001,0.7131485000000001,0.0383605,1.1448885,0.5143985000000001,0.0738505,1.2458985,0.7384985000000001,0.0363145,0.6913985,0.9353185,-0.0095445,1.2889185,0.9580485,-0.0046894999999999,0.9271805,-0.0022095,-0.0041765,1.0728195,0.0022095,0.0041765,0.8842885,-0.4224815,0.0028604999999999,1.1174685,-0.4059415,-0.0045875,0.8781485,-0.7897015,-0.0261435,1.1225685,-0.7863414999999999,-0.0089865
137,0.9998495,0.7286370000000001,0.070027,0.8468595,0.483937,0.05761,0.7263395,0.712527,0.037797,1.1448595,0.5141070000000001,0.073568,1.2460395,0.7379870000000001,0.035723,0.6908894999999999,0.934937,-0.0101009999999999,1.2887395,0.957757,-0.0052639999999999,0.9271405,-0.0022379999999999,-0.0042349999999999,1.0728595,0.0022379999999999,0.004235,0.8840995,-0.422413,0.002336,1.1173795,-0.406173,-0.0052509999999999,0.8779695,-0.789843,-0.026528,1.1223095,-0.786253,-0.0091379999999999
138,0.9994735,0.728437,0.069478,0.8465185,0.483937,0.0577349999999999,0.7262685,0.7120070000000001,0.037279,1.1447585,0.5141070000000001,0.073004,1.2461484999999999,0.7380770000000001,0.035148,0.6903185000000001,0.934687,-0.01064,1.2886085,0.957757,-0.005826,0.9271075,-0.0022379999999999,-0.004257,1.0728925,0.0022379999999999,0.0042569999999999,0.8838885,-0.422523,0.00178,1.1172885,-0.406173,-0.005893,0.8777085,-0.789843,-0.026932,1.1219285,-0.786103,-0.00934
139,0.9989655,0.728237,0.0688795,0.8461965,0.483937,0.0576885,0.7260165000000001,0.7120070000000001,0.0366665,1.1446165,0.5141070000000001,0.0723854999999999,1.2461065,0.7380770000000001,0.0345245,0.6895665,0.934197,-0.0112605,1.2884265,0.957657,-0.0064425,0.9270655,-0.0022379999999999,-0.0042654999999999,1.0729345,0.0022379999999999,0.0042655,0.8836365,-0.422793,0.0011675,1.1172065,-0.406173,-0.0065755,0.8774365,-0.7898529999999999,-0.0275025,1.1214665,-0.7859729999999999,-0.0096065
140,0.9983665,0.7280770000000001,0.0682465,0.8458055,0.483967,0.0574815,0.7254055000000001,0.7120070000000001,0.0361875,1.1444355,0.5140870000000001,0.0718835,1.2461755,0.739047,0.0336595,0.6887355,0.933837,-0.0122045,1.2881955,0.957357,-0.0071435,0.9270225,-0.0022379999999999,-0.0042405,1.0729775,0.0022379999999999,0.0042404999999999,0.8833555,-0.422853,0.0006705,1.1171255,-0.406223,-0.0071405,0.8769855,-0.789863,-0.0280234999999999,1.1210155,-0.7859029999999999,-0.0098504999999999
141,0.9977320000000001,0.7277819999999999,0.0675535,0.8454420000000001,0.484042,0.0571905,0.7246520000000001,0.7126119999999999,0.0355345,1.144302,0.513782,0.0714515,1.246432,0.7396419999999999,0.0324065,0.687852,0.933662,-0.0132725,1.287992,0.956512,-0.0080224999999999,0.926976,-0.002242,-0.0041534999999999,1.073024,0.002242,0.0041535,0.883112,-0.422798,0.0002555,1.117052,-0.406408,-0.0076425,0.8765620000000001,-0.789938,-0.0284294999999999,1.120482,-0.785428,-0.0099945
142,0.9970730000000001,0.727444,0.066701,0.8451029999999999,0.484164,0.056858,0.723553,0.7139439999999999,0.0340629999999999,1.144143,0.513494,0.0708979999999999,1.246713,0.740544,0.030673,0.686993,0.933174,-0.014547,1.287753,0.955674,-0.009103,0.926929,-0.002242,-0.004037,1.073071,0.002242,0.0040369999999999,0.8828930000000001,-0.422676,-0.000206,1.116993,-0.406516,-0.008099,0.8760930000000001,-0.7899860000000001,-0.028756,1.119983,-0.784926,-0.010027
143,0.996342,0.7271985,0.0657825,0.8447660000000001,0.4843885,0.0567545,0.7221660000000001,0.7139584999999999,0.0325535,1.1439659999999998,0.5130085,0.0698905,1.247036,0.7410185,0.0290075,0.686116,0.9326885,-0.0159295,1.287526,0.9546885,-0.0105125,0.926863,-0.0022355,-0.0039135,1.073137,0.0022354999999999,0.0039135,0.882796,-0.4223915,-0.0007074999999999,1.117006,-0.4064815,-0.0083565,0.875686,-0.7901215,-0.0290825,1.119576,-0.7847315,-0.0101254999999999
144,0.995589,0.7269265,0.064593,0.8444929999999999,0.4846565,0.056745,0.7207129999999999,0.7140765,0.030938,1.143803,0.5125765,0.068832,1.2473130000000001,0.7413165,0.027193,0.685233,0.9320265,-0.017584,1.287323,0.9533565,-0.012457,0.926803,-0.0022245,-0.003886,1.073197,0.0022244999999999,0.003886,0.882723,-0.4223335,-0.0012679999999999,1.1171229999999999,-0.4064335,-0.008555,0.875383,-0.7903034999999999,-0.029291,1.1193629999999999,-0.7845635,-0.010348
145,0.9949095000000001,0.726672,0.063058,0.8443645,0.484922,0.056714,0.7197745000000001,0.714222,0.029425,1.1437845,0.512192,0.067726,1.2477445,0.740862,0.025168,0.6845245000000001,0.931152,-0.019387,1.2872945,0.952132,-0.014764,0.9267645,-0.002215,-0.0038839999999999,1.0732355,0.002215,0.003884,0.8826745,-0.422548,-0.0021329999999999,1.1173545,-0.406538,-0.008809,0.8754345,-0.790558,-0.029564,1.1194145,-0.784388,-0.010574
146,0.9939565000000001,0.7263459999999999,0.0605259999999999,0.8441305,0.485356,0.056393,0.7188405,0.7145159999999999,0.027565,1.1437005,0.511806,0.0662359999999999,1.2485305,0.741176,0.022444,0.6834405,0.930026,-0.021929,1.2873305,0.950426,-0.018559,0.9267704999999999,-0.0021689999999999,-0.003769,1.0732295,0.0021689999999999,0.0037689999999999,0.8826105,-0.422234,-0.003469,1.1177005,-0.406464,-0.009037,0.8756105,-0.790644,-0.029831,1.1194705,-0.784134,-0.010649
147,0.9929495,0.7259545000000001,0.057827,0.8438015,0.4856045,0.0559189999999999,0.7167815,0.7141845,0.025285,1.1436215,0.5114345,0.064695,1.2499315,0.7408845000000001,0.019243,0.6816015,0.9282745,-0.024879,1.2875815,0.9487445,-0.023495,0.9267815,-0.0021305,-0.003563,1.0732185,0.0021305,0.0035629999999999,0.8825315,-0.4219055,-0.004874,1.1179715,-0.4064354999999999,-0.009217,0.8755715,-0.7908755,-0.030004,1.1193815,-0.7840355,-0.010587
148,0.9917235,0.7254444999999999,0.054995,0.8431115,0.4858945,0.055349,0.7134515,0.7111545,0.023074,1.1435415,0.5111045,0.063187,1.2517515,0.7390245,0.015694,0.6790115,0.9260245,-0.027866,1.2878414999999999,0.9452445,-0.0291099999999999,0.9267945,-0.0020955,-0.003314,1.0732055,0.0020955,0.003314,0.8824615,-0.4215354999999999,-0.006252,1.1179715,-0.4063155,-0.0092229999999999,0.8755815,-0.7911755,-0.0297269999999999,1.1193315,-0.7837255000000001,-0.010179
149,0.990221,0.724833,0.052064,0.84213,0.4863229999999999,0.054756,0.7083200000000001,0.705983,0.021475,1.14346,0.510533,0.061503,1.25453,0.735353,0.012171,0.67445,0.918933,-0.0315369999999999,1.28843,0.941603,-0.035424,0.926774,-0.0020939999999999,-0.003074,1.073226,0.0020939999999999,0.003074,0.88239,-0.421357,-0.0075539999999999,1.11812,-0.406127,-0.0088919999999999,0.87574,-0.791227,-0.029155,1.11937,-0.783347,-0.0095389999999999
150,0.9886345,0.7244165,0.0490474999999999,0.8406085,0.4871864999999999,0.0547965,0.7005085,0.6937365,0.0210045,1.1436585,0.5096765,0.0596275,1.2594685,0.7259365,0.0082334999999999,0.6675085000000001,0.9043065,-0.0346015,1.2908585000000001,0.9319465,-0.0449725,0.9267775,-0.0021165,-0.0026935,1.0732225,0.0021165,0.0026934999999999,0.8830585,-0.4213035,-0.0083635,1.1192685,-0.4057035,-0.0077015,0.8769085000000001,-0.7907535,-0.0278845,1.1204085,-0.7826635,-0.0082655
151,0.9866745000000001,0.7253205,0.0461635,0.8390465,0.4881605,0.0552505,0.6905465,0.6759805,0.0223995,1.1435765,0.5083405,0.0577415,1.2645065,0.7105005,0.0034105,0.6594465,0.8848705,-0.0381535,1.2932765,0.9130005,-0.0565785,0.9267555000000001,-0.0022975,-0.0021694999999999,1.0732445,0.0022975,0.0021695,0.8840965000000001,-0.4212295,-0.0092474999999999,1.1215665,-0.4045195,-0.0059244999999999,0.8791465,-0.7886795,-0.0258344999999999,1.1227065,-0.7813795,-0.0060654999999999
152,0.9845225000000001,0.726456,0.0432155,0.8375064999999999,0.489076,0.0559265,0.6799165,0.6543960000000001,0.0245905,1.1435765,0.506966,0.0564145,1.2675065,0.690686,-0.0011584999999999,0.6507665,0.860106,-0.0430095,1.2958165,0.889646,-0.0698815,0.9267515,-0.0025159999999999,-0.0017264999999999,1.0732485,0.002516,0.0017264999999999,0.8854365,-0.420474,-0.0100985,1.1242865,-0.403054,-0.0041064999999999,0.8820765000000002,-0.786094,-0.0230355,1.1259565,-0.7797639999999999,-0.0035525
153,0.982252,0.7274944999999999,0.040215,0.8370029999999999,0.4904845,0.057366,0.674013,0.6297545,0.029534,1.140893,0.5043544999999999,0.053326,1.271633,0.6651644999999999,-0.004039,0.6427430000000001,0.8327844999999999,-0.04957,1.299343,0.8618545,-0.08403,0.92688,-0.0026884999999999,-0.001173,1.07312,0.0026885,0.001173,0.887393,-0.4197455,-0.010699,1.1275330000000001,-0.4012354999999999,-0.0022009999999999,0.886083,-0.7837055,-0.0198049999999999,1.130393,-0.7776755000000001,-0.0006379999999999
154,0.979736,0.7285085,0.036766,0.835698,0.4912784999999999,0.058481,0.6729879999999999,0.5954285,0.036132,1.139288,0.5014385,0.050168,1.2783879999999999,0.6300684999999999,-0.0052779999999999,0.6380680000000001,0.7916285,-0.057515,1.305468,0.8206384999999999,-0.097029,0.926948,-0.0028474999999999,-0.0006679999999999,1.0730520000000001,0.0028475,0.000668,0.890678,-0.4188115,-0.0100929999999999,1.131088,-0.3992015,-0.001,0.893128,-0.7812515,-0.014855,1.1374279999999999,-0.7755315,0.003534
155,0.977627,0.7299140000000001,0.0340809999999999,0.834844,0.491694,0.0603289999999999,0.676274,0.555694,0.0434359999999999,1.137494,0.498484,0.0463769999999999,1.2859939999999999,0.5899340000000001,-0.006625,0.638944,0.744174,-0.062775,1.312404,0.771714,-0.106645,0.9271739999999999,-0.002974,-0.0001,1.072826,0.0029739999999999,9.999999999999593e-05,0.894364,-0.418016,-0.00904,1.1342240000000001,-0.396766,-0.001486,0.901284,-0.7775559999999999,-0.009083,1.146004,-0.771486,0.0082959999999999
156,0.9749375,0.7329545000000001,0.0298625,0.8347755,0.4906645,0.0623285,0.6851355,0.5103345,0.0511805,1.1359285,0.4944745,0.0407595,1.2867255,0.5410445,-0.0046015,0.6469754999999999,0.6744145,-0.0647325,1.3182055,0.6969745,-0.1109624999999999,0.9274455,-0.0031354999999999,0.0007085,1.0725545,0.0031354999999999,-0.0007085,0.9050755,-0.4145255,-0.0051804999999999,1.1353515,-0.3916355,-0.0090494999999999,0.9149155,-0.7723255,-0.0023854999999999,1.1545155,-0.7657655,0.0095485
157,0.9717935000000001,0.7361850000000001,0.0249905,0.8353995,0.489365,0.0639305,0.6963895,0.465605,0.0596035,1.1343845,0.4905949999999999,0.0347665,1.2818595,0.491915,-0.0010814999999999,0.6572595,0.595505,-0.0660085,1.3180395,0.610045,-0.1122785,0.9277695,-0.0033729999999999,0.0017645,1.0722305,0.003373,-0.0017644999999999,0.9193795000000001,-0.410965,-0.0005084999999999,1.1321435,-0.386885,-0.0214784999999999,0.9299195,-0.766875,0.0046275,1.1537695000000001,-0.7600150000000001,0.0029175
158,0.9692845000000001,0.7392525,0.019019,0.8373645000000001,0.4870725,0.065094,0.7113545,0.4198025,0.070273,1.1338435,0.4864425,0.027998,1.2754444999999999,0.4404925,0.0052959999999999,0.6731644999999999,0.5142225,-0.0648749999999999,1.3148545,0.5156225,-0.110205,0.9281145000000001,-0.0035775,0.003512,1.0718855,0.0035775,-0.003512,0.9320245,-0.4076275,-0.0063379999999999,1.1247055,-0.3816874999999999,-0.041255,0.9477245,-0.7613274999999999,0.0085459999999999,1.1467715,-0.7532975,-0.012536
159,0.9672935,0.741927,0.0131064999999999,0.8405435,0.484437,0.0660355,0.7256535,0.380847,0.0804955,1.1334825,0.482727,0.0211644999999999,1.2685435,0.394437,0.0132214999999999,0.6886235,0.436647,-0.0636245,1.3082235,0.425537,-0.1033045,0.9283135,-0.0038979999999999,0.0051304999999999,1.0716865,0.003898,-0.0051305,0.9438335000000001,-0.402813,-0.0206745,1.1153795,-0.3768729999999999,-0.0638645,0.9652935,-0.7558130000000001,0.0130324999999999,1.1358385,-0.7468330000000001,-0.0342645
160,0.9650405,0.7432725,0.006249,0.8430705000000001,0.4812825,0.066254,0.7360205,0.3469625,0.0911,1.1331355,0.4794325,0.013466,1.2591605000000001,0.3541925,0.021249,0.7006805,0.3626925,-0.06082,1.2981505,0.3420425,-0.0977599999999999,0.9286505,-0.0040345,0.00689,1.0713495,0.0040345,-0.0068899999999999,0.9534805000000001,-0.3989675,-0.0407099999999999,1.1035695,-0.3730274999999999,-0.08624,0.9821505000000001,-0.7492774999999999,0.0159539999999999,1.1184305,-0.7369775,-0.06159
161,0.9619425000000001,0.7435189999999999,-0.0019549999999999,0.8452725,0.477479,0.065717,0.7470825,0.3153789999999999,0.099567,1.1326495,0.475859,0.004165,1.2478725,0.3165989999999999,0.0276789999999999,0.7107725,0.292589,-0.0554849999999999,1.2859725,0.261069,-0.0888949999999999,0.9289825,-0.00413,0.008815,1.0710175,0.00413,-0.008815,0.9644225000000001,-0.395361,-0.064575,1.0915955,-0.364561,-0.110895,0.9990925,-0.735481,0.01954,1.0920005,-0.7198910000000001,-0.096355
162,0.9591125,0.7435744999999999,-0.0113949999999999,0.8471124999999999,0.4738845,0.064173,0.7594525,0.2865045,0.10631,1.1347205,0.4723845,-0.0052149999999999,1.2345875,0.2851145,0.032005,0.7240925,0.2259445,-0.048745,1.2732425,0.1856945,-0.077915,0.9291325,-0.0047484999999999,0.0109849999999999,1.0708674999999999,0.0047484999999999,-0.0109849999999999,0.9752925,-0.3897255,-0.088975,1.0793765,-0.3557055,-0.134985,1.0173724999999998,-0.7173455000000001,0.0230849999999999,1.0645434999999999,-0.7074155000000001,-0.132765
163,0.9576120000000001,0.7433255,-0.01918,0.8503120000000001,0.4708955,0.0647,0.7759720000000001,0.2669355,0.110345,1.137323,0.4691955,-0.0133599999999999,1.22084,0.2631155,0.03588,0.741082,0.1732755,-0.0436099999999999,1.258999,0.1238555,-0.06211,0.929262,-0.0052995,0.01302,1.070738,0.0052995,-0.01302,0.983432,-0.3827545,-0.1119299999999999,1.065152,-0.3476045,-0.15836,1.035232,-0.6987845,0.02982,1.035552,-0.6959145,-0.16668
164,0.957355,0.7433810000000001,-0.026095,0.855165,0.468751,0.0638849999999999,0.794895,0.255271,0.1129289999999999,1.140866,0.466641,-0.020355,1.210823,0.246811,0.0396949999999999,0.759895,0.127041,-0.041485,1.2482,0.071325,-0.046655,0.929465,-0.005967,0.0144149999999999,1.070535,0.005967,-0.014415,0.992215,-0.376589,-0.133125,1.0471949999999999,-0.339199,-0.179415,1.0542349999999998,-0.681149,0.0363349999999999,1.004595,-0.682399,-0.199235
165,0.957995,0.7433810000000001,-0.0315199999999999,0.859625,0.468461,0.06402,0.810665,0.251751,0.11263,1.144075,0.466641,-0.0258499999999999,1.208178,0.244061,0.04037,0.773655,0.108131,-0.0415499999999999,1.239746,0.050792,-0.03458,0.929845,-0.005967,0.0156,1.070155,0.005967,-0.0156,0.9978150000000001,-0.3719289999999999,-0.1561099999999999,1.032235,-0.3354789999999999,-0.19216,1.069835,-0.668079,0.0432,0.975485,-0.670049,-0.22568
166,0.9593900000000001,0.7433810000000001,-0.03539,0.8634300000000001,0.468461,0.0651899999999999,0.82769,0.249991,0.1113399999999999,1.14797,0.466641,-0.02998,1.211317,0.244061,0.0393699999999999,0.7888999999999999,0.103671,-0.04147,1.238226,0.046758,-0.02126,0.93016,-0.005967,0.0169499999999999,1.06984,0.005967,-0.01695,1.00418,-0.369569,-0.17847,1.02331,-0.333649,-0.19854,1.08478,-0.656949,0.0510699999999999,0.9575600000000001,-0.659439,-0.24138
167,0.96021,0.7433810000000001,-0.037885,0.86598,0.468461,0.0670949999999999,0.84416,0.249991,0.108705,1.15027,0.466641,-0.033775,1.215954,0.244061,0.0350849999999999,0.8004,0.103671,-0.043015,1.2399069999999999,0.046639,-0.011705,0.93051,-0.005967,0.017405,1.0694899999999998,0.005967,-0.017405,1.00866,-0.366459,-0.189525,1.0194999999999999,-0.332099,-0.198505,1.0965699999999998,-0.646209,0.062445,0.94704,-0.651369,-0.245685
168,0.9596000000000001,0.7418935000000001,-0.039625,0.8676900000000001,0.4668735,0.0677549999999999,0.84806,0.2484035,0.1035749999999999,1.15191,0.4656535,-0.035975,1.2196429999999998,0.2424735,0.0282049999999999,0.80659,0.1020835,-0.045425,1.243571,0.0450515,-0.010865,0.9307500000000001,-0.0063065,0.0180349999999999,1.06925,0.0063065,-0.018035,1.01111,-0.3624065,-0.186055,1.01965,-0.3327865,-0.189655,1.10031,-0.6352865,0.0780949999999999,0.9436599999999999,-0.6449965,-0.237535
169,0.95822,0.7408325,-0.040205,0.86952,0.4651325,0.0682049999999999,0.84947,0.2463025,0.1015249999999999,1.1532099999999998,0.4656025,-0.036545,1.2237239999999998,0.2413725,0.0223249999999999,0.80423,0.0996644999999999,-0.050495,1.248138,0.0432305,-0.019285,0.931,-0.0063695,0.0187949999999999,1.069,0.0063695,-0.018795,1.00932,-0.3589475,-0.173805,1.02331,-0.3336975,-0.178925,1.1002699999999999,-0.6244575,0.0973149999999999,0.9474899999999999,-0.6426575,-0.221285
170,0.956615,0.739941,-0.0394749999999999,0.870945,0.464301,0.0687849999999999,0.8472850000000001,0.245861,0.1006349999999999,1.154385,0.466241,-0.0347549999999999,1.226995,0.244141,0.0163949999999999,0.7961850000000001,0.100591,-0.054205,1.252913,0.045199,-0.031915,0.931245,-0.006465,0.019345,1.068755,0.006465,-0.019345,1.000435,-0.355449,-0.1585149999999999,1.026785,-0.334909,-0.165625,1.087135,-0.621019,0.095845,0.959705,-0.642059,-0.1964949999999999
171,0.9538500000000001,0.7394735,-0.0370449999999999,0.8713200000000001,0.4639535,0.069405,0.8434600000000001,0.2459835,0.101095,1.1544699999999999,0.4679335,-0.0318949999999999,1.22994,0.2474834999999999,0.012285,0.7844800000000001,0.1056034999999999,-0.0576549999999999,1.25523,0.0494095,-0.0491249999999999,0.9314800000000001,-0.0066445,0.019375,1.06852,0.0066445,-0.0193749999999999,0.9871000000000001,-0.3514165,-0.1437049999999999,1.03039,-0.3349665,-0.1535849999999999,1.0661100000000001,-0.6228764999999999,0.086955,0.9729700000000001,-0.6401865,-0.1686349999999999
172,0.9494800000000001,0.739315,-0.035625,0.871,0.4638649999999999,0.0678149999999999,0.8354700000000002,0.2467649999999999,0.0954649999999999,1.15262,0.4697449999999999,-0.029595,1.23154,0.2520449999999999,0.0076549999999999,0.7680200000000001,0.112005,-0.064415,1.2576,0.056305,-0.068245,0.9317500000000001,-0.006818,0.019455,1.06825,0.0068179999999999,-0.019455,0.9735900000000001,-0.348365,-0.131645,1.03517,-0.3346449999999999,-0.140035,1.03979,-0.624995,0.0708349999999999,0.9863200000000001,-0.639035,-0.142915
173,0.94331,0.739264,-0.0348749999999999,0.86912,0.464014,0.067715,0.82732,0.249104,0.0910949999999999,1.1504699999999999,0.4717739999999999,-0.026635,1.2311899999999998,0.257244,0.003695,0.75244,0.119834,-0.068795,1.25603,0.064923,-0.084985,0.93176,-0.006927,0.0197749999999999,1.0682399999999999,0.0069269999999999,-0.0197749999999999,0.95763,-0.345936,-0.1217849999999999,1.04459,-0.338816,-0.1262749999999999,1.00751,-0.627846,0.051445,1.00107,-0.643036,-0.1181549999999999
174,0.9359000000000001,0.7374265000000001,-0.0345099999999999,0.8650500000000001,0.4632564999999999,0.06472,0.8198300000000001,0.2514865,0.0883999999999999,1.14727,0.4752765,-0.0241699999999999,1.2302,0.2614964999999999,0.00074,0.7347699999999999,0.1273165,-0.07651,1.2524499999999998,0.0702965,-0.0959399999999999,0.9315599999999999,-0.0066325,0.01994,1.06844,0.0066324999999999,-0.01994,0.94047,-0.3451435,-0.1124799999999999,1.05368,-0.3437035,-0.1126999999999999,0.9707500000000001,-0.6413734999999999,0.03166,1.0148,-0.6481935,-0.09432
175,0.927015,0.7355365,-0.0346,0.860295,0.4620265,0.0615299999999999,0.810235,0.2531465,0.0858799999999999,1.143075,0.4789665,-0.02051,1.228335,0.2658065,0.0015699999999999,0.719665,0.1352465,-0.08159,1.2491249999999998,0.0752045,-0.09888,0.9311550000000001,-0.0065325,0.0193199999999999,1.0688449999999998,0.0065325,-0.01932,0.9230550000000001,-0.3452635,-0.10255,1.062225,-0.3479135,-0.09871,0.9332150000000001,-0.6561635,0.0116099999999999,1.029275,-0.6526935,-0.06923
176,0.91773,0.7325935,-0.034765,0.8558399999999999,0.4598735,0.0584449999999999,0.7980300000000001,0.2534435,0.0795549999999999,1.13879,0.4820735,-0.016245,1.22498,0.2695435,0.0035449999999999,0.7028700000000001,0.1380135,-0.0852450000000001,1.24519,0.0789545,-0.0972950000000001,0.93071,-0.0063855,0.0188849999999999,1.06929,0.0063854999999999,-0.018885,0.9047700000000001,-0.3449365,-0.093165,1.06944,-0.3525765,-0.0840750000000001,0.8968900000000001,-0.6705565,-0.008685,1.0438,-0.6570364999999999,-0.045985
177,0.907495,0.7298884999999999,-0.0374099999999999,0.849255,0.4577685,0.054,0.786095,0.2521985,0.07234,1.132955,0.4845085,-0.0132799999999999,1.219595,0.2693785,0.01053,0.693445,0.1378785,-0.0862499999999999,1.241895,0.0774425,-0.0844899999999999,0.9304050000000001,-0.0063964999999999,0.01777,1.069595,0.0063964999999999,-0.0177699999999999,0.8927650000000001,-0.3442515,-0.0883499999999999,1.077775,-0.3552815,-0.0742999999999999,0.871475,-0.6846815,-0.0307399999999999,1.056485,-0.6578115,-0.0262199999999999
178,0.897755,0.7283885,-0.0413149999999998,0.8425150000000001,0.4562685,0.0493150000000001,0.7733450000000001,0.2506985,0.0622850000000001,1.126835,0.4869585,-0.0113349999999998,1.213895,0.2687785,0.0180050000000001,0.688175,0.1363784999999999,-0.0880449999999999,1.239055,0.0759425,-0.0687249999999999,0.930055,-0.0067615,0.016175,1.069945,0.0067615,-0.0161749999999999,0.884065,-0.3435614999999999,-0.0865449999999998,1.083915,-0.3574215,-0.0671249999999998,0.8496750000000001,-0.6974615,-0.0549449999999999,1.067755,-0.6585415,-0.0097049999999998
179,0.88853,0.7273075,-0.04586,0.8358400000000001,0.4551875,0.0441899999999999,0.7617500000000001,0.2496175,0.0524799999999999,1.11995,0.4897075000000001,-0.01063,1.20859,0.2687075,0.0273599999999999,0.68066,0.1352975,-0.0964100000000001,1.23681,0.0748615,-0.05186,0.9296400000000001,-0.0072514999999999,0.0144799999999999,1.07036,0.0072515,-0.01448,0.8797600000000001,-0.3419724999999999,-0.0834100000000001,1.09047,-0.3589624999999999,-0.05966,0.8431200000000001,-0.7079725,-0.0563300000000001,1.07972,-0.6596624999999999,0.0064599999999999
180,0.8798950000000001,0.724771,-0.05153,0.8290950000000001,0.454201,0.0386799999999999,0.751635,0.248631,0.0430199999999999,1.113485,0.4917210000000001,-0.0094199999999999,1.202415,0.268651,0.0373,0.6746850000000001,0.1343109999999999,-0.10437,1.234885,0.073875,-0.03632,0.9292650000000001,-0.0077529999999999,0.0127699999999999,1.070735,0.007753,-0.01277,0.8819250000000001,-0.3429589999999999,-0.07898,1.099535,-0.358849,-0.05109,0.8425250000000001,-0.718259,-0.05449,1.091335,-0.661069,0.0210199999999999
181,0.8717150000000001,0.7205395,-0.0569449999999999,0.8222850000000002,0.4527995,0.033785,0.746155,0.2474094999999999,0.0404849999999999,1.106975,0.4936695,-0.0084749999999999,1.196035,0.2688295,0.046995,0.674355,0.1299394999999999,-0.1061649999999999,1.232915,0.0716105,-0.0229449999999999,0.929025,-0.0081935,0.0112349999999999,1.070975,0.0081935,-0.0112349999999999,0.885355,-0.3438104999999999,-0.074025,1.109715,-0.3567504999999999,-0.0439149999999999,0.8471150000000001,-0.7282305,-0.0473549999999999,1.101975,-0.6614504999999999,0.033175
182,0.863865,0.7163055,-0.0626949999999999,0.8150450000000001,0.4510955,0.0280249999999999,0.740795,0.2457955,0.0379549999999999,1.0997849999999998,0.4955454999999999,-0.008595,1.1897149999999999,0.2690255,0.056045,0.675645,0.1249355,-0.1055049999999999,1.231355,0.0696624999999999,-0.011915,0.928815,-0.0086105,0.009915,1.071185,0.0086105,-0.009915,0.8895950000000001,-0.3446145,-0.0686949999999999,1.118375,-0.3548345,-0.037575,0.855475,-0.7380345,-0.0374649999999999,1.111365,-0.6617845,0.043765
183,0.8569650000000001,0.7128645,-0.0680199999999999,0.8097250000000001,0.4497645,0.02423,0.7354550000000001,0.2443445,0.03472,1.093725,0.4968145,-0.0078599999999999,1.183315,0.2692345,0.06419,0.681095,0.1185044999999999,-0.0999799999999999,1.230705,0.0683205,-0.0012199999999998,0.9285950000000001,-0.0086825,0.0087600000000001,1.071405,0.0086825,-0.0087599999999999,0.8940050000000002,-0.3455855,-0.0638699999999999,1.121945,-0.3535055,-0.0319799999999999,0.867155,-0.7404755,-0.0283899999999999,1.119345,-0.6613955,0.05291
184,0.8515000000000001,0.709523,-0.0734399999999999,0.8056,0.448303,0.02031,0.7331,0.2438229999999999,0.0313299999999999,1.0877999999999999,0.497603,-0.0092099999999999,1.1774,0.269433,0.0691,0.6848000000000001,0.1139729999999999,-0.09794,1.22908,0.067032,0.0057599999999999,0.9286300000000001,-0.0086939999999999,0.0080299999999999,1.07137,0.008694,-0.0080299999999999,0.89786,-0.346967,-0.0609899999999999,1.12421,-0.3531569999999999,-0.0282399999999999,0.8785600000000001,-0.742597,-0.0203299999999999,1.12419,-0.6609269999999999,0.058
185,0.8466550000000002,0.7062430000000001,-0.078785,0.8014750000000002,0.446843,0.016205,0.7348250000000001,0.243233,0.0309049999999999,1.082605,0.498303,-0.010355,1.172495,0.269433,0.0732849999999999,0.690835,0.106513,-0.097845,1.227745,0.065709,0.0136749999999999,0.928705,-0.0086939999999999,0.0074349999999999,1.071295,0.008694,-0.0074349999999999,0.902055,-0.3484669999999999,-0.057925,1.126495,-0.352997,-0.024235,0.889785,-0.744617,-0.0126049999999999,1.128865,-0.660457,0.062755
186,0.84387,0.7044195000000001,-0.08228,0.7999,0.4449795,0.0144599999999999,0.7397699999999999,0.2414195,0.0339699999999999,1.0791799999999998,0.4985795,-0.01149,1.16946,0.2695995,0.0739799999999999,0.69617,0.0958095,-0.09508,1.22609,0.0656015,0.0186499999999999,0.9289100000000001,-0.0089704999999999,0.00744,1.0710899999999999,0.0089705,-0.00744,0.90386,-0.3497705,-0.05667,1.12703,-0.3526805,-0.0218599999999999,0.8968300000000001,-0.7458705,-0.00826,1.1296599999999999,-0.6602604999999999,0.06416
187,0.8400700000000001,0.7012014999999999,-0.0857599999999999,0.7962600000000001,0.4429615,0.0106899999999999,0.7351800000000002,0.2383015,0.03273,1.07479,0.5010215,-0.0113499999999999,1.16549,0.2689615,0.07711,0.6818900000000001,0.0955015,-0.12317,1.22495,0.0644005,0.0393799999999999,0.92873,-0.0095155,0.0066,1.07127,0.0095155,-0.0065999999999999,0.9070800000000002,-0.3516185,-0.05476,1.12879,-0.3504985,-0.0195299999999999,0.9069300000000001,-0.7477785,-0.0033699999999999,1.13074,-0.6608185000000001,0.0654099999999999
188,0.8401450000000001,0.7011004999999999,-0.0866649999999999,0.795825,0.4415005,0.0109449999999999,0.7385349999999999,0.2364205,0.0371949999999999,1.074025,0.5011705,-0.012305,1.1646949999999998,0.2700105,0.0748249999999999,0.688285,0.0889305,-0.115275,1.223655,0.0658914999999999,0.0331449999999999,0.929135,-0.0096984999999999,0.007355,1.070865,0.0096984999999999,-0.007355,0.908555,-0.3519195,-0.053665,1.128725,-0.3505095,-0.018225,0.910435,-0.7478895000000001,-0.000995,1.1277949999999999,-0.6594895000000001,0.064385
189,0.8403,0.7006,-0.087095,0.80065,0.44132,0.0152849999999999,0.74212,0.2365999999999999,0.0413149999999999,1.07398,0.50126,-0.012375,1.16341,0.27054,0.0717049999999999,0.69838,0.067965,-0.089075,1.22206,0.067283,0.0246049999999999,0.92967,-0.0096389999999999,0.0083749999999999,1.07033,0.009639,-0.008375,0.90965,-0.35193,-0.052515,1.12777,-0.35074,-0.016735,0.91307,-0.74772,0.0012349999999999,1.12583,-0.65804,0.0637749999999999
190,0.840475,0.70096,-0.08755,0.802005,0.4407999999999999,0.0169499999999999,0.7471650000000001,0.23565,0.0464599999999999,1.0738349999999999,0.50101,-0.01267,1.162845,0.27007,0.0688099999999999,0.7136750000000001,0.058994,-0.07605,1.220315,0.067564,0.0164099999999999,0.9300650000000001,-0.009689,0.0093799999999999,1.0699349999999999,0.009689,-0.00938,0.910875,-0.35205,-0.05159,1.126645,-0.35169,-0.01528,0.9151150000000001,-0.74769,0.0030299999999999,1.123895,-0.65744,0.0644699999999999
191,0.8411,0.70126,-0.087435,0.8034199999999999,0.4403399999999999,0.0188749999999999,0.75415,0.23423,0.0512949999999999,1.07436,0.5006200000000001,-0.011985,1.1623199999999998,0.27054,0.065825,0.7171399999999999,0.058931,-0.072095,1.2175099999999999,0.0688329999999999,0.007355,0.93034,-0.00969,0.010175,1.0696599999999998,0.00969,-0.010175,0.91221,-0.35221,-0.0499049999999999,1.1261199999999998,-0.35181,-0.013325,0.9168499999999999,-0.7478199999999999,0.004935,1.1218199999999998,-0.65718,0.067215
192,0.8425500000000001,0.701733,-0.0864549999999999,0.79957,0.438223,0.019905,0.7630399999999999,0.1626429999999999,0.0275549999999999,1.07403,0.499863,-0.0141549999999999,1.16227,0.268123,0.056035,0.7181500000000001,-0.017314,-0.0849449999999999,1.2156699999999998,0.06833,-0.011135,0.93048,-0.0096569999999999,0.010985,1.06952,0.0096569999999999,-0.0109849999999999,0.91392,-0.352367,-0.0482849999999999,1.12584,-0.352127,-0.0105049999999999,0.91869,-0.7479269999999999,0.006825,1.1205299999999998,-0.656837,0.068745
193,0.8438450000000001,0.702238,-0.086225,0.800205,0.438248,0.020485,0.7782250000000002,0.227968,0.058825,1.073975,0.498878,-0.0158349999999999,1.163575,0.265468,0.052545,0.742695,0.037782,-0.039165,1.210755,0.06696,-0.0233249999999999,0.9303050000000002,-0.009635,0.0112850000000001,1.069695,0.0096349999999999,-0.0112849999999999,0.915295,-0.352532,-0.047095,1.125535,-0.351572,-0.0076649999999999,0.920125,-0.747972,0.008615,1.120615,-0.655952,0.0697350000000001
