sb224sc-HT22-VT27/4dt907/src/ml-research/a11/datafiles/kinect_good_preprocessed_not_cut_A11_mediapipe/A34_kinect_mirrored.csv
FrameNo,nose_3d_x,nose_3d_y,nose_3d_z,left_shoulder_3d_x,left_shoulder_3d_y,left_shoulder_3d_z,left_elbow_3d_x,left_elbow_3d_y,left_elbow_3d_z,right_shoulder_3d_x,right_shoulder_3d_y,right_shoulder_3d_z,right_elbow_3d_x,right_elbow_3d_y,right_elbow_3d_z,left_wrist_3d_x,left_wrist_3d_y,left_wrist_3d_z,right_wrist_3d_x,right_wrist_3d_y,right_wrist_3d_z,left_hip_3d_x,left_hip_3d_y,left_hip_3d_z,right_hip_3d_x,right_hip_3d_y,right_hip_3d_z,left_knee_3d_x,left_knee_3d_y,left_knee_3d_z,right_knee_3d_x,right_knee_3d_y,right_knee_3d_z,left_ankle_3d_x,left_ankle_3d_y,left_ankle_3d_z,right_ankle_3d_x,right_ankle_3d_y,right_ankle_3d_z
0,0.982006,0.7617575,0.068916,0.83403,0.4617675,0.052751,0.8110300000000001,0.2089275,0.063521,1.1464699999999999,0.4616075,0.057785,1.17503,0.2108875,0.071808,0.80293,0.0041705,-0.0200119999999999,1.18977,0.0081585,2.4000000000003185e-05,0.927666,-0.0034105,-0.0001229999999999,1.072334,0.0034105,0.000123,0.88481,-0.4198825,-0.005925,1.1265399999999999,-0.3847025,-0.026475,0.87713,-0.7377625000000001,-0.0436769999999999,1.1280999999999999,-0.7311725,-0.0257379999999999
1,0.9825985,0.7611775,0.068142,0.8346855,0.4617675,0.0524689999999999,0.8105855,0.2083475,0.0621549999999999,1.1474155,0.4613175,0.058155,1.1754055,0.2105075,0.071587,0.7976755,0.0089405,-0.019979,1.1904455,0.0080695,-0.001053,0.9276185,-0.0034145,-0.000258,1.0723815,0.0034145,0.0002579999999999,0.8855655,-0.4200224999999999,-0.005701,1.1265755,-0.3846425,-0.026438,0.8782155,-0.7369525,-0.042247,1.1292255,-0.7336925000000001,-0.025865
2,0.9824990000000001,0.7608779999999999,0.0673725,0.8348170000000001,0.461858,0.0524485,0.809917,0.2084079999999999,0.0618105,1.147607,0.461268,0.0583235,1.175207,0.210368,0.0716245,0.7982270000000001,0.009024,-0.0206125,1.190537,0.008014,-0.0012155,0.927552,-0.003378,-0.0003944999999999,1.072448,0.003378,0.0003944999999999,0.885647,-0.419872,-0.0056264999999999,1.126507,-0.384932,-0.0265235,0.8784770000000001,-0.736412,-0.0424845,1.129477,-0.733972,-0.0259155
3,0.9827025,0.7606805,0.0673005,0.8351275,0.4618005,0.0524375,0.8100674999999999,0.2083505,0.0618665,1.1480175,0.4611404999999999,0.0585015,1.1752675,0.2101805,0.0716585,0.7985375,0.0090204999999999,-0.0207224999999999,1.1911075,0.0078425,-0.0010994999999999,0.9275895,-0.0034365,-0.0004074999999999,1.0724105,0.0034365,0.0004075,0.8859075,-0.4197895,-0.0054204999999999,1.1266575,-0.3849195,-0.0264615,0.8785875000000001,-0.7366395,-0.0425224999999999,1.1296875,-0.7327295,-0.0252964999999999
4,0.9827135000000001,0.7604,0.067387,0.8353325,0.4618,0.052346,0.8101825,0.20827,0.061936,1.1482725,0.4611,0.058863,1.1751125,0.20971,0.07133,0.7987925,0.008944,-0.020698,1.1915025,0.007275,-0.0009839999999999,0.9275305000000001,-0.0034289999999999,-0.000737,1.0724695,0.0034289999999999,0.000737,0.8859325000000001,-0.41948,-0.0048839999999999,1.1267325,-0.38502,-0.026222,0.8787325,-0.73692,-0.041844,1.1302025,-0.73538,-0.0251959999999999
5,0.9827265000000001,0.760166,0.067195,0.8355455,0.4618259999999999,0.052469,0.8100555,0.208246,0.061801,1.1487655,0.461156,0.059327,1.1751955,0.209456,0.070915,0.7992355000000001,0.008789,-0.020564,1.1921455,0.006899,-0.0008459999999999,0.9275095,-0.003429,-0.000855,1.0724905,0.0034289999999999,0.000855,0.8862955,-0.419304,-0.0045129999999999,1.1268855,-0.384774,-0.026048,0.8789955,-0.7363339999999999,-0.0410669999999999,1.1306655,-0.734414,-0.0244739999999999
6,0.9829305,0.759882,0.0674375,0.8358275,0.461892,0.0524715,0.8096975000000001,0.208192,0.0615775,1.1492775,0.461182,0.0597735,1.1750775,0.209072,0.0704135,0.7974875,0.008816,-0.0207764999999999,1.1928375,0.006528,-0.0011395,0.9275145,-0.003451,-0.0008774999999999,1.0724855,0.003451,0.0008775,0.8863275,-0.419338,-0.0042664999999999,1.1259375,-0.379968,-0.0265405,0.8793775,-0.735998,-0.0410385,1.1315675,-0.736698,-0.0252815
7,0.983363,0.7601669999999999,0.068045,0.836497,0.4619069999999999,0.052806,0.8100769999999999,0.208907,0.060147,1.149927,0.461007,0.060184,1.177347,0.209787,0.069238,0.798327,0.0095,-0.022279,1.198837,0.010124,-0.0079549999999999,0.92754,-0.003385,-0.0008529999999999,1.07246,0.003385,0.0008529999999999,0.885997,-0.419183,-0.0035649999999999,1.126187,-0.381613,-0.0256559999999999,0.8787870000000001,-0.737193,-0.0405469999999999,1.131147,-0.735803,-0.02452
8,0.983601,0.7598265000000001,0.0684705,0.8371649999999999,0.4620065,0.0528485,0.807955,0.2128064999999999,0.0546015,1.150235,0.4612065,0.0606935,1.181935,0.2152665,0.0639325,0.794565,0.0158675,-0.0323524999999999,1.207915,0.0186805,-0.0180875,0.92753,-0.0033755,-0.0008964999999999,1.07247,0.0033755,0.0008965,0.886115,-0.4189835,-0.0030854999999999,1.1262349999999999,-0.3811135,-0.0252434999999999,0.879105,-0.7378035,-0.0401315,1.131555,-0.7364134999999999,-0.0240955
9,0.9838245,0.7595195,0.0688635,0.8378455,0.4621395,0.0528665,0.8038955,0.2186995,0.0476805,1.1505655,0.4614095,0.0611655,1.1880555,0.2218295,0.0560035,0.7903955,0.0247525,-0.0448554999999999,1.2198755000000001,0.0300265,-0.0326294999999999,0.9275075,-0.0033594999999999,-0.0009524999999999,1.0724925,0.0033594999999999,0.0009525,0.8862755000000001,-0.4188205,-0.0026234999999999,1.1262455,-0.3799105,-0.0248504999999999,0.8794155,-0.7384204999999999,-0.0398805,1.1321255,-0.7369505,-0.0236764999999999
10,0.9841735,0.7593475000000001,0.069249,0.8385165,0.4622875,0.0528,0.7991665,0.2256175,0.038093,1.1508565,0.4616375,0.061553,1.1956165,0.2296575,0.046227,0.7850165,0.0366234999999999,-0.0623679999999999,1.2336165000000001,0.0437685,-0.050209,0.9274625,-0.0033334999999999,-0.0010449999999999,1.0725375,0.0033334999999999,0.001045,0.8864265,-0.4183925,-0.0021889999999999,1.1261965,-0.3781425,-0.0245429999999999,0.8795065,-0.7387825,-0.039492,1.1324765,-0.7374225,-0.0233099999999999
11,0.9845125000000001,0.7591825,0.069966,0.8392225,0.4625925,0.052545,0.7933125,0.2355225,0.023705,1.1505125,0.4622025,0.06189,1.2063424999999999,0.2424825,0.032856,0.7761225,0.0571795,-0.088653,1.2510925,0.0658995,-0.0779629999999999,0.9273765,-0.0032935,-0.0012119999999999,1.0726235,0.0032935,0.001212,0.8866025000000001,-0.4176574999999999,-0.0018389999999999,1.1263125,-0.3768875,-0.0243299999999999,0.8795925,-0.7391675,-0.0391389999999999,1.1328425,-0.7378574999999999,-0.022444
12,0.984871,0.759034,0.0708475,0.84003,0.462914,0.0522375,0.78677,0.248894,0.0057494999999999,1.15012,0.462744,0.0622004999999999,1.21806,0.257954,0.0175114999999999,0.76665,0.079333,-0.1171895,1.26983,0.093985,-0.1066695,0.927263,-0.003241,-0.0013885,1.072737,0.003241,0.0013884999999999,0.8868199999999999,-0.416976,-0.0015415,1.12645,-0.375606,-0.0241295,0.8796700000000001,-0.7394959999999999,-0.0388405,1.13313,-0.737626,-0.0213175
13,0.9853190000000001,0.758758,0.0718284999999999,0.8411410000000001,0.463408,0.0516055,0.779931,0.263138,-0.0128205,1.149651,0.4634279999999999,0.0624094999999999,1.230671,0.2760379999999999,0.0012624999999999,0.7565110000000002,0.110158,-0.1500254999999999,1.288651,0.127368,-0.1367855,0.927121,-0.003146,-0.0015155,1.072879,0.003146,0.0015154999999999,0.8869010000000002,-0.416212,-0.0012335,1.126351,-0.374512,-0.0238855,0.879651,-0.7401019999999999,-0.0386085,1.133111,-0.737182,-0.0199845
14,0.9855695000000001,0.7585565,0.07295,0.8421265,0.4639665,0.050953,0.7715565,0.2820565,-0.033342,1.1489665,0.4643565,0.062492,1.2432265,0.3026365,-0.016664,0.7450465,0.1508265,-0.187057,1.3082965,0.1711065,-0.168227,0.9269695,-0.0030745,-0.001596,1.0730305,0.0030745,0.001596,0.8871465000000001,-0.4155034999999999,-0.000974,1.1263365,-0.3732634999999999,-0.023568,0.8796465,-0.7402335,-0.0382039999999999,1.1329565,-0.7362835,-0.018553
15,0.9857905,0.7581245000000001,0.074324,0.8431555,0.4648545,0.050184,0.7621355,0.3105745,-0.054458,1.1477754999999998,0.4658545,0.062436,1.2552155,0.3325945,-0.034581,0.7330654999999999,0.2025045,-0.22451,1.3272555,0.2245845,-0.1990199999999999,0.9267945,-0.0029915,-0.001774,1.0732055,0.0029915,0.0017739999999999,0.8873755,-0.4148855,-0.000844,1.1262655,-0.3720955,-0.023205,0.8796355,-0.7406054999999999,-0.037943,1.1327255,-0.7354155,-0.017169
16,0.9859815,0.7575035,0.075751,0.8441625,0.4659534999999999,0.049356,0.7527025,0.3403235,-0.074276,1.1464025,0.4675034999999999,0.06232,1.2668725,0.3657835,-0.051458,0.7211125,0.2599134999999999,-0.260496,1.3419425,0.2825034999999999,-0.2287959999999999,0.9266015,-0.0028864999999999,-0.0019959999999999,1.0733985,0.0028865,0.0019959999999999,0.8875625,-0.4144565,-0.00075,1.1261425,-0.3711565,-0.022917,0.8796725000000001,-0.7410265,-0.0377309999999999,1.1324125,-0.7348265,-0.015863
17,0.9861425,0.7567010000000001,0.077351,0.8450355,0.467291,0.048492,0.7454155,0.368921,-0.088263,1.1451955,0.469081,0.06195,1.2736355,0.395071,-0.062523,0.7136355,0.315881,-0.2844129999999999,1.3504455,0.337551,-0.251083,0.9264235000000001,-0.002746,-0.002202,1.0735765,0.002746,0.002202,0.8876855,-0.414219,-0.00071,1.1259255,-0.370299,-0.02266,0.8797955000000001,-0.7419990000000001,-0.0375519999999999,1.1320955,-0.734539,-0.014577
18,0.9862515000000001,0.755716,0.078854,0.8458075,0.468706,0.047577,0.7399175,0.398926,-0.10057,1.1439375,0.470786,0.061527,1.2786475,0.425886,-0.07127,0.7068875,0.374106,-0.30404,1.3552575,0.394246,-0.2680599999999999,0.9262795,-0.0025749999999999,-0.0023539999999999,1.0737205,0.002575,0.002354,0.8877475,-0.4141439999999999,-0.0006739999999999,1.1257075,-0.370324,-0.022494,0.8798275000000001,-0.743204,-0.037275,1.1317875,-0.734644,-0.0135409999999999
19,0.986301,0.754606,0.0802185,0.846393,0.470266,0.0466875,0.7350230000000001,0.429716,-0.1098515,1.142633,0.472576,0.0610664999999999,1.281633,0.456336,-0.0778715,0.701693,0.433056,-0.3168715,1.356783,0.452676,-0.2807814999999999,0.926173,-0.002419,-0.0024935,1.073827,0.0024189999999999,0.0024935,0.887753,-0.4144839999999999,-0.0007235,1.125493,-0.371064,-0.0224475,0.879843,-0.744564,-0.0370545,1.131433,-0.734844,-0.0125624999999999
20,0.9863075000000001,0.7531705,0.081258,0.8467355,0.4717705,0.045948,0.7320055000000001,0.4607604999999999,-0.114275,1.1419355,0.4739905,0.060274,1.2816455,0.4852605,-0.080015,0.7001355,0.4897205,-0.321445,1.3568055,0.5085105,-0.281725,0.9261395,-0.0023095,-0.0026359999999999,1.0738604999999999,0.0023094999999999,0.0026359999999999,0.8877155,-0.4152795,-0.000736,1.1251955,-0.3724995,-0.0223579999999999,0.8796855000000001,-0.7461595,-0.036326,1.1309355,-0.7357195,-0.0121239999999999
21,0.986267,0.75164,0.082158,0.846782,0.47315,0.045526,0.7297020000000001,0.48984,-0.1141789999999999,1.141282,0.47588,0.059578,1.2816519999999998,0.51346,-0.080359,0.699542,0.5468000000000001,-0.321359,1.356812,0.56206,-0.281639,0.926145,-0.00225,-0.0027219999999999,1.073855,0.00225,0.002722,0.887662,-0.41624,-0.0006499999999999,1.1249019999999998,-0.37431,-0.0222399999999999,0.8794420000000001,-0.74786,-0.0353909999999999,1.130382,-0.73682,-0.0119079999999999
22,0.9862705,0.7498845,0.083079,0.8467825,0.4742745,0.045586,0.7282525,0.5201545,-0.114058,1.1406625,0.4777845,0.058924,1.2816524999999999,0.5401645,-0.080408,0.6990825,0.5979345,-0.3212379999999999,1.3568125,0.6127445,-0.281528,0.9261445000000001,-0.0022555,-0.0028329999999999,1.0738554999999999,0.0022555,0.002833,0.8876625,-0.4179955,-0.0005509999999999,1.1249025,-0.3760655,-0.0221289999999999,0.8794425,-0.7496155,-0.034747,1.1303824999999998,-0.7385755,-0.0117969999999999
23,0.9862595,0.748111,0.0838315,0.8467675,0.475311,0.0456885,0.7282375,0.548461,-0.1139555,1.1400475,0.479981,0.0582255,1.2808175,0.5592609999999999,-0.0803055,0.6990675,0.644511,-0.3211354999999999,1.3535375,0.6544009999999999,-0.2804454999999999,0.9261285,-0.002363,-0.0029355,1.0738715,0.002363,0.0029355,0.8876475,-0.419779,-0.0004554999999999,1.1248874999999998,-0.377849,-0.0220264999999999,0.8794375000000001,-0.751399,-0.0342314999999999,1.1303675,-0.7403590000000001,-0.0116944999999999
24,0.9862015,0.7466975,0.084247,0.8467075,0.4760275,0.045792,0.7281774999999999,0.5689775,-0.113402,1.1397275,0.4822975,0.057564,1.2782375,0.5794175,-0.080182,0.6990175000000001,0.6842775,-0.320432,1.3475275,0.6927575,-0.280182,0.9261025,-0.0024195,-0.0030309999999999,1.0738975,0.0024194999999999,0.0030309999999999,0.8875875,-0.4213925,-0.0004269999999999,1.1248275,-0.3794625,-0.0219229999999999,0.8793775,-0.7530125,-0.033946,1.1303075,-0.7419725,-0.0115909999999999
25,0.9854855000000001,0.7452570000000001,0.0844655,0.8461055,0.477157,0.0459934999999999,0.7279955,0.589357,-0.1109145,1.1392555,0.484477,0.0568844999999999,1.2738855,0.596477,-0.0792245,0.6988455,0.718187,-0.3139445,1.3402855,0.725487,-0.2763845,0.9261925,-0.00255,-0.0030345,1.0738075,0.00255,0.0030344999999999,0.8879855000000001,-0.423093,-0.0004525,1.1249455,-0.382193,-0.0218735,0.8799555000000001,-0.755023,-0.0335975,1.1306355,-0.743673,-0.0115175
26,0.9847510000000002,0.7436695,0.0847924999999999,0.845592,0.4780795,0.0464005,0.728072,0.6074395,-0.1055305,1.138822,0.4862594999999999,0.0566855,1.268652,0.6123595,-0.0754405,0.7001120000000001,0.7493395,-0.3007505,1.330852,0.7559495,-0.2686505,0.926329,-0.0026885,-0.0029785,1.073671,0.0026885,0.0029785,0.888362,-0.4244205,-0.0003615,1.124932,-0.3847505,-0.0217085,0.880552,-0.7572305,-0.0330865,1.1310419999999999,-0.7461705,-0.0117545
27,0.9839925,0.742336,0.085294,0.8450005,0.478756,0.0470089999999999,0.7294205,0.623116,-0.098872,1.1384005,0.488316,0.056712,1.2632705,0.627146,-0.071282,0.7020405000000001,0.776956,-0.286482,1.3209805000000001,0.783036,-0.259432,0.9264935,-0.002793,-0.002825,1.0735065,0.002793,0.002825,0.8887205,-0.425804,-0.000178,1.1249005,-0.387144,-0.021541,0.8811805,-0.7595040000000001,-0.0325499999999999,1.1316405,-0.748824,-0.0119179999999999
28,0.983223,0.7406480000000001,0.0859225,0.844473,0.479558,0.0476865,0.731553,0.6387980000000001,-0.0911265,1.138033,0.4909779999999999,0.0569245,1.256923,0.6428680000000001,-0.0667565,0.705003,0.805118,-0.2674565,1.310333,0.808778,-0.2444064999999999,0.926646,-0.002995,-0.0027005,1.073354,0.002995,0.0027005,0.889103,-0.427602,7.549999999999918e-05,1.124883,-0.389632,-0.0212335,0.8817429999999999,-0.7622519999999999,-0.0319285,1.132283,-0.7520619999999999,-0.0119534999999999
29,0.982347,0.7394545,0.0863085,0.844238,0.4803644999999999,0.0482615,0.733608,0.6533845,-0.0845814999999999,1.137708,0.4937445,0.0573795,1.251268,0.6555445,-0.0631114999999999,0.7072080000000001,0.8278645,-0.2512715,1.300858,0.8314145,-0.2301315,0.9268149999999999,-0.0031885,-0.0025354999999999,1.073185,0.0031885,0.0025355,0.889388,-0.4290755,0.0002335,1.124708,-0.3912755,-0.0211314999999999,0.8821680000000001,-0.7647855,-0.0312864999999999,1.132858,-0.7551355,-0.0122044999999999
30,0.981459,0.7381695,0.0865155,0.84399,0.4809994999999999,0.0489224999999999,0.7355500000000001,0.6667995000000001,-0.0782115,1.13727,0.4960895,0.0578244999999999,1.24582,0.6696195,-0.0596615,0.70923,0.8494895,-0.2360415,1.29189,0.8509595000000001,-0.2164315,0.926957,-0.0033114999999999,-0.0024315,1.073043,0.0033114999999999,0.0024314999999999,0.8897300000000001,-0.4306605,0.0003614999999999,1.12468,-0.3932405,-0.0209955,0.88275,-0.7676405,-0.0304135,1.13346,-0.7572804999999999,-0.0115685
31,0.980555,0.7369450000000001,0.0864205,0.843817,0.481685,0.0496975,0.737687,0.6800550000000001,-0.0718825,1.136827,0.498195,0.0583635,1.240747,0.6838350000000001,-0.0559604999999999,0.711427,0.8682150000000001,-0.2192424999999999,1.283457,0.869745,-0.2022525,0.927138,-0.0034549999999999,-0.0023105,1.072862,0.0034549999999999,0.0023105,0.890147,-0.432245,0.0005925,1.124707,-0.395285,-0.0207715,0.883347,-0.7707649999999999,-0.0296035,1.1341269999999999,-0.759775,-0.0113735
32,0.979757,0.735422,0.08581,0.843769,0.482472,0.050566,0.740209,0.691732,-0.063499,1.135959,0.500612,0.058905,1.2356289999999999,0.698292,-0.0512229999999999,0.714809,0.8837119999999999,-0.198569,1.274039,0.888432,-0.185519,0.927265,-0.003553,-0.0022499999999999,1.072735,0.003553,0.00225,0.890629,-0.434578,0.000768,1.124789,-0.397978,-0.0207389999999999,0.8840790000000001,-0.774568,-0.028865,1.134849,-0.763538,-0.0112949999999999
33,0.9791675,0.7336345000000001,0.085013,0.8437955,0.4832445000000001,0.051378,0.7427755,0.7016845,-0.0562759999999999,1.1347355,0.5020145,0.059325,1.2309554999999999,0.7083845,-0.046279,0.7183255,0.8951545000000001,-0.179782,1.2655055,0.9007145,-0.169432,0.9273655000000001,-0.0036895,-0.0022299999999999,1.0726345,0.0036894999999999,0.00223,0.8912455,-0.4367054999999999,0.0007769999999999,1.1249255,-0.4008454999999999,-0.020814,0.8849755,-0.7784854999999999,-0.028327,1.1358355,-0.7673654999999999,-0.011242
34,0.979241,0.7317180000000001,0.084047,0.843912,0.4832979999999999,0.052092,0.7450220000000001,0.710418,-0.0502909999999999,1.133812,0.502988,0.059733,1.227122,0.7181280000000001,-0.0414629999999999,0.721822,0.906568,-0.162558,1.258032,0.912718,-0.154398,0.927478,-0.0037659999999999,-0.0022659999999999,1.072522,0.003766,0.0022659999999999,0.891502,-0.438742,0.000794,1.125152,-0.403582,-0.0208599999999999,0.8854420000000001,-0.7818919999999999,-0.028111,1.136342,-0.771102,-0.0109529999999999
35,0.9793890000000001,0.7301810000000001,0.082898,0.844069,0.4832909999999999,0.0525949999999999,0.747069,0.7189610000000001,-0.045121,1.132889,0.504251,0.059918,1.224119,0.727391,-0.037482,0.725299,0.916121,-0.147445,1.251419,0.923131,-0.140875,0.927632,-0.003846,-0.002258,1.072368,0.003846,0.0022579999999999,0.891759,-0.440619,0.0005739999999999,1.125299,-0.405889,-0.021121,0.885919,-0.785099,-0.0280559999999999,1.136889,-0.774589,-0.010794
36,0.9795065000000001,0.728395,0.0816455,0.8443755,0.483445,0.0528145,0.7488755,0.7266050000000001,-0.0406945,1.1320255,0.504825,0.0599965,1.2215955,0.7351650000000001,-0.0339085,0.7288055,0.924485,-0.1340305,1.2452955,0.932455,-0.1288105,0.9277575,-0.003985,-0.0021585,1.0722425,0.003985,0.0021585,0.8919855,-0.4424349999999999,0.0002144999999999,1.1254255,-0.408485,-0.0213834999999999,0.8863755,-0.788265,-0.0280915,1.1372255,-0.777335,-0.0104514999999999
37,0.9797,0.727024,0.0802595,0.844988,0.483354,0.0526644999999999,0.7502980000000001,0.732464,-0.0381305,1.131278,0.504534,0.0598304999999999,1.220258,0.741144,-0.0313495,0.731368,0.928594,-0.1259075,1.241158,0.939024,-0.1215775,0.927869,-0.004018,-0.0020155,1.072131,0.004018,0.0020154999999999,0.892248,-0.443126,-0.0003254999999999,1.125408,-0.409946,-0.0218104999999999,0.886838,-0.790776,-0.0283125,1.137578,-0.779506,-0.0100314999999999
38,0.9799510000000001,0.725441,0.078915,0.845518,0.4831709999999999,0.0522249999999999,0.751788,0.7362010000000001,-0.0359,1.130578,0.503981,0.0595179999999999,1.218938,0.746801,-0.0291109999999999,0.733978,0.931681,-0.118439,1.237398,0.942821,-0.115129,0.927949,-0.00399,-0.002016,1.072051,0.00399,0.0020159999999999,0.892508,-0.444239,-0.000849,1.125518,-0.411739,-0.0220739999999999,0.887278,-0.793159,-0.028651,1.138128,-0.7819290000000001,-0.010364
39,0.9804775000000001,0.7240385,0.077602,0.8461335,0.4833185,0.051786,0.7534635000000001,0.7396885,-0.033947,1.1301135,0.5033285,0.0592249999999999,1.2177735,0.7492685,-0.026964,0.7366535000000001,0.9337685,-0.112411,1.2340235,0.9461485,-0.109211,0.9279595,-0.0039755,-0.002016,1.0720405,0.0039755,0.0020159999999999,0.8928635,-0.4452415,-0.001349,1.1257335,-0.4132915,-0.022302,0.8878635,-0.7951415000000001,-0.028775,1.1387335,-0.7837115,-0.010388
40,0.9811035,0.7225885,0.0766385,0.8466945,0.4835985,0.0514255,0.7551245,0.7412685,-0.0324725,1.1297345,0.5027385,0.0589705,1.2168245,0.7505685,-0.0251394999999999,0.7388945,0.9359685,-0.1095785,1.2315545,0.9479085,-0.1051285,0.9279025,-0.0039035,-0.0020094999999999,1.0720975,0.0039034999999999,0.0020095,0.8931545,-0.4460915,-0.0017864999999999,1.1259545,-0.4147115,-0.0224214999999999,0.8883545,-0.7968815,-0.0288984999999999,1.1393245,-0.7859115,-0.0109314999999999
41,0.9819970000000001,0.7225415000000001,0.075969,0.847207,0.4839015,0.051141,0.756027,0.7417315,-0.032679,1.130077,0.5022215,0.058637,1.216607,0.7508415,-0.025103,0.740067,0.9360515,-0.109792,1.231077,0.9482915,-0.105332,0.927798,-0.0037424999999999,-0.001819,1.072202,0.0037425,0.001819,0.893497,-0.4464785,-0.0020939999999999,1.126217,-0.4152285,-0.022625,0.8889670000000001,-0.7976685,-0.0291039999999999,1.139867,-0.7864785,-0.010962
42,0.9830765,0.7225785,0.074984,0.8477935,0.4843384999999999,0.0505399999999999,0.7570235000000001,0.7421085000000001,-0.033191,1.1304835,0.5020685,0.0580669999999999,1.2167935,0.7511285000000001,-0.025609,0.7412235,0.9359185,-0.1103,1.2311635,0.9484385,-0.10584,0.9276625000000001,-0.0035894999999999,-0.001565,1.0723375,0.0035895,0.0015649999999999,0.8938935,-0.4466315,-0.002602,1.1265435,-0.4153815,-0.023132,0.8894735,-0.7980415000000001,-0.0297619999999999,1.1404735,-0.7866314999999999,-0.011471
43,0.9843215000000001,0.7225495,0.0733585,0.8483805,0.4848595,0.0493124999999999,0.7580105,0.7423895,-0.0343235,1.1308805,0.5020395,0.0568695,1.2170605,0.7514695,-0.0267385,0.7422005,0.9358895,-0.1114294999999999,1.2313805,0.9484095,-0.1069594999999999,0.9274635,-0.0035604999999999,-0.0012764999999999,1.0725365,0.0035605,0.0012764999999999,0.8942605,-0.4466605,-0.0037495,1.1268605,-0.4154705,-0.0242615,0.8898604999999999,-0.7982505,-0.0312035,1.1410305,-0.7868805,-0.0126985
44,0.985482,0.7223435,0.0708729999999999,0.848838,0.4849835,0.0474539999999999,0.758928,0.7424035,-0.0368449999999999,1.131208,0.5017935,0.055089,1.217388,0.7514635000000001,-0.028446,0.743018,0.9360235,-0.115067,1.231708,0.9481935,-0.108967,0.9272,-0.0036144999999999,-0.001013,1.0728,0.0036144999999999,0.001013,0.894518,-0.4466465,-0.005595,1.127198,-0.4158465,-0.0256609999999999,0.890188,-0.7983865,-0.032911,1.141358,-0.7867265,-0.014511
45,0.9865395,0.722174,0.0677794999999999,0.8493145,0.485184,0.0450744999999999,0.7597645,0.742444,-0.0405415,1.1317545,0.5015040000000001,0.0528335,1.2176645,0.7515240000000001,-0.0310265,0.7437045000000001,0.936054,-0.1202324999999999,1.2319844999999998,0.947964,-0.1122425,0.9269115,-0.003632,-0.0008485,1.0730885,0.0036319999999999,0.0008484999999999,0.8945045,-0.447026,-0.0079084999999999,1.1274045,-0.4164759999999999,-0.0274265,0.8904645,-0.798366,-0.0353555,1.1415445,-0.786956,-0.0173215
46,0.9874900000000001,0.72179,0.0639754999999999,0.849771,0.48545,0.0421025,0.7604910000000001,0.74236,-0.0452585,1.132301,0.50119,0.0499805,1.217911,0.7513700000000001,-0.0346415,0.744271,0.93589,-0.1264715,1.232221,0.94781,-0.1165914999999999,0.926651,-0.003586,-0.0006525,1.0733489999999999,0.0035859999999999,0.0006525,0.8944210000000001,-0.44727,-0.0108095,1.127571,-0.41708,-0.0296635,0.8906810000000001,-0.7983,-0.0384285,1.141591,-0.78748,-0.0206035
47,0.9888720000000001,0.7213040000000001,0.0587475,0.850471,0.4869139999999999,0.0380845,0.7615810000000001,0.742274,-0.0520215,1.133071,0.500864,0.0461785,1.218011,0.7512840000000001,-0.0401775,0.7453110000000001,0.935514,-0.1353355,1.232701,0.947724,-0.1233055,0.926391,-0.003381,-0.0007474999999999,1.073609,0.003381,0.0007474999999999,0.893831,-0.447466,-0.0143034999999999,1.127501,-0.417286,-0.0322914999999999,0.890451,-0.798256,-0.0418155,1.141411,-0.787696,-0.0244264999999999
48,0.9901070000000001,0.7210815,0.05266,0.851072,0.4883815,0.033456,0.7624920000000001,0.7423415,-0.059727,1.133782,0.5005115,0.041803,1.218052,0.7513515000000001,-0.046573,0.746212,0.9351015,-0.145246,1.233182,0.9476915,-0.1314759999999999,0.9261699999999999,-0.0032854999999999,-0.000986,1.07383,0.0032855,0.000986,0.8931320000000001,-0.4474385,-0.018543,1.1273819999999999,-0.4172885,-0.035612,0.8900020000000001,-0.7980185,-0.045981,1.1411419999999999,-0.7875385,-0.028546
49,0.991158,0.7209985,0.04469,0.851538,0.4885385,0.027601,0.763218,0.7424985,-0.068717,1.134368,0.5001085,0.036189,1.217978,0.7512685,-0.054336,0.7471380000000001,0.9341585,-0.157546,1.233368,0.9460485,-0.142366,0.925848,-0.0031285,-0.0012509999999999,1.074152,0.0031284999999999,0.0012509999999999,0.892298,-0.4473515,-0.0239799999999999,1.127068,-0.4171915,-0.040238,0.889348,-0.7975515000000001,-0.051504,1.140778,-0.7873215,-0.0345
50,0.9920715,0.720801,0.0362655,0.8519645,0.488871,0.0214305,0.7639045,0.7402110000000001,-0.0784425,1.1348445,0.4996409999999999,0.0303255,1.2176045,0.7474510000000001,-0.0624264999999999,0.7481945,0.931281,-0.1699764999999999,1.2334545,0.943131,-0.1533665,0.9256125,-0.003024,-0.0016634999999999,1.0743875,0.0030239999999999,0.0016635,0.8914045,-0.447119,-0.0297344999999999,1.1267545,-0.416899,-0.0452285,0.8886645,-0.797129,-0.0574055,1.1403545,-0.7867989999999999,-0.0405215
51,0.992809,0.7203695,0.0270539999999999,0.852291,0.4892795,0.0146869999999999,0.765331,0.7346995,-0.088747,1.135241,0.4994295,0.023908,1.217151,0.7433595,-0.071392,0.7491410000000001,0.9282895,-0.183467,1.233401,0.9401495,-0.165647,0.925366,-0.0028604999999999,-0.002228,1.074634,0.0028605,0.0022279999999999,0.890421,-0.4468005,-0.036275,1.126401,-0.4163305,-0.050868,0.887961,-0.7966105,-0.063912,1.1399110000000001,-0.7863905,-0.047029
52,0.9935,0.7196739999999999,0.0166,0.852994,0.4895339999999999,0.006134,0.766704,0.7288239999999999,-0.099864,1.135644,0.4997539999999999,0.016508,1.2166540000000001,0.7388739999999999,-0.08127,0.750294,0.925504,-0.198874,1.233204,0.935484,-0.179454,0.925215,-0.002724,-0.002704,1.074785,0.0027239999999999,0.002704,0.889474,-0.445756,-0.044141,1.126154,-0.4148159999999999,-0.0575399999999999,0.8872940000000001,-0.795346,-0.07161,1.139514,-0.785046,-0.054255
53,0.9940960000000001,0.718852,0.0057955,0.853647,0.4895219999999999,-0.0029245,0.7679670000000001,0.722832,-0.1114265,1.135827,0.499902,0.0085655,1.216077,0.734352,-0.0915695,0.751417,0.923112,-0.2149565,1.232967,0.930472,-0.1936864999999999,0.92499,-0.0025689999999999,-0.0031674999999999,1.07501,0.002569,0.0031674999999999,0.888537,-0.444258,-0.0525464999999999,1.125907,-0.412698,-0.0646825,0.886577,-0.7935279999999999,-0.0801505,1.138827,-0.782708,-0.0618525
54,0.9945825000000001,0.7177005,-0.0052114999999999,0.8542485,0.4895505,-0.0120635,0.7691985,0.7160105,-0.1231695,1.1359885,0.5002505,0.0004994999999999,1.2154185,0.7289905,-0.1019785,0.7525285000000002,0.9205905,-0.2314495,1.2326985,0.9255905,-0.2081495,0.9247175,-0.0023714999999999,-0.0035124999999999,1.0752825,0.0023714999999999,0.0035125,0.8875585,-0.4425894999999999,-0.0614515,1.1257185,-0.4108495,-0.0719155,0.8858185,-0.7913295,-0.0889814999999999,1.1381385,-0.7807395,-0.0694375
55,0.995106,0.7160329999999999,-0.0167385,0.854959,0.489913,-0.0215645,0.770499,0.7095629999999999,-0.1353395,1.136199,0.501023,-0.0078735,1.214749,0.722873,-0.1127035,0.7535690000000002,0.918153,-0.2484095,1.232689,0.921103,-0.2247995,0.924516,-0.002144,-0.0038325,1.0754839999999999,0.002144,0.0038324999999999,0.8865689999999999,-0.439947,-0.0711125,1.125589,-0.408477,-0.0794354999999999,0.885209,-0.788227,-0.0978955,1.137689,-0.7782570000000001,-0.0773735
56,0.9952085,0.7137505000000001,-0.0278495,0.8558145,0.4891205,-0.0316295,0.7714545000000002,0.7038905000000001,-0.1465165,1.1362245,0.5010005000000001,-0.0167575,1.2141245,0.7175505,-0.1229795,0.7538945000000001,0.9166305,-0.2644565,1.2331845,0.9184705,-0.2406465,0.9243965000000001,-0.0019554999999999,-0.0037165,1.0756035,0.0019554999999999,0.0037164999999999,0.8859745,-0.4352595,-0.0813965,1.1255345,-0.4042095,-0.0877355,0.8850345,-0.7833295,-0.1072775,1.1375845,-0.7739395,-0.0857515
57,0.995328,0.711758,-0.038568,0.8568660000000001,0.487778,-0.041511,0.7725060000000001,0.6976180000000001,-0.157548,1.136346,0.501278,-0.025355,1.213566,0.711248,-0.133238,0.7546460000000002,0.914548,-0.280328,1.233596,0.915398,-0.256198,0.924333,-0.0018159999999999,-0.003517,1.075667,0.0018159999999999,0.0035169999999999,0.885296,-0.430212,-0.091496,1.125616,-0.3999919999999999,-0.096227,0.885046,-0.778052,-0.116143,1.137606,-0.769112,-0.093776
58,0.9956535000000001,0.7088990000000001,-0.049284,0.8580565,0.486459,-0.051946,0.7736665,0.6911390000000001,-0.170136,1.1365665,0.500329,-0.034562,1.2130265,0.7047490000000001,-0.144646,0.7553165,0.910239,-0.296226,1.2340265,0.910179,-0.271626,0.9240605,-0.001525,-0.003355,1.0759395,0.001525,0.0033549999999999,0.8846365,-0.423631,-0.102132,1.1258965,-0.394101,-0.105463,0.8851865000000001,-0.771071,-0.125303,1.1377465,-0.762641,-0.102066
59,0.9957640000000001,0.704627,-0.0612785,0.85905,0.484417,-0.0635145,0.77457,0.686537,-0.1843115,1.13641,0.499517,-0.0448975,1.2125,0.700757,-0.1577515,0.7554600000000001,0.907717,-0.3152115,1.23364,0.908287,-0.2898715,0.9239539999999999,-0.001282,-0.0029604999999999,1.076046,0.0012819999999999,0.0029605,0.88351,-0.414483,-0.1143245,1.12623,-0.384953,-0.1168915,0.88515,-0.761923,-0.1349505,1.1376899999999999,-0.753553,-0.1118245
60,0.995626,0.7006955,-0.07354,0.8601670000000001,0.4824555,-0.075227,0.7746870000000001,0.6844555,-0.199829,1.136257,0.4988255,-0.055591,1.211907,0.6953855,-0.171599,0.7555970000000001,0.9006855,-0.333419,1.233437,0.9011355,-0.308439,0.923875,-0.0011795,-0.002456,1.076125,0.0011795,0.002456,0.882227,-0.4040945,-0.127095,1.126857,-0.3745245,-0.129663,0.885007,-0.7514244999999999,-0.144502,1.137617,-0.7434744999999999,-0.122005
61,0.9957445,0.69759,-0.0900155,0.8610285,0.47996,-0.0909375,0.7750285,0.6798700000000001,-0.2197145,1.1360985000000001,0.49734,-0.0710755,1.2114585,0.69091,-0.1902845,0.7558085,0.89131,-0.3550545,1.2333185,0.89739,-0.3310345,0.9238585,-0.001067,-0.0021894999999999,1.0761415,0.001067,0.0021894999999999,0.8809885,-0.39131,-0.1439185,1.1275585,-0.36246,-0.1469635,0.8850285000000001,-0.7391,-0.1578345,1.1374484999999999,-0.7313799999999999,-0.1358335
62,0.9958315000000001,0.694376,-0.1065725,0.8623225,0.478436,-0.1067275,0.7753925,0.677626,-0.2395165,1.1354225,0.492836,-0.0865755,1.2108325,0.685076,-0.2088065,0.7560625000000001,0.884626,-0.3767865,1.2332225,0.894966,-0.3544565,0.9237125,-0.000732,-0.0019365,1.0762875,0.000732,0.0019364999999999,0.8787225,-0.371134,-0.1633155,1.1284325,-0.346154,-0.1665345,0.8856025,-0.723684,-0.1711405,1.1372625,-0.717264,-0.1498165
63,0.9962295000000001,0.6910105,-0.1232765,0.8639384999999999,0.4776005,-0.1226015,0.7762785,0.6731405,-0.2589575,1.1350285,0.4888905,-0.1023125,1.2103785,0.6778905,-0.2273375,0.7565785,0.8766705,-0.3989375,1.2335785,0.8881305,-0.3775775,0.9235905000000001,-0.0004194999999999,-0.0016125,1.0764094999999998,0.0004194999999999,0.0016125,0.8767685000000001,-0.3507295,-0.1824575,1.1296385,-0.3296695,-0.1862145,0.8865485,-0.7074095,-0.1845554999999999,1.1374685,-0.7020895,-0.1636265
64,0.9965565000000001,0.687015,-0.139869,0.8658195,0.473515,-0.13906,0.7771395,0.668875,-0.279275,1.1344095,0.4833449999999999,-0.1183819999999999,1.2098895,0.672155,-0.245975,0.7569895,0.866275,-0.420365,1.2340095,0.8766849999999999,-0.3986349999999999,0.9235495,-0.0001089999999999,-0.0012249999999999,1.0764505,0.000109,0.001225,0.8747294999999999,-0.329645,-0.201309,1.1306795,-0.312415,-0.205635,0.8874895,-0.689825,-0.197848,1.1373795,-0.685835,-0.176784
65,0.996895,0.6834105,-0.155822,0.867368,0.4712105,-0.154329,0.7781280000000002,0.6630505,-0.298735,1.1339380000000001,0.4784905,-0.133432,1.209548,0.6653005,-0.264085,0.757428,0.8554005,-0.440655,1.234328,0.8644105,-0.419865,0.923447,0.0002785,-0.001055,1.076553,-0.0002785,0.001055,0.8726780000000001,-0.3105795,-0.219509,1.131838,-0.2973395,-0.224225,0.8882680000000001,-0.6730794999999999,-0.209778,1.137258,-0.6711095,-0.190026
66,0.9971495,0.6767249999999999,-0.173264,0.8689195000000001,0.467295,-0.170866,0.7789794999999999,0.657175,-0.319565,1.1333695,0.472055,-0.150169,1.2093795,0.656785,-0.283695,0.7576795000000001,0.844745,-0.464135,1.2347095,0.8537349999999999,-0.444095,0.9234115,0.0005859999999999,-0.000785,1.0765885,-0.000586,0.000785,0.8704795000000001,-0.289115,-0.238785,1.1329195,-0.279835,-0.243555,0.8888695,-0.6535650000000001,-0.2223669999999999,1.1370095,-0.653965,-0.203843
67,0.9973,0.6713610000000001,-0.1899259999999999,0.870051,0.4634209999999999,-0.186743,0.780141,0.6502410000000001,-0.33863,1.132991,0.4671309999999999,-0.1660049999999999,1.209231,0.6481910000000001,-0.3020899999999999,0.757891,0.8347910000000001,-0.48709,1.2346309999999998,0.846341,-0.46768,0.923343,0.000779,-0.0005,1.076657,-0.000779,0.0005,0.868341,-0.267389,-0.25707,1.134041,-0.262309,-0.2617899999999999,0.889421,-0.634199,-0.234456,1.136721,-0.636679,-0.216636
68,0.9975025,0.668005,-0.204992,0.8713225,0.458735,-0.20152,0.7815025000000001,0.644265,-0.35591,1.1330625,0.461545,-0.180757,1.2093125,0.641035,-0.31898,0.7583725000000001,0.824855,-0.50715,1.2347625,0.835755,-0.48747,0.9233145,0.000855,-0.0003199999999999,1.0766855,-0.0008549999999999,0.0003199999999999,0.8666325,-0.2457649999999999,-0.2738,1.1354025,-0.244835,-0.27807,0.8901924999999999,-0.614695,-0.2455709999999999,1.1365625,-0.6191650000000001,-0.228405
69,0.9977245000000001,0.663825,-0.219115,0.8728315,0.453945,-0.215927,0.7831615000000001,0.636495,-0.37242,1.1330915,0.4554749999999999,-0.195154,1.2095215,0.634965,-0.33552,0.7592315000000001,0.818465,-0.5271399999999999,1.2353015,0.831035,-0.50641,0.9232305000000001,0.0010449999999999,-6.0000000000004494e-05,1.0767695,-0.001045,6.0000000000004494e-05,0.8651915,-0.224895,-0.28923,1.1366715,-0.226865,-0.29268,0.8910715,-0.595755,-0.255947,1.1365315,-0.601875,-0.239503
70,0.9977685,0.65751,-0.227822,0.8742125000000001,0.44974,-0.22459,0.7844625000000001,0.6315,-0.3836549999999999,1.1330725,0.44874,-0.204013,1.2096725,0.62788,-0.347015,0.7599825,0.81293,-0.542645,1.2356525,0.81657,-0.520335,0.9232705,0.0013299999999999,0.000255,1.0767295,-0.0013299999999999,-0.000255,0.8635625,-0.2061799999999999,-0.299365,1.1377725,-0.21021,-0.301955,0.8917025000000001,-0.57812,-0.260764,1.1360025,-0.58536,-0.244996
71,0.9974350000000001,0.6517000000000001,-0.236185,0.874992,0.44462,-0.232658,0.785612,0.62323,-0.394375,1.132922,0.44469,-0.212351,1.209692,0.62091,-0.358325,0.760552,0.80325,-0.557795,1.2355019999999999,0.80108,-0.532975,0.923244,0.0014099999999999,0.000505,1.076756,-0.0014099999999999,-0.000505,0.862852,-0.1904499999999999,-0.306685,1.138632,-0.19448,-0.308535,0.891722,-0.56239,-0.265345,1.135372,-0.57018,-0.249636
72,0.997436,0.64595,-0.244141,0.875795,0.4384,-0.240595,0.786875,0.61769,-0.404455,1.132805,0.44032,-0.2202579999999999,1.209815,0.61634,-0.369505,0.761525,0.79481,-0.571805,1.235855,0.7896500000000001,-0.5452250000000001,0.9232150000000001,0.00139,0.000675,1.0767849999999999,-0.00139,-0.0006749999999999,0.862285,-0.1742999999999999,-0.3138849999999999,1.139635,-0.17833,-0.314775,0.8917150000000001,-0.54621,-0.269547,1.135035,-0.5543899999999999,-0.254455
73,0.99743,0.6409849999999999,-0.251385,0.876206,0.434685,-0.247422,0.788186,0.609765,-0.413995,1.1326559999999999,0.4366649999999999,-0.227497,1.210016,0.6110249999999999,-0.3806049999999999,0.762706,0.787615,-0.5857950000000001,1.236336,0.782205,-0.5581849999999999,0.923182,0.0013449999999999,0.0006749999999999,1.076818,-0.001345,-0.000675,0.861826,-0.158765,-0.320595,1.140736,-0.162795,-0.320615,0.891696,-0.530665,-0.27362,1.1347260000000001,-0.539115,-0.258745
74,0.997563,0.634975,-0.258729,0.877064,0.429885,-0.254235,0.789744,0.602455,-0.423185,1.1335339999999998,0.432985,-0.234757,1.210744,0.604205,-0.391175,0.764214,0.779165,-0.6001449999999999,1.2366039999999998,0.773995,-0.569985,0.923112,0.001195,0.0007349999999999,1.076888,-0.001195,-0.000735,0.861734,-0.147105,-0.326875,1.1419839999999999,-0.151885,-0.326185,0.8919239999999999,-0.515705,-0.277819,1.134714,-0.525535,-0.263024
75,0.9979150000000001,0.6305149999999999,-0.264894,0.877819,0.426205,-0.260457,0.791179,0.595765,-0.43138,1.134269,0.429535,-0.241346,1.211609,0.599565,-0.40104,0.765799,0.769565,-0.61207,1.236719,0.764905,-0.58098,0.923075,0.001155,0.00062,1.076925,-0.0011549999999999,-0.00062,0.861739,-0.135205,-0.33213,1.143119,-0.1408149999999999,-0.3309499999999999,0.8920590000000002,-0.500985,-0.281612,1.134679,-0.5123249999999999,-0.266899
76,0.9982350000000001,0.62574,-0.270416,0.8785710000000001,0.42239,-0.2658129999999999,0.7923710000000002,0.58928,-0.4388999999999999,1.1350609999999999,0.42549,-0.2471819999999999,1.212911,0.59429,-0.41022,0.767481,0.7603,-0.62295,1.236591,0.75491,-0.59197,0.923074,0.00114,0.00054,1.076926,-0.00114,-0.0005399999999999,0.861711,-0.1235999999999999,-0.33665,1.144191,-0.1302499999999999,-0.33491,0.892041,-0.4871499999999999,-0.284591,1.134661,-0.49978,-0.2707699999999999
77,0.99858,0.620225,-0.275797,0.8807240000000001,0.419645,-0.271345,0.793614,0.581195,-0.445805,1.135904,0.421275,-0.252838,1.213984,0.5884750000000001,-0.419915,0.769334,0.7509250000000001,-0.633685,1.236764,0.7451450000000001,-0.6026050000000001,0.923073,0.001495,0.000335,1.076927,-0.0014949999999999,-0.000335,0.861684,-0.1123449999999999,-0.3409149999999999,1.145314,-0.1196849999999999,-0.338605,0.892084,-0.4744349999999999,-0.287307,1.134644,-0.487835,-0.274527
78,0.998319,0.61502,-0.281122,0.882763,0.4170899999999999,-0.2764379999999999,0.794353,0.5746100000000001,-0.45172,1.136273,0.41795,-0.2578129999999999,1.214853,0.58197,-0.4288499999999999,0.771073,0.74163,-0.64398,1.236483,0.73309,-0.6144099999999999,0.923054,0.0015799999999999,7.00000000000145e-05,1.076946,-0.00158,-6.999999999998674e-05,0.861363,-0.10208,-0.34502,1.1461029999999999,-0.1093899999999999,-0.34199,0.891753,-0.46215,-0.290162,1.134303,-0.47621,-0.2785339999999999
79,0.9979775,0.609715,-0.286428,0.8845245,0.413415,-0.280952,0.7949745,0.565635,-0.45731,1.1360945,0.414605,-0.262813,1.2152645,0.5735049999999999,-0.43709,0.7730645,0.7307049999999999,-0.6543100000000001,1.2359045,0.724375,-0.62618,0.9227525,0.001375,-0.00026,1.0772475,-0.001375,0.00026,0.8607245,-0.090565,-0.34845,1.1465845,-0.097015,-0.34472,0.8909545,-0.447965,-0.292072,1.1334845,-0.462725,-0.280551
80,0.997241,0.60556,-0.291039,0.886111,0.41035,-0.284745,0.795411,0.55826,-0.4620849999999999,1.135611,0.41237,-0.267269,1.215691,0.56646,-0.445055,0.774931,0.72029,-0.6633450000000001,1.235151,0.71374,-0.637945,0.922442,0.0010999999999999,-0.000475,1.077558,-0.0010999999999999,0.000475,0.860031,-0.07855,-0.350935,1.1469909999999999,-0.08444,-0.346735,0.890491,-0.43344,-0.292583,1.1329609999999999,-0.44881,-0.2823799999999999
81,0.9967640000000001,0.5999000000000001,-0.294691,0.8885880000000002,0.406549,-0.288209,0.7956480000000001,0.5504500000000001,-0.46752,1.135298,0.40877,-0.271465,1.216418,0.5581900000000001,-0.45254,0.776668,0.70888,-0.67134,1.234078,0.70391,-0.64735,0.9220470000000001,0.00101,-0.0007699999999999,1.077953,-0.0010099999999999,0.0007699999999999,0.859378,-0.0657799999999999,-0.3528,1.147658,-0.0713499999999999,-0.34834,0.890128,-0.4183599999999999,-0.2935419999999999,1.132598,-0.4342899999999999,-0.284177
82,0.9965955,0.5946100000000001,-0.297764,0.8908875,0.403388,-0.291142,0.7955875,0.5448,-0.47215,1.1347075,0.406006,-0.274999,1.2170775,0.54944,-0.45854,0.7780374999999999,0.69949,-0.6781699999999999,1.2332475,0.69489,-0.65828,0.9216445,0.00085,-0.00105,1.0783555,-0.0008499999999999,0.0010499999999999,0.8585475,-0.0526399999999999,-0.35406,1.1481675,-0.0579399999999999,-0.34965,0.8895775,-0.40317,-0.293819,1.1322975,-0.41964,-0.285908
83,0.9966200000000001,0.59048,-0.3002269999999999,0.89292,0.4009479999999999,-0.293697,0.7950699999999999,0.5395099999999999,-0.476255,1.13376,0.40302,-0.2780269999999999,1.2173399999999999,0.54248,-0.4642949999999999,0.77908,0.69143,-0.684105,1.2321099999999998,0.68577,-0.667685,0.921393,0.0008199999999999,-0.0010449999999999,1.078607,-0.0008199999999999,0.001045,0.8575200000000001,-0.03947,-0.3552949999999999,1.1485,-0.0446,-0.3509649999999999,0.88883,-0.3882899999999999,-0.2938269999999999,1.13174,-0.40502,-0.287512
84,0.9968195,0.58762,-0.302632,0.8949965,0.399456,-0.2960129999999999,0.7944365,0.5345300000000001,-0.479865,1.1327665,0.401116,-0.280339,1.2175265,0.53619,-0.468975,0.7799564999999999,0.6853500000000001,-0.689015,1.2309565,0.67669,-0.674235,0.9211685000000001,0.00076,-0.0010449999999999,1.0788315,-0.0007599999999999,0.0010449999999999,0.8564065,-0.0277399999999999,-0.356915,1.1487265,-0.0325499999999999,-0.352535,0.8881765,-0.3752399999999999,-0.293904,1.1309465,-0.39193,-0.28916
85,0.997014,0.5851000000000001,-0.30462,0.896508,0.398291,-0.298114,0.7934680000000001,0.53074,-0.482545,1.131628,0.399717,-0.282537,1.217458,0.53066,-0.473195,0.780888,0.68089,-0.692775,1.229628,0.66879,-0.679895,0.920947,0.0006,-0.001055,1.079053,-0.0005999999999999,0.001055,0.855278,-0.0166099999999999,-0.358905,1.148938,-0.0204599999999999,-0.354265,0.887598,-0.36319,-0.294018,1.1302780000000001,-0.37942,-0.290334
86,0.9972845000000001,0.583155,-0.306201,0.8964515,0.3974379999999999,-0.299583,0.7923815,0.5284249999999999,-0.48482,1.1305215,0.3986429999999999,-0.284779,1.2171414999999999,0.5264949999999999,-0.47619,0.7818115,0.677565,-0.69465,1.2285215,0.663075,-0.6836599999999999,0.9207265,0.0003249999999999,-0.0014099999999999,1.0792735,-0.000325,0.00141,0.8542615,-0.004515,-0.3603999999999999,1.1490615,-0.007895,-0.3555399999999999,0.8870215,-0.350315,-0.2926809999999999,1.1296115,-0.366565,-0.2912099999999999
87,0.997445,0.5815600000000001,-0.306709,0.89603,0.39616,-0.300316,0.7911900000000001,0.5268900000000001,-0.486,1.12933,0.397732,-0.286383,1.2163599999999999,0.52332,-0.47798,0.7821899999999999,0.67516,-0.6954100000000001,1.22733,0.65891,-0.68518,0.920577,0.0001599999999999,-0.00181,1.079423,-0.0001599999999999,0.0018099999999999,0.85306,0.0085999999999999,-0.36107,1.14906,0.00506,-0.35592,0.88629,-0.3371699999999999,-0.29066,1.12886,-0.35421,-0.291259
88,0.9981815,0.58103,-0.306425,0.8959655,0.397602,-0.3008079999999999,0.7904955000000001,0.52717,-0.4865899999999999,1.1284954999999999,0.39831,-0.287154,1.2161255,0.52185,-0.4796,0.7824555,0.67515,-0.69464,1.2267055,0.65883,-0.6853,0.9205555,0.00039,-0.0022399999999999,1.0794445,-0.00039,0.0022399999999999,0.8524355,0.01899,-0.36148,1.1494054999999999,0.0153,-0.3559799999999999,0.8862455,-0.3272099999999999,-0.2886539999999999,1.1287155,-0.34471,-0.291323
89,0.9989375,0.57904,-0.3054179999999999,0.8960485,0.39769,-0.300904,0.7898985000000001,0.52712,-0.486665,1.1271785,0.397204,-0.287372,1.2157784999999999,0.52019,-0.480145,0.7825785000000001,0.6755,-0.693505,1.2263285,0.6587000000000001,-0.684165,0.9206135,0.00056,-0.002585,1.0793865,-0.00056,0.002585,0.8519285,0.02865,-0.361585,1.1497885,0.02509,-0.3558949999999999,0.8860585,-0.3174099999999999,-0.286064,1.1288485,-0.33584,-0.29098
90,0.99966,0.57883,-0.30417,0.89564,0.3984729999999999,-0.300152,0.78927,0.52755,-0.4853699999999999,1.12595,0.396731,-0.286791,1.21546,0.519323,-0.47948,0.78267,0.67706,-0.6922200000000001,1.22608,0.65886,-0.68296,0.920724,0.0006399999999999,-0.00292,1.079276,-0.00064,0.00292,0.85146,0.03637,-0.36118,1.14997,0.0328299999999999,-0.35529,0.88573,-0.31008,-0.285,1.12904,-0.32904,-0.29064
91,0.9998405000000001,0.5791200000000001,-0.302943,0.8952505,0.399483,-0.2990669999999999,0.7883405,0.528784,-0.48414,1.1250005,0.39663,-0.285836,1.2153304999999999,0.520198,-0.4782499999999999,0.7826605,0.67917,-0.69035,1.2260005,0.6604800000000001,-0.68138,0.9208315,0.00052,-0.00312,1.0791685,-0.0005199999999999,0.00312,0.8509805,0.04303,-0.36065,1.1501204999999999,0.03914,-0.3545,0.8858105000000001,-0.30408,-0.283729,1.1285705,-0.3230799999999999,-0.288528
92,0.9994095000000001,0.58,-0.302033,0.8947865,0.400103,-0.298157,0.7873365,0.5305139999999999,-0.48323,1.1240765,0.397059,-0.285018,1.2151565,0.521873,-0.47735,0.7822065,0.68174,-0.68867,1.2256565,0.663,-0.68047,0.9209325,0.0002299999999999,-0.0033299999999999,1.0790675,-0.00023,0.0033299999999999,0.8504465,0.0483299999999999,-0.36017,1.1501465,0.0441599999999999,-0.35412,0.8858165,-0.29968,-0.283547,1.1289265,-0.31795,-0.288095
93,0.9989960000000001,0.5816250000000001,-0.301548,0.894153,0.400653,-0.297671,0.7864630000000001,0.53273,-0.482255,1.123373,0.397517,-0.284531,1.215033,0.524086,-0.475815,0.7817930000000001,0.684895,-0.6878249999999999,1.225503,0.6658649999999999,-0.679485,0.921099,-1.4999999999987246e-05,-0.0034049999999999,1.078901,1.4999999999987246e-05,0.003405,0.849993,0.0519049999999999,-0.359915,1.150133,0.0476349999999999,-0.354095,0.885793,-0.2970649999999999,-0.283973,1.129773,-0.314445,-0.28847
94,0.998859,0.582995,-0.30047,0.893703,0.402023,-0.2970939999999999,0.785763,0.5341,-0.48083,1.123263,0.398887,-0.283943,1.215073,0.525456,-0.47414,0.781663,0.686265,-0.68599,1.225723,0.667235,-0.67808,0.921292,-0.0001649999999999,-0.00317,1.078708,0.000165,0.00317,0.849803,0.053275,-0.3599,1.150423,0.048975,-0.35448,0.886043,-0.2963949999999999,-0.284623,1.130873,-0.313075,-0.287902
95,0.9988270000000001,0.582995,-0.299306,0.8931360000000002,0.402023,-0.296631,0.784916,0.5341,-0.47928,1.1234359999999999,0.398887,-0.283505,1.215216,0.525456,-0.47214,0.781536,0.686265,-0.68373,1.226216,0.667235,-0.67619,0.921339,-0.0001649999999999,-0.00295,1.078661,0.000165,0.00295,0.849666,0.053275,-0.36012,1.150756,0.048975,-0.3549,0.886076,-0.2970049999999999,-0.284947,1.131976,-0.312925,-0.287568
96,0.9984895000000001,0.582995,-0.2980859999999999,0.8925175,0.402023,-0.29592,0.7839975,0.5341,-0.477305,1.1234375,0.398887,-0.283262,1.2149675,0.525456,-0.470195,0.7809975,0.686265,-0.6810350000000001,1.2268975,0.667235,-0.673665,0.9213405,-0.0001649999999999,-0.002725,1.0786595,0.000165,0.002725,0.8495375000000001,0.053275,-0.3603849999999999,1.1509775,0.048975,-0.355175,0.8864775,-0.2973749999999999,-0.284166,1.1330775,-0.312605,-0.2873489999999999
97,0.9982305000000001,0.5837950000000001,-0.296913,0.8916825000000002,0.402984,-0.294855,0.7832825,0.535181,-0.475745,1.1235225,0.398949,-0.2824149999999999,1.2147625,0.5280790000000001,-0.468015,0.7801525,0.687435,-0.677805,1.2277225,0.668765,-0.670355,0.9214255000000001,-0.0001649999999999,-0.002555,1.0785745,0.000165,0.002555,0.8492925,0.052975,-0.360315,1.1510525,0.049385,-0.355295,0.8868825,-0.297265,-0.283184,1.1340925,-0.3122549999999999,-0.286638
98,0.9976735,0.587185,-0.29591,0.8907725,0.404833,-0.293697,0.7821425000000001,0.538391,-0.473525,1.1235825,0.401103,-0.281047,1.2151325,0.531347,-0.465575,0.7789325,0.691805,-0.675845,1.2284625,0.671115,-0.667395,0.9215455,-0.0005749999999999,-0.0025949999999999,1.0784545,0.0005749999999999,0.002595,0.8490025,0.050605,-0.360175,1.1510425,0.047995,-0.355255,0.8872725,-0.298595,-0.282601,1.1351325,-0.313345,-0.286383
99,0.9973700000000001,0.59003,-0.29435,0.889758,0.404524,-0.292218,0.781358,0.5414300000000001,-0.471055,1.124108,0.401197,-0.279484,1.215408,0.535949,-0.462435,0.777868,0.69603,-0.673155,1.2294379999999998,0.6733,-0.664435,0.921663,-0.0005599999999999,-0.0025949999999999,1.078337,0.00056,0.002595,0.849398,0.04535,-0.359565,1.1511879999999999,0.04387,-0.355045,0.887738,-0.3028799999999999,-0.282392,1.135898,-0.3168999999999999,-0.285832
100,0.9971395000000001,0.59477,-0.292902,0.8886395,0.404669,-0.290723,0.7801994999999999,0.5465099999999999,-0.46853,1.1245895,0.402725,-0.277441,1.2158395,0.54044,-0.4589299999999999,0.7763495,0.70201,-0.67029,1.2306395,0.6799299999999999,-0.66048,0.9217915,-0.00075,-0.00259,1.0782085,0.0007499999999999,0.00259,0.8499495,0.0383999999999999,-0.35894,1.1513295000000001,0.0369599999999999,-0.35479,0.8880395,-0.30937,-0.282235,1.1367095,-0.32275,-0.285206
101,0.996779,0.601495,-0.290909,0.887084,0.40642,-0.288565,0.779014,0.551365,-0.4654049999999999,1.1254439999999999,0.405887,-0.27487,1.216154,0.547295,-0.454495,0.7745839999999999,0.709085,-0.666185,1.231814,0.6875249999999999,-0.655685,0.921969,-0.000955,-0.0023549999999999,1.078031,0.0009549999999999,0.0023549999999999,0.850394,0.0280449999999999,-0.358345,1.151524,0.0268749999999999,-0.354805,0.888434,-0.319725,-0.282828,1.137204,-0.331785,-0.283988
102,0.9958255000000001,0.60985,-0.288427,0.8839325000000001,0.409728,-0.285456,0.7775825000000001,0.55822,-0.46123,1.1261025,0.409498,-0.271497,1.2160025,0.55598,-0.44912,0.7708524999999999,0.7181,-0.6607700000000001,1.2324225,0.69823,-0.6508400000000001,0.9221945,-0.0010199999999999,-0.00199,1.0778055,0.00102,0.0019899999999999,0.8507425,0.01319,-0.35759,1.1510925,0.01233,-0.3547,0.8886025,-0.33458,-0.28274,1.1374225,-0.34526,-0.282844
103,0.994606,0.616665,-0.285043,0.880414,0.4119899999999999,-0.281934,0.7756540000000001,0.564245,-0.456375,1.126144,0.41312,-0.26777,1.215434,0.564175,-0.444415,0.7667740000000001,0.7254149999999999,-0.654325,1.232724,0.707185,-0.6432249999999999,0.92239,-0.000945,-0.001605,1.07761,0.0009449999999999,0.0016049999999999,0.8508439999999999,-0.004205,-0.356625,1.150364,-0.004605,-0.353815,0.888364,-0.351785,-0.282227,1.137204,-0.3618950000000001,-0.281158
104,0.9941035,0.623675,-0.281103,0.8774255,0.415441,-0.277537,0.7744655,0.570785,-0.4510849999999999,1.1265455,0.416848,-0.2633999999999999,1.2153254999999998,0.572005,-0.439115,0.7627255,0.7339450000000001,-0.646945,1.2337955,0.714615,-0.633685,0.9227675,-0.0006749999999999,-0.0011549999999999,1.0772325,0.0006749999999999,0.001155,0.8515155,-0.0231049999999999,-0.355005,1.1498255,-0.0234949999999999,-0.352325,0.8885255,-0.371245,-0.281211,1.1371155,-0.3811349999999999,-0.2789029999999999
105,0.993688,0.630565,-0.276408,0.8744460000000001,0.418578,-0.272227,0.773406,0.577975,-0.44514,1.127026,0.421335,-0.258171,1.214996,0.5787450000000001,-0.43185,0.7591060000000001,0.7426550000000001,-0.63888,1.234826,0.7229350000000001,-0.62317,0.9229849999999999,-0.0007149999999999,-0.0007,1.077015,0.000715,0.0006999999999999,0.852466,-0.0435749999999999,-0.35262,1.149356,-0.0439349999999999,-0.35017,0.888976,-0.3922449999999999,-0.279056,1.137226,-0.402045,-0.276393
106,0.9932735,0.63693,-0.2707239999999999,0.8722495,0.418036,-0.267097,0.7721195000000001,0.58721,-0.43871,1.1275495,0.42602,-0.2531049999999999,1.2143495,0.5869,-0.42449,0.7558895000000001,0.75305,-0.63074,1.2358095,0.7371800000000001,-0.61189,0.9230455,-0.0011199999999999,-0.00025,1.0769545,0.00112,0.00025,0.8537095,-0.0636599999999999,-0.34979,1.1488795,-0.0639399999999999,-0.34778,0.8892795,-0.41308,-0.277112,1.1377095,-0.4228999999999999,-0.274013
107,0.992647,0.64457,-0.263158,0.86973,0.42253,-0.259687,0.77052,0.59658,-0.42939,1.1278299999999999,0.43183,-0.245826,1.21349,0.59724,-0.41547,0.75237,0.7654799999999999,-0.61885,1.23612,0.7524500000000001,-0.59955,0.923002,-0.00073,-7.999999999999674e-05,1.076998,0.00073,7.999999999999674e-05,0.85513,-0.08627,-0.34471,1.1480199999999998,-0.08594,-0.34333,0.88924,-0.43694,-0.273421,1.13766,-0.44731,-0.269531
108,0.991962,0.651695,-0.255133,0.8674140000000001,0.427675,-0.251808,0.768704,0.6052649999999999,-0.41936,1.127954,0.437685,-0.237932,1.212564,0.605375,-0.40556,0.748864,0.776555,-0.60622,1.236394,0.7664150000000001,-0.5857399999999999,0.923084,-0.000975,0.0001499999999999,1.076916,0.000975,-0.00015,0.856574,-0.108275,-0.33868,1.147034,-0.1073549999999999,-0.33751,0.8891640000000001,-0.461265,-0.268974,1.137474,-0.471855,-0.264352
109,0.9911630000000001,0.659535,-0.244784,0.865326,0.432615,-0.242532,0.7674160000000001,0.614255,-0.4077,1.127916,0.443175,-0.228739,1.2119659999999999,0.616645,-0.39285,0.745776,0.7903249999999999,-0.58975,1.237266,0.776535,-0.5679,0.923085,-0.0011249999999999,0.0002699999999999,1.076915,0.001125,-0.0002699999999999,0.858456,-0.1305549999999999,-0.33057,1.146026,-0.1289949999999999,-0.3298999999999999,0.889226,-0.486945,-0.263185,1.137496,-0.4971349999999999,-0.257612
110,0.9897355000000001,0.666385,-0.2322789999999999,0.8629885000000002,0.438315,-0.231067,0.7657785,0.624775,-0.393395,1.1273385,0.449805,-0.217131,1.2120585,0.624665,-0.3760449999999999,0.7425185000000001,0.803875,-0.571555,1.2379885,0.7941250000000001,-0.548805,0.9230865,-0.001175,0.000265,1.0769135,0.001175,-0.0002649999999999,0.8599685,-0.152705,-0.320575,1.1443485,-0.1514049999999999,-0.320215,0.8889085,-0.5137849999999999,-0.25569,1.1371385,-0.523405,-0.248637
111,0.988589,0.67353,-0.219192,0.861997,0.44232,-0.21952,0.764157,0.63455,-0.37911,1.126937,0.45613,-0.205101,1.211597,0.63104,-0.35828,0.740927,0.81654,-0.5528500000000001,1.238167,0.8069200000000001,-0.52711,0.9231860000000001,-0.00142,0.0001299999999999,1.076814,0.00142,-0.00013,0.861137,-0.1714999999999999,-0.31045,1.142707,-0.1704399999999999,-0.3099,0.888647,-0.5373399999999999,-0.247826,1.136827,-0.5457700000000001,-0.239047
112,0.9875865,0.6817500000000001,-0.203817,0.8604345,0.44984,-0.205441,0.7619845000000001,0.64514,-0.361475,1.1263945,0.46421,-0.190612,1.2110545,0.63859,-0.337515,0.7393045,0.8325800000000001,-0.532815,1.2389345,0.8225199999999999,-0.5051650000000001,0.9235645,-0.0014299999999999,-0.000225,1.0764355,0.00143,0.000225,0.8622345,-0.19112,-0.298025,1.1409345,-0.19088,-0.297825,0.8885445,-0.5620099999999999,-0.23873,1.1366844999999999,-0.5694699999999999,-0.22792
113,0.9867085,0.68906,-0.188462,0.8589495,0.45558,-0.191709,0.7600195000000001,0.6542000000000001,-0.34344,1.1259295,0.47121,-0.17626,1.2108295,0.64669,-0.31624,0.7384895,0.84582,-0.51278,1.2396695,0.83917,-0.4847,0.9240465,-0.0016799999999999,-0.00053,1.0759535,0.00168,0.0005299999999999,0.8632095,-0.20932,-0.28547,1.1390295,-0.2091699999999999,-0.28556,0.8884595,-0.5848199999999999,-0.229622,1.1365595,-0.591,-0.216756
114,0.9857275,0.6977,-0.17325,0.8575174999999999,0.46108,-0.178393,0.7583975000000001,0.66227,-0.3254,1.1254175,0.47696,-0.162314,1.2105075,0.65627,-0.29669,0.7376075,0.85771,-0.49191,1.2404375,0.8535699999999999,-0.46283,0.9246215,-0.0016,-0.00092,1.0753785,0.0016,0.0009199999999999,0.8640375,-0.22594,-0.27302,1.1369975,-0.22557,-0.27308,0.8881475,-0.60597,-0.220214,1.1364075,-0.61042,-0.20586
115,0.9847415,0.705784,-0.1567069999999999,0.8560655,0.4684339999999999,-0.163066,0.7564355,0.668944,-0.3048349999999999,1.1248055,0.482074,-0.1464389999999999,1.2102555,0.664554,-0.275055,0.7365055,0.869524,-0.468055,1.2409755,0.8633339999999999,-0.4391649999999999,0.9252585,-0.0013159999999999,-0.001305,1.0747415,0.0013159999999999,0.001305,0.8648155,-0.243106,-0.258985,1.1345555,-0.242186,-0.258905,0.8874455,-0.627736,-0.209223,1.1358255,-0.630146,-0.19355
116,0.984136,0.7120165,-0.141147,0.8551500000000001,0.4719665,-0.148924,0.75539,0.6754765,-0.28668,1.12522,0.4851865,-0.132163,1.21078,0.6711065,-0.25319,0.73565,0.8778465,-0.44571,1.24132,0.8718465,-0.41529,0.925872,-0.0017604999999999,-0.0014399999999999,1.074128,0.0017605,0.0014399999999999,0.86572,-0.2634134999999999,-0.24602,1.1325,-0.2623735,-0.2453499999999999,0.88712,-0.6480535000000001,-0.199153,1.1358,-0.6497234999999999,-0.182465
117,0.9836830000000001,0.7204005,-0.124639,0.8544430000000001,0.4767004999999999,-0.1338929999999999,0.754543,0.6843005,-0.266725,1.125813,0.4888705,-0.117375,1.211413,0.6798005,-0.231225,0.734993,0.8887105,-0.420185,1.242273,0.8828005000000001,-0.389015,0.926334,-0.0017785,-0.0019649999999999,1.073666,0.0017784999999999,0.0019649999999999,0.866743,-0.2820195,-0.232565,1.130823,-0.2809795,-0.2313049999999999,0.8867530000000001,-0.6666595,-0.188456,1.136023,-0.6676795,-0.170922
118,0.983764,0.725717,-0.1045764999999999,0.854123,0.478657,-0.1150554999999999,0.7540830000000001,0.690257,-0.2424224999999999,1.126733,0.4917169999999999,-0.0984144999999999,1.212443,0.684927,-0.2068725,0.734873,0.8942669999999999,-0.3921225,1.243283,0.8924869999999999,-0.3613425,0.926784,-0.002003,-0.0023154999999999,1.073216,0.0020029999999999,0.0023155,0.868073,-0.2988229999999999,-0.2146325,1.1298929999999998,-0.297783,-0.2127525,0.886663,-0.6836030000000001,-0.1736585,1.136543,-0.6844830000000001,-0.1562465
119,0.983979,0.7296145,-0.0850104999999999,0.853478,0.4823945,-0.0967195,0.753308,0.6969345,-0.2187124999999999,1.127568,0.4951845,-0.0801035,1.213298,0.6923845000000001,-0.1848125,0.734468,0.8992445,-0.3625625,1.243558,0.8997845,-0.3335025,0.927152,-0.0022024999999999,-0.0024264999999999,1.072848,0.0022024999999999,0.0024264999999999,0.870368,-0.3166555,-0.1935225,1.128688,-0.3127054999999999,-0.1922225,0.8862680000000001,-0.6991755,-0.1592545,1.136868,-0.6994055,-0.1422435
120,0.9844405,0.7319225,-0.0659064999999999,0.8530655,0.4854825,-0.0789584999999999,0.7525355,0.7031225,-0.1954624999999999,1.1285255,0.4979225,-0.0625265,1.2143055,0.6999125,-0.1639855,0.7341355,0.9041825,-0.3336525,1.2439855,0.9078725,-0.3075925,0.9276765,-0.0023234999999999,-0.0025434999999999,1.0723235,0.0023235,0.0025435,0.8726155000000001,-0.3342974999999999,-0.1725525,1.1279855,-0.3268875,-0.1720625,0.8860755,-0.7140175,-0.1449535,1.1373855,-0.7134475,-0.1285265
121,0.9846875,0.73383,-0.0495689999999999,0.8530445,0.48564,-0.0638219999999999,0.7522745,0.7083,-0.175567,1.1291045,0.4985199999999999,-0.0474239999999999,1.2154444999999998,0.70619,-0.146034,0.7336545000000001,0.9063,-0.306637,1.2440544999999998,0.91306,-0.283437,0.9279125,-0.0026039999999999,-0.0024609999999999,1.0720875,0.002604,0.002461,0.8745245,-0.34907,-0.1534869999999999,1.1271145,-0.33875,-0.153357,0.8856345,-0.72534,-0.1319219999999999,1.1375745,-0.72367,-0.11637
122,0.98491,0.7353175,-0.033349,0.852922,0.4876275,-0.0482509999999999,0.751982,0.7149975,-0.156179,1.129872,0.5008575,-0.0319039999999999,1.217102,0.7138074999999999,-0.129346,0.7330920000000001,0.9101375,-0.280099,1.244742,0.9177275,-0.258759,0.928034,-0.0027875,-0.0023849999999999,1.071966,0.0027875,0.002385,0.876682,-0.3644325,-0.1341,1.126362,-0.3504025,-0.134757,0.885162,-0.7368525,-0.119197,1.137672,-0.7339625000000001,-0.10413
123,0.9850855000000001,0.735013,-0.0173299999999999,0.8526795,0.490033,-0.032949,0.7516095,0.7213430000000001,-0.137378,1.1306495,0.503553,-0.0166339999999999,1.2185695,0.7201930000000001,-0.1129429999999999,0.7324595,0.914373,-0.254538,1.2453094999999998,0.923063,-0.236028,0.9280415,-0.003038,-0.0021689999999999,1.0719585,0.003038,0.002169,0.8788995,-0.379517,-0.1146129999999999,1.1256395,-0.361437,-0.116546,0.8848095,-0.747347,-0.1062589999999999,1.1376595,-0.744707,-0.0923269999999999
124,0.9851600000000001,0.734712,-0.0037144999999999,0.8523620000000001,0.4918519999999999,-0.0201455,0.751672,0.726712,-0.1210535,1.131562,0.505442,-0.0038464999999999,1.2198719999999998,0.7252419999999999,-0.0984215,0.731772,0.917962,-0.2317735,1.245642,0.927392,-0.2156135,0.928016,-0.003168,-0.0020605,1.071984,0.003168,0.0020605,0.8808819999999999,-0.391808,-0.0963515,1.125062,-0.368778,-0.1000815,0.884512,-0.755198,-0.0949785,1.137582,-0.750838,-0.0814925
125,0.9852415,0.7333495000000001,0.0097749999999999,0.8520985,0.4925194999999999,-0.007826,0.7519585,0.7313095000000001,-0.104673,1.1326085,0.5069295,0.00881,1.2200785,0.7295495000000001,-0.084592,0.7311385,0.9209595,-0.2089339999999999,1.2458784999999999,0.9314295,-0.1953639999999999,0.9278915000000001,-0.0033305,-0.001852,1.0721085,0.0033305,0.0018519999999999,0.8829685,-0.4041905,-0.077865,1.1246285,-0.3765405,-0.083572,0.8841285000000001,-0.7629805000000001,-0.082983,1.1375085,-0.7573205000000001,-0.0703
126,0.9852625,0.7310055,0.0217995,0.8518815,0.4927955,0.0034905,0.7522615000000001,0.7344354999999999,-0.0897854999999999,1.1336515,0.5091855,0.0207615,1.2213215,0.7326155,-0.0717505,0.7300314999999999,0.9227655,-0.1887714999999999,1.2465614999999999,0.9346555,-0.1774815,0.9278385000000001,-0.0035634999999999,-0.0016744999999999,1.0721615,0.0035635,0.0016745,0.8850215000000001,-0.4162145,-0.0599325,1.1241415,-0.3842744999999999,-0.0674015,0.8838515000000001,-0.7704045,-0.0715504999999999,1.1372815,-0.7638245,-0.0599354999999999
127,0.9853015,0.729744,0.028834,0.8516835,0.493444,0.010398,0.7517335,0.738144,-0.079949,1.1348135,0.510554,0.027726,1.2227435,0.7360439999999999,-0.063004,0.7289034999999999,0.925544,-0.1739949999999999,1.2467035,0.939594,-0.164965,0.9277725,-0.003639,-0.001494,1.0722275,0.0036389999999999,0.001494,0.8869335,-0.428366,-0.046429,1.1237035,-0.392416,-0.05543,0.8833835,-0.777996,-0.064388,1.1368535,-0.770646,-0.052027
128,0.985247,0.7291445,0.034545,0.851657,0.4919544999999999,0.016109,0.751417,0.7394645,-0.0718579999999999,1.135287,0.5100345,0.033434,1.224047,0.7379545,-0.0553069999999999,0.7274970000000001,0.9281845,-0.162464,1.246707,0.9403645,-0.153564,0.927567,-0.0037624999999999,-0.0013269999999999,1.072433,0.0037625,0.001327,0.887417,-0.4329655,-0.0374759999999999,1.123637,-0.3970155,-0.046725,0.883007,-0.7825955,-0.0579289999999999,1.136317,-0.7752455,-0.0443
129,0.9850845,0.7284435,0.040136,0.8514625,0.4908635,0.0217,0.7510725,0.7403735,-0.06402,1.1355825,0.5096935,0.039022,1.2251425,0.7398235,-0.047876,0.7259225,0.9298835,-0.151713,1.2466525,0.9411835,-0.142833,0.9273425,-0.0039024999999999,-0.0011129999999999,1.0726575,0.0039025,0.001113,0.8877225,-0.4370765,-0.028877,1.1234325,-0.4011265,-0.038414,0.8827525,-0.7867065,-0.051751,1.1355225,-0.7793565,-0.036299
130,0.9848495,0.7281775,0.0453885,0.8511355,0.4900474999999999,0.0269535,0.7506055,0.7410375,-0.0568985,1.1357055,0.5093775,0.0442735,1.2260255,0.7407575,-0.0412195,0.7242655,0.9311575,-0.1419295,1.2464955,0.9417675,-0.1335795,0.9269865,-0.0040185,-0.0009855,1.0730135,0.0040185,0.0009855,0.8878255,-0.4407525,-0.0211255,1.1231155,-0.4048025,-0.0308715,0.8823755000000001,-0.7903825,-0.0459395,1.1346655,-0.7830325,-0.0287505
131,0.984538,0.7280725,0.050328,0.850894,0.4881824999999999,0.031659,0.750084,0.7406925,-0.050558,1.135604,0.5082425,0.0491869999999999,1.226394,0.7394825,-0.035693,0.7228140000000001,0.9316825,-0.133192,1.246894,0.9418325,-0.125952,0.926647,-0.0040955,-0.000898,1.073353,0.0040954999999999,0.0008979999999999,0.887824,-0.4404375,-0.01434,1.122814,-0.4032975,-0.024114,0.881704,-0.7914875,-0.040482,1.133574,-0.7829375,-0.021601
132,0.984167,0.7277605,0.0547295,0.850552,0.4865505,0.0361925,0.749492,0.7379905,-0.0441695,1.135382,0.5071505000000001,0.0538125,1.226652,0.7367805000000001,-0.0300524999999999,0.7212419999999999,0.9293405,-0.1245785,1.247352,0.9411805,-0.1199685,0.92639,-0.0041365,-0.0008724999999999,1.07361,0.0041365,0.0008725,0.887642,-0.4397295,-0.0082505,1.122452,-0.4016295,-0.0179374999999999,0.880992,-0.7921294999999999,-0.0351314999999999,1.132482,-0.7825394999999999,-0.0145334999999999
133,0.983918,0.7275535,0.058084,0.8501259999999999,0.4854435,0.040388,0.7488060000000001,0.7356635,-0.0382569999999999,1.1351959999999999,0.5062234999999999,0.057983,1.2270159999999999,0.7344535000000001,-0.0250069999999999,0.7195560000000001,0.9277035,-0.11789,1.248016,0.9391535,-0.11531,0.9262730000000001,-0.0041624999999999,-0.000827,1.0737269999999999,0.0041624999999999,0.000827,0.8874160000000001,-0.4387864999999999,-0.002935,1.122186,-0.3996564999999999,-0.0123769999999999,0.880416,-0.7922265,-0.029969,1.1314359999999999,-0.7818065000000001,-0.0078049999999999
134,0.9838865,0.72789,0.0598695,0.8498885,0.4851999999999999,0.0428674999999999,0.7481985,0.73435,-0.0344085,1.1353985,0.50573,0.0601415,1.2281285,0.73314,-0.0211685,0.7180185,0.92639,-0.1139135,1.2490685,0.93784,-0.1114635,0.9262245,-0.004101,-0.0008445,1.0737755,0.0041009999999999,0.0008444999999999,0.8872485,-0.43759,0.0010214999999999,1.1220685,-0.39879,-0.0085315,0.8797785000000001,-0.7910900000000001,-0.0258445,1.1305885,-0.7799900000000001,-0.0020635
135,0.9839765000000001,0.72789,0.0606065,0.8495785000000001,0.4851999999999999,0.0447075,0.7473084999999999,0.73246,-0.0307404999999999,1.1359185,0.50573,0.0612815,1.2301085,0.73207,-0.0178685,0.7167385,0.92639,-0.1099804999999999,1.2506585000000001,0.93784,-0.1081705,0.9262414999999999,-0.004101,-0.0005594999999999,1.0737585,0.0041009999999999,0.0005594999999999,0.8870885,-0.43759,0.0043335,1.1219385,-0.39879,-0.0052195,0.8794585,-0.79069,-0.0225305,1.1302285,-0.77878,0.0024515
136,0.984145,0.72789,0.0603454999999999,0.849326,0.4851999999999999,0.0461025,0.745556,0.73012,-0.0279585,1.136706,0.50573,0.0615575,1.233386,0.72873,-0.0155714999999999,0.715086,0.92623,-0.1071335,1.252746,0.93784,-0.1066535,0.926333,-0.004101,-0.0002715,1.073667,0.0041009999999999,0.0002715,0.886956,-0.43759,0.0066495,1.1218759999999999,-0.39879,-0.0029034999999999,0.879216,-0.79069,-0.0201494999999999,1.129986,-0.77878,0.0047685
137,0.9845865000000001,0.72789,0.0599165,0.8491155,0.48471,0.0473835,0.7418155,0.72547,-0.0255645,1.1377555,0.50556,0.0617765,1.2393855,0.72312,-0.0137984999999999,0.7129855,0.92459,-0.1049915,1.2559355,0.9338,-0.1069615,0.9264235,-0.004101,-8.74999999999973e-05,1.0735765,0.0041009999999999,8.750000000000424e-05,0.8867955,-0.43759,0.0087815,1.1219755,-0.39879,-0.0009434999999999,0.8790155,-0.79069,-0.0177404999999999,1.1297255,-0.77878,0.0069015
138,0.985091,0.7279935000000001,0.0591335,0.848686,0.4852135,0.0485294999999999,0.735996,0.7176835,-0.0234264999999999,1.139016,0.5047635,0.0615314999999999,1.247616,0.7135935,-0.0130105,0.709436,0.9168735,-0.1037674999999999,1.259266,0.9269735,-0.1088875,0.926526,-0.0040624999999999,-2.9500000000001747e-05,1.073474,0.0040624999999999,2.9500000000001747e-05,0.886786,-0.4366965,0.0102434999999999,1.122186,-0.3987565,-0.0002735,0.8787860000000001,-0.7896164999999999,-0.0156544999999999,1.129496,-0.7777065,0.0088055
139,0.985842,0.7282385,0.058521,0.848583,0.4861185,0.049664,0.728823,0.7059384999999999,-0.021554,1.140373,0.5032584999999999,0.061012,1.258353,0.7023885,-0.012047,0.7072230000000002,0.9059885,-0.102543,1.264453,0.9126685,-0.1107529999999999,0.926586,-0.0039535,6.899999999999962e-05,1.073414,0.0039534999999999,-6.899999999999962e-05,0.887073,-0.4366415,0.0111069999999999,1.122463,-0.3991915,-0.0002189999999999,0.879143,-0.7885415,-0.0136919999999999,1.129673,-0.7766715000000001,0.010186
140,0.9868525,0.7284214999999999,0.0579825,0.8484305,0.4874014999999999,0.0510895,0.7206805000000001,0.6915414999999999,-0.0192014999999999,1.1419505,0.5015915,0.0605455,1.2709605,0.6859514999999999,-0.0109625,0.7062505,0.8911915,-0.1016305,1.2707405,0.8926815,-0.1130905,0.9266735000000001,-0.0038064999999999,2.550000000000469e-05,1.0733264999999999,0.0038064999999999,-2.5499999999997747e-05,0.8874205,-0.4365385,0.0120105,1.1227605,-0.3993485,-0.0002484999999999,0.8795405000000001,-0.7875785000000001,-0.0112764999999999,1.1298305,-0.7757085,0.0116355
141,0.988041,0.7286735,0.057358,0.84834,0.4888335,0.0525029999999999,0.70985,0.6721835,-0.01648,1.14369,0.4993935,0.059844,1.28359,0.6646635,-0.0084469999999999,0.70539,0.8713235,-0.1010829999999999,1.2776399999999999,0.8678335,-0.116143,0.9267720000000002,-0.0035864999999999,3.699999999999537e-05,1.0732279999999998,0.0035864999999999,-3.700000000000231e-05,0.88796,-0.4361365,0.012849,1.1232,-0.3988865,-0.00028,0.8800100000000001,-0.7861965,-0.008693,1.13015,-0.7747565,0.012752
142,0.989218,0.7293385,0.056342,0.848086,0.4898285,0.053444,0.700636,0.6449284999999999,-0.0127859999999999,1.145316,0.4968185,0.058945,1.292696,0.6337484999999999,-0.0052369999999999,0.7042459999999999,0.8415785,-0.102638,1.284076,0.8417485,-0.118948,0.9267700000000001,-0.0032145,0.0002349999999999,1.07323,0.0032145,-0.0002349999999999,0.888226,-0.4350314999999999,0.013847,1.123396,-0.3983815,-0.0001079999999999,0.880256,-0.7839115000000001,-0.0056309999999999,1.130036,-0.7730215,0.014531
143,0.990115,0.7303265,0.055178,0.847865,0.4906665,0.054423,0.6959949999999999,0.6142065,-0.0088369999999999,1.146585,0.4942464999999999,0.0584699999999999,1.297515,0.5976265,-0.001752,0.703195,0.8064264999999999,-0.1047599999999999,1.290105,0.7981165,-0.12413,0.926701,-0.0028075,0.0004509999999999,1.073299,0.0028074999999999,-0.000451,0.888325,-0.4335735,0.0145539999999999,1.123675,-0.3976235,-0.000494,0.880085,-0.7815635000000001,-0.002741,1.129655,-0.7709635,0.0165559999999999
144,0.9907275,0.7317175,0.0537445,0.8478574999999999,0.4909275,0.0551824999999999,0.6931975,0.5786975000000001,-0.0025855,1.1474175,0.4911374999999999,0.0573454999999999,1.2986675,0.5585074999999999,0.0030204999999999,0.7016475,0.7643175,-0.1063785,1.2948775000000001,0.7449475000000001,-0.1264585,0.9266075,-0.0024285,0.0006535,1.0733925,0.0024285,-0.0006535,0.8881875,-0.4316725,0.0147604999999999,1.1236375,-0.3965825,-0.0008235,0.8797075,-0.7789425000000001,0.0004735,1.1289175,-0.7685825,0.0185064999999999
145,0.9907545000000001,0.7334510000000001,0.051912,0.8478125,0.4911509999999999,0.055924,0.6910625,0.5387810000000001,0.0067129999999999,1.1474525,0.4875409999999999,0.055476,1.2965225,0.517321,0.009814,0.6994425,0.7150610000000001,-0.10833,1.2965925,0.6843410000000001,-0.12236,0.9264665,-0.002043,0.0008409999999999,1.0735335,0.0020429999999999,-0.0008409999999999,0.8876125,-0.429259,0.014286,1.1234125,-0.395139,-0.001034,0.8787925,-0.775659,0.003733,1.1276225,-0.7657189999999999,0.020398
146,0.9895275,0.7353965,0.0491755,0.8475235,0.4906264999999999,0.0564724999999999,0.6884535,0.4997065,0.0170644999999999,1.1468135,0.4835065,0.0528584999999999,1.2939034999999999,0.4748865,0.0180184999999999,0.6970735,0.6602965000000001,-0.1093915,1.2939535,0.6180165,-0.1182015,0.9263395000000001,-0.0017755,0.0011114999999999,1.0736605,0.0017754999999999,-0.0011115,0.8854935,-0.4244235,0.0123104999999999,1.1229335,-0.3921834999999999,-0.0012655,0.8761435,-0.7717235,0.0062374999999999,1.1260335,-0.7629435,0.0219324999999999
147,0.9871735,0.737643,0.045739,0.8467585,0.4896629999999999,0.056992,0.6854185000000002,0.460993,0.0282229999999999,1.1454885,0.479863,0.050176,1.2908484999999998,0.433353,0.025934,0.6941585,0.602813,-0.1081839999999999,1.2908785,0.544013,-0.113784,0.9262885,-0.001593,0.001513,1.0737115,0.001593,-0.001513,0.8823685,-0.420117,0.008828,1.1218785,-0.389287,-0.001266,0.8730585000000001,-0.768187,0.0083889999999999,1.1236885,-0.760277,0.0242539999999999
148,0.984425,0.7397615000000001,0.041315,0.8459909999999999,0.4882815,0.0575629999999999,0.685121,0.4252315,0.04165,1.144131,0.4773415,0.047274,1.284541,0.3896315,0.033942,0.6928810000000001,0.5435715,-0.103573,1.288181,0.4708814999999999,-0.109163,0.9262150000000001,-0.0014295,0.0021069999999999,1.073785,0.0014294999999999,-0.0021069999999999,0.879621,-0.4157785,0.0030789999999999,1.121161,-0.3862485,-0.001307,0.870321,-0.7645284999999999,0.0101009999999999,1.121761,-0.7577085,0.026523
149,0.982438,0.7415750000000001,0.0356615,0.845249,0.486355,0.0579165,0.690329,0.390835,0.0559845,1.142699,0.474615,0.0432325,1.275059,0.350085,0.0427985,0.6929190000000001,0.484875,-0.1003864999999999,1.286249,0.393025,-0.0998665,0.926102,-0.001286,0.0029505,1.073898,0.0012859999999999,-0.0029504999999999,0.877599,-0.411355,-0.0070564999999999,1.120779,-0.382915,-0.0012534999999999,0.866609,-0.760795,0.0056645,1.1206289999999999,-0.755185,0.0291654999999999
150,0.981429,0.7431035,0.0294419999999999,0.844841,0.4838035,0.0576989999999999,0.6989609999999999,0.3609935,0.069632,1.141701,0.4723035,0.0392089999999999,1.264041,0.3149235,0.0501789999999999,0.694481,0.4251835,-0.097548,1.281771,0.3176535,-0.089178,0.926096,-0.0011755,0.0037779999999999,1.073904,0.0011754999999999,-0.003778,0.875241,-0.4049765,-0.018938,1.120831,-0.3800865,-0.001588,0.860231,-0.7567565,-0.000948,1.120491,-0.7529265,0.032345
151,0.9810625,0.743883,0.023674,0.8448395,0.481303,0.058163,0.7058795,0.338683,0.079076,1.1416795,0.470193,0.035447,1.2511895,0.288973,0.05704,0.6944995,0.374323,-0.0935899999999999,1.2761695,0.242563,-0.07676,0.9260995,-0.001254,0.00442,1.0739005,0.001254,-0.0044199999999999,0.8719895,-0.398207,-0.0321799999999999,1.1208295,-0.3772669999999999,-0.0014499999999999,0.8506295,-0.753337,-0.0119799999999999,1.1211995,-0.750387,0.036117
152,0.9793645,0.7440500000000001,0.0179669999999999,0.8448424999999999,0.4788,0.0586079999999999,0.7065325,0.31969,0.0867179999999999,1.1416625,0.46796,0.0313559999999999,1.2357225,0.2679499999999999,0.064772,0.6945224999999999,0.3276799999999999,-0.088745,1.2673725,0.1799899999999999,-0.062255,0.9261025,-0.001395,0.0049249999999999,1.0738975,0.001395,-0.004925,0.8667225000000001,-0.39147,-0.0461749999999999,1.1208425,-0.37521,-0.000355,0.8368325,-0.7500699999999999,-0.027115,1.1218525,-0.7481599999999999,0.040863
153,0.9762925,0.743644,0.0124399999999999,0.8448505,0.476784,0.0591429999999999,0.7066405,0.308864,0.0948439999999999,1.1412205,0.466104,0.0279169999999999,1.2196704999999999,0.251244,0.0726859999999999,0.6945505000000001,0.286354,-0.08433,1.2572105,0.128834,-0.04716,0.9261064999999999,-0.0014629999999999,0.0056399999999999,1.0738935,0.0014629999999999,-0.00564,0.8588905,-0.384816,-0.06081,1.1208505,-0.372736,0.0013299999999999,0.8203805,-0.745786,-0.04549,1.1223905,-0.746026,0.0468729999999999
154,0.9710765,0.742147,0.0069699999999999,0.8432215000000001,0.474477,0.0592749999999999,0.7089915,0.302867,0.1068039999999999,1.1409115,0.464937,0.0261599999999999,1.2067515,0.240307,0.0839639999999999,0.6951815,0.257407,-0.07598,1.2487615,0.089846,-0.03249,0.9262525,-0.001701,0.0066699999999999,1.0737475,0.001701,-0.00667,0.8484615,-0.377233,-0.07534,1.1226015,-0.369243,0.0044299999999999,0.7993715,-0.737733,-0.06737,1.1251615,-0.742973,0.0567089999999999
155,0.965358,0.739734,0.0015249999999999,0.840403,0.471464,0.058708,0.714593,0.297114,0.12025,1.138923,0.4651639999999999,0.024405,1.1973530000000001,0.2345439999999999,0.09486,0.688863,0.232904,-0.0682849999999999,1.241693,0.06288,-0.0176649999999999,0.926349,-0.0024619999999999,0.0072349999999999,1.073651,0.002462,-0.0072349999999999,0.838893,-0.370716,-0.0877749999999999,1.126093,-0.367436,0.009865,0.777223,-0.730056,-0.0906549999999999,1.130763,-0.741166,0.069684
156,0.9593975,0.7367005,-0.00368,0.8368905,0.4673805,0.0578799999999999,0.7226705,0.2917105,0.1277779999999999,1.1366805,0.4659405,0.0225499999999999,1.1907905,0.2306705,0.1030199999999999,0.6814305,0.2136405,-0.06222,1.2355505,0.0456265,-0.00154,0.9264275,-0.0032385,0.0075899999999999,1.0735725,0.0032385,-0.00759,0.8291105,-0.3646695,-0.09896,1.1305304999999999,-0.3666594999999999,0.0157499999999999,0.7558805,-0.7234295000000001,-0.11336,1.1388805,-0.7403895,0.0838949999999999
157,0.9524305,0.7340035,-0.010355,0.8318235,0.4637735,0.0544349999999999,0.7248935000000001,0.2872734999999999,0.126757,1.1346935,0.4662234999999999,0.020595,1.1889835,0.2309535,0.108199,0.6707335000000001,0.2007035,-0.064545,1.2331835,0.0351935,0.0177449999999999,0.9265715,-0.0035215,0.007225,1.0734285,0.0035215,-0.007225,0.8219835,-0.3587565,-0.107375,1.1373435,-0.3653265,0.0227249999999999,0.7382035,-0.7170765,-0.134565,1.1526934999999998,-0.7392665,0.100477
158,0.942848,0.731311,-0.0199149999999999,0.824538,0.460821,0.045985,0.720798,0.284081,0.114607,1.129624,0.4662509999999999,0.016735,1.187228,0.230981,0.108995,0.656488,0.1904809999999999,-0.0734349999999999,1.233428,0.035221,0.039935,0.926728,-0.003549,0.006755,1.073272,0.003549,-0.006755,0.8185180000000001,-0.354649,-0.1110149999999999,1.145908,-0.362549,0.029585,0.730978,-0.7106089999999999,-0.145555,1.173228,-0.7334689999999999,0.119149
159,0.9310505,0.7278175,-0.032335,0.8160905,0.4575375,0.034205,0.7137505,0.2822375,0.095465,1.1219065,0.4661875,0.009655,1.1845804999999998,0.2308475,0.107595,0.6411905,0.1866275,-0.0873849999999999,1.2370105,0.0350875,0.059005,0.9266805,-0.0037595,0.006225,1.0733195,0.0037595,-0.0062249999999999,0.8194905,-0.3520425,-0.1118949999999999,1.1550725,-0.3579825,0.036125,0.7304105000000001,-0.7044825,-0.1526349999999999,1.1960705,-0.7265824999999999,0.135665
160,0.9188535000000001,0.7240095000000001,-0.046505,0.8071735000000001,0.4541095,0.0199949999999999,0.7014035000000001,0.2793095,0.067935,1.1130985,0.4667195,0.000975,1.1812544999999999,0.2319595,0.1046049999999999,0.6225835,0.1817295,-0.110595,1.2393635,0.0342695,0.0706449999999999,0.9266635,-0.0045825,0.0057749999999999,1.0733365,0.0045825,-0.005775,0.8222735000000001,-0.3505605,-0.111445,1.1643175000000001,-0.3530305,0.0420649999999999,0.7348635,-0.6991704999999999,-0.155625,1.2188135,-0.7203704999999999,0.150665
161,0.905483,0.7201275,-0.0619549999999999,0.797833,0.4505475,0.004385,0.685063,0.2758275,0.037795,1.1033719999999998,0.4680475,-0.0085849999999999,1.176593,0.2355074999999999,0.100245,0.603213,0.1775175,-0.1376049999999999,1.242423,0.0338025,0.078255,0.926763,-0.0058145,0.005435,1.073237,0.0058145,-0.0054349999999999,0.827053,-0.3495625,-0.1097249999999999,1.173301,-0.3487425,0.047635,0.744253,-0.6949025,-0.1542449999999999,1.240193,-0.7147924999999999,0.163555
162,0.88961,0.7163395,-0.0803849999999999,0.78688,0.4468195,-0.0147249999999999,0.6668500000000002,0.2736395,0.001165,1.09083,0.4696895,-0.0205449999999999,1.1698979999999999,0.2400395,0.094845,0.58176,0.1731595,-0.1719049999999999,1.24312,0.0374515,0.083095,0.9267700000000001,-0.0074045,0.0046149999999999,1.07323,0.0074045,-0.0046149999999999,0.83464,-0.3488805,-0.1060249999999999,1.180542,-0.3448305,0.0523649999999999,0.7579800000000001,-0.6923005,-0.147455,1.258767,-0.7093705,0.173655
163,0.874525,0.7127035,-0.0988649999999999,0.776895,0.4434035,-0.033995,0.647295,0.2708935,-0.0381449999999999,1.077765,0.4715735,-0.032995,1.162612,0.2450735,0.088695,0.558225,0.1715635,-0.2139649999999999,1.241515,0.0421735,0.083265,0.9267750000000001,-0.0091515,0.003435,1.073225,0.0091515,-0.0034349999999999,0.844225,-0.3491464999999999,-0.1019649999999999,1.18651,-0.3411165,0.055855,0.776095,-0.6935765,-0.1371549999999999,1.27464,-0.7048565,0.179805
164,0.85903,0.709055,-0.118015,0.76746,0.439255,-0.053705,0.63288,0.267915,-0.075965,1.0636199999999998,0.473735,-0.046825,1.154687,0.251335,0.0814249999999999,0.54165,0.166185,-0.2492149999999999,1.237987,0.053203,0.0800549999999999,0.92687,-0.010984,0.002425,1.07313,0.010984,-0.002425,0.85363,-0.3500149999999999,-0.098425,1.19074,-0.337545,0.0577849999999999,0.79666,-0.695605,-0.124305,1.287299,-0.700615,0.182965
165,0.843215,0.7048475000000001,-0.137225,0.758275,0.4342275,-0.074025,0.620145,0.2648775,-0.111175,1.0499749999999999,0.4760574999999999,-0.060225,1.144029,0.2612974999999999,0.0724649999999999,0.5280750000000001,0.1637475,-0.281125,1.23396,0.0635255,0.0770049999999999,0.927025,-0.0129115,0.0014449999999999,1.072975,0.0129115,-0.001445,0.863965,-0.3515825,-0.093975,1.194045,-0.3343725,0.0594449999999999,0.817315,-0.6980425,-0.110985,1.297792,-0.6959424999999999,0.1844549999999999
166,0.8283,0.69986,-0.15466,0.75073,0.42795,-0.0923,0.61164,0.26099,-0.14122,1.03737,0.47813,-0.07283,1.13466,0.26954,0.0652099999999999,0.519,0.16381,-0.30408,1.229072,0.070443,0.0756799999999999,0.9271500000000001,-0.014594,0.0007099999999999,1.07285,0.014594,-0.0007099999999999,0.8727199999999999,-0.35463,-0.0896,1.195397,-0.33282,0.0605999999999999,0.8358300000000001,-0.70133,-0.09813,1.3021289999999999,-0.69312,0.18417
167,0.8163199999999999,0.6957565,-0.1692099999999999,0.74594,0.4229165,-0.10665,0.60529,0.2584265,-0.16324,1.0261,0.4790565,-0.08432,1.12611,0.2771765,0.05957,0.51529,0.1648464999999999,-0.3180199999999999,1.224815,0.0747855,0.07579,0.92733,-0.0157755,-0.00035,1.07267,0.0157755,0.00035,0.88081,-0.3573035,-0.08505,1.1954429999999998,-0.3329335,0.0622499999999999,0.84918,-0.7045235,-0.08842,1.3009719999999998,-0.6938835,0.18264
168,0.80735,0.6924159999999999,-0.180785,0.74306,0.418576,-0.117585,0.60051,0.255746,-0.180675,1.018,0.479466,-0.092425,1.11971,0.284786,0.0557649999999999,0.51383,0.167756,-0.327025,1.2216479999999998,0.078643,0.0768849999999999,0.92765,-0.016718,-0.001465,1.07235,0.016718,0.0014649999999999,0.8872800000000001,-0.3590939999999999,-0.081365,1.195797,-0.333574,0.0648249999999999,0.8605,-0.7069040000000001,-0.079845,1.296976,-0.693744,0.1830449999999999
169,0.799195,0.689735,-0.191105,0.7404350000000002,0.415415,-0.126985,0.598255,0.2532649999999999,-0.192705,1.010425,0.479775,-0.099295,1.114275,0.291985,0.0528649999999999,0.515765,0.168515,-0.328105,1.219556,0.083497,0.0798649999999999,0.9280250000000001,-0.017484,-0.002755,1.071975,0.017484,0.0027549999999999,0.894625,-0.359985,-0.077205,1.196295,-0.333855,0.0677449999999999,0.871915,-0.708475,-0.071195,1.291253,-0.689735,0.1844749999999999
170,0.79252,0.6861685,-0.200065,0.73824,0.4120085,-0.135065,0.5968800000000001,0.2510585,-0.202875,1.0037,0.4798285,-0.1050349999999999,1.11003,0.2979985,0.0510249999999999,0.51825,0.1697084999999999,-0.326055,1.21838,0.0879485,0.0833349999999999,0.9283500000000001,-0.0180605,-0.0040749999999999,1.07165,0.0180605,0.0040749999999999,0.9016200000000001,-0.3609015,-0.073145,1.19037,-0.3339115,0.067425,0.88226,-0.7098415,-0.063095,1.285808,-0.6817015,0.187055
171,0.7886299999999999,0.6831815,-0.2059299999999999,0.7374900000000001,0.4097615,-0.1396899999999999,0.59614,0.2489814999999999,-0.2060299999999999,0.9996,0.4797415,-0.10819,1.1075599999999999,0.3035615,0.05057,0.52337,0.1711315,-0.31913,1.21953,0.0908315,0.08711,0.92873,-0.0183195,-0.0051399999999999,1.07127,0.0183195,0.00514,0.90769,-0.3613285,-0.0696699999999999,1.18588,-0.3336585,0.06745,0.89047,-0.7108085,-0.0566899999999999,1.282252,-0.6737584999999999,0.19133
172,0.78562,0.680631,-0.21155,0.7370099999999999,0.408031,-0.14349,0.59883,0.246941,-0.20403,0.99543,0.479761,-0.1112599999999999,1.10516,0.309011,0.05023,0.53156,0.168391,-0.31601,1.2204499999999998,0.093731,0.09064,0.9291,-0.01855,-0.00622,1.0709,0.01855,0.00622,0.9145400000000001,-0.362909,-0.06536,1.18182,-0.333189,0.0672499999999999,0.8998,-0.711859,-0.0495,1.2802470000000001,-0.665779,0.1964499999999999
173,0.78379,0.679307,-0.2158299999999999,0.73709,0.407757,-0.14563,0.6024500000000002,0.2454569999999999,-0.1986,0.99356,0.479957,-0.1122499999999999,1.10326,0.312757,0.0502,0.53925,0.166137,-0.31094,1.21933,0.0934569999999999,0.0930699999999999,0.9295200000000001,-0.018824,-0.0070299999999999,1.0704799999999999,0.018824,0.0070299999999999,0.9208700000000001,-0.364503,-0.06117,1.17551,-0.332653,0.0645,0.90839,-0.712783,-0.0428299999999999,1.278324,-0.6613730000000001,0.20037
174,0.77936,0.6740459999999999,-0.22346,0.73681,0.403436,-0.15309,0.60067,0.244756,-0.2097,0.9881800000000001,0.478416,-0.1173599999999999,1.10448,0.321236,0.0516499999999999,0.5555100000000002,0.190616,-0.29489,1.22588,0.100866,0.09964,0.9300300000000001,-0.019733,-0.0084899999999999,1.06997,0.019733,0.0084899999999999,0.93129,-0.3654239999999999,-0.05626,1.14903,-0.334474,0.05536,0.9187600000000001,-0.715044,-0.0355699999999999,1.273721,-0.6608440000000001,0.21238
175,0.779805,0.6728615,-0.22492,0.735665,0.4040615,-0.15327,0.602595,0.2424014999999999,-0.20889,0.9871750000000001,0.4778815,-0.11751,1.1050849999999999,0.3214215,0.0524899999999999,0.5601150000000001,0.1909415,-0.28969,1.228005,0.1009215,0.10153,0.930525,-0.0197555,-0.0084199999999999,1.069475,0.0197555,0.0084199999999999,0.9347250000000001,-0.3661985,-0.05391,1.150835,-0.3322084999999999,0.0560999999999999,0.9236650000000001,-0.7155785,-0.0316199999999999,1.27082,-0.6186985,0.2169299999999999
176,0.784275,0.6733465000000001,-0.2277449999999999,0.7377549999999999,0.4058265,-0.1494349999999999,0.607785,0.2401565,-0.199125,0.990825,0.4808765,-0.113725,1.106455,0.3198864999999999,0.0546249999999999,0.570825,0.1911365,-0.271605,1.2269549999999998,0.1005065,0.100045,0.931015,-0.0190935,-0.008715,1.0689849999999999,0.0190935,0.0087149999999999,0.942265,-0.3711735,-0.047595,1.1559549999999998,-0.3291735,0.0566949999999999,0.938165,-0.7146235,-0.022215,1.280967,-0.6245735,0.2223349999999999
177,0.78502,0.6735015000000001,-0.227315,0.73779,0.4061214999999999,-0.148055,0.60953,0.2384214999999999,-0.194845,0.9915700000000001,0.4830015,-0.112305,1.10567,0.3192414999999999,0.054365,0.5726500000000001,0.1887915,-0.262925,1.2034799999999999,0.1187515,0.094725,0.93126,-0.0189955,-0.0081849999999999,1.06874,0.0189955,0.0081849999999999,0.94237,-0.3729785,-0.0461149999999999,1.11118,-0.3239785,0.0236649999999999,0.9400200000000001,-0.7143484999999999,-0.021035,1.278205,-0.6148385,0.209675
178,0.7872350000000001,0.6740805000000001,-0.2253049999999999,0.739005,0.4068805,-0.145425,0.613855,0.2358305,-0.187485,0.9929250000000001,0.4832105,-0.110165,1.104855,0.3183105,0.0549249999999999,0.569535,0.1733205,-0.261325,1.205545,0.1185204999999999,0.0960849999999999,0.9311150000000001,-0.0187275,-0.008035,1.068885,0.0187275,0.0080349999999999,0.9441350000000001,-0.3737595,-0.043575,1.140295,-0.3267095,0.0410649999999999,0.9434450000000001,-0.7142295,-0.018035,1.253155,-0.5591395,0.1783849999999999
179,0.7890550000000001,0.674711,-0.22309,0.739425,0.407781,-0.14266,0.6187050000000001,0.232391,-0.1780899999999999,0.9952550000000001,0.484211,-0.1075699999999999,1.103585,0.316441,0.05504,0.527595,0.094911,-0.31884,1.206455,0.117121,0.09626,0.9310250000000001,-0.018711,-0.0082399999999999,1.068975,0.018711,0.00824,0.9451250000000001,-0.374259,-0.0415799999999999,1.1148150000000001,-0.325189,0.026,0.9463650000000001,-0.715439,-0.0154699999999999,1.266305,-0.599399,0.19728
180,0.7958450000000001,0.678343,-0.21354,0.7379950000000002,0.4135729999999999,-0.13032,0.6423150000000001,0.221253,-0.13567,1.003075,0.486773,-0.09799,1.105515,0.305403,0.0609099999999999,0.5733750000000001,0.064802,-0.2695000000000001,1.214175,0.066556,0.0900099999999999,0.9310650000000001,-0.018723,-0.0069299999999999,1.068935,0.018723,0.0069299999999999,0.9489750000000001,-0.378257,-0.0357699999999999,1.147565,-0.332247,0.04202,0.9548150000000001,-0.718537,-0.00678,1.266165,-0.6560670000000001,0.2002899999999999
