sb224sc-HT22-VT27/4dt907/src/ml-research/a11/datafiles/kinect_good_preprocessed_not_cut_A11_mediapipe/A41_kinect.csv
FrameNo,nose_3d_x,nose_3d_y,nose_3d_z,left_shoulder_3d_x,left_shoulder_3d_y,left_shoulder_3d_z,left_elbow_3d_x,left_elbow_3d_y,left_elbow_3d_z,right_shoulder_3d_x,right_shoulder_3d_y,right_shoulder_3d_z,right_elbow_3d_x,right_elbow_3d_y,right_elbow_3d_z,left_wrist_3d_x,left_wrist_3d_y,left_wrist_3d_z,right_wrist_3d_x,right_wrist_3d_y,right_wrist_3d_z,left_hip_3d_x,left_hip_3d_y,left_hip_3d_z,right_hip_3d_x,right_hip_3d_y,right_hip_3d_z,left_knee_3d_x,left_knee_3d_y,left_knee_3d_z,right_knee_3d_x,right_knee_3d_y,right_knee_3d_z,left_ankle_3d_x,left_ankle_3d_y,left_ankle_3d_z,right_ankle_3d_x,right_ankle_3d_y,right_ankle_3d_z
0,0.010933499999999997,0.7630275,0.07023750000000001,-0.1531245,0.4637675,0.053845500000000004,-0.17468450000000002,0.2076475,0.054443500000000006,0.15069549999999998,0.4545575,0.0571435,0.1889555,0.20687750000000002,0.0680615,-0.19601449999999998,-0.024079500000000004,-0.040578499999999997,0.2026555,-0.00038250000000000046,-0.018375499999999996,-0.0736965,0.0020164999999999996,0.0005194999999999991,0.0736965,-0.0020165,-0.0005194999999999991,-0.1286545,-0.3835225,-0.010200499999999994,0.1178655,-0.4161325,0.010200500000000001,-0.13217450000000003,-0.7421125,-0.021718499999999995,0.12897550000000002,-0.7439325,-0.021456499999999996
1,0.011384000000000003,0.7631549999999999,0.0705125,-0.153523,0.463825,0.0535665,-0.174443,0.207705,0.0545925,0.15149700000000002,0.454645,0.0590435,0.188787,0.206205,0.0681515,-0.19461299999999998,-0.018174000000000003,-0.036687500000000005,0.20258700000000002,-0.0004450000000000001,-0.018287499999999998,-0.073663,0.001967,0.00046550000000000064,0.073663,-0.001967,-0.00046550000000000064,-0.128793,-0.384405,-0.0101585,0.117697,-0.416305,0.010229500000000002,-0.132023,-0.745295,-0.0230705,0.128507,-0.7443350000000001,-0.021850500000000002
2,0.011798500000000002,0.7634305,0.070859,-0.15270050000000002,0.46397049999999995,0.05192,-0.1749505,0.2076805,0.054907,0.15196949999999998,0.45426049999999996,0.061361,0.1886195,0.20568050000000002,0.06858600000000001,-0.1966005,-0.022926500000000002,-0.03791599999999999,0.20170949999999999,-0.0004764999999999999,-0.017999,-0.0734665,0.0021225000000000003,-0.0007249999999999965,0.0734665,-0.0021225,0.0007250000000000034,-0.1291605,-0.3823095,-0.010772999999999998,0.1171695,-0.41533950000000003,0.010425,-0.13296049999999998,-0.7446695,-0.023646,0.1280695,-0.7435795000000001,-0.022792
3,0.012081500000000002,0.7635455000000001,0.07055700000000001,-0.1532755,0.4639755,0.051737000000000005,-0.1748855,0.20792549999999999,0.055045,0.1529545,0.4539855,0.062859,0.1884645,0.2056855,0.06843199999999999,-0.19688550000000002,-0.0240915,-0.038722999999999994,0.2015045,-0.0004794999999999999,-0.018258999999999997,-0.07346549999999999,0.0021725,-0.0010010000000000019,0.07346549999999999,-0.0021725,0.0010010000000000019,-0.1293455,-0.3831945,-0.011111999999999997,0.11703450000000001,-0.4152345,0.010280000000000001,-0.13374550000000002,-0.7469944999999999,-0.027229999999999997,0.1282045,-0.7428245,-0.022275999999999997
4,0.012321500000000006,0.7635135,0.07049949999999999,-0.1532865,0.4634435,0.051284500000000004,-0.17491649999999997,0.20765350000000002,0.0550975,0.15467350000000002,0.4545035,0.0619565,0.1884035,0.20532350000000002,0.0685225,-0.19721650000000002,-0.024590499999999998,-0.038793499999999995,0.20109349999999998,-0.0008324999999999999,-0.018319499999999996,-0.0732965,0.0023005,-0.0007124999999999979,0.0732965,-0.0023005,0.0007125000000000048,-0.12950649999999997,-0.3827065,-0.011270499999999996,0.1167735,-0.4160065,0.010465500000000003,-0.1341365,-0.7473365,-0.027270499999999996,0.1280235,-0.7431165,-0.0227375
5,0.012605500000000006,0.7635550000000001,0.070267,-0.15345150000000002,0.463545,0.051123,-0.17467149999999998,0.208085,0.055072,0.1551285,0.454055,0.062733,0.1884985,0.205375,0.06853300000000001,-0.1970615,-0.025008000000000002,-0.038818000000000005,0.2010185,-0.0007019999999999999,-0.018358,-0.0733115,0.0023190000000000003,-0.0008499999999999966,0.0733115,-0.002319,0.0008500000000000035,-0.1294515,-0.383735,-0.011753,0.1168385,-0.416125,0.010365000000000003,-0.1342215,-0.747925,-0.028439,0.12807849999999998,-0.744815,-0.023266000000000002
6,0.013071,0.7631575,0.069581,-0.154278,0.46334749999999997,0.050760000000000007,-0.174408,0.20814749999999999,0.054659000000000006,0.156712,0.4538175,0.063213,0.18851199999999999,0.2049075,0.068077,-0.19106800000000002,0.0057895,-0.017177999999999992,0.200812,-0.0008544999999999998,-0.018833999999999997,-0.073211,0.0024675000000000005,-0.0006079999999999974,0.073211,-0.0024675,0.0006080000000000044,-0.129548,-0.3848025,-0.012387999999999996,0.116842,-0.4155325,0.010112000000000006,-0.134918,-0.7464025,-0.031145999999999993,0.127612,-0.7452825,-0.023397999999999995
7,0.0137455,0.7627970000000001,0.0704565,-0.1541235,0.463547,0.051915499999999996,-0.17448349999999999,0.20796699999999999,0.0548725,0.1565365,0.453637,0.0640165,0.1885965,0.204797,0.0685705,-0.19332349999999998,-0.006751,-0.028931500000000006,0.2004965,0.0007970000000000008,-0.018606500000000005,-0.0732775,0.0023890000000000005,-0.0006864999999999996,0.0732775,-0.0023889999999999996,0.0006864999999999996,-0.1301435,-0.384703,-0.0127945,0.11606649999999999,-0.416403,0.009386499999999996,-0.1354935,-0.744583,-0.027186500000000002,0.1261065,-0.744123,-0.0240415
8,0.014061000000000004,0.762726,0.07051850000000001,-0.154219,0.46352600000000005,0.05178350000000001,-0.174419,0.208046,0.05491650000000001,0.15705100000000002,0.453496,0.06455550000000002,0.18863100000000002,0.204606,0.06871650000000001,-0.19274899999999998,-0.0035639999999999995,-0.027063499999999997,0.200361,0.0012989999999999998,-0.018577499999999997,-0.07324900000000001,0.002462,-0.0007934999999999956,0.07324900000000001,-0.0024620000000000006,0.0007935000000000025,-0.130219,-0.384964,-0.012956499999999996,0.11596100000000001,-0.416494,0.009299500000000006,-0.135839,-0.744584,-0.027805499999999997,0.125871,-0.7440140000000001,-0.024359499999999992
9,0.014352,0.7626425,0.07056300000000001,-0.15427600000000002,0.46348249999999996,0.051621,-0.174346,0.2081025,0.054964000000000006,0.157374,0.45333249999999997,0.065021,0.188714,0.20442249999999998,0.06886600000000001,-0.192176,-0.0012605000000000003,-0.025488999999999998,0.20024399999999998,0.0017945,-0.018376999999999998,-0.073247,0.0025305,-0.000899999999999998,0.073247,-0.0025304999999999998,0.000900000000000005,-0.13025599999999998,-0.3851875,-0.013105999999999993,0.115904,-0.4165575,0.009195000000000005,-0.13629599999999997,-0.7445275,-0.028376999999999993,0.125714,-0.7437775,-0.024588999999999993
10,0.014613500000000001,0.7625055000000001,0.0705065,-0.1543945,0.4634255,0.05162449999999999,-0.1742745,0.20815550000000002,0.05494449999999999,0.1576355,0.4531555,0.06544449999999999,0.1887955,0.20423550000000001,0.0689475,-0.1915345,0.0020374999999999994,-0.023438500000000008,0.2001055,0.0021725,-0.01820050000000001,-0.0732525,0.0025954999999999997,-0.000952500000000002,0.0732525,-0.0025954999999999997,0.000952499999999995,-0.1303145,-0.3856045,-0.013320500000000006,0.1158155,-0.4167245,0.009010499999999994,-0.1367145,-0.7442645,-0.028888500000000004,0.1255155,-0.7434145,-0.024903500000000002
11,0.014824499999999997,0.7623489999999999,0.0704925,-0.1545105,0.463369,0.0516775,-0.1742205,0.208179,0.0549565,0.1578795,0.453019,0.06585150000000001,0.1888795,0.20405900000000002,0.0690485,-0.1916405,0.002521,-0.023622500000000005,0.20001950000000002,0.002439,-0.017981500000000004,-0.07326450000000001,0.002653,-0.0010464999999999988,0.07326450000000001,-0.002652999999999999,0.0010464999999999988,-0.1303305,-0.38600100000000004,-0.013498500000000004,0.1157495,-0.41692100000000004,0.008862499999999999,-0.1370005,-0.7437010000000001,-0.0288295,0.1252695,-0.7432110000000001,-0.0252405
12,0.014850499999999999,0.762319,0.0703615,-0.1546295,0.46335899999999997,0.05160050000000001,-0.1741795,0.208179,0.05490350000000001,0.1579905,0.45297899999999997,0.06621250000000001,0.1889505,0.20402900000000002,0.0690275,-0.1915095,0.00527,-0.022609499999999998,0.19994050000000002,0.0021469999999999996,-0.017783499999999994,-0.0732815,0.002653,-0.0011164999999999994,0.0732815,-0.002652999999999999,0.001116500000000003,-0.13037949999999998,-0.38600100000000004,-0.013655499999999994,0.11567050000000001,-0.417041,0.008744500000000002,-0.13720949999999998,-0.743581,-0.028720499999999996,0.1250705,-0.743301,-0.0254205
13,0.014898500000000002,0.762319,0.070142,-0.15465449999999997,0.46335899999999997,0.051465,-0.17425449999999998,0.208179,0.054676,0.1581455,0.45297899999999997,0.066273,0.18904549999999998,0.20402900000000002,0.068811,-0.1915845,0.005776,-0.022837000000000003,0.19991550000000002,0.002118,-0.018008000000000003,-0.0732965,0.002653,-0.0011480000000000032,0.0732965,-0.002652999999999999,0.0011479999999999997,-0.13051449999999998,-0.38600100000000004,-0.013865000000000002,0.1155255,-0.417041,0.008568,-0.13745449999999998,-0.743271,-0.028446,0.1248355,-0.743301,-0.025622
14,0.014961000000000002,0.762319,0.069824,-0.154594,0.46335899999999997,0.051292000000000004,-0.174294,0.208179,0.054351,0.158346,0.45297899999999997,0.066252,0.189166,0.20402900000000002,0.068496,-0.191724,0.005776,-0.024693,0.199826,0.0019639999999999996,-0.018335999999999998,-0.073309,0.002653,-0.0012549999999999992,0.073309,-0.002652999999999999,0.0012549999999999992,-0.130654,-0.38600100000000004,-0.014107000000000001,0.115376,-0.417041,0.008272999999999999,-0.13767400000000002,-0.742891,-0.028221000000000003,0.124566,-0.743301,-0.025962
15,0.015054000000000001,0.7622385,0.069383,-0.154481,0.4632885,0.051033999999999996,-0.174291,0.2081385,0.053929,0.158569,0.4528985,0.066157,0.189299,0.2039985,0.06808499999999999,-0.19215100000000002,0.0061495,-0.026621000000000002,0.199819,0.0022724999999999993,-0.018757,-0.073326,0.002676499999999999,-0.0012569999999999977,0.073326,-0.0026765,0.0012569999999999977,-0.130661,-0.3859715,-0.014356000000000004,0.11537900000000001,-0.4171215,0.007941999999999998,-0.137771,-0.7425014999999999,-0.028241,0.12456899999999999,-0.7430315,-0.026382
16,0.0152465,0.7621715,0.0689765,-0.1543435,0.4630615,0.0511285,-0.17428349999999998,0.2085515,0.0529105,0.1588465,0.4528815,0.0657755,0.1897365,0.2043615,0.0664805,-0.1927035,0.0059945,-0.0290425,0.1999565,0.0021825000000000004,-0.0196495,-0.07332749999999999,0.0027485,-0.0012324999999999975,0.07332749999999999,-0.002748499999999999,0.001232500000000001,-0.1306435,-0.3857185,-0.014555499999999999,0.11539650000000001,-0.4172285,0.007740500000000001,-0.1377735,-0.7425984999999999,-0.0281975,0.12452650000000001,-0.7430384999999999,-0.026673499999999996
17,0.0154305,0.7620745,0.068533,-0.1541545,0.4628945,0.051349,-0.17459449999999999,0.21005449999999998,0.0513,0.1590355,0.45288449999999997,0.065332,0.1903155,0.2051845,0.064109,-0.1940645,0.0062595,-0.035098000000000004,0.20018550000000002,0.0021725000000000004,-0.021977000000000003,-0.07332949999999999,0.0028345,-0.0012020000000000017,0.07332949999999999,-0.0028345,0.0012019999999999982,-0.1306645,-0.3853055,-0.014735999999999999,0.1153855,-0.4172655,0.007575999999999999,-0.1377545,-0.7432455,-0.028463000000000002,0.12436550000000002,-0.7433255,-0.026855999999999998
18,0.015616499999999995,0.7619729999999999,0.067986,-0.15389850000000002,0.462733,0.051386,-0.17543850000000002,0.21249300000000002,0.048747,0.15918149999999998,0.452893,0.064782,0.1911115,0.207173,0.060675,-0.1960385,0.007477000000000001,-0.042807,0.20062149999999998,0.0026940000000000006,-0.026898000000000002,-0.0733315,0.0029000000000000002,-0.001176,0.0733315,-0.0029,0.001176,-0.13077850000000002,-0.384787,-0.015042999999999997,0.1153615,-0.417287,0.007363999999999999,-0.13774850000000002,-0.7433470000000001,-0.028879,0.1241815,-0.7437870000000001,-0.027135000000000003
19,0.0158555,0.7618505,0.06741549999999999,-0.1533465,0.4625405,0.0512945,-0.1771965,0.2157105,0.0440015,0.1592835,0.4530205,0.06413250000000001,0.1923435,0.2100505,0.0562115,-0.1993665,0.009212499999999998,-0.053347500000000006,0.20210350000000002,0.0073475,-0.0339565,-0.07335549999999999,0.002957499999999999,-0.0011544999999999993,0.07335549999999999,-0.0029575,0.0011544999999999993,-0.1309165,-0.38430949999999997,-0.015428499999999998,0.1153035,-0.4171895,0.007152499999999999,-0.1377665,-0.7433295000000001,-0.0293075,0.12408350000000001,-0.7443795000000001,-0.0275575
20,0.016175000000000002,0.7616935,0.066863,-0.15228799999999998,0.4624035,0.051015000000000005,-0.180778,0.2219335,0.035614,0.15951200000000001,0.4533335,0.06294,0.19559200000000002,0.2153235,0.048734,-0.204428,0.0196085,-0.06888899999999999,0.205772,0.0152915,-0.047512,-0.07347300000000001,0.0030134999999999997,-0.0010729999999999976,0.07347300000000001,-0.0030134999999999997,0.001073000000000001,-0.131098,-0.3832065,-0.01586,0.11522199999999999,-0.4168365,0.006941000000000003,-0.137688,-0.7427965,-0.029878999999999996,0.12390200000000001,-0.7449765,-0.028246999999999994
21,0.016529000000000005,0.761513,0.06653400000000001,-0.151193,0.46259300000000003,0.050679,-0.18565299999999998,0.230013,0.024153,0.159807,0.453723,0.061344,0.20086700000000002,0.222173,0.037969,-0.21221299999999998,0.036562,-0.091396,0.210427,0.029997,-0.068277,-0.07364899999999999,0.0030649999999999996,-0.0009480000000000009,0.07364899999999999,-0.003065,0.0009480000000000009,-0.131293,-0.38086699999999996,-0.016197999999999997,0.115147,-0.416037,0.006780999999999999,-0.137393,-0.7420570000000001,-0.030063,0.12373700000000001,-0.7456670000000001,-0.028977000000000003
22,0.016773999999999997,0.761266,0.06635450000000001,-0.149752,0.462816,0.0498965,-0.19173199999999999,0.239506,0.011339500000000002,0.160028,0.454206,0.0596625,0.20649800000000001,0.231166,0.023399500000000004,-0.220532,0.057994000000000004,-0.1171355,0.215798,0.046656,-0.0928155,-0.073857,0.0031099999999999995,-0.0008264999999999974,0.073857,-0.00311,0.0008265000000000008,-0.131472,-0.378334,-0.016599499999999996,0.11502799999999999,-0.415204,0.006534500000000002,-0.137072,-0.7413540000000001,-0.0303405,0.12354799999999999,-0.7463240000000001,-0.029663499999999995
23,0.017060500000000003,0.7612559999999999,0.066491,-0.1483575,0.462916,0.049225,-0.2008075,0.255486,-0.005822000000000001,0.15963249999999998,0.454986,0.058176,0.2128125,0.241776,0.008069,-0.2297075,0.086206,-0.147387,0.22288249999999998,0.074841,-0.122497,-0.0740805,0.0031099999999999995,-0.0006090000000000019,0.0740805,-0.00311,0.0006089999999999984,-0.1317075,-0.375324,-0.017009999999999997,0.1149125,-0.414604,0.006227,-0.1368575,-0.7413540000000001,-0.030974,0.1233225,-0.7465040000000001,-0.030565000000000002
24,0.017318999999999994,0.761246,0.066835,-0.147113,0.463156,0.048406,-0.210723,0.272986,-0.023206000000000004,0.15917699999999999,0.456046,0.05659,0.221337,0.255046,-0.008016000000000002,-0.239353,0.120016,-0.178438,0.230297,0.107626,-0.152958,-0.074283,0.0031099999999999995,-0.0004469999999999995,0.074283,-0.00311,0.0004469999999999995,-0.131923,-0.372664,-0.017372,0.114757,-0.413894,0.0059629999999999996,-0.136493,-0.740294,-0.031617,0.123147,-0.746784,-0.031659
25,0.017501000000000003,0.761219,0.067564,-0.145618,0.463599,0.047473,-0.221318,0.293389,-0.042338,0.158592,0.45670900000000003,0.054831,0.229972,0.272439,-0.027427,-0.251328,0.162559,-0.211762,0.238322,0.14621900000000002,-0.188432,-0.074506,0.003083,-0.00021099999999999938,0.074506,-0.0030830000000000002,0.00021099999999999938,-0.131998,-0.370641,-0.017998,0.114702,-0.413701,0.0054040000000000026,-0.136098,-0.739781,-0.032269,0.12323200000000001,-0.7472110000000001,-0.032948
26,0.017588999999999997,0.760015,0.0687305,-0.14411200000000002,0.46393500000000004,0.0462495,-0.23242200000000002,0.315485,-0.06014150000000001,0.157918,0.457085,0.053011499999999996,0.239168,0.29269500000000004,-0.0468395,-0.26374200000000003,0.20785499999999998,-0.2418835,0.248498,0.18770499999999998,-0.2226735,-0.074737,0.0030629999999999998,0.00011649999999999855,0.074737,-0.003063,-0.00011650000000000202,-0.132022,-0.368915,-0.0188365,0.11457799999999999,-0.413865,0.004632499999999998,-0.13595200000000002,-0.740375,-0.0332365,0.123228,-0.7485350000000001,-0.034425500000000005
27,0.0176385,0.7585824999999999,0.0700925,-0.1426145,0.4641725,0.0450965,-0.2431145,0.3381225,-0.0766765,0.15727549999999998,0.4575725,0.0513565,0.2481755,0.3129125,-0.0646225,-0.2759545,0.25739249999999997,-0.2705845,0.2599255,0.2332925,-0.2546445,-0.07496349999999999,0.0030585000000000005,0.0004054999999999996,0.07496349999999999,-0.0030585,-0.0004055000000000031,-0.13202450000000002,-0.3675475,-0.0196295,0.11442550000000001,-0.41417750000000003,0.003830499999999999,-0.13574450000000002,-0.7403675000000001,-0.033412500000000005,0.12324549999999998,-0.7500775000000001,-0.0359395
28,0.017669,0.7570975000000001,0.0715105,-0.141184,0.4648375,0.0436385,-0.252504,0.3622975,-0.09197849999999999,0.15665600000000002,0.4584275,0.0497665,0.257276,0.3355875,-0.0802735,-0.28700400000000004,0.3104475,-0.2935585,0.270636,0.2813675,-0.28458849999999997,-0.07511799999999999,0.0030575,0.0007034999999999993,0.07511799999999999,-0.0030575,-0.0007035000000000027,-0.131964,-0.3659025,-0.020443500000000003,0.114336,-0.4139625,0.0029404999999999987,-0.135424,-0.7404425,-0.0334775,0.123286,-0.7514525,-0.0374525
29,0.017601,0.755576,0.0730855,-0.140194,0.465556,0.0426015,-0.260084,0.388876,-0.1033125,0.156106,0.459916,0.0483555,0.264376,0.363046,-0.0920625,-0.296014,0.364256,-0.3115125,0.279476,0.335306,-0.3068225,-0.07517099999999999,0.003066,0.0010025,0.07517099999999999,-0.003066,-0.0010025,-0.13187400000000002,-0.364864,-0.0213005,0.114266,-0.413804,0.0019815000000000006,-0.13503400000000002,-0.739894,-0.0332545,0.123366,-0.752574,-0.0387955
30,0.0175125,0.7539585,0.074548,-0.1394975,0.4661685,0.041843,-0.26581750000000004,0.4155985,-0.109729,0.15603250000000002,0.4615185,0.047135,0.2694225,0.3915985,-0.099699,-0.3016375,0.4156685,-0.320129,0.28747249999999996,0.3882685,-0.318319,-0.0751645,0.0030425,0.0012650000000000005,0.0751645,-0.0030425,-0.0012650000000000005,-0.13176749999999998,-0.3650615,-0.022275999999999997,0.1141825,-0.4138315,0.0009779999999999997,-0.13476749999999998,-0.7392815,-0.032872,0.1234725,-0.7536315,-0.040001999999999996
31,0.0173665,0.7520399999999999,0.0760445,-0.1392765,0.46717,0.041356500000000004,-0.26934650000000004,0.44649,-0.1131395,0.1561335,0.46323,0.0465335,0.2741435,0.42245,-0.1017595,-0.3056865,0.47084,-0.32313949999999997,0.2945735,0.44897,-0.3213795,-0.0751745,0.0029839999999999997,0.0014375000000000013,0.0751745,-0.0029839999999999997,-0.0014374999999999995,-0.13165649999999998,-0.36562,-0.0232285,0.1140535,-0.41416000000000003,8.850000000000004e-05,-0.13454649999999999,-0.7389,-0.0324525,0.12356350000000002,-0.75477,-0.0410255
32,0.017196,0.749952,0.077341,-0.13913199999999998,0.46844199999999997,0.041163000000000005,-0.269342,0.473052,-0.113896,0.156188,0.464782,0.046502,0.278068,0.45389199999999996,-0.102256,-0.308022,0.5220319999999999,-0.324046,0.30013799999999996,0.500952,-0.32177599999999995,-0.075227,0.002915,0.001576000000000001,0.075227,-0.002915,-0.0015759999999999993,-0.13158199999999998,-0.366408,-0.023978000000000003,0.113888,-0.41478800000000005,-0.0005999999999999998,-0.13452199999999997,-0.739688,-0.03261699999999999,0.123678,-0.756088,-0.041907
33,0.017032,0.7475229999999999,0.07842350000000001,-0.13909,0.469803,0.0416005,-0.26924000000000003,0.500763,-0.1143855,0.15621000000000002,0.466443,0.0472485,0.27971999999999997,0.48690300000000003,-0.1026455,-0.30806,0.573553,-0.3245455,0.30527,0.5549529999999999,-0.3219455,-0.075269,0.002859,0.0016655000000000003,0.075269,-0.0028589999999999996,-0.0016655000000000003,-0.13147,-0.36799699999999996,-0.024466500000000002,0.11377000000000001,-0.416527,-0.0011035000000000003,-0.13441999999999998,-0.741117,-0.0319165,0.12375,-0.7580870000000001,-0.0425515
34,0.016930999999999998,0.7455625,0.0785795,-0.139164,0.4714525,0.0423625,-0.269114,0.5283825000000001,-0.11440349999999999,0.156186,0.4679625,0.0482185,0.280736,0.5174425,-0.1026035,-0.307934,0.6227225000000001,-0.3245635,0.309466,0.6101325000000001,-0.3216935,-0.07525499999999999,0.0028135,0.0016404999999999996,0.07525499999999999,-0.0028135,-0.0016405000000000013,-0.13131400000000001,-0.3696575,-0.0244825,0.113866,-0.41845750000000004,-0.001121500000000001,-0.134144,-0.7428675,-0.0315385,0.123856,-0.7600475,-0.042327500000000004
35,0.016869,0.743413,0.078575,-0.13941,0.473153,0.043065,-0.2691,0.554033,-0.111972,0.15658,0.469443,0.049117,0.28101,0.546263,-0.102562,-0.30809,0.670263,-0.31950199999999995,0.3112,0.663693,-0.317122,-0.075199,0.002796,0.0016439999999999996,0.075199,-0.0027959999999999994,-0.0016439999999999996,-0.13109,-0.371727,-0.024584,0.11404,-0.42050699999999996,-0.0011099999999999999,-0.13385,-0.744977,-0.031502999999999996,0.12404000000000001,-0.762187,-0.042363
36,0.0168635,0.7409715,0.0785755,-0.1398395,0.4755015,0.0437775,-0.26768949999999997,0.5811515,-0.1076845,0.1571005,0.4705015,0.0500135,0.2810905,0.5762615,-0.0995745,-0.3084595,0.7197715,-0.3096145,0.3111505,0.7141915,-0.3072745,-0.07507349999999999,0.0028055,0.0016525000000000012,0.07507349999999999,-0.0028055,-0.0016524999999999995,-0.13073949999999998,-0.37416849999999996,-0.024783499999999997,0.11431050000000001,-0.4228685,-0.0011064999999999998,-0.13356949999999998,-0.7469985,-0.030631500000000002,0.12431050000000002,-0.7646284999999999,-0.042345499999999994
37,0.016754,0.737539,0.07860349999999999,-0.14011500000000002,0.478319,0.0445025,-0.265105,0.6074689999999999,-0.1005375,0.157945,0.471789,0.0508855,0.280885,0.604309,-0.09111749999999999,-0.306035,0.766199,-0.2944775,0.310165,0.7603989999999999,-0.2867075,-0.074874,0.002857,0.001629499999999999,0.074874,-0.002857,-0.0016295000000000007,-0.130285,-0.37794099999999997,-0.0250325,0.114655,-0.426181,-0.001147500000000001,-0.133185,-0.7504810000000001,-0.0305715,0.12487499999999999,-0.7681610000000001,-0.0422735
38,0.0166955,0.7348705,0.0782475,-0.14022849999999998,0.48092050000000003,0.0452935,-0.2613785,0.6281505000000001,-0.0928825,0.15873150000000003,0.47221050000000003,0.0517265,0.28063150000000003,0.6254905000000001,-0.0812465,-0.3019885,0.8026305,-0.27721250000000003,0.3091815,0.8009705,-0.2653525,-0.0746655,0.0029625,0.0014834999999999987,0.0746655,-0.0029625000000000016,-0.0014835000000000004,-0.12971850000000001,-0.3816595,-0.0249985,0.1151015,-0.42902949999999995,-0.0009295000000000015,-0.13278849999999998,-0.7537995,-0.029532500000000003,0.12553150000000002,-0.7714695,-0.0417965
39,0.01671,0.7324160000000001,0.0776525,-0.139954,0.483786,0.0460125,-0.25752400000000003,0.647196,-0.0845755,0.159466,0.47248599999999996,0.052518499999999996,0.28032599999999996,0.644486,-0.0711335,-0.297144,0.8349960000000001,-0.2562625,0.307996,0.836056,-0.2433825,-0.074459,0.0030489999999999996,0.0013915000000000004,0.074459,-0.0030489999999999996,-0.0013915000000000004,-0.129124,-0.385394,-0.024874499999999997,0.115586,-0.43187400000000004,-0.0006495000000000008,-0.132404,-0.757554,-0.0290055,0.12615600000000002,-0.774774,-0.0410735
40,0.016723500000000002,0.730324,0.0769115,-0.1399355,0.486534,0.0465795,-0.2539655,0.661694,-0.07579449999999999,0.1601245,0.472824,0.053178500000000004,0.2792945,0.6598040000000001,-0.061476499999999996,-0.2917555,0.859784,-0.2354555,0.3068745,0.862164,-0.2203955,-0.0742585,0.0031240000000000018,0.0013085000000000006,0.0742585,-0.0031239999999999983,-0.001308499999999999,-0.1285655,-0.388686,-0.024662499999999997,0.1160245,-0.43452599999999997,-0.0002654999999999984,-0.1321055,-0.760876,-0.028056499999999998,0.1267045,-0.777806,-0.0403435
41,0.016752,0.72853,0.07584350000000001,-0.140128,0.48909,0.0472005,-0.250328,0.67547,-0.06699849999999999,0.16067199999999998,0.47334,0.0538635,0.278052,0.67394,-0.051993500000000005,-0.28649800000000003,0.88334,-0.2149755,0.304852,0.8874099999999999,-0.1967555,-0.07406399999999999,0.0032039999999999985,0.0012235000000000006,0.07406399999999999,-0.003204000000000002,-0.0012235000000000006,-0.128028,-0.39195,-0.024363500000000003,0.11646200000000001,-0.43689,0.00022149999999999948,-0.131698,-0.7641100000000001,-0.0266905,0.127222,-0.78078,-0.0395075
42,0.016753999999999998,0.727407,0.074533,-0.140074,0.491397,0.047922,-0.24726399999999998,0.690157,-0.059330999999999995,0.160906,0.473877,0.054483000000000004,0.276656,0.683867,-0.042749,-0.281914,0.900877,-0.195716,0.302306,0.906537,-0.175786,-0.07394200000000001,0.0032900000000000013,0.0011599999999999996,0.07394200000000001,-0.0032899999999999943,-0.0011600000000000013,-0.127524,-0.394443,-0.023978,0.11685599999999999,-0.438513,0.0007489999999999997,-0.131304,-0.766593,-0.025418999999999997,0.12765600000000002,-0.783313,-0.03858
43,0.016807000000000002,0.7266835,0.07294199999999999,-0.139857,0.49364349999999996,0.048611,-0.245197,0.6998335,-0.053277000000000005,0.161123,0.47447350000000005,0.055047,0.275443,0.6922235000000001,-0.034619,-0.27826700000000004,0.9128935,-0.177362,0.299573,0.9191235,-0.157912,-0.073862,0.0033874999999999947,0.0011519999999999985,0.073862,-0.0033875000000000016,-0.0011520000000000002,-0.127007,-0.3964765,-0.023461,0.117243,-0.4397265,0.0012639999999999995,-0.131057,-0.7693265,-0.024356,0.128013,-0.7855565,-0.037683999999999995
44,0.016859000000000006,0.726102,0.0712415,-0.139668,0.495792,0.0492495,-0.24348799999999998,0.7100420000000001,-0.047338500000000006,0.161322,0.474982,0.0555345,0.274092,0.699782,-0.0266055,-0.27497799999999994,0.9239620000000001,-0.1597545,0.29662200000000005,0.931552,-0.13990450000000001,-0.073796,0.003508000000000004,0.0011815000000000003,0.073796,-0.0035079999999999972,-0.0011814999999999985,-0.126558,-0.39836799999999994,-0.0229565,0.117482,-0.440948,0.0017025000000000009,-0.130898,-0.771528,-0.0236835,0.128192,-0.787638,-0.0368865
45,0.016834000000000002,0.7257245,0.0694325,-0.13955299999999998,0.4973445,0.0496085,-0.242283,0.7177545000000001,-0.0426875,0.161197,0.47572449999999994,0.0555745,0.272457,0.7049945000000001,-0.020022500000000002,-0.272333,0.9280745,-0.14448550000000002,0.29396700000000003,0.9421445,-0.1259855,-0.07377600000000001,0.0036095000000000016,0.0012424999999999988,0.07377600000000001,-0.0036095000000000016,-0.0012425000000000005,-0.12617299999999998,-0.39996550000000003,-0.0225805,0.11762700000000001,-0.4419255,0.0020174999999999985,-0.130823,-0.7734154999999999,-0.0232265,0.128277,-0.7894755,-0.0361755
46,0.016902999999999994,0.725494,0.06795,-0.139044,0.49872399999999995,0.049773,-0.24016400000000002,0.724814,-0.035024,0.160936,0.476464,0.055413000000000004,0.270526,0.709984,-0.012939000000000003,-0.26940400000000003,0.932094,-0.128127,0.291806,0.952134,-0.113157,-0.07377800000000001,0.003689999999999999,0.001363999999999999,0.07377800000000001,-0.003689999999999999,-0.0013640000000000006,-0.125944,-0.400746,-0.022435,0.11774599999999999,-0.442346,0.0021119999999999993,-0.130784,-0.774326,-0.023304000000000002,0.128376,-0.790826,-0.035841
47,0.016961,0.72524,0.0662715,-0.138324,0.50039,0.050169500000000006,-0.238344,0.73111,-0.0271115,0.160436,0.47684,0.055220500000000006,0.26854599999999995,0.71435,-0.005229499999999998,-0.26621399999999995,0.9369700000000001,-0.1096885,0.289366,0.95761,-0.0959785,-0.073778,0.0037699999999999956,0.0016115,0.073778,-0.0037700000000000025,-0.0016114999999999984,-0.125694,-0.40172,-0.022085499999999997,0.117906,-0.44284,0.002309500000000001,-0.130634,-0.7761199999999999,-0.0230455,0.128506,-0.79262,-0.035420499999999994
48,0.016991,0.7249355,0.064782,-0.137234,0.5019155,0.050765000000000005,-0.236564,0.7373154999999999,-0.019801000000000003,0.159906,0.47714550000000006,0.055069999999999994,0.266626,0.7183955,0.002071999999999999,-0.263434,0.9424555,-0.093194,0.286886,0.9625755,-0.077818,-0.073774,0.0038715,0.0019049999999999987,0.073774,-0.0038715,-0.0019050000000000004,-0.12545399999999998,-0.4026745,-0.021677,0.11807599999999999,-0.4432745,0.0025789999999999997,-0.130474,-0.7778345000000001,-0.022854000000000003,0.128666,-0.7943345,-0.035004999999999994
49,0.0168765,0.724555,0.06335650000000001,-0.1358875,0.503235,0.0519075,-0.2348675,0.743285,-0.011675499999999998,0.1591825,0.47745499999999996,0.0550855,0.2642625,0.722125,0.0104695,-0.2610975,0.948945,-0.0753325,0.28454250000000003,0.9667450000000001,-0.0590915,-0.07378950000000001,0.003958999999999997,0.0023044999999999993,0.07378950000000001,-0.003959000000000004,-0.002304500000000001,-0.1252975,-0.403845,-0.0211695,0.11798249999999999,-0.443765,0.0028605,-0.1303575,-0.779665,-0.022463499999999997,0.12844250000000001,-0.796235,-0.0345415
50,0.016699999999999996,0.7240964999999999,0.062048,-0.134654,0.5044164999999999,0.053072,-0.23332400000000003,0.7485465,-0.0036799999999999992,0.15849599999999997,0.4777265,0.055106,0.261896,0.7255465,0.018361000000000002,-0.259034,0.9548465,-0.058176,0.282416,0.9696465,-0.041156,-0.073812,0.004037499999999999,0.0027240000000000007,0.073812,-0.004037499999999999,-0.0027239999999999973,-0.12518400000000002,-0.4048535,-0.020773,0.11781599999999999,-0.4443335,0.0030840000000000017,-0.13034400000000002,-0.7813635000000001,-0.022132,0.12814599999999998,-0.7980435,-0.034048
51,0.016398499999999996,0.7236395,0.060980000000000006,-0.1337895,0.5055395,0.0543,-0.23198950000000002,0.7513995,0.004456,0.1577305,0.47783950000000003,0.055174,0.2595505,0.7290795000000001,0.026034,-0.2574495,0.9605595,-0.041514999999999996,0.2804705,0.9723595,-0.023790000000000002,-0.0738345,0.004087500000000001,0.0030690000000000005,0.0738345,-0.004087500000000001,-0.003068999999999999,-0.1251695,-0.4059405,-0.020405999999999997,0.1176405,-0.4448805,0.0033819999999999996,-0.1301795,-0.7825804999999999,-0.021532,0.12783049999999999,-0.7995805,-0.033491999999999994
52,0.016099999999999996,0.7232865,0.0600535,-0.133024,0.5064665,0.0555105,-0.230854,0.7534965,0.012889500000000002,0.156996,0.4779065,0.055225500000000004,0.257226,0.7316265000000001,0.0331625,-0.256204,0.9657064999999999,-0.025272499999999996,0.278716,0.9751065,-0.0078025,-0.073857,0.004118500000000004,0.0034225,0.073857,-0.004118499999999997,-0.0034224999999999985,-0.125174,-0.40689349999999996,-0.020054499999999996,0.11746599999999999,-0.4453435,0.0036535000000000005,-0.13001400000000002,-0.7835535,-0.020942499999999996,0.12755599999999997,-0.8009235,-0.0329765
53,0.015807500000000002,0.722959,0.0592485,-0.1323335,0.5073690000000001,0.0568665,-0.2298435,0.7553190000000001,0.0212975,0.1562865,0.478249,0.0553175,0.2548365,0.7331190000000001,0.0398705,-0.2552835,0.970289,-0.009624500000000001,0.2767865,0.976389,0.0068325,-0.0738785,0.004111999999999998,0.0037774999999999996,0.0738785,-0.004111999999999998,-0.0037774999999999996,-0.1251735,-0.407731,-0.0197385,0.1172965,-0.445681,0.0039495,-0.1300635,-0.7844909999999999,-0.021033500000000004,0.1272965,-0.8021309999999999,-0.0324465
54,0.0154455,0.7223719999999999,0.058578500000000006,-0.1317805,0.507822,0.0583925,-0.22863050000000001,0.7566919999999999,0.0298075,0.1555795,0.478652,0.0555055,0.25260950000000004,0.7345419999999999,0.0458745,-0.2549205,0.9761219999999999,0.006415500000000001,0.2744795,0.977222,0.0211525,-0.0738895,0.004076000000000003,0.004229500000000001,0.0738895,-0.004076000000000003,-0.004229500000000001,-0.1251205,-0.408538,-0.0193255,0.1171195,-0.445858,0.004299500000000001,-0.1301705,-0.786058,-0.0210115,0.1270895,-0.803558,-0.032007499999999994
55,0.015151999999999994,0.7218359999999999,0.0581805,-0.131487,0.507946,0.059889500000000005,-0.228877,0.757776,0.034542500000000004,0.155053,0.47891599999999995,0.0558045,0.251423,0.7352460000000001,0.050182500000000005,-0.25537699999999997,0.9816660000000001,0.018780500000000002,0.27294300000000005,0.976866,0.0315345,-0.073934,0.004047999999999996,0.004685500000000002,0.073934,-0.004048000000000003,-0.004685499999999999,-0.125077,-0.409434,-0.0189555,0.11698299999999999,-0.446164,0.004653500000000003,-0.130277,-0.7874639999999999,-0.0207865,0.126973,-0.8048740000000001,-0.031591499999999995
56,0.014834999999999997,0.72133,0.0583235,-0.13150099999999998,0.5077400000000001,0.0611525,-0.229211,0.7594200000000001,0.0386275,0.15475899999999998,0.4793,0.0561665,0.250639,0.73585,0.0533955,-0.256031,0.98637,0.0278585,0.272149,0.9769700000000001,0.0378815,-0.073938,0.004021999999999998,0.004967500000000001,0.073938,-0.004021999999999998,-0.0049675,-0.125071,-0.41002,-0.0187395,0.116899,-0.44651,0.004952500000000002,-0.130461,-0.78886,-0.0208785,0.126879,-0.80562,-0.031246499999999996
57,0.014538999999999996,0.720979,0.0585255,-0.131585,0.507499,0.062245499999999995,-0.229545,0.7608790000000001,0.042526499999999995,0.154555,0.47973899999999997,0.0564825,0.249965,0.7363090000000001,0.0563025,-0.256635,0.9903290000000001,0.0358435,0.271715,0.977229,0.042900499999999994,-0.073928,0.0039959999999999996,0.005192499999999999,0.073928,-0.0039959999999999996,-0.005192500000000003,-0.125055,-0.410461,-0.018582500000000002,0.11679500000000001,-0.446801,0.005182499999999998,-0.130695,-0.789661,-0.0208965,0.126625,-0.806361,-0.030774500000000003
58,0.014324000000000003,0.7208235,0.058755999999999996,-0.13169299999999998,0.5072935,0.06301799999999999,-0.229903,0.7617035,0.045177999999999996,0.154427,0.4800235,0.056718,0.249777,0.7365735,0.05759,-0.25706300000000004,0.9928834999999999,0.040942,0.271397,0.9775835,0.046272999999999995,-0.07391400000000001,0.003963500000000002,0.0052899999999999996,0.07391400000000001,-0.003963500000000002,-0.0052899999999999996,-0.125003,-0.4106165,-0.018566,0.11668700000000001,-0.4469365,0.005311999999999999,-0.130903,-0.7900565,-0.020996,0.126407,-0.8067165000000001,-0.030403
59,0.014010999999999996,0.720719,0.058943,-0.13195,0.507009,0.063957,-0.23026000000000002,0.762339,0.047571,0.15419,0.48024900000000004,0.057076999999999996,0.2495,0.736699,0.058858,-0.25817999999999997,0.9949389999999999,0.044931,0.27101000000000003,0.9770390000000001,0.049107,-0.073884,0.003924999999999998,0.005374,0.073884,-0.003924999999999998,-0.005374,-0.12495,-0.411131,-0.018717000000000004,0.11657000000000001,-0.44705100000000003,0.0052840000000000005,-0.13113000000000002,-0.790761,-0.020987,0.12617,-0.807251,-0.030100000000000002
60,0.0137175,0.720719,0.059007500000000004,-0.1322075,0.507009,0.0647375,-0.2306175,0.762779,0.049640500000000004,0.1539125,0.480329,0.057316500000000006,0.24919249999999998,0.736779,0.059692499999999996,-0.2593475,0.9966389999999999,0.0486805,0.2705925,0.976239,0.0516045,-0.07385549999999999,0.003924999999999998,0.005442499999999999,0.07385549999999999,-0.003924999999999998,-0.005442499999999999,-0.12491750000000001,-0.411271,-0.0190475,0.1164125,-0.44705100000000003,0.0049745,-0.1315075,-0.791221,-0.021362500000000003,0.1258025,-0.807421,-0.0300965
61,0.013397000000000001,0.720719,0.0590845,-0.13252799999999998,0.507009,0.06541849999999999,-0.231038,0.762999,0.051293500000000006,0.153672,0.480329,0.0575055,0.249002,0.736959,0.0604485,-0.260578,0.998139,0.0512435,0.270422,0.976339,0.0537455,-0.07382,0.003924999999999998,0.005444500000000001,0.07382,-0.003924999999999998,-0.005444499999999998,-0.12484799999999999,-0.411411,-0.019484500000000002,0.116362,-0.44705100000000003,0.0045275,-0.131768,-0.791671,-0.0217795,0.125592,-0.807421,-0.030350500000000002
62,0.013083000000000003,0.720699,0.059264,-0.132802,0.507009,0.066067,-0.231432,0.762999,0.052482,0.153428,0.480329,0.0577,0.248948,0.737099,0.061096,-0.261812,0.9992390000000001,0.052851999999999996,0.270548,0.976339,0.055198,-0.07377900000000001,0.003924999999999998,0.0054470000000000005,0.07377900000000001,-0.003924999999999998,-0.0054470000000000005,-0.124642,-0.411671,-0.019880000000000002,0.11635799999999999,-0.44705100000000003,0.003907000000000001,-0.131922,-0.792021,-0.022008,0.125428,-0.807571,-0.030569
63,0.012845999999999998,0.720738,0.059811,-0.133026,0.5068280000000001,0.066872,-0.231746,0.763038,0.053299,0.153254,0.480498,0.058158,0.249174,0.737328,0.06204,-0.262636,0.9992780000000001,0.052981,0.271004,0.976378,0.056324,-0.073713,0.0039040000000000047,0.005451000000000001,0.073713,-0.0039039999999999977,-0.005451000000000001,-0.12443599999999999,-0.412722,-0.020181,0.116354,-0.447412,0.003141999999999999,-0.132066,-0.793012,-0.022855000000000004,0.125324,-0.808032,-0.030796
64,0.012612499999999995,0.7208225,0.060435,-0.1332515,0.5066025000000001,0.067659,-0.2320415,0.7631125,0.053855,0.1530785,0.48072250000000005,0.058569,0.2496785,0.7374625,0.062912,-0.2633615,0.9993425000000001,0.052748,0.2716885,0.9764425,0.05714,-0.0736305,0.003881499999999996,0.005521,0.0736305,-0.003881500000000003,-0.005520999999999998,-0.1242015,-0.4139975,-0.020680999999999998,0.1164085,-0.4477875,0.002033,-0.1321715,-0.7939475,-0.023835000000000002,0.1252085,-0.8084875,-0.031304
65,0.012388499999999995,0.720985,0.061004,-0.1334505,0.5063850000000001,0.068323,-0.2323105,0.763175,0.05402800000000001,0.1529095,0.480755,0.05892,0.2503795,0.7376750000000001,0.063618,-0.26396050000000004,0.9994450000000001,0.052389000000000005,0.27292950000000005,0.976345,0.057356000000000004,-0.0735725,0.0038650000000000004,0.005546000000000001,0.0735725,-0.0038650000000000004,-0.005545999999999999,-0.1239505,-0.41537500000000005,-0.021289,0.1165295,-0.448155,0.0007069999999999993,-0.1322605,-0.794675,-0.0251,0.12509949999999997,-0.808715,-0.032087000000000004
66,0.012169000000000001,0.7211919999999999,0.061398499999999995,-0.13370700000000002,0.506412,0.0687225,-0.232547,0.763122,0.053669499999999995,0.152723,0.48074200000000006,0.059189500000000006,0.251243,0.7380319999999999,0.0639405,-0.264467,0.9994019999999999,0.051657499999999995,0.27464299999999997,0.976202,0.0568635,-0.073523,0.0038560000000000053,0.005511500000000001,0.073523,-0.0038559999999999983,-0.005511499999999999,-0.123717,-0.41687799999999997,-0.022299499999999996,0.116703,-0.44878799999999996,-0.0011154999999999984,-0.132547,-0.7951980000000001,-0.0269645,0.12498300000000001,-0.808998,-0.0333625
67,0.011986,0.7214095,0.0615535,-0.13387700000000002,0.5064895,0.0688715,-0.23274699999999998,0.7630395,0.0529655,0.15254299999999998,0.4806195,0.0593115,0.252093,0.7383995,0.0638755,-0.26475699999999996,0.9992995,0.050569499999999996,0.276173,0.9760994999999999,0.0559705,-0.073495,0.003866500000000002,0.005544499999999999,0.073495,-0.003866500000000002,-0.005544500000000001,-0.123497,-0.4183905,-0.0236945,0.116923,-0.4494305,-0.0032555000000000014,-0.13266699999999998,-0.7959405,-0.028991500000000003,0.124863,-0.8092605,-0.0349335
68,0.011862500000000002,0.7216135,0.0615185,-0.1339765,0.5065735,0.0685645,-0.2328565,0.7629435,0.0519895,0.1524335,0.4804935,0.0592115,0.2528035,0.7386834999999999,0.06333949999999999,-0.2647565,0.9990235000000001,0.0490715,0.2773735,0.9759234999999999,0.0548205,-0.07351250000000001,0.003854499999999997,0.005570499999999999,0.07351250000000001,-0.0038545000000000038,-0.0055705000000000025,-0.12330649999999999,-0.4199765,-0.025343499999999998,0.1171935,-0.4499965,-0.0056025,-0.13273649999999998,-0.7966265,-0.0315325,0.12478349999999999,-0.8094865,-0.0367155
69,0.011778,0.7218005,0.0611845,-0.13403700000000002,0.5066505,0.0680135,-0.23290699999999998,0.7628705,0.05062850000000001,0.152323,0.48039050000000005,0.059050500000000006,0.253543,0.7389905,0.0624595,-0.26470699999999997,0.9987805,0.0469875,0.27848300000000004,0.9757805,0.0533145,-0.073546,0.0038284999999999986,0.0056065,0.073546,-0.0038284999999999986,-0.0056065,-0.123217,-0.4214195,-0.0275085,0.117513,-0.4504095,-0.0082215,-0.132627,-0.7971195,-0.0344135,0.124743,-0.8096595,-0.0389645
70,0.011669999999999998,0.7217735000000001,0.060408,-0.13415300000000002,0.5065035,0.067135,-0.233013,0.7622534999999999,0.04882499999999999,0.152197,0.48035350000000004,0.058565000000000006,0.254217,0.7388135,0.060882000000000006,-0.264773,0.9988135,0.044494,0.279447,0.9758135000000001,0.051140000000000005,-0.073552,0.003769500000000002,0.005646999999999999,0.073552,-0.003769499999999995,-0.005646999999999999,-0.123023,-0.4222765,-0.030069000000000002,0.117807,-0.4503765,-0.011190000000000002,-0.132573,-0.7970865,-0.037177,0.12478700000000001,-0.8096265,-0.041585
71,0.011589499999999997,0.7216245,0.0594155,-0.1342625,0.5062245,0.0661615,-0.2331225,0.7618545,0.0468125,0.15205749999999998,0.48016450000000005,0.0579875,0.2547175,0.7387045,0.0591035,-0.2648325,0.9987644999999999,0.041772500000000004,0.2804175,0.9760645,0.048356500000000004,-0.0735585,0.003662499999999999,0.0057355,0.0735585,-0.003662499999999999,-0.005735500000000001,-0.1227925,-0.4220255,-0.0330205,0.11817749999999999,-0.4501255,-0.0142785,-0.1324725,-0.7970555,-0.0406265,0.1248575,-0.8093755,-0.0444055
72,0.0115585,0.721928,0.057713,-0.1343425,0.5065580000000001,0.0648,-0.23324250000000002,0.762348,0.044247,0.1519375,0.48021800000000003,0.057197,0.2550575,0.7384080000000001,0.056568,-0.2648825,0.9987980000000001,0.03861,0.2812075,0.9764980000000001,0.044822,-0.0735565,0.003691,0.005666999999999998,0.0735565,-0.003691,-0.005667,-0.1226525,-0.421822,-0.036998,0.11869750000000001,-0.449492,-0.018006,-0.1322925,-0.7975019999999999,-0.043907,0.12499750000000001,-0.808692,-0.047721
73,0.011159000000000006,0.7221675,0.055558,-0.134705,0.5068075,0.063143,-0.23355499999999998,0.7603975000000001,0.041454000000000005,0.151595,0.4804275,0.056066000000000005,0.255145,0.7379375,0.053801,-0.26505500000000004,0.9987474999999999,0.034363,0.282005,0.9763474999999999,0.039916,-0.07362199999999999,0.003766499999999999,0.005490999999999999,0.07362199999999999,-0.003766499999999999,-0.005491,-0.12249499999999999,-0.42158249999999997,-0.041982,0.11984500000000001,-0.4477525,-0.022755,-0.13161499999999998,-0.7978425,-0.047387,0.125445,-0.8078625,-0.051133
74,0.010712000000000005,0.7220415,0.053233499999999996,-0.135071,0.5067615,0.0613625,-0.233931,0.7581115,0.0385675,0.151199,0.4802115,0.054843499999999996,0.25512900000000005,0.7369815000000001,0.0509375,-0.265171,0.9989414999999999,0.0297945,0.282849,0.9761415,0.034791499999999996,-0.073717,0.003748500000000002,0.005297499999999999,0.073717,-0.003748500000000002,-0.0052975,-0.12241099999999999,-0.4213985,-0.0475025,0.12106900000000001,-0.4460985,-0.028445500000000002,-0.130851,-0.7978784999999999,-0.051056500000000005,0.125889,-0.8072185,-0.054575500000000006
75,0.010215000000000004,0.721605,0.050148,-0.135478,0.506395,0.058751,-0.23429799999999998,0.755305,0.034538,0.15083200000000002,0.479335,0.052691999999999996,0.255152,0.735985,0.047231999999999996,-0.265308,0.999595,0.023531999999999997,0.283602,0.977295,0.028634,-0.073847,0.0036259999999999973,0.004907,0.073847,-0.0036259999999999973,-0.004907,-0.122248,-0.420385,-0.054875,0.12268200000000001,-0.443915,-0.036027,-0.129888,-0.796555,-0.055234000000000005,0.126422,-0.8054749999999999,-0.058708
76,0.0097135,0.7208245000000001,0.047023999999999996,-0.1359605,0.5058945,0.056182,-0.23468050000000001,0.7526545,0.030306,0.15044949999999999,0.47862449999999995,0.050359,0.2551695,0.7347745,0.043241,-0.2654805,1.0002645000000001,0.016857,0.2842795,0.9787645,0.022089,-0.0739515,0.003412499999999999,0.004502,0.0739515,-0.003412499999999999,-0.004502,-0.1221505,-0.41895550000000004,-0.062706,0.12432950000000001,-0.44143550000000004,-0.04391,-0.1291605,-0.7949554999999999,-0.060031,0.1269195,-0.8033055,-0.062975
77,0.009024499999999998,0.718974,0.0428485,-0.1366985,0.505104,0.052754499999999996,-0.23529850000000002,0.748864,0.024781499999999998,0.1500115,0.47829400000000005,0.0470145,0.2551215,0.733524,0.0380125,-0.2658785,1.001004,0.0082285,0.2847615,0.981404,0.0139775,-0.0739705,0.003058000000000005,0.004035499999999999,0.0739705,-0.0030579999999999982,-0.004035500000000001,-0.1223285,-0.41592599999999996,-0.0726665,0.1261215,-0.43707599999999996,-0.053421500000000004,-0.1285385,-0.791296,-0.0657565,0.12713149999999998,-0.799226,-0.0685135
78,0.008335500000000004,0.7168680000000001,0.038541000000000006,-0.1373935,0.504148,0.04914,-0.23586349999999998,0.744858,0.018781999999999997,0.14948650000000002,0.478148,0.043342000000000006,0.2550265,0.731768,0.032165,-0.26647350000000003,1.0015779999999999,-0.0013769999999999998,0.2852265,0.9838779999999999,0.004659,-0.07401150000000001,0.0026610000000000036,0.003540999999999999,0.07401150000000001,-0.0026609999999999967,-0.0035410000000000007,-0.12267349999999999,-0.41159199999999996,-0.083914,0.12816650000000002,-0.43174199999999996,-0.064216,-0.1279235,-0.7866219999999999,-0.071512,0.1273165,-0.794042,-0.073937
79,0.007706999999999998,0.7149455,0.034276,-0.138059,0.5025755,0.045458,-0.236339,0.7405455,0.012676,0.148991,0.47732549999999996,0.03972099999999999,0.255001,0.7303855,0.026104,-0.26698900000000003,1.0017655,-0.011160000000000002,0.28584099999999996,0.9867655,-0.004917000000000001,-0.074041,0.0022825,0.0030589999999999992,0.074041,-0.0022825,-0.003059000000000001,-0.122979,-0.40610450000000003,-0.09553600000000001,0.130271,-0.4248545,-0.075228,-0.127189,-0.7809345,-0.077266,0.127601,-0.7878045,-0.079295
80,0.007146999999999998,0.713086,0.029803999999999997,-0.13868799999999998,0.501156,0.04152,-0.236798,0.736846,0.006332999999999998,0.148482,0.476606,0.035965,0.254982,0.728756,0.019762000000000002,-0.267598,1.002486,-0.021235,0.28632199999999997,0.989486,-0.014574,-0.073995,0.0019670000000000035,0.002540999999999998,0.073995,-0.001967,-0.0025410000000000016,-0.123228,-0.399754,-0.107649,0.13240200000000002,-0.417404,-0.086524,-0.126448,-0.774314,-0.08338000000000001,0.12803199999999998,-0.7806839999999999,-0.084703
81,0.006586499999999998,0.7107635,0.025764000000000002,-0.1392855,0.49951350000000005,0.03773,-0.2371855,0.7325635,0.00017700000000000007,0.1480345,0.4758835,0.032169,0.2549845,0.7278335,0.013576999999999999,-0.2682255,1.0026035,-0.03108,0.2870645,0.9921035,-0.024033,-0.07401250000000001,0.0016585000000000003,0.002168,0.07401250000000001,-0.0016584999999999968,-0.002168,-0.1234255,-0.3934565,-0.119363,0.1343245,-0.4101865,-0.097797,-0.12613549999999998,-0.7674865,-0.089883,0.1282345,-0.7734665,-0.089515
82,0.006255999999999998,0.7085290000000001,0.0215955,-0.13970300000000002,0.4980490000000001,0.0340795,-0.23761300000000002,0.730919,-0.0059524999999999995,0.14770699999999998,0.475129,0.0287155,0.255237,0.7269990000000001,0.007722500000000004,-0.26887300000000003,1.003129,-0.0402905,0.287767,0.9912289999999999,-0.0330395,-0.07411,0.0013220000000000003,0.001799499999999999,0.07411,-0.0013220000000000003,-0.001799499999999999,-0.123693,-0.38704099999999997,-0.1305835,0.135737,-0.402161,-0.1087255,-0.125863,-0.759891,-0.0962105,0.128417,-0.7654409999999999,-0.0943785
83,0.005956999999999997,0.7054170000000001,0.0174495,-0.140037,0.49692699999999995,0.030487499999999994,-0.238057,0.729087,-0.0122815,0.147483,0.474757,0.0251855,0.255253,0.725747,0.0018205000000000027,-0.269787,1.0031569999999999,-0.0498665,0.288553,0.990237,-0.041820500000000004,-0.074163,0.001006,0.0014204999999999982,0.074163,-0.001005999999999999,-0.0014204999999999982,-0.12389700000000001,-0.38066300000000003,-0.1416985,0.137113,-0.39393300000000003,-0.11901149999999999,-0.125557,-0.751663,-0.10207450000000001,0.128553,-0.7573829999999999,-0.0992285
84,0.005732500000000001,0.7029825000000001,0.013661,-0.1398575,0.4956825,0.026741,-0.2385275,0.7276125,-0.017893000000000003,0.14729250000000002,0.47493250000000004,0.021850999999999995,0.2554925,0.7240525,-0.003735000000000002,-0.2709275,0.9992325,-0.058796,0.2891125,0.9889525,-0.049991,-0.07415350000000001,0.0007485,0.0012719999999999954,0.07415350000000001,-0.0007485,-0.0012720000000000023,-0.12438749999999998,-0.3692775,-0.151893,0.1382325,-0.3807275,-0.128654,-0.1258475,-0.7403175,-0.107907,0.12819250000000001,-0.7457075,-0.10347100000000001
85,0.005348499999999994,0.7008815,0.008869000000000002,-0.1395615,0.4939115,0.021992000000000005,-0.2389115,0.7268115,-0.025946999999999998,0.14714850000000002,0.4746615,0.01743,0.25593849999999996,0.7239215,-0.011372,-0.2723915,0.9948115000000001,-0.070218,0.2904985,0.9898515,-0.060260999999999995,-0.0741285,0.0005014999999999985,0.0008809999999999998,0.0741285,-0.0005014999999999985,-0.0008809999999999998,-0.1247815,-0.3521585,-0.16406099999999998,0.13944849999999998,-0.36261849999999995,-0.140547,-0.1267915,-0.7226485,-0.114264,0.1272685,-0.7285185,-0.108712
86,0.005550999999999997,0.700159,0.0012445000000000025,-0.138923,0.493979,0.014388499999999999,-0.238833,0.725759,-0.036491499999999996,0.147367,0.475409,0.009806500000000003,0.25676699999999997,0.720439,-0.021698499999999996,-0.27354300000000004,0.988069,-0.08420849999999999,0.292187,0.982389,-0.0741435,-0.07417499999999999,0.00046600000000000114,0.000397500000000002,0.07417499999999999,-0.0004659999999999942,-0.0003974999999999951,-0.12459300000000001,-0.335751,-0.1786065,0.141027,-0.345121,-0.1557265,-0.127243,-0.705171,-0.1236295,0.126657,-0.711161,-0.1167595
87,0.006106000000000001,0.700886,-0.006734999999999998,-0.1379,0.491576,0.006085000000000007,-0.23858,0.726746,-0.047023999999999996,0.14779,0.475676,0.0019399999999999973,0.25792,0.7196659999999999,-0.03195,-0.27431,0.9820559999999999,-0.098332,0.29398,0.9774459999999999,-0.087371,-0.074321,0.0006550000000000028,-0.0004709999999999992,0.074321,-0.0006550000000000028,0.0004709999999999992,-0.12411,-0.317944,-0.196266,0.14391,-0.326294,-0.173256,-0.12727,-0.686084,-0.132988,0.12637,-0.6921940000000001,-0.124923
88,0.006720500000000001,0.701576,-0.01458799999999999,-0.1368685,0.490166,-0.0022749999999999992,-0.2382985,0.728276,-0.05730799999999999,0.1483615,0.477016,-0.005736999999999992,0.2590615,0.718156,-0.04199499999999999,-0.2750185,0.976716,-0.112068,0.29579150000000004,0.972106,-0.10020499999999999,-0.07449449999999999,0.0006319999999999937,-0.0012029999999999957,0.07449449999999999,-0.0006320000000000076,0.0012030000000000096,-0.1235485,-0.300964,-0.21334499999999998,0.1467315,-0.308374,-0.190465,-0.12713850000000002,-0.667784,-0.141922,0.1261815,-0.673784,-0.1329
89,0.007666999999999995,0.701913,-0.022622999999999997,-0.13545500000000002,0.488973,-0.010934,-0.237635,0.729593,-0.06743299999999999,0.148945,0.476363,-0.013666999999999999,0.260775,0.717673,-0.051957,-0.275225,0.971993,-0.12566,0.297715,0.968203,-0.113163,-0.074745,0.0006359999999999977,-0.0021029999999999938,0.074745,-0.0006359999999999977,0.0021029999999999938,-0.12279500000000002,-0.284347,-0.230369,0.150075,-0.290577,-0.20774900000000002,-0.126565,-0.649007,-0.150564,0.126395,-0.654687,-0.141111
90,0.008659,0.70291,-0.030520000000000005,-0.13388999999999998,0.48852999999999996,-0.019450000000000002,-0.23601999999999998,0.7317800000000001,-0.077656,0.14965,0.47617,-0.021317000000000003,0.26259,0.7169800000000001,-0.061991000000000004,-0.27427999999999997,0.96811,-0.138972,0.29959,0.96487,-0.125761,-0.07497599999999999,0.0005700000000000011,-0.003017000000000006,0.07497599999999999,-0.0005700000000000011,0.003016999999999992,-0.12211,-0.26895,-0.246857,0.15344000000000002,-0.27334,-0.22442700000000002,-0.12603,-0.63037,-0.158727,0.12664,-0.63576,-0.148781
91,0.009728500000000003,0.70273,-0.0385365,-0.13225949999999997,0.48728000000000005,-0.0283295,-0.2344195,0.73315,-0.0878355,0.1503005,0.47592,-0.0291555,0.26450049999999997,0.7146199999999999,-0.0722255,-0.2737895,0.9646699999999999,-0.1523515,0.3013305,0.9655,-0.1379375,-0.0751965,0.0005699999999999872,-0.003673499999999996,0.0751965,-0.0005699999999999872,0.003673499999999996,-0.12145949999999998,-0.25275000000000003,-0.2631655,0.1569005,-0.25551,-0.2408555,-0.12510949999999998,-0.6110800000000001,-0.1667565,0.1268705,-0.61626,-0.1563655
92,0.010894500000000003,0.703095,-0.047050999999999996,-0.1305865,0.486355,-0.037751999999999994,-0.2327865,0.735255,-0.098688,0.15097349999999998,0.475765,-0.03753599999999999,0.2665135,0.7138249999999999,-0.08319,-0.2731865,0.962435,-0.166555,0.3032235,0.966305,-0.151739,-0.07543849999999999,0.0005949999999999844,-0.004352999999999996,0.07543849999999999,-0.0005950000000000122,0.00435300000000001,-0.12092649999999999,-0.23473500000000003,-0.27984699999999996,0.1604135,-0.235585,-0.25782700000000003,-0.1241765,-0.589515,-0.175439,0.1270235,-0.594295,-0.164656
93,0.012057500000000002,0.702605,-0.05584399999999999,-0.1290455,0.48368500000000003,-0.047288,-0.2310055,0.727125,-0.10958,0.1515045,0.475515,-0.04615899999999999,0.2685345,0.713475,-0.095438,-0.2726455,0.956975,-0.179921,0.3051645,0.964315,-0.16660399999999997,-0.0756475,0.0005450000000000177,-0.004746,0.0756475,-0.0005449999999999899,0.004746,-0.1201055,-0.21668500000000002,-0.296274,0.1638145,-0.21579500000000001,-0.274414,-0.12305550000000001,-0.567985,-0.183566,0.1279345,-0.572465,-0.172476
94,0.013323999999999999,0.7024999999999999,-0.063714,-0.127297,0.48278,-0.05612200000000001,-0.229947,0.72106,-0.11785200000000001,0.152053,0.47474,-0.05470800000000001,0.270323,0.7120200000000001,-0.10622300000000001,-0.272117,0.95442,-0.19187500000000002,0.306873,0.9607300000000001,-0.179627,-0.075983,0.0007500000000000007,-0.004875000000000004,0.075983,-0.0007500000000000007,0.0048749999999999905,-0.11943700000000002,-0.20184000000000002,-0.310685,0.167103,-0.20031,-0.289265,-0.121787,-0.55125,-0.189761,0.128823,-0.55443,-0.17885800000000002
95,0.014218999999999994,0.701835,-0.067779,-0.126024,0.480755,-0.06094800000000001,-0.22939400000000001,0.716515,-0.12234300000000001,0.15215599999999999,0.473115,-0.05921400000000001,0.27144599999999997,0.7143349999999999,-0.11317600000000001,-0.27155399999999996,0.953895,-0.20034200000000002,0.30806599999999995,0.963715,-0.187678,-0.076348,0.0008350000000000024,-0.004820000000000005,0.076348,-0.0008350000000000024,0.004819999999999991,-0.119194,-0.18767499999999998,-0.32039,0.16977599999999998,-0.18566500000000002,-0.29895000000000005,-0.120974,-0.535265,-0.191913,0.129206,-0.5372750000000001,-0.180971
96,0.014727500000000001,0.699885,-0.07108600000000001,-0.1252865,0.480745,-0.064552,-0.2293465,0.711395,-0.126517,0.1520935,0.47114500000000004,-0.063217,0.27215350000000005,0.714125,-0.119539,-0.27136649999999995,0.954385,-0.207348,0.3086335,0.965205,-0.195067,-0.07659450000000001,0.0007749999999999979,-0.004405000000000006,0.07659450000000001,-0.0007749999999999979,0.004405000000000006,-0.1191065,-0.172805,-0.325465,0.1710435,-0.170875,-0.305045,-0.12003650000000002,-0.519935,-0.193156,0.1291735,-0.520595,-0.18237
97,0.015286999999999999,0.69728,-0.074536,-0.12461,0.48036,-0.06836,-0.22884000000000002,0.70765,-0.131607,0.15199,0.46809,-0.067521,0.27247999999999994,0.7136399999999999,-0.125886,-0.27132,0.95568,-0.215255,0.30867999999999995,0.96612,-0.202984,-0.076847,0.0009699999999999986,-0.004095000000000001,0.076847,-0.0009699999999999986,0.004095000000000001,-0.11902000000000001,-0.1555,-0.33086499999999996,0.17224,-0.15339,-0.311475,-0.11896000000000001,-0.50393,-0.193831,0.12891999999999998,-0.5020600000000001,-0.18297000000000002
98,0.0157275,0.6951400000000001,-0.07803900000000001,-0.1241565,0.47956,-0.07204800000000001,-0.2288665,0.70418,-0.13713,0.1520035,0.46671,-0.07152900000000001,0.2729735,0.70887,-0.13190200000000002,-0.27117650000000004,0.9498,-0.22306,0.3085635,0.96418,-0.21063700000000002,-0.07698050000000001,0.0010700000000000154,-0.0036700000000000066,0.07698050000000001,-0.0010700000000000154,0.0036699999999999927,-0.11883649999999998,-0.13839,-0.33584,0.1731235,-0.13545000000000001,-0.31771000000000005,-0.1187465,-0.48791,-0.195446,0.1286235,-0.48381,-0.183313
99,0.016167499999999998,0.69255,-0.082102,-0.1238475,0.47850000000000004,-0.075937,-0.2290775,0.70042,-0.142965,0.15225249999999999,0.46549,-0.075656,0.2734225,0.7048099999999999,-0.137944,-0.2709975,0.94423,-0.23086,0.3085525,0.96156,-0.21855,-0.0771295,0.0011399999999999744,-0.003259999999999999,0.0771295,-0.0011399999999999744,0.003259999999999999,-0.11853749999999999,-0.12649,-0.34098,0.17387249999999999,-0.12280999999999997,-0.32396,-0.1178875,-0.47285,-0.195767,0.1285125,-0.46564000000000005,-0.18445499999999998
100,0.016350499999999997,0.690975,-0.086127,-0.12368849999999999,0.476825,-0.080148,-0.2280685,0.6982349999999999,-0.149331,0.1523715,0.463975,-0.08016599999999999,0.2736815,0.703345,-0.14376899999999998,-0.2707185,0.9395850000000001,-0.23840499999999998,0.3083615,0.959155,-0.226335,-0.0772525,0.0011450000000000071,-0.00301499999999999,0.0772525,-0.0011450000000000071,0.003015000000000004,-0.1181985,-0.11422499999999997,-0.346265,0.17427150000000002,-0.109435,-0.330315,-0.11713849999999999,-0.45719499999999996,-0.19640599999999997,0.1276915,-0.447285,-0.185608
101,0.01641,0.688325,-0.089915,-0.123721,0.47487499999999994,-0.083863,-0.22739099999999998,0.6957549999999999,-0.15528799999999998,0.152429,0.462345,-0.084354,0.273739,0.700155,-0.149148,-0.270721,0.933955,-0.244875,0.308239,0.9540649999999999,-0.232885,-0.077489,0.0010849999999999471,-0.0028549999999999964,0.077489,-0.0010850000000000026,0.0028549999999999964,-0.11799099999999998,-0.10331500000000005,-0.35085500000000003,0.174549,-0.09771500000000005,-0.335805,-0.11646099999999998,-0.44389500000000004,-0.19684000000000001,0.126249,-0.43201500000000004,-0.18656899999999998
102,0.0164305,0.687115,-0.09306800000000001,-0.12370050000000002,0.474935,-0.08768500000000001,-0.2269605,0.7036450000000001,-0.161018,0.1524595,0.460615,-0.088455,0.2734795,0.697535,-0.153205,-0.2707505,0.937095,-0.25134500000000004,0.3081595,0.953175,-0.23816500000000002,-0.07781350000000001,0.0012050000000000116,-0.0028550000000000103,0.07781350000000001,-0.001204999999999956,0.0028549999999999964,-0.1178005,-0.09235499999999996,-0.354785,0.1747895,-0.08590499999999995,-0.34038500000000005,-0.1149705,-0.43193499999999996,-0.196468,0.1251095,-0.417895,-0.187442
103,0.016310500000000006,0.68479,-0.09615399999999999,-0.12363749999999998,0.47322,-0.091643,-0.2268675,0.70271,-0.16666999999999998,0.1523525,0.46009,-0.092164,0.2733625,0.6947,-0.15736,-0.2710375,0.9365899999999999,-0.256325,0.3079325,0.95226,-0.24367499999999997,-0.0782455,0.0010099999999999554,-0.0028549999999999964,0.0782455,-0.0010100000000000109,0.0028549999999999964,-0.11780749999999998,-0.08114000000000005,-0.357965,0.1745925,-0.07408000000000003,-0.343855,-0.11337749999999999,-0.41962,-0.196143,0.12367249999999999,-0.40434000000000003,-0.188683
104,0.016257999999999998,0.6822900000000001,-0.098695,-0.123585,0.47131,-0.095244,-0.225855,0.70276,-0.171757,0.15221500000000002,0.459226,-0.09556,0.27325499999999997,0.69153,-0.161087,-0.271285,0.93733,-0.259965,0.307695,0.9522700000000001,-0.248535,-0.078592,0.0008900000000000019,-0.0026250000000000023,0.078592,-0.0008900000000000019,0.0026250000000000023,-0.11763499999999999,-0.06962000000000002,-0.360545,0.17405500000000002,-0.06176999999999999,-0.346715,-0.11182500000000001,-0.40705,-0.195057,0.12220500000000001,-0.39119000000000004,-0.189616
105,0.0161905,0.67961,-0.101519,-0.12365949999999999,0.469036,-0.098863,-0.22594950000000003,0.70398,-0.177422,0.1521405,0.45752200000000004,-0.099452,0.27310049999999997,0.68869,-0.1656,-0.2718395,0.9387800000000001,-0.26544,0.3071605,0.94936,-0.2539,-0.0789865,0.0007900000000000129,-0.0023999999999999994,0.0789865,-0.0007899999999999574,0.0023999999999999994,-0.11737950000000001,-0.056559999999999944,-0.36271,0.17315049999999998,-0.04795999999999995,-0.3491,-0.1108895,-0.39344,-0.19348300000000002,0.1205605,-0.37766,-0.190697
106,0.016215,0.677315,-0.10396999999999999,-0.12363999999999999,0.46629299999999996,-0.102198,-0.22621999999999998,0.703885,-0.181724,0.15231,0.45652,-0.102861,0.27323,0.6865950000000001,-0.169926,-0.27243,0.939435,-0.27032999999999996,0.30668999999999996,0.947545,-0.25880000000000003,-0.079278,0.0006249999999999867,-0.0021699999999999914,0.079278,-0.0006249999999999867,0.0021700000000000053,-0.11700999999999999,-0.044005000000000016,-0.36384,0.17195,-0.03513500000000003,-0.35046,-0.11003,-0.381105,-0.19223099999999999,0.12017,-0.36677499999999996,-0.19166699999999998
107,0.016537999999999997,0.67455,-0.10605300000000001,-0.123302,0.46373000000000003,-0.105256,-0.226812,0.69674,-0.185247,0.152928,0.455552,-0.10584500000000001,0.273408,0.68838,-0.174121,-0.272852,0.9392,-0.27477,0.306828,0.9462200000000001,-0.26394,-0.079552,0.0004899999999999904,-0.002020000000000008,0.079552,-0.0004899999999999904,0.002019999999999994,-0.11633199999999999,-0.031189999999999996,-0.36415,0.170968,-0.022169999999999968,-0.35072000000000003,-0.109352,-0.36794,-0.19115100000000002,0.11821799999999999,-0.35616999999999993,-0.19170900000000002
108,0.016858,0.67238,-0.10733,-0.122817,0.460866,-0.107974,-0.22734700000000002,0.68999,-0.188664,0.15343299999999999,0.453192,-0.108287,0.273993,0.68929,-0.177847,-0.27309700000000003,0.93852,-0.279355,0.307213,0.94465,-0.268615,-0.079899,0.0005300000000000304,-0.0020649999999999974,0.079899,-0.0005299999999999749,0.0020649999999999974,-0.11556699999999999,-0.01823999999999998,-0.36373500000000003,0.169773,-0.009120000000000017,-0.350425,-0.109027,-0.35521,-0.19075599999999998,0.115713,-0.34584000000000004,-0.19190000000000002
109,0.017134500000000004,0.669385,-0.108616,-0.1226965,0.459395,-0.110417,-0.2274965,0.684065,-0.192315,0.15391349999999998,0.45168200000000003,-0.110257,0.2745835,0.689395,-0.18168800000000002,-0.27377650000000003,0.9379850000000001,-0.284975,0.3076735,0.943235,-0.272915,-0.0802345,0.0004950000000000232,-0.002114999999999992,0.0802345,-0.0004950000000000232,0.0021150000000000058,-0.1146465,-0.004454999999999987,-0.363415,0.16828350000000003,0.004595000000000016,-0.350255,-0.1087165,-0.341985,-0.19131199999999998,0.1137565,-0.336425,-0.191668
110,0.017471000000000007,0.668135,-0.10948899999999999,-0.12268299999999999,0.457808,-0.113019,-0.22766299999999998,0.680065,-0.196145,0.15454700000000002,0.450803,-0.11212499999999999,0.275327,0.687525,-0.185335,-0.27432300000000004,0.938265,-0.291545,0.30838699999999997,0.943535,-0.276705,-0.08055999999999999,0.0003250000000000197,-0.0022049999999999986,0.08055999999999999,-0.0003249999999999642,0.0022049999999999986,-0.11354299999999998,0.011985000000000023,-0.363205,0.166827,0.021015000000000006,-0.350215,-0.10953299999999999,-0.326685,-0.194859,0.11349400000000001,-0.321195,-0.19153399999999998
111,0.017782500000000003,0.665955,-0.11063,-0.12269349999999998,0.45672199999999996,-0.11514,-0.2277435,0.677785,-0.200774,0.1553165,0.450779,-0.113736,0.27610650000000003,0.687165,-0.188896,-0.27491350000000003,0.933595,-0.29847,0.30920650000000005,0.941865,-0.2808,-0.0807075,9.500000000001174e-05,-0.002360000000000001,0.0807075,-9.500000000001174e-05,0.002359999999999987,-0.1124135,0.029884999999999995,-0.36326,0.1655465,0.03891499999999998,-0.35011000000000003,-0.1109435,-0.30878500000000003,-0.199995,0.1139285,-0.30389499999999997,-0.191397
112,0.018305000000000002,0.6643950000000001,-0.11106300000000001,-0.12268899999999999,0.45627500000000004,-0.11600800000000001,-0.227509,0.682025,-0.205563,0.156281,0.450332,-0.11432500000000001,0.27710100000000004,0.687065,-0.19097400000000003,-0.27534899999999995,0.930275,-0.305145,0.31013100000000005,0.9388650000000001,-0.283575,-0.080764,8.500000000000174e-05,-0.0025450000000000056,0.080764,-8.500000000000174e-05,0.0025449999999999917,-0.111239,0.04579500000000003,-0.36285500000000004,0.164611,0.05482500000000001,-0.349135,-0.112039,-0.292875,-0.204303,0.11317,-0.29190499999999997,-0.19133500000000003
113,0.018872,0.6627050000000001,-0.11127599999999999,-0.12259999999999999,0.4554250000000001,-0.116821,-0.22683999999999999,0.684845,-0.21028,0.15727,0.4496590000000001,-0.11481999999999999,0.27839,0.6863950000000001,-0.192581,-0.27575,0.9259550000000001,-0.311575,0.31102,0.9352250000000001,-0.286035,-0.080827,5.500000000002725e-05,-0.0027549999999999936,0.080827,-5.499999999991623e-05,0.0027550000000000074,-0.11009,0.059975000000000056,-0.36211499999999996,0.16395,0.06896500000000005,-0.34755499999999995,-0.11168,-0.27873499999999996,-0.20543699999999998,0.11203,-0.2816249999999999,-0.191044
114,0.019393999999999998,0.6612200000000001,-0.111329,-0.122512,0.45505600000000007,-0.116922,-0.226742,0.6849500000000001,-0.21406599999999998,0.15798800000000002,0.4503750000000001,-0.11485999999999999,0.279658,0.6861300000000001,-0.192851,-0.27594199999999997,0.92042,-0.316375,0.312238,0.93425,-0.287445,-0.080811,4.0000000000040004e-05,-0.003055000000000002,0.080811,-3.999999999992898e-05,0.003055000000000002,-0.108782,0.07323000000000007,-0.360525,0.163568,0.08211000000000007,-0.345145,-0.11343199999999999,-0.2662899999999999,-0.21134399999999998,0.110879,-0.2721499999999999,-0.19009700000000002
115,0.019989999999999997,0.659905,-0.11102700000000001,-0.122265,0.4553809999999999,-0.11664100000000001,-0.227395,0.6847349999999999,-0.21752,0.158825,0.45110199999999995,-0.114542,0.281065,0.684255,-0.19249900000000003,-0.275985,0.914245,-0.32010000000000005,0.313935,0.932445,-0.28795000000000004,-0.080635,3.4999999999896225e-05,-0.003380000000000008,0.080635,-3.500000000000725e-05,0.003379999999999994,-0.107325,0.08626499999999993,-0.35813,0.163435,0.09464499999999992,-0.34169000000000005,-0.11533500000000001,-0.25446500000000005,-0.21703,0.109761,-0.2627050000000001,-0.18787600000000002
116,0.020382499999999998,0.65889,-0.11077500000000001,-0.1222045,0.455673,-0.116411,-0.2281745,0.69086,-0.221105,0.15949549999999998,0.451971,-0.114273,0.2822155,0.68169,-0.192198,-0.2759945,0.9149700000000001,-0.323875,0.31559550000000003,0.9315500000000001,-0.287965,-0.0803195,2.0000000000020002e-05,-0.003725000000000006,0.0803195,-2.0000000000020002e-05,0.003724999999999992,-0.1060345,0.09923000000000004,-0.355675,0.16321549999999999,0.10704000000000002,-0.338055,-0.11731450000000002,-0.24285,-0.22218500000000002,0.1086615,-0.25432,-0.18426
117,0.0207415,0.65743,-0.10985299999999999,-0.12215350000000001,0.455929,-0.115921,-0.2285235,0.6964699999999999,-0.22364,0.1602165,0.45362499999999994,-0.113049,0.2832365,0.6794,-0.191645,-0.2761035,0.91534,-0.32697,0.3178165,0.9309799999999999,-0.28759999999999997,-0.0800125,0.0,-0.004169999999999993,0.0800125,0.0,0.004170000000000007,-0.10476350000000001,0.11012,-0.35338,0.1631565,0.11953999999999998,-0.33386,-0.11863350000000002,-0.23351,-0.22594999999999998,0.1078865,-0.24394000000000005,-0.18175599999999997
118,0.020909499999999998,0.65684,-0.10871399999999999,-0.12220950000000001,0.45588,-0.11492,-0.2293595,0.69984,-0.22479,0.16081050000000002,0.45493,-0.111459,0.2840105,0.67688,-0.19097399999999998,-0.2759095,0.91387,-0.32918000000000003,0.3200405,0.92984,-0.28722000000000003,-0.0797645,7.999999999996898e-05,-0.004559999999999995,0.0797645,-7.999999999996898e-05,0.0045600000000000085,-0.1037295,0.12120000000000003,-0.35067000000000004,0.16316049999999999,0.13030000000000003,-0.3295,-0.12153950000000001,-0.22411999999999999,-0.23247,0.1085945,-0.23495,-0.179194
119,0.020887499999999996,0.6561,-0.10744799999999999,-0.12225350000000001,0.4556300000000001,-0.11355599999999999,-0.23007350000000001,0.70082,-0.22675499999999998,0.16104649999999998,0.45553000000000005,-0.10946399999999999,0.2845165,0.6774300000000001,-0.18991799999999998,-0.2762835,0.91181,-0.33079499999999995,0.3220265,0.9296900000000001,-0.286725,-0.0796705,0.000300000000000078,-0.004894999999999997,0.0796705,-0.00029999999999996696,0.0048950000000000105,-0.1030335,0.12739000000000006,-0.349055,0.16295649999999998,0.13908000000000004,-0.325315,-0.12458350000000001,-0.21843999999999997,-0.237815,0.10904749999999999,-0.22771999999999992,-0.17672
120,0.020757499999999995,0.6554369999999999,-0.106374,-0.12241850000000001,0.45516999999999996,-0.112287,-0.2303385,0.6999799999999999,-0.227575,0.1610015,0.45574999999999993,-0.107771,0.2848715,0.6760499999999999,-0.188997,-0.2769185,0.91282,-0.332665,0.3237015,0.9298099999999999,-0.286175,-0.0795525,0.0005199999999999649,-0.005025000000000002,0.0795525,-0.000520000000000076,0.005025000000000002,-0.1023385,0.13444999999999996,-0.346735,0.1627615,0.14583999999999991,-0.321665,-0.1261485,-0.21426,-0.24134499999999998,0.1094715,-0.2209700000000001,-0.174791
121,0.0207975,0.656745,-0.105784,-0.1225925,0.454975,-0.110526,-0.2306725,0.698645,-0.22757,0.1609475,0.456245,-0.105656,0.2850475,0.674191,-0.18771300000000002,-0.2779125,0.9139550000000001,-0.33358,0.3253975,0.930315,-0.28546,-0.0795265,0.0006850000000000467,-0.0050000000000000044,0.0795265,-0.0006849999999999357,0.0050000000000000044,-0.1015225,0.13788500000000004,-0.34539,0.1623675,0.15119500000000002,-0.31839,-0.1286425,-0.21189499999999994,-0.24387,0.1087485,-0.21680500000000003,-0.174
122,0.020623500000000003,0.6581060000000001,-0.104628,-0.1227915,0.45484,-0.10862,-0.2310315,0.69764,-0.227335,0.1608585,0.45680000000000004,-0.10357,0.2852785,0.674972,-0.186734,-0.2790315,0.9150900000000001,-0.333655,0.3267585,0.9312400000000001,-0.284755,-0.0795745,0.0007800000000000029,-0.0049949999999999994,0.0795745,-0.0007799999999998919,0.0049949999999999994,-0.1007515,0.14363000000000004,-0.343305,0.1621085,0.15605000000000008,-0.316245,-0.1311415,-0.20892999999999995,-0.246145,0.1084115,-0.21370999999999996,-0.174705
123,0.020371,0.6594679999999999,-0.10356399999999999,-0.122939,0.45543999999999996,-0.106616,-0.23150899999999996,0.6972799999999999,-0.22719499999999998,0.16068100000000002,0.4572799999999999,-0.101723,0.285401,0.674345,-0.185192,-0.280419,0.91741,-0.333945,0.327731,0.9314799999999999,-0.284125,-0.079554,0.0008099999999999774,-0.005104999999999998,0.079554,-0.0008100000000000884,0.005104999999999998,-0.100279,0.14826999999999996,-0.342205,0.16202100000000003,0.15836999999999996,-0.315165,-0.13254899999999997,-0.20647000000000004,-0.24606499999999998,0.108373,-0.21139000000000008,-0.173893
124,0.020083999999999998,0.660555,-0.102346,-0.123316,0.45627000000000006,-0.10494700000000001,-0.232026,0.69679,-0.226885,0.16048400000000002,0.45736000000000004,-0.10008800000000001,0.28578400000000004,0.674981,-0.183539,-0.282056,0.91883,-0.333805,0.328394,0.93064,-0.28298500000000004,-0.079579,0.0007100000000000994,-0.005305000000000004,0.079579,-0.0007099999999999884,0.00530499999999999,-0.099816,0.15210000000000007,-0.34138500000000005,0.16204400000000002,0.16015000000000007,-0.314915,-0.13367600000000002,-0.20440999999999998,-0.24613500000000002,0.10822799999999999,-0.20960999999999996,-0.171601
125,0.019732500000000004,0.661273,-0.10144700000000001,-0.12394150000000001,0.45689500000000005,-0.10348600000000001,-0.23313150000000002,0.697125,-0.226445,0.1602485,0.45748500000000003,-0.098666,0.2860685,0.675926,-0.182915,-0.28412149999999997,0.9198550000000001,-0.333905,0.3288685,0.929325,-0.28203500000000004,-0.07961750000000001,0.0005950000000000122,-0.0053550000000000125,0.07961750000000001,-0.0005950000000000122,0.005354999999999999,-0.0991715,0.15468500000000002,-0.340955,0.1619085,0.16109500000000004,-0.31488499999999997,-0.1348015,-0.20294499999999993,-0.24804500000000002,0.1075335,-0.210735,-0.171184
126,0.019222000000000003,0.661273,-0.10027799999999999,-0.12453199999999998,0.45689500000000005,-0.10229099999999999,-0.23437199999999997,0.697125,-0.22553499999999999,0.160148,0.45748500000000003,-0.09743,0.286198,0.675926,-0.18248799999999998,-0.28660199999999997,0.9198550000000001,-0.333845,0.329368,0.929325,-0.28080499999999997,-0.079618,0.0005950000000000122,-0.0053450000000000025,0.079618,-0.0005950000000000122,0.0053450000000000025,-0.09848199999999999,0.15421500000000005,-0.340895,0.16140800000000002,0.16048500000000004,-0.314905,-0.135922,-0.20294499999999993,-0.247455,0.10688800000000001,-0.21355499999999994,-0.170894
127,0.018834000000000004,0.661273,-0.09951900000000001,-0.125103,0.45689500000000005,-0.101652,-0.235503,0.697125,-0.224095,0.16004700000000002,0.45748500000000003,-0.096655,0.286887,0.675926,-0.182292,-0.288933,0.9198550000000001,-0.333285,0.329567,0.929325,-0.280355,-0.07962,0.0005950000000000122,-0.005315,0.07962,-0.0005950000000000122,0.005315,-0.097833,0.15274500000000002,-0.341285,0.161037,0.15953500000000004,-0.314995,-0.135673,-0.20355499999999993,-0.246885,0.1061,-0.21435499999999996,-0.170925
128,0.018540000000000004,0.661273,-0.099361,-0.1251,0.45689500000000005,-0.101671,-0.23565,0.697125,-0.222385,0.16001,0.45748500000000003,-0.096675,0.28786999999999996,0.67794,-0.182247,-0.29041,0.920185,-0.332565,0.32952,0.929325,-0.28008500000000003,-0.079647,0.0005950000000000122,-0.0053349999999999925,0.079647,-0.0005950000000000122,0.005335000000000006,-0.09725,0.15157500000000002,-0.341825,0.16101000000000001,0.15843500000000005,-0.315695,-0.13543,-0.204075,-0.246245,0.10658600000000001,-0.21257499999999996,-0.172863
129,0.018160500000000003,0.662404,-0.099371,-0.12541049999999998,0.45780999999999994,-0.101716,-0.23594049999999997,0.69743,-0.22024,0.1599095,0.45711999999999997,-0.096707,0.2887295,0.6806519999999999,-0.18221700000000002,-0.2914205,0.92232,-0.33161,0.32934949999999996,0.9294,-0.27978000000000003,-0.0797645,0.0004899999999999904,-0.005340000000000011,0.0797645,-0.0004899999999999904,0.0053399999999999975,-0.0967905,0.14912999999999998,-0.34268,0.16097950000000003,0.15576999999999996,-0.31729,-0.1351405,-0.20505000000000007,-0.24466000000000002,0.1069955,-0.21167000000000002,-0.173706
130,0.017216000000000002,0.663879,-0.099633,-0.126336,0.45759999999999995,-0.101977,-0.23779599999999998,0.69367,-0.21926,0.159064,0.45654999999999996,-0.096963,0.28853399999999996,0.68333,-0.182431,-0.293856,0.92242,-0.33155,0.32867399999999997,0.9302699999999999,-0.2802,-0.08016100000000001,0.00022999999999995246,-0.005159999999999998,0.08016100000000001,-0.0002300000000000635,0.005159999999999998,-0.096966,0.13955999999999996,-0.34557,0.160364,0.14633999999999997,-0.32147,-0.13347599999999998,-0.21249000000000007,-0.23954999999999999,0.10674,-0.21719,-0.175015
131,0.016038500000000004,0.665705,-0.100048,-0.1275135,0.457305,-0.102397,-0.2400535,0.688825,-0.218285,0.1579265,0.45598500000000003,-0.097503,0.28774649999999996,0.685725,-0.18323499999999998,-0.2963635,0.917905,-0.331025,0.3276965,0.9291750000000001,-0.280635,-0.0805755,-1.4999999999987246e-05,-0.004815,0.0805755,1.4999999999987246e-05,0.004815,-0.0971435,0.125475,-0.348875,0.1595165,0.13144500000000003,-0.326225,-0.13149349999999999,-0.225225,-0.234975,0.10651950000000002,-0.228005,-0.175849
132,0.014818000000000005,0.6677150000000001,-0.100938,-0.12875799999999998,0.45804100000000003,-0.102862,-0.241568,0.683435,-0.216195,0.15673199999999998,0.45527700000000004,-0.098162,0.286862,0.688245,-0.184175,-0.299088,0.9124950000000001,-0.329745,0.326612,0.9275450000000001,-0.280985,-0.080899,-0.00015499999999990521,-0.0044450000000000045,0.080899,0.00015500000000001624,0.0044450000000000045,-0.097368,0.11099500000000007,-0.35096499999999997,0.158632,0.11458500000000005,-0.330995,-0.13013799999999998,-0.237695,-0.232145,0.105884,-0.2406449999999999,-0.176923
133,0.013495,0.668975,-0.10160999999999999,-0.130346,0.45929,-0.103097,-0.24387599999999998,0.6849749999999999,-0.21448,0.155464,0.4541259999999999,-0.09889899999999999,0.286214,0.6907449999999999,-0.18497,-0.301836,0.9151449999999999,-0.32819,0.325134,0.928175,-0.28108999999999995,-0.081103,-0.00013499999999999623,-0.004239999999999994,0.081103,0.00013499999999999623,0.004240000000000008,-0.097576,0.09157499999999996,-0.35274,0.157824,0.09501499999999996,-0.33457,-0.126136,-0.2552350000000001,-0.22555999999999998,0.10514,-0.257135,-0.17771199999999998
134,0.012263000000000001,0.6711149999999999,-0.102499,-0.131941,0.459761,-0.103534,-0.24591100000000002,0.684655,-0.21336,0.154279,0.45378699999999994,-0.09997500000000001,0.28553900000000004,0.692955,-0.186504,-0.30456099999999997,0.916125,-0.32691000000000003,0.323739,0.927275,-0.28127,-0.081284,-0.0003250000000000197,-0.003939999999999999,0.081284,0.0003249999999999087,0.003939999999999999,-0.09806100000000001,0.07137499999999997,-0.35336999999999996,0.157249,0.07399499999999998,-0.33754,-0.122311,-0.273575,-0.21931,0.10500000000000001,-0.276265,-0.17901
135,0.010964499999999997,0.672945,-0.103147,-0.1333375,0.460548,-0.103817,-0.2473775,0.682365,-0.211697,0.1530825,0.453589,-0.10083500000000001,0.2843325,0.695025,-0.187384,-0.30625749999999996,0.914505,-0.325275,0.3223125,0.925485,-0.28098500000000004,-0.0813425,-0.0004750000000000032,-0.003845000000000001,0.0813425,0.0004750000000000032,0.003845000000000001,-0.09865750000000001,0.04872500000000002,-0.353645,0.1566725,0.05134500000000003,-0.339005,-0.11867749999999999,-0.29440500000000003,-0.21143499999999998,0.1050875,-0.29678499999999997,-0.179793
136,0.009198499999999997,0.6753899999999999,-0.102981,-0.1347325,0.461622,-0.10448500000000001,-0.2496125,0.68215,-0.210178,0.1517275,0.453664,-0.101915,0.2825975,0.69652,-0.187675,-0.3082625,0.91474,-0.32359499999999997,0.3204775,0.92682,-0.28147500000000003,-0.08093149999999999,-0.00034000000000000696,-0.003705,0.08093149999999999,0.00034000000000000696,0.003705,-0.0996425,0.022509999999999974,-0.353305,0.1562375,0.023820000000000008,-0.34030499999999997,-0.1155525,-0.31864000000000003,-0.203691,0.10596649999999999,-0.32038,-0.180591
137,0.007613000000000002,0.67895,-0.10369199999999999,-0.13616899999999998,0.462847,-0.104932,-0.251489,0.68035,-0.208679,0.150351,0.45440100000000005,-0.102759,0.280371,0.69743,-0.18767099999999998,-0.311039,0.91556,-0.32172,0.31849099999999997,0.92837,-0.28148,-0.080666,-0.00030999999999997696,-0.0035700000000000037,0.080666,0.00031000000000003247,0.0035700000000000037,-0.100579,-0.00540999999999997,-0.35325,0.156111,-0.004119999999999957,-0.34055,-0.112639,-0.34321999999999997,-0.19528099999999998,0.106757,-0.34417,-0.181321
138,0.006324499999999999,0.68257,-0.10423099999999999,-0.1373895,0.46348300000000003,-0.105039,-0.25313949999999996,0.67637,-0.207084,0.14910050000000002,0.454753,-0.10325299999999998,0.2786705,0.69817,-0.18733899999999998,-0.31291949999999996,0.91215,-0.31955999999999996,0.3164705,0.92838,-0.28117000000000003,-0.0803555,-0.00034000000000000696,-0.003159999999999996,0.0803555,0.00034000000000000696,0.00316000000000001,-0.1013795,-0.03555999999999998,-0.35285999999999995,0.1564105,-0.03398000000000001,-0.34009,-0.1101695,-0.37145999999999996,-0.189994,0.1087505,-0.36882999999999994,-0.182238
139,0.005877000000000003,0.685975,-0.103982,-0.13788699999999998,0.466286,-0.104526,-0.253507,0.681025,-0.20612999999999998,0.148733,0.454893,-0.10301099999999999,0.27792300000000003,0.6987049999999999,-0.186842,-0.314077,0.9129149999999999,-0.316885,0.31583300000000003,0.928295,-0.280595,-0.079786,-4.500000000001725e-05,-0.0027650000000000036,0.079786,4.499999999996174e-05,0.0027650000000000036,-0.101487,-0.060475000000000056,-0.352325,0.157163,-0.05827500000000002,-0.339505,-0.11082700000000001,-0.395185,-0.189013,0.11136299999999999,-0.389555,-0.183133
140,0.005594499999999999,0.6897599999999999,-0.10280999999999998,-0.1383295,0.46928,-0.10336399999999998,-0.2541295,0.6849,-0.203452,0.14862050000000002,0.45838999999999996,-0.10182899999999999,0.2773505,0.6996899999999999,-0.18553599999999998,-0.31520950000000003,0.92077,-0.313585,0.31534049999999997,0.9269499999999999,-0.278985,-0.07942450000000001,-0.00010999999999999899,-0.002354999999999996,0.07942450000000001,0.00010999999999999899,0.00235500000000001,-0.1018895,-0.08273000000000003,-0.350745,0.15742050000000002,-0.08013000000000003,-0.338295,-0.11128950000000001,-0.41736000000000006,-0.187853,0.11342050000000001,-0.4105,-0.183055
141,0.005358000000000001,0.693465,-0.101009,-0.138437,0.471185,-0.101555,-0.25462700000000005,0.692555,-0.200224,0.148663,0.461005,-0.10001,0.276903,0.700645,-0.183177,-0.316457,0.9311050000000001,-0.30910499999999996,0.31490300000000004,0.925045,-0.276725,-0.079144,-0.00013499999999999623,-0.0021750000000000103,0.079144,0.00013499999999999623,0.0021749999999999964,-0.102357,-0.104105,-0.347915,0.157313,-0.10073499999999996,-0.336115,-0.111697,-0.43935499999999994,-0.186063,0.115313,-0.433075,-0.182668
142,0.0052970000000000005,0.697835,-0.09789600000000001,-0.13841399999999998,0.472755,-0.098279,-0.25519400000000003,0.690205,-0.19519,0.148876,0.46374499999999996,-0.09688000000000001,0.276806,0.701945,-0.179149,-0.318214,0.931645,-0.30321,0.314996,0.926215,-0.272,-0.07888300000000001,-0.0002850000000000352,-0.002020000000000008,0.07888300000000001,0.0002849999999999797,0.002019999999999994,-0.10273399999999999,-0.12333500000000003,-0.34198,0.15693600000000002,-0.12022500000000003,-0.33002,-0.11232400000000001,-0.4608650000000001,-0.18376,0.11737600000000001,-0.455105,-0.179419
143,0.005356999999999996,0.70164,-0.09305000000000001,-0.138636,0.47467000000000004,-0.09333000000000001,-0.25618599999999997,0.69363,-0.189409,0.14924400000000002,0.46568,-0.09213,0.276654,0.7039599999999999,-0.172738,-0.319486,0.93748,-0.295941,0.315524,0.92897,-0.265451,-0.078324,-0.000140000000000029,-0.0018490000000000034,0.078324,0.00013999999999997348,0.0018489999999999895,-0.10300600000000001,-0.14296999999999999,-0.33372100000000005,0.156664,-0.14015,-0.321831,-0.11366600000000002,-0.48414999999999997,-0.180506,0.11916399999999999,-0.47870999999999997,-0.175589
144,0.005510500000000001,0.70694,-0.086839,-0.1387165,0.47696,-0.08716499999999999,-0.2567665,0.69599,-0.181979,0.1496635,0.46865,-0.08601,0.2770035,0.7069099999999999,-0.16495500000000002,-0.3206965,0.94174,-0.286483,0.3160735,0.9317599999999999,-0.256823,-0.0776405,-1.0000000000010001e-05,-0.0015869999999999912,0.0776405,1.0000000000010001e-05,0.001587000000000005,-0.10362650000000001,-0.16288000000000002,-0.323623,0.1564235,-0.1608,-0.311573,-0.1146965,-0.50908,-0.175428,0.1209835,-0.5047999999999999,-0.171203
145,0.005674500000000004,0.710495,-0.07956150000000001,-0.1388965,0.477815,-0.08066150000000001,-0.2574765,0.695885,-0.17205550000000003,0.1503535,0.47219500000000003,-0.07916050000000001,0.27779349999999997,0.709815,-0.15678350000000002,-0.3217965,0.943675,-0.2747255,0.3171435,0.938525,-0.2471955,-0.07679749999999999,-0.00011500000000000399,-0.0012575000000000086,0.07679749999999999,0.00011500000000000399,0.0012574999999999947,-0.1045265,-0.17908500000000002,-0.3132855,0.1562635,-0.177945,-0.30068550000000005,-0.1153865,-0.5312049999999999,-0.1704595,0.12231349999999999,-0.528515,-0.1662045
146,0.005723500000000005,0.714035,-0.071777,-0.13912149999999998,0.478845,-0.07353799999999999,-0.2581115,0.6965049999999999,-0.16147699999999998,0.1510485,0.474885,-0.071764,0.2786885,0.7120949999999999,-0.147315,-0.3234115,0.946185,-0.261176,0.31821849999999996,0.9454150000000001,-0.237236,-0.07596449999999999,-4.499999999998949e-05,-0.0009600000000000025,0.07596449999999999,4.500000000001725e-05,0.0009600000000000025,-0.1048915,-0.196235,-0.302306,0.1558185,-0.19766499999999998,-0.28915599999999997,-0.1161815,-0.5544849999999999,-0.16429,0.1234085,-0.552465,-0.159912
147,0.005695000000000002,0.717285,-0.0628595,-0.139535,0.480615,-0.0653715,-0.259175,0.703805,-0.1503875,0.15157500000000002,0.47780500000000004,-0.06326549999999999,0.279445,0.714705,-0.1361655,-0.324935,0.956245,-0.2474395,0.319205,0.9516249999999999,-0.2252795,-0.075149,5.4999999999999494e-05,-0.0009334999999999899,0.075149,-5.4999999999999494e-05,0.0009335000000000038,-0.10530500000000001,-0.21394499999999997,-0.2898495,0.15490500000000001,-0.21706499999999998,-0.27629950000000003,-0.11707499999999998,-0.577555,-0.1567615,0.12384500000000001,-0.576175,-0.1526345
148,0.005755000000000003,0.72075,-0.052873500000000004,-0.139886,0.48164999999999997,-0.0560065,-0.259946,0.70654,-0.1382755,0.15218399999999999,0.48236,-0.053721500000000005,0.280124,0.7166600000000001,-0.1236325,-0.326306,0.964,-0.2325605,0.320654,0.95556,-0.2116805,-0.074486,-2.0000000000020002e-05,-0.0008284999999999959,0.074486,1.9999999999992246e-05,0.0008284999999999959,-0.105766,-0.23287000000000002,-0.2754205,0.153524,-0.23847000000000002,-0.2613105,-0.118086,-0.60172,-0.1476905,0.124274,-0.6009899999999999,-0.14431549999999999
149,0.005417499999999995,0.7228,-0.036541500000000005,-0.14117050000000003,0.48206,-0.0405835,-0.2611605,0.71049,-0.1189275,0.15229949999999998,0.48055,-0.0377745,0.28016949999999996,0.71833,-0.1043155,-0.32801050000000004,0.96516,-0.2095055,0.32219949999999997,0.95954,-0.1913355,-0.0738655,0.00018999999999999573,-0.0005824999999999997,0.0738655,-0.0001900000000000096,0.0005824999999999997,-0.10690050000000001,-0.25659,-0.2501855,0.15011950000000002,-0.26468,-0.23433549999999997,-0.1195505,-0.63028,-0.13205650000000002,0.1241795,-0.62996,-0.1284765
150,0.005407000000000002,0.7244925,-0.019980499999999998,-0.142589,0.4833425,-0.0244385,-0.262289,0.7107025,-0.0985105,0.152841,0.4808425,-0.021364499999999998,0.280711,0.7198125,-0.0844385,-0.32947899999999997,0.9636325000000001,-0.18536149999999998,0.323961,0.9637225,-0.1696215,-0.073373,0.00028250000000000497,-0.0001475000000000018,0.073373,-0.0002824999999999911,0.0001475000000000018,-0.10813899999999999,-0.2809675,-0.2229915,0.146181,-0.2918675,-0.2053515,-0.121089,-0.6596074999999999,-0.1159775,0.124091,-0.6595875,-0.11189349999999999
151,0.005238500000000005,0.7248935000000001,-0.004606500000000003,-0.14411849999999998,0.4843735,-0.009292500000000002,-0.26376849999999996,0.7139235,-0.0797265,0.1530915,0.48133349999999997,-0.006092500000000004,0.28102150000000004,0.7208335,-0.0654025,-0.33075849999999996,0.9635035000000001,-0.16246449999999998,0.32498150000000003,0.9623635,-0.1490945,-0.0730885,0.00037249999999999783,0.0001684999999999985,0.0730885,-0.00037249999999999783,-0.00016850000000000198,-0.1096085,-0.30344649999999995,-0.1965645,0.14240150000000001,-0.3157365,-0.1772945,-0.12256849999999998,-0.6862765,-0.1007295,0.1237715,-0.6866565,-0.0963505
152,0.005149,0.7247505,0.009728499999999998,-0.14566400000000002,0.4855905,0.005042499999999998,-0.265524,0.7127605,-0.0617345,0.153406,0.48180049999999996,0.008265499999999999,0.28100600000000003,0.7200504999999999,-0.0476665,-0.332014,0.9593705,-0.1405915,0.32602600000000004,0.9608905,-0.1294415,-0.072953,0.00047449999999999923,0.0003464999999999996,0.072953,-0.0004745000000000027,-0.0003465000000000013,-0.111084,-0.3238895,-0.1713715,0.138886,-0.33797950000000004,-0.1502015,-0.12389399999999999,-0.7096895,-0.0864335,0.123476,-0.7106095,-0.0817765
153,0.005034000000000004,0.7234275,0.022761,-0.14719,0.4861375,0.018378,-0.26701,0.7142875,-0.045517999999999996,0.15375,0.4811475,0.02132,0.28043999999999997,0.7182775,-0.031096000000000002,-0.33265,0.9577975,-0.120856,0.32705999999999996,0.9603475,-0.11153600000000001,-0.072963,0.0005725000000000001,0.00046,0.072963,-0.0005724999999999984,-0.00046,-0.11257,-0.3429225,-0.14774600000000002,0.13554,-0.3578425,-0.12470600000000001,-0.12519999999999998,-0.7301525,-0.07309,0.12291,-0.7308925000000001,-0.068368
154,0.0048745,0.722899,0.034893,-0.14884050000000001,0.486909,0.03101,-0.2683105,0.718719,-0.030891,0.15385949999999998,0.479859,0.033581,0.2802295,0.7184389999999999,-0.014842000000000001,-0.3340105,0.956789,-0.10201,0.3271995,0.954159,-0.09346,-0.07282449999999999,0.0007340000000000003,0.0006029999999999994,0.07282449999999999,-0.0007340000000000003,-0.0006030000000000011,-0.11398050000000001,-0.360761,-0.12463,0.1318195,-0.37534100000000004,-0.0998,-0.1267305,-0.7479410000000001,-0.059933,0.12222949999999999,-0.748751,-0.055077
155,0.004681000000000004,0.7223200000000001,0.046439999999999995,-0.150505,0.48700000000000004,0.042994000000000004,-0.269015,0.7225900000000001,-0.017,0.153975,0.47883000000000003,0.0453,0.280005,0.71879,0.00042100000000000123,-0.334255,0.95584,-0.084733,0.327265,0.9492200000000001,-0.07549800000000001,-0.072636,0.0008640000000000002,0.0007689999999999989,0.072636,-0.0008640000000000002,-0.0007689999999999989,-0.115345,-0.37665,-0.10209299999999999,0.128035,-0.39123,-0.075156,-0.128235,-0.76383,-0.047263999999999994,0.121565,-0.76464,-0.042721
156,0.004543000000000003,0.7215725,0.056262,-0.15198299999999998,0.4866725,0.053488999999999995,-0.26987300000000003,0.7219224999999999,-0.004615000000000001,0.15418700000000002,0.47841249999999996,0.055475,0.27991699999999997,0.7194124999999999,0.012996,-0.33459300000000003,0.9509725,-0.06894700000000001,0.327347,0.9451324999999999,-0.060177,-0.07248099999999999,0.0009694999999999981,0.001167999999999999,0.07248099999999999,-0.0009695000000000051,-0.0011680000000000024,-0.116233,-0.38896749999999997,-0.08169699999999999,0.12451700000000002,-0.4035475,-0.052983999999999996,-0.129623,-0.7761475000000001,-0.035764,0.120917,-0.7769575000000001,-0.030943
157,0.004442000000000004,0.7205415000000001,0.0647935,-0.153345,0.4862315,0.0625255,-0.270845,0.7211315,0.007206500000000005,0.154325,0.47675150000000005,0.0643995,0.279055,0.7187015000000001,0.0237645,-0.334845,0.9464115000000001,-0.05480449999999999,0.327275,0.9424315000000001,-0.046494499999999994,-0.072552,0.0011024999999999993,0.0014925000000000008,0.072552,-0.0011024999999999993,-0.0014925000000000008,-0.11701500000000001,-0.3991485,-0.0635565,0.12126500000000001,-0.4149185,-0.032980499999999996,-0.130895,-0.7871484999999999,-0.025303499999999993,0.12026500000000001,-0.7871785,-0.020410499999999998
158,0.004915999999999999,0.7200770000000001,0.0670075,-0.15371700000000002,0.48680700000000005,0.0651035,-0.27137700000000003,0.720947,0.012218499999999993,0.15487299999999998,0.478007,0.0665895,0.279333,0.720107,0.027797499999999996,-0.334977,0.9459869999999999,-0.0479305,0.327323,0.942747,-0.03975450000000001,-0.072632,0.0013179999999999997,0.0015714999999999965,0.072632,-0.0013179999999999997,-0.0015715000000000034,-0.11765700000000001,-0.403093,-0.0568555,0.11971299999999999,-0.419193,-0.025664500000000007,-0.131577,-0.7904530000000001,-0.02272650000000001,0.120173,-0.790753,-0.01876250000000001
159,0.005291499999999996,0.7198355000000001,0.068464,-0.1539045,0.4865255,0.06656,-0.2711645,0.7212755000000001,0.015763999999999997,0.15528550000000002,0.47817550000000003,0.067997,0.2796455,0.7216555,0.030799999999999998,-0.3339745,0.9465555,-0.042759000000000005,0.3274455,0.9439755000000001,-0.034525,-0.0727255,0.0014924999999999938,0.001687000000000001,0.0727255,-0.0014925000000000008,-0.001687000000000001,-0.1180345,-0.40527450000000004,-0.052288,0.1186555,-0.4217445,-0.020484000000000002,-0.1319845,-0.7917744999999999,-0.021024,0.1202355,-0.7924245,-0.017775
160,0.005691499999999994,0.7195935,0.069904,-0.15402149999999998,0.4867935,0.067748,-0.2704015,0.7215435,0.019542999999999994,0.15571849999999998,0.4783035,0.06913,0.2799485,0.7235135,0.03487699999999999,-0.33297150000000003,0.9472635,-0.037386,0.3276185,0.9453235,-0.029156,-0.0727825,0.001622499999999999,0.0017799999999999969,0.0727825,-0.001622499999999999,-0.0017800000000000038,-0.1183815,-0.40698650000000003,-0.04767300000000001,0.1176585,-0.4240165,-0.015679000000000005,-0.1322415,-0.7928265,-0.019581000000000008,0.1203485,-0.7938165,-0.017055000000000008
161,0.006073499999999997,0.7194699999999999,0.07130349999999999,-0.15398650000000003,0.48743000000000003,0.0691035,-0.2694765,0.72204,0.0232895,0.1560535,0.47839,0.0701885,0.28028349999999996,0.7257899999999999,0.0388745,-0.3319765,0.94828,-0.03208250000000001,0.32774349999999997,0.94692,-0.023838500000000006,-0.0728075,0.001682999999999997,0.0017785000000000023,0.0728075,-0.001683000000000004,-0.0017785000000000023,-0.1188365,-0.40762000000000004,-0.043085500000000006,0.1167435,-0.42529,-0.0113995,-0.1324665,-0.79335,-0.0181585,0.1204635,-0.7946300000000001,-0.0163825
162,0.006451499999999997,0.7193195,0.0727925,-0.15392050000000002,0.48795949999999993,0.07027649999999999,-0.2688005,0.7222895,0.0268855,0.1563295,0.4784495,0.0712705,0.2806695,0.7277995,0.0427715,-0.33114049999999995,0.9491895,-0.0269005,0.32781950000000004,0.9483895,-0.018585499999999998,-0.0728375,0.001750500000000002,0.0017765000000000003,0.0728375,-0.001750500000000002,-0.0017765000000000003,-0.1195605,-0.4082505,-0.0383325,0.1158695,-0.4273005,-0.007240500000000004,-0.1326805,-0.7937405,-0.016822500000000004,0.1206095,-0.7953005,-0.0157005
163,0.006832500000000002,0.7192284999999999,0.07428799999999999,-0.15380049999999998,0.48825849999999993,0.071799,-0.2681705,0.7221985,0.030490999999999994,0.1565195,0.4785285,0.07229,0.2811095,0.7297085,0.04629,-0.3305305,0.9500985000000001,-0.022357000000000002,0.3279995,0.9493984999999999,-0.013979000000000005,-0.07288349999999999,0.0017975000000000005,0.0017729999999999968,0.07288349999999999,-0.0017975000000000005,-0.0017730000000000037,-0.1202705,-0.4092615,-0.03386900000000001,0.11542949999999999,-0.4292115,-0.003953000000000005,-0.1327205,-0.7938315,-0.015569000000000006,0.1207995,-0.7957515000000001,-0.015244000000000008
164,0.007177499999999995,0.7192044999999999,0.075704,-0.15368550000000003,0.48796449999999997,0.072999,-0.26765550000000005,0.7221744999999999,0.033847999999999996,0.1567245,0.4786445,0.073055,0.2809445,0.7296845,0.049456,-0.3300155,0.9510744999999999,-0.018183000000000005,0.3281345,0.9503745,-0.009727000000000006,-0.0729495,0.001850499999999998,0.001915999999999994,0.0729495,-0.001850500000000005,-0.001916000000000001,-0.12101550000000001,-0.4104055,-0.029964000000000005,0.11509449999999999,-0.4311255,-0.0011160000000000059,-0.13275550000000003,-0.7937855,-0.014450000000000005,0.12096449999999999,-0.7962055,-0.015174000000000007
165,0.007458999999999999,0.7190215,0.07720550000000001,-0.153553,0.48748150000000007,0.0739665,-0.267293,0.7223714999999999,0.0371895,0.156917,0.47870150000000006,0.07374649999999999,0.28074699999999997,0.7298815,0.0530535,-0.329673,0.9525715,-0.014104499999999999,0.328267,0.9515714999999999,-0.0053874999999999965,-0.073012,0.0019494999999999998,0.0019974999999999993,0.073012,-0.0019494999999999998,-0.0019974999999999993,-0.121843,-0.41091849999999996,-0.026524499999999993,0.11485699999999999,-0.4323585,0.0016515000000000002,-0.132783,-0.7934285000000001,-0.013526499999999997,0.12112700000000001,-0.7962485,-0.0151675
166,0.007706000000000001,0.7190464999999999,0.0785485,-0.153452,0.48744650000000006,0.0746555,-0.266782,0.7200664999999999,0.0401015,0.157108,0.47881650000000003,0.0742115,0.28037799999999996,0.7294765,0.0563105,-0.32964200000000005,0.9546664999999999,-0.0103035,0.32845799999999997,0.9535665,-0.0010555000000000009,-0.07305500000000001,0.002057499999999997,0.002097500000000002,0.07305500000000001,-0.0020575000000000038,-0.002097500000000002,-0.122662,-0.4106535,-0.0236265,0.11471799999999999,-0.43303349999999996,0.004062500000000004,-0.13272199999999998,-0.7927035,-0.013153499999999999,0.121228,-0.7958535,-0.015418500000000002
167,0.007881500000000001,0.718982,0.079426,-0.15330549999999998,0.48701199999999994,0.074984,-0.2665055,0.7186920000000001,0.042057000000000004,0.1572445,0.47877200000000003,0.07417599999999999,0.2798645,0.7282219999999999,0.05927,-0.3297855,0.9563219999999999,-0.007643999999999998,0.32861450000000003,0.955022,0.0020910000000000026,-0.0731035,0.0020739999999999995,0.0021919999999999995,0.0731035,-0.0020739999999999995,-0.0021919999999999995,-0.1233855,-0.410598,-0.021197999999999995,0.1146245,-0.43369800000000003,0.005867000000000004,-0.1326855,-0.792848,-0.013352999999999997,0.1214145,-0.7959579999999999,-0.015781999999999997
168,0.007961999999999999,0.718932,0.080339,-0.153205,0.48658199999999996,0.075263,-0.266355,0.7174119999999999,0.043956,0.157345,0.47870199999999996,0.074125,0.27934499999999995,0.726872,0.062199000000000004,-0.32994500000000004,0.958262,-0.004895999999999998,0.328735,0.9566619999999999,0.0054590000000000055,-0.07314000000000001,0.0020929999999999976,0.0022220000000000018,0.07314000000000001,-0.0020930000000000046,-0.002221999999999995,-0.124115,-0.41055800000000003,-0.019110999999999996,0.11452499999999999,-0.43375800000000003,0.007621000000000003,-0.132675,-0.792898,-0.013331999999999997,0.12160499999999999,-0.796018,-0.016274999999999998
169,0.007942500000000002,0.718868,0.08117849999999999,-0.15308349999999998,0.486168,0.07551849999999999,-0.26637350000000004,0.7162679999999999,0.045462499999999996,0.1574665,0.478608,0.07410149999999999,0.27891649999999996,0.725328,0.0637885,-0.33009350000000004,0.9604879999999999,-0.002327500000000003,0.3288565,0.9583879999999999,0.008828499999999996,-0.07315949999999999,0.0021029999999999938,0.0022184999999999983,0.07315949999999999,-0.0021030000000000007,-0.002218500000000005,-0.12466350000000001,-0.410532,-0.0176385,0.1144465,-0.433832,0.009204499999999997,-0.1326635,-0.792872,-0.013168500000000007,0.12177650000000001,-0.7960820000000001,-0.016711500000000004
170,0.0078965,0.7187815,0.0820785,-0.15306150000000002,0.4861315,0.0754085,-0.2664615,0.7153415,0.0470505,0.1575585,0.4785715,0.0740775,0.2782885,0.7239715,0.0653705,-0.3303315,0.9626514999999999,0.000394499999999999,0.32910849999999997,0.9600515,0.0124235,-0.0731725,0.0021245000000000014,0.0022285000000000013,0.0731725,-0.0021245000000000014,-0.0022285000000000013,-0.1251915,-0.4101885,-0.0166325,0.1144985,-0.4339885,0.010659500000000002,-0.13275150000000002,-0.7926185,-0.013095499999999996,0.1219085,-0.7959985,-0.017204499999999998
171,0.007838000000000001,0.7186790000000001,0.0830475,-0.153053,0.48610899999999996,0.0753945,-0.266573,0.714499,0.048729499999999995,0.157577,0.47854899999999995,0.0740855,0.277927,0.7241890000000001,0.0671555,-0.330743,0.964729,0.0031284999999999993,0.329387,0.961829,0.0162075,-0.07317299999999999,0.002139000000000002,0.002167499999999996,0.07317299999999999,-0.002139000000000002,-0.0021675000000000028,-0.125553,-0.40997100000000003,-0.016133500000000002,0.11463699999999999,-0.43401100000000004,0.011826499999999997,-0.132903,-0.792261,-0.012943500000000004,0.12204699999999999,-0.795871,-0.0176365
172,0.0078285,0.7185794999999999,0.08385300000000001,-0.1529895,0.48608949999999995,0.075013,-0.2666395,0.7137195,0.050599000000000005,0.1576205,0.47852949999999994,0.074086,0.2778505,0.7244195,0.06902,-0.33112949999999997,0.9669094999999999,0.005990000000000002,0.3296805,0.9637095,0.020182000000000002,-0.0731765,0.0021585000000000007,0.002124000000000001,0.0731765,-0.0021585000000000007,-0.002124000000000001,-0.1258295,-0.40960050000000003,-0.015999,0.11487050000000001,-0.4339505,0.012765000000000002,-0.13298949999999998,-0.7918305,-0.01276,0.1222105,-0.7957105,-0.017881999999999995
173,0.007792999999999996,0.7185095,0.0843875,-0.152924,0.48579950000000005,0.0747345,-0.26672399999999996,0.7129895,0.0522925,0.157666,0.4784895,0.0741545,0.27710599999999996,0.7230595,0.0709805,-0.331364,0.9686994999999999,0.0086345,0.32999599999999996,0.9654995000000001,0.024080499999999998,-0.073171,0.002182500000000004,0.002087499999999999,0.073171,-0.002182499999999997,-0.002087499999999999,-0.12609399999999998,-0.4090105,-0.0157375,0.11505599999999999,-0.43362049999999996,0.013408499999999997,-0.133004,-0.7914005,-0.012556500000000005,0.12243599999999999,-0.7955705,-0.0180455
174,0.007736000000000005,0.7184665,0.0839405,-0.152883,0.48555649999999995,0.0743325,-0.266743,0.7124564999999999,0.052818500000000004,0.15773700000000002,0.47836650000000003,0.07410050000000001,0.27714700000000003,0.7230265,0.0709485,-0.331293,0.9696865,0.009484500000000003,0.330357,0.9668864999999999,0.027021500000000004,-0.073164,0.0022135,0.002104500000000002,0.073164,-0.0022135,-0.0021044999999999953,-0.12631299999999998,-0.40819350000000004,-0.015654499999999995,0.115097,-0.4326935,0.013501500000000003,-0.133093,-0.7908835000000001,-0.012369499999999999,0.122647,-0.7954335,-0.018186499999999994
175,0.007734999999999999,0.7184565,0.08358650000000001,-0.152864,0.48518649999999997,0.0739805,-0.266704,0.7122265,0.0524675,0.15778599999999998,0.4782565,0.07413049999999999,0.27717600000000003,0.7219265,0.0705965,-0.331204,0.9697265,0.0091375,0.33084600000000003,0.9669264999999999,0.027136499999999997,-0.073156,0.002209500000000003,0.002064499999999997,0.073156,-0.002209499999999996,-0.002064500000000004,-0.12664399999999998,-0.40761349999999996,-0.015609500000000005,0.11512599999999999,-0.4319635,0.0132275,-0.133214,-0.7908435,-0.0127315,0.122666,-0.7953935,-0.0184225
