sb224sc-HT22-VT27/4dt907/src/ml-research/a11/datafiles/kinect_good_preprocessed_not_cut_A11_mediapipe/A45_kinect_mirrored.csv
FrameNo,nose_3d_x,nose_3d_y,nose_3d_z,left_shoulder_3d_x,left_shoulder_3d_y,left_shoulder_3d_z,left_elbow_3d_x,left_elbow_3d_y,left_elbow_3d_z,right_shoulder_3d_x,right_shoulder_3d_y,right_shoulder_3d_z,right_elbow_3d_x,right_elbow_3d_y,right_elbow_3d_z,left_wrist_3d_x,left_wrist_3d_y,left_wrist_3d_z,right_wrist_3d_x,right_wrist_3d_y,right_wrist_3d_z,left_hip_3d_x,left_hip_3d_y,left_hip_3d_z,right_hip_3d_x,right_hip_3d_y,right_hip_3d_z,left_knee_3d_x,left_knee_3d_y,left_knee_3d_z,right_knee_3d_x,right_knee_3d_y,right_knee_3d_z,left_ankle_3d_x,left_ankle_3d_y,left_ankle_3d_z,right_ankle_3d_x,right_ankle_3d_y,right_ankle_3d_z
0,1.010692,0.693605,0.092995,0.85444,0.428515,0.0423029999999999,0.8015900000000001,0.190535,0.0162529999999999,1.14595,0.4194949999999999,0.0475499999999999,1.2138200000000001,0.162885,0.0398079999999999,0.8006400000000001,-0.020666,-0.068756,1.22319,-0.0496369999999999,-0.040525,0.933047,0.0002219999999999,0.0002349999999999,1.066953,-0.0002219999999999,-0.000235,0.8682000000000001,-0.323485,-0.029135,1.1364,-0.349435,-0.021405,0.81289,-0.685955,-0.018414,1.19393,-0.698925,-0.009343
1,1.0109885,0.6937139999999999,0.0935765,0.8545045,0.428534,0.0425115,0.8015345,0.190264,0.0161745,1.1462545,0.419614,0.0482855,1.2137745,0.162834,0.0398415,0.8007145,-0.020861,-0.0690355,1.2232044999999998,-0.049688,-0.0404974999999999,0.9330505,0.000237,0.0002005,1.0669495,-0.0002369999999999,-0.0002004999999999,0.8680645000000001,-0.323816,-0.0291574999999999,1.1363645,-0.350666,-0.0215124999999999,0.8122245000000001,-0.689096,-0.0184674999999999,1.1955945,-0.7067760000000001,-0.0102555
2,1.0113804999999998,0.6936405,0.094223,0.8546315,0.4284905,0.042837,0.8016515,0.1901805,0.016046,1.1463515,0.4193905,0.048579,1.2137715,0.1626405,0.039981,0.8007115,-0.0209335,-0.069206,1.2232315,-0.0498565,-0.0404159999999999,0.9330535000000001,0.0002515,0.000148,1.0669464999999998,-0.0002515,-0.0001479999999999,0.8681814999999999,-0.3239194999999999,-0.0289639999999999,1.1364915,-0.3509295,-0.021334,0.8118515,-0.6901795000000001,-0.0180079999999999,1.1955414999999998,-0.7066995,-0.0099879999999999
3,1.0113735,0.693693,0.0950975,0.8546805,0.428443,0.0431665,0.8016205000000001,0.190183,0.0160455,1.1461905,0.419283,0.0486955,1.2137205,0.162683,0.0400714999999999,0.8006705000000001,-0.020876,-0.0693565,1.2233905,-0.049766,-0.0404225,0.9330705,0.000245,0.0001225,1.0669295,-0.000245,-0.0001225,0.8680405,-0.324027,-0.0289824999999999,1.1367405,-0.344177,-0.0210584999999999,0.8114405,-0.691887,-0.0176934999999999,1.1956605,-0.7070270000000001,-0.0100515
4,1.0115154999999998,0.6936260000000001,0.0958469999999999,0.8549985,0.4284659999999999,0.043588,0.8014285,0.189736,0.015962,1.1461585,0.419166,0.049192,1.2136585,0.162636,0.04018,0.8006285,-0.021268,-0.069584,1.2233685,-0.049788,-0.040386,0.9331185,0.000275,2.500000000000072e-05,1.0668815,-0.0002749999999999,-2.500000000000072e-05,0.8679085,-0.324094,-0.0288599999999999,1.1365185,-0.344214,-0.0207969999999999,0.8126485,-0.686344,-0.0172589999999999,1.1953285,-0.710824,-0.008736
5,1.011765,0.6936045,0.09666,0.855056,0.4284245,0.043701,0.801456,0.1897144999999999,0.015978,1.146256,0.4190244999999999,0.049408,1.213656,0.1626445,0.0401829999999999,0.8007060000000001,-0.0212545,-0.069672,1.223366,-0.0497735,-0.040422,0.933128,0.0002625,8.599999999999927e-05,1.066872,-0.0002624999999999,-8.599999999999927e-05,0.867846,-0.3242055,-0.028863,1.136536,-0.3463555,-0.021044,0.8131260000000001,-0.6843155,-0.0170449999999999,1.194176,-0.7012355,-0.0091709999999999
6,1.0118284999999998,0.693518,0.0971925,0.8552325000000001,0.428278,0.0439185,0.8013825,0.189798,0.0160505,1.1460725,0.418898,0.0495465,1.2135625,0.162518,0.0402115,0.8008525,-0.021145,-0.0696825,1.2232925,-0.049863,-0.0404975,0.9331715,0.000239,5.250000000000046e-05,1.0668285,-0.000239,-5.250000000000046e-05,0.8677725000000001,-0.324052,-0.0287935,1.1357925,-0.345532,-0.0208464999999999,0.8128725,-0.684622,-0.0172534999999999,1.1939325,-0.702182,-0.0088135
7,1.0112565,0.693577,0.098763,0.8547425,0.427807,0.0447339999999999,0.8012925,0.189657,0.0162679999999999,1.1459925,0.418647,0.0503119999999999,1.2135025,0.162517,0.040447,0.8008125,-0.020829,-0.069994,1.2233725,-0.049601,-0.0407479999999999,0.9331655,0.000147,7.599999999999968e-05,1.0668345,-0.000147,-7.599999999999968e-05,0.8684025,-0.324363,-0.028588,1.1363225,-0.347693,-0.02124,0.8124625,-0.687893,-0.018074,1.1951725,-0.704443,-0.0096049999999999
8,1.0112809999999999,0.6935865000000001,0.099393,0.854756,0.4276765,0.045022,0.801256,0.1895565,0.016198,1.145996,0.4184565,0.050556,1.213496,0.1627165,0.040371,0.800806,-0.0206285,-0.0703169999999999,1.223396,-0.0490215,-0.0409819999999999,0.933188,0.0001345,6.000000000000103e-05,1.066812,-0.0001345,-5.999999999999756e-05,0.868546,-0.3257135,-0.0285539999999999,1.136346,-0.3475935,-0.0212979999999999,0.812446,-0.6882235,-0.0182229999999999,1.195166,-0.7038635,-0.0097589999999999
9,1.011326,0.6935735000000001,0.099961,0.85475,0.4275435,0.045252,0.80125,0.1895235,0.016093,1.146,0.4182635,0.050738,1.2135799999999999,0.1633135,0.040131,0.80082,-0.0200315,-0.070807,1.22349,-0.0484245,-0.0414969999999999,0.933192,0.0001074999999999,6.000000000000103e-05,1.066808,-0.0001074999999999,-5.999999999999756e-05,0.86876,-0.3273165,-0.028545,1.1364,-0.3464965,-0.0212959999999999,0.8125700000000001,-0.6878065,-0.0183909999999999,1.19519,-0.7032365,-0.009825
10,1.0113649999999998,0.6935605,0.1004535,0.854731,0.4274104999999999,0.0454845,0.801161,0.1901305,0.0158745,1.146021,0.4180704999999999,0.0509445,1.213851,0.1639205,0.0396565,0.800741,-0.0194245,-0.0716465,1.223861,-0.0478055,-0.0429694999999999,0.9331929999999999,7.949999999999971e-05,6.0500000000001525e-05,1.066807,-7.950000000000014e-05,-6.0499999999998055e-05,0.868981,-0.3285695,-0.0284955,1.136461,-0.3452895,-0.0212744999999999,0.8126810000000001,-0.6871594999999999,-0.0185644999999999,1.195271,-0.7028495,-0.0099124999999999
11,1.0114005,0.6935595000000001,0.1009405,0.8547275,0.4273395,0.0457405,0.8007275,0.1907295,0.0152365,1.1460875,0.4178595,0.0512105,1.2145775,0.1645194999999999,0.0388285,0.8000075,-0.0188255,-0.0735465,1.2258375,-0.0468154999999999,-0.0454995,0.9331995,2.7499999999999747e-05,6.0500000000001525e-05,1.0668005,-2.750000000000061e-05,-6.0499999999998055e-05,0.8692275,-0.3295405,-0.0283654999999999,1.1364375,-0.3446905,-0.0212575,0.8127975000000001,-0.6865905,-0.0187875,1.1953475,-0.7024205,-0.0099404999999999
12,1.011541,0.6935195000000001,0.1011305,0.854718,0.4273395,0.0457865,0.798848,0.1907295,0.0127265,1.1463079999999999,0.4176595,0.0513775,1.216808,0.1660595,0.0363915,0.795528,-0.0170105,-0.0806975,1.232658,-0.0428174999999999,-0.0517345,0.933245,2.7499999999999747e-05,5.849999999999953e-05,1.066755,-2.750000000000061e-05,-5.849999999999953e-05,0.869518,-0.3305205,-0.0282504999999999,1.136548,-0.3446905,-0.0213944999999999,0.812918,-0.6871404999999999,-0.0189864999999999,1.195518,-0.7022204999999999,-0.0101344999999999
13,1.0116615,0.6934795,0.1011815,0.8546275,0.4273395,0.0457464999999999,0.7955375,0.1911095,0.0082495,1.1466875,0.4175595,0.0516825,1.2203475,0.1691395,0.0328105,0.7901275,-0.0142865,-0.0896184999999999,1.2426675,-0.0362985,-0.0597325,0.9332885,2.7499999999999747e-05,-5.000000000005e-07,1.0667115,-2.750000000000061e-05,4.999999999970306e-07,0.8697775,-0.3307805,-0.0281235,1.1366675,-0.3441105,-0.0214765,0.8129075,-0.6877105,-0.0192215,1.1958475,-0.7035205,-0.0104255
14,1.011785,0.6934195000000001,0.1011565,0.8545680000000001,0.4273395,0.0456325,0.7915380000000001,0.1931594999999999,0.0026804999999999,1.147268,0.4175595,0.0520555,1.225298,0.1729595,0.0275125,0.7818579999999999,-0.0083195,-0.1013435,1.255638,-0.0279235,-0.0701074999999999,0.93333,2.7499999999999747e-05,-0.0001025,1.06667,-2.750000000000061e-05,0.0001024999999999,0.8700480000000002,-0.3310005,-0.0280755,1.136858,-0.3430505,-0.0216385,0.8129380000000002,-0.6881805,-0.0196155,1.196248,-0.7041405,-0.0108565
15,1.0119905,0.6933,0.1010129999999999,0.8546585,0.42731,0.045322,0.7870585,0.19699,-0.004261,1.1479785,0.41751,0.0524,1.2312485,0.17953,0.020992,0.7704185,0.002702,-0.117102,1.2714085,-0.01452,-0.0833319999999999,0.9333675,1.1000000000000593e-05,-0.0001779999999999,1.0666325,-1.0999999999999724e-05,0.000178,0.8702084999999999,-0.33118,-0.027935,1.1370585,-0.34113,-0.021802,0.8129485000000001,-0.68878,-0.0200969999999999,1.1966885,-0.70438,-0.0114309999999999
16,1.012221,0.6931569999999999,0.1007665,0.854688,0.427287,0.0449045,0.782028,0.203127,-0.0128415,1.148758,0.417427,0.0527445,1.238718,0.188517,0.0134825,0.757158,0.017614,-0.1353175,1.290178,0.0040349999999999,-0.0990875,0.933397,1.1999999999999858e-05,-0.0002774999999999,1.066603,-1.1999999999999858e-05,0.0002774999999999,0.870368,-0.331263,-0.0277954999999999,1.137358,-0.339103,-0.0220634999999999,0.813068,-0.689203,-0.0206334999999999,1.1973079999999998,-0.705033,-0.0120864999999999
17,1.012526,0.692843,0.1004849999999999,0.854665,0.427363,0.044379,0.775785,0.211123,-0.023072,1.149665,0.417303,0.053218,1.2474049999999999,0.198853,0.005228,0.741925,0.037667,-0.156956,1.311695,0.027473,-0.116896,0.933423,3.199999999999991e-05,-0.000396,1.066577,-3.200000000000078e-05,0.000396,0.8705550000000001,-0.331467,-0.027857,1.137735,-0.336927,-0.02239,0.8132750000000001,-0.689867,-0.021329,1.197895,-0.705707,-0.0129169999999999
18,1.012915,0.6924005,0.1001735,0.854627,0.4275605,0.0438085,0.768607,0.2206904999999999,-0.0343355,1.150707,0.4173005,0.0538224999999999,1.257547,0.2111305,-0.0036755,0.7251270000000001,0.0625815,-0.1807005,1.3358569999999999,0.0568975,-0.1361605,0.933434,9.250000000000012e-05,-0.0005425,1.066566,-9.24999999999997e-05,0.0005424999999999,0.870757,-0.3317394999999999,-0.0280445,1.138147,-0.3348195,-0.0227965,0.8133170000000001,-0.6908095000000001,-0.0221715,1.198527,-0.7055995,-0.0139485
19,1.013243,0.6918605,0.0998925,0.854549,0.4278205,0.0432505,0.760409,0.2319105,-0.0463144999999999,1.151799,0.4175104999999999,0.0546395,1.269459,0.2264905,-0.0129115,0.7063290000000001,0.0960695,-0.2058225,1.362199,0.0929025,-0.1550925,0.9334550000000001,0.0001444999999999,-0.0007645,1.0665449999999999,-0.0001445,0.0007645,0.8709290000000001,-0.3304695,-0.0283035,1.138519,-0.3324995,-0.0232714999999999,0.813219,-0.6920594999999999,-0.0231075,1.199099,-0.7054095,-0.0150774999999999
20,1.0134925,0.6912565,0.0996384999999999,0.8544335000000001,0.4281165,0.0426925,0.7503435,0.2462964999999999,-0.0585655,1.1529435000000001,0.4178265,0.0555995,1.2829735,0.2453665,-0.0218984999999999,0.6874635,0.1357165,-0.2311335,1.3887335,0.1341065,-0.1732135,0.9334795,0.0002074999999999,-0.0009734999999999,1.0665205,-0.0002075,0.0009735,0.8710335000000001,-0.3300735,-0.0286184999999999,1.1388435000000001,-0.3299835,-0.0237485,0.8131235,-0.6931035,-0.0239635,1.1996235,-0.7055435,-0.0162114999999999
21,1.0135785,0.69063,0.0993425,0.8541075000000001,0.42853,0.0420885,0.7400875,0.26425,-0.0693435,1.1539774999999999,0.41813,0.0565025,1.2964075,0.26689,-0.0295625,0.6719875,0.17798,-0.2515955,1.4117375,0.17859,-0.1876054999999999,0.9334905,0.000291,-0.0011834999999999,1.0665095,-0.0002909999999999,0.0011835,0.8710675,-0.32916,-0.0289694999999999,1.1390575,-0.32833,-0.0242524999999999,0.8128575,-0.69452,-0.0247994999999999,1.2000675,-0.70582,-0.0172765
22,1.0136225,0.6899195,0.0989345,0.8535604999999999,0.4290495,0.0412635,0.7311305,0.2860094999999999,-0.0806655,1.1549705000000001,0.4185195,0.0571755,1.3089205,0.2887395,-0.0362515,0.6548404999999999,0.2265694999999999,-0.2700955,1.4317605,0.2280094999999999,-0.1992355,0.9334965,0.0003985,-0.0013195,1.0665035,-0.0003985,0.0013195,0.8710205,-0.3284005,-0.0294145,1.1392705,-0.3272805,-0.0248625,0.8124905,-0.6963404999999999,-0.0256665,1.2003905,-0.7064205,-0.0183115
23,1.0136565,0.689083,0.0983349999999999,0.8528805,0.4300429999999999,0.040313,0.7228405,0.308233,-0.092044,1.1559605,0.419033,0.0576809999999999,1.3209105,0.314643,-0.0426249999999999,0.6402205000000001,0.278823,-0.283734,1.4499005,0.2831729999999999,-0.207114,0.9334995000000001,0.000568,-0.001388,1.0665004999999999,-0.0005679999999999,0.001388,0.8710005000000001,-0.328007,-0.02984,1.1394505,-0.326907,-0.025493,0.8121404999999999,-0.698037,-0.0265749999999999,1.2006305,-0.707137,-0.0192749999999999
24,1.0136755,0.688185,0.0975685,0.8521405000000001,0.431095,0.0394805,0.7148105,0.337335,-0.1002435,1.1570705000000001,0.419905,0.0581675,1.3314205000000001,0.343845,-0.0473045,0.6299405,0.335885,-0.2905135,1.4628904999999999,0.342515,-0.2094435,0.9335055,0.0006789999999999,-0.0014894999999999,1.0664945,-0.0006789999999999,0.0014895,0.8709005000000001,-0.327925,-0.0302985,1.1396205,-0.326915,-0.0260334999999999,0.8117105,-0.6998949999999999,-0.0273764999999999,1.2007305,-0.708005,-0.0201545
25,1.013696,0.687086,0.097022,0.851286,0.4325859999999999,0.038897,0.707786,0.3641959999999999,-0.1067309999999999,1.158386,0.421116,0.05859,1.3379459999999999,0.373786,-0.049687,0.623006,0.394876,-0.291421,1.468286,0.4024859999999999,-0.209751,0.933534,0.000789,-0.0017409999999999,1.066466,-0.000789,0.0017409999999999,0.8707960000000001,-0.328484,-0.030742,1.139696,-0.327234,-0.026385,0.811276,-0.702034,-0.027943,1.200726,-0.709094,-0.020773
26,1.013678,0.685758,0.096702,0.8505050000000001,0.4341879999999999,0.038403,0.702715,0.3921679999999999,-0.1105029999999999,1.159745,0.422578,0.058809,1.342845,0.404208,-0.050921,0.6213850000000001,0.454428,-0.291813,1.468715,0.465638,-0.210053,0.933593,0.0008849999999999,-0.002037,1.0664069999999999,-0.0008849999999999,0.002037,0.870655,-0.329242,-0.031068,1.139655,-0.327922,-0.0266599999999999,0.8107950000000002,-0.704302,-0.028283,1.200665,-0.710332,-0.0211
27,1.013601,0.684133,0.0964815,0.849822,0.436073,0.0378855,0.699262,0.423093,-0.1121255,1.160962,0.424223,0.0587865,1.345252,0.436543,-0.0510335,0.6212620000000001,0.513273,-0.2920355,1.4685920000000001,0.527753,-0.2102755,0.9337050000000001,0.000959,-0.0022495,1.066295,-0.000959,0.0022495,0.870532,-0.330297,-0.0312905,1.139532,-0.328977,-0.0268775,0.810352,-0.706767,-0.0285195,1.200542,-0.711807,-0.0213324999999999
28,1.0134555,0.682068,0.095702,0.8491715,0.438838,0.036839,0.6972715,0.456358,-0.112515,1.1619915,0.425798,0.058752,1.3450315,0.470438,-0.051123,0.6210415,0.572218,-0.292125,1.4681515,0.590188,-0.205455,0.9338705,0.0011139999999999,-0.0023219999999999,1.0661295,-0.001114,0.002322,0.8703115000000001,-0.332032,-0.03138,1.1393115,-0.330812,-0.0269669999999999,0.8098615,-0.7097519999999999,-0.028753,1.2002515,-0.713762,-0.021425
29,1.013281,0.6798955,0.0943015,0.848653,0.4418755,0.0356805,0.6969730000000001,0.4886054999999999,-0.1125385,1.162863,0.4273955,0.0587795,1.344733,0.5010955,-0.0511465,0.620413,0.6258255,-0.2845985,1.467463,0.6462155,-0.1965285,0.9340539999999999,0.0012624999999999,-0.0023245,1.065946,-0.0012625,0.0023245,0.870013,-0.3341745,-0.0314135,1.138993,-0.3328345,-0.0269914999999999,0.809333,-0.7130745,-0.0288494999999999,1.199883,-0.7159845,-0.0214515
30,1.0130215,0.6774885,0.092483,0.8483715000000001,0.4450885,0.034369,0.6966315000000001,0.5197785,-0.112482,1.1636715,0.4296385,0.058886,1.3443815,0.5287185,-0.050852,0.6202814999999999,0.6802585,-0.273522,1.4615615,0.6954485,-0.183592,0.9342705,0.0013385,-0.002387,1.0657295,-0.0013384999999999,0.002387,0.8696715000000002,-0.3367315,-0.031459,1.1386515,-0.3352315,-0.026935,0.8088115000000001,-0.7161915,-0.028679,1.1995115,-0.7184015,-0.021394
31,1.012767,0.674901,0.0902375,0.848082,0.448391,0.0329565,0.696272,0.548251,-0.1123205,1.164372,0.4316709999999999,0.0587725,1.343362,0.555931,-0.0494204999999999,0.623232,0.727551,-0.2594505,1.451612,0.738351,-0.1684304999999999,0.934519,0.00142,-0.0025535,1.065481,-0.0014199999999999,0.0025535,0.869312,-0.339679,-0.0315304999999999,1.138282,-0.338079,-0.0268124999999999,0.808272,-0.719339,-0.0283905,1.199072,-0.721029,-0.0212284999999999
32,1.0124975,0.672142,0.0876295,0.8477565,0.451042,0.0315385,0.6970165000000001,0.575722,-0.1107345,1.1649065,0.434322,0.0585705,1.3389365,0.580632,-0.0473095,0.6285165000000001,0.770072,-0.2414645,1.4369465,0.776562,-0.1516245,0.9348035,0.0014839999999999,-0.0028434999999999,1.0651965,-0.0014839999999999,0.0028435,0.8689264999999999,-0.342948,-0.0314925,1.1378365,-0.341098,-0.0266164999999999,0.8077865,-0.722308,-0.0281464999999999,1.1985165,-0.723968,-0.0209374999999999
33,1.0123515,0.669385,0.0845355,0.8477635,0.453795,0.0300605,0.7004535000000001,0.595515,-0.1080065,1.1653535,0.437145,0.0584615,1.3324835,0.6006349999999999,-0.0445355,0.6351935,0.8031849999999999,-0.2217665,1.4192835,0.8071149999999999,-0.1344665,0.9350975,0.0015869999999999,-0.0031535,1.0649025,-0.001587,0.0031535,0.8685735,-0.3464049999999999,-0.0314085,1.1372635,-0.3439549999999999,-0.0263815,0.8071835,-0.726985,-0.0277734999999999,1.1978635,-0.726825,-0.0203475
34,1.0123259999999998,0.66643,0.0811979999999999,0.848371,0.45624,0.028779,0.7048210000000001,0.61573,-0.101722,1.165551,0.4404,0.0584219999999999,1.3249309999999999,0.61748,-0.040987,0.647041,0.83043,-0.199952,1.398871,0.83224,-0.116492,0.9354169999999999,0.0016749999999999,-0.003554,1.064583,-0.001675,0.0035539999999999,0.868241,-0.3504,-0.031235,1.136681,-0.34695,-0.02607,0.8066409999999999,-0.73195,-0.027339,1.197131,-0.72971,-0.019597
35,1.0123959999999999,0.663355,0.0776495,0.8493450000000001,0.458585,0.0277375,0.7098450000000001,0.633595,-0.0935565,1.165605,0.443275,0.0583995,1.3157649999999999,0.6328250000000001,-0.0351685,0.659435,0.8517750000000001,-0.1799365,1.377195,0.858565,-0.0963365,0.935714,0.001815,-0.0040075,1.064286,-0.0018149999999999,0.0040075,0.8679250000000001,-0.3545049999999999,-0.0310815,1.136045,-0.349955,-0.0257315,0.8062450000000001,-0.736575,-0.0268635,1.1963949999999999,-0.732725,-0.0187845
36,1.012548,0.6602764999999999,0.0740005,0.850561,0.4606565,0.0268045,0.716091,0.6474465,-0.0865325,1.165661,0.4457965,0.0583935,1.3062909999999999,0.6445164999999999,-0.0292035,0.671431,0.8695765,-0.1615625,1.357321,0.8801065,-0.0779845,0.935988,0.0019775,-0.0044764999999999,1.064012,-0.0019775,0.0044765,0.867631,-0.3586135,-0.0309295,1.135421,-0.3529935,-0.0253605,0.8058910000000001,-0.7411535,-0.0263125,1.1957209999999998,-0.7357635,-0.0179355
37,1.012757,0.6573845,0.0705435,0.852105,0.4617644999999999,0.0264184999999999,0.722415,0.6591345000000001,-0.0789615,1.165765,0.4483344999999999,0.0583345,1.298625,0.6515445000000001,-0.0239695,0.682125,0.8804945000000001,-0.1458315,1.340995,0.8946845,-0.0623395,0.9362040000000001,0.0021205,-0.0048505,1.063796,-0.0021204999999999,0.0048504999999999,0.867395,-0.3621855,-0.0308415,1.134825,-0.3555555,-0.0251025,0.805605,-0.7451355,-0.0258605,1.195055,-0.7383255,-0.0171535
38,1.0130875,0.6543585000000001,0.067198,0.8538715,0.4624385000000001,0.026078,0.7284315,0.6695685,-0.071911,1.1657015,0.4512185000000001,0.058231,1.2907115,0.6579485,-0.018618,0.6896315,0.9005085,-0.1289509999999999,1.3259915,0.9094285,-0.046942,0.9363405,0.0022765,-0.0051129999999999,1.0636595,-0.0022764999999999,0.0051129999999999,0.8672115,-0.3654815,-0.030736,1.1342915,-0.3581415,-0.024804,0.8053615000000001,-0.7484115,-0.025339,1.1944515,-0.7409115,-0.016395
39,1.0137185,0.651411,0.0634995,0.8556355000000001,0.463051,0.0257305,0.7342854999999999,0.6783110000000001,-0.0654715,1.1656455000000001,0.452841,0.0580365,1.2830854999999999,0.6634310000000001,-0.0132474999999999,0.6971955000000001,0.914571,-0.1128955,1.3135155,0.923451,-0.0328925,0.9364285,0.002499,-0.0052555,1.0635715000000001,-0.0024989999999999,0.0052555,0.8671854999999999,-0.368369,-0.0307135,1.1338755,-0.360359,-0.0246535,0.8053355,-0.7512890000000001,-0.0249794999999999,1.1939955,-0.7430889999999999,-0.0157994999999999
40,1.0143639999999998,0.6486345,0.0598205,0.857166,0.4633145000000001,0.0254094999999999,0.739946,0.6847145,-0.0588445,1.165536,0.4548745,0.0582255,1.276016,0.6674445,-0.0078845,0.703746,0.9207745,-0.0962765,1.301326,0.9309245,-0.0183065,0.936542,0.0027025,-0.0053245,1.063458,-0.0027024999999999,0.0053244999999999,0.867176,-0.3705855,-0.0307735,1.133396,-0.3620854999999999,-0.0246385,0.805336,-0.7535155,-0.0246995,1.193536,-0.7450355,-0.0153534999999999
41,1.0149875,0.6460414999999999,0.0562555,0.8584395,0.4635515,0.0251945,0.7451295,0.6894315,-0.0525655,1.1653794999999998,0.4559814999999999,0.0584285,1.2695095,0.6691914999999999,-0.0025925,0.7089894999999999,0.9243515,-0.0809735,1.2912295,0.9360415,-0.0050715,0.9366675,0.0029544999999999,-0.0053794999999999,1.0633325,-0.0029545,0.0053794999999999,0.8671495,-0.3720985,-0.0308255,1.1328794999999998,-0.3636785,-0.0246064999999999,0.8053895,-0.7550485,-0.0244595,1.1930095,-0.7467085,-0.0148604999999999
42,1.015464,0.6429345,0.05316,0.859235,0.4638145,0.025395,0.750065,0.6935345,-0.0459549999999999,1.164295,0.4557744999999999,0.058749,1.263175,0.6694045,0.002804,0.713885,0.9284045,-0.065761,1.282335,0.9394545,0.00772,0.936787,0.0031735,-0.005344,1.063213,-0.0031734999999999,0.005344,0.867145,-0.3738754999999999,-0.0306929999999999,1.132435,-0.3658754999999999,-0.024389,0.8054749999999999,-0.7568455,-0.024089,1.192565,-0.7488955,-0.0144009999999999
43,1.0158825,0.639096,0.0500605,0.8596515,0.463456,0.0256475,0.7541815000000001,0.696456,-0.0400224999999999,1.1626414999999999,0.457276,0.0590885,1.2571515,0.670196,0.0076065,0.7190415,0.931476,-0.0525804999999999,1.2736115,0.941576,0.0190595,0.9368704999999999,0.0032169999999999,-0.0053024999999999,1.0631295,-0.0032169999999999,0.0053025,0.8672915,-0.375254,-0.0306234999999999,1.1319515,-0.368754,-0.0242135,0.8057515,-0.758274,-0.0237705,1.1921515,-0.751894,-0.0140624999999999
44,1.0163544999999998,0.634902,0.04718,0.8599075,0.462012,0.02589,0.7577175,0.697892,-0.034261,1.1609275000000001,0.4580419999999999,0.059439,1.2509175,0.670522,0.0123659999999999,0.7241875,0.933852,-0.039514,1.2651175000000001,0.937452,0.0270539999999999,0.9369655,0.0031759999999999,-0.005307,1.0630345,-0.003176,0.0053069999999999,0.8676375000000001,-0.376258,-0.030548,1.1314175,-0.371428,-0.024049,0.8062374999999999,-0.759318,-0.023463,1.1916175,-0.754568,-0.0137159999999999
45,1.01656,0.6304135,0.044465,0.859738,0.4594435,0.02613,0.760858,0.6982335000000001,-0.028301,1.158918,0.4580235,0.059858,1.245188,0.6702235,0.016633,0.7286779999999999,0.9344635,-0.027087,1.256978,0.9327635,0.034181,0.937163,0.0030735,-0.0053449999999999,1.062837,-0.0030734999999999,0.005345,0.867938,-0.3769665,-0.0304849999999999,1.130888,-0.3736665,-0.0239189999999999,0.806758,-0.7601565,-0.023416,1.191398,-0.7567665,-0.0134789999999999
46,1.0167895,0.6258589999999999,0.0420305,0.8596145,0.4575689999999999,0.0263045,0.7636045000000001,0.6964189999999999,-0.0227545,1.1569245,0.458409,0.0601354999999999,1.2400045,0.670159,0.0205815,0.7333645000000001,0.932899,-0.0143175,1.2493945,0.929399,0.0405065,0.9373375,0.0029389999999999,-0.0054594999999999,1.0626625,-0.002939,0.0054594999999999,0.8682945000000001,-0.377481,-0.0304555,1.1303144999999999,-0.375731,-0.0238315,0.8073745,-0.760721,-0.0233945,1.1911245,-0.758821,-0.0133765
47,1.016847,0.6213474999999999,0.039956,0.859468,0.4554975,0.026492,0.765968,0.6935175,-0.017288,1.154918,0.4583575,0.060475,1.235248,0.6700975,0.024405,0.738388,0.9287075,-0.006324,1.242638,0.9228075,0.045727,0.937506,0.0027784999999999,-0.0055389999999999,1.062494,-0.0027785,0.0055389999999999,0.868638,-0.3779125,-0.030402,1.1297279999999998,-0.3775825,-0.023759,0.807978,-0.7612725,-0.0233679999999999,1.190958,-0.7606525000000001,-0.013263
48,1.0168615,0.6172599999999999,0.0383375,0.8592755,0.4530799999999999,0.0268635,0.7680055,0.6901499999999999,-0.0117395,1.1528455,0.45858,0.0609855,1.2309955,0.6695099999999999,0.0280895,0.7431255,0.92482,0.0026435,1.2356655,0.91572,0.0508405,0.9376965,0.002609,-0.0055914999999999,1.0623035,-0.002609,0.0055914999999999,0.8692555000000001,-0.3782999999999999,-0.0304725,1.1292754999999999,-0.37943,-0.0238075,0.8091055,-0.7617700000000001,-0.0236105,1.1908455,-0.76253,-0.0133164999999999
49,1.016908,0.613283,0.0369725,0.858606,0.450693,0.0274585,0.769786,0.686843,-0.0065915,1.150776,0.459503,0.0619175,1.227206,0.669893,0.0316285,0.747906,0.920913,0.0100405,1.229566,0.908113,0.0551095,0.9379200000000001,0.0024329999999999,-0.0055934999999999,1.06208,-0.002433,0.0055935,0.869966,-0.378887,-0.0305024999999999,1.128896,-0.381277,-0.0238504999999999,0.810336,-0.762467,-0.0238434999999999,1.190716,-0.764367,-0.0133975
50,1.0169805,0.60956,0.0357619999999999,0.8578105,0.44842,0.0280389999999999,0.7713605,0.6838000000000001,-0.00157,1.1488905,0.46063,0.062999,1.2240305,0.6703100000000001,0.035098,0.7523205,0.9099,0.017068,1.2239205,0.9006,0.0601439999999999,0.9381205,0.0021899999999999,-0.005608,1.0618795,-0.0021899999999999,0.0056079999999999,0.8706605000000001,-0.37974,-0.03054,1.1285705,-0.38299,-0.023876,0.8114905,-0.7634299999999999,-0.024102,1.1906205,-0.7660399999999999,-0.013543
51,1.016956,0.6066549999999999,0.034612,0.856968,0.446155,0.028539,0.772308,0.681365,0.0030099999999999,1.147808,0.462625,0.064023,1.221088,0.671585,0.03851,0.755988,0.8996049999999999,0.023585,1.218468,0.894205,0.065679,0.938354,0.0019649999999999,-0.005642,1.061646,-0.0019649999999999,0.0056419999999999,0.871278,-0.380025,-0.030642,1.128238,-0.3840449999999999,-0.023953,0.8125180000000001,-0.7638050000000001,-0.024442,1.190348,-0.7670750000000001,-0.0138679999999999
52,1.0167585,0.605005,0.033626,0.8560995,0.445075,0.028975,0.7728895,0.679625,0.007481,1.1473395,0.4629150000000001,0.064613,1.2184195,0.672285,0.042073,0.7567895,0.8967050000000001,0.03046,1.2152195,0.8922050000000001,0.071453,0.9385985,0.001925,-0.0056469999999999,1.0614015,-0.0019249999999999,0.0056469999999999,0.8716794999999999,-0.380085,-0.030753,1.1279095,-0.384065,-0.02411,0.8132895,-0.763945,-0.0247359999999999,1.1900495,-0.767065,-0.014241
53,1.016558,0.6041049999999999,0.03276,0.855245,0.444615,0.029405,0.773145,0.678755,0.011529,1.146835,0.462725,0.065131,1.216625,0.6735850000000001,0.0449549999999999,0.757565,0.894995,0.037847,1.211855,0.891295,0.0774779999999999,0.938763,0.001915,-0.0056329999999999,1.061237,-0.001915,0.0056329999999999,0.871915,-0.380065,-0.0308729999999999,1.127655,-0.384065,-0.024313,0.8139149999999999,-0.7639149999999999,-0.0250169999999999,1.189785,-0.767055,-0.014627
54,1.016395,0.6031099999999999,0.0319725,0.8544229999999999,0.44412,0.0297494999999999,0.773073,0.6784699999999999,0.0150564999999999,1.146353,0.46241,0.0655465,1.2150429999999999,0.6745399999999999,0.0477925,0.758333,0.8936,0.0460725,1.208573,0.8903999999999999,0.0835745,0.938846,0.00193,-0.0057445,1.061154,-0.00193,0.0057445,0.872143,-0.3800199999999999,-0.0310545,1.127443,-0.38414,-0.0245745,0.814493,-0.7639100000000001,-0.0253005,1.189533,-0.76715,-0.0152365
55,1.0163185,0.602325,0.0312505,0.8536615000000001,0.443685,0.0302155,0.7730215,0.678495,0.0184215,1.1459815,0.461925,0.0659565,1.2137015,0.675645,0.0505585,0.7588515,0.893415,0.0531144999999999,1.2058815,0.890915,0.0892284999999999,0.9389535,0.001915,-0.0058614999999999,1.0610465,-0.001915,0.0058614999999999,0.8724415,-0.380065,-0.0312425,1.1273615,-0.384105,-0.0248255,0.8150915,-0.764005,-0.0255714999999999,1.1893815,-0.767115,-0.0157145
56,1.016232,0.601695,0.0305955,0.8528640000000001,0.443575,0.0308575,0.772954,0.6786650000000001,0.0218435,1.1456439999999999,0.461675,0.0664075,1.212464,0.6768850000000001,0.0532635,0.7594339999999999,0.893465,0.0592455,1.2031939999999999,0.8916649999999999,0.0945695,0.939077,0.001875,-0.0059815,1.060923,-0.001875,0.0059815,0.872764,-0.380085,-0.0314045,1.127304,-0.3840949999999999,-0.0250635,0.815664,-0.763965,-0.0258375,1.1894339999999999,-0.767125,-0.0161755
57,1.0161684999999998,0.601415,0.029944,0.8523915,0.4435249999999999,0.031262,0.7729315,0.678435,0.024577,1.1454914999999999,0.461315,0.066566,1.2115915,0.677975,0.055262,0.7622015,0.8932049999999999,0.063567,1.2013315,0.892205,0.098787,0.9391805,0.001835,-0.0061329999999999,1.0608195,-0.001835,0.0061329999999999,0.8729215,-0.380115,-0.031651,1.1272915000000001,-0.384065,-0.0253179999999999,0.8157615,-0.763985,-0.026091,1.1894615,-0.767095,-0.016517
58,1.0161635,0.6012000000000001,0.0293505,0.8521835,0.4436299999999999,0.0315355,0.7727634999999999,0.67821,0.0271225,1.1454835,0.46068,0.0664825,1.2108835,0.6781400000000001,0.0568685,0.7649435,0.89299,0.0674925,1.1996935,0.89239,0.1019434999999999,0.9392175,0.00179,-0.0062025,1.0607825,-0.00179,0.0062025,0.8729835,-0.38022,-0.0319045,1.1272834999999999,-0.38399,-0.0255744999999999,0.8158235,-0.76413,-0.0263454999999999,1.1894535,-0.76705,-0.0168474999999999
59,1.016143,0.6010150000000001,0.0288485,0.8519369999999999,0.443895,0.0317695,0.772597,0.678025,0.0291925,1.145397,0.460285,0.0663005,1.210177,0.678465,0.0582345,0.767667,0.892805,0.0703205,1.198157,0.892605,0.1039684999999999,0.939263,0.001755,-0.0062835,1.060737,-0.0017549999999999,0.0062835,0.873067,-0.380325,-0.0322655,1.127257,-0.3839249999999999,-0.0259405,0.815857,-0.7642749999999999,-0.0267325,1.189427,-0.7669849999999999,-0.0172135
60,1.016137,0.600835,0.028214,0.851866,0.444245,0.031848,0.772536,0.6780349999999999,0.030487,1.1455359999999999,0.461395,0.066055,1.209636,0.678715,0.058974,0.7703860000000001,0.8929250000000001,0.07191,1.196826,0.8928249999999999,0.104714,0.939335,0.001735,-0.0063609999999999,1.060665,-0.001735,0.0063609999999999,0.8731260000000001,-0.380355,-0.032618,1.127146,-0.383935,-0.0263279999999999,0.815796,-0.764275,-0.0270499999999999,1.189206,-0.767015,-0.01763
61,1.016094,0.6005149999999999,0.0274934999999999,0.851718,0.443835,0.0318815,0.772388,0.677815,0.0313305,1.145418,0.460725,0.0656974999999999,1.209048,0.678835,0.0593845,0.773038,0.892715,0.0725345,1.195418,0.892615,0.1048625,0.939389,0.001735,-0.0064405,1.060611,-0.001735,0.0064404999999999,0.8731280000000001,-0.3803749999999999,-0.0330885,1.126978,-0.383955,-0.0267975,0.815618,-0.7642650000000001,-0.0274795,1.188908,-0.767065,-0.0181595
62,1.016154,0.60019,0.0266705,0.851614,0.44372,0.0317815,0.772324,0.67756,0.0318085,1.145374,0.45997,0.0652005,1.208574,0.67887,0.0594375,0.7756540000000001,0.8926000000000001,0.0721904999999999,1.194154,0.8925000000000001,0.1042885,0.9394200000000001,0.00174,-0.0065174999999999,1.0605799999999999,-0.0017399999999999,0.0065174999999999,0.8732139999999999,-0.3804,-0.0336905,1.1268340000000001,-0.38398,-0.0273655,0.815454,-0.76427,-0.0280295,1.188664,-0.76712,-0.0187654999999999
63,1.016546,0.59956,0.0259285,0.851519,0.4438499999999999,0.0316365,0.7724690000000001,0.67733,0.0318725,1.145579,0.4583699999999999,0.0646575,1.2083490000000001,0.6788,0.0592305,0.778449,0.8925000000000001,0.0715955,1.192969,0.8923999999999999,0.1036255,0.939423,0.0017699999999999,-0.0065544999999999,1.060577,-0.00177,0.0065545,0.873299,-0.38041,-0.0341254999999999,1.126609,-0.38407,-0.0277994999999999,0.815199,-0.7642300000000001,-0.0282795,1.188339,-0.7672300000000001,-0.0190914999999999
64,1.016916,0.598975,0.0251445,0.851473,0.444185,0.0312845,0.772603,0.677165,0.0315465,1.1459929999999998,0.456995,0.0640455,1.208083,0.6789350000000001,0.0586675,0.781323,0.8925049999999999,0.0708635,1.1919629999999999,0.8927049999999999,0.1027245,0.939458,0.001805,-0.0065955,1.060542,-0.001805,0.0065955,0.873383,-0.380395,-0.0345535,1.126383,-0.384155,-0.0282434999999999,0.814973,-0.764175,-0.0286395,1.188013,-0.7673350000000001,-0.0195645
65,1.0172025,0.59835,0.0243325,0.8514795,0.44435,0.0306885,0.7727495,0.67701,0.0307455,1.1464495000000001,0.4558799999999999,0.0633165,1.2078595,0.67897,0.0577025,0.7841195,0.89264,0.0700305,1.1912495,0.89294,0.1017375,0.9395435000000001,0.00185,-0.0066295,1.0604565,-0.00185,0.0066295,0.8734695,-0.38038,-0.0350185,1.1261895,-0.38425,-0.0287334999999999,0.8147995,-0.76411,-0.0290814999999999,1.1876795,-0.76745,-0.0200605
66,1.0176175,0.5974,0.0233869999999999,0.8513975000000001,0.44453,0.030208,0.7729775,0.67659,0.029662,1.1471575,0.4537599999999999,0.062943,1.2077175,0.67875,0.056584,0.7849475000000001,0.89246,0.067557,1.1907075,0.89306,0.100497,0.9395825,0.00193,-0.006605,1.0604175,-0.00193,0.006605,0.8736575,-0.38034,-0.035576,1.1260474999999999,-0.38437,-0.029287,0.8147375,-0.76403,-0.0296659999999999,1.1873775,-0.7676000000000001,-0.020526
67,1.017995,0.59634,0.022298,0.8513660000000001,0.4445599999999999,0.02955,0.7732060000000001,0.67606,0.028429,1.148166,0.4536,0.06251,1.207536,0.67881,0.055322,0.785756,0.8922000000000001,0.06488,1.190266,0.8935,0.098378,0.939624,0.0020099999999999,-0.006494,1.060376,-0.0020099999999999,0.006494,0.873856,-0.38029,-0.036225,1.125906,-0.3845,-0.0299229999999999,0.814716,-0.76395,-0.0303859999999999,1.1870859999999999,-0.76776,-0.021233
68,1.0183035,0.5951649999999999,0.0211455,0.8514095,0.444485,0.0288235,0.7734395000000001,0.675475,0.0271325,1.1488495,0.4526949999999999,0.0618965,1.2072895,0.678325,0.0539935,0.7865795000000001,0.8917849999999999,0.0619905,1.1899495,0.893385,0.0957405,0.9396385,0.0020849999999999,-0.0063154999999999,1.0603615,-0.002085,0.0063155,0.8740395,-0.380245,-0.0368575,1.1257795,-0.384595,-0.0305235,0.8146595,-0.763865,-0.0311525,1.1867895,-0.7679050000000001,-0.0220005
69,1.0185235,0.593855,0.019829,0.8513985,0.444815,0.028239,0.7736685,0.6747749999999999,0.0256069999999999,1.1495185,0.4520249999999999,0.060961,1.2069485,0.6777550000000001,0.052371,0.7874085,0.8914150000000001,0.058847,1.1896585,0.8932150000000001,0.092562,0.9396405,0.002145,-0.006107,1.0603595,-0.0021449999999999,0.006107,0.8741885,-0.380225,-0.037568,1.1256485,-0.384695,-0.031201,0.8145685,-0.763835,-0.03201,1.1864685,-0.7680549999999999,-0.022828
70,1.018819,0.592635,0.01844,0.851404,0.445275,0.027622,0.773884,0.674165,0.023927,1.150264,0.452875,0.05999,1.206624,0.677445,0.050591,0.788214,0.891175,0.0555979999999999,1.189374,0.893275,0.089116,0.939631,0.0021849999999999,-0.005971,1.060369,-0.002185,0.005971,0.874344,-0.380225,-0.038235,1.125474,-0.384755,-0.031839,0.814524,-0.763815,-0.0328969999999999,1.186164,-0.768175,-0.0237089999999999
71,1.019177,0.5913900000000001,0.01713,0.851421,0.44581,0.027108,0.774151,0.6734600000000001,0.022289,1.150271,0.45331,0.059127,1.206181,0.67712,0.048571,0.789081,0.89082,0.052478,1.189161,0.8934200000000001,0.085471,0.9396010000000001,0.00225,-0.005848,1.0603989999999999,-0.00225,0.005848,0.8744810000000001,-0.3802099999999999,-0.038748,1.125351,-0.38485,-0.03225,0.814521,-0.76378,-0.03367,1.185891,-0.7683,-0.024512
72,1.0193699999999999,0.590805,0.0155944999999999,0.851437,0.4463249999999999,0.0265615,0.774207,0.672875,0.0208105,1.150577,0.455025,0.0580505,1.205617,0.677125,0.0465725,0.789197,0.8903349999999999,0.0496085,1.188977,0.893635,0.0820675,0.939593,0.0022549999999999,-0.0058025,1.060407,-0.002255,0.0058024999999999,0.874657,-0.380245,-0.0394525,1.1253369999999998,-0.384835,-0.0328225,0.814567,-0.763825,-0.0348225,1.1858469999999999,-0.768305,-0.0256414999999999
73,1.019617,0.58995,0.014011,0.8514889999999999,0.44671,0.026012,0.7742990000000001,0.6720200000000001,0.019279,1.150649,0.45588,0.0569019999999999,1.204979,0.67689,0.044301,0.7893490000000001,0.88958,0.046688,1.188849,0.8933799999999998,0.078343,0.9395930000000001,0.0022799999999999,-0.0057179999999999,1.0604069999999999,-0.00228,0.005718,0.874879,-0.38027,-0.040231,1.125339,-0.38487,-0.03342,0.814639,-0.76387,-0.036027,1.185759,-0.7683800000000001,-0.026765
74,1.019852,0.58914,0.0124485,0.851549,0.44732,0.0254985,0.774409,0.6712100000000001,0.0176615,1.150739,0.45592,0.0557605,1.204289,0.6766000000000001,0.0418245,0.789519,0.8887700000000001,0.0435415,1.188659,0.89327,0.0740295,0.939605,0.00234,-0.0055645,1.060395,-0.0023399999999999,0.0055645,0.875129,-0.3802999999999999,-0.0409675,1.125379,-0.38488,-0.0339774999999999,0.814729,-0.7639499999999999,-0.0372095,1.185809,-0.76843,-0.0279974999999999
75,1.020081,0.5880099999999999,0.0111635,0.851459,0.44801,0.0247605,0.774539,0.67048,0.0160585,1.150469,0.45577,0.0544545,1.203309,0.67669,0.0390365,0.788719,0.8882300000000001,0.0398035,1.188389,0.8935299999999999,0.0690935,0.939596,0.0023499999999999,-0.0053805,1.060404,-0.0023499999999999,0.0053805,0.875389,-0.3803499999999999,-0.0415895,1.125539,-0.38485,-0.0344585,0.815059,-0.7640600000000001,-0.0382925,1.185889,-0.76847,-0.0290935
76,1.0201565,0.5871850000000001,0.009833,0.8513315000000001,0.448565,0.023753,0.7747515,0.6698850000000001,0.014308,1.1499415,0.455445,0.053205,1.2022215,0.676995,0.035973,0.7877815000000001,0.8879050000000002,0.03623,1.1881415,0.8940050000000002,0.06397,0.9395845,0.0023549999999999,-0.0052689999999999,1.0604155,-0.0023549999999999,0.005269,0.8755815,-0.380405,-0.042098,1.1257115,-0.384815,-0.034849,0.8154315,-0.7641849999999999,-0.039311,1.1859315,-0.7684949999999999,-0.030215
77,1.020195,0.5864450000000001,0.008464,0.851216,0.448895,0.022546,0.774976,0.6690050000000001,0.012402,1.149626,0.455275,0.051989,1.2009859999999999,0.6774450000000001,0.032689,0.786606,0.887335,0.032845,1.187716,0.8946350000000001,0.058586,0.9395730000000001,0.002345,-0.005234,1.0604269999999998,-0.0023449999999999,0.005234,0.875746,-0.380455,-0.0425759999999999,1.1258759999999999,-0.384755,-0.035274,0.815836,-0.764305,-0.040315,1.186016,-0.768505,-0.031394
78,1.0203045,0.585825,0.007006,0.8512335,0.448835,0.021449,0.7752435,0.668035,0.010297,1.1487034999999999,0.453165,0.050458,1.1998935,0.677235,0.029035,0.7857535000000001,0.886675,0.029062,1.1873035,0.895075,0.053528,0.9395195,0.0023249999999999,-0.005219,1.0604805,-0.0023249999999999,0.005219,0.8759335,-0.380505,-0.042966,1.1260935,-0.384685,-0.035556,0.8162035,-0.764365,-0.041267,1.1861835,-0.768475,-0.03246
79,1.0201195,0.585165,0.0054889999999999,0.8511565,0.448835,0.020352,0.7754765,0.667035,0.0076739999999999,1.1481465,0.451065,0.048602,1.1985765,0.677135,0.024768,0.7850165,0.8860750000000001,0.024735,1.1868465,0.8954749999999999,0.048073,0.9394275,0.0023249999999999,-0.005103,1.0605725,-0.0023249999999999,0.005103,0.8760765000000001,-0.380505,-0.043392,1.1262964999999998,-0.384685,-0.035882,0.8163765000000001,-0.764365,-0.042352,1.1863564999999998,-0.768475,-0.033545
80,1.019592,0.584355,0.0037649999999999,0.851075,0.448835,0.019095,0.775825,0.665895,0.00428,1.148175,0.449065,0.046528,1.1973349999999998,0.677165,0.01983,0.784255,0.8852749999999999,0.019601,1.186315,0.8960750000000001,0.041719,0.93926,0.0023249999999999,-0.004967,1.06074,-0.0023249999999999,0.004967,0.876185,-0.380505,-0.04393,1.126525,-0.384685,-0.036413,0.816535,-0.764365,-0.043528,1.186545,-0.768475,-0.034719
81,1.019141,0.5836250000000001,0.00184,0.85103,0.448555,0.017136,0.7764,0.664765,8.600000000000003e-05,1.1482899999999998,0.448995,0.04427,1.19624,0.677195,0.01415,0.78328,0.8852949999999999,0.013269,1.18568,0.896395,0.033963,0.939066,0.002305,-0.004703,1.060934,-0.002305,0.004703,0.87625,-0.380525,-0.044553,1.12684,-0.384675,-0.037035,0.81672,-0.764435,-0.044823,1.18674,-0.768485,-0.03609
82,1.0188335,0.583205,-0.0005084999999999,0.8511235,0.448655,0.0145595,0.7773435,0.663945,-0.0052534999999999,1.1485035,0.447195,0.0414984999999999,1.1952635,0.678005,0.0076235,0.7826535,0.884835,0.0055925,1.1851135,0.897535,0.0251825,0.9388785,0.002385,-0.0047244999999999,1.0611215,-0.0023849999999999,0.0047244999999999,0.8762335,-0.380445,-0.0454445,1.1273835,-0.384665,-0.0379665,0.8169935,-0.764425,-0.0464475,1.1871335,-0.768525,-0.0378155
83,1.0193665,0.58268,-0.004372,0.8513345,0.4484399999999999,0.0108779999999999,0.7785745,0.6622199999999999,-0.013439,1.1489245,0.4485399999999999,0.037499,1.1941745,0.67908,-0.001457,0.7834045000000001,0.8843699999999999,-0.005847,1.1839145,0.8986699999999999,0.012327,0.9387485,0.0024099999999999,-0.004567,1.0612515,-0.0024099999999999,0.004567,0.8759145,-0.38033,-0.046795,1.1281245,-0.38454,-0.039573,0.8170745,-0.7644000000000001,-0.048895,1.1877345,-0.7684500000000001,-0.040388
84,1.019907,0.5824,-0.0087295,0.851545,0.4483,0.0068505,0.779815,0.66047,-0.0224855,1.149275,0.44965,0.0332865,1.1928949999999998,0.67987,-0.0117454999999999,0.784235,0.8830499999999999,-0.0185024999999999,1.1825949999999998,0.8994500000000001,-0.0010365,0.938693,0.0024599999999999,-0.0043575,1.061307,-0.00246,0.0043575,0.875375,-0.38015,-0.0485064999999999,1.128945,-0.38438,-0.0414815,0.816955,-0.76431,-0.0516685,1.188355,-0.76835,-0.0431815
85,1.019378,0.5822799999999999,-0.0136929999999999,0.851871,0.44822,0.002202,0.781301,0.65926,-0.0326869999999999,1.149591,0.44932,0.02861,1.1918009999999999,0.6810499999999999,-0.0234689999999999,0.785121,0.8819299999999999,-0.033497,1.181101,0.90063,-0.0163239999999999,0.938665,0.0025399999999999,-0.0040769999999999,1.061335,-0.00254,0.004077,0.874521,-0.37984,-0.050973,1.130061,-0.38413,-0.0438599999999999,0.816601,-0.7641100000000001,-0.054814,1.189111,-0.7681899999999999,-0.046361
86,1.01898,0.579535,-0.0222425,0.8523540000000001,0.4475949999999999,-0.0043934999999999,0.782884,0.658555,-0.0442525,1.150374,0.4483049999999999,0.0193095,1.191144,0.682295,-0.0362834999999999,0.786484,0.880175,-0.0528525,1.180054,0.901875,-0.0330035,0.938605,0.0026149999999999,-0.0038094999999999,1.061395,-0.002615,0.0038095,0.873474,-0.379475,-0.0539295,1.1313939999999998,-0.383845,-0.0467115,0.8161039999999999,-0.763805,-0.0585865,1.1900439999999999,-0.767975,-0.0500155
87,1.018531,0.576955,-0.031114,0.8528169999999999,0.4469149999999999,-0.011442,0.784127,0.657945,-0.057019,1.150877,0.447515,0.0096659999999999,1.190737,0.683335,-0.05012,0.788857,0.8791850000000001,-0.07222,1.179057,0.903185,-0.051278,0.938574,0.002695,-0.003537,1.061426,-0.002695,0.0035369999999999,0.872097,-0.378915,-0.057252,1.132997,-0.383445,-0.049905,0.815177,-0.763305,-0.063434,1.191147,-0.767665,-0.0541839999999999
88,1.017912,0.573045,-0.0415424999999999,0.853473,0.4459649999999999,-0.0185335,0.785433,0.657595,-0.0708565,1.152073,0.4474749999999999,4.24999999999974e-05,1.191463,0.682465,-0.0650945,0.791143,0.8786349999999999,-0.0915375,1.1786029999999998,0.902435,-0.0705625,0.938481,0.002805,-0.0033615,1.061519,-0.0028049999999999,0.0033615,0.869803,-0.378035,-0.0609875,1.134833,-0.382885,-0.0534605,0.813963,-0.762565,-0.0687935,1.192453,-0.767185,-0.0590555
89,1.0171135,0.569605,-0.0537625,0.8539685000000001,0.4433250000000001,-0.0293155,0.7862185000000002,0.6610250000000001,-0.0867825,1.1540085,0.448805,-0.0111905,1.1919085,0.684845,-0.0808045,0.7933885,0.881835,-0.1114535,1.1786385,0.904925,-0.0914435,0.9384844999999999,0.002895,-0.0034994999999999,1.0615155,-0.0028949999999999,0.0034994999999999,0.8660285,-0.375275,-0.0660345,1.1377385,-0.379735,-0.0580355,0.8115384999999999,-0.7599849999999999,-0.0756925,1.1947185,-0.7641049999999999,-0.0656684999999999
90,1.016732,0.5665,-0.066045,0.854944,0.44105,-0.03977,0.787494,0.65702,-0.1028999999999999,1.154634,0.4511900000000001,-0.022285,1.192614,0.6867000000000001,-0.0962949999999999,0.795174,0.87787,-0.130266,1.179174,0.90688,-0.1114899999999999,0.938469,0.00289,-0.003689,1.061531,-0.0028899999999999,0.003689,0.8606739999999999,-0.37319,-0.072397,1.1410339999999999,-0.3765199999999999,-0.063015,0.808404,-0.7584799999999999,-0.083266,1.197464,-0.76096,-0.072639
91,1.0161745,0.5610355,-0.0789245,0.8562125,0.4391655,-0.0496435,0.7883325000000001,0.6535955,-0.1177265,1.1552725,0.4544455,-0.0326935,1.1934925,0.6853355000000001,-0.1121475,0.7971125,0.8743155,-0.1476375,1.1797024999999999,0.9056655,-0.1298795,0.9384115,0.0028455,-0.0036355,1.0615885,-0.0028455,0.0036355,0.8549625000000001,-0.3709045,-0.0787825,1.1462625,-0.3738645,-0.0711355,0.8050725,-0.7551144999999999,-0.0907815,1.2004725,-0.7568245,-0.0797025
92,1.0156005,0.553679,-0.090844,0.8568025,0.4360689999999999,-0.0594669999999999,0.7894525,0.649559,-0.1309239999999999,1.1559725,0.454819,-0.0433,1.1943525,0.683029,-0.125784,0.8002525,0.869219,-0.1610349999999999,1.1805825,0.903959,-0.144055,0.9384145,0.00307,-0.0038039999999999,1.0615855,-0.0030699999999999,0.003804,0.8489325,-0.3677709999999999,-0.086009,1.1518125,-0.371201,-0.078958,0.8017725,-0.749631,-0.097809,1.2035325000000001,-0.751331,-0.0869429999999999
93,1.0155535,0.5496145,-0.102302,0.8576795,0.4340545,-0.0690689999999999,0.7909495,0.6506145,-0.1436009999999999,1.1570795,0.4528345,-0.0536129999999999,1.1955095,0.6849645,-0.137691,0.8022195,0.8701245,-0.173361,1.1817595,0.9069045,-0.157721,0.9380215,0.0028244999999999,-0.0040919999999999,1.0619785,-0.0028245,0.0040919999999999,0.8423895,-0.3621655,-0.0939049999999999,1.1581795,-0.3652755,-0.087179,0.7986695,-0.7385355,-0.105178,1.2071895,-0.7407755,-0.094748
94,1.016346,0.544864,-0.1131625,0.858738,0.432034,-0.0783465,0.792588,0.647294,-0.1551415,1.1578179999999998,0.4517840000000001,-0.0638035,1.197058,0.684984,-0.1486615,0.804298,0.867214,-0.1858515,1.183118,0.906944,-0.1705315,0.937577,0.002583,-0.0044485,1.062423,-0.0025829999999999,0.0044485,0.835978,-0.355676,-0.1019485,1.164418,-0.357996,-0.0952675,0.795608,-0.726866,-0.1124614999999999,1.210858,-0.729266,-0.1013915
95,1.0173655,0.5432355,-0.120336,0.8607914999999999,0.4293754999999999,-0.086293,0.7941715,0.6436555,-0.165101,1.1579415,0.4500555,-0.069449,1.1990414999999999,0.6854755,-0.158931,0.8060515,0.8659055,-0.196311,1.1850815,0.9074955,-0.181471,0.9371455,0.0024295,-0.004809,1.0628545,-0.0024295,0.004809,0.8297915,-0.3479945,-0.11026,1.1706015,-0.3492745,-0.103118,0.7922715,-0.7140544999999999,-0.120151,1.2145715,-0.7163845,-0.108164
96,1.0183075,0.5398755,-0.127277,0.8630835,0.4269955,-0.094514,0.7953635,0.6404555,-0.17477,1.1580935,0.4458155,-0.075581,1.2016235,0.6861355,-0.16835,0.8074735,0.8669055,-0.20667,1.1874235,0.9079255,-0.19289,0.9367905,0.0026095,-0.005067,1.0632095,-0.0026094999999999,0.0050669999999999,0.8236035000000002,-0.3380845,-0.11889,1.1766334999999999,-0.3384545,-0.111018,0.7892335,-0.6994645,-0.126786,1.2182935,-0.7023145,-0.114557
97,1.0198889999999998,0.5388105,-0.1354555,0.865819,0.4243404999999999,-0.1051755,0.797119,0.6367404999999999,-0.1864934999999999,1.158499,0.4415004999999999,-0.0838565,1.204769,0.6810605,-0.1784235,0.809289,0.8674405,-0.2200535,1.190739,0.9053705,-0.2059035,0.936659,0.0026084999999999,-0.0051464999999999,1.063341,-0.0026085,0.0051465,0.818449,-0.3260695,-0.1294215,1.182719,-0.3251495,-0.1210654999999999,0.7866690000000001,-0.6822495000000001,-0.1353995,1.222139,-0.6886895000000001,-0.1228455
98,1.0220935,0.5447255000000001,-0.142645,0.8730505,0.4308255,-0.115408,0.7992605,0.6384455,-0.196577,1.1574005,0.4355555,-0.090794,1.2084605,0.6749955000000001,-0.187497,0.8100305,0.8732555000000001,-0.233067,1.1946605,0.9080855,-0.216937,0.9359755,0.0030244999999999,-0.004734,1.0640245,-0.0030244999999999,0.0047339999999999,0.8140205,-0.3068145,-0.142048,1.1916304999999998,-0.3052145,-0.1359179999999999,0.7859705,-0.6606945,-0.142895,1.2257605,-0.6686945,-0.129907
99,1.023453,0.5513635,-0.150077,0.878872,0.4379834999999999,-0.126241,0.800782,0.6409635,-0.2070449999999999,1.156282,0.4297434999999999,-0.098291,1.211312,0.6699935,-0.1966649999999999,0.8103819999999999,0.8754934999999999,-0.246705,1.197822,0.9118635,-0.2282549999999999,0.936158,0.0041374999999999,-0.004359,1.063842,-0.0041375,0.0043589999999999,0.810142,-0.2862165,-0.154325,1.199412,-0.2844765,-0.150955,0.785362,-0.6384065,-0.1492129999999999,1.228212,-0.6477965,-0.137126
100,1.0240665,0.5589500000000001,-0.15714,0.8845805,0.44067,-0.137541,0.8020105000000001,0.64263,-0.218299,1.1550105,0.42099,-0.106638,1.2138705,0.66917,-0.205809,0.8113305,0.87696,-0.260419,1.2011705,0.91071,-0.241799,0.9363445,0.004774,-0.0040229999999999,1.0636555,-0.004774,0.0040229999999999,0.8058705000000002,-0.26386,-0.168539,1.2059505,-0.26106,-0.163359,0.7851405000000001,-0.61446,-0.155318,1.2304005,-0.6246499999999999,-0.14398
101,1.0244685,0.568025,-0.1644709999999999,0.8857235,0.445945,-0.148531,0.8026535000000001,0.646125,-0.229841,1.1536435,0.416475,-0.1145539999999999,1.2163035,0.663785,-0.2152609999999999,0.8120635,0.880945,-0.275141,1.2042135,0.909605,-0.255571,0.9366705,0.005085,-0.0036459999999999,1.0633295,-0.0050849999999999,0.0036459999999999,0.8017035,-0.240625,-0.182671,1.2127135,-0.236805,-0.177091,0.7849835000000001,-0.589255,-0.1616119999999999,1.2322435,-0.600295,-0.150453
102,1.0245145,0.570425,-0.172409,0.8870895,0.448285,-0.160141,0.8033395,0.643655,-0.242949,1.1518995,0.413215,-0.123788,1.2185195,0.658385,-0.226959,0.8124795000000001,0.883705,-0.293119,1.2071095,0.908155,-0.271579,0.9371505,0.005495,-0.003642,1.0628495,-0.005495,0.0036419999999999,0.7971895,-0.215835,-0.198109,1.2198395,-0.211305,-0.191819,0.7849895,-0.5649150000000001,-0.167474,1.2334895,-0.576065,-0.1570679999999999
103,1.0247445,0.574535,-0.180016,0.8905885,0.450385,-0.171317,0.8037285000000001,0.6444650000000001,-0.256146,1.1505985,0.410785,-0.132624,1.2200385,0.648845,-0.237516,0.8129085,0.892805,-0.308546,1.2101085,0.907095,-0.286376,0.9376335,0.006025,-0.003608,1.0623665,-0.0060249999999999,0.003608,0.7925085000000001,-0.190245,-0.213306,1.2272285,-0.1850049999999999,-0.206336,0.7857085,-0.539245,-0.172861,1.2345685,-0.5493049999999999,-0.162439
104,1.025466,0.57742,-0.187894,0.892234,0.45018,-0.181764,0.804684,0.64317,-0.269434,1.1490339999999999,0.41083,-0.142067,1.221704,0.64208,-0.247704,0.813084,0.89842,-0.322244,1.213104,0.90354,-0.302384,0.9380100000000001,0.0054,-0.003572,1.06199,-0.0053999999999999,0.0035719999999999,0.787404,-0.1632699999999999,-0.229024,1.235184,-0.15785,-0.221174,0.786314,-0.51167,-0.178079,1.235434,-0.52183,-0.167646
105,1.0257299999999998,0.582145,-0.195078,0.893186,0.450665,-0.191678,0.804296,0.6416850000000001,-0.281948,1.1470259999999999,0.414185,-0.1506199999999999,1.222856,0.632525,-0.258088,0.811646,0.892555,-0.3361579999999999,1.215756,0.893805,-0.3167879999999999,0.938485,0.0046849999999999,-0.0037239999999999,1.061515,-0.0046849999999999,0.003724,0.782376,-0.1383849999999999,-0.244528,1.242826,-0.132355,-0.235698,0.786486,-0.487285,-0.183173,1.235726,-0.497395,-0.172535
106,1.0247015,0.5841000000000001,-0.199004,0.8949155,0.4538,-0.198114,0.8040655,0.6412100000000001,-0.291244,1.1447854999999998,0.41342,-0.156069,1.2233755,0.63039,-0.265784,0.8095155,0.88987,-0.345854,1.2176855,0.89208,-0.327404,0.9388535,0.00512,-0.0036609999999999,1.0611465,-0.0051199999999999,0.0036609999999999,0.7778555,-0.1123099999999999,-0.256994,1.2506455,-0.1060399999999999,-0.247344,0.7863055,-0.46319,-0.184997,1.2355255,-0.4690799999999999,-0.174239
107,1.022913,0.5806,-0.20197,0.894476,0.44594,-0.2005299999999999,0.8027460000000001,0.63261,-0.2995,1.143506,0.4114,-0.160786,1.223646,0.62631,-0.27325,0.806786,0.8799699999999999,-0.3556399999999999,1.219246,0.8844799999999999,-0.33785,0.939414,0.0042099999999999,-0.00398,1.060586,-0.0042099999999999,0.0039799999999999,0.775066,-0.0928799999999999,-0.26627,1.255066,-0.08632,-0.2529099999999999,0.7866560000000001,-0.4417199999999999,-0.185566,1.234996,-0.4477699999999999,-0.174453
108,1.0202265,0.573755,-0.204209,0.8939195,0.4388939999999999,-0.202459,0.8005495,0.630705,-0.306819,1.1421495,0.411361,-0.164686,1.2239395,0.621405,-0.279649,0.8035194999999999,0.877705,-0.3652289999999999,1.2206795,0.872215,-0.348119,0.9399955,0.0029849999999999,-0.004247,1.0600045,-0.002985,0.004247,0.7729895,-0.071875,-0.274889,1.2592794999999999,-0.065105,-0.257939,0.7870795000000002,-0.4177850000000001,-0.184622,1.2340495,-0.424805,-0.173472
109,1.0167529999999998,0.56977,-0.2057335,0.893245,0.437198,-0.2037835,0.798015,0.6273,-0.3138435,1.1409349999999998,0.412124,-0.1678155,1.223895,0.61669,-0.2849335,0.800135,0.87693,-0.3744435,1.221355,0.86723,-0.3566034999999999,0.9402550000000001,0.00284,-0.0042355,1.059745,-0.00284,0.0042355,0.7722249999999999,-0.05175,-0.2810035,1.262495,-0.04396,-0.2622735,0.787365,-0.39475,-0.1826605,1.233705,-0.4021999999999999,-0.1738545
110,1.013237,0.56641,-0.2068249999999999,0.888563,0.43087,-0.205255,0.795013,0.62249,-0.319835,1.139873,0.4129659999999999,-0.170669,1.223503,0.61847,-0.291335,0.796343,0.87358,-0.383865,1.221473,0.86274,-0.3672649999999999,0.941437,0.0018499999999999,-0.0041839999999999,1.058563,-0.00185,0.004184,0.771273,-0.032,-0.286335,1.2638829999999999,-0.02189,-0.265595,0.787783,-0.37536,-0.18063,1.2323629999999999,-0.38017,-0.173477
111,1.0098399999999998,0.566945,-0.2076974999999999,0.884338,0.427343,-0.2062875,0.793988,0.616475,-0.3241875,1.138928,0.415803,-0.1726145,1.223358,0.616145,-0.2961275,0.791758,0.861465,-0.3901175,1.221358,0.854485,-0.3753075,0.941368,0.001055,-0.0043094999999999,1.058632,-0.0010549999999999,0.0043094999999999,0.770398,-0.0159949999999999,-0.2898175,1.2638479999999999,-0.0038149999999999,-0.2675775,0.7883979999999999,-0.360965,-0.1793305,1.230758,-0.3626849999999999,-0.1726415
112,1.0067005,0.5665399999999999,-0.2072355,0.8800665,0.4249819999999999,-0.2067655,0.7908465,0.6119,-0.3277955,1.1377565,0.4170729999999999,-0.1739645,1.2232565,0.61434,-0.3011355,0.7870465,0.84763,-0.3958155,1.2214665,0.8430899999999999,-0.3824455,0.9412555,0.0003099999999999,-0.0046994999999999,1.0587445,-0.00031,0.0046994999999999,0.7692965,-0.00048,-0.2925455,1.2631265,0.0128499999999999,-0.2687855,0.7889965000000001,-0.34721,-0.1781215,1.2288364999999999,-0.34603,-0.1722385
113,1.0040395,0.5643389999999999,-0.205681,0.8776305000000001,0.423326,-0.205961,0.7879105,0.608575,-0.329281,1.1368305,0.411998,-0.173492,1.2231005,0.611205,-0.304671,0.7820705,0.8385849999999999,-0.399611,1.2214505,0.836295,-0.387171,0.9410675,0.0012649999999999,-0.004904,1.0589325,-0.001265,0.0049039999999999,0.7685805,0.0149649999999999,-0.293431,1.2619205,0.0282549999999999,-0.267741,0.7898105,-0.334165,-0.175966,1.2264405,-0.331285,-0.170895
114,1.0015569999999998,0.56303,-0.2039989999999999,0.876142,0.422035,-0.2039389999999999,0.784892,0.60531,-0.329619,1.1362519999999998,0.40697,-0.172057,1.222812,0.61043,-0.306419,0.778262,0.83938,-0.401849,1.221372,0.83668,-0.390909,0.940761,0.0017999999999999,-0.004871,1.059239,-0.0018,0.004871,0.769512,0.0310799999999999,-0.292679,1.260592,0.04387,-0.265499,0.790382,-0.3172399999999999,-0.1723009999999999,1.223772,-0.31649,-0.168602
115,1.0001915,0.563239,-0.2021615,0.8747525,0.419706,-0.2015515,0.7820725,0.601971,-0.3286215,1.1354925,0.40543,-0.1704885,1.2224325,0.6109180000000001,-0.3079015,0.7743525,0.83864,-0.4035815,1.2215825,0.83571,-0.3951115,0.9403955,0.00145,-0.0048625,1.0596045,-0.0014499999999999,0.0048624999999999,0.7710125000000001,0.0456199999999999,-0.2917715,1.2592025,0.05763,-0.2630915,0.7905125,-0.3044099999999999,-0.1696865,1.2209725,-0.3041699999999999,-0.1656125
116,0.9985265,0.562875,-0.199375,0.8745375000000001,0.420115,-0.198695,0.7788275,0.5965090000000001,-0.326195,1.1345475,0.404975,-0.168404,1.2225275,0.611222,-0.308575,0.7703975000000001,0.829465,-0.403175,1.2222375,0.834785,-0.398965,0.9397175,0.002075,-0.004733,1.0602825,-0.0020749999999999,0.0047329999999999,0.7732575000000002,0.060625,-0.289135,1.2568774999999999,0.070975,-0.260335,0.7901375000000002,-0.290745,-0.165857,1.2151675,-0.2912549999999999,-0.163523
117,0.9966895000000001,0.565094,-0.196542,0.8737405,0.4191349999999999,-0.195822,0.7755605,0.5903799999999999,-0.323422,1.1334805000000001,0.4028349999999999,-0.166174,1.2221005,0.611387,-0.309382,0.7668705,0.8228449999999999,-0.4013719999999999,1.2230205,0.8385149999999999,-0.402062,0.9388985,0.0023149999999999,-0.004544,1.0611015,-0.002315,0.0045439999999999,0.7756905000000001,0.0741449999999999,-0.286222,1.2540505,0.0825149999999999,-0.257552,0.7891105,-0.279705,-0.162988,1.2082705,-0.2809250000000001,-0.161701
118,0.9950445000000001,0.5651269999999999,-0.193881,0.8718764999999999,0.4161749999999999,-0.192941,0.7727465,0.5856009999999999,-0.321081,1.1322865,0.4017649999999999,-0.164333,1.2228065,0.609038,-0.310251,0.7630764999999999,0.814715,-0.399951,1.2239565,0.842305,-0.405261,0.9380105,0.001865,-0.004668,1.0619895,-0.001865,0.0046679999999999,0.7778865,0.0867849999999999,-0.284111,1.2503365,0.0913249999999999,-0.254541,0.7895365,-0.270635,-0.161142,1.2011865,-0.272775,-0.159212
119,0.9936860000000001,0.5647120000000001,-0.1911705,0.871363,0.41573,-0.1907505,0.7697229999999999,0.581304,-0.3190605,1.131693,0.3980600000000001,-0.1628125,1.223383,0.6060960000000001,-0.3101005,0.759063,0.8090300000000001,-0.3979105,1.224813,0.8469000000000001,-0.4066005,0.937017,0.00248,-0.0046255,1.062983,-0.0024799999999999,0.0046255,0.780063,0.09907,-0.2822405,1.2460930000000001,0.0994000000000001,-0.2513205,0.790203,-0.2593299999999999,-0.1596595,1.1937829999999998,-0.2663999999999999,-0.1604735
120,0.993445,0.563654,-0.1892245,0.8708899999999999,0.414625,-0.1887945,0.76701,0.579321,-0.3168445,1.13123,0.3937549999999999,-0.1614685,1.22413,0.603021,-0.3101245,0.75608,0.806845,-0.3961745,1.2261199999999999,0.851125,-0.4084145,0.935949,0.0032449999999999,-0.0044754999999999,1.064051,-0.003245,0.0044755,0.78207,0.111775,-0.2802745,1.24201,0.1072549999999999,-0.2480145,0.79144,-0.248175,-0.1585245,1.18888,-0.259685,-0.1593554999999999
121,0.9935915000000001,0.562782,-0.1874345,0.8692735,0.412945,-0.1867845,0.7645635,0.577009,-0.3144544999999999,1.1310935,0.389555,-0.1603995,1.2250835,0.6052569999999999,-0.3099245,0.7534235,0.8046249999999999,-0.3947145,1.2274435,0.860605,-0.4106545,0.9350015,0.0037749999999999,-0.0043244999999999,1.0649985,-0.0037749999999999,0.0043245,0.7841035000000001,0.1233549999999999,-0.2789645,1.2382935,0.114375,-0.2448845,0.7936835000000001,-0.236705,-0.1575774999999999,1.1821335,-0.254695,-0.1620525
122,0.993374,0.56492,-0.185377,0.869069,0.4142099999999999,-0.185017,0.762239,0.57604,-0.312077,1.130199,0.3901599999999999,-0.159519,1.225989,0.605497,-0.309867,0.750919,0.80033,-0.393477,1.2290489999999998,0.8679,-0.413247,0.934024,0.0036899999999999,-0.0044089999999999,1.065976,-0.0036899999999999,0.004409,0.785909,0.1323899999999999,-0.277927,1.235239,0.1205699999999999,-0.241997,0.792009,-0.22574,-0.154337,1.1749589999999999,-0.25012,-0.161409
123,0.9932035,0.5665769999999999,-0.1835695,0.8688675,0.4146249999999999,-0.1834495,0.7607275,0.5764579999999999,-0.3099794999999999,1.1294175,0.3898049999999999,-0.1587555,1.2269375,0.60603,-0.3094295,0.7483875,0.7959249999999999,-0.3918795,1.2308375,0.8745949999999999,-0.4151795,0.9331065000000001,0.0039749999999999,-0.0043365,1.0668935,-0.003975,0.0043365,0.7871175,0.1403849999999999,-0.2765895,1.2327275,0.1260249999999999,-0.2395295,0.7924275000000001,-0.219995,-0.1544355,1.1734875,-0.240955,-0.1603715
124,0.9933275000000001,0.5684520000000001,-0.1820815,0.8689545,0.414025,-0.1823015,0.7595945,0.576068,-0.3083215,1.1288345,0.389435,-0.1582315,1.2282745,0.605662,-0.3088115,0.7461545,0.7987650000000001,-0.3914415,1.2331545,0.879425,-0.4163415,0.9324025,0.003935,-0.0043755,1.0675975,-0.003935,0.0043755,0.7881545,0.145225,-0.2756415,1.2308045,0.129445,-0.2377214999999999,0.7928745,-0.216955,-0.1560355,1.1722245,-0.2342949999999999,-0.1593185
125,0.994082,0.568384,-0.1811505,0.868704,0.414015,-0.1819605,0.758874,0.576527,-0.3075105,1.128794,0.388785,-0.1581525,1.229484,0.605695,-0.3086305,0.744504,0.800575,-0.3915205,1.2357639999999999,0.8807050000000001,-0.4164305,0.932136,0.0039449999999999,-0.0043945,1.067864,-0.0039449999999999,0.0043944999999999,0.788914,0.145845,-0.2752705,1.2301039999999999,0.129515,-0.2372305,0.793834,-0.217635,-0.1583625,1.170144,-0.2367949999999999,-0.1589845
126,0.9951765,0.567728,-0.1801295,0.8685944999999999,0.413405,-0.1818195,0.7586945,0.576527,-0.3065195,1.1290244999999999,0.387295,-0.1581505,1.2308944999999998,0.605695,-0.3085695,0.7431845,0.800575,-0.3915295,1.2388345,0.8806350000000001,-0.4162995,0.9322905,0.0039449999999999,-0.0043874999999999,1.0677095,-0.0039449999999999,0.0043875,0.7885145,0.145555,-0.2760895,1.2296744999999998,0.128855,-0.2372395,0.7938244999999999,-0.2192549999999999,-0.1608195,1.1685045,-0.2388249999999999,-0.1614765
127,0.9964045000000001,0.567728,-0.178742,0.8684815000000001,0.413405,-0.181812,0.7590115,0.576527,-0.305592,1.1293315,0.387025,-0.15826,1.2323715,0.605695,-0.308512,0.7411315,0.800575,-0.3914019999999999,1.2423415,0.8806350000000001,-0.416142,0.9324935,0.0039449999999999,-0.0043789999999999,1.0675065,-0.0039449999999999,0.004379,0.7882515,0.145475,-0.276752,1.2293815,0.128855,-0.237252,0.7944115,-0.220125,-0.162792,1.1681015,-0.2388249999999999,-0.1590059999999999
128,0.9971570000000001,0.567728,-0.1784525,0.868241,0.413405,-0.1817025,0.7580709999999999,0.576527,-0.3054925,1.129251,0.387025,-0.1582635,1.233741,0.605695,-0.3079825,0.7390410000000001,0.807775,-0.3912425,1.246011,0.8806350000000001,-0.4159825,0.9327340000000001,0.0039449999999999,-0.0043685,1.0672659999999998,-0.0039449999999999,0.0043684999999999,0.788041,0.145475,-0.2774625,1.2291409999999998,0.128855,-0.2372625,0.794691,-0.2202349999999999,-0.1641405,1.1717710000000001,-0.238245,-0.1566295
129,0.997689,0.5673130000000001,-0.1788885,0.8681040000000001,0.4129900000000001,-0.1823385,0.757924,0.577597,-0.3057585,1.129264,0.38661,-0.1588925,1.234904,0.606485,-0.3076985,0.737114,0.81732,-0.3912685,1.249484,0.88022,-0.4159685,0.932897,0.00409,-0.0043275,1.067103,-0.0040899999999999,0.0043274999999999,0.787554,0.14506,-0.2787085,1.229614,0.1284400000000001,-0.2378684999999999,0.794134,-0.2206599999999999,-0.1659785,1.175814,-0.2361699999999998,-0.1559525
130,0.9978605000000002,0.5674239999999999,-0.179551,0.8679565000000001,0.4114249999999999,-0.183051,0.7577765,0.578344,-0.306471,1.1292165,0.3839449999999999,-0.159547,1.2359065,0.6076159999999999,-0.307231,0.7351665000000001,0.8255349999999999,-0.391601,1.2525865,0.8784649999999999,-0.415331,0.9330725,0.0042749999999999,-0.0042549999999999,1.0669275,-0.004275,0.004255,0.7865965,0.1423949999999999,-0.279541,1.2307465,0.1270049999999999,-0.239031,0.7922865,-0.2233250000000001,-0.166941,1.1805665,-0.235025,-0.156978
131,0.998338,0.5687789999999999,-0.1804105,0.868012,0.4134849999999999,-0.1842805,0.757622,0.5802909999999999,-0.3072905,1.130312,0.3853549999999999,-0.1602605,1.237252,0.6074869999999999,-0.3070104999999999,0.7338020000000001,0.8301049999999999,-0.3924404999999999,1.256062,0.8724649999999999,-0.4141505,0.933694,0.0042149999999999,-0.0040395,1.066306,-0.004215,0.0040395,0.785312,0.1356949999999999,-0.2809804999999999,1.233292,0.1223849999999999,-0.2411005,0.790532,-0.2311550000000001,-0.1692205,1.184632,-0.237565,-0.1569195
132,0.999119,0.5704650000000001,-0.1818795,0.868297,0.4150600000000001,-0.1858195,0.7578469999999999,0.5821130000000001,-0.3083194999999999,1.1310769999999999,0.38609,-0.1615135,1.238347,0.607226,-0.3070695,0.732827,0.8355600000000001,-0.3940095,1.259177,0.86477,-0.4130295,0.934403,0.0042,-0.0038325,1.065597,-0.0041999999999999,0.0038325,0.783867,0.1269800000000001,-0.2830495,1.236357,0.1164600000000001,-0.2437995,0.791317,-0.2387299999999999,-0.1708695,1.191657,-0.2421499999999999,-0.1578105
133,0.999954,0.571895,-0.1833675,0.868455,0.417375,-0.1878575,0.758185,0.5845770000000001,-0.3094475,1.132295,0.3867950000000001,-0.1632795,1.239145,0.609801,-0.3076275,0.731885,0.838295,-0.3956775,1.261525,0.859535,-0.4113575,0.935161,0.004265,-0.0035764999999999,1.064839,-0.0042649999999999,0.0035764999999999,0.781985,0.115105,-0.2848975,1.239935,0.109115,-0.2474975,0.7883450000000001,-0.2488749999999999,-0.1742175,1.197575,-0.2491549999999999,-0.1609165
134,1.0007849999999998,0.5733,-0.1851924999999999,0.868654,0.4184650000000001,-0.1902325,0.758344,0.5882980000000001,-0.3107125,1.133434,0.389105,-0.1653135,1.2401039999999999,0.6119870000000001,-0.3083325,0.730904,0.8412950000000001,-0.3976625,1.263324,0.8536350000000001,-0.4096925,0.9360940000000001,0.003975,-0.0034934999999999,1.0639059999999998,-0.0039749999999999,0.0034934999999999,0.779964,0.102015,-0.2868024999999999,1.2435839999999998,0.100205,-0.2513324999999999,0.787344,-0.2584649999999999,-0.1767625,1.201944,-0.2554949999999999,-0.1613494999999999
135,1.0015825,0.574647,-0.1876745,0.8692985,0.419635,-0.1933544999999999,0.7589185,0.589269,-0.3126445,1.1349985,0.390085,-0.1680025,1.2415785,0.614109,-0.3090845,0.7294585,0.848075,-0.3987345,1.2649185,0.854355,-0.4077245,0.9371365,0.003785,-0.0032304999999999,1.0628635,-0.0037849999999999,0.0032304999999999,0.7775685,0.085855,-0.2896944999999999,1.2473684999999999,0.087415,-0.2557645,0.7862185000000002,-0.2689049999999999,-0.1791345,1.2059685,-0.265825,-0.1644645
136,1.0021939999999998,0.575672,-0.190495,0.869944,0.4205899999999999,-0.196685,0.7597039999999999,0.589801,-0.314655,1.136724,0.3937299999999999,-0.170863,1.243154,0.616476,-0.309565,0.729194,0.8428199999999999,-0.399415,1.266454,0.8521799999999999,-0.405655,0.938022,0.0033199999999999,-0.003028,1.061978,-0.0033199999999999,0.003028,0.775324,0.0675399999999999,-0.292845,1.2508439999999998,0.0719499999999999,-0.260075,0.785304,-0.28243,-0.182135,1.210204,-0.27831,-0.166984
137,1.0023739999999999,0.5785779999999999,-0.1933,0.871665,0.4225099999999999,-0.1997999999999999,0.760115,0.591606,-0.3163,1.138175,0.39696,-0.173779,1.244515,0.6186609999999999,-0.31,0.728735,0.84281,-0.39922,1.2679049999999998,0.8497399999999999,-0.4025299999999999,0.9387179999999999,0.00322,-0.0028759999999999,1.061282,-0.00322,0.002876,0.773285,0.0492499999999999,-0.29599,1.253775,0.0562199999999999,-0.2641799999999999,0.786315,-0.30088,-0.18627,1.213815,-0.29245,-0.170893
138,1.0024419999999998,0.581885,-0.1959165,0.873409,0.4250849999999999,-0.2023265,0.759579,0.5937359999999999,-0.3167365,1.139619,0.4008949999999999,-0.1758934999999999,1.245209,0.6222049999999999,-0.3097765,0.7292190000000001,0.840225,-0.3982065,1.2693489999999998,0.8488449999999998,-0.3981765,0.939211,0.0028349999999999,-0.0028035,1.060789,-0.002835,0.0028035,0.772629,0.0295049999999999,-0.2992065,1.2560989999999999,0.0387949999999999,-0.2674265,0.785919,-0.3170750000000001,-0.1894565,1.216489,-0.3111050000000001,-0.1747645
139,1.0022939999999998,0.584805,-0.1981375,0.874053,0.427923,-0.2041875,0.758833,0.596175,-0.3163074999999999,1.141023,0.406329,-0.1774625,1.2458429999999998,0.624545,-0.3087275,0.7287129999999999,0.8370150000000001,-0.3952275,1.270143,0.847925,-0.3928175,0.939664,0.0025549999999999,-0.0027144999999999,1.060336,-0.002555,0.0027145,0.771973,0.0093449999999999,-0.3022675,1.257973,0.0203749999999999,-0.2704175,0.785553,-0.333465,-0.1925474999999999,1.219393,-0.3300849999999999,-0.1786645
140,1.0021635,0.58717,-0.1999625,0.8745245,0.431452,-0.2053825,0.7592045000000001,0.59899,-0.3154525,1.1423045,0.409725,-0.1781045,1.2461045,0.63008,-0.3056625,0.7281145,0.83606,-0.3910825,1.2699245000000001,0.85219,-0.3876225,0.9397885,0.00256,-0.0028325,1.0602115,-0.00256,0.0028325,0.7714645,-0.0091499999999999,-0.3046725,1.2597945,0.00207,-0.2730625,0.7852345000000001,-0.3484799999999999,-0.1955425,1.2219245,-0.34671,-0.1825304999999999
141,1.0019425,0.5898300000000001,-0.199703,0.8748125,0.434108,-0.205483,0.7594725,0.6025,-0.311963,1.1436025,0.412251,-0.177801,1.2465625,0.63514,-0.301113,0.7277925000000001,0.83718,-0.384123,1.2694725,0.85787,-0.379673,0.9398565,0.00261,-0.003013,1.0601435,-0.00261,0.003013,0.7712225,-0.0268299999999999,-0.304993,1.2616625,-0.0161099999999999,-0.274643,0.7851225,-0.36361,-0.197323,1.2243825,-0.3633999999999999,-0.18414
142,1.002033,0.593305,-0.1987325,0.8749,0.436659,-0.2040625,0.7603800000000001,0.607445,-0.3079325,1.14479,0.417859,-0.1762395,1.24724,0.639235,-0.2951825,0.7277800000000001,0.844625,-0.3765225,1.2686600000000001,0.867415,-0.3699525,0.939481,0.002275,-0.0032974999999999,1.060519,-0.002275,0.0032974999999999,0.77231,-0.0448049999999999,-0.3040825,1.2637800000000001,-0.0358249999999999,-0.2750525,0.7853600000000001,-0.380425,-0.1987325,1.22729,-0.3807549999999999,-0.1853175
143,1.002004,0.5986450000000001,-0.1954665,0.874941,0.439709,-0.2013225,0.762251,0.6106050000000001,-0.3014124999999999,1.145271,0.421057,-0.1735535,1.2477909999999999,0.645625,-0.2875625,0.7287710000000001,0.855465,-0.3666224999999999,1.267771,0.875885,-0.3575325,0.939105,0.002345,-0.0034385,1.060895,-0.0023449999999999,0.0034384999999999,0.7736810000000001,-0.0622249999999999,-0.3012225,1.264851,-0.0551149999999999,-0.2733725,0.786161,-0.401675,-0.1994725,1.229681,-0.402895,-0.1849705
144,1.0019445,0.60059,-0.1905009999999999,0.8744244999999999,0.4412,-0.198238,0.7626445,0.6142000000000001,-0.294558,1.1451045,0.426113,-0.170163,1.2483045,0.65428,-0.2805379999999999,0.7291745000000001,0.8586499999999999,-0.357908,1.2666745,0.87897,-0.345228,0.9388425,0.0019899999999999,-0.0033559999999999,1.0611575,-0.0019899999999999,0.003356,0.7752645,-0.0791999999999999,-0.297628,1.2650645,-0.0733699999999999,-0.271108,0.7871945,-0.42307,-0.200148,1.2320345,-0.4219599999999999,-0.186053
145,1.0015509999999999,0.604575,-0.184767,0.873714,0.441615,-0.195096,0.762764,0.620225,-0.286595,1.144854,0.4282269999999999,-0.166524,1.248414,0.661705,-0.273585,0.7296940000000001,0.8650249999999999,-0.347935,1.265844,0.884215,-0.333165,0.9386140000000001,0.0019049999999999,-0.003366,1.061386,-0.001905,0.0033659999999999,0.776404,-0.090595,-0.291035,1.263924,-0.087785,-0.267345,0.787744,-0.4404450000000001,-0.200745,1.234104,-0.439295,-0.186589
146,1.001508,0.607945,-0.178949,0.872928,0.443675,-0.190705,0.762818,0.627165,-0.277619,1.145038,0.432425,-0.161781,1.248498,0.665795,-0.265189,0.729778,0.865545,-0.3371389999999999,1.264618,0.887575,-0.321289,0.938273,0.0018449999999999,-0.0033809999999999,1.061727,-0.0018449999999999,0.0033809999999999,0.777648,-0.1052549999999999,-0.284459,1.262178,-0.1041949999999999,-0.263089,0.7884180000000001,-0.460505,-0.201379,1.236288,-0.4597349999999999,-0.1868199999999999
147,1.0013495,0.6146,-0.171889,0.8722175,0.44519,-0.185792,0.7629375,0.6340600000000001,-0.268928,1.1452175,0.43575,-0.156825,1.2486475,0.6685099999999999,-0.254898,0.7297875,0.86927,-0.325988,1.2633174999999999,0.8909900000000001,-0.308078,0.9378495,0.00195,-0.0036479999999999,1.0621505,-0.00195,0.0036479999999999,0.7794274999999999,-0.1174699999999999,-0.276738,1.2601775,-0.11845,-0.258058,0.7888475,-0.4780299999999999,-0.2007479999999999,1.2384275,-0.4759299999999999,-0.186294
148,1.001067,0.6179250000000001,-0.1645025,0.871139,0.449485,-0.1795785,0.763129,0.642415,-0.2601685,1.1449989999999999,0.440175,-0.1505395,1.248599,0.671695,-0.2439185,0.729689,0.876665,-0.3149185,1.261919,0.894695,-0.2925284999999999,0.937519,0.001725,-0.0036875,1.062481,-0.0017249999999999,0.0036874999999999,0.781409,-0.1320949999999999,-0.2680185,1.257179,-0.1346549999999999,-0.2517585,0.789229,-0.4983849999999999,-0.1995185,1.240419,-0.495325,-0.1853315
149,1.000573,0.62144,-0.1557555,0.870049,0.45088,-0.1730575,0.7630589999999999,0.64933,-0.2502425,1.144609,0.44353,-0.1443305,1.248269,0.67591,-0.2310125,0.728889,0.89171,-0.3005925,1.260309,0.90375,-0.2755725,0.937325,0.00136,-0.0037935,1.062675,-0.00136,0.0037934999999999,0.783439,-0.14497,-0.2589625,1.2536990000000001,-0.1488,-0.2448625,0.789839,-0.51698,-0.1980625,1.241849,-0.5135,-0.1844135
150,0.999944,0.624825,-0.1470685,0.868143,0.452665,-0.1666095,0.762243,0.655105,-0.2410755,1.143923,0.447475,-0.1381145,1.2476829999999999,0.682855,-0.2183455,0.7281930000000001,0.904075,-0.2882855,1.258303,0.911375,-0.2589555,0.936736,0.0008849999999999,-0.0038045,1.063264,-0.0008849999999999,0.0038045,0.785723,-0.157395,-0.2495055,1.249613,-0.162185,-0.2374454999999999,0.790563,-0.534265,-0.1965855,1.2426529999999998,-0.531555,-0.1829265
151,0.9992440000000001,0.62818,-0.137579,0.8673630000000001,0.45582,-0.1592879999999999,0.761113,0.65892,-0.230514,1.143393,0.4501,-0.130768,1.246623,0.68434,-0.205754,0.727363,0.90971,-0.274714,1.256423,0.90958,-0.2437639999999999,0.936826,0.00069,-0.0038489999999999,1.063174,-0.0006899999999999,0.003849,0.788303,-0.1704999999999999,-0.240064,1.245403,-0.1756599999999999,-0.2294939999999999,0.791303,-0.55108,-0.1944639999999999,1.243393,-0.54979,-0.180805
152,0.9985815000000001,0.63042,-0.1277875,0.8662845,0.45897,-0.1521135,0.7604945,0.66343,-0.2190544999999999,1.1427045,0.45278,-0.1235205,1.2453045,0.68354,-0.1928945,0.7267545,0.91113,-0.2613845,1.2538745,0.9087,-0.2292545,0.9367315,0.00039,-0.0039565,1.0632685,-0.0003899999999999,0.0039565,0.7919645000000001,-0.18039,-0.2293045,1.2402145,-0.1868099999999999,-0.2207945,0.7917345,-0.56359,-0.1917645,1.2438545,-0.56487,-0.1786555
153,0.9975970000000001,0.635195,-0.1193455,0.864931,0.464105,-0.1441665,0.7594609999999999,0.668965,-0.2085325,1.1421009999999998,0.455245,-0.1162844999999999,1.243641,0.678965,-0.1793664999999999,0.7264710000000001,0.912765,-0.2472825,1.251051,0.905685,-0.2135225,0.936693,7.499999999999174e-05,-0.0039254999999999,1.063307,-7.50000000000195e-05,0.0039254999999999,0.795641,-0.190945,-0.2189025,1.234491,-0.197965,-0.2116925,0.7919309999999999,-0.576865,-0.1884525,1.244011,-0.579445,-0.1760264999999999
154,0.9962340000000001,0.637985,-0.1111685,0.863219,0.468925,-0.1356675,0.758209,0.673405,-0.1975515,1.141149,0.4562549999999999,-0.1086815,1.241539,0.680725,-0.1657795,0.726329,0.914705,-0.2336714999999999,1.2479289999999998,0.907565,-0.1976415,0.936407,0.000335,-0.0040774999999999,1.063593,-0.000335,0.0040774999999999,0.798959,-0.2052949999999999,-0.2106215,1.228179,-0.211005,-0.2021915,0.792109,-0.591635,-0.1843914999999999,1.243299,-0.593845,-0.1720074999999999
155,0.994766,0.640775,-0.103019,0.8615840000000001,0.472315,-0.128656,0.756884,0.675195,-0.188654,1.140064,0.457485,-0.10207,1.239524,0.684595,-0.154313,0.7268840000000001,0.917025,-0.221724,1.244704,0.911655,-0.183494,0.936275,-1.7000000000003124e-05,-0.004007,1.063725,1.6999999999989246e-05,0.0040069999999999,0.8027839999999999,-0.214565,-0.202274,1.221484,-0.220205,-0.192824,0.792624,-0.601325,-0.180614,1.241884,-0.6035750000000001,-0.168187
156,0.9933190000000001,0.639827,-0.094483,0.85999,0.475007,-0.12065,0.75603,0.6753170000000001,-0.17809,1.1392,0.456737,-0.094973,1.23757,0.688217,-0.142259,0.72757,0.917557,-0.20797,1.24098,0.915497,-0.169837,0.93638,-0.000258,-0.004137,1.06362,0.000258,0.004137,0.8074600000000001,-0.2247929999999999,-0.19294,1.2140900000000001,-0.229933,-0.18192,0.79436,-0.611853,-0.175259,1.2397999999999998,-0.615453,-0.163028
157,0.9926510000000001,0.6431595,-0.085732,0.859201,0.4758595,-0.113574,0.755441,0.6768895,-0.166686,1.139001,0.4545495,-0.088732,1.2360209999999998,0.6937195,-0.130477,0.727411,0.9190195,-0.194421,1.238111,0.9210295,-0.156495,0.936334,-0.0002915,-0.00428,1.063666,0.0002915,0.0042799999999999,0.812801,-0.2364205,-0.183541,1.208011,-0.2425105,-0.171747,0.796851,-0.6234505,-0.169649,1.237741,-0.6284005,-0.157817
158,0.9922700000000001,0.644371,-0.0780135,0.858565,0.476971,-0.1054964999999999,0.754885,0.676911,-0.1559404999999999,1.138535,0.456511,-0.0803285,1.234605,0.6936110000000001,-0.1216194999999999,0.7264550000000001,0.911361,-0.1844735,1.235925,0.917141,-0.1443555,0.936185,-0.0003289999999999,-0.0044624999999999,1.063815,0.0003289999999999,0.0044625,0.818765,-0.250969,-0.1737035,1.201815,-0.257879,-0.1614755,0.799785,-0.637949,-0.1636575,1.235315,-0.6433989999999999,-0.1522494999999999
159,0.9918190000000001,0.645529,-0.0691244999999999,0.857822,0.478489,-0.0953614999999999,0.7544020000000001,0.677419,-0.1438725,1.137952,0.458799,-0.0699014999999999,1.2327919999999999,0.691179,-0.1102075,0.725712,0.904959,-0.1718655,1.233852,0.914649,-0.1313174999999999,0.935987,-0.000567,-0.0046134999999999,1.064013,0.0005669999999999,0.0046135,0.8243120000000002,-0.266161,-0.1624835,1.194992,-0.273501,-0.1491275,0.802972,-0.653041,-0.1557875,1.232602,-0.658651,-0.1438315
160,0.9912970000000001,0.6433855,-0.057789,0.856544,0.4759255,-0.083212,0.7540439999999999,0.6756055000000001,-0.129973,1.137054,0.4557955,-0.058306,1.2304739999999998,0.6900755000000001,-0.096259,0.724294,0.9075855,-0.1525169999999999,1.231074,0.9144855,-0.112646,0.93602,4.65000000000014e-05,-0.0050149999999999,1.06398,-4.649999999999793e-05,0.0050149999999999,0.831334,-0.2818145,-0.148282,1.186594,-0.2897545,-0.133762,0.805854,-0.6685945,-0.144833,1.229364,-0.6744945,-0.13251
161,0.990876,0.640519,-0.0466785,0.855405,0.473449,-0.0710625,0.7534050000000001,0.673439,-0.1168154999999999,1.136245,0.453109,-0.0465885,1.228205,0.689889,-0.0830085,0.724545,0.910489,-0.1333115,1.229035,0.915679,-0.0938245,0.935837,0.0004229999999999,-0.0051785,1.064163,-0.0004229999999999,0.0051785,0.837275,-0.299521,-0.1360045,1.179165,-0.307241,-0.1193114999999999,0.808755,-0.686301,-0.1336995,1.226165,-0.691921,-0.1210535
162,0.9906150000000001,0.6383215,-0.035793,0.854612,0.4699115,-0.060471,0.752772,0.6708615,-0.103758,1.135612,0.4500015,-0.036057,1.226052,0.6915115,-0.070933,0.724602,0.9161615,-0.115521,1.226672,0.9168415,-0.077401,0.935598,0.0009185,-0.005222,1.064402,-0.0009184999999999,0.0052219999999999,0.843132,-0.3135385,-0.124115,1.172112,-0.3211785,-0.105607,0.8114320000000002,-0.7003185000000001,-0.12335,1.223152,-0.7056385000000001,-0.109948
163,0.9907445,0.6366465,-0.0252645,0.8540335,0.4681665,-0.0501115,0.7529935,0.6675065,-0.0914555,1.1351835,0.4486165,-0.0258085,1.2243235,0.6876465,-0.0588985,0.7247035,0.9215165,-0.0981105,1.2241735,0.9128965,-0.0611325,0.9352285,0.0010544999999999,-0.0051985,1.0647715,-0.0010544999999999,0.0051985,0.8487335,-0.3251235,-0.1127245,1.1660035,-0.3326935,-0.0926385,0.8141335000000001,-0.7119035,-0.1130365,1.2206635,-0.7170934999999999,-0.0991674999999999
164,0.990847,0.6343965,-0.0146674999999999,0.8534539999999999,0.4656365,-0.0399125,0.752514,0.6648165,-0.0779785,1.134794,0.4459364999999999,-0.0160815,1.222444,0.6846765,-0.0463125,0.725484,0.9197865,-0.0790935,1.221924,0.9106865,-0.0444284999999999,0.9348339999999999,0.0013704999999999,-0.0049484999999999,1.065166,-0.0013704999999999,0.0049485,0.854024,-0.3365235,-0.1015264999999999,1.1605240000000001,-0.3431835,-0.0802905,0.816974,-0.7230735,-0.1021815,1.218474,-0.7274535,-0.0883275
165,0.991149,0.633027,-0.004923,0.8532150000000001,0.464267,-0.03035,0.752685,0.663517,-0.065319,1.134585,0.445957,-0.006478,1.221165,0.681407,-0.035462,0.7267049999999999,0.919927,-0.061906,1.220425,0.908367,-0.028633,0.934849,0.0016509999999999,-0.004479,1.065151,-0.0016509999999999,0.0044789999999999,0.858845,-0.345453,-0.0912969999999999,1.156525,-0.351503,-0.069451,0.819115,-0.731783,-0.092068,1.217215,-0.7353029999999999,-0.0782539999999999
166,0.9910385000000002,0.6305665,0.004465,0.8523085000000001,0.4625865,-0.0209,0.7519785000000001,0.6596065,-0.053203,1.1337385,0.4456965,0.002877,1.2192985,0.6774865,-0.0249,0.7275484999999999,0.9176465,-0.04512,1.2183785,0.9055565,-0.015386,0.9349575,0.0019284999999999,-0.0040439999999999,1.0650425000000001,-0.0019284999999999,0.0040439999999999,0.8627485,-0.3554235,-0.081452,1.1520385,-0.3607935,-0.0588729999999999,0.8206085000000001,-0.7415134999999999,-0.081882,1.2156785,-0.7441335,-0.06884
167,0.9913975000000002,0.629676,0.0137185,0.8515835,0.461136,-0.0118944999999999,0.7514635000000001,0.658446,-0.0409135,1.1335635,0.441196,0.0099765,1.2177335,0.675866,-0.0141994999999999,0.7286835,0.917446,-0.0287605,1.2166335,0.904996,-0.0012624999999999,0.9352235,0.002132,-0.0036014999999999,1.0647765,-0.0021319999999999,0.0036015,0.8662535,-0.3641939999999999,-0.0720025,1.1485035,-0.368764,-0.0488815,0.8221235,-0.750024,-0.0717464999999999,1.2146035,-0.751644,-0.0594925
168,0.9922685000000001,0.628308,0.0210045,0.8512775,0.460218,-0.0045014999999999,0.7514375,0.657478,-0.0306405,1.1339275,0.437018,0.0152575,1.2170075,0.674148,-0.0059735,0.7308075,0.917068,-0.0148394999999999,1.2160175,0.904508,0.0107564999999999,0.9351725,0.0025569999999999,-0.0032175,1.0648275,-0.002557,0.0032175,0.8701975,-0.374672,-0.0643615,1.1463775,-0.378842,-0.0415445,0.8240375,-0.760222,-0.0633985,1.2141275,-0.761302,-0.0523485
169,0.9924505,0.6292305,0.0250919999999999,0.8508835000000001,0.4609205,-0.0007959999999999,0.7512235,0.6583705000000001,-0.023334,1.1339335,0.4360405,0.017464,1.2164234999999999,0.6742305000000001,-0.0009319999999999,0.7325235,0.9174905,-0.009061,1.2147235,0.9035305,0.016581,0.9352445,0.0022765,-0.002495,1.0647555,-0.0022765,0.002495,0.8717135,-0.3760795,-0.060323,1.1452935,-0.3798195,-0.038289,0.8256035000000002,-0.7615894999999999,-0.058607,1.2132035,-0.7622795,-0.048743
170,0.992608,0.6299699999999999,0.028973,0.850459,0.46186,0.0029579999999999,0.751029,0.6594899999999999,-0.016361,1.133959,0.4352499999999999,0.019606,1.216019,0.67387,0.0039539999999999,0.734199,0.91771,-0.003409,1.2137889999999998,0.90275,0.021068,0.935337,0.002138,-0.002075,1.064663,-0.002138,0.0020749999999999,0.8731990000000001,-0.37699,-0.0563899999999999,1.144309,-0.3806,-0.035246,0.826959,-0.7624500000000001,-0.0541279999999999,1.212499,-0.7630600000000001,-0.045283
171,0.992767,0.6303365,0.032672,0.850023,0.4629265,0.00686,0.750833,0.6608265,-0.009738,1.133953,0.4344665,0.0218009999999999,1.215713,0.6731665,0.008671,0.735663,0.9179065,0.002159,1.213533,0.9020465,0.0252739999999999,0.9354169999999999,0.0020724999999999,-0.0017999999999999,1.064583,-0.0020725,0.0018,0.874593,-0.3776935,-0.052564,1.1434630000000001,-0.3813035,-0.032563,0.8282430000000001,-0.7631535,-0.049753,1.211863,-0.7637635,-0.042264
172,0.9928965000000001,0.630463,0.0361444999999999,0.8495525000000002,0.464153,0.0107275,0.7508725,0.6623330000000001,-0.0035575,1.1339125,0.4331630000000001,0.0238885,1.2155325,0.672463,0.0130955,0.7388425000000001,0.911503,0.0071405,1.2133925,0.899823,0.0291514999999999,0.9355505,0.001986,-0.0015855,1.0644495,-0.001986,0.0015855,0.8758625,-0.3784269999999999,-0.0489805,1.1426825,-0.381417,-0.0302905,0.8293625,-0.763877,-0.0457445,1.2111625,-0.763867,-0.0394265
173,0.9930590000000001,0.6302455,0.0388699999999999,0.849096,0.4653155,0.014207,0.7510060000000001,0.6638455,0.001444,1.133906,0.4319555,0.025632,1.215386,0.6715955,0.016806,0.7422059999999999,0.9049355,0.010239,1.213276,0.8978755,0.032228,0.935692,0.0019104999999999,-0.001476,1.064308,-0.0019104999999999,0.001476,0.876836,-0.3792945,-0.046091,1.142096,-0.3814945,-0.0286489999999999,0.830016,-0.7647445,-0.042659,1.210776,-0.7639245,-0.037124
174,0.9932165000000001,0.6298765000000001,0.041327,0.8486125,0.4665964999999999,0.017505,0.7511625,0.6654665,0.005877,1.1338525,0.4311065,0.027217,1.2152025,0.6705365,0.020139,0.7452325,0.8982065,0.013212,1.2131224999999999,0.8954165000000001,0.034796,0.9358065,0.0018485,-0.0015729999999999,1.0641935,-0.0018485,0.001573,0.8776025,-0.3801434999999999,-0.043566,1.1415625,-0.3815834999999999,-0.027153,0.8305525,-0.7655235,-0.03995,1.2103925,-0.7639635,-0.035162
175,0.9932550000000001,0.6292745,0.043432,0.848336,0.4678544999999999,0.020565,0.751396,0.6670045,0.009781,1.133766,0.4302645,0.028728,1.215006,0.6696945,0.022832,0.7482260000000001,0.8917245,0.0161849999999999,1.212796,0.8948745,0.037908,0.935898,0.0018145,-0.001763,1.064102,-0.0018144999999999,0.001763,0.878246,-0.3808255,-0.041407,1.141096,-0.3816655,-0.02572,0.8309960000000001,-0.7661555,-0.037702,1.209976,-0.7640055,-0.033277
176,0.9933120000000001,0.6285930000000001,0.0453895,0.848143,0.468343,0.0229285,0.751463,0.667873,0.0133345,1.133683,0.4294530000000001,0.0302115,1.214953,0.6690130000000001,0.0250855,0.7503029999999999,0.8909130000000001,0.0190745,1.212693,0.894663,0.0399735,0.935994,0.001823,-0.0018805,1.064006,-0.0018229999999999,0.0018805,0.878783,-0.381227,-0.0396385,1.140673,-0.381717,-0.0243885,0.8313429999999999,-0.766517,-0.0358015,1.209653,-0.764057,-0.0315075
177,0.9933985,0.627929,0.0469355,0.8479265,0.468429,0.0248575,0.7517165,0.668339,0.0161984999999999,1.1341364999999999,0.4306689999999999,0.0325535,1.2150465,0.668319,0.0266245,0.7506765,0.890089,0.0223425,1.2128665,0.894259,0.0413754999999999,0.9361285,0.0018189999999999,-0.0019445,1.0638715,-0.001819,0.0019445,0.8792365,-0.381431,-0.0381615,1.1402165,-0.381781,-0.0234785,0.8313865,-0.7666810000000001,-0.0340695,1.2092565,-0.764091,-0.0299184999999999
178,0.9933355,0.626705,0.0484375,0.8475225,0.468155,0.0268425,0.7517725,0.6682549999999999,0.0186895,1.1355225,0.435835,0.0362825,1.2163825,0.669825,0.0281114999999999,0.7507524999999999,0.888745,0.0249474999999999,1.2129925,0.895635,0.0426965,0.9363605,0.001795,-0.0018944999999999,1.0636395,-0.0017949999999999,0.0018944999999999,0.8794125,-0.381505,-0.0367855,1.1395125,-0.381885,-0.0228005,0.8310025,-0.766725,-0.0326135,1.2086625,-0.764155,-0.0282745
179,0.9931815,0.62501,0.0497565,0.8471615,0.4676899999999999,0.0285715,0.7520315,0.66782,0.0208345,1.1368015,0.4404899999999999,0.0398494999999999,1.2177015,0.67072,0.0294335,0.7509515000000001,0.88811,0.0266255,1.2130615,0.89565,0.0439095,0.9366105,0.0016999999999999,-0.0016825,1.0633895,-0.0017,0.0016825,0.8794215,-0.38163,-0.0355335,1.1386415,-0.38193,-0.0222185,0.8305015,-0.7668200000000001,-0.0312225,1.2079315,-0.76417,-0.0267975
180,0.9933335,0.623685,0.050893,0.8471605,0.4671850000000001,0.030053,0.7522905,0.667455,0.022661,1.1381105,0.444705,0.043231,1.2191605,0.671045,0.030584,0.7512105,0.887715,0.0285549999999999,1.2135405,0.894875,0.04491,0.9368235,0.001625,-0.001423,1.0631765,-0.001625,0.001423,0.8793605,-0.381675,-0.03446,1.1376405,-0.382065,-0.021792,0.8300704999999999,-0.766805,-0.029993,1.2069705,-0.764285,-0.025135
181,0.9933890000000001,0.622405,0.052043,0.847113,0.466535,0.031459,0.752323,0.666895,0.024216,1.139213,0.4489250000000001,0.0466349999999999,1.220413,0.671335,0.031777,0.751323,0.8871549999999999,0.029699,1.214043,0.894065,0.045645,0.936975,0.001555,-0.0012569999999999,1.063025,-0.001555,0.001257,0.8790730000000001,-0.3817049999999999,-0.033334,1.136533,-0.382185,-0.0213209999999999,0.829453,-0.766785,-0.0287329999999999,1.205833,-0.764385,-0.023471
182,0.993487,0.62141,0.0530665,0.847153,0.46601,0.0326285,0.752363,0.66654,0.0252365,1.140153,0.4531,0.0498735,1.221553,0.67151,0.0328554999999999,0.752503,0.8868,0.0307694999999999,1.214893,0.8929,0.0460624999999999,0.937123,0.0014699999999999,-0.0011725,1.062877,-0.0014699999999999,0.0011725,0.878713,-0.38172,-0.0323385,1.135543,-0.38229,-0.0209095,0.828793,-0.7667499999999999,-0.0276224999999999,1.2047430000000001,-0.7645299999999999,-0.0220825
183,0.9936535,0.620345,0.0540019999999999,0.8472265,0.465465,0.033601,0.7524265,0.666255,0.026143,1.1407365,0.4561550000000001,0.0524359999999999,1.2223165,0.670645,0.033731,0.7534065,0.886515,0.031729,1.2157764999999998,0.8906750000000001,0.046447,0.9372415000000001,0.001435,-0.0010069999999999,1.0627585,-0.0014349999999999,0.001007,0.8783365,-0.381695,-0.031484,1.1346365,-0.382425,-0.020534,0.8280465,-0.766685,-0.026696,1.2036265,-0.764675,-0.0208769999999999
184,0.9938295,0.6195700000000001,0.054841,0.8473045000000001,0.46525,0.034475,0.7525045,0.66649,0.026951,1.1413645,0.45966,0.0548499999999999,1.2232545,0.6702600000000001,0.034297,0.7543345,0.88681,0.032708,1.2167445,0.89026,0.046772,0.9373454999999999,0.00141,-0.0007879999999999,1.0626545,-0.0014099999999999,0.000788,0.8778345,-0.38164,-0.0307509999999999,1.1338245,-0.38258,-0.020235,0.8273045,-0.7665599999999999,-0.025848,1.2026145,-0.7648499999999999,-0.019778
185,0.994,0.619035,0.0555965,0.8473510000000001,0.465195,0.0352605,0.7523610000000001,0.666305,0.0275345,1.141991,0.4635249999999999,0.0571674999999999,1.224341,0.670145,0.0345755,0.755031,0.886615,0.0333365,1.2177310000000001,0.890145,0.0469684999999999,0.937415,0.0013949999999999,-0.0006144999999999,1.062585,-0.001395,0.0006145,0.877221,-0.381555,-0.0301495,1.133061,-0.382735,-0.0199795,0.826461,-0.766405,-0.0250904999999999,1.201641,-0.765015,-0.0186965
186,0.994388,0.618955,0.0563175,0.847475,0.4653549999999999,0.0359914999999999,0.751815,0.666305,0.0276485,1.1422649999999999,0.465495,0.0583955,1.225435,0.670005,0.0347735,0.755835,0.886615,0.0338165,1.218905,0.890045,0.0468995,0.937473,0.0013949999999999,-0.0005555,1.062527,-0.001395,0.0005555,0.876655,-0.381545,-0.0296445,1.132495,-0.382735,-0.0197075,0.8256550000000001,-0.766335,-0.0244495,1.200745,-0.765015,-0.0177585
187,0.9950055000000001,0.618905,0.0570325,0.8475465,0.4653549999999999,0.0366225,0.7514164999999999,0.666305,0.0271825,1.1423665,0.465495,0.0590345,1.2255065,0.6699849999999999,0.0351655,0.7567265000000001,0.886615,0.0341265,1.2212765,0.890045,0.0467485,0.9374105000000001,0.0013949999999999,-0.0008025,1.0625894999999999,-0.001395,0.0008024999999999,0.8762565000000001,-0.381545,-0.0292405,1.1321065,-0.382735,-0.0193825,0.8249765,-0.766335,-0.0238645,1.2002265,-0.765015,-0.0168855
188,0.9957985000000001,0.618885,0.0577095,0.8476615000000001,0.4653549999999999,0.0374145,0.7509115,0.666305,0.0265145,1.1426515,0.465495,0.0599685,1.2258915,0.6699849999999999,0.0354815,0.7577215000000002,0.886455,0.0343225,1.2241715,0.890045,0.0463205,0.9372655,0.0013949999999999,-0.0011565,1.0627345,-0.001395,0.0011564999999999,0.8759715000000001,-0.381545,-0.0288595,1.1318315,-0.382735,-0.0190504999999999,0.8243515000000001,-0.766335,-0.0232375,1.1999315,-0.765015,-0.0160435
189,0.9963355000000002,0.6189250000000001,0.0584374999999999,0.8475695,0.465495,0.0382855,0.7491395000000001,0.665425,0.0254594999999999,1.1429995,0.465635,0.0608225,1.2275195,0.670125,0.0357424999999999,0.7592695,0.8854850000000001,0.0330015,1.2264595,0.890185,0.0456235,0.9370925,0.0014249999999999,-0.0016075,1.0629075000000001,-0.001425,0.0016074999999999,0.8756895000000001,-0.381405,-0.0284385,1.1316195,-0.3828749999999999,-0.0186615,0.8238495,-0.766195,-0.0226325,1.1997095,-0.765195,-0.0153175
190,0.9969125,0.620135,0.0590945,0.8474885,0.466445,0.0390705,0.7464585,0.664625,0.0238105,1.1430885,0.464465,0.0608255,1.2315985,0.6668350000000001,0.0352395,0.7610085,0.884335,0.0316105,1.2277685,0.8869750000000001,0.0448565,0.9370265,0.001435,-0.0020354999999999,1.0629735,-0.0014349999999999,0.0020355,0.8753885000000001,-0.381255,-0.0281314999999999,1.1317385,-0.382905,-0.0183315,0.8234085,-0.765975,-0.0220114999999999,1.1995985,-0.765265,-0.0146974999999999
191,0.997343,0.622875,0.0601515,0.847387,0.4665549999999999,0.0397825,0.741717,0.661225,0.0214135,1.144097,0.462955,0.0609515,1.241727,0.659405,0.0339364999999999,0.764267,0.880675,0.0316565,1.229757,0.880665,0.0439935,0.9369730000000001,0.001485,-0.0024104999999999,1.063027,-0.001485,0.0024104999999999,0.874887,-0.381025,-0.0277345,1.132127,-0.382895,-0.0179045,0.822717,-0.765645,-0.0213255,1.199827,-0.765235,-0.0139705
192,0.9975965,0.62566,0.0616705,0.8474025000000001,0.46728,0.0407245,0.7354725,0.65706,0.0181365,1.1441525,0.46177,0.0609975,1.2530225,0.65085,0.0322525,0.7701525000000001,0.87433,0.0303965,1.2319425,0.87304,0.0426795,0.9369305,0.00145,-0.0027464999999999,1.0630695000000001,-0.0014499999999999,0.0027465,0.8744425,-0.38092,-0.0273515,1.1327425,-0.3823,-0.0174384999999999,0.8220125,-0.7654599999999999,-0.0207105,1.2004825000000001,-0.76462,-0.0133684999999999
193,0.99767,0.6287280000000001,0.063383,0.8475090000000001,0.468378,0.041782,0.7282390000000001,0.652088,0.013949,1.144249,0.460568,0.061068,1.267359,0.6376080000000001,0.030283,0.7773289999999999,0.864178,0.026952,1.233909,0.8615480000000001,0.039927,0.936796,0.0014239999999999,-0.003074,1.063204,-0.0014239999999999,0.003074,0.874099,-0.380662,-0.026961,1.133439,-0.381672,-0.0169179999999999,0.821399,-0.765122,-0.020085,1.201169,-0.763952,-0.012773
194,0.9977655,0.632819,0.0652264999999999,0.8473825,0.469259,0.0430365,0.7206725,0.645859,0.0088544999999999,1.1441025,0.4589189999999999,0.0611615,1.2819625000000001,0.6228389999999999,0.0278835,0.7845225,0.851949,0.0224964999999999,1.2350124999999998,0.8436589999999999,0.0348184999999999,0.9366335000000001,0.0013729999999999,-0.0033775,1.0633664999999999,-0.0013729999999999,0.0033774999999999,0.8737825,-0.379881,-0.0266035,1.1341425,-0.3799909999999999,-0.0164205,0.8208425,-0.764271,-0.0195975,1.2018525,-0.762221,-0.0123175
195,0.9979455000000002,0.6373025,0.067007,0.8471685,0.4701724999999999,0.044388,0.7130485000000001,0.6383325000000001,0.0022609999999999,1.1438185,0.4547225,0.060857,1.2950185,0.6031725,0.0247,0.7934285,0.8364725000000001,0.0160109999999999,1.2364785,0.8209725,0.0279169999999999,0.9364355,0.0012584999999999,-0.003547,1.0635645,-0.0012584999999999,0.0035469999999999,0.8735585,-0.3786375,-0.026205,1.1348985,-0.3777875,-0.016006,0.8202885,-0.7629475,-0.019132,1.2026385,-0.7599775,-0.011888
196,0.9976420000000001,0.6416535000000001,0.068572,0.846265,0.4684535,0.046046,0.705875,0.6287835,-0.0053459999999999,1.143585,0.4502135,0.060542,1.306155,0.5771235,0.021143,0.803795,0.8185435000000001,0.007631,1.2371249999999998,0.7927135000000001,0.019575,0.936277,0.0010825,-0.0035299999999999,1.063723,-0.0010825,0.00353,0.8734649999999999,-0.3768965,-0.025881,1.135605,-0.3751765,-0.015729,0.819885,-0.7611465,-0.0188209999999999,1.203515,-0.7573165,-0.0116519999999999
197,0.9964445,0.6457385,0.0699335,0.8457925,0.4665285,0.0476535,0.7000725,0.6175485000000001,-0.0157895,1.1434025,0.4452885,0.0600835,1.3139425,0.5467785000000001,0.0179485,0.8143724999999999,0.7986285000000001,-0.0028945,1.2378025,0.7576485000000001,0.0077295,0.9360845,0.0008994999999999,-0.0034105,1.0639155,-0.0008994999999999,0.0034105,0.8733525,-0.3751215,-0.0256275,1.1361325,-0.3726414999999999,-0.0156085,0.8194525,-0.7593115,-0.0186385,1.2042725,-0.7547415,-0.0115184999999999
198,0.994718,0.6492979999999999,0.0710935,0.845453,0.464258,0.0491795,0.697203,0.6053280000000001,-0.0275735,1.143503,0.439808,0.0594325,1.319413,0.5089779999999999,0.0142454999999999,0.8249029999999999,0.7777080000000001,-0.0157885,1.238573,0.714518,-0.0082155,0.935868,0.0006459999999999,-0.0031735,1.064132,-0.000646,0.0031734999999999,0.873243,-0.373212,-0.0254425,1.136493,-0.370032,-0.0155905,0.818993,-0.757342,-0.0185885,1.204883,-0.752092,-0.0114254999999999
199,0.9927595,0.652911,0.072113,0.8454174999999999,0.4620809999999999,0.050572,0.6963575,0.591101,-0.040952,1.1435275,0.434231,0.0587559999999999,1.3239975,0.4689609999999999,0.0112329999999999,0.8356075000000001,0.755801,-0.030253,1.2367775,0.666051,-0.027939,0.9357255,0.000361,-0.002892,1.0642745,-0.0003609999999999,0.0028919999999999,0.8732075,-0.370949,-0.025189,1.1368274999999999,-0.367149,-0.015556,0.8186074999999999,-0.755019,-0.018562,1.2054375,-0.749169,-0.011403
200,0.9908175,0.6563125000000001,0.072717,0.8454665,0.4601125,0.051265,0.6970164999999999,0.5788025000000001,-0.054167,1.1425965,0.4297525,0.057434,1.3240665,0.4287125,0.011479,0.8448665,0.7360625000000001,-0.0454889999999999,1.2342165,0.6140325,-0.048795,0.9356355000000001,0.0001125,-0.0026639999999999,1.0643645,-0.0001124999999999,0.002664,0.8732765,-0.3677775,-0.024943,1.1370565,-0.3634875,-0.0155379999999999,0.8185165,-0.7518175,-0.0185839999999999,1.2056265,-0.7455175,-0.011456
201,0.988855,0.6595300000000001,0.073043,0.8454619999999999,0.45743,0.051506,0.697612,0.56589,-0.067843,1.1408719999999999,0.42497,0.055831,1.324052,0.38741,0.011708,0.852422,0.7187,-0.061418,1.235162,0.5564600000000001,-0.069122,0.9356210000000001,-0.000167,-0.0024349999999999,1.064379,0.000167,0.002435,0.873262,-0.3639,-0.024714,1.137262,-0.35971,-0.0155,0.818492,-0.7479,-0.018617,1.205772,-0.7417699999999999,-0.0115469999999999
202,0.9868735,0.662549,0.073182,0.8454995000000001,0.454359,0.051733,0.6981495,0.5530090000000001,-0.081442,1.1388495,0.420329,0.054081,1.3239895,0.349329,0.011931,0.8585095,0.703149,-0.076033,1.2346495,0.501109,-0.0863319999999999,0.9355555,-0.000434,-0.0021389999999999,1.0644445,0.0004339999999999,0.002139,0.8731995000000001,-0.359541,-0.024491,1.1374595,-0.355911,-0.0154049999999999,0.8184295,-0.743521,-0.0186469999999999,1.2058795,-0.737961,-0.0115989999999999
203,0.9849620000000001,0.6647515,0.0732194999999999,0.8457070000000001,0.4515814999999999,0.0517955,0.700287,0.5403515,-0.0949065,1.135647,0.4159015,0.0520525,1.315167,0.3119915,0.0133025,0.864017,0.6897515000000001,-0.0897065,1.233397,0.4521115,-0.0993665,0.935443,-0.0006195,-0.0018015,1.064557,0.0006194999999999,0.0018015,0.873247,-0.3557785,-0.0243215,1.137707,-0.3527685,-0.0153645,0.818327,-0.7397585,-0.0185315,1.205977,-0.7348285,-0.0115055
204,0.9831035,0.6667795,0.073262,0.8461205,0.4485195,0.051884,0.7039205,0.5282195,-0.107233,1.1332505,0.4152595,0.05083,1.3029205,0.2804295,0.0149819999999999,0.8677604999999999,0.6795194999999999,-0.101233,1.2315505,0.3852595,-0.107743,0.9352945,-0.0007775,-0.001565,1.0647055,0.0007775,0.001565,0.8733204999999999,-0.3520905,-0.024166,1.1380005,-0.3508205,-0.015282,0.8180905,-0.7360705000000001,-0.018417,1.2059305,-0.7325005,-0.011383
205,0.981618,0.668806,0.073402,0.846661,0.4476259999999999,0.051868,0.708801,0.517156,-0.118646,1.130771,0.414716,0.04962,1.287411,0.2546259999999999,0.017074,0.869331,0.671016,-0.111036,1.229501,0.320506,-0.1105559999999999,0.935137,-0.000834,-0.0014249999999999,1.064863,0.000834,0.001425,0.873321,-0.348654,-0.0240389999999999,1.138191,-0.349194,-0.0151139999999999,0.817781,-0.732624,-0.0183209999999999,1.205731,-0.729404,-0.011191
206,0.980689,0.6712995,0.073391,0.847533,0.4466195,0.051376,0.7141230000000001,0.5073095,-0.127614,1.128383,0.4142395,0.048396,1.271733,0.2321895,0.02008,0.870483,0.6644995,-0.118744,1.226043,0.2602395,-0.1104839999999999,0.934958,-0.0008644999999999,-0.0012369999999999,1.065042,0.0008644999999999,0.001237,0.873233,-0.3446105,-0.0238209999999999,1.138313,-0.3466805,-0.0149599999999999,0.8176830000000002,-0.7285405,-0.0182209999999999,1.205193,-0.7252605,-0.0109919999999999
207,0.9797235000000001,0.673764,0.073407,0.8486145,0.445604,0.050251,0.7190545000000002,0.4991139999999999,-0.1352149999999999,1.1261045,0.4140439999999999,0.047194,1.2576345,0.217574,0.02435,0.8712745,0.659914,-0.124045,1.2230745,0.205264,-0.110365,0.9347205,-0.000823,-0.0010089999999999,1.0652795,0.0008229999999999,0.0010089999999999,0.8729445,-0.340566,-0.023586,1.1382745,-0.344376,-0.014789,0.8174045,-0.724476,-0.018035,1.2045445,-0.721436,-0.0107239999999999
208,0.978436,0.675956,0.073533,0.850191,0.444146,0.047765,0.7234210000000001,0.492836,-0.141401,1.123791,0.414356,0.0457889999999999,1.245321,0.2070459999999999,0.029997,0.871441,0.6565660000000001,-0.126521,1.220211,0.1550359999999999,-0.110101,0.934383,-0.000773,-0.000753,1.065617,0.0007729999999999,0.000753,0.872641,-0.336454,-0.0232439999999999,1.138161,-0.341924,-0.014716,0.816901,-0.7203339999999999,-0.017782,1.203621,-0.717444,-0.0102499999999999
209,0.97713,0.6776475000000001,0.0736025,0.851314,0.4435675,0.0452055,0.726484,0.4872275,-0.1471295,1.122424,0.4145975,0.0449545,1.235474,0.2016875,0.0359965,0.870644,0.6536375,-0.1274495,1.217484,0.1117874999999999,-0.1073895,0.934074,-0.0007694999999999,-0.0005734999999999,1.065926,0.0007695,0.0005735,0.872364,-0.3332225,-0.0229575,1.138004,-0.3404124999999999,-0.0147634999999999,0.816484,-0.7170624999999999,-0.0175525,1.203124,-0.7154325,-0.0098935
210,0.9758525,0.679098,0.07369,0.8521675,0.442838,0.042616,0.7281475,0.482728,-0.151685,1.1213875,0.415308,0.0444429999999999,1.2260375,0.199228,0.042801,0.8697675,0.650518,-0.127035,1.2148875000000001,0.07566,-0.098675,0.9337565,-0.000667,-0.000449,1.0662435,0.0006669999999999,0.0004489999999999,0.8720475,-0.330572,-0.022645,1.1377575,-0.339402,-0.014838,0.8160475,-0.714392,-0.017314,1.2026275,-0.714132,-0.0094619999999999
211,0.978342,0.679951,0.073373,0.85518,0.441751,0.040206,0.73532,0.478261,-0.157341,1.12211,0.414301,0.043809,1.21293,0.190601,0.036549,0.87291,0.650661,-0.130321,1.22194,0.0009159999999999,-0.091561,0.933415,-2.8000000000000247e-05,-0.0001119999999999,1.066585,2.7999999999996777e-05,0.000112,0.87158,-0.327519,-0.0218329999999999,1.13766,-0.344979,-0.0136669999999999,0.8172600000000001,-0.688919,-0.0150689999999999,1.20301,-0.720019,-0.008618
212,0.97277,0.682422,0.0750855,0.853579,0.437752,0.0328325,0.730619,0.471912,-0.1631725,1.118539,0.415962,0.0429655,1.211169,0.190152,0.0475455,0.865429,0.6451520000000001,-0.1302125,1.211679,-0.014501,-0.0534545,0.932863,-0.00044,-0.0004364999999999,1.067137,0.0004399999999999,0.0004365,0.872089,-0.324338,-0.0215655,1.137499,-0.338038,-0.0144894999999999,0.814799,-0.708068,-0.0162415,1.2043490000000001,-0.706958,-0.0075434999999999
