sb224sc-HT22-VT27/4dt907/src/ml-research/a11/datafiles/kinect_good_preprocessed_not_cut_A11_mediapipe/A50_kinect_mirrored.csv
FrameNo,nose_3d_x,nose_3d_y,nose_3d_z,left_shoulder_3d_x,left_shoulder_3d_y,left_shoulder_3d_z,left_elbow_3d_x,left_elbow_3d_y,left_elbow_3d_z,right_shoulder_3d_x,right_shoulder_3d_y,right_shoulder_3d_z,right_elbow_3d_x,right_elbow_3d_y,right_elbow_3d_z,left_wrist_3d_x,left_wrist_3d_y,left_wrist_3d_z,right_wrist_3d_x,right_wrist_3d_y,right_wrist_3d_z,left_hip_3d_x,left_hip_3d_y,left_hip_3d_z,right_hip_3d_x,right_hip_3d_y,right_hip_3d_z,left_knee_3d_x,left_knee_3d_y,left_knee_3d_z,right_knee_3d_x,right_knee_3d_y,right_knee_3d_z,left_ankle_3d_x,left_ankle_3d_y,left_ankle_3d_z,right_ankle_3d_x,right_ankle_3d_y,right_ankle_3d_z
0,1.0154755,0.6529075,0.0778935,0.8565905,0.5056575,0.0501485,0.7654805,0.7357275,0.0368425,1.1448304999999999,0.4785975,0.0582565,1.2178705,0.6952075,0.0266235,0.7375905,0.9605775,0.0487905,1.2350005,0.9309475,0.0702275,0.9332655,0.0023445,-0.0007295,1.0667345,-0.0023445,0.0007295,0.8761805,-0.3564125,-0.0249795,1.1301105,-0.3590325,-0.0283665,0.8252005,-0.7595625,-0.0218545,1.2007904999999999,-0.7609825,-0.0254665
1,1.0125469999999999,0.6529615000000001,0.079701,0.8544220000000001,0.5048315000000001,0.051617,0.762112,0.7331015000000001,0.039022,1.142742,0.4791015,0.059449,1.214522,0.6962315,0.028657,0.733542,0.9578215,0.051805,1.230762,0.9323515,0.073698,0.933199,0.0020455,-0.0009929999999999,1.0668009999999999,-0.0020454999999999,0.000993,0.877892,-0.3568485,-0.0255829999999999,1.131842,-0.3583785,-0.0290139999999999,0.8287720000000001,-0.7633485,-0.0226999999999999,1.204292,-0.7606485,-0.0269429999999999
2,1.0112454999999998,0.647447,0.081201,0.8526435,0.500277,0.053062,0.7607335,0.726467,0.040932,1.1414834999999999,0.473537,0.060843,1.2131634999999998,0.690697,0.030188,0.7325135,0.951297,0.053045,1.2293034999999999,0.926607,0.075339,0.9342485000000001,0.003458,-0.008194,1.0657515,-0.003458,0.008194,0.8765835,-0.3623329999999999,-0.0241419999999999,1.1304535,-0.363513,-0.027691,0.8273835,-0.7694329999999999,-0.0211979999999999,1.2029835,-0.766203,-0.0255379999999999
3,1.011844,0.648746,0.081689,0.853003,0.5022960000000001,0.0535439999999999,0.761073,0.7342160000000001,0.042364,1.142073,0.474466,0.060791,1.213583,0.6917260000000001,0.0308009999999999,0.731483,0.958826,0.0546629999999999,1.229683,0.928536,0.076677,0.934061,0.003464,-0.006963,1.065939,-0.003464,0.0069629999999999,0.877193,-0.361084,-0.023678,1.131043,-0.362014,-0.027509,0.827933,-0.7679239999999999,-0.020805,1.203563,-0.764084,-0.024743
4,1.0122345,0.6453265,0.0818895,0.8526025,0.5001265,0.0535875,0.7606325,0.7358065,0.0429435,1.1416724999999999,0.4660765,0.0560125,1.2118025,0.6840765,0.0315345,0.7306225,0.9600665,0.0575925,1.2292525,0.9256765,0.0773665,0.9346355000000001,0.0040415,-0.0112864999999999,1.0653644999999998,-0.0040415,0.0112865,0.8771325000000001,-0.3642235,-0.0241264999999999,1.1310425,-0.3650235,-0.0278974999999999,0.8277325,-0.7716735,-0.0206844999999999,1.2036925,-0.7678535,-0.0247524999999999
5,1.0122624999999998,0.6451105,0.0818025,0.8524835,0.5003205,0.0535005,0.7614935,0.7259505,0.0415935,1.1407935,0.4643105,0.0549245,1.2111735,0.6822605,0.0317105,0.7322435,0.9502705,0.0569645,1.2291234999999998,0.9256905,0.0775805,0.9346795,0.0040655,-0.0118255,1.0653205,-0.0040655,0.0118255,0.8771435,-0.3643495,-0.0242985,1.1309735,-0.3648895,-0.0281495,0.8277535,-0.7722695,-0.0204705,1.2036935,-0.7679995,-0.0248364999999999
6,1.0124105,0.644196,0.0819705,0.8522835,0.500086,0.0533364999999999,0.7611034999999999,0.731896,0.0425445,1.1404635,0.463186,0.0545444999999999,1.2107035,0.681206,0.0318045,0.7310635,0.956086,0.0578474999999999,1.2290335,0.924896,0.0776125,0.9347555,0.0041719999999999,-0.0127575,1.0652445,-0.004172,0.0127574999999999,0.8771235,-0.364834,-0.0243065,1.1309635,-0.365374,-0.0282885,0.8279835,-0.7721439999999999,-0.0201845,1.2037235,-0.768684,-0.0249215
7,1.0126905,0.6452,0.0821409999999999,0.8527454999999999,0.50089,0.0536259999999999,0.7616355000000001,0.73342,0.042827,1.1412555,0.4673,0.058627,1.2118054999999999,0.68496,0.0316619999999999,0.7313455000000001,0.95749,0.0585809999999999,1.2292954999999999,0.92607,0.07783,0.9346045000000001,0.003875,-0.011271,1.0653955,-0.003875,0.011271,0.8773455,-0.36388,-0.024051,1.1311855,-0.36436,-0.0279079999999999,0.8280755000000001,-0.77097,-0.02011,1.2038255,-0.76728,-0.024562
8,1.0126875,0.644747,0.0823145,0.8526745,0.5004369999999999,0.0537995,0.7616345,0.7321669999999999,0.0430005,1.1408444999999998,0.466847,0.0588734999999999,1.2118045,0.684507,0.0318354999999999,0.7312045,0.956157,0.0592995,1.2291444999999999,0.925437,0.0780035,0.9346975,0.003977,-0.0118795,1.0653025,-0.003977,0.0118794999999999,0.8773445,-0.364333,-0.0240345,1.1311844999999998,-0.364813,-0.0278855,0.8280745,-0.7714230000000001,-0.0199365,1.2039445,-0.767243,-0.0243885
9,1.0127225,0.6442085,0.082204,0.8526065,0.5001184999999999,0.053693,0.7616465,0.7316284999999999,0.042976,1.1404165,0.4663085,0.059047,1.2113665,0.6839685,0.03191,0.7310765,0.9555085,0.059557,1.2290065000000001,0.9250785,0.07798,0.9347585,0.0040135,-0.012322,1.0652415,-0.0040135,0.012322,0.8772965,-0.3648015,-0.024161,1.1311265,-0.3651915,-0.028029,0.8280065,-0.7719315,-0.019926,1.2039665,-0.7668515,-0.024395
10,1.0127835,0.64348,0.081921,0.8525754999999999,0.49968,0.0534479999999999,0.7619955,0.73049,0.0424509999999999,1.1396255,0.46619,0.059805,1.2113155,0.68342,0.031979,0.7310755,0.95434,0.0597279999999999,1.2290154999999998,0.92409,0.078212,0.9347705,0.003999,-0.012769,1.0652295,-0.003999,0.0127689999999999,0.8772955,-0.3652999999999999,-0.024274,1.1311155,-0.3656399999999999,-0.028154,0.8279855,-0.77247,-0.019825,1.2040255,-0.76711,-0.024346
11,1.012786,0.642758,0.081688,0.852528,0.4993279999999999,0.053269,0.7623480000000001,0.729628,0.041936,1.138848,0.466198,0.060665,1.211268,0.682988,0.032103,0.7308680000000001,0.953218,0.060035,1.228968,0.923188,0.0784499999999999,0.934823,0.003972,-0.013149,1.065177,-0.003972,0.013149,0.877238,-0.365702,-0.024331,1.131048,-0.366002,-0.028208,0.827908,-0.7729119999999999,-0.019636,1.204038,-0.767272,-0.0242539999999999
12,1.0128185,0.6422225,0.0814225,0.8525055,0.4989825,0.0530985,0.7627355,0.7286725000000001,0.0414425,1.1381855,0.4667725,0.0620835,1.2113855,0.6837725,0.0322785,0.7309355,0.9521725,0.0600804999999999,1.2289455,0.9226825,0.0786485,0.9348434999999999,0.0039535,-0.0135025,1.0651565,-0.0039535,0.0135025,0.8772055,-0.3661075,-0.0243545,1.1310055,-0.3663675,-0.0282315,0.8278655,-0.7733475,-0.0194384999999999,1.2039555,-0.7670875,-0.0241165
13,1.0128484999999998,0.641681,0.081157,0.8524875000000001,0.498601,0.052932,0.7630875,0.727861,0.041024,1.1374875,0.467431,0.063515,1.2115675,0.690361,0.03309,0.7309075,0.951361,0.060138,1.2291075,0.926711,0.078964,0.9348704999999999,0.003929,-0.0138099999999999,1.0651295,-0.003929,0.01381,0.8771675,-0.366529,-0.024352,1.1309475,-0.366739,-0.0282479999999999,0.8278575,-0.773779,-0.0192349999999999,1.2038675,-0.766899,-0.0239329999999999
14,1.0128905,0.6412775000000001,0.080871,0.8525105,0.4982875,0.0527619999999999,0.7635005000000001,0.7268875,0.0404949999999999,1.1368105,0.4682175,0.064996,1.2117705,0.6969675000000001,0.0338399999999999,0.7310405000000001,0.9503275,0.0602169999999999,1.2292205,0.9307175,0.0791999999999999,0.9348935,0.0038865,-0.014045,1.0651065,-0.0038864999999999,0.0140449999999999,0.8771405,-0.3668924999999999,-0.02431,1.1309105,-0.3670825,-0.028229,0.8278405,-0.7741025,-0.019036,1.2038105,-0.7664124999999999,-0.023693
15,1.0128815,0.6405915,0.080455,0.8524905,0.4979415,0.052499,0.7638805,0.7250515,0.039839,1.1361205,0.4689415,0.066201,1.2119305,0.7034415,0.034433,0.7314404999999999,0.9484415,0.059553,1.2292405,0.9346215,0.079306,0.9349335,0.0038585,-0.0143589999999999,1.0650665,-0.0038584999999999,0.014359,0.8770605,-0.3672585,-0.024355,1.1308105,-0.3674084999999999,-0.028307,0.8277805,-0.7744685,-0.0189029999999999,1.2037205,-0.7660985,-0.0235369999999999
16,1.012929,0.6403085000000001,0.0799185,0.8524550000000001,0.4976685,0.0522145,0.7643150000000001,0.7237385000000001,0.0391645,1.135435,0.4696485,0.0671255,1.211895,0.7063585,0.0342615,0.731935,0.9470685,0.0587425,1.2291249999999998,0.9350485,0.0789715,0.934933,0.0038185,-0.0145404999999999,1.065067,-0.0038184999999999,0.0145405,0.8770249999999999,-0.3675215,-0.0243935,1.130755,-0.3676315,-0.0283854999999999,0.827705,-0.7744415,-0.0187644999999999,1.203625,-0.7660414999999999,-0.0233434999999999
17,1.013019,0.6401045,0.079353,0.852448,0.4974145,0.051918,0.764868,0.7228245,0.038471,1.1349179999999999,0.4699545,0.067467,1.211878,0.7086844999999999,0.033778,0.732578,0.9460145,0.058773,1.228898,0.9350845,0.077958,0.9349149999999999,0.0037815,-0.014684,1.065085,-0.0037815,0.014684,0.8770080000000001,-0.3677455,-0.024437,1.130718,-0.3678455,-0.028467,0.827638,-0.7744055000000001,-0.018631,1.2035479999999998,-0.7668155000000001,-0.023155
18,1.0131029999999999,0.6399754999999999,0.0787575,0.852445,0.4972354999999999,0.0516094999999999,0.765485,0.7214855,0.0377625,1.134395,0.4704355,0.0679275,1.211595,0.7106055,0.0332245,0.733275,0.9445655,0.0587005,1.228555,0.9348155,0.0769045,0.934905,0.0037405,-0.0147905,1.065095,-0.0037404999999999,0.0147904999999999,0.876995,-0.3678844999999999,-0.0244905,1.130685,-0.3680044999999999,-0.0285425,0.827565,-0.7743445,-0.0184975,1.203455,-0.7675845,-0.0229685
19,1.013258,0.6401595,0.078216,0.852457,0.4972295,0.051412,0.765997,0.7204794999999999,0.037528,1.134237,0.4705295,0.068041,1.211217,0.7122194999999999,0.032618,0.733887,0.9435595,0.058481,1.228117,0.9351795,0.075645,0.934897,0.0037144999999999,-0.014885,1.065103,-0.0037144999999999,0.014885,0.876987,-0.3679705,-0.024559,1.130657,-0.3680805,-0.0286169999999999,0.827527,-0.7741505000000001,-0.018548,1.2034669999999998,-0.7677205,-0.022966
20,1.013436,0.6403295,0.0776565,0.8524590000000001,0.4971995,0.0512195,0.7665690000000001,0.7195795,0.0373285,1.134039,0.4706495,0.0680065,1.210629,0.7169595,0.0320655,0.7347790000000001,0.9426595,0.0583135,1.227719,0.9384795,0.0746075,0.934889,0.0036865,-0.0149655,1.065111,-0.0036865,0.0149655,0.8769790000000001,-0.3680605,-0.0246245,1.1306289999999999,-0.3681705,-0.0286654999999999,0.8274790000000001,-0.7740005,-0.0186274999999999,1.203529,-0.7682105,-0.0229914999999999
21,1.0136075,0.6404865000000001,0.077125,0.8524645000000001,0.4971365,0.051048,0.7671745,0.7187365,0.037118,1.1336945,0.4706465,0.067934,1.2100245,0.7211265,0.031569,0.7355745,0.9416865,0.05833,1.2272845000000001,0.9415665,0.073476,0.9348765,0.0036415,-0.0150399999999999,1.0651235,-0.0036415,0.01504,0.8769845000000001,-0.3681835,-0.024685,1.1306045,-0.3682735,-0.0287159999999999,0.8274445000000001,-0.7738935,-0.0187019999999999,1.2035244999999999,-0.7679935,-0.0229629999999999
22,1.0137815,0.6402725,0.076721,0.8524865,0.4971225,0.050879,0.7678465,0.7193625,0.0369079999999999,1.1337665,0.4703125,0.067546,1.2092265,0.7217725,0.031461,0.7365065,0.9424125,0.058185,1.2268065,0.9422625,0.072413,0.9348575000000001,0.0035945,-0.015114,1.0651424999999999,-0.0035945,0.0151139999999999,0.8769865,-0.3682674999999999,-0.02476,1.1305965,-0.3683475,-0.0287909999999999,0.8274365,-0.7735875,-0.0187519999999999,1.2035265,-0.7681175,-0.022954
23,1.01397,0.6403725,0.076269,0.852529,0.4970825,0.050711,0.768539,0.7201525000000001,0.036686,1.133759,0.4700725,0.067124,1.208339,0.7221425,0.031362,0.737359,0.9431925,0.058057,1.226809,0.9427425,0.072319,0.9348380000000001,0.0035414999999999,-0.0151629999999999,1.065162,-0.0035414999999999,0.015163,0.876989,-0.3683675,-0.024854,1.130579,-0.3684175,-0.0288849999999999,0.8274190000000001,-0.7733374999999999,-0.018815,1.203429,-0.7676375,-0.022979
24,1.014133,0.64047,0.075797,0.8525469999999999,0.49709,0.050519,0.769217,0.7210300000000001,0.036421,1.133667,0.46989,0.0666279999999999,1.207957,0.72202,0.030423,0.737887,0.94391,0.057911,1.226337,0.94277,0.0715919999999999,0.934831,0.00349,-0.0151729999999999,1.065169,-0.00349,0.0151729999999999,0.876977,-0.36848,-0.024975,1.130557,-0.3685,-0.0290069999999999,0.827347,-0.77306,-0.018888,1.203187,-0.76723,-0.023015
25,1.0143025,0.640193,0.0753399999999999,0.8526075,0.497063,0.0501869999999999,0.7700075,0.721483,0.036028,1.1335375,0.469433,0.065561,1.2070375,0.720103,0.028239,0.7383474999999999,0.944323,0.057685,1.2253175,0.940973,0.068885,0.9347955,0.003428,-0.0151379999999999,1.0652045,-0.003428,0.0151379999999999,0.8769575000000001,-0.368577,-0.025121,1.1305075,-0.368607,-0.029116,0.8272275,-0.773497,-0.019087,1.2029775,-0.767157,-0.023049
26,1.014406,0.6399765000000001,0.074881,0.852599,0.4970864999999999,0.049814,0.7706390000000001,0.7214665,0.035594,1.133369,0.4689965,0.064534,1.206149,0.7184665,0.026055,0.7386890000000002,0.9444365,0.057286,1.224329,0.9395165,0.066193,0.934739,0.0033495,-0.0151239999999999,1.065261,-0.0033495,0.015124,0.876919,-0.3687035,-0.0253029999999999,1.130429,-0.3687335,-0.0292479999999999,0.8270890000000001,-0.7739535,-0.019343,1.202789,-0.7674234999999999,-0.0232939999999999
27,1.014388,0.639818,0.074274,0.852554,0.496948,0.04928,0.771144,0.720858,0.034997,1.133144,0.468538,0.06335,1.205074,0.714488,0.023742,0.739004,0.943718,0.057315,1.223284,0.935768,0.063301,0.9346770000000001,0.003251,-0.015018,1.0653229999999998,-0.0032509999999999,0.015018,0.876834,-0.368842,-0.02563,1.130354,-0.368962,-0.029523,0.8269240000000001,-0.774442,-0.019747,1.202534,-0.767902,-0.023722
28,1.0143119999999999,0.63976,0.073589,0.852519,0.4967,0.048681,0.771419,0.72143,0.034338,1.132939,0.46817,0.062147,1.204589,0.71216,0.022361,0.739289,0.94403,0.056851,1.2226089999999998,0.93348,0.061112,0.934606,0.003126,-0.0147769999999999,1.065394,-0.003126,0.014777,0.876739,-0.36898,-0.0260199999999999,1.1302789999999998,-0.36921,-0.029848,0.8267990000000001,-0.77522,-0.0202639999999999,1.202249,-0.76867,-0.024193
29,1.0142145,0.639767,0.0728985,0.8524535,0.496357,0.0480695,0.7715235000000001,0.721707,0.0336135,1.1327335,0.467857,0.0609274999999999,1.2041235000000001,0.711517,0.0210145,0.7392935,0.944197,0.0563744999999999,1.2220135,0.933027,0.0589414999999999,0.9345155,0.002973,-0.0145595,1.0654845,-0.0029729999999999,0.0145594999999999,0.8766135,-0.369213,-0.0264475,1.1301835,-0.369413,-0.0301865,0.8266735000000001,-0.7759830000000001,-0.0207905,1.2019535000000001,-0.769633,-0.0246685
30,1.0140895,0.639808,0.0721175,0.8523895,0.4961179999999999,0.0474025,0.7714795,0.722568,0.0327265,1.1324995,0.467578,0.0597235,1.2035395,0.711098,0.0190685,0.7392894999999999,0.944998,0.0558445,1.2212195000000001,0.932608,0.0560605,0.9344085,0.002843,-0.0143965,1.0655915,-0.0028429999999999,0.0143965,0.8764595,-0.369392,-0.0269324999999999,1.1300595,-0.369522,-0.0305734999999999,0.8265095,-0.776682,-0.0213975,1.2015895,-0.769792,-0.0252434999999999
31,1.0138145,0.6398705,0.0711275,0.8522695,0.4958904999999999,0.0466125,0.7712995000000001,0.7225105,0.0314855,1.1322094999999999,0.4672905,0.0584485,1.2028995,0.7130605000000001,0.0166205,0.7392194999999999,0.9450605,0.0551895,1.2209794999999999,0.9347205,0.0526495,0.9342695,0.0027124999999999,-0.0142554999999999,1.0657305,-0.0027124999999999,0.0142555,0.8762495,-0.3695795,-0.0275634999999999,1.1298995,-0.3696295,-0.0311515,0.8263195,-0.7773395,-0.0221134999999999,1.2011395,-0.7698995,-0.0259334999999999
32,1.013647,0.6398999999999999,0.0703834999999999,0.852287,0.49566,0.0460335,0.771297,0.7222299999999999,0.0303354999999999,1.132127,0.46694,0.0574844999999999,1.202517,0.71546,0.0143544999999999,0.739337,0.94502,0.0536564999999999,1.220257,0.93714,0.0491254999999999,0.934272,0.0026219999999999,-0.0138585,1.065728,-0.002622,0.0138584999999999,0.876187,-0.36978,-0.0279675,1.129917,-0.36978,-0.0315485,0.826317,-0.7779900000000001,-0.0226105,1.200837,-0.76971,-0.0264695
33,1.0134299999999998,0.6399275,0.069562,0.852279,0.4954675,0.045385,0.771289,0.7226975,0.0289229999999999,1.132309,0.4664975,0.056386,1.202149,0.7178675000000001,0.0120569999999999,0.739409,0.9456875,0.051704,1.219549,0.9397175,0.045683,0.934271,0.0025234999999999,-0.013425,1.065729,-0.0025235,0.013425,0.8761190000000001,-0.3699925,-0.028406,1.129959,-0.3699025,-0.031983,0.826299,-0.7787824999999999,-0.02317,1.200679,-0.7700324999999999,-0.0270849999999999
34,1.013091,0.6401009999999999,0.068661,0.85228,0.495591,0.044795,0.77128,0.7232109999999999,0.0271259999999999,1.1323400000000001,0.466311,0.055885,1.2018,0.7206009999999999,0.0102039999999999,0.7397199999999999,0.946161,0.048643,1.21893,0.942991,0.042766,0.93427,0.002484,-0.0130499999999999,1.06573,-0.002484,0.0130499999999999,0.87607,-0.370179,-0.028787,1.13003,-0.369919,-0.032358,0.82622,-0.7793490000000001,-0.023686,1.20054,-0.770219,-0.027791
35,1.0128825,0.639872,0.0674734999999999,0.8524585,0.495332,0.0439065,0.7713685,0.723582,0.0248504999999999,1.1325585,0.465962,0.0551155,1.2016085,0.721012,0.0079955,0.7402885,0.946602,0.0449875,1.2183485,0.943962,0.0380985,0.9341165,0.0023619999999999,-0.0119075,1.0658835,-0.002362,0.0119075,0.8761285,-0.370438,-0.0295095,1.1302885,-0.370178,-0.0330115,0.8263185,-0.779958,-0.0244694999999999,1.2007185,-0.770478,-0.0287455
36,1.012658,0.639588,0.0662275,0.8526520000000001,0.495048,0.0429574999999999,0.7714120000000001,0.723958,0.0223575,1.132792,0.465718,0.0543745,1.201562,0.721248,0.0055944999999999,0.7408720000000001,0.947088,0.0408215,1.217802,0.944718,0.0335275,0.9339729999999999,0.002238,-0.0108115,1.066027,-0.002238,0.0108114999999999,0.876102,-0.370722,-0.0304065,1.130602,-0.370332,-0.0338505,0.826432,-0.780632,-0.0254175,1.2009319999999999,-0.771402,-0.0300415
37,1.012156,0.639163,0.064558,0.852808,0.494403,0.0417769999999999,0.771388,0.724163,0.019319,1.133078,0.465423,0.053543,1.201608,0.723553,0.0026899999999999,0.741698,0.947523,0.036211,1.217418,0.947273,0.028935,0.933878,0.0021559999999999,-0.009679,1.066122,-0.002156,0.009679,0.875968,-0.371337,-0.03194,1.131118,-0.370797,-0.035223,0.826648,-0.781617,-0.026785,1.201348,-0.772597,-0.031631
38,1.0117495,0.638741,0.062843,0.8530265000000001,0.4937809999999999,0.0405429999999999,0.7714765,0.723511,0.0161209999999999,1.1334665,0.465021,0.0526369999999999,1.2017065,0.725131,-0.000477,0.7432165,0.947911,0.03158,1.2171764999999999,0.949091,0.024109,0.9338835,0.0020749999999999,-0.008485,1.0661165,-0.002075,0.0084849999999999,0.8758065000000002,-0.372089,-0.033853,1.1318465,-0.371299,-0.03697,0.8269165,-0.7828390000000001,-0.028401,1.2018564999999999,-0.774439,-0.033445
39,1.011295,0.6385430000000001,0.060417,0.853204,0.493613,0.038729,0.771604,0.723493,0.0123929999999999,1.133914,0.465043,0.051234,1.201904,0.725453,-0.003886,0.744734,0.948423,0.026722,1.217184,0.949723,0.019046,0.9339570000000001,0.0020529999999999,-0.0076619999999999,1.0660429999999999,-0.0020529999999999,0.0076619999999999,0.875544,-0.372457,-0.036496,1.132694,-0.371357,-0.039534,0.8269839999999999,-0.783917,-0.030932,1.202424,-0.775887,-0.0360319999999999
40,1.010826,0.6382220000000001,0.057811,0.853251,0.493542,0.036767,0.771641,0.723012,0.008634,1.1342809999999999,0.4651119999999999,0.049724,1.201961,0.725682,-0.0074589999999999,0.745981,0.949132,0.022894,1.217571,0.950282,0.014024,0.933939,0.0019839999999999,-0.006754,1.066061,-0.0019839999999999,0.006754,0.8749709999999999,-0.372548,-0.0394889999999999,1.1335609999999998,-0.3714079999999999,-0.042392,0.826891,-0.785028,-0.0336999999999999,1.203001,-0.777338,-0.03887
41,1.010384,0.6376575,0.0547195,0.853307,0.4934975,0.0346295,0.771647,0.7222975,0.0043774999999999,1.134607,0.4651975,0.0478035,1.202227,0.7255575,-0.0115144999999999,0.7472270000000001,0.9496275,0.0184715,1.217967,0.9505875,0.0089045,0.933856,0.0019235,-0.0056965,1.066144,-0.0019234999999999,0.0056965,0.874217,-0.3724625,-0.0428985,1.134797,-0.3717025,-0.0459835,0.826547,-0.7859225,-0.0367145,1.2036069999999999,-0.7785225,-0.0420274999999999
42,1.009624,0.636706,0.0509784999999999,0.852975,0.493436,0.0322875,0.771375,0.7216359999999999,-0.0001995,1.134725,0.465296,0.0458144999999999,1.202325,0.7256659999999999,-0.0159365,0.7482150000000001,0.949736,0.0141334999999999,1.218095,0.950696,0.0034334999999999,0.9336450000000001,0.0018939999999999,-0.0047705,1.066355,-0.0018939999999999,0.0047705,0.872825,-0.372374,-0.0467025,1.136045,-0.371934,-0.0500144999999999,0.825655,-0.786904,-0.0400125,1.204215,-0.779874,-0.0454975
43,1.0089834999999998,0.6370709999999999,0.0463994999999999,0.8526545,0.494741,0.0293025,0.7710745,0.720901,-0.0054675,1.1348445,0.466781,0.0430905,1.2025145,0.727521,-0.0211985,0.7488545,0.951481,0.0103445,1.2181045,0.952551,-0.0043855,0.9334955,0.001719,-0.0035754999999999,1.0665045,-0.0017189999999999,0.0035755,0.8711045,-0.370679,-0.0511444999999999,1.1376245,-0.370449,-0.0548155,0.8246645,-0.785869,-0.0438645,1.2049145,-0.779509,-0.0496734999999999
44,1.0083005,0.6374775,0.0414849999999999,0.8522745,0.4963575,0.026442,0.7711145,0.7201275,-0.010667,1.1349945,0.4681774999999999,0.0394879999999999,1.2026245,0.7299975,-0.026382,0.7490844999999999,0.9536175,0.0070459999999999,1.2183445,0.9550275,-0.010488,0.9333695,0.0017055,-0.002901,1.0666305,-0.0017055,0.0029009999999999,0.8689245,-0.3685025,-0.05548,1.1396045,-0.3684025,-0.059555,0.8231945,-0.7833925,-0.0480219999999999,1.2058245,-0.7775725,-0.053769
45,1.0075885,0.6381315000000001,0.035529,0.8518765,0.4945415,0.0207539999999999,0.7711865,0.7195615000000001,-0.016401,1.1352465,0.4706815,0.034373,1.2027565,0.7336815,-0.032093,0.7491765,0.9571315,0.0034219999999999,1.2186665,0.9589915,-0.016986,0.9332465,0.0016744999999999,-0.002222,1.0667535,-0.0016745,0.0022219999999999,0.8661965,-0.3646385,-0.060324,1.1420465,-0.3646885,-0.064806,0.8212965,-0.7791785,-0.052791,1.2070665,-0.7733585,-0.058203
46,1.007546,0.6388895,0.029112,0.8515070000000001,0.4927795,0.014902,0.771237,0.7199095,-0.0219479999999999,1.135517,0.4735495,0.029196,1.2032370000000001,0.7340595,-0.038778,0.749957,0.9609995,-0.0004329999999999,1.218707,0.9591995,-0.0234979999999999,0.933154,0.0016385,-0.0017149999999999,1.066846,-0.0016385,0.001715,0.863047,-0.3603305,-0.064954,1.144767,-0.3606105,-0.0699709999999999,0.819237,-0.7744105,-0.057599,1.208567,-0.7686605,-0.063058
47,1.0076155,0.6417445,0.0198775,0.8509555,0.4940445,0.0060884999999999,0.7713455,0.7223945,-0.0302635,1.1360454999999998,0.4738144999999999,0.0181095,1.2039455000000001,0.7388145,-0.0475825,0.7507055,0.9697345,-0.0063405,1.2194155,0.9639045,-0.0319415,0.9327915,0.0018264999999999,-0.0030085,1.0672085,-0.0018265,0.0030084999999999,0.8578555,-0.3512955,-0.0722495,1.1499555,-0.3538955,-0.0789355,0.8167255,-0.7635955,-0.0647345,1.2104854999999999,-0.7579954999999999,-0.0704705
48,1.0077135,0.643752,0.010018,0.8510615000000001,0.495042,-0.0027799999999999,0.7714515,0.724112,-0.0388919999999999,1.1364415,0.474202,0.006895,1.2046515,0.738162,-0.057795,0.7514715000000001,0.977552,-0.012576,1.2202915,0.966512,-0.0405699999999999,0.9323915,0.001879,-0.004274,1.0676085,-0.001879,0.004274,0.8517415,-0.343858,-0.080379,1.1551715,-0.347058,-0.087633,0.8140115,-0.7520479999999999,-0.072103,1.2133115,-0.746188,-0.079612
49,1.0076125,0.644227,1.9000000000000787e-05,0.8509685000000001,0.494797,-0.012415,0.7714185,0.722157,-0.049086,1.1365285,0.473757,-0.004331,1.2052685,0.739107,-0.067661,0.7516785,0.976137,-0.021702,1.2210085,0.967587,-0.051002,0.9318285,0.001722,-0.005459,1.0681715,-0.0017219999999999,0.005459,0.8452485000000001,-0.335253,-0.088556,1.1601785,-0.338013,-0.096016,0.8106785,-0.738533,-0.079905,1.2158785,-0.731933,-0.088784
50,1.0077384999999999,0.64402,-0.0100539999999999,0.8510935,0.49376,-0.022215,0.7717535,0.72016,-0.058757,1.1370535,0.47322,-0.015238,1.2063035,0.74067,-0.077404,0.7518635000000001,0.97549,-0.031118,1.2217635,0.96926,-0.0610039999999999,0.9314505,0.001667,-0.006678,1.0685495,-0.001667,0.006678,0.8388835,-0.32594,-0.096575,1.1652135000000001,-0.32852,-0.10389,0.8074635,-0.7235699999999999,-0.088013,1.2185934999999999,-0.71596,-0.0976799999999999
51,1.0077425,0.6433019999999999,-0.019482,0.8508085000000001,0.490052,-0.032414,0.7711485000000001,0.719692,-0.068699,1.1370084999999999,0.471002,-0.02708,1.2069185,0.743072,-0.08718,0.7514585000000001,0.976342,-0.040898,1.2212585,0.971762,-0.071244,0.9310585,0.001542,-0.006827,1.0689415,-0.001542,0.006827,0.8319685,-0.314938,-0.104216,1.1693085,-0.317218,-0.111396,0.8025185000000001,-0.704388,-0.0979559999999999,1.2205885,-0.701128,-0.1060359999999999
52,1.0081665,0.6410585,-0.027657,0.8509455,0.4861685,-0.042507,0.7712654999999999,0.7167684999999999,-0.079336,1.1373055,0.4681185,-0.038189,1.2079655,0.7443785,-0.097012,0.7513955,0.9768685,-0.051063,1.2210855,0.9732085,-0.08047,0.9311675000000001,0.0014954999999999,-0.007162,1.0688324999999999,-0.0014954999999999,0.007162,0.8255955,-0.3045215,-0.111289,1.1735354999999998,-0.3062615,-0.118119,0.7979755,-0.6859415,-0.107559,1.2228155,-0.6865515,-0.113559
53,1.00904,0.6372015,-0.0364845,0.851123,0.4817015,-0.0534125,0.771423,0.7149015,-0.0900265,1.137903,0.4647415,-0.0482995,1.209283,0.7375815,-0.1082655,0.751433,0.9785215,-0.0620635,1.220913,0.9731815,-0.0903625,0.9312950000000001,0.0014764999999999,-0.0075635,1.068705,-0.0014765,0.0075634999999999,0.819373,-0.2933385,-0.1182755,1.177693,-0.2942285,-0.1247455,0.795073,-0.6701285,-0.1147655,1.224753,-0.6709385,-0.1211555
54,1.0099334999999998,0.638075,-0.0523875,0.8540185,0.4847249999999999,-0.0701205,0.7712585000000001,0.712975,-0.1102065,1.1382085,0.460995,-0.0668285,1.2115285,0.731785,-0.1282714999999999,0.7517585,0.981865,-0.0844445,1.2207785,0.967655,-0.1113315,0.9314645,0.001715,-0.0069875,1.0685355,-0.0017149999999999,0.0069875,0.8123184999999999,-0.273925,-0.1339715,1.1845685,-0.274105,-0.1422415,0.7925584999999999,-0.645395,-0.1288815,1.2263285,-0.647695,-0.1358915
55,1.011185,0.6283399999999999,-0.0682055,0.8568140000000001,0.48846,-0.0880315,0.771374,0.7118099999999999,-0.1307225,1.138444,0.46051,-0.0861035,1.213484,0.73299,-0.1477025,0.752084,0.9776,-0.1097875,1.220734,0.96919,-0.1327424999999999,0.931797,0.0024799999999999,-0.0065985,1.068203,-0.00248,0.0065985,0.805044,-0.25131,-0.1511025,1.191074,-0.25021,-0.1601925,0.7902840000000001,-0.6166200000000001,-0.1432425,1.227434,-0.62071,-0.1508225
56,1.012214,0.61744,-0.081941,0.859452,0.4866,-0.103725,0.770972,0.7081799999999999,-0.150167,1.138552,0.46045,-0.100984,1.2155420000000001,0.72612,-0.167257,0.752192,0.97077,-0.13363,1.220602,0.96392,-0.153717,0.931995,0.00264,-0.004954,1.068005,-0.00264,0.004954,0.799472,-0.2307,-0.167307,1.195532,-0.22752,-0.176497,0.788372,-0.59257,-0.155567,1.227682,-0.59563,-0.163397
57,1.0132635,0.608145,-0.094732,0.8624975,0.484355,-0.119567,0.7707375000000001,0.701585,-0.170037,1.1387875,0.460385,-0.115791,1.2180075,0.722905,-0.185597,0.7524575,0.961455,-0.159037,1.2207175000000001,0.960655,-0.174767,0.9323325000000001,0.002925,-0.003308,1.0676675,-0.0029249999999999,0.0033079999999999,0.7950475000000001,-0.208125,-0.182877,1.2002275,-0.2046649999999999,-0.193477,0.7870975,-0.5676749999999999,-0.1671969999999999,1.2273075,-0.569915,-0.174047
58,1.013895,0.5993649999999999,-0.106623,0.8655820000000001,0.483555,-0.134787,0.770302,0.701845,-0.1875379999999999,1.1390719999999999,0.4633049999999999,-0.130523,1.220212,0.717805,-0.203628,0.7523219999999999,0.966325,-0.180818,1.220972,0.957275,-0.195598,0.932908,0.0028449999999999,-0.0019209999999999,1.067092,-0.002845,0.0019209999999999,0.7906420000000001,-0.182155,-0.1980279999999999,1.204772,-0.179035,-0.210578,0.786402,-0.539255,-0.177238,1.226682,-0.5406550000000001,-0.184068
59,1.0141,0.59185,-0.1182635,0.868622,0.48285,-0.1493425,0.769392,0.7004900000000001,-0.2052655,1.139342,0.46144,-0.1451565,1.222002,0.71285,-0.2210655,0.7511220000000001,0.97104,-0.2016955,1.220442,0.95391,-0.2160955,0.933879,0.00307,-0.0007744999999999,1.066121,-0.00307,0.0007744999999999,0.785972,-0.15664,-0.2133054999999999,1.209062,-0.1546199999999999,-0.2284855,0.785282,-0.5116099999999999,-0.1862655,1.225562,-0.5127599999999999,-0.1935755
60,1.0135634999999998,0.5846100000000001,-0.129712,0.8708365,0.48374,-0.162682,0.7684565,0.69775,-0.221573,1.1395165,0.46133,-0.157916,1.2242965,0.70408,-0.238513,0.7497765000000001,0.97314,-0.221103,1.2204065,0.94739,-0.236573,0.9347075,0.00339,5.199999999999649e-05,1.0652925,-0.00339,-5.199999999999649e-05,0.7808665,-0.13423,-0.229763,1.2135365,-0.1323099999999999,-0.246523,0.7840165,-0.48574,-0.1938929999999999,1.2239765,-0.48928,-0.201623
61,1.0128139999999999,0.57904,-0.14139,0.871693,0.4824699999999999,-0.175148,0.767183,0.6939500000000001,-0.236139,1.139433,0.46001,-0.170427,1.226323,0.6962999999999999,-0.254619,0.748193,0.9726,-0.239439,1.2199529999999998,0.94248,-0.254909,0.935469,0.0036999999999999,0.000612,1.0645310000000001,-0.0037,-0.000612,0.775503,-0.1109,-0.245719,1.2176429999999998,-0.1094,-0.264069,0.782383,-0.46087,-0.200699,1.221973,-0.46467,-0.209079
62,1.01103,0.576855,-0.152352,0.872342,0.4815049999999999,-0.186057,0.764932,0.689265,-0.249544,1.138772,0.459545,-0.182225,1.227512,0.6925049999999999,-0.269174,0.746452,0.961535,-0.259044,1.220362,0.932465,-0.274034,0.936011,0.003755,0.0014129999999999,1.063989,-0.003755,-0.0014129999999999,0.7699819999999999,-0.0877649999999999,-0.261034,1.221332,-0.087255,-0.280924,0.780662,-0.4362649999999999,-0.206454,1.219582,-0.439365,-0.215464
63,1.009612,0.569455,-0.1581214999999999,0.870869,0.477385,-0.1914834999999999,0.763069,0.684145,-0.2555435,1.138539,0.456728,-0.1868734999999999,1.2279390000000001,0.6875450000000001,-0.2770135,0.745139,0.948765,-0.2687035,1.221369,0.928325,-0.2838435,0.936277,0.004055,0.0014115,1.063723,-0.0040549999999999,-0.0014114999999999,0.766139,-0.0734549999999999,-0.2697135,1.222469,-0.0736949999999999,-0.2886634999999999,0.7806690000000001,-0.422435,-0.2042935,1.217539,-0.4187449999999999,-0.2160735
64,1.0080205,0.57335,-0.1648985,0.8691885,0.470198,-0.1961415,0.7608285,0.68007,-0.2628515,1.1379985,0.451062,-0.1920215,1.2281585,0.67547,-0.2857215,0.7434985000000001,0.94656,-0.2778915,1.2237585,0.92509,-0.2955815,0.9366855000000001,0.00302,0.0014084999999999,1.0633145,-0.0030199999999999,-0.0014085,0.7627185,-0.05839,-0.2781814999999999,1.2239685,-0.0596799999999999,-0.2973615,0.7808285,-0.40859,-0.2022115,1.2152885,-0.39737,-0.2166715
65,1.0059179999999999,0.57666,-0.1716094999999999,0.867051,0.467659,-0.2008964999999999,0.7580210000000001,0.67903,-0.2696665,1.1369609999999999,0.447743,-0.1968165,1.227571,0.66964,-0.2929765,0.7410209999999999,0.94495,-0.2869865,1.226791,0.92625,-0.3074065,0.936717,0.0029,0.0014085,1.063283,-0.0029,-0.0014084999999999,0.759271,-0.0434299999999999,-0.2856265,1.224611,-0.04485,-0.3045365,0.779391,-0.38939,-0.2017065,1.212511,-0.37685,-0.2168365
66,1.0048185,0.579935,-0.1766025,0.8663255,0.466823,-0.2029615,0.7565554999999999,0.682005,-0.2739215,1.1369755,0.444983,-0.1992515,1.2279255,0.663915,-0.2984615,0.7390055,0.947725,-0.2919315,1.2314155,0.926945,-0.3166115,0.9375525,0.0027949999999999,0.0012434999999999,1.0624475,-0.0027949999999999,-0.0012435,0.7572655,-0.0279649999999999,-0.2907715,1.2265754999999998,-0.0290449999999999,-0.3089115,0.7786455,-0.3697249999999999,-0.1993615,1.2106355,-0.355665,-0.2150215
67,1.0028815,0.584455,-0.1807405,0.8641505,0.4641389999999999,-0.2035725,0.7543605000000001,0.683205,-0.2777725,1.1360905,0.4377,-0.2002225,1.2277005,0.661165,-0.3026925,0.7361905,0.946835,-0.2962625,1.2356205,0.929785,-0.3250925,0.9371345000000001,0.0032649999999999,0.0012964999999999,1.0628654999999998,-0.003265,-0.0012965,0.7550605,-0.014805,-0.2945025,1.2280005,-0.014885,-0.3115025,0.7772905,-0.352395,-0.1957625,1.2081005,-0.336745,-0.2116825
68,1.001051,0.588883,-0.1834785,0.862847,0.462443,-0.2034885,0.752247,0.6883750000000001,-0.2807985,1.135077,0.437186,-0.2001185,1.227867,0.659365,-0.3066284999999999,0.733627,0.944255,-0.3026585,1.2401769999999999,0.926685,-0.3328485,0.936851,0.003135,0.0012664999999999,1.063149,-0.0031349999999999,-0.0012665,0.753187,0.000155,-0.2970685,1.2295269999999998,0.001695,-0.3120684999999999,0.776127,-0.333495,-0.1915785,1.2059669999999998,-0.315585,-0.2074685
69,0.9997185,0.593307,-0.1852335,0.8616975,0.460782,-0.2027834999999999,0.7505775,0.69386,-0.2832035,1.1342575,0.434838,-0.1997334999999999,1.2275775,0.66047,-0.3095434999999999,0.7311175,0.94219,-0.3088735,1.2441575,0.92538,-0.3395135,0.9366025,0.0030299999999999,0.0012835,1.0633975,-0.0030299999999999,-0.0012834999999999,0.7514675,0.01658,-0.2970935,1.2308275,0.01872,-0.3111635,0.7750475,-0.3143899999999999,-0.1881835,1.2040575,-0.2944799999999999,-0.2031635
70,0.9985825,0.596956,-0.1858375,0.8609545000000001,0.460544,-0.2015374999999999,0.7488245,0.70352,-0.2846975,1.1336645,0.4335299999999999,-0.1985675,1.2277445,0.65846,-0.3122575,0.7287945,0.94212,-0.3143475,1.2483544999999998,0.92058,-0.3459375,0.9364495,0.00307,0.0013594999999999,1.0635505,-0.00307,-0.0013594999999999,0.7500445,0.0324999999999999,-0.2966175,1.2320045,0.0353099999999999,-0.3094875,0.7743545000000001,-0.2945299999999999,-0.1836975,1.2024345,-0.2739399999999999,-0.1988375
71,0.9982175000000001,0.598385,-0.1852015,0.8600265,0.4619399999999999,-0.1999215,0.7473665,0.7061,-0.2860515,1.1332165,0.4333199999999999,-0.1970615,1.2282264999999999,0.6625759999999999,-0.3138315,0.7266265000000001,0.94635,-0.3167715,1.2515965,0.9243,-0.3498814999999999,0.9364175,0.0030899999999999,0.0014495,1.0635825,-0.00309,-0.0014495,0.7496065000000001,0.0493099999999999,-0.2957214999999999,1.2327664999999999,0.0533299999999999,-0.3068815,0.7739265,-0.27361,-0.1788715,1.2009565,-0.25268,-0.1941815
72,0.998335,0.600535,-0.183701,0.859384,0.46308,-0.197401,0.7461440000000001,0.7074,-0.287191,1.133054,0.43484,-0.195051,1.229074,0.6641090000000001,-0.314931,0.724614,0.95021,-0.319621,1.255104,0.92611,-0.354081,0.936435,0.00278,0.0013959999999999,1.063565,-0.00278,-0.001396,0.750304,0.06594,-0.294231,1.2332139999999998,0.07105,-0.303901,0.774454,-0.2566199999999999,-0.174231,1.199814,-0.23851,-0.187641
73,0.9988105,0.603114,-0.181302,0.8592645000000001,0.4651350000000001,-0.194892,0.7449245,0.709397,-0.287362,1.1332745,0.435455,-0.1925219999999999,1.2302445,0.6708200000000001,-0.315092,0.7228445,0.954225,-0.320422,1.2575745,0.926125,-0.356672,0.9363265000000001,0.002985,0.001483,1.0636735,-0.002985,-0.0014829999999999,0.7516345,0.080425,-0.292142,1.2330645,0.086305,-0.300232,0.7759045,-0.245185,-0.170072,1.1985845,-0.228615,-0.181012
74,0.999333,0.605983,-0.1792139999999999,0.859145,0.465875,-0.192504,0.742835,0.7113200000000001,-0.288104,1.133545,0.436465,-0.189774,1.231515,0.676009,-0.315214,0.7215750000000001,0.955975,-0.321404,1.259365,0.925335,-0.358454,0.936241,0.002865,0.0015299999999999,1.063759,-0.002865,-0.00153,0.753205,0.093795,-0.289994,1.232675,0.0995949999999999,-0.297034,0.775505,-0.2358049999999999,-0.168004,1.1973049999999998,-0.220615,-0.174824
75,0.9997475,0.6078410000000001,-0.1764525,0.8587305000000001,0.465395,-0.1902625,0.7409405,0.7118610000000001,-0.2869725,1.1337605,0.436415,-0.1870824999999999,1.2328505,0.681234,-0.3143825,0.7200905,0.956575,-0.3221725,1.2609305,0.925895,-0.3599625,0.9361254999999999,0.002785,0.0014715,1.0638745,-0.0027849999999999,-0.0014715,0.7549605,0.106885,-0.2874525,1.2322605,0.112315,-0.2940125,0.7750805000000001,-0.2288249999999999,-0.1663125,1.1958305,-0.2139849999999999,-0.1687825
76,1.0001625,0.6111650000000001,-0.1735775,0.8591465,0.46845,-0.1873975,0.7405665,0.7136600000000001,-0.2840975,1.1337765,0.44069,-0.1842175,1.2342765,0.684312,-0.3131275,0.7181965,0.95836,-0.3217175,1.2615865,0.92912,-0.3584375,0.9357325,0.00268,0.0014645,1.0642675,-0.00268,-0.0014645,0.7569065,0.12082,-0.2845875,1.2318864999999999,0.12505,-0.2906875,0.7765065,-0.22158,-0.1625275,1.1899865,-0.2129999999999999,-0.1625774999999999
77,1.0006134999999998,0.614083,-0.171182,0.8595405,0.47131,-0.184992,0.7399105,0.71009,-0.281692,1.1336605,0.44297,-0.181812,1.2355005,0.6853870000000001,-0.311772,0.7166505000000001,0.96145,-0.319492,1.2622105,0.938,-0.357282,0.9353175,0.00278,0.0014459999999999,1.0646825,-0.00278,-0.001446,0.7588105,0.13309,-0.282202,1.2311605,0.1354199999999999,-0.287052,0.7779905,-0.21746,-0.158482,1.1839605,-0.2143699999999999,-0.160132
78,1.000408,0.6170640000000001,-0.1689175,0.859409,0.4748300000000001,-0.1827275,0.738919,0.7019320000000001,-0.2794175,1.133319,0.44628,-0.1795475,1.2363989999999998,0.6860900000000001,-0.3099175,0.7149490000000001,0.96282,-0.3172175,1.262619,0.94546,-0.3556775,0.935,0.00279,0.0014795,1.065,-0.0027899999999999,-0.0014795,0.760329,0.14507,-0.2799475,1.229679,0.1454200000000001,-0.2830175,0.779729,-0.2140599999999999,-0.1566575,1.181519,-0.2142499999999999,-0.1568375
79,1.000131,0.6194900000000001,-0.1673875,0.859531,0.4762700000000001,-0.1807175,0.737811,0.691963,-0.2780475,1.132891,0.4476,-0.1775375,1.236981,0.6890360000000001,-0.3088774999999999,0.713311,0.95872,-0.3160675,1.262991,0.94796,-0.3557174999999999,0.9347570000000001,0.00278,0.0016684999999999,1.065243,-0.00278,-0.0016685,0.7615810000000001,0.15716,-0.2786075,1.227401,0.15515,-0.2793275,0.781281,-0.2046399999999999,-0.1531575,1.178881,-0.2138499999999999,-0.1548875
80,0.999809,0.6218049999999999,-0.166658,0.859701,0.4759549999999999,-0.179768,0.736781,0.6883509999999999,-0.2771679999999999,1.132541,0.447295,-0.176778,1.237591,0.689008,-0.308978,0.711821,0.957545,-0.315908,1.263441,0.947655,-0.356878,0.934451,0.0031649999999999,0.001777,1.065549,-0.0031649999999999,-0.001777,0.762331,0.1668649999999999,-0.278008,1.224841,0.1622749999999999,-0.2766079999999999,0.782941,-0.2013249999999999,-0.151318,1.172411,-0.218725,-0.154738
81,0.9992415000000001,0.623645,-0.166014,0.8596655,0.4749649999999999,-0.178864,0.7356255,0.685101,-0.275744,1.1319155,0.446835,-0.176114,1.2378855,0.690035,-0.309204,0.7108855000000001,0.955055,-0.315324,1.2631755,0.947385,-0.357624,0.9341875,0.0034149999999999,0.0017789999999999,1.0658125,-0.003415,-0.001779,0.7626055,0.175775,-0.277444,1.2220455000000001,0.168455,-0.2738939999999999,0.7833455,-0.200825,-0.1484039999999999,1.1711955,-0.218005,-0.1547339999999999
82,0.9987140000000001,0.624375,-0.16531,0.859464,0.475395,-0.17793,0.734144,0.6797880000000001,-0.27429,1.131354,0.446495,-0.17539,1.238114,0.688965,-0.30933,0.710304,0.949735,-0.31473,1.263404,0.943995,-0.35888,0.934009,0.0039449999999999,0.00178,1.065991,-0.0039449999999999,-0.0017799999999999,0.762744,0.182145,-0.27682,1.219544,0.172425,-0.27142,0.783594,-0.197905,-0.14583,1.1700840000000001,-0.218935,-0.15787
83,0.9981575,0.62496,-0.165002,0.8592445,0.4753099999999999,-0.177222,0.7326845,0.673729,-0.273572,1.1308045,0.4457799999999999,-0.174942,1.2382245,0.686921,-0.3097419999999999,0.7087345,0.94369,-0.314712,1.2634845,0.93953,-0.360392,0.9338625,0.0043499999999999,0.0020459999999999,1.0661375,-0.00435,-0.0020459999999999,0.7628945,0.18752,-0.276362,1.2173744999999998,0.1759499999999999,-0.269602,0.7843945,-0.19606,-0.145172,1.1635345,-0.22122,-0.162852
84,0.9976915,0.6257600000000001,-0.164648,0.8591035,0.4753300000000001,-0.176638,0.7315035,0.6669100000000001,-0.272938,1.1303334999999999,0.44533,-0.174648,1.2382035,0.6862710000000001,-0.310288,0.7073435,0.9373,-0.314768,1.2635334999999999,0.93409,-0.361988,0.9337145,0.0047100000000001,0.002409,1.0662855,-0.0047099999999999,-0.002409,0.7629735,0.19225,-0.275878,1.2154835,0.17905,-0.268108,0.7851235,-0.1945399999999999,-0.1449079999999999,1.1571735,-0.2245599999999999,-0.170378
85,0.997351,0.6251599999999999,-0.164724,0.859085,0.4737899999999999,-0.176664,0.7306250000000001,0.6615199999999999,-0.272604,1.130005,0.4433199999999999,-0.174894,1.238115,0.6853809999999999,-0.311234,0.706145,0.92832,-0.315134,1.263445,0.9258,-0.363844,0.93369,0.0050599999999999,0.0028849999999999,1.06631,-0.00506,-0.0028849999999999,0.763065,0.1941899999999999,-0.275844,1.214005,0.1798599999999999,-0.267254,0.786295,-0.1949900000000001,-0.14291,1.149905,-0.2269500000000001,-0.175334
86,0.997013,0.624645,-0.1649755,0.8591150000000001,0.4722449999999999,-0.1770055,0.7303649999999999,0.651925,-0.2712555,1.129715,0.441465,-0.1754755,1.238105,0.684916,-0.3121755,0.705055,0.919275,-0.3156055,1.263355,0.917325,-0.3657955,0.933616,0.005375,0.0032814999999999,1.066384,-0.005375,-0.0032814999999999,0.763105,0.196025,-0.2761055,1.212945,0.1812049999999999,-0.2668855,0.7851049999999999,-0.194545,-0.1415625,1.148935,-0.227605,-0.1839655
87,0.9966785000000001,0.6241749999999999,-0.165048,0.8591075,0.470615,-0.177298,0.7301075,0.650735,-0.271068,1.1293175,0.439855,-0.175988,1.2380975,0.684515,-0.313128,0.7041175,0.912005,-0.316198,1.2633275,0.910365,-0.367438,0.9335735000000001,0.0056249999999999,0.003644,1.0664265,-0.0056249999999999,-0.003644,0.7630975,0.1976249999999999,-0.276298,1.2119575,0.182415,-0.266418,0.7861675,-0.192375,-0.143591,1.1447575,-0.2271350000000001,-0.183748
88,0.9964265,0.62361,-0.1659,0.8589315000000001,0.4708699999999999,-0.17889,0.7298614999999999,0.65057,-0.27248,1.1290415,0.4398999999999999,-0.17751,1.2381415,0.683642,-0.31479,0.7034914999999999,0.9097,-0.31772,1.2633415000000001,0.9098,-0.3691,0.9334655000000001,0.0056099999999998,0.003907,1.0665345,-0.00561,-0.003907,0.7629215,0.19782,-0.27717,1.2113814999999999,0.1826499999999999,-0.26677,0.7861115,-0.19469,-0.1474639999999999,1.1444615,-0.22767,-0.1888999999999999
89,0.99605,0.6230199999999999,-0.166534,0.8586860000000001,0.47111,-0.180474,0.729626,0.6505,-0.273864,1.128716,0.4399099999999999,-0.1789839999999999,1.238086,0.6828339999999999,-0.316444,0.702746,0.90883,-0.3191839999999999,1.2633359999999998,0.90917,-0.370754,0.933386,0.0055699999999999,0.0042149999999999,1.066614,-0.00557,-0.004215,0.762786,0.19794,-0.278084,1.210896,0.18289,-0.267314,0.7890159999999999,-0.19839,-0.147565,1.1470159999999998,-0.22743,-0.1988539999999999
90,0.995759,0.6224149999999999,-0.1671105,0.858499,0.471335,-0.1820905,0.7294690000000001,0.650655,-0.2753105,1.128429,0.439975,-0.1804605,1.2380689999999999,0.68213,-0.3180105,0.7021189999999999,0.908465,-0.3206505,1.263439,0.908485,-0.3724405,0.933464,0.005525,0.0045144999999999,1.066536,-0.005525,-0.0045144999999999,0.762699,0.1980349999999999,-0.2791605,1.210509,0.183115,-0.2680105,0.790829,-0.202195,-0.1485125,1.150169,-0.2298049999999999,-0.2064905
91,0.9953875000000001,0.6223100000000001,-0.1672575,0.8582315,0.4713800000000001,-0.1833175,0.7287715,0.6505500000000001,-0.2763875,1.1281415,0.44005,-0.1815875,1.2378714999999998,0.6817300000000001,-0.3191075,0.7015415,0.90804,-0.3219275,1.2632415,0.90807,-0.3731875,0.9335545,0.0057,0.0045404999999999,1.0664455,-0.0056999999999999,-0.0045405,0.7626115,0.19786,-0.2798975,1.2101415,0.1830100000000001,-0.2684475,0.7901015,-0.2023899999999999,-0.1500135,1.1525515,-0.2321099999999998,-0.2184975
92,0.9950825,0.6222300000000001,-0.1664045,0.8580625,0.47144,-0.1835145,0.7283025000000001,0.65047,-0.2765445,1.1279225,0.4399699999999999,-0.1816344999999999,1.2377625,0.68165,-0.3190645,0.7009525,0.90772,-0.3220445,1.2631925,0.90799,-0.3728345,0.9335645,0.00578,0.0044695,1.0664355,-0.00578,-0.0044695,0.7625225,0.19742,-0.2795245,1.2098425,0.1829699999999999,-0.2680245,0.7914625,-0.20586,-0.1508665,1.1560625,-0.22929,-0.2255345
93,0.994701,0.62201,-0.1652765,0.857877,0.47133,-0.1835765,0.727967,0.65025,-0.2764465,1.127707,0.43975,-0.1815065,1.237667,0.68143,-0.3186265,0.700367,0.9074,-0.3219665,1.263077,0.90777,-0.3721965,0.933572,0.00582,0.0043375,1.066428,-0.00582,-0.0043375,0.762377,0.1968299999999999,-0.2792465,1.209567,0.18283,-0.2677965,0.790997,-0.20818,-0.1492725,1.149357,-0.23351,-0.2351165
94,0.994406,0.621895,-0.163972,0.857766,0.4713349999999999,-0.183682,0.727676,0.650185,-0.276372,1.1275659999999998,0.4395949999999999,-0.181382,1.237666,0.681205,-0.3177919999999999,0.699956,0.907175,-0.321802,1.263126,0.907545,-0.3712419999999999,0.933571,0.0058749999999999,0.00424,1.066429,-0.005875,-0.00424,0.762296,0.1963849999999999,-0.279062,1.209566,0.1827649999999999,-0.268002,0.790496,-0.208405,-0.149474,1.148326,-0.233735,-0.235312
95,0.9940555,0.62247,-0.1625805,0.8576045,0.4716499999999999,-0.1838305,0.7273545,0.6505799999999999,-0.2761905,1.1273745,0.4400499999999999,-0.1812105,1.2374545000000001,0.6814129999999999,-0.3166005,0.6995445,0.90707,-0.3216005,1.2631345,0.90776,-0.3697405,0.9335715,0.0057699999999999,0.0042094999999999,1.0664285,-0.00577,-0.0042095,0.7622245,0.1962799999999999,-0.2790705,1.2095645,0.18284,-0.2682505,0.7883345000000002,-0.20633,-0.1510515,1.1540445,-0.22984,-0.2331405
96,0.9937290000000001,0.6237299999999999,-0.161017,0.857433,0.4719399999999999,-0.183957,0.727063,0.6511199999999999,-0.275827,1.127103,0.4406099999999999,-0.180997,1.237013,0.682191,-0.315167,0.699133,0.90646,-0.321227,1.263143,0.90906,-0.367537,0.933571,0.0055299999999999,0.0041749999999999,1.066429,-0.00553,-0.0041749999999999,0.7620830000000001,0.1956699999999999,-0.278987,1.209563,0.1826399999999999,-0.268477,0.788333,-0.20693,-0.15179,1.153313,-0.2279500000000001,-0.228867
97,0.9932670000000001,0.624455,-0.1596945,0.857564,0.471765,-0.1838545,0.7269939999999999,0.650675,-0.2756745,1.126974,0.441615,-0.1802145,1.236764,0.683485,-0.3133645,0.698634,0.911885,-0.3204645,1.2636239999999999,0.910225,-0.3656745,0.933634,0.005025,0.0038785,1.066366,-0.0050249999999999,-0.0038785,0.762444,0.191075,-0.2791645,1.210104,0.179395,-0.2694745,0.789004,-0.2103749999999999,-0.1509435,1.153924,-0.2246349999999999,-0.2188545
98,0.9930515000000001,0.6242400000000001,-0.1593475,0.8579355,0.4710500000000001,-0.1841175,0.7274255000000001,0.6539400000000001,-0.2762675,1.1269755,0.4417800000000001,-0.1799375,1.2366855,0.6833960000000001,-0.3121375,0.6983855,0.91536,-0.3204575,1.2642855,0.91351,-0.3641775,0.9337335,0.0044,0.0032294999999999,1.0662665,-0.0043999999999999,-0.0032295,0.7627555,0.18383,-0.2801075,1.2112255,0.1739100000000001,-0.2718975,0.7898255000000001,-0.2113699999999999,-0.1521565,1.1607455,-0.2180699999999998,-0.2147975
99,0.9929420000000001,0.62414,-0.1594364999999999,0.858473,0.46967,-0.1848465,0.727893,0.654474,-0.2773265,1.127213,0.44093,-0.1800965,1.236743,0.682932,-0.3115165,0.6982730000000001,0.91625,-0.3212065,1.265043,0.91356,-0.3630365,0.933801,0.0043199999999999,0.0029015,1.066199,-0.0043199999999999,-0.0029015,0.762913,0.17376,-0.2816665,1.213213,0.1666299999999999,-0.2757265,0.7896830000000001,-0.21663,-0.1538785,1.1667130000000001,-0.21497,-0.2117965
100,0.9929435000000001,0.6240649999999999,-0.1604425,0.8591275,0.4684149999999999,-0.1864225,0.7284875,0.6545169999999999,-0.2791725,1.1279875,0.4400949999999999,-0.1809925,1.2369475,0.6841149999999999,-0.3117425,0.6982275,0.915215,-0.3226425,1.2659075,0.914625,-0.3628225,0.9338865000000001,0.0039449999999999,0.0024754999999999,1.0661135,-0.003945,-0.0024754999999999,0.7627675,0.1620349999999999,-0.2841825,1.2155375,0.1573649999999998,-0.2802825,0.7873375,-0.2170750000000001,-0.1592595,1.1724375,-0.2125950000000001,-0.2130025
101,0.9928170000000001,0.6234589999999999,-0.161814,0.859587,0.4662399999999999,-0.1885929999999999,0.728947,0.6538579999999999,-0.281473,1.1285370000000001,0.4396199999999999,-0.182263,1.236997,0.6835799999999999,-0.312613,0.698067,0.91188,-0.3247029999999999,1.2666469999999999,0.914,-0.3633429999999999,0.933907,0.0033999999999999,0.001945,1.066093,-0.0034,-0.0019449999999999,0.762227,0.1483799999999999,-0.287213,1.2176770000000001,0.1460399999999999,-0.285033,0.787967,-0.2206300000000001,-0.165323,1.174707,-0.21374,-0.204733
102,0.992982,0.6227689999999999,-0.1638145,0.859832,0.4655699999999999,-0.1909085,0.7296320000000001,0.654125,-0.2844685,1.129162,0.43831,-0.1841785,1.237232,0.6815669999999999,-0.3137885,0.697782,0.9087,-0.3274185,1.267532,0.91179,-0.3645184999999999,0.933967,0.0032599999999999,0.0015114999999999,1.066033,-0.00326,-0.0015114999999999,0.761472,0.1329099999999999,-0.2909285,1.219832,0.1328599999999999,-0.2897185,0.786232,-0.22387,-0.1708485,1.178972,-0.21705,-0.2091585
103,0.9934205000000002,0.622721,-0.1674985,0.8601544999999999,0.4640849999999999,-0.1943585,0.7301645,0.6520039999999999,-0.2886984999999999,1.1298645,0.4378349999999999,-0.1870585,1.2377445,0.67931,-0.3161485,0.6971045,0.906865,-0.3312184999999999,1.2683944999999999,0.910255,-0.3662284999999999,0.9340045,0.0028249999999999,0.0009605,1.0659955,-0.002825,-0.0009605,0.7603245000000001,0.1136949999999998,-0.2962785,1.2218045,0.1155449999999999,-0.2956284999999999,0.7850045,-0.232385,-0.1780085,1.1833345,-0.224485,-0.2153385
104,0.9943320000000001,0.622382,-0.1713745,0.860704,0.4620399999999999,-0.1979345,0.731014,0.654473,-0.2926345,1.130754,0.4382499999999999,-0.1900445,1.2386840000000001,0.67812,-0.3189345,0.696264,0.90617,-0.3354745,1.269854,0.91398,-0.3687845,0.9341230000000001,0.0023099999999999,0.0003774999999999,1.065877,-0.00231,-0.0003775,0.759184,0.0938199999999999,-0.3020845,1.223844,0.0972199999999999,-0.3016745,0.783814,-0.24248,-0.1858745,1.187724,-0.24072,-0.2165545
105,0.9953115,0.621684,-0.175423,0.8618435,0.46004,-0.2013209999999999,0.7317035000000001,0.65512,-0.296821,1.1318535,0.43801,-0.1932309999999999,1.2401835,0.6769270000000001,-0.322071,0.6956535000000001,0.9098,-0.339181,1.2714435,0.91383,-0.372471,0.9341235,0.0019799999999999,-0.0002409999999999,1.0658765,-0.0019799999999999,0.000241,0.7583335,0.0722399999999999,-0.307481,1.2254634999999998,0.07732,-0.308081,0.7824835,-0.25603,-0.193801,1.1920035,-0.2533299999999999,-0.2140709999999999
106,0.9965555000000001,0.6230629999999999,-0.1791964999999999,0.8625805,0.45947,-0.2047755,0.7325904999999999,0.658253,-0.3003255,1.1326905,0.4381899999999999,-0.1969255,1.2409405,0.674754,-0.3255355,0.6957105,0.90551,-0.3431955,1.2726905,0.91211,-0.3759755,0.9340745,0.00207,-0.0004455,1.0659255,-0.00207,0.0004455,0.7576305,0.0534099999999999,-0.3124755,1.2266905,0.05908,-0.3145955,0.7815805,-0.27027,-0.2020954999999999,1.1958104999999999,-0.26431,-0.2200155
107,0.9976950000000001,0.6252110000000001,-0.1811555,0.8630869999999999,0.457565,-0.2075825,0.733737,0.6575570000000001,-0.3020625,1.1335169999999999,0.437405,-0.1998625,1.242077,0.6743650000000001,-0.3273625,0.695867,0.902175,-0.3453925,1.273947,0.908025,-0.3781025,0.933938,0.002165,-0.0002324999999999,1.066062,-0.0021649999999999,0.0002324999999999,0.757327,0.035465,-0.3161925,1.227807,0.041375,-0.3201225,0.7805070000000001,-0.285635,-0.2104925,1.198757,-0.282655,-0.2251125
108,0.998819,0.6277560000000001,-0.180562,0.864168,0.45782,-0.20831,0.734858,0.6627100000000001,-0.30165,1.134348,0.4395900000000001,-0.200652,1.243198,0.6769800000000001,-0.32716,0.6960280000000001,0.90525,-0.34384,1.275598,0.90967,-0.37864,0.933855,0.0018,-0.0004699999999999,1.066145,-0.0017999999999999,0.0004699999999999,0.7574879999999999,0.0170000000000001,-0.31766,1.2289080000000001,0.02173,-0.32343,0.779728,-0.3030199999999999,-0.2170099999999999,1.2024679999999999,-0.3026699999999999,-0.22964
109,1.000419,0.63056,-0.1777169999999999,0.86531,0.4618029999999999,-0.206535,0.7365900000000001,0.66901,-0.298355,1.13541,0.4436889999999999,-0.199689,1.24488,0.6757899999999999,-0.324675,0.69675,0.90993,-0.339585,1.27773,0.90835,-0.375395,0.93378,0.0019799999999999,-0.0005049999999999,1.06622,-0.00198,0.000505,0.75891,-0.0013,-0.3164949999999999,1.2298499999999999,0.00178,-0.324075,0.7801,-0.32614,-0.2208649999999999,1.20505,-0.32515,-0.233905
110,1.0022215,0.6382,-0.173878,0.8667345000000001,0.466676,-0.203569,0.7382045000000002,0.67752,-0.293245,1.1366545000000001,0.449699,-0.19741,1.2468545,0.68264,-0.319565,0.6969945,0.92318,-0.332345,1.2802345,0.91543,-0.369155,0.9335225,0.00213,-0.0002849999999999,1.0664775,-0.0021299999999999,0.0002849999999999,0.7603745,-0.0181599999999999,-0.313925,1.2301644999999999,-0.01658,-0.322885,0.7805044999999999,-0.3494899999999999,-0.223485,1.2071945,-0.3469299999999999,-0.2362949999999999
111,1.0042235,0.644505,-0.168453,0.8681375,0.46728,-0.199521,0.7398075,0.682805,-0.2863949999999999,1.1377975,0.454059,-0.193803,1.2488875,0.687065,-0.313655,0.6975775,0.930595,-0.324175,1.2826975,0.919885,-0.3616149999999999,0.9332785,0.0018549999999999,-0.0002149999999999,1.0667215,-0.0018549999999999,0.000215,0.7617775,-0.037845,-0.3100349999999999,1.2293375,-0.0375749999999999,-0.319605,0.7818775,-0.3767449999999999,-0.2252449999999999,1.2089975,-0.3718849999999999,-0.2379649999999999
112,1.0061685,0.651225,-0.160823,0.8689195000000001,0.471056,-0.193448,0.7408095,0.692035,-0.2772099999999999,1.1392495,0.458824,-0.1885879999999999,1.2508395,0.692035,-0.30552,0.6982895,0.936365,-0.31362,1.2850495,0.923925,-0.35267,0.9329765,0.001945,-0.00021,1.0670235,-0.0019449999999999,0.00021,0.7631595,-0.0531349999999999,-0.30282,1.2277795,-0.055105,-0.3143,0.7821095,-0.4002949999999999,-0.22544,1.2106495,-0.393985,-0.2386599999999999
113,1.008505,0.656725,-0.152383,0.8702449999999999,0.4742539999999999,-0.187245,0.742175,0.698485,-0.26782,1.141105,0.4627989999999999,-0.182925,1.253155,0.6967049999999999,-0.29615,0.6992149999999999,0.942725,-0.3029199999999999,1.2880150000000001,0.923195,-0.3432,0.932684,0.0022749999999999,-0.00021,1.067316,-0.002275,0.0002099999999999,0.765385,-0.069635,-0.29534,1.225895,-0.073345,-0.3085,0.782635,-0.425405,-0.22545,1.212575,-0.417225,-0.23915
114,1.0108095,0.661045,-0.14298,0.8718215,0.476335,-0.181604,0.7436115,0.709165,-0.25757,1.1426215,0.467004,-0.1772989999999999,1.2555215,0.705355,-0.2858,0.6999515000000001,0.949605,-0.29003,1.2907515,0.929955,-0.33004,0.9324145,0.0022949999999999,-0.00021,1.0675855,-0.0022949999999999,0.00021,0.7682015,-0.0837049999999999,-0.28797,1.2234015,-0.089505,-0.30271,0.7831315,-0.449325,-0.22541,1.2142615,-0.438395,-0.23934
115,1.0125214999999999,0.661425,-0.132447,0.8726875000000001,0.482265,-0.173692,0.7446675,0.719095,-0.24669,1.1434775,0.471055,-0.17007,1.2572875,0.7111050000000001,-0.27463,0.6996175,0.957155,-0.27661,1.2937275,0.935065,-0.31604,0.9323615,0.002445,9.999999999996125e-06,1.0676385,-0.0024449999999999,-1.000000000001e-05,0.7717175000000001,-0.0994649999999999,-0.27964,1.2202975,-0.1083349999999999,-0.29639,0.7838275,-0.4749949999999999,-0.2249,1.2152574999999999,-0.4636549999999999,-0.23887
116,1.0137195,0.665645,-0.120982,0.8733075000000001,0.489415,-0.164876,0.7456375,0.728025,-0.235265,1.1440875,0.477755,-0.161533,1.2588575,0.7183250000000001,-0.261965,0.6994575000000001,0.967455,-0.261035,1.2959775,0.942175,-0.301105,0.9324065,0.002495,0.000265,1.0675935,-0.0024949999999999,-0.000265,0.7752375000000001,-0.1146549999999999,-0.270675,1.2164575,-0.1246349999999999,-0.288675,0.7838975000000001,-0.500165,-0.224145,1.2158475,-0.4876549999999999,-0.237605
117,1.0148834999999998,0.66814,-0.1096109999999999,0.8739844999999999,0.49407,-0.1564239999999999,0.7465545,0.7346999999999999,-0.223045,1.1448144999999998,0.4812799999999999,-0.153565,1.2603245,0.72377,-0.248495,0.6994345,0.97279,-0.247465,1.2979545,0.94794,-0.283555,0.9323055,0.0023899999999999,0.000495,1.0676945,-0.00239,-0.0004949999999999,0.7790745,-0.12715,-0.262005,1.2130245,-0.13762,-0.2808549999999999,0.7845345,-0.52131,-0.2221449999999999,1.2164845,-0.50763,-0.2356049999999999
118,1.015743,0.6750849999999999,-0.098025,0.874206,0.498145,-0.145761,0.746946,0.739855,-0.210355,1.145426,0.484875,-0.143749,1.2606359999999999,0.730315,-0.234005,0.698826,0.976605,-0.234105,1.299146,0.954505,-0.265955,0.932283,0.001995,0.0004149999999999,1.067717,-0.0019949999999999,-0.0004149999999999,0.783246,-0.140295,-0.252785,1.209176,-0.151055,-0.272125,0.784786,-0.543435,-0.218435,1.2167359999999998,-0.5276649999999999,-0.231905
119,1.0162775,0.67858,-0.0859655,0.8739755000000001,0.50146,-0.1351905,0.7471755,0.74341,-0.1978245,1.1457155,0.4857599999999999,-0.1343575,1.2612554999999999,0.73083,-0.2204324999999999,0.6977355000000001,0.97399,-0.2219425,1.3006155,0.95484,-0.2497925,0.9322825,0.0017699999999999,0.0002975,1.0677175,-0.0017699999999999,-0.0002974999999999,0.7871954999999999,-0.15286,-0.2438125,1.2050455,-0.16419,-0.2630925,0.7848155,-0.56539,-0.2141525,1.2167555,-0.54746,-0.2278025
120,1.016699,0.67954,-0.073398,0.8728500000000001,0.50761,-0.122741,0.74746,0.74912,-0.184287,1.14596,0.48573,-0.124154,1.26173,0.7310300000000001,-0.205409,0.69635,0.97695,-0.207229,1.30203,0.95514,-0.232499,0.932282,0.00174,0.0002869999999999,1.067718,-0.0017399999999999,-0.000287,0.79244,-0.1643799999999999,-0.232809,1.20066,-0.1766599999999999,-0.252359,0.7849200000000001,-0.5851599999999999,-0.209099,1.21643,-0.5676300000000001,-0.222529
121,1.016846,0.67811,-0.0611585,0.871798,0.5112300000000001,-0.1112755,0.747288,0.7532699999999999,-0.1720485,1.146498,0.48419,-0.1148105,1.261798,0.7297899999999999,-0.1908595,0.6942280000000001,0.98036,-0.1938645,1.303008,0.95497,-0.2164945,0.932326,0.0016899999999999,0.0001784999999999,1.067674,-0.0016899999999999,-0.0001784999999999,0.7969480000000001,-0.17672,-0.2236145,1.195688,-0.18675,-0.2413745,0.785038,-0.60355,-0.2043945,1.215618,-0.5875900000000001,-0.2167045
122,1.016479,0.678365,-0.048636,0.870565,0.515625,-0.099803,0.746415,0.754845,-0.159253,1.146715,0.484165,-0.104838,1.261465,0.7331449999999999,-0.176336,0.692225,0.981635,-0.179437,1.303305,0.958285,-0.19971,0.932162,0.0012949999999999,8.999999999995123e-06,1.067838,-0.001295,-8.999999999995123e-06,0.801825,-0.188225,-0.21353,1.190655,-0.196395,-0.23026,0.785945,-0.6201450000000001,-0.19769,1.214375,-0.605965,-0.21039
123,1.016067,0.6791100000000001,-0.0369575,0.869287,0.52105,-0.0880025,0.745797,0.75386,-0.1466985,1.147017,0.48426,-0.0947915,1.260997,0.7316400000000001,-0.1627105,0.690157,0.97838,-0.1666105,1.3034270000000001,0.95669,-0.1854745,0.93209,0.00108,-0.0001265,1.06791,-0.0010799999999999,0.0001265,0.8070269999999999,-0.2054699999999999,-0.2033245,1.186047,-0.21253,-0.2191445,0.7873870000000001,-0.6363300000000001,-0.1900945,1.212987,-0.62365,-0.2034345
124,1.01576,0.681705,-0.0263845,0.8681490000000001,0.521205,-0.0787315,0.745379,0.756425,-0.1341435,1.1470690000000001,0.483685,-0.0861905,1.260589,0.733045,-0.1499255,0.687739,0.980155,-0.1542775,1.303439,0.958065,-0.1708735,0.932046,0.0005549999999999,-0.0003025,1.067954,-0.0005549999999999,0.0003024999999999,0.812169,-0.220615,-0.1937975,1.181569,-0.225125,-0.2082175,0.789639,-0.650605,-0.1822375,1.211619,-0.637175,-0.1965875
125,1.01542,0.679935,-0.016666,0.867002,0.5213949999999999,-0.069618,0.744732,0.759245,-0.122133,1.147362,0.4852149999999999,-0.076719,1.260262,0.7320949999999999,-0.138366,0.685102,0.979305,-0.143752,1.3031220000000001,0.957185,-0.156712,0.932063,0.000155,-0.000426,1.067937,-0.000155,0.0004259999999999,0.817972,-0.235625,-0.183673,1.1771019999999999,-0.239205,-0.197713,0.792162,-0.664535,-0.173994,1.209972,-0.6515150000000001,-0.1892329999999999
126,1.0152305,0.6812910000000001,-0.0021165,0.8662455,0.521131,-0.0540095,0.7442154999999999,0.757221,-0.1043315,1.1478255,0.486741,-0.0604965,1.2594455,0.726101,-0.1215485,0.6826255,0.975701,-0.1248705,1.3024155,0.950921,-0.1380375,0.9321405,0.000237,-0.0004805,1.0678595,-0.000237,0.0004804999999999,0.8256055,-0.254739,-0.1659445,1.1699255,-0.257239,-0.1785055,0.7952255,-0.682009,-0.1596485,1.2071355,-0.6696789999999999,-0.1742855
127,1.0148985,0.6781495000000001,0.011745,0.8655305,0.5173195,-0.041385,0.7435105,0.7565995000000001,-0.0881639999999999,1.1481705,0.4861995,-0.046279,1.2586605,0.7218395000000001,-0.1055899999999999,0.6802905,0.9747795,-0.106531,1.3016405,0.9464795,-0.121244,0.9320275000000001,0.0003635,-0.0003669999999999,1.0679725,-0.0003635,0.0003669999999999,0.8321905,-0.2708405,-0.149616,1.1631305,-0.2725505,-0.1603649999999999,0.7985105,-0.6954705,-0.145789,1.2044205,-0.6847504999999999,-0.159895
128,1.0145785,0.674519,0.0248434999999999,0.8650774999999999,0.513949,-0.0288565,0.7425075,0.756149,-0.0721545,1.1485075,0.485979,-0.0322025,1.2579675,0.7172689999999999,-0.0900085,0.6780775,0.974179,-0.0886225,1.3008475,0.941509,-0.1043125,0.9318895000000001,0.000545,-0.0002995,1.0681105,-0.000545,0.0002994999999999,0.8387275000000001,-0.2860109999999999,-0.1333115,1.1566975,-0.286861,-0.1426605,0.8014875000000001,-0.7079310000000001,-0.1322725,1.2019075,-0.6992010000000001,-0.1453815
129,1.0142784999999999,0.674762,0.0362969999999999,0.8649575,0.510242,-0.019282,0.7414575000000001,0.756202,-0.057831,1.1487075,0.489112,-0.019783,1.2571474999999999,0.716792,-0.076225,0.6756375,0.973742,-0.073313,1.3008275,0.940642,-0.088856,0.9317705000000001,0.000551,-0.00017,1.0682295,-0.000551,0.0001699999999999,0.8438775000000001,-0.295518,-0.119776,1.1508475,-0.295658,-0.12705,0.8044975,-0.716838,-0.119578,1.1996575,-0.708548,-0.13214
130,1.0141075,0.675404,0.0472355,0.8649285000000001,0.506484,-0.0097814999999999,0.7406585,0.7564540000000001,-0.0432284999999999,1.1489385,0.4922539999999999,-0.0071474999999999,1.2562885,0.716964,-0.0631495,0.6733985,0.973524,-0.0572885,1.3000985,0.939484,-0.0728345,0.9315955,0.0005669999999999,-9.349999999999636e-05,1.0684045,-0.0005669999999999,9.35000000000033e-05,0.8491485,-0.304996,-0.1060234999999999,1.1458685,-0.303756,-0.1121495,0.8076585000000001,-0.725066,-0.1065815,1.1976385,-0.7172759999999999,-0.1193434999999999
131,1.014038,0.6755965,0.0564105,0.865068,0.5029565,-0.0009874999999999,0.739868,0.7574565,-0.0303044999999999,1.149328,0.4934965,0.0039334999999999,1.255568,0.7113965,-0.0516465,0.671278,0.9739565,-0.0410045,1.299628,0.9339665,-0.0579215,0.931432,0.0008514999999999,-0.0001185,1.068568,-0.0008514999999999,0.0001185,0.853708,-0.3141434999999999,-0.0935075,1.141418,-0.3111735,-0.0982795,0.809968,-0.7318534999999999,-0.0955855,1.195808,-0.7245834999999999,-0.1067825
132,1.0137725,0.675842,0.0651095,0.8651225000000001,0.499272,0.0075294999999999,0.7389425000000001,0.759132,-0.0180215,1.1495225,0.495042,0.0148824999999999,1.2546425,0.706412,-0.0402065,0.6694525,0.975112,-0.0260815,1.2992925,0.928712,-0.0435925,0.9314315,0.001159,-0.0002004999999999,1.0685685,-0.001159,0.0002004999999999,0.8575125,-0.324948,-0.0814485,1.1370325000000001,-0.320258,-0.0847955,0.8118025,-0.7383679999999999,-0.0851085,1.1939225,-0.7310979999999999,-0.0945645
133,1.0135045,0.676661,0.07348,0.8652355,0.496011,0.015894,0.7380955,0.756531,-0.00695,1.1496755,0.4965009999999999,0.025411,1.2543455,0.701931,-0.028767,0.6688355,0.972441,-0.010941,1.2992655,0.923871,-0.0296589999999999,0.9313705,0.0014699999999999,-0.000307,1.0686295,-0.00147,0.000307,0.8608255,-0.335929,-0.069943,1.1329955,-0.331379,-0.071751,0.8130855,-0.744869,-0.0752309999999999,1.1921655,-0.7376790000000001,-0.082318
134,1.0138225,0.6781245,0.081679,0.8659535,0.4933145,0.024118,0.7378435000000001,0.7548745,0.004111,1.1504035,0.4949145,0.034431,1.2540135000000001,0.6979945,-0.017654,0.6691735000000001,0.9706745,0.0039299999999999,1.2996735,0.9194845,-0.016227,0.9312355000000001,0.0018834999999999,-0.00049,1.0687645,-0.0018834999999999,0.00049,0.8638935,-0.3460654999999999,-0.0592069999999999,1.1300835,-0.3417655,-0.05935,0.8146935,-0.7505355,-0.065871,1.1912734999999999,-0.7433655,-0.07087
135,1.013933,0.6778175,0.0845515,0.8665309999999999,0.4930175,0.0258825,0.737711,0.7572274999999999,0.0084765,1.1509909999999999,0.4946275,0.0369774999999999,1.253681,0.6983575,-0.0121805,0.669361,0.9728975,0.0109895,1.300101,0.9193575,-0.0094615,0.931257,0.0018855,-0.0006724999999999,1.068743,-0.0018854999999999,0.0006724999999999,0.8648010000000002,-0.3469325,-0.0564285,1.130071,-0.3426524999999999,-0.0561095,0.8158110000000001,-0.7514525000000001,-0.0625894999999999,1.191571,-0.7444225,-0.0673115
136,1.013921,0.677597,0.0873005,0.866955,0.493207,0.0275895,0.7382150000000001,0.759027,0.0129095,1.151465,0.494407,0.0394445,1.253265,0.698157,-0.0072715,0.669455,0.974237,0.0180075,1.300615,0.919137,-0.0027635,0.931302,0.001881,-0.0008125,1.068698,-0.0018809999999999,0.0008124999999999,0.865615,-0.347623,-0.0537355,1.130015,-0.343423,-0.0530575,0.8167650000000001,-0.751863,-0.0596195,1.191795,-0.744373,-0.0640174999999999
137,1.0138225,0.6774020000000001,0.0899845,0.8673115,0.493942,0.0292535,0.7386815,0.7606820000000001,0.0167455,1.1514915000000001,0.494212,0.0418605,1.2527415,0.697972,-0.0026095,0.6696314999999999,0.975262,0.0248665,1.3010614999999999,0.918942,0.0033625,0.9313445,0.001852,-0.0009645,1.0686555,-0.0018519999999999,0.0009645,0.8663415,-0.348198,-0.0512015,1.1300315,-0.344138,-0.0503695,0.8175815,-0.7520579999999999,-0.0569765,1.1920415,-0.7447680000000001,-0.0612745
138,1.0136615,0.6770095,0.0924775,0.8675155,0.4936995,0.0309235,0.7388855000000001,0.7617395,0.0200454999999999,1.1514755,0.4936695,0.0443065,1.2522455,0.6977295,0.0017505,0.6700455000000001,0.9761095,0.0316754999999999,1.3016255,0.9186995,0.0091125,0.9314015,0.0018185,-0.0011034999999999,1.0685985,-0.0018184999999999,0.0011034999999999,0.8670255,-0.3486205,-0.0488445,1.1301755,-0.3443805,-0.0482335,0.8183355,-0.7519305,-0.0546295,1.1922855,-0.7451105,-0.0587135
139,1.0135065,0.6762465,0.0948655,0.8676335,0.4934265,0.0331485,0.7392335,0.7624065,0.0232305,1.1515235,0.4931765,0.0465065,1.2518935,0.6972065000000001,0.0057845,0.6705235,0.9765865,0.0377355,1.3020935,0.9177265,0.0144184999999999,0.9314614999999999,0.0017654999999999,-0.0011935,1.0685385,-0.0017654999999999,0.0011935,0.8677035000000001,-0.3490335,-0.0467705,1.1304035,-0.3446535,-0.0464275,0.8190535000000001,-0.7516735000000001,-0.0524774999999999,1.1923635,-0.7454035000000001,-0.0564125
140,1.013443,0.675078,0.0972505,0.8675740000000001,0.493128,0.0359095,0.7397040000000001,0.762848,0.0262815,1.151624,0.492738,0.0485805,1.251644,0.696688,0.0095915,0.671404,0.976928,0.0421275,1.303134,0.916688,0.0194015,0.931551,0.001731,-0.0011974999999999,1.068449,-0.001731,0.0011975,0.868374,-0.349472,-0.0450755,1.130704,-0.344952,-0.0449165,0.819814,-0.751812,-0.0506105,1.192544,-0.745542,-0.0546035
141,1.0134105,0.6738529999999999,0.0994925,0.8673575,0.493143,0.0388585,0.7402175000000001,0.763123,0.0291645,1.1517575,0.4923929999999999,0.0504995,1.2515375,0.696213,0.0132164999999999,0.6719775,0.977183,0.0462185,1.3044875,0.915653,0.0240515,0.9316385000000001,0.0017099999999999,-0.0011215,1.0683615,-0.0017099999999999,0.0011214999999999,0.8690175,-0.349817,-0.0437614999999999,1.1310275,-0.345577,-0.0437025,0.8205475,-0.751827,-0.0491254999999999,1.1927775,-0.7455470000000001,-0.0529764999999999
142,1.0135345,0.6726215,0.101655,0.8672385,0.4934015,0.041843,0.7408285,0.7634915,0.031914,1.1519385,0.4918214999999999,0.052346,1.2515085,0.6961015,0.016624,0.6728885,0.9774715,0.050013,1.3060585,0.9154815,0.027899,0.9317325,0.0016904999999999,-0.000974,1.0682675,-0.0016905,0.000974,0.8697085,-0.3501585,-0.042633,1.1313985,-0.3462285,-0.042712,0.8213885,-0.7519085,-0.047816,1.1932085,-0.7458585,-0.051572
143,1.0137455,0.67138,0.103597,0.8671055,0.49395,0.04488,0.7414955000000001,0.7638499999999999,0.034599,1.1521855,0.49118,0.054023,1.2515855,0.6960999999999999,0.019809,0.6739855,0.97783,0.053578,1.3076254999999999,0.91539,0.031694,0.9318225,0.001673,-0.000762,1.0681775,-0.001673,0.0007619999999999,0.8704455,-0.35041,-0.041747,1.1317955,-0.3469299999999999,-0.041853,0.8222555,-0.7521,-0.046576,1.1936455,-0.74565,-0.0502549999999999
144,1.0140665,0.6708725,0.1048805,0.8669695,0.4946724999999999,0.0476115,0.7421895000000001,0.7642225,0.0366875,1.1524695,0.4907625,0.0551755,1.2518395,0.6961925,0.0221295,0.6750695,0.9781625,0.0562835,1.3089095,0.9153725,0.0347085,0.9318895,0.0016404999999999,-0.0005465,1.0681105,-0.0016404999999999,0.0005465,0.8712195,-0.3505075,-0.0410535,1.1321995,-0.3471175,-0.0411775,0.8231595,-0.7523475,-0.0456095,1.1940795,-0.7451274999999999,-0.0491454999999999
145,1.014495,0.6704289999999999,0.1060355,0.866846,0.495559,0.0503295,0.7429260000000001,0.764639,0.0385965,1.152886,0.490419,0.0562745,1.251706,0.6981689999999999,0.0267525,0.676146,0.978569,0.0587385,1.3099859999999999,0.916509,0.0403495,0.931956,0.001617,-0.0003404999999999,1.068044,-0.001617,0.0003404999999999,0.8720460000000001,-0.350541,-0.0403935,1.132586,-0.3472809999999999,-0.0405185,0.8240959999999999,-0.752471,-0.0446395,1.194516,-0.7444310000000001,-0.0480955
146,1.015021,0.670257,0.107077,0.866738,0.496677,0.052957,0.743718,0.764737,0.040438,1.1533579999999999,0.490277,0.057298,1.251738,0.700107,0.0312339999999999,0.677048,0.978557,0.061385,1.310898,0.917687,0.046417,0.9320140000000001,0.001582,-0.000106,1.0679859999999999,-0.001582,0.000106,0.872968,-0.3505129999999999,-0.039802,1.1329779999999998,-0.347253,-0.03998,0.825078,-0.752773,-0.04384,1.195128,-0.743283,-0.047184
147,1.015544,0.669692,0.1079755,0.866608,0.497992,0.0554105,0.744418,0.7645019999999999,0.0420955,1.1537879999999998,0.489692,0.0580945,1.251738,0.7019519999999999,0.0355145,0.677888,0.978292,0.0635935,1.311758,0.918962,0.0521245,0.932063,0.0015399999999999,9.149999999999955e-05,1.067937,-0.0015399999999999,-9.150000000000044e-05,0.873818,-0.350808,-0.0393335,1.1333579999999999,-0.347648,-0.0395455,0.826028,-0.752888,-0.0431625,1.1959179999999998,-0.742498,-0.0466565
148,1.016056,0.669166,0.1086265,0.8665220000000001,0.498886,0.0572615,0.745052,0.764196,0.0435375,1.154182,0.4890859999999999,0.0587955,1.251622,0.703806,0.0397185,0.678662,0.977986,0.0657235,1.312552,0.920296,0.0575894999999999,0.932114,0.0014999999999999,0.0002724999999999,1.0678860000000001,-0.0015,-0.0002725,0.8746020000000001,-0.351114,-0.0389455,1.133712,-0.348094,-0.0391875,0.826862,-0.7531439999999999,-0.0426655,1.196682,-0.7428039999999999,-0.0462355
149,1.016279,0.668498,0.1090095,0.866138,0.499368,0.0588265,0.745718,0.7639779999999999,0.0443974999999999,1.154328,0.488388,0.0593785,1.2511079999999999,0.705758,0.0438755,0.679628,0.977768,0.0668565,1.3128579999999999,0.921818,0.0628455,0.9321270000000001,0.001497,0.0003894999999999,1.0678729999999999,-0.001497,-0.0003895,0.875338,-0.351332,-0.0386974999999999,1.133998,-0.348672,-0.0389435,0.827868,-0.753332,-0.0422565,1.197348,-0.7426820000000001,-0.0458625
150,1.0165024999999999,0.6679094999999999,0.1093865,0.8658415000000002,0.4996895,0.0602055,0.7459415,0.7637894999999999,0.0453055,1.1544315,0.4877195,0.0599225,1.2504615000000001,0.7076695,0.0479145,0.6805015,0.9775595,0.0684055,1.3126715,0.9233795,0.0678725,0.9321495,0.0015114999999999,0.0004585,1.0678505,-0.0015115,-0.0004585,0.8760015,-0.3515304999999999,-0.0384824999999999,1.1342715,-0.3491505,-0.0387135,0.8288015,-0.7535205,-0.0418915,1.1979415,-0.7427705,-0.0454955
151,1.0166685,0.667334,0.1097,0.8653465,0.500204,0.06163,0.7460465000000001,0.7635139999999999,0.045989,1.1544565,0.487124,0.060366,1.2496565,0.7096439999999999,0.051835,0.6811065000000001,0.977254,0.069618,1.3121165000000001,0.925064,0.072608,0.9321885,0.001549,0.000503,1.0678115,-0.001549,-0.000503,0.8765465,-0.351716,-0.0383359999999999,1.1345465,-0.3495959999999999,-0.038548,0.8295965,-0.753916,-0.04158,1.1988365,-0.743616,-0.0453579999999999
152,1.016732,0.6667514999999999,0.1099965,0.864751,0.5006915,0.0629305,0.745981,0.7623915,0.0464495,1.154371,0.4866215,0.0607565,1.248711,0.7116515,0.0555635,0.681511,0.9761515,0.0705325,1.311251,0.9268215,0.0769515,0.9322360000000001,0.0015744999999999,0.0005025,1.067764,-0.0015744999999999,-0.0005024999999999,0.876941,-0.3518985,-0.0382254999999999,1.134751,-0.3499385,-0.0383924999999999,0.830201,-0.7543685,-0.0412854999999999,1.199491,-0.7440885,-0.0452705
153,1.016686,0.666196,0.1101709999999999,0.8640860000000001,0.501166,0.064197,0.7458359999999999,0.761286,0.046818,1.154196,0.486186,0.061117,1.247636,0.713816,0.05914,0.681746,0.975036,0.071359,1.310146,0.928656,0.0811979999999999,0.932301,0.0016,0.000481,1.067699,-0.0016,-0.0004809999999999,0.8772260000000001,-0.352114,-0.038123,1.134916,-0.350154,-0.038269,0.830676,-0.754804,-0.0409999999999999,1.199816,-0.743534,-0.045195
154,1.0166335,0.6656725,0.1101955,0.8633565,0.5016425,0.0654465,0.7455765000000001,0.7602725,0.0471624999999999,1.1539265,0.4858225,0.0614435,1.2469565,0.7138425,0.0600755,0.6817865000000001,0.9739925,0.0720385,1.3088365,0.9286925,0.0825105,0.9323685,0.0016335,0.0004154999999999,1.0676315,-0.0016334999999999,-0.0004155,0.8774265,-0.3523375,-0.0380335,1.1349865000000001,-0.3503375,-0.0381305,0.8310465000000001,-0.7551475,-0.0406935,1.2002264999999999,-0.7432875,-0.0451064999999999
155,1.016586,0.6651199999999999,0.110022,0.8626130000000001,0.5020899999999999,0.066655,0.745303,0.75926,0.047464,1.1536529999999998,0.48548,0.0617449999999999,1.246263,0.7138599999999999,0.060838,0.6817329999999999,0.97296,0.072601,1.307553,0.92874,0.083079,0.932383,0.001693,0.000304,1.067617,-0.001693,-0.0003039999999999,0.877583,-0.35261,-0.03794,1.135003,-0.3505,-0.038021,0.831403,-0.7553700000000001,-0.040566,1.2006029999999999,-0.7434099999999999,-0.045126
156,1.016571,0.6645415,0.1096255,0.861865,0.5025015,0.0678555,0.745025,0.7582715,0.0477844999999999,1.153395,0.4852015,0.0620875,1.245585,0.7138415,0.0615214999999999,0.6816450000000001,0.9719215,0.0729245,1.306295,0.9287615,0.0836055,0.932382,0.0017524999999999,0.0001654999999999,1.067618,-0.0017525,-0.0001655,0.877755,-0.3529085,-0.0378374999999999,1.135005,-0.3506585,-0.0379425,0.831725,-0.7556585,-0.0404015,1.200985,-0.7431785,-0.0451305
157,1.016568,0.663967,0.109107,0.861157,0.502867,0.069084,0.744747,0.757317,0.04806,1.1532069999999999,0.484977,0.062546,1.245587,0.713527,0.061917,0.6815370000000001,0.970917,0.073329,1.305127,0.928557,0.084009,0.932381,0.001818,9.999999999992654e-07,1.067619,-0.001818,-1.000000000001e-06,0.877947,-0.353233,-0.0376959999999999,1.135077,-0.3508329999999999,-0.0378089999999999,0.8320370000000001,-0.7560629999999999,-0.040148,1.201317,-0.743603,-0.045013
158,1.016497,0.6636705,0.1085105,0.860813,0.5032305,0.0699245,0.744443,0.7567605000000001,0.0482125,1.153143,0.4848005,0.0630175,1.245523,0.7132005,0.0623095,0.681183,0.9704105,0.0734664999999999,1.304323,0.9283705,0.0844055,0.932447,0.0018685,-0.0001584999999999,1.067553,-0.0018685,0.0001585,0.877963,-0.3534395,-0.0374755,1.135163,-0.3510095,-0.0376465,0.831993,-0.7562595,-0.0398315,1.2016930000000001,-0.7450195,-0.0450015
159,1.016359,0.6634335,0.107824,0.860492,0.5034635,0.070523,0.744312,0.7555835,0.0483119999999999,1.153012,0.4845635,0.06346,1.245392,0.7128034999999999,0.062757,0.681052,0.9693335,0.073539,1.303702,0.9280335,0.084856,0.932534,0.0019334999999999,-0.0003199999999999,1.067466,-0.0019334999999999,0.00032,0.8778520000000001,-0.3536765,-0.037176,1.1351419999999999,-0.3511864999999999,-0.0374899999999999,0.831862,-0.7564965,-0.039384,1.201932,-0.7457265000000001,-0.044556
160,1.0162045,0.6631725,0.107164,0.8602285000000001,0.5034725,0.070947,0.7441285,0.7553225,0.048303,1.1528385,0.4843025,0.063849,1.2455085,0.7109925,0.060991,0.6808685,0.9690725,0.073403,1.3031285,0.9267025,0.082922,0.9326195,0.0019954999999999,-0.0005039999999999,1.0673805,-0.0019955,0.000504,0.8776785,-0.3539375,-0.0369039999999999,1.1350785,-0.3513575,-0.0373519999999999,0.8316885,-0.7567575,-0.0389599999999999,1.2020184999999999,-0.7463175,-0.0441339999999999
161,1.0163265,0.662798,0.1064575,0.8599955,0.503308,0.0714245,0.7446254999999999,0.754948,0.0484944999999999,1.1526755,0.484138,0.0642045,1.2459555,0.7092879999999999,0.0591035,0.6811455,0.968698,0.0733475,1.3025655,0.925438,0.0808364999999999,0.9326985,0.0020529999999999,-0.0006665,1.0673015,-0.0020529999999999,0.0006665,0.8774955000000001,-0.354282,-0.0365855,1.1350055000000001,-0.351372,-0.0371585,0.8314755,-0.7570920000000001,-0.0385095,1.2019355,-0.746692,-0.0436565
162,1.0165765,0.6623125000000001,0.105372,0.8596785,0.5032325,0.072272,0.7437485000000001,0.7545725000000001,0.0487439999999999,1.1518485,0.4836125,0.063896,1.2429285,0.7130425,0.064376,0.6801785,0.9683725,0.073463,1.3019985,0.9286125,0.086135,0.9327805,0.0021365,-0.000896,1.0672195,-0.0021364999999999,0.0008959999999999,0.8776685,-0.3543675,-0.03644,1.1352484999999999,-0.3512375,-0.037075,0.8314285000000001,-0.7572574999999999,-0.038285,1.2005685,-0.7373274999999999,-0.043334
163,1.0164295,0.6616464999999999,0.104706,0.8591965,0.5027665,0.073012,0.7434065000000001,0.7545664999999999,0.048877,1.1519665,0.4836265,0.065079,1.2425165,0.7126965,0.065041,0.6797965,0.9682365,0.074273,1.3013465,0.9283565,0.086644,0.9328755,0.0022275,-0.001084,1.0671245,-0.0022274999999999,0.001084,0.8773265000000001,-0.3551534999999999,-0.035942,1.1348765,-0.3509635,-0.037021,0.8310965000000001,-0.7581435000000001,-0.037574,1.2009465,-0.7418535,-0.043148
164,1.0164365,0.661363,0.1045855,0.8588665,0.502693,0.0732955,0.7431865,0.754993,0.0492714999999999,1.1521665,0.483823,0.0656785,1.2510664999999999,0.689493,0.0432675,0.6793665,0.968623,0.0744945,1.3002665,0.907743,0.0644365,0.9328855,0.0022019999999999,-0.0011404999999999,1.0671145,-0.002202,0.0011405,0.8771365000000001,-0.355597,-0.0358644999999999,1.1348165,-0.351647,-0.0368885,0.8309165000000001,-0.758707,-0.0373565,1.2026065,-0.754437,-0.0429335
165,1.016778,0.660808,0.1036745,0.858712,0.502238,0.0739185,0.7432020000000001,0.755168,0.0496734999999999,1.152282,0.483918,0.0665975,1.250602,0.6888880000000001,0.0438145,0.6795519999999999,0.968878,0.0747145,1.299902,0.907128,0.0648775,0.932886,0.002078,-0.0010045,1.067114,-0.002078,0.0010045,0.876902,-0.356162,-0.0354245,1.134612,-0.351502,-0.0370525,0.830612,-0.758822,-0.0372265,1.2024119999999998,-0.754852,-0.0423335
166,1.018042,0.659733,0.100379,0.859104,0.501883,0.0733709999999999,0.756274,0.7206330000000001,0.043767,1.153064,0.483643,0.0663189999999999,1.251164,0.6884330000000001,0.0423579999999999,0.691894,0.934763,0.065854,1.300554,0.906713,0.062789,0.932899,0.002133,-0.00089,1.067101,-0.002133,0.0008899999999999,0.8763240000000001,-0.356167,-0.033999,1.134154,-0.352857,-0.035263,0.829914,-0.757347,-0.034238,1.202004,-0.7579269999999999,-0.038681
167,1.0184475,0.6595415,0.099718,0.8590774999999999,0.5016815,0.073916,0.7494675,0.7517815,0.0456919999999999,1.1532174999999998,0.4836515,0.06689,1.2512475,0.6884515,0.042335,0.6832275,0.9646315,0.071026,1.3003375,0.9068315,0.062557,0.9329165000000001,0.0020095,-0.000625,1.0670834999999999,-0.0020095,0.000625,0.8762575,-0.3566485,-0.0341439999999999,1.1341975,-0.3529385,-0.035081,0.8294975,-0.7582185,-0.0344359999999999,1.2018675,-0.7574185000000001,-0.038519
168,1.0187375,0.659042,0.09972,0.8588195000000001,0.501122,0.074665,0.7490195,0.752232,0.046546,1.1533695,0.483662,0.067587,1.2513195,0.688492,0.042882,0.6831395,0.965212,0.07171,1.3001695,0.906862,0.063522,0.9329795,0.002008,-0.0006229999999999,1.0670205,-0.002008,0.000623,0.8761095,-0.356378,-0.033943,1.1340095,-0.353458,-0.034448,0.8293995000000001,-0.757588,-0.033866,1.2004195,-0.7494379999999999,-0.036999
