sb224sc-HT22-VT27/4dt907/src/ml-research/a11/datafiles/kinect_good_preprocessed_not_cut_A11_mediapipe/A71_kinect_mirrored.csv
FrameNo,nose_3d_x,nose_3d_y,nose_3d_z,left_shoulder_3d_x,left_shoulder_3d_y,left_shoulder_3d_z,left_elbow_3d_x,left_elbow_3d_y,left_elbow_3d_z,right_shoulder_3d_x,right_shoulder_3d_y,right_shoulder_3d_z,right_elbow_3d_x,right_elbow_3d_y,right_elbow_3d_z,left_wrist_3d_x,left_wrist_3d_y,left_wrist_3d_z,right_wrist_3d_x,right_wrist_3d_y,right_wrist_3d_z,left_hip_3d_x,left_hip_3d_y,left_hip_3d_z,right_hip_3d_x,right_hip_3d_y,right_hip_3d_z,left_knee_3d_x,left_knee_3d_y,left_knee_3d_z,right_knee_3d_x,right_knee_3d_y,right_knee_3d_z,left_ankle_3d_x,left_ankle_3d_y,left_ankle_3d_z,right_ankle_3d_x,right_ankle_3d_y,right_ankle_3d_z
0,1.038525,0.7618,0.0180065,0.853987,0.50425,0.0141515,0.785047,0.2380399999999999,0.0249455,1.198607,0.50552,0.0273585,1.249617,0.2516,0.0355705,0.771237,0.016423,-0.0653084999999999,1.2368569999999999,0.021334,-0.0561204999999999,0.938991,0.003165,0.0006425,1.061009,-0.003165,-0.0006424999999999,0.877097,-0.35203,0.0027725,1.118727,-0.36066,-0.0102004999999999,0.808727,-0.90093,0.0389815,1.153287,-0.8618,0.0205255
1,1.0387665,0.7618020000000001,0.0177564999999999,0.8541635,0.504452,0.0140684999999999,0.7848535,0.238262,0.0253424999999999,1.1988835,0.5055620000000001,0.0270884999999999,1.2493035,0.2514619999999999,0.0360875,0.7710935,0.0167749999999999,-0.0634085,1.2363534999999999,0.023126,-0.0540645,0.9389275,0.003215,0.0005584999999999,1.0610725,-0.003215,-0.0005585,0.8773035,-0.352048,0.0025255,1.1188535,-0.360768,-0.0109275,0.8141335000000001,-0.8983479999999999,0.0321925,1.1552035,-0.861938,0.0181145
2,1.039051,0.7617630000000001,0.017364,0.854309,0.5045630000000001,0.013735,0.7846690000000001,0.238123,0.026039,1.199069,0.5055430000000001,0.026652,1.248669,0.251633,0.03653,0.770689,0.017154,-0.0583179999999999,1.235809,0.027024,-0.0502959999999999,0.938928,0.003194,0.0005669999999999,1.061072,-0.003194,-0.0005669999999999,0.8775890000000001,-0.352127,0.002485,1.118989,-0.360757,-0.0113629999999999,0.813289,-0.8988069999999999,0.03345,1.155359,-0.8618269999999999,0.018778
3,1.039559,0.761808,0.0166675,0.854672,0.504908,0.0131905,0.784842,0.238028,0.0266155,1.199612,0.505668,0.0259394999999999,1.247862,0.251238,0.0375825,0.770622,0.017528,-0.0539825,1.235552,0.027351,-0.0487675,0.938894,0.003335,0.0005705,1.061106,-0.003335,-0.0005705,0.878022,-0.352122,0.0019985,1.119352,-0.360892,-0.0120065,0.820592,-0.899802,0.0372215,1.156612,-0.862212,0.0144455
4,1.039717,0.761851,0.016318,0.854792,0.505041,0.012983,0.784802,0.237921,0.028499,1.199722,0.505741,0.025326,1.247482,0.251001,0.037883,0.771482,0.015738,-0.0520169999999999,1.2350219999999998,0.02874,-0.04604,0.938813,0.003384,0.000716,1.061187,-0.003384,-0.0007159999999999,0.8781720000000001,-0.3521289999999999,0.001965,1.119482,-0.3609489999999999,-0.0124029999999999,0.818922,-0.895169,0.031521,1.1567619999999998,-0.8622690000000001,0.014112
5,1.0397535,0.761705,0.0160249999999999,0.8548965,0.505135,0.0127089999999999,0.7847665,0.237775,0.02907,1.1997565,0.505825,0.0247939999999999,1.2471465,0.250685,0.038123,0.7720565,0.014888,-0.050472,1.2349265,0.028709,-0.045313,0.9387605,0.003436,0.0008259999999999,1.0612395000000001,-0.003436,-0.000826,0.8782865,-0.352145,0.0017729999999999,1.1195365,-0.361025,-0.01275,0.8141665000000001,-0.896085,0.027488,1.1564065000000001,-0.862395,0.0133849999999999
6,1.039977,0.761587,0.0157559999999999,0.854961,0.505267,0.0125679999999999,0.784891,0.237357,0.0294689999999999,1.199901,0.505817,0.0242559999999999,1.246901,0.250297,0.03859,0.772641,0.014621,-0.048765,1.235081,0.030447,-0.043309,0.9386980000000001,0.003384,0.0010389999999999,1.061302,-0.003384,-0.001039,0.876431,-0.352143,-0.000443,1.119741,-0.360963,-0.013112,0.8214810000000001,-0.851973,0.0231749999999999,1.158321,-0.862263,0.0123119999999999
7,1.0401245,0.7616015,0.01559,0.8551095,0.5051515,0.012135,0.7850495,0.2376615,0.028277,1.2002595,0.5056815,0.023816,1.2473795,0.2507815,0.036852,0.7726295,0.0141924999999999,-0.049998,1.2350295,0.0284654999999999,-0.046021,0.9387335,0.0032995,0.001093,1.0612665,-0.0032995,-0.001093,0.8774995,-0.3521185,0.001707,1.1195795,-0.3608985,-0.013228,0.8164495,-0.8951385,0.029091,1.1572895,-0.8620585,0.0145619999999999
8,1.040277,0.7615609999999999,0.0152945,0.855299,0.505261,0.0117935,0.7851790000000001,0.237581,0.0279335,1.200489,0.5056309999999999,0.0231535,1.247429,0.2506009999999999,0.0365055,0.772789,0.013966,-0.0503405,1.234889,0.028426,-0.0463745,0.938724,0.003343,0.0011884999999999,1.0612759999999999,-0.003343,-0.0011885,0.877459,-0.352129,0.0016755,1.119559,-0.360969,-0.0135775,0.816789,-0.8945690000000001,0.0280675,1.157629,-0.862119,0.0141155
9,1.040427,0.7616040000000001,0.0152344999999999,0.8555060000000001,0.505364,0.0114375,0.785116,0.237504,0.0275674999999999,1.200746,0.505514,0.0224455,1.247406,0.250654,0.0357485,0.772836,0.013732,-0.0507035,1.234646,0.0281189999999999,-0.0467475,0.938729,0.003372,0.0012525,1.061271,-0.003372,-0.0012525,0.877416,-0.352156,0.0016564999999999,1.119546,-0.361026,-0.0138495,0.816716,-0.894386,0.0274375,1.157916,-0.8621559999999999,0.0137655
10,1.040561,0.761683,0.0153875,0.8557870000000001,0.5054730000000001,0.0110375,0.7850969999999999,0.237893,0.0259955,1.201067,0.5053730000000001,0.0216275,1.247207,0.250843,0.0329725,0.772097,0.0137209999999999,-0.0514134999999999,1.234047,0.028124,-0.0484144999999999,0.938747,0.003399,0.0013045,1.061253,-0.003399,-0.0013045,0.877417,-0.352177,0.0016245,1.119567,-0.361077,-0.0141325,0.8167670000000001,-0.894687,0.0269305,1.1582270000000001,-0.862197,0.0133675
11,1.04053,0.7618389999999999,0.0160645,0.856086,0.505559,0.0106434999999999,0.785116,0.239689,0.0219674999999999,1.201356,0.5051789999999999,0.0208155,1.246716,0.251679,0.0283595,0.770866,0.015214,-0.0556905,1.233196,0.028037,-0.0538035,0.93877,0.003402,0.0013234999999999,1.06123,-0.003402,-0.0013235,0.877606,-0.352221,0.0015994999999999,1.119546,-0.361131,-0.0143975,0.816406,-0.8949910000000001,0.0265184999999999,1.158426,-0.862221,0.0133544999999999
12,1.0403795,0.762032,0.0172515,0.8563864999999999,0.505632,0.0103065,0.7851965,0.243992,0.0156644999999999,1.2015265,0.505012,0.0198435,1.2464765,0.253262,0.0211454999999999,0.7688565,0.019058,-0.0655155,1.2325165,0.0279419999999999,-0.0663874999999999,0.9387845,0.003395,0.0013255,1.0612155,-0.003395,-0.0013255,0.8777565,-0.3522679999999999,0.0015814999999999,1.1194865,-0.361158,-0.0146185,0.8159865,-0.895568,0.0261624999999999,1.1585865,-0.862218,0.0133334999999999
13,1.0401665,0.7622344999999999,0.0191184999999999,0.8566935,0.5056745,0.0099084999999999,0.7852635,0.2495345,0.0071845,1.2015935,0.5049144999999999,0.0187065,1.2468435,0.2572345,0.0112694999999999,0.7662835,0.0265615,-0.0793805,1.2320335,0.0299255,-0.0845905,0.9387995,0.0034015,0.0012754999999999,1.0612005,-0.0034015,-0.0012755,0.8779235,-0.3523255,0.0013144999999999,1.1194235,-0.3612155,-0.0148595,0.8164435000000001,-0.8959055,0.0262545,1.1586935,-0.8622455,0.0134424999999999
14,1.0398865,0.7625475,0.0217005,0.8569964999999999,0.5057375000000001,0.0094665,0.7852865,0.2570075,-0.0053124999999999,1.2015665,0.5048375,0.0174665,1.2476265,0.2625875,-0.0018944999999999,0.7647065,0.0360235,-0.1010765,1.2332165,0.0359965,-0.1082264999999999,0.9387995,0.0034065,0.0012475,1.0612005,-0.0034065,-0.0012474999999999,0.8780465000000001,-0.3523725,0.0011045,1.1193265000000001,-0.3612525,-0.0150754999999999,0.8167165000000001,-0.8968825,0.0265555,1.1588465000000001,-0.8622725,0.0133265
15,1.0394999999999999,0.7628699999999999,0.0251014999999999,0.85736,0.50589,0.0089164999999999,0.7851,0.26628,-0.0202855,1.20139,0.50478,0.0163404999999999,1.24842,0.26968,-0.0183335,0.7637700000000001,0.054248,-0.1264414999999999,1.23471,0.044868,-0.1403915,0.9387810000000001,0.00341,0.0012644999999999,1.061219,-0.00341,-0.0012645,0.87817,-0.3524,0.0009354999999999,1.11922,-0.36127,-0.0152985,0.81698,-0.8978,0.0264014999999999,1.15903,-0.86228,0.0131004999999999
16,1.039062,0.7632725,0.028964,0.857913,0.5061925,0.008448,0.784643,0.2774925,-0.037782,1.200753,0.5044425,0.015587,1.248643,0.2790525,-0.037669,0.761213,0.0796475,-0.157899,1.236313,0.0629585,-0.174849,0.938738,0.0034155,0.001322,1.061262,-0.0034154999999999,-0.001322,0.878263,-0.3524275,0.000702,1.1191229999999999,-0.3612875,-0.015521,0.817523,-0.8979374999999999,0.026524,1.159263,-0.8622875,0.012516
17,1.0385425,0.763628,0.0332849999999999,0.8586495000000001,0.506598,0.0081529999999999,0.7840995,0.291738,-0.058294,1.1998495,0.504378,0.0147059999999999,1.2497695,0.291888,-0.060188,0.7604495,0.109028,-0.197144,1.2395195,0.090462,-0.211764,0.9386855,0.003406,0.0014009999999999,1.0613145,-0.003406,-0.001401,0.8784195,-0.352432,0.0003749999999999,1.1190794999999998,-0.361302,-0.015865,0.8178095000000001,-0.898372,0.0263769999999999,1.1595695,-0.862302,0.0117379999999999
18,1.0379415,0.7639015,0.0379995,0.8595275,0.5071815,0.0081325,0.7835375,0.3101615,-0.0803305,1.1981675,0.5043715,0.0137145,1.2509375,0.3095115,-0.0838405,0.7605375,0.1465015,-0.2384905,1.2395175,0.1224115,-0.2524705,0.9386275000000001,0.0033795,0.0015055,1.0613724999999998,-0.0033795,-0.0015055,0.8785475000000001,-0.3525185,-2.1499999999997216e-05,1.1190575,-0.3613085,-0.0162665,0.8182875000000001,-0.8990685,0.0261195,1.1598675,-0.8623085,0.0109445
19,1.0372925,0.76421,0.042877,0.8604674999999999,0.50783,0.00824,0.7827775,0.33341,-0.10379,1.1948474999999998,0.5043799999999999,0.013055,1.2520275,0.32745,-0.10585,0.7622675,0.18958,-0.27809,1.2400075,0.1556999999999999,-0.29178,0.9385615,0.003332,0.0015879999999999,1.0614385,-0.003332,-0.0015879999999999,0.8786475000000001,-0.3525999999999999,-0.0004429999999999,1.1189875,-0.36129,-0.016605,0.8191174999999999,-0.8988900000000001,0.02551,1.1601175,-0.86231,0.010163
20,1.036679,0.7644755,0.047483,0.861506,0.5085655,0.008549,0.781876,0.3596255,-0.125144,1.191506,0.5042755,0.012665,1.253136,0.3511555,-0.126904,0.763926,0.2404755,-0.315594,1.239956,0.1940754999999999,-0.331364,0.938504,0.0033014999999999,0.0016699999999999,1.061496,-0.0033015,-0.00167,0.878736,-0.3527345,-0.000927,1.118956,-0.3612945,-0.016954,0.819526,-0.8990645,0.024627,1.1605159999999999,-0.8623245,0.009248
21,1.036099,0.7646685,0.0517915,0.862638,0.5096185,0.0092134999999999,0.780848,0.3874085,-0.1437034999999999,1.188238,0.5041785,0.0125844999999999,1.254868,0.3777985,-0.1463235,0.7654380000000001,0.2983285,-0.3494935,1.239728,0.2503085,-0.3637635,0.938435,0.0032745,0.0017014999999999,1.061565,-0.0032745,-0.0017015,0.878938,-0.3528715,-0.0013435,1.118938,-0.3613015,-0.0172145,0.819748,-0.8992915,0.0244574999999999,1.160758,-0.8623415,0.0085604999999999
22,1.035455,0.7646740000000001,0.0556085,0.863783,0.5110140000000001,0.0103705,0.7806830000000001,0.4173639999999999,-0.1626225,1.185053,0.5041140000000001,0.0129985,1.2568629999999998,0.4061539999999999,-0.1612425,0.7671330000000001,0.362824,-0.3771925,1.238783,0.312084,-0.3871425,0.938376,0.003168,0.0017225,1.061624,-0.003168,-0.0017224999999999,0.878993,-0.353076,-0.0015244999999999,1.118883,-0.361236,-0.0172524999999999,0.820493,-0.899656,0.0249635,1.160903,-0.862286,0.0081165
23,1.0346895,0.7644725,0.0589964999999999,0.8647965,0.5128925000000001,0.0118615,0.7807364999999999,0.4510425,-0.1755695,1.1818565,0.5042325000000001,0.0138105,1.2585165,0.4368424999999999,-0.1725095,0.7697465,0.4342225,-0.3923795,1.2380465,0.3798225,-0.4007595,0.9383355,0.0030555,0.0016975,1.0616645,-0.0030555,-0.0016975,0.8790065,-0.3532875,-0.0015755,1.1187865,-0.3611475,-0.0170315,0.8210665,-0.9002175,0.0257165,1.1608665,-0.8622074999999999,0.0079475
24,1.0339655,0.763903,0.0616505,0.8656965,0.5150629999999999,0.0133225,0.7810565,0.485383,-0.1839095,1.1787265,0.505053,0.0148265,1.2597764999999999,0.468693,-0.1795295,0.7740965,0.5030629999999999,-0.4019995,1.2372765000000001,0.451643,-0.4043595,0.9383355,0.0029179999999999,0.0016975,1.0616645,-0.0029179999999999,-0.0016975,0.8790065,-0.3535169999999999,-0.0015755,1.1185464999999999,-0.3610669999999999,-0.0170404999999999,0.8214465,-0.900747,0.0265815,1.1607265,-0.862147,0.0080005
25,1.033176,0.7629315,0.0634535,0.866452,0.5173115,0.0144605,0.781212,0.5226115,-0.1878294999999999,1.176012,0.5061515,0.0158995,1.260472,0.5010515,-0.1816295,0.779632,0.5719715,-0.4017895,1.235322,0.5207315,-0.4044295,0.93833,0.0028544999999999,0.0016975,1.06167,-0.0028545,-0.0016975,0.879012,-0.3536385,-0.0015755,1.118322,-0.3610785,-0.0170495,0.821912,-0.9011285,0.0267104999999999,1.160952,-0.8621885,0.0078285
26,1.0323845,0.7615095000000001,0.0645255,0.8671025000000001,0.5196395,0.0151185,0.7812125,0.5583895000000001,-0.1878294999999999,1.1735025000000001,0.5073995,0.0169805,1.2606325,0.5347195,-0.1816195,0.7857525000000001,0.6405795000000001,-0.4015595,1.2335925,0.5847595,-0.4044995,0.9383305,0.0026995,0.0016975,1.0616695,-0.0026995,-0.0016975,0.8790125,-0.3538105,-0.0015755,1.1179725,-0.3610405,-0.0170624999999999,0.8223025000000002,-0.9021905,0.0269145,1.1610624999999999,-0.8621504999999999,0.0076595
27,1.0315275,0.7594805,0.0647945,0.8676495000000001,0.5216105000000001,0.0154405,0.7815195,0.5916505000000001,-0.1875185,1.1717995,0.5094105000000001,0.0179595,1.2608495,0.5637705000000001,-0.1813185,0.7913795,0.7066105,-0.4010485,1.2327595,0.6498405,-0.4042285,0.9383345,0.0024675,0.0018234999999999,1.0616655,-0.0024674999999999,-0.0018235,0.8788895,-0.3540495,-0.0013575,1.1176095,-0.3609095,-0.0167805,0.8227595,-0.9038095,0.0281795,1.1610695,-0.8620194999999999,0.0077384999999999
28,1.0306015,0.757228,0.0654045,0.8681295,0.523818,0.0161045,0.7827295,0.621328,-0.1868225,1.1716895,0.5114380000000001,0.0186005,1.2608995,0.596458,-0.1806625,0.7972895,0.769478,-0.3995625,1.2338295,0.718848,-0.4013825,0.9383715000000001,0.002228,0.0019705,1.0616284999999999,-0.002228,-0.0019705,0.8789695,-0.354312,-0.0009415,1.1172894999999998,-0.360782,-0.0164554999999999,0.8234195,-0.906042,0.0297955,1.1610995,-0.8618819999999999,0.0079445
29,1.02966,0.754862,0.066354,0.868498,0.526462,0.017104,0.7843180000000001,0.648742,-0.184948,1.171568,0.5138320000000001,0.019581,1.260628,0.623912,-0.1774379999999999,0.802278,0.826052,-0.386488,1.230318,0.785712,-0.3916779999999999,0.9383900000000001,0.002099,0.0020109999999999,1.06161,-0.002099,-0.0020109999999999,0.879088,-0.354448,-0.000372,1.116928,-0.3607579999999999,-0.0159419999999999,0.824018,-0.908568,0.031816,1.1610179999999999,-0.861858,0.0085539999999999
30,1.028537,0.7523325000000001,0.0676565,0.868617,0.5294725,0.0183605,0.786477,0.6729225000000001,-0.1789675,1.171437,0.5159225000000001,0.0210475,1.260327,0.6492825000000001,-0.1694075,0.806977,0.8751125000000001,-0.3679475,1.229647,0.8376825,-0.3726975,0.938384,0.0020024999999999,0.0020195,1.061616,-0.0020025,-0.0020195,0.879027,-0.3545275,0.0001824999999999,1.116567,-0.3607675,-0.0151155,0.824897,-0.9111375,0.0335235,1.160917,-0.8618574999999999,0.0096575
31,1.027518,0.7498859999999999,0.068428,0.868616,0.532266,0.019562,0.788076,0.694836,-0.168546,1.171286,0.5184559999999999,0.022688,1.260006,0.6715559999999999,-0.160036,0.809576,0.915146,-0.3442759999999999,1.228816,0.883706,-0.350136,0.938368,0.001927,0.002117,1.061632,-0.0019269999999999,-0.002117,0.8792560000000001,-0.354634,0.0008559999999999,1.116176,-0.360784,-0.014186,0.825246,-0.914844,0.036274,1.160716,-0.8618640000000001,0.011037
32,1.0266445,0.747551,0.0687935,0.8686105,0.5346609999999999,0.0207315,0.7901505,0.712261,-0.1564315,1.1711505,0.520791,0.0243595,1.2585505000000001,0.690841,-0.1488315,0.8112205,0.946181,-0.3178114999999999,1.2277205,0.920761,-0.3201515,0.9383585,0.001966,0.0021294999999999,1.0616415,-0.0019659999999999,-0.0021294999999999,0.8795105,-0.354619,0.0017665,1.1157905,-0.360909,-0.0131055,0.8255905,-0.918819,0.0392725,1.1603705,-0.861969,0.0127705
33,1.0259285,0.744646,0.0687035,0.8687125,0.537916,0.0215444999999999,0.7926525,0.727566,-0.1409475,1.1711325,0.522246,0.0259604999999999,1.2575525,0.706686,-0.1341075,0.8116425,0.970376,-0.2867575,1.2273524999999998,0.950676,-0.2877475,0.9384305,0.001955,0.0023124999999999,1.0615695,-0.0019549999999999,-0.0023125,0.8798725000000001,-0.354664,0.0026704999999999,1.1154525,-0.360924,-0.0119845,0.8256325,-0.922844,0.0415534999999999,1.1598525,-0.861974,0.0148044999999999
34,1.025499,0.7418389999999999,0.0683395,0.8689089999999999,0.541109,0.0220595,0.794749,0.7386389999999999,-0.1264595,1.171249,0.523369,0.0273075,1.2558989999999999,0.7201289999999999,-0.1197395,0.811229,0.987279,-0.2539995,1.227139,0.974979,-0.2556695,0.938507,0.0018719999999999,0.0026335,1.061493,-0.0018719999999999,-0.0026335,0.880339,-0.3548509999999999,0.0035075,1.115229,-0.3608409999999999,-0.0109394999999999,0.825529,-0.926461,0.0432735,1.159419,-0.8618610000000001,0.0167954999999999
35,1.0252545,0.7394999999999999,0.0676364999999999,0.8690385,0.54416,0.0226084999999999,0.7968085,0.74847,-0.1122735,1.1714385,0.52435,0.0284905,1.2545485,0.7290899999999999,-0.1047335,0.8109385,1.00107,-0.2253135,1.2290385,0.99567,-0.2265934999999999,0.9385595000000001,0.0019499999999999,0.0028554999999999,1.0614404999999998,-0.00195,-0.0028555,0.8808585000000001,-0.3548699999999999,0.0043184999999999,1.1151985,-0.36085,-0.0099875,0.8252785,-0.9301,0.0446895,1.1589285,-0.8618800000000001,0.0187395
36,1.025319,0.737738,0.066467,0.86928,0.5476979999999999,0.0231469999999999,0.79879,0.757158,-0.0988209999999999,1.17165,0.524648,0.0295789999999999,1.25329,0.7378779999999999,-0.0899309999999999,0.8103400000000001,1.009298,-0.1976409999999999,1.23096,1.010998,-0.197981,0.938626,0.0021469999999999,0.002818,1.061374,-0.002147,-0.002818,0.88143,-0.354772,0.0048799999999999,1.1153,-0.360992,-0.009016,0.82506,-0.933462,0.044929,1.15852,-0.8620220000000001,0.0201769999999999
37,1.025609,0.735726,0.0654125,0.86966,0.551126,0.0240855,0.80055,0.764796,-0.0872014999999999,1.17197,0.524746,0.0309325,1.25223,0.742716,-0.0769615,0.80997,1.014096,-0.1741214999999999,1.23298,1.020396,-0.1721315,0.938693,0.002357,0.0026935,1.061307,-0.002357,-0.0026934999999999,0.88202,-0.354664,0.0053555,1.11543,-0.361124,-0.0080284999999999,0.82568,-0.936674,0.0456735,1.15821,-0.862144,0.0217985
38,1.026113,0.733795,0.0644909999999999,0.870105,0.554095,0.0252709999999999,0.802355,0.7704249999999999,-0.076961,1.172385,0.524365,0.0323419999999999,1.251405,0.7465149999999999,-0.064581,0.809845,1.015895,-0.153621,1.234995,1.026395,-0.1498209999999999,0.938767,0.0024489999999999,0.0026489999999999,1.061233,-0.002449,-0.002649,0.8826450000000001,-0.3546749999999999,0.0058619999999999,1.1156949999999999,-0.361155,-0.007058,0.826365,-0.939815,0.046443,1.157985,-0.862155,0.0233709999999999
39,1.026785,0.732188,0.063901,0.870599,0.556478,0.0267369999999999,0.804369,0.775228,-0.068101,1.172879,0.5238079999999999,0.0337619999999999,1.250689,0.748798,-0.053594,0.809719,1.016168,-0.135851,1.237839,1.029568,-0.131161,0.938824,0.0025209999999999,0.0026619999999999,1.061176,-0.0025209999999999,-0.002662,0.883329,-0.354742,0.0065049999999999,1.115959,-0.361162,-0.006306,0.827069,-0.942312,0.047462,1.157889,-0.862132,0.0245569999999999
40,1.027435,0.730675,0.0635729999999999,0.871065,0.558815,0.0280929999999999,0.806455,0.778895,-0.06023,1.173365,0.523525,0.035091,1.249995,0.7501249999999999,-0.04416,0.8094650000000001,1.0153450000000002,-0.12194,1.240165,1.030645,-0.11585,0.938885,0.0026309999999999,0.0026489999999999,1.061115,-0.002631,-0.002649,0.883985,-0.354705,0.0070429999999999,1.116215,-0.361225,-0.005817,0.8273450000000001,-0.945495,0.048178,1.157805,-0.8621650000000001,0.0258929999999999
41,1.0280695,0.7292745,0.063484,0.8714735,0.5610345,0.029203,0.8084135,0.7814145,-0.0535569999999999,1.1738635,0.5233145,0.036205,1.2495235,0.7507545,-0.0361019999999999,0.8092835,1.0147545,-0.109773,1.2421035,1.0303545,-0.103533,0.9389655,0.0026395,0.002705,1.0610345,-0.0026395,-0.0027049999999999,0.8846235000000001,-0.3547855,0.007347,1.1164835,-0.3611955,-0.005585,0.8272635,-0.9484255,0.04862,1.1577435,-0.8621055,0.026776
42,1.028725,0.7289885,0.0635935,0.871895,0.5619885,0.0299685,0.809925,0.7835885,-0.0481205,1.174285,0.5235385,0.0369354999999999,1.249075,0.7518085,-0.0298295,0.8091550000000001,1.0150085,-0.1003825,1.243455,1.0302085,-0.0939324999999999,0.939009,0.0026854999999999,0.0025734999999999,1.060991,-0.0026855,-0.0025734999999999,0.885105,-0.3548115,0.0075504999999999,1.116715,-0.3612315,-0.0055835,0.826275,-0.9510615,0.0481165,1.157795,-0.8621215,0.0273295
43,1.0292245,0.728966,0.0637865,0.8721625,0.5627260000000001,0.0307635,0.8111025000000001,0.7851459999999999,-0.0435425,1.1745625,0.5239560000000001,0.0374365,1.2488025,0.7524759999999999,-0.0250785,0.8092525,1.014896,-0.0950315,1.2443125,1.029896,-0.0876015,0.9390475,0.0027159999999999,0.0023694999999999,1.0609525,-0.0027159999999999,-0.0023695,0.8853925,-0.354804,0.0077144999999999,1.1168625,-0.361294,-0.0057504999999999,0.8258525000000001,-0.952604,0.0473625,1.1578325,-0.8621540000000001,0.0276705
44,1.029677,0.729088,0.063996,0.872366,0.563318,0.031542,0.812036,0.786308,-0.039823,1.174826,0.5243979999999999,0.037714,1.248606,0.752668,-0.021436,0.809296,1.0146380000000002,-0.090235,1.245006,1.029638,-0.082745,0.939108,0.0027119999999999,0.002262,1.060892,-0.002712,-0.002262,0.885626,-0.3548219999999999,0.007678,1.1169559999999998,-0.361322,-0.006168,0.8255859999999999,-0.954162,0.047309,1.157916,-0.862162,0.027779
45,1.0301345,0.7290485,0.064025,0.8725385,0.5636185,0.032544,0.8126885,0.7867885,-0.037057,1.1750585,0.5247385,0.03847,1.2484585,0.7526585,-0.0189219999999999,0.8093485,1.0143685,-0.086436,1.2456285,1.0293685,-0.079316,0.9391755,0.0027014999999999,0.0022529999999999,1.0608245,-0.0027014999999999,-0.0022529999999999,0.8858585,-0.3548715,0.0075829999999999,1.1170084999999998,-0.3613515,-0.00671,0.8252685000000001,-0.9564815,0.046946,1.1580485,-0.8621814999999999,0.0275909999999999
46,1.03062,0.7288965000000001,0.064044,0.8727720000000001,0.5639165,0.0336459999999999,0.813192,0.7869765,-0.034433,1.175252,0.5248965,0.039328,1.248372,0.7526565000000001,-0.016805,0.809762,1.0149165,-0.082999,1.245962,1.0298165,-0.0771689999999999,0.93924,0.0027024999999999,0.002256,1.06076,-0.0027024999999999,-0.002256,0.8860620000000001,-0.3548935,0.007591,1.117062,-0.3613834999999999,-0.007147,0.824682,-0.9578935,0.046202,1.158142,-0.8621935,0.02752
47,1.0311005,0.7286684999999999,0.0640625,0.8730265,0.5643885,0.0346795,0.8135865,0.7872585,-0.0323115,1.1753965,0.5249385,0.0402495,1.2483465,0.7527485,-0.0152325,0.8101865,1.0154885,-0.0801625,1.2462665,1.0292884999999998,-0.0760425,0.9393145,0.0026654999999999,0.0022584999999999,1.0606855,-0.0026655,-0.0022585,0.8862665,-0.3550015,0.0075985,1.1171065,-0.3613815,-0.0074265,0.8241665,-0.9592015,0.0456815,1.1582065,-0.8621715,0.0273724999999999
48,1.0315595,0.7283075,0.064259,0.8733204999999999,0.5646074999999999,0.035668,0.8138605000000001,0.7879075,-0.030277,1.1754805,0.5247575,0.041141,1.2483705,0.7531774999999999,-0.014132,0.8105405,1.0166075,-0.077684,1.2463805,1.0284075,-0.075894,0.9393805,0.0026444999999999,0.002255,1.0606195,-0.0026445,-0.002255,0.8864405,-0.3550425,0.0075989999999999,1.1171305,-0.3614125,-0.007478,0.8238405,-0.9611525,0.0456429999999999,1.1582705,-0.8621625,0.0271529999999999
49,1.0320135,0.7281415,0.0642305,0.8736545,0.5647015,0.0361465,0.8140445000000001,0.7885614999999999,-0.0290694999999999,1.1755545,0.5243815000000001,0.0414855,1.2484145,0.7534814999999999,-0.0139894999999999,0.8107845,1.0176115,-0.0763605,1.2464745,1.0273115,-0.0761805,0.9394575000000001,0.0026684999999999,0.0022215,1.0605425,-0.0026685,-0.0022215,0.8865945000000001,-0.3549885,0.0074595,1.1171445,-0.3613885,-0.0077674999999999,0.8233345,-0.9612585,0.0452625,1.1582545,-0.8621485,0.0267405
50,1.0324435,0.7279260000000001,0.0638605,0.8740145,0.564576,0.0362025,0.8140845,0.7886660000000001,-0.0284564999999999,1.1756345,0.523946,0.0414934999999999,1.2484845,0.753736,-0.0144685,0.8108645,1.018296,-0.0758215,1.2465645,1.027596,-0.0767815,0.9395225,0.002672,0.0022804999999999,1.0604775,-0.0026719999999999,-0.0022805,0.8867345,-0.354954,0.0069884999999999,1.1171645,-0.361354,-0.0083705,0.8231745,-0.961634,0.0448805,1.1581945,-0.862134,0.0260964999999999
51,1.0328255,0.7277085,0.0629455,0.8744015,0.5640284999999999,0.0355595,0.8141115,0.7885584999999999,-0.0288394999999999,1.1756815,0.5233085,0.0408275,1.2485215,0.7538185,-0.0156554999999999,0.8109115,1.0183885,-0.0766685,1.2464015,1.0269885,-0.0779784999999999,0.9395325,0.0026795,0.0023355,1.0604675,-0.0026795,-0.0023354999999999,0.8868715,-0.3550115,0.0056725,1.1171815,-0.3613115,-0.0095594999999999,0.8229315,-0.9615615,0.0436825,1.1580915,-0.8621215,0.0249035
52,1.0332235,0.7278755,0.061506,0.8747625,0.5636955,0.034344,0.8141625,0.7887255,-0.0300949999999999,1.1757425,0.5229155,0.0396889999999999,1.2485625,0.7539855,-0.017274,0.8109725,1.0185555,-0.078286,1.2461525,1.0264555,-0.080536,0.9395355,0.0026435,0.0022699999999999,1.0604645,-0.0026434999999999,-0.00227,0.8870525,-0.3551845,0.0040129999999999,1.1171725,-0.3613145,-0.010967,0.8227125,-0.9618045,0.0415199999999999,1.1581525,-0.8622145,0.0233839999999999
53,1.0335485,0.72809,0.0595135,0.8750765,0.5630000000000001,0.0326025,0.8141665000000001,0.78896,-0.0320994999999999,1.1757865,0.5223800000000001,0.0381075,1.2485565,0.75422,-0.0192794999999999,0.8109765000000001,1.01879,-0.0802905,1.2455865,1.02609,-0.0842405,0.9396065,0.002587,0.0022905,1.0603935,-0.0025869999999999,-0.0022904999999999,0.8873765,-0.35545,0.0019765,1.1170965,-0.36132,-0.0127084999999999,0.8225765,-0.96196,0.0389515,1.1581465,-0.8623099999999999,0.0215015
54,1.033783,0.728259,0.057133,0.875326,0.562179,0.030366,0.813956,0.789149,-0.034497,1.175786,0.521739,0.035718,1.248486,0.7544989999999999,-0.022015,0.810736,1.019139,-0.082691,1.244986,1.0259390000000002,-0.088961,0.9397240000000001,0.0025089999999999,0.002402,1.060276,-0.0025089999999999,-0.002402,0.8878760000000001,-0.355801,-0.000405,1.116966,-0.3613309999999999,-0.0148859999999999,0.822326,-0.961981,0.036017,1.158126,-0.8624310000000001,0.019211
55,1.034165,0.728316,0.054268,0.875616,0.561216,0.0274979999999999,0.8137360000000001,0.789336,-0.037385,1.175906,0.521096,0.032843,1.248586,0.754596,-0.025761,0.810346,1.0204460000000002,-0.086096,1.2444359999999999,1.0261460000000002,-0.094976,0.9398490000000002,0.002476,0.0024279999999999,1.0601509999999998,-0.0024759999999999,-0.0024279999999999,0.8885959999999999,-0.356184,-0.003584,1.116766,-0.361514,-0.017789,0.822846,-0.961474,0.033158,1.1591960000000001,-0.872274,0.0166939999999999
56,1.034557,0.7283865,0.0506405,0.876004,0.5603665,0.0239095,0.813584,0.7896164999999999,-0.0410995,1.1761039999999998,0.5205965,0.0292465,1.248764,0.7545265,-0.0307595,0.809984,1.0219665,-0.0913225,1.243904,1.0256665,-0.1025625,0.939925,0.0024934999999999,0.0022755,1.060075,-0.0024935,-0.0022754999999999,0.889204,-0.3565235,-0.0075684999999999,1.116614,-0.3617235,-0.0213975,0.823194,-0.9606635,0.0294995,1.160344,-0.8816335,0.0133895
57,1.0349629999999999,0.727796,0.046241,0.876402,0.5594260000000001,0.0199489999999999,0.813322,0.789486,-0.045893,1.176262,0.5195960000000001,0.025154,1.248932,0.754216,-0.036858,0.809752,1.023686,-0.098298,1.243372,1.025386,-0.111118,0.939953,0.002542,0.0021879999999999,1.060047,-0.0025419999999999,-0.002188,0.889472,-0.3568439999999999,-0.011973,1.116402,-0.361934,-0.025381,0.8237220000000001,-0.959434,0.0256419999999999,1.161622,-0.890944,0.009463
58,1.0353795,0.7269639999999999,0.0407945,0.8768015000000001,0.5582039999999999,0.0153714999999999,0.8129115,0.788714,-0.0523765,1.1764315,0.518884,0.0204285,1.2490715,0.753814,-0.0441455,0.8094415,1.024844,-0.1077965,1.2426615,1.025444,-0.1210265,0.9399795,0.0026489999999999,0.0018974999999999,1.0600205,-0.0026489999999999,-0.0018974999999999,0.8897315000000001,-0.3570959999999999,-0.0172055,1.1162415,-0.362156,-0.0301955,0.8242115,-0.957696,0.0210925,1.1628815000000001,-0.899726,0.0048814999999999
59,1.0357955,0.7257145,0.034583,0.8771405,0.5561745,0.00991,0.8123705,0.7875645,-0.060042,1.1766204999999998,0.5185645,0.015371,1.2492705,0.7532045,-0.052649,0.8095905,1.0259745,-0.118376,1.2418705,1.0255744999999998,-0.131946,0.9400215,0.0027374999999999,0.001419,1.0599785,-0.0027375,-0.001419,0.8900205,-0.3572955,-0.0231709999999999,1.1161105,-0.3623055,-0.03536,0.8246105,-0.9559455,0.016208,1.1643005,-0.9080655,-5.199999999999996e-05
60,1.0361045,0.724156,0.027906,0.8774055000000001,0.554476,0.004305,0.8115555,0.7858160000000001,-0.0685569999999999,1.1767755,0.518796,0.010431,1.2494355,0.751996,-0.06171,0.8098455000000001,1.026396,-0.1300069999999999,1.2411254999999999,1.025696,-0.143537,0.9400735,0.002847,0.000846,1.0599265,-0.0028469999999999,-0.0008459999999999,0.8902755,-0.357244,-0.0307399999999999,1.1162455,-0.362404,-0.040541,0.8253955,-0.954064,0.011369,1.1654055,-0.915894,-0.0048589999999999
61,1.036428,0.7222325,0.0209925,0.8776930000000001,0.5528025,-0.0015844999999999,0.810593,0.7834325,-0.0779005,1.176963,0.5192425,0.0054425,1.2496129999999999,0.7502825,-0.0713505,0.810403,1.0269025,-0.1431684999999999,1.240273,1.0242025,-0.1558185,0.940094,0.0028865,0.0003625,1.059906,-0.0028865,-0.0003625,0.890423,-0.3571875,-0.0384895,1.116513,-0.3623775,-0.0458475,0.826723,-0.9519575,0.0071145,1.166683,-0.9230375,-0.0096325
62,1.036777,0.7198825,0.0133175,0.8780100000000001,0.5506525,-0.0084845,0.80959,0.7811125,-0.0880605,1.17708,0.5202525,4.25e-05,1.24983,0.7487825,-0.0819185,0.8106,1.0281725,-0.1577875,1.23941,1.0186725,-0.1683375,0.940083,0.0029324999999999,-0.0001435,1.059917,-0.0029325,0.0001434999999999,0.89046,-0.3570075,-0.0463644999999999,1.11683,-0.3622475,-0.0515515,0.82771,-0.9490075,0.0024314999999999,1.16805,-0.9289775,-0.0144755
63,1.0371715,0.7171350000000001,0.0049735,0.8784295,0.548335,-0.0156615,0.8087395,0.7786850000000001,-0.0986975,1.1771795,0.5215150000000001,-0.0056735,1.2501095,0.747615,-0.0928875,0.8110095000000002,1.029435,-0.1717625,1.2385095,1.013835,-0.1814625,0.9399875,0.0029969999999999,-0.0007025,1.0600125,-0.0029969999999999,0.0007025,0.8904495,-0.356665,-0.0537965,1.1172595,-0.361905,-0.0578415,0.8288395,-0.945045,-0.0023175,1.1694895,-0.933765,-0.0193115
64,1.0376055,0.7140960000000001,-0.0033645,0.8788715000000001,0.5459259999999999,-0.0228665,0.8080315,0.776036,-0.1096495,1.1773414999999998,0.522656,-0.0114445,1.2504515,0.746326,-0.1038955,0.8116515000000001,1.026376,-0.1852595,1.2376015,1.009876,-0.1939195,0.9398725,0.0030309999999999,-0.0012165,1.0601275000000001,-0.0030309999999999,0.0012164999999999,0.8903415000000001,-0.356214,-0.0607905,1.1178215,-0.361294,-0.0640825,0.8298215,-0.940604,-0.0065275,1.1702215,-0.929344,-0.0238455
65,1.0380745,0.710162,-0.0113955,0.8791955,0.542742,-0.0297545,0.8074455,0.772902,-0.1202835,1.1774455,0.5234219999999999,-0.0167515,1.2508355,0.745172,-0.1143235,0.8125055,1.024542,-0.1978935,1.2368154999999998,1.005642,-0.2056035,0.9396765,0.0028909999999999,-0.0016085,1.0603235,-0.0028909999999999,0.0016085,0.8898655,-0.355778,-0.0673585,1.1186955,-0.3603679999999999,-0.0696715,0.8308255,-0.935318,-0.0101555,1.1710654999999999,-0.924288,-0.0275675
66,1.0384775,0.706883,-0.019148,0.8798425000000001,0.540153,-0.036689,0.8072225,0.769973,-0.130718,1.1776125,0.521093,-0.023036,1.2514425,0.744503,-0.124438,0.8137025,1.019433,-0.2089579999999999,1.2362725,0.997133,-0.216548,0.9394305000000001,0.002957,-0.002014,1.0605695,-0.002957,0.002014,0.8890925,-0.354987,-0.074061,1.1202425,-0.359437,-0.07541,0.8319825000000001,-0.928937,-0.012944,1.1720725,-0.918007,-0.030917
67,1.038744,0.7031555,-0.0260615,0.8804190000000001,0.5373055,-0.0428155,0.807099,0.7672655,-0.1402425,1.177689,0.5187155,-0.0284495,1.252019,0.7436655,-0.1339925,0.815209,1.0134955,-0.2182425,1.235899,0.9883955,-0.2255825,0.939193,0.0028224999999999,-0.0021554999999999,1.060807,-0.0028224999999999,0.0021554999999999,0.888049,-0.3542745,-0.0803475,1.1223589999999999,-0.3582045,-0.0801315,0.833129,-0.9219845,-0.0152385,1.1728290000000001,-0.9104845,-0.0336485
68,1.038859,0.699098,-0.0325074999999999,0.880915,0.535888,-0.0478065,0.807065,0.7644179999999999,-0.1491565,1.177725,0.517178,-0.0331265,1.252515,0.7430479999999999,-0.1427565,0.816755,1.010528,-0.2265565,1.235415,0.979828,-0.2335065,0.938851,0.0027389999999999,-0.0023284999999999,1.061149,-0.002739,0.0023285,0.886865,-0.353372,-0.0865225,1.124615,-0.356842,-0.0847305,0.833855,-0.914202,-0.0167095,1.173795,-0.902112,-0.0355495
69,1.0386205,0.6965825,-0.0384745,0.8811925,0.5316525,-0.0541095,0.8069825000000002,0.7630825,-0.1577645,1.1774825,0.5156025000000001,-0.0381525,1.2526225,0.7395125,-0.1505345,0.8181725,1.0075025,-0.2356945,1.2346625,0.9712825,-0.2408545,0.9384775,0.0027774999999999,-0.0024105,1.0615225,-0.0027775,0.0024104999999999,0.8855925,-0.3521474999999999,-0.0915865,1.1273525,-0.3552975,-0.0897335,0.8342825,-0.9042175,-0.0177765,1.1745524999999999,-0.8913375,-0.0367395
70,1.0382045,0.6931215000000001,-0.044357,0.8812815,0.5271215,-0.05993,0.8067015000000001,0.7613315,-0.166158,1.1770615,0.5142015000000001,-0.042644,1.2525215,0.7362515000000001,-0.157358,0.8196915000000001,1.0010815,-0.242668,1.2336015,0.9625115,-0.247378,0.9382745,0.0028725,-0.002573,1.0617255,-0.0028724999999999,0.002573,0.8841015,-0.3506885,-0.0974439999999999,1.1302515,-0.3537185,-0.094638,0.8345115000000001,-0.8947385,-0.018413,1.1751115,-0.8806984999999999,-0.03775
71,1.037421,0.690526,-0.0500015,0.881121,0.523096,-0.0657165,0.806191,0.760366,-0.1746484999999999,1.176501,0.512116,-0.0473575,1.2521609999999999,0.732256,-0.1636985,0.820921,0.999476,-0.2500385,1.232191,0.959386,-0.2539185,0.9382540000000001,0.002825,-0.0025735,1.0617459999999999,-0.0028249999999999,0.0025735,0.8823910000000001,-0.349214,-0.1035575,1.133371,-0.351894,-0.0996804999999999,0.834441,-0.883524,-0.0194145,1.175561,-0.869044,-0.0386635
72,1.0367255,0.688387,-0.0557929999999999,0.8809765,0.519427,-0.071687,0.8057865000000001,0.7600269999999999,-0.183689,1.1760465,0.509807,-0.051931,1.2517865000000001,0.728027,-0.169999,0.8232165000000001,0.994077,-0.258079,1.2306165,0.956137,-0.260539,0.9382495,0.002748,-0.002574,1.0617505,-0.002748,0.002574,0.8807065000000001,-0.347673,-0.110376,1.1367565,-0.350003,-0.1046759999999999,0.8340865,-0.873403,-0.0214649999999999,1.1760864999999998,-0.8570730000000001,-0.039649
73,1.03587,0.6861765,-0.0618655,0.88072,0.5160965,-0.0775125,0.80536,0.7596765,-0.1927635,1.17551,0.5085265,-0.0562495,1.25135,0.7237365,-0.1760235,0.8253699999999999,0.9936265,-0.2658034999999999,1.22912,0.9499965,-0.2677635,0.938133,0.0025624999999999,-0.0025785,1.061867,-0.0025625,0.0025785,0.87902,-0.3460735,-0.1175735,1.14028,-0.3478335,-0.1103275,0.83405,-0.8622535,-0.0235545,1.17648,-0.8451635,-0.0406505
74,1.034704,0.6848895,-0.067367,0.88021,0.5132395,-0.082738,0.80463,0.7598995,-0.201242,1.1748299999999998,0.5067995000000001,-0.06058,1.25067,0.7197695,-0.181392,0.8272200000000001,0.9917995,-0.273972,1.227,0.9461595,-0.274372,0.937812,0.0024645,-0.002848,1.062188,-0.0024645,0.002848,0.8772800000000001,-0.3441905,-0.1248219999999999,1.14384,-0.3456405,-0.1160219999999999,0.83371,-0.8502205,-0.024958,1.17654,-0.8331205,-0.041116
75,1.0335795,0.683458,-0.0723525,0.8796245,0.509698,-0.0874645,0.8037145,0.757358,-0.2087395,1.1740745,0.508618,-0.0632095,1.2498445,0.7161080000000001,-0.1859795,0.8288245000000001,0.993758,-0.2816895,1.2243745,0.947878,-0.2808095,0.9375125,0.0021689999999999,-0.0031735,1.0624875,-0.002169,0.0031735,0.8753945,-0.342372,-0.1317695,1.1471445,-0.343172,-0.1212295,0.8331545000000001,-0.838592,-0.0256065,1.1762645,-0.821222,-0.0410025
76,1.0322864999999999,0.6824435000000001,-0.0769555,0.8788175,0.5065035,-0.0919725,0.8025675,0.7540435000000001,-0.2151045,1.1730975,0.5101035,-0.0658695,1.2489575,0.7123335000000001,-0.1898745,0.8300375,0.9966835,-0.2885445,1.2214775,0.9499935,-0.2876145,0.9372385,0.0020035,-0.0034675,1.0627615,-0.0020034999999999,0.0034674999999999,0.8732975000000001,-0.3402965,-0.1384044999999999,1.1503174999999999,-0.3407665,-0.1263545,0.8323775,-0.8267665,-0.0255875,1.1757775,-0.8090364999999999,-0.0404255
77,1.031035,0.6821895,-0.0810605,0.878101,0.5027595,-0.0964895,0.801371,0.7512795000000001,-0.2206955,1.172061,0.5105595,-0.0686725,1.248061,0.7087295,-0.1932255,0.831091,0.9998895,-0.2948854999999999,1.219921,0.9530595,-0.2947855,0.9369520000000001,0.0019004999999999,-0.0036715,1.063048,-0.0019004999999999,0.0036714999999999,0.871271,-0.3380005,-0.1444755,1.153381,-0.3383505,-0.1312255,0.831531,-0.8148004999999999,-0.0252415,1.175171,-0.7967605,-0.0395455
78,1.029805,0.6806610000000001,-0.087254,0.877287,0.501951,-0.101397,0.800207,0.747341,-0.227879,1.171007,0.510811,-0.073234,1.2471269999999999,0.708391,-0.199029,0.8319270000000001,1.000961,-0.302299,1.216857,0.956001,-0.303979,0.9366680000000001,0.001611,-0.0036819999999999,1.063332,-0.001611,0.003682,0.8693870000000001,-0.335599,-0.152029,1.155507,-0.335779,-0.137999,0.830727,-0.804199,-0.026885,1.174417,-0.786009,-0.041399
79,1.0285935,0.679638,-0.093369,0.8764715,0.502038,-0.106246,0.7993915,0.743548,-0.23452,1.1699315,0.511458,-0.0778079999999999,1.2463015,0.707998,-0.20554,0.8324615,1.001448,-0.31056,1.2159015,0.958868,-0.3131,0.9362235,0.001249,-0.003699,1.0637765,-0.001249,0.0036989999999999,0.8676715,-0.328472,-0.15877,1.1575915,-0.327652,-0.14486,0.8302515,-0.793172,-0.0283819999999999,1.1737515,-0.774752,-0.042971
80,1.027207,0.678384,-0.099213,0.875386,0.502424,-0.110736,0.798276,0.739544,-0.240756,1.168536,0.5114540000000001,-0.082768,1.2452059999999998,0.708294,-0.2122659999999999,0.830316,1.003804,-0.317396,1.213646,0.959864,-0.322036,0.936077,0.001146,-0.003679,1.063923,-0.0011459999999999,0.003679,0.865796,-0.320206,-0.1656159999999999,1.159026,-0.318666,-0.1516259999999999,0.829446,-0.782416,-0.0295819999999999,1.172656,-0.763766,-0.044584
81,1.026003,0.677275,-0.1045504999999999,0.874384,0.501895,-0.1158775,0.797304,0.735715,-0.2466075,1.167314,0.512245,-0.0881575,1.244324,0.709335,-0.2191175,0.8293740000000001,1.006595,-0.3241875,1.211914,0.955795,-0.3312975,0.93605,0.001015,-0.0039475,1.06395,-0.001015,0.0039475,0.8641840000000001,-0.3112749999999999,-0.1729775,1.160124,-0.309035,-0.1586675,0.8288340000000001,-0.770845,-0.0306935,1.171594,-0.752335,-0.0462735
82,1.0250515,0.676705,-0.11196,0.8736725000000001,0.504695,-0.123117,0.7971825000000001,0.736005,-0.254007,1.1663825,0.510695,-0.097094,1.2434825,0.715885,-0.228527,0.8286925,1.0127350000000002,-0.333007,1.2107525,0.959025,-0.342477,0.9359284999999999,0.001105,-0.00394,1.0640715,-0.0011049999999999,0.00394,0.8629625000000001,-0.296205,-0.185397,1.1614925,-0.293965,-0.172027,0.8283725,-0.753155,-0.034816,1.1707825,-0.734985,-0.050346
83,1.0243295,0.67616,-0.1192225,0.8731915,0.50764,-0.1303125,0.7976115000000001,0.73527,-0.2612025,1.1657015,0.51004,-0.1054065,1.2429014999999999,0.72151,-0.2387625,0.8266915000000001,1.00968,-0.3425324999999999,1.2097514999999999,0.95984,-0.3536824999999999,0.9357945,0.00112,-0.0037625,1.0642055,-0.00112,0.0037625,0.8620615,-0.28263,-0.1971825,1.1625714999999999,-0.28107,-0.1848625,0.8282615,-0.7368,-0.0395105,1.1702215,-0.7182299999999999,-0.0549105
84,1.0235155,0.6768749999999999,-0.1275455,0.8730335,0.511015,-0.1382655,0.7981735,0.737465,-0.2694555,1.1650135,0.509845,-0.1145664999999999,1.2424534999999999,0.727225,-0.2503255,0.8260835,1.006405,-0.3530955,1.2083735,0.959145,-0.3654955,0.9359175,0.001335,-0.0036794999999999,1.0640825,-0.001335,0.0036794999999999,0.8616235000000001,-0.269615,-0.2096454999999999,1.1632235,-0.268645,-0.1984755,0.8284235,-0.720475,-0.0454305,1.1695635,-0.701495,-0.0606475
85,1.0227214999999998,0.6790200000000001,-0.136922,0.8729525,0.51234,-0.146982,0.7987425,0.74049,-0.2782719999999999,1.1644025,0.50747,-0.124502,1.2414525,0.73184,-0.261802,0.8256225,1.00304,-0.363872,1.2070325,0.95825,-0.376722,0.9361425,0.00137,-0.003501,1.0638575,-0.00137,0.003501,0.8612325000000001,-0.2557199999999999,-0.221852,1.1636024999999999,-0.2553499999999999,-0.211942,0.8281525000000001,-0.70355,-0.051679,1.1689325,-0.68421,-0.066565
86,1.0224324999999999,0.68166,-0.1463505,0.8731095,0.51422,-0.1554805,0.7995495000000001,0.7427900000000001,-0.2870205,1.1642895,0.50543,-0.1342505,1.2415595,0.73644,-0.2735805,0.8242595,0.9998,-0.3751605,1.2058695,0.95669,-0.3877405,0.9364325,0.00143,-0.0033294999999999,1.0635675,-0.0014299999999999,0.0033294999999999,0.8610295,-0.2424199999999999,-0.2337805,1.1641495,-0.2421899999999999,-0.2260605,0.8282895,-0.6868099999999999,-0.0584885,1.1686295,-0.6671699999999999,-0.0726614999999999
87,1.022054,0.68375,-0.15591,0.87331,0.51658,-0.16403,0.80047,0.74144,-0.29561,1.16425,0.50373,-0.14385,1.24181,0.74092,-0.28597,0.82325,0.99668,-0.38605,1.20512,0.95506,-0.39914,0.936823,0.0016799999999999,-0.0031089999999999,1.063177,-0.00168,0.003109,0.86097,-0.22897,-0.24596,1.1648399999999999,-0.22867,-0.23997,0.8285,-0.67047,-0.065825,1.16846,-0.65042,-0.0784229999999999
88,1.0215854999999998,0.68609,-0.1649489999999999,0.8734185,0.51862,-0.1727189999999999,0.8013085,0.74105,-0.303829,1.1640285,0.50149,-0.153709,1.2419885,0.7451800000000001,-0.297869,0.8224685,0.99406,-0.396959,1.2045485,0.95437,-0.410809,0.9371835,0.0019099999999999,-0.002949,1.0628165,-0.0019099999999999,0.002949,0.8610685000000001,-0.21522,-0.257999,1.1655685,-0.21456,-0.253909,0.8286485,-0.6540699999999999,-0.073172,1.1682584999999999,-0.63349,-0.084252
89,1.0211225,0.6870350000000001,-0.1745635,0.8736655,0.519265,-0.1815635,0.8022255,0.741345,-0.3124935,1.1638755,0.499355,-0.1636535,1.2421455,0.744495,-0.3095635,0.8218655,0.991895,-0.4083035,1.2040555,0.954095,-0.4234435,0.9375315000000001,0.0021049999999999,-0.0028234999999999,1.0624684999999998,-0.002105,0.0028234999999999,0.8616855,-0.200255,-0.2701334999999999,1.1663255,-0.199155,-0.2681135,0.8288955,-0.637875,-0.0810885,1.1681055,-0.616195,-0.0903974999999999
90,1.020562,0.68753,-0.1826824999999999,0.873998,0.5202500000000001,-0.1876824999999999,0.802948,0.74115,-0.3189625,1.163718,0.49699,-0.1710225,1.242188,0.7442300000000001,-0.3186724999999999,0.821348,0.98974,-0.4175224999999999,1.203258,0.95884,-0.4330525,0.937863,0.00225,-0.0026234999999999,1.0621369999999999,-0.0022499999999999,0.0026235,0.862278,-0.1853799999999999,-0.2793525,1.167088,-0.1834399999999999,-0.2799225,0.829078,-0.6218199999999999,-0.0864625,1.167918,-0.5991599999999999,-0.0943205
91,1.019901,0.688445,-0.188007,0.874003,0.517675,-0.191247,0.802863,0.736505,-0.323177,1.163363,0.4966049999999999,-0.174257,1.241793,0.738415,-0.324447,0.820783,0.983415,-0.424667,1.202263,0.957715,-0.440247,0.9381860000000001,0.0021249999999999,-0.0026259999999999,1.0618139999999998,-0.0021249999999999,0.002626,0.862283,-0.1759049999999999,-0.282877,1.167373,-0.173565,-0.284257,0.828943,-0.611515,-0.088291,1.167663,-0.5884450000000001,-0.095621
92,1.0195365,0.68919,-0.193346,0.8741285,0.5156499999999999,-0.1948059999999999,0.8026585000000002,0.73239,-0.327636,1.1630485,0.49673,-0.177556,1.2413485,0.73299,-0.329716,0.8204385000000001,0.98662,-0.430426,1.2003085,0.95769,-0.447696,0.9384765,0.0021899999999999,-0.0026429999999999,1.0615235,-0.00219,0.0026429999999999,0.8621385,-0.16549,-0.286636,1.1678685,-0.1628,-0.288836,0.8287585,-0.60075,-0.090459,1.1675085,-0.57748,-0.096787
93,1.019214,0.6884300000000001,-0.197943,0.874204,0.5139100000000001,-0.197713,0.802514,0.7281200000000001,-0.331753,1.162724,0.49596,-0.180433,1.240834,0.7271700000000001,-0.334423,0.820164,0.98897,-0.436253,1.199464,0.95816,-0.455433,0.938565,0.00211,-0.002612,1.061435,-0.00211,0.0026119999999999,0.861664,-0.1549999999999999,-0.289733,1.168594,-0.15231,-0.292803,0.828314,-0.59022,-0.091827,1.167584,-0.5669899999999999,-0.097453
94,1.0186835,0.6877949999999999,-0.201488,0.8740995000000001,0.512195,-0.200488,0.8022295,0.725155,-0.336058,1.1625495,0.4937549999999999,-0.183438,1.2405495,0.723765,-0.339608,0.8197295,0.991645,-0.442298,1.1972795,0.959445,-0.463678,0.9387195,0.0022549999999999,-0.002606,1.0612805,-0.002255,0.0026059999999999,0.8611095000000001,-0.148185,-0.292918,1.1694195,-0.145165,-0.296518,0.8276695000000001,-0.5793550000000001,-0.092641,1.1677395,-0.555805,-0.098069
95,1.018304,0.685905,-0.205012,0.874035,0.510395,-0.203182,0.802005,0.7228749999999999,-0.340742,1.162425,0.492005,-0.186262,1.240195,0.720485,-0.3449219999999999,0.8207050000000001,0.994105,-0.4482819999999999,1.195125,0.959495,-0.472402,0.939001,0.002315,-0.002595,1.060999,-0.002315,0.002595,0.860525,-0.141085,-0.296052,1.170425,-0.136795,-0.2992319999999999,0.827045,-0.568525,-0.092948,1.168385,-0.544575,-0.098606
96,1.017745,0.6843899999999999,-0.2075155,0.87384,0.5080199999999999,-0.2051755,0.80149,0.7244299999999999,-0.3451055,1.16196,0.49022,-0.1883755,1.23905,0.7173099999999999,-0.3491555,0.82039,0.99678,-0.4535255,1.1927699999999999,0.95981,-0.4799455,0.939128,0.0022499999999999,-0.0025454999999999,1.060872,-0.00225,0.0025454999999999,0.8595900000000001,-0.13308,-0.2986655,1.17132,-0.12787,-0.3010955,0.82572,-0.55718,-0.0923555,1.1703999999999999,-0.53429,-0.0983795
97,1.017214,0.68304,-0.20993,0.8737010000000001,0.50606,-0.20668,0.801051,0.7249099999999999,-0.34943,1.161451,0.48862,-0.19002,1.238711,0.71302,-0.35362,0.819841,0.99898,-0.45788,1.190621,0.95775,-0.48617,0.939314,0.00229,-0.0024139999999999,1.060686,-0.00229,0.0024139999999999,0.8580310000000001,-0.1249,-0.30112,1.172521,-0.11868,-0.30245,0.823681,-0.5457799999999999,-0.0915,1.172301,-0.5239400000000001,-0.097374
98,1.0166389999999998,0.68301,-0.2118749999999999,0.873508,0.50447,-0.207635,0.800488,0.7242999999999999,-0.353265,1.160818,0.48685,-0.190915,1.238038,0.71363,-0.358055,0.819088,1.00039,-0.461545,1.188988,0.95651,-0.491455,0.939457,0.0022699999999999,-0.002277,1.060543,-0.0022699999999999,0.002277,0.855618,-0.11712,-0.303595,1.1739279999999999,-0.11005,-0.303755,0.821018,-0.53485,-0.090413,1.174018,-0.5143,-0.096261
99,1.016007,0.68316,-0.21313,0.873194,0.5023299999999999,-0.2080499999999999,0.799924,0.72401,-0.3566899999999999,1.160104,0.4847599999999999,-0.1918399999999999,1.237134,0.7132799999999999,-0.3621,0.818294,0.99515,-0.46519,1.187524,0.9553,-0.49659,0.939603,0.0022699999999999,-0.0020969999999999,1.060397,-0.0022699999999999,0.002097,0.852334,-0.10949,-0.30613,1.175584,-0.10141,-0.30511,0.817824,-0.5242100000000001,-0.090028,1.175684,-0.50481,-0.094858
100,1.0153735,0.68301,-0.2139335,0.8727585,0.50061,-0.2081735,0.7993185,0.72496,-0.3596635,1.1593785,0.48216,-0.1928335,1.2361485,0.7133,-0.3661635,0.8174685000000002,0.99132,-0.4679235,1.1863585,0.95486,-0.5013434999999999,0.9397235,0.00252,-0.0018564999999999,1.0602765,-0.0025199999999999,0.0018565,0.8482385,-0.1008899999999999,-0.3087835,1.1775585,-0.09232,-0.3066035,0.8136185,-0.51324,-0.0898575,1.1775885,-0.4945699999999999,-0.0930475
101,1.014592,0.682635,-0.214559,0.872317,0.498005,-0.2080489999999999,0.798737,0.7262949999999999,-0.362459,1.158647,0.479105,-0.193799,1.234797,0.7130449999999999,-0.370549,0.816587,0.987855,-0.469969,1.185347,0.951175,-0.505409,0.939737,0.0026349999999999,-0.0016579999999999,1.060263,-0.0026349999999999,0.0016579999999999,0.843417,-0.092295,-0.311619,1.179637,-0.083355,-0.308239,0.809257,-0.5020950000000001,-0.089667,1.178927,-0.484165,-0.091205
102,1.0141019999999998,0.682265,-0.2151095,0.871978,0.495775,-0.2077594999999999,0.798068,0.7251050000000001,-0.3646795,1.158038,0.476379,-0.1946995,1.2338580000000001,0.712715,-0.3743694999999999,0.815788,0.984495,-0.4717595,1.1844279999999998,0.947645,-0.5086995,0.93969,0.002845,-0.0013384999999999,1.06031,-0.0028449999999999,0.0013384999999999,0.838738,-0.0839349999999999,-0.3146195,1.181598,-0.0747049999999999,-0.3099895,0.8046679999999999,-0.4911649999999999,-0.0892235,1.178278,-0.4742449999999999,-0.0899794999999999
103,1.0142755,0.6805950000000001,-0.215636,0.8721075,0.495434,-0.207026,0.7979475,0.723095,-0.366236,1.1577975,0.476316,-0.194786,1.2337175,0.7108650000000001,-0.3773959999999999,0.8154375,0.980475,-0.473336,1.1842975,0.943645,-0.511866,0.9397465,0.003015,-0.001197,1.0602535,-0.0030149999999999,0.0011969999999999,0.8352675,-0.0764149999999999,-0.317706,1.1839275,-0.0670449999999999,-0.312026,0.8013775000000001,-0.480955,-0.089151,1.1780975,-0.4651449999999999,-0.088415
104,1.014465,0.6793899999999999,-0.2160045,0.872463,0.49448,-0.2065044999999999,0.797843,0.72061,-0.3674044999999999,1.157943,0.4753809999999999,-0.1951045,1.2337429999999998,0.7085699999999999,-0.3799145,0.8149230000000001,0.97701,-0.4747444999999999,1.184423,0.93978,-0.5146545,0.939715,0.0031999999999999,-0.0009874999999999,1.060285,-0.0032,0.0009875,0.8322430000000001,-0.06903,-0.3207744999999999,1.185913,-0.05973,-0.3140544999999999,0.797843,-0.4705,-0.0880175,1.177893,-0.45644,-0.0868134999999999
105,1.0146765,0.6785950000000001,-0.2167505,0.8727585,0.49388,-0.2062905,0.7978985000000001,0.7184550000000001,-0.3688504999999999,1.1582284999999999,0.474311,-0.1957005,1.2340285,0.705625,-0.3826405,0.8143285,0.973825,-0.4763205,1.1851384999999999,0.935755,-0.5177705,0.9397065,0.003435,-0.0007764999999999,1.0602935,-0.003435,0.0007764999999999,0.8298585,-0.0611749999999999,-0.3233605,1.1876085,-0.052285,-0.3161805,0.7956985,-0.460375,-0.0879885,1.1778585,-0.447605,-0.0859055
106,1.0149375,0.677295,-0.2180745,0.8729955,0.492481,-0.2066045,0.7979555,0.7154050000000001,-0.3704545,1.1585355,0.473102,-0.1968645,1.2346655,0.703665,-0.3851145,0.8136755,0.970665,-0.4785745,1.1863955,0.933325,-0.5222945,0.9397005,0.0036249999999999,-0.0006094999999999,1.0602995,-0.0036249999999999,0.0006095,0.8280455,-0.053215,-0.3261645,1.1888655,-0.044715,-0.3182745,0.7941355,-0.450545,-0.0882255,1.1777555,-0.4392549999999999,-0.0833995
107,1.015197,0.67529,-0.2209225,0.873397,0.491535,-0.2084825,0.797957,0.71202,-0.3733424999999999,1.158927,0.471975,-0.1988925,1.235687,0.70096,-0.3887124999999999,0.812697,0.96693,-0.4827925,1.187827,0.92995,-0.5286425,0.939695,0.0039,-0.0004655,1.060305,-0.0039,0.0004655,0.8269070000000001,-0.04509,-0.3297225,1.189677,-0.03703,-0.3209825,0.7928370000000001,-0.44037,-0.0883815,1.176987,-0.43081,-0.0815685
108,1.0157485,0.6726,-0.2244985,0.8740165,0.492384,-0.2106385,0.7979265,0.70788,-0.3773984999999999,1.1593365,0.4714649999999999,-0.2010085,1.2372765000000001,0.69707,-0.3936185,0.8124065,0.96893,-0.4876884999999999,1.1896065,0.92526,-0.5360285,0.9396675,0.0041999999999999,-0.0003315,1.0603325,-0.0041999999999999,0.0003314999999999,0.8265264999999999,-0.03727,-0.3337685,1.1903465,-0.0298499999999999,-0.3235584999999999,0.7923465000000001,-0.43177,-0.0905225,1.1748265,-0.42296,-0.0828185
109,1.0168155,0.66849,-0.2288035,0.8749285,0.493598,-0.2129835,0.7978185,0.70267,-0.3825435,1.1602385,0.471625,-0.2031135,1.2384985,0.6921900000000001,-0.3990535,0.8123785,0.96939,-0.4938535,1.1924885,0.9182,-0.5442135,0.9396425000000002,0.00435,-0.0002964999999999,1.0603574999999998,-0.0043499999999999,0.0002965,0.8272785,-0.0296899999999999,-0.3373535,1.1912585,-0.0228699999999999,-0.3257434999999999,0.7932785,-0.4240199999999999,-0.0941714999999999,1.1721585,-0.4162199999999999,-0.0820495
110,1.0185015,0.66464,-0.2333339999999999,0.8763935,0.4923889999999999,-0.216994,0.7976135,0.69798,-0.388484,1.1616535,0.468395,-0.206284,1.2409135,0.68753,-0.403544,0.8114835,0.96632,-0.501934,1.1960635,0.91446,-0.552704,0.9395375,0.0046799999999999,-0.00023,1.0604625,-0.00468,0.0002299999999999,0.8283635,-0.02093,-0.340404,1.1926135,-0.01482,-0.3272839999999999,0.7946934999999999,-0.41542,-0.098038,1.1693635,-0.40866,-0.083662
111,1.020363,0.661505,-0.2382435,0.877937,0.489909,-0.2210635,0.797277,0.696445,-0.3955435,1.163287,0.465522,-0.2094135,1.244587,0.682515,-0.4082535,0.810927,0.962225,-0.5098635,1.201467,0.907635,-0.5611934999999999,0.939328,0.004725,-0.0002154999999999,1.060672,-0.0047249999999999,0.0002155,0.829617,-0.0126649999999999,-0.3430335,1.194157,-0.0061049999999999,-0.3276935,0.796347,-0.4060149999999999,-0.1014625,1.165577,-0.400115,-0.0827435
112,1.0222769999999999,0.658095,-0.243293,0.879419,0.4878019999999999,-0.224693,0.796859,0.6934049999999999,-0.403033,1.164939,0.4640689999999999,-0.212163,1.248709,0.676015,-0.413143,0.810369,0.958355,-0.519213,1.207039,0.900685,-0.569313,0.939122,0.0047349999999999,-0.0002099999999999,1.060878,-0.004735,0.00021,0.830849,-0.0047949999999999,-0.345273,1.195319,0.0023549999999999,-0.327683,0.798149,-0.397445,-0.104797,1.161929,-0.392595,-0.085673
113,1.024066,0.654455,-0.248008,0.88079,0.485255,-0.228038,0.79633,0.690465,-0.410518,1.16647,0.462135,-0.214678,1.25322,0.670635,-0.417698,0.80934,0.953945,-0.528598,1.21291,0.894495,-0.5767979999999999,0.9389060000000001,0.004765,-0.0001959999999999,1.061094,-0.004765,0.000196,0.83234,0.0027949999999999,-0.346958,1.19598,0.010565,-0.327728,0.80005,-0.386795,-0.104748,1.15804,-0.384055,-0.085702
114,1.025718,0.6508100000000001,-0.2524455,0.8819730000000001,0.482105,-0.2309355,0.795663,0.6866700000000001,-0.4174355,1.167933,0.4601930000000001,-0.2167955,1.2575429999999999,0.6649500000000002,-0.4215955,0.806983,0.94548,-0.5374855,1.219343,0.8872300000000001,-0.5841655,0.938648,0.00472,-0.0001735,1.061352,-0.0047199999999999,0.0001735,0.833893,0.00997,-0.3482455,1.196223,0.01765,-0.3278155,0.8017730000000001,-0.3765299999999999,-0.1047765,1.156073,-0.3765199999999999,-0.0880175
115,1.027095,0.647435,-0.256669,0.882872,0.478999,-0.233609,0.7948920000000002,0.684305,-0.4242789999999999,1.169142,0.457977,-0.218789,1.261642,0.6596150000000001,-0.425249,0.8045520000000002,0.938375,-0.546019,1.225602,0.8807750000000001,-0.590729,0.938423,0.004685,-0.000141,1.061577,-0.0046849999999999,0.0001409999999999,0.835182,0.016735,-0.349389,1.196382,0.024565,-0.328329,0.803172,-0.366395,-0.103706,1.153832,-0.3688249999999999,-0.091002
116,1.0283805,0.644645,-0.2601945,0.8836955,0.476297,-0.2356645,0.7942055,0.682195,-0.4305545,1.1704055,0.456753,-0.2207245,1.2656155,0.6548350000000001,-0.4284445,0.8025955,0.932235,-0.5535745000000001,1.2318255,0.874555,-0.5960645,0.9382205,0.004545,-0.0001635,1.0617795,-0.004545,0.0001635,0.8362255000000001,0.022375,-0.3502245,1.1966255000000001,0.0307549999999999,-0.3289245,0.8052655,-0.359275,-0.1052535,1.1524855,-0.3610949999999999,-0.0919155
117,1.0294915,0.6422140000000001,-0.263018,0.8843385,0.4727720000000001,-0.237558,0.7935185,0.6805650000000001,-0.435488,1.1712685,0.4547480000000001,-0.222478,1.2689685,0.651155,-0.430598,0.8006785,0.926835,-0.560148,1.2376985,0.8694050000000001,-0.599938,0.9379835,0.004465,-0.000186,1.0620165,-0.0044649999999999,0.0001859999999999,0.8367685,0.027695,-0.3509379999999999,1.1965485,0.036735,-0.329078,0.8071285,-0.3529149999999998,-0.108706,1.1518885,-0.3527049999999999,-0.090499
118,1.030442,0.641053,-0.2653215,0.884906,0.468739,-0.2395115,0.7931360000000001,0.6795800000000001,-0.4392315,1.171996,0.45198,-0.2243215,1.2716560000000001,0.648863,-0.4322215,0.799006,0.9222,-0.5659715000000001,1.242696,0.86685,-0.6026215,0.937727,0.0044699999999999,-0.0002265,1.062273,-0.0044699999999999,0.0002264999999999,0.836876,0.03271,-0.3518615,1.196166,0.04247,-0.3292715,0.807796,-0.3442999999999999,-0.1079235,1.151706,-0.3449299999999999,-0.0892575
119,1.0310645,0.6399540000000001,-0.2666465,0.8848945,0.4672740000000001,-0.2399565,0.7929545,0.6780450000000001,-0.4412264999999999,1.1720845,0.4524650000000001,-0.2247565,1.2738144999999998,0.6469220000000001,-0.4331365,0.7985545000000001,0.921005,-0.5692365,1.2469045,0.8641750000000001,-0.6043265,0.9375145,0.004345,-0.0001905,1.0624855,-0.0043449999999999,0.0001904999999999,0.8364445,0.035985,-0.3523465,1.1954345,0.0468450000000001,-0.3287965,0.8087245000000001,-0.3393849999999999,-0.1109505,1.1522945,-0.3397549999999999,-0.0896725
120,1.031498,0.638469,-0.2668865,0.884727,0.4661449999999999,-0.2402165,0.793107,0.6761349999999999,-0.4417565,1.172067,0.4522249999999999,-0.2250165,1.2749570000000001,0.64528,-0.4333465,0.798467,0.920785,-0.5717765,1.249337,0.864285,-0.6053365,0.937405,0.0043449999999999,-0.0001905,1.062595,-0.004345,0.0001904999999999,0.835927,0.0393049999999999,-0.3521065,1.194927,0.0503149999999998,-0.3284365,0.8091470000000001,-0.3350550000000001,-0.1133325,1.152677,-0.3340050000000001,-0.0865455
121,1.0317925,0.637288,-0.267125,0.8843725,0.4647899999999999,-0.240475,0.7934725,0.675507,-0.441995,1.1720125,0.4517599999999999,-0.225265,1.2754625,0.645728,-0.433575,0.7986225,0.92006,-0.5722849999999999,1.2513825,0.86422,-0.605675,0.9373265,0.0043299999999999,-0.0001889999999999,1.0626735,-0.00433,0.000189,0.8353025000000001,0.0420099999999998,-0.3519449999999999,1.1948025,0.0534599999999999,-0.328395,0.8096425,-0.3317000000000001,-0.11476,1.1531925,-0.32905,-0.087211
122,1.031898,0.6369460000000001,-0.267455,0.883944,0.46421,-0.240055,0.794014,0.675587,-0.442305,1.171824,0.4529000000000001,-0.225195,1.276004,0.6456430000000001,-0.433885,0.799164,0.91968,-0.572595,1.252874,0.8647600000000001,-0.605955,0.937309,0.00414,-0.000257,1.062691,-0.0041399999999999,0.000257,0.8346439999999999,0.04451,-0.351905,1.195044,0.05639,-0.328635,0.809844,-0.3277899999999999,-0.112119,1.154494,-0.3246899999999999,-0.089834
123,1.031833,0.6370140000000001,-0.267774,0.883567,0.4642050000000001,-0.239564,0.794527,0.6763250000000001,-0.442674,1.171457,0.454485,-0.224854,1.276487,0.6469130000000001,-0.433604,0.799677,0.923055,-0.5729639999999999,1.253607,0.8666050000000001,-0.6063139999999999,0.937342,0.003885,-0.0003559999999999,1.062658,-0.0038849999999999,0.000356,0.8335570000000001,0.046455,-0.351914,1.195557,0.059865,-0.329004,0.809857,-0.325885,-0.112422,1.158217,-0.3185549999999999,-0.08878
124,1.0315895,0.637749,-0.267426,0.8831565,0.46471,-0.238906,0.7950865,0.677807,-0.442826,1.1709265,0.45656,-0.224326,1.2768665000000001,0.648763,-0.433096,0.8002465,0.92632,-0.573476,1.2541764999999998,0.8691500000000001,-0.606826,0.9375165,0.00348,-0.0006029999999999,1.0624835,-0.0034799999999999,0.0006029999999999,0.8323865,0.04841,-0.351996,1.1961264999999999,0.06322,-0.329516,0.8107065,-0.3245099999999999,-0.11391,1.1617164999999998,-0.31457,-0.088748
125,1.0309955,0.638493,-0.266807,0.8827834999999999,0.46538,-0.238197,0.7956435,0.6793629999999999,-0.442477,1.1703135,0.45855,-0.223647,1.2764735,0.650662,-0.431507,0.8010135,0.92907,-0.573107,1.2546534999999999,0.87172,-0.606507,0.9377275,0.0030999999999999,-0.000871,1.0622725,-0.0030999999999999,0.0008709999999999,0.8306235000000001,0.0492599999999999,-0.351707,1.1966235,0.0660199999999999,-0.329967,0.8105435,-0.32039,-0.110407,1.1654435,-0.30991,-0.085862
126,1.030123,0.6396540000000001,-0.265723,0.8823640000000001,0.4661700000000001,-0.237563,0.796094,0.6809430000000001,-0.441953,1.169614,0.46059,-0.223003,1.275634,0.6524810000000001,-0.4296029999999999,0.8028839999999999,0.93159,-0.5728030000000001,1.254974,0.8743400000000001,-0.605153,0.937954,0.00258,-0.0011639999999999,1.062046,-0.0025799999999999,0.0011639999999999,0.828914,0.05049,-0.352213,1.1972539999999998,0.0686,-0.331153,0.809394,-0.3162999999999999,-0.1060779999999999,1.169514,-0.3087099999999999,-0.089362
127,1.029072,0.640988,-0.264274,0.881885,0.466905,-0.237004,0.796645,0.682432,-0.441244,1.1691349999999998,0.461965,-0.222194,1.2744849999999999,0.6541410000000001,-0.427414,0.804515,0.933725,-0.572144,1.255025,0.876815,-0.602914,0.938166,0.0019449999999999,-0.001459,1.061834,-0.0019449999999999,0.0014589999999999,0.827165,0.051425,-0.352674,1.197865,0.071035,-0.332304,0.808095,-0.3125449999999999,-0.101929,1.172645,-0.304215,-0.088425
128,1.027861,0.6423390000000001,-0.2624885,0.8813790000000001,0.467845,-0.2363885,0.7970690000000001,0.683934,-0.4403885,1.168499,0.462785,-0.2212785,1.273059,0.6558620000000001,-0.4249785,0.8058290000000001,0.935465,-0.5712285,1.254629,0.8785450000000001,-0.6002785,0.938369,0.001255,-0.0017575,1.061631,-0.0012549999999998,0.0017575,0.825529,0.052235,-0.3530785,1.198459,0.072645,-0.3332385,0.8065490000000001,-0.3142049999999999,-0.1071854999999999,1.177039,-0.3016649999999999,-0.0887645
129,1.0265925,0.643714,-0.2605875,0.8808545,0.468985,-0.2358475,0.7973645,0.685562,-0.4394275,1.1677745,0.463645,-0.2203875,1.2713945,0.657633,-0.4223275,0.8068645,0.937235,-0.5700274999999999,1.2539145,0.880055,-0.5974575,0.9385245,0.0005549999999999,-0.0020565,1.0614755,-0.0005549999999999,0.0020565,0.8240045000000001,0.0533749999999999,-0.3539675,1.1991145,0.074315,-0.3340675,0.8056145,-0.315635,-0.1118435,1.1809045,-0.297115,-0.0878085
130,1.025274,0.645222,-0.2584575,0.8802320000000001,0.470115,-0.2346375,0.797412,0.687312,-0.4379475,1.166732,0.464795,-0.2186675,1.269702,0.659764,-0.4196775,0.8075220000000001,0.939315,-0.5686475,1.2529620000000001,0.881815,-0.5945375,0.938614,-5.500000000002725e-05,-0.0023875,1.061386,5.500000000002725e-05,0.0023875,0.822402,0.054545,-0.3537275,1.199812,0.076525,-0.3349875,0.805482,-0.3167149999999999,-0.1171435,1.184742,-0.292925,-0.0875674999999999
131,1.0239654999999999,0.646201,-0.2563485,0.8796984999999999,0.4709599999999999,-0.2335384999999999,0.7973485,0.688673,-0.4364985,1.1657685,0.4661499999999999,-0.2171385,1.2680685,0.661581,-0.4171085,0.8077685,0.94099,-0.5673085,1.2517385,0.88365,-0.5916285,0.9386345000000001,-0.00055,-0.0026115,1.0613655,0.0005499999999999,0.0026114999999999,0.8208985,0.0551199999999999,-0.3533285,1.2007385,0.0786799999999999,-0.3356785,0.8037185,-0.31377,-0.1141935,1.1880085,-0.28901,-0.0891045
132,1.0228235,0.646722,-0.2543785,0.8792635,0.47195,-0.2325785,0.7972635,0.6897070000000001,-0.4351485,1.1649634999999998,0.46773,-0.2158385,1.2666435,0.663212,-0.4149285,0.8076835,0.94244,-0.5661585,1.2504235000000001,0.8854900000000001,-0.5889685,0.9386715,-0.00085,-0.0027604999999999,1.0613285,0.00085,0.0027604999999999,0.8197935000000001,0.05531,-0.3529785,1.2015135,0.08069,-0.3358185,0.8018335,-0.3102699999999999,-0.1107235,1.1902134999999998,-0.2861899999999999,-0.0898895
133,1.0217855,0.646877,-0.2524834999999999,0.8789215,0.47269,-0.2318135,0.7970915000000001,0.689028,-0.4328735,1.1643214999999998,0.46907,-0.2147535,1.2654515,0.6645719999999999,-0.4132734999999999,0.8075615,0.94351,-0.5650735,1.2491415,0.88695,-0.5867435,0.9387555,-0.0010599999999999,-0.0026945,1.0612445,0.0010599999999999,0.0026944999999999,0.8189015,0.05559,-0.3525835,1.2024415,0.0823,-0.3359035,0.8008715,-0.3093,-0.1085295,1.1923815,-0.28336,-0.0922605
134,1.0208685,0.647216,-0.250631,0.8785985000000001,0.47347,-0.231051,0.7968185,0.68877,-0.430541,1.1636685,0.47076,-0.213671,1.2645085,0.665979,-0.412151,0.8074085,0.94482,-0.563941,1.2479285,0.88835,-0.5849610000000001,0.9388495000000001,-0.0011599999999999,-0.002654,1.0611504999999999,0.00116,0.0026539999999999,0.8184985,0.05658,-0.351861,1.2035685,0.08382,-0.335951,0.7994185,-0.3082899999999999,-0.107431,1.1926585,-0.28205,-0.090168
135,1.020125,0.647429,-0.248827,0.878307,0.47403,-0.2302969999999999,0.7964570000000001,0.6890830000000001,-0.428097,1.162997,0.47235,-0.212637,1.2637070000000001,0.66712,-0.411387,0.8070269999999999,0.94581,-0.562797,1.246777,0.8899100000000001,-0.583567,0.9389190000000001,-0.0010899999999999,-0.0026699999999999,1.061081,0.00109,0.00267,0.817967,0.057,-0.351197,1.204857,0.0852600000000001,-0.335997,0.797877,-0.3040699999999999,-0.10259,1.193447,-0.28028,-0.091068
136,1.019387,0.647706,-0.2472754999999999,0.8779150000000001,0.474255,-0.2295655,0.795775,0.6897530000000001,-0.4255555,1.162175,0.473745,-0.2117055,1.262765,0.667814,-0.4108254999999999,0.805985,0.946275,-0.5615655,1.245535,0.890935,-0.5827555,0.938916,-0.0009049999999999,-0.0027644999999999,1.061084,0.000905,0.0027645,0.816825,0.056915,-0.3503254999999999,1.206235,0.0860349999999999,-0.3355355,0.797425,-0.302845,-0.1008734999999999,1.194215,-0.279725,-0.0914155
137,1.0188145,0.647706,-0.2458455,0.8773035,0.474255,-0.2288655,0.7951935,0.689867,-0.4233455,1.1614535,0.473875,-0.2107855,1.2619735,0.668026,-0.4103255,0.8051835,0.946515,-0.5604455,1.2444935,0.8913150000000001,-0.5823055,0.9388715,-0.0009049999999999,-0.0028745,1.0611285,0.000905,0.0028744999999999,0.8156835,0.056745,-0.3499455,1.2079135,0.0864949999999999,-0.3350355,0.7967935000000002,-0.301795,-0.1025935,1.1930335,-0.280975,-0.0900035
138,1.0184475,0.647706,-0.2444655,0.8767585000000001,0.474255,-0.2282555,0.7949285,0.689905,-0.4212154999999999,1.1608885,0.473875,-0.2099955,1.2614385000000001,0.668268,-0.4098854999999999,0.8049485000000001,0.947475,-0.5594455,1.2436185,0.891605,-0.5817555,0.9388605,-0.0009049999999999,-0.0029305,1.0611395,0.000905,0.0029305,0.8147085000000001,0.057305,-0.3497555,1.2097385,0.086875,-0.3343354999999999,0.7963985,-0.299795,-0.1008795,1.1928684999999999,-0.2815649999999999,-0.0889274999999999
139,1.0182985,0.647706,-0.2434345,0.8766535,0.474255,-0.2285245,0.7947835,0.690569,-0.4202545,1.1607335,0.473875,-0.2101845,1.2609635,0.668864,-0.4092745,0.8048035,0.948925,-0.5584545000000001,1.2428835,0.892285,-0.5810145,0.9388635,-0.0009049999999999,-0.0029565,1.0611365,0.000905,0.0029565,0.8139035,0.057695,-0.3492345,1.2115135,0.087245,-0.3337745,0.7961935,-0.297415,-0.0982445,1.1933235,-0.280925,-0.0892665
140,1.0182715,0.6487010000000001,-0.242817,0.8766535,0.475055,-0.228487,0.7947435,0.6919620000000001,-0.419157,1.1606835,0.4735750000000001,-0.2104269999999999,1.2606535,0.6695340000000001,-0.408987,0.8047635,0.951865,-0.557457,1.2422735,0.8936850000000001,-0.580117,0.9388675,-0.0005149999999999,-0.002957,1.0611325,0.000515,0.002957,0.8135135,0.0576349999999999,-0.349117,1.2130835,0.086745,-0.333487,0.7972935,-0.2993249999999999,-0.099921,1.1933535,-0.281655,-0.089898
141,1.0179165,0.649638,-0.2425795,0.8761915,0.4757650000000001,-0.2284594999999999,0.7945115,0.693659,-0.4182895,1.1602115,0.473055,-0.2106695,1.2599814999999999,0.6722340000000001,-0.4086495,0.8046115,0.956145,-0.5562695,1.2414115,0.8943450000000001,-0.5790195,0.9388485,-9.499999999995624e-05,-0.0030125,1.0611515,9.500000000006724e-05,0.0030125,0.8130215000000001,0.055385,-0.3477995,1.2140415,0.0846650000000001,-0.3334094999999999,0.7981215,-0.3026349999999999,-0.1016625,1.1930915,-0.2838949999999999,-0.0890015
142,1.017745,0.6506250000000001,-0.242867,0.875915,0.4773,-0.228937,0.794515,0.6952150000000001,-0.418897,1.159705,0.4734900000000001,-0.211447,1.259515,0.6740980000000001,-0.408647,0.8047250000000001,0.95971,-0.555387,1.241035,0.8973900000000001,-0.578337,0.938878,0.00045,-0.0030029999999999,1.061122,-0.0004499999999999,0.0030029999999999,0.8127650000000001,0.0507200000000001,-0.347987,1.214385,0.0802100000000001,-0.333417,0.798995,-0.3078199999999998,-0.102838,1.192065,-0.2886599999999999,-0.08861
143,1.0177885,0.651385,-0.2434539999999999,0.8756275,0.4778549999999999,-0.2297739999999999,0.7946575000000001,0.696325,-0.420064,1.1591974999999999,0.4718849999999999,-0.2125939999999999,1.2592575,0.6751689999999999,-0.408944,0.8050775,0.962765,-0.554844,1.2407475,0.899095,-0.578044,0.9388815,0.0011549999999999,-0.002949,1.0611185,-0.001155,0.002949,0.8125075000000002,0.045265,-0.348584,1.2143774999999999,0.0742649999999999,-0.333524,0.7997175,-0.3114950000000001,-0.100297,1.1918775,-0.295155,-0.0896309999999999
144,1.0181005,0.651725,-0.2444629999999999,0.8753395,0.477705,-0.230653,0.7951095,0.696355,-0.421173,1.1585995,0.4730149999999999,-0.213993,1.2591195,0.676175,-0.409263,0.8058295,0.964785,-0.554603,1.2405995,0.899465,-0.5778829999999999,0.9390305000000001,0.0010249999999999,-0.002989,1.0609695,-0.001025,0.0029889999999999,0.8124095,0.036815,-0.349743,1.2142295,0.064855,-0.333613,0.8011295,-0.319355,-0.099258,1.1912194999999999,-0.305855,-0.090556
145,1.0183525,0.653142,-0.245563,0.8748815,0.477882,-0.231203,0.7956515,0.69883,-0.422153,1.1580015,0.4732659999999999,-0.215343,1.2588715,0.67775,-0.409663,0.8065915000000001,0.96797,-0.5543330000000001,1.2403215,0.90136,-0.577593,0.9390955,0.0011599999999999,-0.002985,1.0609045,-0.00116,0.0029849999999999,0.8125015,0.0282099999999999,-0.3509029999999999,1.2139615,0.0543299999999999,-0.333423,0.8017315,-0.32991,-0.098528,1.1900915,-0.3182900000000001,-0.091886
146,1.0186635,0.653718,-0.2465109999999999,0.8746925,0.476913,-0.231931,0.7962625,0.701065,-0.4232309999999999,1.1578125,0.4732699999999999,-0.216841,1.2588125,0.679455,-0.410041,0.8075725,0.969975,-0.554261,1.2402325,0.903775,-0.576731,0.9391925,0.0011949999999999,-0.002963,1.0608075,-0.001195,0.002963,0.8131225,0.0180249999999999,-0.352191,1.2137125,0.0419549999999999,-0.3333109999999999,0.8034025,-0.342665,-0.100967,1.1894625,-0.3330349999999999,-0.094111
147,1.0190055,0.65553,-0.2475695,0.8746725,0.4780939999999999,-0.2324395,0.7969525,0.70378,-0.4237595,1.1575725000000001,0.4739299999999999,-0.2179195,1.2602925,0.6816399999999999,-0.4104895,0.8085825,0.97406,-0.5531595,1.2403724999999999,0.90616,-0.5754595,0.9392925,0.0012899999999999,-0.0029514999999999,1.0607075,-0.00129,0.0029515,0.8143625,0.0066999999999999,-0.3531095,1.2133125,0.0280499999999999,-0.3326995,0.8048225,-0.3578,-0.1034555,1.1890125,-0.3490500000000001,-0.0965915
148,1.0196465,0.65723,-0.2486945,0.8749715,0.47806,-0.2330045,0.7980615,0.70503,-0.4244044999999999,1.1576315,0.474532,-0.2187645,1.2621514999999999,0.68381,-0.4110445,0.8096915,0.97708,-0.5520845,1.2410815,0.90824,-0.5737345,0.9393525,0.00117,-0.0029684999999999,1.0606475,-0.00117,0.0029684999999999,0.8167715,-0.0064499999999999,-0.3539545,1.2125815,0.0124199999999999,-0.3315845,0.8063115000000001,-0.3753299999999999,-0.1060774999999999,1.1886415,-0.36768,-0.0992835
149,1.020276,0.65927,-0.2495945,0.875271,0.47865,-0.2340944999999999,0.799081,0.70647,-0.4244945,1.157701,0.475157,-0.2195445,1.264101,0.6860900000000001,-0.4111245,0.810841,0.97864,-0.5511545,1.241991,0.91204,-0.5717544999999999,0.939438,0.00108,-0.0030255,1.060562,-0.0010799999999999,0.0030255,0.819921,-0.0193399999999999,-0.3538945,1.2113909999999999,-0.0035199999999999,-0.3299945,0.807701,-0.39322,-0.1058415,1.188751,-0.38554,-0.1024535
150,1.0208389999999998,0.66113,-0.2502304999999999,0.875717,0.4786299999999999,-0.2351905,0.799867,0.7072499999999999,-0.4242805,1.157667,0.4773449999999999,-0.2200805,1.2661069999999999,0.68746,-0.4108505,0.811247,0.97707,-0.5505305,1.243277,0.91522,-0.5694605,0.939522,0.0008199999999999,-0.0030475,1.060478,-0.00082,0.0030475,0.823367,-0.03308,-0.3534705,1.2097069999999999,-0.01992,-0.3278205,0.808617,-0.41324,-0.1067154999999999,1.188037,-0.40474,-0.1050765
151,1.021224,0.6630199999999999,-0.250072,0.875921,0.4782409999999999,-0.235542,0.8003410000000001,0.70808,-0.423192,1.157741,0.478355,-0.220132,1.267581,0.6888799999999999,-0.409362,0.811631,0.97365,-0.5489120000000001,1.244621,0.9157,-0.565782,0.939607,0.0004799999999999,-0.003217,1.060393,-0.0004799999999999,0.0032169999999999,0.826751,-0.0471599999999999,-0.352442,1.207621,-0.03643,-0.324922,0.809421,-0.43313,-0.106448,1.186911,-0.4238499999999999,-0.107776
152,1.0214665,0.665895,-0.249095,0.8765235,0.479224,-0.235485,0.8006135,0.7088450000000001,-0.419465,1.1580435,0.482269,-0.219615,1.2689435,0.691725,-0.405535,0.8113035,0.975105,-0.543745,1.2462435,0.920215,-0.559565,0.9397175,-4.999999999977245e-06,-0.003168,1.0602825,5.000000000032756e-06,0.0031679999999999,0.8302735,-0.0641449999999999,-0.349435,1.2049635,-0.0561149999999999,-0.321395,0.8103635000000001,-0.4586749999999999,-0.106897,1.1856535,-0.446835,-0.110572
153,1.0217939999999999,0.669905,-0.2476085,0.877342,0.480821,-0.2353185,0.800922,0.712425,-0.4157685,1.1585919999999998,0.483059,-0.2186485,1.270622,0.6953149999999999,-0.4007785,0.811252,0.979115,-0.5382485,1.248132,0.925445,-0.5526285,0.939541,0.0002949999999999,-0.0030875,1.060459,-0.0002949999999999,0.0030874999999999,0.833892,-0.078175,-0.3449485,1.202062,-0.073025,-0.3171885,0.810832,-0.479385,-0.1070085,1.184502,-0.467285,-0.1132685
154,1.022156,0.67362,-0.2455544999999999,0.8772830000000001,0.4834,-0.2346345,0.801223,0.7153,-0.4118245,1.1594929999999999,0.48509,-0.2171545,1.272233,0.6997,-0.3954045,0.8110930000000001,0.98256,-0.5325044999999999,1.2500930000000001,0.92948,-0.5441845000000001,0.939415,0.00014,-0.0032134999999999,1.060585,-0.0001399999999999,0.0032135,0.8372729999999999,-0.0929399999999999,-0.3399545,1.199133,-0.09043,-0.3125945,0.811453,-0.5021599999999999,-0.1076925,1.183523,-0.48951,-0.1163255
155,1.022686,0.6785950000000001,-0.2430835,0.877449,0.486685,-0.2336135,0.801559,0.7194050000000001,-0.4071234999999999,1.159699,0.488075,-0.2149935,1.2721689999999999,0.7048449999999999,-0.3894735,0.810859,0.987335,-0.5265135,1.251719,0.931865,-0.5351335,0.9394080000000001,0.000315,-0.0033375,1.060592,-0.0003149999999999,0.0033374999999999,0.840479,-0.107595,-0.3342035,1.196189,-0.1065249999999999,-0.3071535,0.812189,-0.525125,-0.1082535,1.182539,-0.5117149999999999,-0.1187605
156,1.023205,0.682625,-0.239806,0.878389,0.4883349999999999,-0.232106,0.801739,0.722925,-0.402066,1.160959,0.4895549999999999,-0.212596,1.273639,0.709975,-0.382856,0.810469,0.991015,-0.519166,1.253069,0.932855,-0.5250360000000001,0.939403,0.0003449999999999,-0.003471,1.060597,-0.000345,0.003471,0.8432390000000001,-0.121625,-0.327456,1.193089,-0.122595,-0.301276,0.812949,-0.5482250000000001,-0.108804,1.181399,-0.535195,-0.120702
157,1.0235275,0.68433,-0.2349795,0.8795105,0.49134,-0.2299195,0.8016605,0.72619,-0.3958895,1.1621804999999998,0.48873,-0.2102995,1.2735105,0.71438,-0.3756294999999999,0.8097805,0.99495,-0.5113095,1.2537305,0.93935,-0.5151095,0.9393545,0.0004399999999999,-0.0035705,1.0606455,-0.0004399999999999,0.0035705,0.8453305,-0.1354499999999999,-0.3198895,1.1898705,-0.1388599999999999,-0.2950595,0.8137305,-0.5706199999999999,-0.1094475,1.1801705,-0.5587199999999999,-0.1223365
158,1.024015,0.6842349999999999,-0.2288909999999999,0.880029,0.497715,-0.227261,0.801099,0.731195,-0.388841,1.163089,0.491765,-0.2078809999999999,1.273219,0.718245,-0.366881,0.808969,1.001265,-0.502601,1.2544089999999999,0.944865,-0.504561,0.939344,0.0010749999999999,-0.0035899999999999,1.060656,-0.001075,0.00359,0.8468990000000001,-0.148955,-0.312421,1.186479,-0.153465,-0.287301,0.814489,-0.591855,-0.1103889999999999,1.179039,-0.581415,-0.1238259999999999
159,1.0243814999999998,0.683505,-0.2223615,0.8802165,0.500875,-0.2243215,0.8009265,0.735595,-0.3814014999999999,1.1639365,0.4958249999999999,-0.2046214999999999,1.2726365,0.722055,-0.3576114999999999,0.8075965,1.006405,-0.4933115,1.2549865,0.949895,-0.4938114999999999,0.9394645,0.000805,-0.0035614999999999,1.0605355,-0.000805,0.0035615,0.8483365,-0.164515,-0.3032715,1.1832165,-0.1708049999999999,-0.2792314999999999,0.8152465,-0.615005,-0.1113555,1.1783664999999999,-0.6066450000000001,-0.1251645
160,1.0250395,0.681665,-0.2143895,0.8807975,0.5049049999999999,-0.2209195,0.8008275000000001,0.742615,-0.3735895,1.1651875,0.500415,-0.2008095,1.2726675,0.729495,-0.3489595,0.8062775,1.013885,-0.4829595,1.2555075,0.958475,-0.4818495,0.9396445,0.0007749999999999,-0.0034555,1.0603555,-0.0007749999999999,0.0034555,0.8498275,-0.178435,-0.2927895,1.1801575,-0.187005,-0.2704395,0.8159475,-0.636495,-0.1119785,1.1775275,-0.630645,-0.1255855
161,1.0256145,0.6767000000000001,-0.2057425,0.8811175,0.51004,-0.2164625,0.8009975,0.75085,-0.3675625,1.1661575,0.50495,-0.1963625,1.2727075,0.73813,-0.3419025,0.8049775,1.01771,-0.4740324999999999,1.2557975,0.96232,-0.4711725,0.9399625,0.00057,-0.0035565,1.0600375,-0.0005699999999999,0.0035564999999999,0.8511475,-0.1904799999999999,-0.2823825,1.1773075,-0.20109,-0.2611925,0.8168875,-0.6543399999999999,-0.1122425,1.1765875,-0.6516,-0.1255015
162,1.02602,0.67029,-0.196243,0.881105,0.51427,-0.2118129999999999,0.800815,0.75793,-0.3595629999999999,1.1668349999999998,0.50907,-0.191723,1.2720850000000001,0.74582,-0.334903,0.803485,1.01874,-0.464053,1.255725,0.9675,-0.458453,0.940528,0.00053,-0.0035789999999999,1.059472,-0.00053,0.0035789999999999,0.852755,-0.203,-0.2708129999999999,1.173565,-0.2106099999999999,-0.250513,0.817665,-0.6725099999999999,-0.112413,1.175255,-0.67015,-0.125077
163,1.025753,0.66353,-0.1861305,0.880498,0.51832,-0.2068605,0.799958,0.7650399999999999,-0.3510105,1.167478,0.51541,-0.1859105,1.270538,0.7534799999999999,-0.3273205,0.801478,1.02185,-0.4523905,1.2550780000000001,0.9726,-0.4464605,0.941345,0.00048,-0.0035475,1.058655,-0.00048,0.0035474999999999,0.853918,-0.21563,-0.2586105,1.168868,-0.21941,-0.2393805,0.817738,-0.68977,-0.1126205,1.1731079999999998,-0.68704,-0.1241315
164,1.0253895,0.659475,-0.176576,0.8799605,0.521255,-0.201601,0.7990405,0.770195,-0.341531,1.1679205,0.519775,-0.180071,1.2686605,0.759285,-0.318671,0.7990305,1.025285,-0.439871,1.2543805,0.978195,-0.433111,0.9421085,7.499999999999174e-05,-0.003519,1.0578915,-7.50000000000195e-05,0.0035189999999999,0.8557005,-0.224025,-0.243251,1.1639005,-0.229775,-0.227671,0.8183104999999999,-0.7037950000000001,-0.112396,1.1707505,-0.7039650000000001,-0.122339
165,1.0252564999999998,0.655275,-0.166969,0.8799675,0.523685,-0.196772,0.7987975,0.776085,-0.331292,1.1686375,0.524855,-0.174795,1.2671475,0.766955,-0.309272,0.7971775,1.027605,-0.428962,1.2540675000000001,0.991875,-0.420692,0.9426515,-0.000325,-0.0035049999999999,1.0573485,0.000325,0.0035049999999999,0.8578775,-0.232045,-0.228602,1.1590775,-0.237805,-0.215642,0.8191575,-0.716005,-0.1119469999999999,1.1683175,-0.717325,-0.120225
166,1.0255075,0.652547,-0.157919,0.8811315000000001,0.525127,-0.192152,0.8000815,0.7819069999999999,-0.319722,1.1691814999999999,0.531397,-0.169108,1.2664015,0.774637,-0.298632,0.7963715,1.030187,-0.416822,1.2540515,0.999617,-0.407922,0.9429885,-0.0006319999999999,-0.003333,1.0570115,0.000632,0.003333,0.8604215,-0.2402329999999999,-0.213502,1.1546315,-0.243993,-0.201482,0.8200915,-0.728103,-0.111202,1.1660615,-0.729063,-0.116979
167,1.0258025,0.650104,-0.1489095,0.8821525,0.521194,-0.1874155,0.8014325,0.7846139999999999,-0.3072955,1.1698125,0.534314,-0.1633025,1.2660825,0.782624,-0.2877254999999999,0.7957425,1.031624,-0.4025055,1.2539425,1.006414,-0.3937455,0.9432605000000001,-0.0013859999999999,-0.0031735,1.0567395,0.0013859999999999,0.0031734999999999,0.8633525,-0.246576,-0.1962155,1.1497925,-0.2508559999999999,-0.1872455,0.8211625,-0.737926,-0.1095525,1.1637324999999998,-0.740186,-0.1132355
168,1.0259685,0.6480855,-0.139419,0.8830225,0.5214155,-0.182433,0.8026125,0.7875854999999999,-0.2937929999999999,1.1701725,0.5340855,-0.158069,1.2652625,0.7890155,-0.276123,0.7947025,1.0354055,-0.3876929999999999,1.2533525,1.0149055,-0.3782029999999999,0.9433955,-0.0015015,-0.002874,1.0566045,0.0015014999999999,0.002874,0.8657525,-0.2498445,-0.179653,1.1447525,-0.2537545,-0.172783,0.8219225,-0.7439745,-0.106919,1.1611225,-0.7469545000000001,-0.108288
169,1.0263695,0.6510480000000001,-0.1272335,0.8838075000000001,0.520198,-0.1737314999999999,0.8037875,0.787678,-0.2757715,1.1701675,0.533778,-0.1489575,1.2643175,0.7922680000000001,-0.2589615,0.7944375,1.040558,-0.3669615,1.2533475,1.019998,-0.3582815,0.9434555,-0.001347,-0.0028935,1.0565445,0.0013469999999999,0.0028934999999999,0.8678575,-0.253242,-0.1577625,1.1395175,-0.256462,-0.1537775,0.8225675,-0.7496619999999999,-0.0995415,1.1587474999999998,-0.7534219999999999,-0.0992985
170,1.0279225,0.6603195,-0.1122855,0.8842095,0.5234795,-0.1560395,0.8048695,0.7901095,-0.2542935,1.1699695,0.5257695,-0.1355915,1.2634695,0.7871795,-0.2373335,0.7943295,1.0449995,-0.3436734999999999,1.2535095,1.0165595,-0.3332735,0.9432085,-0.0007295,-0.0027814999999999,1.0567915,0.0007295,0.0027814999999999,0.8709795,-0.2645805,-0.1310935,1.1341195,-0.2665105,-0.1296255,0.8218495,-0.7677205,-0.0881695,1.1562595,-0.7671005000000001,-0.0863375
171,1.029422,0.670566,-0.097777,0.88453,0.527356,-0.138303,0.8062,0.790976,-0.234342,1.1696,0.5182260000000001,-0.122245,1.2623,0.7823460000000001,-0.215992,0.79461,1.050756,-0.321212,1.2534,1.015556,-0.310412,0.943034,-0.0002819999999999,-0.002411,1.056966,0.000282,0.0024109999999999,0.87311,-0.275804,-0.10681,1.13002,-0.280854,-0.107682,0.82096,-0.780204,-0.076814,1.1540899999999998,-0.782284,-0.073238
172,1.0311305,0.680707,-0.083824,0.8847645,0.530077,-0.121571,0.8076445,0.790857,-0.215063,1.1688545,0.508127,-0.110419,1.2614345,0.776317,-0.195173,0.7954445,1.0538070000000002,-0.300223,1.2533345,1.0133070000000002,-0.287543,0.9430355,0.0002479999999999,-0.002039,1.0569645,-0.000248,0.0020389999999999,0.8748845000000001,-0.285453,-0.083895,1.1267545,-0.294323,-0.087245,0.8200345,-0.792823,-0.064746,1.1521545,-0.796403,-0.060231
173,1.0328435,0.6877880000000001,-0.069777,0.8847935000000001,0.534428,-0.105132,0.8092135,0.791208,-0.196765,1.1680335,0.499318,-0.098968,1.2606035,0.771458,-0.174955,0.7964635000000001,1.056018,-0.279445,1.2537535,1.012718,-0.264225,0.9430075,0.000916,-0.001604,1.0569925,-0.000916,0.001604,0.8759035,-0.296872,-0.064943,1.1239135,-0.305672,-0.068294,0.8190435,-0.806202,-0.052724,1.1504635,-0.808362,-0.0480219999999999
174,1.0346395,0.6948405,-0.0558965,0.8845735,0.5388205,-0.0886775,0.8105835,0.7901605,-0.1789895,1.1671235,0.4905905,-0.0873715,1.2597635,0.7642205,-0.1556294999999999,0.7978435,1.0578405,-0.2587495,1.2535435,1.0073405,-0.2416094999999999,0.9427945,0.0015414999999999,-0.0011695,1.0572055,-0.0015415,0.0011694999999999,0.8769035000000001,-0.3090695,-0.0468305,1.1215435,-0.3176994999999999,-0.0507895,0.8177235,-0.8188895,-0.0394265,1.1490635,-0.8209895,-0.0360885
175,1.036777,0.702699,-0.0424835,0.883845,0.544159,-0.0725745,0.811235,0.789539,-0.1629274999999999,1.166245,0.482839,-0.0762205,1.258915,0.757579,-0.1381774999999999,0.7998149999999999,1.0601090000000002,-0.2393575,1.253725,1.002609,-0.2199074999999999,0.942354,0.002145,-0.0007545,1.057646,-0.002145,0.0007545,0.878115,-0.320461,-0.0304484999999999,1.119675,-0.329351,-0.0364505,0.816245,-0.8315210000000001,-0.0263284999999999,1.148175,-0.832721,-0.0253815
176,1.03887,0.7109825000000001,-0.0296255,0.883089,0.5486424999999999,-0.0564845,0.8117990000000002,0.7896125,-0.1479745,1.165379,0.4747725,-0.0651475,1.258349,0.7513125,-0.1218745,0.802009,1.0613525,-0.2218645,1.2539690000000001,0.9933525,-0.2004645,0.941926,0.0024554999999999,-0.0003255,1.058074,-0.0024555,0.0003254999999999,0.878939,-0.3324675,-0.0167705,1.118769,-0.3405075,-0.0238805,0.813069,-0.8476475000000001,-0.0133375,1.147369,-0.8440175000000001,-0.0149295
177,1.0410715,0.7196,-0.017393,0.8823205000000001,0.55452,-0.0407789999999999,0.8124705,0.7900200000000001,-0.134233,1.1646804999999998,0.4681499999999999,-0.054608,1.2576705,0.7456200000000001,-0.106983,0.8043605,1.06263,-0.204923,1.2540005,0.98783,-0.183193,0.9415455,0.003095,-1.4000000000000123e-05,1.0584545,-0.0030949999999999,1.4000000000000123e-05,0.8799105,-0.34366,-0.0046319999999999,1.1179705,-0.351,-0.0125929999999999,0.8106105,-0.86279,-0.0012879999999999,1.1468105,-0.8545,-0.005717
178,1.0430635,0.7231894999999999,-0.0092725,0.8817695,0.5624195000000001,-0.0293705,0.8133295,0.7908995000000001,-0.1253234999999999,1.1640895,0.4622695,-0.0484255,1.2578495,0.7396795,-0.0975035,0.8055194999999999,1.0622795,-0.1950734999999999,1.2545195,0.9787795,-0.1723335,0.9411665,0.0031955,0.0006835,1.0588335,-0.0031954999999999,-0.0006835,0.8811995,-0.3539105,0.0007235,1.1174195,-0.3612505,-0.0072625,0.8097295000000001,-0.8730404999999999,0.0033764999999999,1.1462395,-0.8647505,-0.0012685
179,1.04383,0.7228265,-0.00466,0.8815729999999999,0.5625964999999999,-0.027535,0.814153,0.7906565000000001,-0.11967,1.163623,0.4627665,-0.0469649999999999,1.258423,0.7401765,-0.09233,0.806853,1.0621165,-0.1893,1.255213,0.9788165,-0.1658099999999999,0.940761,0.0029735,0.001058,1.059239,-0.0029734999999999,-0.001058,0.881593,-0.3541035,0.0013299999999999,1.116983,-0.3613335,-0.006724,0.807003,-0.8764235,0.006305,1.145783,-0.8649635,-0.0006779999999999
180,1.04398,0.7225195,-0.0003315,0.880793,0.5628895,-0.0257115,0.814103,0.7904795,-0.1140735,1.1641029999999999,0.4674994999999999,-0.0427275,1.258623,0.7406595,-0.0872515,0.807623,1.0619095,-0.1831635,1.255033,0.9825095,-0.1593335,0.940571,0.0028385,0.0013664999999999,1.059429,-0.0028384999999999,-0.0013665,0.8815230000000001,-0.3541705,0.0017035,1.1161329999999998,-0.3612205,-0.0064414999999999,0.803563,-0.8799105,0.0087474999999999,1.144983,-0.8648305,-0.0003934999999999
181,1.0436745,0.721501,0.0038125,0.8798245000000001,0.562491,-0.0219974999999999,0.8130645,0.789571,-0.1085585,1.1661345,0.4757009999999999,-0.0349045,1.2584745,0.7402409999999999,-0.0823305,0.8077745000000001,1.060991,-0.1773785,1.2543445,0.985491,-0.1534685,0.9408525,0.0025199999999999,0.0016614999999999,1.0591475,-0.0025199999999999,-0.0016614999999999,0.8811445000000001,-0.354449,0.0021635,1.1154345,-0.3610989999999999,-0.0061824999999999,0.8006945,-0.883439,0.0110025,1.1438845,-0.8647090000000001,-0.0001504999999999
182,1.042681,0.720275,0.008226,0.878557,0.562015,-0.0181209999999999,0.812257,0.786735,-0.103442,1.167667,0.483715,-0.02717,1.257727,0.7397050000000001,-0.07847,0.8069970000000001,1.0600649999999998,-0.172112,1.253557,0.981265,-0.150562,0.940944,0.0022289999999999,0.001852,1.059056,-0.0022289999999999,-0.0018519999999999,0.8801570000000001,-0.354695,0.0013249999999999,1.114427,-0.361035,-0.007147,0.7977770000000001,-0.8891249999999999,0.013044,1.1423269999999999,-0.864645,-1.1999999999999858e-05
183,1.04157,0.718607,0.0118845,0.8773569999999999,0.561207,-0.0142034999999999,0.8109770000000001,0.784607,-0.0995295,1.169207,0.491467,-0.0195795,1.257047,0.738927,-0.0752075,0.805707,1.058907,-0.1674695,1.2526169999999999,0.975607,-0.1478594999999999,0.941016,0.001948,0.0019815,1.058984,-0.0019479999999999,-0.0019815,0.8791470000000001,-0.354923,0.0007814999999999,1.113297,-0.361003,-0.0080425,0.795847,-0.891373,0.0152615,1.140647,-0.864613,2.650000000000048e-05
184,1.040519,0.7168625,0.014915,0.876238,0.5602825,-0.010373,0.809208,0.7831825000000001,-0.096375,1.170938,0.4993025,-0.012197,1.256428,0.7382725000000001,-0.072244,0.803938,1.0577725,-0.1641949999999999,1.251778,0.9705725,-0.1459849999999999,0.9411080000000001,0.0017204999999999,0.002048,1.058892,-0.0017204999999999,-0.0020479999999999,0.8782580000000001,-0.3550875,0.000445,1.112178,-0.3610175,-0.008825,0.792538,-0.8960174999999999,0.015072,1.139098,-0.8646375,-0.0001259999999999
185,1.0394035,0.7162885,0.0176385,0.8748175,0.5596985,-0.0071584999999999,0.8075475,0.7821785,-0.0938425,1.1727375,0.5073885,-0.0049284999999999,1.2557175,0.7376885000000001,-0.0700845,0.8023175000000001,1.0568885,-0.1628125,1.2508075,0.9699885,-0.1443324999999999,0.9411375,0.0014655,0.0021675,1.0588625,-0.0014654999999999,-0.0021674999999999,0.8773675,-0.3552815,0.0002225,1.1110375,-0.3609915,-0.0093924999999999,0.7895375,-0.8967215,0.0133815,1.1376475,-0.8646315,-0.0003274999999999
186,1.0382555,0.7154925,0.0199885,0.8734415,0.5594625,-0.0046875,0.8061715,0.7815125,-0.0917815,1.1747915,0.5156225,0.0021614999999999,1.2552715,0.7374525000000001,-0.0689935,0.8010315,1.0565525,-0.1630915,1.2508015000000001,0.9677525,-0.1445715,0.9411015,0.0012294999999999,0.0023954999999999,1.0588985,-0.0012295,-0.0023955,0.8765515000000001,-0.3554675,-3.850000000000034e-05,1.1099315,-0.3609575,-0.0097875,0.7872715,-0.8988674999999999,0.0131075,1.1365615,-0.8646075,-0.0008875
187,1.037191,0.7144925,0.0218205,0.872331,0.5594625,-0.0016734999999999,0.8049110000000002,0.7805125,-0.0902044999999999,1.1770909999999999,0.5224825000000001,0.0091055,1.255321,0.7374525000000001,-0.0689095,0.7997609999999999,1.0555525,-0.1634845,1.2518310000000001,0.9657525,-0.1448745,0.940998,0.0012294999999999,0.0026705,1.059002,-0.0012295,-0.0026704999999999,0.875631,-0.3554675,-0.0004194999999999,1.108981,-0.3609575,-0.0101694999999999,0.7862910000000001,-0.8988674999999999,0.0127245,1.135791,-0.8646075,-0.0014864999999999
188,1.036482,0.7131365,0.023186,0.871565,0.5589065,0.001168,0.802435,0.7785565,-0.08927,1.179395,0.5273065,0.015758,1.256595,0.7367365,-0.069393,0.7976750000000001,1.0540665,-0.1641,1.253665,0.9615665,-0.14551,0.940832,0.0012155,0.002919,1.059168,-0.0012154999999999,-0.0029189999999999,0.874995,-0.3555435,-0.0009749999999999,1.108345,-0.3609435,-0.0107249999999999,0.787355,-0.8961735000000001,0.01306,1.135315,-0.8645935,-0.0021809999999999
189,1.036347,0.7117975000000001,0.024298,0.87137,0.5577475000000001,0.0038269999999999,0.79808,0.7737475,-0.090163,1.1807,0.5273675,0.019205,1.25966,0.7341375000000001,-0.069997,0.7945300000000001,1.0497275,-0.166193,1.2570700000000001,0.9551275,-0.146123,0.940732,0.0011545,0.0031399999999999,1.059268,-0.0011544999999999,-0.00314,0.87492,-0.3556425,-0.00145,1.10828,-0.3609124999999999,-0.011473,0.7888700000000001,-0.8975825,0.013142,1.13544,-0.8645525000000001,-0.003039
190,1.036225,0.7113125,0.0251175,0.8703290000000001,0.5545725,0.0051195,0.790799,0.7665925,-0.0911995,1.180679,0.5281325,0.0195875,1.265419,0.7292825,-0.0705455,0.790489,1.0423925,-0.1706795,1.261599,0.9477925,-0.1485595,0.940734,0.0008804999999999,0.0030834999999999,1.059266,-0.0008805,-0.0030835,0.8749390000000001,-0.3558075,-0.0018445,1.108319,-0.3608475,-0.0123655,0.789929,-0.8946375000000001,0.0120495,1.135649,-0.8644875000000001,-0.0039555
191,1.0357955,0.7118975,0.0262655,0.8686645,0.5511375,0.0068835,0.7803445000000001,0.7548775,-0.0910675,1.1806645,0.5297475,0.0202375,1.2735245,0.7220775,-0.0714095,0.7854445000000001,1.0294075,-0.1767655,1.2674145,0.9402075,-0.1555655,0.9407385000000001,0.0006204999999999,0.0029655,1.0592614999999999,-0.0006204999999999,-0.0029654999999999,0.8741745000000001,-0.3558325,-0.0020855,1.1077245,-0.3608525,-0.0131744999999999,0.7908445,-0.8910525,0.0113845,1.1358645,-0.8644425,-0.0047615
192,1.035137,0.7129165000000001,0.027721,0.8666860000000001,0.5480665,0.0088449999999999,0.7634259999999999,0.7434765,-0.091304,1.180656,0.5317265,0.021031,1.283786,0.7118665000000001,-0.071708,0.778886,1.0113664999999998,-0.186868,1.273866,0.9296665,-0.164268,0.940745,0.0004965,0.002803,1.0592549999999998,-0.0004964999999999,-0.002803,0.873386,-0.3557935,-0.002216,1.107116,-0.3608935,-0.0138059999999999,0.791236,-0.8868134999999999,0.011164,1.136076,-0.8644335,-0.005475
193,1.0349125,0.7156245,0.0295365,0.8646665,0.5454345,0.0111795,0.7471165,0.7275645000000001,-0.0923495,1.1810365,0.5286045,0.0221965,1.2959265,0.6966245,-0.0712205,0.7709465,0.9857145,-0.1982495,1.2814165,0.9161045,-0.1763595,0.9406335000000001,0.0006645,0.0025375,1.0593664999999999,-0.0006644999999999,-0.0025375,0.8728665,-0.3554855,-0.0024194999999999,1.1072164999999998,-0.3610655,-0.0142435,0.7910165,-0.8863455,0.0122675,1.1369665,-0.8645355,-0.0059805
194,1.034794,0.71925,0.0315625,0.862437,0.54189,0.0135285,0.730937,0.70444,-0.0919185,1.181657,0.52566,0.0235275,1.3090570000000001,0.6763399999999999,-0.0707235,0.760207,0.94741,-0.2117235,1.292737,0.88874,-0.1892835,0.940496,0.0007899999999999,0.0022425,1.059504,-0.0007899999999999,-0.0022424999999999,0.8724069999999999,-0.35522,-0.0026584999999999,1.107507,-0.36116,-0.0146084999999999,0.792977,-0.88091,0.0128055,1.138117,-0.86454,-0.0063334999999999
195,1.0348195,0.723736,0.0336745,0.8603275,0.538416,0.0156185,0.7174975,0.676516,-0.0912355,1.1825075,0.522926,0.0247435,1.3204175,0.650396,-0.0702005,0.7500275000000001,0.902656,-0.2266225,1.3047275,0.8544860000000001,-0.2051125,0.9403115,0.000932,0.0019705,1.0596885,-0.000932,-0.0019705,0.8720075,-0.3549339999999999,-0.0029274999999999,1.1080075,-0.361214,-0.0148864999999999,0.7951175,-0.874354,0.0135185,1.1395275,-0.8645039999999999,-0.0065454999999999
196,1.0347689999999998,0.728599,0.0360375,0.858353,0.534369,0.0172845,0.706513,0.644109,-0.0896335,1.183363,0.519989,0.0255445,1.329533,0.618619,-0.0689315,0.7404729999999999,0.848139,-0.2371775,1.313103,0.813599,-0.2204875,0.9400870000000001,0.001027,0.0018374999999999,1.0599129999999999,-0.001027,-0.0018375,0.8715730000000002,-0.354681,-0.0030575,1.108553,-0.361211,-0.0151065,0.796613,-0.867471,0.0143054999999999,1.1410529999999999,-0.864381,-0.0066115
197,1.034668,0.7337495,0.038613,0.856774,0.5304595,0.018501,0.699044,0.6053595,-0.081721,1.184324,0.5164495,0.026233,1.334914,0.5824995000000001,-0.067101,0.731134,0.7810895,-0.237571,1.319104,0.7595195,-0.230851,0.939852,0.0012595,0.001792,1.060148,-0.0012594999999999,-0.001792,0.8712140000000002,-0.3543205,-0.003098,1.109234,-0.3613105,-0.015336,0.798154,-0.8598505,0.014887,1.142674,-0.8643605,-0.0065869999999999
198,1.0346645,0.7393270000000001,0.0412305,0.8554904999999999,0.526567,0.0190995,0.6960705,0.5650569999999999,-0.0701785,1.1853205,0.5124770000000001,0.0266225,1.3370605,0.543137,-0.0619765,0.7227805,0.7062870000000001,-0.2377685,1.3253405,0.6933769999999999,-0.2304985,0.9396395,0.001493,0.0016684999999999,1.0603605,-0.0014929999999999,-0.0016684999999999,0.8709405,-0.353953,-0.0029925,1.1101405,-0.361383,-0.0154995,0.7995005,-0.8543829999999999,0.0152135,1.1443605,-0.864303,-0.0060955
199,1.0347475,0.7444745,0.0434725,0.8550725,0.5241045,0.0192805,0.6970825,0.5245345,-0.0581315,1.1861625,0.5088345,0.0268515,1.3381725,0.5029245,-0.0525025,0.7178625000000001,0.6253345,-0.2377555,1.3268625,0.6213145,-0.2302455,0.9394365000000001,0.0017355,0.0014624999999999,1.0605635,-0.0017355,-0.0014625,0.8708225,-0.3536154999999999,-0.0030105,1.1111024999999999,-0.3614555,-0.0157295,0.8011525000000002,-0.8491354999999999,0.0154735,1.1460325,-0.8642455,-0.0055375
200,1.0347995,0.748198,0.0450215,0.8549345,0.5216080000000001,0.0195715,0.6979445,0.486248,-0.0459765,1.1871445,0.506178,0.0271845,1.3391345000000001,0.462558,-0.0428065,0.7168745000000001,0.540918,-0.2348404999999999,1.3281745,0.544978,-0.2299004999999999,0.9392915,0.00198,0.0011624999999999,1.0607085,-0.0019799999999999,-0.0011625,0.8707545,-0.353282,-0.0029885,1.1123345,-0.361462,-0.0159805,0.8030645,-0.841872,0.0163994999999999,1.1475844999999998,-0.864152,-0.0049405
201,1.0346724999999999,0.751982,0.045761,0.8548305,0.518852,0.019982,0.6986105,0.442762,-0.0337009999999999,1.1878705,0.503582,0.027627,1.3398705,0.424002,-0.032322,0.7176405,0.453632,-0.225243,1.3291205,0.461932,-0.2249229999999999,0.9391175,0.002169,0.000911,1.0608825,-0.002169,-0.000911,0.8705404999999999,-0.352978,-0.002907,1.1133905,-0.361428,-0.016224,0.8048605,-0.836698,0.017528,1.1489605,-0.864038,-0.0042399999999999
202,1.034393,0.7553580000000001,0.0463369999999999,0.854861,0.5160680000000001,0.019965,0.700561,0.402078,-0.02063,1.188351,0.5027680000000001,0.0274389999999999,1.336941,0.388308,-0.020762,0.7179610000000001,0.369658,-0.208051,1.329691,0.378308,-0.214331,0.9389149999999999,0.002075,0.0008029999999999,1.061085,-0.002075,-0.0008029999999999,0.870291,-0.352962,-0.0026429999999999,1.114221,-0.361172,-0.01624,0.805811,-0.833642,0.01815,1.150151,-0.8636919999999999,-0.003265
203,1.034032,0.758563,0.0468515,0.8551440000000001,0.5140129999999999,0.0186715,0.7077640000000001,0.365813,-0.0080404999999999,1.188624,0.5021629999999999,0.0263885,1.3288440000000001,0.353473,-0.0079235,0.717964,0.293873,-0.1842185,1.325624,0.302663,-0.1961284999999999,0.938765,0.002033,0.0006835,1.061235,-0.002033,-0.0006835,0.870154,-0.352897,-0.0023944999999999,1.115134,-0.360977,-0.0163295,0.806784,-0.830847,0.0190625,1.151274,-0.8633970000000001,-0.0023634999999999
204,1.033333,0.76139,0.0472545,0.855228,0.5120600000000001,0.0165855,0.7221580000000001,0.33412,0.0056955,1.188698,0.50176,0.0247945,1.315898,0.32281,0.0055505,0.719158,0.22404,-0.1521925,1.317698,0.23188,-0.1713725,0.938645,0.001976,0.0005404999999999,1.061355,-0.0019759999999999,-0.0005404999999999,0.870038,-0.35288,-0.0022354999999999,1.115858,-0.36081,-0.0165745,0.807778,-0.82619,0.0201765,1.152158,-0.86313,-0.0015484999999999
205,1.0325745,0.7637565,0.047039,0.8552395,0.5109665,0.013628,0.7372595,0.3078465,0.02035,1.1887095,0.5015665,0.022532,1.3007195,0.2982565,0.018047,0.7243295000000001,0.1647365,-0.113217,1.3066895,0.1691565,-0.137907,0.9385515,0.0019525,0.000458,1.0614485,-0.0019524999999999,-0.000458,0.8700095,-0.3528635,-0.002145,1.1164495,-0.3607135,-0.016901,0.8087595,-0.8258235,0.0205559999999999,1.1529095,-0.8629335,-0.000833
206,1.0317365,0.7657039999999999,0.045873,0.8551505,0.5098739999999999,0.0104,0.7521705,0.288614,0.03118,1.1885305,0.501734,0.019852,1.2840905,0.279004,0.0312879999999999,0.7340905,0.118384,-0.073019,1.2914305,0.120634,-0.10358,0.9384715,0.0018619999999999,0.0003739999999999,1.0615285,-0.001862,-0.0003739999999999,0.8699605,-0.352946,-0.0021049999999999,1.1168505,-0.360586,-0.017303,0.8101205,-0.824016,0.021754,1.1535405,-0.862696,-0.0002599999999999
207,1.0308419999999998,0.7672445,0.043938,0.854981,0.5089845,0.0070799999999999,0.7648110000000001,0.2735045,0.040029,1.188291,0.5021645,0.017114,1.269531,0.2646644999999999,0.042579,0.742051,0.0825335,-0.028724,1.277151,0.0840995,-0.0599689999999999,0.938399,0.0018015,0.000344,1.061601,-0.0018014999999999,-0.000344,0.8700209999999999,-0.3530255,-0.00217,1.117121,-0.3605055,-0.0176969999999999,0.8113310000000001,-0.8223655,0.022104,1.154061,-0.8625055,0.000144
208,1.029909,0.768374,0.041403,0.8547340000000001,0.508414,0.0039889999999999,0.7748840000000001,0.260584,0.049595,1.188104,0.502884,0.014675,1.257734,0.2532339999999999,0.051413,0.747144,0.0548819999999999,0.0116689999999999,1.266044,0.0541739999999999,-0.017341,0.9383710000000001,0.0017489999999999,0.0003189999999999,1.061629,-0.001749,-0.0003189999999999,0.8700140000000001,-0.353086,-0.002312,1.117314,-0.360426,-0.0180299999999999,0.8124340000000001,-0.819206,0.023194,1.154474,-0.862356,0.0005599999999999
209,1.0290655,0.768494,0.0382235,0.8544715,0.508414,0.0011614999999999,0.7812615,0.250314,0.0573015,1.1879515,0.502884,0.0123495,1.2496915,0.245274,0.0592414999999999,0.7519515000000001,0.0349439999999999,0.0383705,1.2575115000000001,0.033097,0.0171755,0.9383525000000001,0.0017489999999999,0.0003444999999999,1.0616474999999999,-0.001749,-0.0003444999999999,0.8700415000000001,-0.353086,-0.0025904999999999,1.1174615,-0.360426,-0.0183455,0.8127515000000001,-0.819206,0.0232845,1.1548915,-0.862356,0.0009505
210,1.0283975,0.768694,0.0343805,0.8541665,0.508414,-0.0012104999999999,0.7843964999999999,0.245034,0.0627095,1.1878665,0.502884,0.0102875,1.2447465,0.238374,0.0646965,0.7549565,0.023292,0.0565105,1.2519465,0.020991,0.0358655,0.9383555,0.0017489999999999,0.0003525,1.0616445,-0.001749,-0.0003524999999999,0.8701665000000001,-0.353086,-0.0033644999999999,1.1175865,-0.360426,-0.0186625,0.8129765,-0.818466,0.0243625,1.1552565,-0.862356,0.0013175
211,1.0278555,0.768894,0.0304275,0.8537705000000001,0.508354,-0.0031655,0.7845005,0.242544,0.0651154999999999,1.1878705,0.502884,0.0085045,1.2421505,0.234894,0.0683624999999999,0.7548805000000001,0.016839,0.0633695,1.2501905,0.015254,0.0465275,0.9383755,0.0017489999999999,0.0003614999999999,1.0616245,-0.001749,-0.0003615,0.8702405,-0.353086,-0.0042365,1.1176205,-0.360426,-0.0188665,0.8137205000000001,-0.816756,0.0252715,1.1554305,-0.862356,0.0017444999999999
212,1.0274074999999998,0.7697695,0.0261,0.8533525,0.5079395,-0.0047409999999999,0.7845825000000001,0.2421695,0.065339,1.1879325,0.5038695000000001,0.007034,1.2422325,0.2341695,0.068586,0.7549625,0.0132325,0.063593,1.2502325,0.0138964999999999,0.0477859999999999,0.9383915,0.0017094999999999,0.00041,1.0616085,-0.0017095,-0.0004099999999999,0.8702125,-0.3531905,-0.0050259999999999,1.1175625,-0.3603705,-0.01892,0.8137725,-0.8195604999999999,0.026293,1.1554825,-0.8622105,0.002675
213,1.0272549999999998,0.7702885,0.0222685,0.853,0.5075885,-0.0058844999999999,0.78467,0.2415085,0.0656665,1.18807,0.5048585,0.0060795,1.24232,0.2335085,0.0689135,0.75505,0.0125715,0.0639205,1.2503199999999999,0.0132355,0.0481135,0.9384,0.0016555,0.0004545,1.0616,-0.0016554999999999,-0.0004545,0.87019,-0.3533215,-0.0056024999999999,1.11753,-0.3603115,-0.0186975,0.81349,-0.8235715,0.0258825,1.15549,-0.8620715,0.0035945
214,1.0272695,0.770575,0.018895,0.8526905000000001,0.5073650000000001,-0.006655,0.7845605000000001,0.240665,0.065995,1.1882205,0.505775,0.0054359999999999,1.2424305,0.232665,0.0692499999999999,0.7547705,0.011728,0.064242,1.2504305,0.012392,0.0484499999999999,0.9384085,0.001691,0.0004639999999999,1.0615915,-0.0016909999999999,-0.000464,0.8701905,-0.353355,-0.006098,1.1174805,-0.360355,-0.018373,0.8144005,-0.8208449999999999,0.02805,1.1556804999999999,-0.862015,0.004461
