sb224sc-HT22-VT27/4dt907/src/ml-research/a11/datafiles/kinect_good_preprocessed_not_cut_A11_mediapipe/A77_kinect_mirrored.csv
FrameNo,nose_3d_x,nose_3d_y,nose_3d_z,left_shoulder_3d_x,left_shoulder_3d_y,left_shoulder_3d_z,left_elbow_3d_x,left_elbow_3d_y,left_elbow_3d_z,right_shoulder_3d_x,right_shoulder_3d_y,right_shoulder_3d_z,right_elbow_3d_x,right_elbow_3d_y,right_elbow_3d_z,left_wrist_3d_x,left_wrist_3d_y,left_wrist_3d_z,right_wrist_3d_x,right_wrist_3d_y,right_wrist_3d_z,left_hip_3d_x,left_hip_3d_y,left_hip_3d_z,right_hip_3d_x,right_hip_3d_y,right_hip_3d_z,left_knee_3d_x,left_knee_3d_y,left_knee_3d_z,right_knee_3d_x,right_knee_3d_y,right_knee_3d_z,left_ankle_3d_x,left_ankle_3d_y,left_ankle_3d_z,right_ankle_3d_x,right_ankle_3d_y,right_ankle_3d_z
0,0.9812915000000001,0.7842745,0.0962665,0.8108225,0.5538045,0.0806345,0.6382325000000001,0.7065045000000001,-0.0162474999999999,1.1671225,0.5650645000000001,0.0735735,1.3391325,0.7272145,-0.0397975,0.5915925,0.9602545,-0.0751845,1.4185725,0.9673545,-0.1488145,0.9246084999999999,-0.0022865,0.0006575,1.0753915,0.0022865,-0.0006574999999999,0.8770825,-0.5011355,0.0220845,1.1321625,-0.5058855,0.0427155,0.8434524999999999,-0.8727054999999999,-0.0269574999999999,1.1436025,-0.8507555,0.0099165
1,0.9812535,0.784139,0.0961195,0.8113755,0.5533290000000001,0.0808085,0.6382755,0.706469,-0.0162555,1.1671254999999998,0.565149,0.0735085,1.3390355,0.727179,-0.0399004999999999,0.5915355,0.960179,-0.0753345,1.4186355,0.966759,-0.1490845,0.9246175000000001,-0.0023699999999999,0.0007185,1.0753825,0.0023699999999999,-0.0007184999999999,0.8771355000000001,-0.501171,0.0220725,1.1320154999999998,-0.5028509999999999,0.0420205,0.8463455,-0.864441,-0.0175125,1.1438555,-0.847181,0.0107325
2,0.9812655,0.7838609999999999,0.0961185,0.8116045000000001,0.552871,0.0810045,0.6382645,0.706081,-0.0162245,1.1671045,0.5648909999999999,0.0734695,1.3390045,0.726881,-0.0398635,0.5915545,0.959861,-0.0753945,1.4188545,0.967411,-0.1496144999999999,0.9246615,-0.002269,0.0009084999999999,1.0753385,0.002269,-0.0009085,0.8772044999999999,-0.501299,0.0220044999999999,1.1320045,-0.504129,0.0420225,0.8480045,-0.847649,-0.0108185,1.1434845,-0.847519,0.0109204999999999
3,0.9809880000000001,0.783373,0.0957225,0.81193,0.552543,0.0811125,0.63817,0.7062529999999999,-0.0162025,1.16713,0.5648829999999999,0.0734425,1.3388200000000001,0.726703,-0.0397984999999999,0.5914900000000001,0.959613,-0.0753655,1.41917,0.969073,-0.1491154999999999,0.924697,-0.002256,0.0009194999999999,1.075303,0.002256,-0.0009194999999999,0.8771200000000001,-0.500517,0.0218495,1.13184,-0.506617,0.0424584999999999,0.8467,-0.870027,-0.0213975,1.14354,-0.8475670000000001,0.0109985
4,0.9808430000000001,0.783554,0.095497,0.811992,0.552594,0.081071,0.6381220000000001,0.7059840000000001,-0.0161079999999999,1.166992,0.565104,0.073274,1.338702,0.726804,-0.040037,0.5915220000000001,0.959504,-0.075659,1.4189720000000001,0.968504,-0.149529,0.924809,-0.002415,0.000941,1.075191,0.002415,-0.0009409999999999,0.8770420000000001,-0.500576,0.021729,1.131302,-0.506636,0.042379,0.826522,-0.892736,-0.077469,1.143152,-0.847646,0.011564
5,0.980945,0.7836719999999999,0.095463,0.812187,0.5527219999999999,0.081356,0.638227,0.7060219999999999,-0.0159999999999999,1.167077,0.5652619999999999,0.073276,1.338657,0.726862,-0.040009,0.591607,0.959822,-0.075779,1.418977,0.964162,-0.1481589999999999,0.924831,-0.002237,0.000986,1.075169,0.002237,-0.0009859999999999,0.8771370000000001,-0.500808,0.021785,1.131327,-0.505698,0.042265,0.8448370000000001,-0.875218,-0.0145259999999999,1.140357,-0.856028,0.011965
6,0.980734,0.78369,0.0950534999999999,0.8121700000000001,0.55246,0.0812495,0.63786,0.70638,-0.0160515,1.16689,0.56532,0.0730244999999999,1.33838,0.72682,-0.0402065,0.59148,0.95985,-0.0759865,1.4188,0.9658,-0.1485765,0.924887,-0.00202,0.0012724999999999,1.075113,0.00202,-0.0012725,0.87696,-0.50085,0.0214904999999999,1.1308099999999999,-0.50605,0.0421454999999999,0.82936,-0.89311,-0.0792865,1.14093,-0.8528,0.0119264999999999
7,0.980678,0.7836125,0.0950719999999999,0.8121320000000001,0.5524625000000001,0.081372,0.637892,0.7064625,-0.015978,1.166822,0.5652225000000001,0.073124,1.338322,0.7268825,-0.040164,0.591532,0.9601325,-0.0758079999999999,1.418922,0.9677325,-0.149258,0.924868,-0.0022115,0.001169,1.075132,0.0022115,-0.001169,0.876892,-0.5006375,0.021472,1.130992,-0.5046474999999999,0.04194,0.8460120000000001,-0.8672974999999999,-0.017346,1.142292,-0.8483674999999999,0.011469
8,0.9806275,0.78359,0.0949615,0.8121875000000001,0.55244,0.0814215,0.6378375000000001,0.70644,-0.0159274999999999,1.1667675,0.56521,0.0730765,1.3382275,0.72686,-0.0402125,0.5915375,0.96011,-0.0758745,1.4189175,0.96784,-0.1493445,0.9249045,-0.002208,0.0012315,1.0750955,0.002208,-0.0012314999999999,0.8768475,-0.5004,0.0214195,1.1308475,-0.50386,0.0417875,0.8463275,-0.86651,-0.0164694999999999,1.1422675,-0.8482,0.0114245
9,0.980583,0.7835525,0.0949035,0.812219,0.5524025,0.0815525,0.637799,0.7064225,-0.0158325,1.166729,0.5651824999999999,0.0730804999999999,1.338179,0.7268224999999999,-0.0402065,0.5915889999999999,0.9603525,-0.0758885,1.418919,0.9680225,-0.1493685,0.924925,-0.0021885,0.0013185,1.075075,0.0021885,-0.0013185,0.876799,-0.5001375,0.0214135,1.130759,-0.5034175000000001,0.0417615,0.846409,-0.8665375000000001,-0.0159995,1.142329,-0.8482375,0.0114435
10,0.9805410000000001,0.7835044999999999,0.0947735,0.8122590000000001,0.5522845,0.0816515,0.637779,0.7064445,-0.0157474999999999,1.166689,0.5652345,0.0730295,1.338129,0.7267645,-0.0402575,0.5916589999999999,0.9606545,-0.0759015,1.418989,0.9680745,-0.1493614999999999,0.924938,-0.0021815,0.0013874999999999,1.075062,0.0021815,-0.0013874999999999,0.8767590000000001,-0.5002255,0.0214125,1.130679,-0.5027755,0.0417285,0.8462890000000001,-0.8673155,-0.0159964999999999,1.142419,-0.8486155,0.0114895
11,0.9805225,0.783524,0.0946994999999999,0.8122925,0.552204,0.0817674999999999,0.6377824999999999,0.7064640000000001,-0.0156485,1.1666525,0.5652440000000001,0.0730224999999999,1.3380925000000001,0.726684,-0.0402514999999999,0.5917725,0.961004,-0.0758915,1.4190925,0.967944,-0.1493515,0.9249385,-0.002168,0.0014305,1.0750615,0.002168,-0.0014305,0.8767325,-0.500386,0.0214565,1.1306325,-0.501896,0.0416825,0.8460325,-0.868786,-0.0159785,1.1425325,-0.848846,0.0116155
12,0.9805215,0.783511,0.0946505,0.8123445,0.552131,0.0818885,0.6377945,0.706411,-0.0155245,1.1666345,0.565231,0.0730265,1.3380645,0.726481,-0.0401885,0.5919245,0.961521,-0.0758595,1.4192345,0.967831,-0.1493095,0.9249365,-0.002126,0.0014834999999999,1.0750635,0.002126,-0.0014835,0.8767245,-0.500549,0.0214914999999999,1.1306145,-0.501039,0.0416275,0.8462045,-0.868009,-0.0159145,1.1426545,-0.848989,0.0118114999999999
13,0.9805400000000001,0.783542,0.0946005,0.8124030000000001,0.552112,0.0819995,0.6378430000000002,0.706402,-0.0154305,1.166633,0.565262,0.0730135,1.338053,0.726242,-0.0401425,0.592093,0.962102,-0.0757825,1.419403,0.967882,-0.1493825,0.924927,-0.002043,0.0015205,1.075073,0.002043,-0.0015205,0.876733,-0.500638,0.0214964999999999,1.130603,-0.5002880000000001,0.0415624999999999,0.846203,-0.868158,-0.0171475,1.142923,-0.848868,0.0118594999999999
14,0.9805595,0.7835559999999999,0.094579,0.8124565,0.5520959999999999,0.082116,0.6378965,0.706386,-0.015326,1.1666365,0.5652659999999999,0.073005,1.3380565,0.7259559999999999,-0.0401509999999999,0.5922765,0.962616,-0.0757439999999999,1.4195864999999999,0.967816,-0.149474,0.9249205,-0.001982,0.001545,1.0750795,0.001982,-0.0015449999999999,0.8767365,-0.5007240000000001,0.021496,1.1306265,-0.499764,0.041442,0.8463765,-0.8659140000000001,-0.01579,1.1431665,-0.848774,0.011914
15,0.9805915,0.7835605,0.094557,0.8124985,0.5520704999999999,0.082235,0.6379585,0.7063305,-0.0152139999999999,1.1666485,0.5652404999999999,0.072994,1.3380885,0.7255404999999999,-0.0401449999999999,0.5925085,0.9630005,-0.07572,1.4198085,0.9676705,-0.14956,0.9249215000000001,-0.0019515,0.001604,1.0750784999999998,0.0019515,-0.001604,0.8767485,-0.5009695000000001,0.021488,1.1306685,-0.4993495,0.041313,0.8462985000000001,-0.8643195,-0.0153219999999999,1.1433785,-0.8487495,0.011897
16,0.9806380000000001,0.7835934999999999,0.094532,0.812553,0.5520735,0.0823639999999999,0.6380129999999999,0.7062535,-0.015088,1.166663,0.5652134999999999,0.0730389999999999,1.338123,0.7251335,-0.040126,0.592743,0.9633535,-0.075697,1.420043,0.9674835,-0.149637,0.924916,-0.0019364999999999,0.0016469999999999,1.075084,0.0019364999999999,-0.001647,0.876763,-0.5012765,0.0214729999999999,1.130713,-0.4994765,0.041266,0.846203,-0.8647165,-0.015312,1.143573,-0.8485765000000001,0.0119519999999999
17,0.9806875,0.7836785,0.094466,0.8125995,0.5521284999999999,0.082443,0.6380395,0.7062284999999999,-0.0150469999999999,1.1666595,0.5651984999999999,0.073046,1.3383194999999999,0.7247484999999999,-0.0401269999999999,0.5929295,0.9635385,-0.075751,1.4202795,0.9671085,-0.149771,0.9249175000000001,-0.0018674999999999,0.001654,1.0750825,0.0018674999999999,-0.0016539999999999,0.8767895,-0.5017215,0.021481,1.1307395,-0.4998315,0.041205,0.8462594999999999,-0.8671015000000001,-0.0165219999999999,1.1436195,-0.8482115,0.011991
18,0.980741,0.7837895,0.0943664999999999,0.8126450000000001,0.5522195,0.0825045,0.638045,0.7062195,-0.0150345,1.166665,0.5652195,0.0730405,1.338525,0.7243795000000001,-0.0401325,0.593055,0.9634695,-0.0758524999999999,1.420535,0.9667595,-0.1499825,0.924922,-0.0018154999999999,0.0016644999999999,1.075078,0.0018155,-0.0016644999999999,0.8768050000000001,-0.5021605,0.0214314999999999,1.1307450000000001,-0.5001805,0.0411165,0.846245,-0.8678804999999999,-0.0171685,1.143635,-0.8477205,0.0119524999999999
19,0.980793,0.7837605,0.0943045,0.81264,0.5522204999999999,0.0824845,0.6380399999999999,0.7062305,-0.0150765,1.16666,0.5651704999999999,0.0730465,1.33875,0.7242605,-0.0401565,0.5931500000000001,0.9634205,-0.0759715,1.42079,0.9667105,-0.1502815,0.924916,-0.0018075,0.0016824999999999,1.075084,0.0018075,-0.0016825,0.87683,-0.5021295,0.0213415,1.13081,-0.5002295,0.0410014999999999,0.84638,-0.8703195,-0.0186105,1.1437,-0.8469295,0.0118794999999999
20,0.9807885,0.7837434999999999,0.0942065,0.8126215,0.5522035,0.0823955,0.6380315000000001,0.7062335,-0.0151644999999999,1.1666414999999999,0.5651235,0.0730355,1.3389715,0.7241035,-0.0402615,0.5931715,0.9633635,-0.0761515,1.4211415,0.9665435,-0.1507315,0.9248915,-0.0018405,0.0017204999999999,1.0751085,0.0018405,-0.0017204999999999,0.8768715,-0.5021865,0.0211805,1.1308615,-0.5002865,0.0409135,0.8463415,-0.8700665000000001,-0.0189464999999999,1.1437415,-0.8465165,0.0118375
21,0.980772,0.7837005,0.093977,0.812597,0.5521705,0.082242,0.638007,0.7062205,-0.0153229999999999,1.166617,0.5650904999999999,0.072895,1.339157,0.7238505,-0.040425,0.5931569999999999,0.9632905,-0.076427,1.421637,0.9662905,-0.151427,0.924866,-0.0018895,0.0017199999999999,1.075134,0.0018894999999999,-0.0017199999999999,0.8769270000000001,-0.5022595,0.020876,1.130917,-0.5004095,0.040727,0.846327,-0.8701395000000001,-0.0192859999999999,1.1436169999999999,-0.8459495,0.011872
22,0.9807675,0.7837324999999999,0.093642,0.8123305000000001,0.5525725,0.081991,0.6378705,0.7062725,-0.0155099999999999,1.1665605000000001,0.5650824999999999,0.072767,1.3393705,0.7232425,-0.040537,0.5931605,0.9630925,-0.0767719999999999,1.4222805,0.9651325,-0.152192,0.9248365000000001,-0.0018815,0.001715,1.0751635,0.0018815,-0.0017149999999999,0.8770905,-0.5023875,0.02027,1.1309805,-0.5008975,0.040418,0.8462905000000001,-0.8711575,-0.0200009999999999,1.1434905,-0.8454175,0.011741
23,0.9807800000000001,0.7837934999999999,0.0930085,0.812034,0.5526335,0.0816975,0.637704,0.7062934999999999,-0.0158084999999999,1.166504,0.5650835,0.0726165,1.339594,0.7226935,-0.0406894999999999,0.593164,0.9629335,-0.0772694999999999,1.422934,0.9640235,-0.1531295,0.924803,-0.0018205,0.0016945,1.075197,0.0018205,-0.0016945,0.877344,-0.5025365,0.0193235,1.131074,-0.5015065,0.0398575,0.846344,-0.8723365000000001,-0.0212785,1.143484,-0.8453565000000001,0.0115935
24,0.980814,0.7838655,0.091876,0.811713,0.5527055000000001,0.081263,0.6375230000000001,0.7063055,-0.016242,1.166463,0.5651255000000001,0.072388,1.339833,0.7222055000000001,-0.041023,0.593153,0.9625055,-0.078136,1.423573,0.9629555,-0.154406,0.9247720000000001,-0.0017665,0.001685,1.0752279999999999,0.0017664999999999,-0.0016849999999999,0.877633,-0.5026745,0.018123,1.1311930000000001,-0.5022545,0.039067,0.846453,-0.8733645,-0.022452,1.143473,-0.8452845,0.011367
25,0.980813,0.783947,0.090341,0.811362,0.552787,0.080783,0.637302,0.706317,-0.0168799999999999,1.166412,0.5651769999999999,0.072128,1.340122,0.721827,-0.041534,0.5931120000000001,0.962097,-0.0791439999999999,1.424212,0.961877,-0.156074,0.9247380000000001,-0.00173,0.00167,1.075262,0.0017299999999999,-0.0016699999999999,0.877962,-0.502913,0.016641,1.131352,-0.502893,0.038009,0.846472,-0.875233,-0.0237559999999999,1.143472,-0.845203,0.011077
26,0.980609,0.784169,0.088597,0.810638,0.5538390000000001,0.079407,0.636368,0.7067690000000001,-0.0178969999999999,1.166008,0.5653090000000001,0.071681,1.340318,0.721399,-0.042253,0.592808,0.961669,-0.0802779999999999,1.424828,0.960889,-0.157818,0.924721,-0.001808,0.0016219999999999,1.075279,0.001808,-0.0016219999999999,0.878398,-0.503471,0.014712,1.131778,-0.503741,0.036112,0.846708,-0.873861,-0.024001,1.143578,-0.845181,0.009918
27,0.9804365000000002,0.7843095,0.0861265,0.8098575,0.5549695,0.0775335,0.6353774999999999,0.7072195,-0.0193754999999999,1.1656175,0.5653595,0.0710215,1.3405775,0.7208895,-0.0434175,0.5924875000000001,0.9612395,-0.0818705,1.4253575,0.9598695,-0.1599805,0.9247225,-0.0019185,0.0014465,1.0752774999999999,0.0019185,-0.0014464999999999,0.8788475,-0.5040205,0.0125985,1.1322275,-0.5041205000000001,0.0338745,0.8466575000000001,-0.8739905,-0.0246854999999999,1.1437375,-0.8457005000000001,0.0084805
28,0.9802545000000001,0.7843275,0.082842,0.8090714999999999,0.5561475,0.075006,0.6343515,0.7074575,-0.021572,1.1652515,0.5653374999999999,0.069928,1.3409214999999999,0.7200475,-0.044903,0.5921815,0.9606975,-0.084013,1.4257615000000001,0.9585975,-0.1626329999999999,0.9246885,-0.0021155,0.00125,1.0753115,0.0021155,-0.00125,0.8792815,-0.5045625,0.010296,1.1327215,-0.5042725,0.031317,0.8467215,-0.8727925,-0.024939,1.1440615,-0.8459925,0.006944
29,0.9801025,0.784334,0.078664,0.8082695,0.557274,0.071882,0.6331395,0.707504,-0.024619,1.1649795,0.565334,0.0685949999999999,1.3414795,0.7188140000000001,-0.04693,0.5919795,0.960104,-0.086809,1.4260495,0.957314,-0.1656889999999999,0.9246035,-0.002316,0.0010279999999999,1.0753965,0.002316,-0.001028,0.8797495,-0.505166,0.0077829999999999,1.1332695,-0.504196,0.0282469999999999,0.8467095,-0.873856,-0.026472,1.1444895,-0.846386,0.0051719999999999
30,0.9800405,0.784352,0.0737005,0.8074725,0.558432,0.0680895,0.6316825000000001,0.707322,-0.0285205,1.1648524999999998,0.565442,0.0669104999999999,1.3424225,0.717332,-0.0498465,0.5919025,0.959472,-0.0902085,1.4264425,0.955912,-0.1691985,0.9244635,-0.002443,0.0007874999999999,1.0755365000000001,0.002443,-0.0007875,0.8801025000000001,-0.505608,0.0050444999999999,1.1339024999999998,-0.503738,0.0244624999999999,0.8468125,-0.874758,-0.0290365,1.1450325,-0.849568,0.0027884999999999
31,0.980168,0.7842705,0.067391,0.806951,0.5594505,0.063814,0.6298710000000001,0.7065805000000001,-0.033199,1.1649209999999999,0.5655505,0.06472,1.343831,0.7156805,-0.05354,0.591971,0.9584605,-0.094165,1.4270209999999999,0.9549205,-0.173455,0.924277,-0.0025345,0.0006409999999999,1.075723,0.0025345,-0.000641,0.880601,-0.5060695,0.0021699999999999,1.134731,-0.5025395,0.020121,0.847091,-0.8742095,-0.031872,1.145711,-0.8522495,5.3999999999998494e-05
32,0.9804435000000001,0.7840075,0.06053,0.8065485,0.5604175,0.058812,0.6279985,0.7054275,-0.038705,1.1650885,0.5656075,0.0620639999999999,1.3457685,0.7136975,-0.057974,0.5922285,0.9568375,-0.0988449999999999,1.4275385,0.9522075,-0.178515,0.9241265,-0.0026674999999999,0.0004179999999999,1.0758735,0.0026675,-0.0004179999999999,0.8812285,-0.5061025,-0.000747,1.1357085,-0.5013625,0.015526,0.8475785,-0.8727225,-0.033444,1.1465285,-0.8541525,-0.0028409999999999
33,0.980726,0.7834869999999999,0.052767,0.806174,0.5613269999999999,0.053066,0.625664,0.7036169999999999,-0.044822,1.165314,0.565657,0.059184,1.348354,0.7114269999999999,-0.063345,0.592614,0.954447,-0.104008,1.427884,0.948957,-0.184018,0.9239539999999999,-0.002779,0.000212,1.076046,0.002779,-0.0002119999999999,0.881954,-0.505163,-0.0039859999999999,1.136814,-0.5001730000000001,0.010511,0.847854,-0.8712930000000001,-0.0351969999999999,1.147434,-0.8557330000000001,-0.0059279999999999
34,0.9812355,0.7827235,0.0438695,0.8060045,0.5619135,0.0463154999999999,0.6232945,0.7013935,-0.0516835,1.1657445,0.5657935,0.0555825,1.3512445,0.7084835,-0.0693285,0.5932145,0.9517935,-0.1099325,1.4281445,0.9446635,-0.1901725,0.9237115,-0.0029765,6.250000000000006e-05,1.0762885,0.0029765,-6.250000000000006e-05,0.8826445,-0.5038465,-0.0077755,1.1380945,-0.4987665,0.0046874999999999,0.8478645,-0.8699765,-0.0380535,1.1486045,-0.8571065,-0.0093765
35,0.9821025000000001,0.7816894999999999,0.0339585,0.8063955,0.5619295,0.0394745,0.6217455000000001,0.6983395,-0.0590864999999999,1.1665154999999998,0.5653195,0.0496225,1.3543855,0.7047795,-0.0761294999999999,0.5941655,0.9485795,-0.1167695,1.4284855,0.9396195,-0.1971195,0.9234495,-0.0029665,-5.9500000000000525e-05,1.0765505,0.0029664999999999,5.9500000000000525e-05,0.8829055000000001,-0.5033305,-0.0122525,1.1394455,-0.4979204999999999,-0.0009654999999999,0.8480955,-0.8706305000000001,-0.0416765,1.1502955,-0.8577005000000001,-0.0123894999999999
36,0.9829715,0.7801635,0.023126,0.8070915,0.5604935,0.031542,0.6200715,0.6945135,-0.067076,1.1673015,0.5651735,0.043401,1.3579115,0.7009835,-0.083992,0.5950314999999999,0.9446035,-0.124612,1.4287714999999999,0.9336135,-0.204832,0.9231475,-0.0028474999999999,-0.0001409999999999,1.0768525,0.0028475,0.0001409999999999,0.8827115,-0.5024565000000001,-0.017839,1.1409815,-0.4962764999999999,-0.007553,0.8484415,-0.8708065,-0.0457929999999999,1.1522315,-0.8578265,-0.0155609999999999
37,0.9840475000000001,0.7785185,0.0116795,0.8079835,0.5594085,0.0233635,0.6185835,0.6906585000000001,-0.0754905,1.1681135,0.5643285,0.0358295,1.3616035,0.6970485000000001,-0.0926565,0.5958335,0.9401385,-0.1332565,1.4288835,0.9269185,-0.2132065,0.9228325,-0.0027135,-0.0001694999999999,1.0771675,0.0027134999999999,0.0001694999999999,0.8823135,-0.5010415,-0.0245895,1.1429435,-0.4939215,-0.0154564999999999,0.8489735,-0.8702915,-0.0504344999999999,1.1542634999999999,-0.8571515,-0.0192205
38,0.985216,0.776442,-0.0003195,0.8090220000000001,0.558552,0.0150355,0.617172,0.686022,-0.0841535,1.168882,0.563352,0.0275745,1.365192,0.693062,-0.1018105,0.5966020000000001,0.935302,-0.1426204999999999,1.428852,0.918882,-0.2232104999999999,0.922444,-0.0026099999999999,-9.750000000000036e-05,1.077556,0.0026099999999999,9.750000000000036e-05,0.881512,-0.4974579999999999,-0.0324615,1.1452419999999999,-0.489158,-0.0240195,0.8493220000000001,-0.869258,-0.0556754999999999,1.156322,-0.855718,-0.0232614999999999
39,0.986363,0.7738415,-0.0126935,0.810235,0.5570514999999999,0.0062655,0.616295,0.6806814999999999,-0.0933255,1.169785,0.5618515,0.0185005,1.368495,0.6880615,-0.1112455,0.5976049999999999,0.9279115,-0.1541954999999999,1.428415,0.9104515,-0.2334255,0.921982,-0.0023735,-4.5499999999998667e-05,1.078018,0.0023735,4.55000000000004e-05,0.8802449999999999,-0.4926185,-0.0415715,1.147735,-0.4836985,-0.0328795,0.849715,-0.8665985,-0.0609264999999999,1.157985,-0.8527385000000001,-0.0271614999999999
40,0.98726,0.7714139999999999,-0.024816,0.811402,0.5553939999999999,-0.0025129999999999,0.616142,0.675874,-0.102425,1.170452,0.560724,0.009225,1.371302,0.682654,-0.1207449999999999,0.598662,0.921044,-0.165525,1.427822,0.901004,-0.244305,0.921569,-0.0023929999999999,-4.799999999999943e-05,1.078431,0.0023929999999999,4.799999999999943e-05,0.878042,-0.486346,-0.052825,1.1506020000000001,-0.476986,-0.042589,0.849842,-0.862716,-0.066215,1.159362,-0.848566,-0.03119
41,0.9879315000000001,0.768493,-0.0373584999999999,0.8123085000000001,0.553523,-0.0113165,0.6159985,0.671043,-0.1116695,1.1707285,0.560253,-0.0001555,1.3735285,0.676893,-0.1305195,0.5997085,0.914983,-0.1769795,1.4266785,0.893903,-0.2549694999999999,0.9211895,-0.002371,-4.3500000000000136e-05,1.0788105,0.002371,4.3500000000000136e-05,0.8755485000000001,-0.478317,-0.0645205,1.1535285,-0.468797,-0.0529815,0.8495885,-0.857527,-0.0715105,1.1607885,-0.8431270000000001,-0.0354095
42,0.9886440000000001,0.7658105000000001,-0.0495435,0.81317,0.5514205,-0.0200244999999999,0.61634,0.6668705,-0.1212215,1.1709100000000001,0.5585805,-0.0102305,1.37513,0.6710405,-0.1401015,0.6007899999999999,0.9101605,-0.1892515,1.42554,0.8878505,-0.2662815,0.920846,-0.0022645,-4.649999999999999e-05,1.079154,0.0022644999999999,4.649999999999999e-05,0.87295,-0.4697495,-0.0764715,1.15645,-0.4608494999999999,-0.0635305,0.84944,-0.8514395,-0.0769625,1.16218,-0.8350495,-0.0400504999999999
43,0.9893015000000001,0.7629235,-0.0612325,0.8139885,0.5486735,-0.0284095,0.6170285,0.6625135,-0.1306925,1.1709284999999998,0.5558835,-0.0204575,1.3765185,0.6659035,-0.1497325,0.6017385,0.9064735,-0.2019925,1.4240685,0.8824235,-0.2785625,0.9206535,-0.0021554999999999,-2.050000000000012e-05,1.0793465,0.0021554999999999,2.0499999999999685e-05,0.8703185,-0.4598764999999999,-0.0885074999999999,1.1595985,-0.4527465,-0.0740955,0.8492085,-0.8444865,-0.0823625,1.1632485,-0.8261065,-0.0445305
44,0.9899385,0.7600565,-0.07265,0.8147545,0.5460165,-0.03656,0.6175745,0.6585365000000001,-0.140256,1.1710645,0.5542865,-0.028895,1.3776745,0.6608965,-0.1593159999999999,0.6025445,0.9036765,-0.2152659999999999,1.4223745,0.8779765,-0.291156,0.9204315,-0.0021424999999999,5.3000000000000096e-05,1.0795685,0.0021425,-5.3000000000000096e-05,0.8680345,-0.4497434999999999,-0.10044,1.1627445,-0.4439735,-0.085169,0.8488645000000001,-0.8364834999999999,-0.088119,1.1636245,-0.8173735,-0.049253
45,0.99045,0.7578295,-0.0831615,0.815569,0.5453295,-0.0437585,0.6179490000000001,0.6555394999999999,-0.1498624999999999,1.171069,0.5525795,-0.0376915,1.378249,0.6564995,-0.1684525,0.603479,0.9022595,-0.2287825,1.420399,0.8740095,-0.3041325,0.920129,-0.0018974999999999,5.05000000000002e-05,1.079871,0.0018975,-5.049999999999846e-05,0.866109,-0.4397105,-0.1121125,1.1658789999999999,-0.4339405,-0.0960004999999999,0.848349,-0.8267005000000001,-0.0936745,1.163799,-0.8073405,-0.0541945
46,0.990753,0.755263,-0.0932455,0.8165640000000001,0.543583,-0.0508075,0.618024,0.6519830000000001,-0.1591155,1.1708839999999998,0.551223,-0.0455095,1.378594,0.651833,-0.1772755,0.604384,0.901443,-0.2421255,1.418374,0.870453,-0.3170355,0.919852,-0.0019979999999999,1.5499999999998154e-05,1.0801479999999999,0.0019979999999999,-1.5500000000001624e-05,0.864104,-0.428877,-0.1237655,1.168764,-0.423107,-0.1061545,0.8476440000000001,-0.8163469999999999,-0.0993655,1.1638339999999998,-0.796507,-0.0595195
47,0.9910610000000001,0.7529505000000001,-0.102838,0.817673,0.5417505,-0.058102,0.618483,0.6493005000000001,-0.168232,1.1707429999999999,0.5498605000000001,-0.0534459999999999,1.378953,0.6470104999999999,-0.185932,0.605213,0.9013305,-0.255562,1.416253,0.8682505,-0.329232,0.919434,-0.0019744999999999,6.300000000000056e-05,1.080566,0.0019745,-6.300000000000056e-05,0.8621730000000001,-0.4166995,-0.1352819999999999,1.171463,-0.4111895,-0.116245,0.8471330000000001,-0.8048795,-0.104776,1.163973,-0.7845895,-0.065447
48,0.9913305,0.7504715000000001,-0.112277,0.8188535,0.5402915,-0.065017,0.6182635000000001,0.6470015,-0.177154,1.1705135,0.5481115,-0.061113,1.3793035,0.6427815,-0.194384,0.6060335,0.8988915000000001,-0.2672839999999999,1.4141335,0.8655815,-0.341344,0.9190765,-0.0020904999999999,7.099999999999815e-05,1.0809235,0.0020904999999999,-7.100000000000162e-05,0.8602235,-0.4034084999999999,-0.146424,1.1741335,-0.3972985,-0.126324,0.8464335000000001,-0.7927885,-0.110579,1.1640635,-0.7720085,-0.071669
49,0.991433,0.747665,-0.121538,0.819962,0.5387850000000001,-0.072334,0.6179320000000001,0.643865,-0.186469,1.170212,0.546205,-0.0691809999999999,1.379492,0.638685,-0.203389,0.606992,0.897315,-0.2796289999999999,1.411872,0.863325,-0.3532289999999999,0.918628,-0.0017849999999999,9.400000000000032e-05,1.081372,0.0017849999999999,-9.400000000000032e-05,0.858442,-0.389635,-0.156359,1.176542,-0.382945,-0.136209,0.845622,-0.780025,-0.116668,1.163982,-0.758705,-0.078295
50,0.991678,0.745285,-0.1357705,0.821211,0.537775,-0.0853215,0.618051,0.640245,-0.2010565,1.170011,0.5441549999999999,-0.0832255,1.379751,0.635525,-0.2178065,0.608171,0.892185,-0.2978165,1.410311,0.858755,-0.3710965,0.9182220000000001,-0.0015149999999999,0.0001985,1.081778,0.001515,-0.0001984999999999,0.856811,-0.374795,-0.1717465,1.1787409999999998,-0.3668949999999999,-0.1512365,0.845071,-0.7657349999999999,-0.1281655,1.164101,-0.743955,-0.0915115
51,0.9917575,0.74394,-0.151572,0.8222625,0.5387,-0.0997649999999999,0.6178725,0.6382699999999999,-0.216572,1.1695625,0.54416,-0.098259,1.3805725,0.6351899999999999,-0.235262,0.6081825000000001,0.88998,-0.316492,1.4085125,0.85642,-0.390262,0.9182205,-0.0011899999999999,0.0003039999999999,1.0817795000000001,0.0011899999999999,-0.0003039999999999,0.8528525,-0.3555,-0.1938619999999999,1.1840225,-0.34881,-0.173652,0.8428725,-0.74684,-0.146898,1.1659125,-0.7282,-0.110857
52,0.9917845,0.74087,-0.1670789999999999,0.8231625,0.5402199999999999,-0.113865,0.6175125,0.63435,-0.2323889999999999,1.1690725,0.5453399999999999,-0.1126599999999999,1.3811525,0.63314,-0.252729,0.6081625000000002,0.8862599999999999,-0.334809,1.4071224999999998,0.85214,-0.408779,0.9181175,-0.0009,0.000435,1.0818825,0.0008999999999999,-0.0004349999999999,0.8492525,-0.33777,-0.215559,1.1887025,-0.33325,-0.195329,0.8410425,-0.7303000000000001,-0.164517,1.1674025000000001,-0.71438,-0.129742
53,0.9921085,0.73712,-0.1832119999999999,0.8244805,0.53758,-0.129226,0.6174105,0.62929,-0.248592,1.1688505,0.54696,-0.127188,1.3823105,0.63054,-0.270972,0.6084905,0.88083,-0.353722,1.4061405,0.8466,-0.4278119999999999,0.9180505,-0.0008099999999999,0.0004909999999999,1.0819495,0.00081,-0.000491,0.8459004999999999,-0.32034,-0.236972,1.1934904999999998,-0.31851,-0.216552,0.8395905,-0.7139199999999999,-0.1822119999999999,1.1692205,-0.70085,-0.148779
54,0.9928585000000001,0.73273,-0.200234,0.8257525,0.53589,-0.144977,0.6172925,0.6232800000000001,-0.265074,1.1689924999999999,0.54372,-0.143285,1.3836625,0.62677,-0.289364,0.6092525,0.86992,-0.372974,1.4058825,0.83946,-0.447374,0.9179595,-0.00078,0.000547,1.0820405,0.00078,-0.0005469999999999,0.8428625,-0.30423,-0.258094,1.1984725,-0.3045099999999999,-0.237514,0.8383625,-0.69826,-0.200374,1.1717825,-0.68685,-0.1682179999999999
55,0.9937505000000001,0.7285,-0.21714,0.8267435,0.53459,-0.16105,0.6169835,0.6171599999999999,-0.28176,1.1692135,0.5409200000000001,-0.159268,1.3851135,0.62165,-0.30773,0.6100135,0.85904,-0.39203,1.4059435,0.83191,-0.46709,0.9178865,-0.00039,0.00067,1.0821135,0.00039,-0.00067,0.8401635000000001,-0.28836,-0.27886,1.2035035,-0.2907,-0.2582,0.8373135,-0.68252,-0.21891,1.1745934999999998,-0.6727299999999999,-0.187466
56,0.9948225,0.72341,-0.234255,0.8280355,0.53281,-0.177145,0.6166455,0.61055,-0.298675,1.1695755,0.53763,-0.174958,1.3864555,0.61661,-0.326215,0.6105255,0.84708,-0.411505,1.4064655,0.8232900000000001,-0.486795,0.9178015,-0.00014,0.0005349999999999,1.0821985,0.00014,-0.0005349999999999,0.8378255,-0.27339,-0.298845,1.2086454999999998,-0.27673,-0.278355,0.8365355,-0.66708,-0.237255,1.1776455,-0.65969,-0.205944
57,0.9959870000000001,0.718145,-0.25132,0.829296,0.530555,-0.193521,0.6164260000000001,0.603465,-0.31573,1.169966,0.5345150000000001,-0.190779,1.388166,0.611405,-0.3446599999999999,0.610786,0.839645,-0.43157,1.4074659999999999,0.8149949999999999,-0.50752,0.9178060000000001,9.500000000001174e-05,0.0004099999999999,1.0821939999999999,-9.4999999999984e-05,-0.0004099999999999,0.8357559999999999,-0.2585949999999999,-0.31848,1.2135259999999999,-0.2620249999999999,-0.29811,0.835696,-0.6513450000000001,-0.25546,1.180796,-0.6466049999999999,-0.2244499999999999
58,0.9972175,0.7122550000000001,-0.2684649999999999,0.8305685,0.528555,-0.2095209999999999,0.6161685,0.596875,-0.3329649999999999,1.1703184999999998,0.530555,-0.2064249999999999,1.3892185,0.606535,-0.3625049999999999,0.6109385,0.831075,-0.452195,1.4086485,0.8054349999999999,-0.527535,0.9178364999999999,0.000175,0.000145,1.0821635,-0.000175,-0.0001449999999999,0.8341385,-0.243665,-0.3376949999999999,1.2178085,-0.246825,-0.317355,0.8350985000000001,-0.635675,-0.273435,1.1841285,-0.633275,-0.2427249999999999
59,0.998074,0.7062200000000001,-0.28017,0.831314,0.5257700000000001,-0.219735,0.615374,0.5906100000000001,-0.34472,1.170334,0.52591,-0.215856,1.390074,0.60053,-0.3740799999999999,0.610884,0.8228,-0.46745,1.409474,0.79699,-0.54131,0.917855,0.00041,-0.0001599999999999,1.082145,-0.0004099999999999,0.0001599999999999,0.832174,-0.2292099999999999,-0.35102,1.221644,-0.2325399999999999,-0.3309499999999999,0.834184,-0.62131,-0.28539,1.187174,-0.62043,-0.25415
60,0.9988295000000001,0.6991050000000001,-0.2894299999999999,0.8318395000000001,0.520765,-0.228485,0.6147695,0.583075,-0.35516,1.1702895,0.5205850000000001,-0.22375,1.3905395,0.592485,-0.38187,0.6107895000000001,0.812045,-0.48099,1.4101595,0.786155,-0.55289,0.9178715,0.000425,-0.0004399999999999,1.0821285,-0.0004249999999999,0.0004399999999999,0.8320895,-0.2158649999999999,-0.3575,1.2219995,-0.219265,-0.33691,0.8344195,-0.6080749999999999,-0.28934,1.1881795,-0.607835,-0.25979
61,0.9999325,0.69379,-0.2987499999999999,0.8326135,0.5154,-0.237229,0.6150535000000001,0.57748,-0.36497,1.1704634999999999,0.51489,-0.2316929999999999,1.3913035,0.5847,-0.38904,0.6110234999999999,0.80163,-0.49355,1.4113635,0.7776000000000001,-0.5633,0.9179605,0.0004299999999999,-0.00089,1.0820395,-0.0004299999999999,0.00089,0.8324135,-0.20077,-0.36402,1.2226935,-0.20417,-0.34294,0.8349735,-0.59369,-0.29305,1.1892035,-0.59471,-0.26515
62,1.000864,0.6890499999999999,-0.306675,0.83324,0.5143599999999999,-0.244329,0.61536,0.5726100000000001,-0.374055,1.17047,0.5082599999999999,-0.239302,1.39184,0.5785,-0.394625,0.61121,0.79226,-0.505225,1.41231,0.77013,-0.572165,0.9181650000000001,0.0007099999999999,-0.001345,1.0818349999999999,-0.0007099999999999,0.0013449999999999,0.83277,-0.18711,-0.370285,1.22325,-0.18902,-0.348715,0.8353600000000001,-0.5795699999999999,-0.296115,1.18977,-0.5813600000000001,-0.269765
63,1.0024605,0.68448,-0.312905,0.8341065,0.5117200000000001,-0.25074,0.6163365000000001,0.56785,-0.381995,1.1711765,0.50565,-0.244424,1.3921965,0.57266,-0.399035,0.6123865,0.7874300000000001,-0.514865,1.4137765,0.764,-0.578755,0.9180555,0.00073,-0.001585,1.0819445,-0.0007299999999999,0.001585,0.8340465,-0.1787999999999999,-0.375745,1.2239665,-0.1781599999999999,-0.353885,0.8378765,-0.56901,-0.294575,1.1904065,-0.5700799999999999,-0.273495
64,1.004386,0.67988,-0.31876,0.8353349999999999,0.50918,-0.25655,0.6172350000000001,0.56287,-0.3893999999999999,1.1722949999999999,0.5028900000000001,-0.249305,1.393125,0.56832,-0.40287,0.6141650000000001,0.78155,-0.52484,1.415555,0.75783,-0.5840000000000001,0.918041,0.00074,-0.0018799999999999,1.081959,-0.0007399999999999,0.0018799999999999,0.835665,-0.1696799999999999,-0.38067,1.224905,-0.16698,-0.35874,0.840665,-0.55764,-0.2929199999999999,1.1913349999999998,-0.55859,-0.2767
65,1.0065795,0.67589,-0.32397,0.8363815,0.5067999999999999,-0.26172,0.6187415,0.5578,-0.39573,1.1734915,0.50039,-0.2536049999999999,1.3945015,0.56341,-0.40597,0.6158515,0.7763899999999999,-0.53291,1.4172415,0.75206,-0.58771,0.9181135,0.0007499999999999,-0.0021599999999999,1.0818865,-0.00075,0.0021599999999999,0.8374315,-0.16116,-0.38525,1.2255615,-0.15649,-0.36306,0.8432415,-0.5467000000000001,-0.2903799999999999,1.1926415,-0.54777,-0.27882
66,1.0089015,0.6726650000000001,-0.3291349999999999,0.8374085,0.505995,-0.265855,0.6197285,0.5529649999999999,-0.401175,1.1745985,0.498205,-0.257002,1.3958085,0.559875,-0.409145,0.6177485,0.770105,-0.539365,1.4188285,0.746525,-0.590435,0.9182715,0.0010749999999999,-0.002415,1.0817285,-0.0010749999999999,0.002415,0.8390785000000001,-0.153205,-0.389085,1.2261885,-0.147495,-0.3670449999999999,0.8457485000000001,-0.536085,-0.286945,1.1936585,-0.538415,-0.281005
67,1.0115615,0.669465,-0.33486,0.8386075,0.502975,-0.27034,0.6209675,0.548575,-0.4062,1.1759675,0.495445,-0.26027,1.3975775,0.556675,-0.41355,0.6198775000000001,0.764885,-0.54557,1.4204675,0.7435849999999999,-0.59308,0.9183574999999999,0.001305,-0.00256,1.0816425,-0.001305,0.00256,0.8405575000000001,-0.145855,-0.39251,1.2271874999999999,-0.139005,-0.37057,0.8483275,-0.5252049999999999,-0.28395,1.1951375,-0.5295050000000001,-0.28254
68,1.014512,0.6666399999999999,-0.340815,0.84021,0.50086,-0.274345,0.6221300000000001,0.5422399999999999,-0.410425,1.1776,0.49349,-0.263305,1.40153,0.54945,-0.4190149999999999,0.62209,0.76023,-0.5504549999999999,1.4224299999999999,0.73844,-0.5961650000000001,0.91843,0.0013599999999999,-0.0026049999999999,1.08157,-0.00136,0.0026049999999999,0.8422100000000001,-0.13879,-0.396065,1.22843,-0.13078,-0.373625,0.8511200000000001,-0.51525,-0.281565,1.19683,-0.52102,-0.283865
69,1.0175805,0.6645,-0.34735,0.8418005,0.4989099999999999,-0.27823,0.6235405,0.53562,-0.41479,1.1792205,0.491006,-0.2663,1.4054005,0.54166,-0.42428,0.6244505,0.75377,-0.55615,1.4245705,0.73209,-0.59918,0.9184305000000001,0.0015,-0.0026,1.0815694999999999,-0.0015,0.0025999999999999,0.8439004999999999,-0.13223,-0.39948,1.2296405,-0.12332,-0.37641,0.8540705,-0.5062500000000001,-0.27907,1.1985905,-0.5130600000000001,-0.28523
70,1.0208605,0.661675,-0.353865,0.8436125,0.496939,-0.282005,0.6222425,0.526015,-0.421545,1.1809625,0.488553,-0.2690749999999999,1.4094625,0.534035,-0.429145,0.6268425,0.745715,-0.562055,1.4266025,0.724315,-0.602085,0.9184125,0.0016749999999999,-0.0026449999999999,1.0815875,-0.0016749999999999,0.002645,0.8458525,-0.1264549999999999,-0.402575,1.2308824999999999,-0.116295,-0.378795,0.8568725,-0.498285,-0.276385,1.2001625,-0.505745,-0.286795
71,1.0240895,0.6586449999999999,-0.3607599999999999,0.8452535000000001,0.4945,-0.28588,0.6211135,0.517775,-0.42813,1.1825535,0.485732,-0.2716699999999999,1.4137735,0.524985,-0.43399,0.6295934999999999,0.737545,-0.5674699999999999,1.4285535,0.715265,-0.6049599999999999,0.9183835,0.0018949999999999,-0.0027699999999999,1.0816165,-0.001895,0.0027699999999999,0.8478435,-0.1206049999999999,-0.40523,1.2322135,-0.109585,-0.38073,0.8597635,-0.490765,-0.27379,1.2010235,-0.497965,-0.2868699999999999
72,1.0273595,0.655155,-0.36816,0.8468675,0.491635,-0.28973,0.6203974999999999,0.507403,-0.4344,1.1841674999999998,0.483324,-0.27449,1.4178775,0.515046,-0.43853,0.6323274999999999,0.729005,-0.57289,1.4305374999999998,0.7054549999999999,-0.60782,0.9183375,0.002065,-0.0028499999999999,1.0816625,-0.0020649999999999,0.0028499999999999,0.8502375,-0.114665,-0.4078,1.2336975,-0.1031449999999999,-0.38242,0.8614075,-0.483305,-0.27351,1.2018475,-0.4905549999999999,-0.28696
73,1.0305585,0.6513549999999999,-0.375505,0.8483075,0.48905,-0.293405,0.6198775000000001,0.4983979999999999,-0.4402749999999999,1.1858075,0.480917,-0.276965,1.4222074999999998,0.505026,-0.442945,0.6347975,0.718915,-0.577365,1.4323875,0.695495,-0.611085,0.9182975,0.0022149999999999,-0.0028949999999999,1.0817025,-0.002215,0.002895,0.8525375,-0.108805,-0.4099649999999999,1.2349975,-0.0969849999999999,-0.383735,0.8628375,-0.476095,-0.273425,1.2023674999999998,-0.484025,-0.287245
74,1.033366,0.647435,-0.382335,0.849891,0.48587,-0.297015,0.619221,0.490384,-0.445955,1.1874609999999999,0.478377,-0.279235,1.426521,0.495237,-0.446075,0.6369910000000001,0.709505,-0.5819650000000001,1.434151,0.685265,-0.6135649999999999,0.918261,0.002365,-0.0027649999999999,1.081739,-0.0023649999999999,0.002765,0.8547210000000001,-0.102765,-0.411805,1.2361609999999998,-0.0908449999999999,-0.384735,0.864491,-0.4683349999999999,-0.2732549999999999,1.203161,-0.4773649999999999,-0.288315
75,1.03613,0.6433949999999999,-0.388495,0.8515090000000001,0.482488,-0.300695,0.618329,0.4833969999999999,-0.450965,1.188989,0.4764859999999999,-0.281315,1.431029,0.4849199999999999,-0.447515,0.638919,0.700825,-0.587375,1.436129,0.675505,-0.615405,0.918209,0.0022949999999999,-0.002665,1.081791,-0.002295,0.002665,0.856819,-0.0961549999999999,-0.4135749999999999,1.237399,-0.083635,-0.385325,0.866059,-0.461325,-0.274095,1.204109,-0.469985,-0.289335
76,1.0386205,0.639465,-0.39366,0.8531365,0.4806769999999999,-0.3038,0.6170565,0.475686,-0.45519,1.1903065,0.47572,-0.28327,1.4350065,0.473848,-0.44742,0.6402464999999999,0.691035,-0.59172,1.4379565,0.664855,-0.61623,0.9181565,0.0022749999999999,-0.00257,1.0818435,-0.002275,0.0025699999999999,0.8585565,-0.089555,-0.41362,1.2377265,-0.076575,-0.38545,0.8674565,-0.454495,-0.27472,1.2043565,-0.463035,-0.28924
77,1.040927,0.635425,-0.39815,0.854553,0.478522,-0.30684,0.6157330000000001,0.470784,-0.45902,1.1913529999999999,0.474037,-0.28544,1.436013,0.466664,-0.44753,0.641193,0.684115,-0.59587,1.439993,0.655895,-0.6162799999999999,0.918083,0.002365,-0.0024799999999999,1.081917,-0.002365,0.00248,0.8601730000000001,-0.083265,-0.41369,1.2380229999999999,-0.0697149999999999,-0.3856,0.868513,-0.4476949999999999,-0.27535,1.203393,-0.455875,-0.28747
78,1.043314,0.630175,-0.40259,0.8560910000000002,0.475759,-0.31001,0.614371,0.464169,-0.4626,1.192421,0.471621,-0.28756,1.437021,0.45816,-0.44779,0.6419910000000001,0.676585,-0.5993999999999999,1.4426109999999999,0.645475,-0.61644,0.918051,0.0025149999999999,-0.00253,1.081949,-0.0025149999999999,0.00253,0.861701,-0.077385,-0.41392,1.238411,-0.0631349999999999,-0.3859,0.869481,-0.441115,-0.27599,1.201741,-0.449265,-0.28438
79,1.045778,0.6247,-0.40945,0.857627,0.472873,-0.31577,0.616297,0.4600849999999999,-0.46528,1.193567,0.468701,-0.29241,1.437627,0.4490449999999999,-0.45033,0.6428769999999999,0.6699999999999999,-0.60528,1.4447569999999998,0.63506,-0.61917,0.918007,0.0027399999999999,-0.0029399999999999,1.081993,-0.00274,0.0029399999999999,0.8637770000000001,-0.0722399999999999,-0.4165799999999999,1.238467,-0.05723,-0.38699,0.870377,-0.43527,-0.27949,1.200017,-0.44275,-0.28305
80,1.048368,0.618215,-0.416405,0.859288,0.469423,-0.321405,0.6167580000000001,0.45409,-0.469055,1.194588,0.464728,-0.297175,1.438128,0.440106,-0.451345,0.643848,0.662615,-0.611375,1.447228,0.6245350000000001,-0.622565,0.917968,0.002865,-0.003145,1.0820319999999999,-0.002865,0.0031449999999999,0.865878,-0.067825,-0.418765,1.238088,-0.0524449999999999,-0.388155,0.871238,-0.430115,-0.283325,1.198038,-0.437045,-0.281285
81,1.0510175,0.6113850000000001,-0.42321,0.8609135,0.465658,-0.32698,0.6195335,0.449538,-0.47212,1.1956635,0.460688,-0.3020899999999999,1.4383435,0.430812,-0.45214,0.6447535,0.654645,-0.61781,1.4492835,0.613685,-0.62557,0.9179035,0.002995,-0.00347,1.0820965,-0.0029949999999999,0.00347,0.8681035,-0.064025,-0.42062,1.2373934999999998,-0.048235,-0.38925,0.8717635,-0.4256449999999999,-0.28767,1.1962534999999999,-0.432215,-0.28074
82,1.0538174999999999,0.603785,-0.429925,0.8625985,0.461178,-0.3325349999999999,0.6199185,0.44324,-0.476365,1.1967585,0.456236,-0.3071049999999999,1.4386885,0.420663,-0.4527549999999999,0.6457685,0.647795,-0.6242749999999999,1.4508985,0.602025,-0.628455,0.9178085,0.003275,-0.0040349999999999,1.0821915,-0.0032749999999999,0.004035,0.8705485,-0.061265,-0.422315,1.2363885,-0.0443949999999999,-0.390175,0.8728485,-0.4221549999999999,-0.2922249999999999,1.1939084999999998,-0.4281149999999999,-0.280015
83,1.0566799999999998,0.596504,-0.43663,0.864165,0.457218,-0.33792,0.622915,0.435757,-0.48084,1.197805,0.451368,-0.31224,1.438985,0.41045,-0.45317,0.647295,0.638265,-0.63133,1.452275,0.591189,-0.6308199999999999,0.917705,0.003645,-0.00469,1.082295,-0.003645,0.00469,0.873425,-0.059115,-0.42396,1.235015,-0.040455,-0.39082,0.873945,-0.418815,-0.29661,1.1918549999999999,-0.424215,-0.2801
84,1.059536,0.5884400000000001,-0.442975,0.8658319999999999,0.452048,-0.343205,0.623402,0.427342,-0.486085,1.198992,0.4458460000000001,-0.3173249999999999,1.439402,0.400455,-0.453175,0.648892,0.6288450000000001,-0.637805,1.4533019999999999,0.5805370000000001,-0.6333249999999999,0.917652,0.003945,-0.0054349999999999,1.082348,-0.0039449999999999,0.0054349999999999,0.8767020000000001,-0.0579649999999999,-0.425795,1.233492,-0.0374249999999999,-0.391445,0.8747920000000001,-0.4161249999999999,-0.301155,1.189722,-0.4213049999999999,-0.2794169999999999
85,1.0623355,0.5808120000000001,-0.44935,0.8675105000000001,0.447003,-0.34857,0.6266305000000001,0.418987,-0.49143,1.2003005,0.4401050000000001,-0.32234,1.4395805,0.38854,-0.45332,0.6504505,0.61926,-0.64445,1.4540405,0.5697220000000001,-0.63561,0.9176405,0.00426,-0.00634,1.0823595,-0.0042599999999999,0.0063399999999999,0.8803805,-0.0570399999999999,-0.42754,1.2317604999999998,-0.0346699999999999,-0.392,0.8756905,-0.4134399999999999,-0.30578,1.1878405,-0.4185199999999999,-0.279901
86,1.0652105,0.572533,-0.456025,0.8696315,0.4407609999999999,-0.3546249999999999,0.6303415,0.409899,-0.497095,1.2019515,0.434262,-0.327685,1.4398015,0.377795,-0.454915,0.6525715000000001,0.6088549999999999,-0.651825,1.4550215,0.559506,-0.639535,0.9176715,0.004445,-0.0070649999999999,1.0823285,-0.004445,0.007065,0.8841815,-0.056085,-0.429135,1.2297615,-0.0326049999999999,-0.392775,0.8767715,-0.411815,-0.3107149999999999,1.1878315,-0.416145,-0.285047
87,1.0682425,0.564234,-0.46297,0.8718075000000001,0.435574,-0.36085,0.6345675,0.4022,-0.50308,1.2037075,0.429124,-0.33347,1.4398575,0.36876,-0.45749,0.6553675,0.6000179999999999,-0.6588700000000001,1.4562275,0.55167,-0.6444799999999999,0.9176775000000001,0.0046699999999999,-0.0078699999999999,1.0823224999999999,-0.0046699999999999,0.00787,0.8882175,-0.0549899999999999,-0.43072,1.2274675,-0.03027,-0.39338,0.8777175,-0.4102099999999999,-0.31699,1.1872275,-0.41362,-0.289466
88,1.0710205,0.5566380000000001,-0.4670149999999999,0.8742305,0.4297620000000001,-0.364545,0.6386905,0.3945000000000001,-0.5062450000000001,1.2053605,0.4243720000000001,-0.336785,1.4400305,0.36201,-0.457725,0.6588505,0.591157,-0.663895,1.4571905,0.5451790000000001,-0.646455,0.9176005,0.00484,-0.008335,1.0823995,-0.0048399999999999,0.008335,0.8916705,-0.0528599999999999,-0.431775,1.2262905,-0.0275999999999999,-0.393635,0.8784505,-0.4081299999999999,-0.320855,1.1855905,-0.4105799999999999,-0.289008
89,1.0739325,0.550098,-0.470685,0.8768055000000001,0.424326,-0.368155,0.6432055,0.3878049999999999,-0.5089950000000001,1.2073155,0.4202939999999999,-0.340045,1.4403555,0.3561249999999999,-0.457655,0.6632055,0.583438,-0.668845,1.4583955,0.5378529999999999,-0.648395,0.9175355000000001,0.0050549999999999,-0.008895,1.0824645,-0.005055,0.0088949999999999,0.8951455000000001,-0.050445,-0.433155,1.2256055,-0.024585,-0.393695,0.8792655,-0.405135,-0.324245,1.1846855,-0.406825,-0.289831
90,1.076914,0.544292,-0.474145,0.879623,0.4193,-0.371535,0.647993,0.382515,-0.5125850000000001,1.209303,0.415175,-0.343125,1.440863,0.352095,-0.458265,0.668293,0.576832,-0.674525,1.458953,0.532297,-0.6506350000000001,0.917353,0.005445,-0.0093749999999999,1.082647,-0.0054449999999999,0.0093749999999999,0.898393,-0.0476649999999999,-0.434735,1.225243,-0.0210549999999999,-0.393665,0.880133,-0.401845,-0.327835,1.184413,-0.4026349999999999,-0.29095
91,1.079684,0.539231,-0.477755,0.882454,0.41449,-0.375315,0.6527339999999999,0.37756,-0.516815,1.211084,0.40989,-0.346595,1.442234,0.34495,-0.458595,0.673594,0.5707070000000001,-0.680895,1.459434,0.526853,-0.653045,0.917064,0.00574,-0.009495,1.082936,-0.0057399999999999,0.009495,0.901174,-0.0445799999999999,-0.436825,1.225014,-0.0176399999999999,-0.394085,0.8810440000000002,-0.399,-0.331555,1.184274,-0.39896,-0.293391
92,1.082343,0.5340860000000001,-0.481575,0.885104,0.408995,-0.379275,0.656574,0.373045,-0.521765,1.212804,0.404855,-0.350225,1.443684,0.338765,-0.459565,0.679074,0.5666950000000001,-0.686075,1.460604,0.519818,-0.6553549999999999,0.916784,0.005905,-0.0096949999999999,1.083216,-0.0059049999999999,0.009695,0.9033740000000001,-0.0414249999999999,-0.439235,1.224934,-0.014185,-0.3949749999999999,0.882104,-0.396205,-0.335395,1.184254,-0.3955349999999999,-0.296253
93,1.0848659999999999,0.529255,-0.48585,0.887972,0.40315,-0.38353,0.660292,0.36873,-0.52755,1.214392,0.39975,-0.3544,1.444852,0.3325600000000001,-0.46124,0.6853119999999999,0.5631090000000001,-0.69239,1.4621819999999999,0.511959,-0.65842,0.916502,0.00603,-0.0098499999999999,1.0834979999999999,-0.0060299999999999,0.0098499999999999,0.905132,-0.0382699999999999,-0.4420699999999999,1.2249219999999998,-0.0106599999999998,-0.3964,0.883262,-0.3929499999999999,-0.33957,1.184332,-0.3921899999999999,-0.299874
94,1.087261,0.524412,-0.490085,0.8906840000000001,0.397835,-0.387895,0.663764,0.365025,-0.533695,1.215724,0.394325,-0.358625,1.4458440000000001,0.3279849999999999,-0.462845,0.6919140000000001,0.559795,-0.699045,1.464274,0.5041640000000001,-0.662515,0.916174,0.006135,-0.010025,1.083826,-0.006135,0.0100249999999999,0.9063940000000001,-0.035135,-0.445015,1.2249539999999999,-0.007205,-0.397975,0.8838840000000001,-0.3890949999999999,-0.343975,1.185574,-0.389215,-0.305809
95,1.0893705,0.519579,-0.49353,0.8928375,0.39334,-0.39192,0.6670575000000001,0.36124,-0.53908,1.2166175,0.38854,-0.36257,1.4465875000000001,0.32282,-0.4642,0.6984875000000001,0.556602,-0.70546,1.4664975,0.496077,-0.66648,0.9158375,0.0063199999999999,-0.01032,1.0841625,-0.0063199999999999,0.0103199999999999,0.9071375000000002,-0.03226,-0.44817,1.2250375,-0.00409,-0.3996,0.8843675,-0.38552,-0.34805,1.1867375,-0.38661,-0.311539
96,1.091081,0.5152,-0.49717,0.8951439999999999,0.387825,-0.39605,0.670344,0.356905,-0.54491,1.217304,0.383015,-0.36667,1.447204,0.317505,-0.4667599999999999,0.7052940000000001,0.551045,-0.71243,1.468694,0.487709,-0.67075,0.915534,0.006495,-0.01041,1.084466,-0.006495,0.01041,0.907654,-0.029475,-0.45184,1.2252239999999999,-0.0012149999999999,-0.40202,0.8850439999999999,-0.3823149999999999,-0.35192,1.187354,-0.3840549999999999,-0.31618
97,1.0925505,0.510832,-0.50041,0.8971375,0.38337,-0.40018,0.6737575,0.35334,-0.55064,1.2177275,0.3769699999999999,-0.37087,1.4475175,0.31135,-0.46818,0.7116475,0.54633,-0.71946,1.4710474999999998,0.479113,-0.67546,0.9152675,0.0068,-0.0104799999999999,1.0847325,-0.0068,0.01048,0.9080475000000001,-0.02655,-0.4555599999999999,1.2254675,0.00136,-0.4049999999999999,0.8856975,-0.3791299999999999,-0.35572,1.1880074999999999,-0.3819,-0.3206429999999999
98,1.0936285,0.5063679999999999,-0.5033449999999999,0.8990885000000001,0.3790699999999999,-0.404255,0.6774884999999999,0.3496399999999999,-0.556415,1.2180585,0.37131,-0.375115,1.4477285,0.3050699999999999,-0.469775,0.7174685000000001,0.5415249999999999,-0.726615,1.4727385,0.4719319999999999,-0.680455,0.9150685000000001,0.0070999999999999,-0.0105249999999999,1.0849315,-0.0070999999999999,0.010525,0.9083485,-0.02356,-0.459195,1.2255285,0.0036199999999999,-0.408315,0.8858185000000001,-0.37688,-0.360605,1.1880785,-0.37992,-0.3245949999999999
99,1.0942875,0.501881,-0.506205,0.9009375,0.37445,-0.408405,0.6812275,0.34594,-0.562885,1.2182275,0.36669,-0.3793649999999999,1.4475575,0.29785,-0.471835,0.7229175,0.5368120000000001,-0.734375,1.4739275,0.464418,-0.685555,0.9148775,0.0072699999999999,-0.0105949999999999,1.0851225,-0.0072699999999999,0.0105949999999999,0.9084875,-0.0211799999999999,-0.462845,1.2252874999999999,0.00555,-0.412055,0.8857275,-0.3751799999999999,-0.365425,1.1883375,-0.37817,-0.328974
100,1.0945785,0.497748,-0.5087900000000001,0.9025285000000001,0.370215,-0.41198,0.6842585,0.343195,-0.5685800000000001,1.2182985,0.362385,-0.38305,1.4475985,0.294805,-0.47445,0.7275185,0.5327540000000001,-0.74101,1.4748485,0.458509,-0.6901200000000001,0.9146685,0.007385,-0.0108,1.0853315000000001,-0.0073849999999999,0.0107999999999999,0.9084685000000001,-0.0193349999999999,-0.46594,1.2249685,0.007355,-0.41558,0.8856285000000002,-0.3735149999999999,-0.36964,1.1876685,-0.3763949999999999,-0.331367
101,1.0946335,0.493959,-0.510875,0.9040425,0.366665,-0.415065,0.6864925,0.340745,-0.5735950000000001,1.2181125,0.358885,-0.386245,1.4475425,0.291695,-0.476695,0.7310025,0.528946,-0.746785,1.4748525,0.454653,-0.693265,0.9143625,0.007525,-0.0107949999999999,1.0856375,-0.007525,0.0107949999999999,0.9081025,-0.0175849999999999,-0.468695,1.2244225,0.009125,-0.4187849999999999,0.8855425000000001,-0.3720249999999999,-0.373315,1.1874225,-0.375255,-0.334087
102,1.094694,0.4907149999999999,-0.5115449999999999,0.904935,0.3644349999999999,-0.416725,0.688175,0.3387749999999999,-0.576705,1.217975,0.3559449999999999,-0.388125,1.447635,0.2885149999999999,-0.478025,0.7333150000000002,0.5257259999999999,-0.7501249999999999,1.474955,0.4514149999999999,-0.6946749999999999,0.914325,0.0077149999999999,-0.0107549999999999,1.085675,-0.007715,0.010755,0.9078450000000001,-0.016055,-0.470035,1.223995,0.0104549999999999,-0.420525,0.886015,-0.370275,-0.374575,1.187905,-0.3748250000000001,-0.336603
103,1.094627,0.4884419999999999,-0.5117750000000001,0.905413,0.3630699999999999,-0.417805,0.688923,0.3377899999999999,-0.578955,1.217613,0.3540599999999999,-0.389425,1.4461330000000001,0.2868099999999999,-0.479175,0.734543,0.5247219999999999,-0.7523850000000001,1.474983,0.4492999999999999,-0.6964950000000001,0.914123,0.0079499999999999,-0.010425,1.085877,-0.00795,0.0104249999999999,0.907323,-0.0147,-0.470625,1.223323,0.0116799999999999,-0.421575,0.886313,-0.36875,-0.375245,1.187943,-0.37475,-0.338675
104,1.0943515,0.4872919999999999,-0.51186,0.9054145000000001,0.3623999999999999,-0.41839,0.6887445,0.3378799999999999,-0.58073,1.2169545,0.35314,-0.3901,1.4444245,0.28612,-0.4798099999999999,0.7347645,0.524841,-0.75347,1.4747445,0.4488,-0.6982200000000001,0.9138945,0.0081599999999999,-0.0100599999999999,1.0861055,-0.00816,0.01006,0.9065245000000001,-0.01344,-0.4706399999999999,1.2222945,0.0128699999999999,-0.4220199999999999,0.8857245,-0.36805,-0.37637,1.1877645000000001,-0.37456,-0.3403589999999999
105,1.094032,0.4878999999999999,-0.51147,0.9052350000000001,0.3640499999999999,-0.41862,0.688605,0.3395699999999999,-0.58151,1.216385,0.3540899999999999,-0.39022,1.442945,0.2866299999999999,-0.47985,0.734575,0.526531,-0.7534799999999999,1.473925,0.4502999999999999,-0.6990000000000001,0.913735,0.0083299999999999,-0.0100699999999999,1.086265,-0.00833,0.01007,0.905715,-0.01175,-0.47025,1.221265,0.0144999999999999,-0.42198,0.885535,-0.36665,-0.37629,1.187555,-0.3736400000000001,-0.341421
106,1.0936605,0.48952,-0.51149,0.9051925,0.36567,-0.4188199999999999,0.6885825000000001,0.34119,-0.58202,1.2159024999999999,0.3557099999999999,-0.39032,1.4420725,0.28825,-0.4799,0.7345225,0.528151,-0.7534799999999999,1.4728125,0.45192,-0.6991700000000001,0.9137325000000001,0.0084699999999999,-0.0100699999999999,1.0862675,-0.0084699999999999,0.01007,0.9048825,-0.01002,-0.46997,1.2200625,0.0160599999999999,-0.4221,0.8854425000000001,-0.36493,-0.3760799999999999,1.1869625,-0.3727199999999999,-0.342218
107,1.0928695,0.49134,-0.51154,0.9050425,0.36749,-0.41889,0.6882625,0.34301,-0.58204,1.2153325,0.35753,-0.39038,1.4412425,0.29007,-0.4800999999999999,0.7343625,0.5299710000000001,-0.75349,1.4713125,0.45374,-0.69926,0.9136925,0.0083700000000001,-0.0100699999999999,1.0863075,-0.0083699999999999,0.01007,0.9041025,-0.0080099999999999,-0.46989,1.2187724999999998,0.01787,-0.42242,0.8850225,-0.36295,-0.37636,1.1862925,-0.3712099999999999,-0.343011
108,1.0917955,0.4929849999999999,-0.51092,0.9045915000000001,0.3691349999999999,-0.4184299999999999,0.6874515,0.3453849999999999,-0.58141,1.2147915,0.3591749999999999,-0.3897199999999999,1.4405415,0.2917149999999999,-0.47951,0.7337515,0.5338379999999999,-0.7526999999999999,1.4698015,0.4553849999999999,-0.6989799999999999,0.9136715,0.0079749999999999,-0.0100599999999999,1.0863285,-0.007975,0.01006,0.9033215,-0.005935,-0.46912,1.2177715,0.0195149999999999,-0.42198,0.8843515000000001,-0.361315,-0.37636,1.1860115,-0.369565,-0.343002
109,1.090374,0.4941270000000001,-0.5093650000000001,0.903737,0.370415,-0.416945,0.685907,0.347565,-0.5797950000000001,1.214217,0.360595,-0.388055,1.440067,0.292945,-0.478385,0.732587,0.53732,-0.750575,1.468237,0.456745,-0.697395,0.9137370000000001,0.007585,-0.009895,1.086263,-0.0075849999999999,0.0098949999999999,0.9024470000000001,-0.0048749999999999,-0.467445,1.216917,0.019905,-0.420535,0.8837670000000001,-0.3609249999999999,-0.374385,1.184507,-0.3686049999999999,-0.340218
110,1.089076,0.496683,-0.507095,0.902609,0.372705,-0.4143949999999999,0.683389,0.349535,-0.5771949999999999,1.213789,0.3633050000000001,-0.3854449999999999,1.439849,0.294605,-0.476375,0.731279,0.5411680000000001,-0.746975,1.4669189999999999,0.4597650000000001,-0.6951749999999999,0.913799,0.007585,-0.0096449999999999,1.086201,-0.0075849999999999,0.009645,0.901979,-0.0042249999999999,-0.4647549999999999,1.216429,0.019935,-0.418075,0.8834490000000002,-0.3609249999999999,-0.3714149999999999,1.183179,-0.3677549999999999,-0.335831
111,1.0875145,0.5014550000000001,-0.503835,0.9011965,0.3766250000000001,-0.4111249999999999,0.6810265,0.353535,-0.572735,1.2132665,0.367835,-0.381985,1.4398065,0.297975,-0.473455,0.7292765,0.5460750000000001,-0.741415,1.4653365,0.4661640000000001,-0.691575,0.9138865,0.007585,-0.0092049999999999,1.0861135,-0.0075849999999999,0.0092049999999999,0.9015965,-0.0035849999999999,-0.461295,1.2161165,0.020025,-0.415535,0.8829665,-0.360475,-0.368045,1.1831065,-0.366965,-0.332351
112,1.086195,0.507903,-0.499945,0.89972,0.3821799999999999,-0.407435,0.67841,0.3585499999999999,-0.567805,1.21319,0.3742499999999999,-0.377945,1.43974,0.30326,-0.469515,0.72726,0.5520799999999999,-0.735445,1.46383,0.4733099999999999,-0.6871149999999999,0.91397,0.0074999999999999,-0.008785,1.08603,-0.0075,0.0087849999999999,0.9012800000000001,-0.00299,-0.457365,1.216,0.0200799999999999,-0.412655,0.88253,-0.3604,-0.364365,1.18222,-0.36591,-0.326662
113,1.084891,0.514453,-0.49585,0.898218,0.38754,-0.40354,0.676388,0.3625,-0.5625800000000001,1.2131779999999999,0.38048,-0.37364,1.439788,0.30734,-0.46628,0.7254780000000001,0.5573980000000001,-0.72936,1.462618,0.481663,-0.68206,0.914138,0.00753,-0.00825,1.085862,-0.0075299999999999,0.0082499999999999,0.901038,-0.0050699999999999,-0.45323,1.216068,0.01745,-0.40957,0.882578,-0.3622899999999999,-0.35971,1.181868,-0.3671699999999999,-0.320856
114,1.083661,0.521891,-0.492535,0.897123,0.39288,-0.400175,0.6747529999999999,0.36787,-0.559225,1.213003,0.3867899999999999,-0.3699449999999999,1.440043,0.3122,-0.463555,0.7241230000000001,0.562879,-0.724185,1.4615529999999999,0.489989,-0.677995,0.914313,0.00739,-0.0077349999999999,1.085687,-0.00739,0.007735,0.9008830000000001,-0.00812,-0.449945,1.216203,0.0140899999999999,-0.407255,0.882663,-0.36513,-0.3559049999999999,1.181883,-0.36933,-0.316361
115,1.0827465,0.5290590000000001,-0.4887,0.8962485,0.39808,-0.39681,0.6739385,0.37257,-0.55587,1.2129285,0.3947,-0.36602,1.4404685,0.31828,-0.46023,0.7231485,0.566388,-0.71909,1.4612684999999999,0.497908,-0.6738,0.9146985,0.0071299999999999,-0.0075399999999999,1.0853015,-0.0071299999999999,0.0075399999999999,0.9009085,-0.0129299999999999,-0.44667,1.2163585,0.0093999999999999,-0.40493,0.8828485000000001,-0.36971,-0.35201,1.1821185,-0.37382,-0.313663
116,1.0820575,0.538304,-0.485095,0.8956945000000001,0.4024049999999999,-0.393665,0.6733545000000001,0.3786349999999999,-0.552495,1.2130044999999998,0.4021349999999999,-0.3623349999999999,1.4410245,0.3270749999999999,-0.457075,0.7225545000000001,0.5726749999999999,-0.7140949999999999,1.4609945,0.506045,-0.669665,0.9151245000000001,0.0068249999999999,-0.0073749999999999,1.0848754999999999,-0.006825,0.0073749999999999,0.9009445,-0.018095,-0.443735,1.2165745000000001,0.0043249999999999,-0.403005,0.8826445,-0.3746250000000001,-0.348785,1.1827645,-0.3782850000000001,-0.311247
117,1.081591,0.5463220000000001,-0.4813,0.8952370000000001,0.4096100000000001,-0.39038,0.6727270000000001,0.3851500000000001,-0.54877,1.213147,0.4089500000000001,-0.35817,1.441757,0.3335100000000001,-0.4543,0.721807,0.5791210000000001,-0.7092400000000001,1.460827,0.512762,-0.66536,0.915297,0.0066,-0.00678,1.084703,-0.0065999999999999,0.0067799999999999,0.900827,-0.0257899999999998,-0.44077,1.217117,-0.0037699999999999,-0.401,0.8823370000000001,-0.3826399999999998,-0.34574,1.1830370000000001,-0.3852499999999998,-0.307841
118,1.081176,0.553718,-0.477345,0.894811,0.4147600000000001,-0.387375,0.672131,0.39077,-0.544675,1.213071,0.41522,-0.354225,1.442761,0.3390000000000001,-0.451805,0.721101,0.584744,-0.7044250000000001,1.460671,0.5198210000000001,-0.660855,0.915521,0.00613,-0.006305,1.084479,-0.0061299999999999,0.006305,0.900551,-0.0358999999999999,-0.438125,1.218031,-0.0142799999999999,-0.399455,0.882081,-0.3928699999999999,-0.342765,1.183761,-0.3950899999999999,-0.305652
119,1.081283,0.5606380000000001,-0.47371,0.8949960000000001,0.419099,-0.38458,0.6720459999999999,0.39581,-0.5409999999999999,1.213466,0.4202640000000001,-0.35048,1.444416,0.3435800000000001,-0.44972,0.720826,0.5898300000000001,-0.6997599999999999,1.460566,0.5291170000000001,-0.6566000000000001,0.915656,0.00591,-0.0059899999999999,1.084344,-0.0059099999999999,0.0059899999999999,0.9005160000000001,-0.0478999999999999,-0.43594,1.219496,-0.0268199999999999,-0.39819,0.8824260000000002,-0.4049099999999999,-0.33979,1.184966,-0.40706,-0.303136
120,1.081183,0.568352,-0.466425,0.894948,0.4246069999999999,-0.3783149999999999,0.672058,0.4015909999999999,-0.534365,1.213618,0.4256479999999999,-0.343685,1.446618,0.3527949999999999,-0.444555,0.720708,0.5966149999999999,-0.692295,1.460518,0.536446,-0.649075,0.915848,0.0059349999999999,-0.0058249999999999,1.084152,-0.005935,0.0058249999999999,0.899978,-0.060005,-0.433065,1.222098,-0.039865,-0.395765,0.882138,-0.417375,-0.333825,1.186868,-0.419945,-0.299321
121,1.0810994999999999,0.5773,-0.458695,0.8949755,0.431248,-0.371455,0.6719255,0.408681,-0.527115,1.2142155,0.431493,-0.336445,1.4489255,0.36217,-0.438005,0.7208155,0.60402,-0.684475,1.4606355,0.545204,-0.641335,0.9160555,0.00592,-0.005585,1.0839445,-0.0059199999999999,0.0055849999999999,0.8994355,-0.0723399999999999,-0.428825,1.2250154999999998,-0.0525399999999999,-0.392435,0.8819355,-0.4300799999999999,-0.328475,1.1898754999999999,-0.43316,-0.296538
122,1.0808175,0.58794,-0.450305,0.8947265000000001,0.439285,-0.364095,0.6715465,0.417111,-0.5196350000000001,1.2144365,0.43852,-0.328805,1.4511265,0.374105,-0.430765,0.7205265000000001,0.6126,-0.676195,1.4608365,0.5542210000000001,-0.633235,0.9161765,0.0054899999999999,-0.005395,1.0838235,-0.0054899999999999,0.005395,0.8986165000000002,-0.08296,-0.424145,1.2277665,-0.0640999999999999,-0.388355,0.8814865000000001,-0.44164,-0.322325,1.1924965,-0.4457099999999999,-0.293112
123,1.0802975,0.59893,-0.4413049999999999,0.8940225,0.4476179999999999,-0.355835,0.6709525000000001,0.427992,-0.511975,1.2143825,0.445986,-0.3209149999999999,1.4527425,0.386201,-0.423015,0.7197724999999999,0.62386,-0.6675249999999999,1.4611025,0.56495,-0.624085,0.9162025,0.0052599999999999,-0.0050349999999999,1.0837975,-0.0052599999999999,0.005035,0.8973225000000001,-0.09341,-0.418435,1.2299625,-0.07597,-0.3838549999999999,0.8811225,-0.45404,-0.3158149999999999,1.1945325,-0.4590599999999999,-0.289425
124,1.079619,0.611515,-0.431165,0.893097,0.45646,-0.347225,0.670597,0.4383539999999999,-0.503725,1.214297,0.452752,-0.312545,1.454577,0.398287,-0.414765,0.7190270000000001,0.634705,-0.6582049999999999,1.4618769999999999,0.5768249999999999,-0.612985,0.916157,0.005475,-0.004345,1.083843,-0.005475,0.0043449999999999,0.895987,-0.1055749999999999,-0.412695,1.231887,-0.090485,-0.378755,0.880217,-0.469855,-0.310585,1.196927,-0.474605,-0.286804
125,1.0789525,0.6212449999999999,-0.4204799999999999,0.8921555,0.4646679999999999,-0.33832,0.6696154999999999,0.4467239999999999,-0.49493,1.2141055,0.460001,-0.30405,1.4551655000000001,0.4073279999999999,-0.40648,0.7181355,0.6433949999999999,-0.64798,1.4628655,0.588295,-0.60196,0.9161455000000001,0.005135,-0.0037,1.0838545,-0.005135,0.0037,0.8945955,-0.118335,-0.4065499999999999,1.2335255,-0.105655,-0.37338,0.8791855,-0.486145,-0.30534,1.1991455,-0.490815,-0.28363
126,1.07794,0.631035,-0.408395,0.891165,0.470944,-0.329265,0.668515,0.454537,-0.485805,1.213555,0.466203,-0.295655,1.456755,0.417351,-0.398545,0.7172350000000001,0.651645,-0.637705,1.463765,0.599915,-0.590325,0.916175,0.005105,-0.003205,1.083825,-0.0051049999999999,0.0032049999999999,0.8932950000000001,-0.131305,-0.400055,1.234595,-0.1207949999999999,-0.367445,0.878145,-0.502435,-0.300435,1.199585,-0.507085,-0.277549
127,1.0761334999999999,0.64037,-0.396135,0.8895895,0.477842,-0.319855,0.6675995,0.464574,-0.476585,1.2121994999999999,0.472249,-0.286865,1.4575695,0.4286169999999999,-0.390785,0.7157395000000001,0.6602399999999999,-0.627435,1.4640695,0.61186,-0.578775,0.9162595,0.0050499999999999,-0.0026549999999999,1.0837405,-0.0050499999999999,0.0026549999999999,0.8916795,-0.14311,-0.393285,1.2352495000000001,-0.1352899999999999,-0.361155,0.8764395,-0.518,-0.294705,1.2013194999999999,-0.5228200000000001,-0.274495
128,1.0738205,0.6495850000000001,-0.383425,0.8878635,0.482645,-0.3103249999999999,0.6660335,0.474795,-0.466715,1.2107235,0.478485,-0.277845,1.4577135,0.439882,-0.381645,0.7144135,0.6705650000000001,-0.617115,1.4639235,0.6200650000000001,-0.567085,0.9164734999999999,0.004695,-0.0020749999999999,1.0835265,-0.004695,0.0020749999999999,0.8900335,-0.154975,-0.386215,1.2359135,-0.149495,-0.354695,0.8745235,-0.5336749999999999,-0.289675,1.2030334999999999,-0.538605,-0.271785
129,1.0713415,0.656765,-0.37367,0.8859615000000001,0.490055,-0.30329,0.6647115,0.482525,-0.4574499999999999,1.2094515000000001,0.483425,-0.27143,1.4572815000000001,0.448695,-0.37553,0.7122715,0.679415,-0.60799,1.4638315,0.6302449999999999,-0.55811,0.9165615,0.004695,-0.0015599999999999,1.0834385,-0.004695,0.00156,0.8886915,-0.167735,-0.38205,1.2348215,-0.164925,-0.35052,0.8725315000000001,-0.550225,-0.28734,1.2044315,-0.5556350000000001,-0.27059
130,1.068572,0.6649700000000001,-0.36348,0.884081,0.49537,-0.29693,0.6634610000000001,0.49178,-0.44963,1.2083409999999999,0.48646,-0.26553,1.456201,0.45745,-0.36999,0.710101,0.68877,-0.59843,1.463931,0.6407700000000001,-0.54917,0.916561,0.00494,-0.00115,1.083439,-0.00494,0.00115,0.887541,-0.1797599999999999,-0.3779,1.234071,-0.17983,-0.34665,0.8709410000000001,-0.56603,-0.28581,1.204381,-0.5715300000000001,-0.26795
131,1.065661,0.6714549999999999,-0.35299,0.881963,0.500065,-0.2903599999999999,0.6620630000000001,0.499575,-0.44125,1.206733,0.492805,-0.2588,1.455153,0.4657949999999999,-0.3650799999999999,0.707773,0.697875,-0.58853,1.463813,0.650835,-0.5399499999999999,0.916753,0.004635,-0.0007299999999999,1.083247,-0.004635,0.00073,0.8861930000000001,-0.192795,-0.37302,1.233033,-0.193265,-0.34256,0.869413,-0.582415,-0.2837199999999999,1.204123,-0.586165,-0.26393
132,1.0624605,0.678465,-0.342395,0.8798345,0.504645,-0.283705,0.6603345,0.505105,-0.432405,1.2051245,0.497865,-0.252105,1.4539145,0.474325,-0.357865,0.7049544999999999,0.7051149999999999,-0.577935,1.4637545,0.660255,-0.5311049999999999,0.9170245,0.004375,-0.0005549999999999,1.0829755,-0.004375,0.0005549999999999,0.8846645,-0.206165,-0.365255,1.2318145,-0.207305,-0.335895,0.8680645,-0.5983149999999999,-0.281725,1.2038045,-0.6007849999999999,-0.260005
133,1.0589905,0.68502,-0.33332,0.8777425,0.50905,-0.27714,0.6583125000000001,0.51139,-0.42371,1.2036025,0.5004299999999999,-0.24605,1.4527725,0.48424,-0.3519299999999999,0.7018625000000001,0.71322,-0.56791,1.4629525,0.67052,-0.52336,0.9174225,0.0040399999999999,-0.00045,1.0825775,-0.00404,0.00045,0.8833325,-0.21689,-0.35802,1.2301325,-0.21825,-0.3295099999999999,0.8668625,-0.61021,-0.27885,1.2032025,-0.6126900000000001,-0.2546899999999999
134,1.05506,0.69224,-0.32401,0.87501,0.51407,-0.27022,0.65591,0.51865,-0.41476,1.20128,0.50484,-0.239,1.45116,0.49325,-0.34559,0.69802,0.7208300000000001,-0.55852,1.4615,0.68055,-0.51541,0.91775,0.00378,-0.00037,1.08225,-0.00378,0.00037,0.88154,-0.22796,-0.35051,1.22748,-0.2301599999999999,-0.32233,0.8651700000000001,-0.6227,-0.27453,1.2021,-0.62548,-0.24944
135,1.0509125,0.70041,-0.316135,0.8718975,0.51725,-0.263425,0.6526875000000001,0.52471,-0.406485,1.1989575,0.50895,-0.2324449999999999,1.4495875,0.50291,-0.3398449999999999,0.6936475000000001,0.72741,-0.549185,1.4598875,0.69167,-0.507665,0.9181275,0.0033499999999999,-0.0004449999999999,1.0818725,-0.0033499999999999,0.000445,0.8795275,-0.2386199999999999,-0.343125,1.2246175,-0.24122,-0.314945,0.8629975,-0.63432,-0.270425,1.2011375,-0.63752,-0.244585
136,1.0466835,0.708645,-0.30811,0.8687225000000001,0.5209250000000001,-0.25639,0.6497125,0.5299750000000001,-0.39744,1.1965824999999999,0.513545,-0.225443,1.4477525,0.511855,-0.33418,0.6884825,0.735825,-0.53765,1.4584625,0.702615,-0.49974,0.9184825000000001,0.003035,-0.00057,1.0815175,-0.0030349999999999,0.0005699999999999,0.8777725000000001,-0.2484549999999999,-0.33507,1.2218625,-0.2506549999999999,-0.30657,0.8609925,-0.6449750000000001,-0.26626,1.2002925,-0.647785,-0.23992
137,1.0428505,0.71707,-0.2999199999999999,0.8654284999999999,0.52747,-0.24931,0.6470785,0.53546,-0.38824,1.1942785,0.51769,-0.218517,1.4457485,0.52243,-0.3289499999999999,0.6836585,0.7444999999999999,-0.52522,1.4572384999999999,0.71454,-0.49164,0.9186685,0.0029899999999999,-0.0007699999999999,1.0813315000000001,-0.0029899999999999,0.0007699999999999,0.8761885,-0.25804,-0.3265099999999999,1.2189984999999999,-0.25981,-0.29797,0.8591285,-0.6553800000000001,-0.26188,1.1994085,-0.65783,-0.23515
138,1.038943,0.725895,-0.29145,0.862355,0.529785,-0.24245,0.644605,0.5421050000000001,-0.38009,1.192065,0.521415,-0.211424,1.443725,0.530275,-0.32321,0.678995,0.7512449999999999,-0.51431,1.455995,0.725105,-0.4833499999999999,0.9188850000000001,0.0024249999999999,-0.001,1.0811149999999998,-0.002425,0.001,0.8744149999999999,-0.268165,-0.31692,1.216085,-0.269035,-0.28818,0.857405,-0.666245,-0.25664,1.198475,-0.667605,-0.22998
139,1.0348095,0.7323999999999999,-0.2832,0.8590355000000001,0.5327999999999999,-0.2353299999999999,0.6411955,0.54599,-0.37143,1.1895655,0.5271399999999999,-0.2039699999999999,1.4416355,0.53865,-0.31767,0.6739255,0.7573399999999999,-0.50454,1.4544455,0.7351399999999999,-0.47514,0.9192255,0.0015399999999999,-0.00136,1.0807745,-0.00154,0.00136,0.8723755,-0.27923,-0.30654,1.2127655,-0.27884,-0.27742,0.8555355,-0.6786300000000001,-0.25043,1.1970655,-0.6783300000000001,-0.22518
140,1.0306435,0.737805,-0.27379,0.8557305,0.5361750000000001,-0.22886,0.6383305,0.551805,-0.364,1.1872605,0.528565,-0.1976129999999999,1.4397905,0.546985,-0.31401,0.6686205000000001,0.764275,-0.49544,1.4527904999999999,0.744815,-0.46754,0.9196285,0.001265,-0.0017599999999999,1.0803715,-0.0012649999999999,0.0017599999999999,0.8703405000000001,-0.2899549999999999,-0.29559,1.2092905,-0.289535,-0.26578,0.8539805,-0.6898549999999999,-0.24429,1.1951405,-0.689745,-0.21911
141,1.026524,0.74076,-0.263745,0.852257,0.53806,-0.223095,0.6359870000000001,0.5569,-0.357115,1.184847,0.53182,-0.191259,1.437217,0.55484,-0.309295,0.663257,0.7706799999999999,-0.486525,1.451087,0.7546999999999999,-0.459735,0.920004,0.0007199999999999,-0.002125,1.079996,-0.0007199999999999,0.002125,0.868237,-0.3003,-0.2840749999999999,1.205437,-0.30299,-0.253225,0.852307,-0.70111,-0.238095,1.193007,-0.7032,-0.212975
142,1.0224735,0.7414499999999999,-0.253435,0.8487495,0.53815,-0.217985,0.6321494999999999,0.56244,-0.350415,1.1822595,0.53552,-0.185199,1.4344495,0.5612999999999999,-0.304055,0.6577895,0.77982,-0.476005,1.4495595,0.76403,-0.453225,0.9202635,-0.00013,-0.002565,1.0797365,0.0001299999999999,0.0025649999999999,0.8670795,-0.31061,-0.270195,1.2008395,-0.31595,-0.239675,0.8503895,-0.71214,-0.231985,1.1905795000000001,-0.71616,-0.206322
143,1.018833,0.74065,-0.24414,0.8453189999999999,0.5419,-0.21199,0.6302490000000001,0.56736,-0.34372,1.1802489999999999,0.5385,-0.1795189999999999,1.4325890000000001,0.56963,-0.2991,0.653089,0.7867799999999999,-0.46566,1.448489,0.77279,-0.44616,0.920619,-0.0003699999999999,-0.0029399999999999,1.079381,0.00037,0.0029399999999999,0.8669290000000001,-0.3229499999999999,-0.25461,1.196369,-0.3283,-0.22493,0.849379,-0.72448,-0.22402,1.188189,-0.72792,-0.198591
144,1.0155314999999998,0.73924,-0.2346085,0.8422765,0.54483,-0.2065385,0.6270965,0.57318,-0.3373785,1.1783865,0.5415300000000001,-0.1740255,1.4301965,0.57798,-0.2938885,0.6489165,0.7948200000000001,-0.4553885,1.4476464999999998,0.78093,-0.4398685,0.9207935,-0.00088,-0.0032314999999999,1.0792065,0.00088,0.0032314999999999,0.8675765,-0.33404,-0.2378285,1.1894865000000001,-0.3396,-0.2059985,0.8486865,-0.73557,-0.2157085,1.1843465,-0.73901,-0.1888834999999999
145,1.0124739999999999,0.736307,-0.219597,0.839488,0.546597,-0.196037,0.624328,0.577297,-0.326207,1.176698,0.541897,-0.163685,1.429178,0.584807,-0.284697,0.6454080000000001,0.799917,-0.442157,1.446918,0.7882170000000001,-0.428177,0.920965,-0.001403,-0.00347,1.079035,0.001403,0.00347,0.868588,-0.3469129999999999,-0.2142069999999999,1.1825679999999998,-0.354083,-0.182649,0.847878,-0.748443,-0.2005569999999999,1.181308,-0.7528429999999999,-0.1770499999999999
146,1.0093465,0.7391835,-0.203644,0.8368455,0.5461735000000001,-0.184036,0.6218355000000001,0.5799335,-0.313574,1.1748154999999998,0.5450835,-0.1516799999999999,1.4275855,0.5909435,-0.272194,0.6416355,0.8028535,-0.427594,1.4459355,0.7938735,-0.415254,0.9211745000000001,-0.0015014999999999,-0.00382,1.0788255,0.0015015,0.00382,0.8696455,-0.3685265,-0.187544,1.1744554999999999,-0.3724265,-0.15683,0.8471355,-0.7645365,-0.184814,1.1771455,-0.7679465,-0.160775
147,1.0064575,0.741878,-0.1881939999999999,0.8345135,0.545938,-0.172794,0.6196935,0.583018,-0.301604,1.1731135,0.548188,-0.1404429999999999,1.4254335,0.596558,-0.260294,0.6380035,0.807238,-0.4133239999999999,1.4451935,0.7994380000000001,-0.403114,0.9214185,-0.0014969999999999,-0.0040339999999999,1.0785815,0.0014969999999999,0.004034,0.8708435,-0.389062,-0.162319,1.1661834999999998,-0.391872,-0.1315609999999999,0.8466535,-0.7798419999999999,-0.170455,1.1730535,-0.7827419999999999,-0.1448439999999999
148,1.003962,0.7447475,-0.172871,0.8322849999999999,0.5455475000000001,-0.1613689999999999,0.6176550000000001,0.5863275,-0.289501,1.171625,0.5502175,-0.1290649999999999,1.423865,0.6035375,-0.247521,0.6348050000000001,0.8118675,-0.398481,1.444705,0.8045175,-0.3902009999999999,0.921583,-0.0015025,-0.0041519999999999,1.078417,0.0015024999999999,0.004152,0.8722449999999999,-0.4073325,-0.137286,1.158315,-0.4085925,-0.106917,0.8460449999999999,-0.7912725,-0.155953,1.169205,-0.7969525,-0.128597
149,1.00178,0.7491845,-0.158952,0.830043,0.5453545,-0.149313,0.615993,0.5893645000000001,-0.277192,1.170323,0.5528845,-0.11691,1.4214229999999999,0.6104745,-0.234342,0.632173,0.8164745,-0.382732,1.444573,0.8105245,-0.376682,0.921624,-0.0016935,-0.004257,1.078376,0.0016935,0.0042569999999999,0.8738330000000001,-0.4242355,-0.113112,1.150803,-0.4244555,-0.082997,0.845673,-0.8011955,-0.141367,1.1679629999999999,-0.8100955,-0.118531
150,0.999645,0.7546864999999999,-0.1454714999999999,0.8277230000000001,0.5464365,-0.1363355,0.614583,0.5926565,-0.2643345,1.169123,0.5542765,-0.1045935,1.418603,0.6134665,-0.2183545,0.630003,0.8209865,-0.3669845,1.4442629999999999,0.8156065,-0.3623845,0.921673,-0.0016545,-0.0043744999999999,1.078327,0.0016544999999999,0.0043745,0.875353,-0.4403435,-0.0892445,1.143693,-0.4399135,-0.0598714999999999,0.8457129999999999,-0.8106335,-0.1260295,1.165343,-0.8236335,-0.1062174999999999
151,0.9977125,0.7609925000000001,-0.1309509999999999,0.8253235,0.5481925000000001,-0.122503,0.6134835000000001,0.5954125,-0.251,1.1680035,0.5568725,-0.091016,1.4159535,0.6140925,-0.1994699999999999,0.6283535,0.8227525,-0.35212,1.4440834999999999,0.8188025,-0.34606,0.9217725,-0.0014964999999999,-0.004578,1.0782275000000001,0.0014964999999999,0.0045779999999999,0.8758235,-0.4564575,-0.06762,1.1373035,-0.4557375,-0.037118,0.8455035,-0.8214874999999999,-0.111715,1.1615735,-0.8368975,-0.090417
152,0.9958675,0.768634,-0.11596,0.8233925,0.546624,-0.109101,0.6125725,0.599114,-0.237019,1.1669325,0.558034,-0.077444,1.4134125,0.6135440000000001,-0.180949,0.6266324999999999,0.826874,-0.336949,1.4438425,0.8227340000000001,-0.329129,0.9218465,-0.0015259999999999,-0.0045809999999999,1.0781535,0.001526,0.004581,0.8757725,-0.471616,-0.047254,1.1316424999999999,-0.470796,-0.015943,0.8451725,-0.831216,-0.097573,1.1583025,-0.850606,-0.076913
153,0.994057,0.775581,-0.1004745,0.821496,0.545291,-0.0954675,0.611666,0.6024609999999999,-0.2227085,1.166036,0.5595009999999999,-0.0632725,1.410996,0.6125309999999999,-0.1614485,0.624906,0.8305309999999999,-0.3214485,1.443756,0.825781,-0.3110785,0.9219120000000001,-0.001465,-0.0047475,1.078088,0.0014649999999999,0.0047475,0.875076,-0.4857689999999999,-0.0289735,1.128766,-0.481929,0.0005075,0.845086,-0.838809,-0.0830835,1.155306,-0.8617290000000001,-0.0629735
154,0.992618,0.7843310000000001,-0.0893715,0.8198570000000001,0.5454110000000001,-0.0867345,0.611077,0.6073310000000001,-0.2132265,1.165487,0.5627409999999999,-0.0544375,1.408997,0.611931,-0.1472765,0.6238170000000001,0.8360909999999999,-0.3101565,1.443867,0.828511,-0.2972965,0.922019,-0.0013119999999999,-0.0050114999999999,1.077981,0.001312,0.0050115,0.874417,-0.497139,-0.0181305,1.126387,-0.490899,0.0113765,0.845427,-0.844239,-0.0749505,1.153247,-0.870009,-0.0546065
155,0.9915520000000001,0.7861895,-0.079272,0.818589,0.5466195,-0.079134,0.6111790000000001,0.6135495,-0.205191,1.165319,0.5631395,-0.047375,1.408479,0.6104595,-0.134831,0.623149,0.8427595,-0.299641,1.444139,0.8320795,-0.284621,0.9221010000000001,-0.0016204999999999,-0.004981,1.077899,0.0016205,0.004981,0.874139,-0.4994705,-0.011285,1.1256490000000001,-0.4953204999999999,0.019016,0.845899,-0.8465705,-0.067876,1.151619,-0.8740205,-0.046657
156,0.9908175000000001,0.787238,-0.0690115,0.8171475000000001,0.547428,-0.0709545,0.6112175,0.6193080000000001,-0.1966294999999999,1.1652275,0.563818,-0.0389054999999999,1.4074575,0.608958,-0.1212795,0.6226475,0.848998,-0.2887695,1.4445575,0.834238,-0.2714695,0.9222945,-0.0018349999999999,-0.0049665,1.0777055,0.001835,0.0049665,0.8739675,-0.501792,-0.0044565,1.1254875,-0.497792,0.0256225,0.8464475000000001,-0.848892,-0.0605915,1.1513475,-0.8771819999999999,-0.0413465
157,0.9901465,0.788138,-0.058946,0.8157004999999999,0.548258,-0.063336,0.6110705000000001,0.6246780000000001,-0.1886759999999999,1.1650705,0.5646680000000001,-0.0307929999999999,1.4059705,0.6075480000000001,-0.107846,0.6222105,0.855238,-0.278216,1.4449505,0.8365180000000001,-0.258996,0.9224175,-0.001888,-0.004915,1.0775825,0.001888,0.0049149999999999,0.8738205,-0.503722,0.0013839999999999,1.1253405,-0.4999619999999999,0.0315089999999999,0.8466905,-0.8531019999999999,-0.055352,1.1509505,-0.8791119999999999,-0.036473
158,0.9894845,0.788838,-0.048514,0.8146035,0.548788,-0.05609,0.6111135000000001,0.6296780000000001,-0.180746,1.1649235,0.5651280000000001,-0.023259,1.4047735000000001,0.6063080000000001,-0.095416,0.6217835,0.860838,-0.268426,1.4452435000000001,0.8374280000000001,-0.2468759999999999,0.9225185,-0.001906,-0.004829,1.0774815,0.0019059999999999,0.0048289999999999,0.8734235,-0.503502,0.0064339999999999,1.1252035,-0.502002,0.03659,0.8472135000000001,-0.8534619999999999,-0.049468,1.1523435,-0.8836419999999999,-0.035655
159,0.9889570000000001,0.7892995,-0.039106,0.8136940000000001,0.5491395,-0.049285,0.611084,0.6342195,-0.173204,1.164804,0.5657795,-0.0160079999999999,1.4047239999999999,0.6050795,-0.085344,0.621284,0.8660095,-0.258884,1.445574,0.8382895,-0.235684,0.922622,-0.0019544999999999,-0.004671,1.077378,0.0019545,0.004671,0.873054,-0.5029905,0.0103,1.1250939999999998,-0.5035605,0.040831,0.847674,-0.8541305,-0.044704,1.151244,-0.8853805,-0.030447
160,0.9885405,0.789784,-0.0304895,0.8130765,0.549494,-0.0430295,0.6108965,0.638404,-0.1660415,1.1646865,0.565954,-0.0096505,1.4043664999999999,0.601594,-0.0780025,0.6208365,0.870714,-0.2500115,1.4459965000000001,0.839354,-0.2263615,0.9227335,-0.0020499999999999,-0.0044604999999999,1.0772665,0.0020499999999999,0.0044604999999999,0.8726465,-0.502086,0.0138225,1.1250965,-0.504476,0.0443785,0.8481365,-0.8541259999999999,-0.0403175,1.1511565,-0.885016,-0.0269044999999999
161,0.988196,0.790185,-0.0227645,0.8124430000000001,0.549945,-0.0376215,0.610843,0.641405,-0.1598445,1.164733,0.566165,-0.0038835,1.404083,0.598885,-0.0712345,0.620423,0.874395,-0.2417544999999999,1.446553,0.8396750000000001,-0.2185045,0.92285,-0.001962,-0.0044505,1.07715,0.001962,0.0044505,0.872293,-0.501135,0.0166615,1.125173,-0.505285,0.0472434999999999,0.848533,-0.8545849999999999,-0.0366545,1.150333,-0.885845,-0.0224955
162,0.9878785,0.7905245000000001,-0.0154644999999999,0.8118215,0.5503445,-0.0324505,0.6106515,0.6437645000000001,-0.1541495,1.1648215,0.5662045,0.0012974999999999,1.4043215,0.5980745000000001,-0.0659505,0.6199815,0.8773245000000001,-0.2341595,1.4468815,0.8400345,-0.2118495,0.9229585,-0.0019105,-0.0042855,1.0770415,0.0019104999999999,0.0042854999999999,0.8719915,-0.5002555,0.0193115,1.1253214999999999,-0.5060555,0.0499395,0.8488015,-0.8553554999999999,-0.0330515,1.1495015,-0.8851954999999999,-0.0181225
163,0.9876815,0.790356,-0.0101169999999999,0.8113435,0.550646,-0.0282609999999999,0.6105134999999999,0.6453559999999999,-0.149478,1.1651035,0.566326,0.0059659999999999,1.4041934999999999,0.597386,-0.0614829999999999,0.6197334999999999,0.8793259999999999,-0.2281379999999999,1.4473335,0.839336,-0.206828,0.9230515,-0.001865,-0.004097,1.0769485,0.0018649999999999,0.004097,0.8718135000000001,-0.4993539999999999,0.020968,1.1255435,-0.506744,0.051762,0.8488635000000001,-0.8573540000000001,-0.0314399999999999,1.1492535,-0.883044,-0.0151059999999999
164,0.9875515000000001,0.790245,-0.0054405,0.8108995,0.550815,-0.0247515,0.6104295,0.646475,-0.1455615,1.1653895,0.566465,0.0101515,1.4044995,0.596825,-0.0575765,0.6192595000000001,0.880285,-0.2243915,1.4476995,0.839765,-0.2026415,0.9231315,-0.0018089999999999,-0.0040115,1.0768685,0.001809,0.0040115,0.8716595,-0.4984649999999999,0.0220325,1.1257895,-0.507335,0.0529815,0.8486195,-0.859385,-0.0309685,1.1472195,-0.879405,-0.0092174999999999
165,0.9875240000000001,0.790316,-0.0016609999999999,0.810585,0.551096,-0.0220819999999999,0.610365,0.647286,-0.1423299999999999,1.165525,0.566436,0.012862,1.4047749999999999,0.596736,-0.05428,0.618655,0.881196,-0.22133,1.448015,0.8402660000000001,-0.19924,0.923156,-0.001729,-0.003969,1.076844,0.001729,0.003969,0.8716650000000001,-0.497624,0.022683,1.126065,-0.507774,0.053695,0.848195,-0.861364,-0.0305459999999999,1.1460650000000001,-0.876884,-0.0045729999999999
166,0.987504,0.790386,0.0014424999999999,0.810287,0.551416,-0.0195055,0.610187,0.6479860000000001,-0.1393585,1.165667,0.5663860000000001,0.0151444999999999,1.405047,0.5965560000000001,-0.0515005,0.6179870000000001,0.881866,-0.2186185,1.4482469999999998,0.840596,-0.1965184999999999,0.92318,-0.0016299999999999,-0.0039565,1.07682,0.0016299999999999,0.0039564999999999,0.8716870000000001,-0.497154,0.0232084999999999,1.126327,-0.508164,0.0541774999999999,0.8482370000000001,-0.861954,-0.0293905,1.146087,-0.8757539999999999,-0.0030545
167,0.9874860000000001,0.7905345,0.0041415,0.810021,0.5516745000000001,-0.0175984999999999,0.6098610000000001,0.6486545,-0.1367255,1.165821,0.5663245,0.0169135,1.4052609999999999,0.5964345000000001,-0.0491615,0.6170610000000001,0.8824045,-0.2162555,1.448381,0.8408145,-0.1942855,0.923199,-0.0015055,-0.0039954999999999,1.076801,0.0015055,0.0039955,0.871691,-0.4971355,0.0237095,1.126551,-0.5087054999999999,0.0545575,0.848561,-0.8618355,-0.0282274999999999,1.146061,-0.8749355,-0.0011024999999999
168,0.9874285,0.790581,0.0064249999999999,0.8098035,0.551771,-0.016089,0.6094935,0.649181,-0.134403,1.1659235,0.5662309999999999,0.0183839999999999,1.4053835000000001,0.596341,-0.047553,0.6163335,0.882621,-0.214803,1.4484135,0.8409709999999999,-0.192513,0.9232195,-0.0014059999999999,-0.004012,1.0767805,0.001406,0.0040119999999999,0.8717035,-0.497179,0.0241129999999999,1.1267135,-0.508849,0.054843,0.8484035,-0.863089,-0.028032,1.1461535,-0.874649,-0.00022
169,0.987365,0.7905955,0.008445,0.8095749999999999,0.5519955,-0.014793,0.609075,0.6496255,-0.1323579999999999,1.1659950000000001,0.5661355,0.019467,1.405465,0.5962655,-0.046211,0.6152850000000001,0.8826955,-0.213888,1.448395,0.8411155,-0.191168,0.923246,-0.0013255,-0.0040069999999999,1.076754,0.0013254999999999,0.004007,0.8717150000000001,-0.4973045,0.02438,1.126805,-0.5090045000000001,0.055075,0.848265,-0.8647345000000001,-0.027607,1.146495,-0.8747745,0.000234
170,0.9872965,0.7906775,0.0099945,0.8094115,0.5521875,-0.0136424999999999,0.6086415000000001,0.6500975,-0.1305505,1.1660314999999999,0.5661575,0.0203075,1.4054515,0.5962975,-0.0456205,0.6141415,0.8827675,-0.2132605,1.4483615,0.8413475,-0.1901905,0.9232595000000001,-0.0013185,-0.0040045,1.0767404999999999,0.0013184999999999,0.0040045,0.8716915000000001,-0.4973225,0.0245855,1.1268815,-0.5090325,0.0552385,0.8480015000000001,-0.8654525,-0.0273264999999999,1.1488615,-0.8763925,-0.0048104999999999
171,0.9871995,0.790709,0.0111635,0.8091885,0.5523490000000001,-0.0126574999999999,0.6083084999999999,0.650449,-0.1290365,1.1660285,0.566179,0.0209735,1.4054585,0.596379,-0.0453554999999999,0.6128985,0.882839,-0.2127365,1.4483385,0.8415790000000001,-0.1894665,0.9232755,-0.001327,-0.0040035,1.0767245,0.0013269999999999,0.0040035,0.8716685,-0.497341,0.0247575,1.1269285,-0.509041,0.0552895,0.8477785,-0.865991,-0.0271654999999999,1.1511885,-0.8784909999999999,-0.0092254999999999
172,0.98707,0.790713,0.0121625,0.8088960000000001,0.5525329999999999,-0.0115224999999999,0.608046,0.650633,-0.1278315,1.1660059999999999,0.566193,0.0214785,1.405456,0.596503,-0.0451685,0.611566,0.882833,-0.2122815,1.448276,0.841823,-0.1890615,0.923281,-0.0013329999999999,-0.0039625,1.076719,0.001333,0.0039625,0.871646,-0.497357,0.0248505,1.126986,-0.509077,0.0552625,0.847916,-0.865917,-0.0264625,1.153416,-0.882277,-0.0139005
173,0.9869010000000001,0.790713,0.01306,0.8085910000000001,0.552593,-0.0105489999999999,0.607871,0.650763,-0.126699,1.165981,0.566203,0.021891,1.405371,0.5966629999999999,-0.045042,0.6105710000000001,0.882833,-0.211859,1.448101,0.842073,-0.188799,0.923281,-0.0013329999999999,-0.0039259999999999,1.076719,0.001333,0.003926,0.8716110000000001,-0.4977170000000001,0.024891,1.1270310000000001,-0.508877,0.05521,0.847831,-0.865917,-0.0262999999999999,1.152831,-0.882277,-0.0127899999999999
174,0.9866915,0.79072,0.0139585,0.8082485,0.5526899999999999,-0.0095234999999999,0.6076985000000001,0.65084,-0.1258625,1.1659785,0.5662299999999999,0.0221105,1.4052785,0.5970799999999999,-0.0450275,0.6096785,0.88284,-0.2115024999999999,1.4478385,0.8423299999999999,-0.1886625,0.9232835000000001,-0.0013589999999999,-0.0039104999999999,1.0767164999999999,0.001359,0.0039105,0.8715885000000001,-0.4982,0.0249805,1.1270385,-0.50885,0.0551405,0.8477985,-0.8659100000000001,-0.0256694999999999,1.1549585,-0.88312,-0.0174065
175,0.986469,0.790745,0.0147245,0.807898,0.552725,-0.0084764999999999,0.607548,0.650875,-0.1252114999999999,1.165968,0.566275,0.0222925,1.405138,0.597575,-0.0449974999999999,0.608908,0.882815,-0.2112315,1.4474879999999999,0.842605,-0.1886014999999999,0.923284,-0.001365,-0.0039114999999999,1.076716,0.0013649999999999,0.0039115,0.871558,-0.4985549999999999,0.0250645,1.127048,-0.508755,0.0550785,0.847478,-0.865885,-0.0251794999999999,1.153748,-0.883965,-0.0162004999999999
176,0.986224,0.7907535,0.0153414999999999,0.807624,0.5526635000000001,-0.0074695,0.607414,0.6508935,-0.1247065,1.1659439999999999,0.5663035000000001,0.0224504999999999,1.404964,0.5981535,-0.0449925,0.6084339999999999,0.8828135,-0.2109265,1.4470139999999998,0.8429035,-0.1884664999999999,0.923281,-0.0013804999999999,-0.0039044999999999,1.076719,0.0013805,0.0039044999999999,0.8715240000000001,-0.4988165,0.0251754999999999,1.127044,-0.5085365,0.0550215,0.847114,-0.8666165,-0.0253115,1.154934,-0.8874865,-0.0201895
177,0.985934,0.7907420000000001,0.0158495,0.807261,0.5526920000000001,-0.0065004999999999,0.6073010000000001,0.650922,-0.1244025,1.165811,0.566362,0.0226115,1.4046210000000001,0.598952,-0.0450605,0.608031,0.882842,-0.2105325,1.446481,0.843302,-0.1883325,0.923276,-0.001387,-0.0038805,1.076724,0.001387,0.0038804999999999,0.8714910000000001,-0.499078,0.0252615,1.127021,-0.508328,0.0549575,0.846751,-0.867208,-0.0259455,1.156221,-0.891178,-0.0243915
178,0.9858115,0.7907759999999999,0.0161615,0.8070435,0.552686,-0.0057665,0.6073035,0.651046,-0.1242905,1.1657135,0.566386,0.0227365,1.4043035,0.599806,-0.0452515,0.6080335,0.882836,-0.2105805,1.4458335,0.843876,-0.1880505,0.9232755,-0.001393,-0.0038685,1.0767245,0.001393,0.0038684999999999,0.8714735,-0.499064,0.0253844999999999,1.1269434999999999,-0.508264,0.0549665,0.8463435,-0.866314,-0.0257985,1.1566035000000001,-0.893664,-0.0273075
179,0.9856440000000001,0.790778,0.016454,0.8068560000000001,0.552678,-0.005047,0.607306,0.651098,-0.124281,1.165606,0.566418,0.022845,1.4039959999999998,0.600648,-0.045429,0.608046,0.882868,-0.210591,1.445166,0.844398,-0.1876509999999999,0.923273,-0.001401,-0.0038559999999999,1.076727,0.001401,0.003856,0.8714459999999999,-0.4990619999999999,0.025503,1.126836,-0.508212,0.054954,0.8461560000000001,-0.865032,-0.0250799999999999,1.156736,-0.8951720000000001,-0.029141
180,0.9854905,0.790776,0.0166879999999999,0.8067415,0.552696,-0.004444,0.6073815,0.651106,-0.124278,1.1654815,0.566456,0.0229119999999999,1.4037214999999998,0.601486,-0.045589,0.6080715,0.882866,-0.211008,1.4445115,0.8449260000000001,-0.187158,0.9232685,-0.001399,-0.003859,1.0767315,0.001399,0.0038589999999999,0.8714315,-0.4990639999999999,0.0255999999999999,1.1267315,-0.508104,0.0549259999999999,0.8461415000000001,-0.863904,-0.024393,1.1581015,-0.895854,-0.03178
181,0.9853355,0.7905449999999999,0.0168935,0.8066335,0.552665,-0.0040914999999999,0.6074735,0.6510849999999999,-0.1242485,1.1654034999999998,0.566465,0.0229935,1.4034435,0.602165,-0.0457485,0.6081935,0.882695,-0.2112985,1.4439035,0.845225,-0.1866485,0.9232665,-0.0013709999999999,-0.0038404999999999,1.0767335,0.0013709999999999,0.0038405,0.8712235,-0.499165,0.0256805,1.1263935,-0.507885,0.0549025,0.8459035,-0.8633550000000001,-0.0241154999999999,1.1581135,-0.8966050000000001,-0.0317605
182,0.9840820000000001,0.789852,0.017272,0.8059180000000001,0.5524020000000001,-0.0032049999999999,0.6072379999999999,0.650432,-0.123668,1.164908,0.566682,0.023056,1.402628,0.6043120000000001,-0.0460209999999999,0.607468,0.882912,-0.207788,1.442888,0.847082,-0.186388,0.923245,-0.001413,-0.0038379999999999,1.076755,0.001413,0.003838,0.8714080000000001,-0.500118,0.025492,1.1263779999999999,-0.509398,0.054534,0.846058,-0.859398,-0.0240699999999999,1.153608,-0.907258,-0.0316859999999999
183,0.984019,0.7898865,0.0172955,0.8059090000000001,0.5524865,-0.0030574999999999,0.607029,0.6500665,-0.1236085,1.164869,0.5668065,0.0231945,1.402459,0.6048165,-0.0462055,0.607429,0.8826865,-0.2072485,1.4414989999999999,0.8473165,-0.1850685,0.923232,-0.0013565,-0.0037615,1.076768,0.0013565,0.0037615,0.8713690000000001,-0.4992434999999999,0.0255075,1.126169,-0.5075435,0.0544435,0.834299,-0.8950135,-0.0536305,1.153059,-0.9060535,-0.0283345
184,0.983595,0.7897485,0.017543,0.805687,0.5524885,-0.002946,0.606827,0.6501485,-0.123433,1.164027,0.5668685,0.023811,1.401627,0.6049085,-0.045561,0.6081370000000001,0.8826685,-0.207433,1.440007,0.8476885,-0.183113,0.9232400000000001,-0.0013504999999999,-0.003743,1.07676,0.0013505,0.003743,0.871427,-0.4992615,0.025466,1.126097,-0.5071915,0.054512,0.833287,-0.8942415,-0.067593,1.155877,-0.9032715,-0.030472
185,0.985823,0.789674,0.0164895,0.80743,0.553144,-0.0037784999999999,0.60904,0.651314,-0.1246535,1.16529,0.566234,0.0230605,1.40306,0.603304,-0.0461915,0.61113,0.883314,-0.2102635,1.44226,0.845654,-0.1839535,0.923236,-0.001062,-0.0037804999999999,1.076764,0.001062,0.0037805,0.86953,-0.497856,0.0266125,1.124,-0.506666,0.0556505,0.84268,-0.865476,-0.0244234999999999,1.1519300000000001,-0.903696,-0.0267064999999999
186,0.985406,0.7895854999999999,0.0168805,0.807238,0.5531055,-0.0035775,0.608978,0.6513855,-0.1245715,1.1654479999999998,0.5662855,0.0231525,1.403108,0.6037855,-0.0462625,0.610868,0.8829555,-0.2115115,1.441868,0.8459455,-0.1836315,0.92326,-0.0010265,-0.0037845,1.07674,0.0010265,0.0037844999999999,0.869568,-0.4977945,0.0266894999999999,1.123738,-0.5047645000000001,0.0551524999999999,0.843328,-0.8616945,-0.0232275,1.151958,-0.9036945,-0.0248305
187,0.9852605,0.789028,0.0171035,0.8068185,0.552418,-0.0034035,0.6088184999999999,0.651088,-0.1245344999999999,1.1650685,0.5661879999999999,0.0237565,1.3964984999999999,0.6279779999999999,-0.0490725,0.6111385,0.8822979999999999,-0.2126245,1.4413084999999999,0.8454079999999999,-0.1836144999999999,0.9232665,-0.001251,-0.0036845,1.0767335,0.001251,0.0036845,0.8696185000000001,-0.496942,0.0261785,1.1237585,-0.505382,0.0551745,0.8442085,-0.861762,-0.0217704999999999,1.1633085,-0.897092,-0.0336465
188,0.9851905,0.788949,0.01733,0.8066925,0.552299,-0.003256,0.6087525,0.651169,-0.1243129999999999,1.1654025,0.566389,0.024065,1.3991325,0.6174890000000001,-0.050574,0.6119525,0.882429,-0.212193,1.4410825,0.8457990000000001,-0.183213,0.9232695,-0.001174,-0.003713,1.0767305,0.001174,0.003713,0.8696825,-0.4968709999999999,0.026279,1.1238024999999998,-0.505261,0.0553499999999999,0.8430825,-0.863541,-0.024301,1.1514525,-0.892541,-0.0127709999999999
