sb224sc-HT22-VT27/4dt907/src/ml-research/a11/datafiles/kinect_good_preprocessed_not_cut_A11_mediapipe/A88_kinect_mirrored.csv
FrameNo,nose_3d_x,nose_3d_y,nose_3d_z,left_shoulder_3d_x,left_shoulder_3d_y,left_shoulder_3d_z,left_elbow_3d_x,left_elbow_3d_y,left_elbow_3d_z,right_shoulder_3d_x,right_shoulder_3d_y,right_shoulder_3d_z,right_elbow_3d_x,right_elbow_3d_y,right_elbow_3d_z,left_wrist_3d_x,left_wrist_3d_y,left_wrist_3d_z,right_wrist_3d_x,right_wrist_3d_y,right_wrist_3d_z,left_hip_3d_x,left_hip_3d_y,left_hip_3d_z,right_hip_3d_x,right_hip_3d_y,right_hip_3d_z,left_knee_3d_x,left_knee_3d_y,left_knee_3d_z,right_knee_3d_x,right_knee_3d_y,right_knee_3d_z,left_ankle_3d_x,left_ankle_3d_y,left_ankle_3d_z,right_ankle_3d_x,right_ankle_3d_y,right_ankle_3d_z
0,1.030636,0.8317215,0.1446629999999999,0.814028,0.5529315,0.106439,0.581218,0.5265715000000001,0.011386,1.186838,0.5517215000000001,0.09862,1.3929179999999999,0.5304315000000001,-0.048062,0.41219799999999995,0.5446815,-0.1759069999999999,1.550468,0.5625515000000001,-0.252127,0.916478,-0.0015905,-0.0019139999999999,1.083522,0.0015905,0.0019139999999999,0.874528,-0.5181184999999999,0.035824,1.115678,-0.4813585,-0.0053069999999999,0.857178,-0.8805784999999999,-0.016878,1.102467,-0.8664784999999999,-0.053534
1,1.0305914999999999,0.8315705,0.1448565,0.8139825,0.5530404999999999,0.1064765,0.5811325,0.5264305,0.0116355,1.1867325,0.5517504999999999,0.0987105,1.3932425,0.5304405,-0.0472765,0.41227250000000004,0.5448204999999999,-0.1757735,1.5502525,0.5629105,-0.2525435,0.9164345,-0.0015835,-0.0019414999999999,1.0835655,0.0015835,0.0019414999999999,0.8742624999999999,-0.5186395,0.0360235,1.1155725,-0.4814794999999999,-0.0051054999999999,0.8576425,-0.8774995,-0.0131855,1.1025814999999999,-0.8670695,-0.0547925
2,1.030645,0.8316905,0.145119,0.813874,0.5534405,0.106971,0.581224,0.5263405,0.011672,1.186834,0.5517205,0.098879,1.393284,0.5306004999999999,-0.047248,0.41236400000000006,0.5448704999999999,-0.175721,1.550324,0.5631305,-0.252721,0.916447,-0.0015605,-0.0019329999999999,1.083553,0.0015605,0.001933,0.875004,-0.5305795,0.036546,1.115684,-0.4815395,-0.005184,0.856464,-0.8773395,-0.014071,1.102875,-0.8668695000000001,-0.0549169999999999
3,1.030754,0.8319719999999999,0.1450779999999999,0.814351,0.553412,0.106639,0.581591,0.526582,0.011593,1.186901,0.5518919999999999,0.098625,1.393491,0.530922,-0.047291,0.4125709999999999,0.5453119999999999,-0.175632,1.550281,0.562682,-0.250352,0.9164730000000001,-0.0015179999999999,-0.0019029999999999,1.083527,0.0015179999999999,0.001903,0.875111,-0.530328,0.036359,1.115861,-0.484938,-0.0049069999999999,0.857151,-0.878398,-0.0152559999999999,1.1027319999999998,-0.8651880000000001,-0.0545719999999999
4,1.0307015,0.8318975000000001,0.145253,0.8146015,0.5532375,0.106208,0.5815215,0.5265175000000001,0.0121059999999999,1.1869215,0.5518275,0.0988729999999999,1.3933915,0.5310275000000001,-0.047251,0.41731150000000006,0.5506575,-0.178927,1.5506415,0.5629575,-0.251027,0.9164345,-0.0015165,-0.001884,1.0835655,0.0015165,0.0018839999999999,0.8746315,-0.5342224999999999,0.037118,1.1157315,-0.4846225,-0.004791,0.8569115,-0.8793224999999999,-0.016627,1.1023775,-0.8652624999999999,-0.056063
5,1.0299989999999999,0.83169,0.147236,0.814147,0.55288,0.107519,0.5809870000000001,0.52619,0.013667,1.186437,0.5517500000000001,0.10036,1.392867,0.53166,-0.045932,0.41304699999999994,0.54761,-0.174254,1.549617,0.5634100000000001,-0.2469439999999999,0.916438,-0.001563,-0.0018779999999999,1.083562,0.0015629999999999,0.001878,0.875187,-0.5344,0.035784,1.115657,-0.50069,-0.0028179999999999,0.857957,-0.87915,-0.019606,1.10309,-0.86422,-0.0586039999999999
6,1.0301105,0.8316049999999999,0.147388,0.8142475,0.5526949999999999,0.107405,0.5809675000000001,0.526365,0.0138179999999999,1.1863975,0.551715,0.100405,1.3928275,0.531705,-0.045903,0.4131475,0.547465,-0.174272,1.5490275,0.563175,-0.245812,0.9164085,-0.0015729999999999,-0.001901,1.0835915,0.0015729999999999,0.001901,0.8753675,-0.5330550000000001,0.036043,1.1158375,-0.491315,-0.004388,0.8595675,-0.8747750000000001,-0.005657,1.1030005,-0.8654550000000001,-0.055039
7,1.030337,0.8319265,0.1467975,0.8145290000000001,0.5525165,0.1071715,0.581199,0.5268865,0.0136355,1.186609,0.5519965,0.1000865,1.392879,0.5317865,-0.0463595,0.41332900000000006,0.5476165,-0.1744824999999999,1.549889,0.5638665,-0.2482925,0.916382,-0.0015995,-0.0018555,1.083618,0.0015995,0.0018555,0.875059,-0.5313435,0.0358555,1.115929,-0.4820535,-0.0052185,0.8577790000000001,-0.8736235,-0.0142014999999999,1.102732,-0.8650435,-0.0550455
8,1.030298,0.8319785000000001,0.1470445,0.8146519999999999,0.5523285,0.1072455,0.581232,0.5269785,0.0139975,1.186582,0.5520385000000001,0.1002935,1.392842,0.5319685000000001,-0.0462615,0.413512,0.5479985,-0.1742155,1.549592,0.5640285,-0.2481455,0.916369,-0.0016045,-0.0018405,1.083631,0.0016045,0.0018405,0.875102,-0.5313715,0.0359175,1.116012,-0.4813415,-0.0053754999999999,0.857822,-0.8724014999999999,-0.0138775,1.102755,-0.8641614999999999,-0.0551285
9,1.030265,0.832035,0.1472965,0.814781,0.552165,0.1073215,0.5813010000000001,0.5271049999999999,0.0142594999999999,1.186571,0.552095,0.1004745,1.392791,0.532165,-0.0461675,0.413651,0.548365,-0.1739935,1.549321,0.5642349999999999,-0.2481335,0.916356,-0.001612,-0.0018205,1.083644,0.0016119999999999,0.0018204999999999,0.875141,-0.531165,0.0359665,1.116111,-0.480585,-0.0055625,0.857811,-0.871945,-0.0142155,1.102755,-0.863395,-0.0551265
10,1.030279,0.8321445000000001,0.147318,0.814907,0.5520645000000001,0.107365,0.581357,0.5272245,0.014358,1.186607,0.5521745,0.1004869999999999,1.392787,0.5322845,-0.046202,0.41377700000000006,0.5484445,-0.173922,1.5491570000000001,0.5643045,-0.248222,0.916347,-0.0016314999999999,-0.001779,1.083653,0.0016315,0.0017789999999999,0.8751570000000001,-0.5313454999999999,0.035948,1.116187,-0.4807955,-0.005724,0.8578370000000001,-0.8722955,-0.014568,1.102711,-0.8634155,-0.054998
11,1.03028,0.832251,0.1473355,0.8149919999999999,0.5519909999999999,0.1074315,0.581392,0.5273509999999999,0.0143854999999999,1.186622,0.552261,0.1004994999999999,1.392772,0.532411,-0.0462415,0.41386200000000006,0.5485209999999999,-0.1738644999999999,1.549082,0.5644309999999999,-0.2483245,0.9163320000000001,-0.001638,-0.0017395,1.0836679999999999,0.0016379999999999,0.0017394999999999,0.875162,-0.531629,0.0359165,1.116252,-0.480919,-0.0059715,0.857892,-0.872619,-0.0151205,1.1027619999999998,-0.863859,-0.0551985
12,1.0302875,0.8323495,0.1473205,0.8150445,0.5519695,0.1075125,0.5814245,0.5274595,0.0143824999999999,1.1866444999999999,0.5523295,0.1004795,1.3927844999999999,0.5325295,-0.0463035,0.4138744999999999,0.5485995,-0.1738095,1.5490944999999998,0.5645494999999999,-0.2484495,0.9163225000000002,-0.0016395,-0.0016945,1.0836774999999998,0.0016394999999999,0.0016944999999999,0.8751945000000001,-0.5319805000000001,0.0358625,1.1163144999999999,-0.4810705,-0.0062445,0.8579045000000001,-0.8729505000000001,-0.0155755,1.1028435,-0.8643205,-0.0553295
13,1.030255,0.832437,0.1472605,0.815126,0.551967,0.1075955,0.5815060000000001,0.527617,0.0144055,1.186656,0.552387,0.1004335,1.3927859999999999,0.532667,-0.0463944999999999,0.4139360000000001,0.548697,-0.1738195,1.549086,0.564797,-0.2489095,0.916315,-0.001659,-0.0016174999999999,1.083685,0.0016589999999999,0.0016175,0.875176,-0.531943,0.0359655,1.116366,-0.479853,-0.0065114999999999,0.857826,-0.8728330000000001,-0.0158055,1.1027349999999998,-0.864413,-0.0554795
14,1.0301704999999999,0.8325389999999999,0.1472155,0.8152195,0.5519689999999999,0.1076905,0.5816195,0.5277689999999999,0.0144015,1.1866794999999999,0.552429,0.1003975,1.3927995,0.532779,-0.0464695,0.4140195,0.5488689999999999,-0.1738345,1.5491895,0.565089,-0.2495945,0.9163115,-0.0016719999999999,-0.0015464999999999,1.0836885,0.0016719999999999,0.0015464999999999,0.8751695,-0.532101,0.0360625,1.1163695,-0.478771,-0.0067474999999999,0.8576495,-0.873001,-0.0171305,1.1026275,-0.8644010000000001,-0.0555894999999999
15,1.0299989999999999,0.8325990000000001,0.1471305,0.815314,0.552019,0.1077844999999999,0.581744,0.527919,0.0143604999999999,1.186714,0.552469,0.1003705,1.3928340000000001,0.5329090000000001,-0.0465575,0.41409399999999996,0.549049,-0.1738795,1.549234,0.565339,-0.2501395,0.916312,-0.001707,-0.0014675,1.083688,0.001707,0.0014674999999999,0.8751740000000001,-0.532281,0.0361875,1.116284,-0.477611,-0.0070255,0.857464,-0.873501,-0.0183505,1.102544,-0.864301,-0.0555445
16,1.0298109999999998,0.832704,0.1469585,0.815337,0.552184,0.1078045,0.581877,0.5280940000000001,0.0142145,1.186737,0.552564,0.1002285,1.392857,0.533074,-0.0467315,0.414137,0.5492440000000001,-0.1739815,1.549317,0.565604,-0.2507415,0.916313,-0.0017439999999999,-0.0013774999999999,1.083687,0.0017439999999999,0.0013774999999999,0.8751770000000001,-0.532116,0.0359755,1.116157,-0.476886,-0.0073254999999999,0.857267,-0.873946,-0.0195265,1.102234,-0.864186,-0.0557454999999999
17,1.0295889999999999,0.8328105,0.146787,0.8153710000000001,0.5523505,0.107836,0.5820110000000001,0.5283304999999999,0.014044,1.186891,0.5526405,0.100083,1.392981,0.5332304999999999,-0.046904,0.414161,0.5494405,-0.174103,1.5496210000000001,0.5660405,-0.251613,0.916307,-0.0017745,-0.0012829999999999,1.083693,0.0017745,0.0012829999999999,0.875191,-0.5319495000000001,0.035774,1.116161,-0.4763495,-0.007626,0.857051,-0.8738495000000001,-0.020162,1.1019299999999999,-0.8641295,-0.05592
18,1.0292355,0.8329230000000001,0.1466285,0.8154115,0.552513,0.1079344999999999,0.5821514999999999,0.528563,0.0138444999999999,1.1870315,0.552703,0.0999375,1.3931015,0.533363,-0.0470705,0.4141815000000001,0.549633,-0.1742314999999999,1.5499415,0.566373,-0.2524214999999999,0.9162995,-0.0018019999999999,-0.0011965,1.0837005,0.0018019999999999,0.0011964999999999,0.8752015000000001,-0.531787,0.0355754999999999,1.1160615,-0.476367,-0.0079065,0.8569315,-0.873687,-0.0207605,1.1016425,-0.8638469999999999,-0.0559465
19,1.028694,0.8329829999999999,0.146507,0.8154440000000001,0.552743,0.108254,0.582254,0.528743,0.0136449999999999,1.187184,0.5527529999999999,0.099794,1.393244,0.533493,-0.047233,0.414204,0.549793,-0.174353,1.5503040000000001,0.566693,-0.253313,0.916295,-0.001811,-0.001131,1.083705,0.0018109999999999,0.001131,0.875204,-0.5306970000000001,0.035504,1.116084,-0.476117,-0.00814,0.856734,-0.873577,-0.021353,1.101338,-0.863627,-0.056055
20,1.0279589999999998,0.832999,0.146434,0.815341,0.553009,0.108703,0.582391,0.528889,0.013432,1.187351,0.552789,0.099642,1.393431,0.533609,-0.047363,0.41422100000000006,0.5499390000000001,-0.174466,1.550991,0.567119,-0.254116,0.916293,-0.001832,-0.001071,1.083707,0.001832,0.001071,0.875211,-0.529691,0.035414,1.116041,-0.476321,-0.008329,0.856581,-0.873651,-0.022274,1.101099,-0.863541,-0.0563339999999999
21,1.0270605,0.8330380000000001,0.1463775,0.8152254999999999,0.5532980000000001,0.1091045,0.5825155,0.529038,0.0132285,1.1875155,0.552848,0.0994985,1.3936255,0.533768,-0.0474744999999999,0.4142555,0.550108,-0.1745625,1.5516855,0.567538,-0.2548924999999999,0.9162875,-0.001851,-0.0010194999999999,1.0837125,0.001851,0.0010194999999999,0.8752155,-0.528492,0.0352805,1.1159554999999999,-0.4767119999999999,-0.0084595,0.8564455,-0.873532,-0.0225804999999999,1.1009164999999999,-0.863412,-0.0565604999999999
22,1.0260155,0.8330025000000001,0.1463615,0.8150455,0.5535825000000001,0.1095795,0.5826454999999999,0.5291625000000001,0.0130544999999999,1.1876555,0.5529125,0.0993775,1.3938255,0.5339125,-0.0475304999999999,0.4142855000000001,0.5502725,-0.1747285,1.5523055000000001,0.5679125,-0.2556285,0.9162785,-0.0018495,-0.0009925,1.0837215,0.0018494999999999,0.0009925,0.8752854999999999,-0.5264074999999999,0.0349634999999999,1.1158955,-0.4771575,-0.0085265,0.8563555,-0.8734175,-0.0228915,1.1006875,-0.8633974999999999,-0.0568125
23,1.024876,0.8329000000000001,0.1463265,0.814844,0.55388,0.1100444999999999,0.582724,0.5292800000000001,0.0128735,1.187794,0.55298,0.0992395,1.3940139999999999,0.53405,-0.0476055,0.414304,0.5504600000000001,-0.1748135,1.552954,0.56826,-0.2563135,0.916278,-0.0018539999999999,-0.0009515,1.083722,0.0018539999999999,0.0009515,0.875284,-0.52682,0.0349175,1.115824,-0.4776,-0.0086114999999999,0.856304,-0.87376,-0.0235165,1.100454,-0.86329,-0.0571034999999999
24,1.0236494999999999,0.83275,0.1463175,0.8146504999999999,0.55416,0.1105884999999999,0.5827905,0.5293800000000001,0.0127404999999999,1.1879104999999999,0.55304,0.0990824999999999,1.3942104999999998,0.53417,-0.0476285,0.4143105,0.5506300000000001,-0.1748725,1.5535505,0.56857,-0.2569525,0.9162775,-0.0018339999999999,-0.0009175,1.0837225,0.001834,0.0009174999999999,0.8751305,-0.52682,0.0348025,1.1157705,-0.47805,-0.0087145,0.8562005,-0.87412,-0.0241675,1.1002815,-0.86319,-0.0573064999999999
25,1.022317,0.832503,0.146387,0.81444,0.5544129999999999,0.111239,0.58283,0.529443,0.012676,1.188,0.5530529999999999,0.099005,1.39438,0.5342629999999999,-0.047563,0.41432,0.5507829999999999,-0.174863,1.5539999999999998,0.568843,-0.257393,0.916275,-0.001815,-0.0008869999999999,1.083725,0.001815,0.0008869999999999,0.87518,-0.5243570000000001,0.034353,1.1157499999999998,-0.477927,-0.008861,0.8560300000000001,-0.8742270000000001,-0.024664,1.100261,-0.8631270000000001,-0.0575049999999999
26,1.0209695,0.8322244999999999,0.146477,0.8142195,0.5546544999999999,0.111948,0.5828495,0.5294845,0.012628,1.1879895,0.5530845,0.098935,1.3944495,0.5343145,-0.047488,0.4143395000000001,0.5508445,-0.1749029999999999,1.5543595,0.5690744999999999,-0.2577529999999999,0.9162764999999999,-0.0018174999999999,-0.0008589999999999,1.0837235,0.0018174999999999,0.000859,0.8750195000000001,-0.5239455000000001,0.0343,1.1157295,-0.4778955,-0.0089829999999999,0.8559595,-0.8740055,-0.0247179999999999,1.1002645,-0.8629655,-0.0574549999999999
27,1.019617,0.831905,0.146635,0.813989,0.554885,0.112586,0.582849,0.5295449999999999,0.012583,1.187989,0.553115,0.0988769999999999,1.3945189999999998,0.534385,-0.047414,0.4143490000000001,0.5509149999999999,-0.174935,1.554669,0.569265,-0.258085,0.916279,-0.001823,-0.0008229999999999,1.083721,0.001823,0.0008229999999999,0.874839,-0.5237350000000001,0.034304,1.115719,-0.477715,-0.009134,0.855789,-0.873885,-0.0249169999999999,1.100254,-0.862815,-0.057557
28,1.018339,0.8315685,0.1467979999999999,0.81376,0.5550085,0.113004,0.58285,0.5296485,0.012535,1.18799,0.5531285,0.098826,1.39459,0.5344085,-0.0473279999999999,0.41434000000000004,0.5509785,-0.174942,1.5546600000000002,0.5692685,-0.2581819999999999,0.916283,-0.0018355,-0.000779,1.083717,0.0018354999999999,0.000779,0.8746700000000001,-0.5236915,0.0343409999999999,1.1157,-0.4773315,-0.0093369999999999,0.8557600000000001,-0.8739115,-0.025019,1.100369,-0.8626315,-0.057672
29,1.0171215,0.831183,0.1471345,0.8136385000000002,0.5551130000000001,0.1133435,0.5827685,0.529683,0.0125154999999999,1.1879485,0.553153,0.0987705,1.3945685,0.534443,-0.0473465,0.41426850000000004,0.5510430000000001,-0.1749155,1.5546285000000002,0.569303,-0.2582955,0.9162855,-0.001853,-0.0007125,1.0837145,0.0018529999999999,0.0007124999999999,0.8749185000000002,-0.520747,0.0338114999999999,1.1157785,-0.476967,-0.0095705,0.8558185,-0.873667,-0.0248625,1.1005145,-0.8624569999999999,-0.0578635
30,1.0160125,0.830798,0.147466,0.8134655,0.5551980000000001,0.113675,0.5826755,0.5296780000000001,0.012475,1.1878855,0.553188,0.0987,1.3945155,0.534468,-0.047409,0.41417550000000003,0.5510980000000001,-0.174934,1.5545755,0.569338,-0.258424,0.9162975,-0.001888,-0.000634,1.0837025,0.0018879999999999,0.000634,0.8751455,-0.5188219999999999,0.03365,1.1158655,-0.476932,-0.0097379999999999,0.8558955,-0.8733719999999999,-0.024838,1.1006825,-0.862262,-0.0582129999999999
31,1.014994,0.830449,0.1477939999999999,0.8134,0.555299,0.113543,0.58256,0.529709,0.012457,1.1878099999999998,0.553219,0.098614,1.39446,0.5344990000000001,-0.0475069999999999,0.41405000000000003,0.551139,-0.174976,1.55474,0.569379,-0.257976,0.916309,-0.001916,-0.0005669999999999,1.083691,0.0019159999999999,0.0005669999999999,0.87511,-0.520521,0.034017,1.11595,-0.477481,-0.009777,0.85595,-0.873091,-0.024843,1.100814,-0.862221,-0.058412
32,1.014061,0.830157,0.1480969999999999,0.8133230000000001,0.555397,0.113426,0.582473,0.529747,0.0124349999999999,1.187713,0.553247,0.0985419999999999,1.394383,0.534537,-0.047595,0.41394300000000006,0.551237,-0.174923,1.554853,0.569327,-0.257493,0.916319,-0.001938,-0.000511,1.083681,0.001938,0.0005109999999999,0.875083,-0.521693,0.0343409999999999,1.115993,-0.477553,-0.009974,0.855963,-0.873363,-0.02514,1.100975,-0.862183,-0.058768
33,1.013166,0.829936,0.148359,0.813256,0.555496,0.113308,0.582326,0.529816,0.012442,1.187596,0.553296,0.098474,1.394256,0.534566,-0.047707,0.41376599999999997,0.5513359999999999,-0.174881,1.555016,0.569286,-0.257211,0.916328,-0.001968,-0.000445,1.083672,0.0019679999999999,0.000445,0.8750560000000001,-0.5238440000000001,0.034636,1.116036,-0.4775939999999999,-0.0101839999999999,0.855846,-0.873754,-0.025769,1.101162,-0.861994,-0.058909
34,1.0123135,0.8297885,0.1486045,0.8132355,0.5555885,0.1130285,0.5822054999999999,0.5299185000000001,0.0124295,1.1874755,0.5533485,0.0983845,1.3941055,0.5345285000000001,-0.0478344999999999,0.4136255,0.5514585000000001,-0.1748855,1.5551955,0.5692685000000001,-0.2570055,0.9163355,-0.0020105,-0.0003644999999999,1.0836645,0.0020104999999999,0.0003645,0.8750855000000001,-0.5250914999999999,0.0347295,1.1159755,-0.4780815,-0.0102424999999999,0.8558555,-0.8743215,-0.0264254999999999,1.1013375,-0.8617815,-0.0590664999999999
35,1.0114915,0.82966,0.1488065,0.8132315,0.5557,0.1125605,0.5820215,0.53015,0.0123795,1.1873515000000001,0.5534,0.0982605,1.3939215,0.53445,-0.0479934999999999,0.41346150000000004,0.55159,-0.1749235,1.5552215,0.56914,-0.2567435,0.9163515,-0.002057,-0.0002584999999999,1.0836485,0.002057,0.0002585,0.8751115,-0.5262,0.0347565,1.1160515,-0.47763,-0.0104434999999999,0.8558615,-0.8748400000000001,-0.0265494999999999,1.1012325,-0.86172,-0.0594635
36,1.0107925,0.829565,0.148981,0.8132254999999999,0.555765,0.112022,0.5819155,0.5304049999999999,0.012336,1.1872354999999999,0.5534349999999999,0.098104,1.3937154999999999,0.5343049999999999,-0.048211,0.4133555,0.551715,-0.174969,1.5552855,0.5690649999999999,-0.256579,0.9163654999999999,-0.002118,-0.0001439999999999,1.0836345,0.002118,0.0001439999999999,0.8751255,-0.5272150000000001,0.034752,1.1161555,-0.476985,-0.010803,0.8559055,-0.8754050000000001,-0.026747,1.1011795,-0.8616750000000001,-0.059949
37,1.0102114999999998,0.829491,0.1491735,0.8132485,0.555851,0.1117525,0.5818185,0.530681,0.0122945,1.1871384999999999,0.5534509999999999,0.0979665,1.3935184999999999,0.534121,-0.0484864999999999,0.4132085,0.551781,-0.1750065,1.5553085,0.568971,-0.2564865,0.9163795,-0.0021789999999999,-4.849999999999993e-05,1.0836205,0.002179,4.849999999999993e-05,0.8750685,-0.5271490000000001,0.0345645,1.1162885,-0.476249,-0.0111455,0.8559384999999999,-0.8760290000000001,-0.0269425,1.1011535,-0.8617290000000001,-0.0605025
38,1.0097725,0.8294675,0.1492525,0.8132595,0.5559474999999999,0.1116385,0.5817595,0.5309375,0.0122335,1.1870595,0.5534574999999999,0.0978345,1.3933494999999998,0.5339174999999999,-0.0487494999999999,0.41309950000000006,0.5519075,-0.1750775,1.5553395,0.5687675,-0.2564375,0.9163924999999999,-0.0022305,4.250000000000087e-05,1.0836075,0.0022305,-4.250000000000087e-05,0.8751795,-0.5270925000000001,0.0343475,1.1163295,-0.4758225,-0.0113984999999999,0.8560895,-0.8761225,-0.0264265,1.1011465,-0.8621725,-0.0611625
39,1.0093904999999999,0.8294265,0.1494165,0.8134435,0.5560465,0.1109325,0.5816635,0.5311764999999999,0.0122015,1.1869934999999998,0.5534365,0.0977244999999999,1.3931635,0.5337065,-0.0490115,0.41301350000000003,0.5520065,-0.1750835,1.5553335000000001,0.5685865,-0.2564335,0.9164005,-0.0022685,0.0001265,1.0835995,0.0022684999999999,-0.0001265,0.8752935,-0.5270535000000001,0.0341595,1.1163935,-0.4756235,-0.0116255,0.8562735,-0.8762035,-0.0259864999999999,1.1011374999999999,-0.8626735,-0.0618395
40,1.009071,0.8294050000000001,0.149542,0.813456,0.556135,0.110537,0.581556,0.531385,0.012168,1.186926,0.5534250000000001,0.097601,1.392986,0.5334650000000001,-0.049269,0.412956,0.552115,-0.175138,1.555056,0.568385,-0.256328,0.916409,-0.0023,0.0002209999999999,1.083591,0.0023,-0.0002209999999999,0.875276,-0.527015,0.033975,1.116446,-0.475615,-0.0117939999999999,0.8565659999999999,-0.876595,-0.0255879999999999,1.101138,-0.863255,-0.062468
41,1.0087629999999999,0.829392,0.1496279999999999,0.813438,0.556222,0.110259,0.581468,0.5315620000000001,0.012121,1.186828,0.5534020000000001,0.097448,1.392788,0.5332220000000001,-0.0495149999999999,0.412898,0.5521820000000001,-0.1752119999999999,1.554758,0.568192,-0.2564619999999999,0.9164180000000001,-0.002323,0.000304,1.0835819999999998,0.002323,-0.0003039999999999,0.8752680000000002,-0.5268879999999999,0.033757,1.116448,-0.475318,-0.0120059999999999,0.856818,-0.8769979999999999,-0.0252459999999999,1.101108,-0.863738,-0.0629359999999999
42,1.0085709999999999,0.82937,0.1496765,0.8134610000000001,0.55632,0.1100145,0.581391,0.53169,0.0120784999999999,1.186761,0.5534,0.0973034999999999,1.3926509999999999,0.5329400000000001,-0.0497425,0.41288100000000005,0.5522400000000001,-0.1752735,1.554411,0.56799,-0.2566335,0.9164160000000001,-0.002334,0.0003694999999999,1.0835839999999999,0.0023339999999999,-0.0003695,0.875281,-0.5265599999999999,0.0335834999999999,1.116471,-0.47526,-0.0120945,0.8570310000000001,-0.87727,-0.0249235,1.100988,-0.86412,-0.0631925
43,1.0083989999999998,0.8293405,0.1497095,0.81342,0.5563805000000001,0.1097975,0.58131,0.5318005,0.0120435,1.18668,0.5533905,0.0971424999999999,1.3925100000000001,0.5326305,-0.0499685,0.4128299999999999,0.5522905,-0.1753605,1.5543399999999998,0.5679905,-0.2573005,0.9164140000000001,-0.0023344999999999,0.0003944999999999,1.083586,0.0023344999999999,-0.0003944999999999,0.87525,-0.5262195,0.0333925,1.11649,-0.4752895,-0.0121954999999999,0.85718,-0.8776095,-0.0248195,1.100874,-0.8643395,-0.0634025
44,1.0082585,0.8293115000000001,0.149717,0.8133925000000001,0.5564515,0.109565,0.5812425,0.5318015,0.0120109999999999,1.1866225,0.5533615000000001,0.096999,1.3923725,0.5324515000000001,-0.0502499999999999,0.4128125,0.5523415,-0.175463,1.5542725000000002,0.5679915,-0.258013,0.9163985,-0.0023334999999999,0.0004019999999999,1.0836014999999999,0.0023335,-0.0004019999999999,0.8751625000000001,-0.5279085,0.033469,1.1165025,-0.4753685,-0.0123,0.8573125,-0.8779385,-0.024708,1.1007715,-0.8645685,-0.06332
45,1.008135,0.8292815,0.1496875,0.813369,0.5565315000000001,0.1093055,0.581229,0.5318015,0.0119514999999999,1.186569,0.5533315000000001,0.0967425,1.392249,0.5323915,-0.0505505,0.41286899999999993,0.5523815000000001,-0.1757725,1.554219,0.5679615,-0.2585625,0.91638,-0.0023334999999999,0.0003904999999999,1.08362,0.0023335,-0.0003905,0.8750789999999999,-0.5287584999999999,0.0334134999999999,1.116479,-0.4758485,-0.0123775,0.857459,-0.8779684999999999,-0.0246595,1.100625,-0.8645685,-0.0632105
46,1.0080174999999998,0.8292695,0.149484,0.8134405,0.5565595,0.109071,0.5812205000000001,0.5318195,0.0118349999999999,1.1865105,0.5533195000000001,0.096473,1.3921305,0.5323795,-0.050883,0.4129205,0.5524295,-0.175946,1.5539405,0.5679495,-0.259146,0.9163685,-0.0023265,0.0004089999999999,1.0836315,0.0023265,-0.0004089999999999,0.8750505,-0.5287704999999999,0.033096,1.1164805,-0.4752904999999999,-0.012652,0.8576305,-0.8779804999999999,-0.024482,1.1006125,-0.8645404999999999,-0.062984
47,1.007933,0.829256,0.1492185,0.813442,0.5566760000000001,0.1089715,0.581202,0.531826,0.0117325,1.186412,0.5533060000000001,0.0962065,1.391962,0.532366,-0.0511965,0.41294200000000003,0.552486,-0.1760415,1.553682,0.567966,-0.2599114999999999,0.91637,-0.002321,0.0004465,1.08363,0.002321,-0.0004464999999999,0.8752120000000001,-0.525654,0.0324605,1.116442,-0.475014,-0.0127574999999999,0.857742,-0.8779939999999999,-0.0244894999999999,1.100643,-0.864414,-0.0629575
48,1.007825,0.8292245,0.148933,0.813234,0.5567445,0.109073,0.581164,0.5318045,0.0116129999999999,1.186294,0.5532745,0.095927,1.391794,0.5323245,-0.0516,0.412934,0.5528745,-0.176147,1.553314,0.5679645,-0.2607669999999999,0.916371,-0.0023005,0.000496,1.083629,0.0023005,-0.000496,0.875394,-0.5199455,0.031515,1.116424,-0.4747655,-0.012815,0.857874,-0.8778555,-0.0242879999999999,1.100611,-0.8644555,-0.0632409999999999
49,1.007711,0.8291585,0.148624,0.813092,0.5567985,0.109236,0.581152,0.5316785,0.0114609999999999,1.186102,0.5532785,0.095515,1.391622,0.5322985,-0.052046,0.41294200000000003,0.5528485,-0.176316,1.552942,0.5676385,-0.261716,0.916378,-0.0022714999999999,0.0005399999999999,1.083622,0.0022715,-0.0005399999999999,0.875372,-0.5203814999999999,0.030859,1.116402,-0.4748215,-0.0132509999999999,0.857982,-0.8775015,-0.0243709999999999,1.1005989999999999,-0.8648915,-0.06356
50,1.0076,0.829137,0.148306,0.8128520000000001,0.5568569999999999,0.109435,0.581132,0.5315369999999999,0.011283,1.185962,0.5532969999999999,0.095106,1.3914819999999999,0.5322669999999999,-0.052487,0.41294200000000003,0.552837,-0.176534,1.552592,0.5672969999999999,-0.262684,0.916378,-0.002248,0.000591,1.083622,0.002248,-0.000591,0.875372,-0.521223,0.030257,1.116392,-0.475183,-0.013558,0.858082,-0.877143,-0.024442,1.100655,-0.864453,-0.063369
51,1.0075174999999998,0.8290925,0.1478445,0.8127105,0.5568825,0.1095075,0.5810705,0.5313825,0.0111284999999999,1.1858405,0.5533125,0.0946654999999999,1.3913605,0.5322625,-0.0529195,0.41289049999999994,0.5528225,-0.1767455,1.5522304999999998,0.5668225,-0.2636855,0.9163725,-0.0022225,0.0006614999999999,1.0836275,0.0022224999999999,-0.0006615,0.8755505000000001,-0.5164175,0.0292304999999999,1.1163905,-0.4755975,-0.0138675,0.8581505,-0.8767875,-0.0242945,1.1007305,-0.8636975,-0.0631755
52,1.007477,0.829007,0.1473325,0.812628,0.556917,0.1095204999999999,0.5810380000000002,0.531217,0.0109164999999999,1.185738,0.553297,0.0942075,1.391258,0.5323070000000001,-0.0533785,0.412998,0.5528270000000001,-0.1770675,1.552168,0.566427,-0.2647475,0.91636,-0.002201,0.0007834999999999,1.08364,0.002201,-0.0007834999999999,0.875578,-0.515613,0.0285355,1.116438,-0.475883,-0.0141874999999999,0.858218,-0.876413,-0.0241415,1.100873,-0.8642029999999999,-0.0636615
53,1.007408,0.828927,0.1468614999999999,0.812569,0.556957,0.1093635,0.580979,0.531067,0.0107074999999999,1.1855689999999999,0.553287,0.0937075,1.391149,0.532407,-0.0538285,0.413029,0.552797,-0.1773385,1.552109,0.566177,-0.2657785,0.916342,-0.0021869999999999,0.0008944999999999,1.083658,0.002187,-0.0008944999999999,0.8758589999999999,-0.510113,0.0275004999999999,1.116409,-0.475063,-0.0147295,0.858259,-0.875953,-0.0238455,1.100975,-0.864223,-0.0640335
54,1.007307,0.8287965,0.146393,0.8124390000000001,0.5569565,0.10951,0.580909,0.5308565,0.010459,1.185389,0.5533065,0.093204,1.391019,0.5323965,-0.054271,0.413099,0.5528065,-0.177647,1.552039,0.5657665000000001,-0.266827,0.9163250000000001,-0.0021814999999999,0.001002,1.083675,0.0021815,-0.0010019999999999,0.876119,-0.5053235,0.026433,1.116359,-0.4746734999999999,-0.0152389999999999,0.8582890000000001,-0.8754635,-0.0235769999999999,1.101095,-0.8645835,-0.064404
55,1.007224,0.8286565,0.145967,0.8123400000000001,0.5568965,0.10958,0.5808800000000001,0.5306265,0.0102519999999999,1.18522,0.5532865,0.092706,1.3909099999999999,0.5323264999999999,-0.054726,0.41320999999999997,0.5527164999999999,-0.177923,1.55196,0.5655365,-0.267933,0.916303,-0.0021764999999999,0.0010949999999999,1.083697,0.0021765,-0.001095,0.87615,-0.5059235000000001,0.0259509999999999,1.11628,-0.4740534999999999,-0.015843,0.85834,-0.8750135,-0.023445,1.101076,-0.8650135,-0.06471
56,1.007155,0.828452,0.1455265,0.812253,0.556792,0.1095535,0.580893,0.530312,0.0101084999999999,1.185133,0.553222,0.0922055,1.390803,0.532022,-0.0552675,0.4133629999999999,0.5526019999999999,-0.1782735,1.551903,0.565282,-0.2689235,0.916281,-0.0021779999999999,0.0011874999999999,1.083719,0.002178,-0.0011875,0.8764330000000001,-0.501098,0.0245774999999999,1.116213,-0.473458,-0.0165515,0.858453,-0.8748480000000001,-0.0235985,1.10105,-0.865448,-0.0654655
57,1.0070945,0.828212,0.1449905,0.8122564999999999,0.556612,0.1094845,0.5810365,0.5299619999999999,0.0099894999999999,1.1850865,0.5531119999999999,0.0917735,1.3906565,0.531602,-0.0558195,0.41364650000000003,0.552182,-0.1787194999999999,1.5518965,0.5648219999999999,-0.2697695,0.9162745,-0.0021939999999999,0.0012705,1.0837255,0.0021939999999999,-0.0012705,0.8767564999999999,-0.496258,0.0231754999999999,1.1161265,-0.472778,-0.0174045,0.8585765,-0.874868,-0.0236925,1.1010785,-0.866008,-0.0663715
58,1.0070569999999999,0.828191,0.1445035,0.812306,0.5565910000000001,0.1093335,0.581196,0.529941,0.0098745,1.185146,0.553091,0.0913425,1.3905059999999998,0.5315810000000001,-0.0564854999999999,0.4139860000000001,0.552161,-0.1792365,1.551776,0.564801,-0.2706265,0.916264,-0.002215,0.0013234999999999,1.083736,0.0022149999999999,-0.0013234999999999,0.877076,-0.490909,0.0221355,1.116036,-0.471819,-0.0185494999999999,0.858606,-0.8748689999999999,-0.0237664999999999,1.101078,-0.866319,-0.0676165
59,1.0070169999999998,0.8281799999999999,0.1439255,0.8123670000000001,0.55658,0.1091235,0.581317,0.5299299999999999,0.0096555,1.185197,0.5530799999999999,0.0907965,1.390307,0.53157,-0.0573145,0.41421699999999995,0.5521499999999999,-0.1797445,1.5516269999999999,0.5647899999999999,-0.2716245,0.9162440000000001,-0.0022259999999999,0.0013615,1.083756,0.0022259999999999,-0.0013615,0.877327,-0.48551,0.0208325,1.115837,-0.47067,-0.0202125,0.8586670000000001,-0.87488,-0.0241134999999999,1.101119,-0.8665400000000001,-0.0680345
60,1.0069885,0.8281799999999999,0.1431345,0.8124975,0.55658,0.1088185,0.5814575,0.5299299999999999,0.0093835,1.1852975,0.5530799999999999,0.0901185,1.3901275,0.53142,-0.0582084999999999,0.41425749999999995,0.5519999999999999,-0.1797555,1.5514175,0.56475,-0.2725955,0.9162205,-0.0022259999999999,0.0013905,1.0837795,0.0022259999999999,-0.0013904999999999,0.8773775,-0.4851499999999999,0.0196235,1.1156875,-0.46952,-0.0220375,0.8586075000000001,-0.87488,-0.0249075,1.1012395,-0.8663700000000001,-0.0682654999999999
61,1.0069404999999998,0.8277534999999999,0.1421255,0.8126365,0.5564735,0.1088794999999999,0.5816265,0.5296234999999999,0.0090984999999999,1.1853565,0.5529335,0.0893434999999999,1.3900565,0.5306734999999999,-0.0591925,0.41444649999999994,0.5517934999999999,-0.1802745,1.5511265,0.5641335,-0.2735045,0.9162145,-0.0022244999999999,0.0014645,1.0837855,0.0022245,-0.0014645,0.8772865000000001,-0.4848965,0.0178975,1.1155065,-0.4682064999999999,-0.0247804999999999,0.8585165000000001,-0.8749865,-0.0257615,1.1012795,-0.8664065000000001,-0.0685945
62,1.0068785,0.8272715,0.140967,0.8126805,0.5563115000000001,0.1089729999999999,0.5818505,0.5292415,0.0087339999999999,1.1854405,0.5527615,0.088651,1.3900105,0.5298315,-0.060294,0.4146105,0.5515515,-0.180973,1.5508305,0.5632915000000001,-0.274493,0.9162055,-0.0022354999999999,0.001562,1.0837945,0.0022355,-0.001562,0.8771405000000001,-0.4848785,0.015992,1.1154005,-0.4670984999999999,-0.027597,0.8586205,-0.8751685,-0.026613,1.1014095,-0.8666785,-0.068883
63,1.0068545,0.826746,0.139654,0.8128615,0.556016,0.1090599999999999,0.5821015,0.528746,0.0082189999999999,1.1855415,0.552506,0.0878529999999999,1.3899015000000001,0.5288160000000001,-0.061516,0.4149815,0.551176,-0.181786,1.5505214999999999,0.562156,-0.275746,0.9161885,-0.002254,0.0016669999999999,1.0838115,0.002254,-0.001667,0.8769415,-0.484584,0.0135889999999999,1.1152715,-0.466154,-0.03086,0.8586215,-0.875434,-0.027351,1.1013565,-0.867924,-0.069926
64,1.0069005,0.8261965,0.1379315,0.8131245,0.5556965,0.1088595,0.5824945,0.5282065,0.0076265,1.1857545,0.5519965,0.0868845,1.3900245,0.5277865,-0.0627834999999999,0.4157645,0.5505065,-0.1824984999999999,1.5503144999999998,0.5607365000000001,-0.2771185,0.9161785,-0.0022115,0.0018174999999999,1.0838215,0.0022114999999999,-0.0018174999999999,0.8769345,-0.4839035,0.0104855,1.1151845,-0.4650135,-0.0347965,0.8588745,-0.8752835,-0.0277024999999999,1.1015165,-0.8685835,-0.0706884999999999
65,1.007055,0.8256325,0.136132,0.813461,0.5552925,0.108556,0.582911,0.5274025,0.006925,1.186031,0.5513025,0.08578,1.3901810000000001,0.5268625,-0.064013,0.41654100000000005,0.5496225,-0.183068,1.550211,0.5593125,-0.278508,0.916126,-0.0021595,0.00198,1.083874,0.0021594999999999,-0.0019799999999999,0.876911,-0.4825875,0.006756,1.115071,-0.4631375,-0.0394269999999999,0.859171,-0.8745975,-0.0279359999999999,1.101759,-0.8684975,-0.0711479999999999
66,1.0071875,0.8249625,0.1340825,0.8138325,0.5545425,0.1076555,0.5833925,0.5265425,0.0060354999999999,1.1863225,0.5506025,0.0845805,1.3903825,0.5254525,-0.0653605,0.41717250000000006,0.5481425,-0.1841675,1.5501925,0.5578225,-0.2801574999999999,0.9160535,-0.0020784999999999,0.0021554999999999,1.0839465,0.0020785,-0.0021555,0.8764825,-0.4807775,0.0018764999999999,1.1148925,-0.4608475,-0.0445095,0.8595725,-0.8740675,-0.0284895,1.1020064999999999,-0.8679175,-0.0715675
67,1.0074485,0.824322,0.1315815,0.8144935,0.553792,0.1062984999999999,0.5840335,0.525802,0.0049464999999999,1.1867835,0.549652,0.0828675,1.3907334999999998,0.524172,-0.0668955,0.4173935,0.546722,-0.1848855,1.5503035,0.556252,-0.2819755,0.9159035000000001,-0.00196,0.0023134999999999,1.0840964999999998,0.00196,-0.0023135,0.8760935,-0.478608,-0.0033325,1.1148735,-0.4578979999999999,-0.0499855,0.8601635,-0.8731679999999999,-0.0295095,1.1023095,-0.866588,-0.0715155
68,1.007831,0.8237265,0.1284765,0.815438,0.5530965,0.1043665,0.584728,0.5248465,0.0034544999999999,1.187358,0.5487565,0.0807845,1.391248,0.5229465,-0.0688135,0.41807799999999995,0.5456065,-0.1863935,1.5506980000000001,0.5546665,-0.2838735,0.915714,-0.0017914999999999,0.0024634999999999,1.084286,0.0017914999999999,-0.0024635,0.875648,-0.4755135,-0.0091645,1.114938,-0.4544835,-0.0559855,0.8609280000000001,-0.8716135,-0.0300185,1.102763,-0.8650035,-0.0718535
69,1.0082995,0.822659,0.1244634999999999,0.8164285,0.5524089999999999,0.1020104999999999,0.5854585,0.523789,0.0015364999999999,1.1879085,0.5477989999999999,0.0783125,1.3918884999999999,0.521899,-0.0711205,0.41830849999999997,0.544469,-0.1876304999999999,1.5512385,0.5531889999999999,-0.2859305,0.9154975,-0.0015769999999999,0.0024934999999999,1.0845025,0.001577,-0.0024935,0.8751285,-0.472231,-0.0153665,1.1150085,-0.450311,-0.0630235,0.8618085,-0.869861,-0.0304895,1.1032385,-0.863151,-0.0725705
70,1.0088995,0.821833,0.1201715,0.8174865,0.551843,0.0993675,0.5861965,0.522683,-0.0006005,1.1885165,0.546903,0.0756575,1.3926965,0.520913,-0.0737195,0.4192165,0.543423,-0.1896395,1.5518865,0.551663,-0.2880595,0.9152395,-0.00134,0.0025174999999999,1.0847605,0.0013399999999999,-0.0025174999999999,0.8746265,-0.468667,-0.0214385,1.1152665,-0.446707,-0.0694795,0.8626665,-0.867857,-0.0309865,1.1039065,-0.860647,-0.0730695
71,1.009527,0.8212785,0.115468,0.8184480000000001,0.5512185,0.096109,0.586878,0.5217085,-0.002842,1.189098,0.5459885,0.072363,1.393608,0.5200385,-0.076607,0.419898,0.5424485,-0.191907,1.552568,0.5505285,-0.290357,0.914928,-0.0011434999999999,0.0025919999999999,1.085072,0.0011435,-0.002592,0.8740680000000001,-0.4645515,-0.027939,1.115518,-0.4427715,-0.076257,0.863588,-0.8649915,-0.031862,1.104587,-0.8577915,-0.073547
72,1.0100135,0.820551,0.1097155,0.8192915000000001,0.550891,0.0924695,0.5875015,0.520841,-0.0054615,1.1895715,0.5446810000000001,0.0682395,1.3944115,0.519371,-0.0800055,0.4204015000000001,0.5402610000000001,-0.1946355,1.5532715000000001,0.5497110000000001,-0.2930755,0.9145555,-0.000887,0.0027264999999999,1.0854445,0.0008869999999999,-0.0027264999999999,0.8734315,-0.459839,-0.0344485,1.1157215,-0.438739,-0.0831355,0.8645515,-0.8619089999999999,-0.0327735,1.1052635,-0.8544689999999999,-0.0738155
73,1.010244,0.8196995,0.103187,0.819999,0.5508195,0.088392,0.588009,0.5195695,-0.008326,1.189929,0.5439095,0.063606,1.395159,0.5188195,-0.084249,0.420709,0.5385995,-0.197739,1.5539290000000001,0.5487895,-0.296149,0.91401,-0.0006684999999999,0.0028239999999999,1.08599,0.0006685,-0.002824,0.872769,-0.4546405,-0.040887,1.115759,-0.4346905,-0.089869,0.865449,-0.8583705,-0.034032,1.105879,-0.8511105,-0.074829
74,1.010273,0.8187605,0.0953175,0.820615,0.5508204999999999,0.0833395,0.5883150000000001,0.5188205,-0.0120175,1.190045,0.5431305,0.0578184999999999,1.395645,0.5180105,-0.0891754999999999,0.420705,0.5368204999999999,-0.2013255,1.5545550000000001,0.5479704999999999,-0.2996755,0.913457,-0.0003504999999999,0.0027364999999999,1.086543,0.0003505,-0.0027365,0.872055,-0.4497695,-0.0472675,1.115685,-0.4303094999999999,-0.0965755,0.866225,-0.8546695000000001,-0.0358324999999999,1.106377,-0.8476595,-0.0767055
75,1.0101209999999998,0.8177575,0.086826,0.8210500000000001,0.5512075000000001,0.077971,0.58833,0.5182275,-0.0159969999999999,1.18993,0.5422775000000001,0.051223,1.39598,0.5178275,-0.094554,0.42064,0.5353575,-0.2049639999999999,1.5551,0.5468775,-0.303544,0.912903,-0.0001405,0.002696,1.087097,0.0001405,-0.0026959999999999,0.87151,-0.4449525,-0.0528849999999999,1.11558,-0.4254925,-0.103074,0.86683,-0.8505725,-0.038223,1.106775,-0.8435625,-0.078774
76,1.0096805,0.8170755,0.0777765,0.8209835,0.5514455,0.0718155,0.5880235,0.5173055,-0.0209154999999999,1.1894935,0.5418555,0.0441875,1.3960235,0.5176155,-0.1007194999999999,0.4200935,0.5341655000000001,-0.2091895,1.5554035000000002,0.5459355,-0.3083795,0.9124135,3.249999999999781e-05,0.0025745,1.0875865,-3.249999999999781e-05,-0.0025745,0.8708335,-0.4397145,-0.0587905,1.1151935,-0.4208645,-0.1098895,0.8673035,-0.8457445,-0.0399065,1.1070265,-0.8391145,-0.0812295
77,1.0091175,0.8161045,0.0676155,0.8208945,0.5515945,0.0650855,0.5878345,0.5169345,-0.0263465,1.1888045,0.5414245,0.0363985,1.3957945,0.5174345,-0.1074325,0.41945450000000006,0.5324745,-0.2141925,1.5555345,0.5449845,-0.3141525,0.9120245,0.0001215,0.0024775,1.0879755,-0.0001214999999999,-0.0024775,0.8700945,-0.4341055,-0.0646865,1.1146745,-0.4160454999999999,-0.1169025,0.8674445,-0.8401055000000001,-0.0426415,1.1070425,-0.8342955000000001,-0.0838425
78,1.008685,0.8156070000000001,0.0572555,0.82066,0.551977,0.0576265,0.58769,0.516177,-0.0323085,1.18815,0.541087,0.0280725,1.39567,0.517387,-0.1146205,0.41820999999999997,0.531587,-0.2195504999999999,1.55569,0.544287,-0.3204005,0.9117000000000001,9.60000000000058e-05,0.0023975,1.0882999999999998,-9.599999999999886e-05,-0.0023975,0.86928,-0.428543,-0.0706295,1.11409,-0.4117729999999999,-0.1237305,0.86755,-0.833343,-0.0449284999999999,1.106956,-0.828633,-0.0865305
79,1.008112,0.8149175,0.046403,0.820296,0.5522374999999999,0.049825,0.5872459999999999,0.5155375,-0.038692,1.187376,0.5407175,0.019255,1.395486,0.5176175,-0.122139,0.41689599999999993,0.5308275,-0.225619,1.5554359999999998,0.5436375,-0.327199,0.9114760000000001,0.0001854999999999,0.0023309999999999,1.0885239999999998,-0.0001855,-0.0023309999999999,0.8683460000000001,-0.4229825,-0.076939,1.113396,-0.4078925,-0.130719,0.867506,-0.8271625,-0.047861,1.1067589999999998,-0.8235425000000001,-0.089459
80,1.007299,0.8137464999999999,0.035121,0.819741,0.5526565,0.041954,0.5863510000000001,0.5149365,-0.0459819999999999,1.1864810000000001,0.5404865,0.0104369999999999,1.3951310000000001,0.5170965,-0.130182,0.41539100000000007,0.5300365,-0.232072,1.555081,0.5424265,-0.334242,0.911191,0.0001855,0.0022139999999999,1.088809,-0.0001854999999999,-0.002214,0.8673109999999999,-0.4188035,-0.083292,1.112593,-0.4050635,-0.137682,0.867221,-0.8213935,-0.051178,1.106536,-0.8177735,-0.091672
81,1.0063435,0.8127359999999999,0.023583,0.8190955,0.5527059999999999,0.033659,0.5853755,0.5142059999999999,-0.0533789999999999,1.1854955,0.540746,0.0015289999999999,1.3944955,0.516566,-0.138523,0.41404549999999996,0.530616,-0.238703,1.5547455000000001,0.541596,-0.341413,0.9108855,0.0002719999999999,0.0021569999999999,1.0891145,-0.000272,-0.0021569999999999,0.8661355,-0.415014,-0.090103,1.1115495,-0.402954,-0.144473,0.8663055,-0.815604,-0.0544329999999999,1.1057345,-0.812244,-0.093983
82,1.005203,0.811816,0.012453,0.818283,0.552486,0.025239,0.5843130000000001,0.513996,-0.060981,1.184273,0.540396,-0.0072179999999999,1.393863,0.515996,-0.146623,0.412513,0.530806,-0.245463,1.5543230000000001,0.540246,-0.348203,0.9106430000000001,0.0002619999999999,0.002205,1.089357,-0.0002619999999999,-0.0022049999999999,0.864853,-0.4120439999999999,-0.0962929999999999,1.110469,-0.400974,-0.151003,0.865353,-0.8104140000000001,-0.057427,1.104846,-0.8071740000000001,-0.0961829999999999
83,1.0040475,0.8107355,0.0018834999999999,0.8174075000000001,0.5522455,0.0172005,0.5832875,0.5136255000000001,-0.0682875,1.1831675,0.5401255,-0.0152755,1.3932075,0.5151955,-0.1544275,0.4113475000000001,0.5313355,-0.2524075,1.5539175,0.5384455,-0.3548475,0.9104375,0.0001845,0.0024905,1.0895625,-0.0001844999999999,-0.0024904999999999,0.8639475,-0.4094745,-0.1021175,1.1094255,-0.3994344999999999,-0.1570075,0.8643675,-0.8053545,-0.0602864999999999,1.1038195,-0.8026145,-0.0981875
84,1.0029409999999999,0.809778,-0.0087484999999999,0.816613,0.551798,0.0089975,0.582353,0.513158,-0.0757854999999999,1.182203,0.539928,-0.0233765,1.392503,0.514268,-0.1625765,0.410273,0.5318780000000001,-0.2595765,1.553363,0.536998,-0.3616565,0.910293,0.0001939999999999,0.0027185,1.089707,-0.0001939999999999,-0.0027185,0.863183,-0.407192,-0.1079965,1.108467,-0.397862,-0.1631365,0.8634430000000001,-0.799782,-0.0630495,1.102844,-0.797912,-0.1003164999999999
85,1.00182,0.8078000000000001,-0.0198475,0.815864,0.55138,0.0008644999999999,0.581474,0.51277,-0.0830745,1.181224,0.53915,-0.0317715,1.391864,0.51359,-0.1705295,0.40953400000000006,0.53245,-0.2667695,1.552904,0.53515,-0.3682395,0.910174,0.00025,0.0029564999999999,1.089826,-0.00025,-0.0029565,0.862544,-0.40548,-0.1137195,1.107621,-0.39634,-0.1689095,0.862684,-0.7943,-0.0657345,1.101955,-0.7927900000000001,-0.1023895
86,1.000708,0.806095,-0.030294,0.815287,0.550955,-0.0072029999999999,0.580517,0.512255,-0.090714,1.180287,0.538235,-0.039956,1.391187,0.512625,-0.178464,0.40894699999999995,0.533125,-0.274284,1.552487,0.533265,-0.374534,0.910077,0.000378,0.0031069999999999,1.089923,-0.000378,-0.003107,0.862067,-0.4042949999999999,-0.119134,1.106831,-0.394835,-0.174334,0.861757,-0.789385,-0.068434,1.101072,-0.7878850000000001,-0.104564
87,0.9996635,0.8041900000000001,-0.040497,0.8148245000000001,0.55016,-0.014845,0.5798145,0.51174,-0.098154,1.1793745,0.53727,-0.048133,1.3905845000000001,0.51141,-0.186374,0.4083144999999999,0.53315,-0.281624,1.5520245,0.53081,-0.381594,0.9099545,0.000576,0.0032679999999999,1.0900455,-0.0005759999999999,-0.003268,0.8617245,-0.4031,-0.124274,1.1061325,-0.39349,-0.179224,0.8609645000000001,-0.78445,-0.070753,1.1002575,-0.78274,-0.106054
88,0.9987600000000001,0.8023199999999999,-0.050501,0.8142790000000001,0.54906,-0.022717,0.579089,0.51117,-0.105576,1.178479,0.53649,-0.0560289999999999,1.389989,0.50997,-0.194196,0.40744899999999995,0.53127,-0.289296,1.551369,0.52824,-0.388226,0.909819,0.0006,0.003449,1.090181,-0.0005999999999999,-0.003449,0.861429,-0.40232,-0.128996,1.105437,-0.3922799999999999,-0.184006,0.860149,-0.77946,-0.073033,1.099504,-0.7780900000000001,-0.107686
89,0.9977815,0.8003750000000001,-0.0605725,0.8136215,0.547585,-0.0307475,0.5782415000000001,0.510745,-0.1126905,1.1775615,0.535235,-0.0643265,1.3894115,0.509105,-0.2018305,0.40663150000000003,0.529355,-0.2973005,1.5507515,0.526175,-0.3952505,0.9097315,0.0007449999999999,0.0036205,1.0902685,-0.0007449999999999,-0.0036205,0.8610615,-0.401065,-0.1336605,1.1047485,-0.390575,-0.1886205,0.8591915,-0.774145,-0.0749495,1.0985875,-0.773305,-0.1095405
90,0.9968635,0.798205,-0.0700145,0.8130965,0.546345,-0.0384475,0.5774765,0.509795,-0.1198195,1.1767465,0.533965,-0.0723004999999999,1.3888165,0.5080749999999999,-0.2091995,0.40602649999999996,0.527675,-0.3048995,1.5499364999999998,0.523775,-0.4021295,0.9096965,0.000765,0.0038405,1.0903035,-0.000765,-0.0038405,0.8607665,-0.399875,-0.1377895,1.1043125,-0.388995,-0.1933695,0.8588165,-0.769205,-0.0772294999999999,1.0981455,-0.768675,-0.1115395
91,0.995982,0.795725,-0.079507,0.8125170000000002,0.5448649999999999,-0.0460359999999999,0.576757,0.508615,-0.127189,1.176007,0.532915,-0.080181,1.388147,0.506885,-0.216439,0.40528699999999995,0.526435,-0.312469,1.549337,0.522125,-0.409359,0.909707,0.0008549999999999,0.003967,1.090293,-0.000855,-0.003967,0.860607,-0.3983549999999999,-0.1422189999999999,1.103886,-0.387075,-0.197979,0.858627,-0.7640150000000001,-0.079279,1.097695,-0.7633749999999999,-0.113499
92,0.9950555,0.79344,-0.08892,0.8119345,0.54323,-0.053689,0.5759145,0.50742,-0.134275,1.1751245,0.53191,-0.088175,1.3874645,0.50594,-0.223715,0.40489450000000005,0.52493,-0.319845,1.5486244999999998,0.5209,-0.417065,0.9097245,0.0008599999999999,0.004123,1.0902755,-0.0008599999999999,-0.004123,0.8604944999999999,-0.39708,-0.146675,1.1034355,-0.38519,-0.202795,0.8584245,-0.7589,-0.081393,1.0973084999999998,-0.75828,-0.115635
93,0.99389,0.7912049999999999,-0.09811,0.811246,0.541815,-0.061101,0.5752560000000001,0.505985,-0.141295,1.174086,0.530965,-0.095878,1.386816,0.505095,-0.2305749999999999,0.404366,0.5235650000000001,-0.327045,1.5477560000000001,0.519625,-0.424425,0.909736,0.0008849999999999,0.004286,1.090264,-0.0008849999999999,-0.004286,0.8606659999999999,-0.395785,-0.151005,1.103095,-0.383275,-0.207575,0.858326,-0.753965,-0.083584,1.096914,-0.753235,-0.117785
94,0.9926325000000001,0.789685,-0.1066535,0.8103025,0.540565,-0.0680574999999999,0.5742425,0.504725,-0.1482675,1.1730325,0.530375,-0.1030084999999999,1.3858825,0.504035,-0.2373475,0.40353250000000007,0.5217350000000001,-0.3341075,1.5469125,0.518645,-0.4315274999999999,0.9097625,0.0008649999999999,0.0044695,1.0902375,-0.000865,-0.0044695,0.8606125,-0.393235,-0.1554575,1.1026555,-0.3799949999999999,-0.2117375,0.8581725,-0.749335,-0.0860175,1.0965395,-0.748285,-0.1198574999999999
95,0.991485,0.788,-0.1149695,0.8094640000000001,0.53912,-0.0749115,0.5735140000000001,0.50285,-0.1546495,1.172044,0.52981,-0.1098995,1.385044,0.5031300000000001,-0.2436795,0.402834,0.51962,-0.3407595,1.546294,0.51761,-0.4385595,0.9097840000000001,0.00078,0.0047855,1.0902159999999999,-0.0007799999999999,-0.0047855,0.8600639999999999,-0.38841,-0.1599795,1.102413,-0.3751699999999999,-0.2158695,0.857844,-0.74451,-0.0887075,1.096148,-0.7440100000000001,-0.1226395
96,0.9903590000000001,0.7862750000000001,-0.1228399999999999,0.808624,0.537775,-0.081549,0.572774,0.501305,-0.16074,1.171034,0.5288550000000001,-0.1163199999999999,1.3842940000000001,0.502165,-0.24969,0.40182399999999996,0.517415,-0.34722,1.545604,0.516975,-0.44448,0.909803,0.0007449999999999,0.005114,1.090197,-0.0007449999999999,-0.005114,0.8594740000000001,-0.383675,-0.16446,1.102243,-0.3704349999999999,-0.21989,0.857314,-0.739455,-0.091395,1.09576,-0.739945,-0.12546
97,0.988304,0.78497,-0.1358145,0.8071880000000001,0.53703,-0.0932655,0.571368,0.50012,-0.1721945,1.169278,0.52844,-0.1280145,1.382608,0.5020800000000001,-0.2609545,0.400478,0.5167200000000001,-0.3585445,1.544138,0.51725,-0.4560245,0.910039,0.0006799999999999,0.0054524999999999,1.089961,-0.00068,-0.0054524999999999,0.858128,-0.37849,-0.1742545,1.101491,-0.3652499999999999,-0.2291945,0.856028,-0.73421,-0.0996525,1.094829,-0.73529,-0.1338945
98,0.986139,0.784445,-0.148754,0.805728,0.536955,-0.105051,0.569968,0.4985549999999999,-0.183744,1.167438,0.529045,-0.139504,1.380898,0.5025850000000001,-0.272244,0.399058,0.5165150000000001,-0.369634,1.542528,0.517535,-0.467914,0.910315,0.0005449999999999,0.0059649999999999,1.089685,-0.000545,-0.005965,0.8559880000000001,-0.369865,-0.191354,1.101171,-0.356975,-0.243624,0.8539680000000001,-0.728695,-0.11529,1.094336,-0.730235,-0.149324
99,0.983935,0.78389,-0.1615995,0.8042170000000001,0.53679,-0.1167685,0.5684470000000001,0.49761,-0.1952795,1.165587,0.52979,-0.1507895,1.379047,0.50189,-0.2833795,0.39745699999999995,0.5157499999999999,-0.3809595,1.541237,0.5178400000000001,-0.4797095,0.910621,0.00042,0.0064134999999999,1.089379,-0.00042,-0.0064135,0.853647,-0.35918,-0.2100995,1.10082,-0.34781,-0.2585095,0.8517370000000001,-0.7232799999999999,-0.1312875,1.094014,-0.7252799999999999,-0.1657695
100,0.9818355,0.78347,-0.173908,0.8027335,0.5368200000000001,-0.1282329999999999,0.5670435,0.49693,-0.206488,1.1637435,0.53043,-0.161988,1.3773735,0.5009600000000001,-0.2943179999999999,0.3957435,0.5138,-0.392298,1.5402135000000001,0.51818,-0.491378,0.9109165,0.0003399999999999,0.006767,1.0890835,-0.00034,-0.0067669999999999,0.8514035,-0.34864,-0.228318,1.1004315,-0.33835,-0.2733879999999999,0.8496035,-0.7185,-0.147838,1.0937915,-0.72028,-0.181958
101,0.979894,0.7827200000000001,-0.1860129999999999,0.801435,0.5367500000000001,-0.139446,0.565795,0.4959,-0.217783,1.162045,0.5311,-0.1729129999999999,1.375695,0.5004299999999999,-0.305043,0.393945,0.51198,-0.403493,1.539305,0.51814,-0.502373,0.911269,0.0002999999999999,0.006985,1.0887310000000001,-0.0002999999999999,-0.0069849999999999,0.849445,-0.33819,-0.2461129999999999,1.100172,-0.32869,-0.288023,0.847615,-0.7141200000000001,-0.164783,1.093775,-0.71536,-0.197853
102,0.977918,0.781935,-0.197854,0.8001050000000001,0.536555,-0.150578,0.5645550000000001,0.494805,-0.229204,1.160325,0.531335,-0.183564,1.374015,0.5001249999999999,-0.315484,0.392285,0.509945,-0.414414,1.538485,0.518065,-0.5132840000000001,0.911595,0.000255,0.0071449999999999,1.088405,-0.000255,-0.007145,0.847615,-0.327825,-0.263634,1.099788,-0.318805,-0.302424,0.845745,-0.7098949999999999,-0.181424,1.093669,-0.710655,-0.213654
103,0.9764065,0.78079,-0.209762,0.7991375000000001,0.53628,-0.161821,0.5637375,0.49376,-0.240562,1.1589775,0.5314300000000001,-0.194272,1.3727175,0.49981,-0.325802,0.39117749999999996,0.5078199999999999,-0.4254219999999999,1.5381575,0.51736,-0.5243720000000001,0.9116415,0.0001799999999999,0.007334,1.0883585,-0.00018,-0.0073339999999999,0.8461875,-0.31792,-0.280332,1.0998455,-0.30866,-0.316602,0.8445275000000001,-0.7062,-0.1977219999999999,1.0938175,-0.70602,-0.229422
104,0.9749045,0.7796,-0.221741,0.7981845000000001,0.53622,-0.172949,0.5628945000000001,0.49317,-0.252201,1.1575945,0.53144,-0.204951,1.3714245,0.4998,-0.336391,0.3899445,0.50569,-0.4363709999999999,1.5376745,0.51643,-0.535381,0.9117235,0.0001899999999999,0.0073349999999999,1.0882765,-0.0001899999999999,-0.007335,0.8446545,-0.30621,-0.297991,1.0996895,-0.2982,-0.330831,0.8428545000000001,-0.7022900000000001,-0.214941,1.0940284999999998,-0.70128,-0.245051
105,0.9734645000000001,0.7784599999999999,-0.2338385,0.7972175,0.53581,-0.1842985,0.5621175,0.49227,-0.2640285,1.1563275,0.53167,-0.2157485,1.3701675,0.49948,-0.3470784999999999,0.38869750000000003,0.5033799999999999,-0.4475785,1.5374375,0.5152,-0.5466985,0.9117225,0.0001099999999999,0.0073224999999999,1.0882775,-0.0001099999999999,-0.0073225,0.8433375000000001,-0.29573,-0.3142485,1.0995335,-0.28739,-0.3449685,0.8416175000000001,-0.69886,-0.2318785,1.0942835,-0.6964600000000001,-0.2610685
106,0.9729775,0.7767900000000001,-0.240691,0.7970305,0.53533,-0.190413,0.5620705000000001,0.49122,-0.270511,1.1556705,0.5309200000000001,-0.221431,1.3695405,0.4982499999999999,-0.352531,0.38813049999999993,0.5011399999999999,-0.453521,1.5377904999999998,0.5133300000000001,-0.552821,0.9118935,0.0002099999999999,0.007222,1.0881065,-0.00021,-0.0072219999999999,0.8427005,-0.28562,-0.326111,1.0999005,-0.27809,-0.353581,0.8404905,-0.6960299999999999,-0.244941,1.0947305,-0.69235,-0.271721
107,0.9726515,0.7741499999999999,-0.2474024999999999,0.7970145000000001,0.53359,-0.1960525,0.5620145000000001,0.49038,-0.2766525,1.1552245,0.52901,-0.2268325,1.3691045,0.49638,-0.3576925,0.38786449999999995,0.49811,-0.4593225,1.5382045,0.5111600000000001,-0.5581524999999999,0.9121445,0.0003099999999999,0.0069275,1.0878555,-0.00031,-0.0069275,0.8427845,-0.282,-0.3300625,1.0998344999999998,-0.27354,-0.3574925,0.8402944999999999,-0.69418,-0.2495325,1.0947395,-0.6886700000000001,-0.2756425
108,0.9722965000000001,0.7713050000000001,-0.2543225,0.7968525,0.531455,-0.2019125,0.5619125,0.489045,-0.2827725,1.1547725,0.527105,-0.2322924999999999,1.3687325000000001,0.494565,-0.3629325,0.3874925,0.495395,-0.4652225,1.5385525,0.5086550000000001,-0.5637025,0.9124155,0.000375,0.0065975,1.0875845,-0.0003749999999999,-0.0065974999999999,0.8428325,-0.278265,-0.3341625,1.0997625,-0.2695149999999999,-0.3615825,0.8401525,-0.6919150000000001,-0.2539025,1.0946704999999999,-0.6847449999999999,-0.2797925
109,0.97222,0.76824,-0.2616935,0.796999,0.52898,-0.2078034999999999,0.562079,0.48763,-0.2889835,1.154649,0.525,-0.2379035,1.3686989999999999,0.49337,-0.3684134999999999,0.3875390000000001,0.49309,-0.4709735,1.539079,0.5059400000000001,-0.5693035,0.9124770000000001,0.0003799999999999,0.0063565,1.087523,-0.0003799999999999,-0.0063565,0.843079,-0.27446,-0.3384935,1.100049,-0.2655499999999999,-0.3659135,0.840399,-0.6898299999999999,-0.2582335,1.094911,-0.68094,-0.2844635
110,0.972207,0.765055,-0.268975,0.797189,0.5262249999999999,-0.213735,0.5622990000000001,0.485725,-0.295085,1.154589,0.522525,-0.243525,1.368729,0.491735,-0.373925,0.3875890000000001,0.490505,-0.476905,1.539539,0.503275,-0.574955,0.912465,0.000375,0.0060949999999999,1.087535,-0.0003749999999999,-0.006095,0.844069,-0.2706349999999999,-0.342685,1.100399,-0.2615849999999999,-0.369685,0.840759,-0.686275,-0.262815,1.095204,-0.676975,-0.289195
111,0.972252,0.7613449999999999,-0.2761599999999999,0.797437,0.523335,-0.21948,0.5625370000000001,0.484145,-0.30101,1.154617,0.5202150000000001,-0.2491,1.368907,0.489785,-0.37952,0.38769699999999996,0.488215,-0.48289,1.540027,0.500365,-0.58056,0.912477,0.000345,0.00586,1.087523,-0.0003449999999999,-0.00586,0.845207,-0.268715,-0.34492,1.100827,-0.2575949999999999,-0.37278,0.841337,-0.684795,-0.26724,1.095383,-0.6729849999999999,-0.29302
112,0.972567,0.757745,-0.2831599999999999,0.797942,0.5202450000000001,-0.22515,0.5630120000000001,0.481995,-0.30703,1.154772,0.517855,-0.25472,1.369192,0.487575,-0.38516,0.387992,0.486105,-0.48905,1.540742,0.497935,-0.58613,0.9124740000000001,0.0003449999999999,0.00572,1.087526,-0.000345,-0.0057199999999999,0.846442,-0.266525,-0.3478,1.101462,-0.253405,-0.3758,0.842292,-0.682685,-0.27141,1.095688,-0.668795,-0.2971899999999999
113,0.9729800000000001,0.753735,-0.28967,0.7984800000000001,0.516975,-0.23053,0.56359,0.479695,-0.31265,1.15492,0.515285,-0.25996,1.36937,0.485045,-0.39048,0.38841000000000003,0.483255,-0.49497,1.54135,0.495555,-0.59144,0.912451,0.000315,0.00568,1.087549,-0.000315,-0.00568,0.84756,-0.2640949999999999,-0.35078,1.10217,-0.249425,-0.37854,0.84335,-0.680145,-0.27468,1.09604,-0.6650149999999999,-0.30109
114,0.9732805000000001,0.749575,-0.29616,0.7988915,0.513475,-0.23598,0.5639815,0.477175,-0.31833,1.1549515,0.5126850000000001,-0.2651,1.3694015,0.482565,-0.39561,0.3888815,0.480245,-0.50088,1.5416615,0.493295,-0.59664,0.9124155,0.000315,0.0056199999999999,1.0875845,-0.000315,-0.00562,0.8483815,-0.261055,-0.35382,1.1028315,-0.245255,-0.38138,0.8446215,-0.677275,-0.27803,1.0963765,-0.661115,-0.3051
115,0.9733725,0.745305,-0.302335,0.7990865,0.509855,-0.241115,0.5641864999999999,0.4747949999999999,-0.323825,1.1547465,0.510255,-0.269995,1.3691865,0.480255,-0.400495,0.38907650000000005,0.477535,-0.506465,1.5419765,0.491315,-0.601445,0.9124125,0.000195,0.0054649999999999,1.0875875,-0.000195,-0.005465,0.8488964999999999,-0.257705,-0.356595,1.1033265,-0.241025,-0.384185,0.8456865,-0.673905,-0.281535,1.0965805,-0.657155,-0.308745
116,0.9733295,0.741115,-0.30811,0.7992295,0.506665,-0.2462,0.5642095,0.4716249999999999,-0.32926,1.1544895,0.508245,-0.2747199999999999,1.3688794999999998,0.477695,-0.40528,0.38926950000000005,0.4747949999999999,-0.51199,1.5422295,0.4886049999999999,-0.60622,0.9123755,8.500000000000174e-05,0.0053499999999999,1.0876245,-8.500000000000174e-05,-0.0053499999999999,0.8492995,-0.254075,-0.35991,1.1037895,-0.236925,-0.3867699999999999,0.8465695,-0.6703450000000001,-0.28529,1.0967794999999998,-0.6533450000000001,-0.3124
117,0.9733395,0.73684,-0.3131699999999999,0.7992235,0.50401,-0.2507899999999999,0.5641935,0.46887,-0.33426,1.1541335,0.5057,-0.27917,1.3685934999999998,0.4762699999999999,-0.40981,0.3894135000000001,0.47099,-0.51721,1.5422735,0.48582,-0.6103099999999999,0.9123725,-1.000000000001e-05,0.00521,1.0876275,1.000000000001e-05,-0.0052099999999999,0.8496935000000001,-0.24983,-0.3631,1.1042635,-0.23288,-0.38915,0.8476435,-0.6661,-0.2880199999999999,1.0969765,-0.6496200000000001,-0.3157799999999999
118,0.9731905,0.732495,-0.318185,0.7991685,0.5012449999999999,-0.255615,0.5641985,0.465455,-0.339385,1.1536885,0.503295,-0.283605,1.3681885,0.474125,-0.414275,0.3894685,0.4676949999999999,-0.5225150000000001,1.5419785,0.483055,-0.614445,0.9123935,-0.0001249999999999,0.005055,1.0876065,0.000125,-0.005055,0.8499485,-0.2453949999999999,-0.366145,1.1047085,-0.228555,-0.391655,0.8484585,-0.661195,-0.290925,1.0972145,-0.645605,-0.3192549999999999
119,0.972972,0.72831,-0.323345,0.799043,0.49882,-0.260445,0.5642130000000001,0.46251,-0.344675,1.153273,0.5010699999999999,-0.287935,1.367813,0.47239,-0.418775,0.38967300000000005,0.4646,-0.527665,1.541683,0.4803999999999999,-0.6185849999999999,0.912456,-0.00027,0.004915,1.087544,0.0002699999999999,-0.004915,0.850333,-0.24059,-0.369365,1.1052629999999999,-0.22384,-0.394365,0.849403,-0.65635,-0.293975,1.097536,-0.64117,-0.3229349999999999
120,0.9727975,0.72458,-0.328375,0.7988255,0.49626,-0.265255,0.5642655,0.45942,-0.350135,1.1528055,0.4987399999999999,-0.292165,1.3673454999999999,0.47018,-0.423145,0.38975550000000003,0.45942,-0.5329349999999999,1.5413055,0.4775399999999999,-0.622845,0.9125175000000001,-0.0004199999999999,0.004785,1.0874825,0.0004199999999999,-0.0047849999999999,0.8505355,-0.2354899999999999,-0.373075,1.1059155,-0.21897,-0.3971949999999999,0.8502755,-0.65123,-0.297505,1.0979195,-0.63654,-0.326745
121,0.9725495000000001,0.7205400000000001,-0.333295,0.7986044999999999,0.49365,-0.270035,0.5642345,0.45592,-0.355255,1.1523345,0.49634,-0.296255,1.3667945000000001,0.4680500000000001,-0.427455,0.38966449999999997,0.45469,-0.537965,1.5406045,0.47435,-0.6267750000000001,0.9126045,-0.0005799999999999,0.004555,1.0873955,0.00058,-0.004555,0.8504645,-0.2306899999999999,-0.3763849999999999,1.1064145,-0.2140799999999999,-0.400005,0.8509545000000001,-0.64628,-0.300885,1.0981435,-0.6317799999999999,-0.330345
122,0.972503,0.716585,-0.338435,0.798583,0.491085,-0.274845,0.564403,0.452865,-0.360415,1.152023,0.494165,-0.300435,1.366303,0.465405,-0.431685,0.389583,0.451075,-0.543115,1.539973,0.471345,-0.630715,0.912709,-0.000755,0.0043149999999999,1.087291,0.000755,-0.004315,0.850433,-0.2257549999999999,-0.379945,1.107083,-0.208665,-0.403125,0.851643,-0.641555,-0.304525,1.098468,-0.626505,-0.334185
123,0.9727815,0.71236,-0.343485,0.7988035,0.48928,-0.279365,0.5647035,0.45015,-0.365325,1.1519335,0.49202,-0.304645,1.3659335000000001,0.46174,-0.435925,0.3896934999999999,0.44834,-0.548005,1.5392635000000001,0.46791,-0.634515,0.9128835,-0.00089,0.004055,1.0871165,0.00089,-0.004055,0.8504134999999999,-0.22069,-0.383585,1.1079435,-0.2030699999999999,-0.406315,0.8520535,-0.6365099999999999,-0.308285,1.0988985,-0.6210800000000001,-0.338015
124,0.9730665000000001,0.708225,-0.348425,0.7990755,0.486965,-0.283785,0.5650255,0.447355,-0.370075,1.1520655,0.489845,-0.308545,1.3656355,0.458045,-0.440035,0.3900055,0.443955,-0.552675,1.5383955,0.463905,-0.638215,0.9131125,-0.001035,0.0038949999999999,1.0868875,0.001035,-0.003895,0.8503455,-0.2155349999999999,-0.387065,1.1087855,-0.197405,-0.409325,0.8524455,-0.631515,-0.312025,1.0993324999999998,-0.615605,-0.341745
125,0.973314,0.704385,-0.353085,0.799376,0.484975,-0.287825,0.565366,0.444805,-0.374505,1.152206,0.487465,-0.312255,1.365376,0.455115,-0.443995,0.390296,0.440605,-0.556895,1.537486,0.460485,-0.641605,0.9133290000000001,-0.0011349999999999,0.003755,1.086671,0.0011349999999999,-0.003755,0.850166,-0.2101549999999999,-0.3903649999999999,1.1096759999999999,-0.191305,-0.412165,0.852796,-0.626285,-0.315565,1.099755,-0.609605,-0.345375
126,0.9735535000000001,0.700805,-0.357575,0.7996705,0.482685,-0.291725,0.5658605,0.442555,-0.378945,1.1524805,0.485225,-0.315835,1.3653905,0.451125,-0.448135,0.39067050000000003,0.437855,-0.561035,1.5368405,0.457095,-0.644985,0.9134995,-0.001255,0.0036749999999999,1.0865005,0.001255,-0.003675,0.8499205,-0.204395,-0.393695,1.1105605,-0.184875,-0.414915,0.8529205,-0.620735,-0.319955,1.1001535,-0.603225,-0.348975
127,0.9739915,0.697215,-0.36165,0.8000235,0.480795,-0.29531,0.5664534999999999,0.440215,-0.38296,1.1528435,0.482775,-0.31924,1.3655534999999999,0.447845,-0.45206,0.3912034999999999,0.435555,-0.5648299999999999,1.5364335,0.453125,-0.64807,0.9137225,-0.001255,0.0036599999999999,1.0862775,0.001255,-0.00366,0.8497035,-0.1981149999999999,-0.39674,1.1115835,-0.1785749999999999,-0.41744,0.8531535,-0.614975,-0.32377,1.1008395,-0.5969249999999999,-0.35228
128,0.9746245000000001,0.69406,-0.36539,0.8004475,0.47882,-0.29872,0.5669675000000001,0.43848,-0.3867199999999999,1.1531075,0.48079,-0.32252,1.3655775,0.44449,-0.45579,0.3917075,0.43199,-0.56862,1.5356475,0.4493,-0.65107,0.9139605000000001,-0.00123,0.00365,1.0860394999999998,0.00123,-0.0036499999999999,0.8494375000000001,-0.19183,-0.39979,1.1125475,-0.17229,-0.41999,0.8531275,-0.60869,-0.32779,1.1016425,-0.59064,-0.35549
129,0.9749315,0.6906650000000001,-0.36904,0.8006275,0.477465,-0.3019799999999999,0.5673375,0.436605,-0.39017,1.1529875,0.478215,-0.32594,1.3651075,0.441615,-0.45947,0.39212749999999996,0.430385,-0.57229,1.5345675,0.445765,-0.65398,0.9141595,-0.001085,0.00363,1.0858405,0.001085,-0.0036299999999999,0.8488175,-0.185465,-0.4027499999999999,1.1131875,-0.1658649999999999,-0.42249,0.8526175,-0.602325,-0.33155,1.1020995,-0.584275,-0.35862
130,0.9753134999999999,0.68745,-0.37258,0.8008165,0.47629,-0.3051399999999999,0.5676965,0.43585,-0.39369,1.1529065,0.47606,-0.32919,1.3645365,0.43865,-0.46293,0.39265649999999996,0.42834,-0.57587,1.5334165,0.44256,-0.6571199999999999,0.9142745,-0.00095,0.00362,1.0857255,0.00095,-0.0036199999999999,0.8482065,-0.17895,-0.4057699999999999,1.1137265,-0.15902,-0.4250899999999999,0.8519965,-0.59565,-0.33486,1.1024684999999999,-0.5775300000000001,-0.36165
131,0.9757215,0.684515,-0.376035,0.8009565,0.474715,-0.308525,0.5680565,0.434075,-0.397015,1.1527465000000001,0.474055,-0.332395,1.3639165,0.436125,-0.4665049999999999,0.3934565,0.425673,-0.579475,1.5321765,0.438805,-0.660145,0.9143035,-0.0008949999999999,0.0036049999999999,1.0856965,0.000895,-0.0036049999999999,0.8474665,-0.1724249999999999,-0.408795,1.1142365,-0.1522349999999999,-0.427725,0.8512065,-0.588955,-0.338005,1.1027815,-0.570855,-0.364405
132,0.976138,0.681655,-0.37922,0.801184,0.473115,-0.31178,0.5683739999999999,0.432609,-0.40041,1.1526139999999998,0.472175,-0.33537,1.3631739999999999,0.433655,-0.47019,0.394134,0.422275,-0.58313,1.531034,0.435445,-0.66325,0.914379,-0.0008949999999999,0.0036499999999999,1.085621,0.000895,-0.00365,0.846504,-0.1659149999999999,-0.41172,1.114804,-0.1456049999999999,-0.43008,0.850194,-0.582925,-0.34116,1.103152,-0.564345,-0.36693
133,0.9764455,0.67853,-0.3824349999999999,0.8014585000000001,0.4716499999999999,-0.3148649999999999,0.5689185,0.4301429999999999,-0.4036949999999999,1.1524585,0.4703299999999999,-0.3381849999999999,1.3624785,0.431484,-0.473555,0.39486850000000007,0.420052,-0.5866849999999999,1.5298585,0.4320139999999999,-0.666385,0.9145245,-0.00092,0.003655,1.0854755,0.0009199999999999,-0.0036549999999999,0.8453085000000001,-0.159,-0.4144449999999999,1.1155385,-0.13907,-0.432135,0.8489485,-0.57628,-0.3443349999999999,1.1032975,-0.5579200000000001,-0.368795
134,0.9765870000000001,0.67528,-0.3856549999999999,0.8016630000000001,0.47024,-0.318005,0.5692630000000001,0.428168,-0.406995,1.152213,0.46857,-0.3409949999999999,1.361763,0.429025,-0.476875,0.395493,0.4167,-0.5903849999999999,1.528483,0.428631,-0.669825,0.914727,-0.0009199999999999,0.003565,1.085273,0.00092,-0.0035649999999999,0.844013,-0.1521699999999999,-0.4170549999999999,1.116383,-0.13257,-0.434135,0.847663,-0.5696599999999999,-0.347345,1.103297,-0.55146,-0.370715
135,0.976475,0.6717299999999999,-0.389255,0.801783,0.4685699999999999,-0.321195,0.5696730000000001,0.42538,-0.410505,1.151783,0.4669799999999999,-0.343895,1.361083,0.4273129999999999,-0.479855,0.396193,0.4135089999999999,-0.594185,1.527273,0.425315,-0.673415,0.914885,-0.00097,0.003395,1.085115,0.0009699999999999,-0.0033949999999999,0.842433,-0.14516,-0.419645,1.117223,-0.12581,-0.436215,0.846373,-0.56272,-0.3492349999999999,1.103017,-0.54472,-0.372695
136,0.9760805000000001,0.668385,-0.39271,0.8017685000000001,0.466865,-0.32423,0.5699185,0.423183,-0.41402,1.1510385,0.465445,-0.34661,1.3602885,0.425157,-0.48263,0.39682850000000003,0.408865,-0.5980099999999999,1.5261185,0.422506,-0.6768799999999999,0.9150435000000001,-0.001095,0.00313,1.0849564999999999,0.001095,-0.0031299999999999,0.8405385000000001,-0.138185,-0.42218,1.1178685,-0.119215,-0.4381899999999999,0.8448785,-0.555795,-0.35143,1.1024365,-0.538065,-0.37456
137,0.975666,0.66437,-0.39609,0.801708,0.46516,-0.32735,0.570218,0.420317,-0.41756,1.150348,0.46364,-0.34944,1.359388,0.4225839999999999,-0.4855,0.3973580000000001,0.405764,-0.60177,1.524788,0.419695,-0.68045,0.915202,-0.0012099999999999,0.0029299999999999,1.084798,0.0012099999999999,-0.0029299999999999,0.837968,-0.1267599999999999,-0.4249199999999999,1.1185379999999998,-0.11276,-0.4401,0.843348,-0.54423,-0.35333,1.101929,-0.53159,-0.37611
138,0.9753155,0.6604099999999999,-0.399425,0.8016445,0.463292,-0.330435,0.5704745,0.417696,-0.420955,1.1497145,0.462528,-0.351995,1.3587345,0.4198989999999999,-0.488315,0.3977545,0.402143,-0.605255,1.5235045,0.416949,-0.684295,0.9153275,-0.00139,0.0027149999999999,1.0846725,0.00139,-0.002715,0.8354045,-0.11813,-0.427065,1.1192845,-0.10676,-0.441655,0.8417844999999999,-0.53556,-0.355545,1.1016074999999999,-0.52559,-0.377615
139,0.9750035000000001,0.6566749999999999,-0.40269,0.8016635,0.4614749999999999,-0.33343,0.5709235000000001,0.4143739999999999,-0.4243599999999999,1.1490735,0.4609099999999999,-0.35446,1.3573635,0.4161069999999999,-0.49155,0.3982435,0.3985299999999999,-0.6087,1.5221535,0.4141959999999999,-0.68773,0.9154425,-0.001505,0.0025499999999999,1.0845575,0.0015049999999999,-0.0025499999999999,0.8328635,-0.109915,-0.4289699999999999,1.1200835,-0.100975,-0.4431,0.8403835,-0.527335,-0.35744,1.1013785,-0.519785,-0.37902
140,0.974793,0.6526799999999999,-0.405965,0.801905,0.460136,-0.3360649999999999,0.571585,0.411597,-0.4276649999999999,1.148505,0.459048,-0.3568449999999999,1.356075,0.412402,-0.494535,0.39893500000000004,0.395003,-0.611895,1.5209450000000002,0.411283,-0.691085,0.91554,-0.0015199999999999,0.002345,1.08446,0.00152,-0.0023449999999999,0.830545,-0.1030399999999999,-0.430685,1.120995,-0.0957899999999999,-0.444275,0.8391649999999999,-0.5204799999999999,-0.359375,1.101156,-0.51462,-0.380685
141,0.974849,0.648935,-0.409275,0.802548,0.4583419999999999,-0.338775,0.5726380000000001,0.408617,-0.430915,1.148198,0.456926,-0.359095,1.355148,0.410123,-0.497405,0.399888,0.391246,-0.614965,1.520688,0.4080519999999999,-0.694315,0.915516,-0.001475,0.002085,1.084484,0.001475,-0.002085,0.828808,-0.096445,-0.432345,1.122098,-0.090815,-0.445335,0.838518,-0.5139050000000001,-0.361255,1.101266,-0.509595,-0.382155
142,0.9750115000000001,0.6454,-0.412305,0.8032425,0.456527,-0.341415,0.5735525,0.40632,-0.433975,1.1478525,0.454786,-0.361345,1.3542424999999998,0.407598,-0.500275,0.40107249999999994,0.387107,-0.618005,1.5203725000000001,0.405386,-0.6977150000000001,0.9154955,-0.00139,0.0018649999999999,1.0845045,0.00139,-0.001865,0.8273025,-0.0898999999999999,-0.434005,1.1230525,-0.08603,-0.446285,0.8380825000000001,-0.50732,-0.3630649999999999,1.1014045,-0.5048299999999999,-0.383505
143,0.9752205,0.6417649999999999,-0.415105,0.8039195,0.4547029999999999,-0.343975,0.5745095,0.403877,-0.436895,1.1475795,0.452739,-0.363405,1.3532994999999999,0.404597,-0.503035,0.4021895,0.383281,-0.620815,1.5191695,0.402474,-0.700525,0.9154805,-0.001305,0.001705,1.0845195,0.001305,-0.0017049999999999,0.8259395,-0.083335,-0.435535,1.1239095,-0.081105,-0.447065,0.8376095,-0.500745,-0.3647749999999999,1.1014245,-0.499805,-0.3844349999999999
144,0.975823,0.6385350000000001,-0.41777,0.804864,0.453301,-0.3464399999999999,0.5756140000000001,0.401767,-0.43944,1.147694,0.450485,-0.36526,1.352694,0.40141,-0.5056499999999999,0.403544,0.379265,-0.62329,1.518634,0.399287,-0.70343,0.915574,-0.0011149999999999,0.00162,1.0844260000000001,0.001115,-0.00162,0.8251740000000001,-0.0771049999999999,-0.43699,1.125064,-0.0764049999999999,-0.44773,0.837474,-0.4946149999999999,-0.3666399999999999,1.1016059999999999,-0.4950249999999999,-0.38525
145,0.9766135,0.635085,-0.42041,0.8059675,0.452024,-0.34885,0.5770275,0.399319,-0.44191,1.1479075,0.448567,-0.36708,1.3521675,0.398128,-0.50832,0.4048575000000001,0.37597,-0.62558,1.5180975,0.396423,-0.70628,0.9156685,-0.0009349999999999,0.0016499999999999,1.0843315,0.000935,-0.00165,0.8245975,-0.0681949999999999,-0.43823,1.1263075,-0.0716349999999999,-0.44843,0.8376574999999999,-0.4857849999999999,-0.36814,1.1017305,-0.490105,-0.38646
146,0.9774425000000001,0.6319950000000001,-0.4229,0.8071475,0.450509,-0.35106,0.5784875,0.397029,-0.44427,1.1481975,0.446536,-0.3687,1.3516275,0.394864,-0.5108900000000001,0.4062475,0.372451,-0.62767,1.5177675000000002,0.392329,-0.7093499999999999,0.9157655000000001,-0.0007449999999999,0.0017399999999999,1.0842345,0.0007449999999999,-0.00174,0.8248275,-0.0622849999999999,-0.43939,1.1275775000000001,-0.0671249999999999,-0.4490699999999999,0.8380974999999999,-0.479805,-0.36917,1.1019915,-0.4854149999999999,-0.38721
147,0.978295,0.628835,-0.42537,0.808408,0.448683,-0.3530799999999999,0.5800880000000002,0.394379,-0.44638,1.148558,0.44451,-0.37014,1.351138,0.391577,-0.51336,0.407558,0.369006,-0.6294500000000001,1.517608,0.388372,-0.71188,0.915869,-0.0005649999999999,0.0018299999999999,1.084131,0.000565,-0.0018299999999999,0.825268,-0.0570249999999999,-0.44027,1.128838,-0.0629349999999999,-0.44963,0.838568,-0.474595,-0.37033,1.102347,-0.481105,-0.38783
148,0.979169,0.625345,-0.427715,0.8097960000000001,0.446913,-0.354865,0.581626,0.391764,-0.448245,1.149056,0.4426859999999999,-0.371485,1.351316,0.389601,-0.515185,0.40894600000000003,0.3653389999999999,-0.631005,1.518816,0.384028,-0.7144250000000001,0.9159660000000001,-0.0003049999999999,0.0018749999999999,1.084034,0.0003049999999999,-0.001875,0.825746,-0.050425,-0.441015,1.130236,-0.059115,-0.450135,0.8391060000000001,-0.467995,-0.371085,1.103073,-0.477265,-0.388065
149,0.98012,0.622175,-0.429675,0.81114,0.445108,-0.356435,0.58317,0.389133,-0.449965,1.14963,0.441016,-0.3727749999999999,1.35142,0.38749,-0.517065,0.4103,0.361262,-0.632215,1.51993,0.38046,-0.717245,0.9160540000000001,-7.499999999999174e-05,0.001945,1.0839459999999999,7.499999999999174e-05,-0.001945,0.82639,-0.0485049999999999,-0.441045,1.13161,-0.055485,-0.4505949999999999,0.8398,-0.466315,-0.371915,1.1038409999999999,-0.473615,-0.388275
150,0.9811125,0.61929,-0.43145,0.8125105000000001,0.443777,-0.35778,0.5848305,0.38665,-0.45141,1.1502705,0.439792,-0.37397,1.3515705,0.385553,-0.51844,0.4119205,0.357524,-0.63338,1.5196105,0.3772979999999999,-0.7186300000000001,0.9162025,0.0001599999999999,0.00201,1.0837975,-0.0001599999999999,-0.0020099999999999,0.8271105000000001,-0.04654,-0.44145,1.1331005,-0.0517,-0.45097,0.8406605,-0.46435,-0.37294,1.1047215,-0.46992,-0.3889
151,0.981866,0.61627,-0.43346,0.813617,0.442221,-0.35923,0.5862769999999999,0.383789,-0.45295,1.150827,0.4386899999999999,-0.37533,1.351597,0.3832959999999999,-0.52017,0.41316699999999995,0.35363,-0.63469,1.518987,0.373323,-0.71965,0.91634,0.0003299999999999,0.0021599999999999,1.08366,-0.0003299999999999,-0.00216,0.827827,-0.04304,-0.44194,1.134367,-0.0482,-0.45143,0.841377,-0.46085,-0.37402,1.105486,-0.4666,-0.39006
152,0.982593,0.613285,-0.435515,0.814701,0.440511,-0.360635,0.5877610000000001,0.38087,-0.454405,1.1513309999999999,0.437616,-0.376695,1.3516409999999999,0.381278,-0.5218849999999999,0.414281,0.349591,-0.635875,1.518851,0.369814,-0.7207250000000001,0.916442,0.000475,0.0023349999999999,1.083558,-0.000475,-0.002335,0.828431,-0.041935,-0.442485,1.135591,-0.045235,-0.451875,0.842071,-0.459845,-0.375205,1.106217,-0.4637449999999999,-0.391245
153,0.9829600000000001,0.6104,-0.43723,0.815468,0.438691,-0.3619,0.5888880000000001,0.378066,-0.45579,1.151548,0.43655,-0.3779599999999999,1.351558,0.378941,-0.52301,0.4151480000000001,0.345767,-0.6369400000000001,1.518578,0.365444,-0.7216800000000001,0.9165290000000001,0.00057,0.00249,1.0834709999999999,-0.0005699999999999,-0.0024899999999999,0.828768,-0.03924,-0.44288,1.136428,-0.0424199999999999,-0.4522899999999999,0.842518,-0.4573399999999999,-0.37626,1.10669,-0.4610299999999999,-0.39226
154,0.983184,0.608,-0.438795,0.816115,0.4367289999999999,-0.362995,0.589725,0.3755619999999999,-0.456995,1.151755,0.4354539999999999,-0.379035,1.351265,0.3766889999999999,-0.523935,0.415845,0.341653,-0.637685,1.5182250000000002,0.3612359999999999,-0.722475,0.916588,0.0006899999999999,0.0026049999999999,1.083412,-0.00069,-0.0026049999999999,0.829005,-0.03651,-0.443215,1.1371850000000001,-0.03976,-0.452635,0.842775,-0.4547800000000001,-0.377035,1.1071879999999998,-0.45855,-0.393325
155,0.983393,0.60589,-0.440305,0.816675,0.435467,-0.363965,0.590625,0.37314,-0.458015,1.151955,0.434562,-0.380045,1.350995,0.374656,-0.5246850000000001,0.41657500000000003,0.337686,-0.638395,1.517415,0.358053,-0.7228749999999999,0.9166400000000001,0.0008,0.0026249999999999,1.0833599999999999,-0.0007999999999999,-0.002625,0.829265,-0.0326599999999999,-0.443435,1.137975,-0.0367599999999999,-0.452875,0.843075,-0.4510499999999999,-0.377565,1.10735,-0.45548,-0.393085
156,0.983449,0.6041000000000001,-0.441675,0.817158,0.434214,-0.364855,0.5912580000000001,0.371002,-0.4589149999999999,1.152048,0.433886,-0.380995,1.350798,0.37181,-0.525475,0.417218,0.334419,-0.638985,1.515698,0.355208,-0.722145,0.916679,0.00087,0.002665,1.083321,-0.0008699999999999,-0.002665,0.829318,-0.0288399999999999,-0.443645,1.138658,-0.0339399999999999,-0.453095,0.843278,-0.44728,-0.378175,1.107305,-0.45233,-0.392795
157,0.983456,0.6026549999999999,-0.44292,0.8175669999999999,0.432965,-0.36558,0.591927,0.369204,-0.45964,1.152107,0.4334329999999999,-0.38186,1.350587,0.369156,-0.52611,0.417767,0.3312949999999999,-0.63935,1.514447,0.352799,-0.7219399999999999,0.916699,0.0008249999999999,0.0026899999999999,1.083301,-0.000825,-0.0026899999999999,0.829287,-0.026135,-0.44375,1.139287,-0.031255,-0.45324,0.843437,-0.444565,-0.37872,1.107195,-0.449335,-0.3924999999999999
158,0.9833885000000001,0.60152,-0.44419,0.8178745000000001,0.431845,-0.36621,0.5924045,0.367574,-0.4602199999999999,1.1521245,0.432961,-0.38261,1.3504645,0.366766,-0.52668,0.41789450000000006,0.3287299999999999,-0.63961,1.5134745,0.350198,-0.7225999999999999,0.9167175,0.0008099999999999,0.00277,1.0832825,-0.0008099999999999,-0.0027699999999999,0.8292245,-0.0235699999999999,-0.44394,1.1398745,-0.0287499999999999,-0.4533999999999999,0.8436045,-0.442,-0.37912,1.1064425,-0.44644,-0.38486
159,0.983279,0.600345,-0.44536,0.8180149999999999,0.430607,-0.36676,0.592765,0.36591,-0.46075,1.152135,0.432179,-0.38333,1.350375,0.364206,-0.52711,0.41793499999999995,0.325215,-0.6395299999999999,1.512195,0.347744,-0.7223999999999999,0.916726,0.000765,0.0028599999999999,1.083274,-0.0007649999999999,-0.00286,0.829115,-0.0215049999999999,-0.44409,1.140525,-0.0266849999999999,-0.45357,0.843615,-0.4399349999999999,-0.37951,1.105662,-0.4439649999999999,-0.37698
160,0.9832130000000001,0.59959,-0.446075,0.8181700000000001,0.4298949999999999,-0.3670449999999999,0.59309,0.364768,-0.4610649999999999,1.15224,0.43176,-0.3836849999999999,1.35016,0.361936,-0.527245,0.41803,0.32247,-0.639105,1.51117,0.3453819999999999,-0.722195,0.916727,0.0007999999999999,0.002865,1.083273,-0.0008,-0.0028649999999999,0.82911,-0.0201,-0.4440849999999999,1.14128,-0.02479,-0.4536249999999999,0.84365,-0.43857,-0.3797149999999999,1.105944,-0.44201,-0.3780449999999999
161,0.9831085,0.599195,-0.446615,0.8182815,0.42936,-0.367195,0.5933415,0.363524,-0.461225,1.1523515,0.431415,-0.383885,1.3500815,0.35979,-0.527075,0.41809149999999995,0.319995,-0.6384650000000001,1.5100815,0.342955,-0.721355,0.9167275,0.000805,0.0028749999999999,1.0832725,-0.000805,-0.002875,0.8290615,-0.0188949999999999,-0.444045,1.1419815,-0.0232549999999999,-0.453725,0.8437415,-0.4374349999999999,-0.379855,1.1062725,-0.440375,-0.378975
162,0.9828205000000001,0.59928,-0.446735,0.8181575,0.429156,-0.367285,0.5933875,0.362567,-0.461385,1.1522775,0.431582,-0.384025,1.3498875,0.358735,-0.526765,0.4179575,0.31782,-0.637795,1.5093775,0.34238,-0.721085,0.9167255,0.00079,0.002895,1.0832745,-0.00079,-0.002895,0.8287275000000001,-0.01778,-0.443995,1.1424075,-0.02215,-0.453825,0.8436875,-0.43635,-0.379835,1.1064885,-0.43928,-0.379945
163,0.9825585,0.5997399999999999,-0.44679,0.8180205,0.429383,-0.36728,0.5934405,0.361914,-0.46135,1.1522305,0.432087,-0.38411,1.3497405,0.35796,-0.52627,0.41784050000000006,0.31637,-0.63707,1.5088205000000001,0.34222,-0.7208300000000001,0.9167075,0.0007099999999999,0.0029799999999999,1.0832925,-0.0007099999999999,-0.00298,0.8284805,-0.01695,-0.44395,1.1427705,-0.0216299999999999,-0.45394,0.8434905,-0.43552,-0.3799,1.1065814999999999,-0.43888,-0.38084
164,0.982079,0.5997399999999999,-0.446855,0.81765,0.429383,-0.367285,0.59312,0.361914,-0.461285,1.15197,0.432087,-0.384195,1.34943,0.357924,-0.5258849999999999,0.41756000000000004,0.31514,-0.636305,1.50849,0.34222,-0.720565,0.916699,0.0007099999999999,0.0029649999999999,1.083301,-0.0007099999999999,-0.0029649999999999,0.82796,-0.01695,-0.443905,1.14278,-0.0218499999999999,-0.453925,0.8429800000000001,-0.43552,-0.3796049999999999,1.106563,-0.43927,-0.381795
165,0.9816819999999999,0.5997399999999999,-0.4467,0.8173990000000001,0.429383,-0.36698,0.592909,0.361914,-0.4609,1.151729,0.432087,-0.38409,1.3490689999999999,0.357924,-0.5253399999999999,0.41722899999999996,0.31514,-0.63544,1.5083389999999999,0.34222,-0.72023,0.916708,0.0007099999999999,0.00301,1.083292,-0.0007099999999999,-0.0030099999999999,0.827379,-0.0147499999999999,-0.4437799999999999,1.142589,-0.02215,-0.4538999999999999,0.842449,-0.43328,-0.3792799999999999,1.106207,-0.4395799999999999,-0.38188
166,0.981287,0.5997399999999999,-0.44633,0.8171619999999999,0.429383,-0.36654,0.5926819999999999,0.361914,-0.4603,1.151542,0.432087,-0.38385,1.348942,0.357924,-0.52468,0.4169419999999999,0.31514,-0.6347,1.507952,0.34222,-0.71979,0.916714,0.0007099999999999,0.0030799999999999,1.083286,-0.0007099999999999,-0.0030799999999999,0.8267820000000001,-0.0141399999999999,-0.4436,1.142212,-0.02243,-0.45387,0.8418320000000001,-0.43274,-0.37921,1.105679,-0.4398499999999999,-0.3815199999999999
167,0.9808415000000001,0.6006,-0.445725,0.8168825,0.429724,-0.365625,0.5923925000000001,0.361658,-0.459125,1.1514025,0.432506,-0.383275,1.3490925,0.357594,-0.523455,0.41710249999999993,0.31481,-0.633765,1.5075525,0.34303,-0.7187250000000001,0.9167055,0.00067,0.0030949999999999,1.0832945,-0.00067,-0.003095,0.8260925,-0.0114199999999999,-0.443415,1.1417225,-0.0230199999999999,-0.453765,0.8410725,-0.42997,-0.379185,1.1046295,-0.44044,-0.380655
168,0.9804975,0.601865,-0.444445,0.8165905,0.4306109999999999,-0.364425,0.5921905000000001,0.36179,-0.457715,1.1512105,0.433058,-0.382545,1.3493905,0.358491,-0.522135,0.41731050000000003,0.3136449999999999,-0.632815,1.5074904999999998,0.343445,-0.717695,0.9167005,0.0006249999999999,0.0030649999999999,1.0832995,-0.0006249999999999,-0.003065,0.8254305,-0.009865,-0.443255,1.1412705,-0.024645,-0.453635,0.8403805,-0.428375,-0.379155,1.1038135,-0.442275,-0.3799949999999999
169,0.980255,0.603665,-0.442985,0.816289,0.431678,-0.363095,0.591959,0.362225,-0.455995,1.151149,0.433747,-0.381655,1.349709,0.359601,-0.520645,0.41769900000000004,0.313695,-0.6319250000000001,1.507579,0.344133,-0.716515,0.916705,0.000585,0.0030949999999999,1.083295,-0.000585,-0.003095,0.824759,-0.009575,-0.443025,1.140819,-0.027515,-0.453415,0.839759,-0.428125,-0.379065,1.102906,-0.4452449999999999,-0.379565
170,0.980106,0.606195,-0.4412399999999999,0.816067,0.43329,-0.36155,0.591717,0.363455,-0.45393,1.151097,0.43525,-0.38029,1.3500269999999999,0.361338,-0.51878,0.41802700000000004,0.314815,-0.63088,1.507647,0.345734,-0.71509,0.916689,0.000485,0.0030799999999999,1.083311,-0.0004849999999999,-0.0030799999999999,0.824047,-0.0130249999999999,-0.44273,1.140167,-0.0312049999999999,-0.45311,0.839047,-0.4318149999999999,-0.37906,1.10293,-0.449615,-0.38763
171,0.9800695,0.60921,-0.43913,0.8158885000000001,0.435964,-0.3596399999999999,0.5915385,0.365346,-0.45183,1.1511085,0.437605,-0.3788,1.3505384999999999,0.363847,-0.51652,0.41843849999999994,0.31769,-0.62978,1.5076485,0.34811,-0.71333,0.9166905,0.00032,0.00309,1.0833095,-0.0003199999999999,-0.00309,0.8233685,-0.0156999999999999,-0.44243,1.1391485000000001,-0.0359299999999999,-0.45272,0.8382385,-0.43467,-0.37897,1.1029735,-0.45499,-0.396
172,0.9805915000000001,0.6128199999999999,-0.436805,0.8162325,0.4386469999999999,-0.357545,0.5917525,0.3675339999999999,-0.449395,1.1517025,0.4400639999999999,-0.377065,1.3516424999999999,0.3663949999999999,-0.514225,0.41937250000000004,0.3209399999999999,-0.628285,1.5084825,0.3510779999999999,-0.710995,0.9166905,7.999999999996898e-05,0.003085,1.0833095,-8.00000000000245e-05,-0.003085,0.8232225000000001,-0.02126,-0.4420349999999999,1.1382125,-0.04191,-0.452275,0.8378225000000001,-0.44045,-0.378935,1.1031795,-0.46105,-0.396125
173,0.981216,0.61734,-0.43399,0.816731,0.4417839999999999,-0.35518,0.5919909999999999,0.370757,-0.44651,1.152321,0.4427839999999999,-0.37504,1.352871,0.3705569999999999,-0.5117700000000001,0.4204509999999999,0.324613,-0.62636,1.509671,0.354788,-0.7086399999999999,0.916688,-0.00017,0.0030599999999999,1.083312,0.00017,-0.00306,0.8230310000000001,-0.02639,-0.44145,1.137011,-0.04893,-0.45156,0.8374110000000001,-0.44581,-0.37893,1.103691,-0.46817,-0.39611
174,0.982003,0.622475,-0.43074,0.81725,0.445172,-0.35272,0.59229,0.3742999999999999,-0.44342,1.15295,0.445388,-0.37278,1.35413,0.37498,-0.5092300000000001,0.42167999999999994,0.328646,-0.62436,1.5104600000000001,0.358655,-0.7060200000000001,0.916678,-0.0002949999999999,0.0029599999999999,1.083322,0.0002949999999999,-0.00296,0.8228800000000001,-0.032285,-0.44071,1.1356,-0.056785,-0.45057,0.83702,-0.451955,-0.37887,1.10396,-0.476285,-0.39603
175,0.982881,0.62724,-0.427475,0.817856,0.447717,-0.350145,0.5928059999999999,0.378225,-0.440405,1.153586,0.447521,-0.370455,1.355436,0.379002,-0.506615,0.422666,0.333391,-0.622205,1.511636,0.361723,-0.703225,0.916586,-0.00029,0.0028749999999999,1.083414,0.00029,-0.002875,0.823066,-0.0412899999999999,-0.439865,1.134216,-0.0660899999999999,-0.449085,0.837086,-0.46096,-0.3783849999999999,1.103936,-0.4858399999999999,-0.395275
176,0.9839775,0.63281,-0.423945,0.8187175,0.4510409999999999,-0.347275,0.5933875,0.3824099999999999,-0.437465,1.1544675,0.450495,-0.367815,1.3568075,0.3826569999999999,-0.503815,0.42367750000000004,0.3386099999999999,-0.619945,1.5129475000000001,0.365284,-0.700705,0.9164615,-0.0003299999999999,0.0026449999999999,1.0835385,0.0003299999999999,-0.002645,0.8235375,-0.05041,-0.438725,1.1331475,-0.0753599999999999,-0.447195,0.8374874999999999,-0.47008,-0.378025,1.1038765,-0.49539,-0.394265
177,0.9851170000000001,0.63829,-0.420635,0.819532,0.453693,-0.3441849999999999,0.594142,0.386006,-0.434455,1.155412,0.453326,-0.364935,1.3582619999999999,0.386872,-0.500995,0.42489200000000005,0.342882,-0.617685,1.514482,0.368037,-0.698415,0.916349,-0.0005299999999999,0.0024649999999999,1.083651,0.00053,-0.0024649999999999,0.823942,-0.0601899999999999,-0.437405,1.132042,-0.0855099999999999,-0.4445449999999999,0.838012,-0.4799899999999999,-0.377525,1.104004,-0.50579,-0.3931449999999999
178,0.9863185,0.643435,-0.41709,0.8204595,0.4572839999999999,-0.34098,0.5950195,0.389912,-0.43146,1.1563495,0.4562499999999999,-0.3619,1.3596694999999999,0.3908139999999999,-0.49817,0.4261695,0.3469329999999999,-0.61497,1.5160995,0.3720699999999999,-0.69607,0.9162085,-0.000445,0.0022599999999999,1.0837915,0.0004449999999999,-0.00226,0.8247295,-0.073145,-0.43462,1.1309595,-0.095995,-0.44205,0.8386495,-0.493355,-0.37707,1.1042565,-0.516525,-0.39228
179,0.9876125,0.6483099999999999,-0.4129,0.8216245,0.460269,-0.3376,0.5961645,0.393291,-0.42828,1.1574845,0.4586199999999999,-0.35882,1.3609345,0.394551,-0.4951,0.42728449999999996,0.351145,-0.61209,1.5173744999999998,0.377086,-0.69336,0.9161185000000001,-0.0003299999999999,0.00224,1.0838815,0.0003299999999999,-0.0022399999999999,0.8258745000000001,-0.08721,-0.43148,1.1300744999999999,-0.10716,-0.43922,0.8395845,-0.5076499999999999,-0.3760799999999999,1.1047925,-0.52799,-0.39043
180,0.989284,0.65374,-0.408285,0.822926,0.46291,-0.333875,0.597326,0.396609,-0.424585,1.1589559999999999,0.4604,-0.355315,1.362566,0.3979,-0.4919349999999999,0.42870600000000003,0.355344,-0.6091249999999999,1.518736,0.380632,-0.690755,0.915984,-3.999999999998449e-05,0.002255,1.084016,4.000000000004e-05,-0.0022549999999999,0.827406,-0.1021499999999999,-0.428025,1.129486,-0.11884,-0.436045,0.8409060000000002,-0.52294,-0.374595,1.105753,-0.53967,-0.3882949999999999
181,0.991021,0.6591899999999999,-0.40347,0.824265,0.46557,-0.32988,0.5985849999999999,0.399741,-0.42098,1.160575,0.46197,-0.35168,1.3642249999999998,0.401386,-0.4885,0.430245,0.359781,-0.60632,1.520135,0.384193,-0.68847,0.915829,0.00039,0.0023699999999999,1.084171,-0.00039,-0.00237,0.829165,-0.11867,-0.42424,1.129085,-0.13087,-0.43241,0.842435,-0.5397700000000001,-0.37261,1.106793,-0.55172,-0.3858
182,0.993009,0.6644749999999999,-0.3983899999999999,0.82576,0.468475,-0.3258799999999999,0.6000100000000002,0.40306,-0.4172599999999999,1.16228,0.4635149999999999,-0.3477399999999999,1.36606,0.4034409999999999,-0.48499,0.43216,0.3649169999999999,-0.60317,1.5220799999999999,0.3876409999999999,-0.6850499999999999,0.915653,0.0009449999999999,0.00257,1.084347,-0.000945,-0.0025699999999999,0.83096,-0.133225,-0.4197099999999999,1.12918,-0.143335,-0.42838,0.84444,-0.5544450000000001,-0.3699199999999999,1.108451,-0.5642750000000001,-0.38314
183,0.9950580000000001,0.6694249999999999,-0.393295,0.8272940000000001,0.471335,-0.321385,0.601154,0.406512,-0.413215,1.163884,0.465205,-0.343605,1.367924,0.405916,-0.480955,0.43385399999999996,0.369918,-0.5998749999999999,1.524064,0.391355,-0.6817949999999999,0.9154370000000001,0.001325,0.002785,1.084563,-0.001325,-0.002785,0.832964,-0.1475449999999999,-0.413915,1.129494,-0.1558049999999999,-0.424145,0.846614,-0.568905,-0.366025,1.110004,-0.5770949999999999,-0.3798749999999999
184,0.9967990000000001,0.6755450000000001,-0.38738,0.828186,0.474815,-0.3165,0.601596,0.4104649999999999,-0.40873,1.164996,0.467605,-0.33899,1.369526,0.4093949999999999,-0.47656,0.435176,0.37546,-0.59649,1.525806,0.3959319999999999,-0.67823,0.915266,0.0017149999999999,0.00311,1.084734,-0.001715,-0.00311,0.8346359999999999,-0.160845,-0.4075999999999999,1.129536,-0.167585,-0.4201399999999999,0.848536,-0.582385,-0.3608099999999999,1.111527,-0.589105,-0.3764699999999999
185,0.9984090000000001,0.6811100000000001,-0.3810449999999999,0.8286970000000001,0.47733,-0.311505,0.601917,0.41403,-0.404145,1.165827,0.4695,-0.334195,1.370747,0.41343,-0.472105,0.43617700000000004,0.382447,-0.592945,1.527097,0.40022,-0.674455,0.9151380000000001,0.00208,0.0036049999999999,1.084862,-0.0020799999999999,-0.0036049999999999,0.836227,-0.1731399999999999,-0.4010749999999999,1.129547,-0.1783499999999999,-0.4158349999999999,0.8503770000000002,-0.5949099999999999,-0.355125,1.112955,-0.60008,-0.372635
186,0.9997045,0.686825,-0.37388,0.8287424999999999,0.480575,-0.305906,0.6019625,0.4182249999999999,-0.39918,1.1665325,0.4716549999999999,-0.3287799999999999,1.3716725,0.417365,-0.4671599999999999,0.4362125,0.390165,-0.58848,1.5281325,0.4060549999999999,-0.67032,0.9150024999999999,0.0025649999999999,0.00404,1.0849975,-0.002565,-0.0040399999999999,0.8377625,-0.185655,-0.39424,1.1296425,-0.188675,-0.41175,0.8518725,-0.607425,-0.34914,1.1142475,-0.610465,-0.36862
187,1.0007915,0.693405,-0.365965,0.8285145,0.482465,-0.300294,0.6017445,0.422275,-0.394215,1.1670745,0.473755,-0.323065,1.3723945,0.421495,-0.461885,0.4363945,0.397475,-0.584255,1.5289445000000002,0.410985,-0.665985,0.9149245,0.0028549999999999,0.0044049999999999,1.0850755,-0.0028549999999999,-0.0044049999999999,0.8387945,-0.1971049999999999,-0.387965,1.1297045,-0.198005,-0.407535,0.8531145,-0.618995,-0.343815,1.1150425,-0.6200049999999999,-0.364155
188,1.0019135,0.69983,-0.357785,0.8282325,0.48587,-0.294233,0.6013625,0.4266,-0.389055,1.1676725000000001,0.47624,-0.316825,1.3732025,0.42577,-0.456295,0.4363024999999999,0.40383,-0.579645,1.5296824999999998,0.41561,-0.661485,0.9148125,0.0030999999999999,0.0046149999999999,1.0851875,-0.0030999999999999,-0.004615,0.8398825,-0.2096799999999999,-0.381275,1.1298725,-0.20709,-0.403025,0.8543725,-0.63157,-0.338025,1.1159965,-0.6292599999999999,-0.360185
189,1.0027305,0.70628,-0.34917,0.8277585000000001,0.48949,-0.288124,0.6009185,0.43103,-0.38371,1.1680584999999999,0.479,-0.31026,1.3736385,0.43029,-0.45042,0.43594849999999996,0.40992,-0.57454,1.5305485,0.42201,-0.65654,0.9148185,0.00322,0.00483,1.0851815,-0.00322,-0.00483,0.8403285,-0.22208,-0.37449,1.1298585,-0.21591,-0.39831,0.8553485000000001,-0.64409,-0.33233,1.1168255,-0.63824,-0.35602
190,1.0031495,0.71304,-0.33985,0.8271725,0.4931,-0.281709,0.6001425,0.43615,-0.3778399999999999,1.1682625,0.48327,-0.3032899999999999,1.3739325,0.43559,-0.44398,0.43571250000000006,0.41672,-0.5692200000000001,1.5314025,0.42957,-0.6506799999999999,0.9148325,0.0031599999999999,0.00512,1.0851675,-0.0031599999999999,-0.0051199999999999,0.8399425,-0.23055,-0.3676,1.1299825000000001,-0.22402,-0.39361,0.8558025,-0.65276,-0.3264899999999999,1.1175225,-0.6462699999999999,-0.35173
191,1.0032465,0.719785,-0.3301199999999999,0.8263285,0.496285,-0.274955,0.5992885,0.4411049999999999,-0.37179,1.1683284999999999,0.487355,-0.296106,1.3741385,0.4416449999999999,-0.43696,0.4354785,0.423735,-0.56418,1.5314485,0.437525,-0.64481,0.9148785000000001,0.003055,0.0054099999999999,1.0851214999999999,-0.003055,-0.0054099999999999,0.8395684999999999,-0.239655,-0.36099,1.1300185,-0.231945,-0.38881,0.8559885,-0.661975,-0.32082,1.1181265,-0.654265,-0.34755
192,1.0030875,0.7264600000000001,-0.32017,0.8255485000000001,0.49958,-0.267985,0.5984484999999999,0.4458,-0.36549,1.1682584999999999,0.4914,-0.288503,1.3743385,0.44742,-0.42981,0.4353285,0.4306999999999999,-0.5584899999999999,1.5313585,0.4454,-0.63817,0.9149085,0.00303,0.0057399999999999,1.0850915,-0.00303,-0.0057399999999999,0.8393085,-0.2490899999999999,-0.35497,1.1300485,-0.23979,-0.38373,0.8560585,-0.67157,-0.31573,1.1187585,-0.66228,-0.34337
193,1.002749,0.7329600000000001,-0.31023,0.824886,0.50275,-0.260886,0.597916,0.44915,-0.3591,1.168316,0.4951299999999999,-0.28071,1.3745759999999998,0.45323,-0.4225,0.4351360000000001,0.43765,-0.5523899999999999,1.531796,0.45452,-0.6316200000000001,0.914926,0.0029399999999999,0.0058999999999999,1.085074,-0.0029399999999999,-0.0059,0.8390460000000001,-0.25798,-0.34898,1.130106,-0.2472299999999999,-0.37815,0.856016,-0.68068,-0.31162,1.119468,-0.6699499999999999,-0.33887
194,1.0022235,0.7388650000000001,-0.30016,0.8242115,0.506785,-0.253442,0.5974215,0.452625,-0.35245,1.1683815,0.498365,-0.27285,1.3747815,0.458675,-0.41503,0.4350815,0.443665,-0.54594,1.5326015000000002,0.463035,-0.62422,0.9149315000000001,0.002955,0.0059799999999999,1.0850685,-0.0029549999999999,-0.00598,0.8388115,-0.265575,-0.34285,1.1300715000000001,-0.255505,-0.37241,0.8555615,-0.6886049999999999,-0.30746,1.1201315,-0.6784950000000001,-0.33406
195,1.0017079999999998,0.74502,-0.289955,0.823536,0.51082,-0.246216,0.596876,0.45658,-0.345565,1.168316,0.50188,-0.264922,1.375006,0.4638299999999999,-0.407085,0.435466,0.44994,-0.5401450000000001,1.533826,0.47174,-0.616595,0.915026,0.003,0.0061249999999999,1.0849739999999999,-0.003,-0.006125,0.838496,-0.27275,-0.336295,1.130006,-0.26321,-0.366415,0.8550059999999999,-0.69609,-0.303205,1.120736,-0.68651,-0.329325
196,1.0009169999999998,0.7506849999999999,-0.279855,0.822433,0.514965,-0.238598,0.5961529999999999,0.460615,-0.338495,1.1678629999999999,0.505535,-0.256521,1.375153,0.469045,-0.398645,0.435573,0.4560349999999999,-0.534145,1.534743,0.4807749999999999,-0.608805,0.915193,0.0027749999999999,0.0061549999999999,1.084807,-0.0027749999999999,-0.0061549999999999,0.838153,-0.279845,-0.329705,1.129723,-0.2715149999999999,-0.3595049999999999,0.854223,-0.703485,-0.298665,1.1210429999999998,-0.695005,-0.324585
197,1.000041,0.75732,-0.268961,0.821423,0.51859,-0.230596,0.5954729999999999,0.46451,-0.3313,1.167353,0.50877,-0.24805,1.375183,0.47461,-0.39002,0.43563300000000005,0.46272,-0.52799,1.535313,0.48967,-0.6008899999999999,0.915343,0.00267,0.00618,1.084657,-0.00267,-0.0061799999999999,0.838023,-0.28661,-0.32301,1.129413,-0.27964,-0.3524,0.853433,-0.71054,-0.2942599999999999,1.121223,-0.70337,-0.31982
198,0.9990545000000001,0.763415,-0.257946,0.8203795,0.520935,-0.222585,0.5945195,0.467415,-0.32384,1.1666395,0.512145,-0.239398,1.3749995,0.480105,-0.38107,0.4358795000000001,0.469785,-0.52157,1.5359395,0.498255,-0.59311,0.9155595,0.0024649999999999,0.00619,1.0844405,-0.0024649999999999,-0.00619,0.8376795000000001,-0.293855,-0.31567,1.1289695,-0.287635,-0.3449,0.8524195,-0.718085,-0.29025,1.1212095,-0.711615,-0.31507
199,0.9981445000000001,0.76881,-0.2472889999999999,0.8192765000000001,0.52409,-0.2143649999999999,0.5936965000000001,0.47014,-0.31643,1.1659065,0.51385,-0.2308469999999999,1.3747265,0.48506,-0.3726,0.4360965,0.47598,-0.51478,1.5359165,0.5066200000000001,-0.58552,0.9156565,0.0023499999999999,0.00612,1.0843435,-0.0023499999999999,-0.0061199999999999,0.8374165,-0.30108,-0.3081699999999999,1.1284565,-0.29546,-0.3371499999999999,0.8514865,-0.7256199999999999,-0.2859899999999999,1.1211765,-0.7199500000000001,-0.3100799999999999
200,0.9972005,0.77384,-0.236296,0.8181465,0.52713,-0.205948,0.5927765,0.4728099999999999,-0.30901,1.1653365,0.51614,-0.221801,1.3743665,0.4895899999999999,-0.36356,0.43615650000000006,0.48119,-0.50793,1.5356565,0.51467,-0.57803,0.9158364999999999,0.0021799999999999,0.0059099999999999,1.0841635,-0.00218,-0.0059099999999999,0.8371865000000001,-0.3103,-0.30025,1.1277865,-0.30307,-0.32914,0.8509465,-0.7351599999999999,-0.28139,1.1210465,-0.72795,-0.30493
201,0.9963525000000001,0.77875,-0.2250859999999999,0.8169755,0.52964,-0.1977279999999999,0.5919355,0.47478,-0.301705,1.1649755,0.51858,-0.2126739999999999,1.3740955000000001,0.49385,-0.3543349999999999,0.43624549999999995,0.48672,-0.5012449999999999,1.5354455,0.52298,-0.5702149999999999,0.9160055,0.00197,0.005675,1.0839945,-0.0019699999999999,-0.0056749999999999,0.8370955,-0.31899,-0.2926149999999999,1.1271754999999999,-0.3104699999999999,-0.320785,0.8503955,-0.74417,-0.2767849999999999,1.1208755,-0.73564,-0.2998349999999999
202,0.9956070000000001,0.783288,-0.21377,0.815618,0.532728,-0.1892609999999999,0.591108,0.4776979999999999,-0.2943749999999999,1.164658,0.521108,-0.2035709999999999,1.373728,0.4982379999999999,-0.345195,0.43632800000000005,0.4927779999999999,-0.494465,1.5352679999999999,0.529898,-0.561985,0.916108,0.0017289999999999,0.005555,1.083892,-0.001729,-0.0055549999999999,0.837218,-0.3275019999999999,-0.284555,1.1266180000000001,-0.317872,-0.311995,0.849838,-0.752952,-0.272055,1.120568,-0.7433219999999999,-0.295145
203,0.994712,0.7879315,-0.202289,0.814165,0.5347415,-0.1810929999999999,0.5901350000000001,0.4802415,-0.28707,1.164285,0.5247115,-0.194206,1.373235,0.5027415,-0.3360599999999999,0.436315,0.4980915,-0.48768,1.535215,0.5374415,-0.55423,0.916286,0.0012964999999999,0.00539,1.083714,-0.0012965,-0.0053899999999999,0.8396250000000001,-0.3352185,-0.2717699999999999,1.1259649999999999,-0.3250785,-0.30271,0.850555,-0.7606885000000001,-0.2616699999999999,1.120115,-0.7507485,-0.2892099999999999
204,0.993574,0.7923055,-0.1906959999999999,0.812581,0.5368855,-0.172515,0.5890410000000001,0.4824655,-0.27979,1.163581,0.5277955,-0.184977,1.3724509999999999,0.5070655000000001,-0.32721,0.43603099999999995,0.5031455,-0.48063,1.534561,0.5448055,-0.54582,0.91641,0.0009235,0.00519,1.08359,-0.0009234999999999,-0.00519,0.841201,-0.3435344999999999,-0.25892,1.125091,-0.3332045,-0.2932099999999999,0.850021,-0.7692745,-0.25075,1.119571,-0.7590945,-0.28245
205,0.992378,0.796654,-0.1790709999999999,0.811213,0.5392239999999999,-0.163878,0.5878829999999999,0.484284,-0.2722299999999999,1.162833,0.531004,-0.175693,1.371653,0.511604,-0.31849,0.435743,0.5089239999999999,-0.4731599999999999,1.533813,0.551804,-0.53718,0.91654,0.0006299999999999,0.00503,1.08346,-0.00063,-0.00503,0.843163,-0.352306,-0.24612,1.124173,-0.341976,-0.28368,0.850433,-0.778046,-0.240758,1.118543,-0.767866,-0.27615
206,0.990793,0.799839,-0.168563,0.809399,0.541239,-0.155481,0.586299,0.486219,-0.26463,1.161669,0.534239,-0.16694,1.370439,0.515689,-0.31023,0.435299,0.5145689999999999,-0.46588,1.532789,0.558559,-0.52864,0.9166660000000001,0.000335,0.0048799999999999,1.0833339999999998,-0.000335,-0.0048799999999999,0.8447290000000001,-0.361141,-0.233306,1.1228690000000001,-0.350811,-0.27419,0.850599,-0.786881,-0.230978,1.117129,-0.7767010000000001,-0.27002
207,0.989754,0.8022560000000001,-0.152766,0.808197,0.542886,-0.141361,0.585397,0.4880859999999999,-0.25142,1.161157,0.536296,-0.152787,1.369877,0.518956,-0.29667,0.435647,0.519266,-0.45312,1.532587,0.565026,-0.51407,0.916768,0.000113,0.00464,1.083232,-0.000113,-0.00464,0.8470170000000001,-0.370334,-0.213868,1.122297,-0.359684,-0.2573499999999999,0.851527,-0.796234,-0.215213,1.116377,-0.785574,-0.2563499999999999
208,0.9888320000000002,0.8042705,-0.136782,0.806975,0.5431505,-0.127864,0.584735,0.4891505,-0.238485,1.160935,0.5388505,-0.138648,1.369515,0.5216505,-0.282775,0.436175,0.5246605,-0.440705,1.5323449999999998,0.5704505000000001,-0.499515,0.916863,-0.0002424999999999,0.004295,1.083137,0.0002424999999999,-0.0042949999999999,0.8503450000000001,-0.3847994999999999,-0.191168,1.120525,-0.3749595,-0.235655,0.852525,-0.8075395,-0.199265,1.114305,-0.7967894999999999,-0.2421249999999999
209,0.9881075,0.8054505,-0.120846,0.8058855,0.5426405,-0.11414,0.5841255000000001,0.4884005,-0.22525,1.1608355,0.5401505,-0.124759,1.3691855,0.5233305,-0.26914,0.43685550000000006,0.5293405,-0.4275,1.5321855000000002,0.5751105,-0.48484,0.9168755000000001,-0.0004525,0.0039199999999999,1.0831244999999998,0.0004524999999999,-0.00392,0.8537255,-0.3994594999999999,-0.168648,1.1191754999999999,-0.3884195,-0.21397,0.8537955,-0.8188995,-0.182913,1.1121355,-0.8084295,-0.22794
210,0.9874495000000001,0.8061395,-0.1053495,0.8049125,0.5424795,-0.1002724999999999,0.5834725000000001,0.4886295,-0.2122035,1.1608525,0.5408595,-0.1113084999999999,1.3690225,0.5250695,-0.2561135,0.4378925,0.5337195,-0.4144734999999999,1.5315125,0.5790295000000001,-0.4709335,0.9169625,-0.0006194999999999,0.0035065,1.0830375,0.0006195,-0.0035064999999999,0.8579525,-0.4141305,-0.1452005,1.1179025,-0.4041105,-0.1924725,0.8553225,-0.8303605,-0.1666254999999999,1.1101925,-0.8199105,-0.2140035
211,0.986763,0.8063855,-0.0904369999999999,0.804014,0.5417355,-0.0868659999999999,0.582614,0.4877755,-0.199407,1.161084,0.5417055,-0.0980249999999999,1.368654,0.5259055,-0.243477,0.4387439999999999,0.5371155,-0.401897,1.530764,0.5827855,-0.457677,0.917131,-0.0007854999999999,0.002975,1.082869,0.0007855,-0.0029749999999999,0.862094,-0.4280545,-0.122529,1.117184,-0.4172945,-0.171273,0.856904,-0.8416245,-0.150353,1.108054,-0.8312445,-0.200867
212,0.9862945000000001,0.806585,-0.075989,0.8032315000000001,0.5411149999999999,-0.073872,0.5820215,0.486765,-0.1869839999999999,1.1613115,0.5417649999999999,-0.085351,1.3686215,0.5266949999999999,-0.231114,0.43954150000000003,0.540705,-0.389274,1.5302315000000002,0.586225,-0.444544,0.9171845,-0.0008619999999999,0.002514,1.0828155,0.0008619999999999,-0.002514,0.8644015,-0.442445,-0.104949,1.1162715,-0.432695,-0.149578,0.8576915,-0.852485,-0.139485,1.1060355,-0.8424250000000001,-0.188734
