sb224sc-HT22-VT27/4dt907/src/ml-research/a11/datafiles/kinect_good_preprocessed_not_cut_A11_mediapipe/A91_kinect_mirrored.csv
FrameNo,nose_3d_x,nose_3d_y,nose_3d_z,left_shoulder_3d_x,left_shoulder_3d_y,left_shoulder_3d_z,left_elbow_3d_x,left_elbow_3d_y,left_elbow_3d_z,right_shoulder_3d_x,right_shoulder_3d_y,right_shoulder_3d_z,right_elbow_3d_x,right_elbow_3d_y,right_elbow_3d_z,left_wrist_3d_x,left_wrist_3d_y,left_wrist_3d_z,right_wrist_3d_x,right_wrist_3d_y,right_wrist_3d_z,left_hip_3d_x,left_hip_3d_y,left_hip_3d_z,right_hip_3d_x,right_hip_3d_y,right_hip_3d_z,left_knee_3d_x,left_knee_3d_y,left_knee_3d_z,right_knee_3d_x,right_knee_3d_y,right_knee_3d_z,left_ankle_3d_x,left_ankle_3d_y,left_ankle_3d_z,right_ankle_3d_x,right_ankle_3d_y,right_ankle_3d_z
0,1.000728,0.8071520000000001,0.1545105,0.831486,0.6068020000000001,0.1204285,0.7339260000000001,0.859062,0.0542405,1.155666,0.6363620000000001,0.1200094999999999,1.221446,0.8822920000000001,0.0292825,0.728226,1.1154920000000002,-0.0256874999999999,1.208326,1.152592,-0.0239474999999999,0.9255750000000001,-0.002491,0.0003205,1.074425,0.002491,-0.0003205,0.871876,-0.5084179999999999,0.0361825,1.109566,-0.507728,0.0187815,0.853046,-0.909578,-0.0099874999999999,1.100656,-0.884478,-0.0154184999999999
1,1.000672,0.8071174999999999,0.1547945,0.831366,0.6065075,0.1203235,0.7338760000000001,0.8588775,0.0541795,1.155646,0.6362774999999999,0.1200435,1.221486,0.8803475,0.0295795,0.727936,1.1159875,-0.0261585,1.208196,1.1522875,-0.0242604999999999,0.9256030000000001,-0.0024565,0.0003295,1.0743969999999998,0.0024565,-0.0003294999999999,0.871976,-0.5083725,0.0363015,1.109426,-0.5077825,0.0187025,0.852376,-0.9097125,-0.0107354999999999,1.1003159999999998,-0.8858325,-0.0160384999999999
2,1.000629,0.80689,0.1548284999999999,0.8312750000000001,0.60626,0.1203505,0.733645,0.85871,0.0538274999999999,1.155555,0.63589,0.1199425,1.221155,0.87822,0.0298064999999999,0.7277750000000001,1.11587,-0.0267675,1.207985,1.15197,-0.0254035,0.925613,-0.002341,0.0001204999999999,1.074387,0.002341,-0.0001205,0.872495,-0.50865,0.0340365,1.117265,-0.46984,0.0088304999999999,0.852555,-0.90584,-0.0062855,1.101495,-0.87083,-0.0163145
3,0.999968,0.806826,0.1540765,0.8309690000000001,0.606536,0.1195175,0.733209,0.8594160000000001,0.0529175,1.155319,0.636366,0.1191825,1.220789,0.882076,0.0281974999999999,0.727449,1.116326,-0.0277234999999999,1.207539,1.152126,-0.0266544999999999,0.925694,-0.00251,0.0008794999999999,1.074306,0.00251,-0.0008795,0.872109,-0.508894,0.0339654999999999,1.1092289999999998,-0.508014,0.0158905,0.8522190000000001,-0.905594,-0.0066055,1.100889,-0.885564,-0.0176115
4,0.9993225000000001,0.805786,0.153695,0.8306815000000001,0.606496,0.119178,0.7330814999999999,0.859606,0.051721,1.1552115,0.636476,0.1189409999999999,1.2206415,0.886706,0.025475,0.7271715000000001,1.116276,-0.0287259999999999,1.2069615,1.152176,-0.027552,0.9256385,-0.00242,0.0007829999999999,1.0743615,0.00242,-0.0007829999999999,0.8719515000000001,-0.501494,0.027471,1.1085714999999998,-0.508244,0.015236,0.8524115000000001,-0.901774,-0.00646,1.1001215,-0.888324,-0.018803
5,0.9988605000000002,0.805606,0.153395,0.8302355000000001,0.606676,0.118808,0.7326355,0.859786,0.05129,1.1549655,0.636696,0.118667,1.2202355,0.887016,0.025111,0.7265155,1.116146,-0.029429,1.2064055,1.152346,-0.028093,0.9257555,-0.002537,0.001056,1.0742445,0.002537,-0.001056,0.8718755,-0.505164,0.027762,1.1155455,-0.468084,0.007739,0.8521354999999999,-0.904974,-0.006447,1.0988955,-0.869114,-0.0140129999999999
6,0.997682,0.805928,0.151758,0.829213,0.606648,0.118003,0.731563,0.859238,0.0487019999999999,1.154663,0.6370279999999999,0.118203,1.218293,0.882238,0.0244069999999999,0.724523,1.112958,-0.031755,1.204613,1.152358,-0.0315289999999999,0.925625,-0.002723,0.0016019999999999,1.074375,0.002723,-0.0016019999999999,0.871843,-0.503582,0.024091,1.115503,-0.468832,0.0063,0.850923,-0.899382,-0.0046749999999999,1.098563,-0.869862,-0.014817
7,0.9966010000000001,0.806122,0.150994,0.829094,0.606602,0.118065,0.730514,0.858112,0.0477799999999999,1.154614,0.636772,0.117992,1.218014,0.879362,0.0243699999999999,0.723314,1.111752,-0.033885,1.203334,1.151752,-0.033207,0.925555,-0.0025139999999999,0.0010779999999999,1.074445,0.0025139999999999,-0.001078,0.871584,-0.504548,0.022354,1.112974,-0.4817079999999999,0.0044459999999999,0.852194,-0.903478,-0.006368,1.099314,-0.875098,-0.017449
8,0.995599,0.8059160000000001,0.1499575,0.828714,0.606566,0.1177475,0.7296040000000001,0.857796,0.0464845,1.154464,0.636766,0.1176835,1.2172939999999999,0.8783960000000001,0.0236025,0.722094,1.110816,-0.0358265,1.202194,1.151616,-0.0349574999999999,0.925555,-0.002497,0.0010615,1.074445,0.002497,-0.0010615,0.871594,-0.503864,0.0196095,1.112924,-0.481794,0.0020794999999999,0.8522540000000001,-0.902794,-0.0063835,1.099184,-0.8755339999999999,-0.0181394999999999
9,0.9940905000000001,0.8053629999999999,0.148447,0.8280545,0.6067929999999999,0.117208,0.7281445000000001,0.857093,0.044788,1.1539745,0.6371129999999999,0.117118,1.2161145,0.8773329999999999,0.0225,0.7201744999999999,1.1095430000000002,-0.038393,1.2005145,1.151143,-0.037319,0.9255555,-0.0024,0.001021,1.0744445,0.0024,-0.001021,0.8715545,-0.503117,0.016953,1.1129844999999998,-0.477717,-0.0005569999999999,0.8525245,-0.902187,-0.0062699999999999,1.0991545,-0.874017,-0.0189119999999999
10,0.9923445,0.8049515,0.146761,0.8273794999999999,0.6071715000000001,0.1166369999999999,0.7265595,0.8565215,0.04292,1.1533895,0.6370915,0.116485,1.2148094999999999,0.8767315,0.021214,0.7181595000000001,1.1085215,-0.040954,1.1987495,1.1508215,-0.039794,0.9255515,-0.0023745,0.000965,1.0744485,0.0023745,-0.000965,0.8714295,-0.5017284999999999,0.014062,1.1121995,-0.4776185,-0.003963,0.8525695,-0.9009385,-0.0059559999999999,1.0990294999999999,-0.8739285,-0.0190689999999999
11,0.990841,0.804636,0.145236,0.826953,0.607596,0.116376,0.725123,0.856016,0.041225,1.153003,0.637116,0.115901,1.2138429999999998,0.875836,0.01996,0.716473,1.1079560000000002,-0.0432789999999999,1.197293,1.1503560000000002,-0.0419779999999999,0.925532,-0.0023439999999999,0.0008459999999999,1.074468,0.0023439999999999,-0.0008459999999999,0.871443,-0.500284,0.011214,1.112403,-0.473154,-0.0071999999999999,0.853103,-0.899604,-0.0059959999999999,1.099213,-0.872074,-0.0191039999999999
12,0.989539,0.804368,0.143739,0.8267800000000001,0.608018,0.1161109999999999,0.72377,0.855498,0.039453,1.15286,0.6371979999999999,0.115377,1.21307,0.874968,0.01869,0.71496,1.1077480000000002,-0.045523,1.19598,1.149948,-0.04425,0.925517,-0.0023639999999999,0.000779,1.074483,0.0023639999999999,-0.000779,0.87152,-0.499142,0.0080159999999999,1.11295,-0.4688319999999999,-0.011039,0.8538600000000001,-0.8984920000000001,-0.006057,1.09969,-0.869862,-0.019102
13,0.988258,0.8040999999999999,0.1423454999999999,0.826182,0.60817,0.1157825,0.722372,0.8551,0.0376785,1.1526219999999998,0.6372399999999999,0.1145245,1.212302,0.8740699999999999,0.0172115,0.713102,1.10734,-0.0485445,1.194842,1.14944,-0.0467045,0.925396,-0.002357,0.0006704999999999,1.074604,0.002357,-0.0006704999999999,0.871672,-0.49767,0.0044304999999999,1.112962,-0.46864,-0.0147815,0.854722,-0.8970600000000001,-0.0061145,1.100582,-0.8695900000000001,-0.0194524999999999
14,0.9872945,0.8037985,0.141069,0.8254205,0.6082885,0.115502,0.7210605,0.8545185000000001,0.035849,1.1523505,0.6368685000000001,0.113383,1.2117905,0.8734185,0.015692,0.7112105,1.1066985,-0.0516549999999999,1.1939805,1.1488985,-0.0490459999999999,0.9252454999999999,-0.0023285,0.000522,1.0747545,0.0023285,-0.000522,0.8720405,-0.4967715,0.000912,1.1132705,-0.4682914999999999,-0.0183539999999999,0.8560105,-0.8966715,-0.0064429999999999,1.1018105,-0.8691415,-0.019926
15,0.9865495,0.8031174999999999,0.1396915,0.8249115,0.6083375,0.1152455,0.7201715,0.8538775,0.0339675,1.1522415,0.6362875,0.1120835,1.2116315,0.8733075,0.0141825,0.7097614999999999,1.1059775,-0.0546845,1.1934715,1.1484775,-0.0514115,0.9250575,-0.0022785,0.0003825,1.0749425,0.0022785,-0.0003825,0.8727115,-0.4954225,-0.0025944999999999,1.1139515,-0.4680525,-0.0218545,0.8577715,-0.8956725,-0.0067904999999999,1.1034015,-0.8687525,-0.0203404999999999
16,0.9859785,0.8026055,0.138361,0.8243865,0.6085655,0.115,0.7195465,0.8533955,0.032132,1.1520865,0.6354955,0.110715,1.2117865,0.8730855,0.012621,0.7087065,1.1052555,-0.057203,1.1932565,1.1482555,-0.0537379999999999,0.9248225,-0.0022475,0.00024,1.0751775,0.0022475,-0.0002399999999999,0.8736565000000001,-0.4937645,-0.0059649999999999,1.1149864999999999,-0.4697345,-0.025394,0.8598965000000001,-0.8944545,-0.0074829999999999,1.1053635,-0.8703845,-0.020911
17,0.985697,0.8024395,0.137114,0.823834,0.6090195,0.114714,0.719104,0.8529695,0.0302629999999999,1.151864,0.6343295,0.10914,1.212014,0.8729695000000001,0.0107239999999999,0.7078440000000001,1.1045595,-0.060041,1.1932539999999998,1.1481595,-0.056145,0.9246030000000001,-0.0021985,5.899999999999656e-05,1.075397,0.0021985,-5.900000000000349e-05,0.874684,-0.4919405,-0.009172,1.116644,-0.4711705,-0.0289849999999999,0.862244,-0.8926204999999999,-0.007878,1.107742,-0.8717604999999999,-0.021881
18,0.9857360000000001,0.80225,0.136107,0.823441,0.60944,0.114421,0.7188209999999999,0.85132,0.028774,1.151881,0.63302,0.107603,1.212331,0.87308,0.008947,0.707631,1.10402,-0.0624779999999999,1.193781,1.14822,-0.058141,0.924405,-0.0021539999999999,-0.0001519999999999,1.075595,0.002154,0.0001519999999999,0.875601,-0.49055,-0.0123879999999999,1.118511,-0.47165,-0.0318419999999999,0.864721,-0.89117,-0.0083269999999999,1.110277,-0.8721300000000001,-0.0228569999999999
19,0.9856155000000001,0.802121,0.1348955,0.8229435,0.609891,0.1140775,0.7185435,0.849711,0.0273845,1.1519235,0.6317609999999999,0.1060575,1.2125435,0.873421,0.0071165,0.7072835,1.103091,-0.0652075,1.1943335,1.148191,-0.0602284999999999,0.9242195,-0.002107,-0.0003374999999999,1.0757805,0.002107,0.0003375,0.8765235000000001,-0.489139,-0.0156954999999999,1.1200234999999998,-0.471209,-0.0342485,0.8672934999999999,-0.8897590000000001,-0.0090044999999999,1.1128725,-0.871529,-0.0229544999999999
20,0.9854415,0.8019655,0.1334935,0.8223165,0.6100455,0.1133815,0.7182364999999999,0.8487454999999999,0.0258715,1.1519165,0.6306754999999999,0.1043885,1.2127865,0.8741855,0.0052875,0.7068365,1.1022855,-0.0682425,1.1948365,1.1484855,-0.0625425,0.9240155,-0.0020585,-0.0005224999999999,1.0759845,0.0020585,0.0005225,0.8775665,-0.4878745,-0.0188725,1.1218565,-0.4686345,-0.0367585,0.8698764999999999,-0.8884445,-0.0101015,1.1155705,-0.8688045,-0.0229155
21,0.9850900000000001,0.802076,0.1317025,0.821331,0.609916,0.1123905,0.7178610000000001,0.847596,0.0240665,1.151741,0.629596,0.1026035,1.212641,0.875136,0.0034544999999999,0.7061110000000002,1.1021459999999998,-0.0724424999999999,1.195171,1.148846,-0.0652825,0.923763,-0.002013,-0.0007174999999999,1.0762369999999999,0.0020129999999999,0.0007175,0.879011,-0.485964,-0.0218575,1.123601,-0.465144,-0.0391144999999999,0.872691,-0.8865139999999999,-0.0111674999999999,1.118588,-0.865174,-0.0234515
22,0.985133,0.8023235000000001,0.1293699999999999,0.820797,0.6095135,0.110507,0.717657,0.8464035000000001,0.0209029999999999,1.151587,0.6291135,0.100454,1.212717,0.8748635,0.000937,0.7062269999999999,1.1019535,-0.07688,1.1960169999999999,1.1492535,-0.06862,0.923523,-0.0019465,-0.000986,1.076477,0.0019464999999999,0.000986,0.880217,-0.4833065,-0.024644,1.125127,-0.4635765,-0.041609,0.875337,-0.8837864999999999,-0.012255,1.121415,-0.8633865,-0.024328
23,0.9846625,0.8022855,0.1266189999999999,0.8202005,0.6088255,0.108279,0.7170505,0.8450955,0.017236,1.1514405,0.6287455,0.098545,1.2126305,0.8739755,-0.001825,0.7062405,1.1017955,-0.082107,1.1968305,1.1495955,-0.072207,0.9233105,-0.0018764999999999,-0.0012239999999999,1.0766895,0.0018765,0.001224,0.8812005,-0.4806545,-0.0275569999999999,1.1265844999999999,-0.4608645,-0.0441909999999999,0.8778305000000001,-0.8809945,-0.013109,1.1242095,-0.8605545,-0.025357
24,0.983798,0.8024169999999999,0.1237875,0.819233,0.608067,0.1059485,0.715883,0.843517,0.0133675,1.150993,0.628467,0.0967305,1.2120129999999998,0.871877,-0.0050114999999999,0.7056030000000001,1.101437,-0.0877034999999999,1.197483,1.149837,-0.0760634999999999,0.923173,-0.001773,-0.0014954999999999,1.076827,0.0017729999999999,0.0014955,0.882043,-0.478053,-0.0304194999999999,1.127656,-0.459293,-0.0469695,0.880363,-0.878263,-0.0142094999999999,1.1267800000000001,-0.8589330000000001,-0.0264434999999999
25,0.9829080000000001,0.802483,0.1206235,0.8181880000000001,0.607073,0.1029905,0.7146780000000001,0.841843,0.0090875,1.151068,0.628593,0.0948475,1.210938,0.8698629999999999,-0.0082584999999999,0.704948,1.101003,-0.0938305,1.197948,1.149903,-0.0805105,0.923098,-0.0016229999999999,-0.0019514999999999,1.076902,0.0016229999999999,0.0019515,0.882878,-0.4756169999999999,-0.0336444999999999,1.128793,-0.457877,-0.0498865,0.883008,-0.875687,-0.0152404999999999,1.1293980000000001,-0.857487,-0.0281705
26,0.981968,0.802736,0.1171925,0.8174939999999999,0.6063259999999999,0.0998135,0.7134940000000001,0.840476,0.0044075,1.151504,0.629446,0.0928595,1.2099039999999999,0.8678159999999999,-0.0117135,0.704314,1.100886,-0.1001515,1.1982739999999998,1.1501860000000002,-0.0855515,0.9229940000000001,-0.001395,-0.0025804999999999,1.077006,0.001395,0.0025804999999999,0.883804,-0.472954,-0.0369795,1.129985,-0.456294,-0.0528395,0.885534,-0.872824,-0.0166704999999999,1.131954,-0.855904,-0.0299985
27,0.9807115000000001,0.8030055,0.112825,0.8166205,0.6053555,0.09589,0.7125505,0.8401055,-0.0008139999999999,1.1522705,0.6306155,0.09096,1.2092705,0.8657155,-0.0148199999999999,0.7035605,1.1009455,-0.1074439999999999,1.1985305,1.1502455,-0.0913739999999999,0.9228105,-0.0012175,-0.0033309999999999,1.0771895,0.0012174999999999,0.003331,0.8848005000000001,-0.4698245,-0.040586,1.1314065,-0.4541445,-0.0560389999999999,0.8881605000000001,-0.8693745,-0.018024,1.1345705,-0.8535645,-0.0322019999999999
28,0.979443,0.8031815,0.1080555,0.815652,0.6040915,0.0914195,0.711542,0.8399314999999999,-0.0066905,1.153212,0.6319715,0.0888565,1.208722,0.8636315,-0.0182584999999999,0.702302,1.0999015,-0.1155294999999999,1.198792,1.1502015,-0.0977694999999999,0.922582,-0.0010915,-0.0041035,1.077418,0.0010915,0.0041034999999999,0.885552,-0.4663084999999999,-0.0444705,1.133367,-0.4518784999999999,-0.0592964999999999,0.890822,-0.8655685000000001,-0.0193075,1.137264,-0.8511285000000001,-0.0333874999999999
29,0.9781035,0.8035344999999999,0.102877,0.8148425000000001,0.6034845,0.086899,0.7104025,0.8393744999999999,-0.0132499999999999,1.1536825,0.6330745,0.08637,1.2078225,0.8612645,-0.022476,0.7012625,1.0988745,-0.1239069999999999,1.1991824999999998,1.1502745,-0.104557,0.9223325,-0.0009195,-0.0050019999999999,1.0776675,0.0009195,0.0050019999999999,0.8861725000000001,-0.4625855,-0.0489509999999999,1.1353745,-0.4494654999999999,-0.062848,0.8935225000000001,-0.8614355,-0.020753,1.1399635,-0.8485155000000001,-0.034751
30,0.976917,0.80407,0.097603,0.8136950000000001,0.60283,0.081564,0.709525,0.83913,-0.0198329999999999,1.152685,0.63317,0.08323,1.207095,0.85877,-0.027066,0.700645,1.0980100000000002,-0.13149,1.199845,1.1503100000000002,-0.1112999999999999,0.922015,-0.0009009999999999,-0.0058469999999999,1.077985,0.000901,0.005847,0.886625,-0.45835,-0.0534109999999999,1.137203,-0.44623,-0.066084,0.895945,-0.85684,-0.022487,1.14221,-0.84513,-0.036195
31,0.9753035000000001,0.8045669999999999,0.091707,0.8125855,0.6023569999999999,0.076179,0.7083155,0.838587,-0.026542,1.1516395,0.633207,0.079932,1.2060855,0.857367,-0.03209,0.6992955000000001,1.096197,-0.140111,1.1998955,1.150097,-0.118921,0.9217055000000001,-0.000792,-0.006706,1.0782945,0.0007919999999999,0.006706,0.8874655,-0.454393,-0.057954,1.1392445,-0.441673,-0.069629,0.8987455,-0.8524930000000001,-0.0242189999999999,1.1446744999999998,-0.8403630000000001,-0.037487
32,0.9736580000000001,0.8050685000000001,0.0852495,0.811339,0.6019385,0.0701255,0.707049,0.8378085000000001,-0.0342834999999999,1.150963,0.6337485,0.0762445,1.204649,0.8561085,-0.0381605,0.6978490000000002,1.0942685,-0.1497105,1.199529,1.1498685,-0.1281405,0.921339,-0.0006955,-0.0076174999999999,1.078661,0.0006954999999999,0.0076175,0.888429,-0.4500915,-0.0628565,1.141176,-0.4374815,-0.0734005,0.901689,-0.8478815,-0.0263394999999999,1.147149,-0.8359015,-0.0395244999999999
33,0.972024,0.8054030000000001,0.0772805,0.81011,0.6016630000000001,0.0628175,0.70609,0.8376830000000001,-0.0437705,1.149641,0.6343530000000001,0.0710075,1.20341,0.8566830000000001,-0.0454175,0.69631,1.091883,-0.1613135,1.19909,1.149883,-0.1388935,0.9208600000000001,-0.000716,-0.0084874999999999,1.07914,0.000716,0.0084874999999999,0.8893300000000001,-0.444667,-0.0685865,1.143245,-0.432637,-0.0776135,0.9048800000000001,-0.842127,-0.0299744999999999,1.149995,-0.8308169999999999,-0.0421534999999999
34,0.9704685,0.8061054999999999,0.0687985,0.8091685,0.6016254999999999,0.0550135,0.7052585,0.8372655,-0.0540065,1.1476935,0.6352255,0.0649185,1.2028085,0.8575254999999999,-0.0535704999999999,0.6946285,1.0896855,-0.1741325,1.1989085,1.1504855,-0.1501125,0.9203685,-0.0008145,-0.0092965,1.0796315,0.0008144999999999,0.0092965,0.8905385,-0.4386945,-0.0744455,1.1453765,-0.4270545,-0.0821025,0.9082585,-0.8358145,-0.0343875,1.1529865,-0.8249945000000001,-0.0452535
35,0.968457,0.80646,0.0602565,0.807669,0.6010599999999999,0.0471785,0.703889,0.8367199999999999,-0.0643035,1.144771,0.63522,0.0585615,1.201789,0.8585799999999999,-0.0621245,0.692449,1.08675,-0.1867565,1.198149,1.1508500000000002,-0.1613765,0.919829,-0.001084,-0.0099934999999999,1.080171,0.001084,0.0099935,0.891669,-0.4319199999999999,-0.0802435,1.147384,-0.42086,-0.0866465,0.911619,-0.8287500000000001,-0.0385574999999999,1.155782,-0.81854,-0.0484474999999999
36,0.966617,0.8067200000000001,0.0517949999999999,0.8063670000000001,0.6007100000000001,0.039509,0.702387,0.83602,-0.074949,1.140948,0.6344700000000001,0.0516309999999999,1.200427,0.8594200000000001,-0.0716,0.6901269999999999,1.08329,-0.199186,1.1972269999999998,1.15129,-0.173006,0.919307,-0.001335,-0.0106249999999999,1.080693,0.0013349999999999,0.0106249999999999,0.892997,-0.42526,-0.085696,1.149275,-0.41513,-0.091046,0.914907,-0.8219000000000001,-0.043019,1.158442,-0.8126,-0.051702
37,0.9653465,0.8071845,0.043046,0.8053865,0.6008045,0.031667,0.7010265,0.8352645,-0.086035,1.1368095,0.6333245,0.0438869999999999,1.1993065,0.8604645,-0.081461,0.6882865,1.0804245,-0.2128769999999999,1.1966065,1.1518244999999998,-0.1853469999999999,0.9187865,-0.0015495,-0.011288,1.0812135,0.0015495,0.011288,0.8950165,-0.4184955,-0.090947,1.1512425,-0.4091955,-0.095617,0.9185765,-0.8149255,-0.047363,1.1614815,-0.8066255,-0.055092
38,0.9638030000000001,0.8073290000000001,0.033979,0.8040430000000001,0.600139,0.023511,0.6994830000000001,0.834119,-0.097258,1.13314,0.632329,0.036138,1.198153,0.861649,-0.091778,0.6863330000000001,1.077619,-0.226818,1.195653,1.152019,-0.198368,0.918283,-0.0018409999999999,-0.0117349999999999,1.081717,0.001841,0.011735,0.897083,-0.4119009999999999,-0.095748,1.153068,-0.403301,-0.100138,0.9221830000000001,-0.808161,-0.051732,1.164466,-0.800731,-0.058544
39,0.9620960000000001,0.807196,0.0248094999999999,0.803186,0.599336,0.0158835,0.697486,0.832006,-0.1086575,1.130838,0.632016,0.0286125,1.1969859999999999,0.862816,-0.1025175,0.683666,1.071986,-0.2413375,1.194456,1.152086,-0.2119175,0.917916,-0.0020949999999999,-0.0121045,1.082084,0.0020949999999999,0.0121045,0.8990660000000001,-0.4058839999999999,-0.1004475,1.154785,-0.3976739999999999,-0.1045375,0.925606,-0.801904,-0.0561235,1.1674229999999999,-0.795064,-0.0619495
40,0.960237,0.8070185,0.0163115,0.802127,0.5981985,0.0085525,0.695147,0.8286285,-0.1199645,1.128792,0.6318684999999999,0.0217665,1.195507,0.8634185,-0.1129445,0.6810170000000001,1.0670085,-0.2545645,1.192677,1.1515985,-0.2251145,0.917617,-0.0024155,-0.0122635,1.082383,0.0024155,0.0122635,0.900797,-0.4006714999999999,-0.1049245,1.15619,-0.3926515,-0.1086145,0.928577,-0.7966415,-0.0603694999999999,1.170062,-0.7898515,-0.0652075
41,0.9584405,0.806967,0.0076565,0.8013705,0.597237,0.0014394999999999,0.6929905000000001,0.8253569999999999,-0.1304765,1.1259625,0.631267,0.0140815,1.1942504999999999,0.864517,-0.1233965,0.6783605000000001,1.061867,-0.2668465,1.1909604999999999,1.151197,-0.2380765,0.9173005,-0.0028679999999999,-0.0121345,1.0826995,0.0028679999999999,0.0121345,0.9024305,-0.395373,-0.1092465,1.1576325,-0.387613,-0.1128065,0.9313405,-0.7913429999999999,-0.0647165,1.1725515,-0.7845930000000001,-0.0686185
42,0.9565905,0.806883,-0.0001885,0.8004005,0.5959730000000001,-0.0050315,0.6903205,0.821453,-0.1402024999999999,1.1239675,0.630823,0.0077575,1.1931505,0.864693,-0.1333025,0.6755504999999999,1.057553,-0.2785225,1.1889255,1.1502329999999998,-0.2505525,0.9170505,-0.0032849999999999,-0.0119005,1.0829495,0.0032849999999999,0.0119005,0.9040205,-0.390977,-0.1128724999999999,1.1587835,-0.383737,-0.1165725,0.9335205,-0.7868069999999999,-0.0679835,1.1745945,-0.7804669999999999,-0.0714245
43,0.95425,0.8059945,-0.0082555,0.79892,0.5948844999999999,-0.0115185,0.68719,0.8171145,-0.1496985,1.121997,0.6301945,0.0015534999999999,1.1916479999999998,0.8643145,-0.1432585,0.67255,1.0532445,-0.2896185,1.186193,1.1486145,-0.2634085,0.91676,-0.0036805,-0.0115775,1.08324,0.0036805,0.0115775,0.9051300000000001,-0.3865955,-0.1164984999999999,1.159528,-0.3803355,-0.1202285,0.93525,-0.7824255,-0.0710944999999999,1.176309,-0.7769255,-0.0746655
44,0.9519765,0.80532,-0.0170195,0.7973565000000001,0.5939,-0.0189105,0.6844764999999999,0.81308,-0.1598245,1.1193115,0.629,-0.0062415,1.1901435,0.86334,-0.1540145,0.6691765000000001,1.04838,-0.3019245,1.1837275,1.14698,-0.2766745,0.9164965,-0.0040229999999999,-0.0112115,1.0835035,0.004023,0.0112115,0.9060765,-0.38322,-0.1205445,1.1600535,-0.37746,-0.1240344999999999,0.9368565000000001,-0.77891,-0.0746495,1.1779885,-0.77396,-0.0782115
45,0.949864,0.8045455,-0.0256915,0.795834,0.5929854999999999,-0.0263945,0.6818140000000001,0.8087555,-0.1700765,1.11667,0.6274955,-0.0146245,1.188802,0.8621655,-0.1652565,0.665924,1.0432255,-0.3140165,1.181163,1.1450455000000002,-0.2900565,0.916274,-0.0043395,-0.0108625,1.083726,0.0043394999999999,0.0108625,0.906914,-0.3806845,-0.1246765,1.160594,-0.3753445,-0.1278565,0.938634,-0.7762645,-0.0779504999999999,1.1796470000000001,-0.7717245,-0.0817195
46,0.947136,0.8034425,-0.0345615,0.793846,0.5918125,-0.0341885,0.6789260000000001,0.8044025,-0.1803195,1.113735,0.6260224999999999,-0.0229925,1.187378,0.8609924999999999,-0.1766994999999999,0.662756,1.0387725,-0.3245995,1.178085,1.1433525,-0.3033794999999999,0.9159660000000001,-0.0047974999999999,-0.0104275,1.084034,0.0047974999999999,0.0104275,0.907236,-0.3786675,-0.1293295,1.1609099999999999,-0.3731875,-0.1316294999999999,0.939866,-0.7739675,-0.0813125,1.180877,-0.7694975000000001,-0.0852345
47,0.9444425000000001,0.801822,-0.0437115,0.7916625000000002,0.5905119999999999,-0.0419745,0.6760525000000002,0.799882,-0.1900855,1.1104975,0.624382,-0.0314005,1.1862655,0.859682,-0.1877255,0.6592025,1.034132,-0.3352455,1.1746595,1.141232,-0.3164455,0.9155925,-0.005238,-0.0100365,1.0844075,0.0052379999999999,0.0100365,0.9075525000000001,-0.376778,-0.1339455,1.1610225,-0.370978,-0.1353754999999999,0.9408325000000001,-0.771728,-0.0847445,1.1817725000000001,-0.767168,-0.0886555
48,0.9415485000000001,0.8000035,-0.0531785,0.7891485,0.5889835,-0.0499045,0.6732485,0.7960435,-0.1995595,1.1068715,0.6225835,-0.0400635,1.1850635,0.8575634999999999,-0.1988395,0.6558085,1.0312835,-0.3463195,1.1708885,1.1390835,-0.3292095,0.9151685,-0.0057365,-0.0095975,1.0848315,0.0057365,0.0095974999999999,0.9075485000000001,-0.3752065,-0.1388195,1.1612725,-0.3690465,-0.1392395,0.9414485000000001,-0.7698565,-0.0885224999999999,1.1822035,-0.7650665,-0.0919045
49,0.9386860000000001,0.79823,-0.0629815,0.786586,0.58759,-0.0579645,0.670756,0.79296,-0.2089395,1.102894,0.62095,-0.0491725,1.184114,0.8558,-0.2098695,0.652486,1.0285,-0.3575595,1.167243,1.1372600000000002,-0.3416194999999999,0.914816,-0.00635,-0.0092395,1.085184,0.0063499999999999,0.0092394999999999,0.907936,-0.37381,-0.1440595,1.161204,-0.36668,-0.1431895,0.941866,-0.7680400000000001,-0.0919524999999999,1.182402,-0.76259,-0.0951974999999999
50,0.9361235,0.79578,-0.072444,0.7838835,0.5856399999999999,-0.065751,0.6684335,0.79022,-0.217835,1.0991155,0.61881,-0.0578599999999999,1.1833064999999998,0.8535200000000001,-0.219825,0.6493335,1.02435,-0.368435,1.1636175,1.1347999999999998,-0.353245,0.9146335,-0.0068499999999999,-0.0091089999999999,1.0853665,0.00685,0.0091089999999999,0.9081635,-0.3729099999999999,-0.149365,1.1613665,-0.36502,-0.147125,0.9421235,-0.76684,-0.095092,1.1825225,-0.76076,-0.098197
51,0.93376,0.793485,-0.0818204999999999,0.78142,0.584035,-0.0732945,0.6665,0.788145,-0.2259955,1.09505,0.616565,-0.0666924999999999,1.182286,0.851715,-0.2298855,0.64662,1.019905,-0.3784855,1.1601739999999998,1.131555,-0.3638255,0.91463,-0.0074149999999999,-0.0090214999999999,1.08537,0.007415,0.0090215,0.90821,-0.372275,-0.1543554999999999,1.1614119999999999,-0.364125,-0.1522955,0.94223,-0.7658849999999999,-0.0982325,1.182673,-0.7587849999999999,-0.1013135
52,0.931731,0.7914749999999999,-0.090417,0.779161,0.581745,-0.080317,0.664631,0.7852950000000001,-0.234977,1.090984,0.613815,-0.075265,1.181122,0.849885,-0.2389669999999999,0.643771,1.015575,-0.388937,1.156941,1.127875,-0.373527,0.914551,-0.007855,-0.008993,1.085449,0.007855,0.008993,0.908501,-0.371585,-0.159387,1.161373,-0.364575,-0.157247,0.942321,-0.764785,-0.101201,1.182803,-0.757455,-0.103944
53,0.9296750000000001,0.788445,-0.098677,0.777115,0.579065,-0.0866359999999999,0.662635,0.781795,-0.24346,1.088256,0.612175,-0.082123,1.180122,0.847465,-0.2472099999999999,0.641265,1.011605,-0.39908,1.153836,1.123115,-0.3826,0.914365,-0.008465,-0.0089209999999999,1.085635,0.008465,0.0089209999999999,0.9089450000000001,-0.371155,-0.1639499999999999,1.161228,-0.365715,-0.16196,0.942355,-0.763935,-0.103558,1.1829,-0.756815,-0.1056
54,0.9275615,0.785655,-0.1065015,0.7750015,0.576265,-0.0928605,0.6605415,0.7781849999999999,-0.2515635,1.0859455,0.611285,-0.0884015,1.1790095,0.8452949999999999,-0.2545834999999999,0.6384915,1.007715,-0.4097235,1.1508935,1.118475,-0.3910635,0.9140015000000001,-0.009145,-0.0087925,1.0859985,0.009145,0.0087925,0.9093315,-0.370375,-0.1685635,1.1610055,-0.364955,-0.1666635,0.9420915,-0.762715,-0.1057165,1.1827635,-0.754945,-0.1070475
55,0.9265125,0.7832,-0.113497,0.7743125,0.57316,-0.098498,0.6593525,0.7743,-0.259045,1.0846565,0.61067,-0.094163,1.1783975,0.84262,-0.261605,0.6362625,1.00278,-0.420705,1.1488935,1.1132300000000002,-0.398775,0.9138325,-0.0097499999999999,-0.008624,1.0861675,0.00975,0.008624,0.9107025000000001,-0.36645,-0.172445,1.1616564999999999,-0.36103,-0.171065,0.9426925,-0.75879,-0.107718,1.1833765,-0.75102,-0.108727
56,0.9254735000000001,0.781545,-0.1201415,0.7740635000000001,0.570395,-0.1040524999999999,0.6581535000000001,0.770675,-0.2671315,1.0832625,0.609235,-0.1001435,1.1775805,0.840355,-0.2685415,0.6337935,0.997325,-0.4320615,1.1472535,1.108705,-0.4063215,0.9137135,-0.0104049999999999,-0.0084365,1.0862865,0.010405,0.0084365,0.9119935,-0.361975,-0.1763115,1.1624505,-0.356555,-0.1755115,0.9431435,-0.754315,-0.1097925,1.1839994999999999,-0.746545,-0.1105435
57,0.9241080000000002,0.780805,-0.13268,0.773958,0.568685,-0.115549,0.656718,0.7677149999999999,-0.281629,1.081961,0.608915,-0.111874,1.176484,0.839855,-0.281069,0.6307580000000002,0.989795,-0.448269,1.145535,1.105135,-0.419909,0.913768,-0.011135,-0.007991,1.086232,0.0111349999999999,0.0079909999999999,0.9131480000000001,-0.356395,-0.1861789999999999,1.16312,-0.350975,-0.185999,0.943408,-0.7487349999999999,-0.117712,1.184343,-0.7409650000000001,-0.118443
58,0.922694,0.783575,-0.1464995,0.774004,0.571155,-0.1282675,0.655024,0.767505,-0.2967805,1.080563,0.609625,-0.1246435,1.1753239999999998,0.842165,-0.2949605,0.627614,0.985965,-0.4655005,1.143942,1.104685,-0.4350805,0.914054,-0.010605,-0.0080275,1.085946,0.010605,0.0080275,0.914424,-0.344665,-0.2048404999999999,1.164508,-0.338885,-0.2022605,0.943634,-0.736275,-0.1332905,1.185073,-0.7284149999999999,-0.1318925
59,0.9208520000000001,0.7868,-0.159939,0.7738119999999999,0.57456,-0.140604,0.6529320000000001,0.76704,-0.312403,1.079167,0.61075,-0.13677,1.17242,0.8445,-0.308673,0.623862,0.98255,-0.483473,1.141932,1.10428,-0.450273,0.914342,-0.0103199999999999,-0.0079249999999999,1.085658,0.0103199999999999,0.007925,0.9156020000000001,-0.33165,-0.223933,1.165792,-0.32616,-0.218313,0.9436620000000001,-0.72255,-0.1497879999999999,1.185466,-0.71523,-0.145613
60,0.9184845,0.78969,-0.1726875,0.7732945,0.57804,-0.1525835,0.6503745000000001,0.76488,-0.3276125,1.0773035,0.6115999999999999,-0.1486085,1.1687425,0.84629,-0.3215225,0.6192745,0.97798,-0.5013925,1.1394465,1.10207,-0.4658425,0.9144945,-0.01003,-0.0077965,1.0855055,0.0100299999999999,0.0077964999999999,0.9163845,-0.31817,-0.2432225,1.1666265,-0.31299,-0.2329525,0.9432745,-0.70841,-0.1662855,1.1856055,-0.7015800000000001,-0.1594945
61,0.91587,0.79247,-0.1856499999999999,0.7733,0.58153,-0.164547,0.64788,0.76241,-0.34137,1.075629,0.61219,-0.1603319999999999,1.164995,0.84744,-0.33553,0.6141,0.97172,-0.51903,1.136853,1.10039,-0.48139,0.91471,-0.0098999999999999,-0.0075549999999999,1.0852899999999999,0.0099,0.007555,0.9165,-0.3040299999999999,-0.2621099999999999,1.167327,-0.29946,-0.2475699999999999,0.9427500000000001,-0.6936,-0.182792,1.18576,-0.68763,-0.173612
62,0.9133120000000001,0.795835,-0.1985839999999999,0.773542,0.584865,-0.1766559999999999,0.645482,0.759145,-0.355184,1.073796,0.612865,-0.1718589999999999,1.160631,0.849125,-0.349614,0.608492,0.962505,-0.535744,1.133677,1.099355,-0.498004,0.914962,-0.009615,-0.007396,1.085038,0.0096149999999999,0.007396,0.9164820000000001,-0.289435,-0.2806539999999999,1.167901,-0.285735,-0.262164,0.9420920000000002,-0.6784250000000001,-0.198574,1.185905,-0.673455,-0.1879779999999999
63,0.91073,0.798995,-0.2122595,0.77476,0.585525,-0.1906005,0.64298,0.756065,-0.3695995,1.071683,0.612485,-0.1840075,1.156081,0.850915,-0.3642395,0.60312,0.951695,-0.5518894999999999,1.130158,1.098155,-0.5155095000000001,0.91523,-0.009415,-0.0072104999999999,1.08477,0.009415,0.0072105,0.91633,-0.275335,-0.2991395,1.168713,-0.268185,-0.2783095,0.94152,-0.663775,-0.2148995,1.18613,-0.656395,-0.2040795
64,0.9081305000000001,0.80148,-0.226375,0.7759105000000001,0.58657,-0.204318,0.6403105,0.75236,-0.384695,1.0693575,0.61159,-0.1965279999999999,1.1516705,0.85217,-0.379515,0.5979005000000002,0.94158,-0.567325,1.1261105,1.09598,-0.5337149999999999,0.9155105,-0.00925,-0.0068749999999999,1.0844895,0.0092499999999999,0.006875,0.9161405,-0.26058,-0.3175949999999999,1.1695195,-0.25202,-0.294755,0.9409805,-0.64859,-0.231385,1.1863355,-0.6407700000000001,-0.220345
65,0.9054610000000001,0.80306,-0.2400999999999999,0.777181,0.58777,-0.2177609999999999,0.637821,0.74872,-0.39922,1.067252,0.61124,-0.208719,1.147272,0.85272,-0.39449,0.5922710000000001,0.93007,-0.5831,1.121655,1.09318,-0.55291,0.9159710000000001,-0.009,-0.0063599999999999,1.084029,0.009,0.00636,0.9161110000000001,-0.2482899999999999,-0.33455,1.170522,-0.2346299999999999,-0.31118,0.9405310000000001,-0.6359699999999999,-0.24667,1.186606,-0.6253099999999999,-0.2364299999999999
66,0.9027000000000001,0.8029999999999999,-0.247805,0.77816,0.58851,-0.22466,0.63508,0.7431,-0.407765,1.065175,0.60999,-0.21469,1.142745,0.85088,-0.405165,0.5866899999999999,0.92014,-0.593855,1.117088,1.08847,-0.566025,0.91645,-0.0086199999999999,-0.006065,1.0835499999999998,0.0086199999999999,0.0060649999999999,0.9162399999999999,-0.23617,-0.345895,1.171673,-0.21928,-0.321415,0.94008,-0.62359,-0.256985,1.186982,-0.61061,-0.246145
67,0.899546,0.798845,-0.2541299999999999,0.778506,0.585285,-0.22996,0.632396,0.733825,-0.41475,1.063063,0.6071949999999999,-0.219372,1.138462,0.8455550000000001,-0.41416,0.580376,0.905785,-0.6046,1.112063,1.079225,-0.5774900000000001,0.916996,-0.0093949999999999,-0.0052199999999999,1.083004,0.009395,0.00522,0.9162760000000001,-0.2331949999999999,-0.3487099999999999,1.17219,-0.2138749999999999,-0.3257299999999999,0.9396460000000001,-0.620735,-0.26022,1.186857,-0.605005,-0.25041
68,0.8963975,0.7944199999999999,-0.2606549999999999,0.7780175,0.58175,-0.235375,0.6300175,0.72351,-0.421485,1.0608905,0.60459,-0.224149,1.1347904999999998,0.8399099999999999,-0.423745,0.5737475000000001,0.8927099999999999,-0.616425,1.1072514999999998,1.06911,-0.588605,0.9175175,-0.00983,-0.004415,1.0824824999999998,0.00983,0.004415,0.9167475,-0.23051,-0.351135,1.1730705,-0.20854,-0.329935,0.9392475,-0.61805,-0.263175,1.1868755,-0.5995699999999999,-0.254305
69,0.8933800000000001,0.790125,-0.2674649999999999,0.7777000000000001,0.578025,-0.2410649999999999,0.6277900000000001,0.713955,-0.428965,1.059144,0.602055,-0.229124,1.1313119999999999,0.8341350000000001,-0.433715,0.5672499999999999,0.879825,-0.6287849999999999,1.102284,1.061045,-0.599865,0.91788,-0.0101749999999999,-0.003805,1.08212,0.010175,0.003805,0.91749,-0.2279049999999999,-0.3536249999999999,1.174152,-0.2031949999999999,-0.334065,0.93914,-0.615445,-0.265675,1.187104,-0.5941649999999999,-0.2577049999999999
70,0.8890465,0.78481,-0.274265,0.7760865,0.57509,-0.246545,0.6242565,0.70478,-0.436695,1.0558764999999999,0.60014,-0.233813,1.1263665,0.82847,-0.443035,0.5601365,0.8668899999999999,-0.640485,1.0959705,1.0527,-0.611525,0.9181865,-0.01051,-0.0033849999999999,1.0818135,0.0105099999999999,0.0033849999999999,0.9170265000000001,-0.22614,-0.355855,1.1741805,-0.19816,-0.338075,0.9376365,-0.61378,-0.268575,1.1860975,-0.58909,-0.260905
71,0.8846305,0.77921,-0.2808,0.7742905,0.5718300000000001,-0.25239,0.6208104999999999,0.69538,-0.44375,1.0524844999999998,0.59807,-0.238584,1.1219315,0.82258,-0.4520699999999999,0.5533105,0.85535,-0.65271,1.0900884999999998,1.0441,-0.6226,0.9185505,-0.01088,-0.003,1.0814495,0.01088,0.003,0.9164605,-0.2248,-0.35691,1.1743475,-0.1927899999999999,-0.3419999999999999,0.9362805,-0.61269,-0.27038,1.1851495,-0.58362,-0.26417
72,0.880705,0.773195,-0.286775,0.7726350000000001,0.571615,-0.256055,0.617985,0.684625,-0.449835,1.049955,0.597205,-0.242365,1.118013,0.816205,-0.460865,0.546735,0.845005,-0.665065,1.084726,1.035285,-0.633035,0.9189350000000001,-0.011095,-0.0028249999999999,1.081065,0.0110949999999999,0.0028249999999999,0.916655,-0.224045,-0.357285,1.174758,-0.190185,-0.343755,0.935395,-0.612185,-0.271665,1.184426,-0.5810150000000001,-0.265945
73,0.8766975,0.76691,-0.292575,0.7702975000000001,0.57124,-0.259755,0.6153875000000001,0.67411,-0.455945,1.0477065,0.59663,-0.245625,1.1142465,0.8099500000000001,-0.468755,0.5401075,0.83312,-0.677405,1.0794745,1.02696,-0.643095,0.9192275,-0.0112499999999999,-0.002915,1.0807725,0.01125,0.002915,0.9168775,-0.2239999999999999,-0.357675,1.1751955,-0.1875699999999999,-0.345305,0.9345475,-0.61246,-0.272465,1.1836525,-0.5784,-0.267505
74,0.8730115,0.76078,-0.29859,0.7679914999999999,0.57106,-0.26337,0.6131515000000001,0.66356,-0.46181,1.0454925,0.59547,-0.24917,1.1107205,0.80309,-0.47667,0.5344315,0.8218799999999999,-0.6882,1.0746075,1.01843,-0.6523800000000001,0.9194215,-0.0113999999999999,-0.00322,1.0805785,0.0113999999999999,0.00322,0.9175715,-0.22374,-0.35826,1.1757435,-0.1846099999999999,-0.34667,0.9338615,-0.61246,-0.27384,1.1829075,-0.5754400000000001,-0.26887
75,0.8698185,0.755695,-0.304035,0.7645785,0.567165,-0.269335,0.6114285000000002,0.6535850000000001,-0.467905,1.0431385,0.592775,-0.253755,1.1073884999999999,0.7979350000000001,-0.482415,0.5291485,0.8109250000000001,-0.698105,1.0699255,1.010465,-0.661535,0.9195885,-0.011635,-0.0037349999999999,1.0804115,0.011635,0.0037349999999999,0.9184385000000002,-0.2239149999999999,-0.358995,1.1763595,-0.181875,-0.347725,0.9333985000000001,-0.6129249999999999,-0.275115,1.1821415,-0.5726549999999999,-0.269585
76,0.8666920000000001,0.75128,-0.309535,0.7612220000000001,0.56334,-0.275145,0.609762,0.64513,-0.474215,1.040713,0.59022,-0.258365,1.103747,0.79359,-0.487995,0.524132,0.80059,-0.706625,1.065291,1.0038200000000002,-0.670705,0.919712,-0.01202,-0.0043749999999999,1.080288,0.01202,0.004375,0.9187020000000001,-0.22299,-0.360145,1.176684,-0.17904,-0.348485,0.932482,-0.61216,-0.276265,1.181135,-0.56962,-0.269445
77,0.8635925,0.7472300000000001,-0.31465,0.7583225,0.55906,-0.28101,0.6078325,0.63761,-0.48042,1.0381144999999998,0.5872999999999999,-0.26306,1.1004414999999999,0.78856,-0.49443,0.5196025,0.78959,-0.71336,1.0604535,0.99816,-0.68017,0.9198925,-0.0125,-0.00509,1.0801075,0.0125,0.0050899999999999,0.9178725,-0.22042,-0.36119,1.1764474999999999,-0.17702,-0.34864,0.9313325,-0.60954,-0.27766,1.1798035,-0.56742,-0.26878
78,0.860967,0.74288,-0.319915,0.756547,0.55462,-0.2867849999999999,0.606257,0.62992,-0.4864549999999999,1.035822,0.58432,-0.267835,1.09784,0.7835799999999999,-0.500255,0.515787,0.77867,-0.718935,1.056247,0.99261,-0.689345,0.920007,-0.0130199999999999,-0.005695,1.079993,0.01302,0.005695,0.916957,-0.21826,-0.362105,1.176403,-0.1743299999999999,-0.349445,0.930277,-0.6073599999999999,-0.279085,1.178993,-0.5644199999999999,-0.268625
79,0.858823,0.73905,-0.32504,0.755533,0.54981,-0.29233,0.6050530000000001,0.6226400000000001,-0.4921799999999999,1.033876,0.58131,-0.27257,1.095815,0.7783199999999999,-0.50554,0.512443,0.7683800000000001,-0.72417,1.052435,0.98645,-0.6985,0.920053,-0.01355,-0.00625,1.079947,0.01355,0.00625,0.916233,-0.2148399999999999,-0.36379,1.176345,-0.1731099999999999,-0.34961,0.9295630000000001,-0.6040300000000001,-0.28149,1.178331,-0.5630299999999999,-0.26819
80,0.8567345,0.7354499999999999,-0.330585,0.7547345000000001,0.54491,-0.2977649999999999,0.6038844999999999,0.61647,-0.4984949999999999,1.0314985,0.5769199999999999,-0.278145,1.0939335,0.77349,-0.5103949999999999,0.5094745,0.7595,-0.7290449999999999,1.0487245,0.9803,-0.706685,0.9201245,-0.01397,-0.0068249999999999,1.0798755,0.0139699999999999,0.006825,0.9153645,-0.21255,-0.366425,1.1760485,-0.17158,-0.3498549999999999,0.9284845,-0.6016,-0.284015,1.1774815,-0.5612400000000001,-0.267395
81,0.8546975,0.73222,-0.335785,0.7538875,0.5396399999999999,-0.303345,0.6026975,0.61215,-0.504715,1.0290834999999998,0.5729299999999999,-0.283865,1.0919845,0.7694,-0.514525,0.5068174999999999,0.75146,-0.7335849999999999,1.0452385,0.9736,-0.714115,0.9201175,-0.01439,-0.007425,1.0798825,0.0143899999999999,0.0074249999999999,0.9144875,-0.20972,-0.369135,1.1757585,-0.1698,-0.350145,0.9275774999999999,-0.59887,-0.286715,1.1765825,-0.55916,-0.266715
82,0.852974,0.7294050000000001,-0.340815,0.753164,0.534365,-0.309025,0.6017939999999999,0.608075,-0.509915,1.02687,0.568865,-0.289655,1.090113,0.765275,-0.518235,0.5046540000000002,0.744395,-0.738155,1.042327,0.967255,-0.721065,0.920114,-0.0147649999999999,-0.0080049999999999,1.079886,0.014765,0.008005,0.913844,-0.206795,-0.371885,1.175556,-0.167825,-0.350565,0.926834,-0.596025,-0.289185,1.175665,-0.556825,-0.266265
83,0.851491,0.7269399999999999,-0.34577,0.753161,0.52877,-0.31469,0.600941,0.6038,-0.51495,1.024943,0.56602,-0.29485,1.088296,0.76156,-0.5218700000000001,0.502631,0.7381,-0.74279,1.039785,0.9612,-0.72719,0.920121,-0.0153,-0.0085099999999999,1.0798789999999998,0.0152999999999999,0.0085099999999999,0.9132510000000001,-0.20414,-0.37422,1.1753259999999999,-0.16608,-0.3515,0.9261010000000001,-0.59331,-0.29146,1.174957,-0.55472,-0.26607
84,0.8502345,0.724745,-0.351095,0.7533245,0.527025,-0.318325,0.6002645,0.600395,-0.5192950000000001,1.0233995,0.562705,-0.299565,1.0867245,0.757455,-0.525675,0.5009745,0.7326550000000001,-0.747385,1.0374815,0.955685,-0.733725,0.9201445,-0.015585,-0.009035,1.0798555,0.015585,0.0090349999999999,0.9122445000000001,-0.2003249999999999,-0.377155,1.1751185,-0.162375,-0.352605,0.9251545000000001,-0.5894550000000001,-0.294255,1.1742175,-0.5508249999999999,-0.266315
85,0.8498720000000001,0.7222649999999999,-0.356215,0.754092,0.5247850000000001,-0.322115,0.599882,0.597005,-0.523035,1.0228679999999999,0.558745,-0.304135,1.085917,0.7524550000000001,-0.529425,0.500182,0.726915,-0.751595,1.035828,0.949925,-0.740015,0.920122,-0.015685,-0.0094549999999999,1.079878,0.015685,0.0094549999999999,0.9114820000000001,-0.1972249999999999,-0.379985,1.1751179999999999,-0.1587949999999999,-0.353835,0.924552,-0.586425,-0.297075,1.173808,-0.5471349999999999,-0.266495
86,0.8491744999999999,0.71997,-0.36177,0.7546345,0.52386,-0.3258999999999999,0.5992945000000001,0.59417,-0.5266500000000001,1.0222455,0.55576,-0.30857,1.0849065,0.74902,-0.5322199999999999,0.49954450000000006,0.72238,-0.75542,1.0342954999999998,0.94489,-0.74636,0.9200645000000001,-0.01555,-0.00964,1.0799355,0.01555,0.00964,0.9099045,-0.1911,-0.3831,1.1749325,-0.15477,-0.35525,0.9235945,-0.5801700000000001,-0.3000899999999999,1.1731955,-0.5427900000000001,-0.26725
87,0.8486230000000001,0.7175050000000001,-0.366765,0.755513,0.523345,-0.329505,0.598723,0.591645,-0.529645,1.021688,0.552485,-0.312945,1.084054,0.744865,-0.537235,0.49898300000000007,0.7180850000000001,-0.759095,1.033177,0.940185,-0.752825,0.920013,-0.0153949999999999,-0.0097349999999999,1.079987,0.0153949999999999,0.0097349999999999,0.9081330000000001,-0.185795,-0.386335,1.174789,-0.1501849999999999,-0.357815,0.922513,-0.5747150000000001,-0.3033949999999999,1.172738,-0.5378350000000001,-0.268855
88,0.8480565,0.715355,-0.37144,0.7565865,0.5225850000000001,-0.3334899999999999,0.5982965,0.5902050000000001,-0.53234,1.0211145,0.548145,-0.31706,1.0834885,0.742155,-0.5423899999999999,0.4984065,0.7151050000000001,-0.7624599999999999,1.0323525,0.936305,-0.7587200000000001,0.9198765,-0.0150449999999999,-0.0097299999999999,1.0801235,0.015045,0.00973,0.9064665,-0.1796249999999999,-0.38893,1.1746145000000001,-0.144165,-0.3599299999999999,0.9214965,-0.568555,-0.3057999999999999,1.1723335,-0.531605,-0.2701599999999999
89,0.847601,0.713225,-0.37592,0.757171,0.522885,-0.33659,0.5980810000000001,0.588515,-0.53436,1.0205529999999998,0.545215,-0.32012,1.082916,0.739175,-0.54779,0.497841,0.711885,-0.76546,1.0318189999999998,0.932515,-0.7652,0.919751,-0.0147249999999999,-0.00959,1.0802489999999998,0.0147249999999999,0.0095899999999999,0.904991,-0.1740249999999999,-0.39134,1.1744409999999998,-0.138805,-0.36208,0.920341,-0.562865,-0.30812,1.1718819999999999,-0.525965,-0.27088
90,0.847287,0.7108399999999999,-0.380385,0.757417,0.52348,-0.3393549999999999,0.598097,0.58646,-0.536245,1.020515,0.54228,-0.322805,1.082328,0.73603,-0.553255,0.49735700000000005,0.7085699999999999,-0.768085,1.031251,0.92923,-0.771985,0.919697,-0.0145299999999999,-0.0093849999999999,1.080303,0.0145299999999999,0.009385,0.9036270000000001,-0.16663,-0.393595,1.174067,-0.1338,-0.3645049999999999,0.9192770000000001,-0.55531,-0.310235,1.171473,-0.52058,-0.271935
91,0.847248,0.7086399999999999,-0.38432,0.757738,0.52409,-0.34163,0.598278,0.58428,-0.53796,1.0216779999999999,0.54149,-0.32531,1.081813,0.73224,-0.55953,0.4971479999999999,0.70553,-0.77027,1.030856,0.92587,-0.77817,0.919728,-0.01428,-0.0088399999999999,1.080272,0.01428,0.00884,0.902308,-0.1608399999999999,-0.39557,1.173868,-0.12915,-0.36695,0.918288,-0.5495399999999999,-0.31213,1.171273,-0.51529,-0.2730399999999999
92,0.8474215,0.706845,-0.38776,0.7580315000000001,0.522045,-0.34399,0.5984515,0.583145,-0.5396,1.0249445,0.5419050000000001,-0.32774,1.0813025,0.729175,-0.56593,0.4970415,0.703225,-0.7725,1.0308985,0.921415,-0.78421,0.9198115,-0.0141249999999999,-0.0084799999999999,1.0801885,0.0141249999999999,0.00848,0.9008214999999999,-0.1547549999999999,-0.3972299999999999,1.1737515,-0.124035,-0.36934,0.9171915000000002,-0.543455,-0.31401,1.1711325,-0.509665,-0.27434
93,0.8475945,0.70434,-0.39081,0.7583044999999999,0.52019,-0.34596,0.5985245,0.58158,-0.54122,1.0241874999999998,0.5427299999999999,-0.32957,1.0810275,0.726,-0.5721499999999999,0.49686450000000004,0.70067,-0.77475,1.0306054999999998,0.9171,-0.7893000000000001,0.9197845,-0.01411,-0.00792,1.0802155,0.01411,0.0079199999999999,0.8988945,-0.14797,-0.39937,1.1735345,-0.1196599999999999,-0.37112,0.9157745,-0.53665,-0.31584,1.1708095,-0.50499,-0.27493
94,0.8478585000000001,0.701295,-0.393555,0.7584285,0.517935,-0.347735,0.5984385,0.5794349999999999,-0.5430349999999999,1.0232345,0.543735,-0.333735,1.0809175,0.722645,-0.578335,0.49659850000000005,0.698105,-0.7769649999999999,1.0302655,0.912705,-0.7937749999999999,0.9198284999999999,-0.0141249999999999,-0.007445,1.0801715,0.0141249999999999,0.007445,0.8970285,-0.142655,-0.4008049999999999,1.1729384999999999,-0.115985,-0.373445,0.9142285,-0.5312250000000001,-0.316735,1.1701985,-0.501285,-0.276375
95,0.848311,0.6981250000000001,-0.395795,0.7587410000000001,0.5149050000000001,-0.3492349999999999,0.598571,0.576495,-0.544845,1.022441,0.5439050000000001,-0.337395,1.0812,0.718555,-0.5844849999999999,0.496611,0.6944250000000001,-0.779165,1.030279,0.907705,-0.7978649999999999,0.919881,-0.0145749999999999,-0.0072349999999999,1.080119,0.014575,0.007235,0.894931,-0.1351549999999999,-0.402775,1.172461,-0.1126949999999999,-0.374895,0.912751,-0.523555,-0.3178149999999999,1.169658,-0.4980449999999999,-0.277545
96,0.8486620000000001,0.695165,-0.397505,0.7590620000000001,0.511505,-0.350645,0.598022,0.573655,-0.5464249999999999,1.021402,0.543725,-0.340915,1.081451,0.715325,-0.588595,0.49664200000000003,0.690995,-0.781315,1.030226,0.902625,-0.801575,0.920002,-0.0150549999999999,-0.007075,1.079998,0.0150549999999999,0.0070749999999999,0.8925720000000001,-0.127265,-0.404475,1.171992,-0.1098549999999999,-0.376215,0.9111120000000001,-0.515425,-0.318695,1.169108,-0.495135,-0.278775
97,0.8489225,0.69223,-0.399465,0.7592325,0.50838,-0.351655,0.5977125,0.5697800000000001,-0.5483549999999999,1.0211754999999998,0.5425,-0.344075,1.0815195,0.71064,-0.5928249999999999,0.4968125000000001,0.68662,-0.784135,1.0302045,0.8966500000000001,-0.8054650000000001,0.9201625,-0.0156899999999999,-0.0067049999999999,1.0798375,0.01569,0.0067049999999999,0.8896125,-0.1198499999999999,-0.405975,1.1716125,-0.1082599999999999,-0.377615,0.9091925,-0.5077699999999999,-0.319115,1.1686485,-0.49332,-0.278985
98,0.8491355,0.68886,-0.4012799999999999,0.7595155,0.50512,-0.35302,0.5978355,0.56665,-0.55064,1.0219525,0.5418999999999999,-0.34595,1.0816865,0.70578,-0.59639,0.49713549999999995,0.68219,-0.78742,1.0301105,0.89066,-0.80965,0.9201555,-0.01642,-0.0066099999999999,1.0798445,0.0164199999999999,0.00661,0.8872055,-0.11243,-0.40717,1.1711955,-0.10601,-0.3781799999999999,0.9075155,-0.50019,-0.31969,1.1679705,-0.48994,-0.2791099999999999
99,0.84931,0.68421,-0.40306,0.75983,0.50044,-0.35467,0.59808,0.56425,-0.55291,1.022594,0.54173,-0.34813,1.0817649999999999,0.7005399999999999,-0.5999099999999999,0.4976099999999999,0.6775899999999999,-0.7907000000000001,1.029823,0.88494,-0.8137800000000001,0.9200699999999999,-0.01711,-0.00629,1.0799299999999998,0.01711,0.0062899999999999,0.8848,-0.1050599999999999,-0.40802,1.17088,-0.10392,-0.37916,0.9059,-0.49267,-0.32041,1.167409,-0.4881299999999999,-0.28066
100,0.8493375,0.6798900000000001,-0.4047349999999999,0.7600775,0.49597,-0.356085,0.5983875000000001,0.5626500000000001,-0.5548150000000001,1.0224845,0.5404100000000001,-0.349855,1.0815085,0.6958300000000001,-0.602345,0.49815750000000003,0.6729,-0.793955,1.0295825,0.87882,-0.818205,0.9199775,-0.0177799999999999,-0.0057849999999999,1.0800225,0.01778,0.005785,0.8821675000000001,-0.0982299999999999,-0.408545,1.1706175,-0.1018899999999999,-0.379975,0.9043275,-0.4856399999999999,-0.320915,1.1666845000000001,-0.4864999999999999,-0.282395
101,0.849315,0.677875,-0.407125,0.760575,0.495655,-0.358105,0.599685,0.563485,-0.557195,1.0224479999999998,0.534325,-0.352605,1.081331,0.692815,-0.605485,0.49878500000000003,0.6701550000000001,-0.797735,1.0294219999999998,0.875945,-0.823515,0.919875,-0.017185,-0.005555,1.080125,0.017185,0.005555,0.879685,-0.0912049999999999,-0.409535,1.170445,-0.097825,-0.381685,0.902865,-0.478325,-0.321685,1.165881,-0.4826249999999999,-0.283865
102,0.8495465,0.6758,-0.40897,0.7609865,0.49437,-0.36006,0.6008165,0.5645600000000001,-0.55932,1.0212245,0.52705,-0.35583,1.0810775,0.6897500000000001,-0.60883,0.4993965,0.66676,-0.80135,1.0289925,0.87236,-0.8293299999999999,0.9198665,-0.0165899999999999,-0.00531,1.0801335,0.0165899999999999,0.00531,0.8772965,-0.0843299999999999,-0.4109399999999999,1.1701065,-0.0941799999999999,-0.38338,0.9017165,-0.4711999999999999,-0.32272,1.1652535,-0.47919,-0.28539
103,0.8496060000000001,0.6738999999999999,-0.411295,0.761346,0.49334,-0.362185,0.601036,0.56586,-0.5615650000000001,1.018614,0.52062,-0.358955,1.080734,0.68723,-0.612215,0.500116,0.66335,-0.8049550000000001,1.028366,0.86847,-0.835755,0.919916,-0.0160299999999999,-0.005065,1.080084,0.0160299999999999,0.0050649999999999,0.8750060000000001,-0.07857,-0.412665,1.169656,-0.09026,-0.385275,0.900546,-0.4652,-0.323805,1.164199,-0.47579,-0.286985
104,0.849525,0.6710050000000001,-0.413745,0.761825,0.491705,-0.364255,0.601605,0.5657449999999999,-0.563275,1.013882,0.515565,-0.362615,1.080455,0.684655,-0.615165,0.500965,0.659725,-0.807275,1.026911,0.863415,-0.842145,0.919935,-0.0152349999999999,-0.004685,1.080065,0.0152349999999999,0.0046849999999999,0.8727050000000001,-0.073975,-0.413875,1.169335,-0.0866649999999999,-0.387185,0.899695,-0.460395,-0.324375,1.163514,-0.472255,-0.289985
105,0.8489215,0.667195,-0.416135,0.7617415,0.489475,-0.366475,0.6017715,0.5665250000000001,-0.565205,1.0118145,0.511015,-0.366025,1.0798645,0.682245,-0.618215,0.5012814999999999,0.656665,-0.809835,1.0248535,0.858455,-0.848295,0.9199115,-0.0146149999999999,-0.003805,1.0800885,0.014615,0.003805,0.8700715,-0.0689749999999999,-0.413985,1.1686215,-0.0826349999999999,-0.389425,0.8983915000000001,-0.4551649999999999,-0.323945,1.1623355,-0.4683349999999999,-0.292845
106,0.8483375,0.6637299999999999,-0.41863,0.7616875,0.487432,-0.36858,0.6019375,0.5632999999999999,-0.56707,1.0096415,0.50696,-0.36788,1.0793765,0.6800299999999999,-0.62173,0.5016475,0.6535299999999999,-0.8117099999999999,1.0226425,0.8535299999999999,-0.85432,0.9199575000000001,-0.01401,-0.00318,1.0800425,0.0140099999999999,0.0031799999999999,0.8677175,-0.06429,-0.4137,1.1681175,-0.07858,-0.39142,0.8976275,-0.45045,-0.32345,1.1613185,-0.4644400000000001,-0.29497
107,0.8478235000000001,0.6610149999999999,-0.42138,0.7615635000000001,0.4855649999999999,-0.37084,0.6020435,0.559455,-0.56874,1.0091255,0.502675,-0.36967,1.0788425,0.678045,-0.62599,0.5020635,0.649985,-0.8137000000000001,1.0203165,0.847955,-0.8601000000000001,0.9199935,-0.013365,-0.00285,1.0800065,0.013365,0.0028499999999999,0.8652535,-0.060065,-0.41366,1.1675935,-0.074435,-0.39361,0.8967735,-0.446225,-0.32321,1.1604425,-0.4605249999999999,-0.2972
108,0.8470035000000001,0.660105,-0.423735,0.7612535,0.485265,-0.3727749999999999,0.6018535,0.555405,-0.570085,1.0101045,0.499445,-0.371615,1.0781365,0.674475,-0.630315,0.5020435000000001,0.646845,-0.815615,1.0178765,0.842415,-0.865685,0.9200435,-0.0124549999999999,-0.002285,1.0799565,0.012455,0.002285,0.8622935,-0.0560249999999999,-0.412945,1.1669035,-0.070515,-0.395565,0.8956035000000001,-0.4421849999999999,-0.322175,1.1594445,-0.4566949999999999,-0.299665
109,0.845655,0.659125,-0.4257,0.760885,0.484881,-0.37461,0.6014550000000001,0.551135,-0.57118,1.011012,0.497531,-0.37351,1.076884,0.672425,-0.63411,0.501695,0.643995,-0.81705,1.015161,0.837305,-0.87071,0.920065,-0.0116549999999999,-0.00167,1.079935,0.011655,0.0016699999999999,0.859435,-0.0524149999999999,-0.41218,1.166305,-0.066575,-0.3976,0.894645,-0.4384049999999999,-0.32151,1.15867,-0.452805,-0.30199
110,0.84462,0.6559550000000001,-0.426475,0.76058,0.483256,-0.375655,0.60093,0.544795,-0.571545,1.017254,0.498701,-0.374695,1.075838,0.668805,-0.637245,0.50135,0.639025,-0.8171849999999999,1.012782,0.830055,-0.874645,0.9200200000000001,-0.011855,-0.0010249999999999,1.07998,0.011855,0.0010249999999999,0.85688,-0.0524549999999999,-0.4106849999999999,1.16604,-0.065255,-0.398745,0.8937300000000001,-0.438145,-0.320215,1.158155,-0.451335,-0.303075
111,0.8435255,0.6536,-0.4273249999999999,0.7601555,0.482095,-0.3764849999999999,0.6003255000000001,0.54081,-0.571915,1.0208784999999998,0.4998789999999999,-0.375515,1.0746615,0.6658999999999999,-0.6403449999999999,0.5007355,0.63531,-0.816815,1.0105525,0.82351,-0.877845,0.9199655,-0.0120399999999999,-0.0005949999999999,1.0800345,0.0120399999999999,0.000595,0.8542855,-0.05279,-0.409365,1.1657155,-0.06396,-0.399625,0.8926955,-0.4382,-0.319165,1.1575515,-0.44995,-0.303955
112,0.8424135,0.65188,-0.428025,0.7596235,0.481551,-0.377145,0.6005035000000001,0.54493,-0.571755,1.0237755,0.501035,-0.376715,1.0731095,0.66393,-0.643915,0.49997349999999996,0.63288,-0.815535,1.0084255,0.81822,-0.879555,0.9199735,-0.01228,-0.000365,1.0800265,0.01228,0.000365,0.8516334999999999,-0.0528899999999999,-0.408415,1.1652535,-0.0626999999999999,-0.399945,0.8914835,-0.4382,-0.318425,1.1567165,-0.44876,-0.304725
113,0.8409135,0.65157,-0.42838,0.7583435000000001,0.481533,-0.3774,0.5990935,0.54575,-0.57115,1.0235365,0.502928,-0.37845,1.0713115,0.6622,-0.6462,0.4984535,0.6324,-0.81403,1.0061635,0.8152200000000001,-0.8800699999999999,0.9200435,-0.01246,0.0001699999999999,1.0799565,0.0124599999999999,-0.00017,0.8486135000000001,-0.05357,-0.40726,1.1641535,-0.06209,-0.40069,0.8893835000000001,-0.43889,-0.31751,1.1555885,-0.44806,-0.30544
114,0.8395985,0.65167,-0.42774,0.7571085000000001,0.481633,-0.37742,0.5966985,0.54409,-0.5701,1.0233155,0.5040009999999999,-0.37929,1.0697725,0.66201,-0.64635,0.4972985000000001,0.6325,-0.8117300000000001,1.0043895,0.8145199999999999,-0.8802300000000001,0.9200485,-0.0124299999999999,0.0002999999999999,1.0799515,0.0124299999999999,-0.0002999999999999,0.8458885,-0.05472,-0.4064299999999999,1.1630585,-0.06203,-0.40091,0.8874985,-0.4401,-0.31727,1.1542335,-0.44795,-0.3051
115,0.8384365,0.65167,-0.426985,0.7559065,0.481633,-0.377345,0.5942465,0.54211,-0.5666249999999999,1.0226365,0.5048889999999999,-0.379375,1.0685004999999999,0.66201,-0.6464449999999999,0.4961865,0.6325,-0.808855,1.0029275,0.8145199999999999,-0.880325,0.9200465,-0.0124299999999999,0.0003849999999999,1.0799535,0.0124299999999999,-0.000385,0.8440765,-0.05681,-0.405645,1.1619365,-0.06203,-0.400995,0.8857365,-0.44226,-0.317365,1.1529975000000001,-0.44779,-0.304395
116,0.8376985,0.65167,-0.425705,0.7550785,0.481633,-0.377135,0.5930485,0.54204,-0.563565,1.0215255,0.50591,-0.379555,1.0677485,0.66201,-0.646615,0.49527850000000007,0.6325,-0.806435,1.0017595,0.8145199999999999,-0.8804649999999999,0.9199185,-0.0124299999999999,0.0002749999999999,1.0800815,0.0124299999999999,-0.0002749999999999,0.8428985,-0.05895,-0.404965,1.1609685,-0.06203,-0.401175,0.8843885,-0.44442,-0.3175449999999999,1.1521835,-0.44779,-0.304575
117,0.8368875,0.6536249999999999,-0.42466,0.7545775,0.4824569999999999,-0.37676,0.5922075,0.5420349999999999,-0.56044,1.0216335,0.506799,-0.37975,1.0673825,0.662005,-0.6464,0.49475749999999996,0.6330149999999999,-0.80316,1.0009265,0.8145149999999999,-0.88046,0.9198375,-0.012435,9.000000000000674e-05,1.0801625,0.0124349999999999,-9.000000000000674e-05,0.8420675,-0.059825,-0.4049399999999999,1.1601575,-0.062005,-0.4013299999999999,0.8835575,-0.445575,-0.3177299999999999,1.1516685,-0.447795,-0.30476
118,0.8368940000000001,0.65753,-0.4231549999999999,0.754284,0.484609,-0.375015,0.592144,0.54962,-0.557685,1.0226099999999998,0.507315,-0.379865,1.067265,0.6629,-0.645005,0.495174,0.6352800000000001,-0.797545,1.000568,0.81637,-0.8797949999999999,0.919694,-0.0123999999999999,4.500000000001725e-05,1.080306,0.0124,-4.499999999998949e-05,0.841394,-0.0619899999999999,-0.405155,1.159474,-0.0620899999999999,-0.401555,0.882874,-0.4480499999999999,-0.317345,1.151318,-0.44781,-0.304745
119,0.8377384999999999,0.66167,-0.4213099999999999,0.7543985000000001,0.4883699999999999,-0.37339,0.5923885,0.55686,-0.5550999999999999,1.0238035,0.508503,-0.37812,1.0679675,0.6645300000000001,-0.6427499999999999,0.49610850000000006,0.6392100000000001,-0.79198,1.0011935,0.8200000000000001,-0.87845,0.9196085,-0.01227,-0.00015,1.0803915,0.01227,0.00015,0.8413485,-0.06467,-0.40553,1.1592885,-0.06302,-0.40127,0.8827385000000001,-0.4511099999999999,-0.317,1.1512275,-0.44858,-0.30401
120,0.8391919999999999,0.666805,-0.419055,0.754882,0.4911529999999999,-0.3715549999999999,0.5930219999999999,0.5621149999999999,-0.551895,1.02556,0.510015,-0.376075,1.06873,0.667655,-0.638015,0.49758199999999997,0.642895,-0.786415,1.002576,0.824195,-0.876105,0.919612,-0.012465,-0.000565,1.080388,0.012465,0.0005649999999999,0.842302,-0.069345,-0.405595,1.159262,-0.066065,-0.400165,0.883032,-0.456155,-0.317315,1.15126,-0.451455,-0.302125
121,0.8410555,0.6721299999999999,-0.41684,0.7559655000000001,0.4965889999999999,-0.36972,0.5940655,0.56821,-0.54852,1.0261975,0.5104599999999999,-0.3733499999999999,1.0696565,0.66997,-0.63289,0.4991055000000001,0.6486299999999999,-0.78101,1.0045505,0.8298399999999999,-0.8731800000000001,0.9196155,-0.01174,-0.0008899999999999,1.0803845,0.0117399999999999,0.00089,0.8439455000000001,-0.0753,-0.4046499999999999,1.1591655,-0.07041,-0.39917,0.8838255000000002,-0.4624600000000001,-0.3173899999999999,1.1512655,-0.45562,-0.3004799999999999
122,0.8429885000000001,0.67675,-0.4146999999999999,0.7570185,0.5012,-0.36771,0.5953185000000001,0.57515,-0.54547,1.0222605,0.51063,-0.37092,1.0708485,0.6731,-0.62764,0.5010385000000002,0.65544,-0.7756,1.0070405,0.83655,-0.86965,0.9196185,-0.01128,-0.00089,1.0803815,0.01128,0.00089,0.8460685,-0.0823399999999999,-0.4033799999999999,1.1588485,-0.075,-0.3978,0.8846985,-0.46995,-0.31766,1.1512535,-0.46008,-0.2992599999999999
123,0.8455699999999999,0.683445,-0.411405,0.75862,0.5061249999999999,-0.3655049999999999,0.59702,0.582545,-0.542425,1.021239,0.512455,-0.368065,1.072977,0.676755,-0.621975,0.50356,0.6632549999999999,-0.769825,1.0109139999999999,0.844165,-0.8651949999999999,0.91942,-0.0106249999999999,-0.0009049999999999,1.08058,0.0106249999999999,0.0009049999999999,0.8491000000000001,-0.0908249999999999,-0.401335,1.15875,-0.0809449999999999,-0.395895,0.8862900000000001,-0.479035,-0.317195,1.151657,-0.466035,-0.2977849999999999
124,0.848519,0.6894549999999999,-0.408125,0.7606189999999999,0.510445,-0.362635,0.5994189999999999,0.584455,-0.541665,1.0214239999999999,0.519115,-0.365385,1.076678,0.679975,-0.615015,0.5075890000000001,0.671025,-0.764555,1.016602,0.8504849999999999,-0.858715,0.9192490000000001,-0.0107749999999999,-0.0008249999999999,1.0807509999999998,0.0107749999999999,0.0008249999999999,0.8522689999999999,-0.098915,-0.399505,1.158659,-0.0883149999999999,-0.3937549999999999,0.8879090000000001,-0.487235,-0.316505,1.152091,-0.473685,-0.2965649999999999
125,0.8519625,0.695655,-0.40448,0.7631625,0.5144150000000001,-0.3593,0.6026325,0.587815,-0.54037,1.0225455,0.525045,-0.36224,1.0810715,0.684465,-0.6085,0.5123424999999999,0.6791050000000001,-0.7587999999999999,1.0230475,0.8571150000000001,-0.8520000000000001,0.9190425,-0.010745,-0.00059,1.0809575,0.010745,0.0005899999999999,0.8564325,-0.1073349999999999,-0.39687,1.1591025,-0.096275,-0.3913,0.8906125,-0.4960749999999999,-0.31532,1.1530505,-0.4818949999999999,-0.29508
126,0.8558255,0.702635,-0.400565,0.7661955,0.517975,-0.3556249999999999,0.6056254999999999,0.591375,-0.538875,1.0241115,0.530725,-0.358115,1.0858235,0.6899649999999999,-0.603525,0.5175855,0.687865,-0.753725,1.0302705,0.864165,-0.843835,0.9187955,-0.010585,-0.0003049999999999,1.0812045,0.010585,0.0003049999999999,0.8606855,-0.116335,-0.393655,1.1598625,-0.1042049999999999,-0.388645,0.8936555,-0.505445,-0.313855,1.1546355,-0.490155,-0.295165
127,0.8600085,0.70962,-0.3960049999999999,0.7703085000000001,0.5208,-0.352205,0.6084585,0.59546,-0.536585,1.0261945,0.53772,-0.354575,1.0918655,0.6951400000000001,-0.598565,0.5233485,0.69721,-0.750915,1.0384475,0.87151,-0.835485,0.9186285000000001,-0.0104799999999999,-0.0001249999999999,1.0813715,0.0104799999999999,0.000125,0.8648985000000001,-0.12717,-0.390215,1.1610335,-0.11296,-0.3859749999999999,0.8971185000000002,-0.5162800000000001,-0.312505,1.1569105,-0.4992899999999999,-0.294755
128,0.865043,0.71548,-0.3908899999999999,0.774873,0.52676,-0.34848,0.612163,0.6022799999999999,-0.53365,1.029534,0.54253,-0.35187,1.098052,0.70082,-0.59285,0.5295030000000001,0.70694,-0.7479899999999999,1.047365,0.87797,-0.8264699999999999,0.918373,-0.00973,-9.000000000000674e-05,1.0816270000000001,0.00973,9.000000000000674e-05,0.869373,-0.1388999999999999,-0.38639,1.162623,-0.1228099999999999,-0.383,0.9009630000000001,-0.52822,-0.31122,1.159225,-0.50945,-0.29395
129,0.8702805,0.7214,-0.385335,0.7793405,0.53289,-0.344755,0.6167405,0.6114299999999999,-0.531575,1.0328915,0.5464199999999999,-0.3495749999999999,1.1042855,0.7094799999999999,-0.588305,0.5356805,0.7201899999999999,-0.745085,1.0568165,0.8863399999999999,-0.8165250000000001,0.9181405000000001,-0.00869,-9.500000000001174e-05,1.0818595,0.0086899999999999,9.500000000001174e-05,0.8733805,-0.14914,-0.382525,1.1642525,-0.1301,-0.380085,0.9046505000000001,-0.5388700000000001,-0.309875,1.1616465,-0.5175700000000001,-0.293755
130,0.8759085,0.727785,-0.37861,0.7831385000000001,0.536055,-0.34058,0.6215185,0.621395,-0.52959,1.0382075,0.553785,-0.34575,1.1105165,0.718375,-0.58426,0.5425785000000001,0.732075,-0.74197,1.0665375,0.8958250000000001,-0.80715,0.9179285000000001,-0.008755,-9.000000000000674e-05,1.0820714999999999,0.008755,8.999999999997899e-05,0.8766685,-0.1574249999999999,-0.37996,1.1657865,-0.136505,-0.37717,0.9078984999999999,-0.547515,-0.30932,1.1639775,-0.5248250000000001,-0.29361
131,0.8817315,0.73535,-0.3710799999999999,0.7869215,0.53953,-0.33603,0.6262015000000001,0.63107,-0.52623,1.0429104999999999,0.56053,-0.34134,1.1169514999999999,0.72836,-0.57971,0.5495015,0.7443299999999999,-0.7379,1.0767155,0.90586,-0.7974600000000001,0.9176915000000001,-0.00873,0.0001099999999999,1.0823085,0.00873,-0.0001099999999999,0.8794215,-0.16585,-0.37729,1.1673775,-0.14443,-0.3742299999999999,0.9106315,-0.5564,-0.30895,1.1660964999999999,-0.5336700000000001,-0.29283
132,0.8871325,0.7412099999999999,-0.36472,0.7904625000000001,0.5439700000000001,-0.33121,0.6303225,0.6418900000000001,-0.52327,1.0474025,0.56551,-0.33641,1.1229435,0.7379899999999999,-0.57473,0.5564425,0.75796,-0.73414,1.0863285,0.91722,-0.7872,0.9175525,-0.00875,0.0001899999999999,1.0824475,0.0087499999999999,-0.0001899999999999,0.8813525000000001,-0.1742199999999999,-0.37559,1.1685705,-0.1509599999999999,-0.37199,0.9126225,-0.56542,-0.30852,1.1677084999999998,-0.54093,-0.29231
133,0.892901,0.74878,-0.3575899999999999,0.794311,0.54939,-0.32644,0.6345609999999999,0.65396,-0.51854,1.052289,0.5661400000000001,-0.3302199999999999,1.12933,0.74802,-0.56938,0.562991,0.77205,-0.72906,1.095114,0.93033,-0.7784599999999999,0.917381,-0.00784,-0.00012,1.082619,0.00784,0.00012,0.883221,-0.1795399999999999,-0.37376,1.169854,-0.1570599999999999,-0.36983,0.914371,-0.5713,-0.30809,1.169317,-0.54803,-0.29152
134,0.898259,0.75808,-0.34994,0.798219,0.5556,-0.32133,0.6384190000000001,0.6654100000000001,-0.51404,1.057434,0.56776,-0.32287,1.13551,0.75772,-0.56328,0.5705490000000001,0.788,-0.7237,1.1041439999999998,0.94363,-0.7683800000000001,0.917219,-0.00702,-0.0007399999999999,1.082781,0.0070199999999999,0.00074,0.884929,-0.18455,-0.37166,1.170732,-0.16231,-0.3666,0.915809,-0.5768,-0.3074599999999999,1.170558,-0.554,-0.2901899999999999
135,0.90366,0.766425,-0.34199,0.8021600000000001,0.561895,-0.31571,0.6424700000000001,0.676615,-0.5093300000000001,1.062342,0.569725,-0.31552,1.142592,0.766335,-0.55526,0.5779000000000001,0.802745,-0.7179800000000001,1.113343,0.955995,-0.7578199999999999,0.91711,-0.0063849999999999,-0.0013799999999999,1.08289,0.006385,0.00138,0.8864900000000001,-0.1897649999999999,-0.36936,1.1713689999999999,-0.168445,-0.363,0.91708,-0.582525,-0.30713,1.171685,-0.5609149999999999,-0.28947
136,0.908559,0.773155,-0.334365,0.804979,0.567505,-0.310695,0.6462289999999999,0.689535,-0.504105,1.067188,0.570775,-0.307165,1.149111,0.775485,-0.544935,0.584449,0.818005,-0.711635,1.122837,0.971575,-0.7471350000000001,0.916919,-0.005745,-0.001865,1.083081,0.005745,0.0018649999999999,0.887469,-0.1953049999999999,-0.366975,1.171517,-0.1742249999999999,-0.358205,0.917839,-0.588505,-0.306855,1.172244,-0.567465,-0.288815
137,0.913065,0.7814099999999999,-0.32617,0.8065249999999999,0.56793,-0.30523,0.649695,0.70095,-0.49855,1.072131,0.5745199999999999,-0.29851,1.155898,0.78478,-0.53493,0.591155,0.83405,-0.70418,1.1322079999999999,0.98729,-0.73545,0.916805,-0.0059299999999999,-0.0024099999999999,1.083195,0.0059299999999999,0.0024099999999999,0.8878750000000001,-0.20065,-0.36455,1.171276,-0.17934,-0.35389,0.9180450000000001,-0.5944,-0.30646,1.1724700000000001,-0.57324,-0.28849
138,0.9174785,0.78896,-0.317925,0.8077685,0.57038,-0.298775,0.6531285,0.71192,-0.492565,1.0769975,0.57855,-0.289435,1.1629395,0.79202,-0.525215,0.5982985000000001,0.84951,-0.6965749999999999,1.1410705,1.00005,-0.7241550000000001,0.9168485,-0.00598,-0.002945,1.0831515,0.0059799999999999,0.002945,0.8881585,-0.20634,-0.361635,1.1710525,-0.18602,-0.349535,0.9181885,-0.60066,-0.305535,1.1725984999999999,-0.58059,-0.287555
139,0.9216815,0.79684,-0.310245,0.8086615,0.57319,-0.292815,0.6565215,0.72239,-0.486605,1.0803105,0.57908,-0.282553,1.1698195,0.79964,-0.515115,0.6049515,0.8649800000000001,-0.689155,1.1505105,1.01294,-0.711765,0.9168515,-0.00564,-0.003415,1.0831484999999998,0.00564,0.003415,0.8885615,-0.21186,-0.3584349999999999,1.1707385,-0.19271,-0.345305,0.9180815,-0.60676,-0.304345,1.1727105,-0.58739,-0.286715
140,0.926023,0.80437,-0.30118,0.8101929999999999,0.57884,-0.28507,0.660513,0.7329,-0.4795199999999999,1.08487,0.58224,-0.272981,1.176427,0.806,-0.50307,0.611783,0.87892,-0.68058,1.159408,1.02376,-0.6979,0.916853,-0.00517,-0.004,1.083147,0.00517,0.004,0.8893630000000001,-0.2184799999999999,-0.35409,1.170267,-0.20009,-0.34029,0.918023,-0.6138399999999999,-0.3027999999999999,1.172702,-0.59522,-0.28522
141,0.930167,0.811465,-0.291715,0.8112670000000001,0.5844849999999999,-0.277458,0.664347,0.741855,-0.471715,1.08913,0.5847549999999999,-0.263623,1.182877,0.811865,-0.490575,0.6188370000000001,0.891435,-0.670815,1.168257,1.032645,-0.683605,0.916817,-0.0047449999999999,-0.0046049999999999,1.083183,0.0047449999999999,0.0046049999999999,0.8900770000000001,-0.226075,-0.348825,1.169782,-0.208385,-0.333525,0.9175570000000001,-0.621905,-0.301015,1.172378,-0.604265,-0.282117
142,0.933942,0.81773,-0.2819399999999999,0.811802,0.5888100000000001,-0.27016,0.668372,0.75153,-0.46385,1.092943,0.58653,-0.255239,1.1885620000000001,0.81839,-0.47694,0.625542,0.90431,-0.66132,1.177024,1.0415299999999998,-0.66886,0.916852,-0.0043999999999999,-0.0051299999999999,1.083148,0.0044,0.0051299999999999,0.8907020000000001,-0.23429,-0.34286,1.169187,-0.21685,-0.32682,0.9169020000000001,-0.63067,-0.2979699999999999,1.171841,-0.6132,-0.279034
143,0.9378095,0.821515,-0.272182,0.8121595,0.592205,-0.262299,0.6721995000000001,0.7594350000000001,-0.45566,1.0967665,0.589375,-0.246608,1.1938395,0.8246450000000001,-0.46364,0.6314394999999999,0.914445,-0.65188,1.1852695,1.049355,-0.6535,0.9168095,-0.004415,-0.0055399999999999,1.0831905,0.004415,0.00554,0.8913495,-0.2434749999999999,-0.33594,1.1681765,-0.226185,-0.31981,0.9159195,-0.640385,-0.29413,1.1709795,-0.622865,-0.275788
144,0.9418285,0.82619,-0.261722,0.8119985000000001,0.59543,-0.25419,0.6755785000000001,0.76644,-0.44692,1.1004815,0.5919,-0.237807,1.1981485,0.8301499999999999,-0.45099,0.6377885,0.92984,-0.64177,1.1929685,1.05569,-0.63673,0.9167685,-0.0044099999999999,-0.0059099999999999,1.0832315,0.0044099999999999,0.0059099999999999,0.8915085,-0.25304,-0.3282,1.1667595,-0.23502,-0.31218,0.9143185000000001,-0.65049,-0.28908,1.1696185,-0.6324099999999999,-0.272084
145,0.945205,0.8293200000000001,-0.250843,0.811155,0.59927,-0.245466,0.6787650000000001,0.77209,-0.43805,1.1037139999999999,0.59337,-0.228652,1.201365,0.8345400000000001,-0.43967,0.643295,0.94347,-0.63152,1.199285,1.06172,-0.62005,0.916755,-0.00431,-0.0063799999999999,1.0832449999999998,0.00431,0.0063799999999999,0.891165,-0.2634499999999999,-0.31891,1.1648029999999998,-0.2444599999999999,-0.30507,0.912065,-0.6614,-0.2827,1.1676909999999998,-0.6426,-0.268527
146,0.9474355,0.831035,-0.240058,0.8088255000000001,0.601635,-0.23673,0.6803555,0.776715,-0.4286999999999999,1.1054365,0.591845,-0.219667,1.2027855,0.837425,-0.4270899999999999,0.6473655,0.955795,-0.6216999999999999,1.2035755,1.066575,-0.60471,0.9168054999999999,-0.0043649999999999,-0.0064799999999999,1.0831945,0.004365,0.00648,0.8896055,-0.274595,-0.30835,1.1616775,-0.2542149999999999,-0.29707,0.9087155000000001,-0.673075,-0.27562,1.1645905,-0.652645,-0.263652
147,0.9493180000000001,0.83242,-0.228927,0.8066180000000001,0.6048800000000001,-0.227932,0.6821980000000001,0.7818,-0.4182249999999999,1.108107,0.59274,-0.210644,1.204468,0.84157,-0.413725,0.651248,0.96629,-0.610175,1.207568,1.07238,-0.587775,0.916768,-0.0042599999999999,-0.006385,1.083232,0.00426,0.006385,0.8878880000000001,-0.28561,-0.297455,1.1585239999999999,-0.26432,-0.289055,0.9055680000000002,-0.68447,-0.267975,1.161443,-0.66316,-0.258442
148,0.950926,0.83475,-0.217202,0.804036,0.60806,-0.218888,0.683566,0.78731,-0.406555,1.110481,0.59457,-0.2011959999999999,1.2058659999999999,0.8465,-0.400185,0.654686,0.97857,-0.597495,1.210316,1.07879,-0.569825,0.916656,-0.00431,-0.006195,1.083344,0.00431,0.006195,0.8859859999999999,-0.29686,-0.285775,1.155944,-0.2737,-0.280495,0.902266,-0.69602,-0.259738,1.158739,-0.673,-0.252707
149,0.9519630000000001,0.835915,-0.205306,0.801133,0.608195,-0.210638,0.684393,0.792745,-0.3941949999999999,1.111026,0.593695,-0.193295,1.206543,0.850255,-0.386165,0.657383,0.992535,-0.583285,1.212623,1.085955,-0.551485,0.916953,-0.004305,-0.0062049999999999,1.083047,0.0043049999999999,0.006205,0.883883,-0.307425,-0.272265,1.152499,-0.285065,-0.271455,0.898583,-0.707055,-0.2490319999999999,1.154784,-0.6846049999999999,-0.2463409999999999
150,0.9524325,0.834924,-0.1913669999999999,0.7989225,0.609774,-0.19884,0.6851025,0.797614,-0.379325,1.1114275,0.591734,-0.183417,1.2064124999999999,0.852504,-0.370035,0.6592724999999999,1.005304,-0.566885,1.2138425,1.092214,-0.531725,0.9174425000000002,-0.004316,-0.0061149999999999,1.0825575,0.004316,0.006115,0.8814525,-0.321106,-0.256305,1.1481975,-0.298746,-0.260945,0.8944725,-0.720736,-0.2351999999999999,1.1502565,-0.698286,-0.2383119999999999
151,0.9532675000000002,0.8329850000000001,-0.17707,0.7964505,0.611635,-0.18685,0.6852705,0.800675,-0.3647249999999999,1.1120125,0.591005,-0.173073,1.2066405,0.854955,-0.354415,0.6610905,1.017075,-0.550205,1.2144205000000001,1.0986749999999998,-0.511765,0.9179505,-0.0042989999999999,-0.006225,1.0820495,0.004299,0.006225,0.8804205,-0.3345249999999999,-0.237453,1.1440095000000001,-0.312335,-0.249455,0.8908605,-0.734155,-0.221684,1.1459385,-0.712065,-0.229782
152,0.9539855,0.8305685,-0.156507,0.7949725,0.6135285,-0.16918,0.6864225000000002,0.8083184999999999,-0.343635,1.1119885,0.5880285,-0.156899,1.2063925,0.8563585,-0.332025,0.6627025,1.0291085,-0.526275,1.2146425,1.1052685,-0.485755,0.9187425,-0.0040715,-0.0063149999999999,1.0812575,0.0040714999999999,0.006315,0.8794325000000001,-0.3474315,-0.2127339999999999,1.1399845,-0.3263015,-0.227617,0.8874625,-0.7470615,-0.2022769999999999,1.1416555,-0.7261415,-0.212861
153,0.9537725000000001,0.829447,-0.135415,0.7943525000000001,0.614287,-0.150377,0.6869925,0.813937,-0.32094,1.1130475,0.593697,-0.138434,1.2061625,0.8589370000000001,-0.30894,0.6632925000000001,1.034727,-0.5001599999999999,1.2141025,1.113667,-0.45967,0.9192925,-0.003901,-0.0068,1.0807075,0.0039009999999999,0.0068,0.8783425000000001,-0.367803,-0.18455,1.1358805,-0.3476829999999999,-0.202684,0.8837825000000001,-0.7615529999999999,-0.182042,1.1371725,-0.743823,-0.194582
154,0.9541905,0.830117,-0.113907,0.7945335,0.6146469999999999,-0.132224,0.6874735000000001,0.818917,-0.29838,1.1140675,0.599797,-0.1209409999999999,1.2066235,0.862057,-0.28684,0.6644035000000001,1.0413670000000002,-0.47337,1.2133835,1.117817,-0.43259,0.9197535,-0.0038009999999999,-0.00698,1.0802464999999999,0.0038009999999999,0.00698,0.8777735000000001,-0.386803,-0.157793,1.1324605,-0.367753,-0.177848,0.8807435000000001,-0.775853,-0.1630329999999999,1.1332135,-0.760053,-0.176585
155,0.955287,0.8316344999999999,-0.0923295,0.795975,0.6165244999999999,-0.1139845,0.689155,0.8246245,-0.2754345,1.116076,0.6069644999999999,-0.1031335,1.207905,0.8658944999999999,-0.2645145,0.666265,1.0481845,-0.4456245,1.213795,1.1233845,-0.4038745,0.920235,-0.0035295,-0.0075865,1.079765,0.0035294999999999,0.0075864999999999,0.878555,-0.4041955,-0.1314385,1.1302780000000001,-0.3859855,-0.1532535,0.878635,-0.7897155,-0.1438565,1.130544,-0.7747355,-0.1597325
156,0.9562245,0.8333085,-0.0705629999999999,0.7967885,0.6159984999999999,-0.0961539999999999,0.6905684999999999,0.8301084999999999,-0.252971,1.1169505,0.6119384999999999,-0.0849279999999999,1.2081985,0.8683685000000001,-0.2416309999999999,0.6677584999999999,1.0550585,-0.418181,1.2138685,1.1288585,-0.375891,0.9208285,-0.0036375,-0.0082089999999999,1.0791715,0.0036374999999999,0.008209,0.8791885000000002,-0.4223115,-0.1050829999999999,1.1280245,-0.4060615,-0.1276739999999999,0.8768885000000001,-0.8043715,-0.1246519999999999,1.1275565,-0.7915315,-0.141488
157,0.9570075000000001,0.8334284999999999,-0.0484905,0.7977665,0.6158385,-0.0777025,0.6918065,0.8341084999999999,-0.2304465,1.1180245,0.6166484999999999,-0.0660975,1.2080965,0.8691685,-0.2187565,0.6693465000000001,1.0607885,-0.3900665,1.2135865,1.1322885,-0.3483465,0.9214765,-0.0037795,-0.0089004999999999,1.0785235,0.0037794999999999,0.0089005,0.8796365,-0.4416915,-0.0788325,1.1256745,-0.4279215,-0.1014625,0.8749965,-0.8190915000000001,-0.1054654999999999,1.1247595,-0.8094714999999999,-0.1235595
158,0.9577325,0.834085,-0.027704,0.7989795,0.615735,-0.059569,0.6928295,0.837475,-0.208721,1.1193755,0.6221450000000001,-0.047967,1.2080495,0.870695,-0.197471,0.6707195,1.0648749999999998,-0.363691,1.2129395,1.139775,-0.320251,0.9217795,-0.0039259999999999,-0.0093279999999999,1.0782205,0.003926,0.009328,0.8796795,-0.460655,-0.055307,1.1233165,-0.449125,-0.075403,0.8731495000000001,-0.833915,-0.088866,1.1222515,-0.827185,-0.106483
159,0.9587725,0.8363585,-0.008967,0.8001255,0.6132885,-0.044922,0.6941055,0.8410185,-0.189377,1.1208805,0.6294085,-0.031868,1.2085155,0.8736985,-0.178587,0.6723655,1.0687585,-0.340107,1.2123855,1.1445585,-0.295147,0.9218855,-0.0042004999999999,-0.0099239999999999,1.0781145,0.0042004999999999,0.009924,0.8798955,-0.4772615,-0.034783,1.1213415,-0.4687015,-0.0516989999999999,0.8714554999999999,-0.8463915,-0.075732,1.1199295,-0.8433714999999999,-0.091533
160,0.9592085000000001,0.839523,0.009719,0.8013525,0.611633,-0.029878,0.6948725,0.8442230000000001,-0.170243,1.1221825,0.6354730000000001,-0.015557,1.2085625,0.875343,-0.159183,0.6735825000000001,1.072533,-0.316043,1.2117125,1.147833,-0.270373,0.9220125,-0.004549,-0.010563,1.0779875,0.004549,0.010563,0.8789125000000001,-0.492977,-0.017538,1.1186655,-0.487137,-0.02873,0.8693925,-0.859557,-0.063168,1.1167525,-0.858507,-0.076492
161,0.9594405,0.843449,0.0221925,0.8024905,0.610229,-0.0208945,0.6948705,0.843859,-0.1569205,1.1237005,0.642679,-0.0052335,1.2090305,0.877479,-0.1457605,0.6745905,1.0757489999999998,-0.2979405,1.2109705,1.1504489999999998,-0.2521105,0.9220175,-0.004852,-0.0111255,1.0779825,0.004852,0.0111255,0.8778405,-0.507161,-0.0066795,1.1160305,-0.501741,-0.0165755,0.8671405,-0.871351,-0.0568655,1.1135245,-0.870301,-0.0702455
162,0.9599440000000001,0.8449439999999999,0.0337375,0.8030660000000001,0.610204,-0.0131885,0.695326,0.8451139999999999,-0.1448414999999999,1.123546,0.641524,0.0023335,1.209106,0.877884,-0.1333415,0.675496,1.079694,-0.2821315,1.211266,1.151694,-0.2349615,0.922255,-0.005102,-0.0109945,1.077745,0.005102,0.0109945,0.8771860000000001,-0.5094460000000001,0.0001794999999999,1.113802,-0.504096,-0.0079415,0.865216,-0.875876,-0.0516425,1.110816,-0.8730060000000001,-0.0647625
163,0.9604455,0.8453245,0.0446255,0.8029865,0.6100945,-0.0057725,0.6956964999999999,0.8460045,-0.1332395,1.1236665,0.6410345,0.0100024999999999,1.2089565,0.8780545,-0.1206894999999999,0.6760865,1.0825545,-0.2671195,1.2115265,1.1523545000000002,-0.2183295,0.9225455,-0.0053005,-0.0109735,1.0774545,0.0053005,0.0109735,0.8765165,-0.5110955,0.0069334999999999,1.1117375,-0.5056055,0.0002854999999999,0.8629565,-0.8797755,-0.0467174999999999,1.1081515,-0.8753555,-0.0593405
164,0.961031,0.8455065,0.0548545,0.8025,0.6103965,0.0010205,0.69577,0.8468265,-0.1228365,1.12393,0.6412165,0.0169695,1.2088700000000001,0.8780765,-0.1094265,0.6762900000000001,1.0850265,-0.2536265,1.21154,1.1529265,-0.2035365,0.92278,-0.0054294999999999,-0.0108534999999999,1.07722,0.0054294999999999,0.0108534999999999,0.8752800000000001,-0.5115035,0.0125925,1.110669,-0.5059335,0.0076045,0.86111,-0.8822535,-0.0414975,1.106309,-0.8769735,-0.0548835
165,0.9617155,0.8451620000000001,0.06428,0.8021294999999999,0.610982,0.0075299999999999,0.6959295,0.847232,-0.113206,1.1242595,0.6412920000000001,0.023477,1.2093295,0.878042,-0.098656,0.6763895,1.086382,-0.241206,1.2118195,1.153182,-0.189826,0.9229345,-0.0055379999999999,-0.0106419999999999,1.0770655,0.0055379999999999,0.0106419999999999,0.8742195,-0.511168,0.016974,1.1099495,-0.5055179999999999,0.01394,0.8596095000000001,-0.884048,-0.036381,1.1049505,-0.877748,-0.050019
166,0.9625925000000001,0.8449945000000001,0.072678,0.8017525,0.6118645,0.013129,0.6962524999999999,0.8475945,-0.1045369999999999,1.1254425000000001,0.6413045,0.02951,1.2102725,0.8782045,-0.088873,0.6762825,1.0874145,-0.230897,1.2124425,1.1531145,-0.177367,0.9231785,-0.0056225,-0.0104099999999999,1.0768215,0.0056225,0.0104099999999999,0.8731625000000001,-0.5105955,0.020881,1.1093625,-0.5049155,0.019122,0.8581725,-0.8856155,-0.031575,1.1038035,-0.8783455,-0.045644
167,0.963626,0.8449155,0.080152,0.802358,0.6127855,0.018177,0.696788,0.8479455,-0.096986,1.126818,0.6411755,0.0347979999999999,1.211718,0.8782555,-0.079929,0.676508,1.0884355,-0.221726,1.213738,1.1530355,-0.167516,0.92336,-0.0056895,-0.010203,1.07664,0.0056895,0.010203,0.872448,-0.5098145000000001,0.02431,1.109058,-0.5045345,0.022554,0.857108,-0.8870245,-0.0273509999999999,1.102838,-0.8778545,-0.041752
168,0.9644675,0.8447979999999999,0.087291,0.8030525,0.613468,0.0231649999999999,0.6972324999999999,0.848268,-0.089959,1.1283025,0.640728,0.040046,1.2131325,0.8778779999999999,-0.071732,0.6765125000000001,1.089498,-0.213159,1.2152625,1.1529980000000002,-0.157699,0.9234815,-0.005772,-0.009896,1.0765185,0.005772,0.0098959999999999,0.8721025,-0.509572,0.027643,1.1086725,-0.504172,0.0259809999999999,0.8560025,-0.888412,-0.023417,1.1018605,-0.877822,-0.037787
169,0.9657655,0.8444014999999999,0.093272,0.8041675,0.6141915,0.027474,0.6980975,0.8483815,-0.083884,1.1300075,0.6405415,0.0444979999999999,1.2148875000000001,0.8774615,-0.065077,0.6768075,1.0906115,-0.206114,1.2170975,1.1531115,-0.149264,0.9235205,-0.0058855,-0.009468,1.0764795,0.0058855,0.0094679999999999,0.8718975,-0.5079485,0.030245,1.1082475,-0.5035185,0.0291239999999999,0.8548875,-0.8884985000000001,-0.019999,1.1009225,-0.8773585,-0.034224
170,0.9674505000000001,0.843926,0.0987075,0.8054815,0.6138859999999999,0.0314055,0.6991215,0.848476,-0.0785385,1.1320515,0.640316,0.0487154999999999,1.2164715,0.8767959999999999,-0.0593284999999999,0.6771515,1.091506,-0.2003285,1.2190515,1.148606,-0.1419185,0.9234915,-0.00598,-0.0090225,1.0765085,0.00598,0.0090225,0.8718015,-0.508244,0.0326285,1.1079914999999998,-0.503634,0.0316525,0.8540015,-0.888494,-0.0168625,1.1000375,-0.8788140000000001,-0.0312505
171,0.96916,0.843542,0.1037585,0.806544,0.6137020000000001,0.0350795,0.700124,0.8485720000000001,-0.0737145,1.134164,0.640132,0.0527495,1.217984,0.8763420000000001,-0.0540594999999999,0.6776139999999999,1.092002,-0.1951014999999999,1.219964,1.1472019999999998,-0.1360615,0.9235480000000001,-0.006056,-0.0088295,1.076452,0.006056,0.0088294999999999,0.8715740000000001,-0.508728,0.0346734999999999,1.107834,-0.5035379999999999,0.0329835,0.853044,-0.888528,-0.0143015,1.099115,-0.879308,-0.0281795
172,0.9705685000000001,0.8435115,0.108372,0.8078995,0.6143115,0.038827,0.7010995,0.8487815,-0.069388,1.1362495,0.6402815000000001,0.056512,1.2194295,0.8763215,-0.0493609999999999,0.6780495,1.0927715,-0.190686,1.2208695,1.1465715,-0.1310359999999999,0.9235795,-0.0060145,-0.008605,1.0764205,0.0060145,0.0086049999999999,0.8713795,-0.5082285,0.036709,1.1075395,-0.5033485,0.034376,0.8520995,-0.8882785,-0.011018,1.0982685,-0.8786484999999999,-0.024749
173,0.9718845,0.8435885,0.112754,0.8090835000000001,0.6149985,0.042369,0.7021634999999999,0.8490085,-0.065537,1.1380834999999998,0.6403785,0.060127,1.2209435,0.8759185,-0.045013,0.6784735,1.0933285,-0.186566,1.2218935,1.1463285,-0.126516,0.9235665,-0.0060574999999999,-0.008329,1.0764335,0.0060574999999999,0.008329,0.8712635,-0.5076515,0.038305,1.1072134999999999,-0.5027115,0.035473,0.8512935,-0.8878615,-0.007816,1.0974685,-0.8784315,-0.021791
174,0.973213,0.8436545,0.1169925,0.810049,0.6155845,0.0457565,0.7030190000000001,0.8491545,-0.0620934999999999,1.140089,0.6403145,0.0635105,1.222189,0.8755245,-0.0414355,0.6788190000000001,1.0938745,-0.1827285,1.222789,1.1461745,-0.1225084999999999,0.923551,-0.0061115,-0.0080415,1.076449,0.0061115,0.0080415,0.871119,-0.5062455,0.0396485,1.106859,-0.5020755,0.0364115,0.850439,-0.8869555,-0.0047174999999999,1.096659,-0.8777055,-0.0188394999999999
175,0.9743545,0.8433094999999999,0.1209119999999999,0.8110915000000001,0.6158395,0.049089,0.7035315000000001,0.8488895,-0.059219,1.1413415,0.6401695,0.0663779999999999,1.2231715,0.8751595,-0.03868,0.6790315,1.0939095,-0.179119,1.2233915,1.1458095,-0.118999,0.9234955,-0.0062015,-0.007766,1.0765045,0.0062015,0.0077659999999999,0.8709614999999999,-0.5058405,0.040978,1.1066815,-0.5018205,0.03669,0.8496115000000001,-0.8866505,-0.0018729999999999,1.0957315,-0.8779505000000001,-0.016048
176,0.975544,0.842798,0.1249395,0.811092,0.6158180000000001,0.0518084999999999,0.703832,0.848578,-0.0565825,1.142652,0.6399680000000001,0.0690615,1.223972,0.8748480000000001,-0.0360405,0.679052,1.0936979999999998,-0.1761835,1.223652,1.145498,-0.1160834999999999,0.9234789999999999,-0.006331,-0.0076145,1.076521,0.006331,0.0076144999999999,0.870972,-0.505462,0.0422414999999999,1.106382,-0.501482,0.0370664999999999,0.848792,-0.886632,0.0009944999999999,1.094862,-0.877562,-0.0131145
177,0.976737,0.8421745,0.1287995,0.811171,0.6156345000000001,0.0543175,0.704001,0.8481745,-0.0540724999999999,1.1439409999999999,0.6397145000000001,0.0715804999999999,1.2247009999999998,0.8745645000000001,-0.0335255,0.678831,1.0932944999999998,-0.1736815,1.223811,1.1450945,-0.1134915,0.923435,-0.0063444999999999,-0.0074125,1.076565,0.0063445,0.0074124999999999,0.870721,-0.5052854999999999,0.0440395,1.106031,-0.5013155,0.0373995,0.848121,-0.8870254999999999,0.0033475,1.094081,-0.8774354999999999,-0.0104795
178,0.977861,0.8416830000000001,0.13276,0.8110580000000001,0.615433,0.056869,0.703828,0.847763,-0.051522,1.145068,0.639163,0.074142,1.225378,0.874313,-0.0309769999999999,0.6783680000000001,1.0928829999999998,-0.171126,1.223858,1.144683,-0.110946,0.923401,-0.006365,-0.00723,1.076599,0.006365,0.00723,0.8702179999999999,-0.505127,0.045782,1.105678,-0.501127,0.0378169999999999,0.8473580000000001,-0.887147,0.005963,1.093308,-0.877037,-0.007584
179,0.978847,0.841317,0.136478,0.811157,0.615057,0.0593,0.703757,0.847277,-0.0492429999999999,1.145907,0.638657,0.076579,1.226187,0.874127,-0.0287979999999999,0.677797,1.092507,-0.1687,1.223947,1.144307,-0.10851,0.923325,-0.006375,-0.0069369999999999,1.076675,0.006375,0.006937,0.869977,-0.504943,0.047164,1.106617,-0.494913,0.038864,0.846907,-0.887283,0.008451,1.0929470000000001,-0.873403,-0.0047949999999999
180,0.9797585,0.8411310000000001,0.139901,0.8114675,0.6146510000000001,0.0614939999999999,0.7036275000000001,0.8468410000000001,-0.047312,1.1467975,0.638151,0.078518,1.2269575,0.873841,-0.026948,0.6773675,1.091761,-0.166738,1.2240275,1.144061,-0.106228,0.9232405,-0.00641,-0.006635,1.0767595,0.00641,0.0066349999999999,0.8697874999999999,-0.506099,0.0485359999999999,1.1061975,-0.494799,0.0401519999999999,0.8465775,-0.8873989999999999,0.0106409999999999,1.0925275,-0.872559,-0.002356
181,0.980717,0.841301,0.1431359999999999,0.811896,0.6143109999999999,0.063359,0.703346,0.8463109999999999,-0.046155,1.147576,0.637751,0.080017,1.227666,0.873281,-0.0253459999999999,0.677076,1.090781,-0.165457,1.224126,1.143981,-0.1042669999999999,0.923167,-0.006458,-0.0063579999999999,1.076833,0.006458,0.006358,0.869706,-0.507119,0.04962,1.105916,-0.4946589999999999,0.040762,0.846426,-0.8875190000000001,0.012593,1.092146,-0.872069,-3.099999999999631e-05
182,0.981578,0.8417145,0.1462435,0.81254,0.6140145,0.0650705,0.7031700000000001,0.8458145,-0.0452125,1.14828,0.6373645,0.0811595,1.2282899999999999,0.8728645,-0.0239734999999999,0.67689,1.0896344999999998,-0.1646365,1.22424,1.1441344999999998,-0.1025165,0.923126,-0.0064885,-0.0061654999999999,1.076874,0.0064884999999999,0.0061654999999999,0.86983,-0.5073655,0.0509445,1.1056199999999998,-0.4949055,0.0419485,0.8463800000000001,-0.8875255,0.0146454999999999,1.09187,-0.8723154999999999,0.0018325
183,0.9824,0.842292,0.149197,0.813113,0.613872,0.066595,0.703103,0.845402,-0.0446089999999999,1.148863,0.6372420000000001,0.081909,1.2288029999999999,0.8727020000000001,-0.0228789999999999,0.676483,1.088252,-0.164213,1.2243629999999999,1.144552,-0.101063,0.923092,-0.0064119999999999,-0.0060119999999999,1.076908,0.006412,0.006012,0.870093,-0.506258,0.052086,1.105563,-0.494988,0.041777,0.846423,-0.887308,0.016545,1.0916730000000001,-0.871828,0.003704
184,0.9831580000000001,0.842641,0.1521045,0.813697,0.613831,0.0681525,0.702817,0.844831,-0.0445365,1.1493470000000001,0.637181,0.0826105,1.229267,0.872691,-0.0219224999999999,0.6758770000000001,1.086651,-0.1639575,1.2244769999999998,1.144651,-0.0995575,0.923079,-0.0064129999999999,-0.0058404999999999,1.076921,0.006413,0.0058404999999999,0.869947,-0.507449,0.0531815,1.104227,-0.501359,0.0422835,0.846507,-0.887309,0.0183474999999999,1.091453,-0.8748589999999999,0.0053495
185,0.9837565,0.8429745,0.154654,0.8148655000000001,0.6138245,0.069692,0.7022955,0.8441945,-0.044611,1.1497255,0.6371745,0.083173,1.2296355,0.8726845,-0.0210829999999999,0.6749955000000001,1.0847445,-0.1642549999999999,1.2245355,1.1447445,-0.098215,0.9230695,-0.0064195,-0.005572,1.0769305,0.0064195,0.005572,0.8700455,-0.5074555000000001,0.054204,1.1051255,-0.4944655,0.041916,0.8465855,-0.8873155,0.020121,1.0916155,-0.8707955,0.0071319999999999
186,0.9843355,0.8434045,0.157053,0.8157315,0.6138245,0.071168,0.7016915,0.8435245,-0.044657,1.1498914999999998,0.6371745,0.083676,1.2299115,0.8726845,-0.0203819999999999,0.6739915000000001,1.0829445,-0.164757,1.2245415,1.1447445,-0.096977,0.9230675,-0.0064195,-0.0053069999999999,1.0769325,0.0064195,0.005307,0.8701415,-0.5049255,0.055284,1.1049615,-0.4944655,0.041951,0.8466315,-0.8870155,0.021965,1.0916215,-0.8702354999999999,0.008813
187,0.984723,0.843867,0.1590525,0.816465,0.614057,0.0724845,0.700885,0.842897,-0.0447674999999999,1.150015,0.637197,0.0840415,1.230015,0.872807,-0.0195124999999999,0.672855,1.0815169999999998,-0.1657975,1.224545,1.145017,-0.0960474999999999,0.92305,-0.006377,-0.0050564999999999,1.07695,0.006377,0.0050564999999999,0.870145,-0.504623,0.0562755,1.104755,-0.494483,0.0418215,0.846725,-0.886883,0.0235845,1.091585,-0.869453,0.0102315
188,0.9851545000000002,0.8437,0.160937,0.8178084999999999,0.61429,0.073838,0.6999584999999999,0.84225,-0.044593,1.1500985,0.6372,0.084329,1.2300885,0.8729100000000001,-0.018754,0.6717485000000001,1.08018,-0.166933,1.2246185,1.14528,-0.095133,0.9229685,-0.006317,-0.0048949999999999,1.0770315,0.006317,0.0048949999999999,0.8702185,-0.50436,0.057228,1.1058385,-0.48707,0.040355,0.8468685000000001,-0.88681,0.0248709999999999,1.0918185,-0.86496,0.0115969999999999
189,0.9855870000000001,0.84363,0.1627305,0.818446,0.61452,0.0750565,0.6991959999999999,0.8416,-0.0444895,1.150246,0.63718,0.0847105,1.230226,0.873,-0.0180734999999999,0.670736,1.07913,-0.1679995,1.224766,1.14543,-0.0943695,0.922904,-0.006241,-0.0047635,1.077096,0.006241,0.0047635,0.870166,-0.50665,0.0581465,1.104956,-0.49373,0.0411775,0.847006,-0.88746,0.0257835,1.091776,-0.86844,0.0129734999999999
190,0.9859965,0.84375,0.164341,0.8190065,0.6147999999999999,0.0761999999999999,0.6985665000000001,0.8409,-0.044049,1.1504664999999998,0.6371899999999999,0.085098,1.2304564999999998,0.87323,-0.0174889999999999,0.6698465,1.07841,-0.1688889999999999,1.2249765,1.14551,-0.093669,0.9228115,-0.0062169999999999,-0.0046819999999999,1.0771885,0.006217,0.0046819999999999,0.8700165,-0.5065500000000001,0.058802,1.1049165,-0.49376,0.040669,0.8472265,-0.88783,0.026761,1.0919065,-0.86816,0.0141989999999999
191,0.986334,0.8444389999999999,0.165801,0.819218,0.6149789999999999,0.07703,0.6979780000000001,0.840669,-0.0437489999999999,1.150658,0.6370889999999999,0.085326,1.230618,0.873849,-0.0171319999999999,0.669038,1.078149,-0.169729,1.225118,1.145549,-0.0932089999999999,0.922758,-0.006206,-0.0046159999999999,1.077242,0.006206,0.004616,0.8698580000000001,-0.506491,0.059284,1.104868,-0.493091,0.040409,0.8473780000000001,-0.8878010000000001,0.027264,1.091994,-0.867121,0.014873
192,0.9868120000000001,0.8448410000000001,0.167217,0.819503,0.6151110000000001,0.077876,0.697533,0.8405210000000001,-0.043283,1.150793,0.636981,0.08573,1.2308329999999998,0.8742610000000001,-0.0167309999999999,0.668453,1.077971,-0.170343,1.225343,1.145571,-0.092693,0.92276,-0.006179,-0.0044529999999999,1.07724,0.006179,0.0044529999999999,0.869773,-0.504729,0.059788,1.104963,-0.493129,0.040361,0.847673,-0.887779,0.027842,1.092148,-0.866339,0.015661
193,0.987184,0.8451935,0.1684275,0.819763,0.6151935,0.0785805,0.697363,0.8405835,-0.0426025,1.150913,0.6368435,0.0861805,1.230953,0.8744235,-0.0163695,0.667903,1.0781635,-0.1709025,1.225533,1.1453635,-0.0922824999999999,0.922785,-0.0061344999999999,-0.0043264999999999,1.077215,0.0061345,0.0043264999999999,0.869653,-0.5046565000000001,0.0600264999999999,1.105043,-0.4932465,0.0405984999999999,0.8480130000000001,-0.8878165,0.0282465,1.092235,-0.8657365,0.0162444999999999
194,0.987518,0.8454780000000001,0.169565,0.820022,0.615268,0.079248,0.6973119999999999,0.840728,-0.042005,1.151052,0.636688,0.086707,1.231022,0.874478,-0.016019,0.6675519999999999,1.078428,-0.171035,1.225712,1.145128,-0.0918549999999999,0.92281,-0.006092,-0.0041879999999999,1.07719,0.0060919999999999,0.0041879999999999,0.869562,-0.504622,0.060236,1.105302,-0.4925719999999999,0.041076,0.848352,-0.888362,0.028642,1.092494,-0.865082,0.0168419999999999
195,0.9878705000000001,0.8454345000000001,0.170596,0.8200905000000001,0.6151945000000001,0.0797949999999999,0.6970505,0.8405645,-0.041574,1.1512005,0.6364645,0.087147,1.2311205,0.8744745,-0.015709,0.6672905,1.0785645,-0.171214,1.2259105,1.1447645,-0.091534,0.9228285,-0.0061385,-0.004136,1.0771715,0.0061385,0.0041359999999999,0.8695005,-0.5047155,0.0603069999999999,1.1055805,-0.4927655,0.0413289999999999,0.8486305000000001,-0.8886655,0.0289669999999999,1.0927885,-0.8648954999999999,0.0174339999999999
196,0.988272,0.8452879999999999,0.1715924999999999,0.820022,0.6150979999999999,0.0803295,0.697002,0.840718,-0.0409875,1.151322,0.636208,0.0874915,1.231262,0.874478,-0.0154055,0.6671320000000001,1.078778,-0.1710475,1.226162,1.144478,-0.0913275,0.92284,-0.006155,-0.0040955,1.0771600000000001,0.006155,0.0040954999999999,0.869422,-0.5048020000000001,0.0603465,1.105872,-0.492962,0.0416594999999999,0.848922,-0.888792,0.0291994999999999,1.092971,-0.8645520000000001,0.0177794999999999
197,0.9886540000000001,0.8450285000000001,0.1724129999999999,0.819812,0.6149785000000001,0.080756,0.6969120000000001,0.8412085,-0.0403469999999999,1.151432,0.6359185,0.087691,1.2315019999999999,0.8745885000000001,-0.015254,0.666992,1.0788785,-0.170897,1.226452,1.1440785,-0.091247,0.922855,-0.0061645,-0.0040639999999999,1.077145,0.0061645,0.0040639999999999,0.8694120000000001,-0.5056815,0.060626,1.105022,-0.5000815,0.043439,0.849172,-0.8888115,0.0292079999999999,1.093027,-0.8678115,0.018102
198,0.9889445,0.845007,0.1733565,0.8195095,0.614887,0.0811765,0.6968595,0.841817,-0.0397035,1.1515495,0.6356769999999999,0.0879155,1.2317894999999999,0.874617,-0.0151205,0.6668795000000001,1.079097,-0.1707635,1.2267495,1.143797,-0.0912635,0.9228775,-0.006161,-0.0040545,1.0771225,0.006161,0.0040544999999999,0.8693995,-0.505743,0.0608684999999999,1.1050595,-0.500013,0.0435634999999999,0.8492795,-0.888163,0.0293144999999999,1.0934045000000001,-0.867453,0.0183894999999999
199,0.989309,0.8448064999999999,0.174237,0.819222,0.6148365,0.081502,0.696932,0.8426865,-0.0390129999999999,1.151672,0.6354265,0.08815,1.232162,0.8747064999999999,-0.01506,0.6668620000000001,1.0792665,-0.170713,1.227122,1.1435665000000002,-0.091303,0.922919,-0.0060875,-0.0040629999999999,1.077081,0.0060875,0.004063,0.869732,-0.5048335,0.060796,1.1051719999999998,-0.5000435000000001,0.043622,0.849392,-0.8875135000000001,0.029378,1.0938759999999998,-0.8670735,0.018767
200,0.9896885,0.844554,0.1748885,0.8188925,0.614854,0.0816564999999999,0.6972825,0.842794,-0.0385015,1.1518925,0.635334,0.0884165,1.2325725,0.874054,-0.0149745,0.6668525000000001,1.079374,-0.1707015,1.2276025,1.143474,-0.0913415,0.9229745,-0.006011,-0.0040685,1.0770255,0.006011,0.0040684999999999,0.8700225,-0.505526,0.0608065,1.1052425,-0.500816,0.0439615,0.8495425,-0.887436,0.0295344999999999,1.0941415,-0.867676,0.0189234999999999
201,0.9899690000000001,0.844402,0.1756305,0.818524,0.614902,0.0818325,0.697674,0.842942,-0.0379594999999999,1.152014,0.635282,0.0887665,1.232864,0.873522,-0.0148154999999999,0.666694,1.079482,-0.1706194999999999,1.228054,1.143282,-0.0914094999999999,0.922976,-0.005931,-0.0040685,1.077024,0.005931,0.0040685,0.8701840000000001,-0.506308,0.0608075,1.105384,-0.501588,0.0441525,0.849574,-0.887338,0.0294504999999999,1.094428,-0.8682880000000001,0.0189705
202,0.9903205,0.8443045,0.1764534999999999,0.8183175,0.6149645,0.0820235,0.6981175,0.8430445,-0.0373965,1.1521875,0.6352045,0.0891375,1.2332575000000001,0.8732745,-0.0146384999999999,0.6665575,1.0794845000000002,-0.1704764999999999,1.2286975,1.1431845,-0.0914165,0.9229715000000001,-0.0058545,-0.0040685,1.0770285,0.0058545,0.0040685,0.8704275000000001,-0.5062355,0.0608095,1.1055875,-0.5016855,0.0443425,0.8496575,-0.8872955,0.0293555,1.0947455,-0.8686555,0.0190415
203,0.9907015,0.8443875000000001,0.17722,0.8181905,0.6150175000000001,0.0822239999999999,0.6984705,0.8436175,-0.03684,1.1523605,0.6350975000000001,0.089518,1.2337505,0.8733375000000001,-0.0145789999999999,0.6663705000000001,1.0795675,-0.17039,1.2294705,1.1429675,-0.09171,0.9229605,-0.0057775,-0.0040619999999999,1.0770395,0.0057775,0.004062,0.8705205,-0.5061825,0.060894,1.1056805,-0.5017925,0.044666,0.8497805,-0.8873724999999999,0.029262,1.0950845,-0.8691325,0.0190709999999999
204,0.9910815,0.8444145,0.1779455,0.8182155,0.6150145,0.0822725,0.6986555,0.8441145,-0.0364144999999999,1.1526455,0.6350945,0.0898475,1.2343255,0.8736944999999999,-0.0146384999999999,0.6662255,1.0796645,-0.1703045,1.2304355,1.1428645,-0.0921744999999999,0.9229605,-0.0057745,-0.0041754999999999,1.0770395,0.0057745,0.0041755,0.8708555,-0.5061755,0.0608845,1.1060655,-0.5017855,0.0447545,0.8502155,-0.8873655,0.0292295,1.0956125,-0.8691855,0.0188645
205,0.9915150000000001,0.844499,0.1785995,0.818299,0.615009,0.0822594999999999,0.698789,0.844599,-0.0359505,1.153009,0.635089,0.0901645,1.235069,0.873679,-0.0146755,0.666149,1.079659,-0.1701605,1.231469,1.142659,-0.0927005,0.922956,-0.005769,-0.0043185,1.077044,0.005769,0.0043184999999999,0.871319,-0.505881,0.0606544999999999,1.106439,-0.5017710000000001,0.0447784999999999,0.850699,-0.887321,0.0291434999999999,1.096221,-0.869001,0.0185914999999999
206,0.9919525000000001,0.8447560000000001,0.1791805,0.8184545,0.6149960000000001,0.0821834999999999,0.6989645,0.8450660000000001,-0.0354495,1.1533745,0.6350760000000001,0.0904514999999999,1.2358545,0.8736360000000001,-0.0147465,0.6661144999999999,1.079646,-0.1699695,1.2325845,1.142446,-0.0932695,0.9229665,-0.0057669999999999,-0.0044285,1.0770335,0.0057669999999999,0.0044284999999999,0.8717845000000001,-0.505494,0.0605424999999999,1.1068245,-0.501524,0.0447635,0.8511645000000001,-0.886774,0.0289004999999999,1.0969975,-0.8688239999999999,0.0183044999999999
207,0.992301,0.8450694999999999,0.179485,0.8184009999999999,0.6150295,0.082042,0.699271,0.8455595,-0.034955,1.153541,0.6349495,0.0907039999999999,1.236671,0.8733095,-0.014878,0.665751,1.0794595,-0.169775,1.233681,1.1418595,-0.093705,0.922978,-0.0057255,-0.0045089999999999,1.077022,0.0057255,0.0045089999999999,0.872251,-0.5057805000000001,0.060513,1.107201,-0.5015505,0.0445489999999999,0.851681,-0.8869705,0.0285549999999999,1.097761,-0.8689605,0.0181259999999999
208,0.992509,0.845219,0.1798495,0.818265,0.615029,0.0818535,0.699535,0.845949,-0.0343975,1.153715,0.634779,0.0909085,1.237395,0.873029,-0.0150884999999999,0.665405,1.079319,-0.1695404999999999,1.234755,1.141319,-0.0941005,0.922986,-0.005634,-0.0045364999999999,1.077014,0.005634,0.0045365,0.872675,-0.505661,0.0604665,1.107555,-0.501551,0.0444125,0.852035,-0.887291,0.0281495,1.098495,-0.8691409999999999,0.0177795
209,0.9938025,0.8445895,0.1809655,0.8193885000000001,0.6157495,0.0817545,0.7015685,0.8474895,-0.0337355,1.1551185,0.6348095,0.0912875,1.2393885,0.8726395,-0.0151025,0.6664384999999999,1.0804995000000002,-0.1693945,1.2374685,1.1419995,-0.0952944999999999,0.9230035,-0.0050875,-0.0049084999999999,1.0769965,0.0050875,0.0049084999999999,0.8719085,-0.5054905,0.0608615,1.1082085,-0.5025605,0.0437375,0.8514984999999999,-0.8859205,0.0273635,1.0986025,-0.8718305,0.0164104999999999
210,0.9940090000000001,0.8463145,0.1807975,0.8192280000000001,0.6156245,0.0816945,0.7018880000000001,0.8474045,-0.0333035,1.155118,0.6340545,0.0915755,1.239948,0.8721645,-0.0153365,0.666188,1.0800945000000002,-0.1687925,1.239238,1.1402945,-0.0955225,0.923007,-0.0054024999999999,-0.0045044999999999,1.076993,0.0054024999999999,0.0045045,0.871998,-0.5059655,0.0606205,1.108458,-0.5022155,0.0434675,0.851268,-0.8872155,0.0261715,1.098561,-0.8721955,0.0161585
211,0.991374,0.8463275,0.179948,0.816995,0.6149575,0.081001,0.6994450000000001,0.8465675,-0.032843,1.153345,0.6349475,0.091386,1.238265,0.8721475000000001,-0.015766,0.662825,1.0786275,-0.168792,1.236445,1.1398275,-0.0968319999999999,0.922926,-0.0057105,-0.004582,1.077074,0.0057105,0.004582,0.873685,-0.5064025,0.061004,1.110235,-0.5018225,0.043774,0.855135,-0.8887725,0.027829,1.101855,-0.8718325,0.016072
212,0.992175,0.845748,0.181004,0.816817,0.614698,0.080682,0.6997169999999999,0.846518,-0.0322949999999999,1.153117,0.634348,0.091384,1.2388469999999998,0.871548,-0.0163679999999999,0.662607,1.078078,-0.167986,1.237267,1.138378,-0.0971159999999999,0.922839,-0.005339,-0.0043919999999999,1.077161,0.005339,0.004392,0.8770070000000001,-0.485612,0.057897,1.109597,-0.5021019999999999,0.044384,0.854197,-0.885842,0.026912,1.102237,-0.870752,0.014015
213,0.9929935,0.8451415,0.180521,0.8172254999999999,0.6140315000000001,0.079945,0.7009055,0.8458215,-0.031138,1.1536355,0.6332215,0.091355,1.2401555,0.8705615,-0.0167729999999999,0.6633055,1.0775615,-0.167759,1.2387155,1.1369615,-0.097879,0.9229715000000001,-0.0054564999999999,-0.0043819999999999,1.0770285,0.0054564999999999,0.004382,0.8754955,-0.5067484999999999,0.059375,1.1100855,-0.5021085000000001,0.043458,0.8545955000000001,-0.8885185,0.024537,1.1025555,-0.8705285,0.013622
214,0.9933865000000001,0.8447705,0.1806255,0.8169825,0.6138505000000001,0.0799465,0.7009225,0.8457705,-0.0306285,1.1535725000000001,0.6327605000000001,0.0917355,1.2409225,0.8698205,-0.0166665,0.6633425,1.0772605,-0.1676945,1.2397725,1.1360605,-0.0972444999999999,0.9230325,-0.0051505,-0.0044025,1.0769675,0.0051505,0.0044025,0.8753725,-0.5066094999999999,0.0585885,1.1099925,-0.5024995,0.0429965,0.8560525000000001,-0.8916394999999999,0.0203535,1.1015225,-0.8697294999999999,0.0143375
