sb224sc-HT22-VT27/4dt907/src/ml-research/a11/datafiles/kinect_good_preprocessed_not_cut_A11_mediapipe/B22_kinect_mirrored.csv
FrameNo,nose_3d_x,nose_3d_y,nose_3d_z,left_shoulder_3d_x,left_shoulder_3d_y,left_shoulder_3d_z,left_elbow_3d_x,left_elbow_3d_y,left_elbow_3d_z,right_shoulder_3d_x,right_shoulder_3d_y,right_shoulder_3d_z,right_elbow_3d_x,right_elbow_3d_y,right_elbow_3d_z,left_wrist_3d_x,left_wrist_3d_y,left_wrist_3d_z,right_wrist_3d_x,right_wrist_3d_y,right_wrist_3d_z,left_hip_3d_x,left_hip_3d_y,left_hip_3d_z,right_hip_3d_x,right_hip_3d_y,right_hip_3d_z,left_knee_3d_x,left_knee_3d_y,left_knee_3d_z,right_knee_3d_x,right_knee_3d_y,right_knee_3d_z,left_ankle_3d_x,left_ankle_3d_y,left_ankle_3d_z,right_ankle_3d_x,right_ankle_3d_y,right_ankle_3d_z
0,1.016606,0.7501380000000001,0.057788,0.851702,0.468688,0.019094,0.787762,0.249098,0.0102279999999999,1.182572,0.469888,0.0139609999999999,1.219332,0.216418,-0.0123479999999999,0.907694,0.179918,-0.180279,1.1981119999999998,0.020332,-0.085349,0.927086,0.002269,0.000118,1.072914,-0.002269,-0.000118,0.9082250000000001,-0.353622,0.048664,1.097566,-0.339492,0.02828,0.900134,-0.6766719999999999,0.070951,1.102312,-0.657582,0.0720649999999999
1,1.016614,0.7500875,0.0579225,0.85179,0.4686675,0.0192525,0.78913,0.2485875,0.0098355,1.18273,0.4698775,0.0140855,1.21938,0.2163975,-0.0123484999999999,0.87764,0.2291375,-0.2025885,1.19817,0.0204905,-0.0853385,0.927091,0.0022765,9.850000000000136e-05,1.0729090000000001,-0.0022765,-9.850000000000136e-05,0.908138,-0.3534225,0.0485435,1.097698,-0.3398024999999999,0.0284265,0.900163,-0.6760825,0.0708985,1.10228,-0.6578425,0.0718055
2,1.0165395,0.7500935000000001,0.0579559999999999,0.8518574999999999,0.4686735,0.0194589999999999,0.7898475,0.2494035,0.0102599999999999,1.1827775,0.4698835,0.0141379999999999,1.2193874999999998,0.2164035,-0.0123419999999999,0.8664775,0.1952835,-0.166672,1.1981775,0.0207265,-0.085242,0.9270855,0.0022655,6.899999999999962e-05,1.0729145,-0.0022655,-6.899999999999962e-05,0.9081665000000001,-0.3534865,0.048603,1.0977135,-0.3397665,0.028474,0.9001035,-0.6761465,0.070793,1.1022275,-0.6577164999999999,0.071831
3,1.016459,0.749987,0.0579484999999999,0.849415,0.467517,0.0114884999999999,0.791625,0.247897,0.0087444999999999,1.182775,0.469927,0.0141044999999999,1.219455,0.216427,-0.0123535,0.882165,0.185277,-0.1777315,1.198175,0.020829,-0.0852615,0.927092,0.0022459999999999,0.0001144999999999,1.072908,-0.0022459999999999,-0.0001145,0.908196,-0.353443,0.0485764999999999,1.09777,-0.339683,0.0283354999999999,0.900071,-0.676163,0.0708135,1.102195,-0.657753,0.0718494999999999
4,1.016349,0.7499595,0.058082,0.850088,0.4677195,0.014628,0.769888,0.2378095,0.013715,1.182798,0.4699795,0.014082,1.219508,0.2165395,-0.0122049999999999,0.895468,0.2221594999999999,-0.188382,1.198458,0.0214775,-0.0849719999999999,0.927089,0.0022415,0.000154,1.072911,-0.0022415,-0.0001539999999999,0.90819,-0.3538504999999999,0.048751,1.097747,-0.3396705,0.02831,0.89997,-0.6762805,0.070873,1.102488,-0.6568105,0.071492
5,1.0161265,0.749936,0.0583285,0.8505315,0.467926,0.0164094999999999,0.7826615,0.2529659999999999,0.0168154999999999,1.1823015,0.469896,0.0140024999999999,1.2196315,0.216606,-0.0117885,0.8721415,0.1835159999999999,-0.1546914999999999,1.1985115,0.021938,-0.0847615,0.9270905,0.002232,0.0001654999999999,1.0729095,-0.002232,-0.0001654999999999,0.9080064999999999,-0.353764,0.0487475,1.0976585,-0.339764,0.0283985,0.8998495,-0.675994,0.0709815,1.1024215,-0.656844,0.0714635
6,1.016028,0.7499265,0.058352,0.850728,0.4679765,0.0170659999999999,0.789828,0.2514965,0.0092399999999999,1.182278,0.4698965,0.014019,1.219638,0.2165265,-0.011871,0.913791,0.1852865,-0.190037,1.198508,0.0220865,-0.084867,0.927094,0.0022275,0.000147,1.072906,-0.0022275,-0.000147,0.908054,-0.3536835,0.0487719999999999,1.097635,-0.3397635,0.028413,0.899854,-0.6761935,0.070945,1.102268,-0.6564835,0.07148
7,1.015979,0.7499515,0.0585949999999999,0.851338,0.4681915,0.019006,0.790468,0.2530515,0.011455,1.1822579999999998,0.4698915,0.014039,1.219818,0.2165515,-0.011762,0.882988,0.1971515,-0.18173,1.198618,0.0221675,-0.08497,0.92709,0.0022545,0.0001579999999999,1.07291,-0.0022545,-0.0001579999999999,0.908097,-0.3526685,0.048529,1.097608,-0.3397385,0.02828,0.899822,-0.6761085,0.070785,1.102208,-0.6570085,0.071757
8,1.0158645,0.7499410000000001,0.0588425,0.8513345,0.4681909999999999,0.0191465,0.7907845,0.2534409999999999,0.0113985,1.1821745,0.469881,0.0140375,1.2199145,0.216581,-0.0116304999999999,0.8824245,0.197151,-0.1817194999999999,1.1987145,0.0224349999999999,-0.0849195,0.9270935,0.002255,0.0001755,1.0729065,-0.002255,-0.0001754999999999,0.9080865,-0.352399,0.0485115,1.0975945,-0.339769,0.0282805,0.8997775000000001,-0.676049,0.0707755,1.1021745,-0.656949,0.0717565
9,1.0157604999999998,0.7499405,0.0590959999999999,0.8513325,0.4681905,0.019343,0.7911225,0.2537905,0.011327,1.1820825,0.4698805,0.014032,1.2200225,0.2166205,-0.0115139999999999,0.8816425,0.1971505,-0.179009,1.1987725,0.0226305,-0.084899,0.9270975,0.0022545,0.000196,1.0729025,-0.0022545,-0.000196,0.9080885,-0.3521395,0.0485,1.0975765,-0.3397794999999999,0.028263,0.8997435,-0.6760095,0.070741,1.1021525,-0.6569395,0.071776
10,1.01568,0.7499370000000001,0.059323,0.85133,0.468197,0.0195489999999999,0.79142,0.2538169999999999,0.0112109999999999,1.18202,0.469887,0.0140259999999999,1.22011,0.216657,-0.011432,0.88166,0.196767,-0.179058,1.19881,0.022725,-0.084888,0.9271000000000001,0.002255,0.000216,1.0729,-0.002255,-0.000216,0.908099,-0.351933,0.048492,1.097573,-0.339783,0.028246,0.899722,-0.6759529999999999,0.070717,1.10214,-0.6569429999999999,0.071801
11,1.015599,0.74992,0.0595605,0.8514349999999999,0.46829,0.0200305,0.791615,0.25381,0.0111965,1.181975,0.46988,0.0140235,1.220205,0.21669,-0.0113284999999999,0.880555,0.19811,-0.1785465,1.198865,0.02285,-0.0848765,0.927105,0.002258,0.0002305,1.072895,-0.002258,-0.0002304999999999,0.908109,-0.35167,0.0484915,1.097557,-0.33982,0.0282505,0.899685,-0.67589,0.0706955,1.1021349999999999,-0.6569499999999999,0.0718255
12,1.015527,0.7499020000000001,0.0598235,0.851532,0.4683819999999999,0.0204055,0.7920320000000001,0.2538019999999999,0.0107424999999999,1.181942,0.469872,0.0140174999999999,1.220292,0.2167319999999999,-0.0112225,0.878502,0.197762,-0.1774975,1.198912,0.022951,-0.0848675,0.927108,0.002262,0.0002435,1.072892,-0.002262,-0.0002435,0.908124,-0.351468,0.0484755,1.097546,-0.339838,0.0282515,0.8996520000000001,-0.6757879999999999,0.0706575,1.102102,-0.656998,0.0718844999999999
13,1.0154555,0.749893,0.0601005,0.8516215,0.468483,0.0207875,0.7924615,0.253783,0.0101494999999999,1.1819115,0.469883,0.0140594999999999,1.2203615,0.216753,-0.0111064999999999,0.8786315000000001,0.200053,-0.1787315,1.1989415,0.023041,-0.0848815,0.9271105,0.002267,0.0002575,1.0728895,-0.002267,-0.0002575,0.9081465,-0.351307,0.0484605,1.0975365,-0.3398569999999999,0.0282375,0.8996215,-0.675697,0.0706315,1.1020915,-0.6570469999999999,0.0719445
14,1.015397,0.7498825,0.060394,0.851684,0.4685924999999999,0.021109,0.792554,0.2543725,0.010244,1.181924,0.4698925,0.014131,1.220444,0.2167825,-0.0109469999999999,0.8785340000000001,0.2025925,-0.1781499999999999,1.198964,0.0231025,-0.08491,0.927112,0.0022725,0.0002759999999999,1.072888,-0.0022725,-0.0002759999999999,0.908167,-0.3512675,0.048441,1.097526,-0.3398775,0.028224,0.8995839999999999,-0.6756075,0.070601,1.102084,-0.6571675,0.071977
15,1.0153385,0.749892,0.0606779999999999,0.8517345000000001,0.468732,0.0213429999999999,0.7925845,0.254352,0.0101119999999999,1.1819245,0.469902,0.0142129999999999,1.2204845,0.216802,-0.010826,0.8802445000000001,0.201002,-0.178889,1.1989645,0.023155,-0.084939,0.9271135000000001,0.002275,0.0002949999999999,1.0728864999999999,-0.002275,-0.000295,0.9081595000000001,-0.351198,0.0484249999999999,1.0975145,-0.339898,0.02821,0.8995445,-0.6754880000000001,0.070583,1.1020845,-0.657178,0.071958
16,1.0152815,0.7499009999999999,0.0609165,0.8517875,0.468871,0.0215714999999999,0.7926175,0.254181,0.0098404999999999,1.1819275,0.469921,0.0143474999999999,1.2205175,0.216831,-0.0107285,0.8825375,0.200991,-0.1799665,1.1989675,0.023203,-0.0849665,0.9271185,0.002278,0.0003125,1.0728815,-0.002278,-0.0003125,0.9081494999999999,-0.351139,0.0484314999999999,1.0975245,-0.339939,0.0282494999999999,0.8995075,-0.675369,0.0705575,1.1020875,-0.657189,0.0719355
17,1.0152325,0.7499085,0.061178,0.8518304999999999,0.4690085,0.021826,0.7926305000000001,0.2540485,0.009493,1.1819705,0.4699385,0.014516,1.2205605,0.2168485,-0.01065,0.8803805,0.2041585,-0.179149,1.1989705,0.0232595,-0.084989,0.9271235,0.0022815,0.0003249999999999,1.0728765,-0.0022815,-0.0003249999999999,0.9081545,-0.3510515,0.04844,1.0975355,-0.3399715,0.0283,0.8994805,-0.6752615,0.070528,1.1021005,-0.6572015,0.071913
18,1.015175,0.749905,0.0614475,0.851867,0.469125,0.0220235,0.792857,0.253605,0.0089365,1.182007,0.469945,0.0147235,1.220587,0.216895,-0.0106754999999999,0.881907,0.206825,-0.1792145,1.198977,0.023343,-0.0852344999999999,0.9271290000000001,0.002285,0.0003385,1.072871,-0.002285,-0.0003384999999999,0.9081720000000001,-0.351015,0.0484375,1.097546,-0.340015,0.0283535,0.899447,-0.675155,0.0704955,1.102097,-0.657015,0.0718875
19,1.0151124999999999,0.749889,0.061755,0.8519105000000001,0.469219,0.0222109999999999,0.7929904999999999,0.253259,0.0084369999999999,1.1820605,0.469959,0.0149399999999999,1.2206204999999999,0.216949,-0.010704,0.8795605,0.2093489999999999,-0.179172,1.1989705,0.023604,-0.086022,0.9271375,0.002291,0.000348,1.0728625,-0.002291,-0.000348,0.9081855,-0.351011,0.0484319999999999,1.0975545,-0.340071,0.0284429999999999,0.8994205,-0.675111,0.070474,1.1020905,-0.656841,0.071887
20,1.0150525,0.7498735000000001,0.0620659999999999,0.8519525,0.4693035,0.022375,0.7930025,0.2528735,0.00791,1.1820725,0.4699735,0.015149,1.2206625,0.2170635,-0.0107379999999999,0.8810525,0.2118235,-0.181935,1.1989325,0.0244015,-0.087525,0.9271405,0.0022965,0.000355,1.0728595,-0.0022965,-0.000355,0.9081905,-0.3510265,0.04842,1.0975615,-0.3401165,0.0285109999999999,0.8994125,-0.6750864999999999,0.0704559999999999,1.1021125,-0.6567065,0.0718169999999999
21,1.015011,0.7498705,0.062372,0.851992,0.4693905,0.022542,0.792962,0.2524605,0.0067,1.182062,0.4699905,0.015368,1.220762,0.2173505,-0.0107859999999999,0.8790620000000001,0.2151605,-0.182328,1.199482,0.0275965,-0.090748,0.927141,0.0023005,0.000362,1.072859,-0.0023005,-0.000362,0.908168,-0.3510695,0.048402,1.097577,-0.3401595,0.028579,0.8994120000000001,-0.6750995,0.070434,1.102122,-0.6567395,0.0717609999999999
22,1.014978,0.749864,0.062709,0.8520300000000001,0.4694839999999999,0.0226409999999999,0.79288,0.251934,0.0045889999999999,1.18207,0.470034,0.0155599999999999,1.2211,0.218444,-0.011009,0.87869,0.217344,-0.186772,1.2001,0.032338,-0.0953519999999999,0.927141,0.002294,0.0003509999999999,1.072859,-0.002294,-0.000351,0.9081440000000001,-0.351146,0.048386,1.097594,-0.340196,0.0286269999999999,0.89941,-0.675086,0.07038,1.10215,-0.656796,0.07168
23,1.014952,0.749867,0.0630245,0.852095,0.469577,0.0227175,0.792615,0.251227,0.0013424999999999,1.182065,0.470127,0.0157255,1.221805,0.220667,-0.0113634999999999,0.876265,0.223617,-0.1935875,1.200855,0.03916,-0.1013775,0.927143,0.002287,0.0003234999999999,1.072857,-0.002287,-0.0003234999999999,0.908124,-0.351213,0.0483535,1.09761,-0.340183,0.0286515,0.8994050000000001,-0.6750929999999999,0.0703145,1.102175,-0.656873,0.0716005
24,1.014915,0.7498539999999999,0.063412,0.852112,0.469634,0.022667,0.791922,0.250464,-0.00272,1.182022,0.470244,0.015848,1.222872,0.224574,-0.01206,0.874912,0.2254739999999999,-0.2017939999999999,1.202752,0.049893,-0.1103239999999999,0.927139,0.002275,0.000244,1.072861,-0.002275,-0.000244,0.908057,-0.351386,0.0483,1.097579,-0.340176,0.028628,0.8993520000000002,-0.6750860000000001,0.070194,1.102182,-0.656946,0.071455
25,1.0148035,0.7498319999999999,0.063872,0.8520605,0.469682,0.0225599999999999,0.7905005,0.250882,-0.007975,1.1818705,0.470432,0.0159829999999999,1.2241405,0.230132,-0.013157,0.8734405000000001,0.2326119999999999,-0.210313,1.2059605,0.063678,-0.121863,0.9271195,0.002257,0.0001239999999999,1.0728805,-0.002257,-0.000124,0.9078895,-0.351458,0.0481999999999999,1.0974635,-0.340188,0.0285179999999999,0.8992305,-0.675058,0.070016,1.1021005,-0.657018,0.071255
26,1.014639,0.749818,0.06426,0.852077,0.469858,0.0223729999999999,0.7877370000000001,0.251438,-0.014415,1.181647,0.470628,0.0160739999999999,1.2260769999999999,0.237288,-0.015598,0.870847,0.241468,-0.220458,1.210087,0.081659,-0.136788,0.927084,0.002221,-3.300000000000525e-05,1.072916,-0.002221,3.299999999999831e-05,0.90765,-0.3515319999999999,0.0480429999999999,1.097311,-0.340192,0.0283439999999999,0.899057,-0.675052,0.069777,1.101987,-0.657072,0.070944
27,1.0144495,0.749786,0.064681,0.8521815,0.470126,0.022112,0.7845515000000001,0.252036,-0.0160559999999999,1.1813615,0.470896,0.016108,1.2303614999999999,0.247476,-0.0233509999999999,0.8661115,0.253706,-0.228844,1.2145515,0.101766,-0.155574,0.9270405,0.002183,-0.0002009999999999,1.0729595,-0.002183,0.0002009999999999,0.9073655,-0.351524,0.047782,1.0971185,-0.340204,0.028108,0.8988615000000001,-0.674984,0.069476,1.1018215,-0.6571440000000001,0.070573
28,1.0142795,0.749775,0.065089,0.8528725,0.470945,0.021761,0.7808625,0.2526549999999999,-0.022912,1.1810125,0.4712949999999999,0.016092,1.2346025,0.2592549999999999,-0.031839,0.8599625,0.265515,-0.239164,1.2207025,0.1246149999999999,-0.176434,0.9269905,0.002142,-0.0003729999999999,1.0730095,-0.002142,0.0003729999999999,0.9070374999999999,-0.351515,0.04746,1.0968965,-0.340205,0.0277579999999999,0.8986725000000001,-0.674835,0.0690939999999999,1.1016325,-0.657215,0.070134
29,1.014114,0.7497575000000001,0.065612,0.853458,0.4715175,0.0214819999999999,0.775698,0.2529175,-0.031588,1.180518,0.4716975,0.0160369999999999,1.238848,0.2710475,-0.040921,0.848148,0.2781575,-0.250718,1.229028,0.1505675,-0.198458,0.926936,0.0020975,-0.000512,1.073064,-0.0020975,0.0005119999999999,0.906687,-0.3514624999999999,0.047089,1.096645,-0.3402024999999999,0.0273659999999999,0.898468,-0.6746025,0.068661,1.101418,-0.6570425,0.0696529999999999
30,1.0139945,0.7497594999999999,0.0662225,0.8539075,0.4718895,0.0211085,0.7698275,0.2539395,-0.0398095,1.1798875,0.4723195,0.0159505,1.2436375,0.2832495,-0.0508685,0.8348475,0.2918195,-0.2626485,1.2372475,0.1811595,-0.2188884999999999,0.9268855,0.0020445,-0.0006044999999999,1.0731145,-0.0020445,0.0006045,0.9063645,-0.3514505,0.0466675,1.0963625,-0.3402705,0.0269285,0.8982475,-0.6744405,0.0681815,1.1011875,-0.6572405,0.0691435
31,1.0139319999999998,0.749769,0.0670375,0.8542609999999999,0.4722889999999999,0.0206554999999999,0.762301,0.2610889999999999,-0.0481355,1.179281,0.4730189999999999,0.0157954999999999,1.250431,0.296029,-0.0616705,0.821551,0.310009,-0.2698225,1.245991,0.218649,-0.2408925,0.926833,0.001986,-0.0006225,1.073167,-0.001986,0.0006224999999999,0.906053,-0.351481,0.0461904999999999,1.09609,-0.340261,0.0264894999999999,0.898021,-0.674391,0.0676505,1.1009509999999998,-0.6573709999999999,0.0685804999999999
32,1.013919,0.7498554999999999,0.0680709999999999,0.854386,0.4727955,0.0201469999999999,0.754186,0.2723755,-0.062496,1.1786159999999999,0.4737255,0.0155149999999999,1.258476,0.3124255,-0.075414,0.809036,0.3381055,-0.276424,1.255626,0.2655255,-0.261524,0.926775,0.0019115,-0.000578,1.073225,-0.0019115,0.000578,0.905714,-0.3516845,0.045706,1.095786,-0.3401945,0.026052,0.8977510000000001,-0.6744145,0.0670969999999999,1.100646,-0.6574745000000001,0.068007
33,1.0139385,0.7499330000000001,0.0690495,0.8543265,0.473493,0.0196805,0.7447865,0.288313,-0.0778664999999999,1.1779865,0.474583,0.0151925,1.2673465,0.330833,-0.0906865,0.7928165,0.371043,-0.2803965,1.2647365,0.314903,-0.2782265,0.9267275,0.001855,-0.0004514999999999,1.0732725,-0.001855,0.0004515,0.9054075,-0.351937,0.0452975,1.0955165,-0.340137,0.0256795,0.8975225,-0.6743669999999999,0.0666325,1.1003865,-0.657557,0.0675025
34,1.014037,0.7499945,0.0700435,0.854078,0.4742845,0.0193465,0.735668,0.3067945,-0.0905635,1.177598,0.4755445,0.0149504999999999,1.276748,0.3496945,-0.1064435,0.7770779999999999,0.4069945,-0.2814535,1.2733780000000001,0.3657945,-0.2908834999999999,0.926691,0.0018265,-0.0002305,1.073309,-0.0018265,0.0002305,0.9051629999999999,-0.3521955,0.0450114999999999,1.095308,-0.3400955,0.0253714999999999,0.897379,-0.6742855,0.0662524999999999,1.100178,-0.6575854999999999,0.0670824999999999
35,1.0141845,0.7500855,0.0711215,0.8538665,0.4749555,0.0190735,0.7272164999999999,0.3289155,-0.1004684999999999,1.1773565,0.4764955,0.0147805,1.2859165,0.3704855,-0.1214684999999999,0.7604265,0.4442955,-0.2812585,1.2820765,0.4177655,-0.2983685,0.9266525,0.0018075,6.849999999999912e-05,1.0733475,-0.0018075,-6.849999999999912e-05,0.9049655,-0.3522045,0.0447555,1.0951495,-0.3400345,0.0251705,0.8972705,-0.6741645,0.0659545,1.0999865,-0.6576045,0.0668084999999999
36,1.0143445,0.7501445,0.0720755,0.8536725000000001,0.4755844999999999,0.0188144999999999,0.7191725,0.3519545,-0.1121875,1.1771625000000001,0.4773845,0.0145215,1.2928024999999999,0.3917144999999999,-0.1307475,0.7454425,0.4805045,-0.2810775,1.2910925,0.4717145,-0.3000675,0.9266105,0.0017565,0.0003354999999999,1.0733895,-0.0017565,-0.0003355,0.9047925,-0.3519855,0.0444815,1.0950045,-0.3400055,0.0249795,0.8971745,-0.6741155,0.0656995,1.0998125,-0.6575755,0.0665475
37,1.014446,0.7499605,0.0728989999999999,0.853384,0.4762405,0.018637,0.711504,0.3751505,-0.123207,1.176934,0.4788104999999999,0.014343,1.299674,0.4175405,-0.138467,0.730734,0.5175005,-0.280827,1.298764,0.5279805000000001,-0.3004869999999999,0.926584,0.0016405,0.000522,1.073416,-0.0016405,-0.000522,0.904603,-0.3520395,0.044301,1.094846,-0.3401695,0.024806,0.8970200000000002,-0.6744195,0.065534,1.099604,-0.6577495,0.0663769999999999
38,1.014525,0.7495,0.07346,0.8527330000000001,0.47716,0.018571,0.7053130000000001,0.39901,-0.130265,1.176563,0.48058,0.014261,1.306463,0.44463,-0.144645,0.719033,0.55487,-0.277285,1.304363,0.58314,-0.300735,0.926556,0.001477,0.000608,1.073444,-0.001477,-0.000608,0.904447,-0.3523099999999999,0.044203,1.094693,-0.34052,0.024726,0.8968490000000001,-0.67502,0.065451,1.099363,-0.65816,0.066299
39,1.01461,0.7487125,0.0737965,0.851707,0.4782524999999999,0.0186925,0.699567,0.4316125,-0.1332924999999999,1.176127,0.4822025,0.0142455,1.312447,0.4733525,-0.1487524999999999,0.708267,0.5962025000000001,-0.2713625,1.3096670000000001,0.6344625,-0.3008025,0.926527,0.0013235,0.0007045,1.073473,-0.0013235,-0.0007045,0.904327,-0.3529575,0.0442575,1.09456,-0.3411675,0.0248255,0.89668,-0.6760075,0.0655515,1.099127,-0.6589275,0.0663795
40,1.014634,0.7476575000000001,0.0740115,0.849888,0.4792774999999999,0.0188424999999999,0.695128,0.4588474999999999,-0.1392284999999999,1.175618,0.4841875,0.0141764999999999,1.315938,0.5029475,-0.1506185,0.697828,0.6330975000000001,-0.2646084999999999,1.314558,0.6793175,-0.2963285,0.926511,0.0011305,0.0009204999999999,1.073489,-0.0011304999999999,-0.0009204999999999,0.9042209999999999,-0.3539825,0.0443815,1.094375,-0.3421325,0.0250465,0.896454,-0.6774024999999999,0.0657504999999999,1.098858,-0.6600425,0.0665785
41,1.0146084999999998,0.7462075,0.0743185,0.8481405000000001,0.4803775,0.0189215,0.6914005000000001,0.4837475,-0.1388035,1.1751505,0.4863275,0.0140595,1.3175905,0.5290675,-0.1503635,0.6894905,0.6617474999999999,-0.2579335,1.3188205,0.7159975,-0.2902134999999999,0.9265105,0.0009364999999999,0.0012265,1.0734895,-0.0009364999999999,-0.0012264999999999,0.9041545,-0.3554524999999999,0.0445015,1.0941765,-0.3434325,0.0253415,0.8961895,-0.6792525,0.0660435,1.0985905,-0.6617825,0.0669125
42,1.014595,0.7444200000000001,0.0746785,0.846452,0.48172,0.0191345,0.689612,0.5049100000000001,-0.1383945,1.174762,0.4885199999999999,0.0139345,1.3176619999999999,0.55276,-0.1500044999999999,0.682292,0.68621,-0.2502945,1.322502,0.7473500000000001,-0.2844645,0.926532,0.0007939999999999,0.0015495,1.073468,-0.000794,-0.0015494999999999,0.904085,-0.35731,0.0446235,1.0939629999999998,-0.3450999999999999,0.0256775,0.8958790000000001,-0.68152,0.0663915,1.0982919999999998,-0.66396,0.0672985
43,1.014564,0.7423464999999999,0.0748325,0.8447930000000001,0.4832265,0.0194484999999999,0.688463,0.5274065,-0.1378265,1.174363,0.4906365,0.0138044999999999,1.317313,0.5754064999999999,-0.1494565,0.676283,0.7117365,-0.2358065,1.325703,0.7750265,-0.2720065,0.926567,0.0006344999999999,0.0018084999999999,1.073433,-0.0006344999999999,-0.0018085,0.904028,-0.3595035,0.0448274999999999,1.093713,-0.3469235,0.0260494999999999,0.89553,-0.6840535000000001,0.0669154999999999,1.097983,-0.6663635,0.0678275
44,1.014522,0.7400125000000001,0.074755,0.843227,0.4853225,0.01995,0.688237,0.5463225,-0.132682,1.173987,0.4927924999999999,0.0137849999999999,1.317007,0.5956325,-0.146882,0.671477,0.7335325,-0.219882,1.327887,0.8008425,-0.2568919999999999,0.9266290000000001,0.0005395,0.001951,1.0733709999999999,-0.0005395,-0.001951,0.903992,-0.3616474999999999,0.045102,1.0934359999999999,-0.3490775,0.0265509999999999,0.895173,-0.6869275,0.067574,1.0976569999999999,-0.6692075,0.068509
45,1.01448,0.737346,0.074545,0.8418220000000001,0.487796,0.020607,0.688122,0.564546,-0.124084,1.173572,0.495016,0.013869,1.316792,0.612746,-0.141594,0.668282,0.754216,-0.204204,1.329402,0.822526,-0.241794,0.926714,0.000449,0.002048,1.073286,-0.0004489999999999,-0.002048,0.9040239999999999,-0.363684,0.045438,1.09317,-0.351334,0.027162,0.8948260000000001,-0.690244,0.068399,1.097372,-0.672384,0.069366
46,1.0144544999999998,0.7346370000000001,0.074077,0.8407264999999999,0.489887,0.0214299999999999,0.6880565000000001,0.5819070000000001,-0.114593,1.1730865,0.496797,0.0140059999999999,1.3159265,0.624387,-0.134433,0.6661665,0.773607,-0.188353,1.3303365,0.839507,-0.226523,0.9268015000000001,0.000483,0.0019889999999999,1.0731985,-0.000483,-0.001989,0.9040945,-0.365593,0.0457589999999999,1.0928885,-0.353673,0.0278779999999999,0.8944945,-0.6936129999999999,0.069397,1.0971565,-0.675603,0.070334
47,1.0144085,0.7320420000000001,0.073276,0.8398455,0.491722,0.022268,0.6882555,0.599572,-0.1043719999999999,1.1726855,0.4984719999999999,0.014265,1.3144955,0.636312,-0.125642,0.6649855,0.7920020000000001,-0.173632,1.3310755,0.854252,-0.211182,0.9269215000000001,0.0005339999999999,0.001904,1.0730784999999998,-0.0005339999999999,-0.001904,0.9041525,-0.367088,0.046197,1.0926355,-0.356068,0.028671,0.8942105,-0.6969179999999999,0.070497,1.0969155,-0.6788879999999999,0.071388
48,1.014341,0.729576,0.0722625,0.839118,0.493276,0.0232065,0.688938,0.608696,-0.0943415,1.1723279999999998,0.500326,0.0144235,1.3128980000000001,0.647116,-0.1168015,0.665198,0.804706,-0.1575415,1.3316379999999999,0.865886,-0.1965715,0.927044,0.0005999999999999,0.0017635,1.072956,-0.0005999999999999,-0.0017634999999999,0.904223,-0.368434,0.0467095,1.092397,-0.358414,0.0295295,0.893959,-0.700144,0.0716575,1.096698,-0.682034,0.0725115
49,1.0143105,0.727288,0.071005,0.8384935,0.4946779999999999,0.0242309999999999,0.6899335,0.618418,-0.0840569999999999,1.1719035,0.501938,0.0145749999999999,1.3111534999999999,0.656508,-0.108387,0.6655335,0.820078,-0.140537,1.3320935,0.876608,-0.180357,0.9271655,0.000715,0.001568,1.0728345,-0.000715,-0.001568,0.9043335000000001,-0.369522,0.047214,1.0922615,-0.360572,0.0303509999999999,0.8938185,-0.703252,0.07281,1.0965735,-0.685052,0.073654
50,1.014279,0.7250880000000001,0.069544,0.837986,0.496568,0.025189,0.691066,0.626808,-0.074511,1.1714959999999999,0.503278,0.014755,1.309306,0.665098,-0.100361,0.665876,0.833558,-0.124831,1.332456,0.8837280000000001,-0.165331,0.927272,0.000883,0.0013509999999999,1.072728,-0.0008829999999999,-0.0013509999999999,0.904366,-0.370452,0.047728,1.092163,-0.3627519999999999,0.0311579999999999,0.8937270000000002,-0.706332,0.073947,1.096486,-0.688072,0.074781
51,1.0141874999999998,0.723074,0.0680984999999999,0.8376615000000001,0.498504,0.0260654999999999,0.6933115000000001,0.6355740000000001,-0.0649035,1.1711814999999999,0.5044240000000001,0.0148424999999999,1.3075315,0.672864,-0.0926535,0.6662715,0.846524,-0.1108235,1.3328315,0.889564,-0.1513135,0.9273455,0.00101,0.0011474999999999,1.0726545,-0.0010099999999999,-0.0011475,0.9043165,-0.371296,0.0483004999999999,1.0921065,-0.364736,0.0319145,0.8936805,-0.709156,0.0750575,1.0964615,-0.690886,0.0758295
52,1.0140925,0.7212435,0.066612,0.8374845,0.5004635,0.026949,0.6956145,0.6415435,-0.057326,1.1708845,0.5054835,0.014847,1.3057645,0.6798235,-0.085656,0.6670445,0.8539935,-0.097386,1.3331645,0.8942734999999999,-0.138406,0.9273895,0.0011774999999999,0.000935,1.0726105,-0.0011774999999999,-0.0009349999999999,0.9042835,-0.3721065,0.048883,1.0920585,-0.3666865,0.032656,0.8936615,-0.7118265,0.076107,1.0964744999999998,-0.6935565,0.076819
53,1.014028,0.7195039999999999,0.0649629999999999,0.837502,0.502014,0.027807,0.698032,0.648334,-0.049962,1.170692,0.506544,0.014813,1.303932,0.685914,-0.0792259999999999,0.668362,0.861314,-0.085066,1.333242,0.895344,-0.127516,0.927408,0.001279,0.0007899999999999,1.072592,-0.0012789999999999,-0.0007899999999999,0.904284,-0.3730759999999999,0.049451,1.092017,-0.368446,0.033362,0.893676,-0.714336,0.07715,1.096522,-0.696096,0.077832
54,1.0139889999999998,0.7179645,0.063245,0.837538,0.5030844999999999,0.0285559999999999,0.7004779999999999,0.6553445,-0.043325,1.170538,0.5076345,0.0147199999999999,1.302208,0.6916445,-0.073316,0.6701280000000001,0.8676745,-0.073436,1.333258,0.8962445,-0.117056,0.9274330000000001,0.0013945,0.0006759999999999,1.0725669999999998,-0.0013945,-0.000676,0.904313,-0.3741455,0.0499839999999999,1.0919569999999998,-0.3701755,0.0339899999999999,0.893733,-0.7165955,0.0781449999999999,1.096558,-0.6983555,0.0788079999999999
55,1.0139669999999998,0.7166335,0.0615725,0.837612,0.5042135,0.0291635,0.702922,0.6621435,-0.0372715,1.170332,0.5086435,0.0145435,1.300602,0.6969135,-0.0680004999999999,0.672532,0.8740034999999999,-0.0628905,1.332962,0.8965835,-0.1072505,0.927481,0.0014055,0.0006605,1.072519,-0.0014054999999999,-0.0006604999999999,0.904319,-0.3751665,0.0505285,1.091919,-0.3718165,0.0345505,0.893801,-0.7186365,0.0790065,1.096612,-0.7004265000000001,0.0796765
56,1.0139274999999999,0.7153285,0.0601304999999999,0.8376705,0.5055385,0.0296654999999999,0.7053105,0.6682285,-0.0318785,1.1701405,0.5093485,0.0143104999999999,1.2987605,0.7007384999999999,-0.0632995,0.6749105,0.8801185,-0.0527835,1.3326905,0.8968085,-0.0989495,0.9275325000000001,0.0014334999999999,0.0006064999999999,1.0724675,-0.0014335,-0.0006065,0.9043085,-0.3764015,0.0509955,1.0918805,-0.3732215,0.0349685,0.8939125,-0.7205515,0.0797785,1.0966305,-0.7025115000000001,0.0804655
57,1.013828,0.7141495,0.0587555,0.838382,0.5069195,0.0300234999999999,0.7077519999999999,0.6749795000000001,-0.0269945,1.169922,0.5098295,0.0142464999999999,1.296772,0.7039095,-0.0588275,0.677012,0.8854095000000001,-0.0439825,1.332432,0.8972995,-0.0911874999999999,0.927568,0.0014365,0.0005544999999999,1.072432,-0.0014365,-0.0005544999999999,0.904202,-0.3775405,0.0514354999999999,1.091823,-0.3743805,0.0352964999999999,0.894001,-0.7222704999999999,0.0804884999999999,1.0966420000000001,-0.7043905,0.0812205
58,1.013726,0.7128905,0.057636,0.838992,0.5081505000000001,0.030416,0.7102820000000001,0.6810105,-0.0224399999999999,1.169562,0.5103305,0.014219,1.294552,0.7065305000000001,-0.054503,0.6792320000000001,0.8870405,-0.03682,1.332212,0.8967505,-0.085853,0.927593,0.0014474999999999,0.000487,1.072407,-0.0014475,-0.000487,0.904148,-0.3787395,0.051852,1.091778,-0.3753195,0.035565,0.894112,-0.7239395,0.081236,1.096612,-0.7062695,0.082046
59,1.013627,0.711772,0.0567354999999999,0.83954,0.508912,0.0309254999999999,0.71292,0.687512,-0.0182244999999999,1.16913,0.510742,0.0143044999999999,1.29206,0.708852,-0.0505065,0.6814100000000001,0.888962,-0.0300194999999999,1.3318699999999999,0.896662,-0.0805664999999999,0.927576,0.001453,0.0003895,1.072424,-0.0014529999999999,-0.0003895,0.904104,-0.379818,0.0522554999999999,1.091728,-0.376058,0.0358275,0.894191,-0.725438,0.0819715,1.09662,-0.707988,0.0828025
60,1.013484,0.710587,0.055996,0.840117,0.509527,0.0315839999999999,0.715437,0.693317,-0.014346,1.168547,0.511507,0.0145449999999999,1.2894269999999999,0.710757,-0.046913,0.6834169999999999,0.890857,-0.023855,1.331377,0.896887,-0.075347,0.927553,0.0014609999999999,0.0002869999999999,1.072447,-0.0014609999999999,-0.000287,0.904082,-0.380723,0.0525989999999999,1.091675,-0.376863,0.0361089999999999,0.894262,-0.727033,0.0827509999999999,1.096617,-0.709793,0.0836079999999999
61,1.0133465,0.709442,0.0554835,0.8406675,0.510042,0.0322365,0.7179074999999999,0.698262,-0.0107885,1.1678175,0.5126820000000001,0.0148765,1.2867175,0.712612,-0.0436635,0.6855675,0.892792,-0.0177485,1.3308875,0.897532,-0.0685465,0.9275365,0.001428,0.0001945,1.0724635,-0.0014279999999999,-0.0001945,0.9040815,-0.381438,0.0528625,1.0916295,-0.377488,0.0363675,0.8943115000000001,-0.7285379999999999,0.0834915,1.0966075,-0.711568,0.0843785
62,1.0132165,0.7082959999999999,0.0551655,0.8414715,0.510886,0.0328745,0.7204115,0.702616,-0.0075985,1.1670715,0.513546,0.0152615,1.2839615,0.714236,-0.0406514999999999,0.6875415,0.8944259999999999,-0.0123275,1.3304415,0.903566,-0.0607555,0.9275215,0.0014209999999999,9.549999999999836e-05,1.0724785,-0.001421,-9.549999999999836e-05,0.9041065000000001,-0.3821139999999999,0.0530295,1.0916015,-0.377864,0.0364605,0.8943525000000001,-0.7301040000000001,0.0841804999999999,1.0966115,-0.713184,0.0850635
63,1.0131035,0.707388,0.0549495,0.8421335,0.511718,0.0335195,0.7226935000000001,0.7066479999999999,-0.0048185,1.1663435,0.514248,0.0156375,1.2812435,0.715998,-0.0378415,0.6894335,0.8959779999999999,-0.0076195,1.3299835,0.910108,-0.0535104999999999,0.9275065000000001,0.001415,-2.0499999999999685e-05,1.0724935,-0.0014149999999999,2.0499999999999685e-05,0.9041305,-0.382642,0.0531065,1.0916085,-0.378142,0.0365265,0.8943915,-0.731482,0.0847755,1.0966235,-0.714562,0.0856285
64,1.0129679999999999,0.706609,0.0548215,0.842649,0.512489,0.0341455,0.724789,0.7102489999999999,-0.0024064999999999,1.165689,0.514759,0.0160944999999999,1.278619,0.7175990000000001,-0.0353505,0.690979,0.8971690000000001,-0.0039135,1.3296489999999999,0.918039,-0.0467534999999999,0.927476,0.0014539999999999,-0.0001504999999999,1.072524,-0.0014539999999999,0.0001504999999999,0.904137,-0.382991,0.0531145,1.091609,-0.378301,0.0365655,0.894415,-0.732691,0.0853295,1.096639,-0.7159009999999999,0.0861514999999999
65,1.0128475,0.7059219999999999,0.0547545,0.8431095,0.512972,0.0347585,0.7266595,0.713422,-0.0003235,1.1650295,0.515322,0.0166034999999999,1.2763594999999999,0.7189719999999999,-0.0332405,0.6924095,0.897882,-0.0009205,1.3293595,0.926152,-0.0402965,0.9274485000000001,0.001447,-0.0002465,1.0725514999999999,-0.0014469999999999,0.0002464999999999,0.9042034999999999,-0.383258,0.0531214999999999,1.0916245,-0.378468,0.0366674999999999,0.8944265,-0.733838,0.0858535,1.0966695,-0.717098,0.0866675
66,1.012751,0.70533,0.054793,0.8433470000000001,0.5133599999999999,0.035274,0.728237,0.71504,0.0013989999999999,1.164357,0.51583,0.0170929999999999,1.2743669999999998,0.71992,-0.031461,0.693747,0.8984099999999999,0.0016289999999999,1.329087,0.93382,-0.034412,0.9274080000000001,0.0014529999999999,-0.0003589999999999,1.072592,-0.001453,0.0003589999999999,0.90431,-0.38342,0.05305,1.091636,-0.37864,0.036722,0.8944090000000001,-0.7349100000000001,0.086295,1.096687,-0.71831,0.087127
67,1.0126534999999999,0.7048905,0.0548015,0.8435565,0.5137404999999999,0.0356095,0.7295665,0.7161704999999999,0.0027584999999999,1.1638665,0.5161705,0.0175105,1.2728365,0.7207104999999999,-0.0299755,0.6949164999999999,0.8990505,0.0037775,1.3287365,0.9412305,-0.0291924999999999,0.9273545,0.0014435,-0.0004405,1.0726455,-0.0014435,0.0004405,0.9044055,-0.3835095,0.0529545,1.0916465,-0.3789595,0.0368195,0.8943865,-0.7358295,0.0866095,1.0967065,-0.7193395,0.0874485
68,1.012564,0.7045389999999999,0.054802,0.843757,0.5138889999999999,0.035815,0.730507,0.7164389999999999,0.003721,1.163377,0.5166189999999999,0.017817,1.271747,0.721309,-0.028743,0.696027,0.899289,0.0055839999999999,1.328497,0.948529,-0.024411,0.927313,0.0013919999999999,-0.000514,1.072687,-0.001392,0.000514,0.904448,-0.3836009999999999,0.052826,1.091667,-0.379121,0.036795,0.89436,-0.7365010000000001,0.086815,1.096727,-0.7202310000000001,0.087686
69,1.012535,0.7044475,0.054751,0.8438829999999999,0.5139575000000001,0.036162,0.731213,0.7164875,0.0043839999999999,1.163133,0.5166875000000001,0.017964,1.270963,0.7218075,-0.027822,0.697073,0.8993475000000001,0.007098,1.328403,0.9555575,-0.020125,0.92728,0.0013385,-0.000556,1.07272,-0.0013384999999999,0.000556,0.9044850000000001,-0.3837024999999999,0.052645,1.091714,-0.3791325,0.036693,0.894364,-0.7369625,0.086883,1.096763,-0.7208125,0.087793
70,1.012525,0.704448,0.0547005,0.844014,0.513968,0.0364535,0.7316640000000001,0.716418,0.0047384999999999,1.163084,0.5163179999999999,0.0181355,1.270484,0.722058,-0.0270675,0.697754,0.8992779999999999,0.0078544999999999,1.328254,0.959878,-0.0184035,0.927241,0.0013129999999999,-0.0005885,1.072759,-0.001313,0.0005884999999999,0.904522,-0.383762,0.0524795,1.0917729999999999,-0.379162,0.0365954999999999,0.894379,-0.7374820000000001,0.0869335,1.096814,-0.7212820000000001,0.0878714999999999
71,1.0125184999999999,0.7046184999999999,0.0546139999999999,0.8441295,0.5136985,0.036606,0.7319795,0.7164484999999999,0.0048799999999999,1.1630194999999999,0.5161985,0.018219,1.2702695,0.7222885,-0.0265429999999999,0.6983095,0.8993285,0.0081839999999999,1.3280094999999998,0.9608285,-0.018282,0.9272155,0.0012925,-0.000591,1.0727845,-0.0012925,0.000591,0.9045425,-0.3838014999999999,0.052315,1.0918195,-0.3793515,0.03653,0.8943715,-0.7377815000000001,0.0868879999999999,1.0968595,-0.7216615000000001,0.08784
72,1.012588,0.704671,0.0546119999999999,0.844159,0.513541,0.0367229999999999,0.7322390000000001,0.7163710000000001,0.0048959999999999,1.1630889999999998,0.5159910000000001,0.0182969999999999,1.270249,0.7223010000000001,-0.026149,0.698709,0.8992610000000001,0.008173,1.327769,0.961621,-0.018275,0.9271840000000001,0.001286,-0.00059,1.072816,-0.0012859999999999,0.0005899999999999,0.904608,-0.383849,0.052166,1.091914,-0.379759,0.0364319999999999,0.8944400000000001,-0.738189,0.086825,1.096969,-0.722119,0.087796
73,1.0126609999999998,0.7047345,0.0546095,0.844132,0.5134545,0.0368455,0.732422,0.7162745,0.0048904999999999,1.1631619999999998,0.5158245,0.0184445,1.270332,0.7222545,-0.0258195,0.699012,0.8991845,0.0081635,1.327842,0.9613545,-0.0182774999999999,0.927167,0.0012674999999999,-0.0005894999999999,1.072833,-0.0012675,0.0005894999999999,0.904675,-0.3838955,0.0520375,1.092006,-0.3801255,0.0363275,0.89451,-0.7385555,0.0867265,1.097072,-0.7225855,0.0877395
74,1.012773,0.7048264999999999,0.0545724999999999,0.8442140000000001,0.5134565,0.0369505,0.732594,0.7162465,0.0048515,1.163374,0.5156364999999999,0.0186345,1.270454,0.7222965,-0.0255455,0.699344,0.8991965,0.0081195,1.327614,0.9611165,-0.0183065,0.927164,0.0013174999999999,-0.0006224999999999,1.072836,-0.0013174999999999,0.0006224999999999,0.904755,-0.3840234999999999,0.0518615,1.092134,-0.3804635,0.0361024999999999,0.894628,-0.7389635,0.0865944999999999,1.097204,-0.7229235,0.0875165
75,1.0130705,0.7046525,0.0541085,0.8444985,0.5133625,0.0366725,0.7328485,0.7160525,0.0042524999999999,1.1636685,0.5156725,0.0188334999999999,1.2706884999999999,0.7222125,-0.0258025,0.6998385,0.8990725,0.0073564999999999,1.3273785,0.9605925,-0.0188915,0.9271785,0.0013144999999999,-0.0007265,1.0728215,-0.0013144999999999,0.0007264999999999,0.9046805,-0.3845575,0.0508034999999999,1.0923435,-0.3811475,0.0344405,0.8948655000000001,-0.7396775,0.0857555,1.0974185,-0.7241975,0.0860995
76,1.0133755,0.704447,0.0535465,0.8448415000000001,0.5133270000000001,0.0361864999999999,0.7331015000000001,0.715967,0.0034015,1.1639715,0.515807,0.0189365,1.2709515,0.7221770000000001,-0.0262594999999999,0.7003615000000001,0.899107,0.0061545,1.3271315000000001,0.960117,-0.0201494999999999,0.9271925,0.0013729999999999,-0.0007775,1.0728075,-0.0013729999999999,0.0007775,0.9044735,-0.385033,0.0492605,1.0925545,-0.381763,0.0322325,0.8951115000000001,-0.740653,0.0845975,1.0976215,-0.725503,0.0843725
77,1.01369,0.7042895,0.0528035,0.8452040000000001,0.5132895,0.0354635,0.7333540000000001,0.7159295,0.0022485,1.164174,0.5160994999999999,0.0189065,1.271244,0.7223495,-0.0269605,0.700904,0.8991994999999999,0.0043665,1.327024,0.9597195,-0.0216544999999999,0.927209,0.0014445,-0.0008664999999999,1.072791,-0.0014445,0.0008664999999999,0.9041800000000001,-0.3853305,0.0471555,1.092788,-0.3822805,0.0294365,0.8954,-0.7415605000000001,0.0831075,1.097834,-0.7268305,0.0823415
78,1.013989,0.7042095,0.0516705,0.845663,0.5132895,0.0343095,0.733663,0.7159695,0.0006325,1.164403,0.5162795,0.0185175,1.271563,0.7226895,-0.0281224999999999,0.701503,0.8993795,0.0019725,1.3269630000000001,0.9596395,-0.0236185,0.927238,0.0015245,-0.0009614999999999,1.072762,-0.0015244999999999,0.0009615,0.903808,-0.3854105,0.0442565,1.0930819999999999,-0.3829405,0.0257885,0.89576,-0.7423005,0.0811075,1.098093,-0.7281505,0.0797225
79,1.0143335,0.7042095,0.050291,0.8461935,0.5132895,0.0327449999999999,0.7340135,0.7159695,-0.0014339999999999,1.1646535,0.5162995,0.01781,1.2719035,0.7228195000000001,-0.0297209999999999,0.7021735,0.8993795,-0.0009769999999999,1.3269535000000001,0.9595395,-0.0259439999999999,0.9272365,0.0015245,-0.0010599999999999,1.0727635,-0.0015244999999999,0.0010599999999999,0.9033355000000001,-0.3855905,0.040663,1.0934115,-0.3837804999999999,0.021276,0.8961735000000001,-0.7430005,0.078653,1.0982935,-0.7301005,0.076529
80,1.01472,0.7042095,0.0485779999999999,0.846853,0.5132895,0.0307459999999999,0.734383,0.7159695,-0.003977,1.164953,0.5162995,0.0167269999999999,1.272283,0.7228095,-0.03176,0.702893,0.8993795,-0.00449,1.3269630000000001,0.9594395,-0.028561,0.927227,0.0015245,-0.001142,1.072773,-0.0015244999999999,0.0011419999999999,0.9027480000000001,-0.3860705,0.0361539999999999,1.093802,-0.3848305,0.0159809999999999,0.8966140000000001,-0.7440105,0.07574,1.098473,-0.7331305,0.072819
81,1.0150795,0.7039495,0.0467185,0.8474415000000001,0.5132895,0.0284295,0.7347414999999999,0.7159695,-0.0069844999999999,1.1652315,0.5162895,0.0154225,1.2726415,0.7228095,-0.0342144999999999,0.7035715,0.8993795,-0.0086294999999999,1.3269215,0.9592395,-0.0315074999999999,0.9271905,0.0015245,-0.0012384999999999,1.0728095,-0.0015244999999999,0.0012385,0.9020445,-0.3868405,0.0310235,1.0942215,-0.3861905,0.0097565,0.8970505,-0.7450105,0.0723425,1.0986315,-0.7367205,0.0685175
82,1.0154825,0.7034450000000001,0.044584,0.8480605,0.5132950000000001,0.025702,0.7352405,0.715835,-0.0104599999999999,1.1654404999999999,0.5163850000000001,0.0138269999999999,1.2729605,0.723025,-0.03709,0.7043805000000001,0.899375,-0.013483,1.3269104999999999,0.959255,-0.034698,0.9271355,0.0016049999999999,-0.001396,1.0728645,-0.0016049999999999,0.001396,0.9011915,-0.387515,0.024968,1.0947215,-0.387425,0.002736,0.8975545,-0.745775,0.068411,1.0988405,-0.740095,0.06364
83,1.015836,0.7028260000000001,0.042014,0.8487480000000001,0.513256,0.02254,0.7357480000000001,0.715596,-0.0146259999999999,1.165488,0.5167160000000001,0.011768,1.273188,0.7234160000000001,-0.040535,0.7051780000000001,0.899286,-0.0188449999999999,1.326628,0.959626,-0.0385029999999999,0.927014,0.0016369999999999,-0.0014959999999999,1.072986,-0.0016369999999999,0.001496,0.90017,-0.387884,0.01806,1.095254,-0.388374,-0.0051069999999999,0.8980430000000001,-0.7462639999999999,0.063785,1.099018,-0.743034,0.058253
84,1.016038,0.7021685,0.0394935,0.8494630000000001,0.5129585,0.0192265,0.736363,0.7143885,-0.0188185,1.165373,0.5170085,0.0093975,1.273183,0.7238985,-0.0440555,0.705973,0.8987784999999999,-0.0241025,1.326363,0.9605185,-0.0424105,0.9268460000000001,0.0016795,-0.0015314999999999,1.073154,-0.0016795,0.0015314999999999,0.899184,-0.3878115,0.0112705,1.095771,-0.3887115,-0.0122835,0.898453,-0.7461515000000001,0.0591445,1.099123,-0.7448715,0.0534175
85,1.0162145,0.7015545,0.036779,0.8501755,0.5125445,0.015758,0.7370555,0.7127845,-0.0233419999999999,1.1653455,0.5175145,0.006815,1.2730455,0.7243645,-0.047928,0.7067654999999999,0.8984045,-0.0297229999999999,1.3259254999999999,0.9618445,-0.046651,0.9266715000000001,0.0016795,-0.001589,1.0733285,-0.0016795,0.001589,0.8980685,-0.3872655,0.004159,1.0963485,-0.3886755,-0.0196849999999999,0.8989415000000001,-0.7453655,0.054107,1.0992255,-0.7462655,0.048317
86,1.0163775,0.700604,0.0337785,0.8509055,0.5120439999999999,0.0120455,0.7377555,0.710914,-0.0282924999999999,1.1654555,0.517964,0.0037564999999999,1.2727355,0.724774,-0.0521045,0.7075454999999999,0.898274,-0.0355455,1.3252355,0.963604,-0.0510155,0.9264924999999999,0.0016359999999999,-0.0015725,1.0735075,-0.0016359999999999,0.0015725,0.8968455,-0.386206,-0.0030915,1.0969765,-0.388136,-0.0271845,0.8994535,-0.744026,0.0488085,1.0993355,-0.747316,0.0429875
87,1.0164265,0.699395,0.0307635,0.8515915000000001,0.510635,0.0082265,0.7384415,0.7088049999999999,-0.0334015,1.1651615,0.5182850000000001,0.0006185,1.2723715,0.7253449999999999,-0.0564065,0.7082714999999999,0.898515,-0.0415245,1.3243315,0.965625,-0.0554805,0.9262765,0.001694,-0.0015974999999999,1.0737235,-0.001694,0.0015975,0.8954615,-0.384295,-0.0104415,1.0976465,-0.386635,-0.0346825,0.8999075,-0.741835,0.0434425,1.0994115,-0.7474750000000001,0.0375825
88,1.016458,0.6979274999999999,0.027576,0.852307,0.5088174999999999,0.004238,0.7391369999999999,0.7064575,-0.0387249999999999,1.164847,0.5190275,-0.0027869999999999,1.271887,0.7259574999999999,-0.060887,0.709057,0.8988674999999999,-0.04776,1.323217,0.9679175,-0.060419,0.926057,0.0016684999999999,-0.001574,1.073943,-0.0016685,0.001574,0.893917,-0.3816225,-0.0181669999999999,1.098377,-0.3846425,-0.042248,0.900244,-0.7392025000000001,0.03784,1.099567,-0.7463225,0.032075
89,1.016466,0.6960845,0.0245135,0.852881,0.5072245,0.0003235,0.739841,0.7038945,-0.0441504999999999,1.164601,0.5201045,-0.0059385,1.271361,0.7262145,-0.0653435,0.709851,0.8995145,-0.0540824999999999,1.3219210000000001,0.9697445,-0.0652825,0.9258240000000001,0.0016434999999999,-0.0016325,1.0741759999999998,-0.0016435,0.0016325,0.892211,-0.3782554999999999,-0.0259124999999999,1.0992609999999998,-0.3823255,-0.0497885,0.900454,-0.7359355000000001,0.0321965,1.099741,-0.7436455000000001,0.0266075
90,1.0166765,0.694634,0.0211155,0.8536375,0.505134,-0.0038555,0.7407175000000001,0.701544,-0.0497775,1.1643775,0.518914,-0.0084545,1.2706675,0.725654,-0.0700355,0.7108075,0.901414,-0.0605195,1.3204175,0.970814,-0.0703565,0.9255465,0.0016399999999999,-0.0017515,1.0744535,-0.00164,0.0017515,0.8903675,-0.373756,-0.0341295,1.1003675,-0.378836,-0.0574465,0.9008045000000001,-0.731406,0.0263825,1.1000675,-0.7391260000000001,0.0210045
91,1.01692,0.693484,0.0176545,0.854356,0.503224,-0.0079015,0.7415860000000001,0.699714,-0.0554865,1.164226,0.518484,-0.0109755,1.269706,0.724144,-0.0745655,0.7117960000000001,0.904354,-0.0669005,1.317946,0.967454,-0.0760625,0.925275,0.0016269999999999,-0.0018925,1.074725,-0.001627,0.0018925,0.888336,-0.368926,-0.0425155,1.101606,-0.374936,-0.0651605,0.9012220000000001,-0.725976,0.0206315,1.100526,-0.733636,0.0153825
92,1.017259,0.692074,0.0147295,0.854941,0.501324,-0.0117415,0.742621,0.697904,-0.0609155,1.164081,0.517594,-0.0133164999999999,1.268901,0.723254,-0.0789935,0.713121,0.905764,-0.0736735,1.315911,0.965304,-0.0813765,0.9249769999999999,0.001725,-0.0021205,1.075023,-0.0017249999999999,0.0021205,0.886061,-0.364316,-0.0511435,1.102971,-0.370826,-0.0728925,0.9017310000000001,-0.719836,0.0151655,1.101061,-0.727476,0.0097565
93,1.0176055,0.6907265,0.0118944999999999,0.8554895,0.4991464999999999,-0.0153435,0.7435095,0.6969065,-0.0659625,1.1639895,0.5171264999999999,-0.0155024999999999,1.2682395,0.7227264999999999,-0.0832354999999999,0.7142795,0.9087465,-0.0800365,1.3138695,0.9636265,-0.0864505,0.9246995000000001,0.0018034999999999,-0.0023575,1.0753005,-0.0018034999999999,0.0023575,0.8837595,-0.3595935,-0.0595345,1.1043095,-0.3666435,-0.0806095,0.9021425000000001,-0.7136335,0.0093405,1.1015495,-0.7209735,0.0041235
94,1.017943,0.6885865,0.00918,0.856052,0.4975165,-0.01873,0.7442220000000002,0.6961265000000001,-0.070774,1.163892,0.5175565000000001,-0.0175029999999999,1.2676720000000001,0.7222965,-0.087171,0.715462,0.9122765,-0.085997,1.311962,0.9625465,-0.091196,0.9244390000000001,0.0018645,-0.0025129999999999,1.075561,-0.0018644999999999,0.0025129999999999,0.881552,-0.3544435,-0.06768,1.105672,-0.3624835,-0.088337,0.9025,-0.7068835,0.003271,1.102172,-0.7139435,-0.0016699999999999
95,1.0184955,0.686871,0.0066849999999999,0.8568485,0.495581,-0.021615,0.7451085,0.695151,-0.075329,1.1641185,0.5160710000000001,-0.019202,1.2674585,0.722211,-0.0909379999999999,0.7169385000000001,0.916291,-0.091668,1.3105385,0.962561,-0.095819,0.9240575,0.002119,-0.002659,1.0759425,-0.002119,0.0026589999999999,0.8796485,-0.348699,-0.0757029999999999,1.1072785,-0.357849,-0.096111,0.9031135,-0.698919,-0.0026,1.1029985,-0.705299,-0.007354
96,1.019265,0.685865,0.0042169999999999,0.857781,0.494485,-0.024356,0.7459610000000001,0.695275,-0.079757,1.164441,0.5150349999999999,-0.020789,1.2673510000000001,0.722285,-0.094558,0.718621,0.920485,-0.097287,1.3090410000000001,0.958245,-0.1010139999999999,0.923701,0.00226,-0.002769,1.0762990000000001,-0.00226,0.0027689999999999,0.8778210000000001,-0.3430249999999999,-0.083878,1.108941,-0.352435,-0.103984,0.9038220000000001,-0.690125,-0.008543,1.103831,-0.695575,-0.01303
97,1.020188,0.684728,0.001809,0.858747,0.493838,-0.026861,0.7468870000000001,0.694978,-0.0840549999999999,1.164827,0.513438,-0.0220889999999999,1.267377,0.721628,-0.09806,0.7205970000000002,0.917608,-0.103753,1.307787,0.954998,-0.106165,0.923337,0.0024859999999999,-0.002942,1.076663,-0.002486,0.002942,0.876307,-0.337472,-0.09154,1.110587,-0.3467719999999999,-0.111747,0.904635,-0.680742,-0.014195,1.104667,-0.685172,-0.01847
98,1.021218,0.683656,-0.000569,0.859823,0.493356,-0.029196,0.747903,0.694126,-0.088299,1.165243,0.511876,-0.023581,1.267523,0.721636,-0.101382,0.722333,0.915066,-0.109932,1.306603,0.950336,-0.1119349999999999,0.923007,0.0026809999999999,-0.002978,1.076993,-0.0026809999999999,0.002978,0.875113,-0.331794,-0.099173,1.112133,-0.340964,-0.119505,0.905594,-0.6707339999999999,-0.019624,1.105623,-0.674104,-0.023866
99,1.0220575,0.6825129999999999,-0.0028315,0.8608275000000001,0.492423,-0.0313695,0.7487975,0.693803,-0.0923585,1.1657475,0.510183,-0.0259285,1.2676875,0.7214229999999999,-0.1046595,0.7242175,0.913323,-0.1159365,1.3056975,0.947163,-0.1175855,0.9226725,0.002845,-0.0029965,1.0773275,-0.002845,0.0029964999999999,0.8741575,-0.325557,-0.1065105,1.1133875,-0.334527,-0.1270335,0.9064695,-0.660037,-0.0248555,1.1064175,-0.662537,-0.0292585
100,1.02312,0.681069,-0.0052085,0.861937,0.4918389999999999,-0.0335895,0.749817,0.693019,-0.0963705,1.166307,0.508339,-0.0284435,1.268567,0.722709,-0.1080405,0.726247,0.912389,-0.1217775,1.306017,0.948669,-0.1226215,0.922447,0.003088,-0.0029654999999999,1.077553,-0.003088,0.0029655,0.873667,-0.319331,-0.1141375,1.1147070000000001,-0.327661,-0.1345335,0.907444,-0.6488809999999999,-0.0301865,1.107277,-0.6508109999999999,-0.0347235
101,1.0240805,0.678589,-0.0078265,0.8627665,0.492089,-0.0357245,0.7508565,0.6909890000000001,-0.1002155,1.1670365,0.506849,-0.0307935,1.2691565,0.721259,-0.1111575,0.7279165000000001,0.913569,-0.1271245,1.3061165,0.946839,-0.1275665,0.9222595,0.003345,-0.0028865,1.0777405,-0.003345,0.0028865,0.8735865,-0.313271,-0.1211525,1.1158665,-0.320901,-0.1413725,0.9083305,-0.6379509999999999,-0.0352785,1.1080365,-0.639281,-0.0397635
102,1.0249315,0.6768345,-0.0106559999999999,0.8636215,0.4899844999999999,-0.038088,0.7516415000000001,0.6896745,-0.10436,1.1676115,0.5044744999999999,-0.033373,1.2696315,0.7207645,-0.11467,0.7295915,0.9093745,-0.133219,1.3060414999999999,0.9451145,-0.133048,0.9219714999999999,0.0034904999999999,-0.0027879999999999,1.0780285,-0.0034905,0.002788,0.8734315,-0.3058855,-0.1285589999999999,1.1168815,-0.3124854999999999,-0.148149,0.9091135,-0.6247355,-0.039899,1.1086814999999999,-0.6257055,-0.0446649999999999
103,1.0258725,0.6748795,-0.0137215,0.8644915000000001,0.4879495,-0.0405915,0.7526415000000001,0.6881395,-0.1087185,1.1682815,0.5015495,-0.0360725,1.2701115,0.7202594999999999,-0.1185705,0.7312514999999999,0.9055195,-0.1393855,1.3059215,0.9391595,-0.1393575,0.9217995,0.0036605,-0.0029235,1.0782005,-0.0036604999999999,0.0029234999999999,0.8733115000000001,-0.2990405,-0.1359195,1.1178515,-0.3039305,-0.1546685,0.9101035000000001,-0.6114705,-0.0439395,1.1093715,-0.6118805,-0.0492995
104,1.026721,0.67245,-0.0164825,0.8651980000000001,0.4866,-0.0431695,0.7534580000000001,0.68696,-0.1127375,1.168638,0.49983,-0.0385505,1.270438,0.71491,-0.1217315,0.732538,0.90347,-0.1454075,1.305588,0.93283,-0.1454375,0.921723,0.00363,-0.0030644999999999,1.078277,-0.0036299999999999,0.0030644999999999,0.8730780000000001,-0.28886,-0.1430605,1.118638,-0.29232,-0.1606604999999999,0.911035,-0.59841,-0.0477535,1.109938,-0.5983299999999999,-0.0536905
105,1.027665,0.669865,-0.0192595,0.865843,0.484915,-0.0457655,0.754053,0.685885,-0.1168235,1.168853,0.497145,-0.0410965,1.270403,0.711835,-0.1251625,0.733983,0.900485,-0.1512745,1.305713,0.932795,-0.1509545,0.9216880000000001,0.003735,-0.0032505,1.078312,-0.0037349999999999,0.0032504999999999,0.872893,-0.276445,-0.1498944999999999,1.119473,-0.2793049999999999,-0.1661845,0.911927,-0.584185,-0.0513355,1.110334,-0.584095,-0.0578455
106,1.028503,0.66936,-0.027088,0.866297,0.48447,-0.053499,0.754407,0.68536,-0.1259259999999999,1.168827,0.4965299999999999,-0.049209,1.270117,0.71032,-0.133358,0.735287,0.90157,-0.1614499999999999,1.305407,0.93235,-0.16143,0.921708,0.00353,-0.003442,1.078292,-0.00353,0.003442,0.872357,-0.26296,-0.16192,1.120077,-0.26527,-0.1763799999999999,0.9125910000000002,-0.56916,-0.059983,1.110289,-0.56942,-0.066984
107,1.02958,0.67146,-0.036266,0.867152,0.48302,-0.062606,0.755092,0.6878299999999999,-0.136353,1.168292,0.49361,-0.0588599999999999,1.269842,0.7089799999999999,-0.143248,0.736612,0.90545,-0.1732739999999999,1.3059219999999998,0.93587,-0.172864,0.9217029999999999,0.0034799999999999,-0.0033249999999999,1.078297,-0.00348,0.0033249999999999,0.8705620000000001,-0.24437,-0.179424,1.1218819999999998,-0.24605,-0.191714,0.913409,-0.54942,-0.070093,1.110428,-0.5502400000000001,-0.077449
108,1.0305615,0.6723049999999999,-0.044869,0.8680115000000002,0.482805,-0.071312,0.7559915,0.689475,-0.146598,1.1676615,0.493185,-0.067962,1.2690415,0.708245,-0.152473,0.7379215,0.907355,-0.184635,1.3064315,0.938295,-0.183745,0.9217204999999999,0.003445,-0.003144,1.0782795,-0.003445,0.0031439999999999,0.8687415,-0.227355,-0.196265,1.1237015,-0.228385,-0.206345,0.9142224999999999,-0.531385,-0.079786,1.1106495,-0.532765,-0.087192
109,1.03141,0.67294,-0.0535375,0.869009,0.48166,-0.0801625,0.7568790000000001,0.69072,-0.1568895,1.166769,0.49042,-0.0770635,1.268589,0.7059599999999999,-0.1620214999999999,0.7393890000000001,0.90494,-0.1962845,1.306819,0.93907,-0.1944745,0.921722,0.0033699999999999,-0.0028485,1.078278,-0.00337,0.0028485,0.866859,-0.20912,-0.2125345,1.125449,-0.2105,-0.2210745,0.9147660000000001,-0.51268,-0.0893935,1.110884,-0.5145599999999999,-0.0966465
110,1.0320785,0.67415,-0.0620979999999999,0.8697545,0.47988,-0.088993,0.7578545000000001,0.69339,-0.167175,1.1658445,0.48813,-0.086005,1.2677144999999999,0.7059,-0.1712179999999999,0.7406645000000001,0.90285,-0.20749,1.3074945,0.9394,-0.20586,0.9217655,0.00323,-0.0025589999999999,1.0782345,-0.0032299999999999,0.002559,0.8647445,-0.1905799999999999,-0.22869,1.1270945,-0.19261,-0.2359,0.9150935,-0.49338,-0.0990019999999999,1.1109245,-0.49581,-0.1059939999999999
111,1.032483,0.674585,-0.0703729999999999,0.8704069999999999,0.4810649999999999,-0.097547,0.758767,0.694775,-0.177137,1.164977,0.486395,-0.094833,1.266607,0.704565,-0.180078,0.741797,0.904795,-0.217975,1.308017,0.940305,-0.2167049999999999,0.921876,0.003335,-0.0022749999999999,1.078124,-0.003335,0.0022749999999999,0.8626170000000001,-0.173615,-0.244305,1.128667,-0.176095,-0.250395,0.915289,-0.475175,-0.108342,1.110763,-0.478195,-0.115059
112,1.0326765,0.6755599999999999,-0.078436,0.8705715,0.4814699999999999,-0.105781,0.7593715,0.69644,-0.186549,1.1637415,0.48499,-0.103298,1.2651515,0.70363,-0.18839,0.7426915000000001,0.9064,-0.22829,1.3082615,0.94367,-0.22681,0.9219515000000001,0.00329,-0.0019099999999999,1.0780485,-0.00329,0.0019099999999999,0.8604915,-0.15707,-0.25973,1.1299115,-0.15988,-0.26453,0.9151775,-0.45687,-0.117483,1.1102394999999998,-0.46064,-0.123793
113,1.0327004999999998,0.67706,-0.086431,0.8704765000000001,0.48016,-0.114025,0.7601265,0.69721,-0.1957229999999999,1.1625965,0.48455,-0.11159,1.2648465,0.70767,-0.196466,0.7434365000000001,0.90672,-0.23851,1.3085665,0.94864,-0.23682,0.9218975000000001,0.00317,-0.0015599999999999,1.0781025,-0.00317,0.00156,0.8584065000000001,-0.13879,-0.27559,1.1310265,-0.14231,-0.27912,0.9149545,-0.43739,-0.126703,1.1095575,-0.44193,-0.132434
114,1.032603,0.6781550000000001,-0.093938,0.870402,0.479805,-0.1216799999999999,0.7607820000000001,0.698215,-0.2045079999999999,1.161182,0.483105,-0.1197159999999999,1.264502,0.708235,-0.204046,0.744132,0.906405,-0.24816,1.308902,0.945195,-0.24623,0.921896,0.003025,-0.0011099999999999,1.078104,-0.003025,0.0011099999999999,0.856492,-0.1207449999999999,-0.2909899999999999,1.131982,-0.1248449999999999,-0.2936499999999999,0.91472,-0.4186549999999999,-0.13545,1.108891,-0.4237049999999999,-0.140627
115,1.0327295,0.67715,-0.096074,0.8707855000000001,0.47864,-0.123946,0.7616855000000001,0.6984600000000001,-0.207397,1.1600955,0.47908,-0.122371,1.2643955,0.7071400000000001,-0.206297,0.7448455,0.91084,-0.25202,1.3097455,0.94235,-0.25005,0.9218554999999999,0.00318,-0.00065,1.0781445,-0.0031799999999999,0.0006499999999999,0.8552155000000001,-0.1021699999999999,-0.30092,1.1332055,-0.1074099999999999,-0.30301,0.9148495000000001,-0.4003299999999999,-0.138862,1.1085544999999999,-0.4057499999999999,-0.143429
116,1.032829,0.674105,-0.0966659999999999,0.871272,0.478355,-0.1245169999999999,0.762412,0.697225,-0.2088509999999999,1.160072,0.477605,-0.1235279999999999,1.264662,0.7035549999999999,-0.20731,0.745622,0.912875,-0.2539849999999999,1.310672,0.938695,-0.2517149999999999,0.9218459999999999,0.003195,-0.0005649999999999,1.078154,-0.003195,0.000565,0.8551219999999999,-0.087455,-0.3046649999999999,1.133662,-0.093175,-0.3066149999999999,0.915079,-0.385915,-0.1406549999999999,1.108246,-0.391595,-0.1445149999999999
117,1.0328455,0.67123,-0.097301,0.8717064999999999,0.4778799999999999,-0.12505,0.7629665,0.6948799999999999,-0.210375,1.1599965,0.47417,-0.124632,1.2648964999999999,0.7,-0.208399,0.7463365,0.91429,-0.255845,1.3117765000000001,0.93473,-0.253945,0.9218905,0.0033799999999999,-0.0005249999999999,1.0781095,-0.0033799999999999,0.0005249999999999,0.8549665,-0.07273,-0.308235,1.1342365,-0.07845,-0.309965,0.9152805,-0.37148,-0.142281,1.1078505,-0.37728,-0.145585
118,1.032883,0.669195,-0.0970679999999999,0.8723500000000001,0.4755649999999999,-0.1246849999999999,0.7636200000000001,0.693095,-0.21061,1.15999,0.4741249999999999,-0.124847,1.26502,0.699335,-0.208178,0.7468600000000001,0.919165,-0.25649,1.31296,0.933985,-0.25534,0.921897,0.0029649999999999,-0.00031,1.078103,-0.0029649999999999,0.00031,0.8549100000000001,-0.056755,-0.31012,1.13496,-0.062725,-0.31213,0.9156460000000001,-0.356045,-0.142967,1.107529,-0.361905,-0.145823
119,1.032385,0.66754,-0.096354,0.872482,0.474658,-0.124009,0.763532,0.69228,-0.2106029999999999,1.159492,0.47442,-0.124827,1.265862,0.69886,-0.208058,0.746742,0.92436,-0.25692,1.313242,0.9362,-0.25617,0.92189,0.0025,-0.00031,1.07811,-0.0024999999999999,0.00031,0.854762,-0.0413699999999999,-0.31127,1.135562,-0.0487899999999999,-0.31389,0.915652,-0.3389299999999999,-0.143308,1.106745,-0.3448099999999999,-0.145822
120,1.0317625,0.66577,-0.095704,0.8724385,0.473939,-0.1232979999999999,0.7635485000000001,0.69194,-0.210638,1.1589185,0.475568,-0.124821,1.2660385,0.69861,-0.207949,0.7463285,0.92308,-0.25736,1.3134085,0.93173,-0.25681,0.9218885,0.0019899999999999,-0.0002999999999999,1.0781115,-0.00199,0.0002999999999999,0.8544484999999999,-0.02634,-0.31204,1.1359485,-0.03516,-0.3154,0.9155185,-0.32245,-0.143394,1.1058605,-0.32825,-0.145785
121,1.0304665,0.666285,-0.094934,0.8718475,0.473477,-0.122357,0.7625675000000001,0.692565,-0.210634,1.1584575,0.4734909999999999,-0.123833,1.2661175,0.696545,-0.208197,0.7452975,0.924565,-0.257705,1.3129675,0.931665,-0.257385,0.9218705000000001,0.0023849999999999,-0.000245,1.0781295,-0.002385,0.0002449999999999,0.8534475,-0.008215,-0.312265,1.1360374999999998,-0.018165,-0.316555,0.9146965,-0.302995,-0.143344,1.1043824999999998,-0.308805,-0.145701
122,1.029282,0.66674,-0.0939339999999999,0.871232,0.475312,-0.1211189999999999,0.761532,0.69477,-0.2100759999999999,1.158052,0.472382,-0.1227089999999999,1.266082,0.6947300000000001,-0.207591,0.744302,0.92584,-0.257795,1.312672,0.92983,-0.257565,0.9218280000000001,0.00251,1.5000000000015e-05,1.078172,-0.00251,-1.4999999999987246e-05,0.852572,0.0089299999999999,-0.311975,1.1362519999999998,-0.0018599999999999,-0.316585,0.913761,-0.2847399999999999,-0.143054,1.103031,-0.2906399999999999,-0.145337
123,1.0281114999999998,0.66678,-0.0925359999999999,0.8706685000000001,0.476742,-0.1195879999999999,0.7604485,0.6958300000000001,-0.2092659999999999,1.1577785,0.472655,-0.1211309999999999,1.2660885,0.6942200000000001,-0.206949,0.7433685,0.92643,-0.25758,1.3126685,0.93465,-0.25761,0.9216925,0.00271,0.00031,1.0783075,-0.0027099999999999,-0.0003099999999999,0.8517585,0.02558,-0.3113399999999999,1.1365584999999998,0.01406,-0.31598,0.9128455,-0.2673999999999999,-0.142418,1.1018395,-0.27342,-0.144646
124,1.0271635,0.666885,-0.0910479999999999,0.8703985000000001,0.477767,-0.1179109999999999,0.7594885,0.697425,-0.2084359999999999,1.1577085,0.473314,-0.119335,1.2659985,0.694135,-0.206138,0.7423985,0.926885,-0.257275,1.3129385,0.937755,-0.2578749999999999,0.9216765000000001,0.002925,0.000585,1.0783235,-0.002925,-0.000585,0.8509885,0.042025,-0.310605,1.1370885,0.0294849999999999,-0.315285,0.9120395,-0.250845,-0.1416029999999999,1.1008695,-0.2570449999999999,-0.143895
125,1.026326,0.66711,-0.089292,0.870513,0.478589,-0.115843,0.758553,0.69823,-0.207609,1.157673,0.473891,-0.117337,1.2651729999999999,0.6965399999999999,-0.205216,0.741503,0.92773,-0.25694,1.313273,0.93897,-0.25828,0.921702,0.0029799999999999,0.0008999999999999,1.078298,-0.0029799999999999,-0.0009,0.8500930000000001,0.05795,-0.30892,1.137643,0.04463,-0.3145,0.9111990000000001,-0.23484,-0.140338,1.0999349999999999,-0.2412399999999999,-0.143034
126,1.0256945,0.668525,-0.0874869999999999,0.8708145,0.47956,-0.1134829999999999,0.7577345,0.7002349999999999,-0.2067129999999999,1.1576644999999999,0.476772,-0.1152869999999999,1.2645345,0.699575,-0.2045139999999999,0.7407245,0.929985,-0.256645,1.3134744999999999,0.937225,-0.258515,0.9217065,0.0027949999999999,0.001265,1.0782935,-0.0027949999999999,-0.0012649999999999,0.8493645000000001,0.0746649999999999,-0.306345,1.1382745,0.0610149999999999,-0.313235,0.9104925000000001,-0.218125,-0.138816,1.0992675,-0.224735,-0.142084
127,1.0250475,0.668795,-0.0855099999999999,0.8705134999999999,0.482907,-0.1109159999999999,0.7567135,0.702245,-0.2057609999999999,1.1576535,0.477635,-0.1130789999999999,1.2639635,0.7004549999999999,-0.2037999999999999,0.7397835000000001,0.924235,-0.25671,1.3134934999999999,0.933915,-0.25877,0.9217325,0.0031649999999999,0.0017,1.0782675,-0.0031649999999999,-0.0016999999999999,0.8485135,0.0886449999999999,-0.30326,1.1386735,0.0750549999999999,-0.3114099999999999,0.9096285,-0.203805,-0.136743,1.0984985,-0.210785,-0.1409689999999999
128,1.0245655,0.6689649999999999,-0.083433,0.8702175,0.4849979999999999,-0.108213,0.7557875000000001,0.7032649999999999,-0.204676,1.1577475,0.4775669999999999,-0.110438,1.2636275000000001,0.7009049999999999,-0.202912,0.7388675,0.917475,-0.256585,1.3133675,0.929765,-0.259135,0.9216934999999999,0.0035649999999999,0.002115,1.0783065,-0.003565,-0.002115,0.8477475,0.1004849999999999,-0.299545,1.1388475,0.0869449999999999,-0.308955,0.9088425,-0.191605,-0.134213,1.0978975,-0.1989050000000001,-0.139599
129,1.024055,0.6689,-0.081472,0.869882,0.486622,-0.105652,0.7548520000000001,0.70416,-0.203575,1.157862,0.476451,-0.107888,1.2634319999999999,0.70074,-0.202214,0.737862,0.91705,-0.25638,1.313142,0.93009,-0.25995,0.921745,0.00395,0.00247,1.078255,-0.00395,-0.00247,0.846902,0.11163,-0.2959,1.138992,0.09789,-0.30635,0.908129,-0.1801499999999999,-0.131609,1.097299,-0.18803,-0.138249
130,1.023899,0.667575,-0.07984,0.8698290000000001,0.487803,-0.103407,0.753869,0.703915,-0.202928,1.157839,0.478637,-0.106157,1.263739,0.698975,-0.2018309999999999,0.7371190000000001,0.914115,-0.256615,1.313289,0.927725,-0.260995,0.921905,0.0032149999999999,0.0026049999999999,1.078095,-0.0032149999999999,-0.0026049999999999,0.846259,0.1200749999999999,-0.292095,1.139259,0.106205,-0.303745,0.907804,-0.171285,-0.129233,1.097088,-0.179715,-0.137093
131,1.0239115,0.6656899999999999,-0.0784129999999999,0.8697465,0.4882599999999999,-0.1014009999999999,0.7531765,0.7029099999999999,-0.2024619999999999,1.1579665000000001,0.4794259999999999,-0.104598,1.2636365,0.69658,-0.201374,0.7364465,0.91041,-0.257005,1.3134565,0.92432,-0.262135,0.9220095,0.0029299999999999,0.002725,1.0779905,-0.00293,-0.0027249999999999,0.8456365,0.1272599999999999,-0.288655,1.1394765,0.1140299999999999,-0.301205,0.9074185,-0.16363,-0.12694,1.0969455,-0.1726700000000001,-0.135706
132,1.023913,0.6643899999999999,-0.0770019999999999,0.86965,0.4887169999999999,-0.0994729999999999,0.75252,0.70188,-0.201934,1.15828,0.4798389999999999,-0.102945,1.26345,0.6940299999999999,-0.2007669999999999,0.7358,0.90608,-0.25734,1.31351,0.9204,-0.26322,0.9221350000000001,0.0025899999999999,0.00286,1.0778649999999999,-0.0025899999999999,-0.0028599999999999,0.84505,0.1337199999999999,-0.28537,1.13982,0.1213699999999999,-0.29849,0.907075,-0.1567,-0.124498,1.0968989999999998,-0.1663300000000001,-0.134294
133,1.023933,0.663303,-0.075667,0.8695390000000001,0.489138,-0.097705,0.751839,0.7010000000000001,-0.2016089999999999,1.158669,0.480489,-0.101471,1.263849,0.69171,-0.2005529999999999,0.735179,0.90137,-0.257695,1.313619,0.91663,-0.2642649999999999,0.9223250000000001,0.0022299999999999,0.003025,1.077675,-0.0022299999999999,-0.003025,0.844639,0.1395799999999999,-0.282335,1.1402489999999998,0.12823,-0.2958349999999999,0.906812,-0.15037,-0.122048,1.096949,-0.16046,-0.132737
134,1.0239005,0.6618310000000001,-0.074571,0.8694165,0.489241,-0.096343,0.7513465,0.700165,-0.201401,1.1591265,0.48066,-0.100276,1.2642764999999998,0.6889550000000001,-0.200489,0.7347365,0.8954550000000001,-0.258155,1.3137765,0.913175,-0.265205,0.9224535000000001,0.001985,0.003145,1.0775465,-0.0019849999999999,-0.0031449999999999,0.8443165,0.144045,-0.279675,1.1406764999999999,0.133835,-0.2933949999999999,0.9068065000000001,-0.1453549999999999,-0.119689,1.0970775,-0.155825,-0.131354
135,1.023621,0.660198,-0.0736419999999999,0.86904,0.488968,-0.0952409999999999,0.7507,0.69928,-0.201282,1.15936,0.480673,-0.09928,1.26458,0.68616,-0.2005239999999999,0.7340800000000001,0.88907,-0.258635,1.31371,0.91343,-0.265935,0.9225639999999999,0.00173,0.003145,1.077436,-0.00173,-0.0031449999999999,0.84379,0.14783,-0.277385,1.1408,0.13855,-0.291185,0.906648,-0.1411799999999999,-0.117544,1.096761,-0.15193,-0.130104
136,1.0233065,0.6593330000000001,-0.072908,0.8687325,0.488873,-0.094341,0.7501424999999999,0.69849,-0.201131,1.1595725,0.48114,-0.098361,1.2650925,0.68382,-0.2006919999999999,0.7334625,0.89022,-0.258715,1.3136425,0.9133,-0.266695,0.9226095,0.00145,0.003115,1.0773905,-0.0014499999999999,-0.0031149999999999,0.8433225,0.15128,-0.275235,1.1409824999999998,0.1429,-0.289055,0.9066295,-0.13746,-0.115771,1.0965574999999999,-0.14844,-0.128825
137,1.022992,0.659088,-0.072586,0.868424,0.488395,-0.093576,0.749634,0.69759,-0.201139,1.159654,0.48171,-0.097812,1.265644,0.681568,-0.200981,0.732844,0.89134,-0.258885,1.313474,0.91335,-0.267645,0.922654,0.0011999999999999,0.0030949999999999,1.077346,-0.0011999999999999,-0.003095,0.842884,0.15398,-0.2733649999999999,1.141094,0.14651,-0.287215,0.9067310000000001,-0.13475,-0.114198,1.096365,-0.14566,-0.127629
138,1.022852,0.659271,-0.072581,0.868264,0.488225,-0.09335,0.749294,0.69665,-0.201345,1.159754,0.48197,-0.097579,1.266314,0.679234,-0.201465,0.732344,0.8924700000000001,-0.25927,1.313354,0.91479,-0.2686199999999999,0.922681,0.0010299999999999,0.00309,1.077319,-0.0010299999999999,-0.0030899999999999,0.842624,0.15592,-0.27195,1.1413739999999999,0.14916,-0.2858199999999999,0.906958,-0.13302,-0.113078,1.0963459999999998,-0.1436699999999999,-0.126545
139,1.022714,0.659271,-0.072577,0.868214,0.488225,-0.093349,0.7489140000000001,0.6964,-0.201658,1.159894,0.48126,-0.0974329999999999,1.2663039999999999,0.679234,-0.201787,0.7319640000000001,0.8924700000000001,-0.25952,1.313334,0.91479,-0.26956,0.922681,0.0010299999999999,0.00309,1.077319,-0.0010299999999999,-0.0030899999999999,0.842484,0.15616,-0.27171,1.141724,0.14995,-0.2849399999999999,0.90696,-0.13295,-0.112833,1.096474,-0.14342,-0.125519
140,1.022441,0.659271,-0.072573,0.868124,0.488225,-0.093346,0.748684,0.6964,-0.201985,1.159894,0.48126,-0.097384,1.2663039999999999,0.679234,-0.201957,0.7314440000000001,0.8924700000000001,-0.25995,1.313304,0.91479,-0.27049,0.922681,0.0010299999999999,0.00309,1.077319,-0.0010299999999999,-0.0030899999999999,0.842314,0.15624,-0.27152,1.1419139999999999,0.15028,-0.28422,0.90696,-0.13295,-0.112833,1.096529,-0.1432599999999999,-0.124865
141,1.0218189999999998,0.659271,-0.072625,0.867854,0.488225,-0.0934079999999999,0.748494,0.6964,-0.20205,1.1597039999999998,0.48126,-0.097449,1.266114,0.679234,-0.2020219999999999,0.730594,0.8924700000000001,-0.260625,1.313084,0.91479,-0.2715349999999999,0.922766,0.0010299999999999,0.0031149999999999,1.077234,-0.0010299999999999,-0.0031149999999999,0.841934,0.15618,-0.271445,1.141734,0.15033,-0.283955,0.90677,-0.1329599999999999,-0.112898,1.096307,-0.14315,-0.124332
142,1.0212145,0.659664,-0.073305,0.8677535000000001,0.488732,-0.094041,0.7485535,0.6959150000000001,-0.202516,1.1597635,0.480775,-0.097829,1.2660235,0.6797740000000001,-0.202711,0.7299534999999999,0.8924350000000001,-0.261595,1.3130335,0.914665,-0.272795,0.9228385,0.0013550000000001,0.0031549999999999,1.0771614999999999,-0.0013549999999999,-0.003155,0.8418435000000001,0.155695,-0.271825,1.1417935,0.149845,-0.284335,0.9068345,-0.1334449999999999,-0.113278,1.0962805,-0.1435849999999999,-0.124324
143,1.0203865,0.6613539999999999,-0.0752739999999999,0.8676265,0.4886039999999999,-0.0956419999999999,0.7481765,0.6959449999999999,-0.204059,1.1596065,0.4789549999999999,-0.0990859999999999,1.2655865,0.6802549999999999,-0.2042569999999999,0.7289665000000001,0.895805,-0.263745,1.3122764999999998,0.915825,-0.275105,0.9228385,0.0016549999999999,0.003175,1.0771614999999999,-0.001655,-0.0031749999999999,0.8418065,0.1537749999999999,-0.273085,1.1417565,0.1479249999999999,-0.285595,0.9068365,-0.1355950000000001,-0.1145609999999999,1.0962635,-0.1455050000000001,-0.1252289999999999
144,1.019618,0.6641870000000001,-0.078019,0.8675510000000001,0.487888,-0.097958,0.747861,0.6963050000000001,-0.206243,1.159101,0.477385,-0.101171,1.265161,0.681965,-0.206396,0.728001,0.898485,-0.26658,1.311251,0.918265,-0.27789,0.922754,0.001815,0.0031299999999999,1.077246,-0.001815,-0.00313,0.841821,0.150245,-0.27498,1.141461,0.144535,-0.28748,0.906793,-0.1393449999999999,-0.116883,1.096253,-0.148895,-0.126767
145,1.0189025,0.66631,-0.0824419999999999,0.8673815,0.4861599999999999,-0.1021039999999999,0.7475815,0.6960549999999999,-0.209746,1.1586414999999999,0.4774039999999999,-0.1052829999999999,1.2646715,0.6848949999999999,-0.2103649999999999,0.7271615,0.8996849999999998,-0.27052,1.3100615,0.922505,-0.28201,0.9226835,0.0017749999999999,0.00268,1.0773165,-0.001775,-0.0026799999999999,0.8419015,0.1406849999999999,-0.2786999999999999,1.1407915,0.1345449999999999,-0.29059,0.9068404999999999,-0.149205,-0.1207389999999999,1.0963705,-0.158375,-0.1296699999999999
146,1.0182645,0.66601,-0.0866609999999999,0.8672575,0.4840519999999999,-0.1065129999999999,0.7473974999999999,0.6940299999999999,-0.2129549999999999,1.1579975,0.4760069999999999,-0.1091479999999999,1.2641475,0.6843999999999999,-0.2142,0.7264275,0.8981699999999999,-0.273825,1.3088175,0.92361,-0.285915,0.9226985,0.0019099999999999,0.002175,1.0773015,-0.00191,-0.0021749999999999,0.8421375,0.1242099999999999,-0.282805,1.1401075,0.1173999999999999,-0.293425,0.9068865,-0.16637,-0.1243939999999999,1.0965485,-0.17514,-0.13218
147,1.0177029999999998,0.66684,-0.0911339999999999,0.867112,0.481981,-0.111277,0.7468520000000001,0.69245,-0.216444,1.157272,0.4750189999999999,-0.113425,1.263392,0.68528,-0.218242,0.725812,0.90175,-0.277035,1.3074919999999999,0.92447,-0.289935,0.922668,0.0019399999999999,0.001755,1.077332,-0.00194,-0.001755,0.8425720000000001,0.1061399999999999,-0.287035,1.139402,0.09924,-0.296115,0.90695,-0.18503,-0.128345,1.096713,-0.19343,-0.134947
148,1.017364,0.6673800000000001,-0.095049,0.8671880000000001,0.479632,-0.115752,0.746408,0.6904300000000001,-0.2197569999999999,1.156768,0.4740510000000001,-0.117437,1.262868,0.6853,-0.221993,0.7254980000000001,0.9014600000000002,-0.279695,1.306418,0.9231200000000002,-0.2935149999999999,0.922518,0.00209,0.001345,1.077482,-0.0020899999999999,-0.0013449999999999,0.843278,0.0837600000000001,-0.290835,1.138678,0.07672,-0.298505,0.907226,-0.2079399999999999,-0.13208,1.097085,-0.2160699999999998,-0.137424
149,1.0172475,0.66811,-0.09844,0.8670865,0.478236,-0.119545,0.7461765,0.68849,-0.222463,1.1560765,0.474085,-0.120935,1.2621965,0.6837,-0.224719,0.7254165,0.89967,-0.28171,1.3054965,0.91979,-0.29625,0.9223615000000001,0.00223,0.0010999999999999,1.0776385,-0.00223,-0.0011,0.8441865,0.0592599999999999,-0.29386,1.1379465,0.0514999999999999,-0.3004799999999999,0.9075195,-0.2332199999999999,-0.135624,1.0975785,-0.2413499999999999,-0.139405
150,1.0173605000000001,0.67009,-0.100925,0.8671015000000001,0.478399,-0.12234,0.7467315,0.68969,-0.2237839999999999,1.1555715,0.474098,-0.1237699999999999,1.2618515000000001,0.6858,-0.227236,0.7255315,0.89872,-0.283015,1.3048015,0.92121,-0.297535,0.9222265000000001,0.0023,0.000895,1.0777735,-0.0023,-0.000895,0.8452315000000001,0.0333999999999999,-0.295705,1.1370915,0.02482,-0.301765,0.9078805000000001,-0.26031,-0.13857,1.0982545,-0.2684399999999999,-0.140686
151,1.0176185,0.67118,-0.1024219999999999,0.8670745,0.4772039999999999,-0.1241989999999999,0.7467645,0.68936,-0.22481,1.1550445,0.474749,-0.126046,1.2615645,0.68694,-0.22871,0.7258245,0.8976299999999999,-0.283745,1.3044145,0.92219,-0.298245,0.9220765,0.0022899999999999,0.000475,1.0779235,-0.00229,-0.000475,0.8464245,0.0064499999999999,-0.296455,1.1362145,-0.00273,-0.302295,0.9084075,-0.28942,-0.140146,1.0990345,-0.29755,-0.141428
152,1.0176124999999998,0.673065,-0.102745,0.8666615,0.477449,-0.125244,0.7471115000000002,0.689875,-0.224761,1.1544714999999999,0.476007,-0.127471,1.2610515,0.6892050000000001,-0.228973,0.7261715,0.894515,-0.283575,1.3043515,0.920415,-0.298255,0.9220145,0.002205,0.000475,1.0779855,-0.0022049999999999,-0.000475,0.8475115,-0.0209849999999999,-0.296495,1.1351715,-0.0305849999999999,-0.302065,0.9086455,-0.3198949999999999,-0.14109,1.0995515,-0.328045,-0.141448
153,1.0174425,0.673675,-0.1030039999999999,0.8661685,0.477005,-0.126526,0.7469385,0.689565,-0.2248339999999999,1.1540085,0.478565,-0.1288109999999999,1.2603985,0.690465,-0.2289419999999999,0.7264984999999999,0.893255,-0.283035,1.3043084999999999,0.922265,-0.2980049999999999,0.9220195,0.0021049999999999,0.000475,1.0779805,-0.002105,-0.000475,0.8486184999999999,-0.048655,-0.296525,1.1344685,-0.0588549999999999,-0.301485,0.9088295000000001,-0.351755,-0.142,1.1000085,-0.359835,-0.141458
154,1.017065,0.6758949999999999,-0.102997,0.8656340000000001,0.4793849999999999,-0.127266,0.7464839999999999,0.690905,-0.224742,1.153134,0.479375,-0.129452,1.259584,0.690085,-0.228887,0.726514,0.895925,-0.281825,1.304154,0.921775,-0.297535,0.9221779999999999,0.0021849999999999,0.000475,1.077822,-0.002185,-0.000475,0.849514,-0.072295,-0.296315,1.133854,-0.082495,-0.300135,0.909003,-0.380535,-0.142775,1.100267,-0.388635,-0.142061
155,1.0171189999999999,0.68108,-0.1022699999999999,0.865422,0.48019,-0.126941,0.746302,0.69259,-0.2237249999999999,1.152882,0.48392,-0.1292029999999999,1.259062,0.69216,-0.2281439999999999,0.7269019999999999,0.9006399999999999,-0.279365,1.304552,0.92263,-0.2962249999999999,0.922062,0.0017099999999999,0.000185,1.077938,-0.0017099999999999,-0.0001849999999999,0.8507020000000001,-0.09082,-0.294675,1.133512,-0.1005699999999999,-0.2975649999999999,0.909125,-0.40496,-0.144534,1.101036,-0.4125399999999999,-0.1422739999999999
156,1.017375,0.6852,-0.100489,0.865359,0.48402,-0.125499,0.746209,0.69638,-0.221933,1.152759,0.4853699999999999,-0.127667,1.259619,0.69276,-0.226381,0.727549,0.89766,-0.2758899999999999,1.3049089999999999,0.92478,-0.29336,0.921936,0.0019799999999999,-0.0001599999999999,1.078064,-0.00198,0.0001599999999999,0.852169,-0.10951,-0.29106,1.133399,-0.11921,-0.29315,0.909241,-0.43062,-0.145284,1.102121,-0.43751,-0.14179
157,1.0173395,0.69068,-0.09669,0.8649685,0.49002,-0.12241,0.7460485,0.7003999999999999,-0.218408,1.1527185,0.4881999999999999,-0.124301,1.2605285,0.69333,-0.223124,0.7277985,0.89805,-0.27081,1.3054285,0.92812,-0.28892,0.9223275,0.00201,-0.0001,1.0776725,-0.00201,9.9999999999989e-05,0.8533485000000001,-0.12494,-0.2849,1.1330485,-0.13411,-0.28643,0.9086955,-0.45323,-0.144917,1.1030215,-0.45948,-0.139722
158,1.0176759999999998,0.696125,-0.0925379999999999,0.865266,0.4951149999999999,-0.1192719999999999,0.746846,0.705135,-0.214173,1.153416,0.490615,-0.1210549999999999,1.260766,0.699315,-0.2187429999999999,0.728496,0.904095,-0.26487,1.306006,0.937045,-0.2837699999999999,0.92314,0.002225,-4.999999999999449e-05,1.07686,-0.002225,5.000000000002225e-05,0.8549260000000001,-0.139705,-0.27766,1.133216,-0.147315,-0.2793,0.908209,-0.474515,-0.145026,1.104459,-0.479815,-0.1379069999999999
159,1.0170474999999999,0.7010449999999999,-0.0880569999999999,0.8645944999999999,0.498845,-0.1159179999999999,0.7465945,0.707675,-0.20954,1.1532144999999998,0.494095,-0.1175009999999999,1.2601045,0.703295,-0.213968,0.7283145000000001,0.911495,-0.258645,1.3061845,0.941015,-0.277845,0.9231455000000001,0.0023149999999999,0.000125,1.0768544999999998,-0.002315,-0.0001249999999999,0.8557845,-0.153395,-0.269825,1.1327645,-0.160095,-0.2715349999999999,0.9067165000000001,-0.494545,-0.144368,1.1051445,-0.499095,-0.1358249999999999
160,1.0160315,0.7068749999999999,-0.0830139999999999,0.8635335,0.504005,-0.111937,0.7461234999999999,0.711915,-0.204131,1.1527835,0.4993649999999999,-0.113507,1.2591335,0.709085,-0.208615,0.7278835,0.920705,-0.25155,1.3060135,0.944995,-0.27127,0.9233805,0.002145,0.00042,1.0766195,-0.002145,-0.00042,0.8564035,-0.166345,-0.26108,1.1320835,-0.171855,-0.26342,0.9046335000000001,-0.5132650000000001,-0.142832,1.1060234999999998,-0.5169250000000001,-0.133574
161,1.0151195,0.7129449999999999,-0.078399,0.8625925,0.507215,-0.108216,0.7455425,0.715975,-0.199052,1.1521225,0.5044949999999999,-0.109824,1.2582525,0.713975,-0.2036089999999999,0.7272725,0.929995,-0.24515,1.3057925,0.954115,-0.26533,0.9236755,0.0018149999999999,0.00053,1.0763245,-0.001815,-0.00053,0.8569025,-0.177985,-0.25283,1.1312825,-0.182315,-0.25547,0.9022725,-0.5303249999999999,-0.141474,1.1067625,-0.5325850000000001,-0.131585
162,1.013732,0.716385,-0.072766,0.860907,0.511795,-0.103447,0.744707,0.717655,-0.1931189999999999,1.151197,0.5058050000000001,-0.105078,1.2569869999999999,0.714525,-0.197654,0.726187,0.934475,-0.237985,1.3050469999999998,0.954325,-0.258845,0.924003,0.0016549999999999,0.0003149999999999,1.075997,-0.0016549999999999,-0.0003149999999999,0.858077,-0.191625,-0.2411849999999999,1.129377,-0.195085,-0.244055,0.8995569999999999,-0.548505,-0.139291,1.106907,-0.550375,-0.127542
163,1.0119384999999999,0.7201949999999999,-0.067422,0.8588715,0.514955,-0.098873,0.7434115,0.719635,-0.18745,1.1499415,0.508895,-0.100685,1.2553215,0.7167049999999999,-0.191921,0.7248114999999999,0.936225,-0.23148,1.3039815,0.955155,-0.25285,0.9241745000000001,0.001455,0.0003399999999999,1.0758254999999999,-0.0014549999999999,-0.00034,0.8589614999999999,-0.203845,-0.22946,1.1270015,-0.207165,-0.23254,0.8964915,-0.5643849999999999,-0.135867,1.1062615,-0.566055,-0.122974
164,1.010606,0.7243165,-0.06273,0.857406,0.5196165,-0.094914,0.742326,0.7236665,-0.182416,1.149696,0.5105864999999999,-0.096524,1.2557260000000001,0.7210565,-0.187683,0.7239060000000002,0.9377865,-0.22536,1.303696,0.9575365,-0.24778,0.924775,0.0014534999999999,0.0002799999999999,1.075225,-0.0014534999999999,-0.00028,0.860676,-0.2183235,-0.21777,1.124906,-0.2228834999999999,-0.22087,0.895886,-0.5805935,-0.13156,1.105876,-0.5825735,-0.118674
165,1.0091979999999998,0.729635,-0.0584919999999999,0.856001,0.521285,-0.0910849999999999,0.741341,0.725905,-0.1779239999999999,1.1497309999999998,0.514695,-0.092509,1.255291,0.7255849999999999,-0.183668,0.7229110000000001,0.941555,-0.219545,1.303541,0.958345,-0.243115,0.925394,0.000946,0.000255,1.074606,-0.000946,-0.0002549999999999,0.862321,-0.231715,-0.206755,1.122201,-0.237275,-0.208275,0.895411,-0.5948249999999999,-0.127544,1.105441,-0.5974550000000001,-0.1146589999999999
166,1.008056,0.7331805,-0.0509695,0.854711,0.5218505,-0.0839345,0.740591,0.7275105,-0.1703625,1.149981,0.5158505,-0.0851035,1.2551109999999999,0.7294205,-0.1761734999999999,0.722261,0.9442805,-0.2102395,1.303351,0.9590105,-0.2347795,0.925856,0.0006814999999999,0.0001474999999999,1.074144,-0.0006815,-0.0001474999999999,0.864451,-0.2460195,-0.1906105,1.118781,-0.2524295,-0.1897285,0.895201,-0.6100595,-0.1200485,1.105281,-0.6132995,-0.1054895
167,1.007164,0.7310344999999999,-0.039543,0.853526,0.5198545,-0.07356,0.739926,0.7229445,-0.159014,1.150296,0.5173445,-0.073936,1.255546,0.7289144999999999,-0.165575,0.721616,0.9363445,-0.198171,1.303366,0.9512545,-0.222521,0.926335,0.0003725,-0.00035,1.073665,-0.0003724999999999,0.0003499999999999,0.869836,-0.2675955,-0.166817,1.115516,-0.2742455,-0.166426,0.8952960000000001,-0.6320155000000001,-0.105097,1.105326,-0.6359355,-0.091024
168,1.0063704999999998,0.7286870000000001,-0.0286309999999999,0.8524525000000001,0.5180469999999999,-0.0636009999999999,0.7391425,0.7190570000000001,-0.148102,1.1505025,0.5183070000000001,-0.063272,1.2560725,0.727147,-0.155721,0.7207525,0.929197,-0.1865899999999999,1.3038125,0.949817,-0.21029,0.9265605,9.10000000000008e-05,-0.0008869999999999,1.0734395,-9.099999999999732e-05,0.0008869999999999,0.8751225,-0.288083,-0.143748,1.1120625,-0.2944029999999999,-0.1438479999999999,0.8953225,-0.652493,-0.0902319999999999,1.1051025,-0.6572229999999999,-0.07638
169,1.0056755,0.725885,-0.0186995,0.8514825,0.516155,-0.0542865,0.7383525,0.715665,-0.1378395,1.1506925,0.517275,-0.0532575,1.2568225,0.724835,-0.1469425,0.7199025,0.920655,-0.1761545,1.3040825,0.949175,-0.1990745,0.9265015,3.899999999999997e-05,-0.0015495,1.0734985,-3.899999999999997e-05,0.0015494999999999,0.8807525,-0.306905,-0.1210515,1.1082325,-0.310685,-0.1209555,0.8955625,-0.671055,-0.0751995,1.1045825,-0.675925,-0.0622115
170,1.004556,0.7212765,-0.0086224999999999,0.8500500000000001,0.5157265,-0.0448644999999999,0.73691,0.7112864999999999,-0.1275175,1.1507,0.5166765,-0.0431594999999999,1.2570999999999999,0.7223265,-0.1379935,0.71869,0.9116165,-0.1656234999999999,1.3036699999999999,0.9447665,-0.1877635,0.925996,0.0001355,-0.0021644999999999,1.074004,-0.0001355,0.0021644999999999,0.88635,-0.3251134999999999,-0.0975685,1.1038000000000001,-0.3261235,-0.0973624999999999,0.8958100000000001,-0.6891335000000001,-0.0589974999999999,1.10339,-0.6936935000000001,-0.0476775
171,1.004435,0.72007,0.000287,0.849763,0.51509,-0.0366929999999999,0.7363230000000001,0.7102200000000001,-0.118688,1.151403,0.5187600000000001,-0.034239,1.258063,0.7239,-0.12989,0.718353,0.90613,-0.156372,1.304193,0.94437,-0.178312,0.926072,0.000128,-0.0026049999999999,1.073928,-0.000128,0.002605,0.891863,-0.33725,-0.077147,1.100666,-0.33629,-0.07683,0.897113,-0.7011400000000001,-0.044121,1.102883,-0.7057800000000001,-0.033989
172,1.0044495,0.7177979999999999,0.0088745,0.8495085,0.5139079999999999,-0.0283545,0.7358285,0.707788,-0.1099155,1.1517985,0.519228,-0.0253605,1.2583285,0.7241879999999999,-0.1209775,0.7180485,0.900548,-0.1470425,1.3047385,0.943778,-0.1684125,0.9260945,0.0001289999999999,-0.0030735,1.0739055,-0.000129,0.0030735,0.8974285,-0.3492619999999999,-0.0566465,1.0972825,-0.3476019999999999,-0.0559615,0.8989585,-0.7126020000000001,-0.0289415,1.1019385,-0.718122,-0.0195585
173,1.0044849999999999,0.7146269999999999,0.0172595,0.849267,0.5135670000000001,-0.0201455,0.735387,0.7048970000000001,-0.1015335,1.152197,0.5185569999999999,-0.0165715,1.2590270000000001,0.723077,-0.1128155,0.7177570000000001,0.8955569999999999,-0.1377634999999999,1.305067,0.942367,-0.1590235,0.926122,0.0003259999999999,-0.0035705,1.073878,-0.0003259999999999,0.0035705,0.902604,-0.360813,-0.0366185,1.094128,-0.358353,-0.0357495,0.901007,-0.723363,-0.0138775,1.100994,-0.7300629999999999,-0.0052155
174,1.0047905,0.710055,0.02579,0.8494235,0.5132650000000001,-0.0118439999999999,0.7352135,0.701245,-0.09299,1.1529734999999999,0.517845,-0.0077339999999999,1.2601035,0.721535,-0.104767,0.7177635,0.890475,-0.1284229999999999,1.3055035,0.941205,-0.149333,0.9263695,0.000505,-0.0040599999999999,1.0736305,-0.000505,0.00406,0.9079155,-0.374435,-0.016596,1.0917695,-0.370415,-0.016822,0.9029575000000001,-0.7359049999999999,0.001276,1.1005535,-0.7427349999999999,0.008416
175,1.005122,0.7060175,0.0306644999999999,0.8494619999999999,0.5119475,-0.0069394999999999,0.7350920000000001,0.6983375,-0.0880385,1.153882,0.5185474999999999,-0.0024524999999999,1.261352,0.7214075,-0.1004735,0.7177819999999999,0.8866274999999999,-0.1227985,1.3062019999999999,0.9420675,-0.1431885,0.926784,0.0005774999999999,-0.0044315,1.073216,-0.0005774999999999,0.0044315,0.913014,-0.3861925,-0.0015034999999999,1.090419,-0.3802025,-0.0041014999999999,0.9051500000000001,-0.7464725000000001,0.0119515,1.100398,-0.7529025,0.0168915
176,1.005136,0.7072145,0.0318605,0.849448,0.5131145,-0.0055144999999999,0.7347980000000001,0.7007844999999999,-0.0869815,1.153928,0.5183445,-0.0011784999999999,1.261448,0.7218344999999999,-0.0990215,0.7174579999999999,0.8891445,-0.1212935,1.306378,0.9477045,-0.1411235,0.926789,0.0004964999999999,-0.0043634999999999,1.073211,-0.0004964999999999,0.0043635,0.914698,-0.3869355,0.0054965,1.088709,-0.3808654999999999,0.0030505,0.905632,-0.7472455,0.0155824999999999,1.100049,-0.7535655,0.0201715
177,1.005154,0.7079335,0.0331945,0.849473,0.5131935000000001,-0.0039915,0.734533,0.7020234999999999,-0.0857344999999999,1.153963,0.5181435000000001,0.0001285,1.261543,0.7222335,-0.0975024999999999,0.716823,0.8899334999999999,-0.1197515,1.3065229999999999,0.9477434999999998,-0.1395315,0.926791,0.0004375,-0.0042835,1.073209,-0.0004374999999999,0.0042834999999999,0.9163050000000001,-0.3875965,0.0125814999999999,1.087138,-0.3815265,0.0098805,0.906116,-0.7479065,0.0190775,1.099822,-0.7542264999999999,0.0233034999999999
178,1.0051905,0.7083195,0.034609,0.8495185000000001,0.5131895,-0.002486,0.7343185,0.7025895,-0.084375,1.1539985,0.5181294999999999,0.001431,1.2616385,0.7224495,-0.096001,0.7161885,0.8906795000000001,-0.118226,1.3066185,0.9478995,-0.137976,0.9267935,0.0003665,-0.004197,1.0732065,-0.0003664999999999,0.0041969999999999,0.9174105,-0.3880405,0.018875,1.0858505,-0.3819705,0.0155959999999999,0.9065345,-0.7483504999999999,0.022333,1.0996425,-0.7546705,0.026317
179,1.0050394999999999,0.708674,0.0360599999999999,0.8493885000000001,0.512954,-0.000941,0.7339585,0.702734,-0.082955,1.1537685,0.518064,0.0028609999999999,1.2615285,0.722564,-0.094431,0.7154185,0.891104,-0.116707,1.3064685,0.947664,-0.136467,0.9268745,0.000374,-0.00412,1.0731255,-0.0003739999999999,0.00412,0.9178965,-0.3880159999999999,0.024189,1.0846085,-0.379846,0.020358,0.9066465,-0.748396,0.025223,1.0993694999999999,-0.754536,0.029208
180,1.0048685,0.70852,0.037432,0.8492175000000001,0.5128,0.000416,0.7335575,0.70258,-0.081673,1.1535275,0.51813,0.004163,1.2614074999999998,0.72257,-0.093013,0.7145874999999999,0.89205,-0.115375,1.3063175,0.94681,-0.135265,0.9269875,0.0003879999999999,-0.0040179999999999,1.0730125,-0.0003879999999999,0.004018,0.9181545,-0.3879499999999999,0.028548,1.0835515,-0.3779599999999999,0.023999,0.9066025,-0.74815,0.027935,1.0990995,-0.75414,0.031685
181,1.004667,0.708501,0.0386675,0.8490160000000001,0.512781,0.0016565,0.7330760000000001,0.702561,-0.0805275,1.153326,0.518171,0.0053985,1.261236,0.722561,-0.0917655,0.7137359999999999,0.893211,-0.1142595,1.306106,0.946091,-0.1342195,0.927116,0.000407,-0.0039385,1.072884,-0.000407,0.0039385,0.918212,-0.387969,0.0320685,1.0829449999999998,-0.3774689999999999,0.0263825,0.9065120000000001,-0.747769,0.0301655,1.098893,-0.753999,0.0338025
182,1.004474,0.7084590000000001,0.039906,0.848868,0.5124390000000001,0.002883,0.732618,0.702519,-0.079378,1.153128,0.518209,0.006637,1.261088,0.722569,-0.090528,0.712878,0.894429,-0.113371,1.305938,0.945449,-0.133161,0.927248,0.000449,-0.003882,1.072752,-0.000449,0.003882,0.918181,-0.387811,0.034941,1.0824880000000001,-0.377511,0.0283,0.9063990000000001,-0.747421,0.0321829999999999,1.098714,-0.753891,0.0356869999999999
183,1.004324,0.7084590000000001,0.0410395,0.8488370000000001,0.5121690000000001,0.0039565,0.732167,0.702449,-0.0784075,1.152977,0.518259,0.0077295,1.261037,0.722569,-0.0894385,0.712087,0.8955390000000001,-0.1130285,1.305827,0.944949,-0.1321885,0.927337,0.000449,-0.0037784999999999,1.072663,-0.000449,0.0037784999999999,0.9181360000000001,-0.387641,0.0371395,1.082132,-0.377361,0.0294185,0.906331,-0.747041,0.0339415,1.098566,-0.7538309999999999,0.0371355
184,1.0041879999999999,0.7082689999999999,0.0421095,0.848809,0.511529,0.0049035,0.731689,0.7021689999999999,-0.0775925,1.152839,0.5183289999999999,0.0086955,1.2610489999999999,0.722609,-0.0884865,0.711449,0.8962789999999999,-0.1130515,1.3057189999999999,0.944389,-0.1313715,0.927412,0.000489,-0.0037295,1.072588,-0.000489,0.0037295,0.918035,-0.387491,0.0385795,1.0819059999999998,-0.377631,0.0303775,0.906259,-0.746761,0.0353345,1.098409,-0.753781,0.0383205
185,1.004061,0.7080935,0.0433135,0.8487830000000001,0.5108535,0.0059194999999999,0.731203,0.7015735,-0.0768115,1.152733,0.5184135,0.0097025,1.2611430000000001,0.7226235,-0.0876415,0.710893,0.8967335,-0.1131545,1.305603,0.9437735,-0.1304945,0.927488,0.0005415,-0.0036865,1.072512,-0.0005415,0.0036865,0.917932,-0.3873465,0.0397655,1.081742,-0.3780064999999999,0.0313555,0.9061770000000001,-0.7464365,0.0366905,1.098285,-0.7538965,0.0394985
186,1.003976,0.707958,0.044544,0.848806,0.5102679999999999,0.006933,0.730726,0.700838,-0.076102,1.152686,0.5185879999999999,0.010708,1.261356,0.722588,-0.086875,0.710726,0.8969079999999999,-0.1133209999999999,1.305436,0.943148,-0.129811,0.9275720000000001,0.0006,-0.003666,1.072428,-0.0005999999999999,0.003666,0.9178459999999999,-0.387142,0.040774,1.081605,-0.377862,0.032329,0.9060920000000001,-0.7460720000000001,0.038001,1.0981809999999999,-0.753722,0.040609
187,1.003965,0.7079155,0.0457755,0.84884,0.5097755,0.0078775,0.73024,0.6998655,-0.0756375,1.15268,0.5187955,0.0116255,1.26172,0.7222755,-0.0861894999999999,0.7105699999999999,0.8971155,-0.1135304999999999,1.30523,0.9426555,-0.1292105,0.927645,0.0006435,-0.0036725,1.072355,-0.0006434999999999,0.0036725,0.91778,-0.3869345,0.0416925,1.081469,-0.3776545,0.0328965,0.906002,-0.7456445,0.0391535,1.098102,-0.7533945,0.0416385
188,1.0039779999999998,0.7080150000000001,0.046894,0.8489070000000001,0.5090749999999999,0.008716,0.7296670000000001,0.698575,-0.075461,1.152717,0.519055,0.0124669999999999,1.262387,0.7217549999999999,-0.085654,0.710397,0.897405,-0.114046,1.305157,0.942845,-0.128876,0.927694,0.00068,-0.003708,1.072306,-0.00068,0.003708,0.917693,-0.386645,0.042496,1.081325,-0.377595,0.033337,0.905892,-0.7451650000000001,0.040138,1.098013,-0.753025,0.042563
189,1.0040445,0.708144,0.0480305,0.8487725,0.508664,0.0095235,0.7288125000000001,0.6966939999999999,-0.0756265,1.1528125,0.5192939999999999,0.0132675,1.2635225,0.720544,-0.0852255,0.7103825000000001,0.896594,-0.1147525,1.3049925,0.940774,-0.1291125,0.9277235,0.0007309999999999,-0.0037175,1.0722765,-0.0007309999999999,0.0037174999999999,0.9176065,-0.3863459999999999,0.0432585,1.0812205,-0.377926,0.0337385,0.9057795,-0.744726,0.0409295,1.0978955,-0.752596,0.0434385
190,1.00418,0.708248,0.0492185,0.848636,0.508208,0.0102805,0.7276760000000001,0.692978,-0.0761015,1.153086,0.519368,0.0139964999999999,1.265406,0.718188,-0.0850735,0.710446,0.895128,-0.1159625,1.304746,0.936958,-0.1295225,0.927746,0.0007629999999999,-0.0037384999999999,1.072254,-0.0007629999999999,0.0037385,0.917549,-0.385962,0.0438675,1.081167,-0.378642,0.0341005,0.905699,-0.744262,0.0416385,1.097778,-0.752232,0.0442435
191,1.0043695,0.708194,0.0503715,0.8485005,0.507744,0.0109735,0.7262705,0.6881240000000001,-0.0768035,1.1534005,0.519404,0.0145955,1.2679605,0.713744,-0.0852385,0.7106905,0.893134,-0.1176465,1.3044704999999999,0.933194,-0.1301065,0.9277675,0.0007739999999999,-0.0037634999999999,1.0722325,-0.0007739999999999,0.0037635,0.9175245,-0.3857859999999999,0.0443365,1.0810715,-0.379536,0.0343465,0.9056195,-0.743746,0.0422285,1.0976405,-0.751966,0.0449195
192,1.0045975,0.7080609999999999,0.051569,0.8482255,0.5072409999999999,0.011939,0.7244655,0.682021,-0.077942,1.1537555,0.5193209999999999,0.01515,1.2714554999999998,0.7068709999999999,-0.085925,0.7110655,0.890461,-0.1197,1.3041654999999999,0.927121,-0.1311699999999999,0.9277865,0.000753,-0.00379,1.0722135,-0.000753,0.00379,0.9174735,-0.3855989999999999,0.0447619999999999,1.0809015,-0.380399,0.034765,0.9055495000000001,-0.743159,0.042787,1.0975165,-0.751679,0.045545
193,1.0048184999999998,0.708061,0.052913,0.8479445,0.5067510000000001,0.01298,0.7221044999999999,0.674861,-0.079402,1.1545645,0.518391,0.015766,1.2759844999999999,0.698371,-0.086804,0.7114644999999999,0.8861410000000001,-0.122283,1.3035145,0.916771,-0.1331429999999999,0.9277965,0.0006999999999999,-0.003819,1.0722035,-0.0007,0.003819,0.9173585,-0.385119,0.045183,1.0806605,-0.3805889999999999,0.035204,0.9054135000000001,-0.742269,0.043321,1.0973175,-0.750849,0.046144
194,1.0050759999999999,0.70848,0.054352,0.847704,0.5061899999999999,0.013998,0.719104,0.66577,-0.081228,1.155464,0.51703,0.016369,1.2819639999999999,0.68775,-0.0879529999999999,0.711864,0.87612,-0.125971,1.302604,0.90627,-0.135241,0.927807,0.0007059999999999,-0.003856,1.072193,-0.000706,0.0038559999999999,0.917108,-0.38415,0.045665,1.080373,-0.38009,0.0356869999999999,0.9052600000000001,-0.74087,0.043854,1.0971009999999999,-0.7495200000000001,0.0467379999999999
195,1.005375,0.709203,0.0559645,0.847497,0.505293,0.0151775,0.715627,0.654293,-0.0834065,1.156377,0.515383,0.0169465,1.288967,0.674793,-0.0897695,0.712377,0.865663,-0.1303615,1.301527,0.888873,-0.1379515,0.927807,0.0007159999999999,-0.0038715,1.072193,-0.0007159999999999,0.0038715,0.9168310000000001,-0.382977,0.0461045,1.080039,-0.379867,0.0361275,0.905084,-0.739017,0.0443435,1.096853,-0.7478170000000001,0.0472035
196,1.005634,0.710458,0.0576545,0.847224,0.5040479999999999,0.0163815,0.711874,0.640458,-0.0858714999999999,1.157264,0.513308,0.0176495,1.295674,0.657538,-0.0913684999999999,0.713754,0.854118,-0.1360245,1.300404,0.866978,-0.1405545,0.92778,0.0007939999999999,-0.0037654999999999,1.07222,-0.000794,0.0037655,0.916538,-0.381582,0.0466115,1.07964,-0.379462,0.0366625,0.904894,-0.736672,0.0449005,1.09656,-0.745482,0.0477025
197,1.005933,0.712299,0.059554,0.847052,0.502319,0.017255,0.7087920000000001,0.625009,-0.08897,1.158452,0.511079,0.018378,1.301492,0.637629,-0.092669,0.7155119999999999,0.835819,-0.142239,1.298532,0.841989,-0.143649,0.9277140000000001,0.0008299999999999,-0.003588,1.0722859999999999,-0.0008299999999999,0.003588,0.9162500000000001,-0.3806609999999999,0.047192,1.07921,-0.378751,0.037206,0.904748,-0.733731,0.045493,1.096297,-0.742571,0.048198
198,1.0062735,0.714665,0.0613465,0.8469205,0.500605,0.0179155,0.7070004999999999,0.607435,-0.0925975,1.1597905,0.508435,0.0189925,1.3057205,0.613445,-0.0924575,0.7175405,0.815435,-0.1486275,1.2965505,0.815075,-0.1464975,0.9276105,0.000855,-0.0033885,1.0723894999999999,-0.0008549999999999,0.0033884999999999,0.9160285,-0.379285,0.0477205,1.0788214999999999,-0.378075,0.0379145,0.9046735,-0.730185,0.0459845,1.0961135,-0.7391650000000001,0.0486075
199,1.0067635,0.7179055,0.06346,0.8468185,0.4983354999999999,0.018323,0.7066085000000001,0.5855055,-0.099688,1.1611185,0.5058655,0.019358,1.3083084999999999,0.5834254999999999,-0.092128,0.7222284999999999,0.7928255,-0.156968,1.2923885,0.7821055,-0.150608,0.9274695,0.0008494999999999,-0.003159,1.0725305,-0.0008495,0.0031589999999999,0.9158245,-0.3776245,0.0482439999999999,1.0784225,-0.3770345,0.038659,0.9046265,-0.7256945,0.046429,1.0959885,-0.7348345000000001,0.049016
200,1.007231,0.7218565,0.065491,0.8467390000000001,0.4958064999999999,0.018723,0.706269,0.5630364999999999,-0.106637,1.162319,0.5022865,0.019712,1.308629,0.5521365,-0.091747,0.727839,0.7682665,-0.164897,1.286919,0.7487564999999999,-0.155037,0.927345,0.0008735,-0.002942,1.072655,-0.0008734999999999,0.002942,0.915648,-0.3753235,0.048777,1.078069,-0.3754035,0.039448,0.904603,-0.7207235000000001,0.046856,1.095883,-0.7299635,0.049416
201,1.007674,0.7263280000000001,0.06745,0.8466890000000001,0.493558,0.019111,0.705979,0.5388580000000001,-0.113088,1.162329,0.498978,0.020034,1.308549,0.5190079999999999,-0.091358,0.734359,0.7445379999999999,-0.172938,1.280539,0.708188,-0.159298,0.927259,0.000896,-0.0027379999999999,1.072741,-0.0008959999999999,0.002738,0.915506,-0.370472,0.049154,1.077685,-0.373442,0.040196,0.90459,-0.7154320000000001,0.047243,1.095848,-0.7247619999999999,0.049801
202,1.0081015,0.7309465,0.0692639999999999,0.8467875000000001,0.4911865,0.0193279999999999,0.7057675,0.5134765,-0.118511,1.1622875,0.4960465,0.0203059999999999,1.3085275,0.4853264999999999,-0.090201,0.7423474999999999,0.7159965,-0.180671,1.2743175,0.6687365000000001,-0.163411,0.9272145,0.0009244999999999,-0.0024799999999999,1.0727855,-0.0009245,0.0024799999999999,0.9153645,-0.3656635,0.049519,1.0773085,-0.3714635,0.040907,0.9046445,-0.7101335,0.047607,1.0958375,-0.7197235,0.050075
203,1.0085115,0.735339,0.070873,0.8469845,0.488639,0.019029,0.7066745,0.488689,-0.123629,1.1622845,0.4934489999999999,0.020196,1.3086245,0.451609,-0.087044,0.7519045,0.691499,-0.187929,1.2675144999999999,0.624339,-0.168999,0.9271335,0.000903,-0.0022189999999999,1.0728665,-0.0009029999999999,0.002219,0.9152145,-0.361091,0.0497829999999999,1.0770325,-0.369751,0.041513,0.9047475,-0.705111,0.0479259999999999,1.0958795,-0.714931,0.050295
204,1.008959,0.7398125,0.072191,0.847778,0.4863425,0.017881,0.7098180000000001,0.4647425,-0.127578,1.1623679999999998,0.4905425,0.01905,1.307898,0.4176224999999999,-0.082513,0.761918,0.6664325,-0.194748,1.2604980000000001,0.5828025,-0.173388,0.9269540000000001,0.0008395,-0.001972,1.073046,-0.0008395,0.001972,0.9151549999999999,-0.3559575,0.04941,1.077056,-0.3672375,0.041949,0.904983,-0.6999775,0.048176,1.096042,-0.7100175000000001,0.050396
205,1.009413,0.743854,0.073276,0.848567,0.4845139999999999,0.016519,0.7146670000000002,0.441224,-0.128514,1.162077,0.4880739999999999,0.017416,1.304467,0.382974,-0.077376,0.772467,0.6398940000000001,-0.200314,1.253047,0.5393140000000001,-0.178714,0.926718,0.000667,-0.0018169999999999,1.073282,-0.000667,0.001817,0.9151279999999999,-0.351316,0.048923,1.077113,-0.364586,0.042251,0.905264,-0.695336,0.048312,1.096246,-0.705606,0.050368
206,1.0098535,0.7473195,0.0740895,0.8493705,0.4833194999999999,0.0151195,0.7208805,0.4186395,-0.1295305,1.1621005,0.4856894999999999,0.0158675,1.2980905,0.3543695,-0.0715185,0.7834605,0.6192695,-0.2053105,1.2448705,0.4967094999999999,-0.1836705,0.9264675,0.0005514999999999,-0.0016785,1.0735325,-0.0005514999999999,0.0016784999999999,0.9152415,-0.3473105,0.0483255,1.0772355,-0.3621005,0.0423965,0.9055475,-0.6913305,0.0484245,1.0964745,-0.7016005,0.0503535
207,1.010282,0.750149,0.074766,0.85022,0.4822189999999999,0.01359,0.72871,0.396919,-0.130446,1.16236,0.4837789999999999,0.014266,1.28948,0.330359,-0.062212,0.79524,0.599099,-0.210146,1.23594,0.450739,-0.189516,0.92623,0.0004329999999999,-0.001527,1.0737700000000001,-0.0004329999999999,0.001527,0.915353,-0.343381,0.047749,1.077415,-0.359361,0.042571,0.905822,-0.687901,0.048567,1.096699,-0.698191,0.050425
208,1.010449,0.7520955,0.0749275,0.8511510000000001,0.4816755,0.0120455,0.737961,0.3806955,-0.1308715,1.162831,0.4818355,0.0127715,1.2809009999999998,0.3118255,-0.0520445,0.805011,0.5809055,-0.2125915,1.229441,0.4096455,-0.1891615,0.926064,0.0003545,-0.0013725,1.073936,-0.0003544999999999,0.0013725,0.915342,-0.3396745,0.0472104999999999,1.0775059999999999,-0.3569144999999999,0.0427354999999999,0.905988,-0.6854045,0.0487084999999999,1.096844,-0.6957445,0.0504755
209,1.0105795,0.753503,0.0750879999999999,0.8528935,0.480943,0.010163,0.7469735,0.3650629999999999,-0.131019,1.1631035,0.480773,0.011114,1.2705035,0.295483,-0.041292,0.8142435,0.5648230000000001,-0.215009,1.2243935,0.364593,-0.1888389999999999,0.9259425,0.0002729999999999,-0.0012509999999999,1.0740574999999999,-0.000273,0.001251,0.9152885,-0.335237,0.046463,1.0775925,-0.355047,0.042881,0.9061295,-0.683357,0.048775,1.0970215,-0.6938169999999999,0.050545
210,1.0106285,0.754502,0.0751695,0.8550825,0.479282,0.0076364999999999,0.7551725,0.352052,-0.1312255,1.1631925,0.479392,0.0093665,1.2611525000000001,0.283142,-0.0321334999999999,0.8250525,0.548332,-0.2197855,1.2203525,0.326972,-0.1886455,0.9258515,0.0002079999999999,-0.0011955,1.0741485,-0.0002079999999999,0.0011955,0.9151735,-0.331138,0.0457055,1.0775665,-0.353568,0.0427945,0.9061895000000001,-0.6818179999999999,0.0487735,1.0971104999999999,-0.691998,0.0505845
211,1.0106135,0.755324,0.075001,0.8579384999999999,0.477134,0.004523,0.7625585,0.340854,-0.1279799999999999,1.1631084999999999,0.478574,0.008028,1.2527085,0.272744,-0.0235599999999999,0.8347185,0.5382440000000001,-0.2241699999999999,1.2165985,0.284794,-0.1839599999999999,0.9257215,0.000158,-0.0012309999999999,1.0742785,-0.000158,0.0012309999999999,0.9150305,-0.327586,0.04521,1.0775065,-0.351946,0.042641,0.9061895000000001,-0.680306,0.048817,1.0971104999999999,-0.690336,0.050718
212,1.0106354999999998,0.7559359999999999,0.0746775,0.8607425,0.475416,0.0019065,0.7692825,0.3310059999999999,-0.1246044999999999,1.1629325,0.4777559999999999,0.0070374999999999,1.2459225,0.264476,-0.0166785,0.8431525,0.529836,-0.2279745,1.2138425,0.246866,-0.1787445,0.9255765,0.0001159999999999,-0.0012935,1.0744235,-0.0001159999999999,0.0012934999999999,0.9148545,-0.324634,0.0449664999999999,1.0774625,-0.350554,0.0425065,0.9061715,-0.679044,0.0489475,1.0971075,-0.688854,0.0509595
213,1.010652,0.756114,0.0740545,0.863216,0.473744,-0.0002645,0.774366,0.3227939999999999,-0.1212495,1.162746,0.477554,0.0069945,1.239526,0.2586739999999999,-0.0107045,0.851816,0.521814,-0.2316395,1.211836,0.211914,-0.1719395,0.925386,7.799999999999994e-05,-0.0015104999999999,1.074614,-7.799999999999994e-05,0.0015104999999999,0.914668,-0.323836,0.0451525,1.077428,-0.349516,0.0423515,0.9060920000000001,-0.678196,0.0490895,1.09705,-0.687696,0.0511755
214,1.0106645,0.75615,0.0731835,0.8655265,0.4721599999999999,-0.0024565,0.7783765,0.3166,-0.1184805,1.1627565,0.4772599999999999,0.0070855,1.2347765,0.2548499999999999,-0.0051775,0.8593265,0.5163800000000001,-0.2353005,1.2103865,0.18256,-0.1638605,0.9251825,0.00012,-0.0017774999999999,1.0748175,-0.00012,0.0017774999999999,0.9144695,-0.32319,0.0454185,1.0773685,-0.34872,0.0422515,0.9059785,-0.67752,0.0492615,1.0969905,-0.6865899999999999,0.0514375
