sb224sc-HT22-VT27/4dt907/src/data/kinect_good_preprocessed_not_cut_A11_mediapipe/A100_kinect.csv
FrameNo,nose_3d_x,nose_3d_y,nose_3d_z,left_shoulder_3d_x,left_shoulder_3d_y,left_shoulder_3d_z,left_elbow_3d_x,left_elbow_3d_y,left_elbow_3d_z,right_shoulder_3d_x,right_shoulder_3d_y,right_shoulder_3d_z,right_elbow_3d_x,right_elbow_3d_y,right_elbow_3d_z,left_wrist_3d_x,left_wrist_3d_y,left_wrist_3d_z,right_wrist_3d_x,right_wrist_3d_y,right_wrist_3d_z,left_hip_3d_x,left_hip_3d_y,left_hip_3d_z,right_hip_3d_x,right_hip_3d_y,right_hip_3d_z,left_knee_3d_x,left_knee_3d_y,left_knee_3d_z,right_knee_3d_x,right_knee_3d_y,right_knee_3d_z,left_ankle_3d_x,left_ankle_3d_y,left_ankle_3d_z,right_ankle_3d_x,right_ankle_3d_y,right_ankle_3d_z
3,-0.021462000000000002,0.779705,0.1079865,-0.167192,0.5804050000000001,0.0850925,-0.23554199999999997,0.845295,0.003431499999999997,0.167798,0.5642550000000001,0.1007665,0.284128,0.799235,0.0630285,-0.218692,1.132905,-0.0386035,0.300008,1.043305,-0.0120235,-0.079101,0.00011999999999999999,0.002280499999999998,0.079101,-0.00012,-0.0022805000000000047,-0.134552,-0.47544499999999995,-0.0094285,0.13125799999999999,-0.519375,0.0408685,-0.14473200000000003,-0.861825,0.012272499999999999,0.146638,-0.916905,0.0317135
4,-0.022188000000000003,0.779333,0.1074605,-0.16761800000000002,0.580273,0.0846395,-0.23569800000000002,0.8454330000000001,0.003410500000000004,0.16814199999999999,0.565073,0.0994715,0.28361200000000003,0.799323,0.06302150000000001,-0.218948,1.132763,-0.03931549999999999,0.299372,1.0432629999999998,-0.011728499999999996,-0.078933,0.000263,0.0021325000000000024,0.078933,-0.000263,-0.0021324999999999955,-0.134418,-0.48229700000000003,-0.008476499999999998,0.131432,-0.5192469999999999,0.04076250000000001,-0.145018,-0.8621169999999999,0.012491500000000006,0.144812,-0.913557,0.035980500000000006
5,-0.022829000000000002,0.7792549999999999,0.107207,-0.168064,0.5803649999999999,0.084468,-0.23592400000000002,0.8456149999999999,0.0033290000000000056,0.167616,0.565765,0.10306699999999999,0.28322600000000003,0.799515,0.063101,-0.21926400000000001,1.132875,-0.039571,0.298956,1.0433750000000002,-0.011708999999999997,-0.078873,0.000304,0.002144,0.078873,-0.000304,-0.002144,-0.134944,-0.5233450000000001,-0.001686999999999994,0.13084600000000002,-0.519595,0.040727,-0.14485399999999998,-0.8623550000000001,0.012727000000000002,0.144326,-0.9138750000000001,0.036252
6,-0.023184000000000003,0.779156,0.10756550000000001,-0.168342,0.580156,0.0845695,-0.235952,0.8457859999999999,0.0037275000000000016,0.167908,0.566056,0.10080150000000002,0.282988,0.799466,0.0638305,-0.219382,1.132906,-0.0393045,0.29876800000000003,1.043306,-0.011056499999999997,-0.078806,0.00018899999999999999,0.0021504999999999996,0.078806,-0.00018899999999999999,-0.0021504999999999996,-0.135732,-0.5036240000000001,-0.006000499999999999,0.130948,-0.5191140000000001,0.0410065,-0.144652,-0.862444,0.013614500000000002,0.151528,-0.920674,0.023125500000000004
7,-0.023621,0.7793654999999999,0.10793449999999999,-0.168852,0.5802855,0.0846925,-0.235122,0.8506855,0.0018864999999999993,0.16758800000000001,0.5662155,0.10068250000000001,0.282418,0.7995654999999999,0.06438150000000001,-0.219802,1.1330855,-0.0387905,0.298558,1.0433855,-0.010751499999999997,-0.078657,0.0002645,0.0015314999999999981,0.078657,-0.0002645,-0.0015314999999999981,-0.13397199999999998,-0.47751449999999995,-0.009409500000000001,0.130558,-0.5194145,0.0414025,-0.14523199999999997,-0.8636545,0.0131305,0.14605800000000002,-0.9187245,0.0338655
8,-0.023891,0.7792870000000001,0.10804949999999999,-0.169236,0.580227,0.0846385,-0.235516,0.8510570000000001,0.0015444999999999973,0.16725399999999999,0.566307,0.1014175,0.28202400000000005,0.7995570000000001,0.0648265,-0.220076,1.132997,-0.03864650000000001,0.298264,1.0433970000000001,-0.010424500000000003,-0.078557,0.000252,0.0012474999999999986,0.078557,-0.000252,-0.0012474999999999986,-0.134066,-0.47792300000000004,-0.009439500000000003,0.130364,-0.519343,0.0417275,-0.145476,-0.8636729999999999,0.0133835,0.145794,-0.918203,0.0342775
9,-0.0241495,0.7792165,0.108185,-0.1695895,0.5801765,0.08465700000000001,-0.23583949999999998,0.8513565,0.0012139999999999998,0.16694050000000002,0.5664065,0.101991,0.2816805,0.7995465,0.06529599999999999,-0.2203495,1.1329165,-0.038409,0.2979905,1.0433165000000002,-0.010112000000000003,-0.07845750000000001,0.0002495,0.0009689999999999976,0.07845750000000001,-0.00024950000000000005,-0.0009689999999999976,-0.1341495,-0.4777035,-0.009559999999999999,0.1301705,-0.5192735,0.04208,-0.1457895,-0.8637535,0.013878999999999999,0.1455805,-0.9175635,0.034571
10,-0.0243755,0.7791405,0.108185,-0.1699005,0.5802505,0.08465600000000001,-0.23609049999999998,0.8508705,0.001474000000000003,0.16665950000000002,0.5665304999999999,0.102483,0.2813795,0.7995804999999999,0.065818,-0.2205705,1.1326105,-0.03826499999999999,0.2977395,1.0433105,-0.00988,-0.0783675,0.0003005,0.0006400000000000017,0.0783675,-0.0003005,-0.0006400000000000017,-0.13427050000000001,-0.4781895,-0.009465999999999995,0.1299495,-0.5194595000000001,0.04249,-0.14606049999999998,-0.8644095,0.014346000000000001,0.1454295,-0.9174795,0.035057000000000005
11,-0.024600499999999997,0.7790865,0.10811499999999999,-0.17020249999999998,0.5803765,0.084634,-0.23609249999999998,0.8515265,0.0011940000000000006,0.16649750000000002,0.5667765,0.10309499999999999,0.28107750000000004,0.7996565,0.066291,-0.2207025,1.1322565,-0.038486,0.2975175,1.0433565,-0.009679,-0.0783115,0.00037450000000000005,0.0002899999999999986,0.0783115,-0.0003745,-0.0002899999999999986,-0.1344125,-0.4785235,-0.009454999999999998,0.1297275,-0.5195435,0.042860999999999996,-0.1462925,-0.8650035,0.014778999999999997,0.1452975,-0.9174435,0.03544
12,-0.024595500000000003,0.7789360000000001,0.108005,-0.1704665,0.580476,0.084594,-0.2360865,0.851966,0.0009550000000000045,0.1663435,0.566966,0.10398400000000001,0.2808135,0.799686,0.066745,-0.2207065,1.131866,-0.038856,0.2974035,1.043266,-0.009512,-0.0782725,0.00042,-3.999999999999837e-05,0.0782725,-0.00042,4.000000000000531e-05,-0.1345765,-0.478014,-0.009219999999999999,0.12944350000000002,-0.519624,0.043215,-0.14647649999999998,-0.865694,0.015065000000000002,0.14523350000000002,-0.917794,0.035439000000000005
13,-0.024391,0.778734,0.1078515,-0.1707,0.580614,0.0845505,-0.23612999999999998,0.851974,0.0010374999999999968,0.16633,0.567214,0.10439749999999999,0.28058,0.799744,0.0671045,-0.22064999999999999,1.1315140000000001,-0.039276500000000006,0.29735999999999996,1.043214,-0.0094155,-0.07824300000000001,0.0004469999999999999,-0.0003275000000000014,0.07824300000000001,-0.000447,0.00032749999999999446,-0.13471,-0.478266,-0.0088945,0.12925,-0.519666,0.0434815,-0.14664,-0.866356,0.015238499999999999,0.14511000000000002,-0.918046,0.0355015
14,-0.023918500000000006,0.778486,0.1076155,-0.1708695,0.580786,0.0844535,-0.2360795,0.851906,0.0010375000000000037,0.1664305,0.567466,0.1047815,0.2804205,0.799786,0.06735250000000001,-0.2204595,1.131276,-0.0397755,0.2974405,1.0431759999999999,-0.009403499999999995,-0.07822950000000001,0.000482,-0.0005474999999999994,0.07822950000000001,-0.000482,0.0005474999999999994,-0.1347795,-0.47850400000000004,-0.008636499999999998,0.1292005,-0.519714,0.0436965,-0.1467695,-0.867004,0.015297500000000002,0.1448405,-0.917624,0.035737500000000005
15,-0.023229999999999994,0.7782985,0.10730350000000001,-0.170995,0.5810385,0.0843335,-0.23600500000000002,0.8518985,0.0010265000000000066,0.16656500000000002,0.5678285,0.10506850000000001,0.280315,0.7999085,0.0675855,-0.220225,1.1311185000000001,-0.0402855,0.297605,1.0432185,-0.009422499999999993,-0.078249,0.0005625000000000001,-0.0007495000000000002,0.078249,-0.0005624999999999998,0.0007495000000000002,-0.135005,-0.4792115,-0.008399499999999997,0.129185,-0.5196715,0.0438635,-0.146835,-0.8676515,0.015335500000000002,0.14465499999999998,-0.9172115,0.0358985
16,-0.022376999999999994,0.7781425000000001,0.106971,-0.171079,0.5812225000000001,0.084199,-0.236129,0.8514125,0.001246000000000004,0.166741,0.5682125,0.105804,0.280261,0.8000525,0.067814,-0.219939,1.1309925,-0.040864,0.29781100000000005,1.0431925,-0.009481999999999997,-0.078291,0.0006205,-0.0009090000000000001,0.078291,-0.0006205000000000002,0.0009090000000000001,-0.135319,-0.48018750000000004,-0.008155000000000003,0.128961,-0.5198174999999999,0.044143,-0.14687899999999998,-0.8682575,0.015388000000000002,0.144461,-0.9168575,0.036018
17,-0.0214275,0.777958,0.1066405,-0.1711435,0.581388,0.0840805,-0.2362235,0.8510580000000001,0.001415500000000007,0.1669465,0.5685880000000001,0.1066005,0.2802765,0.800158,0.0679695,-0.2195735,1.130948,-0.0416045,0.2980465,1.043248,-0.009570499999999996,-0.0783275,0.0006709999999999999,-0.0010004999999999944,0.0783275,-0.0006709999999999999,0.0010005000000000014,-0.1355335,-0.481142,-0.007962499999999997,0.1288665,-0.5198419999999999,0.0444425,-0.1469135,-0.868842,0.015346500000000003,0.1443265,-0.9168219999999999,0.0359915
18,-0.020421,0.777852,0.1063675,-0.171211,0.581472,0.0839445,-0.23613099999999998,0.8510120000000001,0.0012835,0.167209,0.5690219999999999,0.1072115,0.280349,0.800332,0.0680555,-0.21923099999999998,1.130902,-0.0424635,0.298289,1.043302,-0.009703499999999997,-0.078379,0.0007170000000000002,-0.0010854999999999962,0.078379,-0.0007169999999999998,0.0010855000000000031,-0.135741,-0.481938,-0.007811499999999999,0.12878900000000001,-0.5198879999999999,0.044723500000000006,-0.146931,-0.8693379999999999,0.015208500000000003,0.144149,-0.916628,0.0362405
19,-0.019407999999999998,0.7777795,0.106298,-0.171216,0.5815294999999999,0.083752,-0.23605600000000002,0.8510495,0.001243000000000001,0.167624,0.5692995,0.10769100000000001,0.280434,0.8003695,0.068076,-0.21901600000000002,1.1310395,-0.04326800000000001,0.298574,1.0434395,-0.009731000000000004,-0.07844000000000001,0.0007545,-0.0011369999999999991,0.07844000000000001,-0.0007545,0.0011369999999999991,-0.135976,-0.4823105,-0.007708,0.128714,-0.5199405,0.044969999999999996,-0.146956,-0.8697505,0.015021999999999997,0.14399399999999998,-0.9162905,0.036659
20,-0.018445999999999997,0.7776595,0.1062465,-0.17121599999999998,0.5815294999999999,0.0835505,-0.235976,0.8510495,0.0011524999999999938,0.168054,0.5694595,0.1079155,0.280564,0.8004095,0.0680605,-0.218946,1.1310395,-0.043772500000000006,0.298884,1.0434395,-0.009784500000000002,-0.07847599999999999,0.0007545,-0.0011945000000000011,0.07847599999999999,-0.0007545,0.0011944999999999942,-0.13622599999999999,-0.4818705,-0.007611500000000007,0.128644,-0.5199405,0.0452345,-0.146926,-0.8698605,0.014985499999999995,0.143824,-0.9160505,0.037088499999999996
21,-0.017594499999999996,0.777656,0.1062685,-0.1712445,0.581626,0.0832585,-0.2359545,0.851056,0.0009785000000000002,0.1684755,0.5697260000000001,0.1079415,0.28069550000000004,0.800556,0.0680335,-0.2189845,1.131236,-0.0442825,0.29922550000000003,1.043636,-0.009843500000000005,-0.0785335,0.000851,-0.001300500000000003,0.0785335,-0.000851,0.001300499999999996,-0.1364845,-0.482404,-0.0073095000000000035,0.1285655,-0.5199039999999999,0.0455065,-0.1469145,-0.8699439999999999,0.014957499999999999,0.1437755,-0.9159539999999999,0.037178499999999996
22,-0.016866499999999996,0.777613,0.1064085,-0.1712725,0.581843,0.0829415,-0.2359425,0.8511029999999999,0.0007054999999999978,0.16882750000000002,0.570153,0.1080025,0.2808175,0.800933,0.0679745,-0.2190225,1.1312630000000001,-0.0448755,0.2995775,1.0439630000000002,-0.009805500000000002,-0.0785945,0.001007,-0.0014275000000000052,0.0785945,-0.0010069999999999999,0.0014274999999999982,-0.13673249999999998,-0.482237,-0.0071995000000000045,0.12848749999999998,-0.519947,0.0457345,-0.1469225,-0.869857,0.014723499999999997,0.14369749999999998,-0.915527,0.0368945
23,-0.016264999999999998,0.7776285,0.1065845,-0.171279,0.5820784999999999,0.0826085,-0.23590899999999998,0.8510785,0.00033650000000000346,0.169151,0.5706185,0.1080945,0.280991,0.8013285,0.0678815,-0.21903899999999998,1.1317285000000001,-0.0455845,0.299911,1.0443285,-0.009785499999999996,-0.07866300000000001,0.0011515,-0.0015364999999999962,0.07866300000000001,-0.0011515,0.0015365000000000031,-0.13696899999999998,-0.4825715,-0.006929499999999998,0.128441,-0.5200315,0.045942500000000004,-0.14704899999999999,-0.8693915,0.014905500000000002,0.143601,-0.9151815,0.0369125
24,-0.015771999999999998,0.77773,0.1067295,-0.171336,0.58233,0.0822775,-0.23588599999999998,0.85104,-0.0001465000000000008,0.169414,0.57104,0.1082325,0.28117400000000004,0.80174,0.0677655,-0.219136,1.13221,-0.046506500000000006,0.300284,1.0447099999999998,-0.009757500000000002,-0.078722,0.001318,-0.001640500000000003,0.078722,-0.001318,0.001640500000000003,-0.137176,-0.48289,-0.006657500000000004,0.128444,-0.52013,0.0460515,-0.147166,-0.86891,0.0150005,0.143494,-0.91492,0.0369565
25,-0.015293000000000005,0.7778809999999999,0.1068315,-0.171346,0.5825309999999999,0.0819415,-0.235826,0.8508709999999999,-0.0006805000000000005,0.169614,0.5716509999999999,0.1083605,0.281354,0.8022309999999999,0.0676545,-0.219316,1.133011,-0.04738150000000001,0.300654,1.045111,-0.009705499999999999,-0.078763,0.0014910000000000001,-0.001746499999999998,0.078763,-0.0014910000000000001,0.001746499999999998,-0.137396,-0.484169,-0.006464500000000005,0.128504,-0.520209,0.0461825,-0.147256,-0.868109,0.015096499999999999,0.143354,-0.9140290000000001,0.0370235
26,-0.014838999999999998,0.778073,0.106884,-0.17133800000000002,0.582673,0.081628,-0.235798,0.8508129999999999,-0.0013039999999999996,0.16983199999999998,0.5723929999999999,0.10786799999999999,0.281482,0.802713,0.067539,-0.219558,1.1337030000000001,-0.048181999999999996,0.30098199999999997,1.045603,-0.009662999999999998,-0.07880100000000001,0.001654,-0.0018530000000000005,0.07880100000000001,-0.0016539999999999999,0.0018530000000000005,-0.137668,-0.483857,-0.006388999999999999,0.128462,-0.520337,0.046303000000000004,-0.147298,-0.8665470000000001,0.015199,0.143172,-0.9131370000000001,0.037162
27,-0.014450000000000003,0.7782690000000001,0.107077,-0.1713,0.5827690000000001,0.081196,-0.2357,0.850879,-0.0020899999999999946,0.17007,0.5730390000000001,0.107501,0.28158,0.803169,0.067426,-0.21978,1.1342590000000001,-0.048944,0.30127,1.045959,-0.009620999999999998,-0.07882800000000001,0.0018,-0.0019609999999999975,0.07882800000000001,-0.0018,0.0019610000000000044,-0.13792,-0.484121,-0.006326999999999999,0.12840000000000001,-0.520551,0.046457000000000005,-0.1474,-0.865211,0.015378000000000003,0.14309,-0.912511,0.037012
28,-0.014103499999999996,0.778533,0.10728349999999999,-0.17131049999999998,0.582963,0.08085149999999999,-0.2355805,0.850933,-0.002965500000000003,0.1702095,0.5736030000000001,0.1070125,0.2816695,0.803643,0.0672915,-0.2200105,1.1348230000000001,-0.0496795,0.3014895,1.046423,-0.009616500000000007,-0.07885149999999999,0.001938,-0.002079500000000005,0.07885149999999999,-0.001938,0.002079499999999998,-0.13801049999999998,-0.484097,-0.006472500000000006,0.1283295,-0.520687,0.04661849999999999,-0.1475105,-0.8639969999999999,0.015628499999999997,0.14298950000000002,-0.911937,0.036816499999999995
29,-0.013744499999999996,0.778736,0.10749399999999999,-0.1712415,0.583046,0.080333,-0.2354315,0.8509359999999999,-0.003915000000000002,0.1701985,0.574156,0.107233,0.2817485,0.804056,0.067164,-0.2202415,1.135146,-0.050450999999999996,0.3016985,1.0468460000000002,-0.009634000000000004,-0.0788705,0.002039,-0.0022059999999999996,0.0788705,-0.002039,0.0022059999999999996,-0.1381415,-0.485444,-0.006273000000000001,0.12813850000000002,-0.520814,0.046666,-0.1476115,-0.862654,0.0161,0.1427885,-0.911054,0.03646
30,-0.013358000000000002,0.778547,0.1076685,-0.171164,0.583117,0.0799415,-0.235184,0.850807,-0.0049405000000000004,0.170226,0.574527,0.1074075,0.281836,0.804317,0.0670375,-0.220424,1.135307,-0.051152500000000004,0.301856,1.047007,-0.009688500000000003,-0.07886699999999999,0.002,-0.002307500000000004,0.07886699999999999,-0.002,0.002307499999999997,-0.138244,-0.487273,-0.006123500000000004,0.12806599999999999,-0.520863,0.046799499999999994,-0.147724,-0.861853,0.016468499999999997,0.14263599999999999,-0.910683,0.036489499999999994
31,-0.012998,0.7783865,0.107885,-0.171048,0.5830865,0.079479,-0.23494800000000002,0.8506365,-0.005957000000000004,0.17030199999999998,0.5749164999999999,0.106991,0.281902,0.8045265,0.066949,-0.220578,1.1354065,-0.05178100000000001,0.301952,1.0472065,-0.009729000000000002,-0.07885,0.0019485000000000006,-0.0024140000000000064,0.07885,-0.0019484999999999997,0.0024139999999999995,-0.138318,-0.48684350000000004,-0.006158000000000004,0.12806199999999998,-0.5209235,0.046953999999999996,-0.14785800000000002,-0.8612535,0.016764999999999995,0.14263199999999998,-0.9105735,0.036383
32,-0.0127025,0.7782295,0.10814850000000001,-0.1709785,0.5829995,0.0789935,-0.2347685,0.8504895,-0.006915499999999998,0.1703715,0.5752095,0.1065985,0.2818915,0.8047195,0.06689350000000001,-0.2206985,1.1353795,-0.052350499999999994,0.3019915,1.0473795,-0.009708499999999995,-0.0788325,0.0018995000000000001,-0.002552499999999999,0.0788325,-0.0018995000000000001,0.002552500000000006,-0.1383985,-0.4882805,-0.005908499999999997,0.1279915,-0.5209104999999999,0.0471475,-0.1480785,-0.8605605,0.017098500000000003,0.1425215,-0.9102604999999999,0.0365455
33,-0.012478999999999999,0.778046,0.108437,-0.17092100000000002,0.582906,0.07853299999999999,-0.23461100000000001,0.8504360000000001,-0.007800000000000001,0.170409,0.5754560000000001,0.106253,0.28185899999999997,0.8048860000000001,0.06686500000000001,-0.220801,1.135426,-0.052716,0.30194899999999997,1.047526,-0.009621999999999999,-0.07880899999999999,0.0018280000000000002,-0.002721000000000001,0.07880899999999999,-0.0018279999999999998,0.002721000000000001,-0.138491,-0.48970400000000003,-0.005624999999999998,0.12797899999999998,-0.520914,0.047396,-0.148311,-0.8601139999999999,0.017367999999999998,0.14243899999999998,-0.9101539999999999,0.036379999999999996
34,-0.012315999999999997,0.7779050000000001,0.108708,-0.170875,0.582805,0.078075,-0.234465,0.850295,-0.008661000000000002,0.170395,0.575515,0.105852,0.281825,0.804965,0.066867,-0.220895,1.1354449999999998,-0.053267,0.301965,1.047645,-0.009486000000000001,-0.078815,0.0017790000000000002,-0.002898999999999999,0.078815,-0.0017790000000000002,0.002898999999999999,-0.13858499999999999,-0.49041500000000005,-0.005541000000000004,0.127905,-0.520915,0.047538,-0.148495,-0.859995,0.017691,0.14230500000000001,-0.910535,0.036217
35,-0.0122015,0.777772,0.1089605,-0.17082750000000002,0.582732,0.0776355,-0.2343475,0.8501420000000001,-0.009536499999999996,0.17031249999999998,0.575532,0.1056375,0.2817925,0.8050120000000001,0.0669105,-0.2209775,1.1354419999999998,-0.0538995,0.30202249999999997,1.047642,-0.0093605,-0.0788155,0.0017109999999999998,-0.003074500000000001,0.0788155,-0.0017109999999999998,0.003074500000000001,-0.1386675,-0.490678,-0.005447500000000001,0.12778250000000002,-0.520868,0.047704500000000004,-0.1486475,-0.8599779999999999,0.017959500000000003,0.14223249999999998,-0.9106879999999999,0.0359845
36,-0.0121135,0.777612,0.109133,-0.1708085,0.5826319999999999,0.07731199999999999,-0.2343085,0.849792,-0.010303,0.17026149999999998,0.575552,0.105302,0.2817515,0.8050419999999999,0.066963,-0.2210785,1.135432,-0.054636000000000004,0.30216149999999997,1.047732,-0.009272000000000002,-0.07882549999999999,0.001641,-0.0032370000000000038,0.07882549999999999,-0.001641,0.003236999999999997,-0.1387585,-0.49075799999999997,-0.005553000000000002,0.12766149999999998,-0.5207780000000001,0.047779999999999996,-0.1488085,-0.860068,0.018104999999999996,0.1419215,-0.910398,0.036684999999999995
37,-0.012043500000000006,0.777445,0.109258,-0.1708095,0.582505,0.076997,-0.2342895,0.849495,-0.011033000000000001,0.1701605,0.575615,0.105168,0.2817205,0.805105,0.06698,-0.2210895,1.135295,-0.05551400000000001,0.3024605,1.047695,-0.009480000000000002,-0.0788395,0.0015540000000000007,-0.003388000000000002,0.0788395,-0.0015539999999999998,0.003387999999999995,-0.1387195,-0.491025,-0.005486000000000005,0.1274505,-0.520725,0.04788,-0.1489795,-0.860005,0.018253,0.1419005,-0.910255,0.036947
38,-0.0121315,0.7774245000000001,0.10935,-0.17090349999999999,0.5824845000000001,0.07686799999999999,-0.2343335,0.8496545,-0.011661999999999999,0.17004650000000002,0.5756645,0.10498,0.28159649999999997,0.8051345,0.066996,-0.22110349999999998,1.1352745,-0.056452999999999996,0.3026065,1.0477745,-0.009743999999999996,-0.0788545,0.0015335000000000001,-0.0035250000000000004,0.0788545,-0.0015335000000000001,0.0035250000000000004,-0.1386435,-0.4894955,-0.005755999999999997,0.1274265,-0.5206855,0.047909,-0.1490235,-0.8601555,0.01821,0.1419365,-0.9100955,0.037115
39,-0.012250999999999998,0.7774085000000001,0.10943900000000001,-0.171011,0.5824685000000001,0.076684,-0.234411,0.8498885,-0.012138999999999997,0.169939,0.5757285,0.104812,0.281469,0.8051285,0.067016,-0.221121,1.1352585,-0.05739999999999999,0.302759,1.0477585,-0.009985,-0.078876,0.0015175000000000006,-0.0036549999999999985,0.078876,-0.0015174999999999998,0.0036550000000000055,-0.138591,-0.4878115,-0.006054999999999998,0.127329,-0.5207015,0.048046000000000005,-0.149091,-0.8601715,0.018243000000000002,0.14193899999999998,-0.9099415,0.037514000000000006
40,-0.012258500000000002,0.7773990000000001,0.10953750000000001,-0.17111549999999998,0.5824590000000001,0.0765705,-0.2344655,0.850139,-0.012639499999999998,0.1697845,0.575809,0.1047565,0.2813545,0.805119,0.0670195,-0.22111550000000002,1.135249,-0.0584975,0.3029145,1.047849,-0.0102555,-0.0788975,0.0015079999999999998,-0.003790500000000002,0.0788975,-0.0015080000000000007,0.003790500000000002,-0.1384955,-0.485761,-0.006342500000000001,0.12724449999999998,-0.520501,0.0481145,-0.14912550000000002,-0.860181,0.0182055,0.14188450000000002,-0.909221,0.0380015
41,-0.012234499999999999,0.776928,0.109532,-0.1712645,0.582268,0.076226,-0.2346745,0.849338,-0.013488,0.1695255,0.575698,0.104689,0.2811955,0.805218,0.066689,-0.22130450000000002,1.134848,-0.060175000000000006,0.3031455,1.047848,-0.010893,-0.0789215,0.0013939999999999998,-0.0038960000000000036,0.0789215,-0.0013940000000000003,0.0038959999999999967,-0.1383545,-0.486012,-0.006303000000000003,0.12726549999999998,-0.520412,0.048165,-0.14931450000000002,-0.861282,0.018274,0.1418955,-0.909592,0.038374
42,-0.012178499999999997,0.776755,0.1093365,-0.1714455,0.582065,0.0758365,-0.2349255,0.848375,-0.014335500000000001,0.16926449999999998,0.575615,0.10417950000000001,0.2810345,0.805285,0.0663335,-0.22152550000000001,1.134525,-0.061926499999999995,0.3033845,1.047925,-0.011561499999999995,-0.0789505,0.0013190000000000003,-0.003974499999999999,0.0789505,-0.0013189999999999999,0.003974499999999999,-0.13818550000000002,-0.485155,-0.006432500000000001,0.1273245,-0.520365,0.0481965,-0.1494755,-0.862265,0.0183655,0.1418745,-0.909785,0.0389945
43,-0.012091000000000001,0.7764335,0.109146,-0.171629,0.5818835,0.075444,-0.235129,0.8474535000000001,-0.015153,0.168961,0.5753735000000001,0.10400000000000001,0.28091099999999997,0.8053435,0.065973,-0.22173900000000002,1.1340735,-0.06354,0.303581,1.0479735000000001,-0.012222999999999998,-0.07896,0.0012675,-0.004062999999999997,0.07896,-0.0012675,0.004062999999999997,-0.137999,-0.48420650000000004,-0.006603999999999999,0.127241,-0.5203665,0.048346,-0.149599,-0.8631565,0.018456,0.141731,-0.9098164999999999,0.038981
44,-0.011986500000000004,0.7762065,0.1089055,-0.17180250000000002,0.5817765,0.07501050000000001,-0.23535250000000002,0.8466065,-0.015849499999999996,0.1686075,0.5750165,0.1040535,0.2807675,0.8054265,0.06560250000000001,-0.22192250000000002,1.1336465,-0.06511549999999999,0.3037275,1.0479465,-0.012878500000000001,-0.0789665,0.0012295,-0.004166499999999997,0.0789665,-0.0012295000000000001,0.0041665000000000035,-0.13777250000000002,-0.4817935,-0.007053499999999997,0.1271375,-0.5203135,0.0486595,-0.1497225,-0.8638035,0.018535500000000003,0.1418875,-0.9113834999999999,0.039420500000000004
45,-0.011856499999999997,0.7760175,0.108629,-0.17195749999999999,0.5817975,0.074562,-0.23556749999999999,0.8458875,-0.016505,0.1682925,0.5747475,0.103931,0.2806425,0.8055475,0.06522700000000001,-0.2220375,1.1331475,-0.066556,0.30386250000000004,1.0480475,-0.01353,-0.0789615,0.0011975,-0.004282000000000001,0.0789615,-0.0011975,0.004282000000000001,-0.13780749999999997,-0.48259250000000004,-0.007161999999999995,0.12701250000000003,-0.5203425,0.048721,-0.14974749999999998,-0.8639325,0.018857000000000002,0.14215250000000001,-0.9121325,0.039076
46,-0.011719,0.775634,0.108331,-0.172093,0.581844,0.074114,-0.235703,0.845384,-0.017864000000000005,0.16795700000000002,0.574504,0.10372,0.28052699999999997,0.805614,0.064886,-0.22212300000000001,1.132504,-0.067877,0.304027,1.048104,-0.013989000000000001,-0.078968,0.001155,-0.004368000000000004,0.078968,-0.001155,0.004367999999999997,-0.137573,-0.480666,-0.007442000000000004,0.12689699999999998,-0.520336,0.048792999999999996,-0.149783,-0.864046,0.019243999999999997,0.14231699999999997,-0.912536,0.039117
47,-0.011595999999999997,0.775347,0.108013,-0.17223499999999997,0.581917,0.073647,-0.235985,0.844867,-0.019239000000000006,0.167655,0.574357,0.103433,0.28041499999999997,0.805697,0.06451,-0.222215,1.131987,-0.06925,0.304205,1.048087,-0.014436999999999998,-0.078962,0.001144,-0.004430000000000003,0.078962,-0.001144,0.0044299999999999964,-0.13749499999999998,-0.479393,-0.007579000000000002,0.126795,-0.520363,0.048825,-0.14982499999999999,-0.864353,0.019558,0.14249499999999998,-0.9128930000000001,0.039194
48,-0.011509,0.7750670000000001,0.107667,-0.172376,0.581977,0.073191,-0.236296,0.844537,-0.020636,0.16736399999999999,0.574217,0.103118,0.280314,0.805767,0.064103,-0.222216,1.131657,-0.070838,0.304404,1.0479569999999998,-0.015019999999999999,-0.078956,0.001128,-0.004491000000000002,0.078956,-0.001128,0.004491000000000002,-0.137516,-0.479433,-0.0077020000000000005,0.126574,-0.520303,0.04866,-0.14977600000000002,-0.864833,0.019648,0.14266399999999999,-0.913353,0.039265
49,-0.011446000000000003,0.774792,0.1072605,-0.172521,0.5820620000000001,0.0726855,-0.236611,0.844172,-0.021987500000000007,0.167179,0.574052,0.1027115,0.280249,0.8058420000000001,0.0636515,-0.222201,1.131392,-0.07262450000000001,0.304499,1.047792,-0.015711500000000003,-0.078951,0.0011219999999999997,-0.004532500000000002,0.078951,-0.0011219999999999997,0.004532499999999995,-0.137561,-0.480588,-0.007718500000000003,0.126329,-0.520478,0.0486065,-0.149731,-0.8653179999999999,0.019589499999999996,0.14263900000000002,-0.9134779999999999,0.039813499999999995
50,-0.011398999999999998,0.7749524999999999,0.107018,-0.17259,0.5823225,0.072438,-0.23678,0.8441525,-0.023022,0.16714,0.5742425,0.102354,0.28024,0.8058225,0.063461,-0.22207,1.1316725,-0.07406299999999999,0.30457,1.0477725,-0.016172,-0.078944,0.0011415000000000002,-0.004576999999999998,0.078944,-0.0011415000000000002,0.004577000000000005,-0.13762,-0.4807175,-0.007737999999999995,0.12616,-0.5200975,0.048535,-0.14969,-0.8652175,0.019565000000000003,0.1426,-0.9130275,0.04020000000000001
51,-0.011351499999999999,0.7750815,0.10673750000000001,-0.1725785,0.5825315,0.07219350000000001,-0.2369085,0.8441514999999999,-0.024138499999999993,0.16705150000000002,0.5742415,0.1020905,0.2802515,0.8058215,0.0631855,-0.2218685,1.1317715000000002,-0.07600849999999999,0.3046715,1.0477715,-0.016887499999999993,-0.07895250000000001,0.0011425000000000003,-0.004632499999999998,0.07895250000000001,-0.0011424999999999994,0.004632500000000005,-0.1375085,-0.4789285,-0.007961499999999996,0.12600150000000002,-0.5197385,0.0485435,-0.1496285,-0.8650685,0.019618500000000004,0.14271150000000002,-0.9124585000000001,0.039886500000000005
52,-0.0112875,0.7751925000000001,0.1064175,-0.1725765,0.5827225,0.0719515,-0.2369865,0.8441425,-0.025326500000000002,0.1670035,0.5742925,0.1016765,0.28027349999999995,0.8058125,0.0628645,-0.2216665,1.1317625,-0.0779915,0.3048035,1.0477625,-0.0177555,-0.0789605,0.0011514999999999997,-0.004705500000000001,0.0789605,-0.0011514999999999997,0.004705500000000001,-0.1374065,-0.4775775,-0.008047499999999999,0.1260435,-0.5193875,0.0485915,-0.1495065,-0.8650774999999999,0.0195605,0.1427735,-0.9119075,0.0400505
53,-0.011157000000000002,0.7752870000000001,0.10597899999999999,-0.17260599999999998,0.5830770000000001,0.071629,-0.237076,0.844087,-0.026602,0.166964,0.574377,0.10131899999999999,0.28039400000000003,0.805857,0.06238199999999999,-0.22133599999999998,1.1316570000000001,-0.080114,0.305174,1.047557,-0.018738000000000005,-0.079004,0.0012300000000000002,-0.004815000000000007,0.079004,-0.0012299999999999998,0.004815,-0.137446,-0.47807299999999997,-0.008144000000000005,0.125884,-0.519193,0.048586,-0.149536,-0.864983,0.019417999999999998,0.142644,-0.912203,0.03992999999999999
54,-0.011081000000000004,0.775259,0.1054805,-0.17263900000000001,0.583319,0.0712135,-0.237219,0.8439490000000001,-0.027916499999999997,0.16683099999999998,0.574329,0.1011665,0.280501,0.805919,0.061824500000000004,-0.22106900000000002,1.131549,-0.08231749999999999,0.30546100000000004,1.047349,-0.0199415,-0.07904800000000001,0.0013220000000000003,-0.004927499999999994,0.07904800000000001,-0.0013219999999999998,0.004927500000000001,-0.137439,-0.478411,-0.008291499999999993,0.125821,-0.519411,0.048565500000000004,-0.149559,-0.864681,0.019240500000000004,0.142621,-0.912551,0.039712500000000005
55,-0.010995500000000004,0.7753535,0.104941,-0.1726455,0.5835935,0.070737,-0.2374055,0.8438235000000001,-0.028560999999999996,0.1667545,0.5743535000000001,0.10090299999999999,0.2806545,0.8060335000000001,0.061214000000000005,-0.2207555,1.1314635,-0.08463400000000001,0.3057745,1.0471635,-0.021258999999999993,-0.0790945,0.0014305000000000003,-0.0050079999999999986,0.0790945,-0.0014305,0.0050079999999999986,-0.1374455,-0.47852649999999997,-0.008570999999999995,0.1257845,-0.5193765,0.048473,-0.1495655,-0.8646564999999999,0.019024000000000003,0.14256449999999998,-0.9130165,0.039415000000000006
56,-0.010891000000000007,0.7754044999999999,0.10430500000000001,-0.17264100000000002,0.5838745,0.070166,-0.23739100000000002,0.8436545,-0.02929699999999999,0.166679,0.5744345,0.100574,0.28081900000000004,0.8061444999999999,0.060515,-0.220451,1.1313845,-0.08693100000000001,0.306089,1.0469845,-0.022731,-0.079145,0.0015515,-0.0051079999999999945,0.079145,-0.0015515000000000004,0.005108000000000001,-0.137661,-0.4803855,-0.008687999999999994,0.12577899999999997,-0.5192255,0.048216,-0.149351,-0.8649855000000001,0.018534000000000002,0.14259899999999998,-0.9133755,0.038952
57,-0.010744999999999998,0.7754935,0.103657,-0.172692,0.5841835,0.069563,-0.237342,0.8434235,-0.03009400000000001,0.166618,0.5745635,0.10023399999999999,0.281008,0.8063035,0.059763,-0.22015200000000001,1.1312435,-0.089053,0.306368,1.0468435,-0.024175000000000002,-0.079184,0.0016765,-0.005223000000000005,0.079184,-0.0016765,0.0052229999999999985,-0.137612,-0.4802265,-0.009043000000000002,0.12578799999999998,-0.5186965,0.047903999999999995,-0.149012,-0.8653065,0.017943999999999998,0.142628,-0.9135965,0.038519
58,-0.010588000000000002,0.775705,0.102987,-0.17272500000000002,0.5844550000000001,0.068962,-0.237315,0.842755,-0.030703,0.16668499999999997,0.574775,0.099549,0.281215,0.806435,0.058986,-0.219885,1.130575,-0.090978,0.306655,1.046675,-0.025671999999999993,-0.079224,0.0017829999999999999,-0.005354999999999999,0.079224,-0.0017830000000000003,0.005354999999999999,-0.137515,-0.48018500000000003,-0.009585999999999997,0.125965,-0.518195,0.047517000000000004,-0.148675,-0.865525,0.017323,0.14271499999999998,-0.914095,0.038354
59,-0.010458999999999998,0.7757805,0.1022785,-0.17273100000000002,0.5845905,0.06832350000000001,-0.237261,0.8421805,-0.031745499999999996,0.166769,0.5750204999999999,0.0989265,0.281389,0.8065405,0.0581985,-0.21963100000000002,1.1299105,-0.0927775,0.306919,1.0465105000000001,-0.027177499999999993,-0.07926,0.0018275000000000001,-0.005481499999999993,0.07926,-0.0018275000000000001,0.0054815,-0.13743099999999997,-0.4800495,-0.010195499999999996,0.126089,-0.5180495,0.0469945,-0.14826099999999998,-0.8657295,0.016716500000000002,0.14275900000000002,-0.9140995000000001,0.038048500000000006
60,-0.010326,0.775842,0.1015495,-0.172713,0.5847220000000001,0.0676325,-0.237203,0.8415220000000001,-0.0328425,0.166877,0.5752320000000001,0.09824450000000001,0.281557,0.806632,0.057369500000000004,-0.21942299999999998,1.129342,-0.09422149999999999,0.307157,1.046442,-0.0286555,-0.07930400000000001,0.001859,-0.005596499999999997,0.07930400000000001,-0.001859,0.005596500000000004,-0.13705299999999998,-0.477928,-0.011389499999999997,0.126227,-0.517898,0.0464395,-0.147893,-0.8658779999999999,0.0162055,0.14272700000000002,-0.9140079999999999,0.0378545
61,-0.010180500000000006,0.7759940000000001,0.10077050000000001,-0.17269150000000003,0.5848340000000001,0.0668895,-0.23716150000000003,0.840784,-0.03391949999999999,0.1669385,0.5754440000000001,0.09757850000000001,0.2817385,0.806744,0.0565355,-0.2191615,1.128784,-0.09579750000000001,0.30741850000000004,1.046384,-0.0301415,-0.07935249999999999,0.001865,-0.0057334999999999955,0.07935249999999999,-0.0018650000000000001,0.0057335000000000025,-0.13686150000000002,-0.479606,-0.0122185,0.1263385,-0.517756,0.045866500000000004,-0.1475215,-0.866036,0.015700500000000003,0.14267849999999999,-0.913976,0.0376215
62,-0.009995000000000004,0.7761480000000001,0.100016,-0.172583,0.584938,0.066046,-0.237063,0.840078,-0.03505,0.167037,0.575628,0.096938,0.281987,0.806858,0.055641,-0.218813,1.1282379999999999,-0.09759100000000001,0.307737,1.0460379999999998,-0.031818,-0.079378,0.0018700000000000001,-0.005866999999999997,0.079378,-0.0018700000000000001,0.005867000000000004,-0.136603,-0.481472,-0.013148,0.126477,-0.517602,0.045269000000000004,-0.14710299999999998,-0.866302,0.01516,0.142677,-0.913942,0.037347000000000005
63,-0.009778500000000004,0.7762724999999999,0.09916900000000001,-0.1724855,0.5850124999999999,0.065235,-0.2369655,0.8393824999999999,-0.036235,0.1671045,0.5758025,0.096277,0.2822745,0.8068825,0.054648999999999996,-0.2183655,1.1273925,-0.099737,0.3080645,1.0455925,-0.033608,-0.0793995,0.0018754999999999996,-0.005988,0.0793995,-0.0018755,0.005988,-0.1363355,-0.4824475,-0.014442000000000003,0.1265945,-0.5178275,0.044794,-0.14667550000000001,-0.8665575000000001,0.014594999999999997,0.14272449999999998,-0.9135075,0.036941
64,-0.009525000000000002,0.7762925,0.098244,-0.172341,0.5850425,0.06437999999999999,-0.236861,0.8387525,-0.037731,0.16711900000000002,0.5758825,0.09559100000000001,0.282649,0.8068225,0.053515,-0.21790099999999998,1.1266524999999998,-0.10231499999999999,0.308419,1.0449525,-0.035622,-0.079405,0.0018495,-0.006107000000000001,0.079405,-0.0018495,0.006107000000000001,-0.136041,-0.48310749999999997,-0.016315999999999997,0.126679,-0.5180675,0.044109,-0.146111,-0.8669775,0.013971999999999998,0.14291900000000002,-0.9135274999999999,0.036328
65,-0.009226999999999994,0.7762420000000001,0.09714600000000001,-0.17214000000000002,0.585122,0.06342300000000001,-0.23686000000000001,0.8382620000000001,-0.03958199999999999,0.16715000000000002,0.575972,0.094922,0.28317000000000003,0.8066420000000001,0.052160000000000005,-0.21749999999999997,1.125972,-0.10543499999999999,0.30892000000000003,1.0441719999999999,-0.03797199999999999,-0.079415,0.0017690000000000002,-0.006171999999999997,0.079415,-0.001769,0.006172000000000004,-0.13565,-0.483838,-0.018706,0.12680000000000002,-0.5182979999999999,0.043262,-0.14559,-0.867408,0.013403000000000002,0.14311000000000001,-0.913508,0.035762
66,-0.008929,0.7762785,0.0957585,-0.171886,0.5854284999999999,0.062198500000000004,-0.23691600000000002,0.8380285,-0.04176049999999999,0.167264,0.5763685,0.0940145,0.283784,0.8063984999999999,0.050447500000000006,-0.217056,1.1252685,-0.10934649999999999,0.309574,1.0432685000000002,-0.0407695,-0.079434,0.0017104999999999998,-0.0061825000000000005,0.079434,-0.0017104999999999998,0.0061825000000000005,-0.135316,-0.4862815,-0.021240499999999995,0.12698399999999999,-0.5188115000000001,0.0419285,-0.14505600000000002,-0.8677815000000001,0.012725500000000004,0.143344,-0.9132015,0.0350625
67,-0.008608,0.7765115,0.0941495,-0.17154,0.5858715,0.060676499999999994,-0.23697,0.8379715,-0.04433050000000001,0.16736,0.5768515,0.0929685,0.28445,0.8061615,0.0483845,-0.21656,1.1251715,-0.11375850000000001,0.31037000000000003,1.0422715,-0.04387350000000001,-0.079481,0.0017025,-0.0061945000000000056,0.079481,-0.0017025,0.006194499999999999,-0.13492,-0.4877785,-0.02415450000000001,0.12719,-0.5184785000000001,0.04004049999999999,-0.14448,-0.8681785000000001,0.012032499999999995,0.14365,-0.9125985,0.0343215
68,-0.008243499999999999,0.7767875,0.09239900000000001,-0.1710805,0.5861474999999999,0.058906,-0.23698049999999998,0.8379175,-0.047195,0.1674895,0.5773275,0.09188199999999999,0.28523950000000003,0.8058074999999999,0.046119,-0.21597049999999998,1.1247075,-0.11878299999999999,0.3113595,1.0412075,-0.047276,-0.0795855,0.0017125,-0.006204999999999995,0.0795855,-0.0017125,0.006205000000000002,-0.1344805,-0.4886025,-0.027397000000000005,0.12741950000000002,-0.5182825000000001,0.037704,-0.1439005,-0.8684925,0.011166000000000002,0.1441395,-0.9116925,0.033128000000000005
69,-0.0076919999999999975,0.777051,0.09042649999999999,-0.17047199999999998,0.586371,0.056999499999999995,-0.236682,0.8378410000000001,-0.0504465,0.167888,0.577841,0.0907695,0.28614799999999996,0.805211,0.0435445,-0.214942,1.124141,-0.12425449999999999,0.31262799999999996,1.039941,-0.050896500000000004,-0.07972699999999999,0.001615,-0.0062095,0.07972699999999999,-0.001615,0.0062095,-0.134042,-0.489199,-0.0303135,0.127678,-0.518319,0.0348675,-0.143592,-0.868959,0.0101585,0.14441800000000002,-0.911119,0.0321185
70,-0.007128500000000001,0.7773715,0.088267,-0.1698465,0.5861115,0.054733,-0.23637650000000002,0.8378015000000001,-0.05408600000000001,0.16829349999999998,0.5783615000000001,0.089711,0.2870835,0.8044915,0.040770999999999995,-0.21392650000000002,1.1232315,-0.130183,0.3139635,1.0387315,-0.054776000000000005,-0.07992750000000001,0.0015235000000000001,-0.006206000000000003,0.07992750000000001,-0.0015235000000000001,0.006205999999999996,-0.1334765,-0.4908485,-0.03375500000000001,0.1280335,-0.5181884999999999,0.031062999999999997,-0.1433165,-0.8694385,0.009240999999999996,0.14470349999999998,-0.9103384999999999,0.031096999999999996
71,-0.006506999999999999,0.7776145,0.08582100000000001,-0.16922,0.5860945000000001,0.052478000000000004,-0.23604,0.8378745,-0.058052999999999993,0.16871,0.5790145,0.08848,0.28798999999999997,0.8038245,0.037904,-0.21294000000000002,1.1223845,-0.136182,0.31535,1.0376845,-0.058872999999999995,-0.08013500000000001,0.0013865000000000001,-0.006162999999999995,0.08013500000000001,-0.0013865000000000001,0.006163000000000002,-0.13287,-0.4898955,-0.037579,0.12843,-0.5180255,0.026890000000000004,-0.14301,-0.8696155,0.008141000000000002,0.14498,-0.9092655,0.029952000000000003
72,-0.005805500000000002,0.7778005,0.08316899999999999,-0.16858050000000002,0.5860805,0.050162,-0.23559049999999998,0.8379004999999999,-0.062332,0.16922949999999998,0.5797005,0.087133,0.2892095,0.8030905,0.034871,-0.21189049999999998,1.1214605,-0.14234,0.3171095,1.0366605,-0.062873,-0.0803775,0.0012954999999999998,-0.0061319999999999986,0.0803775,-0.0012955000000000002,0.006132000000000002,-0.1325305,-0.4909195,-0.041715,0.12886950000000003,-0.5175995,0.022252,-0.14266050000000002,-0.8697395,0.006991000000000001,0.1449295,-0.9080595,0.028713000000000002
73,-0.005115999999999997,0.77775,0.0800945,-0.167924,0.5861200000000001,0.0477835,-0.23502399999999998,0.83767,-0.0667365,0.169656,0.5804,0.0856895,0.290406,0.80227,0.0315345,-0.21082399999999998,1.1197300000000001,-0.1485765,0.318876,1.03553,-0.0672865,-0.080646,0.001262,-0.006099500000000001,0.080646,-0.001262,0.006099500000000001,-0.132384,-0.48975,-0.045753499999999996,0.12943600000000002,-0.51716,0.0171585,-0.142334,-0.86979,0.005917500000000003,0.14500600000000002,-0.90669,0.0274195
74,-0.004421499999999994,0.7777595,0.07707,-0.1673845,0.5860695,0.045321,-0.2343545,0.8372495,-0.071033,0.17007550000000002,0.5810195,0.084147,0.2914755,0.8014895,0.028169,-0.2098245,1.1179895,-0.154433,0.3205555,1.0344895,-0.071583,-0.0809075,0.0012365000000000002,-0.006061999999999998,0.0809075,-0.0012364999999999998,0.006062000000000001,-0.1322445,-0.4885905,-0.049495,0.13011550000000002,-0.5166904999999999,0.011925999999999999,-0.14192449999999998,-0.8698205,0.004676,0.14509550000000002,-0.9055305,0.025798
75,-0.0038065000000000035,0.7777864999999999,0.07391049999999999,-0.16691450000000002,0.5858464999999999,0.0430405,-0.23376450000000001,0.8346365,-0.0752805,0.17037549999999999,0.5813864999999999,0.0825415,0.2924355,0.8009965,0.0248935,-0.20901450000000002,1.1156964999999999,-0.15991049999999998,0.3221255,1.0335965,-0.0759705,-0.0811325,0.0011124999999999998,-0.006005499999999997,0.0811325,-0.0011124999999999998,0.0060055,-0.13213450000000002,-0.48748349999999996,-0.0540275,0.13087549999999998,-0.5160335,0.006592500000000001,-0.1414545,-0.8696535000000001,0.0033495000000000018,0.1450755,-0.9042235000000001,0.0244425
76,-0.003339000000000001,0.7776504999999999,0.0706795,-0.166551,0.5856205,0.0407445,-0.233211,0.8315005,-0.07962250000000001,0.17055900000000002,0.5813805,0.0808145,0.293259,0.8005104999999999,0.0216555,-0.208331,1.1129205,-0.1651225,0.32349900000000004,1.0327205000000002,-0.0803825,-0.08126,0.0009785000000000002,-0.0059535000000000005,0.08126,-0.0009785000000000002,0.0059535000000000005,-0.132141,-0.4859295,-0.0589025,0.131569,-0.5151895000000001,0.0013884999999999974,-0.14125100000000002,-0.8693895,0.0019644999999999975,0.144959,-0.9028995000000001,0.023274499999999997
77,-0.003010000000000003,0.7773019999999999,0.06730549999999999,-0.1663,0.585162,0.038315499999999995,-0.23279,0.828552,-0.08364650000000001,0.17059999999999997,0.581162,0.07907349999999999,0.29399000000000003,0.800162,0.018293499999999997,-0.20789000000000002,1.110272,-0.1699365,0.3247,1.031672,-0.08495649999999999,-0.081333,0.0008929999999999997,-0.005933500000000001,0.081333,-0.0008929999999999997,0.005933499999999998,-0.1323,-0.485008,-0.06375050000000002,0.13212000000000002,-0.513918,-0.003672500000000002,-0.14121,-0.868848,0.0006324999999999976,0.14473999999999998,-0.901398,0.0219455
78,-0.002790499999999996,0.7767275,0.06392500000000001,-0.1661345,0.5847374999999999,0.035727,-0.2323545,0.8256374999999999,-0.087324,0.17062549999999999,0.5809074999999999,0.077346,0.2946455,0.8000575,0.015033000000000001,-0.2076145,1.1076875,-0.174334,0.3257655,1.0307875,-0.089324,-0.08145150000000001,0.0009134999999999994,-0.006003000000000001,0.08145150000000001,-0.0009135000000000011,0.006003000000000001,-0.13246449999999999,-0.4823125,-0.068628,0.1326355,-0.5118625,-0.00859,-0.1413345,-0.8679425000000001,-0.0006349999999999967,0.1442455,-0.8999025,0.020747
79,-0.0026519999999999964,0.7762535,0.060537,-0.166276,0.5848335,0.033205,-0.23208600000000001,0.8227335,-0.09070999999999999,0.170604,0.5805935,0.075488,0.29521400000000003,0.8003535,0.01173,-0.207486,1.1053135,-0.17848,0.326674,1.0301135000000001,-0.09361,-0.081627,0.0008595000000000009,-0.006150999999999997,0.081627,-0.0008594999999999992,0.006151,-0.132806,-0.47929649999999996,-0.07325000000000001,0.133124,-0.5098064999999999,-0.012968,-0.141686,-0.8662865,-0.0019640000000000005,0.143904,-0.8980665,0.019513000000000003
80,-0.002629000000000001,0.776069,0.0574735,-0.166542,0.584789,0.030786499999999998,-0.232012,0.819979,-0.0938885,0.17043799999999998,0.5803389999999999,0.07377149999999999,0.29571800000000004,0.800689,0.0084015,-0.20739200000000002,1.103119,-0.1825485,0.32746800000000004,1.029619,-0.09771850000000001,-0.08185999999999999,0.0008140000000000005,-0.006377500000000001,0.08185999999999999,-0.0008140000000000005,0.006377499999999998,-0.133242,-0.476521,-0.0776585,0.133688,-0.507171,-0.0175125,-0.14211200000000002,-0.864411,-0.0032365000000000033,0.143198,-0.895951,0.0183895
81,-0.0026440000000000014,0.77549,0.0543745,-0.166794,0.58505,0.0284285,-0.231904,0.81726,-0.09690050000000001,0.170236,0.57943,0.0720445,0.295966,0.80131,0.0051074999999999975,-0.207334,1.1009,-0.18636049999999998,0.327856,1.0293,-0.1018205,-0.082107,0.0007649999999999983,-0.006614499999999999,0.082107,-0.0007650000000000018,0.006614499999999999,-0.133304,-0.47367,-0.0830405,0.134346,-0.50428,-0.0225235,-0.142344,-0.86231,-0.004530500000000003,0.142876,-0.89375,0.017426499999999998
82,-0.002701999999999998,0.7751444999999999,0.0516335,-0.16706500000000002,0.5855944999999999,0.026120499999999998,-0.23179499999999997,0.8148145,-0.0997325,0.170055,0.5782944999999999,0.07037650000000001,0.296255,0.8020744999999999,0.0017774999999999978,-0.207335,1.0980345,-0.19019250000000001,0.328205,1.0291345,-0.1054425,-0.082373,0.0006984999999999977,-0.006888499999999999,0.082373,-0.0006985000000000012,0.006888499999999999,-0.13322499999999998,-0.4705855,-0.0885625,0.135075,-0.5015555,-0.027243500000000004,-0.14254499999999998,-0.8598455,-0.005778499999999999,0.14280500000000002,-0.8915255000000001,0.016274499999999997
83,-0.0028719999999999943,0.7750245,0.048766500000000004,-0.1674,0.5864845,0.023984500000000002,-0.23174999999999998,0.8128245,-0.10256049999999999,0.16986,0.5770145,0.0687165,0.29647,0.8033145,-0.0015224999999999995,-0.2074,1.0952145,-0.1941605,0.32855,1.0297145,-0.1091205,-0.082607,0.0005514999999999999,-0.007178500000000001,0.082607,-0.0005514999999999999,0.007178500000000001,-0.13321,-0.4677655,-0.09402049999999999,0.13572,-0.4981455,-0.0321815,-0.14257,-0.8568155,-0.008039500000000002,0.14268,-0.8888455,0.014969500000000002
84,-0.0032985,0.7744295,0.0460695,-0.1677975,0.5872895,0.0219685,-0.2321975,0.8129095000000001,-0.1054845,0.16946250000000002,0.5758795,0.0671885,0.2966825,0.8041995000000001,-0.0047754999999999985,-0.2080075,1.0928594999999999,-0.1980345,0.3289225,1.0297595,-0.1124345,-0.0828375,0.0004945000000000019,-0.007502499999999999,0.0828375,-0.0004944999999999984,0.007502499999999999,-0.1332175,-0.46489050000000004,-0.09864450000000001,0.13645249999999998,-0.4944405,-0.03693049999999999,-0.1427075,-0.8538705,-0.010074500000000004,0.1426925,-0.8863605,0.0133055
85,-0.003727000000000001,0.7736329999999999,0.043398,-0.168323,0.587633,0.020196,-0.232903,0.8138029999999999,-0.10860700000000001,0.169067,0.574863,0.06582199999999999,0.296877,0.805133,-0.008163000000000004,-0.20872300000000002,1.090603,-0.201947,0.329287,1.029963,-0.115477,-0.083013,0.0004060000000000001,-0.007768999999999998,0.083013,-0.00040599999999999664,0.007768999999999998,-0.133253,-0.461347,-0.10302700000000001,0.137047,-0.490527,-0.041537000000000004,-0.142883,-0.850927,-0.012118000000000004,0.142677,-0.883637,0.011548999999999999
86,-0.004273500000000002,0.7732915,0.040448000000000005,-0.1691695,0.5859715000000001,0.017459000000000002,-0.2336895,0.8139315,-0.112339,0.1686405,0.5742515,0.064077,0.2969805,0.8056515000000001,-0.011493999999999997,-0.2096995,1.0888315,-0.20645899999999998,0.3295805,1.0306215,-0.11851899999999999,-0.0832475,0.00017149999999999804,-0.007944,0.0832475,-0.00017149999999999804,0.007944000000000003,-0.1333195,-0.4572185,-0.107429,0.13746049999999999,-0.4866685,-0.046324,-0.1430495,-0.8478085,-0.014710999999999995,0.1423505,-0.8802684999999999,0.010066000000000002
87,-0.004771000000000001,0.773319,0.037593999999999995,-0.17005,0.5840489999999999,0.014720999999999998,-0.23444,0.814039,-0.11614900000000002,0.16827999999999999,0.5737089999999999,0.062276,0.29721,0.805809,-0.014827,-0.21100000000000002,1.087089,-0.211459,0.32989999999999997,1.029699,-0.12152900000000001,-0.083514,-0.00013699999999999823,-0.008058000000000003,0.083514,0.00013699999999999823,0.008058,-0.13337,-0.453551,-0.11178900000000001,0.13777999999999999,-0.48269100000000004,-0.051234,-0.14318,-0.8441810000000001,-0.016972,0.14204,-0.876731,0.008526999999999996
88,-0.005245999999999996,0.7734909999999999,0.0346855,-0.170762,0.581931,0.012175499999999999,-0.235242,0.814191,-0.12015050000000002,0.16802799999999998,0.573391,0.0604135,0.297678,0.805751,-0.0182135,-0.212652,1.085451,-0.2164405,0.330318,1.029331,-0.12459050000000002,-0.08383399999999999,-0.00037600000000000133,-0.008150499999999998,0.08383399999999999,0.00037600000000000133,0.008150499999999998,-0.133362,-0.449229,-0.1162505,0.137978,-0.47796900000000003,-0.0562315,-0.143282,-0.8400390000000001,-0.0193165,0.141578,-0.8725390000000001,0.006987500000000001
89,-0.005574500000000004,0.773566,0.0315775,-0.1713885,0.579806,0.0094005,-0.2359185,0.814216,-0.1244665,0.1678915,0.572866,0.0581815,0.29839150000000003,0.805116,-0.021604500000000002,-0.2143885,1.083846,-0.22152650000000002,0.3309315,1.029226,-0.12791650000000002,-0.08420949999999999,-0.0005409999999999998,-0.008182499999999999,0.08420949999999999,0.0005409999999999998,0.008182499999999999,-0.13321850000000002,-0.444694,-0.1209465,0.1381115,-0.47313399999999994,-0.06082749999999999,-0.1434985,-0.835504,-0.021639500000000002,0.1412515,-0.868204,0.005222499999999998
90,-0.005738500000000002,0.7737755,0.028072,-0.17187550000000001,0.5768854999999999,0.006065000000000001,-0.2366455,0.8141155,-0.128905,0.1677745,0.5734054999999999,0.055881,0.2992245,0.8044155,-0.025246,-0.2161455,1.0823855,-0.227015,0.3317945,1.0292955,-0.132045,-0.0845905,-0.0008375000000000049,-0.008129,0.0845905,0.000837499999999998,0.008129,-0.13319550000000002,-0.4399945,-0.124635,0.1381945,-0.4679345,-0.064967,-0.1437855,-0.8307745000000001,-0.024073,0.1410245,-0.8635745,0.002961000000000002
91,-0.005666499999999998,0.7744335,0.024086,-0.1721285,0.5738435000000001,0.0021210000000000014,-0.2373885,0.8143235000000001,-0.133717,0.1678915,0.5735735000000001,0.052462,0.30016149999999997,0.8041835,-0.02909,-0.2176685,1.0829535000000001,-0.232637,0.33291149999999997,1.0301535,-0.13692700000000002,-0.0850175,-0.0010135000000000005,-0.008059,0.0850175,0.0010135000000000005,0.008059,-0.1330885,-0.4347065,-0.128337,0.13838150000000002,-0.4621565,-0.069326,-0.14389849999999998,-0.8257764999999999,-0.027163999999999997,0.1409115,-0.8581664999999999,0.001022000000000002
92,-0.0054094999999999985,0.7750355,0.019773000000000002,-0.1721885,0.5705855,-0.002267999999999999,-0.2380485,0.8143555,-0.138687,0.1681715,0.5737855000000001,0.048527,0.30129150000000005,0.8036255000000001,-0.033421,-0.2192385,1.0836655,-0.238367,0.33408150000000003,1.0307655,-0.142127,-0.0854055,-0.0011314999999999936,-0.007864,0.0854055,0.0011315000000000075,0.007864000000000001,-0.1328685,-0.4292845,-0.132307,0.1386715,-0.45669449999999995,-0.073542,-0.1438785,-0.8208945000000001,-0.029475999999999995,0.1410215,-0.8527545000000001,-0.0011649999999999994
93,-0.005126499999999997,0.7758935,0.015264,-0.1722555,0.5672935,-0.007171,-0.2386055,0.8141634999999999,-0.143629,0.1686145,0.5737534999999999,0.044092,0.3024345,0.8032735,-0.038003999999999996,-0.2209855,1.0846735,-0.24429900000000002,0.3351645,1.0321435,-0.14732900000000002,-0.0857985,-0.0012344999999999995,-0.007696999999999999,0.0857985,0.0012344999999999995,0.007697000000000001,-0.1326155,-0.4239765,-0.136279,0.13890450000000001,-0.45177649999999997,-0.07764399999999999,-0.14381549999999999,-0.8158665,-0.032018000000000005,0.14115450000000002,-0.8470765,-0.0033879999999999987
94,-0.004761499999999996,0.7770365,0.010235,-0.1719735,0.5642564999999999,-0.012759,-0.2391835,0.8138765,-0.148363,0.1692565,0.5738865,0.038814,0.3037265,0.8026365,-0.042992,-0.2228235,1.0861265,-0.250263,0.3362565,1.0301665,-0.152803,-0.08617749999999999,-0.0013365000000000044,-0.0075309999999999995,0.08617749999999999,0.0013365000000000044,0.0075309999999999995,-0.1323135,-0.4183535,-0.14033299999999999,0.1391365,-0.4461935,-0.082143,-0.1435435,-0.8107635,-0.035191,0.14106649999999998,-0.8412735,-0.0059629999999999996
95,-0.004306000000000002,0.778011,0.004995500000000002,-0.171588,0.563851,-0.0175145,-0.23993799999999998,0.814411,-0.15297449999999999,0.169962,0.573481,0.0331445,0.305072,0.8022410000000001,-0.048425499999999996,-0.22483799999999998,1.087691,-0.2558645,0.337362,1.028051,-0.1583045,-0.086454,-0.0012749999999999984,-0.007461499999999999,0.086454,0.0012749999999999984,0.007461500000000001,-0.131948,-0.41325900000000004,-0.14431449999999998,0.139412,-0.44224900000000006,-0.0868245,-0.14318799999999998,-0.8052189999999999,-0.038154499999999994,0.141272,-0.8358289999999999,-0.008888499999999997
96,-0.003737499999999997,0.778594,-0.0006619999999999994,-0.17122149999999997,0.563984,-0.022271999999999997,-0.24098150000000002,0.814724,-0.157889,0.1707185,0.572864,0.027092,0.3064385,0.801714,-0.054199,-0.2268215,1.089424,-0.261059,0.3384985,1.027394,-0.16395900000000002,-0.0866725,-0.0011980000000000046,-0.007366000000000001,0.0866725,0.0011980000000000046,0.007366000000000001,-0.1315815,-0.408376,-0.148349,0.13966850000000003,-0.43868599999999996,-0.091399,-0.1427815,-0.800376,-0.041886999999999994,0.1415185,-0.830576,-0.012264999999999998
97,-0.0030899999999999955,0.7788105,-0.006694,-0.170764,0.5638005,-0.027643,-0.242364,0.8152604999999999,-0.162939,0.17147600000000002,0.5720205,0.020568,0.30765600000000004,0.8013604999999999,-0.060281,-0.228944,1.0912005,-0.266359,0.339526,1.0263805,-0.169809,-0.086703,-0.0010845000000000021,-0.007260000000000001,0.086703,0.0010845000000000021,0.007259999999999999,-0.131204,-0.4039795,-0.152089,0.139876,-0.43584949999999995,-0.09587899999999999,-0.14227399999999998,-0.7963095,-0.045863,0.141616,-0.8257995,-0.015818
98,-0.002326499999999997,0.77874,-0.0131605,-0.1698065,0.56369,-0.0332335,-0.2439865,0.81565,-0.1681175,0.1722235,0.57117,0.013878499999999998,0.30888350000000003,0.80145,-0.06689149999999999,-0.23129650000000002,1.09282,-0.2719075,0.34064350000000004,1.02396,-0.17586749999999998,-0.08677950000000001,-0.0009800000000000086,-0.0071485,0.08677950000000001,0.0009799999999999948,0.0071484999999999995,-0.13082649999999998,-0.39953,-0.1553775,0.1401735,-0.4328,-0.10056749999999999,-0.14184650000000001,-0.79219,-0.050134500000000005,0.1418835,-0.8211299999999999,-0.0194195
99,-0.0016339999999999983,0.77865,-0.019451999999999997,-0.169006,0.56391,-0.038546,-0.245946,0.81589,-0.173551,0.172884,0.56969,0.006886,0.309944,0.80049,-0.073846,-0.234046,1.09408,-0.277401,0.341574,1.0209000000000001,-0.181911,-0.08681,-0.0007599999999999968,-0.007068,0.08681,0.0007600000000000107,0.007068,-0.130526,-0.39505999999999997,-0.158531,0.140264,-0.43048,-0.105021,-0.141426,-0.7883600000000001,-0.053487,0.142024,-0.8166800000000001,-0.023089
100,-0.0008994999999999958,0.77829,-0.026330000000000003,-0.1683395,0.56329,-0.044119,-0.2482095,0.81574,-0.179345,0.1734705,0.56908,6.699999999999962e-05,0.3111105,0.79937,-0.081303,-0.23747949999999998,1.0921399999999999,-0.283275,0.3423405,1.01752,-0.188635,-0.0869095,-0.000800000000000009,-0.006793,0.0869095,0.0007999999999999952,0.006793,-0.1301995,-0.39125999999999994,-0.16194499999999998,0.1403005,-0.42915000000000003,-0.10967500000000001,-0.1409495,-0.7842399999999999,-0.057393,0.1422205,-0.8122,-0.027053
101,-0.00037249999999999783,0.7777499999999999,-0.0334415,-0.16778549999999998,0.56272,-0.0498485,-0.2508855,0.81441,-0.1853525,0.17391450000000003,0.56864,-0.006753500000000001,0.3123345,0.7976099999999999,-0.0890295,-0.24100549999999998,1.08925,-0.2900725,0.3428445,1.01321,-0.1960325,-0.0870095,-0.0006899999999999962,-0.006857500000000001,0.0870095,0.0006899999999999962,0.0068575,-0.1299255,-0.38772000000000006,-0.1656525,0.1403545,-0.42776000000000003,-0.1143125,-0.14052550000000003,-0.78052,-0.061906499999999996,0.14256449999999998,-0.80789,-0.031919499999999996
102,0.00012899999999999717,0.7768550000000001,-0.0408435,-0.16734,0.5616650000000001,-0.055654499999999996,-0.25379,0.812295,-0.1915885,0.17431,0.568575,-0.0134155,0.31348,0.795625,-0.09714450000000001,-0.24453,1.085135,-0.2968285,0.34346,1.006925,-0.2046085,-0.087068,-0.0006849999999999912,-0.006818500000000001,0.087068,0.000685000000000005,0.0068185,-0.12972,-0.384275,-0.1694985,0.14028000000000002,-0.42689499999999997,-0.11859850000000001,-0.14001,-0.776405,-0.0663485,0.14285,-0.803725,-0.0369855
103,0.00044050000000000165,0.77563,-0.0482775,-0.16723249999999998,0.56038,-0.061298500000000006,-0.2568325,0.8093,-0.1980355,0.17451750000000002,0.56801,-0.0199195,0.3143875,0.7931600000000001,-0.1054255,-0.2480925,1.0801399999999999,-0.3041155,0.3439675,1.00413,-0.2139055,-0.0871275,-0.0007199999999999984,-0.0067365,0.0871275,0.0007199999999999984,0.006736499999999999,-0.1297025,-0.38103,-0.1733455,0.14001750000000002,-0.42469999999999997,-0.12263550000000001,-0.1397525,-0.7717799999999999,-0.0702355,0.14284750000000002,-0.79964,-0.0418505
104,0.0005190000000000004,0.77378,-0.0556505,-0.16736600000000001,0.55872,-0.06685150000000001,-0.260126,0.8057500000000001,-0.20455250000000003,0.174454,0.56745,-0.0261145,0.31502399999999997,0.79039,-0.1135525,-0.251786,1.07501,-0.31172249999999996,0.344074,0.99978,-0.22336250000000002,-0.087202,-0.0007899999999999852,-0.006678499999999999,0.087202,0.0007900000000000129,0.0066785,-0.129986,-0.37720999999999993,-0.17696250000000002,0.13962400000000003,-0.42260999999999993,-0.1265125,-0.13968599999999998,-0.7666299999999999,-0.0740605,0.142654,-0.79537,-0.0468075
105,0.0005554999999999952,0.771915,-0.063057,-0.1675315,0.556715,-0.072458,-0.2632715,0.8023250000000001,-0.21119200000000002,0.17419849999999998,0.566895,-0.032197,0.3154985,0.787725,-0.121642,-0.2555015,1.069335,-0.320052,0.3440485,0.995105,-0.23348200000000002,-0.08723449999999999,-0.0008350000000000024,-0.006626999999999999,0.08723449999999999,0.0008350000000000024,0.006627000000000001,-0.1303215,-0.373335,-0.18041200000000002,0.13922849999999998,-0.42105499999999996,-0.130502,-0.1396715,-0.761385,-0.078,0.14241849999999998,-0.791505,-0.05177999999999999
106,0.00045250000000000325,0.7701499999999999,-0.07011999999999999,-0.16781649999999998,0.5550299999999999,-0.077541,-0.26599649999999997,0.7980799999999999,-0.217736,0.17379350000000002,0.56611,-0.037831,0.3158135,0.78458,-0.129656,-0.2591065,1.06203,-0.32867599999999997,0.3441035,0.99027,-0.243696,-0.0872665,-0.0008900000000000019,-0.006580999999999997,0.0872665,0.0008899999999999741,0.006581,-0.13082649999999998,-0.37072,-0.183086,0.1387635,-0.42067000000000004,-0.134466,-0.1398865,-0.75667,-0.081538,0.1420235,-0.7878400000000001,-0.055743999999999995
107,0.00024150000000000386,0.768335,-0.0769275,-0.16821250000000001,0.552845,-0.0823515,-0.2686025,0.793115,-0.22460750000000002,0.17317749999999998,0.565295,-0.0432105,0.3158575,0.781355,-0.1375775,-0.2625225,1.053675,-0.3373875,0.3441375,0.986755,-0.2542275,-0.0873315,-0.0009550000000000114,-0.006696499999999998,0.0873315,0.0009549999999999836,0.006696500000000001,-0.1314025,-0.368465,-0.1856575,0.1381475,-0.421205,-0.1375675,-0.1402625,-0.7521550000000001,-0.0849375,0.14167749999999998,-0.784265,-0.0606395
108,-3.650000000000181e-05,0.76691,-0.083454,-0.1685645,0.55061,-0.087123,-0.2707345,0.78841,-0.23130599999999998,0.17245549999999998,0.56463,-0.048437,0.3158455,0.77918,-0.145076,-0.2656245,1.04562,-0.346076,0.34412550000000003,0.9840199999999999,-0.26462600000000003,-0.08741550000000001,-0.0010900000000000076,-0.006756000000000002,0.08741550000000001,0.0010899999999999799,0.006755999999999998,-0.1319845,-0.36621,-0.188086,0.13759549999999998,-0.41955000000000003,-0.140516,-0.14054450000000002,-0.7477499999999999,-0.088419,0.14145549999999998,-0.78054,-0.065409
109,-0.0002494999999999945,0.76531,-0.0890975,-0.16912649999999999,0.5489999999999999,-0.0912505,-0.2724765,0.78342,-0.2373715,0.1718135,0.5636300000000001,-0.0529645,0.3159235,0.77667,-0.1518515,-0.2678065,1.03946,-0.3542215,0.3441235,0.9811,-0.2739415,-0.0874935,-0.0010799999999999976,-0.007009499999999998,0.0874935,0.0010799999999999976,0.007009500000000002,-0.1324365,-0.36399000000000004,-0.19022150000000002,0.1371235,-0.41862,-0.1427515,-0.14070649999999998,-0.74374,-0.0912815,0.1412535,-0.77754,-0.0694515
110,-0.0004369999999999964,0.7633949999999999,-0.0941305,-0.169706,0.5468850000000001,-0.0947305,-0.27361599999999997,0.779205,-0.2430125,0.171244,0.562455,-0.0570215,0.31603400000000004,0.774135,-0.1578425,-0.269776,1.0332350000000001,-0.3612925,0.344004,0.978325,-0.28221250000000003,-0.087564,-0.0011950000000000016,-0.0069935,0.087564,0.0011950000000000016,0.0069935,-0.132746,-0.361915,-0.1920925,0.136674,-0.417465,-0.1446125,-0.140766,-0.740235,-0.0937205,0.141054,-0.7747850000000001,-0.07318749999999999
111,-0.0006099999999999925,0.7619250000000001,-0.09880349999999999,-0.170214,0.545355,-0.0980385,-0.27436399999999994,0.775795,-0.2485755,0.170706,0.560995,-0.0610855,0.316206,0.771845,-0.1634855,-0.271444,1.028275,-0.3684655,0.344016,0.9752350000000001,-0.2894455,-0.087686,-0.0012749999999999984,-0.007066499999999996,0.087686,0.0012749999999999984,0.007066500000000003,-0.13302399999999998,-0.35994499999999996,-0.1939955,0.13631600000000002,-0.4153049999999999,-0.1464355,-0.140814,-0.736335,-0.0962895,0.140906,-0.7719349999999999,-0.0765355
112,-0.0009160000000000001,0.760045,-0.10326199999999999,-0.170637,0.544035,-0.101278,-0.274907,0.772705,-0.253749,0.170163,0.5600849999999999,-0.064761,0.316263,0.770315,-0.16872900000000002,-0.273037,1.022955,-0.375189,0.344163,0.972175,-0.29595899999999997,-0.087773,-0.0013149999999999828,-0.007225000000000002,0.087773,0.0013150000000000106,0.007225000000000002,-0.133267,-0.358255,-0.19586900000000002,0.136093,-0.41359500000000005,-0.148219,-0.140847,-0.732695,-0.09894900000000001,0.140983,-0.769295,-0.080024
113,-0.0011809999999999946,0.75871,-0.1073885,-0.170949,0.54247,-0.1044095,-0.275319,0.7698200000000001,-0.2586895,0.16965100000000002,0.55965,-0.0682715,0.316121,0.76929,-0.1739695,-0.27435899999999996,1.0173,-0.38170950000000003,0.34442100000000003,0.97024,-0.30248949999999997,-0.08783099999999999,-0.0014099999999999946,-0.007249500000000006,0.08783099999999999,0.0014100000000000223,0.007249499999999999,-0.133569,-0.35746,-0.1972395,0.13590100000000002,-0.41279999999999994,-0.1499695,-0.14084899999999997,-0.72983,-0.1019665,0.14109100000000002,-0.76707,-0.08350750000000001
114,-0.0014685000000000045,0.75756,-0.111038,-0.1712295,0.54064,-0.107288,-0.2758195,0.76681,-0.263191,0.1692205,0.55941,-0.07148099999999999,0.3159605,0.7679100000000001,-0.17890099999999998,-0.27546950000000003,1.01173,-0.387581,0.34471050000000003,0.96814,-0.308361,-0.0878805,-0.0015199999999999936,-0.007313999999999994,0.0878805,0.0015200000000000213,0.007314000000000001,-0.13385950000000002,-0.35691999999999996,-0.198401,0.1357505,-0.41024999999999995,-0.151781,-0.1408995,-0.7268600000000001,-0.104636,0.14129049999999999,-0.7649900000000001,-0.087061
115,-0.001826999999999997,0.75612,-0.1146095,-0.17145100000000002,0.53895,-0.1100615,-0.27636099999999997,0.7644,-0.26757549999999997,0.16855900000000001,0.55869,-0.0747345,0.315809,0.76689,-0.1836655,-0.276371,1.00724,-0.3931655,0.344989,0.96579,-0.3142755,-0.087949,-0.0015999999999999903,-0.007407499999999997,0.087949,0.0015999999999999903,0.007407499999999997,-0.134071,-0.35607999999999995,-0.1999655,0.135469,-0.40778000000000003,-0.1535755,-0.140971,-0.72381,-0.1072755,0.141469,-0.76283,-0.09066450000000001
116,-0.0021969999999999993,0.75417,-0.118051,-0.171621,0.53732,-0.112846,-0.276971,0.76231,-0.271223,0.168019,0.55765,-0.077875,0.315689,0.76559,-0.188133,-0.277051,1.00362,-0.398303,0.345229,0.96275,-0.319463,-0.08798900000000001,-0.001820000000000016,-0.007370999999999996,0.08798900000000001,0.0018199999999999883,0.0073710000000000025,-0.134261,-0.35519000000000006,-0.201423,0.135129,-0.40552000000000005,-0.15596300000000002,-0.141091,-0.7210799999999999,-0.109858,0.141509,-0.76057,-0.093569
117,-0.0026450000000000033,0.75225,-0.12161249999999998,-0.171836,0.5357799999999999,-0.1157965,-0.277716,0.7602599999999999,-0.2748775,0.167514,0.55663,-0.0810765,0.315564,0.7640399999999999,-0.1927175,-0.277746,0.99908,-0.4033175,0.345454,0.9591299999999999,-0.3242975,-0.08802399999999999,-0.0019500000000000073,-0.007469499999999997,0.08802399999999999,0.0019499999999999795,0.007469499999999997,-0.134466,-0.3539800000000001,-0.2031475,0.134774,-0.40201,-0.1582275,-0.141176,-0.7188100000000001,-0.1123025,0.14147400000000002,-0.75799,-0.0960935
118,-0.0031809999999999946,0.750315,-0.125311,-0.172067,0.534145,-0.118782,-0.278447,0.7584650000000001,-0.27858499999999997,0.166883,0.555615,-0.084284,0.31534300000000004,0.762505,-0.197265,-0.278427,0.995175,-0.408105,0.34558300000000003,0.955225,-0.329005,-0.088083,-0.002035000000000009,-0.007528,0.088083,0.002035000000000009,0.007528,-0.134767,-0.353105,-0.204705,0.134403,-0.40007499999999996,-0.160392,-0.141377,-0.716635,-0.11477699999999999,0.141633,-0.755775,-0.099007
119,-0.003654000000000001,0.74875,-0.12944050000000001,-0.172279,0.53304,-0.12189249999999999,-0.279369,0.75685,-0.2825165,0.166271,0.55471,-0.0877455,0.315091,0.76142,-0.2019665,-0.279079,0.99187,-0.4134065,0.345741,0.9515,-0.33449650000000003,-0.088141,-0.0021599999999999953,-0.007606499999999995,0.088141,0.002160000000000023,0.007606500000000002,-0.135199,-0.35264999999999996,-0.2065265,0.133971,-0.39616999999999997,-0.1625495,-0.141559,-0.7138,-0.1174435,0.141811,-0.75295,-0.10249349999999999
120,-0.0038629999999999984,0.7472949999999999,-0.13356,-0.172114,0.531665,-0.12491100000000001,-0.27990400000000004,0.755225,-0.286368,0.165976,0.5535749999999999,-0.09093000000000001,0.31507599999999997,0.760065,-0.206658,-0.279494,0.988475,-0.41855800000000004,0.346176,0.949885,-0.340158,-0.087956,-0.0022050000000000125,-0.007642000000000003,0.087956,0.0022049999999999847,0.007641999999999996,-0.135284,-0.350985,-0.20968799999999999,0.134156,-0.39276500000000003,-0.16570000000000001,-0.141444,-0.711085,-0.12010200000000001,0.142236,-0.751445,-0.106187
121,-0.0040449999999999965,0.746495,-0.137376,-0.172017,0.530485,-0.127773,-0.280297,0.753965,-0.290116,0.165663,0.552405,-0.09397499999999999,0.314713,0.756785,-0.211066,-0.280007,0.985505,-0.423686,0.346523,0.947655,-0.345916,-0.087823,-0.0022350000000000148,-0.007706999999999992,0.087823,0.002234999999999987,0.0077070000000000055,-0.135427,-0.349475,-0.212716,0.134263,-0.38887499999999997,-0.168698,-0.14135699999999998,-0.708335,-0.12251,0.142603,-0.750385,-0.11007
122,-0.003717,0.74558,-0.14635700000000001,-0.171457,0.5294,-0.135789,-0.280007,0.75261,-0.299138,0.165833,0.5512,-0.102182,0.31482299999999996,0.75356,-0.220498,-0.280057,0.98267,-0.43383799999999995,0.34729299999999996,0.94569,-0.35674799999999995,-0.087616,-0.002260000000000012,-0.007686999999999999,0.087616,0.002260000000000012,0.007686999999999999,-0.13525700000000002,-0.34807999999999995,-0.22092799999999999,0.134843,-0.3851,-0.176859,-0.140737,-0.70568,-0.129972,0.143393,-0.7495299999999999,-0.119091
123,-0.003213999999999998,0.74718,-0.156597,-0.170557,0.53043,-0.145049,-0.27925700000000003,0.75296,-0.309765,0.166143,0.55125,-0.11151900000000001,0.315073,0.75326,-0.231095,-0.28026700000000004,0.98222,-0.445835,0.348153,0.94679,-0.369455,-0.087307,-0.0022199999999999998,-0.007884000000000002,0.087307,0.0022199999999999998,0.007884000000000002,-0.135977,-0.33956,-0.233125,0.13703300000000002,-0.37261999999999995,-0.190295,-0.140017,-0.70044,-0.138636,0.144523,-0.74644,-0.131146
124,-0.0027865000000000043,0.7491949999999999,-0.16663450000000002,-0.1697165,0.531725,-0.1541785,-0.2784865,0.753335,-0.3206295,0.1665635,0.551925,-0.1206065,0.3151635,0.752765,-0.24142950000000002,-0.2806365,0.982125,-0.4576295,0.3488135,0.947655,-0.3819495,-0.08692749999999999,-0.0021849999999999925,-0.007940500000000003,0.08692749999999999,0.0021849999999999925,0.00794049999999999,-0.1368465,-0.33094500000000004,-0.2452095,0.1391035,-0.359955,-0.2036795,-0.1393765,-0.695315,-0.1471035,0.1455335,-0.743305,-0.14312550000000002
125,-0.0024245000000000048,0.751795,-0.1763865,-0.1689855,0.533455,-0.1633165,-0.2778155,0.754025,-0.33148350000000004,0.16690449999999998,0.552745,-0.1295405,0.3150745,0.7524949999999999,-0.2514635,-0.2812855,0.982035,-0.4692335,0.3492445,0.948645,-0.3942435,-0.0865475,-0.0021849999999999925,-0.007916500000000007,0.0865475,0.0021849999999999925,0.007916499999999993,-0.1377555,-0.32180499999999995,-0.25776350000000003,0.1411945,-0.34768499999999997,-0.21711350000000001,-0.1388955,-0.689675,-0.1553035,0.1464645,-0.7398450000000001,-0.1549625
126,-0.0020710000000000034,0.75441,-0.185609,-0.16838999999999998,0.53549,-0.171986,-0.27719,0.75474,-0.341785,0.16724,0.5536099999999999,-0.138035,0.31486,0.75236,-0.260915,-0.28200000000000003,0.98278,-0.480285,0.34952,0.94988,-0.40619500000000003,-0.086185,-0.0021200000000000108,-0.007834999999999995,0.086185,0.002119999999999983,0.007834999999999995,-0.13874000000000003,-0.31279999999999997,-0.269715,0.14331,-0.33548,-0.23019499999999998,-0.13840999999999998,-0.68454,-0.163441,0.14726,-0.73638,-0.166086
127,-0.001695000000000002,0.756965,-0.19425599999999998,-0.167792,0.5377350000000001,-0.180274,-0.27661199999999997,0.755535,-0.35155000000000003,0.167628,0.5544549999999999,-0.14618,0.31463800000000003,0.752095,-0.26977,-0.282812,0.983545,-0.49072000000000005,0.349768,0.950965,-0.41776,-0.08584,-0.0020950000000000135,-0.007779999999999995,0.08584,0.0020949999999999858,0.007780000000000009,-0.13963199999999998,-0.30313500000000004,-0.28176999999999996,0.14560800000000002,-0.323585,-0.24313,-0.137932,-0.679445,-0.171289,0.14790799999999998,-0.732605,-0.176063
128,-0.0013480000000000002,0.75939,-0.20233800000000002,-0.167212,0.53983,-0.188241,-0.276072,0.75634,-0.36036,0.167968,0.55522,-0.153974,0.314648,0.7527699999999999,-0.27837,-0.283692,0.9845600000000001,-0.50021,0.349908,0.9522999999999999,-0.4281,-0.08551700000000001,-0.0020499999999999963,-0.007740000000000011,0.08551700000000001,0.0020499999999999963,0.007739999999999997,-0.14042200000000002,-0.29351999999999995,-0.29361000000000004,0.147958,-0.31207999999999997,-0.25581,-0.137472,-0.67516,-0.178776,0.14865799999999998,-0.7279,-0.18626700000000002
129,-0.0009629999999999968,0.76196,-0.210063,-0.166547,0.54227,-0.19589299999999998,-0.275367,0.75768,-0.368355,0.168313,0.55626,-0.161409,0.31478300000000004,0.75421,-0.286325,-0.28457699999999997,0.98628,-0.508925,0.350153,0.95379,-0.437465,-0.08519,-0.0020399999999999863,-0.00770499999999999,0.08519,0.002040000000000014,0.007705000000000017,-0.14115699999999998,-0.28431,-0.305115,0.150403,-0.30169,-0.268405,-0.13688699999999998,-0.67099,-0.18592399999999998,0.14948299999999998,-0.7235,-0.196328
130,-0.0005430000000000001,0.764955,-0.217433,-0.165807,0.544375,-0.203187,-0.274547,0.759355,-0.375685,0.168753,0.557205,-0.168322,0.315193,0.757245,-0.29369500000000004,-0.285467,0.9891650000000001,-0.516445,0.350373,0.955695,-0.445445,-0.084814,-0.002014999999999989,-0.007615000000000011,0.084814,0.002014999999999989,0.007615000000000011,-0.141817,-0.275625,-0.316475,0.153003,-0.29065500000000005,-0.280845,-0.136307,-0.667195,-0.192768,0.150503,-0.718985,-0.206248
131,-0.0006944999999999972,0.767725,-0.218913,-0.16545549999999998,0.546685,-0.204283,-0.27412549999999997,0.761785,-0.37731000000000003,0.16863450000000002,0.5586249999999999,-0.16944599999999999,0.3148145,0.760015,-0.29545,-0.2868055,0.991935,-0.5182599999999999,0.35009450000000003,0.958465,-0.44845999999999997,-0.0845515,-0.0021049999999999958,-0.007679999999999992,0.0845515,0.0021049999999999958,0.007679999999999992,-0.14285550000000002,-0.267415,-0.32203,0.1558545,-0.280015,-0.28847999999999996,-0.1362955,-0.663905,-0.193923,0.1509645,-0.716085,-0.210658
132,-0.0010170000000000005,0.76842,-0.21847300000000003,-0.16535,0.54694,-0.20361400000000002,-0.27384,0.7618,-0.377365,0.1684,0.55856,-0.16925400000000002,0.31452,0.76071,-0.29534499999999997,-0.28765,0.99263,-0.518455,0.34982,0.95916,-0.448585,-0.08435500000000001,-0.002129999999999993,-0.007565000000000016,0.08435500000000001,0.002129999999999993,0.007564999999999988,-0.14318,-0.26672,-0.322205,0.15679,-0.27823,-0.28952500000000003,-0.13658,-0.66321,-0.19391,0.15106,-0.71571,-0.211741
133,-0.0011280000000000005,0.76852,-0.217519,-0.16502899999999998,0.54704,-0.20260499999999998,-0.273519,0.7619,-0.37717999999999996,0.16831100000000002,0.5586599999999999,-0.168939,0.314441,0.7609199999999999,-0.29535999999999996,-0.288209,0.99273,-0.51843,0.349721,0.95926,-0.44897,-0.084209,-0.0020900000000000085,-0.007550000000000001,0.084209,0.0020899999999999808,0.007550000000000001,-0.143319,-0.26662,-0.32222,0.158131,-0.27683,-0.29094,-0.136649,-0.66327,-0.193887,0.151311,-0.7157600000000001,-0.212807
134,-0.0010904999999999995,0.76863,-0.21617,-0.1643885,0.54704,-0.201241,-0.2731985,0.7619,-0.37643,0.1684415,0.5586599999999999,-0.168223,0.3143715,0.76357,-0.29491999999999996,-0.2882985,0.99297,-0.5178400000000001,0.3497015,0.9602999999999999,-0.44897,-0.0840655,-0.0020900000000000085,-0.007530000000000009,0.0840655,0.0020899999999999808,0.007530000000000009,-0.1433085,-0.2665,-0.32244,0.1593115,-0.27628,-0.29114,-0.1366685,-0.66327,-0.193887,0.1516515,-0.71658,-0.213801
135,-0.0010724999999999953,0.76911,-0.213459,-0.1636595,0.5472699999999999,-0.19916,-0.27305949999999996,0.7626499999999999,-0.37415,0.1687205,0.5586599999999999,-0.166766,0.3148705,0.76662,-0.29410000000000003,-0.2886895,0.99419,-0.51536,0.3495305,0.9649099999999999,-0.44844,-0.0841745,-0.0020900000000000085,-0.007470000000000004,0.0841745,0.0020899999999999808,0.007470000000000004,-0.1433895,-0.26641000000000004,-0.32233,0.1598305,-0.27611,-0.29101,-0.1367895,-0.66418,-0.193827,0.15126050000000002,-0.71648,-0.21332099999999998
136,-0.0009939999999999966,0.77079,-0.209968,-0.16277199999999997,0.54739,-0.196499,-0.27278199999999997,0.76386,-0.37085,0.16921799999999998,0.55913,-0.16464499999999999,0.31547800000000004,0.77027,-0.29275,-0.289062,0.99583,-0.51196,0.349428,0.96989,-0.44718,-0.084191,-0.0021799999999999875,-0.007319999999999993,0.084191,0.0021800000000000153,0.007319999999999993,-0.14333200000000001,-0.26641,-0.32174,0.15978799999999999,-0.27587999999999996,-0.29063,-0.136992,-0.6653,-0.193464,0.15106799999999998,-0.7164699999999999,-0.21248899999999998
137,-0.0009009999999999956,0.7729250000000001,-0.205755,-0.161912,0.547745,-0.19307,-0.272612,0.7655350000000001,-0.366495,0.16967800000000002,0.5598650000000001,-0.1618,0.31606799999999996,0.7744249999999999,-0.290505,-0.289542,0.998165,-0.507675,0.349298,0.9746349999999999,-0.443755,-0.084197,-0.0021650000000000003,-0.007264999999999994,0.084197,0.0021650000000000003,0.007264999999999994,-0.14310199999999998,-0.266935,-0.320625,0.159698,-0.276335,-0.289825,-0.137602,-0.669915,-0.197055,0.15096800000000002,-0.7173449999999999,-0.211737
138,-0.0008565000000000014,0.77538,-0.200682,-0.1611115,0.54834,-0.18898500000000001,-0.27264150000000004,0.76771,-0.360715,0.1702185,0.5604899999999999,-0.158307,0.31671849999999996,0.77801,-0.28729499999999997,-0.2898315,1.0015800000000001,-0.502645,0.3492085,0.97951,-0.43972500000000003,-0.08420449999999999,-0.002050000000000024,-0.007205000000000017,0.08420449999999999,0.0020499999999999963,0.007204999999999989,-0.1424415,-0.26830000000000004,-0.318915,0.1594885,-0.27724000000000004,-0.287955,-0.13818149999999998,-0.67513,-0.200455,0.1509585,-0.71817,-0.21185900000000002
139,-0.0006874999999999954,0.778165,-0.19524099999999997,-0.16011749999999997,0.549285,-0.18455,-0.27251749999999997,0.770055,-0.3548,0.17087249999999998,0.560485,-0.15461899999999998,0.3176425,0.781315,-0.28352,-0.2897475,1.005465,-0.49717999999999996,0.34932250000000004,0.983745,-0.43505,-0.0843255,-0.0019450000000000023,-0.007249999999999979,0.0843255,0.0019450000000000023,0.0072500000000000064,-0.14090750000000002,-0.27066500000000004,-0.31689999999999996,0.1591725,-0.27898500000000004,-0.28530999999999995,-0.1384575,-0.681105,-0.20357299999999998,0.1506725,-0.720285,-0.210524
140,-0.0002294999999999936,0.781235,-0.189173,-0.1590365,0.5500149999999999,-0.179865,-0.2721565,0.772805,-0.34856,0.1718035,0.560145,-0.15030500000000002,0.3188535,0.783705,-0.27896,-0.2888665,1.010685,-0.49109,0.3496735,0.987095,-0.42957,-0.0844735,-0.001705000000000012,-0.007269999999999999,0.0844735,0.0017049999999999843,0.007269999999999999,-0.1386465,-0.273805,-0.31401,0.1586935,-0.281855,-0.28177,-0.1383465,-0.687685,-0.20592900000000003,0.1505835,-0.723105,-0.208492
141,0.0005134999999999983,0.78467,-0.182546,-0.1580315,0.5506,-0.174905,-0.2718615,0.77513,-0.341935,0.1731285,0.5619,-0.145104,0.3200185,0.78496,-0.273675,-0.2876515,1.01497,-0.484175,0.3502985,0.9893799999999999,-0.42379500000000003,-0.0845745,-0.0015199999999999936,-0.0072450000000000014,0.0845745,0.0015199999999999936,0.007244999999999974,-0.13585150000000001,-0.27744,-0.310595,0.1579085,-0.28595000000000004,-0.277555,-0.1380915,-0.69492,-0.208578,0.1506885,-0.72712,-0.20641
142,0.0014720000000000063,0.7863549999999999,-0.175637,-0.156992,0.551325,-0.16954999999999998,-0.271322,0.778405,-0.33485,0.174688,0.562665,-0.13949499999999998,0.321278,0.7854650000000001,-0.2678,-0.285852,1.018235,-0.47726,0.351198,0.9910049999999999,-0.41769,-0.08466699999999999,-0.0012950000000000184,-0.0072399999999999964,0.08466699999999999,0.0012949999999999906,0.0072399999999999964,-0.132732,-0.282125,-0.30599,0.15693800000000002,-0.291285,-0.27171,-0.13747199999999998,-0.7030750000000001,-0.211024,0.150958,-0.7325349999999999,-0.204083
143,0.00277,0.786405,-0.167884,-0.15589699999999998,0.552415,-0.164273,-0.270517,0.7810349999999999,-0.32806,0.17641300000000001,0.563015,-0.134141,0.32288300000000003,0.783685,-0.26229,-0.283847,1.021465,-0.47001,0.352583,0.991925,-0.41182,-0.08477599999999999,-0.0008150000000000102,-0.00714999999999999,0.08477599999999999,0.0008150000000000102,0.0071500000000000175,-0.129037,-0.28737500000000005,-0.30044,0.155083,-0.29881499999999994,-0.2637,-0.136687,-0.712245,-0.213252,0.15099300000000002,-0.740645,-0.200375
144,0.004093499999999998,0.786055,-0.160926,-0.1550935,0.554995,-0.15948700000000002,-0.2698435,0.784005,-0.32151,0.17781650000000002,0.562725,-0.12950000000000003,0.3239265,0.782605,-0.25689,-0.2819835,1.024965,-0.46348,0.3539465,0.989765,-0.4063,-0.0846905,-0.00017500000000000848,-0.006980000000000014,0.0846905,0.00017500000000000848,0.006979999999999986,-0.12522350000000002,-0.292175,-0.29485000000000006,0.1529465,-0.305975,-0.2561,-0.1363035,-0.720765,-0.21563900000000003,0.1509465,-0.748535,-0.197168
145,0.005931500000000001,0.783925,-0.153946,-0.15402949999999999,0.558095,-0.154759,-0.2688795,0.786905,-0.31493000000000004,0.1795005,0.562165,-0.125097,0.32556050000000003,0.7814749999999999,-0.25128,-0.27977949999999996,1.028435,-0.4566,0.3557205,0.987655,-0.40052,-0.0846915,0.0005150000000000154,-0.006850000000000009,0.0846915,-0.0005149999999999877,0.006849999999999995,-0.1211395,-0.297295,-0.28928,0.15026050000000002,-0.31359499999999996,-0.24823,-0.13535950000000002,-0.7301249999999999,-0.217844,0.1512905,-0.757015,-0.193363
146,0.007817999999999993,0.78076,-0.147084,-0.153262,0.56079,-0.150307,-0.26769200000000004,0.78943,-0.308725,0.18125799999999997,0.5609,-0.12088,0.327298,0.77918,-0.245455,-0.27774200000000004,1.0323,-0.449485,0.35769799999999996,0.98475,-0.39554500000000004,-0.084647,0.0009699999999999986,-0.006795000000000009,0.084647,-0.0009699999999999986,0.0067949999999999955,-0.117272,-0.30318,-0.283055,0.14822799999999997,-0.32076,-0.240605,-0.134382,-0.7399,-0.215339,0.15171800000000002,-0.765,-0.18958
147,0.009576999999999997,0.779665,-0.140029,-0.15261600000000003,0.562665,-0.14540399999999998,-0.26640600000000003,0.792815,-0.30306,0.18298399999999998,0.563485,-0.11581799999999998,0.32906399999999997,0.778365,-0.23915999999999998,-0.275816,1.035925,-0.44173999999999997,0.35958399999999996,0.984515,-0.38983,-0.084549,0.0012349999999999861,-0.0067799999999999805,0.084549,-0.0012350000000000139,0.006780000000000008,-0.114416,-0.308935,-0.27625,0.14685399999999998,-0.327345,-0.23251,-0.13379600000000003,-0.748985,-0.21218099999999998,0.152144,-0.7723150000000001,-0.18387299999999998
148,0.011375999999999995,0.7773000000000001,-0.132315,-0.151999,0.56395,-0.13966699999999999,-0.265159,0.7955699999999999,-0.296545,0.184751,0.56511,-0.110021,0.330811,0.77667,-0.232125,-0.273819,1.03906,-0.433235,0.361921,0.98654,-0.383415,-0.084288,0.001700000000000007,-0.006724999999999995,0.084288,-0.001700000000000007,0.006724999999999995,-0.112579,-0.31973,-0.267845,0.145891,-0.3389,-0.223175,-0.132979,-0.7586999999999999,-0.20823599999999998,0.152691,-0.78196,-0.17749099999999998
149,0.012882999999999999,0.777855,-0.12462599999999999,-0.15164300000000003,0.569275,-0.13342299999999999,-0.264093,0.797385,-0.289925,0.18632700000000002,0.566315,-0.104211,0.332577,0.774935,-0.224795,-0.272523,1.040205,-0.424465,0.36410699999999996,0.988055,-0.37743499999999996,-0.084036,0.0022150000000000225,-0.006734999999999991,0.084036,-0.0022149999999999948,0.006735000000000005,-0.111503,-0.331445,-0.25875499999999996,0.14503700000000003,-0.350755,-0.21311,-0.13182300000000002,-0.767195,-0.20313599999999998,0.15302700000000002,-0.791805,-0.170651
150,0.013548500000000002,0.777335,-0.11329900000000001,-0.15192850000000002,0.5732349999999999,-0.12349700000000001,-0.2634585,0.799325,-0.27881,0.1869615,0.564775,-0.095005,0.3338415,0.773995,-0.21363,-0.2720985,1.041665,-0.41165,0.3655715,0.988975,-0.36662,-0.0838245,0.0026149999999999923,-0.00648,0.0838245,-0.002615000000000006,0.00648,-0.1116385,-0.343385,-0.24481000000000003,0.14374150000000002,-0.362655,-0.19837500000000002,-0.1314285,-0.776495,-0.193332,0.15263149999999998,-0.802605,-0.158931
151,0.013729499999999999,0.775845,-0.1004,-0.1527595,0.574525,-0.112015,-0.2627895,0.797705,-0.266272,0.1871605,0.564575,-0.08382,0.33475049999999995,0.771885,-0.200682,-0.2721695,1.040865,-0.39685200000000004,0.3666605,0.988585,-0.352292,-0.0836685,0.0024550000000000127,-0.006017999999999996,0.0836685,-0.002454999999999999,0.006017999999999996,-0.1127195,-0.359055,-0.22615200000000002,0.14174050000000002,-0.38166500000000003,-0.178198,-0.1317895,-0.787565,-0.17833,0.15206050000000002,-0.815265,-0.145531
152,0.013552499999999999,0.776158,-0.087959,-0.1538075,0.575838,-0.100493,-0.2626475,0.7976679999999999,-0.252911,0.1871225,0.564498,-0.072552,0.3354125,0.7710279999999999,-0.187336,-0.2721675,1.040568,-0.381731,0.36730250000000003,0.987738,-0.337381,-0.0835255,0.0020990000000000036,-0.005726999999999996,0.0835255,-0.0020990000000000036,0.005726999999999996,-0.11422750000000001,-0.37432200000000004,-0.20799099999999998,0.1397725,-0.399532,-0.158579,-0.13238750000000002,-0.7982520000000001,-0.163308,0.1511625,-0.8269920000000001,-0.131565
153,0.013219499999999995,0.777845,-0.0751995,-0.15489150000000002,0.576065,-0.08867649999999999,-0.2626715,0.797395,-0.2394415,0.1871485,0.5646549999999999,-0.0609295,0.33598849999999997,0.770155,-0.1735175,-0.27192150000000004,1.0401150000000001,-0.36569149999999995,0.36790849999999997,0.987605,-0.3217415,-0.0832735,0.0017689999999999928,-0.005577499999999999,0.0832735,-0.0017690000000000067,0.005577499999999999,-0.1156615,-0.389785,-0.1892915,0.1380885,-0.418085,-0.1386305,-0.13309150000000003,-0.808965,-0.1476175,0.15042850000000002,-0.838355,-0.1176715
154,0.012484000000000002,0.7796375,-0.062008999999999995,-0.15611399999999998,0.5755875,-0.07642499999999999,-0.263084,0.7968474999999999,-0.225381,0.186886,0.5652775,-0.048575999999999994,0.336136,0.7688475,-0.159252,-0.271654,1.0390675,-0.349321,0.368196,0.9868475,-0.30557100000000004,-0.083035,0.0016525000000000012,-0.005623000000000003,0.083035,-0.0016525000000000012,0.005623000000000003,-0.117324,-0.4049725,-0.16980099999999998,0.136326,-0.4360425,-0.118388,-0.134114,-0.8198725,-0.131749,0.149586,-0.8500325,-0.103334
155,0.0115695,0.783456,-0.0480475,-0.15738850000000001,0.575196,-0.06375349999999999,-0.2636885,0.796536,-0.2109515,0.18658149999999998,0.5664560000000001,-0.0357435,0.3362415,0.7678860000000001,-0.14489950000000001,-0.2711385,1.037126,-0.33254150000000005,0.3682115,0.985936,-0.2886215,-0.0827415,0.0017110000000000042,-0.005591499999999999,0.0827415,-0.0017109999999999972,0.005591499999999999,-0.11942849999999999,-0.420894,-0.14992149999999999,0.1343815,-0.45333399999999996,-0.0975365,-0.1354485,-0.8299639999999999,-0.11595649999999999,0.1486515,-0.860914,-0.08853649999999999
156,0.010714000000000005,0.78424,-0.0342105,-0.15853799999999998,0.57518,-0.051393499999999995,-0.264388,0.79505,-0.1964805,0.186092,0.56396,-0.023458499999999997,0.33623200000000003,0.76695,-0.1308665,-0.270518,1.03447,-0.3160905,0.368072,0.98443,-0.27193049999999996,-0.082453,0.0018839999999999968,-0.005477499999999996,0.082453,-0.0018840000000000037,0.005477500000000003,-0.122088,-0.437,-0.1299455,0.132552,-0.47004999999999997,-0.07738249999999999,-0.136848,-0.83943,-0.0995055,0.147682,-0.87109,-0.07424349999999999
157,0.009702500000000003,0.7863665,-0.020781499999999998,-0.1597005,0.5756865,-0.0397405,-0.26522049999999997,0.7942564999999999,-0.1826035,0.1855195,0.5632165,-0.011875499999999997,0.33602950000000004,0.7671565,-0.11753249999999998,-0.2698305,1.0330365,-0.3006335,0.3675695,0.9801065,-0.2557535,-0.08228350000000001,0.001857500000000005,-0.0052385,0.08228350000000001,-0.001857499999999998,0.0052385,-0.12475049999999999,-0.4520935,-0.11092650000000001,0.1313195,-0.4860735,-0.0583535,-0.1384405,-0.8471534999999999,-0.0837265,0.14670950000000002,-0.8797535000000001,-0.0613545
158,0.008596500000000003,0.785443,-0.007286499999999998,-0.1606195,0.572273,-0.0284835,-0.2662395,0.793873,-0.1687745,0.18492050000000002,0.563343,-0.00017149999999999804,0.3356005,0.766603,-0.1045475,-0.2691095,1.031883,-0.2847045,0.3670105,0.976643,-0.23919449999999998,-0.0821125,0.0016990000000000026,-0.005052499999999998,0.0821125,-0.0016989999999999991,0.0050525000000000014,-0.12757949999999998,-0.466147,-0.0923895,0.1297405,-0.501437,-0.0400905,-0.1400595,-0.853217,-0.0683155,0.1456705,-0.887547,-0.0488465
159,0.007851500000000008,0.7850505,0.002588,-0.1611395,0.5703604999999999,-0.020707,-0.2669295,0.7933605,-0.159404,0.18479050000000002,0.5643604999999999,0.008008000000000001,0.3354405,0.7645005,-0.095405,-0.2679495,1.0308205000000001,-0.273204,0.3667705,0.9732005,-0.226964,-0.0818995,0.0017224999999999983,-0.005131,0.0818995,-0.0017225000000000018,0.005131,-0.12970949999999998,-0.47520950000000006,-0.078102,0.1287105,-0.5158495000000001,-0.026404,-0.14092949999999999,-0.8576495000000001,-0.057339,0.1451305,-0.8944195,-0.040763
160,0.006895500000000004,0.7870945,0.011008,-0.1618015,0.5709345,-0.014638,-0.26774149999999997,0.7943345,-0.15168299999999998,0.1845485,0.5648945000000001,0.014392999999999996,0.3351785,0.7620045000000001,-0.08827199999999999,-0.2671215,1.0319245000000001,-0.26393300000000003,0.3662785,0.9707045000000001,-0.218473,-0.0817965,0.0022875000000000013,-0.005415000000000001,0.0817965,-0.002287499999999998,0.005415,-0.1315915,-0.47797550000000005,-0.068826,0.12808850000000002,-0.5183455,-0.019185,-0.14153149999999998,-0.8597655,-0.051767,0.1444685,-0.8972055,-0.034425
161,0.005875999999999996,0.7889744999999999,0.019485000000000002,-0.162561,0.5714745000000001,-0.008520999999999999,-0.26866100000000004,0.7928845,-0.144509,0.184279,0.5651845,0.021036,0.33534899999999995,0.7600245000000001,-0.082008,-0.266751,1.0324445,-0.255409,0.365909,0.9687245,-0.211889,-0.08176800000000001,0.0027644999999999996,-0.005575999999999999,0.08176800000000001,-0.0027644999999999996,0.005576000000000001,-0.133581,-0.48026549999999996,-0.059262,0.127389,-0.5205455000000001,-0.011675,-0.142491,-0.8617455,-0.046002,0.143729,-0.8991855,-0.02828
162,0.0047694999999999994,0.7905825,0.027849,-0.1632765,0.5716125,-0.002537,-0.26943649999999997,0.7919625,-0.137607,0.1839135,0.5645325,0.027513999999999997,0.33599349999999994,0.7591025,-0.076999,-0.2665965,1.0323225,-0.247797,0.3657735,0.9670525,-0.207087,-0.0817645,0.002946500000000001,-0.0055780000000000005,0.0817645,-0.002946500000000001,0.005578,-0.1357665,-0.48210749999999997,-0.049754,0.1265535,-0.5222575,-0.004226000000000001,-0.1432365,-0.8618675,-0.040141,0.1427835,-0.9001275000000001,-0.022196
163,0.003978499999999998,0.7921325,0.035817,-0.1635835,0.5716125,0.0029680000000000006,-0.2706235,0.7919625,-0.131429,0.18385649999999998,0.5645325,0.033495,0.3379565,0.7590024999999999,-0.072548,-0.2662435,1.0323225,-0.240979,0.3660865,0.9670525,-0.202819,-0.0815675,0.002946500000000001,-0.005464,0.0815675,-0.002946500000000001,0.005464,-0.1375135,-0.47998749999999996,-0.041392,0.1262665,-0.5220875,0.0027850000000000006,-0.14408349999999998,-0.8599375,-0.034661000000000004,0.14210650000000002,-0.9004175,-0.01639
164,0.0031615000000000063,0.7925025,0.043804,-0.16410750000000002,0.5716125,0.008622999999999999,-0.2727575,0.7919625,-0.12496199999999999,0.1835925,0.5645325,0.039746,0.3408925,0.7509224999999999,-0.067859,-0.2667675,1.0323225,-0.233872,0.3661525,0.9601725,-0.198452,-0.0813305,0.002946500000000001,-0.005241,0.0813305,-0.002946500000000001,0.005241,-0.1390575,-0.47799749999999996,-0.033723,0.12596250000000003,-0.5220875,0.009524,-0.1449875,-0.8578875,-0.029072,0.1414725,-0.9005275,-0.010838
165,0.0023474999999999954,0.7925025,0.0519,-0.1648555,0.5716125,0.013882,-0.27679549999999997,0.7892524999999999,-0.119473,0.1833745,0.5645325,0.04557,0.3446345,0.7365925,-0.063142,-0.2674455,1.0323225,-0.225893,0.3662345,0.9456825,-0.194143,-0.08117150000000001,0.002946500000000001,-0.005331000000000001,0.08117150000000001,-0.002946500000000001,0.005331,-0.1403155,-0.4759575,-0.026926,0.1255945,-0.5220875,0.015757,-0.14592549999999999,-0.8558275000000001,-0.023723,0.1407845,-0.9006475,-0.005423000000000001
