sb224sc-HT22-VT27/4dt907/src/data/kinect_good_preprocessed_not_cut_A11_mediapipe/A102_kinect.csv
FrameNo,nose_3d_x,nose_3d_y,nose_3d_z,left_shoulder_3d_x,left_shoulder_3d_y,left_shoulder_3d_z,left_elbow_3d_x,left_elbow_3d_y,left_elbow_3d_z,right_shoulder_3d_x,right_shoulder_3d_y,right_shoulder_3d_z,right_elbow_3d_x,right_elbow_3d_y,right_elbow_3d_z,left_wrist_3d_x,left_wrist_3d_y,left_wrist_3d_z,right_wrist_3d_x,right_wrist_3d_y,right_wrist_3d_z,left_hip_3d_x,left_hip_3d_y,left_hip_3d_z,right_hip_3d_x,right_hip_3d_y,right_hip_3d_z,left_knee_3d_x,left_knee_3d_y,left_knee_3d_z,right_knee_3d_x,right_knee_3d_y,right_knee_3d_z,left_ankle_3d_x,left_ankle_3d_y,left_ankle_3d_z,right_ankle_3d_x,right_ankle_3d_y,right_ankle_3d_z
5,-0.0057935000000000035,0.7525480000000001,0.12088650000000001,-0.1742965,0.552138,0.0944065,-0.2465765,0.831258,0.013260500000000001,0.17487350000000002,0.549058,0.1244865,0.2783135,0.792598,0.0595685,-0.2412865,1.119408,-0.0353425,0.3148235,1.030708,-0.016780499999999997,-0.07770450000000001,1.2000000000000075e-05,0.00044850000000000445,0.07770450000000001,-1.1999999999999858e-05,-0.0004484999999999975,-0.1788565,-0.46589200000000003,0.002416500000000002,0.1533235,-0.470592,0.0443575,-0.2330665,-0.881382,0.0526455,0.2070035,-0.9144119999999999,0.0606285
6,-0.0051174999999999944,0.753762,0.12061,-0.1741455,0.552442,0.09401899999999999,-0.2465355,0.831202,0.012974,0.1750845,0.549052,0.124414,0.2785945,0.7928620000000001,0.059440999999999994,-0.2409055,1.1194419999999998,-0.036368,0.31636450000000005,1.0304419999999999,-0.017539,-0.0777445,6.300000000000012e-05,0.0003929999999999975,0.0777445,-6.29999999999999e-05,-0.00039300000000000446,-0.1786855,-0.46604799999999996,0.0026440000000000005,0.1533845,-0.47204799999999997,0.044746,-0.2328855,-0.880408,0.052802,0.2080745,-0.915558,0.063504
7,-0.005371499999999997,0.753317,0.120034,-0.1742455,0.5527369999999999,0.093212,-0.2470555,0.8307869999999999,0.011469,0.1748345,0.5487569999999999,0.123831,0.2786245,0.7925169999999999,0.058246000000000006,-0.2417155,1.118387,-0.03838899999999999,0.3163045,1.0307870000000001,-0.019949,-0.07778650000000001,0.00023700000000000001,0.000449999999999999,0.07778650000000001,-0.00023700000000000001,-0.000449999999999999,-0.1783755,-0.465723,0.0030920000000000045,0.1579245,-0.49477299999999996,0.053105,-0.2318355,-0.879683,0.054726,0.2114445,-0.924223,0.060339000000000004
8,-0.005037500000000004,0.7539035000000001,0.1196345,-0.1741165,0.5531635,0.0926605,-0.2468865,0.8307535,0.010394500000000001,0.17499349999999997,0.5489035,0.12352850000000001,0.2789335,0.7928535,0.0576925,-0.2416665,1.1181135,-0.0399325,0.3171035,1.0302135,-0.0208065,-0.0778495,0.00016649999999999998,0.0004325000000000023,0.0778495,-0.00016649999999999998,-0.0004325000000000023,-0.17818650000000003,-0.4657865,0.003529499999999998,0.1576435,-0.49129649999999997,0.052041500000000004,-0.23164649999999998,-0.8798365,0.0546935,0.2120435,-0.9237965,0.0606055
9,-0.004672000000000003,0.754467,0.11919,-0.17392200000000002,0.5536070000000001,0.092097,-0.24660200000000002,0.8307070000000001,0.009286000000000003,0.175208,0.549077,0.123177,0.279288,0.793147,0.056957,-0.241602,1.117747,-0.041685,0.317778,1.029647,-0.021767,-0.07795099999999999,0.0001380000000000001,0.00042800000000000477,0.07795099999999999,-0.00013799999999999967,-0.0004279999999999978,-0.177902,-0.46575300000000003,0.0038590000000000013,0.15792799999999999,-0.491303,0.052005,-0.231382,-0.8799629999999999,0.054706000000000005,0.212748,-0.9236129999999999,0.061438000000000006
10,-0.0043655000000000065,0.7550005000000001,0.118714,-0.1737145,0.5540405,0.091553,-0.2463645,0.8306605,0.008205,0.1754055,0.5492805000000001,0.12279,0.2796055,0.7934205000000001,0.056112999999999996,-0.2415545,1.1173905,-0.043650999999999995,0.3183255,1.0289905000000001,-0.022885000000000003,-0.0780425,0.00014150000000000013,0.0004320000000000018,0.0780425,-0.00014150000000000013,-0.0004320000000000018,-0.17762450000000002,-0.46568950000000003,0.004150000000000001,0.1577755,-0.48872950000000004,0.050961,-0.23119450000000002,-0.8806995,0.054667999999999994,0.21340549999999997,-0.9235595,0.061827
11,-0.004034000000000001,0.7554040000000001,0.118142,-0.17351,0.554524,0.090969,-0.24612,0.830554,0.006953000000000001,0.17561,0.5494640000000001,0.122336,0.27995,0.793614,0.055110000000000006,-0.24155,1.117004,-0.045662,0.31871,1.028304,-0.024256,-0.078136,0.00013699999999999997,0.000451,0.078136,-0.00013699999999999997,-0.000451,-0.17734,-0.465586,0.004469000000000001,0.15758,-0.486256,0.049851,-0.23115000000000002,-0.880266,0.054987,0.21439000000000002,-0.9238759999999999,0.061064
12,-0.003673500000000001,0.7557745,0.11748750000000001,-0.1733445,0.5549244999999999,0.0904075,-0.2459145,0.8304345,0.005688500000000003,0.1757955,0.5496344999999999,0.12183250000000001,0.28029550000000003,0.7938145,0.0540515,-0.2415345,1.1165145,-0.04768649999999999,0.31900550000000005,1.0279145,-0.025799499999999996,-0.0782255,0.00013849999999999973,0.0004585000000000006,0.0782255,-0.00013849999999999973,-0.00045849999999999363,-0.1770845,-0.46538549999999995,0.004734500000000003,0.1586755,-0.49103549999999996,0.0513845,-0.2310145,-0.8797155,0.055324500000000006,0.2151355,-0.9253455,0.0610045
13,-0.0032955000000000024,0.7560175,0.116785,-0.17318750000000002,0.5551975,0.089869,-0.24575750000000002,0.8302275,0.004395999999999997,0.17600249999999998,0.5497475000000001,0.121312,0.2806325,0.7939475,0.052850999999999995,-0.24153750000000002,1.1160474999999999,-0.049706999999999994,0.3192925,1.0273474999999999,-0.027546999999999995,-0.07831550000000001,0.00017350000000000004,0.0004849999999999993,0.07831550000000001,-0.00017349999999999918,-0.0004849999999999993,-0.1768275,-0.4650725,0.004964000000000003,0.1597525,-0.4958025,0.052892999999999996,-0.2308475,-0.8784624999999999,0.055941000000000005,0.2156725,-0.9268525,0.060745
14,-0.0028865000000000054,0.7561869999999999,0.1159555,-0.1730385,0.5554169999999999,0.08933350000000001,-0.2455985,0.829967,0.003116500000000001,0.1762115,0.549897,0.1207565,0.2809615,0.794087,0.0515585,-0.2415585,1.115477,-0.0517175,0.3195015,1.026877,-0.029341499999999993,-0.07839650000000001,0.00020899999999999912,0.0004924999999999999,0.07839650000000001,-0.00020900000000000085,-0.0004924999999999999,-0.1765985,-0.464803,0.005175500000000003,0.1597615,-0.49713300000000005,0.0532655,-0.2305985,-0.878683,0.0564465,0.2159315,-0.9281630000000001,0.0600395
15,-0.002464499999999998,0.7561325,0.1153555,-0.1729435,0.5555025,0.08908150000000001,-0.2454635,0.8299225,0.002215500000000002,0.1764265,0.5499425,0.12042850000000001,0.2812765,0.7940825,0.0504285,-0.2414335,1.1157225,-0.053393499999999997,0.31967650000000003,1.0269225,-0.030732499999999996,-0.0784765,0.0002304999999999998,0.0005045000000000049,0.0784765,-0.0002304999999999998,-0.000504499999999998,-0.17650349999999998,-0.4645875,0.005199500000000003,0.1606565,-0.5005975,0.0543565,-0.23040349999999998,-0.8779675,0.0566695,0.2160765,-0.9284574999999999,0.059881500000000004
16,-0.002108500000000003,0.7561,0.11467100000000001,-0.1729055,0.5555899999999999,0.08880400000000001,-0.2453455,0.82988,0.0013310000000000058,0.1765845,0.5499999999999999,0.120086,0.2815745,0.79408,0.04926900000000001,-0.2413555,1.11618,-0.05507899999999999,0.3198045,1.02688,-0.03210099999999999,-0.0785135,0.0002409999999999999,0.0005230000000000026,0.0785135,-0.00024100000000000163,-0.0005229999999999957,-0.1764755,-0.46434,0.0051770000000000045,0.1606445,-0.50039,0.054179000000000005,-0.2304455,-0.87744,0.05691700000000001,0.2160645,-0.92823,0.059712
17,-0.0018184999999999994,0.75608,0.1139585,-0.1729195,0.5557,0.0884965,-0.2452195,0.82985,0.0006334999999999952,0.1767405,0.55005,0.1197015,0.28182050000000003,0.79409,0.0481505,-0.2412995,1.11615,-0.056607500000000005,0.31985050000000004,1.02695,-0.033515500000000004,-0.0785515,0.0002710000000000004,0.0005485000000000004,0.0785515,-0.0002710000000000004,-0.0005485000000000004,-0.1764595,-0.46405,0.005081499999999999,0.1604905,-0.50042,0.053959499999999994,-0.23048949999999999,-0.87691,0.0571055,0.2161505,-0.92801,0.05894049999999999
18,-0.001498000000000005,0.7561135,0.1133535,-0.172846,0.5557335,0.0882985,-0.24491600000000002,0.8297435,-0.00014450000000000573,0.176954,0.5500835000000001,0.1193955,0.282084,0.7940835,0.047167499999999994,-0.241156,1.1156835,-0.0578805,0.319974,1.0268835,-0.03496350000000001,-0.07858799999999999,0.0003044999999999992,0.0005524999999999974,0.07858799999999999,-0.00030450000000000095,-0.0005525000000000044,-0.176486,-0.4640165,0.0049424999999999955,0.16031399999999998,-0.5003865000000001,0.053781499999999996,-0.230766,-0.8769565,0.05709249999999999,0.21614399999999998,-0.9279765,0.058388499999999996
19,-0.0011975000000000009,0.756148,0.1127585,-0.1727765,0.555778,0.0881065,-0.24461650000000001,0.829668,-0.0009205000000000046,0.1771535,0.5501280000000001,0.1191345,0.2823435,0.794088,0.0462505,-0.2410265,1.115428,-0.059095499999999995,0.3200635,1.026728,-0.036307500000000006,-0.0786215,0.0003259999999999999,0.0005524999999999974,0.0786215,-0.0003259999999999999,-0.0005525000000000044,-0.1764865,-0.463772,0.0047805,0.1593335,-0.496812,0.0523115,-0.2310165,-0.878222,0.0567295,0.2159635,-0.927422,0.0578425
20,-0.0009705000000000022,0.756097,0.1122665,-0.1728025,0.555827,0.0879765,-0.2441025,0.828317,-0.0015464999999999993,0.1772875,0.550137,0.11894350000000001,0.2825675,0.7940769999999999,0.0454525,-0.2408625,1.115177,-0.0601525,0.3201675,1.026677,-0.037517499999999995,-0.07865849999999999,0.0003119999999999998,0.0005404999999999993,0.07865849999999999,-0.0003120000000000015,-0.0005404999999999993,-0.1764925,-0.46348300000000003,0.004674500000000002,0.1583675,-0.493263,0.0505245,-0.23127250000000002,-0.877853,0.056884500000000005,0.2155375,-0.926813,0.0581245
21,-0.0007540000000000034,0.7559535000000001,0.1118425,-0.17281000000000002,0.5558835,0.0878335,-0.24359999999999998,0.8273835,-0.002176500000000005,0.17745,0.5501235,0.1187825,0.28287,0.7940535,0.044697499999999994,-0.24062,1.1153235,-0.06112350000000001,0.3204,1.0266235,-0.0385485,-0.078641,0.00037349999999999883,0.0005444999999999964,0.078641,-0.00037350000000000057,-0.0005445000000000033,-0.17654000000000003,-0.4629065,0.004553499999999995,0.15915,-0.4965665,0.0514665,-0.23164,-0.8774265,0.056958499999999995,0.21519,-0.9270265,0.05864849999999999
22,-0.0005575000000000046,0.755795,0.11142250000000001,-0.1728145,0.555935,0.0876825,-0.2431045,0.826495,-0.002862499999999997,0.1775955,0.550115,0.11863950000000001,0.28316549999999996,0.794015,0.0440785,-0.24034450000000002,1.115365,-0.062293499999999995,0.32061549999999994,1.026565,-0.0394335,-0.0786265,0.0004519999999999993,0.0005394999999999983,0.0786265,-0.00045200000000000014,-0.0005394999999999983,-0.1765445,-0.462235,0.004067500000000002,0.1590755,-0.496295,0.0511075,-0.2320045,-0.876635,0.0569925,0.2149155,-0.926685,0.0588595
23,-0.00040349999999999533,0.7556375,0.1110885,-0.1728155,0.5558775,0.08752650000000001,-0.24264550000000001,0.8256574999999999,-0.0035785000000000053,0.1777245,0.5500875,0.11850449999999998,0.28349450000000004,0.7939775,0.0435235,-0.24006550000000001,1.1154175,-0.06344749999999999,0.3208245,1.0266175,-0.0402655,-0.0786165,0.0004955000000000003,0.0005625000000000005,0.0786165,-0.0004955000000000003,-0.0005625000000000005,-0.1765355,-0.46178250000000004,0.0033764999999999976,0.1590445,-0.4959325,0.0503915,-0.23215550000000001,-0.8751525,0.0569535,0.2145745,-0.9262925000000001,0.059343499999999993
24,-0.0002780000000000035,0.7555189999999999,0.1108445,-0.172793,0.555819,0.0873675,-0.242213,0.824909,-0.0042875,0.17782699999999999,0.550079,0.11838649999999999,0.28381700000000004,0.793949,0.043144499999999995,-0.239813,1.1153790000000001,-0.0644405,0.321067,1.0265790000000001,-0.0409515,-0.07860500000000001,0.0005500000000000001,0.0005824999999999997,0.07860500000000001,-0.0005500000000000001,-0.0005824999999999997,-0.176543,-0.461411,0.0026914999999999994,0.158467,-0.492091,0.0485965,-0.232383,-0.8749210000000001,0.056827499999999996,0.214247,-0.925741,0.0592945
25,-0.00016350000000000186,0.7553920000000001,0.11063100000000001,-0.1727955,0.5557620000000001,0.08721000000000001,-0.24183549999999998,0.824172,-0.005072,0.17790450000000002,0.550022,0.118279,0.2841245,0.7939120000000001,0.042799000000000004,-0.2395855,1.115232,-0.06547,0.3213045,1.026532,-0.041593,-0.0786125,0.0005920000000000005,0.0005980000000000013,0.0786125,-0.0005919999999999996,-0.0005980000000000013,-0.1765855,-0.461108,0.002002999999999998,0.1589445,-0.495468,0.048839,-0.23267549999999998,-0.875168,0.0567,0.2139645,-0.925878,0.059544
26,-4.4499999999997666e-05,0.7552705000000001,0.11046,-0.1727785,0.5557005,0.08707100000000001,-0.24147849999999998,0.8235405,-0.005747000000000002,0.1779715,0.5499605000000001,0.118187,0.2844515,0.7939005,0.042515,-0.2393885,1.1152004999999998,-0.066423,0.3215415,1.0266005,-0.042137999999999995,-0.0786145,0.0006305,0.0006080000000000044,0.0786145,-0.0006305,-0.0006079999999999974,-0.1766285,-0.46081950000000005,0.0013140000000000027,0.1595315,-0.4991995,0.049088,-0.2329085,-0.8760695,0.056422,0.2136815,-0.9259594999999999,0.060116
27,7.650000000000126e-05,0.755202,0.110307,-0.17270349999999998,0.555662,0.08687399999999999,-0.2411535,0.8229420000000001,-0.0064640000000000045,0.17803650000000001,0.549892,0.11808099999999999,0.28475649999999997,0.793892,0.042297999999999995,-0.2392435,1.115192,-0.067469,0.32176649999999996,1.026592,-0.042532,-0.07861850000000001,0.000673,0.0006029999999999994,0.07861850000000001,-0.000673,-0.0006030000000000063,-0.17667349999999998,-0.460538,0.0006289999999999976,0.1594665,-0.49934799999999996,0.048507999999999996,-0.23315349999999999,-0.875678,0.055935,0.21350650000000002,-0.925988,0.059892
28,0.00017499999999999786,0.7551475000000001,0.1101245,-0.17258800000000002,0.5556375,0.08664650000000002,-0.240878,0.8223975,-0.007130499999999991,0.178082,0.5498575,0.1179535,0.285022,0.7938875000000001,0.042099500000000005,-0.239118,1.1151075,-0.0683915,0.322002,1.0267074999999999,-0.04288249999999999,-0.07863200000000001,0.0006835000000000001,0.0005865000000000037,0.07863200000000001,-0.0006835000000000001,-0.0005864999999999967,-0.17671800000000001,-0.4602525,-7.949999999999624e-05,0.158792,-0.4956125,0.046838500000000005,-0.233248,-0.8752624999999999,0.05554250000000001,0.213202,-0.9255025,0.060459500000000006
29,0.0002685000000000042,0.7551125,0.1099635,-0.1724695,0.5556325,0.0864125,-0.2408995,0.8228325,-0.007841500000000001,0.1781105,0.5498425,0.1178435,0.2853205,0.7938525,0.0419355,-0.23900949999999999,1.1150425000000002,-0.0693475,0.3223005,1.0267425000000001,-0.04317750000000001,-0.0786515,0.0006854999999999995,0.0005674999999999986,0.0786515,-0.0006855000000000003,-0.0005674999999999986,-0.1767495,-0.4598875,-0.0007925000000000015,0.1598005,-0.4992075,0.0470745,-0.2333795,-0.8742575,0.0552295,0.2128805,-0.9253775,0.0611565
30,0.00024150000000000018,0.755109,0.109854,-0.17241849999999997,0.555659,0.086178,-0.2409985,0.822899,-0.008467000000000002,0.17804150000000002,0.5498890000000001,0.117722,0.2855315,0.793799,0.041816,-0.2390585,1.114819,-0.070318,0.32247149999999997,1.026519,-0.043421,-0.0786705,0.0006699999999999996,0.0005339999999999998,0.0786705,-0.0006700000000000005,-0.0005339999999999998,-0.17678850000000002,-0.459951,-0.0014420000000000058,0.15919149999999999,-0.496441,0.045487,-0.2334885,-0.8733409999999999,0.05470799999999999,0.21263149999999997,-0.925441,0.060979
31,0.00022000000000000253,0.7551209999999999,0.109749,-0.172354,0.5556909999999999,0.08595,-0.241084,0.8229209999999999,-0.009024999999999998,0.17796599999999999,0.5499409999999999,0.117609,0.285726,0.7937409999999999,0.0417,-0.239114,1.114601,-0.071043,0.322706,1.0263010000000001,-0.043576000000000004,-0.078683,0.0006560000000000003,0.0004989999999999994,0.078683,-0.0006559999999999995,-0.0004989999999999994,-0.176884,-0.460199,-0.0016959999999999961,0.160166,-0.500619,0.046198,-0.233544,-0.8728490000000001,0.054206000000000004,0.21251599999999998,-0.926099,0.060805
32,0.00019250000000000191,0.75513,0.1096785,-0.1722695,0.55573,0.0857095,-0.2411795,0.8233,-0.0095185,0.1778805,0.54998,0.1175195,0.2859005,0.79369,0.0416295,-0.2391895,1.11468,-0.0716825,0.3229605,1.02608,-0.04366149999999999,-0.07868349999999999,0.0006399999999999999,0.0004515000000000005,0.07868349999999999,-0.0006399999999999999,-0.0004515000000000005,-0.1769795,-0.45974,-0.0018714999999999982,0.1596205,-0.49753000000000003,0.0450295,-0.23362950000000002,-0.87223,0.0540055,0.2123405,-0.92601,0.0614295
33,0.00016099999999999925,0.7550975,0.1095675,-0.17219,0.5557575,0.0854355,-0.24128,0.8235875,-0.0099975,0.17779999999999999,0.5500275,0.1174295,0.28608999999999996,0.7935775,0.041538500000000006,-0.23925,1.1144475,-0.0723125,0.32333999999999996,1.0255475,-0.0437415,-0.078691,0.0006224999999999998,0.00039450000000000596,0.078691,-0.0006224999999999998,-0.000394499999999999,-0.17702,-0.4587525,-0.002067499999999993,0.16018,-0.5015725,0.045999500000000006,-0.23358,-0.8711425,0.0537955,0.2124,-0.9265625,0.0613295
34,0.00011850000000000012,0.7550665000000001,0.1094535,-0.1721105,0.5557965,0.0853285,-0.2413905,0.8236665000000001,-0.010116500000000007,0.17771949999999997,0.5500665,0.1173285,0.28628950000000003,0.7934465,0.041465499999999995,-0.2393205,1.1143265,-0.0724215,0.3237495,1.0251265,-0.04382950000000001,-0.0786785,0.0005964999999999998,0.00033149999999999846,0.0786785,-0.0005964999999999998,-0.0003315000000000054,-0.17713050000000002,-0.4596535,-0.002186500000000001,0.1607495,-0.5056335,0.04667249999999999,-0.23365049999999998,-0.8712534999999999,0.053386499999999996,0.2124495,-0.9271334999999999,0.0612215
35,7.650000000000018e-05,0.755078,0.1093355,-0.1720415,0.555868,0.0852175,-0.24150149999999998,0.8237680000000001,-0.010238500000000005,0.17763849999999998,0.5501280000000001,0.1172265,0.2864985,0.793328,0.0414265,-0.23937150000000001,1.114228,-0.0725435,0.3241985,1.024628,-0.0438365,-0.0786725,0.0005900000000000002,0.00026450000000000085,0.0786725,-0.0005900000000000002,-0.00026450000000000085,-0.1772015,-0.46038199999999996,-0.002857499999999999,0.16063850000000002,-0.507572,0.0464645,-0.2337515,-0.871572,0.0529125,0.21254849999999997,-0.927572,0.059815499999999994
36,0.00011149999999999572,0.755099,0.1092255,-0.17193650000000002,0.555939,0.0851125,-0.2415265,0.823879,-0.010351500000000007,0.1776335,0.550199,0.11713649999999999,0.2867935,0.793199,0.041422499999999994,-0.2393265,1.114239,-0.0726565,0.3247535,1.024039,-0.0438095,-0.0786995,0.0005919999999999996,0.0001954999999999943,0.0786995,-0.0005920000000000005,-0.00019550000000000123,-0.1772165,-0.460911,-0.003538500000000007,0.15999349999999998,-0.505641,0.045268499999999996,-0.23371650000000002,-0.872041,0.052469499999999995,0.2128535,-0.927791,0.05788549999999999
37,0.00023000000000000407,0.7550595,0.10957900000000001,-0.171829,0.5559594999999999,0.085125,-0.24144899999999997,0.8242095,-0.010461999999999999,0.177691,0.5501995,0.11732599999999999,0.287171,0.7929995,0.041878,-0.239099,1.1141895,-0.07289000000000001,0.32544100000000004,1.0233895,-0.043174,-0.078719,0.0006365000000000003,0.00016100000000000142,0.078719,-0.0006364999999999999,-0.00016100000000000142,-0.177199,-0.4605905,-0.004270000000000003,0.159321,-0.5019405,0.044041,-0.233769,-0.8710605,0.051993,0.21314100000000002,-0.9275305,0.055696999999999997
38,0.00039649999999999885,0.7550405,0.1099395,-0.1717035,0.5559805,0.08504149999999999,-0.2413235,0.8245005,-0.010702499999999997,0.1777965,0.5502005,0.1174675,0.2875565,0.7928204999999999,0.0422585,-0.23882350000000002,1.1142405,-0.0733555,0.3262165,1.0226405,-0.04262150000000001,-0.0787185,0.0006795,0.0001465000000000008,0.0787185,-0.0006795000000000001,-0.0001465000000000008,-0.17715350000000002,-0.4602795,-0.005154499999999999,0.1593065,-0.5016595,0.0437265,-0.23396350000000002,-0.8722095000000001,0.0511655,0.21302649999999998,-0.9271295,0.0555345
39,0.0005740000000000003,0.755017,0.110267,-0.171598,0.555997,0.084976,-0.241208,0.824737,-0.010942999999999994,0.177912,0.5502170000000001,0.117568,0.28789200000000004,0.792647,0.042538000000000006,-0.23852800000000002,1.114297,-0.073837,0.326942,1.022097,-0.042241,-0.07871600000000001,0.0007199999999999999,0.00016200000000000242,0.07871600000000001,-0.0007199999999999999,-0.00016199999999999548,-0.177128,-0.46031299999999997,-0.0061149999999999954,0.159302,-0.501253,0.043218000000000006,-0.234078,-0.872463,0.050177,0.213002,-0.9268029999999999,0.055316000000000004
40,0.0007630000000000054,0.754982,0.1105745,-0.17149199999999998,0.556022,0.08490450000000001,-0.24108200000000002,0.8249420000000001,-0.011202499999999997,0.178018,0.550222,0.1176445,0.288248,0.7924720000000001,0.0428055,-0.23820199999999997,1.114342,-0.0743355,0.327668,1.021442,-0.041929499999999995,-0.078723,0.0007710000000000001,0.00016850000000000198,0.078723,-0.000771,-0.00016849999999999504,-0.177172,-0.46044799999999997,-0.007103499999999999,0.15848800000000002,-0.49778799999999995,0.041587500000000006,-0.234132,-0.872798,0.0491925,0.213038,-0.926738,0.052963500000000004
41,0.0009485000000000006,0.7549635,0.1108065,-0.1714055,0.5560635,0.08478350000000001,-0.24092550000000001,0.8250835000000001,-0.011463499999999995,0.17813449999999997,0.5502235000000001,0.1176615,0.2885945,0.7922935000000001,0.042986500000000004,-0.2378555,1.1143935,-0.0748615,0.3284045,1.0208935000000001,-0.0417375,-0.0787335,0.0008084999999999998,0.0001845000000000041,0.0787335,-0.0008085000000000002,-0.00018449999999999717,-0.1771955,-0.4605465,-0.008185499999999998,0.1576845,-0.4944765,0.039865500000000005,-0.2341255,-0.8731365,0.048093500000000004,0.2131845,-0.9256264999999999,0.0527575
42,0.0011875000000000002,0.7549589999999999,0.1110295,-0.1712865,0.556099,0.0846525,-0.2407465,0.825209,-0.011774499999999993,0.1782535,0.550229,0.1176465,0.28896350000000004,0.792119,0.0430885,-0.2374865,1.114349,-0.07545149999999999,0.3291235,1.0205490000000002,-0.041651499999999994,-0.0787435,0.0008469999999999997,0.00021250000000000435,0.0787435,-0.0008470000000000005,-0.0002124999999999974,-0.1771865,-0.460651,-0.009286499999999996,0.1570135,-0.490681,0.038261500000000004,-0.2341865,-0.874201,0.0468495,0.2130835,-0.924581,0.052866500000000004
43,0.0015084999999999973,0.754946,0.11124500000000001,-0.1711045,0.556126,0.084449,-0.24053449999999998,0.8253360000000001,-0.012168000000000005,0.17843550000000002,0.550226,0.11754699999999998,0.2893655,0.791976,0.043106,-0.23707450000000002,1.114396,-0.076148,0.3298755,1.020196,-0.041757999999999997,-0.0787455,0.0008860000000000005,0.00021699999999999844,0.0787455,-0.0008859999999999996,-0.00021700000000000191,-0.17714449999999998,-0.460544,-0.010491,0.1573155,-0.490674,0.037603,-0.23436449999999998,-0.874684,0.045418,0.21313549999999998,-0.923794,0.052768999999999996
44,0.001831500000000001,0.75493,0.1114205,-0.17093250000000001,0.55619,0.08426149999999999,-0.2403325,0.8254699999999999,-0.012574500000000002,0.17861749999999998,0.55021,0.11741850000000001,0.2897775,0.7917799999999999,0.0430705,-0.2366925,1.11433,-0.07685049999999999,0.3306175,1.01983,-0.04200450000000001,-0.07873250000000001,0.0009120000000000005,0.00020249999999999782,0.07873250000000001,-0.0009119999999999996,-0.0002025000000000013,-0.1771325,-0.46046,-0.011405499999999999,0.1570675,-0.48799,0.0357155,-0.23454250000000001,-0.8753000000000001,0.044177499999999995,0.2133175,-0.92374,0.049867499999999995
45,0.0021605000000000036,0.7549305,0.11157500000000001,-0.17073549999999998,0.5562705,0.084059,-0.2401555,0.8256104999999999,-0.012987000000000002,0.1787845,0.5501904999999999,0.117268,0.29019449999999997,0.7915905,0.042983,-0.23633549999999998,1.1141805,-0.07762999999999999,0.3313645,1.0195805,-0.042437,-0.0787165,0.0009075000000000003,0.00020399999999999932,0.0787165,-0.0009075000000000003,-0.00020399999999999932,-0.1771855,-0.4603495,-0.012586000000000003,0.15731450000000002,-0.4871895,0.034343,-0.2347655,-0.8759795,0.042859,0.2133645,-0.9236195,0.047811
46,0.002434500000000001,0.7549955,0.1112605,-0.17054550000000002,0.5563555,0.0835345,-0.2400055,0.8255755,-0.013544500000000001,0.1789345,0.5502355,0.1167665,0.2905645,0.7914455,0.042438500000000004,-0.23612550000000002,1.1140955000000001,-0.0784775,0.3319845,1.0193955000000001,-0.042966500000000005,-0.0786965,0.0008365000000000004,0.00016850000000000198,0.0786965,-0.0008365000000000004,-0.0001684999999999985,-0.1772755,-0.4611345,-0.0139045,0.1575145,-0.4870745,0.0329295,-0.2348455,-0.8777245,0.0415315,0.2134845,-0.9247744999999999,0.0461125
47,0.0027115000000000004,0.7551144999999999,0.11077999999999999,-0.1703395,0.5565145,0.08302999999999999,-0.2398395,0.8255844999999999,-0.014078,0.1791005,0.5503145,0.116236,0.2909505,0.7912645,0.041918000000000004,-0.2359395,1.1142545000000001,-0.07931099999999999,0.33250050000000003,1.0192545,-0.043477999999999996,-0.07868349999999999,0.0007395000000000006,0.0001250000000000001,0.07868349999999999,-0.0007395000000000006,-0.00012499999999999664,-0.1774695,-0.4619355,-0.015310999999999998,0.15838049999999998,-0.4891555,0.031377,-0.2347995,-0.8787754999999999,0.040468000000000004,0.2134805,-0.9260554999999999,0.043315
48,0.002903000000000002,0.755306,0.1102175,-0.17020100000000002,0.556736,0.0824935,-0.239741,0.825646,-0.0146465,0.179199,0.550456,0.1156675,0.291209,0.791136,0.0413595,-0.235821,1.114486,-0.08017949999999999,0.33293900000000004,1.019086,-0.0440265,-0.07863,0.0006259999999999998,5.450000000000246e-05,0.07863,-0.0006259999999999998,-5.4499999999998994e-05,-0.177631,-0.462304,-0.016788499999999998,0.158089,-0.487284,0.0296685,-0.234831,-0.878924,0.0393625,0.21298899999999998,-0.925824,0.043500500000000004
49,0.0030934999999999947,0.755519,0.109651,-0.1700635,0.556999,0.081954,-0.2397235,0.825779,-0.015459,0.1792865,0.550629,0.115095,0.2914365,0.790979,0.040663,-0.2356735,1.1144489999999998,-0.08169100000000001,0.3333665,1.0190489999999999,-0.045332000000000004,-0.0785705,0.0005369999999999993,-1.4000000000000123e-05,0.0785705,-0.0005369999999999993,1.4000000000000123e-05,-0.17776350000000002,-0.462761,-0.018604000000000002,0.1581965,-0.486041,0.028076,-0.23479350000000002,-0.877951,0.038889,0.21244649999999998,-0.925151,0.043559
50,0.0031870000000000006,0.7557555,0.1090545,-0.169968,0.5573454999999999,0.0813475,-0.23974800000000002,0.8259455,-0.016336499999999997,0.179342,0.5508655,0.1144705,0.291542,0.7908755,0.0398245,-0.23552800000000002,1.1146055,-0.0833405,0.333592,1.0190055,-0.0468305,-0.07852899999999999,0.00043950000000000065,-6.0499999999998055e-05,0.07852899999999999,-0.0004394999999999989,6.0500000000001525e-05,-0.177918,-0.4632645,-0.0206915,0.15873199999999998,-0.4864545,0.026271500000000003,-0.234578,-0.8769345000000001,0.0377835,0.212552,-0.9252445,0.042689500000000005
51,0.003278499999999996,0.7559945,0.108412,-0.1698755,0.5577544999999999,0.080721,-0.2398355,0.8261045,-0.017297000000000003,0.1793745,0.5511245,0.113812,0.29164450000000003,0.7907845,0.038879,-0.2354255,1.1147145,-0.08509800000000001,0.3337545,1.0191145000000001,-0.04840800000000001,-0.0784935,0.0003475000000000006,-0.0001010000000000004,0.0784935,-0.00034749999999999885,0.0001010000000000004,-0.1780855,-0.4637355,-0.022885,0.15929449999999998,-0.4874955,0.023828,-0.23446550000000002,-0.8766155,0.036619,0.2127045,-0.9253255,0.041037
52,0.0033340000000000028,0.756268,0.107823,-0.16983,0.558188,0.080171,-0.24004,0.8262780000000001,-0.018222,0.17934,0.551368,0.113219,0.29173,0.790668,0.037971,-0.23556,1.114658,-0.086897,0.33389,1.019058,-0.050051,-0.078496,0.0002210000000000007,-8.199999999999874e-05,0.078496,-0.0002210000000000007,8.199999999999874e-05,-0.17828,-0.464292,-0.025088999999999997,0.1601,-0.48892199999999997,0.021536,-0.23439,-0.876142,0.035599,0.21275,-0.9255519999999999,0.040556
53,0.0033869999999999994,0.75664,0.10715150000000001,-0.169794,0.55864,0.0796205,-0.240404,0.82636,-0.019236500000000004,0.179226,0.5516800000000001,0.1125535,0.291796,0.79066,0.0369925,-0.23593399999999998,1.11515,-0.08878250000000001,0.334036,1.01915,-0.0518515,-0.078504,8.200000000000048e-05,-9.500000000002562e-06,0.078504,-8.200000000000048e-05,9.499999999999093e-06,-0.178454,-0.46506000000000003,-0.0273985,0.16099599999999997,-0.48973,0.019205499999999997,-0.23427399999999998,-0.87502,0.0345675,0.21332600000000002,-0.92596,0.0366115
54,0.003428999999999997,0.7570725,0.106378,-0.169753,0.5591225,0.079015,-0.24084300000000003,0.8263825,-0.020292,0.17912699999999998,0.5520625,0.111836,0.291837,0.7907025,0.035953,-0.236433,1.1156125,-0.09089499999999999,0.334227,1.0192125,-0.05381999999999999,-0.078528,3.500000000000031e-06,2.9999999999998778e-05,0.078528,-3.500000000000031e-06,-2.9999999999998778e-05,-0.17856300000000003,-0.4657175,-0.029550999999999997,0.16190700000000002,-0.49039750000000004,0.017046,-0.23413299999999998,-0.8739775,0.033442,0.213667,-0.9257075,0.034215
55,0.003396500000000001,0.7576054999999999,0.105523,-0.1698205,0.5595654999999999,0.078316,-0.24137050000000002,0.8264755,-0.021384,0.1789895,0.5525055,0.111101,0.29179950000000004,0.7907755,0.034902,-0.2370605,1.1162655,-0.093045,0.3344095,1.0192655,-0.0558,-0.0785215,-2.249999999999995e-05,7.200000000000262e-05,0.0785215,2.249999999999995e-05,-7.199999999999915e-05,-0.17862050000000002,-0.46611450000000004,-0.031675,0.16251949999999998,-0.49046449999999997,0.014873,-0.2340405,-0.8728345000000001,0.032373,0.21405949999999999,-0.9249845,0.034579
56,0.003344000000000005,0.7581034999999999,0.1046935,-0.169938,0.5599035,0.07761950000000001,-0.241978,0.8264134999999999,-0.0225365,0.178832,0.5529335,0.1103815,0.29174200000000006,0.7908934999999999,0.0338155,-0.237818,1.1169035,-0.0952615,0.334572,1.0194035000000001,-0.05783649999999999,-0.078512,-3.150000000000028e-05,0.0001035000000000029,0.078512,3.150000000000028e-05,-0.00010349999999999943,-0.178618,-0.4664465,-0.033729499999999996,0.163112,-0.4906265,0.012816500000000002,-0.234038,-0.8713465,0.0313465,0.214192,-0.9255365000000001,0.0325765
57,0.003266500000000002,0.7585189999999999,0.10384,-0.1700715,0.560159,0.076946,-0.2426915,0.826269,-0.023760999999999997,0.1786885,0.553319,0.109674,0.2916785,0.790929,0.032721,-0.2386815,1.117499,-0.097563,0.3347385,1.019499,-0.05993,-0.0784995,-6.500000000000256e-05,0.00016099999999999795,0.0784995,6.499999999999909e-05,-0.00016100000000000142,-0.1786315,-0.466851,-0.035891,0.1637285,-0.49033099999999996,0.010726,-0.2340815,-0.870351,0.030159,0.2146685,-0.925721,0.031058
58,0.0032059999999999996,0.759101,0.102829,-0.17019600000000001,0.5604509999999999,0.076185,-0.243516,0.8262809999999999,-0.025249,0.178564,0.553681,0.10853700000000001,0.291734,0.7911509999999999,0.031523,-0.239676,1.118141,-0.099989,0.334984,1.019741,-0.062097,-0.07852,-0.00012999999999999817,0.00021300000000000138,0.07852,0.00013000000000000164,-0.0002129999999999979,-0.178646,-0.46679899999999996,-0.037961999999999996,0.164514,-0.489699,0.008372000000000003,-0.23397600000000002,-0.869749,0.029097,0.21515399999999998,-0.925149,0.029682
59,0.003138500000000001,0.7597225000000001,0.10174799999999999,-0.1703425,0.5607025000000001,0.075388,-0.2444025,0.8263225000000001,-0.026836000000000002,0.1783075,0.5540225000000001,0.107144,0.2918475,0.7914225,0.030170000000000002,-0.2407825,1.1188425,-0.102374,0.3352275,1.0198425,-0.064412,-0.0785745,-0.00012150000000000008,0.00016400000000000095,0.0785745,0.00012150000000000008,-0.00016400000000000095,-0.1787425,-0.4664475,-0.040027999999999994,0.1653575,-0.48933750000000004,0.00613,-0.2338725,-0.8690675,0.028006,0.2152475,-0.9236975,0.029644
60,0.003065999999999995,0.760428,0.100483,-0.17051,0.5609179999999999,0.074458,-0.24534,0.826508,-0.028715000000000004,0.17791,0.554418,0.105473,0.29202,0.791778,0.02873,-0.24203999999999998,1.119558,-0.10502299999999999,0.33546,1.020168,-0.066719,-0.078654,-0.00012900000000000064,6.899999999999962e-05,0.078654,0.00012900000000000064,-6.899999999999962e-05,-0.17892000000000002,-0.46571199999999996,-0.042229,0.16615000000000002,-0.488752,0.004161999999999999,-0.23382999999999998,-0.868352,0.026957,0.21574,-0.922282,0.028692999999999996
61,0.002992999999999997,0.7611085,0.099033,-0.170696,0.5610584999999999,0.073336,-0.246346,0.8267085000000001,-0.030865999999999998,0.177644,0.5548685,0.103591,0.29221400000000003,0.7922285,0.026957000000000002,-0.243256,1.1203685,-0.107899,0.335864,1.0202185,-0.069606,-0.078731,-0.0001554999999999994,-4.999999999999796e-05,0.078731,0.00015550000000000286,5.000000000000143e-05,-0.17918599999999998,-0.4644115,-0.044767,0.166874,-0.48660149999999996,0.0017590000000000001,-0.23377599999999998,-0.8670614999999999,0.026125000000000002,0.216274,-0.9209514999999999,0.027706
62,0.0030055000000000047,0.761668,0.0972565,-0.1708445,0.561288,0.0720945,-0.24734450000000002,0.826928,-0.0333855,0.1775755,0.555288,0.1014785,0.2924055,0.792528,0.0247505,-0.24440449999999997,1.120828,-0.1112055,0.3363955,1.018898,-0.0727505,-0.0787915,-0.0001539999999999979,-0.0002144999999999994,0.0787915,0.00015400000000000136,0.0002144999999999994,-0.17958449999999998,-0.463252,-0.04731250000000001,0.1677555,-0.48462200000000005,-0.000837499999999998,-0.2338845,-0.865902,0.0252755,0.21691549999999998,-0.9203819999999999,0.026236500000000003
63,0.003130000000000002,0.762289,0.094614,-0.17087200000000002,0.561739,0.07038900000000001,-0.24863200000000002,0.8262189999999999,-0.036702,0.177728,0.5557989999999999,0.098777,0.292848,0.792889,0.0216,-0.24585200000000001,1.1207390000000002,-0.11577400000000002,0.337148,1.017099,-0.076785,-0.07886,-0.00017299999999999954,-0.00036800000000000027,0.07886,0.00017299999999999954,0.00036800000000000027,-0.18015199999999998,-0.46164099999999997,-0.05046400000000001,0.16949799999999998,-0.483011,-0.004178999999999999,-0.233892,-0.865001,0.023891000000000003,0.217478,-0.919151,0.024865
64,0.0031550000000000007,0.762746,0.091663,-0.17076799999999998,0.562096,0.068472,-0.250048,0.825076,-0.040269,0.17747200000000002,0.5559860000000001,0.095629,0.293402,0.793066,0.017933,-0.24752800000000003,1.1198059999999999,-0.12100300000000001,0.338092,1.015396,-0.081635,-0.07892,-0.0002160000000000009,-0.00051,0.07892,0.00021599999999999744,0.00051,-0.181008,-0.459974,-0.053921,0.17155199999999998,-0.48134400000000005,-0.007951,-0.234058,-0.8632839999999999,0.022394999999999998,0.217802,-0.917484,0.023677
65,0.0032774999999999944,0.763189,0.088227,-0.17068650000000002,0.562639,0.066202,-0.25143649999999995,0.823839,-0.04406,0.17731349999999999,0.556109,0.091922,0.2943135,0.7935289999999999,0.013404,-0.2492765,1.118899,-0.126636,0.3392935,1.0136290000000001,-0.087086,-0.0790535,-0.00027299999999999894,-0.0005940000000000008,0.0790535,0.00027299999999999894,0.000593999999999999,-0.1820565,-0.457321,-0.05749599999999999,0.17381349999999998,-0.479351,-0.011884000000000002,-0.2343565,-0.861291,0.020822,0.2177235,-0.9150210000000001,0.023096
66,0.003375499999999997,0.763837,0.0842745,-0.1706665,0.5630470000000001,0.0635835,-0.25283649999999996,0.8224670000000001,-0.0481745,0.1770935,0.5561170000000001,0.0878535,0.29540350000000004,0.794107,0.0081075,-0.2519265,1.1119869999999998,-0.1330655,0.34064350000000004,1.012057,-0.09394549999999999,-0.0791885,-0.00022699999999999804,-0.0006944999999999989,0.0791885,0.0002270000000000015,0.0006945000000000007,-0.1832165,-0.454473,-0.061043499999999994,0.17650349999999998,-0.47632299999999994,-0.0161755,-0.2348365,-0.859103,0.0191265,0.21760349999999998,-0.911883,0.0226895
67,0.0034034999999999994,0.7640625,0.0796915,-0.1707205,0.5632925,0.0603615,-0.2543105,0.8207525,-0.0527825,0.1769395,0.5559525,0.08309249999999999,0.29661950000000004,0.7943925000000001,0.0016845000000000002,-0.2547005,1.1043925,-0.13976650000000002,0.3419595,1.0102525,-0.1018065,-0.0794365,-0.0002124999999999974,-0.0007445000000000004,0.0794365,0.0002124999999999974,0.0007445000000000004,-0.1845705,-0.4511775,-0.06449850000000001,0.1793695,-0.47243749999999995,-0.020310500000000002,-0.2355905,-0.8569975,0.0173075,0.21768949999999998,-0.9087475,0.021478499999999998
68,0.0034149999999999988,0.7641005,0.074449,-0.17066599999999998,0.5635005,0.056900000000000006,-0.255846,0.8190605,-0.057684,0.176794,0.5556305,0.077969,0.298074,0.7948904999999999,-0.005541000000000001,-0.257616,1.0972505000000001,-0.146762,0.34349399999999997,1.0086005,-0.11102200000000001,-0.079746,-0.0002484999999999987,-0.0006849999999999998,0.079746,0.0002484999999999987,0.0006849999999999998,-0.186006,-0.4474595,-0.068034,0.18237399999999998,-0.46830950000000005,-0.024543,-0.23631600000000003,-0.8545195,0.015574999999999999,0.217804,-0.9053095,0.020003
69,0.003443,0.7641730000000001,0.06897299999999999,-0.17061500000000002,0.563693,0.053195,-0.257415,0.8170430000000001,-0.062949,0.17677500000000002,0.5552130000000001,0.072539,0.29961499999999996,0.794323,-0.013576,-0.260705,1.089753,-0.154035,0.34512499999999996,1.007143,-0.12126500000000001,-0.080104,-0.00024199999999999916,-0.0005389999999999995,0.080104,0.00024199999999999916,0.0005389999999999995,-0.187525,-0.443457,-0.071571,0.185375,-0.46396699999999996,-0.028716,-0.23716500000000001,-0.851657,0.013732000000000001,0.218045,-0.9020969999999999,0.018359
70,0.0035480000000000043,0.7640665,0.0630385,-0.170324,0.5637464999999999,0.0492435,-0.259154,0.8150265,-0.0686105,0.176656,0.5549664999999999,0.0668305,0.301106,0.7937065,-0.021971499999999998,-0.264154,1.0820365,-0.1619325,0.346586,1.0030965,-0.1321025,-0.080489,-0.00015249999999999986,-0.00032249999999999987,0.080489,0.00015249999999999986,0.00032249999999999987,-0.189144,-0.4391735,-0.0748785,0.188136,-0.4592235,-0.0329435,-0.238184,-0.8486635,0.011740500000000001,0.218126,-0.8980035000000001,0.017149499999999998
71,0.003706000000000002,0.7637285,0.056788,-0.16998999999999997,0.5635485,0.045072,-0.26088,0.8115085,-0.074391,0.17665999999999998,0.5549685,0.061205999999999997,0.30265000000000003,0.7927285,-0.030861,-0.26785,1.0738785,-0.17025600000000002,0.34802,1.0000985,-0.143206,-0.080911,-7.549999999999918e-05,0.0,0.080911,7.549999999999918e-05,0.0,-0.19082,-0.4347615,-0.078219,0.19090000000000001,-0.4541915,-0.037228000000000004,-0.23931999999999998,-0.8458915,0.009618999999999999,0.21819,-0.8930415,0.015623999999999999
72,0.003895,0.7633715000000001,0.050863500000000006,-0.16960799999999998,0.5630615000000001,0.0409105,-0.262338,0.8090115,-0.0798195,0.176792,0.5541515,0.0550285,0.304112,0.7916815,-0.0399895,-0.27155799999999997,1.0662215000000002,-0.1780635,0.349292,0.9973715000000001,-0.1544135,-0.081368,0.00013450000000000267,0.0002975,0.081368,-0.00013450000000000267,-0.0002975,-0.19255799999999998,-0.4304285,-0.08132450000000001,0.19348200000000002,-0.4489785,-0.041160499999999996,-0.240498,-0.8425484999999999,0.007409499999999999,0.21821200000000002,-0.8883884999999999,0.0135155
73,0.0042375,0.7625515,0.044305500000000005,-0.16910350000000002,0.5622615000000001,0.0364895,-0.2637535,0.8065615,-0.08572750000000001,0.17686649999999998,0.5540015,0.0491095,0.30546650000000003,0.7900615000000001,-0.0495235,-0.2751535,1.0583115,-0.18619249999999998,0.35042650000000003,0.9937415,-0.1660025,-0.0818075,0.0002564999999999998,0.0007095,0.0818075,-0.0002564999999999998,-0.0007095000000000001,-0.1943535,-0.4261785,-0.0843475,0.1960665,-0.4420085,-0.0456165,-0.2418335,-0.8388985,0.0049685,0.21838649999999998,-0.8818585,0.0112035
74,0.004716,0.7619475,0.0372375,-0.168406,0.5612975,0.0317105,-0.265116,0.8041874999999999,-0.0921255,0.177154,0.5534074999999999,0.0425615,0.306734,0.7882874999999999,-0.0593545,-0.278776,1.0511775,-0.1948145,0.35160399999999997,0.9900774999999999,-0.17853449999999998,-0.082259,0.0004765000000000047,0.0010605,0.082259,-0.00047649999999999776,-0.0010605,-0.196276,-0.4215525,-0.0875315,0.198624,-0.43473249999999997,-0.0502725,-0.243096,-0.8344125,0.0023905000000000003,0.218604,-0.8761325000000001,0.0074035
75,0.005238499999999998,0.761085,0.0299735,-0.1676475,0.5605549999999999,0.026764499999999997,-0.2663575,0.801625,-0.0986555,0.1775125,0.552605,0.0356555,0.3080325,0.785885,-0.0694365,-0.2815075,1.049755,-0.2035815,0.35258249999999997,0.9859850000000001,-0.1906115,-0.08265249999999999,0.0006880000000000011,0.0013705000000000002,0.08265249999999999,-0.0006879999999999942,-0.0013705,-0.1983475,-0.416625,-0.0908635,0.2014125,-0.427755,-0.054550499999999995,-0.24422750000000001,-0.829445,-0.0003054999999999998,0.2188225,-0.8696950000000001,0.0044455
76,0.005835999999999994,0.760112,0.022401499999999998,-0.166857,0.559912,0.0218705,-0.267307,0.799132,-0.10526350000000001,0.17796299999999998,0.551682,0.029012499999999997,0.309413,0.7833019999999999,-0.07931949999999999,-0.28402700000000003,1.046822,-0.2129125,0.353703,0.9814419999999999,-0.2033125,-0.082941,0.000900999999999999,0.0017244999999999995,0.082941,-0.000900999999999999,-0.0017245000000000003,-0.200497,-0.41000800000000004,-0.0948785,0.20416299999999998,-0.42054800000000003,-0.0589665,-0.245277,-0.824518,-0.003322500000000001,0.219613,-0.862488,0.0012614999999999996
77,0.006447500000000004,0.7592089999999999,0.015015,-0.1659635,0.559059,0.016574000000000002,-0.2680235,0.796179,-0.11224400000000001,0.1784265,0.5506989999999999,0.022458,0.3107865,0.780059,-0.088953,-0.2862435,1.040379,-0.222574,0.3546465,0.976649,-0.215134,-0.08317150000000001,0.0012080000000000007,0.0019450000000000005,0.08317150000000001,-0.0012080000000000007,-0.0019449999999999997,-0.2025235,-0.403231,-0.09901099999999999,0.20703649999999998,-0.41268099999999996,-0.063354,-0.2462635,-0.8192210000000001,-0.006482999999999999,0.2210165,-0.854781,-0.0024089999999999997
78,0.0070825,0.7580085,0.0070504999999999995,-0.1649795,0.5581085,0.0109545,-0.2686195,0.7930885,-0.1194895,0.17874050000000002,0.5497085,0.0156875,0.3121705,0.7774785,-0.0988025,-0.2884595,1.0340285,-0.2326495,0.35554050000000004,0.9710885,-0.22716950000000002,-0.0833755,0.0013764999999999888,0.0021785,0.0833755,-0.0013765000000000027,-0.0021785,-0.20484950000000002,-0.3967315,-0.1032495,0.21016049999999997,-0.4056915,-0.0677585,-0.24726949999999998,-0.8137615,-0.0096595,0.2225005,-0.8479615,-0.0075325
79,0.007665500000000002,0.756528,-0.0012275000000000012,-0.16417749999999998,0.557448,0.005232499999999998,-0.2690675,0.789768,-0.1271785,0.17934250000000002,0.548168,0.008633499999999999,0.31356249999999997,0.774238,-0.1090455,-0.2903775,1.027968,-0.2428585,0.3564225,0.968238,-0.2393785,-0.0835355,0.001580999999999999,0.0023455000000000004,0.0835355,-0.001580999999999999,-0.002345500000000002,-0.20746749999999997,-0.390042,-0.1077525,0.21366249999999998,-0.398442,-0.0720325,-0.24820750000000003,-0.808942,-0.013282500000000001,0.2238325,-0.841232,-0.012813500000000002
80,0.0081855,0.7552435,-0.009892499999999999,-0.1633435,0.5571935,-0.0007794999999999989,-0.2694035,0.7875435,-0.1353395,0.17992650000000002,0.5463435,0.0010065000000000004,0.31488649999999996,0.7711735,-0.1195295,-0.2920435,1.0222035,-0.25364949999999997,0.3572165,0.9651035,-0.2521595,-0.08362149999999999,0.001730499999999996,0.002342500000000001,0.08362149999999999,-0.001730499999999996,-0.002342499999999999,-0.2101935,-0.3835565,-0.1124805,0.2173565,-0.3912765,-0.0764995,-0.2492835,-0.8036965,-0.0173045,0.2252565,-0.8336965000000001,-0.014898499999999999
81,0.008533500000000003,0.7535369999999999,-0.019424999999999998,-0.16251849999999998,0.5560269999999999,-0.007706999999999999,-0.26967850000000004,0.785117,-0.144418,0.1800315,0.545507,-0.006276999999999998,0.31591149999999996,0.768277,-0.13008799999999998,-0.2934085,1.016247,-0.265158,0.35810149999999996,0.961587,-0.26550799999999997,-0.0835545,0.001788999999999999,0.0022670000000000017,0.0835545,-0.001788999999999999,-0.002266999999999998,-0.2130685,-0.377033,-0.117524,0.2210215,-0.384563,-0.081076,-0.2503285,-0.7976730000000001,-0.02155,0.2269215,-0.8264130000000001,-0.018241
82,0.0088475,0.7525569999999999,-0.028853,-0.16169350000000002,0.555337,-0.015022,-0.2698735,0.7830570000000001,-0.154195,0.1802465,0.5444370000000001,-0.014171000000000001,0.3168765,0.765417,-0.140845,-0.2945635,1.011047,-0.27727500000000005,0.3590665,0.9581569999999999,-0.27919499999999997,-0.08347550000000001,0.0019770000000000065,0.0020939999999999986,0.08347550000000001,-0.0019769999999999927,-0.002094000000000002,-0.2160535,-0.371183,-0.122692,0.22482649999999998,-0.378853,-0.085125,-0.2513635,-0.7919430000000001,-0.025791,0.2283165,-0.820573,-0.020679
83,0.009180500000000005,0.7513595,-0.038168,-0.1609985,0.5548495,-0.022399,-0.27003849999999996,0.7808295,-0.164267,0.1804715,0.5434995,-0.021716,0.3175515,0.7624695,-0.151177,-0.29533849999999995,1.0041795,-0.290777,0.35998149999999995,0.9545395,-0.292247,-0.0833145,0.001950499999999994,0.0019570000000000004,0.0833145,-0.0019505000000000078,-0.0019570000000000004,-0.21910849999999998,-0.3654305,-0.128077,0.22877150000000002,-0.3731005,-0.089092,-0.2525185,-0.7858905,-0.03015,0.2299215,-0.8148205,-0.022985
84,0.009600000000000001,0.749505,-0.048188,-0.160292,0.553545,-0.030446,-0.270122,0.778065,-0.175075,0.180738,0.541715,-0.029607,0.31798800000000005,0.759265,-0.161405,-0.295782,0.9972650000000001,-0.304085,0.360808,0.950345,-0.305595,-0.083192,0.001915,0.0018540000000000015,0.083192,-0.001915,-0.0018540000000000015,-0.222242,-0.35945499999999997,-0.133755,0.232478,-0.367125,-0.093478,-0.25364200000000003,-0.779295,-0.034579,0.231988,-0.8088449999999999,-0.029822
85,0.009925000000000003,0.74777,-0.0581355,-0.159659,0.55182,-0.0385975,-0.270149,0.77501,-0.18634250000000002,0.180971,0.54101,-0.0368815,0.318371,0.75536,-0.1711625,-0.296099,0.9917800000000001,-0.31739249999999997,0.361491,0.9467000000000001,-0.31795249999999997,-0.08305599999999999,0.0017599999999999977,0.0017295000000000019,0.08305599999999999,-0.0017599999999999977,-0.0017295000000000019,-0.225569,-0.35341,-0.13888250000000002,0.236491,-0.3629,-0.0980235,-0.254569,-0.7722100000000001,-0.038816500000000004,0.233661,-0.8039099999999999,-0.036915500000000004
86,0.009995500000000003,0.74586,-0.06852849999999999,-0.1590625,0.55043,-0.0468615,-0.26967250000000004,0.77244,-0.1981375,0.18086750000000001,0.54014,-0.0444905,0.3187375,0.75169,-0.1809075,-0.2965025,0.98949,-0.33094749999999995,0.36221749999999997,0.94253,-0.3305475,-0.0829165,0.0015399999999999997,0.0017134999999999997,0.0829165,-0.0015399999999999997,-0.0017134999999999997,-0.22931249999999997,-0.34497,-0.1442075,0.24082750000000003,-0.35638000000000003,-0.1028525,-0.25551250000000003,-0.76469,-0.0432145,0.23511749999999998,-0.7973899999999999,-0.0454905
87,0.010057,0.743835,-0.078702,-0.158496,0.548585,-0.055319,-0.269166,0.7697449999999999,-0.209838,0.180734,0.539575,-0.051865,0.31922399999999995,0.7484249999999999,-0.190468,-0.296546,0.9865250000000001,-0.34491799999999995,0.36289400000000005,0.938355,-0.34242799999999995,-0.082769,0.0013350000000000029,0.0016480000000000036,0.082769,-0.0013350000000000029,-0.0016479999999999967,-0.232596,-0.335685,-0.149528,0.24516400000000002,-0.348895,-0.107834,-0.25661599999999996,-0.7570349999999999,-0.047574,0.236924,-0.790305,-0.053299
88,0.0104095,0.74255,-0.0939585,-0.1575095,0.54657,-0.0690345,-0.2683495,0.7676400000000001,-0.2264685,0.1808705,0.5405599999999999,-0.06376949999999999,0.3197305,0.7455099999999999,-0.2047485,-0.2959995,0.9840500000000001,-0.3637885,0.3637005,0.93398,-0.3589585,-0.0825435,0.0010999999999999899,0.0013275000000000023,0.0825435,-0.0010999999999999899,-0.0013274999999999954,-0.2355295,-0.3272,-0.1597285,0.24929050000000003,-0.34054,-0.1179995,-0.2576495,-0.74892,-0.05719049999999999,0.2394605,-0.78223,-0.0663445
89,0.011051499999999994,0.7451099999999999,-0.11164450000000001,-0.15589650000000002,0.54479,-0.0855225,-0.2671265,0.7666900000000001,-0.2463395,0.1809235,0.5396700000000001,-0.0785025,0.3203535,0.74685,-0.22134949999999998,-0.2949465,0.98569,-0.3849095,0.3648635,0.9341200000000001,-0.37782950000000004,-0.08243249999999999,0.0007700000000000207,0.0009794999999999943,0.08243249999999999,-0.0007699999999999929,-0.0009795000000000012,-0.24154650000000003,-0.31550999999999996,-0.1760495,0.25849350000000004,-0.32791,-0.1334955,-0.26105649999999997,-0.73752,-0.0741315,0.2455635,-0.7697499999999999,-0.07956150000000001
90,0.011703,0.747325,-0.12859700000000002,-0.154432,0.544165,-0.100861,-0.26593199999999995,0.766455,-0.264832,0.180938,0.539175,-0.09244000000000001,0.32088799999999995,0.747375,-0.23759200000000003,-0.293922,0.987165,-0.405352,0.365978,0.934295,-0.39601200000000003,-0.082409,0.0008050000000000002,0.0007100000000000023,0.082409,-0.0008050000000000002,-0.0007100000000000023,-0.247382,-0.304245,-0.19185200000000002,0.267718,-0.314915,-0.14813700000000002,-0.264582,-0.726615,-0.090588,0.25179799999999997,-0.7569049999999999,-0.09234
91,0.012515000000000002,0.7484900000000001,-0.1453065,-0.15290499999999999,0.54364,-0.11535050000000001,-0.264605,0.7646200000000001,-0.2825355,0.181115,0.5387299999999999,-0.1056205,0.32145500000000005,0.74675,-0.2531455,-0.29276500000000005,0.9875100000000001,-0.4251355,0.36721499999999996,0.9345399999999999,-0.41363550000000004,-0.082222,0.0008500000000000174,0.0004604999999999887,0.082222,-0.0008499999999999897,-0.0004605000000000026,-0.252795,-0.29237,-0.2072655,0.27663499999999996,-0.30311,-0.16213149999999998,-0.26785499999999995,-0.7151000000000001,-0.10677450000000001,0.25814499999999996,-0.74472,-0.1048375
92,0.0133965,0.74929,-0.162221,-0.15141549999999998,0.54188,-0.13022,-0.2632255,0.76253,-0.300609,0.1813845,0.53841,-0.11893300000000001,0.3220445,0.74483,-0.268469,-0.2914855,0.98844,-0.443849,0.3685345,0.93353,-0.431639,-0.0817855,0.0009900000000000186,0.00014199999999998936,0.0817855,-0.0009899999999999909,-0.00014200000000000323,-0.2580555,-0.28047999999999995,-0.222189,0.28542449999999997,-0.29120999999999997,-0.175745,-0.2709955,-0.7039099999999999,-0.122634,0.2643745,-0.73244,-0.117051
93,0.0144645,0.75074,-0.17859,-0.1498825,0.5406,-0.144708,-0.2619725,0.76023,-0.31884999999999997,0.1819575,0.53881,-0.132223,0.3228375,0.74307,-0.28395000000000004,-0.2900225,0.98787,-0.46365999999999996,0.3700775,0.93177,-0.44936,-0.08131250000000001,0.0010499999999999954,-0.00020000000000000573,0.08131250000000001,-0.0010500000000000231,0.00019999999999999185,-0.2630425,-0.26827,-0.23699,0.29405749999999997,-0.2787,-0.188635,-0.2739925,-0.6928,-0.138668,0.2706375,-0.7197,-0.13023
94,0.0154375,0.751475,-0.195198,-0.1483015,0.539375,-0.15915200000000002,-0.2607315,0.757415,-0.336805,0.1823185,0.538065,-0.146094,0.3236285,0.741685,-0.300335,-0.28868150000000004,0.986355,-0.48451500000000003,0.3711385,0.9281349999999999,-0.467525,-0.08086950000000001,0.0011649999999999994,-0.0005650000000000099,0.08086950000000001,-0.0011649999999999994,0.0005649999999999961,-0.2676815,-0.25649500000000003,-0.251725,0.30229849999999997,-0.26756499999999994,-0.20100200000000001,-0.2765715,-0.681565,-0.15441000000000002,0.2762985,-0.707935,-0.140098
95,0.016352000000000002,0.7513150000000001,-0.212022,-0.147057,0.538125,-0.173765,-0.259697,0.754465,-0.35405,0.182433,0.537535,-0.160098,0.324403,0.739635,-0.31771,-0.287397,0.9833350000000001,-0.50618,0.37200300000000003,0.925795,-0.48743,-0.080432,0.0011349999999999971,-0.0008499999999999897,0.080432,-0.0011349999999999971,0.0008500000000000174,-0.272067,-0.244785,-0.2662,0.310113,-0.25673500000000005,-0.21318199999999998,-0.278667,-0.6704249999999999,-0.16990499999999997,0.282153,-0.697575,-0.15605
96,0.017398000000000004,0.750955,-0.229271,-0.14566800000000002,0.536455,-0.188483,-0.258398,0.751465,-0.37251,0.18259199999999998,0.5361549999999999,-0.17432,0.325202,0.7362249999999999,-0.33518000000000003,-0.285938,0.9793050000000001,-0.5284,0.373052,0.917915,-0.50761,-0.080013,0.0012450000000000239,-0.0012199999999999989,0.080013,-0.0012449999999999961,0.0012199999999999989,-0.27639800000000003,-0.23307499999999998,-0.28051000000000004,0.317922,-0.24578499999999998,-0.224962,-0.281198,-0.660445,-0.185882,0.28732199999999997,-0.687095,-0.166838
97,0.0179485,0.7501850000000001,-0.241741,-0.1448015,0.5340750000000001,-0.198378,-0.25733150000000005,0.746275,-0.38639500000000004,0.1818885,0.531495,-0.184745,0.3254585,0.731865,-0.348325,-0.28485150000000004,0.9732750000000001,-0.547015,0.37347850000000005,0.9109050000000001,-0.522595,-0.0796335,0.0012749999999999984,-0.0012749999999999984,0.0796335,-0.0012749999999999984,0.0012749999999999984,-0.2807315,-0.22090499999999996,-0.289625,0.3255585,-0.234375,-0.231896,-0.28382149999999995,-0.650785,-0.19689800000000002,0.2916685,-0.675915,-0.172967
98,0.018071000000000004,0.744835,-0.251815,-0.14434599999999997,0.531085,-0.205782,-0.25630600000000003,0.739975,-0.397395,0.18097400000000002,0.528165,-0.19239599999999998,0.32540399999999997,0.722505,-0.35884499999999997,-0.284176,0.961415,-0.5635950000000001,0.373734,0.8992450000000001,-0.536635,-0.079207,0.0014949999999999963,-0.0012449999999999961,0.079207,-0.0014949999999999963,0.0012449999999999961,-0.281636,-0.21333499999999997,-0.293765,0.328374,-0.226805,-0.2358,-0.283566,-0.645065,-0.200958,0.292454,-0.668215,-0.17699499999999999
99,0.017953499999999997,0.7383599999999999,-0.262145,-0.1440295,0.52827,-0.213263,-0.25536949999999997,0.73112,-0.409275,0.1798805,0.52393,-0.200497,0.32529050000000004,0.7108099999999999,-0.370055,-0.2838495,0.9479,-0.580825,0.3736805,0.88616,-0.5508850000000001,-0.0788375,0.0014199999999999768,-0.0011349999999999971,0.0788375,-0.0014200000000000323,0.0011349999999999971,-0.2825295,-0.20604,-0.298175,0.3309205,-0.21951000000000004,-0.24000300000000002,-0.28343949999999996,-0.6377700000000001,-0.20530800000000002,0.2929505,-0.6609200000000001,-0.18099500000000002
100,0.0181925,0.73211,-0.27371,-0.14334049999999998,0.52586,-0.221939,-0.2541105,0.72336,-0.42196,0.1789695,0.51998,-0.209752,0.3249495,0.70123,-0.38256,-0.28338050000000004,0.9349099999999999,-0.5987,0.37364949999999997,0.8718299999999999,-0.56566,-0.0788565,0.0012800000000000034,-0.0008499999999999897,0.0788565,-0.0012800000000000034,0.0008499999999999897,-0.28310050000000003,-0.19793,-0.3036,0.33390949999999997,-0.21138,-0.24521700000000002,-0.2831105,-0.6296600000000001,-0.210683,0.2936495,-0.65249,-0.18446200000000001
101,0.0183025,0.7252750000000001,-0.285085,-0.14285949999999997,0.5196350000000001,-0.23126799999999997,-0.2534895,0.7133750000000001,-0.433585,0.17796050000000002,0.515885,-0.218598,0.3242405,0.691735,-0.395005,-0.28289949999999997,0.9212950000000001,-0.616525,0.3735105,0.858105,-0.580265,-0.0788845,0.0010550000000000281,-0.0005249999999999977,0.0788845,-0.0010549999999999726,0.0005250000000000254,-0.2835695,-0.19156499999999999,-0.30771499999999996,0.3367105,-0.20514499999999997,-0.24775799999999998,-0.2821995,-0.621745,-0.214909,0.29381050000000003,-0.6432749999999999,-0.186995
102,0.018563000000000003,0.717945,-0.29661,-0.142275,0.514365,-0.240394,-0.253195,0.704385,-0.445,0.177125,0.512345,-0.227215,0.323745,0.680865,-0.40692,-0.282325,0.9084049999999999,-0.6341600000000001,0.37346500000000005,0.844085,-0.5954699999999999,-0.07907600000000001,0.0007050000000000112,-0.00010999999999999899,0.07907600000000001,-0.0007050000000000112,0.00010999999999999899,-0.283715,-0.185705,-0.31076,0.33970500000000003,-0.199245,-0.250417,-0.277715,-0.613645,-0.214583,0.29403500000000005,-0.6340350000000001,-0.189986
103,0.018499499999999995,0.7107950000000001,-0.30832,-0.14198349999999998,0.508875,-0.250166,-0.2531335,0.696265,-0.45707,0.1759865,0.506075,-0.23802,0.3228865,0.6703049999999999,-0.41976,-0.28206349999999997,0.895725,-0.65166,0.3732265,0.8324550000000001,-0.61186,-0.0790955,0.0006950000000000012,0.0002500000000000002,0.0790955,-0.0006950000000000012,-0.0002500000000000002,-0.2842735,-0.178535,-0.31411,0.3425565,-0.19205499999999998,-0.253909,-0.2733935,-0.603525,-0.214909,0.2945165,-0.626365,-0.194425
104,0.018575000000000008,0.703815,-0.3201,-0.141564,0.503395,-0.258928,-0.25291399999999997,0.6868449999999999,-0.46909999999999996,0.174946,0.499785,-0.24789099999999997,0.32213600000000003,0.659105,-0.43118,-0.28177399999999997,0.8814850000000001,-0.66841,0.37310600000000005,0.8183149999999999,-0.62674,-0.07902,0.0007949999999999902,0.0005600000000000049,0.07902,-0.0007949999999999902,-0.0005599999999999772,-0.28471399999999997,-0.17207500000000003,-0.31703,0.345206,-0.185595,-0.25715899999999997,-0.26894399999999996,-0.5936650000000001,-0.21484299999999998,0.294646,-0.617575,-0.198062
105,0.0186905,0.69587,-0.33237000000000005,-0.1410885,0.49577,-0.268177,-0.2523485,0.67351,-0.48099000000000003,0.1739115,0.49239,-0.25863600000000003,0.3215315,0.64703,-0.44281000000000004,-0.2816685,0.86863,-0.68435,0.3731815,0.80728,-0.6419,-0.0790765,0.0008400000000000074,0.0014899999999999913,0.0790765,-0.0008400000000000074,-0.001490000000000019,-0.2850785,-0.16573000000000004,-0.32066000000000006,0.3475215,-0.17920000000000003,-0.261444,-0.2644785,-0.5839400000000001,-0.215151,0.2896315,-0.60856,-0.19765300000000002
106,0.018874999999999996,0.68787,-0.343845,-0.14065,0.48986999999999997,-0.276496,-0.25176,0.6619200000000001,-0.49145500000000003,0.17331,0.48814,-0.267905,0.3211,0.6354,-0.453005,-0.28169,0.8552799999999999,-0.698665,0.37336,0.7955099999999999,-0.656865,-0.079127,0.0010699999999999599,0.0023249999999999937,0.079127,-0.0010700000000000154,-0.0023250000000000215,-0.28553,-0.15939000000000003,-0.32394500000000004,0.34931,-0.17204000000000003,-0.26561,-0.26015,-0.57419,-0.21488600000000002,0.28432,-0.5999800000000001,-0.19617600000000002
107,0.0191915,0.68004,-0.354895,-0.14005250000000002,0.48434,-0.284491,-0.2512025,0.6513100000000001,-0.500815,0.1721375,0.48356,-0.277512,0.3205975,0.62534,-0.463805,-0.28177250000000004,0.84389,-0.712135,0.37353749999999997,0.78438,-0.670585,-0.0791785,0.0014799999999999813,0.0031950000000000034,0.0791785,-0.0014800000000000368,-0.0031950000000000034,-0.2858525,-0.15198,-0.327305,0.35055749999999997,-0.16366000000000003,-0.269764,-0.2560925,-0.56375,-0.214333,0.2789875,-0.59068,-0.194458
108,0.019545500000000004,0.675095,-0.36643499999999996,-0.1393365,0.478605,-0.293173,-0.25043649999999995,0.643375,-0.510165,0.1710635,0.479615,-0.287595,0.32004350000000004,0.618145,-0.475645,-0.2817965,0.8337749999999999,-0.725425,0.37393350000000003,0.774905,-0.685065,-0.0792065,0.0016149999999999776,0.0035550000000000026,0.0792065,-0.0016149999999999776,-0.0035550000000000026,-0.2861365,-0.143685,-0.331365,0.3515235,-0.15419500000000003,-0.274939,-0.2520865,-0.5524549999999999,-0.214269,0.2736035,-0.5798749999999999,-0.19325
109,0.020141500000000003,0.67013,-0.376405,-0.1385045,0.47285,-0.300664,-0.24916449999999998,0.6355,-0.518865,0.1700355,0.47512,-0.296782,0.3199955,0.61012,-0.485875,-0.2816245,0.82256,-0.7377849999999999,0.3747755,0.7659,-0.698855,-0.0790495,0.0019500000000000073,0.0035650000000000126,0.0790495,-0.0019499999999999518,-0.003564999999999985,-0.2861345,-0.13588999999999996,-0.33504500000000004,0.3521955,-0.14539999999999997,-0.279489,-0.24804449999999997,-0.54177,-0.213486,0.26867549999999996,-0.5689799999999999,-0.192799
110,0.020727499999999996,0.6650499999999999,-0.38585,-0.1379165,0.47224,-0.30666899999999997,-0.24784649999999997,0.62966,-0.5285299999999999,0.16932350000000002,0.47118,-0.305628,0.3198835,0.60236,-0.49666,-0.2815565,0.81036,-0.7500899999999999,0.3752235,0.7565500000000001,-0.7124299999999999,-0.0788905,0.0023299999999999987,0.0035300000000000054,0.0788905,-0.0023299999999999987,-0.0035300000000000054,-0.28619649999999996,-0.12803000000000003,-0.33875,0.3527235,-0.13653000000000004,-0.283794,-0.24451649999999997,-0.5304300000000001,-0.212689,0.2633335,-0.55814,-0.192711
111,0.02107,0.6591400000000001,-0.394355,-0.137488,0.46881,-0.313379,-0.24670799999999998,0.62366,-0.538065,0.168692,0.46538999999999997,-0.314713,0.319392,0.59606,-0.507375,-0.281578,0.79852,-0.760955,0.375182,0.74806,-0.725275,-0.07883,0.00272,0.0033149999999999846,0.07883,-0.00272,-0.0033150000000000124,-0.286468,-0.11946000000000001,-0.342615,0.353032,-0.12761,-0.287619,-0.244238,-0.5205900000000001,-0.21596100000000001,0.257622,-0.54728,-0.19249200000000002
112,0.021364499999999995,0.6527750000000001,-0.401685,-0.1370545,0.46608900000000003,-0.31872500000000004,-0.2455745,0.6147450000000001,-0.546125,0.1683155,0.463025,-0.32071500000000003,0.3183355,0.5882350000000001,-0.5156750000000001,-0.2815745,0.786155,-0.770445,0.37457549999999995,0.736445,-0.735635,-0.0787985,0.002815000000000012,0.0030949999999999867,0.0787985,-0.0028149999999999564,-0.0030950000000000144,-0.28659450000000003,-0.11241499999999999,-0.34514500000000004,0.3531855,-0.12071499999999996,-0.290129,-0.24392450000000002,-0.512745,-0.21799600000000002,0.2516255,-0.538515,-0.19050400000000003
113,0.021498500000000004,0.645695,-0.40854,-0.1365405,0.462255,-0.32475000000000004,-0.24458049999999998,0.607405,-0.55361,0.1679595,0.459776,-0.32736000000000004,0.3171595,0.581385,-0.5241,-0.2814305,0.7755650000000001,-0.77961,0.3739195,0.725725,-0.74568,-0.0787625,0.0027850000000000374,0.002809999999999979,0.0787625,-0.002784999999999982,-0.002810000000000007,-0.2868505,-0.10466499999999995,-0.34764000000000006,0.3528195,-0.11358499999999999,-0.29340700000000003,-0.24357050000000002,-0.504155,-0.21999700000000003,0.2452695,-0.528915,-0.18876800000000002
114,0.021656999999999996,0.640015,-0.413875,-0.136087,0.460816,-0.329905,-0.24344700000000002,0.602695,-0.559405,0.167673,0.45712400000000003,-0.332785,0.316423,0.576095,-0.531575,-0.281117,0.764615,-0.788525,0.372943,0.7175750000000001,-0.7555050000000001,-0.07856199999999999,0.002815000000000012,0.001805000000000001,0.07856199999999999,-0.002815000000000012,-0.001805000000000001,-0.287067,-0.09684500000000001,-0.349595,0.352103,-0.10655500000000001,-0.29624700000000004,-0.243307,-0.49589500000000003,-0.221252,0.244663,-0.520025,-0.190364
115,0.021735,0.63382,-0.418935,-0.135716,0.457802,-0.33531500000000003,-0.24242600000000003,0.59739,-0.565445,0.16721399999999997,0.453311,-0.338465,0.314754,0.5707,-0.540475,-0.280656,0.75372,-0.797555,0.371454,0.70689,-0.764645,-0.078403,0.002599999999999991,0.0007049999999999834,0.078403,-0.002599999999999991,-0.0007050000000000112,-0.287266,-0.08954000000000001,-0.352045,0.350554,-0.10000999999999999,-0.298877,-0.24313600000000002,-0.48817999999999995,-0.22251200000000002,0.24403400000000003,-0.51139,-0.191438
116,0.021611500000000006,0.62853,-0.424595,-0.1354055,0.454449,-0.340405,-0.2413155,0.59089,-0.572315,0.1671245,0.45003899999999997,-0.343595,0.3126245,0.56401,-0.548015,-0.2801455,0.7416499999999999,-0.806065,0.36964450000000004,0.6956899999999999,-0.772945,-0.0783395,0.0021700000000000053,-0.00033500000000000196,0.0783395,-0.0021700000000000053,0.00033500000000000196,-0.28738549999999996,-0.08376,-0.354285,0.3485745,-0.09460000000000002,-0.302367,-0.2430455,-0.48196,-0.223601,0.2434145,-0.5053099999999999,-0.19295800000000002
117,0.021358000000000002,0.6215999999999999,-0.429415,-0.13518,0.450113,-0.344855,-0.23995,0.58283,-0.578535,0.16693,0.446404,-0.348145,0.3102,0.5566599999999999,-0.5535950000000001,-0.27983,0.72855,-0.813465,0.36734,0.68275,-0.779465,-0.07818900000000001,0.0017199999999999993,-0.0008249999999999924,0.07818900000000001,-0.0017199999999999993,0.0008249999999999924,-0.28743,-0.07900000000000001,-0.355545,0.34643999999999997,-0.09008,-0.305107,-0.24309000000000003,-0.47663,-0.224192,0.24275,-0.50046,-0.194245
118,0.021199,0.614595,-0.43401,-0.13483,0.44506,-0.34936999999999996,-0.23847000000000002,0.573875,-0.58385,0.16674,0.442355,-0.35263,0.30778,0.5487949999999999,-0.55934,-0.27959,0.715605,-0.82061,0.36519,0.670715,-0.78614,-0.078147,0.0010950000000000126,-0.0012199999999999989,0.078147,-0.0010950000000000126,0.0012200000000000266,-0.28737999999999997,-0.07447500000000001,-0.35667,0.34456000000000003,-0.08613500000000002,-0.30771899999999996,-0.24301,-0.471935,-0.224742,0.24203000000000002,-0.494915,-0.19447799999999998
119,0.020833499999999998,0.60825,-0.440125,-0.1346815,0.439372,-0.354695,-0.2372315,0.5647599999999999,-0.588475,0.1665785,0.43731699999999996,-0.358085,0.3051585,0.5406,-0.564675,-0.27978149999999996,0.70331,-0.827465,0.3629385,0.65879,-0.792355,-0.07818449999999999,0.0005699999999999594,-0.00192500000000001,0.07818449999999999,-0.0005700000000000149,0.00192500000000001,-0.2875915,-0.07038000000000005,-0.358185,0.3419785,-0.08284000000000002,-0.310927,-0.2431515,-0.46784000000000003,-0.225862,0.2411085,-0.491,-0.195887
120,0.020232499999999994,0.602435,-0.44659,-0.1346775,0.434857,-0.35967,-0.2361975,0.554905,-0.5926400000000001,0.1661425,0.433481,-0.36314,0.3023025,0.531615,-0.5698099999999999,-0.2800575,0.689745,-0.83455,0.3603625,0.644765,-0.79791,-0.0781785,0.00021500000000002073,-0.00245999999999999,0.0781785,-0.00021500000000002073,0.0024600000000000177,-0.2879175,-0.06704500000000002,-0.35985999999999996,0.3388825,-0.08065499999999998,-0.314112,-0.24344749999999998,-0.464555,-0.22716599999999998,0.2399925,-0.487975,-0.19778099999999998
121,0.019569000000000003,0.59759,-0.453195,-0.134764,0.430075,-0.364845,-0.235614,0.54735,-0.596545,0.16581600000000002,0.429315,-0.368405,0.299856,0.524297,-0.575105,-0.280364,0.6774899999999999,-0.841425,0.358176,0.63341,-0.803685,-0.078293,-0.00015999999999999348,-0.0029649999999999954,0.078293,0.00015999999999999348,0.0029649999999999954,-0.288364,-0.06348999999999999,-0.361405,0.33595600000000003,-0.07805999999999996,-0.317033,-0.243894,-0.46104000000000006,-0.22841399999999998,0.238836,-0.48473000000000005,-0.199892
122,0.018893,0.59386,-0.459015,-0.134671,0.425758,-0.36950500000000003,-0.234831,0.53792,-0.600465,0.165549,0.426205,-0.373095,0.297729,0.516826,-0.580485,-0.28051099999999995,0.66563,-0.848175,0.356279,0.62258,-0.8085450000000001,-0.078396,-0.00037999999999999146,-0.0034350000000000214,0.078396,0.00037999999999999146,0.0034349999999999936,-0.288491,-0.06036999999999998,-0.36284500000000003,0.33354900000000004,-0.07548999999999995,-0.31962100000000004,-0.24414100000000002,-0.45802,-0.229612,0.23798899999999998,-0.48221,-0.20203300000000002
123,0.017939500000000004,0.5897,-0.464785,-0.1346665,0.42223,-0.373705,-0.2343265,0.530122,-0.604195,0.1654435,0.423996,-0.37766500000000003,0.2959035,0.509563,-0.586185,-0.2809765,0.6535,-0.8533350000000001,0.3548635,0.61145,-0.812725,-0.0784675,-0.0005999999999999894,-0.0038849999999999996,0.0784675,0.0005999999999999894,0.0038849999999999996,-0.28842650000000003,-0.05765999999999999,-0.36407500000000004,0.3312535,-0.07359000000000004,-0.321901,-0.2443665,-0.45545,-0.230789,0.2370435,-0.48002,-0.203936
124,0.017062,0.585765,-0.47041999999999995,-0.134658,0.41891599999999996,-0.37793,-0.23392800000000002,0.522324,-0.60773,0.16538200000000003,0.42172299999999996,-0.38215,0.294292,0.503185,-0.59056,-0.281518,0.6429849999999999,-0.85835,0.354012,0.602955,-0.8171999999999999,-0.078637,-0.0006950000000000012,-0.0041999999999999815,0.078637,0.0006950000000000012,0.004200000000000009,-0.288168,-0.05507500000000004,-0.36541,0.329392,-0.07200500000000004,-0.324164,-0.244618,-0.45295500000000005,-0.232058,0.23614200000000002,-0.477605,-0.206006
125,0.016195999999999995,0.58126,-0.47427,-0.134746,0.415394,-0.38135,-0.233766,0.514864,-0.60964,0.164704,0.41948199999999997,-0.38573999999999997,0.292914,0.49692,-0.59421,-0.282546,0.6328499999999999,-0.86244,0.353214,0.59202,-0.82051,-0.078758,-0.0008200000000000429,-0.004660000000000025,0.078758,0.0008199999999999874,0.0046599999999999975,-0.288156,-0.05292000000000002,-0.3661,0.327574,-0.07044000000000006,-0.32558,-0.244796,-0.45096,-0.23264700000000002,0.23516399999999998,-0.47546,-0.20708200000000002
126,0.015249000000000002,0.57708,-0.4774,-0.13481900000000002,0.41244400000000003,-0.38448,-0.233709,0.508138,-0.61132,0.16386099999999998,0.41715,-0.38905999999999996,0.291801,0.491074,-0.59782,-0.283789,0.62313,-0.86625,0.352591,0.58316,-0.82345,-0.078836,-0.0007599999999999829,-0.005109999999999976,0.078836,0.0007600000000000384,0.005110000000000003,-0.288069,-0.05115999999999998,-0.36667,0.325401,-0.06964999999999999,-0.32691499999999996,-0.245079,-0.44928,-0.23318299999999997,0.23428100000000002,-0.47387,-0.20796299999999998
127,0.014226999999999998,0.573815,-0.47994000000000003,-0.13493500000000003,0.410053,-0.38702000000000003,-0.233975,0.50302,-0.61251,0.163205,0.41564700000000004,-0.3917,0.290975,0.48665,-0.60055,-0.285155,0.615645,-0.8689100000000001,0.351765,0.576865,-0.82476,-0.078917,-0.0008849999999999691,-0.005209999999999992,0.078917,0.0008850000000000247,0.005209999999999992,-0.288395,-0.04940499999999998,-0.36683,0.324005,-0.06865500000000002,-0.327868,-0.24538500000000002,-0.447485,-0.233292,0.233315,-0.472525,-0.208727
128,0.013188999999999996,0.57202,-0.48081,-0.13517200000000001,0.40922,-0.389,-0.234262,0.49999299999999997,-0.6134,0.16261799999999998,0.41613199999999995,-0.39359,0.290388,0.484598,-0.60312,-0.286822,0.61156,-0.8704700000000001,0.351058,0.57319,-0.8258399999999999,-0.07925499999999999,-0.0011000000000000454,-0.005379999999999996,0.07925499999999999,0.0010999999999999899,0.005379999999999996,-0.288602,-0.046560000000000046,-0.36744,0.322928,-0.06762000000000001,-0.329515,-0.245722,-0.44457,-0.23347800000000002,0.23232799999999998,-0.47016,-0.209267
129,0.012271999999999998,0.572285,-0.48133000000000004,-0.13519799999999998,0.40982,-0.39021,-0.23436800000000002,0.498495,-0.61348,0.162252,0.417544,-0.39496,0.290242,0.4851,-0.60558,-0.28844800000000004,0.611405,-0.8710800000000001,0.35088199999999997,0.573925,-0.82646,-0.079473,-0.0013050000000000006,-0.005569999999999992,0.079473,0.0013050000000000006,0.005569999999999992,-0.28866800000000004,-0.043715000000000004,-0.36817,0.32268199999999997,-0.06622500000000003,-0.33120499999999997,-0.24579800000000002,-0.441675,-0.23395,0.23155199999999998,-0.467185,-0.209397
130,0.011981499999999999,0.573655,-0.480595,-0.1351425,0.410992,-0.390385,-0.2345225,0.4979,-0.612655,0.1620975,0.419277,-0.395225,0.2903275,0.48676600000000003,-0.606875,-0.29003249999999997,0.612865,-0.870345,0.3508775,0.575565,-0.825625,-0.0796325,-0.001204999999999956,-0.005404999999999993,0.0796325,0.0012050000000000116,0.005404999999999993,-0.2885925,-0.04130499999999998,-0.368595,0.32275750000000003,-0.06526500000000002,-0.333205,-0.24576250000000002,-0.43910499999999997,-0.233725,0.23117749999999998,-0.4643149999999999,-0.209217
131,0.011212999999999996,0.57658,-0.47835,-0.135352,0.41294,-0.38878,-0.234792,0.501275,-0.61104,0.16197799999999998,0.421295,-0.39361999999999997,0.290298,0.489992,-0.6052599999999999,-0.291422,0.61624,-0.8681399999999999,0.350828,0.5788,-0.8232999999999999,-0.079721,-0.0011800000000000144,-0.005580000000000002,0.079721,0.0011800000000000144,0.005580000000000002,-0.289432,-0.039569999999999994,-0.36872,0.322908,-0.06414999999999998,-0.33403,-0.245992,-0.43690999999999997,-0.23207,0.230898,-0.46179,-0.207232
132,0.010750500000000003,0.57948,-0.47555000000000003,-0.1357425,0.415126,-0.38629,-0.2356825,0.504175,-0.60871,0.1618875,0.42370800000000003,-0.39088999999999996,0.2902075,0.492892,-0.60243,-0.2927925,0.61914,-0.8653899999999999,0.3509075,0.5817,-0.82046,-0.0797925,-0.0012300000000000089,-0.005750000000000005,0.0797925,0.0012300000000000089,0.005750000000000005,-0.2907225,-0.03808,-0.36831,0.3229975,-0.06124999999999997,-0.33415,-0.2463725,-0.43507,-0.22985999999999998,0.2307975,-0.45958000000000004,-0.20475
133,0.010668999999999998,0.5815100000000001,-0.472505,-0.136055,0.417156,-0.38326499999999997,-0.236825,0.506205,-0.606485,0.16192499999999999,0.42573800000000006,-0.387845,0.290245,0.49492200000000003,-0.599385,-0.294015,0.62117,-0.862165,0.351205,0.5837300000000001,-0.817395,-0.080001,-0.0012499999999999734,-0.005964999999999998,0.080001,0.0012500000000000289,0.005964999999999998,-0.291945,-0.03739999999999993,-0.36777499999999996,0.323265,-0.059639999999999915,-0.333755,-0.246625,-0.4341499999999999,-0.227433,0.230785,-0.45829999999999993,-0.20208500000000001
134,0.0107295,0.5829300000000001,-0.46878,-0.1363085,0.418576,-0.38005,-0.2383285,0.510308,-0.60446,0.1620515,0.42715800000000004,-0.3846,0.2904415,0.496342,-0.59614,-0.2951285,0.62331,-0.85767,0.3516915,0.5851500000000001,-0.81309,-0.0802085,-0.0011799999999999589,-0.0061400000000000066,0.0802085,0.0011800000000000144,0.0061400000000000066,-0.2934185,-0.03722000000000003,-0.36713,0.3235915,-0.05860999999999994,-0.33294,-0.24683850000000002,-0.4336,-0.224802,0.2308915,-0.45682999999999996,-0.198464
135,0.011028999999999994,0.5845400000000001,-0.464045,-0.136302,0.419066,-0.37660499999999997,-0.239602,0.5141560000000001,-0.601725,0.162428,0.42764800000000003,-0.381135,0.290918,0.498545,-0.592475,-0.296022,0.62664,-0.852515,0.352488,0.5875,-0.8076249999999999,-0.08029800000000001,-0.0011299999999999644,-0.006474999999999981,0.08029800000000001,0.0011300000000000199,0.0064750000000000085,-0.295032,-0.03757999999999995,-0.36621499999999996,0.324498,-0.05857000000000001,-0.331935,-0.246792,-0.43389999999999995,-0.22193899999999997,0.231248,-0.45609999999999995,-0.194679
136,0.0117045,0.58842,-0.458795,-0.1358805,0.420747,-0.372495,-0.2405405,0.519327,-0.598975,0.1633795,0.428883,-0.376945,0.2919395,0.501945,-0.587705,-0.29662049999999995,0.63183,-0.846745,0.35369949999999994,0.5915,-0.801115,-0.0802575,-0.0011299999999999644,-0.0066849999999999965,0.0802575,0.0011300000000000199,0.0066849999999999965,-0.2968105,-0.038429999999999964,-0.364915,0.3260695,-0.05901999999999996,-0.330155,-0.2464105,-0.4347,-0.21870699999999998,0.2321895,-0.45645,-0.191097
137,0.012441499999999998,0.59453,-0.45359,-0.1353885,0.424055,-0.36856999999999995,-0.24153850000000002,0.526355,-0.59685,0.16449149999999998,0.4312,-0.37270000000000003,0.2933715,0.5073,-0.58314,-0.2970685,0.63912,-0.8410500000000001,0.3550115,0.59973,-0.7954100000000001,-0.0802805,-0.0011299999999999644,-0.006409999999999999,0.0802805,0.0011300000000000199,0.006409999999999999,-0.29852850000000003,-0.03920000000000001,-0.36343000000000003,0.3280315,-0.05930000000000002,-0.32804,-0.24611850000000002,-0.43549000000000004,-0.21595599999999998,0.2332415,-0.45626,-0.187647
138,0.013330499999999995,0.60226,-0.44777,-0.1349185,0.42979500000000004,-0.3639,-0.2427385,0.534884,-0.59362,0.1657815,0.435745,-0.36719,0.29500149999999997,0.514599,-0.57716,-0.29730850000000003,0.64986,-0.83566,0.35633149999999997,0.60939,-0.78908,-0.08024049999999999,-0.0011299999999999644,-0.006019999999999998,0.08024049999999999,0.0011300000000000199,0.006019999999999998,-0.3000785,-0.03934000000000004,-0.36155,0.3303615,-0.05952999999999997,-0.32525,-0.2458085,-0.43549000000000004,-0.212623,0.2343015,-0.45626999999999995,-0.18413
139,0.014295999999999996,0.611,-0.442295,-0.13464,0.435588,-0.35958500000000004,-0.24367,0.545965,-0.5911150000000001,0.16696,0.440525,-0.362265,0.29652,0.522512,-0.571815,-0.29745,0.6608,-0.8300750000000001,0.35778,0.618,-0.7837149999999999,-0.080296,-0.0008400000000000074,-0.006214999999999998,0.080296,0.0008400000000000074,0.006214999999999998,-0.30123,-0.04057000000000005,-0.360005,0.33208,-0.060850000000000015,-0.322615,-0.24562,-0.43672000000000005,-0.21022000000000002,0.23518,-0.45749999999999996,-0.18143800000000002
140,0.015385999999999999,0.6192949999999999,-0.436515,-0.134102,0.43967799999999996,-0.355795,-0.244642,0.5556859999999999,-0.588835,0.16821799999999998,0.44361799999999996,-0.357725,0.29837800000000003,0.5314239999999999,-0.5660050000000001,-0.297272,0.671195,-0.824635,0.35988800000000004,0.6288549999999999,-0.778545,-0.080294,-0.00011500000000003174,-0.005925000000000014,0.080294,0.00011499999999997623,0.005924999999999986,-0.301012,-0.0439750000000001,-0.35809500000000005,0.333718,-0.06396500000000005,-0.320635,-0.24516200000000002,-0.4401250000000001,-0.20844400000000002,0.23629799999999998,-0.4609150000000001,-0.179618
141,0.016087499999999998,0.62747,-0.43083,-0.1340685,0.444866,-0.35129,-0.2458285,0.56541,-0.58592,0.16890149999999998,0.44755799999999996,-0.35270999999999997,0.2996415,0.5389839999999999,-0.56003,-0.2974085,0.6805699999999999,-0.81919,0.3614515,0.6384399999999999,-0.77337,-0.0803055,0.00025999999999998247,-0.005529999999999979,0.0803055,-0.000260000000000038,0.005530000000000007,-0.3007985,-0.04901,-0.35617,0.3348815,-0.06781000000000004,-0.31864,-0.24529850000000003,-0.44518,-0.20666099999999998,0.2368315,-0.4655100000000001,-0.177471
142,0.0166325,0.6350100000000001,-0.425035,-0.1342595,0.4492900000000001,-0.34652499999999997,-0.24707949999999998,0.57535,-0.582875,0.1693605,0.45107400000000003,-0.347815,0.3007605,0.545497,-0.553545,-0.29763949999999995,0.6897000000000001,-0.813755,0.36278049999999995,0.64719,-0.7677149999999999,-0.0803535,0.000250000000000028,-0.004564999999999986,0.0803535,-0.00024999999999997247,0.0045650000000000135,-0.3007495,-0.05584,-0.354425,0.3357205,-0.07297999999999993,-0.316725,-0.24567950000000002,-0.45202,-0.20521999999999999,0.2371105,-0.47200999999999993,-0.175925
143,0.016982499999999998,0.642125,-0.417925,-0.13460950000000002,0.453712,-0.340835,-0.24800950000000002,0.5790949999999999,-0.578125,0.1696905,0.454399,-0.342105,0.30265050000000004,0.553225,-0.547265,-0.2980095,0.698805,-0.8077050000000001,0.3639905,0.655375,-0.7622550000000001,-0.0803895,0.0002449999999999952,-0.003965000000000024,0.0803895,-0.0002449999999999952,0.003964999999999996,-0.30086949999999996,-0.06344499999999997,-0.352445,0.3364305,-0.07987500000000003,-0.314365,-0.24617950000000002,-0.46055500000000005,-0.20339700000000002,0.2373005,-0.480545,-0.174246
144,0.017341500000000003,0.64913,-0.41045,-0.1349575,0.45621399999999995,-0.33501000000000003,-0.2490775,0.5825199999999999,-0.57118,0.1700325,0.45641899999999996,-0.33616,0.3047425,0.5596399999999999,-0.5403899999999999,-0.2984275,0.7076199999999999,-0.80077,0.3653725,0.66615,-0.75651,-0.0804415,0.00041999999999997595,-0.0030999999999999917,0.0804415,-0.00042000000000003146,0.0031000000000000194,-0.3010175,-0.07296000000000002,-0.34999,0.3368425,-0.08861000000000008,-0.31179999999999997,-0.24669750000000001,-0.47098000000000007,-0.201461,0.2374425,-0.49111000000000005,-0.172182
145,0.017802500000000002,0.6555,-0.402915,-0.1348185,0.461179,-0.32877500000000004,-0.25017849999999997,0.5863499999999999,-0.564355,0.1706315,0.460928,-0.329535,0.30707150000000005,0.56628,-0.533015,-0.29862849999999996,0.7170799999999999,-0.7936949999999999,0.3666815,0.6759299999999999,-0.7511749999999999,-0.0804885,0.0006099999999999994,-0.0023350000000000037,0.0804885,-0.0006099999999999994,0.0023350000000000037,-0.3009185,-0.08327000000000001,-0.347615,0.33669150000000003,-0.09852,-0.309305,-0.2471885,-0.48312000000000005,-0.199778,0.2377315,-0.5035000000000001,-0.170737
146,0.018312999999999996,0.661405,-0.394865,-0.134797,0.46461899999999995,-0.32228500000000004,-0.250947,0.5898049999999999,-0.5543450000000001,0.171153,0.46422699999999995,-0.322755,0.309033,0.573135,-0.525255,-0.298737,0.725975,-0.785855,0.367803,0.685605,-0.7446550000000001,-0.080561,0.0006849999999999912,-0.001595000000000013,0.080561,-0.0006850000000000467,0.0015949999999999853,-0.300327,-0.09323500000000001,-0.34467500000000006,0.336363,-0.10984500000000008,-0.30673500000000004,-0.251137,-0.49665500000000007,-0.20260000000000003,0.243373,-0.516965,-0.17443700000000004
147,0.018529499999999997,0.668155,-0.38671,-0.1349635,0.46618899999999996,-0.31643,-0.2519635,0.594255,-0.5448500000000001,0.1713765,0.466516,-0.31681000000000004,0.3110165,0.5809949999999999,-0.51754,-0.2989135,0.734895,-0.77675,0.3685465,0.6960949999999999,-0.7369600000000001,-0.0807485,0.0007349999999999857,-0.0009000000000000119,0.0807485,-0.0007350000000000412,0.0008999999999999841,-0.2996435,-0.10309500000000005,-0.34199,0.3357965,-0.121865,-0.30454000000000003,-0.2553435,-0.5106350000000001,-0.20577800000000002,0.2480465,-0.530235,-0.178683
148,0.0181335,0.67401,-0.37776,-0.1356825,0.471372,-0.30931,-0.2536225,0.59572,-0.53483,0.1713475,0.470664,-0.30917,0.31279749999999995,0.58818,-0.50856,-0.2988925,0.74603,-0.7663599999999999,0.3685075,0.70579,-0.72849,-0.0808725,0.0007300000000000084,-0.0004099999999999937,0.0808725,-0.0007299999999999529,0.0004099999999999937,-0.29851249999999996,-0.11435999999999996,-0.33854,0.33428749999999996,-0.13401999999999992,-0.30224,-0.2596725,-0.52615,-0.209034,0.2518575,-0.54476,-0.182587
149,0.018098500000000003,0.6808,-0.36849,-0.13589849999999998,0.4768,-0.30155,-0.2549585,0.60271,-0.52418,0.1718115,0.47619999999999996,-0.30108,0.3150215,0.59485,-0.49939,-0.2985485,0.7564599999999999,-0.7565,0.3681015,0.7167,-0.7188,-0.0810915,0.0007299999999999529,9.000000000000674e-05,0.0810915,-0.0007300000000000084,-8.999999999997899e-05,-0.29585849999999997,-0.12644,-0.3347,0.3318815,-0.14634000000000003,-0.29907,-0.26299849999999997,-0.54228,-0.21167599999999998,0.2552815,-0.56084,-0.18741699999999997
150,0.017881999999999995,0.68825,-0.35797,-0.136276,0.4821,-0.29376,-0.256206,0.61131,-0.51307,0.172194,0.48101,-0.29276,0.317324,0.60344,-0.49011000000000005,-0.298356,0.76954,-0.74607,0.367474,0.7264999999999999,-0.70818,-0.081318,0.0007699999999999929,0.0003700000000000092,0.081318,-0.0007699999999999929,-0.0003700000000000092,-0.29242599999999996,-0.13926,-0.33052000000000004,0.327624,-0.15894000000000003,-0.29635,-0.26622599999999996,-0.5590299999999999,-0.214196,0.258274,-0.57738,-0.192572
151,0.0176345,0.696485,-0.347315,-0.1365425,0.488055,-0.286205,-0.2569225,0.621165,-0.503305,0.1724475,0.486635,-0.284165,0.3196975,0.6125849999999999,-0.48134499999999997,-0.2982925,0.781525,-0.736285,0.3667175,0.7375149999999999,-0.697575,-0.0813175,0.0010349999999999526,0.0005549999999999999,0.0813175,-0.0010350000000000081,-0.0005549999999999999,-0.2883025,-0.15182500000000004,-0.326415,0.3219175,-0.17090500000000003,-0.293485,-0.2695025,-0.575405,-0.216849,0.2606675,-0.593265,-0.198101
152,0.017709499999999996,0.7059249999999999,-0.33655,-0.1365335,0.49470499999999995,-0.27824,-0.2571735,0.632525,-0.49504,0.1729365,0.49280499999999994,-0.275134,0.3214365,0.622185,-0.47048,-0.29767350000000004,0.794875,-0.7253099999999999,0.3659165,0.750315,-0.68713,-0.0813055,0.001224999999999976,0.0005400000000000127,0.0813055,-0.0012250000000000316,-0.0005399999999999849,-0.2831535,-0.16474500000000003,-0.32252000000000003,0.3149865,-0.18295500000000003,-0.29086,-0.2722035,-0.5917950000000001,-0.219249,0.26266649999999997,-0.609325,-0.204032
153,0.017942,0.715085,-0.32560500000000003,-0.13640600000000003,0.502765,-0.269914,-0.257136,0.644385,-0.487095,0.17380400000000001,0.499625,-0.26577,0.323214,0.631985,-0.459785,-0.296896,0.808545,-0.714495,0.364914,0.7632749999999999,-0.675705,-0.081278,0.0014149999999999996,0.0002550000000000052,0.081278,-0.0014149999999999996,-0.0002550000000000052,-0.27733599999999997,-0.177545,-0.318355,0.306584,-0.195075,-0.288255,-0.27477599999999996,-0.608075,-0.22218,0.264664,-0.625425,-0.209875
154,0.0183565,0.72403,-0.31315,-0.1367325,0.50789,-0.261339,-0.25715249999999995,0.6542399999999999,-0.47906,0.1748175,0.50412,-0.256174,0.32460750000000005,0.64202,-0.44989,-0.2962025,0.82179,-0.7022299999999999,0.36399750000000003,0.7749299999999999,-0.66405,-0.0813635,0.0014799999999999813,2.0000000000020002e-05,0.0813635,-0.0014799999999999813,-1.9999999999992246e-05,-0.27115249999999996,-0.19094,-0.31303000000000003,0.29739750000000004,-0.20828000000000002,-0.28501,-0.2770625,-0.6240699999999999,-0.224057,0.2663975,-0.6417200000000001,-0.215033
155,0.019135000000000003,0.732755,-0.30025999999999997,-0.13660899999999998,0.5139849999999999,-0.252285,-0.256449,0.664725,-0.46926999999999996,0.17628100000000002,0.509595,-0.246409,0.326501,0.651875,-0.43884,-0.294879,0.8359749999999999,-0.6894800000000001,0.363301,0.7884249999999999,-0.65174,-0.081351,0.001815000000000011,-0.00018999999999999573,0.081351,-0.001815000000000011,0.00019000000000002348,-0.26425899999999997,-0.20542500000000002,-0.30718999999999996,0.288091,-0.22130500000000003,-0.28143999999999997,-0.277229,-0.6398550000000001,-0.221327,0.266261,-0.657235,-0.21287399999999998
156,0.019851,0.740845,-0.28687,-0.136572,0.5214449999999999,-0.24208800000000003,-0.255382,0.6780649999999999,-0.45863000000000004,0.177778,0.515355,-0.23608600000000002,0.327888,0.662655,-0.42717,-0.293012,0.851855,-0.6765800000000001,0.36259800000000003,0.802685,-0.64011,-0.081338,0.002234999999999987,-0.00040000000000001146,0.081338,-0.0022350000000000148,0.0003999999999999837,-0.257202,-0.220065,-0.30057,0.277878,-0.235365,-0.2771,-0.277412,-0.655765,-0.21830700000000003,0.26607800000000004,-0.6739850000000001,-0.209854
157,0.020834999999999996,0.748385,-0.272575,-0.13645000000000002,0.524715,-0.23298200000000002,-0.25412,0.692445,-0.447885,0.17929,0.519715,-0.226626,0.32903,0.673705,-0.416125,-0.29142999999999997,0.8664649999999999,-0.663505,0.36182000000000003,0.817815,-0.6273150000000001,-0.081332,0.0026650000000000007,-0.0005050000000000054,0.081332,-0.0026650000000000007,0.0005050000000000054,-0.25051999999999996,-0.23343499999999998,-0.293285,0.26759,-0.24824499999999997,-0.272455,-0.27759,-0.671235,-0.21538200000000002,0.2659,-0.689705,-0.206929
158,0.022158499999999998,0.7520899999999999,-0.25762300000000005,-0.1363105,0.5289200000000001,-0.22185500000000002,-0.2528605,0.7006,-0.43548000000000003,0.1809595,0.52214,-0.216115,0.3299995,0.68174,-0.40425,-0.2891105,0.8811,-0.6476500000000001,0.3612995,0.82809,-0.61429,-0.0811855,0.003290000000000015,-0.0009000000000000119,0.0811855,-0.0032899999999999874,0.0008999999999999841,-0.2439405,-0.2481,-0.28337,0.2574495,-0.26227,-0.26554,-0.2748405,-0.68648,-0.21008400000000002,0.2618195,-0.7042999999999999,-0.203555
159,0.023236000000000003,0.754165,-0.242622,-0.136448,0.5318350000000001,-0.211146,-0.251958,0.707825,-0.42207,0.182392,0.525075,-0.205899,0.33023199999999997,0.689505,-0.39154999999999995,-0.286978,0.891795,-0.63247,0.360612,0.839855,-0.60219,-0.080727,0.0037649999999999906,-0.0011399999999999744,0.080727,-0.0037649999999999906,0.0011400000000000021,-0.238298,-0.261475,-0.2729,0.248092,-0.275335,-0.25776,-0.272148,-0.700445,-0.203673,0.257982,-0.717765,-0.19980599999999998
160,0.024615999999999996,0.7548,-0.22716200000000003,-0.136409,0.53511,-0.20025900000000002,-0.250919,0.71575,-0.40829,0.18407099999999998,0.52652,-0.19632300000000003,0.330161,0.69829,-0.37836000000000003,-0.283999,0.9056799999999999,-0.6151,0.359971,0.85446,-0.58798,-0.080444,0.0043199999999999905,-0.0014100000000000223,0.080444,-0.0043199999999999905,0.0014099999999999946,-0.233159,-0.27424000000000004,-0.26167,0.24005100000000001,-0.28802000000000005,-0.24929300000000001,-0.26936899999999997,-0.71386,-0.197473,0.254511,-0.7309300000000001,-0.19566
161,0.0258175,0.7541800000000001,-0.21151499999999998,-0.1363715,0.53799,-0.18952799999999997,-0.2503915,0.72405,-0.392995,0.1858285,0.52755,-0.18711599999999998,0.3301785,0.70519,-0.365455,-0.2811615,0.9180900000000001,-0.5971949999999999,0.3592385,0.8666200000000001,-0.573155,-0.08000750000000001,0.00470000000000001,-0.001564999999999983,0.08000750000000001,-0.004699999999999982,0.0015650000000000108,-0.2288815,-0.29001,-0.249635,0.2330085,-0.29972,-0.23842,-0.26691149999999997,-0.72626,-0.18995399999999998,0.2512985,-0.74309,-0.189126
162,0.027143500000000004,0.75153,-0.194905,-0.13606049999999997,0.5391,-0.178762,-0.2491005,0.73087,-0.379,0.18792950000000003,0.52982,-0.176084,0.3301195,0.7118,-0.35121,-0.27744050000000003,0.93158,-0.57744,0.3585095,0.87532,-0.55691,-0.0799005,0.0047599999999999865,-0.0014399999999999968,0.0799005,-0.004760000000000014,0.0014399999999999968,-0.22482049999999998,-0.30574,-0.236056,0.22710950000000002,-0.31199,-0.225522,-0.2643505,-0.73809,-0.181203,0.2477295,-0.7559,-0.17979699999999998
163,0.027938000000000004,0.7476999999999999,-0.17931699999999998,-0.136073,0.54162,-0.167899,-0.247743,0.74031,-0.3648,0.189367,0.53085,-0.166186,0.33020700000000003,0.71809,-0.33655999999999997,-0.273443,0.94502,-0.5580799999999999,0.35774700000000004,0.8862,-0.5403199999999999,-0.080024,0.0048799999999999955,-0.0013699999999999823,0.080024,-0.0048799999999999955,0.00137000000000001,-0.221043,-0.31981000000000004,-0.22264099999999998,0.221547,-0.32606,-0.21202899999999997,-0.261703,-0.75172,-0.172225,0.244347,-0.76997,-0.170872
164,0.027984999999999996,0.742915,-0.164083,-0.136484,0.544395,-0.157435,-0.246304,0.751135,-0.35101499999999997,0.19031599999999999,0.533735,-0.15628799999999998,0.329886,0.7265849999999999,-0.32343500000000003,-0.269484,0.958255,-0.538535,0.355886,0.896905,-0.524435,-0.080113,0.005055000000000004,-0.0013950000000000073,0.080113,-0.005055000000000004,0.0013950000000000073,-0.21657400000000002,-0.33286499999999997,-0.20659,0.216076,-0.338925,-0.197877,-0.257354,-0.7639450000000001,-0.160607,0.241086,-0.7828350000000001,-0.161988
165,0.0279905,0.7381245,-0.144862,-0.1368495,0.5455544999999999,-0.143239,-0.2452995,0.7577145,-0.33242,0.1911205,0.5358345,-0.142405,0.3294905,0.7320645,-0.30618999999999996,-0.2654295,0.9697945,-0.5143599999999999,0.3538505,0.9057244999999999,-0.50335,-0.0801625,0.005105499999999999,-0.0012800000000000034,0.0801625,-0.005105500000000013,0.0012800000000000034,-0.2122195,-0.34556549999999997,-0.18637700000000001,0.2110005,-0.3513355,-0.17744300000000002,-0.2531095,-0.7730955,-0.144341,0.2380205,-0.7952455,-0.147891
166,0.0276615,0.738428,-0.12529400000000002,-0.1371695,0.548688,-0.12594,-0.2442895,0.762588,-0.31198,0.1915405,0.537548,-0.125233,0.3289205,0.733728,-0.28646,-0.2604695,0.979368,-0.48772000000000004,0.3514205,0.911528,-0.48014,-0.0802475,0.004632999999999998,-0.0007800000000000029,0.0802475,-0.004632999999999998,0.0007800000000000029,-0.20689950000000001,-0.36178200000000005,-0.163741,0.2038805,-0.37056199999999995,-0.151589,-0.2488495,-0.788522,-0.126158,0.2339205,-0.811562,-0.130148
167,0.0269435,0.741075,-0.106143,-0.1379605,0.550975,-0.110386,-0.2432405,0.768625,-0.29247500000000004,0.1914495,0.539685,-0.109475,0.3280095,0.737255,-0.266795,-0.25584049999999997,0.989355,-0.461785,0.3482195,0.918455,-0.456295,-0.08062150000000001,0.004077999999999998,-7.500000000000562e-05,0.08062150000000001,-0.004077999999999998,7.499999999999174e-05,-0.2020505,-0.375135,-0.14277499999999999,0.1971195,-0.386825,-0.12767,-0.2456605,-0.800765,-0.110143,0.23009949999999998,-0.826225,-0.11394
168,0.026163000000000006,0.7443375,-0.087424,-0.13891,0.5534475,-0.09486499999999999,-0.24222,0.7745275,-0.274028,0.19111999999999998,0.5411275,-0.093993,0.32724,0.7399775,-0.24731799999999998,-0.25111,1.0005375,-0.435168,0.345,0.9256975,-0.431528,-0.08102000000000001,0.003523500000000006,0.0006170000000000064,0.08102000000000001,-0.003523499999999999,-0.0006169999999999926,-0.1974,-0.3881125,-0.122111,0.19065,-0.4010325,-0.10424399999999999,-0.24283,-0.8120025,-0.094529,0.22627,-0.8405525,-0.098533
169,0.025300999999999997,0.7480789999999999,-0.06917749999999999,-0.139991,0.555029,-0.07977649999999999,-0.241401,0.7780389999999999,-0.2553605,0.190639,0.5432089999999999,-0.07829649999999999,0.32636899999999996,0.7414189999999999,-0.2280605,-0.247111,1.009279,-0.4094105,0.341819,0.9290689999999999,-0.40889049999999993,-0.08130899999999999,0.0028759999999999966,0.0013265000000000082,0.08130899999999999,-0.0028760000000000036,-0.0013264999999999944,-0.193071,-0.400451,-0.1016145,0.184329,-0.41483099999999995,-0.08128349999999998,-0.240231,-0.822561,-0.07904749999999999,0.222439,-0.854471,-0.08267449999999998
170,0.0240165,0.7516495,-0.0515405,-0.1412095,0.5562495,-0.0653005,-0.24075950000000002,0.7808195,-0.2368555,0.1898805,0.5452895,-0.0628405,0.32534050000000003,0.7425594999999999,-0.2100555,-0.24342950000000002,1.0163195,-0.3846155,0.3384905,0.9331094999999999,-0.3859555,-0.0815215,0.0022485000000000005,0.0019015000000000004,0.0815215,-0.0022485000000000005,-0.0019015000000000004,-0.1891895,-0.4126305,-0.0814725,0.17830050000000003,-0.42921050000000005,-0.0590175,-0.2380695,-0.8328105,-0.0640275,0.21892050000000002,-0.8688705,-0.0681375
171,0.022219000000000003,0.756813,-0.03481050000000001,-0.142984,0.5593629999999999,-0.05035650000000001,-0.240514,0.784453,-0.2183455,0.189006,0.546243,-0.04957650000000001,0.324136,0.743373,-0.19299550000000001,-0.240614,1.021053,-0.36128550000000004,0.335346,0.936543,-0.3649655,-0.081775,0.0020739999999999995,0.0022254999999999914,0.081775,-0.0020739999999999995,-0.0022255000000000053,-0.185784,-0.422697,-0.06298850000000002,0.173976,-0.443677,-0.03821250000000001,-0.236104,-0.840307,-0.049928500000000015,0.21615600000000001,-0.8819670000000001,-0.05539350000000001
172,0.019805999999999997,0.762503,-0.018276500000000008,-0.145465,0.560203,-0.0360945,-0.240915,0.786573,-0.20016250000000002,0.187765,0.547543,-0.0361915,0.322695,0.742483,-0.17629250000000002,-0.238685,1.024943,-0.33843249999999997,0.331845,0.937503,-0.3443625,-0.081889,0.001864000000000001,0.002619499999999997,0.081889,-0.0018639999999999976,-0.0026195000000000038,-0.183065,-0.432217,-0.04550950000000001,0.16983499999999999,-0.45792700000000003,-0.018385500000000006,-0.234875,-0.849027,-0.03643450000000001,0.21343499999999999,-0.8952370000000001,-0.042787500000000006
173,0.017198500000000002,0.768518,-0.0017709999999999948,-0.1481445,0.5607380000000001,-0.021974999999999998,-0.2421145,0.7862680000000001,-0.18370899999999998,0.1864455,0.547018,-0.023162,0.3211455,0.7384080000000001,-0.159319,-0.2374745,1.027998,-0.316379,0.3289455,0.936118,-0.324619,-0.0817975,0.001350999999999998,0.0030620000000000022,0.0817975,-0.0013510000000000015,-0.0030619999999999953,-0.1819845,-0.43892200000000003,-0.031695999999999995,0.16576549999999998,-0.471522,0.00013800000000000617,-0.2357445,-0.857542,-0.025637999999999998,0.2106755,-0.907822,-0.030369999999999998
174,0.015149000000000003,0.773814,0.010358000000000006,-0.150212,0.5621839999999999,-0.012180999999999997,-0.242882,0.7857839999999999,-0.17217699999999997,0.185248,0.547214,-0.012982999999999998,0.320288,0.7342639999999999,-0.147187,-0.236472,1.030324,-0.300307,0.326948,0.934214,-0.310197,-0.081956,0.0009259999999999997,0.003280000000000005,0.081956,-0.0009259999999999997,-0.003279999999999998,-0.180092,-0.44468599999999997,-0.022598999999999998,0.162818,-0.484556,0.011890000000000005,-0.235892,-0.865596,-0.019653999999999998,0.208708,-0.919076,-0.022691999999999997
175,0.013417499999999999,0.7747780000000001,0.020645999999999998,-0.1517595,0.5619780000000001,-0.005906000000000005,-0.2435095,0.786378,-0.162549,0.1846605,0.547238,-0.006657000000000007,0.31985050000000004,0.7334780000000001,-0.137959,-0.2365595,1.033308,-0.287879,0.3257605,0.9340980000000001,-0.298979,-0.0819805,0.0009910000000000006,0.003020999999999996,0.0819805,-0.0009909999999999988,-0.003021000000000003,-0.1790095,-0.445922,-0.017158000000000007,0.1624405,-0.487952,0.017542999999999996,-0.2357895,-0.8682219999999999,-0.015876000000000005,0.2084305,-0.9218719999999999,-0.018846000000000005
176,0.011751000000000004,0.775568,0.0301245,-0.15304,0.561208,-0.00040950000000000014,-0.2442,0.785998,-0.1541095,0.18397,0.547448,-0.0003305000000000044,0.31933999999999996,0.732558,-0.13027850000000002,-0.23736,1.034088,-0.2775695,0.32498000000000005,0.9331780000000001,-0.29014949999999995,-0.082136,0.0009049999999999996,0.0027234999999999968,0.082136,-0.0009049999999999996,-0.0027235000000000037,-0.17865999999999999,-0.44567199999999996,-0.013118500000000002,0.16149,-0.489162,0.021816499999999996,-0.23581,-0.869142,-0.012146500000000005,0.2079,-0.922962,-0.015166500000000003
177,0.009575000000000002,0.7760825,0.039771,-0.15479,0.5604425000000001,0.005127,-0.24528,0.7852425000000001,-0.145815,0.18288000000000001,0.5476725,0.006144000000000004,0.31854000000000005,0.7317925000000001,-0.123159,-0.23853,1.0343225,-0.267885,0.32393000000000005,0.9324125000000001,-0.282515,-0.081965,0.0008195000000000008,0.0024150000000000005,0.081965,-0.000819499999999999,-0.0024150000000000005,-0.17897,-0.4455875,-0.009552999999999999,0.16022,-0.4901075,0.025795,-0.23621999999999999,-0.8699075,-0.008376999999999999,0.20709,-0.9237274999999999,-0.011602999999999999
178,0.007289499999999999,0.776583,0.049315000000000005,-0.1566715,0.559883,0.010534000000000002,-0.2465515,0.784683,-0.137832,0.18175850000000002,0.547953,0.012273,0.31761849999999997,0.731233,-0.116922,-0.23970149999999998,1.034363,-0.259202,0.3228985,0.931853,-0.276172,-0.08181350000000001,0.0007159999999999996,0.002088999999999997,0.08181350000000001,-0.0007159999999999996,-0.0020890000000000006,-0.1794915,-0.445647,-0.006421,0.1597385,-0.49159699999999995,0.029788999999999996,-0.2367815,-0.869957,-0.004749,0.20623850000000002,-0.923297,-0.008404000000000002
179,0.004958000000000002,0.7771224999999999,0.058531,-0.158692,0.5594625,0.016107000000000003,-0.248442,0.7842625,-0.130682,0.18059799999999998,0.5480225,0.018318,0.316828,0.7291225,-0.111064,-0.24115199999999998,1.0344425,-0.25119199999999997,0.321858,0.9301425,-0.270822,-0.08161,0.0005585,0.0017720000000000027,0.08161,-0.0005585,-0.0017719999999999993,-0.180292,-0.4458375,-0.0033229999999999996,0.159678,-0.49238750000000003,0.033121000000000005,-0.23747200000000002,-0.8698875,-0.0011109999999999974,0.205608,-0.9241775000000001,-0.005783
180,0.002859000000000002,0.7777120000000001,0.0674835,-0.160277,0.559122,0.020763500000000004,-0.250407,0.783692,-0.1245375,0.179533,0.548142,0.024113500000000003,0.317523,0.725242,-0.1057615,-0.242987,1.034262,-0.2440175,0.32094300000000003,0.927952,-0.2665575,-0.08133499999999999,0.0004170000000000007,0.001416500000000001,0.08133499999999999,-0.0004170000000000007,-0.0014164999999999976,-0.181047,-0.446008,-0.00047449999999999923,0.159473,-0.49227800000000005,0.0360025,-0.238307,-0.870988,0.0017335000000000024,0.205113,-0.9248879999999999,-0.0032604999999999995
181,0.000891999999999997,0.7783605,0.0760115,-0.16157200000000002,0.5588105,0.024907499999999996,-0.252532,0.7830904999999999,-0.1188235,0.17856799999999998,0.5479904999999999,0.029572499999999998,0.318888,0.7210405,-0.10104450000000001,-0.245062,1.0342105,-0.23742349999999998,0.320508,0.9245504999999999,-0.2637635,-0.081033,0.00029450000000000136,0.0010205000000000006,0.081033,-0.0002944999999999996,-0.0010205000000000006,-0.181752,-0.4460595,0.0018185000000000007,0.159468,-0.49275949999999996,0.038582500000000006,-0.23897200000000002,-0.8696495000000001,0.004889499999999998,0.204698,-0.9251295,-0.0010755
182,-0.0008650000000000047,0.779188,0.08392949999999999,-0.162768,0.558428,0.028858499999999995,-0.25485800000000003,0.7826080000000001,-0.11356650000000001,0.17760199999999998,0.547918,0.0357115,0.32062199999999996,0.7159380000000001,-0.09719150000000001,-0.247358,1.034138,-0.2317105,0.320252,0.920568,-0.2614205,-0.080734,0.00022199999999999998,0.0007314999999999995,0.080734,-0.00022199999999999998,-0.0007315000000000012,-0.18240800000000001,-0.446032,0.0033894999999999967,0.159672,-0.495542,0.0408705,-0.23971800000000001,-0.868532,0.007641499999999999,0.204342,-0.9248019999999999,0.0009504999999999965
183,-0.0023700000000000006,0.7800525,0.09131500000000001,-0.163911,0.5577025,0.032524,-0.256911,0.7822925,-0.108871,0.176849,0.5478525,0.039819,0.322719,0.7109425,-0.093916,-0.249641,1.0338725,-0.22618500000000002,0.320369,0.9159825,-0.259345,-0.080431,0.0001565000000000004,0.000530000000000001,0.080431,-0.0001565000000000004,-0.0005299999999999992,-0.182961,-0.4460975,0.004407000000000001,0.159289,-0.49736749999999996,0.042216000000000004,-0.240311,-0.8685975,0.009435000000000002,0.20415899999999998,-0.9249975,0.0030659999999999993
184,-0.003580000000000004,0.7809595,0.0980095,-0.164892,0.5569295000000001,0.036041500000000004,-0.258672,0.7820195000000001,-0.1045015,0.176258,0.5477895,0.043744500000000006,0.32513800000000004,0.7064695000000001,-0.0914895,-0.251652,1.0337395,-0.2210305,0.32108800000000004,0.9123895000000001,-0.2575205,-0.080205,0.00012249999999999935,0.0004454999999999997,0.080205,-0.00012249999999999935,-0.0004454999999999997,-0.18335200000000001,-0.4461305,0.0052345,0.159068,-0.49945049999999996,0.043248499999999995,-0.240852,-0.8686305,0.0111735,0.204138,-0.9252904999999999,0.0045515
