sb224sc-HT22-VT27/4dt907/src/data/kinect_good_preprocessed_not_cut_A11_mediapipe/A103_kinect.csv
FrameNo,nose_3d_x,nose_3d_y,nose_3d_z,left_shoulder_3d_x,left_shoulder_3d_y,left_shoulder_3d_z,left_elbow_3d_x,left_elbow_3d_y,left_elbow_3d_z,right_shoulder_3d_x,right_shoulder_3d_y,right_shoulder_3d_z,right_elbow_3d_x,right_elbow_3d_y,right_elbow_3d_z,left_wrist_3d_x,left_wrist_3d_y,left_wrist_3d_z,right_wrist_3d_x,right_wrist_3d_y,right_wrist_3d_z,left_hip_3d_x,left_hip_3d_y,left_hip_3d_z,right_hip_3d_x,right_hip_3d_y,right_hip_3d_z,left_knee_3d_x,left_knee_3d_y,left_knee_3d_z,right_knee_3d_x,right_knee_3d_y,right_knee_3d_z,left_ankle_3d_x,left_ankle_3d_y,left_ankle_3d_z,right_ankle_3d_x,right_ankle_3d_y,right_ankle_3d_z
54,-0.002771,0.7764985,0.129718,-0.17866600000000002,0.5808685,0.103467,-0.272706,0.8257085,0.039036,0.175624,0.5692585,0.131872,0.283084,0.8281985,0.103774,-0.287096,1.0933985,0.0011940000000000006,0.330914,1.0538985,0.051946,-0.078621,0.0032555000000000014,-0.002928,0.078621,-0.0032555000000000014,0.002928,-0.128106,-0.4563915,-0.014920000000000003,0.120564,-0.5268815,0.029307,-0.13414600000000002,-0.8504215,0.016839999999999997,0.13605399999999998,-0.9108115,0.014252999999999998
55,-0.002445499999999998,0.7765025,0.12948199999999999,-0.1784685,0.5808725,0.103198,-0.2724185,0.8257125,0.039245,0.1758015,0.5692625,0.131751,0.28355149999999996,0.8281925,0.104259,-0.2875185,1.0928025,0.0016420000000000046,0.33224149999999997,1.0537025,0.052619,-0.0786135,0.0032524999999999984,-0.0028660000000000005,0.0786135,-0.0032525000000000054,0.0028660000000000005,-0.1278485,-0.4563475,-0.015224999999999995,0.1207815,-0.5279775,0.028968,-0.1338885,-0.8504975,0.016534000000000004,0.1364615,-0.9115775,0.013945000000000003
56,-0.0021269999999999996,0.776497,0.129188,-0.178312,0.580887,0.102986,-0.272192,0.825727,0.039201,0.175968,0.569277,0.13152,0.28395800000000004,0.8281970000000001,0.104534,-0.287992,1.092217,0.0018709999999999977,0.33344799999999997,1.053617,0.053109,-0.078599,0.003252999999999999,-0.0028359999999999982,0.078599,-0.003252999999999999,0.0028359999999999982,-0.127642,-0.456593,-0.015588999999999999,0.121068,-0.528423,0.02867,-0.133642,-0.8505429999999999,0.016172,0.136888,-0.912283,0.012681999999999999
57,-0.0018559999999999998,0.776497,0.12885,-0.178182,0.5809070000000001,0.102717,-0.272032,0.825747,0.039087,0.176108,0.569297,0.131266,0.28431799999999996,0.8282170000000001,0.10460900000000001,-0.28844200000000003,1.091637,0.001897999999999997,0.334408,1.0536370000000002,0.053473,-0.078582,0.003273000000000005,-0.002791000000000002,0.078582,-0.003272999999999998,0.002791000000000002,-0.12746200000000002,-0.45715300000000003,-0.015999,0.121228,-0.528893,0.028247,-0.133382,-0.850533,0.015754,0.137218,-0.912943,0.011186000000000001
58,-0.0016104999999999978,0.7764519999999999,0.1284815,-0.1780535,0.580952,0.1024055,-0.2718735,0.825842,0.038878499999999996,0.1762265,0.569332,0.1309725,0.2846265,0.828272,0.10455249999999999,-0.2888935,1.090992,0.0017994999999999955,0.3350865,1.053692,0.05359849999999999,-0.0785715,0.0033110000000000014,-0.002757500000000003,0.0785715,-0.0033110000000000014,0.002757499999999996,-0.1272635,-0.457488,-0.016141500000000003,0.1213265,-0.529338,0.027992499999999997,-0.1331735,-0.851118,0.0154515,0.1374865,-0.913568,0.009708499999999998
59,-0.0014185000000000037,0.776395,0.1280205,-0.1779945,0.580975,0.1019355,-0.2717545,0.825885,0.0384125,0.17632550000000002,0.5693349999999999,0.1305055,0.28489549999999997,0.8282849999999999,0.10409550000000001,-0.2893445,1.090915,0.001297500000000007,0.33567549999999996,1.0537150000000002,0.0531615,-0.0785555,0.0033289999999999986,-0.002753499999999999,0.0785555,-0.0033289999999999986,0.002753500000000006,-0.1269645,-0.457565,-0.0162965,0.1213655,-0.529415,0.027722500000000004,-0.13300450000000003,-0.8511650000000001,0.015129500000000004,0.13774550000000002,-0.913645,0.008671500000000006
60,-0.0012585000000000046,0.7763165,0.12753199999999998,-0.17795450000000002,0.5809965,0.10144,-0.2716445,0.8259365,0.037920999999999996,0.1764055,0.5693465,0.13001200000000002,0.2851355,0.8282865,0.103613,-0.28976450000000004,1.0908365,0.0007729999999999959,0.3361355,1.0537365,0.052692,-0.0785425,0.0033375,-0.0027410000000000004,0.0785425,-0.0033375,0.0027410000000000004,-0.1264745,-0.4561135,-0.016614000000000004,0.1214055,-0.5294935000000001,0.02728,-0.1330845,-0.8506635,0.014936999999999999,0.13786549999999997,-0.9137235,0.007997999999999998
61,-0.001149499999999997,0.776234,0.1270525,-0.1779375,0.581014,0.1009545,-0.27161749999999996,0.826034,0.037436500000000004,0.1764425,0.569354,0.1295285,0.28532250000000003,0.828284,0.10313750000000001,-0.29006750000000003,1.090754,0.00026750000000000385,0.3365325,1.053754,0.0522305,-0.0785375,0.003348999999999998,-0.0027164999999999967,0.0785375,-0.003348999999999998,0.0027165000000000036,-0.1260375,-0.455686,-0.016841499999999995,0.1214225,-0.528606,0.026840500000000003,-0.1330275,-0.8500759999999999,0.014896500000000003,0.1379425,-0.913706,0.007516500000000002
62,-0.001059,0.776158,0.126438,-0.177948,0.581118,0.10049,-0.27160799999999996,0.826178,0.036778,0.176472,0.569448,0.12901100000000001,0.285482,0.8283079999999999,0.102571,-0.290238,1.090308,-0.0006309999999999996,0.336832,1.0536079999999999,0.051604,-0.07852200000000001,0.003399000000000006,-0.002713,0.07852200000000001,-0.0033989999999999992,0.002713,-0.125728,-0.455912,-0.017158,0.12165200000000001,-0.530142,0.026480000000000004,-0.132978,-0.849692,0.015335000000000001,0.13800199999999999,-0.915162,0.007050000000000001
63,-0.0009855,0.776101,0.125852,-0.1779655,0.581211,0.100131,-0.2716155,0.826311,0.036147,0.17652449999999997,0.5695410000000001,0.128547,0.2856045,0.828311,0.102021,-0.2903655,1.089961,-0.001585000000000003,0.3370545,1.053461,0.050839999999999996,-0.0785245,0.003458999999999997,-0.002701000000000002,0.0785245,-0.0034590000000000037,0.002700999999999995,-0.1255455,-0.457639,-0.017256,0.1216245,-0.530329,0.026042999999999997,-0.1329455,-0.849739,0.015399,0.13793450000000002,-0.915959,0.006825999999999999
64,-0.0009230000000000039,0.7760889999999999,0.125259,-0.178004,0.581329,0.099777,-0.271694,0.826469,0.035385,0.176556,0.5696589999999999,0.12808,0.28569599999999995,0.828259,0.101406,-0.29044400000000004,1.090149,-0.002706,0.33726599999999995,1.053449,0.04987,-0.07854,0.0035099999999999992,-0.0027360000000000023,0.07854,-0.0035099999999999992,0.002735999999999999,-0.125414,-0.459171,-0.017356999999999997,0.12135599999999999,-0.530531,0.025601,-0.132834,-0.850071,0.015386,0.137786,-0.916061,0.007006999999999999
65,-0.000855499999999998,0.7760975,0.1246015,-0.1779995,0.5814575,0.0993475,-0.2717795,0.8266675,0.034528500000000004,0.1765805,0.5697975,0.1275425,0.2857905,0.8281675,0.10065650000000001,-0.2904195,1.0904675,-0.004060499999999995,0.3374605,1.0535675,0.0486785,-0.0785575,0.003542499999999997,-0.0027405,0.0785575,-0.003542499999999997,0.0027405000000000033,-0.1253395,-0.4604625,-0.017653499999999996,0.1215505,-0.5307125,0.025130500000000004,-0.13256949999999998,-0.8507925000000001,0.015190500000000003,0.13766050000000002,-0.9161925000000001,0.007099500000000002
66,-0.000789999999999996,0.7760935,0.1239065,-0.178022,0.5815935,0.09891749999999999,-0.27189199999999997,0.8267735,0.0335725,0.176608,0.5698535,0.1269705,0.28589800000000004,0.8280235,0.0997565,-0.290392,1.0907635,-0.005609500000000003,0.337658,1.0536635,0.0472405,-0.078565,0.003560500000000001,-0.0027285000000000018,0.078565,-0.003560500000000001,0.0027284999999999983,-0.12523199999999998,-0.4626965,-0.0180185,0.12173800000000001,-0.5309065000000001,0.024613499999999996,-0.132252,-0.8514465,0.014929499999999998,0.13755799999999999,-0.9162165,0.007313499999999997
67,-0.0007464999999999972,0.776119,0.12313450000000001,-0.1780615,0.581749,0.09842350000000001,-0.27206149999999996,0.826879,0.03235350000000001,0.17661849999999998,0.569929,0.1263305,0.28599850000000004,0.8278289999999999,0.09865950000000001,-0.2903515,1.090989,-0.007386499999999997,0.3378485,1.0536889999999999,0.045484500000000004,-0.0785605,0.0035579999999999987,-0.002731499999999998,0.0785605,-0.0035579999999999987,0.0027315000000000048,-0.1251615,-0.464401,-0.018536499999999997,0.1218785,-0.531141,0.024024500000000004,-0.1320315,-0.852221,0.014572500000000006,0.1374085,-0.916141,0.007601500000000004
68,-0.0007130000000000023,0.776154,0.122358,-0.17808500000000002,0.581944,0.097818,-0.272235,0.8269839999999999,0.031026,0.176615,0.570014,0.12568800000000002,0.286105,0.827634,0.097402,-0.29028499999999996,1.090864,-0.009627999999999998,0.338025,1.053664,0.043429,-0.078565,0.0035670000000000007,-0.0027290000000000023,0.078565,-0.0035670000000000007,0.0027290000000000023,-0.125175,-0.465926,-0.019172999999999996,0.12199499999999999,-0.531336,0.023102,-0.131855,-0.853886,0.014065000000000001,0.137265,-0.9166460000000001,0.007380000000000001
69,-0.0006364999999999962,0.776218,0.1214475,-0.1780735,0.582178,0.0970585,-0.2723935,0.827088,0.029477500000000004,0.1766365,0.570148,0.1248715,0.2862465,0.827468,0.0959295,-0.2901435,1.090898,-0.0121705,0.33821650000000003,1.053798,0.041121500000000005,-0.07857449999999999,0.0035710000000000047,-0.0028175000000000006,0.07857449999999999,-0.0035710000000000047,0.0028175000000000006,-0.1252135,-0.467392,-0.020000499999999997,0.12199650000000001,-0.531582,0.0220375,-0.1317835,-0.855352,0.013441500000000002,0.1371465,-0.917082,0.007024500000000003
70,-0.0005129999999999998,0.7762115,0.12044450000000001,-0.17800300000000002,0.5824415000000001,0.0962365,-0.272483,0.8270615,0.0277315,0.176697,0.5703215,0.12400449999999999,0.286437,0.8272615,0.09422349999999999,-0.289913,1.0910715,-0.014940500000000002,0.338457,1.0537715,0.0383615,-0.078638,0.0035665000000000002,-0.002874500000000002,0.078638,-0.0035665000000000002,0.0028744999999999986,-0.12523299999999998,-0.4697385,-0.020962500000000002,0.122117,-0.5318685,0.0209535,-0.13166299999999997,-0.8571385,0.012807499999999996,0.13721699999999998,-0.9174585,0.006358499999999996
71,-0.0004044999999999956,0.7762215,0.11954500000000001,-0.1779085,0.5824615,0.095446,-0.2726085,0.8270615,0.026223,0.1767515,0.5703415000000001,0.12328,0.2866115,0.8272615,0.092749,-0.2896585,1.0910715,-0.017459000000000002,0.3386615,1.0537715,0.035947,-0.07871449999999999,0.0035665000000000002,-0.0029560000000000003,0.07871449999999999,-0.0035665000000000002,0.0029560000000000003,-0.1253085,-0.47086849999999997,-0.021961,0.1221615,-0.5318685,0.019711,-0.1315085,-0.8574585,0.011446999999999999,0.1372915,-0.9173385,0.0055130000000000005
72,-0.00026800000000000304,0.7762315,0.1185215,-0.177801,0.5824915,0.0946275,-0.272731,0.8270615,0.024451499999999998,0.17682900000000001,0.5703415000000001,0.1224965,0.286809,0.8272615,0.09109149999999999,-0.289381,1.0910715,-0.0203015,0.338889,1.0537715,0.0333645,-0.07880100000000001,0.0035665000000000002,-0.003103500000000002,0.07880100000000001,-0.0035665000000000002,0.0031034999999999986,-0.125361,-0.4720485,-0.0231045,0.12228900000000001,-0.5318685,0.018342499999999998,-0.131331,-0.8575984999999999,0.010163499999999999,0.137399,-0.9173385,0.004796499999999999
73,-2.8000000000000897e-05,0.7762415,0.117228,-0.177654,0.5824915,0.093784,-0.272814,0.8270615,0.022466,0.176926,0.5703415000000001,0.121698,0.28704599999999997,0.8272615,0.089164,-0.289044,1.0910715,-0.023392000000000003,0.339136,1.0537715,0.03048,-0.078897,0.0035665000000000002,-0.003161000000000004,0.078897,-0.0035665000000000002,0.0031610000000000006,-0.125374,-0.47196849999999996,-0.024422,0.122446,-0.5315085,0.01593,-0.131244,-0.8575984999999999,0.008954,0.13752599999999998,-0.9172785,0.004069
74,0.00024349999999999697,0.7762385,0.115869,-0.1775005,0.5826385000000001,0.09296,-0.2728105,0.8269485,0.020269,0.1770695,0.5704385000000001,0.12091,0.2873195,0.8269785000000001,0.08701400000000001,-0.2885605,1.0908185,-0.026705,0.33935950000000004,1.0538185,0.027399,-0.0790005,0.003539500000000001,-0.0032730000000000016,0.0790005,-0.003539500000000008,0.003272999999999998,-0.12519049999999998,-0.47354150000000006,-0.025824,0.1225795,-0.5314615,0.013381999999999998,-0.1310805,-0.8588015,0.007217999999999999,0.13768950000000002,-0.9170915,0.0029149999999999975
75,0.0005704999999999972,0.7763665000000001,0.1143615,-0.17734450000000002,0.5828265,0.0920285,-0.2727045,0.8269965,0.0178245,0.17722549999999998,0.5705665000000001,0.1200285,0.28761549999999997,0.8267365,0.0845745,-0.2880745,1.0905465,-0.0301165,0.3395955,1.0539465000000001,0.0240295,-0.0791055,0.003424499999999997,-0.0033665000000000014,0.0791055,-0.003424500000000004,0.0033665000000000014,-0.12499450000000001,-0.47341350000000004,-0.027398500000000003,0.12272549999999999,-0.5313335,0.0108165,-0.1307845,-0.8600435,0.005416500000000001,0.13789549999999998,-0.9165435,0.001989499999999998
76,0.0009149999999999948,0.7765975,0.112663,-0.177141,0.5831075,0.09088399999999999,-0.272461,0.8269975,0.015371999999999999,0.177379,0.5707975000000001,0.119005,0.287929,0.8265475,0.08189199999999999,-0.287481,1.0902775,-0.033677,0.339819,1.0539775,0.020377,-0.079234,0.003317500000000001,-0.0033060000000000034,0.079234,-0.003317499999999994,0.003306,-0.124791,-0.4735625,-0.029290000000000004,0.12287899999999999,-0.5311025,0.007375,-0.13056099999999998,-0.8613925,0.0035649999999999987,0.13809899999999997,-0.9163625,0.0006459999999999973
77,0.0012795000000000007,0.776826,0.1107235,-0.1768935,0.583436,0.0895415,-0.2722135,0.8269759999999999,0.0127305,0.17753649999999999,0.571086,0.1178415,0.28827650000000005,0.826466,0.0790285,-0.28688349999999996,1.090056,-0.0370625,0.3400365,1.0540559999999999,0.0165255,-0.07937150000000001,0.0031879999999999964,-0.0031774999999999998,0.07937150000000001,-0.0031880000000000033,0.0031774999999999998,-0.1244535,-0.47339400000000004,-0.0318955,0.12299650000000001,-0.530814,0.004174500000000001,-0.1303535,-0.8627440000000001,0.0015984999999999992,0.1383065,-0.916564,-0.001285500000000002
78,0.0017120000000000004,0.7770395,0.108517,-0.176576,0.5837795,0.088042,-0.271976,0.8269295,0.009962,0.17769400000000002,0.5714795,0.11655499999999999,0.288714,0.8263695000000001,0.075844,-0.286166,1.0898495,-0.040591,0.340254,1.0540494999999999,0.012260000000000002,-0.079546,0.0030524999999999997,-0.0029320000000000006,0.079546,-0.0030525000000000066,0.0029320000000000006,-0.123976,-0.47433050000000004,-0.034856,0.12331400000000001,-0.5297805,0.0009460000000000024,-0.13008599999999998,-0.8642004999999999,-0.00028500000000000053,0.138384,-0.9166105,-0.002758
79,0.002154500000000003,0.77722,0.106269,-0.1761605,0.58418,0.08637700000000001,-0.2717305,0.82692,0.0070810000000000005,0.17781950000000002,0.57187,0.115179,0.2891595,0.82638,0.072476,-0.2853905,1.08959,-0.044171,0.3405495,1.05419,0.007854,-0.07968549999999999,0.002921,-0.0026750000000000003,0.07968549999999999,-0.002921,0.0026750000000000003,-0.1235705,-0.4751,-0.037697999999999995,0.1235695,-0.52867,-0.0022730000000000007,-0.12980049999999999,-0.86525,-0.0018850000000000013,0.13837950000000002,-0.91627,-0.004030000000000002
80,0.0026979999999999986,0.7773835,0.10383250000000001,-0.175732,0.5845335,0.0847425,-0.271422,0.8269335,0.004161500000000002,0.17798799999999998,0.5722135,0.11375350000000001,0.289698,0.8263735,0.0689015,-0.284452,1.0894135,-0.04779749999999999,0.34088799999999997,1.0541135,0.0031005000000000026,-0.079851,0.0027994999999999964,-0.002375499999999999,0.079851,-0.0027995000000000034,0.0023755000000000026,-0.12312200000000001,-0.47477650000000005,-0.040496500000000005,0.123728,-0.5274365,-0.0054465,-0.129592,-0.8654465,-0.0029584999999999993,0.138568,-0.9158864999999999,-0.005405499999999997
81,0.0032474999999999995,0.777524,0.1013835,-0.1752825,0.584904,0.08306050000000001,-0.27104249999999996,0.826974,0.001232500000000001,0.1781475,0.572534,0.1122745,0.2902675,0.826434,0.0650565,-0.2834725,1.0892739999999999,-0.0513045,0.34119750000000004,1.053974,-0.0018604999999999976,-0.0800455,0.002683999999999999,-0.0019985000000000003,0.0800455,-0.002683999999999999,0.0019985000000000003,-0.1227425,-0.476166,-0.043262499999999995,0.1238575,-0.526156,-0.008709499999999998,-0.1293725,-0.865656,-0.004059499999999997,0.1387575,-0.915526,-0.0067715
82,0.003894500000000002,0.777595,0.098587,-0.1748725,0.5851949999999999,0.08144499999999999,-0.2705825,0.826845,-0.001684999999999999,0.17828750000000002,0.5728249999999999,0.110665,0.2909675,0.826425,0.060776,-0.2824625,1.089115,-0.055047,0.3416475,1.053615,-0.007375,-0.08022850000000001,0.002579999999999999,-0.001695000000000002,0.08022850000000001,-0.002579999999999999,0.0016949999999999986,-0.12234249999999999,-0.475825,-0.045883999999999994,0.12386749999999999,-0.525055,-0.011171,-0.12913249999999998,-0.8660749999999999,-0.005410000000000002,0.13885750000000002,-0.9151849999999999,-0.007851
83,0.0046860000000000035,0.777622,0.095692,-0.174398,0.585462,0.079915,-0.27005799999999996,0.826692,-0.004517,0.178452,0.5731120000000001,0.109044,0.291712,0.826202,0.056405,-0.281468,1.089042,-0.058852,0.342332,1.053142,-0.013191000000000001,-0.080407,0.002460999999999998,-0.0013829999999999988,0.080407,-0.002461000000000005,0.0013829999999999988,-0.12187799999999999,-0.473688,-0.048934000000000005,0.12390200000000001,-0.524198,-0.013664000000000003,-0.128858,-0.866578,-0.00655,0.138882,-0.914858,-0.008843
84,0.0054519999999999985,0.7775315,0.092677,-0.173995,0.5857515,0.078485,-0.26954500000000003,0.8264315,-0.007289,0.178585,0.5733815,0.107388,0.292435,0.8257815000000001,0.051871,-0.280535,1.0889715,-0.062674,0.34299500000000005,1.0525715,-0.019568000000000002,-0.080535,0.0023714999999999986,-0.0011269999999999995,0.080535,-0.0023714999999999986,0.001127000000000003,-0.121335,-0.4714985,-0.0518,0.123845,-0.5237685,-0.016181,-0.128645,-0.8674285,-0.007667999999999998,0.138825,-0.9144585,-0.009703999999999997
85,0.0062895,0.7774989999999999,0.089478,-0.17351750000000002,0.586059,0.07711,-0.2690475,0.826169,-0.010048000000000001,0.1787125,0.573649,0.105693,0.2931825,0.825259,0.047213,-0.2797075,1.088859,-0.066609,0.3436425,1.051859,-0.026071000000000004,-0.0806875,0.0023250000000000007,-0.0009440000000000004,0.0806875,-0.0023250000000000007,0.0009440000000000004,-0.1206275,-0.46970100000000004,-0.054902000000000006,0.1238225,-0.523291,-0.017971,-0.12844750000000002,-0.867991,-0.008681000000000001,0.1386325,-0.913931,-0.010479000000000002
86,0.007206000000000006,0.777238,0.08623600000000001,-0.173069,0.586398,0.075843,-0.268489,0.825768,-0.012903999999999999,0.17886100000000002,0.5738679999999999,0.103986,0.29403100000000004,0.824508,0.042141,-0.279019,1.088568,-0.07094600000000001,0.34431100000000003,1.050768,-0.033055,-0.080845,0.0022879999999999984,-0.0007750000000000014,0.080845,-0.0022879999999999984,0.0007750000000000014,-0.120139,-0.46929200000000004,-0.05725499999999999,0.12379100000000001,-0.522832,-0.019894000000000002,-0.128269,-0.868432,-0.009527,0.138491,-0.913412,-0.011717000000000002
87,0.008117000000000003,0.776934,0.083008,-0.17239500000000002,0.586504,0.074301,-0.267895,0.825454,-0.015945,0.17899500000000002,0.574194,0.102214,0.294855,0.823814,0.036858,-0.278515,1.088464,-0.075406,0.34496499999999997,1.049764,-0.040678,-0.081042,0.002232999999999999,-0.0005690000000000001,0.081042,-0.002233000000000006,0.0005690000000000001,-0.119735,-0.468696,-0.05943199999999999,0.12372500000000002,-0.522016,-0.021954,-0.12815500000000002,-0.868806,-0.010379,0.138295,-0.9126759999999999,-0.01294
88,0.009044499999999999,0.7766185,0.079556,-0.17177550000000003,0.5865485,0.072687,-0.2674755,0.8251784999999999,-0.01897,0.1790945,0.5745585,0.100298,0.2956145,0.8232785,0.031034,-0.2782255,1.0880785,-0.080257,0.3454645,1.0484784999999999,-0.048644,-0.0812425,0.002172500000000001,-0.00036800000000000027,0.0812425,-0.002172500000000001,0.00036800000000000027,-0.1194255,-0.46868150000000003,-0.061575,0.12368449999999999,-0.5207515,-0.02438,-0.1281855,-0.8689515,-0.011005000000000001,0.13799450000000002,-0.9118415,-0.014141
89,0.009859500000000004,0.77622,0.076142,-0.1711085,0.58655,0.070853,-0.2671485,0.82493,-0.022054,0.1790615,0.57501,0.09822700000000001,0.2962615,0.82279,0.024646,-0.27831849999999997,1.08785,-0.085102,0.3457215,1.04745,-0.056928999999999993,-0.0815565,0.0020669999999999994,-0.0001559999999999999,0.0815565,-0.0020669999999999994,0.0001559999999999999,-0.11924850000000001,-0.46975,-0.063798,0.1235415,-0.5194300000000001,-0.026997999999999998,-0.12834849999999998,-0.86787,-0.011233999999999997,0.13758150000000002,-0.91082,-0.015464999999999996
90,0.010785999999999999,0.775578,0.0723,-0.170334,0.586398,0.068865,-0.266774,0.824648,-0.025385,0.179446,0.5744980000000001,0.094091,0.296906,0.822158,0.017948,-0.278404,1.087378,-0.090244,0.345906,1.046678,-0.066223,-0.08189099999999999,0.0020939999999999986,4.799999999999943e-05,0.08189099999999999,-0.0020939999999999986,-4.799999999999943e-05,-0.119094,-0.470532,-0.066082,0.12340599999999999,-0.518532,-0.030144,-0.12843400000000002,-0.8670519999999999,-0.011434,0.137146,-0.909682,-0.016810000000000002
91,0.011588499999999998,0.7748315,0.0684955,-0.1694145,0.5861815,0.0667135,-0.26642449999999995,0.8244315,-0.028767499999999998,0.17989549999999999,0.5740915000000001,0.0897705,0.2974755,0.8214815000000001,0.0112525,-0.27847449999999996,1.0869315,-0.09510049999999999,0.3463455,1.0459315,-0.07529849999999999,-0.0822325,0.002064499999999997,0.0002894999999999998,0.0822325,-0.002064500000000004,-0.0002894999999999998,-0.1188945,-0.4718085,-0.06842949999999999,0.12324550000000001,-0.5179785,-0.033614500000000005,-0.1286245,-0.8663385,-0.012132500000000001,0.1367855,-0.9086985,-0.018121500000000002
92,0.012247000000000004,0.774257,0.0645215,-0.16845,0.586067,0.0643045,-0.26613,0.824387,-0.032337500000000005,0.18038,0.572757,0.0840505,0.29798,0.820977,0.003949500000000002,-0.27863000000000004,1.086727,-0.0998725,0.34648999999999996,1.045427,-0.0845785,-0.082509,0.002041999999999995,0.0005975000000000008,0.082509,-0.002042000000000002,-0.0005974999999999991,-0.11875999999999999,-0.472823,-0.0708415,0.12304000000000001,-0.517203,-0.037331500000000004,-0.1288,-0.865593,-0.013327499999999999,0.13642,-0.907103,-0.0194845
93,0.012894999999999997,0.7735580000000001,0.0602695,-0.167383,0.586028,0.061823499999999997,-0.265803,0.824338,-0.0358925,0.18084699999999998,0.571698,0.0782985,0.29846700000000004,0.820488,-0.0036565,-0.279113,1.086458,-0.1049475,0.346667,1.0447579999999999,-0.0942375,-0.08276,0.0020569999999999963,0.0008884999999999987,0.08276,-0.0020570000000000033,-0.0008885000000000004,-0.118803,-0.472752,-0.07371050000000001,0.12283699999999999,-0.516312,-0.0411165,-0.12894300000000003,-0.8645919999999999,-0.014631500000000002,0.136077,-0.905432,-0.0209195
94,0.013707499999999997,0.772734,0.056241,-0.1661375,0.5859639999999999,0.05929,-0.2652875,0.8243640000000001,-0.039511,0.1814125,0.570924,0.072551,0.29910250000000005,0.8199939999999999,-0.011259,-0.2797075,1.086124,-0.109653,0.3467825,1.044024,-0.103963,-0.0830105,0.0020939999999999986,0.001131,0.0830105,-0.0020940000000000056,-0.001131,-0.11888750000000001,-0.47127600000000003,-0.076497,0.12266250000000001,-0.513816,-0.045517,-0.1290275,-0.862636,-0.016038999999999998,0.1356225,-0.9035960000000001,-0.02278
95,0.014388499999999999,0.7721185,0.0517065,-0.1648585,0.5861985,0.0564865,-0.2648685,0.8248785,-0.0430105,0.1818615,0.5701685,0.0661125,0.2995515,0.8199585,-0.0191695,-0.2807885,1.0863385,-0.11431849999999999,0.3465315,1.0439385,-0.1139085,-0.08328050000000001,0.002059499999999999,0.0014555000000000002,0.08328050000000001,-0.002059499999999999,-0.0014555000000000002,-0.11900849999999999,-0.4705215,-0.07962949999999999,0.1223715,-0.5111515,-0.050376500000000005,-0.12915849999999998,-0.8599615,-0.017556500000000003,0.1350115,-0.9011415,-0.024212499999999998
96,0.014974999999999999,0.7716375,0.046872,-0.163742,0.5864475,0.053663,-0.264442,0.8243075,-0.046604999999999994,0.182328,0.5697274999999999,0.059732999999999994,0.299918,0.8199974999999999,-0.027694,-0.282182,1.0866875,-0.119222,0.346238,1.0436875,-0.12410199999999999,-0.083561,0.001969499999999999,0.0018130000000000004,0.083561,-0.001969499999999999,-0.0018130000000000004,-0.119092,-0.4674525,-0.08301399999999999,0.12212799999999999,-0.5082525,-0.055852,-0.12931199999999998,-0.8570525,-0.019084,0.134318,-0.8985325000000001,-0.025848
97,0.015486999999999997,0.7709005,0.041573,-0.162611,0.5868905,0.050794000000000006,-0.264111,0.8231305,-0.050362000000000004,0.182829,0.5692204999999999,0.053168999999999994,0.30022899999999997,0.8198605,-0.036485000000000004,-0.283821,1.0870905,-0.124289,0.345889,1.0435904999999999,-0.13508900000000001,-0.08379,0.0019474999999999978,0.002215,0.08379,-0.0019475000000000013,-0.002215,-0.119121,-0.4665195,-0.086633,0.12176899999999999,-0.5051695,-0.061181,-0.12943100000000002,-0.8537895000000001,-0.020289,0.133719,-0.8957095,-0.027667
98,0.015948,0.770596,0.036102999999999996,-0.161462,0.587036,0.047804,-0.263952,0.822026,-0.054159,0.183488,0.567586,0.04496,0.300508,0.819476,-0.045727000000000004,-0.285532,1.087676,-0.129749,0.34531799999999996,1.040776,-0.146959,-0.08399000000000001,0.0019260000000000006,0.0025970000000000003,0.08399000000000001,-0.0019259999999999972,-0.0025970000000000003,-0.119122,-0.463854,-0.090334,0.121358,-0.501944,-0.066356,-0.129512,-0.850064,-0.021319,0.133318,-0.892374,-0.029411999999999997
99,0.016090500000000004,0.7699905,0.030407499999999997,-0.1604325,0.5872405,0.0446405,-0.2641025,0.8208305,-0.058085500000000005,0.1836275,0.5666605,0.0382805,0.30071749999999997,0.8191105000000001,-0.055337500000000005,-0.2874525,1.0882205,-0.1355935,0.3445475,1.0380205,-0.1579635,-0.0841905,0.001860500000000001,0.0030215,0.0841905,-0.0018604999999999976,-0.0030215,-0.1192525,-0.46059950000000005,-0.0940835,0.12077750000000001,-0.49804950000000003,-0.0712385,-0.1296625,-0.8464094999999999,-0.022767500000000003,0.1328375,-0.8888495,-0.031199500000000005
100,0.016089000000000003,0.7695055,0.024406499999999998,-0.159473,0.5873555,0.0411435,-0.26428300000000005,0.8197455,-0.062254500000000004,0.183597,0.5661155,0.0316135,0.30089699999999997,0.8176055,-0.0652545,-0.28952300000000003,1.0887155,-0.1419415,0.34367699999999995,1.0340155,-0.1691515,-0.08443300000000001,0.0017415,0.0034565000000000004,0.08443300000000001,-0.0017415,-0.0034564999999999995,-0.119483,-0.4567445,-0.0979915,0.119917,-0.4938945,-0.0763055,-0.129813,-0.8424945,-0.0244835,0.13223700000000002,-0.8850745,-0.033173499999999995
101,0.015958,0.7692085,0.017697499999999998,-0.15873700000000002,0.5876085,0.0372115,-0.264587,0.8187985,-0.0668315,0.18345299999999998,0.5651685,0.024439500000000003,0.300933,0.8160185,-0.0752905,-0.291867,1.0892985,-0.14939149999999998,0.342543,1.0296985,-0.1809515,-0.084713,0.0016855000000000004,0.0039305,0.084713,-0.0016854999999999995,-0.0039305,-0.119807,-0.4521815,-0.1016715,0.118903,-0.4895315,-0.0815725,-0.130017,-0.8379015,-0.026611500000000003,0.13154300000000002,-0.8811515,-0.0360495
102,0.015721500000000003,0.7689509999999999,0.010538,-0.1580775,0.587411,0.032667,-0.2649575,0.817971,-0.07214300000000001,0.1831825,0.564091,0.016704,0.3008525,0.8144009999999999,-0.08596400000000001,-0.2941975,1.089731,-0.15734599999999999,0.3411625,1.025131,-0.193626,-0.0850395,0.0016129999999999999,0.004477999999999999,0.0850395,-0.001613,-0.004477999999999999,-0.1202275,-0.446729,-0.10534600000000001,0.11779250000000001,-0.485019,-0.08704700000000001,-0.1303375,-0.832829,-0.028983000000000002,0.1307825,-0.8768790000000001,-0.03911
103,0.015460500000000002,0.7683880000000001,0.0023675,-0.1577375,0.586698,0.0278215,-0.2655375,0.817038,-0.0778095,0.1829025,0.562498,0.0082475,0.3005625,0.8122780000000001,-0.0975195,-0.2965675,1.089888,-0.1662615,0.3394725,1.020588,-0.2068015,-0.08539150000000001,0.0015129999999999996,0.0050625,0.08539150000000001,-0.0015130000000000005,-0.0050625,-0.1207175,-0.44228199999999995,-0.1087315,0.11675250000000001,-0.484762,-0.09277049999999999,-0.1307475,-0.827742,-0.0309435,0.13005250000000002,-0.8724219999999999,-0.041840499999999996
104,0.015162500000000002,0.767721,-0.0060815,-0.1574935,0.585911,0.022719499999999997,-0.26618349999999996,0.815151,-0.08409950000000001,0.1825265,0.560831,-0.0002415,0.3001665,0.809841,-0.1093115,-0.2986835,1.089381,-0.17595149999999998,0.3376465,1.015281,-0.22069149999999998,-0.08565149999999999,0.0015119999999999995,0.0056155,0.08565149999999999,-0.0015119999999999995,-0.0056155,-0.12133349999999998,-0.437669,-0.1121115,0.11570649999999999,-0.484159,-0.09812850000000001,-0.1311935,-0.822499,-0.0330805,0.1292365,-0.867849,-0.0442715
105,0.014661,0.7669585,-0.0146505,-0.157451,0.5850185,0.017487500000000003,-0.267001,0.8144185,-0.0906445,0.181979,0.5587885,-0.0093515,0.29939899999999997,0.8070585,-0.1211315,-0.300651,1.0889084999999998,-0.1858515,0.335429,1.0102885,-0.23471150000000002,-0.085854,0.0015995000000000002,0.0061195,0.085854,-0.0015995000000000002,-0.0061195,-0.122101,-0.4323815,-0.11535150000000001,0.114459,-0.4830715,-0.10300150000000001,-0.131751,-0.8170315,-0.0354815,0.12832900000000003,-0.8629515,-0.0474375
106,0.013650000000000002,0.7657244999999999,-0.0236595,-0.15770900000000002,0.5831145,0.0115365,-0.268279,0.8135445,-0.0978855,0.181141,0.5563745,-0.0189405,0.29812099999999997,0.8035844999999999,-0.13335249999999998,-0.30267900000000003,1.0884945,-0.1963925,0.332661,1.0043645,-0.2494525,-0.08613000000000001,0.001565500000000001,0.0065915,0.08613000000000001,-0.001565500000000001,-0.006591499999999999,-0.12300900000000001,-0.4267555,-0.1184725,0.11310100000000001,-0.48134550000000004,-0.1078825,-0.132439,-0.8112655000000001,-0.0380095,0.127211,-0.8576955,-0.0506655
107,0.012265999999999996,0.764029,-0.033523500000000005,-0.15829800000000002,0.581139,0.0049145,-0.26995800000000003,0.812989,-0.1062555,0.179942,0.5553790000000001,-0.0275415,0.296382,0.800309,-0.1458455,-0.304948,1.088069,-0.2078755,0.329752,1.0014589999999999,-0.2643255,-0.086334,0.0014219999999999997,0.0070155,0.086334,-0.0014219999999999997,-0.007015500000000001,-0.124118,-0.420641,-0.1219755,0.11149200000000001,-0.47916099999999995,-0.11318550000000001,-0.133438,-0.805111,-0.0411035,0.125802,-0.852071,-0.0544125
108,0.010837499999999996,0.7622829999999999,-0.043674,-0.1589195,0.579113,-0.0018670000000000006,-0.27182950000000006,0.812083,-0.115025,0.1787605,0.554263,-0.036334000000000005,0.29470050000000003,0.796943,-0.158495,-0.3073095,1.0876029999999999,-0.219875,0.32694049999999997,0.9968729999999999,-0.281305,-0.0865355,0.0012899999999999995,0.007331999999999998,0.0865355,-0.0012899999999999995,-0.007332,-0.1250595,-0.417477,-0.12554500000000002,0.1099705,-0.47716699999999995,-0.118405,-0.1343295,-0.7988470000000001,-0.044439,0.1245705,-0.8467070000000001,-0.059158
109,0.009343500000000005,0.7603445,-0.053962500000000004,-0.1595945,0.5768645,-0.008819500000000001,-0.2737245,0.8107945,-0.1247225,0.1776355,0.5526344999999999,-0.045421500000000004,0.2928255,0.7940045,-0.17186250000000003,-0.3098745,1.0861144999999999,-0.23268250000000001,0.3235455,0.9928445,-0.2986325,-0.0867455,0.001284500000000001,0.0075625,0.0867455,-0.001284500000000001,-0.0075625000000000015,-0.1259845,-0.41433549999999997,-0.1289525,0.10853550000000001,-0.4753555,-0.1232325,-0.1352345,-0.7927055000000001,-0.0479005,0.1233755,-0.8409355000000001,-0.0633755
110,0.007703500000000002,0.7582880000000001,-0.06404,-0.16030149999999999,0.5745680000000001,-0.015757999999999998,-0.2755415,0.809158,-0.13469599999999998,0.1763185,0.551648,-0.053765,0.2907785,0.791108,-0.185756,-0.3122715,1.079648,-0.245286,0.3197085,0.989518,-0.316086,-0.0868985,0.0011629999999999974,0.007722,0.0868985,-0.0011630000000000043,-0.007722,-0.12694149999999998,-0.410992,-0.132396,0.1070985,-0.473002,-0.12797599999999998,-0.13621149999999999,-0.7865019999999999,-0.051671999999999996,0.1222485,-0.834592,-0.067747
111,0.005912499999999998,0.755902,-0.0742405,-0.16111350000000002,0.572342,-0.0226955,-0.2774835,0.8071619999999999,-0.1446955,0.17450649999999998,0.550212,-0.0623755,0.28825649999999997,0.787732,-0.2002955,-0.3147035,1.0737020000000002,-0.2575155,0.3151065,0.9870019999999999,-0.3344255,-0.08705650000000001,0.001011999999999999,0.007797500000000002,0.08705650000000001,-0.001011999999999999,-0.007797499999999999,-0.1281735,-0.40770799999999996,-0.1357955,0.10524649999999999,-0.4707680000000001,-0.1325155,-0.1373535,-0.7802680000000001,-0.0554635,0.12103649999999999,-0.828188,-0.0717345
112,0.003793999999999992,0.753676,-0.0842695,-0.16217,0.569906,-0.029948500000000003,-0.27961,0.804156,-0.1549635,0.17246999999999998,0.548586,-0.0713005,0.28522,0.7843559999999999,-0.2147735,-0.31736000000000003,1.0647360000000001,-0.26998350000000004,0.31002,0.983356,-0.3530335,-0.0872,0.000891999999999997,0.007942499999999998,0.0872,-0.0008920000000000039,-0.007942500000000002,-0.12962,-0.404324,-0.13957350000000002,0.10288,-0.465514,-0.1366135,-0.13862000000000002,-0.773854,-0.059583500000000005,0.11959999999999998,-0.8216140000000001,-0.0761275
113,0.0013204999999999988,0.751063,-0.094217,-0.1634515,0.567623,-0.037002,-0.2819015,0.801053,-0.165426,0.1702785,0.5473129999999999,-0.079737,0.28182850000000004,0.780613,-0.229586,-0.32034150000000006,1.055063,-0.28235600000000005,0.30440849999999997,0.979863,-0.371846,-0.0873385,0.0007780000000000009,0.007983999999999998,0.0873385,-0.0007780000000000009,-0.007984000000000002,-0.1312415,-0.401467,-0.143496,0.1002385,-0.461097,-0.140786,-0.1400315,-0.767677,-0.064263,0.11789849999999999,-0.815347,-0.080566
114,-0.0013784999999999943,0.747941,-0.10443849999999999,-0.1648965,0.564641,-0.044645500000000005,-0.28441649999999996,0.797731,-0.17615750000000002,0.1678135,0.545331,-0.0887865,0.2782635,0.7766010000000001,-0.2444675,-0.32352649999999994,1.045181,-0.2947275,0.2985335,0.975471,-0.3904475,-0.0875335,0.0006049999999999944,0.0079715,0.0875335,-0.0006050000000000083,-0.007971500000000003,-0.1329365,-0.399239,-0.1472275,0.09757350000000001,-0.45658899999999997,-0.1449775,-0.14161649999999998,-0.7612490000000001,-0.06890550000000001,0.11603350000000001,-0.8086390000000001,-0.08476349999999999
115,-0.0041665,0.7453915,-0.1140455,-0.1665365,0.5622715,-0.0518225,-0.28721650000000004,0.7946715,-0.1865665,0.1649735,0.5434815,-0.09780849999999999,0.27429349999999997,0.7726515,-0.2586465,-0.3270965,1.0350315,-0.30688649999999995,0.29249349999999996,0.9717815000000001,-0.4084765,-0.0876835,0.00044849999999999057,0.0079445,0.0876835,-0.00044850000000000445,-0.0079445,-0.13479649999999999,-0.3968085,-0.1508965,0.09488350000000001,-0.45196850000000005,-0.14909650000000002,-0.1433565,-0.7547984999999999,-0.07348350000000001,0.11403350000000001,-0.8019585,-0.0889735
116,-0.007182499999999998,0.7415685,-0.12401000000000001,-0.1683005,0.5595185,-0.058688000000000004,-0.29007049999999995,0.7903285,-0.196552,0.1616195,0.5405985,-0.106826,0.27036950000000004,0.7681485,-0.272462,-0.33065049999999996,1.0238585,-0.318162,0.2859895,0.9677185,-0.426292,-0.08789949999999999,0.0004595000000000016,0.0078070000000000014,0.08789949999999999,-0.0004595000000000016,-0.0078070000000000014,-0.1368805,-0.3962115,-0.154302,0.0922095,-0.44741149999999996,-0.152992,-0.1452705,-0.7483015,-0.077638,0.1119395,-0.7956515,-0.092903
117,-0.010242499999999998,0.7380990000000001,-0.133609,-0.17021950000000002,0.556769,-0.06537899999999999,-0.2930995,0.786799,-0.206181,0.15804049999999997,0.537949,-0.115478,0.26611049999999997,0.761889,-0.28574099999999997,-0.3345995,1.012179,-0.329151,0.2789005,0.964559,-0.442381,-0.0880905,0.0003499999999999892,0.007744000000000001,0.0880905,-0.0003500000000000031,-0.007744000000000001,-0.1390695,-0.392371,-0.157871,0.0895105,-0.442531,-0.156801,-0.1473695,-0.741351,-0.081683,0.10964049999999999,-0.789191,-0.096743
118,-0.013394999999999999,0.73529,-0.14292,-0.172288,0.55428,-0.071875,-0.295948,0.78295,-0.21509699999999998,0.154352,0.53522,-0.12417299999999999,0.26196200000000003,0.7570600000000001,-0.297917,-0.338478,1.00084,-0.339777,0.272162,0.9611200000000001,-0.458647,-0.088282,0.00021000000000000185,0.0078080000000000024,0.088282,-0.00021000000000000185,-0.0078079999999999955,-0.141098,-0.388,-0.161097,0.086842,-0.43701000000000007,-0.160427,-0.14954800000000001,-0.73446,-0.085129,0.10727199999999999,-0.7822,-0.10020599999999999
119,-0.016853499999999997,0.733295,-0.15233249999999998,-0.1745585,0.551605,-0.0785285,-0.29901849999999996,0.779135,-0.2243425,0.1503115,0.533485,-0.1325585,0.25749150000000004,0.752745,-0.3096725,-0.34257849999999995,0.994125,-0.35099250000000004,0.2655615,0.957175,-0.47479249999999995,-0.0885415,0.00015500000000000236,0.007835500000000002,0.0885415,-0.00015500000000000236,-0.007835499999999995,-0.14389849999999998,-0.380315,-0.16465249999999998,0.0836815,-0.428855,-0.16415249999999998,-0.1519385,-0.7267750000000001,-0.0889135,0.1047215,-0.775025,-0.10424349999999999
120,-0.020454,0.73174,-0.161461,-0.176817,0.54896,-0.085068,-0.301907,0.77546,-0.233211,0.146503,0.53189,-0.14060499999999998,0.253233,0.74905,-0.32037099999999996,-0.346677,0.98644,-0.362761,0.259543,0.95244,-0.489511,-0.088833,7.000000000000062e-05,0.007858000000000004,0.088833,-7.000000000000062e-05,-0.007857999999999997,-0.146817,-0.37262,-0.168231,0.080843,-0.42110000000000003,-0.16780099999999998,-0.154327,-0.71908,-0.09262999999999999,0.10189300000000001,-0.76757,-0.107766
121,-0.023920500000000004,0.73042,-0.1753065,-0.1789235,0.54707,-0.0960805,-0.3047435,0.7705,-0.2462165,0.14292649999999998,0.53088,-0.1529415,0.2491865,0.74619,-0.3360165,-0.3509335,0.98209,-0.3787665,0.2539765,0.94778,-0.5087265000000001,-0.08888650000000001,-6.0000000000004494e-05,0.007557499999999995,0.08888650000000001,6.0000000000004494e-05,-0.007557500000000002,-0.1496335,-0.36462,-0.1761865,0.0782565,-0.4131,-0.1758265,-0.1566135,-0.71113,-0.1006695,0.09921649999999999,-0.76013,-0.1156445
122,-0.028577999999999996,0.733555,-0.1909365,-0.18223299999999998,0.5476650000000001,-0.10989550000000001,-0.309263,0.768575,-0.26160649999999996,0.138017,0.5318849999999999,-0.16755550000000002,0.24323699999999998,0.7456450000000001,-0.3527365,-0.356453,0.981635,-0.3967865,0.246967,0.9458550000000001,-0.5286365,-0.08846699999999999,-0.00015499999999998848,0.0075304999999999955,0.088467,0.00015500000000001624,-0.007530500000000009,-0.154443,-0.351215,-0.1916065,0.073967,-0.39674499999999996,-0.1933965,-0.160323,-0.698855,-0.1107515,0.09488700000000001,-0.750915,-0.1284515
123,-0.032910499999999995,0.735805,-0.20606950000000002,-0.1856175,0.5486249999999999,-0.12255450000000001,-0.3135475,0.765365,-0.2763995,0.13338250000000001,0.532315,-0.18094949999999999,0.23753249999999998,0.7441949999999999,-0.3689895,-0.36199749999999997,0.979375,-0.4147395,0.24035250000000002,0.943225,-0.5485995,-0.0879925,-0.000135000000000024,0.007460499999999995,0.0879925,0.00013499999999999623,-0.007460500000000009,-0.1590975,-0.339635,-0.2064395,0.0699625,-0.38097500000000006,-0.2105195,-0.1637075,-0.688075,-0.1202125,0.09069250000000001,-0.742255,-0.1408705
124,-0.03720649999999999,0.737645,-0.221056,-0.1887015,0.549855,-0.134681,-0.31735149999999995,0.7627050000000001,-0.290406,0.1292785,0.532835,-0.193706,0.23226850000000002,0.7429950000000001,-0.38518600000000003,-0.3672315,0.9767750000000001,-0.431906,0.23404850000000002,0.939355,-0.567396,-0.08747849999999999,-1.4999999999987246e-05,0.007382,0.08747849999999999,1.5000000000015001e-05,-0.007382,-0.16327149999999999,-0.32814499999999996,-0.220776,0.06638850000000002,-0.36495500000000003,-0.22764600000000002,-0.1667715,-0.677755,-0.129437,0.08666850000000001,-0.734475,-0.15367999999999998
125,-0.041244499999999996,0.74066,-0.23531549999999998,-0.1915055,0.55204,-0.1462185,-0.3209955,0.76116,-0.3038055,0.1259245,0.53383,-0.2058755,0.2270145,0.74198,-0.4013155,-0.3726355,0.97373,-0.4489555,0.2278945,0.93506,-0.5855355,-0.08684449999999999,0.0,0.007454500000000003,0.08684449999999999,0.0,-0.007454499999999989,-0.1671455,-0.31623,-0.2348855,0.0632345,-0.34868,-0.2446055,-0.16945549999999998,-0.6676300000000001,-0.1378535,0.0829445,-0.72724,-0.1665455
126,-0.045788499999999996,0.7431050000000001,-0.249895,-0.19454549999999998,0.5539350000000001,-0.158701,-0.3252055,0.7589250000000001,-0.317535,0.1218845,0.534115,-0.21968500000000002,0.22125450000000002,0.7428049999999999,-0.41842500000000005,-0.37842549999999997,0.971265,-0.465885,0.22092450000000002,0.931025,-0.605695,-0.0861545,0.00017500000000000848,0.007614999999999997,0.0861545,-0.00017499999999998073,-0.007614999999999997,-0.1712955,-0.30405499999999996,-0.248705,0.0600445,-0.332015,-0.261695,-0.17223549999999999,-0.656785,-0.146443,0.07906450000000001,-0.720475,-0.179398
127,-0.050773000000000006,0.745045,-0.264175,-0.197692,0.555705,-0.170842,-0.330152,0.7574050000000001,-0.331295,0.11776799999999998,0.534575,-0.232935,0.21501800000000001,0.7422850000000001,-0.436155,-0.38478199999999996,0.967935,-0.482195,0.213548,0.927305,-0.6256349999999999,-0.085368,0.00032499999999999196,0.007794999999999996,0.085368,-0.00032499999999999196,-0.007794999999999996,-0.175722,-0.292825,-0.262575,0.056858,-0.31634500000000004,-0.27873499999999996,-0.175212,-0.6470450000000001,-0.15503,0.075048,-0.714815,-0.192412
128,-0.055785,0.74529,-0.27802499999999997,-0.200821,0.5568,-0.182782,-0.335531,0.75513,-0.344255,0.11365900000000001,0.53364,-0.246395,0.208639,0.74056,-0.453815,-0.391761,0.96339,-0.496985,0.205329,0.92293,-0.646765,-0.084479,0.0004200000000000037,0.008044999999999997,0.084479,-0.00041999999999997595,-0.008044999999999997,-0.180121,-0.28093999999999997,-0.275755,0.053639000000000006,-0.30207,-0.29551499999999997,-0.17807099999999998,-0.63846,-0.163064,0.07208900000000001,-0.70833,-0.200939
129,-0.0610715,0.744935,-0.29159,-0.2041435,0.557885,-0.19466899999999998,-0.3419735,0.752845,-0.35758999999999996,0.10912649999999999,0.532315,-0.26014,0.20140650000000002,0.737925,-0.47147,-0.39973349999999996,0.958455,-0.5110399999999999,0.1963965,0.918425,-0.6676,-0.0834665,0.0005449999999999899,0.00829000000000002,0.0834665,-0.0005449999999999899,-0.008289999999999992,-0.1849535,-0.269675,-0.28893,0.0501565,-0.288625,-0.31242000000000003,-0.18120350000000002,-0.630615,-0.17124599999999998,0.0687865,-0.702435,-0.209616
130,-0.0669835,0.743995,-0.30000000000000004,-0.20776150000000002,0.559185,-0.201632,-0.3490415,0.753375,-0.36667000000000005,0.10362849999999998,0.528105,-0.26897000000000004,0.19334849999999998,0.734035,-0.48356,-0.4085815,0.9528249999999999,-0.52046,0.18644850000000002,0.914795,-0.68436,-0.0826685,0.0008950000000000069,0.008829999999999977,0.0826685,-0.0008950000000000069,-0.008830000000000005,-0.1901415,-0.258725,-0.29728,0.0464285,-0.27559500000000003,-0.32502,-0.1844915,-0.623195,-0.174568,0.06530849999999999,-0.696795,-0.21345000000000003
131,-0.072644,0.739465,-0.30597,-0.21082499999999998,0.5583549999999999,-0.205826,-0.355725,0.7523249999999999,-0.37309000000000003,0.09865499999999999,0.522125,-0.27537,0.18632500000000002,0.7278150000000001,-0.4934,-0.417415,0.944585,-0.52766,0.17680500000000002,0.909395,-0.69913,-0.082175,0.0010649999999999826,0.00925999999999999,0.082175,-0.0010650000000000104,-0.009260000000000018,-0.194055,-0.254855,-0.29901,0.043605000000000005,-0.272685,-0.32786000000000004,-0.187025,-0.6187750000000001,-0.17561100000000002,0.062494999999999995,-0.6906749999999999,-0.21358000000000002
132,-0.0786525,0.734625,-0.311755,-0.2138135,0.557415,-0.210078,-0.3628635,0.751655,-0.379695,0.09364650000000001,0.516475,-0.281655,0.17946650000000003,0.721795,-0.502625,-0.4270735,0.9370350000000001,-0.534305,0.16609649999999998,0.903845,-0.712615,-0.0817265,0.0013350000000000029,0.009704999999999991,0.0817265,-0.001334999999999975,-0.009704999999999991,-0.19792349999999997,-0.25121499999999997,-0.300695,0.0408365,-0.269945,-0.330745,-0.1895735,-0.614615,-0.176654,0.05970650000000001,-0.684385,-0.21403
133,-0.08483200000000002,0.729865,-0.31751999999999997,-0.21699900000000003,0.5569649999999999,-0.21431999999999998,-0.370809,0.750705,-0.38719,0.08796099999999998,0.509045,-0.28779,0.172451,0.714715,-0.51133,-0.438039,0.929835,-0.54132,0.155001,0.894555,-0.72611,-0.08126100000000001,0.0018849999999999978,0.010170000000000012,0.081261,-0.0018849999999999978,-0.010169999999999985,-0.201959,-0.24744500000000003,-0.30238999999999994,0.03797099999999999,-0.266915,-0.33404,-0.192239,-0.609975,-0.17825599999999997,0.056840999999999975,-0.677955,-0.214526
134,-0.091354,0.7250300000000001,-0.322685,-0.220676,0.55715,-0.21870900000000001,-0.37895599999999996,0.74986,-0.391975,0.08213399999999998,0.50175,-0.293785,0.165384,0.70757,-0.519515,-0.44958600000000004,0.9236,-0.548095,0.144314,0.88595,-0.739295,-0.08078400000000001,0.0025400000000000145,0.010774999999999979,0.080784,-0.0025399999999999867,-0.010775000000000007,-0.206186,-0.24417,-0.302905,0.035213999999999995,-0.2636,-0.337855,-0.19506600000000002,-0.60481,-0.179264,0.054223999999999994,-0.6686799999999999,-0.21111100000000002
135,-0.0975955,0.7205999999999999,-0.32731,-0.2238755,0.55797,-0.22189599999999998,-0.3864455,0.7487999999999999,-0.39558,0.07693449999999999,0.49454999999999993,-0.29784,0.1581345,0.70009,-0.5263100000000001,-0.46135550000000003,0.91662,-0.55376,0.1343045,0.87759,-0.7502,-0.0803245,0.003250000000000003,0.011369999999999991,0.0803245,-0.003250000000000003,-0.011369999999999991,-0.2100955,-0.24018000000000003,-0.30326,0.032754500000000006,-0.25993,-0.34162000000000003,-0.1978055,-0.60073,-0.180308,0.05192450000000001,-0.6598200000000001,-0.207142
136,-0.10456199999999999,0.7143349999999999,-0.33203000000000005,-0.22796499999999997,0.555885,-0.226883,-0.393595,0.744985,-0.39842,0.071315,0.485275,-0.30194,0.14953500000000003,0.691255,-0.53252,-0.473765,0.909175,-0.55916,0.122965,0.868185,-0.76189,-0.08000499999999999,0.0039749999999999786,0.011959999999999998,0.080005,-0.003975000000000006,-0.011959999999999998,-0.214055,-0.23568500000000003,-0.30395,0.030145000000000005,-0.255635,-0.3456,-0.200735,-0.596175,-0.181345,0.04953500000000001,-0.650645,-0.20328100000000002
137,-0.111342,0.70855,-0.336495,-0.23169499999999998,0.5549,-0.23143200000000003,-0.400235,0.73628,-0.40104500000000004,0.06622499999999999,0.47762000000000004,-0.30508500000000005,0.14105499999999999,0.6830700000000001,-0.5384150000000001,-0.485485,0.9013899999999999,-0.564535,0.112275,0.85901,-0.771775,-0.079765,0.004650000000000015,0.012584999999999985,0.07976499999999999,-0.0046499999999999875,-0.012585000000000013,-0.217725,-0.23091,-0.304855,0.027734999999999996,-0.25092,-0.34948500000000005,-0.203425,-0.5913999999999999,-0.18237200000000003,0.04721499999999999,-0.64143,-0.19960400000000003
138,-0.118046,0.70225,-0.34056,-0.23492999999999997,0.5542,-0.23550300000000002,-0.40602,0.72672,-0.40269,0.06174,0.47065,-0.30733,0.13343,0.6751199999999999,-0.54383,-0.49615,0.8913599999999999,-0.56957,0.10207000000000001,0.8490199999999999,-0.7809,-0.07959,0.005289999999999989,0.013259999999999994,0.07959000000000001,-0.005290000000000017,-0.013259999999999994,-0.22116000000000002,-0.22672000000000003,-0.30538,0.025760000000000005,-0.24725000000000003,-0.35303,-0.2057,-0.5866199999999999,-0.18308000000000002,0.04518000000000001,-0.63242,-0.19559700000000002
139,-0.1242975,0.6959,-0.344465,-0.23776350000000002,0.55219,-0.239458,-0.4109735,0.71519,-0.404405,0.0581865,0.46636,-0.30905499999999997,0.1263665,0.66731,-0.548785,-0.5059935,0.88091,-0.573955,0.09199649999999998,0.8380799999999999,-0.789195,-0.07949650000000001,0.005700000000000011,0.013805000000000012,0.0794965,-0.005700000000000011,-0.013804999999999984,-0.2244335,-0.22334,-0.305955,0.023986499999999994,-0.24386,-0.35599499999999995,-0.2077535,-0.58253,-0.183689,0.04343649999999999,-0.62402,-0.191383
140,-0.1297215,0.689745,-0.34852,-0.2396565,0.549285,-0.243213,-0.4147865,0.702775,-0.40646,0.05543350000000001,0.462175,-0.31074999999999997,0.1200335,0.6596850000000001,-0.55413,-0.5148965,0.869345,-0.5774,0.08305349999999999,0.8248650000000001,-0.79689,-0.0796135,0.006095000000000017,0.01422000000000001,0.07961349999999999,-0.006094999999999989,-0.01422000000000001,-0.2269465,-0.220265,-0.30649000000000004,0.022983500000000004,-0.240315,-0.35885,-0.2091965,-0.5787249999999999,-0.184221,0.042263499999999996,-0.620005,-0.191834
141,-0.134993,0.6851149999999999,-0.35318,-0.241591,0.5416650000000001,-0.248159,-0.418471,0.690285,-0.40937999999999997,0.051889000000000005,0.45487500000000003,-0.31408,0.11297900000000001,0.651725,-0.55994,-0.523701,0.857455,-0.58109,0.074759,0.812515,-0.80565,-0.079649,0.006225000000000008,0.014550000000000007,0.07964900000000001,-0.0062249999999999805,-0.01454999999999998,-0.229761,-0.216115,-0.3075,0.021969000000000002,-0.23562500000000003,-0.36219,-0.210651,-0.574175,-0.18539,0.04106900000000001,-0.6153150000000001,-0.193076
142,-0.1401665,0.681065,-0.357975,-0.24341050000000003,0.5343249999999999,-0.253577,-0.4215705,0.677625,-0.412845,0.04890950000000001,0.44999500000000003,-0.317685,0.1059295,0.645335,-0.566135,-0.5313805,0.845475,-0.5846750000000001,0.06655950000000001,0.804925,-0.814835,-0.0797795,0.0061350000000000016,0.01450499999999999,0.07977949999999999,-0.0061350000000000016,-0.01450499999999999,-0.23303050000000003,-0.211275,-0.30883499999999997,0.021029499999999993,-0.23056499999999996,-0.365365,-0.2119605,-0.569255,-0.186885,0.039949499999999985,-0.610115,-0.19452
143,-0.14500849999999998,0.6777900000000001,-0.3631,-0.24502649999999998,0.52683,-0.259,-0.4245865,0.66437,-0.41603999999999997,0.045543500000000015,0.44521000000000005,-0.32149,0.09874350000000001,0.63885,-0.57247,-0.5383665,0.8330700000000001,-0.58864,0.0581535,0.79632,-0.82411,-0.07997349999999999,0.006140000000000034,0.01419999999999999,0.0799735,-0.006139999999999979,-0.01419999999999999,-0.2364065,-0.20649999999999996,-0.31029,0.0204835,-0.22567999999999994,-0.3684,-0.2130665,-0.5644399999999999,-0.188555,0.038883500000000015,-0.6055999999999999,-0.196598
144,-0.150011,0.675055,-0.3687,-0.246633,0.519575,-0.26462,-0.42762300000000003,0.651235,-0.41917,0.042157000000000014,0.440845,-0.3255,0.091707,0.631775,-0.5791999999999999,-0.544853,0.820745,-0.59304,0.04992700000000001,0.787495,-0.83379,-0.08015699999999999,0.006035000000000013,0.013999999999999985,0.08015699999999999,-0.006035000000000013,-0.014000000000000012,-0.24023299999999997,-0.201405,-0.31193000000000004,0.019887000000000002,-0.22053499999999998,-0.37166,-0.214423,-0.559365,-0.19043100000000002,0.037847000000000006,-0.600695,-0.198706
145,-0.1536705,0.67393,-0.37427,-0.24728249999999996,0.51587,-0.26861999999999997,-0.4312425,0.6396299999999999,-0.42197,0.039367500000000014,0.4387,-0.32981,0.0867575,0.62695,-0.5860799999999999,-0.5502725,0.80977,-0.59789,0.0435175,0.77975,-0.84213,-0.08031749999999999,0.005850000000000022,0.013759999999999994,0.0803175,-0.005850000000000022,-0.013759999999999994,-0.24380249999999998,-0.19632,-0.31389999999999996,0.019817500000000016,-0.21526,-0.37487,-0.2155125,-0.55436,-0.19250699999999998,0.0372475,-0.59577,-0.200986
146,-0.15682200000000002,0.67258,-0.38,-0.247675,0.5118199999999999,-0.27244999999999997,-0.434475,0.63317,-0.4247,0.036885,0.43618,-0.33455999999999997,0.08282500000000001,0.62217,-0.59293,-0.555455,0.7993699999999999,-0.6031299999999999,0.03800500000000001,0.7711399999999999,-0.85001,-0.080445,0.005610000000000004,0.01347000000000001,0.08044499999999999,-0.005610000000000004,-0.01347000000000001,-0.247125,-0.19155,-0.31591,0.020205,-0.21006999999999998,-0.37776,-0.21637499999999998,-0.54973,-0.194468,0.037044999999999995,-0.5912599999999999,-0.203118
147,-0.15953,0.671665,-0.38627,-0.249943,0.5043949999999999,-0.27735,-0.437623,0.626755,-0.42708,0.03420699999999999,0.433755,-0.33973,0.07933699999999999,0.617345,-0.59811,-0.560773,0.791005,-0.6089100000000001,0.03326699999999999,0.763085,-0.85772,-0.08042700000000001,0.005154999999999965,0.013169999999999987,0.080427,-0.005155000000000021,-0.013170000000000015,-0.250313,-0.18656499999999998,-0.31816,0.020756999999999998,-0.204565,-0.38059,-0.217003,-0.544945,-0.19639500000000001,0.03706699999999999,-0.586405,-0.20499900000000001
148,-0.161951,0.6709149999999999,-0.39259,-0.25205299999999997,0.49783499999999997,-0.2824,-0.439633,0.6213949999999999,-0.4294,0.031427,0.431405,-0.34463,0.076167,0.6129549999999999,-0.6036999999999999,-0.566063,0.783185,-0.61541,0.029627,0.755505,-0.8652199999999999,-0.080437,0.004635,0.013000000000000012,0.080437,-0.004635,-0.012999999999999984,-0.253613,-0.18128500000000003,-0.32055999999999996,0.021366999999999997,-0.19871500000000003,-0.38366999999999996,-0.217643,-0.5400450000000001,-0.198454,0.037097000000000005,-0.581245,-0.20698699999999998
149,-0.16390349999999998,0.66981,-0.398895,-0.2538295,0.49178,-0.28768499999999997,-0.4427595,0.61598,-0.435205,0.029030500000000015,0.42872,-0.349475,0.07360050000000001,0.6086199999999999,-0.609135,-0.5704795,0.77556,-0.622595,0.026760500000000007,0.74924,-0.872945,-0.08075049999999999,0.0042099999999999915,0.012975000000000014,0.0807505,-0.0042099999999999915,-0.012974999999999987,-0.2565495,-0.17603999999999997,-0.32296499999999995,0.02228050000000001,-0.19365,-0.386905,-0.2178395,-0.53512,-0.20062799999999997,0.03746050000000001,-0.5763,-0.20918799999999999
150,-0.165461,0.667895,-0.40517499999999995,-0.255194,0.490485,-0.292635,-0.445324,0.610835,-0.441235,0.026515999999999998,0.424865,-0.353045,0.07218599999999999,0.603005,-0.614195,-0.573734,0.768335,-0.629615,0.025015999999999997,0.742145,-0.8798549999999999,-0.081146,0.004354999999999998,0.013115000000000016,0.08114600000000001,-0.004354999999999998,-0.013114999999999988,-0.258904,-0.170755,-0.325175,0.023326,-0.189025,-0.390305,-0.21766400000000002,-0.5304949999999999,-0.202529,0.038236000000000006,-0.571755,-0.211279
151,-0.16614800000000002,0.6655899999999999,-0.41092,-0.25627500000000003,0.48822999999999994,-0.29734,-0.446965,0.60544,-0.44688,0.02488499999999999,0.4200499999999999,-0.35623,0.071695,0.5971799999999999,-0.61851,-0.575945,0.76111,-0.6361,0.024764999999999995,0.7349399999999999,-0.88574,-0.081585,0.0048499999999999654,0.013779999999999987,0.081585,-0.004850000000000021,-0.013780000000000014,-0.260035,-0.16561000000000003,-0.32714,0.025084999999999996,-0.18482000000000004,-0.39356,-0.21680500000000003,-0.5264500000000001,-0.203993,0.03977499999999999,-0.56755,-0.212821
152,-0.166222,0.66309,-0.41612499999999997,-0.257098,0.48558,-0.30183499999999996,-0.448058,0.6007800000000001,-0.45230499999999996,0.024242,0.4157,-0.358935,0.07174199999999999,0.59162,-0.621975,-0.577588,0.75385,-0.6424449999999999,0.025492,0.72811,-0.891045,-0.08202200000000001,0.005170000000000008,0.014515,0.082022,-0.005170000000000008,-0.014515,-0.260738,-0.16072999999999998,-0.32859499999999997,0.027212,-0.18087999999999999,-0.39614499999999997,-0.21572800000000003,-0.52265,-0.20504399999999998,0.04166199999999999,-0.56347,-0.21382299999999999
153,-0.165584,0.660555,-0.42035,-0.257501,0.482705,-0.30594,-0.44854099999999997,0.596015,-0.45698,0.02439899999999999,0.411955,-0.36096,0.072819,0.5871649999999999,-0.6245700000000001,-0.578131,0.747565,-0.64804,0.027038999999999994,0.720745,-0.89497,-0.082279,0.005605000000000027,0.015020000000000006,0.08227899999999999,-0.005605000000000027,-0.015020000000000006,-0.26100100000000004,-0.156995,-0.32938,0.029639,-0.17766500000000002,-0.39805999999999997,-0.214151,-0.519185,-0.205598,0.04394899999999999,-0.5597350000000001,-0.21450799999999998
154,-0.16481050000000003,0.65845,-0.424125,-0.2576345,0.47968,-0.30998499999999996,-0.4479445,0.59161,-0.460925,0.024875499999999995,0.40828,-0.362665,0.07390549999999999,0.58229,-0.626935,-0.5778845,0.7409999999999999,-0.653385,0.02921549999999999,0.71411,-0.897635,-0.08249550000000001,0.006199999999999983,0.01538500000000001,0.0824955,-0.006200000000000039,-0.015384999999999982,-0.2613045,-0.15345000000000003,-0.329935,0.03200549999999999,-0.17496000000000006,-0.39997499999999997,-0.2123045,-0.51586,-0.20593399999999998,0.046345499999999984,-0.5561900000000001,-0.21498499999999998
155,-0.164098,0.65662,-0.426405,-0.257592,0.4768,-0.314095,-0.447212,0.5878,-0.464535,0.025568000000000007,0.40473099999999995,-0.363635,0.07489799999999999,0.57715,-0.629215,-0.5771919999999999,0.73516,-0.658075,0.03128800000000001,0.70851,-0.9004650000000001,-0.082758,0.006879999999999997,0.015715000000000007,0.082758,-0.006879999999999997,-0.01571499999999998,-0.26200199999999996,-0.14977000000000001,-0.33069499999999996,0.03382800000000001,-0.17226000000000002,-0.401995,-0.210372,-0.51243,-0.20621099999999998,0.04860800000000001,-0.5526,-0.21538599999999997
156,-0.1632775,0.65631,-0.42784,-0.25583649999999997,0.47685,-0.31698000000000004,-0.4457965,0.58491,-0.46775,0.027313500000000004,0.399593,-0.36429,0.07614350000000002,0.57196,-0.6309899999999999,-0.5757965,0.73091,-0.6618200000000001,0.03349350000000001,0.70367,-0.90301,-0.0830335,0.007830000000000004,0.015989999999999976,0.0830335,-0.007830000000000004,-0.015990000000000004,-0.2627365,-0.14476,-0.33166,0.03550350000000001,-0.16904000000000002,-0.40429000000000004,-0.2082565,-0.5084900000000001,-0.20653500000000002,0.05086350000000002,-0.54816,-0.215559
157,-0.16279949999999999,0.656765,-0.42872499999999997,-0.25406249999999997,0.47689499999999996,-0.319795,-0.4439725,0.5824849999999999,-0.470005,0.029377500000000015,0.394595,-0.364745,0.07765750000000002,0.567325,-0.632335,-0.5739325,0.727085,-0.664965,0.03575750000000001,0.696635,-0.904855,-0.0831875,0.008834999999999982,0.016105000000000008,0.0831875,-0.008835000000000037,-0.016105000000000008,-0.2633625,-0.14031500000000002,-0.332345,0.03679750000000001,-0.16618500000000003,-0.406235,-0.20598249999999999,-0.504675,-0.20676899999999998,0.053157499999999996,-0.544025,-0.215855
158,-0.1634065,0.6578,-0.429215,-0.2530645,0.4771000000000001,-0.32221500000000003,-0.44279450000000004,0.5807300000000001,-0.472015,0.0310555,0.38985900000000007,-0.365225,0.07875549999999999,0.5627200000000001,-0.634035,-0.5726645,0.72404,-0.6676850000000001,0.037475499999999995,0.69072,-0.9062650000000001,-0.0829555,0.009800000000000031,0.016134999999999983,0.0829555,-0.009799999999999975,-0.01613500000000001,-0.2647345,-0.13595999999999997,-0.33281499999999997,0.0371755,-0.16329999999999995,-0.407945,-0.2043145,-0.5009399999999999,-0.20691400000000001,0.054845500000000005,-0.5398799999999999,-0.216038
159,-0.164237,0.659265,-0.429235,-0.252617,0.47726500000000005,-0.324075,-0.441877,0.5791850000000001,-0.473535,0.032663,0.38926,-0.365525,0.079333,0.560065,-0.635795,-0.571587,0.7210449999999999,-0.6700649999999999,0.038643,0.685505,-0.9077149999999999,-0.082823,0.010294999999999999,0.016174999999999995,0.082823,-0.010294999999999999,-0.016174999999999995,-0.266667,-0.132175,-0.333245,0.036813,-0.16090499999999996,-0.409445,-0.20309699999999997,-0.497505,-0.20707899999999999,0.056063000000000016,-0.536125,-0.21626199999999998
160,-0.165425,0.66117,-0.42929,-0.25241899999999995,0.47806000000000004,-0.32572,-0.441389,0.5780500000000001,-0.4748,0.03359100000000001,0.38913800000000004,-0.36583,0.07942100000000002,0.55786,-0.63776,-0.5709690000000001,0.71848,-0.6721699999999999,0.03907100000000001,0.68062,-0.9093,-0.08262099999999999,0.010460000000000025,0.016210000000000002,0.082621,-0.01045999999999997,-0.016210000000000002,-0.269179,-0.12923999999999997,-0.33372,0.03563100000000001,-0.15929999999999994,-0.41078000000000003,-0.202569,-0.49473999999999996,-0.207327,0.056671,-0.5328999999999999,-0.21729199999999999
161,-0.1665645,0.663365,-0.429125,-0.25251049999999997,0.47924500000000003,-0.32664499999999996,-0.44114050000000005,0.576685,-0.47521500000000005,0.03422950000000001,0.388811,-0.36573500000000003,0.07956950000000002,0.556245,-0.639395,-0.5703705,0.717105,-0.673235,0.0391195,0.6772549999999999,-0.910935,-0.0823795,0.010645000000000016,0.01625499999999999,0.0823795,-0.01064499999999996,-0.01625499999999999,-0.2716305,-0.12634499999999999,-0.334055,0.033919500000000005,-0.15759499999999999,-0.411975,-0.2021305,-0.49212500000000003,-0.207339,0.056979500000000016,-0.529755,-0.218007
162,-0.167575,0.6653899999999999,-0.428335,-0.2526,0.48019999999999996,-0.326835,-0.44101999999999997,0.57601,-0.47475500000000004,0.03583,0.387876,-0.365305,0.07960999999999999,0.5548299999999999,-0.6401650000000001,-0.56994,0.71594,-0.673485,0.038919999999999996,0.6752499999999999,-0.911705,-0.08221,0.010749999999999982,0.016194999999999987,0.08221,-0.010750000000000037,-0.016195000000000015,-0.27362,-0.12425000000000003,-0.333935,0.032299999999999995,-0.15609,-0.412535,-0.20179,-0.49023000000000005,-0.20683,0.05707999999999999,-0.5273,-0.218514
163,-0.1683875,0.66737,-0.426965,-0.2526755,0.48087,-0.326415,-0.44088550000000004,0.57649,-0.473805,0.0373145,0.386468,-0.365135,0.0797045,0.5547,-0.639375,-0.5697155,0.71628,-0.672925,0.0382045,0.67468,-0.9129349999999999,-0.0820545,0.01094999999999996,0.01602500000000001,0.08205449999999999,-0.010950000000000015,-0.016024999999999984,-0.2749155,-0.12296000000000001,-0.333655,0.030534500000000006,-0.15505000000000002,-0.41261499999999995,-0.20157550000000002,-0.48896000000000006,-0.20601299999999997,0.0570045,-0.5255,-0.21872299999999997
164,-0.1688035,0.669205,-0.425405,-0.2527095,0.481135,-0.32587499999999997,-0.4409095,0.577285,-0.473045,0.0385205,0.38496600000000003,-0.365195,0.0799305,0.555275,-0.6386350000000001,-0.5695395,0.717285,-0.6723349999999999,0.03738050000000001,0.6742049999999999,-0.9142649999999999,-0.08203049999999999,0.011114999999999986,0.015935000000000005,0.08203049999999999,-0.011114999999999986,-0.015934999999999977,-0.27534949999999997,-0.122755,-0.33335499999999996,0.02891450000000001,-0.15444499999999994,-0.412585,-0.2014895,-0.48880499999999993,-0.20542999999999997,0.05674050000000001,-0.524655,-0.21901299999999999
165,-0.1690585,0.669205,-0.423735,-0.25262650000000003,0.481135,-0.325525,-0.4409465,0.577285,-0.472515,0.03894349999999999,0.38496600000000003,-0.365185,0.0799835,0.555275,-0.6382950000000001,-0.5695065,0.717285,-0.671805,0.03666349999999999,0.6742049999999999,-0.915535,-0.08214350000000001,0.011114999999999986,0.015924999999999995,0.0821435,-0.011114999999999986,-0.015924999999999995,-0.2752665,-0.123585,-0.332855,0.027500499999999997,-0.15469500000000003,-0.412145,-0.20150650000000003,-0.48934500000000003,-0.204973,0.056583499999999995,-0.524845,-0.21948
166,-0.1690915,0.669205,-0.42199000000000003,-0.2525525,0.481135,-0.32519000000000003,-0.4410525,0.577285,-0.47203,0.0392575,0.38496600000000003,-0.36484000000000005,0.0800575,0.555275,-0.6379600000000001,-0.5695224999999999,0.717285,-0.67147,0.0362875,0.6742049999999999,-0.9157,-0.0822575,0.011114999999999986,0.01616999999999999,0.08225750000000001,-0.011114999999999986,-0.016170000000000018,-0.2751925,-0.124145,-0.33252000000000004,0.026403499999999996,-0.15471499999999994,-0.41188,-0.2015225,-0.48989499999999997,-0.20466700000000002,0.05641750000000001,-0.524915,-0.22002400000000003
167,-0.1691025,0.669705,-0.420945,-0.2525235,0.481135,-0.32477500000000004,-0.4410235,0.577285,-0.47150499999999995,0.0392865,0.38496600000000003,-0.364425,0.0800865,0.555275,-0.637545,-0.5695835,0.717285,-0.671065,0.035866499999999996,0.6742049999999999,-0.916575,-0.0823165,0.011114999999999986,0.01638500000000001,0.08231649999999999,-0.011114999999999986,-0.01638500000000001,-0.2751635,-0.124635,-0.332105,0.025206499999999993,-0.15490499999999996,-0.411535,-0.2015435,-0.49046500000000004,-0.204283,0.05616650000000001,-0.524965,-0.22021
168,-0.1692995,0.6727700000000001,-0.41976499999999994,-0.25183849999999997,0.48184000000000005,-0.32418499999999995,-0.4411285,0.5788800000000001,-0.470675,0.039231500000000016,0.38727700000000004,-0.364325,0.08009150000000002,0.55819,-0.637115,-0.5698285,0.71808,-0.670425,0.03566150000000001,0.67438,-0.9167749999999999,-0.08237149999999999,0.01102000000000003,0.016445000000000015,0.0823715,-0.011019999999999974,-0.016444999999999987,-0.2750585,-0.12599,-0.331555,0.02393350000000001,-0.15588999999999997,-0.41073499999999996,-0.20154849999999996,-0.4918199999999999,-0.20368699999999998,0.056001500000000023,-0.5256799999999999,-0.21966199999999997
169,-0.1701985,0.6774100000000001,-0.41857500000000003,-0.2511985,0.48385000000000006,-0.32298499999999997,-0.4412985,0.58164,-0.469485,0.0390915,0.38902300000000006,-0.36412500000000003,0.0799115,0.5616000000000001,-0.6372249999999999,-0.5700285,0.7199,-0.669225,0.03521149999999999,0.6786700000000001,-0.9163349999999999,-0.0824715,0.011240000000000028,0.016444999999999987,0.0824715,-0.011239999999999972,-0.016445000000000015,-0.2742785,-0.12779999999999997,-0.330585,0.02251249999999999,-0.15760999999999992,-0.40976500000000005,-0.2016385,-0.4936299999999999,-0.203065,0.055831500000000006,-0.5274599999999999,-0.219072
170,-0.1703365,0.68239,-0.41705499999999995,-0.2501565,0.48617,-0.321625,-0.4412165,0.5848500000000001,-0.467665,0.039033499999999985,0.392232,-0.363615,0.07956349999999998,0.56662,-0.636035,-0.5701864999999999,0.72257,-0.667505,0.03475349999999999,0.6834100000000001,-0.915705,-0.0824435,0.011170000000000013,0.016534999999999994,0.0824435,-0.011169999999999958,-0.016534999999999994,-0.2730765,-0.13087,-0.329245,0.02124749999999999,-0.16067999999999993,-0.408105,-0.20165650000000002,-0.4966999999999999,-0.202351,0.055773499999999976,-0.5304599999999999,-0.21842
171,-0.1695565,0.687335,-0.41503999999999996,-0.2487355,0.488395,-0.32011999999999996,-0.44103549999999997,0.5882149999999999,-0.46545,0.03880449999999999,0.398154,-0.36301,0.07950449999999999,0.572105,-0.63456,-0.5703755,0.725875,-0.66528,0.0346645,0.688935,-0.9151,-0.0824245,0.01065499999999997,0.016630000000000006,0.0824245,-0.010655000000000026,-0.016630000000000006,-0.2716155,-0.13560500000000003,-0.32755999999999996,0.0199675,-0.16541499999999998,-0.40543,-0.20164549999999998,-0.501435,-0.201716,0.055714499999999986,-0.534755,-0.21767999999999998
172,-0.169041,0.690295,-0.41128,-0.247476,0.490475,-0.31796,-0.440856,0.592605,-0.46210999999999997,0.038694000000000006,0.40348300000000004,-0.36141999999999996,0.07941400000000001,0.577305,-0.63168,-0.570816,0.730045,-0.6622399999999999,0.034334,0.695695,-0.9140299999999999,-0.082574,0.010075,0.016250000000000014,0.08257400000000001,-0.010075,-0.016249999999999987,-0.270196,-0.14330499999999996,-0.32508,0.018484,-0.171315,-0.40166,-0.201776,-0.5080049999999999,-0.199957,0.055333999999999994,-0.540975,-0.21556999999999998
173,-0.168479,0.691765,-0.406845,-0.24583700000000003,0.494205,-0.315395,-0.440417,0.595865,-0.45829499999999995,0.038493,0.407549,-0.359415,0.079583,0.581935,-0.6283650000000001,-0.571037,0.7337549999999999,-0.658265,0.034102999999999994,0.701635,-0.9122250000000001,-0.082613,0.009894999999999987,0.016055000000000014,0.082613,-0.009894999999999987,-0.016054999999999986,-0.268117,-0.15346500000000002,-0.320895,0.01715699999999999,-0.17977500000000002,-0.39697499999999997,-0.201787,-0.516935,-0.197787,0.05506299999999999,-0.549575,-0.21284499999999998
174,-0.1680015,0.69383,-0.402465,-0.2443795,0.49716000000000005,-0.312445,-0.4398595,0.60094,-0.453835,0.0381905,0.41174,-0.357095,0.08020050000000001,0.58723,-0.624625,-0.5712995,0.73914,-0.653595,0.0338605,0.7079500000000001,-0.9096449999999999,-0.0825205,0.009550000000000003,0.015924999999999995,0.0825205,-0.009549999999999947,-0.015924999999999995,-0.2660495,-0.16415999999999997,-0.316175,0.016092499999999996,-0.18871,-0.391635,-0.2018095,-0.52644,-0.19566,0.0549105,-0.55889,-0.21002300000000002
175,-0.167096,0.6971499999999999,-0.398005,-0.242821,0.50094,-0.308865,-0.43911100000000003,0.60629,-0.448865,0.037899,0.41766000000000003,-0.354095,0.080859,0.59262,-0.620865,-0.571501,0.74471,-0.6483650000000001,0.034189,0.71478,-0.905995,-0.082359,0.008940000000000003,0.015704999999999997,0.082359,-0.008940000000000003,-0.015704999999999997,-0.264231,-0.17459999999999998,-0.311035,0.015366000000000005,-0.19780999999999999,-0.386205,-0.20165099999999997,-0.53644,-0.19343000000000002,0.054499000000000006,-0.57072,-0.208564
176,-0.16554950000000002,0.7008,-0.39349,-0.24123050000000001,0.5049399999999999,-0.30455999999999994,-0.43807050000000003,0.61351,-0.44371,0.03763949999999999,0.42455999999999994,-0.35080999999999996,0.0816295,0.59917,-0.6176999999999999,-0.5714705,0.75215,-0.64175,0.0349395,0.72324,-0.90118,-0.0823495,0.008349999999999969,0.015620000000000023,0.08234949999999999,-0.008350000000000024,-0.015619999999999995,-0.2623205,-0.18528000000000006,-0.30569999999999997,0.015004500000000004,-0.20733000000000001,-0.38037,-0.2013205,-0.54695,-0.19117599999999998,0.05430950000000001,-0.5830000000000001,-0.20707499999999998
177,-0.163922,0.70272,-0.38843000000000005,-0.239973,0.50961,-0.29916,-0.436953,0.61991,-0.43812,0.03753699999999999,0.42952,-0.34747000000000006,0.082297,0.6052500000000001,-0.61371,-0.571103,0.7596499999999999,-0.63483,0.03605699999999999,0.73231,-0.8953300000000001,-0.08238700000000002,0.007799999999999974,0.01555999999999999,0.082387,-0.007799999999999974,-0.015560000000000018,-0.260503,-0.19612999999999997,-0.30037,0.014668999999999988,-0.21638999999999997,-0.37451,-0.201023,-0.55734,-0.188846,0.054116999999999985,-0.5956699999999999,-0.20556300000000002
178,-0.162051,0.70452,-0.38278,-0.238796,0.5129900000000001,-0.29382,-0.43585599999999997,0.62593,-0.43191,0.03750400000000001,0.43452,-0.34411,0.082994,0.61124,-0.60971,-0.569786,0.76875,-0.6277,0.03768400000000001,0.74184,-0.88809,-0.082324,0.007080000000000003,0.01529999999999998,0.082324,-0.007079999999999975,-0.015300000000000008,-0.258926,-0.2061,-0.29506,0.014362,-0.22546,-0.36838000000000004,-0.20061600000000002,-0.5679,-0.186591,0.053814000000000015,-0.61017,-0.20831400000000003
179,-0.159281,0.70626,-0.376895,-0.236691,0.51702,-0.288045,-0.43440100000000004,0.63289,-0.425895,0.038118999999999986,0.44285,-0.340665,0.084759,0.6177900000000001,-0.605125,-0.567941,0.7777400000000001,-0.620385,0.040158999999999986,0.7506600000000001,-0.8806050000000001,-0.081959,0.006390000000000007,0.014325000000000004,0.081959,-0.006389999999999979,-0.014325000000000004,-0.256401,-0.21710999999999997,-0.289835,0.014849999999999988,-0.23547999999999997,-0.361435,-0.199661,-0.57985,-0.184319,0.05470899999999998,-0.6247499999999999,-0.209398
180,-0.155492,0.710085,-0.369775,-0.23479899999999998,0.520375,-0.28193500000000005,-0.43209899999999996,0.640225,-0.419275,0.03942100000000001,0.448735,-0.336845,0.086911,0.626265,-0.599415,-0.565169,0.787045,-0.612665,0.04340100000000001,0.7648250000000001,-0.871415,-0.08155099999999998,0.0061350000000000016,0.013564999999999994,0.081551,-0.0061350000000000016,-0.013565000000000021,-0.253569,-0.227405,-0.284335,0.015993000000000007,-0.244555,-0.35458500000000004,-0.19847900000000002,-0.591005,-0.181765,0.056051000000000004,-0.637865,-0.209896
181,-0.1511165,0.71634,-0.36407500000000004,-0.23407650000000002,0.52276,-0.276515,-0.4293665,0.64839,-0.413145,0.0409235,0.45443,-0.333665,0.08946350000000002,0.6359,-0.595295,-0.5612365,0.7983199999999999,-0.605495,0.04760350000000001,0.7781500000000001,-0.862485,-0.0809535,0.005650000000000016,0.013465000000000005,0.0809535,-0.005649999999999988,-0.013465000000000005,-0.2502765,-0.23576999999999998,-0.279745,0.017958500000000002,-0.25173999999999996,-0.348875,-0.1973565,-0.6011,-0.180309,0.05743350000000001,-0.6479900000000001,-0.210425
182,-0.145536,0.7214200000000001,-0.357325,-0.232655,0.52047,-0.27032500000000004,-0.42552500000000004,0.65715,-0.406105,0.043325,0.45904,-0.329575,0.09420500000000001,0.64497,-0.587735,-0.556515,0.80928,-0.597805,0.05394499999999999,0.79151,-0.850205,-0.080425,0.004260000000000014,0.012354999999999977,0.080425,-0.004259999999999986,-0.012355000000000005,-0.246345,-0.24480999999999997,-0.275225,0.021681999999999993,-0.25833,-0.340125,-0.195725,-0.61265,-0.178129,0.059725,-0.6585,-0.21024
183,-0.1377225,0.7250000000000001,-0.348865,-0.22970849999999998,0.5243599999999999,-0.262105,-0.42023849999999996,0.66336,-0.39929499999999996,0.04716150000000001,0.46706,-0.323335,0.1019915,0.65308,-0.578235,-0.5491085,0.8210299999999999,-0.590195,0.0631715,0.8035300000000001,-0.835885,-0.08007149999999999,0.0035099999999999854,0.010514999999999997,0.0800715,-0.003510000000000013,-0.010514999999999997,-0.24001849999999997,-0.25541,-0.269835,0.027906500000000015,-0.26677,-0.330375,-0.19257849999999999,-0.6266800000000001,-0.175559,0.06349150000000002,-0.6719299999999999,-0.21151599999999998
184,-0.12919950000000002,0.72843,-0.339155,-0.22595550000000003,0.5283599999999999,-0.25404499999999997,-0.4142155,0.67082,-0.392895,0.0514945,0.47273,-0.317805,0.11085449999999998,0.66212,-0.568575,-0.5403255,0.83161,-0.583125,0.0742145,0.81505,-0.819755,-0.0797645,0.0028799999999999937,0.008765000000000023,0.0797645,-0.0028799999999999937,-0.008764999999999995,-0.2323155,-0.26642,-0.264785,0.035343499999999986,-0.27555,-0.322275,-0.1882455,-0.64071,-0.172784,0.0683845,-0.68567,-0.21461199999999997
185,-0.120716,0.7324599999999999,-0.328705,-0.22224,0.53169,-0.246355,-0.40815999999999997,0.67648,-0.386135,0.055929999999999994,0.47803,-0.31179500000000004,0.11975,0.6713100000000001,-0.557415,-0.53039,0.8423,-0.576595,0.08657999999999999,0.82829,-0.801745,-0.07943,0.0022099999999999898,0.0071249999999999925,0.07943,-0.0022100000000000175,-0.0071249999999999925,-0.2245,-0.27686,-0.259825,0.04314799999999999,-0.28403,-0.312095,-0.18423,-0.6550400000000001,-0.170097,0.07347000000000001,-0.7009799999999999,-0.217377
186,-0.11175199999999999,0.7383350000000001,-0.317825,-0.218267,0.534025,-0.239261,-0.401527,0.684175,-0.37966500000000003,0.061233,0.486405,-0.305255,0.12946300000000002,0.6829350000000001,-0.546475,-0.519047,0.855325,-0.569365,0.10026300000000002,0.8444550000000001,-0.784285,-0.079153,0.001695000000000002,0.005544999999999994,0.079153,-0.001695000000000002,-0.005545000000000022,-0.21639699999999998,-0.286605,-0.254905,0.05159300000000001,-0.29230500000000004,-0.30208500000000005,-0.181147,-0.671765,-0.17068,0.07881300000000002,-0.713695,-0.22004300000000002
187,-0.10104250000000001,0.742585,-0.305715,-0.2129585,0.536525,-0.232306,-0.3929585,0.692135,-0.37402500000000005,0.0688315,0.49595500000000003,-0.29762500000000003,0.1413315,0.695255,-0.534285,-0.5052985,0.8681350000000001,-0.5615749999999999,0.1161115,0.859885,-0.765145,-0.0793915,0.0012650000000000161,0.0038449999999999873,0.0793915,-0.0012649999999999884,-0.003845000000000015,-0.2063785,-0.296545,-0.250165,0.0626015,-0.30021499999999995,-0.29246500000000003,-0.1766585,-0.687865,-0.17150700000000002,0.0861815,-0.726855,-0.219756
188,-0.0904325,0.7457099999999999,-0.29164500000000004,-0.2084285,0.54318,-0.22382900000000003,-0.3847485,0.7050099999999999,-0.368335,0.0764115,0.50161,-0.28930500000000003,0.1529415,0.70807,-0.520545,-0.4908185,0.88287,-0.553545,0.13333150000000002,0.87768,-0.743075,-0.0796715,0.0011999999999999789,0.002454999999999985,0.0796715,-0.0012000000000000066,-0.0024550000000000127,-0.19720849999999998,-0.30502,-0.24546500000000002,0.07341149999999999,-0.30492,-0.283965,-0.1724085,-0.7018800000000001,-0.17241900000000002,0.09342150000000002,-0.7382200000000001,-0.21830400000000003
189,-0.07965150000000001,0.74483,-0.276485,-0.20332450000000002,0.54815,-0.214375,-0.3765945,0.7154900000000001,-0.36175500000000005,0.0847955,0.50675,-0.279015,0.16576549999999998,0.71858,-0.504165,-0.4753845,0.89707,-0.543945,0.1515155,0.88836,-0.719315,-0.0797455,0.0011299999999999921,0.0013849999999999973,0.0797455,-0.001130000000000006,-0.001385000000000025,-0.1877045,-0.31406999999999996,-0.239495,0.08502549999999999,-0.31151000000000006,-0.27466500000000005,-0.16760450000000002,-0.71722,-0.171972,0.1014255,-0.75128,-0.214287
190,-0.06904450000000001,0.742984,-0.26093,-0.1983295,0.553234,-0.204649,-0.3683095,0.725414,-0.35548,0.09342049999999999,0.513014,-0.26788999999999996,0.17868050000000002,0.728814,-0.48654,-0.45984949999999997,0.910354,-0.5342100000000001,0.1703605,0.903714,-0.69483,-0.0798905,0.0012860000000000094,0.0003599999999999992,0.0798905,-0.0012859999999999955,-0.0003599999999999992,-0.1783795,-0.32280600000000004,-0.23301,0.0963405,-0.318546,-0.26509,-0.16265949999999998,-0.7320760000000001,-0.170773,0.1104205,-0.7593260000000001,-0.207722
191,-0.058799000000000004,0.7446945,-0.245525,-0.194169,0.5606545,-0.195718,-0.359929,0.7368245,-0.348955,0.102001,0.5222844999999999,-0.256775,0.191301,0.7411645,-0.469815,-0.443559,0.9261845,-0.524425,0.188371,0.9188145,-0.670255,-0.07999099999999999,0.0017854999999999954,0.0004149999999999987,0.07999099999999999,-0.0017854999999999954,-0.0004149999999999848,-0.169929,-0.3288455,-0.227425,0.106551,-0.3244955,-0.25749500000000003,-0.158089,-0.7438755,-0.17063,0.11818100000000001,-0.7660855,-0.20161199999999999
192,-0.0503915,0.7467969999999999,-0.23035,-0.1904895,0.562507,-0.18787500000000001,-0.35279950000000004,0.7477469999999999,-0.34221,0.1105305,0.533407,-0.24514000000000002,0.20260050000000002,0.755567,-0.45284,-0.4289995,0.939817,-0.51389,0.2047705,0.935087,-0.6462300000000001,-0.0800805,0.0016219999999999984,0.0011399999999999882,0.0800805,-0.0016219999999999984,-0.0011400000000000021,-0.1640395,-0.33314299999999997,-0.22257,0.1128605,-0.330573,-0.24953,-0.15485949999999998,-0.753523,-0.17074,0.1234905,-0.7710830000000001,-0.19562800000000002
193,-0.0429625,0.7471945,-0.215374,-0.1865675,0.5623545,-0.180431,-0.34606750000000003,0.7579245,-0.33487500000000003,0.11850249999999998,0.5442645,-0.233485,0.2129225,0.7680445,-0.43454499999999996,-0.41478750000000003,0.9566545000000001,-0.502095,0.2212125,0.9519145,-0.621175,-0.0802415,0.0014875000000000027,0.0015149999999999886,0.0802415,-0.0014875000000000027,-0.0015150000000000025,-0.15902750000000002,-0.3382855,-0.217126,0.11997249999999998,-0.3351755,-0.241125,-0.1516775,-0.7646255,-0.169239,0.1289225,-0.7764654999999999,-0.18935000000000002
194,-0.036177,0.7462735,-0.200333,-0.18306,0.5634534999999999,-0.173125,-0.33885,0.7685035,-0.327305,0.12663999999999997,0.5543335,-0.22220499999999999,0.22403,0.7792435,-0.41491500000000003,-0.40084000000000003,0.9722735,-0.490235,0.23742000000000002,0.9662735,-0.5973350000000001,-0.080361,0.0013565000000000035,0.0017149999999999943,0.080361,-0.0013565000000000035,-0.0017150000000000082,-0.15404,-0.3466965,-0.211846,0.12473,-0.3435865,-0.232855,-0.14748,-0.7728965,-0.166846,0.13348,-0.7848765,-0.184718
195,-0.029739000000000005,0.748421,-0.18565399999999999,-0.17957599999999999,0.564871,-0.16553199999999998,-0.330856,0.776861,-0.31904,0.134224,0.562681,-0.209893,0.235324,0.787181,-0.39436000000000004,-0.387926,0.985831,-0.47888,0.253324,0.977611,-0.57139,-0.080545,0.0011529999999999943,0.0017400000000000054,0.080545,-0.0011530000000000012,-0.0017399999999999916,-0.149056,-0.355229,-0.206555,0.128614,-0.352119,-0.22002,-0.143286,-0.7814289999999999,-0.163438,0.137884,-0.7934089999999999,-0.177218
196,-0.0244065,0.7491205,-0.1649755,-0.1763255,0.5650405,-0.1506475,-0.32349550000000005,0.7832604999999999,-0.3028455,0.1406145,0.5689004999999999,-0.1913625,0.2460845,0.7934804999999999,-0.36574549999999995,-0.3765755,0.9980105,-0.45968549999999997,0.26810449999999997,0.9869405,-0.5378855,-0.0806625,0.0008254999999999998,0.0016744999999999954,0.0806625,-0.0008254999999999998,-0.0016744999999999954,-0.14475549999999998,-0.3613195,-0.1927215,0.1319745,-0.36160950000000003,-0.19967649999999998,-0.13934549999999998,-0.7909195,-0.1526345,0.1416745,-0.8028995,-0.1628055
197,-0.019988999999999996,0.7528585,-0.14493499999999998,-0.17406,0.5643785,-0.13461,-0.31641,0.7848485,-0.285141,0.14651,0.5709784999999999,-0.171006,0.25627,0.7955485,-0.33631099999999997,-0.36564,1.0052985,-0.438621,0.28136,0.9913085,-0.504071,-0.080875,0.00020650000000000182,0.001901,0.080875,-0.00020649999999999835,-0.001901,-0.14064,-0.37321150000000003,-0.175576,0.13484000000000002,-0.37927150000000004,-0.17503999999999997,-0.13441,-0.7992715,-0.137205,0.1451,-0.8161315,-0.14703
198,-0.016529500000000003,0.7591845,-0.126449,-0.1725065,0.5659345,-0.119399,-0.3100265,0.7882645,-0.268479,0.15155349999999998,0.5735045,-0.152607,0.2654035,0.7984845,-0.30832899999999996,-0.3559165,1.0129945,-0.418599,0.2935035,0.9980545000000001,-0.470959,-0.0811855,-0.0001815000000000011,0.001898999999999998,0.0811855,0.00018149999999999764,-0.001898999999999998,-0.1372265,-0.38186549999999997,-0.159415,0.1371135,-0.3949555,-0.15118199999999998,-0.1301065,-0.8055154999999999,-0.122129,0.1478535,-0.8256155,-0.130805
199,-0.013354999999999995,0.7658605,-0.10798450000000001,-0.17066599999999998,0.5678405000000001,-0.1040755,-0.30424599999999996,0.7906905000000001,-0.2514515,0.156314,0.5754705,-0.1345025,0.273834,0.8015005000000001,-0.2808815,-0.346946,1.0195205,-0.39790149999999996,0.30454400000000004,1.0002605,-0.4364115,-0.081579,-0.0003325000000000012,0.0019325000000000037,0.081579,0.00033249999999999946,-0.0019325000000000037,-0.133996,-0.39030950000000003,-0.14326650000000002,0.13819399999999998,-0.4123795,-0.1275645,-0.127096,-0.8152094999999999,-0.1107215,0.15017400000000003,-0.8371795,-0.11328250000000001
200,-0.010655499999999998,0.7716125,-0.0901625,-0.16870849999999998,0.5699725000000001,-0.0887875,-0.29940849999999997,0.7922825,-0.2350535,0.16069150000000001,0.5791525000000001,-0.1139645,0.28118150000000003,0.8036225,-0.2534035,-0.3389585,1.0245125,-0.3775135,0.3148115,1.0032124999999998,-0.4037435,-0.08200650000000001,-0.0003474999999999997,0.0018055000000000015,0.08200650000000001,0.00034750000000000015,-0.0018055000000000015,-0.13095849999999998,-0.3995175,-0.1273175,0.13874150000000002,-0.4274475,-0.1046385,-0.12296849999999998,-0.8209074999999999,-0.0959075,0.1521315,-0.8465075,-0.0963055
201,-0.008062,0.777735,-0.072488,-0.166866,0.571875,-0.074258,-0.294796,0.795115,-0.218285,0.16362400000000002,0.577665,-0.095447,0.28738400000000003,0.804875,-0.226535,-0.331536,1.0291450000000002,-0.357305,0.324474,1.005945,-0.370965,-0.082511,-0.00016799999999999975,0.0015029999999999974,0.082511,0.00016799999999999975,-0.0015030000000000043,-0.128276,-0.405915,-0.11156500000000001,0.138604,-0.44351500000000005,-0.082735,-0.11915599999999998,-0.8259650000000001,-0.080906,0.153624,-0.857325,-0.080181
202,-0.005741499999999993,0.7850024999999999,-0.0549715,-0.1652845,0.5750525,-0.0592685,-0.29053450000000003,0.7970524999999999,-0.2016065,0.16629549999999998,0.5772225,-0.0767815,0.29316549999999997,0.8064125,-0.2006565,-0.3248745,1.0314524999999999,-0.33754649999999997,0.3324755,1.0070525,-0.3401665,-0.0829545,0.00011749999999999955,0.0012764999999999999,0.0829545,-0.00011749999999999955,-0.0012764999999999999,-0.1257145,-0.4113175,-0.09604850000000001,0.13802550000000002,-0.4589375,-0.0615205,-0.1159845,-0.8297275000000001,-0.0655205,0.15474549999999998,-0.8667875,-0.0640275
203,-0.0038525000000000018,0.7920845,-0.037528000000000006,-0.16414450000000003,0.5774545,-0.043712,-0.2869745,0.7983645,-0.184844,0.16889549999999998,0.5775845000000001,-0.056729,0.2982855,0.8077945,-0.176324,-0.3189745,1.0327845,-0.317204,0.3397155,1.0077844999999999,-0.309244,-0.0833245,0.0005215000000000011,0.0010209999999999976,0.0833245,-0.0005215000000000011,-0.001021000000000001,-0.1237545,-0.4169755,-0.07942,0.1369555,-0.47437549999999995,-0.040677000000000005,-0.1135045,-0.8338154999999999,-0.049777,0.1555355,-0.8769055,-0.047827
204,-0.0023175000000000036,0.794666,-0.0191215,-0.1632605,0.5796859999999999,-0.0280965,-0.28470049999999997,0.799956,-0.1681215,0.1712895,0.5759559999999999,-0.037282499999999996,0.3026495,0.808546,-0.15195150000000002,-0.3132605,1.033476,-0.2958715,0.34584950000000003,1.007976,-0.2789115,-0.0835805,0.0010599999999999984,0.0008914999999999999,0.0835805,-0.001060000000000002,-0.0008914999999999999,-0.12243050000000001,-0.423164,-0.062023499999999995,0.1355495,-0.487784,-0.0239725,-0.11142050000000002,-0.8381040000000001,-0.0339165,0.1560495,-0.887084,-0.0343435
205,-0.0021030000000000007,0.7984545,-0.008178,-0.16356099999999998,0.5832145,-0.019592000000000002,-0.28354100000000004,0.8023745,-0.15845700000000001,0.172469,0.5756145,-0.025017,0.30544899999999997,0.8093345,-0.13586700000000002,-0.309151,1.0332945,-0.282777,0.350469,1.0085945,-0.25786699999999996,-0.083561,0.0015665000000000054,0.000696,0.083561,-0.0015664999999999984,-0.000696,-0.122251,-0.42849550000000003,-0.053134999999999995,0.134539,-0.4992255,-0.014405,-0.110981,-0.8407855,-0.026064,0.156419,-0.8958455,-0.028453000000000003
206,-0.0018484999999999994,0.799506,0.001882,-0.1632855,0.5825060000000001,-0.013922,-0.2823255,0.8033260000000001,-0.150179,0.1739745,0.578566,-0.013853,0.3078045,0.812006,-0.11989899999999999,-0.3057955,1.035496,-0.270849,0.3543845,1.011296,-0.239319,-0.0834155,0.0023299999999999987,8.800000000000008e-05,0.0834155,-0.0023299999999999987,-8.799999999999997e-05,-0.12197550000000001,-0.43071400000000004,-0.047302,0.1341745,-0.5030439999999999,-0.009005,-0.1106955,-0.839814,-0.020336,0.1567645,-0.8987839999999999,-0.023767
207,-0.0017194999999999988,0.7993035,0.0119485,-0.1632135,0.5817835,-0.0079135,-0.28124350000000004,0.8038735,-0.1414345,0.17539649999999998,0.5813834999999999,-0.0020215000000000007,0.3097465,0.8133235,-0.1050545,-0.3029135,1.0369435,-0.2589245,0.35780649999999997,1.0120434999999999,-0.2218045,-0.0831735,0.0030364999999999975,-0.0005335000000000001,0.0831735,-0.0030364999999999975,0.0005334999999999997,-0.12190349999999998,-0.4330465,-0.0412595,0.1335865,-0.5058965,-0.0034974999999999997,-0.1105635,-0.8394765000000001,-0.015168500000000001,0.1570665,-0.9015965,-0.0198755
208,-0.0021434999999999996,0.7989529999999999,0.021748,-0.1637445,0.581193,-0.0018620000000000008,-0.28084450000000005,0.8040729999999999,-0.13302,0.1762455,0.584313,0.009826999999999999,0.31087549999999997,0.813303,-0.090326,-0.30096449999999997,1.037763,-0.2475,0.36033550000000003,1.0120630000000002,-0.20545999999999998,-0.0829845,0.003608999999999994,-0.0011970000000000001,0.0829845,-0.003609000000000001,0.0011969999999999993,-0.12275449999999999,-0.433177,-0.035336,0.1324255,-0.508177,0.002077,-0.1109145,-0.8387370000000001,-0.010183,0.1565955,-0.904027,-0.015067000000000002
209,-0.0016470000000000026,0.798228,0.031392,-0.163569,0.5805680000000001,0.0040989999999999985,-0.279909,0.804188,-0.125247,0.17783100000000002,0.584948,0.019922,0.312571,0.812608,-0.077005,-0.29878899999999997,1.0381580000000001,-0.23685699999999998,0.363101,1.010958,-0.190077,-0.08266899999999999,0.004053000000000001,-0.001876000000000001,0.08266899999999999,-0.004052999999999994,0.0018759999999999992,-0.12348899999999999,-0.43335199999999996,-0.029457,0.131781,-0.508562,0.007484999999999999,-0.11141899999999999,-0.837692,-0.005342000000000003,0.156701,-0.9052319999999999,-0.010429
210,-0.0011180000000000044,0.7974115,0.040193,-0.163457,0.5801215000000001,0.009685,-0.27899700000000005,0.8041015,-0.118301,0.17938300000000001,0.5854115000000001,0.029629000000000003,0.314013,0.8110315,-0.06449300000000001,-0.296837,1.0376815,-0.22739099999999998,0.36578299999999997,1.0097814999999999,-0.176141,-0.08244699999999999,0.004406500000000001,-0.002555,0.08244699999999999,-0.004406500000000001,0.002555,-0.124257,-0.4339385,-0.023902,0.131643,-0.5104885,0.012555,-0.111897,-0.8364085,-0.001088999999999998,0.15668300000000002,-0.9063085,-0.0066110000000000006
211,-0.0006154999999999945,0.796148,0.048208,-0.1634755,0.579448,0.014825999999999999,-0.27824550000000003,0.8036679999999999,-0.112012,0.18092450000000002,0.585938,0.039309,0.3153245,0.8097679999999999,-0.052638000000000004,-0.2947555,1.0375180000000002,-0.219452,0.36828449999999996,1.0092180000000002,-0.163102,-0.0823555,0.004522999999999999,-0.003098,0.0823555,-0.004522999999999999,0.0030979999999999983,-0.1250355,-0.435102,-0.018703,0.1311945,-0.510292,0.016811999999999997,-0.1124455,-0.8356520000000001,0.0026099999999999977,0.1565145,-0.907012,-0.002702000000000003
212,-0.00018850000000000117,0.7954295,0.0558225,-0.1635475,0.5788895000000001,0.019450500000000003,-0.2779075,0.8029495,-0.1065145,0.1821125,0.5858295,0.0476105,0.31656249999999997,0.8090495,-0.0415165,-0.2934675,1.0367995,-0.2126545,0.3705625,1.0086995,-0.1513145,-0.0822575,0.004598499999999998,-0.0036454999999999994,0.0822575,-0.004598500000000005,0.0036454999999999994,-0.1257975,-0.4353005,-0.014647499999999997,0.1308925,-0.5098605,0.0206005,-0.11308750000000001,-0.8343905,0.005860500000000001,0.1562825,-0.9071205,0.0004965000000000004
213,0.0001370000000000017,0.795241,0.0623685,-0.163779,0.578701,0.0235075,-0.278409,0.802761,-0.1022835,0.183091,0.5858209999999999,0.0551185,0.317671,0.808291,-0.031503500000000004,-0.292829,1.0366110000000002,-0.2076035,0.37250099999999997,1.0085110000000002,-0.1416935,-0.081979,0.004636000000000001,-0.004272500000000002,0.081979,-0.004635999999999994,0.0042724999999999985,-0.126419,-0.43394900000000003,-0.012033500000000003,0.130461,-0.509969,0.0236095,-0.11383899999999998,-0.832769,0.008588499999999999,0.15598099999999998,-0.907309,0.002701499999999999
214,0.00022250000000000048,0.795231,0.068584,-0.16414250000000002,0.578701,0.027299,-0.2790225,0.802761,-0.099141,0.18405749999999999,0.5858209999999999,0.06276799999999999,0.3186875,0.806781,-0.022562,-0.2928225,1.0366110000000002,-0.203681,0.3742075,1.0084110000000002,-0.13481100000000001,-0.0815325,0.004636000000000001,-0.004755000000000002,0.0815325,-0.004635999999999994,0.004754999999999999,-0.1269925,-0.43394900000000003,-0.009537999999999998,0.1298775,-0.509969,0.026279999999999998,-0.11438249999999998,-0.832609,0.010620999999999998,0.1555975,-0.906929,0.004910999999999999
215,0.0001229999999999981,0.7951309999999999,0.07405,-0.16457200000000002,0.578701,0.030786,-0.279742,0.802511,-0.096658,0.18461799999999998,0.5858209999999999,0.068827,0.32007800000000003,0.8033509999999999,-0.016084,-0.293452,1.0365110000000002,-0.201758,0.375678,1.007311,-0.129568,-0.081052,0.004636000000000001,-0.005156000000000001,0.081052,-0.004635999999999994,0.005156000000000001,-0.12768200000000002,-0.43394900000000003,-0.007528,0.12936799999999998,-0.509969,0.028764,-0.115212,-0.832609,0.012535000000000001,0.15489799999999998,-0.906709,0.007220000000000001
216,-6.0500000000001525e-05,0.794411,0.0791155,-0.1649775,0.5783809999999999,0.0338585,-0.2808775,0.800711,-0.0950905,0.1849325,0.5858209999999999,0.0739985,0.3218525,0.798801,-0.009974500000000004,-0.2942075,1.036011,-0.2001705,0.3771425,1.005111,-0.1259605,-0.0806125,0.004636000000000001,-0.005486499999999998,0.0806125,-0.004635999999999994,0.005486499999999998,-0.1284375,-0.43588899999999997,-0.005937499999999998,0.1290225,-0.511399,0.0311765,-0.1160475,-0.832609,0.014116499999999999,0.15411249999999999,-0.9064490000000001,0.009267499999999998
217,-0.0004349999999999979,0.7936995,0.083965,-0.16552899999999998,0.5777095,0.036721,-0.283379,0.7970495,-0.093993,0.18513100000000002,0.5859194999999999,0.07882,0.324121,0.7920195,-0.0051690000000000035,-0.295099,1.0350095000000001,-0.198973,0.378871,1.0026095000000002,-0.124183,-0.080205,0.004661500000000006,-0.005888000000000001,0.080205,-0.004661499999999999,0.005888000000000001,-0.12933899999999998,-0.4373905,-0.004678999999999999,0.128651,-0.5132105,0.033088,-0.11690899999999999,-0.8325105,0.014818999999999999,0.153221,-0.9065205000000001,0.010391000000000001
218,-0.0008064999999999982,0.7933845,0.08853,-0.16625449999999997,0.5769945000000001,0.039591,-0.2869045,0.7906045,-0.093071,0.1850755,0.5859645,0.082307,0.32714550000000003,0.7840845000000001,-0.0016359999999999986,-0.29607449999999996,1.0326845,-0.198471,0.3810755,0.9949844999999999,-0.122901,-0.0798315,0.004638499999999997,-0.006248999999999998,0.0798315,-0.004638500000000004,0.006249000000000001,-0.13018449999999998,-0.4383455,-0.0035469999999999946,0.1282055,-0.5141755,0.034921,-0.1177345,-0.8329555,0.014985000000000002,0.15218549999999997,-0.9055455,0.011686000000000002
219,-0.0012769999999999969,0.793574,0.093001,-0.167161,0.5760540000000001,0.042471999999999996,-0.292051,0.782374,-0.092755,0.18504900000000002,0.585434,0.086158,0.331279,0.774324,0.0007389999999999966,-0.298101,1.024754,-0.19910499999999998,0.38276899999999997,0.9870540000000001,-0.12186500000000001,-0.079515,0.004455000000000001,-0.006543,0.079515,-0.004455000000000001,0.006542999999999997,-0.130901,-0.439166,-0.002940999999999999,0.127949,-0.516656,0.036697999999999995,-0.11861100000000001,-0.8329359999999999,0.014967999999999999,0.15114899999999998,-0.904076,0.012423999999999998
220,-0.0018759999999999992,0.79414,0.097109,-0.168078,0.57489,0.045287999999999995,-0.298488,0.77128,-0.093499,0.184752,0.58482,0.089923,0.336442,0.76206,0.002711999999999999,-0.300728,1.01469,-0.200569,0.38437200000000005,0.97679,-0.12093900000000002,-0.07930300000000001,0.004243999999999998,-0.006779,0.07930300000000001,-0.004244000000000005,0.006778999999999997,-0.13142800000000002,-0.43939,-0.0025160000000000043,0.127372,-0.5163800000000001,0.038047,-0.119808,-0.83137,0.015362999999999998,0.149892,-0.90224,0.013362999999999996
221,-0.002474500000000001,0.7951674999999999,0.10093250000000001,-0.1690565,0.5727675,0.0482165,-0.3060465,0.7573774999999999,-0.09466549999999999,0.1842935,0.5835275,0.0934645,0.3421435,0.7473974999999999,0.004171500000000002,-0.30397650000000004,1.0006374999999998,-0.2027655,0.3858135,0.9625375,-0.1209655,-0.0792255,0.0040434999999999985,-0.0069665000000000005,0.0792255,-0.004043500000000005,0.0069665000000000005,-0.1319265,-0.4381025,-0.0021785,0.1269935,-0.5184625,0.0394645,-0.1210465,-0.8291225000000001,0.0158965,0.1484735,-0.8998525,0.0136885
