sb224sc-HT22-VT27/4dt907/src/data/kinect_good_preprocessed_not_cut_A11_mediapipe/A10_kinect_mirrored.csv
FrameNo,nose_3d_x,nose_3d_y,nose_3d_z,left_shoulder_3d_x,left_shoulder_3d_y,left_shoulder_3d_z,left_elbow_3d_x,left_elbow_3d_y,left_elbow_3d_z,right_shoulder_3d_x,right_shoulder_3d_y,right_shoulder_3d_z,right_elbow_3d_x,right_elbow_3d_y,right_elbow_3d_z,left_wrist_3d_x,left_wrist_3d_y,left_wrist_3d_z,right_wrist_3d_x,right_wrist_3d_y,right_wrist_3d_z,left_hip_3d_x,left_hip_3d_y,left_hip_3d_z,right_hip_3d_x,right_hip_3d_y,right_hip_3d_z,left_knee_3d_x,left_knee_3d_y,left_knee_3d_z,right_knee_3d_x,right_knee_3d_y,right_knee_3d_z,left_ankle_3d_x,left_ankle_3d_y,left_ankle_3d_z,right_ankle_3d_x,right_ankle_3d_y,right_ankle_3d_z
0,0.9867840000000001,0.75339,0.0522815,0.835251,0.4592699999999999,0.0474885,0.803001,0.21368,0.0655265,1.152821,0.4608899999999999,0.0506665,1.183261,0.20291,0.0681745,0.793261,0.005838,-0.0020825,1.203751,-0.01107,-0.0117185,0.927966,-0.002952,-0.0004585,1.072034,0.002952,0.0004585,0.8773810000000001,-0.40764,0.0089035,1.125031,-0.376,-0.0056005,0.8657210000000001,-0.75209,-0.0157324999999999,1.127021,-0.74266,-0.0029985
1,0.986537,0.7533719999999999,0.0525625,0.8349420000000001,0.459232,0.0488905,0.803092,0.212982,0.0653445,1.1524320000000001,0.460712,0.0513675,1.183322,0.202892,0.0681715,0.793362,0.005176,-0.0023924999999999,1.205932,-0.05384,-0.0389304999999999,0.927954,-0.0029649999999999,-0.0003934999999999,1.072046,0.002965,0.0003935,0.877282,-0.407758,0.0090065,1.125012,-0.376178,-0.0056205,0.865812,-0.752048,-0.0157905,1.126982,-0.741908,-0.0035564999999999
2,0.9865100000000001,0.753413,0.052998,0.8348280000000001,0.459323,0.049302,0.803238,0.212813,0.06495,1.152108,0.460513,0.051904,1.183258,0.202893,0.0679319999999999,0.793418,0.005024,-0.0028279999999999,1.199398,-0.003717,-0.001986,0.9279880000000001,-0.002943,-0.0003949999999999,1.072012,0.002943,0.0003949999999999,0.8775880000000001,-0.410327,0.009283,1.124898,-0.378137,-0.00495,0.865768,-0.7520870000000001,-0.015966,1.126628,-0.7428070000000001,-0.003979
3,0.9862805,0.753342,0.053592,0.8345955,0.4592119999999999,0.050445,0.8029355,0.211822,0.062915,1.1520855,0.4606019999999999,0.051565,1.1830055,0.202922,0.067158,0.7933855,0.003714,-0.003733,1.2053655,-0.011682,-0.014057,0.9279945,-0.002946,-0.000466,1.0720055,0.002946,0.000466,0.8774955,-0.410578,0.0091529999999999,1.1248155,-0.379358,-0.005452,0.8650154999999999,-0.753148,-0.017587,1.1262555,-0.7406780000000001,-0.004451
4,0.9860560000000002,0.753047,0.054855,0.834283,0.459167,0.0514089999999999,0.802983,0.211397,0.058163,1.152123,0.460117,0.0530289999999999,1.184323,0.203437,0.065196,0.7944030000000001,0.001192,-0.010747,1.2041330000000001,-0.009733,-0.01787,0.92804,-0.003081,-0.00035,1.07196,0.003081,0.0003499999999999,0.877803,-0.411323,0.0091159999999999,1.124743,-0.379003,-0.005609,0.8649530000000001,-0.7527630000000001,-0.01784,1.126323,-0.740063,-0.004263
5,0.985746,0.753184,0.0558469999999999,0.8344710000000001,0.459324,0.052024,0.802311,0.212594,0.053286,1.1525409999999998,0.459904,0.0552769999999999,1.185671,0.205174,0.062649,0.795261,-0.000155,-0.019749,1.203571,-0.032751,-0.050642,0.928078,-0.0031479999999999,-0.00025,1.071922,0.0031479999999999,0.00025,0.878251,-0.412996,0.0096209999999999,1.124701,-0.3784459999999999,-0.005796,0.8649410000000001,-0.7526660000000001,-0.018501,1.1261809999999999,-0.7399060000000001,-0.004362
6,0.985926,0.7530655,0.0601665,0.834209,0.4597055,0.0530835,0.796439,0.2248955,0.0345645,1.153709,0.4602355,0.0590415,1.197679,0.2193854999999999,0.0419865,0.781199,0.0302765,-0.0671705,1.221449,0.0037235,-0.0680105,0.928144,-0.0033485,-1.3499999999999623e-05,1.071856,0.0033485,1.3499999999999623e-05,0.878279,-0.4136545,0.0096865,1.124869,-0.3767445,-0.0059974999999999,0.864629,-0.7515545,-0.0187275,1.125289,-0.7389344999999999,-0.0039065
7,0.9867360000000001,0.752881,0.061935,0.838777,0.461151,0.051363,0.7776270000000001,0.249021,0.0079049999999999,1.151727,0.461381,0.057311,1.218607,0.248571,0.0132559999999999,0.767407,0.08575,-0.119159,1.242027,0.08546,-0.129309,0.9276590000000001,-0.0028929999999999,-0.000694,1.072341,0.002893,0.000694,0.878667,-0.412369,0.0090449999999999,1.125467,-0.372089,-0.0054529999999999,0.864827,-0.7524989999999999,-0.018572,1.124657,-0.736939,-0.001541
8,0.9869475,0.752841,0.064223,0.8404325,0.4618409999999999,0.051057,0.7696225000000001,0.2640309999999999,-0.0108029999999999,1.1510125,0.461761,0.05785,1.2290524999999999,0.266671,-0.0050789999999999,0.7594525,0.117851,-0.155833,1.2541624999999998,0.122261,-0.1620829999999999,0.9275285,-0.0028929999999999,-0.0008519999999999,1.0724715,0.002893,0.000852,0.8789225,-0.412679,0.008833,1.1255025,-0.370669,-0.0053309999999999,0.8646925,-0.7525689999999999,-0.0191819999999999,1.1241825,-0.735829,-0.0010699999999999
9,0.9872045,0.7528294999999999,0.066449,0.8421514999999999,0.4626395,0.05047,0.7611815,0.2813394999999999,-0.030232,1.1502215,0.4622294999999999,0.058024,1.2400815,0.2870895,-0.0239229999999999,0.7491315000000001,0.1554995,-0.194111,1.2672515,0.1650295,-0.193501,0.9273555,-0.0028815,-0.001072,1.0726445,0.0028815,0.001072,0.8791415,-0.4126905,0.008574,1.1255015,-0.3691105,-0.005242,0.8645415000000001,-0.7525805,-0.0197409999999999,1.1236715,-0.7347605,-0.0007039999999999
10,0.987478,0.752699,0.0685475,0.843791,0.463749,0.0497665,0.751331,0.306619,-0.0493384999999999,1.149231,0.463139,0.0578525,1.251411,0.316709,-0.0419665,0.737681,0.207109,-0.2321195,1.2794109999999999,0.218969,-0.2231795,0.927169,-0.002836,-0.0013554999999999,1.072831,0.002836,0.0013555,0.8793110000000001,-0.412821,0.0081155,1.125531,-0.367451,-0.0051794999999999,0.8643810000000001,-0.7527109999999999,-0.0204374999999999,1.123141,-0.733791,-0.0001164999999999
11,0.9877685,0.752474,0.0702505,0.8448645,0.465354,0.0489285,0.7419145,0.334914,-0.0646205,1.1484745,0.464084,0.0572165,1.2613345,0.347994,-0.0576685,0.7285545,0.261164,-0.2587575,1.2885845,0.279484,-0.2444075,0.9270225,-0.002799,-0.0017164999999999,1.0729775,0.002799,0.0017164999999999,0.8794745,-0.4130459999999999,0.0077055,1.1254845,-0.365836,-0.0050514999999999,0.8643145,-0.7528659999999999,-0.0208955,1.1226444999999998,-0.732986,0.0002295
12,0.9880425,0.751935,0.071688,0.8457545000000001,0.467175,0.0480639999999999,0.7330145,0.364695,-0.078965,1.1476845,0.465075,0.056311,1.2706545,0.381795,-0.072695,0.7202045,0.325265,-0.282145,1.2957945,0.346365,-0.266105,0.9269185,-0.0027199999999999,-0.00202,1.0730815,0.00272,0.00202,0.8796745,-0.413475,0.0072179999999999,1.1253644999999999,-0.365025,-0.005046,0.8642745000000001,-0.753495,-0.0214909999999999,1.1221545,-0.732795,0.000279
13,0.988289,0.7510725,0.0727885,0.846414,0.4689625,0.0472575,0.7261040000000001,0.3995025,-0.0885975,1.1467640000000001,0.4664825,0.0552685,1.275854,0.4186125,-0.0822675,0.715394,0.3864025,-0.2934974999999999,1.300004,0.4170425,-0.2769175,0.9268149999999999,-0.0026155,-0.0022874999999999,1.073185,0.0026155,0.0022875,0.879834,-0.4137375,0.0066425,1.125224,-0.3649274999999999,-0.0051544999999999,0.864214,-0.7544474999999999,-0.0220184999999999,1.121714,-0.7333775,0.0001395
14,0.9884765,0.749762,0.073444,0.8466095,0.470832,0.046707,0.7213395,0.4371319999999999,-0.0951839999999999,1.1458595,0.4683219999999999,0.054376,1.2795895,0.458812,-0.088684,0.7115095,0.461022,-0.297914,1.3026894999999998,0.4874219999999999,-0.280234,0.9266935000000001,-0.002521,-0.002449,1.0733065,0.002521,0.002449,0.8800195,-0.414198,0.006286,1.1251795,-0.365718,-0.005159,0.8642195,-0.756018,-0.0222299999999999,1.1215795,-0.734618,-0.0005569999999999
15,0.988598,0.748278,0.07381,0.846486,0.472248,0.046467,0.719776,0.473008,-0.095814,1.145416,0.4702179999999999,0.053842,1.279436,0.4959579999999999,-0.089364,0.708366,0.528238,-0.2984839999999999,1.302796,0.556618,-0.280914,0.926562,-0.002462,-0.0025009999999999,1.073438,0.002462,0.0025009999999999,0.880216,-0.414892,0.006159,1.125106,-0.367092,-0.0050149999999999,0.8642259999999999,-0.757752,-0.02226,1.1214259999999998,-0.736132,-0.000961
16,0.988523,0.746598,0.0737319999999999,0.8463579999999999,0.473358,0.0464269999999999,0.718878,0.5117579999999999,-0.096315,1.145248,0.472368,0.053422,1.279268,0.5344779999999999,-0.089895,0.706258,0.595698,-0.2989449999999999,1.302628,0.623528,-0.281445,0.92647,-0.002423,-0.0025769999999999,1.07353,0.002423,0.0025769999999999,0.880378,-0.4157119999999999,0.006095,1.124958,-0.369072,-0.0049419999999999,0.864418,-0.7598520000000001,-0.022022,1.121268,-0.7381920000000001,-0.0013629999999999
17,0.988315,0.7445995,0.0734705,0.8462360000000001,0.4746195,0.0466725,0.718636,0.5488195,-0.0966275,1.145016,0.4749895,0.0532185,1.279026,0.5704994999999999,-0.0902075,0.704896,0.6624295,-0.2992174999999999,1.302386,0.6879894999999999,-0.2817575,0.926445,-0.0024405,-0.0025564999999999,1.073555,0.0024405,0.0025564999999999,0.880436,-0.4170204999999999,0.0060734999999999,1.124706,-0.3717505,-0.0048354999999999,0.864596,-0.7625305,-0.0216735,1.1211859999999998,-0.7412805,-0.0014405
18,0.988029,0.742469,0.0733775,0.845726,0.475859,0.0471054999999999,0.718356,0.5842890000000001,-0.0960095,1.144716,0.478039,0.0532475,1.2784659999999999,0.604929,-0.0887895,0.7048460000000001,0.7254290000000001,-0.2909195,1.302376,0.7494090000000001,-0.2738095,0.926521,-0.002492,-0.0024915,1.073479,0.0024919999999999,0.0024914999999999,0.880376,-0.418681,0.0061274999999999,1.124376,-0.374911,-0.0046745,0.864676,-0.765631,-0.0213375,1.1209959999999999,-0.7445609999999999,-0.0011715
19,0.9876985000000001,0.740425,0.0733895,0.8449905,0.476935,0.0475535,0.7180905,0.612315,-0.0939275,1.1444105,0.480745,0.0533495,1.2772405,0.6303150000000001,-0.0855775,0.7048905000000001,0.775385,-0.2791075,1.3004305,0.800185,-0.2617175,0.9266305,-0.002482,-0.0024955,1.0733695,0.002482,0.0024955,0.8802405000000001,-0.420355,0.0062615,1.1239805,-0.378035,-0.0045975,0.8647705,-0.768775,-0.0209795,1.1208105,-0.747695,-0.0009184999999999
20,0.9874235,0.738378,0.0733999999999999,0.8442585000000001,0.477658,0.047989,0.7181385,0.637298,-0.086104,1.1441985,0.483418,0.053495,1.2753485,0.653478,-0.078264,0.7062385,0.822088,-0.259114,1.2968085,0.844628,-0.244184,0.9267745000000001,-0.0024809999999999,-0.0025009999999999,1.0732255,0.002481,0.0025009999999999,0.8800285,-0.422132,0.006287,1.1235785,-0.381372,-0.0045819999999999,0.8648285,-0.772002,-0.020651,1.1205485,-0.751022,-0.000828
21,0.9871345,0.7368195,0.073083,0.8435215,0.4784595,0.048274,0.7188515,0.6590095,-0.076132,1.1441115,0.4862495,0.053683,1.2725615000000001,0.6729295,-0.0695939999999999,0.7066115,0.8584395,-0.234301,1.2921615,0.8781395,-0.223471,0.9269185,-0.0025035,-0.0025059999999999,1.0730815,0.0025034999999999,0.002506,0.8797415,-0.4239405,0.006297,1.1231815,-0.3844405,-0.0045679999999999,0.8648215000000001,-0.7750305,-0.0204089999999999,1.1202915,-0.7541805,-0.0008049999999999
22,0.9868330000000001,0.735614,0.072618,0.843006,0.479304,0.048575,0.722086,0.6739240000000001,-0.065712,1.1442459999999999,0.488664,0.053974,1.269186,0.685794,-0.0610919999999999,0.7091160000000001,0.8937240000000001,-0.207693,1.288656,0.902564,-0.202343,0.927094,-0.002508,-0.0024139999999999,1.072906,0.002508,0.0024139999999999,0.879416,-0.425806,0.0063849999999999,1.122816,-0.387216,-0.004479,0.864816,-0.7779159999999999,-0.020164,1.120136,-0.757146,-0.0008489999999999
23,0.9865795,0.73488,0.071957,0.8427215,0.47992,0.049003,0.7245115000000001,0.6854100000000001,-0.055337,1.1442215,0.49078,0.054454,1.2657415,0.69535,-0.051701,0.7106515,0.91136,-0.1850069999999999,1.2863115,0.92377,-0.183087,0.9272605,-0.0024869999999999,-0.002291,1.0727395,0.0024869999999999,0.0022909999999999,0.8791215,-0.42755,0.0065509999999999,1.1225114999999999,-0.38952,-0.004326,0.8648115000000001,-0.7804,-0.019877,1.1200714999999999,-0.75964,-0.0008219999999999
24,0.9864295,0.734377,0.071283,0.8424745000000001,0.480587,0.049638,0.7277945,0.694367,-0.044609,1.1441245,0.492787,0.055186,1.2622845,0.703197,-0.0418689999999999,0.7118344999999999,0.926717,-0.162799,1.2842045,0.937987,-0.165769,0.9274165,-0.0024569999999999,-0.0021949999999999,1.0725835,0.002457,0.002195,0.8788645,-0.4290929999999999,0.006823,1.1222545,-0.3916229999999999,-0.0040319999999999,0.8648245,-0.782683,-0.019373,1.1200445,-0.761973,-0.0005529999999999
25,0.986467,0.734321,0.070656,0.842274,0.481421,0.050169,0.730684,0.6993309999999999,-0.033652,1.144024,0.494401,0.055826,1.259784,0.7090209999999999,-0.032443,0.712514,0.936121,-0.142406,1.282784,0.948871,-0.147496,0.927531,-0.0024419999999999,-0.002148,1.072469,0.0024419999999999,0.002148,0.8786440000000001,-0.4308389999999999,0.007044,1.122044,-0.3933089999999999,-0.0037949999999999,0.864714,-0.784869,-0.019013,1.120054,-0.764209,-0.000257
26,0.9867355000000001,0.7345185,0.0701805,0.8425945,0.4820784999999999,0.0505125,0.7329145,0.7014885,-0.0246495,1.1439845,0.4953984999999999,0.0562355,1.2582645000000001,0.7131185,-0.0250705,0.7133145000000001,0.9427585,-0.1246875,1.2819645,0.9540785,-0.1316575,0.9276175000000001,-0.0024064999999999,-0.0021895,1.0723824999999998,0.0024064999999999,0.0021895,0.8784945000000001,-0.4319915,0.0071325,1.1219045,-0.3944715,-0.0037394999999999,0.8646045,-0.7860315,-0.0187785,1.1200644999999998,-0.7654115,-0.0001594999999999
27,0.987229,0.7348399999999999,0.069692,0.843159,0.4826299999999999,0.050714,0.734599,0.70312,-0.017089,1.1440190000000001,0.49606,0.05662,1.257329,0.7165999999999999,-0.019205,0.714099,0.94857,-0.1103559999999999,1.281629,0.95626,-0.1181259999999999,0.9276530000000001,-0.002369,-0.0022709999999999,1.072347,0.0023689999999999,0.002271,0.878429,-0.43279,0.007107,1.1218089999999998,-0.39529,-0.0038339999999999,0.864579,-0.78685,-0.0186829999999999,1.120029,-0.7661100000000001,-1.8999999999998185e-05
28,0.9877980000000001,0.7351535,0.0692265,0.843776,0.4830835,0.0510265,0.736016,0.7041634999999999,-0.0099155,1.144016,0.4966435,0.0570895,1.256476,0.7196834999999999,-0.0136055,0.7148760000000001,0.9536335,-0.0964645,1.281396,0.9574035,-0.1050145,0.9276550000000001,-0.0023545,-0.0023304999999999,1.0723449999999999,0.0023545,0.0023305,0.878376,-0.4335865,0.0070545,1.121686,-0.3960864999999999,-0.0039464999999999,0.864536,-0.7877365000000001,-0.0187555,1.119986,-0.7668565,0.0002085
29,0.988523,0.735492,0.0687845,0.844313,0.483382,0.0513115,0.7370830000000002,0.704022,-0.0039864999999999,1.1439929999999998,0.4971919999999999,0.0575325,1.255553,0.721722,-0.0079995,0.7155930000000001,0.957052,-0.0842555,1.2814130000000001,0.957782,-0.0928155,0.927646,-0.0023209999999999,-0.0023784999999999,1.072354,0.002321,0.0023785,0.878293,-0.434328,0.0070575,1.121543,-0.396748,-0.0040254999999999,0.864483,-0.788948,-0.0188165,1.119863,-0.767918,0.0003675
30,0.9893505000000001,0.73563,0.0684525,0.8448185,0.48338,0.0515775,0.7379585,0.7039300000000001,0.0011075,1.1439285,0.49772,0.0580305,1.2546084999999998,0.72329,-0.0030015,0.7160685,0.95875,-0.0742154999999999,1.2814385,0.95806,-0.0827165,0.9276535,-0.002296,-0.0024335,1.0723465,0.0022959999999999,0.0024334999999999,0.8782385,-0.43499,0.0070705,1.1214185,-0.39726,-0.0040805,0.8644585000000001,-0.79005,-0.0188405,1.1197584999999999,-0.76898,0.0004814999999999
31,0.9902330000000001,0.7356735,0.0681905,0.84523,0.4832935,0.0518765,0.73901,0.7038135,0.0064535,1.14378,0.4985835,0.0587515,1.25353,0.7247935,0.0021645,0.7166,0.9603135,-0.0641195,1.28147,0.9586235,-0.0725555,0.927669,-0.0023105,-0.0025134999999999,1.072331,0.0023105,0.0025135,0.87814,-0.4356765,0.0070465,1.12125,-0.3977265,-0.0041344999999999,0.8644000000000001,-0.7911665,-0.0188884999999999,1.11966,-0.7698165,0.0004795
32,0.9910535,0.7355824999999999,0.0679455,0.8455815,0.4832425000000001,0.0520054999999999,0.7399415,0.7035524999999999,0.0106255,1.1436115,0.4991224999999999,0.0592795,1.2523815,0.7256625,0.0065904999999999,0.7170615,0.9613625,-0.0560065,1.2815615,0.9591925,-0.0636035,0.9277005,-0.0023185,-0.0027345,1.0722995,0.0023185,0.0027345,0.8780415,-0.4364675,0.0069124999999999,1.1210815,-0.3982675,-0.0043004999999999,0.8643715000000001,-0.7923175,-0.0190385,1.1196214999999998,-0.7708375000000001,0.0002374999999999
33,0.9918120000000001,0.73547,0.0677605,0.845911,0.48319,0.0521164999999999,0.7408410000000001,0.70332,0.0144114999999999,1.143531,0.50012,0.0601175,1.251311,0.7262099999999999,0.0110605,0.7175210000000001,0.96239,-0.0489115,1.281661,0.95982,-0.0547695,0.927723,-0.002318,-0.0029775,1.072277,0.002318,0.0029775,0.877931,-0.43731,0.0067524999999999,1.1208809999999998,-0.3988,-0.0044785,0.864311,-0.79344,-0.0192145,1.119601,-0.7718,-0.0001465
34,0.9925200000000001,0.735382,0.0675865,0.846182,0.483162,0.0522285,0.741742,0.7031120000000001,0.0172814999999999,1.143472,0.5012220000000001,0.0610015,1.250202,0.725982,0.0148924999999999,0.7179520000000001,0.963252,-0.0439364999999999,1.281852,0.960052,-0.0471825,0.927756,-0.0023199999999999,-0.0032105,1.072244,0.00232,0.0032104999999999,0.877822,-0.438108,0.0065894999999999,1.120702,-0.3993279999999999,-0.0046205,0.8641920000000001,-0.794508,-0.0194375,1.119612,-0.772988,-0.0005495
35,0.9931150000000001,0.7352394999999999,0.067413,0.846395,0.4831094999999999,0.052334,0.742625,0.7027194999999999,0.019943,1.1433749999999998,0.5023695,0.061961,1.249075,0.7256195,0.018722,0.7184349999999999,0.9629895,-0.039158,1.281985,0.9593395,-0.039981,0.927792,-0.0023484999999999,-0.003469,1.072208,0.0023485,0.003469,0.877685,-0.4389805,0.0064309999999999,1.120485,-0.3999005,-0.004765,0.864025,-0.7955905,-0.0197339999999999,1.119555,-0.7743005000000001,-0.000951
36,0.9935835000000001,0.7350565,0.0672685,0.8466065,0.4829765,0.0524595,0.7435065000000001,0.7023364999999999,0.0223405,1.1432865,0.5036465,0.0631595,1.2480165,0.7252365,0.0223565,0.7189665000000001,0.9624065,-0.0347415,1.2820965,0.9584865,-0.0332065,0.9278375,-0.0023755,-0.0037354999999999,1.0721625,0.0023755,0.0037355,0.8775465000000001,-0.4399035,0.0062605,1.1203065,-0.4004835,-0.0049164999999999,0.8638565,-0.7966035,-0.0200494999999999,1.1194965,-0.7753835,-0.0011905
37,0.9940335000000001,0.734781,0.067205,0.8468175,0.482691,0.052466,0.7443775,0.701971,0.024297,1.1431875,0.504911,0.064282,1.2469975,0.724871,0.025786,0.7196175,0.963441,-0.0310949999999999,1.2822075,0.957521,-0.0273969999999999,0.9278865000000001,-0.0023959999999999,-0.0039749999999999,1.0721135,0.002396,0.0039749999999999,0.8773975,-0.440339,0.006117,1.1201075,-0.401119,-0.005013,0.8636475,-0.797029,-0.020297,1.1193575,-0.776099,-0.001451
38,0.9944815,0.734488,0.0671775,0.8470575000000001,0.482428,0.0524905,0.7453274999999999,0.701678,0.0261925,1.1431275,0.506238,0.0654245,1.2461175,0.7245680000000001,0.0283635,0.7200675000000001,0.9635479999999998,-0.0282685,1.2823575,0.957228,-0.0227644999999999,0.9279405000000001,-0.0024269999999999,-0.0041945,1.0720595,0.0024269999999999,0.0041945,0.8772575,-0.440682,0.0059755,1.1199375,-0.401602,-0.0050584999999999,0.8634975,-0.797412,-0.0205775,1.1192475,-0.7766519999999999,-0.0015125
39,0.9949105,0.73422,0.067149,0.8474025000000001,0.48216,0.052538,0.7463025,0.70143,0.027924,1.1431325,0.50739,0.066531,1.2453224999999999,0.72407,0.030885,0.7205125,0.96348,-0.02563,1.2826925,0.95696,-0.018053,0.9279935,-0.002439,-0.0044039999999999,1.0720065,0.0024389999999999,0.004404,0.8771225,-0.44098,0.005838,1.1197625,-0.40206,-0.0051219999999999,0.8633824999999999,-0.79777,-0.0208029999999999,1.1191525,-0.77711,-0.0016619999999999
40,0.9954090000000001,0.7340785,0.0671104999999999,0.8478200000000001,0.4822085,0.0525855,0.74714,0.7017385,0.0291174999999999,1.1432399999999998,0.5079385,0.0673894999999999,1.2450999999999999,0.7236585,0.0330575,0.72082,0.9634385,-0.0241505,1.28318,0.9566185,-0.0142095,0.928007,-0.0023675,-0.0045575,1.071993,0.0023675,0.0045574999999999,0.87709,-0.4411615,0.0057374999999999,1.11969,-0.4024715,-0.0051045,0.86332,-0.7980315,-0.0209645,1.119,-0.7777015,-0.0016915
41,0.9959305,0.7340085,0.0671505,0.8482095000000001,0.4823284999999999,0.0526765,0.7479395,0.7020585,0.0301805,1.1433395,0.5085185,0.0682905,1.2449895,0.7232685,0.0350935,0.7211195,0.9632685,-0.0228745,1.2835795,0.9580785,-0.0109534999999999,0.9280125,-0.0022975,-0.0046304999999999,1.0719875,0.0022975,0.0046305,0.8770595,-0.4412715,0.0056655,1.1196195,-0.4028315,-0.0050694999999999,0.8631895,-0.7982715,-0.0210954999999999,1.1188695,-0.7782515,-0.0015814999999999
42,0.9964035,0.7339105,0.0672514999999999,0.8485575000000001,0.4824004999999999,0.0528005,0.7487174999999999,0.7022905,0.0312125,1.1434375,0.5086605000000001,0.0688815,1.2450375,0.7229505,0.0369335,0.7214275,0.9632705,-0.0217045,1.2839775,0.9593705,-0.0079634999999999,0.9280185,-0.0022364999999999,-0.0047075,1.0719815,0.0022365,0.0047075,0.8770275,-0.4413995,0.0055955,1.1195475,-0.4032295,-0.0051135,0.8630575,-0.7985295,-0.0212575,1.1188275,-0.7787795,-0.0016514999999999
43,0.997187,0.73369,0.0674714999999999,0.849114,0.4824699999999999,0.0530655,0.749754,0.70251,0.0322864999999999,1.143774,0.50863,0.0696335,1.245134,0.7222500000000001,0.0389215,0.722194,0.96319,-0.0204765,1.284834,0.96039,-0.0051725,0.9280450000000001,-0.00219,-0.0047935,1.071955,0.0021899999999999,0.0047934999999999,0.876714,-0.44162,0.0054864999999999,1.119214,-0.40374,-0.0051785,0.862654,-0.79877,-0.0212955,1.118574,-0.77921,-0.0019755
44,0.997974,0.7334275,0.067767,0.8496440000000001,0.4824975,0.0534199999999999,0.750694,0.7027074999999999,0.033289,1.144154,0.5085575,0.070491,1.245244,0.7215275,0.0409319999999999,0.7229840000000001,0.9630175,-0.019347,1.285684,0.9612175,-0.002418,0.92808,-0.0021564999999999,-0.004856,1.07192,0.0021564999999999,0.0048559999999999,0.876404,-0.4418725,0.0053869999999999,1.118904,-0.4042425,-0.005242,0.862234,-0.7990125,-0.021296,1.118294,-0.7796525,-0.002311
45,0.9987855000000001,0.7331825,0.068053,0.8501935,0.4825224999999999,0.053799,0.7515535,0.7029325,0.034189,1.1445035,0.5085225,0.07118,1.2453735,0.7208625,0.042894,0.7237835,0.9629825,-0.0183099999999999,1.2865235,0.9617825,4.300000000000137e-05,0.9281245,-0.0021455,-0.004934,1.0718755,0.0021454999999999,0.004934,0.8760935,-0.4420975,0.005278,1.1186235,-0.4046674999999999,-0.005308,0.8617335,-0.7990475,-0.021532,1.1180335,-0.7800375,-0.0026319999999999
46,0.9995785,0.7329155,0.068409,0.8507135,0.4825854999999999,0.054239,0.7523435,0.7030755000000001,0.03494,1.1448135,0.5085055,0.071795,1.2456235,0.7202455,0.04473,0.7245535000000001,0.9630655,-0.0174429999999999,1.2873435,0.9622655,0.002365,0.9281675,-0.0021144999999999,-0.004999,1.0718325,0.0021144999999999,0.004999,0.8757835,-0.4423445,0.005171,1.1183735,-0.4048845,-0.0053789999999999,0.8612934999999999,-0.7990244999999999,-0.021688,1.1177035,-0.7805344999999999,-0.0028909999999999
47,1.000332,0.732707,0.068744,0.850942,0.482637,0.054643,0.753022,0.703187,0.035503,1.145122,0.508417,0.072414,1.246032,0.719677,0.046226,0.7252720000000001,0.963217,-0.016779,1.2881319999999998,0.962717,0.0043679999999999,0.928204,-0.0020629999999999,-0.005075,1.071796,0.002063,0.005075,0.875482,-0.442513,0.0050279999999999,1.118132,-0.4050129999999999,-0.005479,0.860882,-0.799053,-0.021862,1.117382,-0.780923,-0.003043
48,1.0010505,0.732534,0.069099,0.8511225,0.4827439999999999,0.055055,0.7536625,0.703294,0.036011,1.1454125,0.508104,0.07302,1.2464825,0.719204,0.047625,0.7259225,0.963324,-0.016221,1.2889025,0.963224,0.0061839999999999,0.9282295,-0.001986,-0.005141,1.0717705,0.001986,0.005141,0.8751825,-0.442576,0.0048759999999999,1.1179125,-0.405036,-0.005605,0.8605025,-0.798926,-0.021971,1.1170425,-0.780976,-0.003226
49,1.0017165,0.7324365,0.0694674999999999,0.8512985,0.4829065,0.0554025,0.7542185000000001,0.7035165,0.0364014999999999,1.1456785,0.5077665,0.0736645,1.2470085,0.7189065,0.0489594999999999,0.7265185000000001,0.9636465,-0.0157555,1.2896985,0.9637465,0.0078624999999999,0.9282445,-0.0019204999999999,-0.0052155,1.0717555,0.0019204999999999,0.0052154999999999,0.8748985000000001,-0.4425435,0.0046944999999999,1.1176985,-0.4049335,-0.0058015,0.8601285,-0.7986935,-0.0220705,1.1166485,-0.7807535,-0.0033555
50,1.0023305,0.732358,0.0698485,0.8514835000000001,0.4827579999999999,0.0557685,0.7547235,0.703768,0.0367165,1.1459134999999998,0.507448,0.0742665,1.2475735000000001,0.7187279999999999,0.0501755,0.7270435,0.963998,-0.0153505,1.2904835000000001,0.964298,0.0094245,0.9282545,-0.0018609999999999,-0.0052854999999999,1.0717455,0.001861,0.0052854999999999,0.8745935,-0.442532,0.0045075,1.1174835,-0.404802,-0.0060335,0.8598335000000001,-0.798432,-0.0221955,1.1162435,-0.780432,-0.0034964999999999
51,1.002913,0.732298,0.0702025,0.8516640000000001,0.482658,0.0560854999999999,0.7551840000000001,0.704028,0.0369155,1.146124,0.507158,0.0748405,1.248164,0.718668,0.0512225,0.7275040000000002,0.964368,-0.0150045,1.291224,0.964868,0.0108545,0.928257,-0.001816,-0.0053384999999999,1.0717430000000001,0.0018159999999999,0.0053384999999999,0.874304,-0.442492,0.0043254999999999,1.117284,-0.404672,-0.0062625,0.859564,-0.7982020000000001,-0.0222475,1.115744,-0.7803920000000001,-0.0037974999999999
52,1.0029655,0.7322955,0.0704495,0.8517125,0.4823155,0.0562695,0.7552325,0.7040155,0.0370115,1.1461825,0.5069755,0.0752035,1.2483625,0.7187455,0.0520415,0.7275625,0.9644455,-0.0148055,1.2914025,0.9652455,0.0119354999999999,0.9282525000000001,-0.0018224999999999,-0.0053935,1.0717474999999999,0.0018225,0.0053934999999999,0.8743025,-0.4424944999999999,0.0041455,1.1173125,-0.4046645,-0.0065175,0.8596025,-0.7982644999999999,-0.0223275,1.1156325,-0.7803145,-0.0039655
53,1.0030249999999998,0.7322845,0.0706525,0.851769,0.4820145,0.0564095,0.755279,0.7040045,0.0370255,1.146239,0.5067845,0.0753765,1.248549,0.7187945,0.0526315,0.727619,0.9645145,-0.0145665,1.291549,0.9658145,0.0127275,0.928254,-0.0018274999999999,-0.0054715,1.071746,0.0018275,0.0054715,0.874309,-0.4425055,0.0039515,1.117359,-0.4047455,-0.0067314999999999,0.859619,-0.7982855,-0.0224485,1.115519,-0.7802455,-0.0042444999999999
54,1.0030869999999998,0.7322675,0.070876,0.851827,0.4817175,0.056572,0.755337,0.7040575,0.037058,1.1462970000000001,0.5066674999999999,0.07557,1.248707,0.7188675,0.053175,0.7276870000000001,0.9646875,-0.014203,1.291707,0.9664875,0.0135349999999999,0.928255,-0.0018325,-0.00554,1.071745,0.0018325,0.00554,0.874337,-0.4425025,0.00374,1.117407,-0.4048225,-0.006909,0.859637,-0.7982425,-0.022616,1.115437,-0.7801725,-0.004463
55,1.003083,0.7322365,0.071159,0.851652,0.4813864999999999,0.056724,0.755252,0.7040664999999999,0.037134,1.146152,0.5065365,0.07578,1.248832,0.7189464999999999,0.053692,0.727462,0.9648065,-0.0136579999999999,1.2918319999999999,0.9671065,0.014281,0.928252,-0.0018514999999999,-0.0056209999999999,1.071748,0.0018514999999999,0.005621,0.874332,-0.4425635,0.003532,1.117432,-0.4048035,-0.007101,0.859652,-0.7981035,-0.0227209999999999,1.115362,-0.7801235,-0.004652
56,1.0029855,0.7322475,0.071553,0.8514595,0.4810674999999999,0.056958,0.7550595,0.7040875,0.037257,1.1459694999999999,0.5065075,0.076231,1.2489495,0.7190675000000001,0.05428,0.7271894999999999,0.9650275,-0.0130819999999999,1.2919595,0.9679275,0.01508,0.9282435,-0.0018724999999999,-0.005679,1.0717565,0.0018724999999999,0.005679,0.8743295,-0.4426125,0.003342,1.1174495,-0.4050025,-0.0072599999999999,0.8596695,-0.7979725,-0.0228799999999999,1.1152595,-0.7800024999999999,-0.0048069999999999
57,1.002818,0.732284,0.0719799999999999,0.8512740000000001,0.480774,0.057159,0.754784,0.704154,0.037385,1.145814,0.506494,0.07677,1.249064,0.719234,0.05493,0.726884,0.965294,-0.012526,1.292104,0.968694,0.015864,0.928229,-0.0018999999999999,-0.005708,1.071771,0.0018999999999999,0.0057079999999999,0.874334,-0.442666,0.0031479999999999,1.117464,-0.405246,-0.0074,0.859684,-0.797796,-0.023028,1.115244,-0.780326,-0.005156
58,1.0025665,0.7323655,0.072421,0.8510535,0.4804855,0.057357,0.7544635,0.7042354999999999,0.037568,1.1456835,0.5065054999999999,0.0772559999999999,1.2492035,0.7194254999999999,0.0554869999999999,0.7265535000000001,0.9654755,-0.011975,1.2922235,0.9694755,0.0165479999999999,0.9282185000000001,-0.0019204999999999,-0.005708,1.0717815,0.0019204999999999,0.0057079999999999,0.8743335,-0.4426545,0.0029079999999999,1.1174935,-0.4054945,-0.007518,0.8597535000000001,-0.7975945000000001,-0.023175,1.1151535,-0.7801545000000001,-0.005456
59,1.0022675,0.7324065000000001,0.0728645,0.8509895000000001,0.4804965,0.0575515,0.7540895000000001,0.7042765,0.0378015,1.1455595,0.5064965,0.0778035,1.2493495000000001,0.7195665,0.0560525,0.7261795000000001,0.9657165,-0.0114244999999999,1.2923495,0.9702165,0.0172155,0.9282065,-0.0019354999999999,-0.0057065,1.0717935,0.0019354999999999,0.0057065,0.8743095000000001,-0.4426535,0.0026765,1.1174895,-0.4059635,-0.0075874999999999,0.8598295000000001,-0.7974335,-0.0233244999999999,1.1151195,-0.7801135,-0.0057434999999999
60,1.001941,0.7324590000000001,0.0733585,0.850931,0.4805489999999999,0.0577354999999999,0.753661,0.7043590000000001,0.0380785,1.145451,0.5064690000000001,0.0782145,1.2495109999999998,0.719719,0.0566055,0.725811,0.965969,-0.0109154999999999,1.292481,0.970869,0.0177695,0.928198,-0.001952,-0.0057035,1.071802,0.0019519999999999,0.0057035,0.874281,-0.442661,0.0024414999999999,1.117481,-0.406411,-0.0076855,0.859891,-0.7972809999999999,-0.0234695,1.115151,-0.780121,-0.0061224999999999
61,1.001577,0.7325904999999999,0.073854,0.850904,0.4806104999999999,0.057883,0.753174,0.7044805,0.038404,1.145344,0.5064305,0.078607,1.249724,0.7198605,0.057125,0.7254240000000001,0.9661305,-0.0104449999999999,1.292634,0.9715305,0.018256,0.928192,-0.0019644999999999,-0.0056639999999999,1.071808,0.0019645,0.005664,0.874224,-0.4426795,0.002172,1.117494,-0.4068994999999999,-0.0078459999999999,0.8599740000000001,-0.7971195,-0.0236489999999999,1.115214,-0.7800595,-0.0064939999999999
62,1.0012065,0.732708,0.0743015,0.8509035,0.480728,0.0580035,0.7526935000000001,0.704618,0.0387534999999999,1.1452635,0.506328,0.0789835,1.2499635,0.719978,0.0575615,0.7250435,0.966188,-0.0101214999999999,1.2928335,0.972088,0.0185705,0.9281735,-0.0019769999999999,-0.0055745,1.0718265,0.0019769999999999,0.0055745,0.8741835,-0.442722,0.0018654999999999,1.1174835,-0.407412,-0.0080695,0.8600635,-0.797022,-0.0238515,1.1153135,-0.780002,-0.0067214999999999
63,1.000823,0.732837,0.074716,0.850824,0.4808469999999999,0.058075,0.752094,0.7047869999999999,0.03904,1.145124,0.506257,0.07923,1.250284,0.720017,0.0578889999999999,0.724594,0.966317,-0.010001,1.293064,0.972317,0.018671,0.9281300000000001,-0.0019759999999999,-0.0054319999999999,1.0718699999999999,0.0019759999999999,0.005432,0.874094,-0.4427629999999999,0.001242,1.117464,-0.4079529999999999,-0.008341,0.860214,-0.797023,-0.0241309999999999,1.115464,-0.780263,-0.0069989999999999
64,1.000648,0.7330135,0.0749605,0.85083,0.4810435,0.0580845,0.7516800000000001,0.7049835,0.0392195,1.14514,0.5061535,0.0793815,1.25067,0.7200635000000001,0.0580065,0.72428,0.9664635,-0.0101555,1.29339,0.9725635,0.0185765,0.9280710000000001,-0.0019785,-0.0052075,1.071929,0.0019784999999999,0.0052074999999999,0.87404,-0.4427864999999999,0.0002514999999999,1.11748,-0.4083765,-0.0086965,0.86043,-0.7970565,-0.0244925,1.11573,-0.7807965,-0.0074825
65,1.000538,0.7330395,0.0750145,0.850894,0.4810995,0.0580175,0.751384,0.7050394999999999,0.0392654999999999,1.145214,0.5061194999999999,0.0791345,1.251024,0.7201195,0.0579284999999999,0.723984,0.9665195,-0.0104305,1.2936539999999999,0.9726195,0.0182845,0.927992,-0.0019834999999999,-0.0049125,1.072008,0.0019834999999999,0.0049124999999999,0.874074,-0.4428204999999999,-0.0010805,1.117464,-0.4088104999999999,-0.0092325,0.860744,-0.7970805000000001,-0.0249995,1.116094,-0.7813705000000001,-0.0081505
66,1.000486,0.733037,0.075066,0.850938,0.481107,0.0580119999999999,0.751128,0.705097,0.0393069999999999,1.145318,0.506037,0.078757,1.2514079999999999,0.720157,0.057741,0.723658,0.966577,-0.010737,1.2939079999999998,0.972677,0.017886,0.927895,-0.0019829999999999,-0.004622,1.072105,0.0019829999999999,0.0046219999999999,0.874098,-0.442833,-0.002724,1.117418,-0.4092429999999999,-0.009855,0.861098,-0.7971429999999999,-0.025675,1.116518,-0.782283,-0.009379
67,1.0004825,0.7330734999999999,0.074916,0.8509755,0.4811735,0.057873,0.7508855,0.7051634999999999,0.039139,1.1454855,0.5061034999999999,0.078155,1.2518455,0.7201934999999999,0.057303,0.7232455,0.9666435,-0.011202,1.2942455,0.9727435,0.017227,0.9278015,-0.0019865,-0.0043769999999999,1.0721985,0.0019864999999999,0.004377,0.8740955,-0.4428465,-0.0049279999999999,1.1173355,-0.4096965,-0.0107459999999999,0.8614155,-0.7970765,-0.026578,1.1169355,-0.7833165,-0.0110239999999999
68,1.0003674999999999,0.733467,0.074954,0.8509525,0.481757,0.0578339999999999,0.7505125,0.705687,0.039049,1.1454825,0.506107,0.077597,1.2522725000000001,0.7203569999999999,0.056929,0.7226025,0.966787,-0.011518,1.2945925,0.973087,0.016703,0.9277035,-0.001985,-0.004125,1.0722965,0.0019849999999999,0.004125,0.8741425,-0.442963,-0.0076049999999999,1.1172925,-0.410493,-0.0122199999999999,0.8619025000000001,-0.7971130000000001,-0.0280019999999999,1.1176425,-0.7844530000000001,-0.0135899999999999
69,1.0002885,0.7340085000000001,0.0745484999999999,0.8508945,0.4824584999999999,0.0574995,0.7500845,0.7063085,0.0383105,1.1454345,0.5060884999999999,0.0765875,1.2527344999999999,0.7206485,0.0560305,0.7218145,0.9670885,-0.0125285,1.2949445,0.9734885,0.0154995,0.9275855,-0.0019464999999999,-0.0039695,1.0724145,0.0019465,0.0039694999999999,0.8743145,-0.4430115,-0.0110635,1.1172345,-0.4116315,-0.0145255,0.8624545,-0.7970915000000001,-0.0303035,1.1184145,-0.7851815,-0.0166515
70,1.000187,0.7345095,0.0739035,0.85075,0.4831395,0.0571035,0.74943,0.7069295,0.0372725,1.14531,0.5060595,0.0755335,1.25313,0.7209595,0.0549285,0.72088,0.9672995,-0.0138935,1.29523,0.9738995,0.0139855,0.927505,-0.0019124999999999,-0.0037965,1.072495,0.0019125,0.0037964999999999,0.87451,-0.4432304999999999,-0.0148774999999999,1.11712,-0.4129805,-0.0171535,0.86296,-0.7971905,-0.0329865,1.1191200000000001,-0.7859305,-0.0199975
71,1.0000545,0.7349665,0.073099,0.8504725000000001,0.4838365,0.056622,0.7486025000000001,0.7076065,0.035961,1.1451625,0.5060665,0.07422,1.2534524999999999,0.7212665,0.053571,0.7198325,0.9674565,-0.015594,1.2954425,0.9744565,0.012183,0.9274275,-0.0018875,-0.003627,1.0725725,0.0018875,0.003627,0.8746725000000001,-0.4434635,-0.019007,1.1169925,-0.4146635,-0.02019,0.8633925,-0.7972835,-0.03596,1.1198225,-0.7869235,-0.023792
72,0.9999655,0.735485,0.071996,0.8501985,0.484575,0.0559459999999999,0.7479085,0.708325,0.0343129999999999,1.1451385,0.506265,0.072817,1.2537585,0.7216750000000001,0.0518779999999999,0.7188285,0.967845,-0.017692,1.2956284999999998,0.974945,0.0099999999999999,0.9273625,-0.001861,-0.003525,1.0726375,0.001861,0.0035249999999999,0.8748285,-0.443695,-0.023312,1.1169385,-0.4165549999999999,-0.023652,0.8638885000000001,-0.797365,-0.0394039999999999,1.1205285,-0.787885,-0.027968
73,0.9998205,0.7360785,0.0706475,0.8498635,0.4854885,0.0550675,0.7470635,0.7091485,0.0323935,1.1450434999999999,0.5066284999999999,0.0713555,1.2539835,0.7222284999999999,0.0499785,0.7177435,0.9683085,-0.0202095,1.2957135,0.9757085,0.0073574999999999,0.9272935,-0.0018395,-0.0034824999999999,1.0727065,0.0018395,0.0034824999999999,0.8748835,-0.4436915,-0.0277125,1.1169235,-0.4184715,-0.0274895,0.8642235,-0.7974215,-0.0431255,1.1212635,-0.7886215,-0.0325815
74,0.9996355000000001,0.736669,0.069161,0.8494405,0.486489,0.053929,0.7460605,0.710129,0.030164,1.1447905,0.507019,0.069759,1.2541105,0.722989,0.047684,0.7165505,0.968969,-0.023112,1.2956905,0.976669,0.004413,0.9272505,-0.00179,-0.003581,1.0727495,0.00179,0.003581,0.8747205,-0.4428809999999999,-0.0322369999999999,1.1169304999999998,-0.419741,-0.031561,0.8643905000000001,-0.797221,-0.0471749999999999,1.1219005,-0.789171,-0.037436
75,0.999422,0.7373715,0.06726,0.8490219999999999,0.4874815,0.0524889999999999,0.744982,0.7112615,0.02754,1.144462,0.5073515,0.067878,1.2542119999999999,0.7239015,0.04504,0.7152620000000001,0.9697915,-0.026359,1.295612,0.9777615,0.001123,0.927221,-0.0017385,-0.003646,1.072779,0.0017385,0.003646,0.874602,-0.4416985,-0.036911,1.116912,-0.4207785,-0.03603,0.864412,-0.7967385,-0.051443,1.1225019999999999,-0.7892485,-0.042298
76,0.9991815000000001,0.737823,0.065098,0.8486205,0.4880829999999999,0.050982,0.7437305000000001,0.7126629999999999,0.024462,1.1440405,0.507133,0.065883,1.2543305,0.724853,0.042037,0.7139205,0.970713,-0.029892,1.2954505,0.979053,-0.002453,0.9271895,-0.0016709999999999,-0.003695,1.0728105000000001,0.0016709999999999,0.003695,0.8745005000000001,-0.440127,-0.041802,1.1168505,-0.420667,-0.041183,0.8644205,-0.7958970000000001,-0.0560709999999999,1.1230905,-0.788957,-0.047737
77,0.999016,0.737653,0.0622815,0.848276,0.487893,0.0489535,0.742416,0.713603,0.0206265,1.143696,0.5066930000000001,0.0633335,1.254426,0.7251730000000001,0.0381875,0.712656,0.971603,-0.0338435,1.295386,0.980323,-0.0066124999999999,0.927169,-0.001583,-0.0037754999999999,1.072831,0.001583,0.0037755,0.8743460000000001,-0.438357,-0.0475725,1.1168259999999999,-0.419157,-0.0474145,0.8643959999999999,-0.7945369999999999,-0.0608155,1.123376,-0.7878269999999999,-0.0527805
78,0.9988905000000001,0.7371335,0.05966,0.8480125000000001,0.4873834999999999,0.047041,0.7411525,0.7145535000000001,0.017144,1.1434025,0.5059935,0.061025,1.2545225,0.7254535,0.034657,0.7114625,0.9724535,-0.037513,1.2953425,0.9816935,-0.0105029999999999,0.9271115,-0.0015384999999999,-0.0036989999999999,1.0728885,0.0015385,0.003699,0.8741325,-0.4363865,-0.053177,1.1169025,-0.4171864999999999,-0.053384,0.8644025000000001,-0.7927365,-0.065248,1.1236125,-0.7864265,-0.057463
79,0.9986865000000001,0.7367024999999999,0.0571464999999999,0.8476495,0.4867224999999999,0.0450234999999999,0.7399795,0.7156925,0.0137315,1.1430395,0.5051525,0.0585855,1.2545395,0.7252925,0.0312014999999999,0.7102695,0.9735625,-0.0412345,1.2951095000000001,0.9832125,-0.0144325,0.9271105,-0.0014535,-0.0037005,1.0728895,0.0014535,0.0037004999999999,0.8737495,-0.4340675,-0.0591345,1.1171294999999999,-0.4158375,-0.0599195,0.8644695,-0.7904575,-0.0696195,1.1237795,-0.7848075,-0.0621255
80,0.9985420000000002,0.7359610000000001,0.054689,0.8475710000000001,0.486181,0.0429419999999999,0.738891,0.7170110000000001,0.0103369999999999,1.142801,0.5040910000000001,0.056218,1.254631,0.725131,0.0278989999999999,0.7090810000000001,0.974731,-0.045487,1.294961,0.984811,-0.018914,0.927109,-0.001361,-0.003723,1.072891,0.001361,0.003723,0.873221,-0.431139,-0.065223,1.117431,-0.414069,-0.066618,0.864311,-0.788189,-0.073956,1.123901,-0.7824089999999999,-0.066456
81,0.9983775,0.7351935,0.0523305,0.8474165,0.4853834999999999,0.0408155,0.7376865,0.7181235,0.0070054999999999,1.1426365,0.5029635,0.0537975,1.2546965,0.7248635,0.0245434999999999,0.7078365,0.9759135,-0.0496255,1.2946265000000001,0.9861635,-0.0232785,0.9271195,-0.0012684999999999,-0.0036725,1.0728805,0.0012685,0.0036724999999999,0.8725765,-0.4267465,-0.0718695,1.1177465,-0.4124065,-0.0733035,0.8641965,-0.7856465,-0.0780065,1.1236864999999998,-0.7797565,-0.0705455
82,0.9981935000000001,0.7334139999999999,0.049869,0.8472195000000001,0.484684,0.038028,0.7365495,0.718634,0.002859,1.1424295,0.500834,0.0507909999999999,1.2547195,0.722804,0.020501,0.7068595,0.978294,-0.0545859999999999,1.2942495,0.986954,-0.028144,0.9270665,-0.001144,-0.0035959999999999,1.0729335,0.0011439999999999,0.003596,0.8718195000000001,-0.421336,-0.080091,1.1184095,-0.408846,-0.081594,0.8641095000000001,-0.7814460000000001,-0.082734,1.1236895,-0.775266,-0.074767
83,0.9978750000000001,0.732187,0.0471795,0.846925,0.483637,0.0350824999999999,0.735425,0.719387,-0.0016205,1.142105,0.499177,0.0476325,1.2545950000000001,0.721087,0.0161185,0.705885,0.981067,-0.0598874999999999,1.293795,0.987937,-0.0334475,0.926917,-0.0010749999999999,-0.0034184999999999,1.073083,0.001075,0.0034184999999999,0.870815,-0.4148929999999999,-0.0895605,1.119085,-0.4036229999999999,-0.0909625,0.8639450000000001,-0.775853,-0.0875135,1.123485,-0.769183,-0.0790164999999999
84,0.9977090000000001,0.7303514999999999,0.0444905,0.846875,0.4820815,0.0319305,0.7343850000000001,0.7189015,-0.0065754999999999,1.1417950000000001,0.4978415,0.0447105,1.254565,0.7189215,0.0114184999999999,0.705165,0.9831915,-0.0652935,1.293355,0.9884715,-0.0390915,0.926771,-0.0008885,-0.0031834999999999,1.073229,0.0008885,0.0031834999999999,0.869665,-0.4072185,-0.1002625,1.119935,-0.3962185,-0.1013555,0.863775,-0.7682085000000001,-0.0925305,1.123265,-0.7611185,-0.0834235
85,0.997664,0.7288945,0.041824,0.8470219999999999,0.4808345,0.0287749999999999,0.733582,0.7185245,-0.011625,1.1415819999999999,0.4968145,0.0417459999999999,1.254592,0.7169645,0.0067229999999999,0.704772,0.9828245,-0.071097,1.292972,0.9890445,-0.04475,0.926599,-0.0007604999999999,-0.002869,1.073401,0.0007605,0.0028689999999999,0.868472,-0.3978455,-0.111897,1.120932,-0.3879555,-0.112351,0.864062,-0.7589555,-0.097368,1.123192,-0.7514155,-0.088198
86,0.9977495000000001,0.726727,0.0396654999999999,0.8472075,0.480227,0.0259065,0.7332675,0.7171470000000001,-0.0159575,1.1415275,0.496207,0.0392415,1.2546875,0.715237,0.0023974999999999,0.7042475,0.982307,-0.0763105,1.2926875,0.989217,-0.0499145,0.9263715,-0.0005949999999999,-0.0025845,1.0736285,0.000595,0.0025844999999999,0.8674775,-0.388533,-0.1227915,1.1219275,-0.380063,-0.1223535,0.8644275000000001,-0.749713,-0.1017485,1.1231575,-0.741683,-0.0924645
87,0.9979435000000001,0.7252475,0.0376119999999999,0.8473945,0.4789775,0.0232059999999999,0.7329245000000001,0.7163475,-0.020185,1.1415745,0.4957175,0.0367629999999999,1.2547445,0.7140375,-0.001951,0.7037645,0.9810875,-0.081454,1.2931445,0.9854775,-0.055696,0.9260825,-0.0004305,-0.002356,1.0739175,0.0004305,0.0023559999999999,0.8664845,-0.3786725,-0.133698,1.1228545,-0.3720525,-0.132542,0.8646945,-0.7395725,-0.105883,1.1232345,-0.7312725,-0.097013
88,0.998089,0.7239009999999999,0.0354534999999999,0.847552,0.478191,0.0202945,0.732442,0.716051,-0.0243545,1.141642,0.494331,0.0342334999999999,1.254632,0.713391,-0.0063875,0.7032320000000001,0.976291,-0.0867575,1.293762,0.976871,-0.0615425,0.9258510000000001,-0.000232,-0.0020184999999999,1.0741489999999998,0.0002319999999999,0.0020184999999999,0.8653420000000001,-0.367569,-0.1447265,1.123452,-0.362699,-0.1429215,0.864972,-0.7278690000000001,-0.1100454999999999,1.1231119999999999,-0.7191890000000001,-0.1016565
89,0.9982895,0.7226644999999999,0.0333585,0.8478345,0.4769945,0.0171945,0.7320845,0.7133845,-0.0286125,1.1417545,0.4931345,0.0316705,1.2545245,0.7098745,-0.0107874999999999,0.7026945,0.9675345,-0.0918675,1.2944045,0.9674445,-0.0672435,0.9256305,4.950000000000093e-05,-0.0016634999999999,1.0743695,-4.950000000000093e-05,0.0016634999999999,0.8638945,-0.3570255,-0.1567795,1.1239145,-0.3523254999999999,-0.1534295,0.8653245,-0.7140555000000001,-0.1141455,1.1231445,-0.7052655,-0.1066045
90,0.9985385000000001,0.7216775,0.0312295,0.8482035,0.4761375,0.0141195,0.7319035,0.7113775,-0.0329415,1.1419735,0.4918575,0.0290555,1.2545734999999998,0.7070275,-0.0150785,0.7023535000000001,0.9597075,-0.0968995,1.2951234999999999,0.9588675,-0.0731215,0.9253245,0.0003365,-0.0013545,1.0746755000000001,-0.0003365,0.0013545,0.8625835,-0.3462125,-0.1680965,1.1244635,-0.3414724999999999,-0.1638065,0.8658435000000001,-0.6995525,-0.1181685,1.1232635,-0.6906825,-0.1116465
91,0.9988225000000001,0.7208915,0.0293439999999999,0.8485525,0.4748314999999999,0.0115859999999999,0.7319925,0.7093515,-0.0364059999999999,1.1420525,0.4922915,0.026762,1.2545425,0.7063315,-0.0186949999999999,0.7021325,0.9522115,-0.10105,1.2958625,0.9518915,-0.078396,0.9250135,0.0005634999999999,-0.0011029999999999,1.0749865,-0.0005635,0.0011029999999999,0.8613625,-0.3310785,-0.178282,1.1247025,-0.3280984999999999,-0.1727719999999999,0.8662625000000002,-0.6853184999999999,-0.121544,1.1234425,-0.6766085,-0.1162639999999999
92,0.9991070000000001,0.7197034999999999,0.0277019999999999,0.8488370000000001,0.4735935,0.0093939999999999,0.7322470000000001,0.7073935,-0.039407,1.141867,0.4914535,0.024693,1.254457,0.7051735,-0.021764,0.702067,0.9467135,-0.104616,1.296697,0.9468435,-0.083175,0.92478,0.0009564999999999,-0.000909,1.07522,-0.0009564999999999,0.000909,0.860257,-0.3156065,-0.187466,1.124847,-0.3143965,-0.1815459999999999,0.866567,-0.6698465,-0.124856,1.123307,-0.6613165,-0.120876
93,0.9989885000000001,0.72039,0.0217025,0.8487105,0.4747,0.0028725,0.7324305,0.70921,-0.0464275,1.1412905,0.4923099999999999,0.0183915,1.2542704999999998,0.70655,-0.0289084999999999,0.7018605,0.94435,-0.1128245,1.2973405,0.94534,-0.0920785,0.9246645,0.0010499999999999,-0.0003604999999999,1.0753355,-0.00105,0.0003605,0.8588905,-0.30078,-0.2002175,1.1247004999999999,-0.29997,-0.1935974999999999,0.8666405,-0.65284,-0.1321715,1.1230604999999998,-0.6446500000000001,-0.1295565
94,0.9988470000000002,0.720935,0.015645,0.848617,0.474735,-0.0034779999999999,0.732607,0.707615,-0.0535039999999999,1.140827,0.4913949999999999,0.012333,1.2542069999999998,0.706255,-0.0356329999999999,0.701657,0.944715,-0.1203779999999999,1.298217,0.944265,-0.1005129999999999,0.924444,0.0012049999999999,0.000198,1.075556,-0.001205,-0.0001979999999999,0.857507,-0.286985,-0.214582,1.125597,-0.286605,-0.209302,0.866297,-0.636095,-0.139152,1.122707,-0.628855,-0.1372789999999999
95,0.9986695,0.722485,0.0095765,0.8486845000000001,0.4744649999999999,-0.0103444999999999,0.7326745,0.708435,-0.0608654999999999,1.1403345,0.490815,0.0060655,1.2539945,0.704685,-0.0421555,0.7014945,0.946245,-0.1287035,1.2988545,0.942105,-0.1092515,0.9242045000000001,0.0013249999999999,0.0008465,1.0757955,-0.0013249999999999,-0.0008465,0.8560145,-0.270165,-0.2294995,1.1268045,-0.269665,-0.2259195,0.8660545,-0.616385,-0.1462304999999999,1.1223745,-0.610995,-0.1450075
96,0.9983545,0.72351,0.003737,0.8487534999999999,0.4747,-0.017066,0.7325435,0.7086600000000001,-0.068255,1.1397035,0.48994,-0.000938,1.2534334999999999,0.70382,-0.048583,0.7012335000000001,0.9455,-0.136937,1.2990535,0.94492,-0.117553,0.9239785000000001,0.00136,0.0014379999999999,1.0760215,-0.00136,-0.0014379999999999,0.8544435,-0.25244,-0.244451,1.1280735,-0.2520099999999999,-0.242531,0.8657835,-0.59556,-0.153037,1.1217934999999999,-0.5922299999999999,-0.152095
97,0.9979540000000001,0.72424,-0.001712,0.8487750000000001,0.47442,-0.023465,0.7322850000000001,0.7081500000000001,-0.075417,1.139145,0.48971,-0.007553,1.252895,0.7029700000000001,-0.054988,0.700925,0.94833,-0.144894,1.298975,0.95261,-0.125537,0.9237420000000001,0.00136,0.0020599999999999,1.076258,-0.00136,-0.00206,0.8529450000000001,-0.23582,-0.2588,1.129315,-0.23541,-0.25829,0.865455,-0.5755600000000001,-0.159509,1.121165,-0.5744800000000001,-0.158674
98,0.9975475,0.72499,-0.0074405,0.8486025,0.47485,-0.0297425,0.7316025000000002,0.7099000000000001,-0.0826805,1.1384725,0.48983,-0.0140645,1.2524425,0.70102,-0.0614175,0.7005625,0.95471,-0.1529525,1.2989225,0.95723,-0.1335605,0.9235415,0.00123,0.0026334999999999,1.0764585,-0.00123,-0.0026335,0.8516325,-0.22055,-0.2716375,1.1305325,-0.21995,-0.2734975,0.8651225,-0.55723,-0.1658075,1.1205225,-0.5583699999999999,-0.1649695
99,0.9972365,0.725585,-0.013447,0.8484675,0.475725,-0.035882,0.7313375,0.7111149999999999,-0.090291,1.1378475,0.488535,-0.021169,1.2520475,0.698305,-0.06788,0.6999975,0.959855,-0.16114,1.2992474999999999,0.960145,-0.142852,0.9232975,0.0012449999999999,0.0031849999999999,1.0767025000000001,-0.001245,-0.003185,0.8502675,-0.205475,-0.284493,1.1317675,-0.204795,-0.288643,0.8647275,-0.539415,-0.171966,1.1195775000000001,-0.542875,-0.171039
100,0.99693,0.726375,-0.0194435,0.8484389999999999,0.474515,-0.0425865,0.730909,0.713215,-0.0979555,1.137229,0.487025,-0.0283995,1.251539,0.696075,-0.0741865,0.699369,0.963135,-0.1695985,1.299159,0.963095,-0.1519955,0.923103,0.001115,0.0037664999999999,1.076897,-0.001115,-0.0037665,0.848889,-0.190935,-0.2967835,1.133049,-0.190155,-0.3036635,0.864379,-0.5220349999999999,-0.1777915,1.118739,-0.5276649999999999,-0.1767635
101,0.996786,0.72757,-0.0256089999999999,0.848611,0.47378,-0.0495399999999999,0.730301,0.71469,-0.10636,1.136701,0.48626,-0.0359249999999999,1.251551,0.69445,-0.0813289999999999,0.6989909999999999,0.96471,-0.178194,1.299751,0.96444,-0.161184,0.922966,0.0008099999999999,0.00438,1.077034,-0.00081,-0.0043799999999999,0.847481,-0.17625,-0.30882,1.134391,-0.17686,-0.31783,0.864121,-0.50684,-0.183041,1.117781,-0.5139900000000001,-0.182091
102,0.996855,0.7264600000000001,-0.027325,0.8492060000000001,0.47112,-0.052348,0.730086,0.71353,-0.110111,1.136386,0.48408,-0.039058,1.251676,0.6913800000000001,-0.084409,0.6985760000000001,0.96389,-0.182295,1.300296,0.96342,-0.166019,0.922919,0.00074,0.0045849999999999,1.077081,-0.0007399999999999,-0.004585,0.8461260000000002,-0.1629199999999999,-0.316065,1.135576,-0.1650499999999999,-0.327675,0.863846,-0.4936999999999999,-0.183746,1.116846,-0.5016499999999999,-0.182808
103,0.9970780000000001,0.725535,-0.029168,0.8498,0.470275,-0.05508,0.7294400000000001,0.7161250000000001,-0.113814,1.13593,0.483045,-0.042239,1.25206,0.6900850000000001,-0.087722,0.6980500000000001,0.960775,-0.186547,1.30097,0.962115,-0.171223,0.922751,0.000775,0.0046699999999999,1.077249,-0.0007749999999999,-0.00467,0.8449800000000001,-0.1498849999999999,-0.32013,1.13571,-0.1538149999999999,-0.33248,0.8636500000000001,-0.4806649999999999,-0.184409,1.11597,-0.4896049999999999,-0.183347
104,0.9975285000000002,0.72504,-0.031298,0.8502735000000001,0.47031,-0.057325,0.7291535,0.71811,-0.117672,1.1356335,0.48127,-0.045307,1.2526635,0.6907300000000001,-0.091442,0.6978035,0.95731,-0.190009,1.3017335,0.9626,-0.176207,0.9224665,0.00089,0.0047349999999999,1.0775335,-0.00089,-0.004735,0.8443635,-0.1387399999999999,-0.3233749999999999,1.1355235,-0.1426699999999999,-0.336055,0.8639435,-0.4695199999999999,-0.184907,1.1152935,-0.47938,-0.183878
105,0.9980685,0.7236149999999999,-0.033346,0.8505735,0.4692749999999999,-0.0599219999999999,0.7291935,0.7189049999999999,-0.121458,1.1353835,0.4802849999999999,-0.0478769999999999,1.2535535,0.690755,-0.0954899999999999,0.6976735000000001,0.957715,-0.193506,1.3029335,0.957365,-0.1815379999999999,0.9223125000000001,0.0009449999999999,0.00483,1.0776875,-0.000945,-0.00483,0.8440335,-0.127865,-0.32634,1.1352435,-0.132375,-0.33936,0.8643235,-0.4586650000000001,-0.184668,1.1146935,-0.4695450000000001,-0.184074
106,0.9988305000000001,0.722465,-0.035354,0.8510875,0.468735,-0.06251,0.7290375,0.7196450000000001,-0.125441,1.1356775,0.479455,-0.050574,1.2550975,0.691135,-0.099563,0.6975975,0.957855,-0.197097,1.3039575,0.951875,-0.186916,0.9222235,0.000955,0.0049249999999999,1.0777765,-0.0009549999999999,-0.0049249999999999,0.8438375,-0.1192749999999999,-0.329255,1.1350375,-0.1246849999999999,-0.342515,0.8648175000000001,-0.4485049999999999,-0.184774,1.1141675,-0.459665,-0.184144
107,0.9997335,0.721375,-0.037864,0.8515865000000001,0.468295,-0.065464,0.7292565000000001,0.718675,-0.129421,1.1361264999999998,0.477805,-0.053923,1.2566465,0.693855,-0.104252,0.6974165,0.956085,-0.201805,1.3055565,0.952685,-0.192743,0.9221585,0.001085,0.0049749999999999,1.0778415,-0.001085,-0.004975,0.8436565,-0.1077549999999999,-0.332395,1.1348464999999999,-0.1143449999999999,-0.346055,0.8658665,-0.4361949999999999,-0.184944,1.1137565,-0.447155,-0.184261
108,1.00071,0.71994,-0.0412219999999999,0.852196,0.46653,-0.069116,0.729596,0.71594,-0.133997,1.136696,0.47729,-0.057423,1.257426,0.69583,-0.110048,0.697546,0.95381,-0.2074949999999999,1.306846,0.95408,-0.198294,0.921951,0.00103,0.0050449999999999,1.078049,-0.0010299999999999,-0.005045,0.843616,-0.09675,-0.335375,1.1345859999999999,-0.10441,-0.3496249999999999,0.867286,-0.4243399999999999,-0.185808,1.112766,-0.43515,-0.18469
109,1.0014895,0.7185250000000001,-0.044939,0.8525715,0.466405,-0.072836,0.7297815000000001,0.712845,-0.138684,1.1370915,0.476375,-0.0613369999999999,1.2577715,0.698115,-0.116168,0.6976715,0.953285,-0.2135099999999999,1.3080815,0.955315,-0.204318,0.9218085,0.001085,0.00517,1.0781915,-0.001085,-0.0051699999999999,0.8434715,-0.085085,-0.33784,1.1341415,-0.094005,-0.35253,0.8684915,-0.412515,-0.186943,1.1114215,-0.4229949999999999,-0.184976
110,1.002303,0.716415,-0.048752,0.852786,0.466365,-0.07647,0.7302960000000001,0.709695,-0.143366,1.137516,0.475465,-0.065297,1.258656,0.699695,-0.12221,0.697956,0.952435,-0.219645,1.3094160000000001,0.955875,-0.210385,0.92163,0.001215,0.0053649999999999,1.07837,-0.001215,-0.005365,0.843556,-0.073685,-0.339905,1.133736,-0.083705,-0.355025,0.869666,-0.401185,-0.188295,1.110036,-0.411275,-0.18523
111,1.002921,0.71499,-0.052549,0.852834,0.466412,-0.079611,0.7308939999999999,0.70639,-0.147905,1.137834,0.47404,-0.069007,1.259274,0.69655,-0.127783,0.6983440000000001,0.95138,-0.225615,1.310554,0.95267,-0.216055,0.921503,0.0012699999999999,0.0056049999999999,1.078497,-0.0012699999999999,-0.005605,0.843754,-0.0629899999999999,-0.341425,1.133214,-0.07424,-0.356965,0.8712340000000001,-0.39121,-0.189167,1.108614,-0.40099,-0.18541
112,1.0035785,0.71187,-0.056608,0.8528585000000001,0.464607,-0.083268,0.7316785,0.70297,-0.152855,1.1382585,0.473583,-0.072961,1.2590584999999999,0.69384,-0.13356,0.6989685,0.95266,-0.232505,1.3117385,0.94938,-0.223335,0.9213025,0.0010899999999999,0.0057849999999999,1.0786975,-0.00109,-0.0057849999999999,0.8442485,-0.05149,-0.343335,1.1325885,-0.06366,-0.359215,0.8729185,-0.38047,-0.19044,1.1073585,-0.38998,-0.185963
113,1.0040695,0.709155,-0.06048,0.8526615000000001,0.462003,-0.086938,0.7321915,0.698135,-0.157658,1.1385515,0.472451,-0.076836,1.2587315000000001,0.691255,-0.139509,0.6996715,0.953515,-0.2396249999999999,1.3129115,0.946055,-0.230995,0.9210825,0.0008549999999999,0.005945,1.0789175,-0.0008549999999999,-0.005945,0.8448015,-0.039745,-0.345155,1.1317715,-0.052435,-0.361425,0.8727315,-0.3687149999999999,-0.192733,1.1062015,-0.378665,-0.186552
114,1.004484,0.70669,-0.0644849999999999,0.852388,0.460989,-0.090178,0.732378,0.69331,-0.162485,1.138678,0.47056,-0.0808229999999999,1.258408,0.6883699999999999,-0.1452399999999999,0.700718,0.95225,-0.246635,1.3135080000000001,0.94751,-0.238315,0.920853,0.0007699999999999,0.006115,1.079147,-0.0007699999999999,-0.0061149999999999,0.845398,-0.02856,-0.3471349999999999,1.1308379999999998,-0.04125,-0.363345,0.873918,-0.3586999999999999,-0.1951999999999999,1.104878,-0.36791,-0.1871749999999999
115,1.004611,0.704285,-0.068074,0.852086,0.4599979999999999,-0.093316,0.732496,0.688645,-0.166769,1.138626,0.468468,-0.084623,1.258376,0.681345,-0.150608,0.701716,0.951075,-0.253505,1.314036,0.945025,-0.246005,0.920597,0.0007949999999999,0.0062649999999999,1.0794030000000001,-0.0007949999999999,-0.006265,0.845906,-0.017845,-0.349095,1.129806,-0.030795,-0.365255,0.874526,-0.349495,-0.197786,1.103996,-0.357985,-0.188341
116,1.004604,0.701805,-0.071019,0.851791,0.458196,-0.0961489999999999,0.732591,0.686705,-0.170773,1.138561,0.466989,-0.087849,1.2582309999999999,0.676875,-0.1552319999999999,0.702801,0.950625,-0.2592799999999999,1.314031,0.940905,-0.25326,0.920226,0.000655,0.0065,1.079774,-0.0006549999999999,-0.0064999999999999,0.846241,-0.0086849999999999,-0.35091,1.128931,-0.0221549999999999,-0.36716,0.875061,-0.3430149999999999,-0.201757,1.103421,-0.349905,-0.189598
117,1.0046035,0.69971,-0.0727839999999999,0.8515145,0.45689,-0.0981519999999999,0.7327245,0.68708,-0.1735249999999999,1.1385844999999999,0.466043,-0.0901599999999999,1.2581045,0.6738,-0.1586399999999999,0.7040545,0.94746,-0.2638749999999999,1.3141345,0.93763,-0.259295,0.9198615,0.00054,0.006695,1.0801385,-0.0005399999999999,-0.0066949999999999,0.8465545,0.00104,-0.3516049999999999,1.1283445,-0.0123699999999999,-0.368425,0.8757245,-0.33573,-0.2030659999999999,1.1032045,-0.34092,-0.191029
118,1.0046395,0.69644,-0.0734519999999999,0.8512255,0.455759,-0.098913,0.7333755,0.68364,-0.175224,1.1387355000000001,0.464775,-0.091416,1.2580955,0.6700699999999999,-0.161304,0.7049555000000001,0.94376,-0.266845,1.3141355,0.93415,-0.264615,0.9195205,0.0004299999999999,0.0068649999999999,1.0804795,-0.0004299999999999,-0.0068649999999999,0.8469055,0.01052,-0.351205,1.1277854999999999,-0.00289,-0.368825,0.8763455,-0.32847,-0.202982,1.1030555,-0.3324,-0.191689
119,1.004751,0.69331,-0.073722,0.851186,0.454384,-0.099245,0.7341660000000001,0.6797300000000001,-0.176277,1.139076,0.463021,-0.091942,1.258146,0.66664,-0.1635289999999999,0.705836,0.94006,-0.26908,1.314266,0.9309,-0.26954,0.9193040000000001,0.00037,0.007,1.0806959999999999,-0.0003699999999999,-0.0069999999999999,0.847266,0.0198,-0.35025,1.1273659999999999,0.00639,-0.36841,0.876416,-0.3179499999999999,-0.202173,1.103026,-0.3237,-0.191954
120,1.0047335,0.69059,-0.073722,0.8510515000000001,0.45283,-0.09924,0.7344415,0.67618,-0.177039,1.1392715,0.461761,-0.092148,1.2579915,0.66787,-0.165587,0.7066115,0.93662,-0.270955,1.3142814999999999,0.93043,-0.274125,0.9190975,0.0003199999999999,0.0070049999999999,1.0809025,-0.0003199999999999,-0.0070049999999999,0.8473714999999999,0.02915,-0.349305,1.1268915,0.01577,-0.367905,0.8767215,-0.31148,-0.202192,1.1037314999999999,-0.31539,-0.1919799999999999
121,1.0047199999999998,0.689295,-0.073723,0.8509900000000001,0.452835,-0.099239,0.73468,0.672775,-0.177526,1.1395199999999999,0.460212,-0.092193,1.25794,0.669005,-0.167675,0.70732,0.929535,-0.271885,1.31442,0.925725,-0.277035,0.918949,0.0004049999999999,0.0070049999999999,1.081051,-0.0004049999999999,-0.0070049999999999,0.84739,0.0387649999999999,-0.348835,1.12656,0.0260949999999999,-0.367655,0.87614,-0.304555,-0.206208,1.10545,-0.306725,-0.192857
122,1.0048409999999999,0.687445,-0.073623,0.851018,0.452814,-0.099152,0.735018,0.670465,-0.177949,1.139928,0.459362,-0.092245,1.258108,0.669945,-0.169499,0.708048,0.922735,-0.27262,1.314718,0.920895,-0.2793,0.9188310000000001,0.0004149999999999,0.00701,1.0811689999999998,-0.0004149999999999,-0.00701,0.847508,0.0481249999999999,-0.34884,1.126438,0.0360349999999999,-0.36765,0.8768980000000001,-0.298605,-0.204124,1.108578,-0.298195,-0.195416
123,1.005058,0.68607,-0.073165,0.8510380000000001,0.452804,-0.098731,0.7352380000000001,0.6695800000000001,-0.17801,1.140408,0.458879,-0.091986,1.259538,0.67091,-0.171218,0.708488,0.91781,-0.27294,1.315208,0.91593,-0.28076,0.918631,0.0002699999999999,0.0070199999999999,1.081369,-0.0002699999999999,-0.00702,0.847718,0.05763,-0.34855,1.126438,0.04619,-0.36736,0.877688,-0.29325,-0.207756,1.112338,-0.28957,-0.197495
124,1.0053065,0.68449,-0.072235,0.8511205,0.452608,-0.097733,0.7355305,0.66858,-0.177366,1.1409605,0.458548,-0.0911199999999999,1.2612804999999998,0.67547,-0.172451,0.7088405,0.9121,-0.2724649999999999,1.3158105,0.91443,-0.281045,0.9183605,0.00014,0.007035,1.0816395,-0.00014,-0.007035,0.8480705,0.06717,-0.347195,1.1265105,0.0563699999999999,-0.366195,0.8786305000000001,-0.2877499999999999,-0.203799,1.1161205,-0.28112,-0.199214
125,1.005628,0.683225,-0.070376,0.8511880000000001,0.452863,-0.0959599999999999,0.735968,0.6668350000000001,-0.17587,1.141658,0.457899,-0.0894889999999999,1.263528,0.6794150000000001,-0.173224,0.7092780000000001,0.908025,-0.271065,1.316538,0.912375,-0.280395,0.918079,0.0001349999999999,0.006935,1.081921,-0.0001349999999999,-0.0069349999999999,0.848498,0.076305,-0.345145,1.1267179999999999,0.066005,-0.364295,0.880458,-0.281315,-0.199247,1.120028,-0.2729049999999999,-0.200117
126,1.0059345,0.68173,-0.068262,0.8512445000000001,0.453262,-0.093964,0.7360545000000001,0.66405,-0.174312,1.1423245,0.457126,-0.087552,1.2658445,0.68276,-0.173745,0.7097045,0.90728,-0.269505,1.3171545,0.90953,-0.279285,0.9177875,0.0001299999999999,0.0068049999999999,1.0822125,-0.0001299999999999,-0.006805,0.8489245,0.0845599999999999,-0.342765,1.1268545,0.07476,-0.362255,0.8804244999999999,-0.27584,-0.20149,1.1239645,-0.26536,-0.20082
127,1.0060835,0.6813799999999999,-0.066019,0.8511115000000001,0.4535329999999999,-0.091894,0.7360715,0.6654399999999999,-0.172703,1.1429015,0.4569539999999999,-0.085491,1.2686515,0.6864899999999999,-0.174112,0.7100815,0.90657,-0.267935,1.3179115000000001,0.90686,-0.277765,0.9174885,-0.00021,0.0067249999999999,1.0825115,0.0002099999999999,-0.006725,0.8493415,0.0928299999999999,-0.340445,1.1268115,0.0835699999999999,-0.360205,0.8792915,-0.2700500000000001,-0.205906,1.1274814999999998,-0.2574200000000001,-0.200953
128,1.0063005,0.681115,-0.0640129999999999,0.8511285,0.453344,-0.0899609999999999,0.7362285,0.666965,-0.171061,1.1435285,0.457389,-0.0835829999999999,1.2715684999999999,0.689805,-0.174609,0.7105485,0.905435,-0.26621,1.3186985,0.903315,-0.2762599999999999,0.9174245,-0.0006349999999999,0.00647,1.0825755,0.000635,-0.0064699999999999,0.8498985,0.100445,-0.3383699999999999,1.1267385,0.091575,-0.35833,0.8813985,-0.2639249999999999,-0.200282,1.1310785,-0.2500749999999999,-0.2011939999999999
129,1.006486,0.680805,-0.062306,0.8511830000000001,0.45299,-0.088271,0.736423,0.668345,-0.169621,1.144033,0.45746,-0.081877,1.274403,0.692345,-0.175327,0.7102729999999999,0.904085,-0.26494,1.319573,0.8998550000000001,-0.27502,0.917402,-0.0010449999999999,0.0061299999999999,1.082598,0.0010449999999999,-0.0061299999999999,0.8502730000000001,0.1072949999999999,-0.3367,1.126533,0.098665,-0.35677,0.883723,-0.258285,-0.1919799999999999,1.134453,-0.244135,-0.201627
130,1.0067445,0.680755,-0.0612309999999999,0.8513515,0.452228,-0.0871069999999999,0.7357015,0.6692750000000001,-0.1688569999999999,1.1445414999999999,0.457939,-0.080727,1.2762715,0.694195,-0.1762439999999999,0.7100315000000001,0.905925,-0.2641599999999999,1.3207315,0.9003950000000001,-0.2744,0.9173455,-0.001545,0.00557,1.0826545,0.001545,-0.0055699999999999,0.8507615,0.111825,-0.33567,1.1263515,0.103295,-0.35592,0.8865415,-0.2557349999999999,-0.185082,1.1372515,-0.240325,-0.20243
131,1.0069045,0.67981,-0.060325,0.8514625,0.452073,-0.086143,0.7345825,0.67086,-0.168713,1.1449125,0.458444,-0.0797,1.2778725,0.69554,-0.177234,0.7095325,0.90804,-0.26352,1.3221524999999998,0.9013,-0.27401,0.9172804999999999,-0.0020799999999999,0.0049999999999999,1.0827195,0.00208,-0.005,0.8511525,0.11691,-0.33404,1.1259125,0.10838,-0.3544,0.8893125,-0.25368,-0.178777,1.1387325,-0.2363299999999999,-0.202514
132,1.007213,0.67906,-0.0595209999999999,0.8517520000000001,0.45203,-0.085448,0.7337020000000001,0.67247,-0.1686619999999999,1.145382,0.458702,-0.078924,1.278322,0.69654,-0.176914,0.7090720000000001,0.90985,-0.26298,1.3240020000000001,0.90262,-0.27374,0.917314,-0.0024899999999999,0.00467,1.082686,0.0024899999999999,-0.0046699999999999,0.851652,0.12234,-0.33253,1.125392,0.11331,-0.35296,0.8918159999999999,-0.25125,-0.176234,1.142332,-0.23331,-0.203727
133,1.0076345,0.678495,-0.058838,0.8522055,0.4522849999999999,-0.084812,0.7336855,0.6742049999999999,-0.168382,1.1458455,0.4581649999999999,-0.078279,1.2802455,0.6967549999999999,-0.178076,0.7087955,0.913795,-0.26269,1.3259855,0.904665,-0.27365,0.9174385,-0.002875,0.0043799999999999,1.0825615,0.0028749999999999,-0.00438,0.8522455,0.1288349999999999,-0.33049,1.1249255,0.1191849999999999,-0.35064,0.8930705,-0.248125,-0.176151,1.1460755,-0.2293750000000001,-0.204956
134,1.008072,0.67773,-0.0584789999999999,0.852695,0.45228,-0.084419,0.733875,0.67567,-0.168387,1.146255,0.45783,-0.077887,1.281905,0.69664,-0.179386,0.7084349999999999,0.91703,-0.262675,1.328025,0.90892,-0.273565,0.917601,-0.0032999999999999,0.004375,1.0823990000000001,0.0033,-0.0043749999999999,0.8528450000000001,0.13443,-0.328665,1.124375,0.1243,-0.348535,0.896171,-0.2455199999999999,-0.1763009999999999,1.1497950000000001,-0.2258099999999999,-0.206029
135,1.008533,0.67706,-0.058321,0.853199,0.45262,-0.084162,0.7342690000000001,0.6779200000000001,-0.168604,1.146699,0.45801,-0.07772,1.282389,0.69688,-0.179606,0.708009,0.91946,-0.262655,1.329769,0.91074,-0.273885,0.917782,-0.0036999999999999,0.004165,1.082218,0.0037,-0.004165,0.8535790000000001,0.14036,-0.326635,1.1238389999999998,0.12999,-0.346265,0.898062,-0.2416299999999999,-0.174893,1.153459,-0.2217699999999999,-0.20739
136,1.00898,0.6769550000000001,-0.058218,0.853656,0.453165,-0.083952,0.7347160000000001,0.6775650000000001,-0.168371,1.147036,0.4576950000000001,-0.077558,1.282826,0.6961350000000001,-0.179791,0.707586,0.920365,-0.26238,1.330716,0.911175,-0.27401,0.91794,-0.0037449999999999,0.0039899999999999,1.08206,0.0037449999999999,-0.00399,0.854276,0.144645,-0.32462,1.123636,0.133395,-0.34412,0.901033,-0.2388349999999999,-0.168957,1.157036,-0.219615,-0.208673
137,1.0092534999999998,0.676601,-0.058411,0.8539384999999999,0.453995,-0.084114,0.7346785,0.677265,-0.16854,1.1472685,0.456785,-0.077715,1.2826085,0.6897150000000001,-0.178639,0.7070385,0.921145,-0.26247,1.3314985,0.910915,-0.27419,0.9181815,-0.0038049999999999,0.0036199999999999,1.0818185,0.003805,-0.0036199999999999,0.8548485,0.148775,-0.32294,1.1231185,0.137435,-0.34218,0.9029845,-0.2370149999999999,-0.169518,1.1602785,-0.2179749999999999,-0.21006
138,1.0095985,0.676191,-0.0587659999999999,0.8543915,0.455145,-0.0844959999999999,0.7348515,0.677482,-0.168866,1.1476115,0.455825,-0.078036,1.2819015,0.6836450000000001,-0.177423,0.7068114999999999,0.922695,-0.2629249999999999,1.3323814999999999,0.911325,-0.2730249999999999,0.9184285000000001,-0.003815,0.003255,1.0815715,0.003815,-0.0032549999999999,0.8555615,0.153275,-0.321275,1.1229515,0.141195,-0.340555,0.9055465,-0.233615,-0.1698609999999999,1.1636215,-0.215955,-0.2110349999999999
139,1.0102395,0.6755800000000001,-0.059223,0.8551805,0.45631,-0.084869,0.7353005,0.6777810000000001,-0.169286,1.1481005,0.4545,-0.078372,1.2802105,0.675377,-0.175011,0.7069405,0.92461,-0.26373,1.3332605,0.90203,-0.27175,0.9185795,-0.0037399999999999,0.0028699999999999,1.0814205000000001,0.00374,-0.0028699999999999,0.8564505,0.15789,-0.31962,1.1231905,0.14587,-0.33884,0.9068735,-0.2307499999999999,-0.1705269999999999,1.1670505,-0.2119899999999999,-0.21323
140,1.0109169999999998,0.675674,-0.059775,0.856019,0.456885,-0.085141,0.7359089999999999,0.677366,-0.169598,1.1486290000000001,0.453535,-0.078818,1.278349,0.667348,-0.1721909999999999,0.707219,0.925925,-0.264475,1.334429,0.891785,-0.270515,0.918722,-0.003615,0.002555,1.081278,0.003615,-0.002555,0.857299,0.161725,-0.318515,1.123719,0.149035,-0.338025,0.908095,-0.228645,-0.1706909999999999,1.170639,-0.2108449999999999,-0.214345
141,1.0113794999999999,0.675464,-0.060218,0.8565825,0.45719,-0.085292,0.7364325,0.676689,-0.169564,1.1489325,0.45281,-0.079128,1.2762925,0.6592709999999999,-0.169043,0.7073425,0.92685,-0.26504,1.3356725,0.8813,-0.2691,0.9188775,-0.0034999999999999,0.0021899999999999,1.0811225,0.0034999999999999,-0.0021899999999999,0.8579025,0.1644,-0.31723,1.1240025,0.15047,-0.3371,0.9085705,-0.2261999999999999,-0.170758,1.1714025000000001,-0.21191,-0.21525
142,1.0117895,0.675015,-0.06049,0.8570195,0.45714,-0.085241,0.7369195,0.6758930000000001,-0.169209,1.1490894999999999,0.45335,-0.0792519999999999,1.2746595,0.652014,-0.165827,0.7073995,0.92748,-0.2654,1.3366395,0.8702799999999999,-0.26755,0.9189515,-0.0034999999999999,0.0020199999999999,1.0810485,0.0035,-0.0020199999999999,0.8583895,0.16686,-0.31602,1.1240994999999998,0.15084,-0.33693,0.9089365,-0.2239599999999999,-0.17063,1.1723295,-0.2131199999999999,-0.2158
143,1.0122125,0.6746829999999999,-0.060916,0.8574705,0.45779,-0.085153,0.7376205,0.675308,-0.168695,1.1492105,0.4547199999999999,-0.079345,1.2734705,0.644708,-0.162799,0.7074505000000001,0.92823,-0.265775,1.3374305,0.85945,-0.265945,0.9190075,-0.00348,0.0018549999999999,1.0809925,0.0034799999999999,-0.001855,0.8588005,0.1695299999999999,-0.314705,1.1245005,0.1507799999999999,-0.336905,0.9092965000000001,-0.22153,-0.170465,1.1733805,-0.21438,-0.216075
144,1.0126555,0.6746239999999999,-0.0610809999999999,0.8578605,0.4586299999999999,-0.0850949999999999,0.7381705000000001,0.6739919999999999,-0.168346,1.1494205,0.45585,-0.0793819999999999,1.2728505,0.6372849999999999,-0.159995,0.7074705,0.9283,-0.266105,1.3379405,0.84786,-0.2641949999999999,0.9190145,-0.0035,0.001795,1.0809855,0.0034999999999999,-0.0017949999999999,0.8592705,0.1714299999999999,-0.313745,1.1248704999999999,0.1524599999999999,-0.336225,0.9097745,-0.2200200000000001,-0.170336,1.1744005,-0.21321,-0.215835
145,1.0131135,0.674497,-0.061461,0.8581995,0.459965,-0.085036,0.7381895,0.674938,-0.168481,1.1496595,0.4569149999999999,-0.079433,1.2723195,0.62968,-0.157189,0.7074795,0.928985,-0.26649,1.3384295,0.836285,-0.26241,0.9190155,-0.003445,0.00174,1.0809845,0.003445,-0.00174,0.8597095,0.173195,-0.31289,1.1252895,0.154525,-0.33526,0.9102285,-0.218615,-0.170114,1.1752894999999999,-0.211605,-0.21574
146,1.0135714999999998,0.6745280000000001,-0.061854,0.8584915,0.461385,-0.0850269999999999,0.7382515000000001,0.6759310000000001,-0.168593,1.1498715,0.4584650000000001,-0.079451,1.2723415,0.6278530000000001,-0.156626,0.7074815,0.929905,-0.2669,1.3388915,0.8257750000000001,-0.26105,0.9190075,-0.0033849999999999,0.0016899999999999,1.0809925,0.003385,-0.0016899999999999,0.8600915,0.1749050000000001,-0.31207,1.1258215,0.156955,-0.33418,0.9106185,-0.2172349999999999,-0.169841,1.1761915,-0.2092549999999999,-0.2160699999999999
147,1.014082,0.67442,-0.062293,0.858685,0.462735,-0.084964,0.738445,0.675953,-0.168524,1.1500650000000001,0.4598150000000001,-0.079387,1.272935,0.625588,-0.156052,0.707605,0.930405,-0.2674499999999999,1.339605,0.8148350000000001,-0.26097,0.919004,-0.0033649999999999,0.0017099999999999,1.080996,0.003365,-0.00171,0.860355,0.175945,-0.31157,1.126415,0.158655,-0.33289,0.910989,-0.2165749999999999,-0.169551,1.177085,-0.207685,-0.21629
148,1.014605,0.674291,-0.062716,0.858897,0.4636049999999999,-0.08494,0.738497,0.675655,-0.168621,1.150247,0.460685,-0.07934,1.272947,0.6255109999999999,-0.156072,0.707857,0.930645,-0.26822,1.340067,0.813325,-0.2607899999999999,0.918992,-0.003365,0.00173,1.081008,0.0033649999999999,-0.0017299999999999,0.860587,0.1765149999999999,-0.31134,1.127027,0.1594649999999999,-0.33172,0.911349,-0.216355,-0.169344,1.1779169999999999,-0.207085,-0.21625
149,1.0151074999999998,0.6741119999999999,-0.0632089999999999,0.8590025,0.4638749999999999,-0.084933,0.7385225,0.674875,-0.16863,1.1504025,0.460955,-0.079265,1.2729425,0.6257809999999999,-0.156072,0.7082025000000001,0.930485,-0.26896,1.3400525,0.813595,-0.26108,0.9189965,-0.003415,0.00173,1.0810035,0.0034149999999999,-0.0017299999999999,0.8607724999999999,0.1764649999999999,-0.31134,1.1274225,0.159485,-0.3308299999999999,0.9116655,-0.216695,-0.169296,1.1785325,-0.207265,-0.21615
150,1.0154525,0.6741119999999999,-0.063745,0.8589884999999999,0.4638749999999999,-0.0849,0.7381985,0.674875,-0.168764,1.1504485,0.4609749999999999,-0.079181,1.2727785,0.6257809999999999,-0.156033,0.7085684999999999,0.930375,-0.269565,1.3408585,0.812265,-0.260815,0.9189965,-0.003415,0.001695,1.0810035,0.0034149999999999,-0.001695,0.8608685,0.1761249999999999,-0.311315,1.1276285,0.1592849999999999,-0.330695,0.9116015000000001,-0.216695,-0.169261,1.1785085,-0.207265,-0.215245
151,1.0155295,0.6741119999999999,-0.064247,0.8590185,0.4642949999999999,-0.084825,0.7379185000000001,0.674885,-0.168886,1.1504785,0.461595,-0.0790879999999999,1.2742185,0.6257809999999999,-0.156359,0.7090185000000001,0.930375,-0.26985,1.3420285,0.812265,-0.26093,0.9190235,-0.003415,0.0016899999999999,1.0809765,0.0034149999999999,-0.0016899999999999,0.8608985,0.1761749999999999,-0.3112399999999999,1.1277485,0.161315,-0.33062,0.9116315000000002,-0.216695,-0.169186,1.1784885,-0.204895,-0.2142899999999999
152,1.0155285,0.6741119999999999,-0.064558,0.8590345,0.4652449999999999,-0.08467,0.7378745,0.674885,-0.168872,1.1504945,0.4629149999999999,-0.078933,1.2756045,0.626195,-0.156611,0.7094644999999999,0.930375,-0.269895,1.3432745,0.812265,-0.261095,0.9190355,-0.003415,0.001735,1.0809644999999999,0.0034149999999999,-0.001735,0.8609145000000001,0.1762649999999999,-0.311155,1.1277245,0.1616349999999999,-0.331555,0.9116474999999999,-0.216695,-0.169031,1.1783744999999999,-0.204005,-0.213245
153,1.015383,0.67416,-0.064878,0.858907,0.46624,-0.084511,0.737587,0.674807,-0.168985,1.150477,0.46424,-0.078752,1.276967,0.628101,-0.157858,0.709777,0.93016,-0.26983,1.344387,0.8164899999999999,-0.2622,0.918995,-0.0034499999999999,0.00186,1.081005,0.0034499999999999,-0.00186,0.8607670000000001,0.17569,-0.31145,1.1275870000000001,0.16415,-0.33149,0.909491,-0.2168799999999999,-0.168897,1.176957,-0.19967,-0.21301
154,1.015212,0.674371,-0.065269,0.858505,0.4661900000000001,-0.084468,0.737175,0.6750140000000001,-0.169471,1.1504050000000001,0.46437,-0.078647,1.279055,0.635321,-0.160623,0.710045,0.92865,-0.269985,1.345995,0.8256100000000001,-0.264635,0.918932,-0.0032799999999999,0.0019749999999999,1.081068,0.00328,-0.001975,0.860595,0.17169,-0.313555,1.127365,0.15998,-0.333545,0.907025,-0.2184799999999999,-0.169748,1.1746349999999999,-0.2031999999999999,-0.211532
155,1.0149469999999998,0.67427,-0.0656839999999999,0.858407,0.465685,-0.084608,0.736517,0.6758500000000001,-0.170077,1.150357,0.463585,-0.0786429999999999,1.280227,0.642416,-0.162472,0.710377,0.929225,-0.270305,1.347567,0.834595,-0.266375,0.918874,-0.003105,0.0020349999999999,1.081126,0.003105,-0.0020349999999999,0.860487,0.167405,-0.316175,1.126757,0.158475,-0.3346949999999999,0.9051470000000001,-0.220535,-0.169625,1.1714669999999998,-0.202195,-0.210683
156,1.0145324999999998,0.6748799999999999,-0.06641,0.8582765,0.46334,-0.084923,0.7357365,0.6754899999999999,-0.171001,1.1505264999999998,0.4630399999999999,-0.078684,1.2819265,0.649006,-0.164667,0.7106465,0.92748,-0.270735,1.3490665,0.8422399999999999,-0.268345,0.9188145,-0.00282,0.002195,1.0811855,0.0028199999999999,-0.002195,0.8602665,0.1601899999999999,-0.319315,1.1263565,0.1512599999999999,-0.337035,0.9026415,-0.2249700000000001,-0.170814,1.1674064999999998,-0.20651,-0.20899
157,1.0140055,0.6753020000000001,-0.067528,0.8580125000000001,0.46097,-0.085856,0.7350225,0.678193,-0.172967,1.1506525,0.46208,-0.079055,1.2832925,0.654765,-0.167139,0.7107225000000001,0.92721,-0.27161,1.3505225,0.84897,-0.27052,0.9189395,-0.00234,0.0028799999999999,1.0810605,0.00234,-0.00288,0.8599125,0.15083,-0.32315,1.1258525,0.14258,-0.33969,0.8999705,-0.2307899999999999,-0.172434,1.1629425,-0.21265,-0.207448
158,1.0134515,0.6787449999999999,-0.069036,0.8577684999999999,0.460225,-0.087176,0.7347385,0.681955,-0.174861,1.1507385,0.462775,-0.079527,1.2847785,0.659748,-0.169797,0.7108185,0.930595,-0.27298,1.3520385,0.8620749999999999,-0.27291,0.9191615,-0.0017049999999999,0.0036499999999999,1.0808385,0.0017049999999999,-0.00365,0.8596085,0.1390949999999999,-0.32698,1.1254184999999999,0.131915,-0.34251,0.8974255,-0.2386049999999999,-0.174157,1.1565085,-0.2210849999999999,-0.205316
159,1.012894,0.681845,-0.07039,0.857514,0.460863,-0.0884409999999999,0.7346540000000001,0.685735,-0.176567,1.150944,0.464062,-0.0801149999999999,1.286224,0.668995,-0.172566,0.710654,0.932405,-0.2745849999999999,1.3535439999999999,0.8746050000000001,-0.2752449999999999,0.919416,-0.0009949999999999,0.004225,1.080584,0.0009949999999999,-0.0042249999999999,0.859354,0.124485,-0.331095,1.124884,0.118055,-0.345905,0.894493,-0.247985,-0.176271,1.148494,-0.232005,-0.202536
160,1.012063,0.686645,-0.0713049999999999,0.8569780000000001,0.46071,-0.0893079999999999,0.734488,0.690445,-0.1777909999999999,1.150908,0.466987,-0.080453,1.287388,0.678085,-0.174807,0.710128,0.933415,-0.275605,1.354898,0.8878550000000001,-0.2769549999999999,0.919562,-0.0005249999999999,0.004585,1.080438,0.0005249999999999,-0.0045849999999999,0.858828,0.109005,-0.334605,1.124008,0.102895,-0.349095,0.891258,-0.257665,-0.1781169999999999,1.140318,-0.243525,-0.199658
161,1.011046,0.692145,-0.0717519999999999,0.8563000000000001,0.459438,-0.090058,0.73407,0.694795,-0.178855,1.15075,0.470359,-0.0806689999999999,1.28838,0.687795,-0.1762709999999999,0.7094100000000001,0.939105,-0.27632,1.35588,0.902215,-0.27779,0.919763,-0.0001349999999999,0.00486,1.080237,0.0001349999999999,-0.0048599999999999,0.85812,0.092645,-0.33776,1.12294,0.086045,-0.3519,0.88741,-0.268035,-0.181278,1.13197,-0.256185,-0.1964079999999999
162,1.009807,0.69705,-0.07166,0.855824,0.4595509999999999,-0.090085,0.732414,0.69768,-0.179805,1.150754,0.4717009999999999,-0.080556,1.288494,0.6964199999999999,-0.176214,0.708494,0.94133,-0.276565,1.356944,0.90958,-0.277765,0.919963,0.0001999999999999,0.0051049999999999,1.080037,-0.0002,-0.005105,0.857224,0.0694099999999999,-0.339945,1.121774,0.0619799999999999,-0.353805,0.885104,-0.2857700000000001,-0.184032,1.125504,-0.27616,-0.194275
163,1.0080395,0.70211,-0.071589,0.8548195000000001,0.4597139999999999,-0.0901609999999999,0.7304495,0.70112,-0.179726,1.1501595,0.474551,-0.080269,1.2869395,0.6977,-0.17615,0.7070795000000001,0.94417,-0.27651,1.3564795,0.91033,-0.27774,0.9202375,0.0003299999999999,0.00508,1.0797625,-0.0003299999999999,-0.00508,0.8557494999999999,0.0453199999999999,-0.34016,1.1200795000000001,0.0381099999999999,-0.35373,0.8823695,-0.30633,-0.186491,1.1189494999999998,-0.29794,-0.192353
164,1.006127,0.7066600000000001,-0.071207,0.8536780000000002,0.458616,-0.089807,0.728788,0.7028,-0.179353,1.149058,0.477814,-0.079562,1.285248,0.6986,-0.175161,0.7055680000000001,0.94491,-0.276145,1.354778,0.9169,-0.276785,0.9206340000000001,0.0003,0.0053349999999999,1.0793659999999998,-0.0003,-0.005335,0.8541780000000001,0.0210299999999999,-0.339795,1.118278,0.01395,-0.353355,0.879298,-0.3277,-0.187925,1.113258,-0.32054,-0.190586
165,1.004343,0.711375,-0.07072,0.852597,0.461785,-0.089346,0.7276670000000001,0.707665,-0.17889,1.147817,0.479498,-0.078742,1.2838370000000001,0.698485,-0.174688,0.704197,0.948985,-0.275665,1.353567,0.923285,-0.276325,0.921035,0.0005549999999999,0.0055349999999999,1.078965,-0.000555,-0.0055349999999999,0.852787,-0.002945,-0.339325,1.1166369999999999,-0.009675,-0.352875,0.8777270000000001,-0.348595,-0.186896,1.108537,-0.343125,-0.189364
166,1.0025385,0.71542,-0.070247,0.8519275,0.463077,-0.0892589999999999,0.7270575,0.70825,-0.178633,1.1464775,0.481462,-0.078079,1.2823075,0.6987300000000001,-0.171809,0.7028675,0.95098,-0.275175,1.3520075,0.93009,-0.274045,0.9212845000000001,0.00021,0.005465,1.0787155,-0.0002099999999999,-0.0054649999999999,0.8515075,-0.0276299999999999,-0.339215,1.1150675,-0.03436,-0.352225,0.8747175,-0.36973,-0.187629,1.1036775,-0.3654699999999999,-0.18818
167,1.0008964999999999,0.71723,-0.069283,0.8507965,0.464022,-0.088589,0.7265665,0.70729,-0.176946,1.1450765,0.4818789999999999,-0.077074,1.2810665,0.69817,-0.168589,0.7016965,0.95197,-0.273665,1.3504665,0.9302,-0.270815,0.9215465,-7.00000000000145e-05,0.0052049999999999,1.0784535,6.999999999995898e-05,-0.005205,0.8502265,-0.0536,-0.338425,1.1136264999999999,-0.06,-0.3507949999999999,0.8716765,-0.39168,-0.18731,1.1012765,-0.389,-0.187205
168,0.999316,0.721065,-0.067199,0.8498800000000001,0.463205,-0.08729,0.72605,0.707225,-0.174632,1.14382,0.4816849999999999,-0.075611,1.27986,0.6976749999999999,-0.164727,0.70113,0.955345,-0.2718399999999999,1.34925,0.934015,-0.26682,0.921957,-0.000275,0.0046299999999999,1.078043,0.0002749999999999,-0.00463,0.84916,-0.077955,-0.33593,1.11246,-0.084165,-0.34724,0.86885,-0.414035,-0.186313,1.09997,-0.413485,-0.18583
169,0.9982395000000001,0.72269,-0.063723,0.8490935,0.46323,-0.084438,0.7258935,0.70556,-0.169731,1.1430135,0.48139,-0.072696,1.2791234999999999,0.69911,-0.159486,0.7009235,0.95857,-0.26864,1.3481935,0.93765,-0.26114,0.9225845,-0.00052,0.0039899999999999,1.0774155,0.00052,-0.00399,0.8484935,-0.1022799999999999,-0.33206,1.1118435,-0.1082799999999999,-0.34214,0.8664135,-0.43754,-0.184047,1.0990735,-0.4385099999999999,-0.183065
170,0.997024,0.724025,-0.057912,0.848231,0.465555,-0.0792,0.7255309999999999,0.7046049999999999,-0.162387,1.142131,0.479885,-0.068211,1.278411,0.699365,-0.152878,0.700711,0.957215,-0.261965,1.346921,0.940125,-0.253585,0.922954,-0.000435,0.0034949999999999,1.077046,0.000435,-0.003495,0.8481110000000001,-0.128245,-0.325235,1.111481,-0.1345449999999999,-0.334235,0.863931,-0.465365,-0.180436,1.098171,-0.467455,-0.178484
171,0.9956720000000001,0.726285,-0.052206,0.847441,0.466165,-0.074052,0.725041,0.704555,-0.154888,1.141001,0.480075,-0.063611,1.276981,0.699265,-0.145907,0.700431,0.959265,-0.25482,1.345151,0.944025,-0.24568,0.922926,-0.000255,0.0029599999999999,1.077074,0.000255,-0.00296,0.847531,-0.147005,-0.31787,1.110851,-0.153395,-0.32688,0.861791,-0.487195,-0.176728,1.097761,-0.490255,-0.174876
172,0.9951590000000001,0.728785,-0.0463515,0.8474340000000001,0.4696249999999999,-0.0685355,0.725194,0.707885,-0.1471945,1.140654,0.480805,-0.0589255,1.276384,0.699515,-0.1377015,0.701164,0.960915,-0.2470545,1.344114,0.951175,-0.2370645,0.923059,-0.0001049999999999,0.0025054999999999,1.076941,0.0001049999999999,-0.0025055,0.8479140000000001,-0.1635049999999999,-0.3095345,1.111194,-0.169625,-0.3182245,0.860494,-0.507915,-0.1734255,1.098114,-0.511895,-0.1710385
173,0.9947160000000002,0.73229,-0.040615,0.8475980000000001,0.47369,-0.06306,0.7254579999999999,0.71133,-0.139431,1.140788,0.48096,-0.054025,1.275708,0.7,-0.129824,0.702108,0.96713,-0.239276,1.343178,0.95216,-0.228916,0.92331,0.00017,0.002061,1.07669,-0.00017,-0.0020609999999999,0.848388,-0.17949,-0.300786,1.111638,-0.1849999999999999,-0.309016,0.859598,-0.52894,-0.169809,1.0988479999999998,-0.53349,-0.167126
174,0.9942495,0.73492,-0.0345815,0.8476095000000001,0.47407,-0.0574395,0.7259395,0.7127699999999999,-0.1313905,1.1404995,0.4823199999999999,-0.0486145,1.2756595,0.70183,-0.1219835,0.7032095,0.97198,-0.2311555,1.3416495,0.95495,-0.2203555,0.9236225,-5.000000000002225e-05,0.0020644999999999,1.0763775,4.999999999999449e-05,-0.0020645,0.8487495,-0.19384,-0.2919155,1.1122595,-0.19841,-0.2995155,0.8587895,-0.5481800000000001,-0.1645855,1.0995495,-0.5537000000000001,-0.1623545
175,0.9939565,0.7384999999999999,-0.0286074999999999,0.8475145,0.47628,-0.0517655,0.7261745,0.71482,-0.1233354999999999,1.1402344999999998,0.4836,-0.0432175,1.2755545,0.70344,-0.1142855,0.7043845,0.97744,-0.2226695,1.3402845,0.95763,-0.2117095,0.9240275,0.00014,0.0020084999999999,1.0759725,-0.00014,-0.0020084999999999,0.8492445,-0.20719,-0.2827095,1.1128345,-0.2119,-0.2901395,0.8582045,-0.5671700000000001,-0.1589944999999999,1.0998945,-0.5740500000000001,-0.1569575
176,0.993798,0.740915,-0.0229655,0.847424,0.478215,-0.0465925,0.7263840000000001,0.716735,-0.1156995,1.140104,0.486255,-0.0379715,1.275544,0.705605,-0.1065865,0.705334,0.979365,-0.2147205,1.339694,0.959045,-0.2035605,0.924501,0.000175,0.0022095,1.075499,-0.0001749999999999,-0.0022095,0.8499140000000001,-0.219235,-0.2729605,1.113414,-0.224595,-0.2800005,0.8577440000000001,-0.585825,-0.1534275,1.100064,-0.593295,-0.1514525
177,0.9937495000000001,0.74278,-0.017499,0.8474805,0.48107,-0.041366,0.7271305,0.71872,-0.108279,1.1400405,0.48916,-0.033033,1.2760905,0.7082,-0.099326,0.7058605,0.98148,-0.20627,1.3397405,0.95772,-0.19561,0.9250105,3.0000000000002247e-05,0.0024379999999999,1.0749895,-3.0000000000002247e-05,-0.002438,0.8505705,-0.23016,-0.26364,1.1140905,-0.23582,-0.27041,0.8573405000000001,-0.6025699999999999,-0.14813,1.1004305,-0.60996,-0.145832
178,0.9936415,0.74459,-0.0119414999999999,0.8473885,0.48296,-0.0360944999999999,0.7278585,0.72045,-0.1008754999999999,1.1399085,0.49011,-0.0281604999999999,1.2768985,0.70778,-0.0920505,0.7062185000000001,0.98386,-0.1973975,1.3397185,0.95488,-0.1875375,0.9255755,0.00014,0.0025135,1.0744245000000001,-0.00014,-0.0025135,0.8509485,-0.2408099999999999,-0.2540075,1.1147585,-0.2469,-0.2604075,0.8568985,-0.61966,-0.1430015,1.1007785,-0.6268,-0.1406945
179,0.9934490000000001,0.746225,-0.0078845,0.847084,0.483665,-0.0323435,0.728574,0.722215,-0.0952035,1.1399139999999999,0.491565,-0.0242575,1.277634,0.706885,-0.0860185,0.7061440000000001,0.986325,-0.1903365,1.3404639999999999,0.951225,-0.1804165,0.9261300000000001,2.4999999999997247e-05,0.0023774999999999,1.0738699999999999,-2.5000000000011124e-05,-0.0023775,0.851124,-0.2541449999999999,-0.2459365,1.1147239999999998,-0.258765,-0.2517465,0.8565040000000002,-0.632595,-0.1384525,1.100714,-0.6391749999999999,-0.1365125
180,0.9934795,0.7483424999999999,-0.0037335,0.8468955,0.4860725,-0.0286005,0.7291455,0.7239225,-0.0893805,1.1399155,0.4930724999999999,-0.0202504999999999,1.2787255,0.7057424999999999,-0.0797905,0.7060854999999999,0.9889325,-0.1833305,1.3404255,0.9533125,-0.1731305,0.9266075,-1.7500000000003624e-05,0.0022004999999999,1.0733925,1.7500000000003624e-05,-0.0022004999999999,0.8513554999999999,-0.2673075,-0.2374005,1.1147455,-0.2708775,-0.2426505,0.8564555,-0.6457575,-0.1339175,1.1006055,-0.6514975000000001,-0.1322525
181,0.993842,0.7479635,0.0049584999999999,0.846796,0.4849735,-0.0203075,0.729696,0.7200335,-0.0788875,1.140256,0.4917935,-0.0116245,1.279606,0.7049235,-0.0700475,0.706296,0.9911435,-0.1721115,1.340886,0.9525135,-0.1619415,0.927134,4.850000000000687e-05,0.0020554999999999,1.072866,-4.849999999999299e-05,-0.0020555,0.8517859999999999,-0.2795964999999999,-0.2245215,1.1150259999999999,-0.2831665,-0.2293915,0.856636,-0.6580465,-0.1247565,1.100816,-0.6630265,-0.1233085
182,0.9943735000000001,0.7479939999999999,0.0134805,0.8472235,0.484824,-0.0122925,0.7299335,0.7186939999999999,-0.0684105,1.1420135,0.4935239999999999,-0.0033545,1.2797835,0.705674,-0.0605445,0.7063635000000001,0.989304,-0.1606485,1.3423734999999999,0.952924,-0.1506285,0.9275555,1.5000000000001124e-05,0.0018444999999999,1.0724445,-1.5000000000001124e-05,-0.0018444999999999,0.8533035,-0.292286,-0.2076385,1.1145435,-0.295176,-0.2124885,0.8567835,-0.6701360000000001,-0.1154005,1.1012035,-0.674436,-0.1136875
183,0.99499,0.7476590000000001,0.0215124999999999,0.847722,0.485559,-0.0043694999999999,0.730342,0.717779,-0.0580215,1.143842,0.494629,0.0046864999999999,1.280042,0.706329,-0.0513945,0.706512,0.987379,-0.1488375,1.344282,0.953329,-0.1390515,0.927866,0.0001699999999999,0.0013594999999999,1.072134,-0.00017,-0.0013594999999999,0.854812,-0.305771,-0.1903975,1.113922,-0.307441,-0.1954375,0.856902,-0.6831210000000001,-0.1063524999999999,1.101542,-0.6864809999999999,-0.1040055
184,0.9956425,0.7477705,0.0291789999999999,0.8481995,0.4860204999999999,0.003032,0.7312795000000001,0.7181905000000001,-0.04807,1.1456295,0.4957105,0.0120629999999999,1.2807595,0.7081405000000001,-0.042777,0.7068595000000001,0.9854605,-0.137605,1.3462395,0.9547905,-0.127743,0.9280215,0.0002785,0.000916,1.0719785,-0.0002785,-0.000916,0.8561595,-0.3190095,-0.1733549999999999,1.1131395,-0.3189595,-0.1784049999999999,0.8568395,-0.6952695,-0.097399,1.1018795,-0.6973594999999999,-0.09458
185,0.9963915000000001,0.7479485,0.0365885,0.8487325,0.4856685,0.0101475,0.7321424999999999,0.7194985,-0.0390555,1.1473625,0.4949985,0.0193205,1.2818025,0.7104985,-0.0349904999999999,0.7076325,0.9834285,-0.1267725,1.3478625,0.9568985,-0.1172135,0.9282065,0.0002224999999999,0.0004975,1.0717935,-0.0002225,-0.0004974999999999,0.8574025000000001,-0.3318815,-0.1562525,1.1123425,-0.3293514999999999,-0.1615125,0.8568025,-0.7068015,-0.0888964999999999,1.1021125,-0.7070514999999999,-0.0850694999999999
186,0.9974325,0.7469625,0.0441815,0.8492845,0.4850425,0.0172485,0.7329445,0.7190325,-0.0302285,1.1492645,0.4944225,0.0268824999999999,1.2825045,0.7080025,-0.0268925,0.7084345000000001,0.9796925,-0.1162685,1.3494045,0.9580225,-0.1065875,0.9283775,0.0001605,5.849999999999953e-05,1.0716225,-0.0001605,-5.8500000000002994e-05,0.8587045,-0.3455075,-0.1378585,1.1113545,-0.3408175,-0.1435185,0.8566345,-0.7194175,-0.0802155,1.1021545,-0.7177175,-0.0754375
187,0.998442,0.7467739999999999,0.051461,0.849805,0.4853739999999999,0.023905,0.733735,0.719164,-0.022016,1.151075,0.494334,0.034133,1.2830949999999999,0.706734,-0.019116,0.7088650000000001,0.979004,-0.106277,1.350785,0.960004,-0.09672,0.9285180000000001,0.000128,-0.000408,1.0714819999999998,-0.0001279999999999,0.000408,0.859985,-0.358566,-0.119278,1.110295,-0.352126,-0.125258,0.8565050000000001,-0.730336,-0.070892,1.102125,-0.727286,-0.065652
188,0.9994280000000001,0.7463475,0.058476,0.8501480000000001,0.4858075,0.030438,0.734448,0.7188275000000001,-0.0141979999999999,1.152838,0.4944275,0.040989,1.283538,0.7055875,-0.011343,0.7093579999999999,0.9777775,-0.096624,1.352068,0.9621675,-0.087408,0.928663,0.0001015,-0.000892,1.071337,-0.0001015,0.000892,0.861158,-0.3723925,-0.100543,1.109088,-0.3642125,-0.106808,0.856298,-0.7419625,-0.061763,1.102118,-0.7367325,-0.056001
189,1.00038,0.7452394999999999,0.064917,0.8505590000000001,0.4849995,0.036528,0.735179,0.7183394999999999,-0.0068469999999999,1.1545889999999999,0.4947495,0.047539,1.2839990000000001,0.7048194999999999,-0.003885,0.7098790000000001,0.9765595,-0.087426,1.352879,0.9587595,-0.078515,0.928839,9.49999999999996e-06,-0.001323,1.071161,-9.49999999999996e-06,0.001323,0.862339,-0.3857804999999999,-0.082168,1.107849,-0.3754004999999999,-0.089034,0.8560590000000001,-0.7527305000000001,-0.052894,1.102119,-0.7452105,-0.046645
190,1.0012344999999998,0.7460845,0.0660705,0.8507675,0.4857945,0.0374795,0.7357875,0.7191645,-0.0047705,1.1562075,0.4969044999999999,0.0490365,1.2843775,0.7053445,-0.0015435,0.7103075,0.9766845,-0.0835895,1.3534275,0.9567345,-0.0748305,0.9288784999999999,-0.0001924999999999,-0.0017415,1.0711215,0.0001924999999999,0.0017414999999999,0.8633474999999999,-0.3979054999999999,-0.0692245,1.1064874999999998,-0.3847555,-0.0766865,0.8557175,-0.7613555,-0.0491905,1.1020475,-0.7523755,-0.0423044999999999
191,1.0020784999999999,0.7461180000000001,0.067114,0.8511955,0.485998,0.0383849999999999,0.7364055,0.718198,-0.002923,1.1567055,0.496118,0.050496,1.2848655,0.704408,0.0007159999999999,0.7108355,0.976078,-0.080157,1.3539755,0.953798,-0.071621,0.9287855,-0.0002489999999999,-0.0021019999999999,1.0712145,0.0002489999999999,0.0021019999999999,0.8640655000000002,-0.404902,-0.060584,1.1062255,-0.3910119999999999,-0.06845,0.8554555,-0.768662,-0.047214,1.1019955,-0.757772,-0.038085
192,1.0027645,0.746352,0.0680235,0.8515305,0.485602,0.0390785,0.7368805,0.7171620000000001,-0.0013185,1.1571505,0.495812,0.0518325,1.2853205,0.703882,0.0026654999999999,0.7112805,0.976282,-0.0773565,1.3544605,0.951432,-0.0689505,0.9286855,-0.0004499999999999,-0.0022445,1.0713145,0.0004499999999999,0.0022445,0.8649305,-0.410348,-0.0523524999999999,1.1061805,-0.395638,-0.0607945,0.8555305,-0.773528,-0.0454515,1.1022305000000001,-0.762018,-0.0341075
193,1.0032855,0.746065,0.0689015,0.8517385,0.485475,0.0397365,0.7371785,0.715505,0.0002745,1.1574585,0.495765,0.0531145,1.2855785,0.7029449999999999,0.0045555,0.7116585,0.976455,-0.0746795,1.3548185,0.948875,-0.0663884999999999,0.9284155000000001,-0.000623,-0.0023485,1.0715845,0.0006229999999999,0.0023485,0.8656285,-0.415415,-0.0441595,1.1060785,-0.399745,-0.0533125,0.8556885000000001,-0.778085,-0.0437535,1.1023385,-0.7648750000000001,-0.0299475
194,1.003848,0.7461385,0.069622,0.852112,0.4850684999999999,0.0403619999999999,0.737492,0.7137185,0.001556,1.157812,0.4960385,0.053844,1.285512,0.7025585000000001,0.0061959999999999,0.7123520000000001,0.9775185,-0.072371,1.354882,0.9473185,-0.064131,0.9282360000000001,-0.0006934999999999,-0.0024,1.071764,0.0006934999999999,0.0023999999999999,0.865782,-0.4178815,-0.0372949999999999,1.106062,-0.4010915,-0.046715,0.855302,-0.7812115,-0.0422479999999999,1.102512,-0.7667115,-0.0265959999999999
195,1.0043,0.7461485,0.0702325,0.8525469999999999,0.4845885,0.0406865,0.7381770000000001,0.7127285,0.0028824999999999,1.158157,0.4959985,0.0543435,1.285557,0.7023685000000001,0.0073675,0.7130970000000001,0.9793185,-0.0700695,1.354777,0.9464485,-0.0620005,0.928137,-0.0007155,-0.0024194999999999,1.071863,0.0007155,0.0024194999999999,0.866017,-0.4194615,-0.0316505,1.106447,-0.4014115,-0.0408945,0.855267,-0.7837415,-0.0408785,1.102977,-0.7676014999999999,-0.0236065
196,1.004783,0.7459085,0.0707635,0.853024,0.4841884999999999,0.0410165,0.7388140000000001,0.7118384999999999,0.0040945,1.158534,0.4959285,0.0548055,1.285814,0.7022984999999999,0.0082205,0.7136640000000001,0.9787885,-0.0682445,1.354814,0.9457885,-0.0601605,0.928036,-0.0007355,-0.0023524999999999,1.071964,0.0007355,0.0023525,0.866384,-0.4206015,-0.0272504999999999,1.106884,-0.4016215,-0.0363255,0.855564,-0.7855915,-0.0396694999999999,1.103504,-0.7682315000000001,-0.0208445
197,1.0052705,0.7457940000000001,0.071103,0.8534225,0.4841239999999999,0.0412929999999999,0.7392825000000001,0.711604,0.00469,1.1589325,0.495704,0.0550859999999999,1.2862325000000001,0.7023240000000001,0.008696,0.7141725,0.978664,-0.066747,1.3550325,0.945424,-0.0588579999999999,0.9279205000000001,-0.0007399999999999,-0.0022509999999999,1.0720794999999999,0.0007399999999999,0.002251,0.8667925,-0.421226,-0.0238959999999999,1.1074424999999999,-0.401636,-0.032861,0.8558325,-0.786886,-0.038852,1.1040425,-0.767836,-0.01842
198,1.0057315,0.7456915,0.0714125,0.8538395,0.4842915,0.0416005,0.7398395,0.7115214999999999,0.0053255,1.1592395,0.4954415,0.0552765,1.2867594999999998,0.7024214999999999,0.0092005,0.7147495000000001,0.9785115,-0.0652524999999999,1.3553795,0.9450615,-0.0576604999999999,0.9278175,-0.0007465,-0.0021204999999999,1.0721825,0.0007464999999999,0.0021205,0.8672895,-0.4216884999999999,-0.0210684999999999,1.1080495,-0.4014785,-0.0297134999999999,0.8562295,-0.7879985,-0.0380125,1.1046595,-0.7675985000000001,-0.0160044999999999
199,1.0061745,0.7456210000000001,0.0716985,0.8541755,0.484651,0.0417675,0.7403554999999999,0.7116410000000001,0.0058325,1.1595455000000001,0.4953709999999999,0.0553855,1.2871955,0.7025910000000001,0.0097065,0.7152955,0.9785310000000002,-0.0639325,1.3557154999999999,0.944781,-0.0568255,0.9276915,-0.000708,-0.0020424999999999,1.0723085,0.000708,0.0020425,0.8677555,-0.422109,-0.0185895,1.1085955,-0.401249,-0.0270794999999999,0.8566255,-0.788909,-0.0372195,1.1052355,-0.7673589999999999,-0.0139724999999999
200,1.00655,0.745572,0.072061,0.8544880000000001,0.484852,0.041757,0.7405379999999999,0.712192,0.006423,1.1597979999999999,0.495362,0.055281,1.287578,0.702712,0.010216,0.715678,0.978772,-0.0627419999999999,1.356048,0.944522,-0.056194,0.927607,-0.0006369999999999,-0.0018969999999999,1.072393,0.0006369999999999,0.001897,0.868178,-0.422638,-0.016148,1.1091179999999998,-0.401098,-0.024659,0.856998,-0.789808,-0.036336,1.105798,-0.767528,-0.0126539999999999
201,1.0069635,0.7455674999999999,0.0723185,0.8548465000000001,0.4847475,0.0416825,0.7406965000000001,0.7127375,0.0070615,1.1600865,0.4953774999999999,0.0550165,1.2879965,0.7027675,0.0106465,0.7160565000000001,0.9789475,-0.0617924999999999,1.3564465,0.9442975,-0.0555634999999999,0.9275685,-0.0005685,-0.0017895,1.0724315,0.0005684999999999,0.0017895,0.8686365,-0.4238125,-0.0140224999999999,1.1096765,-0.4009325,-0.0224035,0.8573365,-0.7905625000000001,-0.0353785,1.1064265,-0.7677525000000001,-0.0114705
202,1.0074645,0.7455445,0.0723305,0.8552935,0.4846044999999999,0.0415435,0.7408635,0.7130845,0.0078805,1.1604035,0.4953645,0.0542015,1.2884835,0.7028945000000001,0.0107475,0.7164735000000001,0.9792145,-0.0609785,1.3567735,0.9438345,-0.0547455,0.9275535,-0.0004914999999999,-0.0017754999999999,1.0724465,0.0004914999999999,0.0017755,0.8691835,-0.4245555,-0.0122805,1.1103535,-0.4008455,-0.0207555,0.8578135,-0.7912655,-0.0342465,1.1072135,-0.7679855,-0.0103404999999999
203,1.0080414999999998,0.745779,0.0720935,0.8557155,0.4846189999999999,0.0413495,0.7409654999999999,0.713719,0.0084525,1.1607055,0.495529,0.0531335,1.2890255,0.7030289999999999,0.0106425,0.7168755,0.979629,-0.0600244999999999,1.3571054999999999,0.943419,-0.0537885,0.9275445,-0.0004699999999999,-0.0017735,1.0724555,0.0004699999999999,0.0017734999999999,0.8697655,-0.424941,-0.0106555,1.1109855,-0.4006909999999999,-0.0197265,0.8582655000000001,-0.791691,-0.0329885,1.1080755,-0.769011,-0.0092515
204,1.0086095,0.7458295,0.071824,0.8561894999999999,0.4846495,0.041369,0.7411395000000001,0.7143095,0.009108,1.1611095,0.4956195,0.052301,1.2895495000000001,0.7030495,0.010385,0.7174195,0.9799495,-0.058826,1.3576695,0.9424595,-0.053187,0.9275395,-0.0004675,-0.0016799999999999,1.0724605,0.0004675,0.00168,0.8703895,-0.4249205,-0.0092319999999999,1.1116294999999998,-0.4005105,-0.018532,0.8587595,-0.7916704999999999,-0.031616,1.1087695,-0.7694304999999999,-0.008058
205,1.0089695,0.745605,0.071422,0.8564275,0.4848049999999999,0.04123,0.7410375,0.714285,0.009866,1.1614175,0.495525,0.051235,1.2899574999999999,0.7028249999999999,0.009892,0.7177374999999999,0.979595,-0.057377,1.3580575,0.941355,-0.052812,0.9275485,-0.000442,-0.0016289999999999,1.0724515000000001,0.0004419999999999,0.001629,0.8708075,-0.424875,-0.0077599999999999,1.1120775,-0.400535,-0.017061,0.8591875000000001,-0.791625,-0.0299059999999999,1.1092675,-0.7697050000000001,-0.0065879999999999
206,1.0091635,0.745424,0.070256,0.8564645,0.485084,0.0406679999999999,0.7406745,0.7140340000000001,0.0103769999999999,1.1615745,0.4953039999999999,0.04947,1.2901844999999998,0.702554,0.0088909999999999,0.7179145,0.979174,-0.056409,1.3582545,0.939524,-0.053755,0.9275635,-0.000412,-0.001517,1.0724365,0.000412,0.0015169999999999,0.8711645,-0.424796,-0.006067,1.1124045,-0.400636,-0.0153669999999999,0.8594445,-0.791546,-0.028016,1.1096145,-0.770046,-0.004895
207,1.009174,0.7454044999999999,0.0681519999999999,0.856211,0.4858245,0.0398339999999999,0.739941,0.7140145,0.010166,1.161501,0.4952844999999999,0.04746,1.290301,0.7023944999999999,0.0072179999999999,0.717801,0.9791545,-0.056441,1.358231,0.9374045,-0.055742,0.927568,-0.0003924999999999,-0.001395,1.072432,0.0003925,0.001395,0.871231,-0.4244354999999999,-0.004206,1.112431,-0.4004955,-0.014241,0.859251,-0.7914755,-0.026103,1.109691,-0.7705955,-0.003265
208,1.0091789999999998,0.7454044999999999,0.0653115,0.855701,0.4863845,0.0391735,0.738031,0.7140145,0.0093724999999999,1.161411,0.4952844999999999,0.0449945,1.2914409999999998,0.7021645,0.0042265,0.716341,0.9736545,-0.0584255,1.358471,0.9345745,-0.0595055,0.927571,-0.0003924999999999,-0.0013034999999999,1.072429,0.0003925,0.0013034999999999,0.871321,-0.4240655,-0.0017894999999999,1.112471,-0.4003255,-0.0130775,0.859111,-0.7913955,-0.0235465,1.109781,-0.7710955,-0.0012174999999999
209,1.0093064999999999,0.7452145,0.061902,0.8556765,0.4863845,0.038494,0.7353365000000001,0.7125745,0.007982,1.1613265,0.4952844999999999,0.042177,1.2937965,0.6994845,0.0004989999999999,0.7156665,0.9678545,-0.06054,1.3589365,0.9307445,-0.064247,0.9275755,-0.0003924999999999,-0.0011879999999999,1.0724245,0.0003925,0.001188,0.8713965,-0.4235255,0.0004739999999999,1.1125065,-0.4001355,-0.0120779999999999,0.8592065,-0.7913355000000001,-0.02103,1.1099065,-0.7716055,0.0008839999999999
210,1.0094175,0.7449245,0.058322,0.8556175000000001,0.4864545,0.03791,0.7312475,0.7086345,0.0061259999999999,1.1612675000000001,0.4950645,0.0392629999999999,1.2976675,0.6945045,-0.003884,0.7155575000000001,0.9565645,-0.062542,1.3584075,0.9253345,-0.069557,0.9275675,-0.0003224999999999,-0.000937,1.0724325,0.0003225,0.0009369999999999,0.8714475,-0.4229555,0.0027399999999999,1.1125075,-0.3998855,-0.010923,0.8592675000000001,-0.7912255,-0.018209,1.1100275,-0.7720955,0.0032189999999999
211,1.009289,0.7448665,0.0534554999999999,0.855217,0.4874365,0.0376104999999999,0.7236469999999999,0.6969065,0.0033834999999999,1.160947,0.4925665,0.0351084999999999,1.303707,0.6835365,-0.0103965,0.715017,0.9373865,-0.0664685,1.357177,0.9100165,-0.0796585,0.927497,-0.0001745,-0.0002395,1.072503,0.0001745,0.0002394999999999,0.871487,-0.4214434999999999,0.0045454999999999,1.1123669999999999,-0.3982635,-0.0097265,0.859017,-0.7902235,-0.0143595,1.109837,-0.7718135,0.0063804999999999
212,1.008597,0.745228,0.048469,0.854565,0.488248,0.0371289999999999,0.719345,0.673278,0.0053589999999999,1.159615,0.490168,0.031368,1.310425,0.658178,-0.014899,0.713835,0.905908,-0.0708459999999999,1.355265,0.879178,-0.0915459999999999,0.927344,-0.0001,0.0003119999999999,1.072656,9.999999999999593e-05,-0.0003119999999999,0.871345,-0.418342,0.0059429999999999,1.111795,-0.395132,-0.008409,0.8583350000000001,-0.788252,-0.009486,1.109115,-0.770852,0.0100799999999999
