sb224sc-HT22-VT27/4dt907/src/data/kinect_good_preprocessed_not_cut_A11_mediapipe/A113_kinect.csv
FrameNo,nose_3d_x,nose_3d_y,nose_3d_z,left_shoulder_3d_x,left_shoulder_3d_y,left_shoulder_3d_z,left_elbow_3d_x,left_elbow_3d_y,left_elbow_3d_z,right_shoulder_3d_x,right_shoulder_3d_y,right_shoulder_3d_z,right_elbow_3d_x,right_elbow_3d_y,right_elbow_3d_z,left_wrist_3d_x,left_wrist_3d_y,left_wrist_3d_z,right_wrist_3d_x,right_wrist_3d_y,right_wrist_3d_z,left_hip_3d_x,left_hip_3d_y,left_hip_3d_z,right_hip_3d_x,right_hip_3d_y,right_hip_3d_z,left_knee_3d_x,left_knee_3d_y,left_knee_3d_z,right_knee_3d_x,right_knee_3d_y,right_knee_3d_z,left_ankle_3d_x,left_ankle_3d_y,left_ankle_3d_z,right_ankle_3d_x,right_ankle_3d_y,right_ankle_3d_z
0,-0.034848,0.810931,0.0848635,-0.186425,0.523951,-0.0017725000000000032,-0.26188500000000003,0.311301,-0.05206350000000001,0.15324500000000002,0.530481,-0.0017965000000000064,0.24844500000000003,0.311061,-0.044186500000000004,-0.22280499999999998,0.13920100000000002,-0.26267450000000003,0.24339500000000003,0.150351,-0.2000545,-0.074044,-0.001981,3.149999999999681e-05,0.074044,0.001981,-3.150000000000375e-05,-0.129585,-0.560299,0.011282499999999994,0.128645,-0.547709,0.010994499999999994,-0.156735,-0.8918590000000001,-0.054387500000000005,0.14542500000000003,-0.883629,-0.047810500000000006
1,-0.0356715,0.8111170000000001,0.08504500000000001,-0.1872555,0.523947,-0.0020669999999999994,-0.2626555,0.312517,-0.054055000000000006,0.1525445,0.5308670000000001,-0.0020789999999999975,0.2472445,0.312307,-0.046917,-0.2434055,0.16591699999999998,-0.216165,0.2433545,0.14967699999999998,-0.203455,-0.0741945,-0.0017369999999999998,-0.00032100000000000184,0.0741945,0.0017369999999999998,0.00032100000000000184,-0.1302655,-0.5588329999999999,0.010669999999999999,0.1295645,-0.555043,0.01284,-0.1579155,-0.887563,-0.052332000000000004,0.1445345,-0.8844329999999999,-0.050985
2,-0.037308,0.8112975,0.08574499999999999,-0.18864999999999998,0.5240875,-0.0012790000000000024,-0.26554,0.3103075,-0.05495800000000001,0.15088000000000001,0.5311375,-0.002141000000000004,0.24548,0.3125675,-0.049293000000000003,-0.23146999999999998,0.1248275,-0.23326,0.24279,0.1422275,-0.20377,-0.07394600000000001,-0.0016055,-0.001351000000000005,0.07394600000000001,0.0016055,0.001350999999999998,-0.13157,-0.5587625,0.011369999999999995,0.12809,-0.5567025,0.013939999999999994,-0.15949,-0.8998925,-0.056256,0.14215,-0.8818025,-0.04496700000000001
3,-0.03786300000000001,0.8116345,0.085556,-0.18924600000000003,0.5242045,-0.0022089999999999957,-0.266016,0.3069545,-0.055749999999999994,0.15040399999999998,0.5313045,-0.002923999999999996,0.24573399999999998,0.3092645,-0.05109899999999999,-0.24136600000000002,0.13316450000000002,-0.200264,0.24381399999999998,0.1341445,-0.200144,-0.073857,-0.0019415,-0.0013889999999999944,0.073857,0.0019415,0.0013890000000000013,-0.13170600000000002,-0.5603855,0.011249000000000002,0.127874,-0.5569554999999999,0.014247000000000003,-0.15921600000000002,-0.8952955,-0.053594,0.14229399999999998,-0.8802955,-0.044453999999999994
4,-0.0386795,0.8112585,0.085061,-0.1895705,0.5240985,-0.003471000000000002,-0.26830050000000005,0.3028185,-0.053921,0.1500695,0.5308485000000001,-0.003476,0.2460795,0.3055985,-0.049437999999999996,-0.2369505,0.1117985,-0.197697,0.2382295,0.08187249999999999,-0.200527,-0.0738825,-0.0017825,-0.0016240000000000004,0.0738825,0.0017825,0.0016240000000000004,-0.1320505,-0.5595715,0.011695,0.1272495,-0.5568015,0.015255999999999999,-0.1583405,-0.8942114999999999,-0.04983,0.1417495,-0.8797115,-0.041026999999999994
5,-0.039438,0.8113275,0.085401,-0.189898,0.5239175,-0.005618999999999999,-0.269088,0.29843749999999997,-0.050594,0.149382,0.5312975,-0.003269999999999995,0.24599200000000002,0.2984475,-0.044699,-0.236798,0.0914305,-0.18256,0.236852,0.08068750000000001,-0.18019,-0.07398199999999999,-0.0020945,-0.001915999999999994,0.07398199999999999,0.0020945,0.001916000000000001,-0.132708,-0.5595825,0.012412000000000003,0.126772,-0.5593325,0.016591000000000005,-0.157618,-0.8965925,-0.05323399999999999,0.14721199999999998,-0.8966725,-0.05753
6,-0.0399005,0.811408,0.0853045,-0.1899655,0.5234880000000001,-0.007622499999999997,-0.27094549999999995,0.289638,-0.0450175,0.1495245,0.5318980000000001,-0.003095499999999994,0.2466345,0.291028,-0.03717949999999999,-0.2387755,0.06820799999999999,-0.14842850000000002,0.2358345,0.073379,-0.15410849999999998,-0.0740295,-0.002317,-0.0019344999999999987,0.0740295,0.002317,0.0019345000000000057,-0.1331455,-0.559832,0.012932500000000003,0.12630450000000001,-0.558792,0.017301500000000004,-0.1584855,-0.896762,-0.0505225,0.1447645,-0.880092,-0.03686149999999999
7,-0.038638,0.810381,0.08171700000000001,-0.190415,0.523261,-0.008029999999999995,-0.266925,0.283151,-0.03705299999999999,0.14981499999999998,0.5316609999999999,-0.002672999999999995,0.239545,0.28779099999999996,-0.024923999999999988,-0.247135,0.062175999999999995,-0.13058799999999998,0.234825,0.06614800000000001,-0.13186799999999999,-0.073836,-0.002171,-0.0017519999999999966,0.073836,0.002171,0.0017520000000000036,-0.13232499999999997,-0.558639,0.012813000000000005,0.12684499999999999,-0.557499,0.017206000000000006,-0.15940500000000002,-0.8909590000000001,-0.048909999999999995,0.14225500000000002,-0.880409,-0.041845999999999994
8,-0.038623500000000005,0.810072,0.0802765,-0.19061350000000002,0.523192,-0.0090745,-0.2661435,0.278362,-0.03275449999999999,0.14974649999999998,0.531712,-0.0024754999999999985,0.23703649999999998,0.283862,-0.0196785,-0.2492335,0.050119,-0.1131945,0.2334065,0.054515,-0.1145845,-0.07381650000000001,-0.00224,-0.0017794999999999964,0.07381650000000001,0.00224,0.0017795000000000033,-0.1323535,-0.558568,0.013253500000000001,0.1267765,-0.557678,0.017939500000000004,-0.15928350000000002,-0.890578,-0.0479695,0.14220649999999999,-0.879848,-0.0412115
9,-0.03854250000000001,0.809781,0.07841200000000001,-0.19077650000000002,0.523061,-0.009998999999999994,-0.2651865,0.274071,-0.027955999999999995,0.14974349999999997,0.531691,-0.0021749999999999964,0.2344935,0.280281,-0.013985999999999998,-0.2501065,0.039684,-0.09550600000000001,0.23220349999999998,0.048646,-0.09639599999999998,-0.07381650000000001,-0.002369,-0.001786999999999997,0.07381650000000001,0.002369,0.0017870000000000039,-0.13235650000000002,-0.558679,0.013699000000000003,0.1267035,-0.557809,0.018352000000000004,-0.1590665,-0.890739,-0.047209,0.1424635,-0.879979,-0.040501999999999996
10,-0.038454499999999996,0.8093615000000001,0.0763105,-0.19109949999999998,0.5229115000000001,-0.010691499999999993,-0.2640495,0.2702815,-0.0228145,0.1497405,0.5315915,-0.0018934999999999924,0.2318105,0.2774215,-0.008080499999999997,-0.2517495,0.0315805,-0.07973649999999999,0.2310605,0.042839499999999996,-0.08114649999999998,-0.07381650000000001,-0.0025104999999999997,-0.0017874999999999974,0.07381650000000001,0.0025104999999999997,0.0017875000000000044,-0.13226949999999998,-0.5581885,0.014098500000000007,0.1266005,-0.5575285,0.018765500000000004,-0.15881949999999997,-0.8898685,-0.046191499999999996,0.1424705,-0.8801684999999999,-0.04009349999999999
11,-0.0383585,0.808899,0.0741495,-0.19149249999999998,0.522769,-0.011120500000000005,-0.2629725,0.267429,-0.018125500000000003,0.1497375,0.5313990000000001,-0.0016185000000000088,0.2290875,0.275329,-0.003412500000000006,-0.2526725,0.026412,-0.0688825,0.2299775,0.037788999999999996,-0.0707325,-0.07381650000000001,-0.002582,-0.0018015000000000045,0.07381650000000001,0.002582,0.0018014999999999975,-0.1322525,-0.5573509999999999,0.014478499999999991,0.12644750000000002,-0.557211,0.019145499999999996,-0.15866249999999998,-0.889111,-0.044882500000000006,0.1424675,-0.880161,-0.0394545
12,-0.03822,0.808403,0.0720885,-0.192025,0.5227529999999999,-0.011256500000000003,-0.261855,0.265363,-0.014480500000000007,0.149775,0.531153,-0.0012805000000000039,0.22636499999999998,0.27409300000000003,-0.0003845000000000029,-0.253225,0.022886,-0.0631865,0.22889500000000002,0.03374,-0.0643065,-0.073794,-0.002636,-0.0018365000000000048,0.073794,0.002636,0.0018364999999999979,-0.132195,-0.5565770000000001,0.014896499999999993,0.126205,-0.5571670000000001,0.019434499999999993,-0.15868500000000002,-0.8884470000000001,-0.04381950000000001,0.142515,-0.880167,-0.038999500000000006
13,-0.037995,0.807894,0.07012650000000001,-0.192503,0.522794,-0.011152499999999996,-0.260673,0.26402400000000004,-0.011992499999999996,0.14993700000000001,0.530864,-0.000837499999999998,0.224267,0.273204,0.001178499999999999,-0.253023,0.020763,-0.060338499999999996,0.22828700000000002,0.030784999999999996,-0.0613285,-0.073763,-0.002647,-0.0018955000000000014,0.073763,0.002647,0.0018955000000000014,-0.131983,-0.555996,0.015335500000000002,0.126077,-0.556606,0.0197285,-0.158723,-0.888456,-0.0424385,0.142537,-0.879896,-0.0378045
14,-0.037656,0.8072585,0.068288,-0.192896,0.5228984999999999,-0.010930999999999996,-0.259286,0.2632885,-0.010965999999999997,0.150134,0.5305885,-0.00044199999999999795,0.222774,0.2724585,0.0019699999999999995,-0.25269600000000003,0.0204875,-0.059538999999999995,0.227574,0.0290975,-0.060538999999999996,-0.073724,-0.0026725000000000004,-0.001917999999999996,0.073724,0.0026725000000000004,0.001918000000000003,-0.131656,-0.5558215,0.015845000000000005,0.126054,-0.5561315,0.020011,-0.158606,-0.8884515000000001,-0.04132999999999999,0.142654,-0.8798315,-0.037274
15,-0.03725199999999999,0.806594,0.066842,-0.193213,0.522984,-0.010331,-0.258163,0.262884,-0.010145000000000001,0.150347,0.530244,-2.4999999999997247e-05,0.222007,0.27184400000000003,0.0027830000000000008,-0.252303,0.020193,-0.058720999999999995,0.226707,0.028737,-0.059720999999999996,-0.073686,-0.002701,-0.001913999999999999,0.073686,0.002701,0.001913999999999999,-0.13128299999999998,-0.555816,0.016384000000000003,0.126047,-0.555636,0.020309,-0.15834299999999998,-0.888326,-0.040378,0.142847,-0.879816,-0.036457
16,-0.036847000000000005,0.8059825,0.0655775,-0.193495,0.5231325,-0.009684499999999999,-0.257715,0.2626325,-0.009410500000000002,0.150515,0.5299025,0.00031749999999999834,0.221615,0.2713025,0.0035135000000000027,-0.251595,0.0199415,-0.057986499999999996,0.225755,0.0284855,-0.05899649999999999,-0.07367599999999999,-0.0027045,-0.001961499999999998,0.07367599999999999,0.0027045,0.001961499999999998,-0.13092499999999999,-0.5560075,0.0169375,0.125925,-0.5551875,0.0204085,-0.158015,-0.8881975,-0.0394795,0.143155,-0.8800275,-0.035722500000000004
17,-0.036449999999999996,0.805266,0.0644775,-0.19374000000000002,0.523296,-0.008998500000000006,-0.25701,0.262416,-0.008720500000000006,0.15076,0.529606,0.0005894999999999928,0.22164,0.27100599999999997,0.0029444999999999957,-0.24936999999999998,0.02008,-0.06035750000000001,0.22427000000000002,0.028269,-0.06078750000000001,-0.073673,-0.002675,-0.001969500000000006,0.073673,0.0026750000000000003,0.001969499999999999,-0.13062999999999997,-0.557024,0.017444499999999995,0.12588,-0.554764,0.020483499999999995,-0.15764,-0.888414,-0.038790500000000006,0.14354,-0.880344,-0.03503450000000001
18,-0.036076500000000004,0.8045935000000001,0.0638575,-0.1940505,0.5234435000000001,-0.008377500000000003,-0.2562105,0.2623735,-0.009021500000000002,0.15097950000000002,0.5293635,0.0009354999999999988,0.2216795,0.27084349999999996,0.0012604999999999977,-0.2465805,0.0224585,-0.0658325,0.2223695,0.0281065,-0.0667225,-0.0736665,-0.0026214999999999997,-0.001969500000000006,0.0736665,0.0026215,0.001969499999999999,-0.1303505,-0.5580065,0.017882499999999996,0.1260195,-0.5545565,0.020742499999999997,-0.1573205,-0.8885765,-0.038166500000000006,0.1440195,-0.8804965,-0.034267500000000006
19,-0.035616,0.804009,0.0635545,-0.19420600000000002,0.5235789999999999,-0.007802499999999997,-0.255316,0.262849,-0.010955499999999993,0.151194,0.5292389999999999,0.0014285000000000062,0.22159399999999999,0.270719,-0.0013744999999999938,-0.24341600000000002,0.026347,-0.07517449999999999,0.219824,0.029668999999999997,-0.07564449999999999,-0.07369300000000001,-0.002563,-0.0019464999999999968,0.07369300000000001,0.002563,0.0019465000000000038,-0.130056,-0.558771,0.018372500000000007,0.126224,-0.5545910000000001,0.021032500000000003,-0.156926,-0.888911,-0.0377825,0.14454399999999998,-0.8804810000000001,-0.03335149999999999
20,-0.035217,0.803443,0.0633605,-0.194318,0.523713,-0.007183500000000002,-0.254618,0.26382300000000003,-0.013990500000000003,0.151372,0.5291429999999999,0.0019994999999999943,0.221042,0.270623,-0.0050545000000000034,-0.24010800000000002,0.03097,-0.08699150000000001,0.216582,0.031878,-0.0875615,-0.07370399999999999,-0.002514,-0.0018795000000000062,0.07370399999999999,0.002514,0.0018794999999999992,-0.12967800000000002,-0.559137,0.0188645,0.12651199999999999,-0.554637,0.021295499999999995,-0.156258,-0.8897970000000001,-0.0380095,0.145112,-0.880397,-0.0323495
21,-0.0347755,0.8028865000000001,0.0634185,-0.1942275,0.5237465,-0.006479499999999999,-0.2540275,0.2652465,-0.017863500000000004,0.1514525,0.5290965,0.0024565000000000003,0.2203225,0.2706865,-0.009419499999999997,-0.2364175,0.0363585,-0.10106050000000001,0.2128225,0.0351075,-0.1014605,-0.0737255,-0.0024725000000000003,-0.0018104999999999996,0.0737255,0.0024725,0.0018104999999999996,-0.1291775,-0.5594735,0.019366500000000002,0.1271325,-0.5550335,0.021705500000000003,-0.1552875,-0.8905935,-0.038002499999999995,0.1458225,-0.8804434999999999,-0.0318915
22,-0.0345425,0.8022965,0.063527,-0.1941775,0.5237665,-0.005836000000000001,-0.2535575,0.2670465,-0.022820999999999994,0.1513025,0.5290865,0.0026250000000000023,0.2193525,0.2716465,-0.014303999999999997,-0.2324175,0.0423195,-0.116022,0.20787250000000002,0.0397065,-0.115852,-0.0737235,-0.0024725000000000003,-0.0017269999999999994,0.0737235,0.0024725,0.0017269999999999994,-0.1286975,-0.5598335,0.019771999999999998,0.1277425,-0.5552035,0.02203,-0.1543575,-0.8910435,-0.037467,0.1464925,-0.8805634999999999,-0.03161799999999999
23,-0.0344595,0.8018265,0.0637115,-0.19422250000000002,0.5237665,-0.005216500000000006,-0.2531525,0.2688565,-0.028135500000000008,0.1509875,0.5290965,0.0027114999999999986,0.2182675,0.2726365,-0.018779500000000005,-0.2283625,0.0485895,-0.1306865,0.2027375,0.0447495,-0.12899650000000001,-0.0736365,-0.0024725000000000003,-0.0016555000000000042,0.0736365,0.0024725,0.0016554999999999973,-0.12836250000000002,-0.5601535,0.020131499999999997,0.1282375,-0.5552035,0.022329499999999995,-0.1538025,-0.8916835,-0.0375085,0.14708749999999998,-0.8807834999999999,-0.031178499999999998
24,-0.034552,0.8013465,0.0638855,-0.194361,0.5237665,-0.004699500000000002,-0.252761,0.27077650000000003,-0.0331805,0.150549,0.5291265,0.0027024999999999966,0.217069,0.2737565,-0.022621500000000003,-0.224541,0.054739499999999996,-0.1432105,0.197459,0.0501555,-0.1406505,-0.073577,-0.0024725000000000003,-0.0015985000000000027,0.073577,0.0024725,0.0015984999999999958,-0.128051,-0.5605034999999999,0.020422499999999996,0.128729,-0.5555835,0.0225705,-0.153231,-0.8919135,-0.0375385,0.147499,-0.8805634999999999,-0.030295500000000003
25,-0.0346285,0.8008974999999999,0.064086,-0.1944975,0.5237474999999999,-0.004186000000000002,-0.2523675,0.27278749999999996,-0.037515,0.1500825,0.5291775,0.0027280000000000013,0.2159325,0.2750475,-0.025714000000000008,-0.2208975,0.0605095,-0.153627,0.19233250000000002,0.0556295,-0.150177,-0.07354649999999999,-0.0024255,-0.0015560000000000018,0.07354649999999999,0.0024255,0.0015560000000000018,-0.1277575,-0.5617225,0.020835,0.12922250000000002,-0.5556125000000001,0.022876,-0.1527275,-0.8923525,-0.037494000000000006,0.1480325,-0.8803725,-0.029449999999999997
26,-0.034775,0.8005895,0.064233,-0.194658,0.5236995,-0.0037489999999999954,-0.251958,0.27470950000000005,-0.04076,0.149612,0.5292494999999999,0.002694000000000002,0.214962,0.27630950000000004,-0.027534999999999997,-0.217618,0.0656235,-0.161005,0.18790199999999999,0.060330499999999995,-0.15654500000000002,-0.073515,-0.0023815,-0.0015529999999999988,0.073515,0.0023815,0.0015529999999999988,-0.127478,-0.5624905,0.02114,0.129642,-0.5556905,0.023118,-0.15229800000000002,-0.8933905,-0.0386,0.148552,-0.8801105,-0.028831000000000002
27,-0.035001500000000005,0.8002875,0.0644305,-0.1947645,0.5237375000000001,-0.003440499999999999,-0.2515545,0.2763575,-0.04264950000000001,0.1491655,0.5293775000000001,0.0027205000000000007,0.2144355,0.27750749999999996,-0.028088500000000002,-0.2149345,0.0690335,-0.16519450000000002,0.1848455,0.0639695,-0.1594645,-0.0735025,-0.0023485,-0.0015785000000000035,0.0735025,0.0023485,0.0015784999999999966,-0.1271745,-0.5631324999999999,0.0214965,0.13002550000000002,-0.5556325,0.023418500000000002,-0.1517545,-0.8941224999999999,-0.039579500000000004,0.14906550000000002,-0.8792224999999999,-0.028090500000000004
28,-0.035139,0.7998985,0.06486700000000001,-0.19476200000000002,0.5237584999999999,-0.0028539999999999954,-0.251102,0.2768585,-0.042157,0.148898,0.5295084999999999,0.003043000000000004,0.214758,0.2785785,-0.027499999999999997,-0.213252,0.0707355,-0.165566,0.18370799999999998,0.0665025,-0.158886,-0.073608,-0.0023205,-0.0017379999999999965,0.073608,0.0023204999999999996,0.0017380000000000034,-0.12671200000000002,-0.5635515000000001,0.022084000000000006,0.130678,-0.5557915,0.024074000000000005,-0.151002,-0.8948715,-0.03973099999999999,0.149638,-0.8786315,-0.027149999999999994
29,-0.035333,0.799674,0.065288,-0.194778,0.523744,-0.0022930000000000034,-0.250698,0.276844,-0.041594000000000006,0.14866200000000002,0.529644,0.0034150000000000014,0.21516200000000002,0.279064,-0.026937000000000003,-0.212798,0.070993,-0.165003,0.184112,0.067897,-0.158323,-0.073715,-0.002265,-0.001899999999999999,0.073715,0.002265,0.001899999999999999,-0.12635800000000003,-0.563986,0.022647,0.13108199999999998,-0.5558059999999999,0.024637,-0.150268,-0.894976,-0.039542999999999995,0.15018199999999998,-0.8780359999999999,-0.026230000000000003
30,-0.035583000000000004,0.7995865,0.065501,-0.194884,0.5237065,-0.0018650000000000055,-0.250384,0.2768065,-0.04115200000000001,0.14857599999999999,0.5297565000000001,0.0036809999999999968,0.215476,0.2792065,-0.026495000000000005,-0.212484,0.0709555,-0.164561,0.18442599999999998,0.0678595,-0.157881,-0.07386799999999999,-0.0022275,-0.002038999999999999,0.07386799999999999,0.0022275000000000003,0.002038999999999999,-0.12607400000000002,-0.5641035,0.023089,0.13139599999999999,-0.5558434999999999,0.02506,-0.149644,-0.8950135,-0.039426,0.150666,-0.8777935,-0.02590200000000001
31,-0.0358105,0.7995439999999999,0.0654595,-0.1950305,0.5236639999999999,-0.0015414999999999943,-0.2504905,0.276764,-0.040724500000000004,0.14861950000000002,0.529864,0.0038925,0.21569950000000002,0.279384,-0.0255545,-0.2122605,0.070913,-0.1641325,0.1846495,0.067817,-0.15724249999999998,-0.0740065,-0.002185,-0.0021504999999999996,0.0740065,0.0021850000000000003,0.0021504999999999996,-0.1258605,-0.564146,0.023474500000000002,0.1317395,-0.5562360000000001,0.0254775,-0.1492305,-0.8950560000000001,-0.0394315,0.1510295,-0.8777360000000001,-0.02564249999999999
32,-0.0361575,0.799507,0.065252,-0.1952035,0.5236770000000001,-0.0013060000000000016,-0.2512235,0.27636700000000003,-0.038369999999999994,0.14861649999999998,0.529957,0.004049999999999998,0.2166965,0.279677,-0.023078999999999995,-0.2121135,0.070876,-0.16059199999999998,0.1853765,0.06777999999999999,-0.152452,-0.0741145,-0.002148,-0.002242000000000001,0.0741145,0.002148,0.002242000000000001,-0.1257135,-0.564183,0.023835000000000002,0.1319865,-0.5565829999999999,0.025856000000000004,-0.1490735,-0.894613,-0.038268,0.15133649999999998,-0.877793,-0.025785999999999996
33,-0.036378499999999994,0.799437,0.064662,-0.19535650000000002,0.523707,-0.0012549999999999992,-0.25250649999999997,0.275537,-0.03445600000000001,0.1487335,0.530037,0.0036549999999999985,0.2182135,0.280047,-0.01971,-0.2133765,0.06920399999999999,-0.152674,0.1881035,0.066796,-0.144704,-0.07420750000000001,-0.002107,-0.0023050000000000015,0.07420750000000001,0.002107,0.0023050000000000015,-0.1255365,-0.564253,0.024015999999999996,0.1322935,-0.556883,0.026094,-0.1489165,-0.894053,-0.036907,0.1516835,-0.878033,-0.026131999999999996
34,-0.036622,0.799473,0.06369,-0.195574,0.523663,-0.0013309999999999989,-0.254614,0.27437300000000003,-0.028703999999999993,0.148806,0.530113,0.003146000000000003,0.220286,0.280193,-0.015490999999999991,-0.216674,0.06576,-0.14175700000000002,0.19356600000000002,0.063786,-0.133697,-0.07430500000000001,-0.0020740000000000003,-0.0023149999999999976,0.07430500000000001,0.002074,0.0023150000000000046,-0.12537399999999999,-0.5642170000000001,0.024065000000000003,0.132586,-0.5571170000000001,0.0262,-0.148754,-0.893687,-0.03593099999999999,0.15193600000000002,-0.8778670000000001,-0.025755
35,-0.036903500000000006,0.7996145,0.0624325,-0.1959025,0.5235745,-0.0015344999999999942,-0.25694249999999996,0.27304449999999997,-0.022402499999999992,0.1488775,0.5301645,0.0023895000000000027,0.2227575,0.2803345,-0.010761499999999993,-0.2217625,0.0608035,-0.1277415,0.2008575,0.059392499999999994,-0.1191115,-0.07440050000000001,-0.0020495,-0.002308499999999998,0.07440050000000001,0.0020495,0.002308500000000005,-0.1252125,-0.5640655,0.024045500000000004,0.1328075,-0.5574355,0.026288500000000006,-0.14859250000000002,-0.8934755,-0.03514049999999999,0.15221749999999998,-0.8774455,-0.025885499999999992
36,-0.037104000000000005,0.799896,0.060933,-0.196276,0.523506,-0.0018530000000000005,-0.259396,0.271526,-0.016149999999999998,0.148984,0.530186,0.0013810000000000003,0.22560399999999997,0.280376,-0.006404999999999994,-0.228456,0.054792,-0.11089900000000001,0.21017399999999997,0.053679000000000004,-0.10256900000000001,-0.074512,-0.0020320000000000004,-0.0022970000000000004,0.074512,0.002032,0.0022970000000000004,-0.125066,-0.564004,0.023955000000000004,0.133104,-0.5579339999999999,0.026250000000000002,-0.14860600000000002,-0.893354,-0.03459999999999999,0.152464,-0.8773639999999999,-0.02545499999999999
37,-0.037331,0.8003570000000001,0.059292000000000004,-0.196835,0.5234570000000001,-0.0023199999999999957,-0.262005,0.269907,-0.010502999999999998,0.148975,0.530277,3.600000000000131e-05,0.228415,0.280267,-0.0030820000000000014,-0.236705,0.048694,-0.093179,0.220605,0.04777,-0.08575899999999999,-0.074503,-0.002092,-0.0022970000000000004,0.074503,0.002092,0.0022970000000000004,-0.125055,-0.563913,0.023864000000000003,0.133115,-0.557693,0.026250000000000002,-0.148865,-0.8933629999999999,-0.034635,0.152395,-0.8774829999999999,-0.024987999999999996
38,-0.0375385,0.800878,0.057624,-0.1974195,0.523438,-0.0029479999999999992,-0.2645995,0.26845800000000003,-0.007406999999999997,0.1489605,0.5303779999999999,-0.0016699999999999979,0.2311705,0.280148,-0.0030610000000000012,-0.24557950000000003,0.044206,-0.08161900000000001,0.2317705,0.042844,-0.07520900000000001,-0.07446749999999999,-0.0021609999999999997,-0.0022970000000000004,0.07446749999999999,0.0021609999999999997,0.0022970000000000004,-0.1250395,-0.5640320000000001,0.023864000000000003,0.13299049999999998,-0.5568420000000001,0.026249,-0.1490495,-0.8933420000000001,-0.03468399999999999,0.15233049999999998,-0.8775620000000001,-0.024877999999999997
39,-0.037766,0.801553,0.056156000000000005,-0.197924,0.523413,-0.0036289999999999933,-0.267194,0.267723,-0.0074699999999999905,0.148946,0.530513,-0.003606999999999999,0.23369600000000001,0.280053,-0.0031009999999999927,-0.254624,0.041315000000000004,-0.07767999999999999,0.24335600000000002,0.039648,-0.07276999999999999,-0.07444300000000001,-0.0022479999999999996,-0.002244999999999997,0.07444300000000001,0.002248,0.002245000000000004,-0.125014,-0.564127,0.023813000000000008,0.13289600000000001,-0.556157,0.026198000000000006,-0.149204,-0.893527,-0.035441,0.152396,-0.878447,-0.025404999999999997
40,-0.0379735,0.8023399999999999,0.05490899999999999,-0.1982845,0.5234099999999999,-0.0047740000000000005,-0.2694245,0.26764,-0.008004000000000011,0.14892550000000002,0.5306299999999999,-0.006081000000000003,0.2359555,0.28004,-0.003615000000000007,-0.2634945,0.03952,-0.07824400000000001,0.2553255,0.038897,-0.073244,-0.07438249999999999,-0.0023229999999999995,-0.002009000000000004,0.07438249999999999,0.002323,0.002008999999999997,-0.1250245,-0.5639900000000001,0.023287999999999996,0.1327855,-0.5559000000000001,0.025733,-0.1494745,-0.8935000000000001,-0.03671300000000001,0.1524255,-0.87922,-0.026331000000000007
41,-0.038033000000000004,0.802977,0.053852,-0.198411,0.523327,-0.006233000000000002,-0.272041,0.267557,-0.008876000000000009,0.148859,0.530747,-0.00905700000000001,0.238679,0.28019700000000003,-0.004461,-0.273211,0.039437,-0.079153,0.26783900000000005,0.038814,-0.074043,-0.074325,-0.002406,-0.0017060000000000061,0.074325,0.002406,0.0017059999999999992,-0.125001,-0.563913,0.022538999999999997,0.132669,-0.555463,0.024988999999999997,-0.14977100000000002,-0.893583,-0.037573999999999996,0.152479,-0.880043,-0.027561000000000002
42,-0.0380065,0.8036165000000001,0.0526915,-0.19835049999999999,0.5232765,-0.007977499999999998,-0.2751605,0.26748649999999996,-0.010541499999999995,0.1486695,0.5308665,-0.012248499999999996,0.2417395,0.28080649999999996,-0.008334499999999995,-0.2827905,0.0393665,-0.08035350000000001,0.2804695,0.0387435,-0.07514349999999999,-0.0742505,-0.0024775,-0.0014754999999999976,0.0742505,0.0024774999999999997,0.0014755000000000046,-0.1250105,-0.5637835,0.021532500000000003,0.1325995,-0.5549934999999999,0.0239595,-0.1501505,-0.8936535,-0.0386585,0.15250950000000002,-0.8808535,-0.029184500000000002
43,-0.037925,0.804223,0.051229,-0.198262,0.523263,-0.009877999999999998,-0.278172,0.268573,-0.01668900000000001,0.148338,0.530993,-0.015361,0.245648,0.282603,-0.016881000000000007,-0.292162,0.039303,-0.08700600000000001,0.292688,0.03868,-0.083576,-0.074169,-0.0025410000000000003,-0.0013100000000000056,0.074169,0.002541,0.0013099999999999987,-0.125032,-0.5638369999999999,0.02037,0.132598,-0.555387,0.022671999999999998,-0.150462,-0.893737,-0.040204000000000004,0.152448,-0.8814569999999999,-0.030811000000000005
44,-0.037823,0.8047964999999999,0.0495535,-0.19816,0.5232564999999999,-0.0116425,-0.2816,0.2727265,-0.029258499999999993,0.14784999999999998,0.5311265,-0.018087500000000006,0.24928,0.2857365,-0.030045500000000003,-0.30181,0.0411575,-0.1034615,0.30218,0.0424625,-0.10231150000000001,-0.07408999999999999,-0.0025845,-0.0012015000000000012,0.07408999999999999,0.0025845,0.0012015000000000012,-0.12504,-0.5639035,0.0190045,0.13280999999999998,-0.5564735000000001,0.0213145,-0.15072000000000002,-0.8938735000000001,-0.042333499999999996,0.15241,-0.8819035000000001,-0.032645499999999994
45,-0.037604,0.805381,0.0486465,-0.197937,0.523231,-0.013431499999999999,-0.28495699999999996,0.281391,-0.0447245,0.147373,0.531251,-0.020256499999999997,0.252773,0.294701,-0.0462245,-0.311087,0.053219,-0.1276105,0.31140300000000004,0.057086,-0.1295105,-0.07408100000000001,-0.002599,-0.001071499999999996,0.07408100000000001,0.002599,0.001071500000000003,-0.12492700000000001,-0.564009,0.0176295,0.13311299999999998,-0.5574089999999999,0.0199335,-0.15071700000000002,-0.893939,-0.0441145,0.152443,-0.882429,-0.034951499999999996
46,-0.037351499999999996,0.8058105000000001,0.048306,-0.19738650000000002,0.5232105,-0.015389,-0.28824649999999996,0.29363049999999996,-0.064119,0.14685350000000003,0.5315205000000001,-0.022219000000000003,0.2562935,0.30585049999999997,-0.064269,-0.3197065,0.0782415,-0.156269,0.3196435,0.0823185,-0.160949,-0.0741165,-0.0026214999999999997,-0.0009610000000000035,0.0741165,0.0026214999999999997,0.0009609999999999966,-0.1248565,-0.5641094999999999,0.016222,0.13332349999999998,-0.5577694999999999,0.018564,-0.1506165,-0.8939995,-0.04573000000000001,0.1525335,-0.8830895,-0.037386
47,-0.036966500000000006,0.8063275000000001,0.048994499999999996,-0.1964795,0.5232475,-0.0174155,-0.2918595,0.3114575,-0.08423850000000001,0.1462005,0.5321475,-0.02425250000000001,0.2597905,0.3238775,-0.08426850000000001,-0.3284895,0.11190750000000001,-0.19110850000000001,0.32789050000000003,0.1204275,-0.19704850000000002,-0.07421749999999999,-0.0026505,-0.000840500000000001,0.07421749999999999,0.0026505,0.000840499999999994,-0.12482950000000001,-0.5641925,0.014823499999999996,0.1334805,-0.5582125,0.017124499999999997,-0.1506595,-0.8942325,-0.0476945,0.15256050000000002,-0.8833325,-0.03941650000000001
48,-0.036468999999999994,0.806786,0.0504055,-0.195235,0.523426,-0.019238500000000006,-0.295705,0.331906,-0.1046475,0.145595,0.533266,-0.026155499999999998,0.263215,0.345066,-0.1049275,-0.337245,0.15498599999999998,-0.22831749999999998,0.33433500000000005,0.166766,-0.23618750000000002,-0.074326,-0.0026999999999999997,-0.0007545000000000052,0.074326,0.0027,0.0007544999999999982,-0.12479499999999999,-0.564294,0.013519499999999997,0.133515,-0.558324,0.0158215,-0.150615,-0.894344,-0.0495945,0.152595,-0.883254,-0.0411985
49,-0.0360075,0.8070299999999999,0.0525655,-0.1935305,0.5242199999999999,-0.020159499999999997,-0.3003405,0.35702,-0.1245375,0.1451695,0.5346299999999999,-0.027223499999999998,0.2666295,0.37210000000000004,-0.1251475,-0.3469105,0.20537,-0.2668475,0.33907950000000003,0.22227999999999998,-0.2760475,-0.0744765,-0.0027589999999999993,-0.0006844999999999976,0.0744765,0.002759,0.0006845000000000045,-0.12480049999999998,-0.56464,0.012597500000000005,0.1336195,-0.5586300000000001,0.014770500000000006,-0.1504905,-0.8945700000000001,-0.05111449999999999,0.15258950000000002,-0.88393,-0.04315949999999999
50,-0.035473000000000005,0.80716,0.0553755,-0.191781,0.5250400000000001,-0.019955499999999994,-0.304261,0.38693,-0.14185050000000002,0.144949,0.53663,-0.026924499999999997,0.269909,0.40374,-0.1430505,-0.355131,0.26226999999999995,-0.3006505,0.340249,0.28787999999999997,-0.3101505,-0.07461599999999999,-0.002854,-0.000730500000000002,0.07461599999999999,0.0028539999999999998,0.000730500000000002,-0.12482099999999999,-0.56526,0.0119065,0.133699,-0.55929,0.0140635,-0.150511,-0.89486,-0.0522695,0.152529,-0.88473,-0.044240499999999995
51,-0.0348795,0.8069305,0.0582955,-0.19025150000000002,0.5258005,-0.019098499999999997,-0.30861150000000004,0.4210405,-0.15500150000000001,0.1449985,0.5386504999999999,-0.025682499999999997,0.2737485,0.4398605,-0.1560415,-0.3634915,0.3277405,-0.32624149999999996,0.3405885,0.3609605,-0.3359115,-0.0747195,-0.0028485,-0.0006764999999999965,0.0747195,0.0028485000000000003,0.0006765000000000035,-0.1247615,-0.5661795000000001,0.011690500000000003,0.1338385,-0.5602195000000001,0.013816500000000002,-0.1505015,-0.8954195,-0.05282149999999999,0.1524585,-0.8857695000000001,-0.044829499999999994
52,-0.03426850000000001,0.8058695,0.0607705,-0.1889075,0.5270295,-0.0175135,-0.3136275,0.4590295,-0.16229349999999998,0.14517249999999998,0.5411295,-0.023293499999999995,0.2765925,0.4803195,-0.16333350000000002,-0.37108749999999996,0.40306949999999997,-0.3404335,0.3408425,0.4415195,-0.3494735,-0.0748135,-0.0029275,-0.0006735000000000005,0.0748135,0.0029274999999999995,0.0006735000000000005,-0.12475750000000002,-0.5676605,0.011740500000000001,0.1340325,-0.5627705,0.0139565,-0.15056750000000002,-0.8967904999999999,-0.052780499999999994,0.1524025,-0.8874205,-0.044913499999999995
53,-0.0336205,0.804341,0.062128,-0.18780049999999998,0.528061,-0.015815999999999997,-0.3179005,0.49885100000000004,-0.162643,0.14534950000000002,0.543761,-0.020425,0.2783295,0.5226310000000001,-0.164113,-0.3759805,0.484401,-0.342263,0.3410295,0.523111,-0.34966299999999995,-0.0748885,-0.0029570000000000004,-0.000674000000000001,0.0748885,0.0029569999999999996,0.000674000000000001,-0.12481049999999999,-0.569219,0.011739,0.1342095,-0.5656789999999999,0.014039,-0.1506205,-0.898589,-0.052906999999999996,0.1523595,-0.889429,-0.044988
54,-0.032983,0.8023925,0.0621315,-0.18728799999999998,0.5287824999999999,-0.014109499999999997,-0.322338,0.5360425,-0.1626625,0.145462,0.5462925,-0.0173795,0.279692,0.5625625,-0.1641125,-0.37981800000000004,0.5618025,-0.3422825,0.340232,0.6029724999999999,-0.3496725,-0.07488500000000001,-0.0029645,-0.0006735000000000005,0.07488500000000001,0.0029645,0.0006735000000000005,-0.124978,-0.5713275000000001,0.011738500000000002,0.134302,-0.5690575,0.014038500000000002,-0.150498,-0.9006975,-0.052906499999999995,0.15227200000000002,-0.8921675,-0.045247499999999996
55,-0.032111,0.8001085,0.0621855,-0.186977,0.5304385,-0.012401500000000003,-0.326227,0.5726185,-0.16262150000000003,0.145763,0.5492085,-0.014379500000000003,0.280583,0.6017485,-0.16406150000000003,-0.382617,0.6330685,-0.3422415,0.337473,0.6781185,-0.3496315,-0.07479,-0.0028225000000000004,-0.000623500000000006,0.07479,0.0028224999999999986,0.0006234999999999991,-0.125137,-0.5741615,0.011788499999999997,0.134323,-0.5713415,0.014089499999999998,-0.150317,-0.9033815,-0.053068500000000005,0.152113,-0.8950715,-0.0454705
56,-0.0313155,0.797716,0.0625965,-0.18680750000000002,0.531926,-0.011000499999999996,-0.3299275,0.605456,-0.1622335,0.14620249999999999,0.551646,-0.011485499999999996,0.2809525,0.636716,-0.1636535,-0.38518749999999996,0.700436,-0.34184349999999997,0.3329625,0.745646,-0.34924350000000004,-0.0746765,-0.0027410000000000004,-0.00047749999999999876,0.0746765,0.0027410000000000004,0.00047749999999999876,-0.1253575,-0.577484,0.012103500000000003,0.13432249999999998,-0.573734,0.014496500000000002,-0.1501975,-0.905994,-0.0528255,0.15194249999999998,-0.897884,-0.0453065
57,-0.030601000000000003,0.7949335,0.063025,-0.186635,0.5339935,-0.009457,-0.333925,0.6373835000000001,-0.158368,0.146735,0.5539835,-0.008653000000000001,0.281555,0.6698135000000001,-0.159758,-0.38688500000000003,0.7623035,-0.333658,0.32847499999999996,0.8090634999999999,-0.33713800000000005,-0.074563,-0.0027694999999999977,-0.00046700000000000214,0.074563,0.002769500000000001,0.00046700000000000214,-0.125585,-0.5801665,0.012785000000000001,0.13426500000000002,-0.5764164999999999,0.015233,-0.150235,-0.9092564999999999,-0.052179,0.15176499999999998,-0.9010465000000001,-0.044579999999999995
58,-0.0298355,0.7921050000000001,0.062592,-0.1864315,0.535265,-0.007934000000000004,-0.3367815,0.665365,-0.15000799999999997,0.14739850000000002,0.555855,-0.005880000000000003,0.2820585,0.6977450000000001,-0.152748,-0.3869315,0.8189350000000001,-0.318578,0.3239285,0.8650150000000001,-0.315568,-0.0744185,-0.002867999999999999,-0.0005280000000000007,0.0744185,0.0028680000000000025,0.0005280000000000007,-0.1257915,-0.5827049999999999,0.013703,0.13382850000000002,-0.5787049999999999,0.015574999999999999,-0.1501315,-0.912115,-0.050248,0.1516385,-0.904315,-0.043752
59,-0.0289805,0.7886735,0.060347500000000005,-0.1865835,0.5375035,-0.0062964999999999965,-0.3396435,0.6900335,-0.14018750000000002,0.14833649999999998,0.5578035,-0.003219499999999993,0.2823765,0.7223235,-0.1425975,-0.3867235,0.8703135,-0.2947975,0.3202465,0.9125035,-0.29228750000000003,-0.0742845,-0.0028245000000000006,-0.0007384999999999961,0.0742845,0.0028245000000000006,0.000738500000000003,-0.1258535,-0.5853765,0.014832500000000005,0.1334965,-0.5809665,0.016438500000000005,-0.1498935,-0.9149565000000001,-0.04794849999999999,0.15188649999999998,-0.9070365,-0.0418085
60,-0.028043000000000005,0.7849265000000001,0.0571385,-0.186943,0.5397065000000001,-0.004534499999999997,-0.341053,0.7103465000000001,-0.1284515,0.149337,0.5597265,-0.0006364999999999982,0.283107,0.7423665,-0.1302215,-0.38643299999999997,0.9121565,-0.26714150000000003,0.31516700000000003,0.9518765,-0.2634615,-0.07409099999999999,-0.0030764999999999994,-0.0009214999999999987,0.07409099999999999,0.0030764999999999994,0.0009214999999999987,-0.125873,-0.5882035,0.0157905,0.133257,-0.5834134999999999,0.017424500000000002,-0.149653,-0.9181834999999999,-0.045928500000000004,0.15217699999999998,-0.9099835,-0.03976849999999999
61,-0.0270855,0.7815325000000001,0.052828,-0.1877335,0.5416425,-0.002897999999999998,-0.3414935,0.7261425,-0.11599000000000001,0.15009650000000002,0.5611625,0.0014079999999999995,0.2836465,0.7573225,-0.11613000000000001,-0.3861635,0.9443325,-0.23715999999999998,0.3101265,0.9818224999999999,-0.23125,-0.0738905,-0.0031955000000000004,-0.0011740000000000014,0.0738905,0.003195500000000004,0.0011740000000000014,-0.1259635,-0.5915275,0.016737000000000002,0.13305650000000002,-0.5852775,0.018371,-0.1493335,-0.9209075,-0.044186,0.1524165,-0.9122175,-0.03783500000000001
62,-0.026028500000000003,0.7782245,0.0479115,-0.1884175,0.5440445,-0.0017655000000000032,-0.3416875,0.7376845,-0.1026795,0.1508325,0.5624345,0.003186500000000002,0.28376250000000003,0.7692745,-0.10035949999999999,-0.3856375,0.9671945,-0.2058595,0.3066625,1.0071045,-0.1972895,-0.0736935,-0.003253500000000003,-0.001411500000000003,0.0736935,0.0032534999999999994,0.001411500000000003,-0.1259175,-0.5947655000000001,0.017640499999999996,0.13296249999999998,-0.5872755000000001,0.0193775,-0.1490275,-0.9234355,-0.0427895,0.1529025,-0.9149955,-0.036314500000000006
63,-0.024921,0.775212,0.04240699999999999,-0.18892,0.546772,-0.0005970000000000072,-0.34171999999999997,0.7475620000000001,-0.089808,0.15142999999999998,0.563532,0.004588999999999996,0.28252000000000005,0.7776120000000001,-0.08624799999999999,-0.38419,0.984712,-0.17449800000000001,0.30411000000000005,1.024612,-0.163728,-0.07356299999999999,-0.0031839999999999993,-0.0017030000000000031,0.07356299999999999,0.0031839999999999993,0.0017029999999999962,-0.12586,-0.597468,0.018323,0.1329,-0.588888,0.020194999999999998,-0.14855000000000002,-0.925288,-0.041433,0.15338,-0.917518,-0.03507500000000001
64,-0.024069000000000004,0.772441,0.03685600000000001,-0.189451,0.548671,0.0003890000000000074,-0.34186099999999997,0.754471,-0.07912,0.15183899999999997,0.564161,0.005652000000000004,0.280909,0.784441,-0.07352,-0.382281,0.996901,-0.14672,0.30179900000000004,1.037001,-0.13391999999999998,-0.073486,-0.003255000000000001,-0.0019679999999999975,0.073486,0.003255000000000001,0.0019680000000000045,-0.12579100000000001,-0.599919,0.018826000000000002,0.132889,-0.5901689999999999,0.020810000000000002,-0.148151,-0.927019,-0.04039899999999999,0.153629,-0.919659,-0.03383299999999999
65,-0.023225,0.769905,0.031646499999999994,-0.189978,0.5506449999999999,0.000955499999999998,-0.341338,0.759655,-0.0704405,0.15226199999999998,0.564695,0.0065164999999999945,0.28029200000000004,0.7885949999999999,-0.0636205,-0.38112799999999997,1.005675,-0.12389050000000001,0.30061200000000005,1.0451750000000002,-0.1088005,-0.073419,-0.003169000000000005,-0.002311500000000001,0.073419,0.003168999999999998,0.002311499999999994,-0.125618,-0.601145,0.0193305,0.132902,-0.591245,0.021248499999999997,-0.148098,-0.928965,-0.04097250000000001,0.15387199999999998,-0.9221050000000001,-0.0336515
66,-0.0224135,0.7676855,0.027039999999999998,-0.1901155,0.5517455,0.001351999999999999,-0.3407755,0.7629454999999999,-0.063544,0.15266449999999998,0.5646355,0.007168000000000001,0.2795445,0.7914155,-0.054634,-0.3800355,1.0115655,-0.10663399999999999,0.2998245,1.0502655,-0.088854,-0.0733915,-0.0030155000000000043,-0.002569000000000002,0.0733915,0.0030154999999999973,0.002569000000000002,-0.1254655,-0.6019545000000001,0.019739,0.1327445,-0.5901245,0.021422999999999998,-0.1479355,-0.9301945,-0.041471999999999995,0.1540645,-0.9237345,-0.03317200000000001
67,-0.02165,0.765741,0.022894000000000005,-0.1903,0.5530010000000001,0.0015270000000000006,-0.34013,0.7655209999999999,-0.058531,0.15297,0.5648310000000001,0.007411000000000001,0.2791,0.793601,-0.047531000000000004,-0.37888,1.015751,-0.094421,0.29925,1.053851,-0.07245099999999999,-0.073382,-0.0027799999999999978,-0.0027499999999999955,0.073382,0.0027799999999999978,0.0027500000000000024,-0.12529,-0.601809,0.019905,0.13315,-0.5909390000000001,0.021606,-0.14762,-0.931019,-0.042078000000000004,0.15447,-0.9244190000000001,-0.032989000000000004
68,-0.021110999999999998,0.7642825,0.019885000000000007,-0.190223,0.5533425,0.0015280000000000016,-0.339993,0.7667525,-0.054458999999999994,0.153177,0.5643425,0.007450000000000005,0.278397,0.7943724999999999,-0.042013999999999996,-0.378083,1.0172925,-0.08707899999999999,0.298707,1.0551925,-0.060648999999999995,-0.073357,-0.002755500000000001,-0.0027499999999999955,0.073357,0.002755500000000001,0.0027500000000000024,-0.125213,-0.6010475000000001,0.019906000000000007,0.133467,-0.5913475,0.021608000000000002,-0.147313,-0.9316575,-0.04251099999999999,0.154857,-0.9261675,-0.034455
69,-0.020691499999999998,0.7632695,0.017532000000000006,-0.1902125,0.5534895000000001,0.0015280000000000085,-0.3397025,0.7675595000000001,-0.051218,0.1533075,0.5640695,0.007528000000000007,0.2775675,0.7948095000000001,-0.03754299999999999,-0.3772125,1.0189095,-0.082488,0.2978475,1.0557094999999999,-0.052648,-0.0733935,-0.002659500000000002,-0.0027499999999999955,0.0733935,0.002659500000000002,0.0027500000000000024,-0.1251025,-0.6005904999999999,0.019906000000000007,0.1337275,-0.5918304999999999,0.021609000000000003,-0.14678249999999998,-0.9314104999999999,-0.041849,0.1550975,-0.9274505,-0.03540099999999999
70,-0.020395499999999997,0.762409,0.015887500000000006,-0.1902295,0.553409,0.0014705000000000065,-0.3394795,0.7679090000000001,-0.04925449999999999,0.15343050000000003,0.563759,0.007550500000000002,0.27665049999999997,0.794979,-0.03414049999999999,-0.3763595,1.020129,-0.0809545,0.2971005,1.056029,-0.04718449999999999,-0.0734245,-0.0026279999999999984,-0.0028074999999999975,0.0734245,0.0026279999999999984,0.0028075000000000044,-0.12490949999999999,-0.6000409999999999,0.019854500000000004,0.1343605,-0.593981,0.022470500000000004,-0.14629949999999997,-0.931211,-0.0417285,0.1555205,-0.927781,-0.035367499999999996
71,-0.020166999999999994,0.7616815,0.014328500000000008,-0.19026099999999999,0.5535115,0.0015405000000000071,-0.33931100000000003,0.7680815,-0.04815849999999999,0.153419,0.5635015,0.007517500000000003,0.275649,0.7949815,-0.031690499999999996,-0.37551100000000004,1.0212715,-0.0811485,0.296039,1.0559715,-0.0438205,-0.073435,-0.0026645,-0.0029124999999999984,0.073435,0.0026645,0.0029125000000000054,-0.124721,-0.5995585,0.019912500000000007,0.134869,-0.5950084999999999,0.023104500000000007,-0.145831,-0.9309085,-0.041707499999999995,0.155919,-0.9281085,-0.0354825
72,-0.020019,0.7612329999999999,0.0130655,-0.190412,0.553723,0.0014634999999999995,-0.33920199999999995,0.768343,-0.047793499999999996,0.15334799999999998,0.562973,0.007165499999999998,0.274558,0.794963,-0.030580500000000004,-0.37474199999999996,1.022313,-0.0816035,0.295028,1.056013,-0.042321500000000005,-0.073439,-0.002700999999999995,-0.0030345000000000025,0.073439,0.002701000000000002,0.0030345000000000025,-0.12460199999999999,-0.600337,0.020097499999999997,0.135278,-0.5957870000000001,0.0235615,-0.145492,-0.930517,-0.0417875,0.15620799999999999,-0.9280970000000001,-0.035873499999999996
73,-0.0198895,0.760937,0.011874500000000003,-0.1905675,0.554097,0.0012365000000000015,-0.3391075,0.7687069999999999,-0.0480865,0.1532225,0.5624669999999999,0.0066365000000000035,0.27349249999999997,0.794947,-0.030190500000000002,-0.3739675,1.023047,-0.08217649999999999,0.29374249999999996,1.056047,-0.041894499999999994,-0.0734615,-0.002690999999999999,-0.003082500000000002,0.0734615,0.002690999999999999,0.003082500000000002,-0.12449749999999998,-0.6005330000000001,0.020033500000000003,0.1357025,-0.596623,0.0237165,-0.14528749999999999,-0.9300630000000001,-0.0417865,0.1564625,-0.927103,-0.0351015
74,-0.019761499999999998,0.760685,0.0106995,-0.1907535,0.554395,0.0007524999999999962,-0.33891350000000003,0.7690549999999999,-0.0487765,0.1530465,0.561765,0.005945499999999999,0.27225649999999996,0.794925,-0.030413499999999996,-0.37333350000000004,1.023125,-0.08319649999999999,0.2922765,1.056025,-0.042591500000000004,-0.0734835,-0.0026770000000000058,-0.0031485000000000055,0.0734835,0.002676999999999999,0.0031484999999999985,-0.12444349999999998,-0.600655,0.019832499999999996,0.1357565,-0.596645,0.0230265,-0.1451535,-0.929665,-0.042231500000000005,0.1565265,-0.927845,-0.036554500000000004
75,-0.0197175,0.7604355,0.009491,-0.19102049999999998,0.5541455000000001,5.4999999999999494e-05,-0.33871049999999997,0.7692655,-0.049497,0.15283950000000002,0.5611755,0.0052239999999999995,0.2714395,0.7950155,-0.031138,-0.3726005,1.0231055,-0.08540700000000001,0.29111950000000003,1.0561055,-0.04331700000000001,-0.07348350000000001,-0.0026964999999999975,-0.0031960000000000044,0.07348350000000001,0.0026965000000000044,0.0031959999999999975,-0.1244005,-0.6008144999999999,0.019354999999999997,0.1358395,-0.5966644999999999,0.022306,-0.14537049999999999,-0.9292245,-0.043452000000000005,0.15663950000000001,-0.9284644999999999,-0.037815
76,-0.0196695,0.7602285,0.008075000000000006,-0.19115649999999998,0.5537085,-0.0008009999999999962,-0.33837649999999997,0.7690585,-0.050351999999999994,0.15270350000000002,0.5607185,0.004368000000000004,0.2707635,0.7949185000000001,-0.031996,-0.3716965,1.0231285,-0.088362,0.2901535,1.0559285,-0.044176999999999994,-0.07348350000000001,-0.0027054999999999996,-0.0031979999999999995,0.07348350000000001,0.0027054999999999996,0.0031980000000000064,-0.12427649999999998,-0.5994515,0.018500000000000003,0.1358435,-0.5960814999999999,0.021451000000000005,-0.1455965,-0.9290714999999999,-0.04525,0.15678350000000002,-0.9286415,-0.038668999999999995
77,-0.019625,0.760177,0.006435000000000003,-0.191182,0.553467,-0.0017309999999999964,-0.33806200000000003,0.768847,-0.05154199999999999,0.152628,0.560497,0.0033210000000000045,0.27072799999999997,0.795017,-0.032926,-0.370622,1.023357,-0.09197199999999998,0.29015799999999997,1.056057,-0.04536799999999999,-0.073484,-0.0026429999999999995,-0.003143,0.073484,0.0026429999999999995,0.003143000000000007,-0.12409200000000001,-0.598503,0.017571000000000003,0.135828,-0.593603,0.019932000000000002,-0.14566199999999999,-0.928723,-0.046553,0.156608,-0.927423,-0.038350999999999996
78,-0.019669,0.759834,0.004141499999999992,-0.19125199999999998,0.553284,-0.002876500000000004,-0.337822,0.768864,-0.05380750000000001,0.152538,0.560184,0.0014954999999999968,0.270658,0.7948540000000001,-0.0348335,-0.36986199999999997,1.0228739999999998,-0.09555750000000002,0.290098,1.055974,-0.047808500000000004,-0.073502,-0.0026619999999999977,-0.0030215000000000033,0.073502,0.0026619999999999977,0.0030214999999999964,-0.12395199999999999,-0.597526,0.016426499999999997,0.135768,-0.589336,0.017234499999999993,-0.145922,-0.928516,-0.0487655,0.156468,-0.926806,-0.03852950000000001
79,-0.019701000000000003,0.7591805,0.0011539999999999953,-0.191382,0.5529105000000001,-0.0044340000000000004,-0.337632,0.7686204999999999,-0.056802000000000005,0.152358,0.5599004999999999,-0.0006620000000000029,0.270478,0.7946405000000001,-0.037756,-0.369352,1.0221505,-0.09958199999999999,0.289928,1.0557505,-0.05171100000000001,-0.073476,-0.002655500000000005,-0.0027640000000000026,0.073476,0.002655499999999998,0.0027639999999999956,-0.12412200000000001,-0.5964395,0.013948999999999996,0.135578,-0.5847294999999999,0.012153999999999998,-0.146212,-0.9280394999999999,-0.050572000000000006,0.156458,-0.9265795000000001,-0.040012000000000006
80,-0.019814999999999996,0.7577499999999999,-0.002841499999999997,-0.191703,0.5521499999999999,-0.006880499999999998,-0.337673,0.76776,-0.061448499999999996,0.151967,0.55934,-0.003639499999999997,0.27009700000000003,0.7937399999999999,-0.042102499999999994,-0.368973,1.02098,-0.10484849999999998,0.28968700000000003,1.05478,-0.058158499999999995,-0.073437,-0.002696999999999998,-0.0026165000000000008,0.073437,0.002696999999999998,0.0026165000000000008,-0.124503,-0.59328,0.008324500000000006,0.135517,-0.57999,0.005873500000000004,-0.146453,-0.92743,-0.052441499999999995,0.156187,-0.9257599999999999,-0.0419805
81,-0.019828,0.7548605,-0.008682000000000002,-0.19189599999999998,0.5514605,-0.010601,-0.337886,0.7666705,-0.06770799999999999,0.15147400000000003,0.5588705,-0.007762999999999999,0.270144,0.7927205,-0.04856799999999999,-0.368576,1.0196805,-0.11149800000000001,0.289334,1.0536805,-0.06595799999999999,-0.073346,-0.0028364999999999987,-0.002250000000000002,0.073346,0.0028364999999999987,0.002250000000000002,-0.12500599999999998,-0.5885695,0.0006589999999999999,0.135374,-0.5790495,-0.002911999999999998,-0.146756,-0.9263195,-0.05551,0.155674,-0.9246694999999999,-0.045936
82,-0.0200545,0.7510195,-0.0158755,-0.1919865,0.5475995,-0.0168445,-0.3380265,0.7628495,-0.0751905,0.1507235,0.5567695,-0.0145295,0.2698635,0.7902295,-0.0568545,-0.3677565,1.0157695,-0.11916049999999999,0.2881035,1.0511695,-0.0763305,-0.0733075,-0.0027405,-0.001868500000000002,0.0733075,0.0027405,0.001868500000000002,-0.12613649999999998,-0.5794205,-0.010674499999999996,0.13471349999999999,-0.5710205,-0.015337499999999997,-0.1475565,-0.9227405000000001,-0.0591975,0.1549335,-0.9228605,-0.050699499999999995
83,-0.020343999999999998,0.7457794999999999,-0.0238125,-0.19215900000000002,0.5442294999999999,-0.023919500000000003,-0.338169,0.7590895,-0.0840895,0.149951,0.5556795,-0.021879500000000003,0.269751,0.7883795,-0.06605950000000001,-0.366989,1.0125495,-0.1275795,0.28680100000000003,1.0492495000000002,-0.0870795,-0.073269,-0.0027934999999999974,-0.0013695000000000027,0.073269,0.0027934999999999974,0.0013694999999999957,-0.12765900000000002,-0.5702505,-0.022908500000000005,0.133911,-0.5612005,-0.030670500000000003,-0.14863900000000002,-0.9188805,-0.0633875,0.15409099999999998,-0.9176105,-0.054517499999999997
84,-0.020860000000000007,0.740376,-0.032252499999999996,-0.19261999999999999,0.539866,-0.030973499999999994,-0.33853000000000005,0.754596,-0.09355949999999999,0.14937,0.553256,-0.030093500000000002,0.26961999999999997,0.785006,-0.0769195,-0.36571000000000004,1.008666,-0.1366895,0.28533,1.045966,-0.0984295,-0.07335900000000001,-0.0027069999999999976,-0.000842500000000003,0.07335900000000001,0.002707000000000001,0.0008424999999999995,-0.12992,-0.559324,-0.0373795,0.13293,-0.550774,-0.047667499999999995,-0.15007,-0.913304,-0.06738849999999999,0.15296,-0.911994,-0.059474500000000007
85,-0.021613499999999997,0.734402,-0.041024,-0.1930755,0.536082,-0.037950000000000005,-0.3391355,0.750332,-0.10328999999999999,0.1487445,0.5488419999999999,-0.039062000000000006,0.26928450000000004,0.7803319999999999,-0.08784,-0.36426549999999996,1.005232,-0.14624,0.2836145,1.041432,-0.11049999999999999,-0.0734715,-0.002921,-0.00020600000000000132,0.0734715,0.002921,0.00020599999999999785,-0.13303549999999997,-0.548768,-0.052223,0.13179449999999998,-0.5404380000000001,-0.06572900000000001,-0.1518755,-0.905918,-0.071156,0.15148450000000002,-0.904908,-0.06534100000000001
86,-0.022685499999999997,0.728004,-0.05021900000000001,-0.1937045,0.5315840000000001,-0.045073999999999996,-0.33989450000000004,0.745304,-0.113431,0.1478855,0.544884,-0.048338,0.2688655,0.775684,-0.09990099999999999,-0.3627845,1.001234,-0.157601,0.2816555,1.036834,-0.12354099999999998,-0.07359550000000001,-0.0029309999999999996,0.0004689999999999972,0.07359550000000001,0.0029309999999999996,-0.00046900000000000067,-0.1372145,-0.536806,-0.06867300000000001,0.1308655,-0.530236,-0.08455100000000002,-0.1542245,-0.895836,-0.07506099999999999,0.1498555,-0.895186,-0.07194500000000001
87,-0.024020999999999997,0.721957,-0.059295499999999994,-0.194791,0.525447,-0.0526425,-0.341371,0.7386469999999999,-0.1230715,0.146599,0.540997,-0.05719849999999999,0.26812899999999995,0.771257,-0.1120015,-0.361491,0.995477,-0.1690915,0.279459,1.032487,-0.1371315,-0.073896,-0.002813,0.0010355000000000017,0.073896,0.0028129999999999995,-0.0010354999999999982,-0.143211,-0.523853,-0.0878515,0.130019,-0.517283,-0.10352149999999999,-0.157311,-0.882813,-0.07998150000000001,0.148239,-0.882793,-0.07868149999999999
88,-0.02539,0.7160245000000001,-0.06840450000000001,-0.195671,0.5211845,-0.060230500000000006,-0.342441,0.7335745,-0.1331715,0.14540899999999998,0.5363945,-0.0667305,0.267509,0.7662145,-0.1246115,-0.359881,0.9915945,-0.1799715,0.277329,1.0276345,-0.1504815,-0.07424900000000001,-0.0027745000000000027,0.0013314999999999994,0.07424900000000001,0.002774499999999999,-0.0013315000000000028,-0.149991,-0.5076855,-0.10719150000000001,0.129549,-0.5015355,-0.12241149999999999,-0.160351,-0.8674255,-0.0852115,0.146709,-0.8697155,-0.0855915
89,-0.0263915,0.7098965,-0.0769435,-0.1961045,0.5158265,-0.0677665,-0.3429845,0.7278065,-0.14223449999999999,0.14420550000000001,0.5331165,-0.0756775,0.2669555,0.7620965,-0.1367645,-0.35739449999999995,0.9863165,-0.1904245,0.2756955,1.0229365000000001,-0.1633245,-0.0742765,-0.0028105000000000005,0.0017515000000000013,0.0742765,0.0028105000000000005,-0.0017514999999999996,-0.1563845,-0.4829135,-0.1258745,0.13013550000000002,-0.47951350000000004,-0.1422145,-0.1632345,-0.8476035000000001,-0.0898445,0.1459355,-0.8488435,-0.09217449999999999
90,-0.027428,0.7055185,-0.0842415,-0.196676,0.5112785,-0.07462750000000001,-0.343406,0.7215985,-0.1507435,0.142814,0.5273384999999999,-0.0846935,0.266344,0.7563085,-0.14756350000000001,-0.354816,0.9804185,-0.2001935,0.27370399999999995,1.0173385000000001,-0.1749235,-0.07428,-0.0030485000000000026,0.002054499999999999,0.07428,0.0030485000000000026,-0.0020545000000000008,-0.163436,-0.4562815,-0.1437035,0.130854,-0.4543315,-0.1606735,-0.16650600000000002,-0.8248915,-0.09389349999999999,0.145424,-0.8253215,-0.09916349999999999
91,-0.027763000000000003,0.7028185,-0.0953135,-0.19676500000000002,0.5095485000000001,-0.08431250000000001,-0.34291499999999997,0.7194285,-0.1631435,0.14207499999999998,0.5252285,-0.09594349999999999,0.265625,0.7537185000000001,-0.16177350000000001,-0.35201499999999997,0.9778285,-0.2156235,0.272335,1.0149385,-0.1896635,-0.07422100000000001,-0.003439499999999998,0.0023385000000000003,0.07422100000000001,0.003439499999999998,-0.0023385000000000003,-0.170215,-0.42757150000000005,-0.1655335,0.132535,-0.4296815,-0.18209350000000002,-0.170245,-0.7981615,-0.1057835,0.14593499999999998,-0.7994914999999999,-0.11184350000000001
92,-0.028152000000000007,0.70419,-0.109073,-0.19598900000000002,0.50807,-0.097439,-0.342229,0.7184200000000001,-0.177563,0.14143099999999997,0.52348,-0.110233,0.26566100000000004,0.7515000000000001,-0.17858300000000002,-0.348879,0.97659,-0.23323300000000002,0.269951,1.01228,-0.208263,-0.074213,-0.00358,0.002236,0.074213,0.00358,-0.0022359999999999997,-0.17928900000000003,-0.39671,-0.198213,0.13576100000000002,-0.40113,-0.21394300000000002,-0.175489,-0.76702,-0.12538300000000002,0.147791,-0.76973,-0.134713
93,-0.028293999999999996,0.704185,-0.1226435,-0.195018,0.508065,-0.1102935,-0.34147799999999995,0.717875,-0.1925735,0.141172,0.522265,-0.1235035,0.26629200000000003,0.749515,-0.1938935,-0.345948,0.975785,-0.25127350000000004,0.268282,1.0103550000000001,-0.2257935,-0.07405300000000001,-0.003794999999999993,0.0021225000000000003,0.07405300000000001,0.003794999999999993,-0.0021225000000000003,-0.18784800000000001,-0.368825,-0.2287535,0.139272,-0.375135,-0.2441535,-0.180678,-0.737905,-0.1455435,0.150032,-0.7417549999999999,-0.15558349999999999
94,-0.028438499999999995,0.7045649999999999,-0.136158,-0.1942895,0.5074449999999999,-0.123998,-0.3413895,0.7164949999999999,-0.20831799999999998,0.1405905,0.519975,-0.136898,0.26615049999999996,0.746815,-0.208948,-0.3432495,0.974135,-0.269768,0.2674105,1.007685,-0.242228,-0.0739065,-0.0033450000000000146,0.002079000000000001,0.0739065,0.003344999999999987,-0.0020789999999999993,-0.19651949999999999,-0.344195,-0.260128,0.1435505,-0.3495150000000001,-0.27451800000000004,-0.18613949999999999,-0.7098550000000001,-0.167068,0.1526205,-0.7132050000000001,-0.17679799999999998
95,-0.028569499999999998,0.70471,-0.14910700000000002,-0.1932565,0.50658,-0.137357,-0.3403265,0.7148399999999999,-0.224027,0.1400635,0.5177499999999999,-0.149567,0.2664435,0.74363,-0.223187,-0.34070649999999997,0.97231,-0.287117,0.2666235,1.00458,-0.257427,-0.0738835,-0.003369999999999984,0.002138000000000001,0.0738835,0.003370000000000012,-0.0021379999999999975,-0.20537650000000002,-0.32112,-0.290117,0.14747349999999998,-0.32719000000000004,-0.303167,-0.19216650000000002,-0.6832199999999999,-0.188727,0.1551435,-0.6879299999999999,-0.19700700000000002
96,-0.028781999999999995,0.704025,-0.1616355,-0.19208499999999998,0.5085550000000001,-0.14978550000000002,-0.339825,0.715535,-0.2398555,0.13864500000000002,0.5171650000000001,-0.1615055,0.26609499999999997,0.741625,-0.2365755,-0.338445,0.972085,-0.3051355,0.265775,1.0026950000000001,-0.2707655,-0.07396900000000001,-0.0035349999999999826,0.002096500000000001,0.07396900000000001,0.0035350000000000104,-0.002096500000000001,-0.213635,-0.298905,-0.3173555,0.15122500000000003,-0.30528500000000003,-0.33125550000000004,-0.198035,-0.6595949999999999,-0.20867549999999999,0.156895,-0.663975,-0.2163755
97,-0.029146500000000002,0.70474,-0.173837,-0.1910125,0.50821,-0.162407,-0.3390225,0.7140299999999999,-0.255487,0.13737749999999999,0.51537,-0.172827,0.26651749999999996,0.73946,-0.248297,-0.3365325,0.97034,-0.322827,0.2650675,1.0005700000000002,-0.28384699999999996,-0.0740145,-0.003379999999999994,0.0018850000000000047,0.0740145,0.003380000000000022,-0.0018849999999999978,-0.2214625,-0.27601,-0.34383699999999995,0.15466749999999999,-0.28284999999999993,-0.35878699999999997,-0.2038525,-0.63367,-0.22758699999999998,0.1586975,-0.63893,-0.23524699999999998
98,-0.028986,0.70592,-0.185391,-0.18995700000000001,0.50908,-0.174601,-0.33808699999999997,0.71375,-0.270681,0.136623,0.5129699999999999,-0.18382099999999998,0.267133,0.73674,-0.259751,-0.33468699999999996,0.9700099999999999,-0.34032100000000004,0.26489300000000005,0.9987199999999999,-0.29531100000000005,-0.07384199999999999,-0.003300000000000025,0.0016639999999999988,0.07384199999999999,0.0032999999999999696,-0.0016639999999999988,-0.22892700000000002,-0.25321000000000005,-0.368321,0.15828299999999998,-0.26183,-0.384521,-0.209117,-0.60689,-0.24654099999999998,0.16045299999999998,-0.6128,-0.252521
99,-0.0287025,0.70703,-0.196699,-0.18881749999999997,0.50977,-0.18626900000000002,-0.3377275,0.71453,-0.285359,0.1361425,0.51278,-0.19388899999999998,0.2683625,0.73585,-0.270559,-0.3331175,0.97038,-0.357479,0.2647825,0.9977799999999999,-0.308019,-0.0734995,-0.0031100000000000017,0.0013930000000000053,0.0734995,0.0031100000000000017,-0.0013929999999999984,-0.23539749999999998,-0.22948000000000007,-0.392869,0.16231250000000003,-0.24008999999999997,-0.409769,-0.2134775,-0.57894,-0.265209,0.1620025,-0.58426,-0.267939
100,-0.028376,0.70656,-0.2026995,-0.187007,0.51004,-0.1929595,-0.33636699999999997,0.7131799999999999,-0.2951495,0.135913,0.51221,-0.1987795,0.26966300000000004,0.73395,-0.27672949999999996,-0.33146699999999996,0.9691799999999999,-0.3680595,0.26533300000000004,0.9957499999999999,-0.3151795,-0.07308400000000001,-0.0033299999999999996,0.0010495000000000018,0.07308400000000001,0.0033299999999999996,-0.0010495000000000018,-0.240627,-0.20546000000000003,-0.4105395,0.16650299999999998,-0.21798,-0.4294795,-0.216477,-0.55311,-0.2757095,0.164053,-0.55566,-0.2784495
101,-0.028281000000000004,0.703415,-0.20731899999999998,-0.186476,0.509835,-0.197079,-0.33499599999999996,0.710895,-0.30355899999999997,0.135714,0.508445,-0.202349,0.270424,0.729125,-0.281219,-0.330576,0.966825,-0.377519,0.265494,0.9915449999999999,-0.320009,-0.072977,-0.0029649999999999954,0.0010500000000000023,0.072977,0.0029649999999999954,-0.0010499999999999954,-0.243706,-0.18519500000000005,-0.41922899999999996,0.168504,-0.197965,-0.438699,-0.218276,-0.5323249999999999,-0.280129,0.164954,-0.5351349999999999,-0.279469
102,-0.0277935,0.701545,-0.211557,-0.1857035,0.509675,-0.201237,-0.3345135,0.7086349999999999,-0.310587,0.1360965,0.506615,-0.20569700000000002,0.27198649999999996,0.726415,-0.285367,-0.32969350000000003,0.9632149999999999,-0.387737,0.26609649999999996,0.988775,-0.325167,-0.07295650000000001,-0.002945000000000031,0.0010500000000000023,0.07295650000000001,0.0029449999999999754,-0.0010499999999999954,-0.24622349999999998,-0.16400500000000007,-0.42832699999999996,0.17079650000000002,-0.17677500000000002,-0.44826699999999997,-0.2196235,-0.510825,-0.284007,0.16596650000000002,-0.513945,-0.280647
103,-0.027284500000000003,0.70035,-0.21524500000000002,-0.1848455,0.509,-0.20444500000000002,-0.33380550000000003,0.7073100000000001,-0.31625499999999995,0.1364945,0.5066,-0.208015,0.27282449999999997,0.7253400000000001,-0.289345,-0.3287955,0.9610700000000001,-0.396705,0.2671445,0.9871000000000001,-0.33153499999999997,-0.07290050000000001,-0.002909999999999968,0.0010500000000000023,0.07290050000000001,0.0029100000000000237,-0.0010500000000000023,-0.24797550000000002,-0.14222,-0.43655499999999997,0.1725845,-0.15498999999999996,-0.457115,-0.22050550000000002,-0.4890399999999999,-0.286895,0.16704449999999998,-0.49215999999999993,-0.281725
104,-0.026890000000000004,0.700105,-0.216499,-0.184347,0.509065,-0.205139,-0.333677,0.707075,-0.31877900000000003,0.136883,0.507235,-0.208119,0.274113,0.725425,-0.290939,-0.32776700000000003,0.960165,-0.402079,0.267723,0.987025,-0.335409,-0.072837,-0.00301499999999999,0.0007969999999999991,0.072837,0.00301499999999999,-0.0007969999999999991,-0.249077,-0.12113499999999999,-0.442309,0.174783,-0.13602499999999995,-0.463239,-0.22076700000000002,-0.46628499999999995,-0.287729,0.168143,-0.46865500000000004,-0.280799
105,-0.026460999999999995,0.70011,-0.217021,-0.183569,0.50902,-0.205721,-0.33324899999999996,0.70537,-0.320321,0.137311,0.50641,-0.208251,0.275281,0.7241200000000001,-0.292641,-0.327119,0.9591000000000001,-0.405421,0.268181,0.98565,-0.338971,-0.07270299999999999,-0.002789999999999959,0.0005520000000000039,0.07270299999999999,0.0027900000000000147,-0.0005519999999999969,-0.249549,-0.10112999999999994,-0.446701,0.177141,-0.11766999999999994,-0.468381,-0.221039,-0.44409999999999994,-0.288841,0.170051,-0.44643,-0.27942100000000003
106,-0.026353999999999995,0.6993,-0.216508,-0.183335,0.508437,-0.205328,-0.33348500000000003,0.7045300000000001,-0.32064800000000004,0.137835,0.505864,-0.207758,0.276695,0.7225,-0.294048,-0.326875,0.95769,-0.40836799999999995,0.268485,0.984,-0.34194800000000003,-0.072656,-0.0027499999999999747,0.0004190000000000027,0.072656,0.00275000000000003,-0.0004190000000000027,-0.250905,-0.08240999999999998,-0.449688,0.180075,-0.10111999999999999,-0.47140800000000005,-0.222005,-0.42384,-0.289738,0.17161500000000002,-0.42577,-0.278198
107,-0.025716,0.6987099999999999,-0.2156885,-0.182404,0.508307,-0.2041985,-0.333104,0.70431,-0.3201985,0.13871599999999998,0.50593,-0.2067785,0.278636,0.72102,-0.2949585,-0.326324,0.95696,-0.4098885,0.269986,0.98248,-0.3442685,-0.07248099999999999,-0.0028100000000000347,0.00013950000000000073,0.07248099999999999,0.002809999999999979,-0.0001394999999999938,-0.253454,-0.06371000000000004,-0.4521485,0.184906,-0.0837,-0.4738585,-0.223214,-0.40393,-0.2901585,0.17382599999999998,-0.40493999999999997,-0.2769785
108,-0.024932500000000003,0.6980500000000001,-0.2138695,-0.1816535,0.507263,-0.20262950000000002,-0.3326535,0.7034400000000001,-0.31874949999999996,0.1395665,0.506131,-0.20497949999999998,0.2801765,0.72,-0.29549949999999997,-0.3259435,0.9539200000000001,-0.4103995,0.2716565,0.98151,-0.3447595,-0.0723405,-0.00267999999999996,-3.549999999999387e-05,0.0723405,0.0026800000000000157,3.550000000000081e-05,-0.2576735,-0.04808000000000001,-0.4533095,0.1900965,-0.06716,-0.4751995,-0.2255635,-0.38761999999999996,-0.29032949999999996,0.1760065,-0.38544999999999996,-0.2749295
109,-0.023846,0.697425,-0.2122215,-0.180943,0.507447,-0.2006215,-0.332613,0.702925,-0.31710150000000004,0.140407,0.505059,-0.20337149999999998,0.281927,0.718325,-0.29550150000000003,-0.325333,0.9522250000000001,-0.4107715,0.273337,0.979965,-0.3453215,-0.072244,-0.002255000000000007,-0.00011850000000000055,0.072244,0.002255000000000007,0.00011849999999999361,-0.261363,-0.03348499999999999,-0.4540515,0.195077,-0.051204999999999945,-0.47629150000000003,-0.227523,-0.372405,-0.2905815,0.178187,-0.36817500000000003,-0.2725615
110,-0.022672,0.6977949999999999,-0.21003149999999998,-0.17978699999999997,0.506798,-0.19843149999999998,-0.332507,0.7018449999999999,-0.3149115,0.141303,0.505842,-0.2012015,0.28398300000000004,0.7185549999999999,-0.2952515,-0.324577,0.950485,-0.41067149999999997,0.275103,0.979835,-0.3464215,-0.072115,-0.0023250000000000215,-0.00020950000000000135,0.072115,0.0023250000000000215,0.00020950000000000135,-0.26297699999999996,-0.017685000000000062,-0.4538615,0.199743,-0.03630500000000003,-0.4762615,-0.228277,-0.35646500000000003,-0.29022149999999997,0.180753,-0.352075,-0.2707115
111,-0.021446,0.6988449999999999,-0.2082795,-0.178512,0.506651,-0.1966795,-0.332322,0.701815,-0.3131695,0.142258,0.506203,-0.1994595,0.285798,0.7184149999999999,-0.2950895,-0.32396199999999997,0.951095,-0.40892949999999995,0.27679800000000004,0.979605,-0.34747950000000005,-0.07194300000000001,-0.0021050000000000235,-0.00028249999999999803,0.07194300000000001,0.0021049999999999125,0.0002825000000000015,-0.26412199999999997,-0.0030650000000000954,-0.45332950000000005,0.20343799999999998,-0.021765000000000034,-0.47608950000000005,-0.22892200000000001,-0.3419150000000001,-0.2902595,0.183198,-0.336025,-0.2692195
112,-0.020213000000000002,0.6999899999999999,-0.206974,-0.177574,0.507481,-0.19525399999999998,-0.33234400000000003,0.7017199999999999,-0.311954,0.14332599999999998,0.5086489999999999,-0.198244,0.287686,0.71915,-0.295194,-0.32352400000000003,0.9511,-0.40771399999999997,0.278686,0.98058,-0.34760399999999997,-0.071795,-0.0021900000000000253,-0.0004589999999999976,0.071795,0.0021899999999999142,0.0004590000000000011,-0.265034,0.00926999999999989,-0.453034,0.206386,-0.009360000000000035,-0.475674,-0.22945400000000002,-0.33010000000000006,-0.290524,0.18531599999999998,-0.32259000000000004,-0.267574
113,-0.019035499999999997,0.7007699999999999,-0.2061085,-0.17634049999999998,0.50805,-0.1942785,-0.3322705,0.70087,-0.31084849999999997,0.14431950000000002,0.5096839999999999,-0.1971885,0.2895895,0.71919,-0.29470850000000004,-0.32291050000000004,0.95024,-0.40684849999999995,0.2804195,0.9802299999999999,-0.3475285,-0.0717335,-0.0019300000000000983,-0.0004854999999999998,0.0717335,0.0019299999999999873,0.0004854999999999998,-0.2655405,0.02024999999999999,-0.4533585,0.2086995,0.0014599999999999058,-0.4756285,-0.2298305,-0.3199000000000001,-0.29126850000000004,0.18702950000000002,-0.3109200000000001,-0.2667085
114,-0.018061999999999998,0.7023550000000001,-0.2047275,-0.175402,0.507664,-0.1932575,-0.331782,0.7009350000000001,-0.3093075,0.14515799999999998,0.5103880000000001,-0.1960675,0.291108,0.719055,-0.2939275,-0.322342,0.950005,-0.4053175,0.281868,0.979965,-0.3472275,-0.07178100000000001,-0.001934999999999909,-0.0005694999999999971,0.07178100000000001,0.00193500000000002,0.0005695000000000006,-0.26718200000000003,0.029665000000000052,-0.4531575,0.210838,0.010875000000000079,-0.4753075,-0.230822,-0.311635,-0.2920975,0.187478,-0.30020499999999994,-0.2659375
115,-0.017131499999999997,0.703735,-0.203894,-0.1747205,0.508182,-0.192354,-0.3317005,0.701395,-0.308424,0.1460495,0.5123890000000001,-0.195164,0.2926395,0.7201350000000001,-0.293634,-0.3218405,0.9501850000000001,-0.404374,0.2828895,0.980905,-0.346914,-0.07173750000000001,-0.002014999999999989,-0.0007719999999999984,0.07173750000000001,0.0020150000000001,0.0007719999999999984,-0.2690205,0.03684500000000002,-0.452844,0.2129495,0.018085000000000018,-0.475014,-0.2320305,-0.3062149999999999,-0.293794,0.1883995,-0.291875,-0.265144
116,-0.016421,0.7055450000000001,-0.202891,-0.17423100000000002,0.508453,-0.191611,-0.33160100000000003,0.701845,-0.307531,0.14663900000000002,0.513152,-0.194431,0.293329,0.7214950000000001,-0.293561,-0.321651,0.9506750000000002,-0.403791,0.283989,0.982345,-0.346851,-0.07173,-0.0019249999999999545,-0.0008340000000000014,0.07173,0.0019250000000000655,0.0008339999999999979,-0.272281,0.042975000000000096,-0.452041,0.21524900000000002,0.023885000000000045,-0.474941,-0.23289100000000001,-0.30259499999999995,-0.29575100000000004,0.18942900000000001,-0.28566499999999995,-0.264861
117,-0.015798,0.707425,-0.201854,-0.173772,0.507821,-0.19073400000000001,-0.330602,0.701935,-0.306294,0.147178,0.512532,-0.193584,0.29349800000000004,0.721525,-0.29321400000000003,-0.321312,0.952275,-0.402964,0.285588,0.9823449999999999,-0.346744,-0.07175899999999999,-0.0018450000000000966,-0.0007379999999999991,0.07175899999999999,0.0018449999999999855,0.0007379999999999991,-0.27543199999999995,0.0455549999999999,-0.451054,0.217778,0.02660499999999988,-0.474754,-0.23420200000000002,-0.3017350000000001,-0.297614,0.190458,-0.2826050000000001,-0.263534
118,-0.015348,0.70886,-0.2003475,-0.17331100000000002,0.506398,-0.1897375,-0.330201,0.70307,-0.30459749999999997,0.147609,0.511233,-0.1924275,0.293609,0.72175,-0.29232749999999996,-0.321201,0.9537100000000001,-0.40203750000000005,0.287929,0.98254,-0.3465975,-0.07177700000000001,-0.0017700000000000493,-0.0006924999999999987,0.07177700000000001,0.0017700000000000493,0.0006925000000000021,-0.27848100000000003,0.04685000000000006,-0.4500775,0.21986899999999998,0.028039999999999954,-0.47416749999999996,-0.235491,-0.3003,-0.2971775,0.191529,-0.28108999999999995,-0.26241749999999997
119,-0.0150795,0.70886,-0.197763,-0.1731315,0.506398,-0.188393,-0.3298715,0.70307,-0.30234300000000003,0.14769849999999998,0.511233,-0.191173,0.2935685,0.72175,-0.290003,-0.3211115,0.9537100000000001,-0.399803,0.28998850000000004,0.98254,-0.34403300000000003,-0.0717885,-0.0017700000000000493,-0.0007519999999999992,0.0717885,0.0017700000000000493,0.0007520000000000027,-0.2806415,0.04625999999999997,-0.44853299999999996,0.2215585,0.028039999999999954,-0.47307299999999997,-0.2368115,-0.3003,-0.29680300000000004,0.1925085,-0.28174999999999994,-0.261703
120,-0.0146335,0.70886,-0.19475,-0.17262249999999998,0.506398,-0.18699000000000002,-0.3291425,0.70307,-0.29941,0.1480975,0.511233,-0.19001,0.2939575,0.72175,-0.28714,-0.3204725,0.95373,-0.39743,0.2923275,0.98254,-0.34151,-0.0717895,-0.0017700000000000493,-0.000784,0.0717895,0.0017700000000000493,0.000784,-0.2822725,0.04808000000000001,-0.44748,0.2248675,0.02810999999999997,-0.47142999999999996,-0.2367925,-0.29834000000000005,-0.29663,0.1942675,-0.28237,-0.26138
121,-0.0142365,0.71097,-0.19099549999999998,-0.1720895,0.506398,-0.1857155,-0.3272995,0.70307,-0.2957455,0.1485105,0.511233,-0.1889555,0.2941405,0.72175,-0.2831455,-0.3198195,0.95373,-0.3949155,0.2945205,0.98254,-0.3375455,-0.0718425,-0.0017700000000000493,-0.0008165000000000013,0.0718425,0.0017700000000000493,0.0008164999999999978,-0.2837995,0.049290000000000056,-0.4466455,0.2292305,0.028220000000000023,-0.4693655,-0.2369995,-0.2965,-0.29555549999999997,0.1963705,-0.28289,-0.2611255
122,-0.0139315,0.7136499999999999,-0.1865165,-0.1707115,0.5086419999999999,-0.1831265,-0.3258815,0.7053799999999999,-0.2922565,0.1480685,0.5133519999999999,-0.1865065,0.2939085,0.72336,-0.2797065,-0.3187815,0.9560799999999999,-0.3913565,0.2969085,0.98452,-0.3324665,-0.0718525,-0.0018200000000000438,-0.0008365000000000004,0.0718525,0.0018199999999999328,0.0008365000000000004,-0.2849715,0.04719999999999991,-0.4458765,0.2330385,0.026029999999999887,-0.4675265,-0.2371015,-0.29749000000000003,-0.2947865,0.1978285,-0.2857200000000001,-0.26121649999999996
123,-0.013656000000000001,0.7162649999999999,-0.18125950000000002,-0.169394,0.5097989999999999,-0.18065949999999997,-0.32390399999999997,0.707425,-0.2882495,0.147536,0.5139469999999999,-0.18443949999999998,0.293066,0.7250349999999999,-0.2753995,-0.317474,0.9581249999999999,-0.3872495,0.299256,0.9861849999999999,-0.32697950000000003,-0.071883,-0.0017850000000000366,-0.0008545000000000011,0.071883,0.0017849999999999255,0.0008545000000000011,-0.286554,0.04269499999999993,-0.4450295,0.23658600000000002,0.02202499999999996,-0.4658195,-0.23749399999999998,-0.30093500000000006,-0.2940795,0.199276,-0.2909750000000001,-0.2614695
124,-0.013552999999999999,0.71738,-0.17508549999999998,-0.168303,0.512041,-0.1770155,-0.32182299999999997,0.70993,-0.2838155,0.14665699999999998,0.513947,-0.1818555,0.291837,0.72571,-0.2709555,-0.31610299999999997,0.96069,-0.3823555,0.30152700000000004,0.98735,-0.3207855,-0.071911,-0.0018000000000000238,-0.0008244999999999988,0.071911,0.0018000000000000238,0.0008245000000000023,-0.288993,0.034460000000000046,-0.4434555,0.240897,0.014140000000000041,-0.4638355,-0.238463,-0.30808,-0.29316549999999997,0.201127,-0.29932000000000003,-0.2619055
125,-0.0133455,0.719675,-0.1686995,-0.16732350000000001,0.513509,-0.1733895,-0.3192035,0.7132449999999999,-0.2785395,0.1457665,0.5137259999999999,-0.1793295,0.2903065,0.7265649999999999,-0.2667695,-0.3142135,0.964035,-0.3766595,0.30241650000000003,0.9885349999999999,-0.3146295,-0.0719535,-0.0017650000000000166,-0.0008295000000000004,0.0719535,0.0017650000000000166,0.0008294999999999969,-0.2939735,0.023575000000000013,-0.4414395,0.2460365,0.004404999999999992,-0.4617495,-0.2406435,-0.3186150000000001,-0.2914395,0.2031965,-0.30972500000000003,-0.2623995
126,-0.013135999999999998,0.7222649999999999,-0.162362,-0.166266,0.513647,-0.169922,-0.316116,0.716045,-0.27262200000000003,0.144754,0.514308,-0.176832,0.288464,0.728165,-0.262602,-0.31208600000000003,0.966985,-0.37017199999999995,0.30292399999999997,0.990175,-0.308542,-0.071969,-0.0019449999999999745,-0.0008009999999999996,0.071969,0.0019449999999999745,0.0008010000000000031,-0.298696,0.01183500000000004,-0.43992200000000004,0.252204,-0.007774999999999976,-0.45946200000000004,-0.24235600000000002,-0.330315,-0.289312,0.205854,-0.322855,-0.262982
127,-0.013120000000000003,0.7245900000000001,-0.156549,-0.164895,0.5152770000000001,-0.16640900000000003,-0.313655,0.71952,-0.266959,0.143585,0.515584,-0.17444900000000002,0.286275,0.73062,-0.258309,-0.31000500000000003,0.97079,-0.363359,0.302925,0.9918,-0.302859,-0.072003,-0.0020499999999999963,-0.0007020000000000012,0.072003,0.0020499999999999963,0.0007019999999999978,-0.302655,0.00038000000000004697,-0.43837899999999996,0.257295,-0.018369999999999997,-0.457629,-0.244095,-0.3416699999999999,-0.286469,0.208285,-0.33543999999999996,-0.263879
128,-0.013200499999999997,0.7268749999999999,-0.151158,-0.1636525,0.516184,-0.16330799999999998,-0.31166249999999995,0.722525,-0.261218,0.1423375,0.5163099999999999,-0.172258,0.28406750000000003,0.732685,-0.254328,-0.30822249999999995,0.974475,-0.354888,0.3027575,0.993715,-0.297738,-0.0720375,-0.002075000000000049,-0.0006819999999999986,0.0720375,0.002074999999999938,0.000682000000000002,-0.3057125,-0.013214999999999977,-0.437038,0.26087750000000004,-0.030765000000000042,-0.455908,-0.24576250000000002,-0.35465500000000005,-0.282848,0.2101875,-0.34955500000000006,-0.265058
129,-0.013232,0.728205,-0.1470445,-0.162406,0.519088,-0.1605445,-0.310186,0.726575,-0.2563045,0.14161400000000002,0.518848,-0.1703945,0.283064,0.735565,-0.25178449999999997,-0.306686,0.9792449999999999,-0.34729449999999995,0.303264,0.9966349999999999,-0.29292450000000003,-0.071933,-0.0022250000000000325,-0.0008004999999999991,0.071933,0.002224999999999977,0.0008005000000000026,-0.307316,-0.026334999999999997,-0.4353545,0.262764,-0.04337500000000005,-0.45417450000000004,-0.246736,-0.367085,-0.2793545,0.211404,-0.364375,-0.2665545
130,-0.013553499999999996,0.729345,-0.1435155,-0.16145749999999998,0.522689,-0.1578755,-0.30877750000000004,0.730155,-0.2517755,0.1407625,0.521735,-0.16849550000000002,0.2816325,0.738245,-0.2502655,-0.3058375,0.983865,-0.33907550000000003,0.30335249999999997,0.999355,-0.2894655,-0.0720065,-0.0022150000000000225,-0.0008314999999999989,0.0720065,0.0022150000000000225,0.0008315000000000058,-0.3094175,-0.04086500000000004,-0.4326155,0.2635125,-0.05726500000000001,-0.4522955,-0.24820750000000003,-0.38224499999999995,-0.2787055,0.2117925,-0.38085500000000005,-0.2682755
131,-0.0141675,0.730515,-0.1412065,-0.16166950000000002,0.5232840000000001,-0.1571765,-0.3077395,0.733085,-0.2474365,0.14040049999999998,0.521201,-0.1686265,0.28010050000000003,0.739925,-0.2487365,-0.3060695,0.9873350000000001,-0.3325465,0.3033305,1.0008949999999999,-0.2865265,-0.07207250000000001,-0.0021649999999999725,-0.0008965000000000015,0.07207250000000001,0.002165000000000028,0.0008965000000000015,-0.31197949999999997,-0.05445499999999992,-0.42957650000000003,0.26479050000000004,-0.06957499999999994,-0.4498065,-0.2499395,-0.39653499999999997,-0.2782765,0.2127305,-0.396555,-0.2701765
132,-0.015013999999999996,0.73239,-0.1403695,-0.16192600000000001,0.5246919999999999,-0.1567795,-0.308536,0.7360599999999999,-0.2440695,0.139334,0.523766,-0.1687995,0.279154,0.74242,-0.2485595,-0.306876,0.99081,-0.3270595,0.303684,1.00354,-0.2849795,-0.072172,-0.0021499999999999853,-0.0009785000000000002,0.072172,0.0021499999999999853,0.0009785000000000002,-0.31406599999999996,-0.06845000000000001,-0.4263495,0.265834,-0.08227000000000007,-0.4468395,-0.251706,-0.41129000000000004,-0.2773395,0.21322400000000002,-0.41268000000000005,-0.27268950000000003
133,-0.015658,0.735665,-0.1401395,-0.162591,0.5230549999999999,-0.1575625,-0.309641,0.737165,-0.2404025,0.138669,0.5254449999999999,-0.16948249999999998,0.278579,0.744895,-0.2484525,-0.307571,0.9923249999999999,-0.3216725,0.304089,1.006015,-0.2835625,-0.071968,-0.0026750000000000385,-0.0010615,0.071968,0.002674999999999983,0.0010615,-0.315991,-0.08035500000000007,-0.42252249999999997,0.266249,-0.09340500000000007,-0.4434725,-0.253531,-0.424925,-0.2772525,0.213359,-0.4266350000000001,-0.2745225
134,-0.016173499999999997,0.73758,-0.13949699999999998,-0.16368749999999999,0.52233,-0.158655,-0.31026750000000003,0.73828,-0.237365,0.1384125,0.52615,-0.170605,0.27800250000000004,0.74716,-0.24849500000000002,-0.3081775,0.99412,-0.31616500000000003,0.3041825,1.00813,-0.282655,-0.0716905,-0.0029699999999999727,-0.0009709999999999996,0.0716905,0.002970000000000028,0.0009709999999999996,-0.31764749999999997,-0.09148,-0.417715,0.26687249999999996,-0.10302,-0.43989500000000004,-0.2554075,-0.43725,-0.275345,0.2136325,-0.43957,-0.27786500000000003
135,-0.016568499999999993,0.736875,-0.138702,-0.16476249999999998,0.523645,-0.158507,-0.3116925,0.738415,-0.23491700000000001,0.13813750000000002,0.526195,-0.170747,0.2780975,0.747085,-0.248557,-0.3096925,0.994765,-0.311087,0.3042775,1.0080550000000001,-0.281697,-0.0714785,-0.002794999999999992,-0.000785000000000001,0.0714785,0.002794999999999992,0.000784999999999994,-0.31873250000000003,-0.10739500000000002,-0.41074700000000003,0.2669975,-0.11666500000000002,-0.434737,-0.2567825,-0.45459499999999997,-0.272157,0.21430749999999998,-0.45679499999999995,-0.281027
136,-0.016900999999999996,0.7376199999999999,-0.13711800000000002,-0.165743,0.52598,-0.157561,-0.311323,0.7397,-0.232031,0.13781700000000002,0.52915,-0.170181,0.276927,0.74844,-0.249101,-0.311933,0.99643,-0.306331,0.304537,1.01033,-0.280521,-0.071387,-0.00272,-0.000888999999999994,0.071387,0.00272,0.0008890000000000009,-0.319683,-0.12391000000000002,-0.403691,0.266187,-0.13279000000000002,-0.429361,-0.258243,-0.47253999999999996,-0.268991,0.21457700000000002,-0.47535000000000005,-0.282961
137,-0.017423,0.7356450000000001,-0.1351935,-0.16673900000000003,0.527665,-0.15612949999999998,-0.311409,0.740335,-0.2287995,0.137621,0.531375,-0.1694795,0.275161,0.749195,-0.24914949999999997,-0.315059,0.996795,-0.3037195,0.304861,1.010925,-0.2807395,-0.071404,-0.002894999999999981,-0.0007124999999999979,0.071404,0.0028950000000000364,0.0007125000000000048,-0.32025899999999996,-0.14014499999999996,-0.3955695,0.265621,-0.14554499999999998,-0.4243195,-0.259409,-0.49133499999999997,-0.2669595,0.214941,-0.492255,-0.2863295
138,-0.017455000000000002,0.73657,-0.132418,-0.167546,0.5284,-0.154188,-0.31320600000000004,0.7402,-0.22497599999999998,0.137794,0.5332600000000001,-0.168466,0.275354,0.7498400000000001,-0.24842599999999998,-0.31825600000000004,0.99648,-0.300196,0.30586399999999997,1.01055,-0.280826,-0.071387,-0.0027800000000000047,-0.00032000000000000084,0.071387,0.0027800000000000047,0.00032000000000000084,-0.32031600000000005,-0.15715,-0.386616,0.265584,-0.15863,-0.41942599999999997,-0.259446,-0.51044,-0.263156,0.214924,-0.50927,-0.287696
139,-0.017405,0.7387050000000001,-0.1299285,-0.16785799999999998,0.5276150000000001,-0.1521125,-0.314408,0.739995,-0.2202855,0.13828200000000002,0.533915,-0.1672655,0.27654199999999995,0.750395,-0.2463855,-0.321458,0.996035,-0.2955655,0.30741199999999996,1.007935,-0.2799655,-0.071355,-0.00298499999999996,-0.00018950000000000217,0.071355,0.0029850000000000154,0.00018950000000000217,-0.32020800000000005,-0.17506499999999997,-0.3777355,0.264872,-0.17299499999999995,-0.41338549999999996,-0.25930800000000004,-0.5308149999999999,-0.2592755,0.215082,-0.527605,-0.2877555
140,-0.0174545,0.7434700000000001,-0.126714,-0.1681105,0.5254,-0.150199,-0.31587050000000005,0.73861,-0.21569300000000002,0.1384895,0.5332600000000001,-0.16625299999999998,0.27763950000000004,0.74983,-0.24399300000000002,-0.32482049999999996,0.99459,-0.290153,0.3109195,1.0070299999999999,-0.277613,-0.0712515,-0.0027800000000000047,0.0002999999999999947,0.0712515,0.0027800000000000047,-0.00030000000000000165,-0.31921049999999995,-0.19356,-0.368423,0.26274949999999997,-0.18847000000000003,-0.408313,-0.25922049999999996,-0.5513,-0.255533,0.2151895,-0.54604,-0.287543
141,-0.0177495,0.74326,-0.122803,-0.1688145,0.52486,-0.146709,-0.31712450000000003,0.73765,-0.210697,0.1384755,0.53249,-0.164617,0.27734549999999997,0.7489600000000001,-0.241427,-0.3283045,0.99359,-0.284617,0.3130155,1.00569,-0.275067,-0.07096250000000001,-0.0024200000000000055,0.0010369999999999963,0.07096250000000001,0.0024200000000000055,-0.0010370000000000101,-0.31508450000000005,-0.21499,-0.35678699999999997,0.25824549999999996,-0.20848999999999998,-0.400077,-0.25879450000000004,-0.57585,-0.252177,0.21461550000000001,-0.56956,-0.28731700000000004
142,-0.0177975,0.74147,-0.1189315,-0.1696645,0.52562,-0.14347549999999998,-0.31693449999999995,0.73815,-0.2061675,0.1386355,0.53308,-0.1632765,0.2771655,0.74904,-0.2390775,-0.3314645,0.99404,-0.2793175,0.3132055,1.00474,-0.2732675,-0.07068749999999999,-0.0017099999999999893,0.0016955000000000026,0.07068749999999999,0.001710000000000017,-0.0016954999999999887,-0.3087645,-0.23833,-0.3448675,0.25238550000000004,-0.23097,-0.3914175,-0.25733449999999997,-0.60293,-0.2486275,0.2137155,-0.59654,-0.2876375
143,-0.017780999999999995,0.739215,-0.11555950000000001,-0.170667,0.526635,-0.14012950000000002,-0.317627,0.738625,-0.2013415,0.138913,0.5343450000000001,-0.1616685,0.27744300000000005,0.749475,-0.2357215,-0.335037,0.992965,-0.2747315,0.313483,1.001565,-0.2716315,-0.070403,-0.0010550000000000004,0.002084500000000003,0.070403,0.0010550000000000004,-0.002084500000000003,-0.29988699999999996,-0.265625,-0.33139149999999995,0.244063,-0.258415,-0.38050150000000005,-0.253907,-0.633165,-0.2461915,0.211013,-0.626775,-0.2860515
144,-0.017924,0.73682,-0.10889599999999999,-0.171713,0.5257000000000001,-0.13503500000000002,-0.31931299999999996,0.7397,-0.193271,0.138627,0.5329900000000001,-0.15842,0.27582700000000004,0.74931,-0.229491,-0.338133,0.99135,-0.267141,0.313307,1.0009000000000001,-0.265471,-0.070289,-0.0007699999999999929,0.0020850000000000035,0.070289,0.0007699999999999929,-0.0020850000000000035,-0.28872299999999995,-0.28998,-0.314211,0.232787,-0.28205,-0.365081,-0.249553,-0.66001,-0.241771,0.206737,-0.65362,-0.281061
145,-0.0175165,0.73329,-0.10285100000000001,-0.1720285,0.5221,-0.130996,-0.3207185,0.73864,-0.185448,0.1394415,0.52789,-0.155941,0.2778915,0.7481,-0.22209800000000002,-0.3406585,0.98927,-0.25868800000000003,0.3169415,0.99812,-0.258398,-0.0700285,-0.0004699999999999982,0.0020859999999999906,0.0700285,0.0004699999999999982,-0.0020860000000000045,-0.2757885,-0.31577,-0.295948,0.21997150000000001,-0.30784,-0.34667800000000004,-0.2435485,-0.6858,-0.236178,0.2018615,-0.67941,-0.27495800000000004
146,-0.015067000000000004,0.7297935,-0.09707849999999998,-0.170784,0.5206635000000001,-0.1262225,-0.319784,0.7387735,-0.1781375,0.142006,0.5216335,-0.1531995,0.283016,0.7454835,-0.2152075,-0.341094,0.9895935,-0.24971749999999998,0.320466,0.9941935,-0.2507175,-0.069859,0.0008085000000000037,0.0024955000000000116,0.069859,-0.0008085000000000037,-0.0024954999999999977,-0.254854,-0.3418765,-0.2700475,0.205566,-0.3339565,-0.3177575,-0.230434,-0.7128965,-0.2260275,0.196246,-0.7062965,-0.2602875
147,-0.013193500000000004,0.7321975000000001,-0.08942349999999999,-0.1696975,0.5256275,-0.1180525,-0.3191875,0.7439475,-0.1691165,0.1446325,0.5144475,-0.1482715,0.2854425,0.7419074999999999,-0.2056965,-0.3410375,0.9945774999999999,-0.23867649999999999,0.3231525,0.9900275000000001,-0.2404665,-0.0697995,0.0011484999999999967,0.002179500000000001,0.0697995,-0.0011484999999999967,-0.002179500000000001,-0.23332750000000002,-0.3674525,-0.2410965,0.1912025,-0.3595325,-0.28353649999999997,-0.21729749999999998,-0.7394225000000001,-0.2144265,0.19052249999999998,-0.7327325,-0.24361649999999999
148,-0.011761500000000005,0.7332355,-0.0803505,-0.1700815,0.5287955,-0.1073585,-0.3182615,0.7465355,-0.1599375,0.1465285,0.5191055,-0.1387945,0.2865785,0.7441455,-0.19604349999999998,-0.34029149999999997,0.9963055,-0.2277335,0.3244185,0.9944555,-0.2292535,-0.0700225,0.000616499999999999,0.0025034999999999988,0.0700225,-0.000616499999999999,-0.0025034999999999988,-0.2113915,-0.4048145,-0.2079835,0.1786285,-0.3923545,-0.2445435,-0.2039215,-0.7724245,-0.2016435,0.18502849999999998,-0.7658945,-0.2262735
149,-0.010613000000000001,0.7308375,-0.071471,-0.17051,0.5332675,-0.09628500000000001,-0.31808000000000003,0.7498975,-0.150399,0.14814,0.5243074999999999,-0.128559,0.28782,0.7472875,-0.186431,-0.33933,0.9988874999999999,-0.217111,0.32493,0.9967275,-0.218661,-0.070187,-0.0003025000000000007,0.002901000000000001,0.070187,0.00030249999999999895,-0.002901000000000001,-0.19051,-0.4426525,-0.175171,0.16737,-0.4313225,-0.20472100000000001,-0.19026,-0.8067625,-0.188511,0.17923,-0.8018225,-0.206671
150,-0.009732000000000001,0.732514,-0.063092,-0.170748,0.535654,-0.087213,-0.317618,0.752564,-0.141747,0.149652,0.527334,-0.119522,0.289412,0.749664,-0.176705,-0.338098,1.000944,-0.206615,0.324732,0.9981439999999999,-0.208215,-0.070309,-0.0012480000000000002,0.003147999999999998,0.070309,0.001248,-0.003147999999999998,-0.172398,-0.47448599999999996,-0.145295,0.15804200000000002,-0.46377599999999997,-0.169235,-0.177458,-0.834856,-0.176325,0.174392,-0.8308960000000001,-0.188555
151,-0.008931999999999999,0.7353725000000001,-0.054710499999999995,-0.170855,0.5384425,-0.0782295,-0.318375,0.7548925000000001,-0.1335115,0.151175,0.5302725,-0.11035249999999999,0.29179499999999997,0.7518525,-0.1670165,-0.336675,1.0029325,-0.19627650000000002,0.324055,0.9998325000000001,-0.1980765,-0.070416,-0.0020374999999999994,0.0036165000000000017,0.070416,0.002037500000000001,-0.0036164999999999947,-0.155805,-0.5046875,-0.11674849999999999,0.15027500000000002,-0.49377750000000004,-0.13504349999999998,-0.165165,-0.8609475,-0.1649965,0.170105,-0.8571875,-0.1704365
152,-0.008403,0.738987,-0.046004500000000004,-0.171312,0.541017,-0.0692165,-0.319252,0.756747,-0.1260675,0.152578,0.533357,-0.0998825,0.294728,0.753227,-0.15832649999999998,-0.335242,1.0058470000000002,-0.18628650000000002,0.324478,1.0037470000000002,-0.18773650000000003,-0.070597,-0.0030029999999999987,0.0037164999999999976,0.070597,0.0030029999999999987,-0.0037165000000000045,-0.141472,-0.5318130000000001,-0.0906125,0.144158,-0.521513,-0.1034375,-0.154482,-0.883463,-0.15331650000000002,0.166828,-0.880463,-0.1536165
153,-0.007901499999999999,0.7447905,-0.0378205,-0.1720645,0.5447705,-0.058914499999999995,-0.3194845,0.7593405,-0.1192715,0.1539855,0.5395205000000001,-0.0886795,0.2961655,0.7573205000000001,-0.14991549999999998,-0.3339045,1.0108705,-0.17711549999999998,0.32376550000000004,1.0071705,-0.1793655,-0.0708445,-0.0037885,0.003414500000000001,0.0708445,0.0037885,-0.003414500000000001,-0.1295445,-0.5576995,-0.0677475,0.1407155,-0.5466295,-0.0755735,-0.1447545,-0.9039995,-0.1419755,0.1649555,-0.9006995,-0.1383925
154,-0.007490499999999997,0.7501844999999999,-0.0292545,-0.1729245,0.5489545,-0.0478545,-0.3204745,0.7618045,-0.1125625,0.1553955,0.5462745,-0.07665050000000001,0.2978555,0.7597744999999999,-0.1423735,-0.33261450000000004,1.0144745000000002,-0.16867349999999998,0.3239855,1.0104745000000002,-0.1717435,-0.0710715,-0.004570499999999998,0.003192500000000001,0.0710715,0.004570499999999998,-0.003192500000000001,-0.1190645,-0.5832455000000001,-0.046260499999999996,0.13937549999999999,-0.5701555,-0.050695500000000004,-0.1360945,-0.9227555000000001,-0.1324465,0.1643655,-0.9181755,-0.1243115
155,-0.008834500000000002,0.7580925,-0.020435,-0.1750235,0.5522625,-0.037351999999999996,-0.3230235,0.7635025,-0.10611200000000001,0.1552965,0.5553125,-0.06428,0.29830650000000003,0.7641325,-0.134489,-0.3328035,1.0163925,-0.161219,0.3237465,1.0157925,-0.164839,-0.0712225,-0.006131500000000005,0.0029490000000000002,0.0712225,0.006131499999999998,-0.0029490000000000002,-0.1165735,-0.6041175,-0.033726,0.1397765,-0.5894475,-0.036263,-0.1342435,-0.9368475,-0.127491,0.16471650000000002,-0.9312675,-0.11827299999999999
156,-0.010102500000000004,0.7576625,-0.015949000000000005,-0.1770795,0.5493025,-0.033042,-0.3238995,0.7601424999999999,-0.104619,0.1553505,0.5653024999999999,-0.056397,0.3001505,0.7691625,-0.131686,-0.3324295,1.0135325000000002,-0.159006,0.3239605,1.0220325000000001,-0.16306600000000002,-0.0713675,-0.0069724999999999995,0.0029490000000000002,0.0713675,0.0069725000000000065,-0.0029490000000000037,-0.11510950000000002,-0.6228275,-0.028210000000000002,0.1402405,-0.6059575,-0.030246000000000002,-0.13284949999999998,-0.9487675,-0.12723,0.1650905,-0.9415375,-0.117512
157,-0.0112565,0.7576824999999999,-0.010967499999999998,-0.1779945,0.5493525,-0.0296915,-0.3244145,0.7601424999999999,-0.1031495,0.1554155,0.5653024999999999,-0.0513775,0.3012555,0.7691625,-0.1282165,-0.3317545,1.0135325000000002,-0.15731250000000002,0.3252755,1.0220325000000001,-0.1614625,-0.0716075,-0.0069724999999999995,0.0029474999999999987,0.0716075,0.0069725000000000065,-0.0029474999999999987,-0.1144145,-0.6228275,-0.026585499999999998,0.1407855,-0.6097275,-0.0292135,-0.1316245,-0.9515375,-0.1267285,0.1655455,-0.9424975,-0.1173115
158,-0.012939499999999996,0.7577125,-0.0061825000000000005,-0.1797845,0.5493525,-0.0258955,-0.3257745,0.7601424999999999,-0.1018835,0.1550055,0.5653024999999999,-0.0462225,0.3022655,0.7691625,-0.1244765,-0.3325945,1.0135325000000002,-0.15649249999999998,0.3259755,1.0220325000000001,-0.1601725,-0.0716075,-0.0069724999999999995,0.0029474999999999987,0.0716075,0.0069725000000000065,-0.0029474999999999987,-0.11442450000000001,-0.6249875,-0.0252725,0.1412355,-0.6112875,-0.0284715,-0.1314845,-0.9520575,-0.1267275,0.1652955,-0.9428475000000001,-0.1170235
159,-0.014741499999999994,0.7577625,-0.001641,-0.1816635,0.5493525,-0.022371,-0.3277135,0.7601424999999999,-0.10076,0.1549865,0.5653024999999999,-0.041301,0.30332650000000005,0.7691625,-0.12111999999999999,-0.3327635,1.0135325000000002,-0.156797,0.32684650000000004,1.0220325000000001,-0.159047,-0.0716085,-0.0069724999999999995,0.0032010000000000025,0.0716085,0.0069725000000000065,-0.003200999999999999,-0.11442350000000001,-0.6261675,-0.024857999999999998,0.14148650000000002,-0.6125075,-0.02803,-0.1313535,-0.9522975,-0.12703199999999998,0.1652965,-0.9432275,-0.117618
160,-0.0159405,0.756985,0.000841500000000002,-0.1825775,0.549265,-0.020296500000000002,-0.3290775,0.7588250000000001,-0.10135450000000001,0.15431250000000002,0.5639550000000001,-0.0374785,0.3038125,0.767695,-0.11903649999999999,-0.3333875,1.0133649999999998,-0.1585685,0.3273525,1.0213649999999999,-0.1608185,-0.0721045,-0.00673,0.002853500000000002,0.0721045,0.00673,-0.002853500000000002,-0.1142575,-0.626625,-0.0259335,0.1421125,-0.6129549999999999,-0.029108500000000002,-0.1308375,-0.952245,-0.1294275,0.1656825,-0.9428949999999999,-0.11919650000000001
161,-0.0170265,0.756941,0.0028780000000000056,-0.1841305,0.549291,-0.017949999999999994,-0.3322405,0.756791,-0.102562,0.15405950000000002,0.563401,-0.034608999999999994,0.3055095,0.7654610000000001,-0.11648399999999999,-0.3357405,1.012381,-0.160352,0.32874950000000003,1.0199809999999998,-0.16293200000000002,-0.0724835,-0.006484999999999998,0.002486000000000002,0.0724835,0.006484999999999998,-0.002485999999999995,-0.1140805,-0.627359,-0.027004999999999994,0.1427195,-0.613089,-0.030128999999999996,-0.1301505,-0.952049,-0.131241,0.1660695,-0.942599,-0.120972
162,-0.018115,0.7568195,0.004860000000000003,-0.184866,0.5492995,-0.016879999999999996,-0.33711599999999997,0.7518994999999999,-0.103448,0.153844,0.5627994999999999,-0.032244999999999996,0.30956399999999995,0.7616795000000001,-0.11374899999999999,-0.34082599999999996,1.0077395,-0.16293399999999997,0.331654,1.0168395000000001,-0.16449399999999997,-0.072688,-0.0064155000000000045,0.002239000000000005,0.072688,0.006415499999999998,-0.002238999999999998,-0.11394599999999999,-0.6281505000000001,-0.028065999999999994,0.143284,-0.6132705,-0.030986999999999994,-0.129466,-0.9519504999999999,-0.13277,0.166414,-0.9424405,-0.122906
163,-0.0193485,0.75675,0.006900999999999997,-0.18555750000000001,0.54871,-0.015892,-0.3434375,0.74484,-0.103961,0.1534125,0.56212,-0.029857,0.3159225,0.7532099999999999,-0.110238,-0.3483675,1.00041,-0.16766399999999998,0.3376425,1.00841,-0.16626400000000002,-0.0727685,-0.0062420000000000045,0.0018680000000000016,0.0727685,0.0062419999999999976,-0.0018680000000000016,-0.1137675,-0.62876,-0.029195,0.1437825,-0.61342,-0.031679,-0.12888750000000002,-0.9524900000000001,-0.133968,0.16682249999999998,-0.94197,-0.124217
164,-0.020599,0.756911,0.0086725,-0.186319,0.5480809999999999,-0.014735499999999999,-0.352219,0.732771,-0.10424549999999999,0.15273099999999998,0.561211,-0.027366500000000002,0.32350100000000004,0.7402409999999999,-0.10626350000000001,-0.358629,0.9872509999999999,-0.1747215,0.346691,0.9934509999999999,-0.16927150000000002,-0.072747,-0.006173999999999999,0.0014884999999999968,0.072747,0.006173999999999999,-0.0014884999999999968,-0.113539,-0.6279790000000001,-0.0301735,0.144011,-0.612579,-0.0323325,-0.12840900000000002,-0.952419,-0.1346875,0.167041,-0.941129,-0.1245925
165,-0.021776999999999994,0.757305,0.010492999999999995,-0.187048,0.5469050000000001,-0.013155,-0.35977800000000004,0.7160150000000001,-0.103991,0.152052,0.5602750000000001,-0.024810000000000002,0.331072,0.722995,-0.101968,-0.371058,0.9651250000000001,-0.182058,0.35770199999999996,0.9710250000000001,-0.173018,-0.072668,-0.006270000000000005,0.0011530000000000012,0.072668,0.006269999999999998,-0.0011530000000000012,-0.113348,-0.626605,-0.03064,0.144192,-0.6110049999999999,-0.032647,-0.12778799999999998,-0.951495,-0.13481100000000001,0.16720200000000002,-0.940325,-0.12449
166,-0.022954999999999996,0.758374,0.012395499999999997,-0.18770499999999998,0.545514,-0.011231500000000002,-0.364805,0.6925140000000001,-0.1029255,0.151305,0.558424,-0.022615500000000004,0.33748500000000003,0.699384,-0.0970895,-0.385775,0.9355840000000001,-0.1912225,0.370695,0.9403440000000001,-0.17878249999999998,-0.072679,-0.006363000000000001,0.0010474999999999998,0.072679,0.006363000000000001,-0.0010474999999999998,-0.113205,-0.624796,-0.030745500000000002,0.144285,-0.609026,-0.0327515,-0.12720499999999998,-0.949786,-0.1342925,0.167075,-0.938886,-0.12408649999999999
167,-0.024210999999999996,0.759988,0.014411,-0.188377,0.544188,-0.009455000000000002,-0.367757,0.663368,-0.100998,0.15058300000000002,0.5561079999999999,-0.020923,0.342153,0.670588,-0.092145,-0.399787,0.899278,-0.195642,0.384983,0.9034679999999999,-0.180642,-0.072757,-0.006373000000000004,0.0010469999999999993,0.072757,0.006372999999999997,-0.0010469999999999993,-0.11313699999999999,-0.6225320000000001,-0.030997,0.14427299999999998,-0.606782,-0.032752,-0.126797,-0.947372,-0.134105,0.167213,-0.9369620000000001,-0.1245
168,-0.0253585,0.761918,0.016114999999999997,-0.1895305,0.5425880000000001,-0.007552,-0.3693805,0.629028,-0.097261,0.1496795,0.553548,-0.019592000000000002,0.3440595,0.636358,-0.08573800000000001,-0.4107405,0.847438,-0.198552,0.3956295,0.848508,-0.17994200000000002,-0.0727935,-0.006336000000000001,0.0010469999999999993,0.0727935,0.006336000000000001,-0.0010469999999999993,-0.11310049999999999,-0.619982,-0.03155,0.14419949999999998,-0.604232,-0.032752,-0.1264005,-0.944542,-0.133903,0.1672495,-0.935302,-0.125367
169,-0.026483,0.7645814999999999,0.017921500000000007,-0.190811,0.5411515,-0.006277499999999995,-0.369411,0.5902014999999999,-0.0910285,0.149059,0.5511315,-0.019059499999999997,0.34401899999999996,0.5970715,-0.0777845,-0.415761,0.7825314999999999,-0.1983765,0.40124899999999997,0.7816814999999999,-0.1788165,-0.072793,-0.006055499999999998,0.000951500000000001,0.072793,0.006055499999999998,-0.000951499999999994,-0.11309100000000001,-0.6165185000000001,-0.032146499999999995,0.144089,-0.6010285000000001,-0.032917499999999995,-0.12600099999999997,-0.9408585,-0.13279849999999999,0.167199,-0.9328985000000001,-0.12588349999999998
170,-0.027443499999999996,0.7676575,0.0201015,-0.1917035,0.5396275,-0.0055155,-0.3694535,0.5496475000000001,-0.08287749999999999,0.1485165,0.5486975000000001,-0.018494499999999997,0.3439765,0.5553775000000001,-0.06927849999999999,-0.41576349999999995,0.7071775,-0.1975895,0.40123650000000005,0.7036175,-0.1772595,-0.07279250000000001,-0.005728500000000001,0.0008465,0.07279250000000001,0.0057284999999999975,-0.0008465,-0.11309350000000001,-0.6124925,-0.0324995,0.1439965,-0.5972124999999999,-0.032800499999999996,-0.1256335,-0.9367325,-0.13107950000000002,0.1671365,-0.9298025,-0.1260595
171,-0.0283345,0.771055,0.022555,-0.19229449999999998,0.537535,-0.004487000000000001,-0.3695545,0.506235,-0.07419100000000001,0.1480155,0.545835,-0.017466000000000002,0.3438755,0.510375,-0.060266,-0.4158345,0.624225,-0.196559,0.4011655,0.617445,-0.175579,-0.0727885,-0.005355999999999996,0.0007769999999999999,0.0727885,0.005356,-0.0007769999999999999,-0.1131345,-0.608385,-0.032613,0.1438655,-0.593125,-0.032366,-0.1253245,-0.932315,-0.129337,0.1668955,-0.926575,-0.126209
172,-0.028966999999999996,0.7748955000000001,0.024718000000000004,-0.192752,0.5356455,-0.002962999999999997,-0.369082,0.4634255,-0.064424,0.147588,0.5432955,-0.015941999999999994,0.341818,0.4678255,-0.051184999999999994,-0.416072,0.5344655,-0.191834,0.400928,0.5240655000000001,-0.169524,-0.07284500000000001,-0.004995500000000003,0.0007550000000000057,0.07284500000000001,0.0049955,-0.0007549999999999987,-0.113322,-0.6039045,-0.03231799999999999,0.143598,-0.5882044999999999,-0.031564999999999996,-0.125142,-0.9271745,-0.126938,0.166488,-0.9226344999999999,-0.125017
173,-0.0293675,0.7789325,0.026735499999999995,-0.1932185,0.5337525,-0.0009935000000000048,-0.3640785,0.4220625,-0.052658500000000004,0.14720149999999999,0.5407125,-0.014570500000000004,0.3347515,0.4281725,-0.04117850000000001,-0.41405850000000005,0.4427725,-0.1804765,0.39889149999999995,0.4345525,-0.1548965,-0.0729305,-0.004483500000000001,0.0007484999999999992,0.0729305,0.004483500000000001,-0.0007485000000000026,-0.11350850000000001,-0.5992975,-0.0318495,0.1431615,-0.5834775,-0.030494500000000004,-0.1250485,-0.9220875,-0.12426150000000001,0.1662115,-0.9186775,-0.12387150000000001
174,-0.029760999999999996,0.7828455,0.029278,-0.19361199999999998,0.5318554999999999,0.0006549999999999993,-0.35245200000000004,0.3857455,-0.038022,0.146748,0.5380054999999999,-0.013242,0.321468,0.3934355,-0.027631000000000003,-0.403832,0.3598255,-0.160084,0.388188,0.3527455,-0.131094,-0.07304,-0.0039065,0.0006759999999999995,0.07304,0.0039065,-0.0006759999999999995,-0.11361199999999999,-0.5952645000000001,-0.030868,0.14263800000000001,-0.5793045,-0.029115000000000002,-0.12517199999999998,-0.9178345,-0.121088,0.165908,-0.9147645000000001,-0.122116
175,-0.030182499999999998,0.7859970000000001,0.032056,-0.19402350000000002,0.530467,0.0018680000000000016,-0.33567349999999996,0.357377,-0.020968999999999998,0.1462465,0.5360670000000001,-0.012445999999999999,0.30508650000000004,0.366177,-0.012477999999999998,-0.38464349999999997,0.286157,-0.130686,0.3733465,0.27957699999999996,-0.102827,-0.0731645,-0.003252999999999999,0.0007480000000000021,0.0731645,0.0032530000000000024,-0.0007479999999999987,-0.1137035,-0.5917629999999999,-0.02964,0.1420265,-0.574743,-0.027785999999999998,-0.12533350000000001,-0.9132929999999999,-0.117497,0.16559649999999998,-0.911613,-0.119721
