sb224sc-HT22-VT27/4dt907/src/data/kinect_good_preprocessed_not_cut_A11_mediapipe/A115_kinect_mirrored.csv
FrameNo,nose_3d_x,nose_3d_y,nose_3d_z,left_shoulder_3d_x,left_shoulder_3d_y,left_shoulder_3d_z,left_elbow_3d_x,left_elbow_3d_y,left_elbow_3d_z,right_shoulder_3d_x,right_shoulder_3d_y,right_shoulder_3d_z,right_elbow_3d_x,right_elbow_3d_y,right_elbow_3d_z,left_wrist_3d_x,left_wrist_3d_y,left_wrist_3d_z,right_wrist_3d_x,right_wrist_3d_y,right_wrist_3d_z,left_hip_3d_x,left_hip_3d_y,left_hip_3d_z,right_hip_3d_x,right_hip_3d_y,right_hip_3d_z,left_knee_3d_x,left_knee_3d_y,left_knee_3d_z,right_knee_3d_x,right_knee_3d_y,right_knee_3d_z,left_ankle_3d_x,left_ankle_3d_y,left_ankle_3d_z,right_ankle_3d_x,right_ankle_3d_y,right_ankle_3d_z
0,1.0248709999999999,0.773239,0.038709,0.845697,0.499949,-0.0043059999999999,0.785237,0.233599,-0.0280869999999999,1.192637,0.5015890000000001,0.0033339999999999,1.244367,0.241419,-0.019067,0.8071969999999999,0.015064,-0.109579,1.208847,0.0158169999999999,-0.093499,0.923312,0.000889,0.000625,1.076688,-0.000889,-0.000625,0.836707,-0.559331,0.024904,1.153907,-0.5653509999999999,0.03001,0.792987,-0.897281,-0.035474,1.190937,-0.907541,-0.0197569999999999
1,1.0244045,0.7730925000000001,0.0384129999999999,0.8456345000000001,0.5000325,-0.00434,0.7851645,0.2334525,-0.0280129999999999,1.1924445,0.5016025000000001,0.0030579999999999,1.2440845,0.2398925,-0.019572,0.8074445,0.0151435,-0.109653,1.2087745,0.0165745,-0.093503,0.9233085,0.0007934999999999,0.0006279999999999,1.0766915,-0.0007934999999999,-0.000628,0.8366245,-0.5592975,0.0249339999999999,1.1539245,-0.5667074999999999,0.0297069999999999,0.7940045,-0.8953675,-0.0351299999999999,1.1887645,-0.9072275,-0.0146719999999999
2,1.0242369999999998,0.773113,0.0402845,0.845571,0.5000129999999999,-0.0032114999999999,0.785211,0.232993,-0.0273675,1.192101,0.5015729999999999,0.0036264999999999,1.244151,0.240473,-0.0190354999999999,0.808071,0.015138,-0.1096944999999999,1.208761,0.016776,-0.0935345,0.923288,0.000772,0.0006315,1.0767120000000001,-0.000772,-0.0006315,0.836861,-0.557097,0.0233725,1.153971,-0.566737,0.0284175,0.801351,-0.890367,-0.0016745,1.189361,-0.909147,-0.0189865
3,1.0240015,0.7731095,0.0400229999999999,0.8454355,0.4999895,-0.003188,0.7850855,0.2329495,-0.0273329999999999,1.1917355,0.5015895,0.0034269999999999,1.2440455,0.2406795,-0.018906,0.8084255000000001,0.0153295,-0.109752,1.2084855,0.0168765,-0.093522,0.9232405,0.0008105,0.0006229999999999,1.0767595,-0.0008105,-0.0006229999999999,0.8367855000000001,-0.5566305,0.0230639999999999,1.1536655,-0.5661105,0.0287069999999999,0.7985955,-0.8827405,-0.005831,1.1926955,-0.9118805,-0.029725
4,1.023814,0.7731045,0.040045,0.845269,0.4999645,-0.0030869999999999,0.784979,0.2329345,-0.027409,1.191579,0.5015745,0.0033759999999999,1.243669,0.2414545,-0.019008,0.809229,0.0155725,-0.110163,1.207709,0.0168924999999999,-0.093803,0.923232,0.0008145,0.0006169999999999,1.076768,-0.0008144999999999,-0.0006169999999999,0.836029,-0.5591455000000001,0.0237269999999999,1.153379,-0.5653155000000001,0.0289359999999999,0.799559,-0.8845855,-0.00536,1.191779,-0.9132855,-0.0297889999999999
5,1.0233035,0.7727805,0.039575,0.8450085,0.5001605,-0.003216,0.7847685,0.2329505,-0.027285,1.1912685,0.5016005,0.003532,1.2435685,0.2416105,-0.01885,0.8104085,0.0161235,-0.111164,1.2067185,0.0175675,-0.0938939999999999,0.9231945,0.0008294999999999,0.0006989999999999,1.0768055,-0.0008295,-0.000699,0.8357585000000001,-0.5592195,0.0238549999999999,1.1531585,-0.5655295,0.0291089999999999,0.8034384999999999,-0.8895695,-0.018315,1.1916785,-0.9118095,-0.028447
6,1.0229825,0.772833,0.0393489999999999,0.8449375,0.500033,-0.003153,0.7848075,0.232693,-0.027242,1.1911775,0.501663,0.003643,1.2435175,0.242003,-0.018935,0.8112675,0.016395,-0.111789,1.2051775,0.01745,-0.094419,0.9231555,0.0008539999999999,0.0007759999999999,1.0768445,-0.000854,-0.0007759999999999,0.8357475,-0.560017,0.0240489999999999,1.1530274999999999,-0.565987,0.029219,0.7935274999999999,-0.8973169999999999,-0.046709,1.1918575,-0.910757,-0.027554
7,1.0230805,0.772739,0.0389175,0.8450995,0.500229,-0.0032674999999999,0.7848995,0.235599,-0.0270224999999999,1.1905995,0.501459,0.0041175,1.2435795,0.242789,-0.0188955,0.8118695,0.017202,-0.1120545,1.2030295,0.016248,-0.0964145,0.9230745,0.000878,0.0007394999999999,1.0769255,-0.000878,-0.0007394999999999,0.8360095,-0.5575910000000001,0.0243715,1.1531495,-0.565671,0.0293735,0.7953895,-0.889171,-0.0363945,1.1927895,-0.909341,-0.0268004999999999
8,1.0228975,0.7727075,0.038934,0.8450205,0.5002175,-0.003186,0.7848605000000001,0.2354175,-0.0269389999999999,1.1903405,0.5014575,0.0042359999999999,1.2434905,0.2427975,-0.0188559999999999,0.8124505000000001,0.0172005,-0.112511,1.2019605,0.0159165,-0.0969509999999999,0.9230495,0.0008695,0.0007479999999999,1.0769505,-0.0008694999999999,-0.0007479999999999,0.8358905,-0.5579425,0.02442,1.1530205,-0.5660625,0.02942,0.7955805,-0.8892025,-0.035869,1.1931105,-0.9102625,-0.027486
9,1.022733,0.7726775,0.038991,0.844966,0.5002175,-0.003095,0.784856,0.2352675,-0.0268469999999999,1.190096,0.5014675,0.004343,1.243426,0.2428175,-0.0187649999999999,0.812936,0.0171915,-0.112939,1.201036,0.0156805,-0.097429,0.923027,0.0008694999999999,0.00076,1.076973,-0.0008695,-0.0007599999999999,0.835796,-0.5582825,0.024466,1.152906,-0.5660425,0.029479,0.795846,-0.8894625,-0.0354609999999999,1.193396,-0.9109225,-0.0278189999999999
10,1.0226145,0.7726675000000001,0.0389955,0.8449265,0.5002475,-0.0030774999999999,0.7848665,0.2355975,-0.0267844999999999,1.1898765,0.5014675,0.0044125,1.2433965,0.2431475,-0.0187325,0.8132465,0.0173784999999999,-0.1132325,1.2002865,0.0154625,-0.0978025,0.9230205,0.0008825,0.0007645,1.0769795,-0.0008824999999999,-0.0007645,0.8357265,-0.5585025,0.0245715,1.1528165,-0.5657225,0.0295895,0.7955165000000001,-0.8894825,-0.0368755,1.1933865,-0.9108025,-0.0277424999999999
11,1.022615,0.772657,0.0390615,0.844927,0.500257,-0.0030695,0.784887,0.235977,-0.0267375,1.189807,0.5014569999999999,0.0045064999999999,1.243397,0.243367,-0.0187155,0.813447,0.01755,-0.1134465,1.199857,0.015251,-0.0979765,0.92301,0.0009,0.0007544999999999,1.07699,-0.0008999999999999,-0.0007544999999999,0.8356370000000001,-0.558793,0.0246645,1.152707,-0.565363,0.0296885,0.795327,-0.890263,-0.0368155,1.193287,-0.910373,-0.0272085
12,1.0226274999999998,0.7726515,0.03913,0.8449395,0.5002814999999999,-0.0030629999999999,0.7849295000000001,0.2363315,-0.0266999999999999,1.1897695,0.5014415,0.004603,1.2433895,0.2433615,-0.0186839999999999,0.8135195,0.0176795,-0.113566,1.1998695,0.0150715,-0.0979059999999999,0.9229905,0.0009195,0.000739,1.0770095,-0.0009195,-0.0007389999999999,0.8355695,-0.5588385,0.024761,1.1526195,-0.5649285,0.029786,0.7953395,-0.8908985,-0.036745,1.1932394999999998,-0.9098685,-0.0263589999999999
13,1.022648,0.7727075,0.039166,0.844959,0.5002875,-0.00306,0.784969,0.2364775,-0.0266099999999999,1.189789,0.5013875,0.004671,1.243409,0.2433575,-0.0186469999999999,0.813539,0.0177975,-0.113612,1.199889,0.0150134999999999,-0.097842,0.9229690000000002,0.0009474999999999,0.000729,1.0770309999999998,-0.0009475,-0.000729,0.835499,-0.5589425,0.024844,1.152399,-0.5645924999999999,0.029875,0.795359,-0.8909425,-0.036681,1.192869,-0.9093425,-0.0253079999999999
14,1.022772,0.772748,0.0391435,0.8450830000000001,0.500288,-0.0030724999999999,0.784993,0.236648,-0.0265335,1.189813,0.501328,0.0047015,1.243433,0.243348,-0.0186464999999999,0.813563,0.017881,-0.1136115,1.199913,0.014977,-0.0978115,0.922956,0.000978,0.0007205,1.077044,-0.0009779999999999,-0.0007204999999999,0.8353130000000001,-0.558982,0.0248765,1.152333,-0.565002,0.0299425,0.795543,-0.890262,-0.0349094999999999,1.192603,-0.908962,-0.0243955
15,1.022941,0.7727835,0.0391225,0.8452230000000001,0.5002735,-0.0030694999999999,0.785003,0.2368835,-0.0264824999999999,1.189843,0.5012835,0.0047285,1.243483,0.2433335,-0.0186434999999999,0.813593,0.0179095,-0.1135944999999999,1.2000529999999998,0.0150165,-0.0976344999999999,0.9229420000000002,0.0010124999999999,0.0007165,1.0770579999999998,-0.0010124999999999,-0.0007164999999999,0.835133,-0.5592165,0.0248975,1.152313,-0.5654365,0.0299675,0.7956030000000001,-0.8902765,-0.0313824999999999,1.192133,-0.9089765,-0.0236394999999999
16,1.0231405,0.7728555,0.039124,0.8453775,0.5002555,-0.0030869999999999,0.7850475,0.2371655,-0.0264639999999999,1.1900475,0.5012955,0.004624,1.2435975,0.2432455,-0.0186599999999999,0.8135975,0.0179415,-0.113589,1.2002875,0.0149924999999999,-0.097409,0.9229315,0.0010435,0.0007199999999999,1.0770685,-0.0010435,-0.0007199999999999,0.8349875,-0.5593144999999999,0.024871,1.1521875,-0.5647145,0.02998,0.7957974999999999,-0.8902945,-0.0307119999999999,1.1916575,-0.9089945,-0.0229799999999999
17,1.023344,0.772957,0.0391254999999999,0.845564,0.500287,-0.0031455,0.7850540000000001,0.2375169999999999,-0.0264035,1.190274,0.501297,0.0045534999999999,1.243704,0.2431769999999999,-0.0186565,0.813534,0.017997,-0.1135875,1.200594,0.015004,-0.0971175,0.922918,0.001092,0.0007194999999999,1.077082,-0.0010919999999999,-0.0007195,0.8348440000000001,-0.559583,0.0248734999999999,1.152024,-0.564053,0.0300104999999999,0.7958540000000001,-0.8905230000000001,-0.0298815,1.190904,-0.908733,-0.0220585
18,1.0235569999999998,0.773065,0.039126,0.845741,0.500305,-0.0032189999999999,0.785091,0.237755,-0.0263879999999999,1.190541,0.501285,0.004489,1.243851,0.243085,-0.0186619999999999,0.813431,0.018036,-0.1135669999999999,1.201231,0.0151589999999999,-0.096597,0.92291,0.001137,0.00073,1.07709,-0.001137,-0.00073,0.834691,-0.559765,0.024856,1.151881,-0.563875,0.03006,0.795971,-0.8901049999999999,-0.0290519999999999,1.1902409999999999,-0.908715,-0.0220339999999999
19,1.0237785,0.773169,0.03916,0.8459205,0.500329,-0.003283,0.7851105,0.238119,-0.0263489999999999,1.1908105,0.501269,0.0044519999999999,1.2440105,0.242979,-0.018676,0.8132905,0.01808,-0.113541,1.2018905,0.01519,-0.0960309999999999,0.9229085,0.0011879999999999,0.0007349999999999,1.0770915,-0.0011879999999999,-0.000735,0.8346405,-0.559761,0.0248169999999999,1.1517605,-0.5639909999999999,0.0301349999999999,0.7961705,-0.8901009999999999,-0.028189,1.1895605,-0.908821,-0.022062
20,1.0240005,0.7732695,0.0391595,0.8460925,0.5003395,-0.0033885,0.7851025,0.2383394999999999,-0.0263695,1.1911025,0.5012395000000001,0.0043884999999999,1.2441625,0.2428294999999999,-0.0187005,0.8131425,0.0181115,-0.1135014999999999,1.2024925,0.0152515,-0.0956315,0.9229015,0.0012225,0.0007614999999999,1.0770985,-0.0012224999999999,-0.0007615,0.8346125,-0.5597705,0.0247445,1.1518325,-0.5644205,0.0301875,0.7963725,-0.8905504999999999,-0.0277315,1.1893825,-0.9094205,-0.0226055
21,1.024235,0.7733300000000001,0.0391319999999999,0.846282,0.50035,-0.003508,0.7851220000000001,0.23862,-0.026436,1.191412,0.50119,0.0043159999999999,1.244282,0.24284,-0.018755,0.8130120000000001,0.018131,-0.113569,1.203112,0.015222,-0.095619,0.9229100000000001,0.001252,0.0007899999999999,1.0770899999999999,-0.0012519999999999,-0.00079,0.834632,-0.5597599999999999,0.0246659999999999,1.151672,-0.56335,0.0301609999999999,0.796562,-0.89098,-0.027783,1.188952,-0.90954,-0.022614
22,1.0245085,0.773384,0.039146,0.8464805,0.500364,-0.003637,0.7852005,0.238984,-0.0265439999999999,1.1917805,0.501144,0.0042169999999999,1.2443905,0.242804,-0.018872,0.8129105,0.018095,-0.113643,1.2036705,0.0153149999999999,-0.095663,0.9229175000000001,0.001288,0.0008109999999999,1.0770825,-0.001288,-0.0008109999999999,0.8346505,-0.559696,0.024555,1.1515005,-0.562286,0.030142,0.7966805,-0.891186,-0.027908,1.1887705,-0.909656,-0.0223909999999999
23,1.02461,0.7734505,0.039171,0.846589,0.5003905,-0.003817,0.785229,0.2394705,-0.0266529999999999,1.192029,0.5011205,0.0040959999999999,1.244439,0.2427805,-0.019017,0.812779,0.0180635,-0.113716,1.204119,0.0152915,-0.095726,0.922929,0.0013115,0.0008279999999999,1.0770710000000001,-0.0013115,-0.000828,0.834659,-0.5594695,0.0244649999999999,1.151309,-0.5619095,0.0301419999999999,0.796729,-0.8913595,-0.028071,1.188549,-0.9095095,-0.022049
24,1.024719,0.7735075,0.039161,0.8467060000000001,0.5004175,-0.0040419999999999,0.785226,0.2401575,-0.0267609999999999,1.192236,0.5010375,0.003942,1.244606,0.2427875,-0.0193349999999999,0.8125760000000001,0.0180815,-0.1138329999999999,1.204696,0.0154665,-0.095813,0.9229620000000001,0.0013224999999999,0.0008519999999999,1.077038,-0.0013224999999999,-0.0008519999999999,0.8346960000000001,-0.5592125,0.024321,1.151166,-0.5619525,0.030121,0.7967860000000001,-0.8910724999999999,-0.0281779999999999,1.188586,-0.9094825,-0.0221559999999999
25,1.0248895,0.7735845,0.038936,0.8467555,0.5004745,-0.004319,0.7852455,0.2413345,-0.0276659999999999,1.1924355,0.5009545000000001,0.0035999999999999,1.2447955,0.2431145,-0.020419,0.8118855,0.0180695,-0.115375,1.2058455,0.0156305,-0.097195,0.9230045,0.0013265,0.0007889999999999,1.0769955,-0.0013265,-0.000789,0.8347455,-0.5588555,0.0239759999999999,1.1511055,-0.5615055,0.0298349999999999,0.7969155,-0.8912954999999999,-0.028599,1.1886655,-0.9093755,-0.023326
26,1.025002,0.7736004999999999,0.038594,0.8469450000000001,0.5005904999999999,-0.004865,0.7853749999999999,0.2430405,-0.030321,1.1925549999999998,0.5009705,0.00298,1.245105,0.2442504999999999,-0.024091,0.809375,0.0181344999999999,-0.120847,1.208945,0.0158395,-0.1035369999999999,0.92311,0.0013425,0.000649,1.07689,-0.0013425,-0.0006489999999999,0.835055,-0.5580295000000001,0.023379,1.151245,-0.5612895,0.029365,0.797015,-0.8908195000000001,-0.0283429999999999,1.189125,-0.9097995,-0.025005
27,1.0250785,0.7736379999999999,0.0382835,0.8471005,0.500848,-0.0057525,0.7841605,0.246358,-0.0385284999999999,1.1926505,0.500988,0.0020915,1.2459505,0.246638,-0.0312184999999999,0.8039905,0.019073,-0.1327955,1.2145905,0.016974,-0.1158854999999999,0.9232075,0.001394,0.0004154999999999,1.0767925,-0.001394,-0.0004154999999999,0.8355305,-0.556562,0.0224555,1.1514805,-0.561572,0.0286555,0.7969904999999999,-0.890462,-0.0290585,1.1895205,-0.910262,-0.0269834999999999
28,1.0250944999999998,0.7736495,0.0382235,0.8472605,0.5012195,-0.0066995,0.7824504999999999,0.2510095,-0.0489035,1.1927005,0.5009195,0.0009935,1.2480305,0.2518694999999999,-0.0421804999999999,0.7960005,0.0217995,-0.1524335,1.2230105,0.0215015,-0.1345135,0.9233525,0.0014385,0.0002064999999999,1.0766475,-0.0014385,-0.0002065,0.8363305,-0.5515205,0.0213415,1.1514005,-0.5609505,0.0276925,0.7969105,-0.8901304999999999,-0.0297865,1.1897705,-0.9102105,-0.0288285
29,1.0251085,0.7736345,0.038662,0.8475995000000001,0.5020345,-0.0079139999999999,0.7798995,0.2606445,-0.062377,1.1927095,0.5008345000000001,-0.0004529999999999,1.2530895,0.2611945,-0.0565929999999999,0.7859195,0.0324545,-0.1781599999999999,1.2339795,0.0343915,-0.15821,0.9235315,0.0014665,-7.599999999999968e-05,1.0764685,-0.0014665,7.599999999999968e-05,0.8366595,-0.5502455,0.019889,1.1514695,-0.5600855,0.026554,0.7968795,-0.8902255,-0.0313529999999999,1.1901995,-0.9107655,-0.0312469999999999
30,1.0250925,0.7736615,0.0395509999999999,0.8482415,0.5033215,-0.00929,0.7760715,0.2731515,-0.077987,1.1924515,0.5008015,-0.001917,1.2590515,0.2732914999999999,-0.072587,0.7745315,0.0559645,-0.206207,1.2484215,0.0544824999999999,-0.188547,0.9237115,0.0014904999999999,-0.000379,1.0762885,-0.0014905,0.0003789999999999,0.8376815,-0.5444285,0.0182399999999999,1.1512415,-0.5592285,0.0252169999999999,0.7967215,-0.8889185000000001,-0.032784,1.1906615,-0.9106285,-0.033118
31,1.024953,0.7735965,0.0410984999999999,0.849032,0.5052465,-0.0104674999999999,0.770802,0.2901365,-0.0958304999999999,1.191822,0.5008765,-0.0030314999999999,1.265992,0.2898065,-0.0904204999999999,0.7623920000000001,0.0877015,-0.2386104999999999,1.2667819999999999,0.0879305,-0.2227304999999999,0.923902,0.0016264999999999,-0.0006354999999999,1.076098,-0.0016265,0.0006354999999999,0.838082,-0.5428335,0.0164415,1.151092,-0.5557435,0.0236615,0.796732,-0.8891835,-0.0339495,1.1910919999999998,-0.9099535,-0.0353034999999999
32,1.0247055,0.77334,0.042748,0.8498765,0.50743,-0.011374,0.7653365,0.3122499999999999,-0.115844,1.1909365,0.5010600000000001,-0.003909,1.2744165,0.31082,-0.107794,0.7477165,0.12779,-0.273504,1.2864165,0.13085,-0.255754,0.9240835000000001,0.001807,-0.0008579999999999,1.0759165,-0.0018069999999999,0.0008579999999999,0.8390265,-0.5376599999999999,0.0144959999999999,1.1508265,-0.5521499999999999,0.021951,0.7967465,-0.88866,-0.035893,1.1917265,-0.90975,-0.0373579999999999
33,1.0243974999999998,0.7727655,0.0446175,0.8504955000000001,0.5096055,-0.0119515,0.7586555,0.3396355,-0.1360395,1.1897555,0.5015155,-0.0044284999999999,1.2837555,0.3370655,-0.1241794999999999,0.7323455,0.1779455,-0.3088595,1.3085255,0.1802155,-0.2868894999999999,0.9242765,0.0021125,-0.0010544999999999,1.0757235,-0.0021125,0.0010544999999999,0.8399955,-0.5328345,0.0124425,1.1509355000000001,-0.5529544999999999,0.0203855,0.7968155,-0.8883844999999999,-0.0382624999999999,1.1923655,-0.9105545,-0.0393604999999999
34,1.0239735,0.7717815,0.0466185,0.8509335,0.5118715,-0.0121925,0.7518235,0.3721215,-0.1550995,1.1882635,0.5023415,-0.0047084999999999,1.2937435,0.3677115,-0.1393495,0.7183035,0.2328615,-0.3437795,1.3300935,0.2380315,-0.3161895,0.9244375,0.0024805,-0.0011814999999999,1.0755625,-0.0024805,0.0011815,0.8400434999999999,-0.5331485,0.0106615,1.1509635,-0.5508285,0.0186155,0.7964435000000001,-0.8903585,-0.0406804999999999,1.1929635,-0.9109385,-0.0410694999999999
35,1.0233885,0.7707195,0.0486955,0.8510925,0.5143395000000001,-0.0118134999999999,0.7447325,0.4092795,-0.1695995,1.1866825,0.5036095,-0.0044924999999999,1.3038425,0.4036195,-0.1504795,0.7079425000000001,0.3042295,-0.3685994999999999,1.3513225,0.3074395,-0.3390395,0.9246055,0.0027685,-0.0012184999999999,1.0753945,-0.0027685,0.0012185,0.8410625,-0.5285805,0.0091705,1.1509125,-0.5491405,0.0172165,0.7964625,-0.8896205,-0.0433305,1.1934925,-0.9116805,-0.0427524999999999
36,1.022778,0.7692375,0.0501739999999999,0.851284,0.5169575,-0.010922,0.7396240000000001,0.4505675,-0.175915,1.185204,0.5050074999999999,-0.003753,1.313314,0.4428775,-0.155825,0.702214,0.3856974999999999,-0.381235,1.367724,0.3852675,-0.349205,0.924786,0.0031834999999999,-0.0012209999999999,1.075214,-0.0031834999999999,0.0012209999999999,0.842274,-0.5240525,0.0080539999999999,1.150974,-0.5485925,0.016145,0.796524,-0.8883425,-0.0445349999999999,1.193994,-0.9129325,-0.043881
37,1.0221295,0.7672225,0.0510964999999999,0.8514635,0.5199725000000001,-0.0101515,0.7363935000000001,0.4952625,-0.1791215,1.1842435,0.5066525000000001,-0.0025815,1.3210435,0.4848325,-0.1562315,0.7009035,0.4763425,-0.3834015,1.3798035,0.4694925,-0.3494615,0.9249455,0.0035694999999999,-0.0012705,1.0750545,-0.0035695,0.0012704999999999,0.8425935,-0.5262875,0.0074304999999999,1.1511135,-0.5487275,0.0154934999999999,0.7962435,-0.8916175,-0.0458405,1.1946235,-0.9146575,-0.0447835
38,1.0214964999999998,0.764838,0.0512279999999999,0.8515665,0.523568,-0.009023,0.7346465000000001,0.5369980000000001,-0.179303,1.1835165,0.508708,-0.000732,1.3250565,0.526398,-0.156223,0.7008165,0.563118,-0.383533,1.3871065,0.5536580000000001,-0.349353,0.9250585,0.003967,-0.001261,1.0749415,-0.003967,0.0012609999999999,0.8426565,-0.529412,0.00733,1.1512565,-0.550082,0.0153119999999999,0.7960265,-0.8950619999999999,-0.046321,1.1949064999999999,-0.918112,-0.045335
39,1.0206739999999999,0.7621065,0.0512,0.851797,0.5266365000000001,-0.007861,0.7345270000000002,0.5787765,-0.179307,1.182947,0.5108465000000001,0.000975,1.3273169999999999,0.5677165000000001,-0.1561469999999999,0.700697,0.6420365,-0.383537,1.389527,0.6345965,-0.349277,0.925152,0.0043494999999999,-0.0012579999999999,1.074848,-0.0043495,0.001258,0.843247,-0.5303334999999999,0.007335,1.151347,-0.5540934999999999,0.015336,0.796307,-0.8960634999999999,-0.04885,1.195127,-0.9220335,-0.0453979999999999
40,1.0198035,0.7587845000000001,0.0511715,0.8519785,0.5288745,-0.0069865,0.7343985,0.6204545,-0.1793115,1.1826285,0.5133745000000001,0.0022324999999999,1.3281684999999999,0.6077145,-0.1554815,0.7005684999999999,0.7212445000000001,-0.3835415,1.3893285,0.7047745000000001,-0.3471815,0.9252805,0.0045585,-0.0012535,1.0747195,-0.0045584999999999,0.0012535,0.8442784999999999,-0.5267755,0.0068755,1.1517985,-0.5622455,0.0154395,0.7966485,-0.8948455,-0.0488395,1.1953985,-0.9282855,-0.0458815
41,1.01895,0.7554894999999999,0.0511439999999999,0.852394,0.5305995000000001,-0.006827,0.734244,0.6578595,-0.178065,1.182344,0.5165195,0.0032569999999999,1.327864,0.6448294999999999,-0.149955,0.702564,0.7955494999999999,-0.373845,1.388814,0.7677395,-0.335085,0.92543,0.0046805,-0.001249,1.07457,-0.0046804999999999,0.001249,0.843554,-0.5358805,0.006855,1.151324,-0.5634305,0.015026,0.797054,-0.9016605,-0.053304,1.195274,-0.9314305,-0.0454469999999999
42,1.0180989999999999,0.752355,0.050329,0.8527,0.532305,-0.0066779999999999,0.73471,0.691925,-0.17291,1.18218,0.519825,0.004086,1.32743,0.677795,-0.14084,0.70719,0.862685,-0.35721,1.38801,0.833735,-0.31486,0.925617,0.004737,-0.0012019999999999,1.074383,-0.0047369999999999,0.001202,0.84277,-0.545195,0.006985,1.15144,-0.568005,0.01517,0.79761,-0.909965,-0.057589,1.19553,-0.936325,-0.0455359999999999
43,1.01728,0.7491150000000001,0.0485275,0.852503,0.5348550000000001,-0.0059134999999999,0.737533,0.721635,-0.1642755,1.181903,0.5226350000000001,0.0051295,1.326883,0.7067950000000001,-0.1286655,0.713633,0.927065,-0.3326055,1.3836330000000001,0.8932150000000001,-0.2870355,0.925875,0.004788,-0.0011194999999999,1.074125,-0.004788,0.0011195,0.8429630000000001,-0.547385,0.0067725,1.151973,-0.576345,0.0157875,0.798313,-0.912025,-0.0599655,1.195973,-0.942875,-0.0455784999999999
44,1.0165365,0.7461074999999999,0.0462825,0.8520675,0.5368775,-0.0050854999999999,0.7411274999999999,0.7467374999999999,-0.1521295,1.1816275,0.5249775,0.0062925,1.3250775,0.7306174999999999,-0.1156695,0.7233175000000001,0.9759175,-0.3012695,1.3762575,0.9408775,-0.2567195,0.9261255,0.0048925,-0.0009894999999999,1.0738745,-0.0048924999999999,0.0009895,0.8441075,-0.5426725,0.0067605,1.1520675,-0.5816225,0.0164435,0.7993975,-0.9101825,-0.0622654999999999,1.1957275,-0.9475325,-0.0448255
45,1.015714,0.7432615,0.043802,0.85152,0.5383715,-0.0039799999999999,0.74665,0.7671515,-0.138564,1.1816200000000001,0.5286814999999999,0.007998,1.32149,0.7510614999999999,-0.1022839999999999,0.7341600000000001,1.0137415,-0.266684,1.3649499999999999,0.9789415,-0.224584,0.926381,0.0048524999999999,-0.0007959999999999,1.073619,-0.0048525,0.000796,0.84346,-0.5518285,0.007571,1.1526399999999999,-0.5900385,0.017411,0.79982,-0.9184085,-0.065713,1.19568,-0.9536285,-0.0439959999999999
46,1.014209,0.741101,0.041026,0.851185,0.5415409999999999,-0.0029379999999999,0.7526349999999999,0.782691,-0.124503,1.181695,0.531601,0.009696,1.316465,0.7658309999999999,-0.088753,0.7450049999999999,1.041311,-0.231413,1.353025,1.007011,-0.191803,0.926567,0.004848,-0.000514,1.073433,-0.0048479999999999,0.000514,0.844685,-0.547089,0.0077839999999999,1.153005,-0.597539,0.018404,0.800155,-0.915599,-0.066106,1.195735,-0.959019,-0.0426459999999999
47,1.0122815,0.738445,0.038407,0.8510345,0.543115,-0.0019389999999999,0.7590945,0.795305,-0.112452,1.1817145,0.533135,0.011394,1.3113044999999999,0.775875,-0.0758619999999999,0.7543945,1.063535,-0.199932,1.3389545,1.0258349999999998,-0.159302,0.9268275,0.0048999999999999,-9.199999999999832e-05,1.0731725,-0.0049,9.20000000000018e-05,0.8450545,-0.548635,0.008112,1.1534045,-0.6052150000000001,0.019507,0.8002445,-0.916905,-0.067073,1.1958545,-0.964615,-0.0414769999999999
48,1.010289,0.735928,0.0364185,0.8508709999999999,0.5450980000000001,-0.0010735,0.765081,0.805388,-0.1025025,1.181641,0.5346080000000001,0.0129874999999999,1.305671,0.783688,-0.0649385,0.762271,1.079288,-0.1732925,1.326711,1.041488,-0.1330125,0.927093,0.0049659999999999,0.0004154999999999,1.072907,-0.0049659999999999,-0.0004155,0.845461,-0.549762,0.0083924999999999,1.152921,-0.606792,0.0199004999999999,0.800691,-0.917782,-0.0675495,1.195721,-0.968222,-0.0400075
49,1.0084455,0.7336360000000001,0.034803,0.8509755,0.547006,-0.000399,0.7699255,0.810766,-0.093157,1.1817455,0.534956,0.014442,1.3005255,0.787816,-0.055497,0.7687755000000001,1.085756,-0.148997,1.3157855,1.054456,-0.1117269999999999,0.9274165,0.005084,0.0010089999999999,1.0725835,-0.0050839999999999,-0.0010089999999999,0.8470555,-0.544224,0.008536,1.1529255,-0.610664,0.020445,0.8016855,-0.914444,-0.067913,1.1957055,-0.972084,-0.0386689999999999
50,1.0062134999999999,0.7316334999999999,0.033644,0.8511595000000001,0.5493035,0.0001739999999999,0.7743694999999999,0.8163435,-0.084564,1.1819095,0.5344935,0.015681,1.2961295,0.7902035,-0.047602,0.7743295,1.0886235000000002,-0.129864,1.3073295,1.0650235,-0.095694,0.9276854999999999,0.0052304999999999,0.0015599999999999,1.0723145,-0.0052304999999999,-0.00156,0.8462295,-0.5557265,0.0097259999999999,1.1534395,-0.6166865,0.0213999999999999,0.8015695,-0.9249065,-0.06735,1.1960695,-0.9763165,-0.037741
51,1.0040015,0.7294475,0.0330219999999999,0.8513505,0.5517475000000001,0.0008449999999999,0.7778305,0.8196075,-0.077931,1.1817305,0.5330675,0.016909,1.2925505,0.7909175,-0.041611,0.7788605,1.0887574999999998,-0.115131,1.3003004999999999,1.0659575,-0.081221,0.9278865000000001,0.0053365,0.0020629999999999,1.0721135,-0.0053365,-0.0020629999999999,0.8468005000000001,-0.5576525,0.0104599999999999,1.1539805,-0.6224124999999999,0.0222749999999999,0.8023305000000001,-0.9265325,-0.06683,1.1964905,-0.9807425,-0.037165
52,1.00181,0.7275905,0.0327195,0.851562,0.5531904999999999,0.0017075,0.780432,0.8213305,-0.0724765,1.181092,0.5314405,0.0178395,1.289032,0.7906805000000001,-0.0365915,0.782432,1.0870005,-0.1040265,1.295322,1.0645005,-0.0706665,0.928118,0.0054055,0.0023975,1.071882,-0.0054054999999999,-0.0023975,0.846962,-0.5605595,0.0103945,1.154602,-0.6279295,0.0230795,0.803152,-0.9296595,-0.0663105,1.197252,-0.9848795,-0.0370315
53,0.9996115,0.725551,0.032692,0.8518085,0.555041,0.002554,0.7821785,0.822591,-0.0682789999999999,1.1804885,0.5297409999999999,0.018535,1.2860385,0.7895409999999999,-0.0329629999999999,0.7852385,1.084861,-0.096736,1.2918385,1.062761,-0.064386,0.9283835,0.0055169999999999,0.0026,1.0716165,-0.0055169999999999,-0.0026,0.8472085,-0.562989,0.010054,1.1548384999999999,-0.631629,0.023511,0.8035384999999999,-0.932459,-0.066146,1.1979485,-0.987599,-0.036857
54,0.9975630000000001,0.723611,0.032455,0.8521470000000001,0.5563710000000001,0.002839,0.783147,0.821971,-0.0657609999999999,1.179997,0.527261,0.018529,1.283857,0.787181,-0.0308069999999999,0.787637,1.082881,-0.091866,1.289647,1.060881,-0.061977,0.928705,0.005627,0.002712,1.071295,-0.0056269999999999,-0.0027119999999999,0.846327,-0.575039,0.009923,1.154967,-0.633259,0.02348,0.8031969999999999,-0.944209,-0.066972,1.198417,-0.990079,-0.036943
55,0.996513,0.722298,0.0320015,0.852635,0.555038,0.0025624999999999,0.7837350000000001,0.821448,-0.0641765,1.179575,0.525928,0.0182715,1.282235,0.785848,-0.0297345,0.789185,1.081948,-0.0894135,1.288035,1.059848,-0.0617395,0.9290450000000001,0.005747,0.0030165,1.0709549999999999,-0.005747,-0.0030165,0.846435,-0.577072,0.0096335,1.154385,-0.626852,0.0228525,0.8029950000000001,-0.946492,-0.0672545,1.198165,-0.985612,-0.0369545
56,0.996342,0.722298,0.031239,0.853209,0.555038,0.0021709999999999,0.784279,0.821448,-0.063639,1.179269,0.525928,0.017851,1.281099,0.785848,-0.030038,0.790149,1.082148,-0.088045,1.286889,1.0588479999999998,-0.062188,0.929258,0.005747,0.0034339999999999,1.070742,-0.005747,-0.0034339999999999,0.847889,-0.568372,0.008636,1.1549589999999998,-0.626852,0.022461,0.8044290000000001,-0.938592,-0.065783,1.198759,-0.985612,-0.038033
57,0.997052,0.722298,0.0302524999999999,0.853907,0.555038,0.0015304999999999,0.784987,0.821448,-0.0642135,1.1791369999999999,0.525108,0.0170475,1.280487,0.785848,-0.0307225,0.790837,1.081448,-0.0884455,1.286547,1.0588479999999998,-0.0628624999999999,0.929427,0.005747,0.0040704999999999,1.070573,-0.005747,-0.0040704999999999,0.849147,-0.559212,0.0076584999999999,1.154587,-0.617552,0.0211564999999999,0.805507,-0.930272,-0.0646075,1.198397,-0.978282,-0.0387044999999999
58,0.997701,0.722298,0.028792,0.854901,0.554668,-0.0001389999999999,0.785631,0.821448,-0.065508,1.1791909999999999,0.524178,0.015717,1.280151,0.785518,-0.032049,0.7914810000000001,1.079748,-0.08974,1.286531,1.0588479999999998,-0.064179,0.9295430000000001,0.005747,0.004252,1.070457,-0.005747,-0.0042519999999999,0.848881,-0.559172,0.003726,1.153911,-0.608132,0.018113,0.805631,-0.930682,-0.064662,1.197851,-0.970922,-0.040038
59,0.998448,0.721906,0.026942,0.856195,0.553336,-0.0026289999999999,0.786335,0.821286,-0.06728,1.179425,0.523476,0.013902,1.279725,0.784806,-0.033858,0.792225,1.078126,-0.091511,1.286625,1.058426,-0.0676229999999999,0.92961,0.005594,0.0042689999999999,1.07039,-0.005594,-0.0042689999999999,0.8483350000000001,-0.558944,-0.0010369999999999,1.153375,-0.598244,0.013584,0.806045,-0.930474,-0.064913,1.198085,-0.963524,-0.042932
60,1.0002805,0.721231,0.0235114999999999,0.8582005,0.549171,-0.0074024999999999,0.7867405000000001,0.8205009999999999,-0.0698605,1.1802205,0.523131,0.0111425,1.2796805,0.783631,-0.0373765,0.7928904999999999,1.078451,-0.0940855,1.2869105,1.056751,-0.0733295,0.9298015,0.005375,0.0040544999999999,1.0701985,-0.005375,-0.0040544999999999,0.8493405,-0.548579,-0.0078265,1.1531405000000001,-0.5877290000000001,0.0069695,0.8071205,-0.920349,-0.0656145,1.1983805,-0.954859,-0.0464955
61,1.002645,0.7207009999999999,0.018992,0.859841,0.545661,-0.01294,0.787111,0.820341,-0.073865,1.181081,0.523631,0.0076879999999999,1.280081,0.783251,-0.042261,0.793111,1.077691,-0.098626,1.287331,1.054191,-0.081056,0.9300420000000001,0.005104,0.0037629999999999,1.069958,-0.0051039999999999,-0.003763,0.849031,-0.545869,-0.016392,1.153151,-0.575029,-0.001521,0.8083009999999999,-0.917949,-0.069651,1.198581,-0.943949,-0.050629
62,1.0059585,0.719218,0.013992,0.8615535,0.541798,-0.0190159999999999,0.7869135,0.817788,-0.079496,1.1819835,0.524548,0.003673,1.2807735,0.779648,-0.048698,0.7933735,1.077238,-0.104238,1.2879435,1.052138,-0.089778,0.9302835,0.004794,0.003452,1.0697165,-0.0047939999999999,-0.003452,0.8488035,-0.542632,-0.026933,1.1533335,-0.561502,-0.011836,0.8091735,-0.915162,-0.0730909999999999,1.1988335,-0.932292,-0.0548119999999999
63,1.0094785,0.717252,0.0082399999999999,0.8628085,0.538172,-0.02569,0.7866485,0.815242,-0.08602,1.1829485,0.526242,-0.000953,1.2815685,0.776872,-0.056078,0.7931985,1.0772419999999998,-0.111299,1.2889585000000001,1.050242,-0.099659,0.9304695000000001,0.004539,0.003018,1.0695305,-0.0045389999999999,-0.003018,0.8485985,-0.538958,-0.039303,1.1550585,-0.557908,-0.022854,0.8098685000000001,-0.911838,-0.07685,1.2002185,-0.928558,-0.059229
64,1.0129374999999998,0.7155400000000001,0.0018655,0.8645495,0.5341899999999999,-0.0328685,0.7865295,0.81318,-0.0934605,1.1839994999999999,0.5262899999999999,-0.0063315,1.2827095,0.7746999999999999,-0.0645385,0.7932995,1.07956,-0.1190605,1.2902395,1.05056,-0.1100005,0.9304295,0.0043099999999999,0.0021774999999999,1.0695705,-0.00431,-0.0021775,0.8485195,-0.53657,-0.0525405,1.1575995,-0.55477,-0.0346145,0.8106195,-0.90962,-0.0820205,1.2028095,-0.92523,-0.0636195
65,1.0164385,0.7120154999999999,-0.005447,0.8662915000000001,0.5308155000000001,-0.040186,0.7863115,0.8101555,-0.101687,1.1849915,0.5268155000000001,-0.011838,1.2838915,0.7722655,-0.073831,0.7938215,1.0815355,-0.127637,1.2915015,1.0513355,-0.121167,0.9303775,0.0041785,0.000996,1.0696225,-0.0041785,-0.000996,0.8488515,-0.5240345,-0.066991,1.1591815,-0.5415145,-0.048109,0.8119315,-0.8974745,-0.08702,1.2043915,-0.9133245,-0.0681119999999999
66,1.020034,0.710042,-0.0127105,0.868452,0.528012,-0.0472795,0.7863519999999999,0.805042,-0.1106434999999999,1.185492,0.527372,-0.0175185,1.285262,0.769652,-0.0837285,0.795022,1.077612,-0.1380134999999999,1.292912,1.048112,-0.1344634999999999,0.93034,0.0036539999999999,-0.0005675,1.06966,-0.003654,0.0005675,0.848522,-0.5204679999999999,-0.0820274999999999,1.160962,-0.5270079999999999,-0.0625555,0.8127920000000001,-0.893028,-0.0922385,1.205822,-0.899848,-0.0723345
67,1.023563,0.709361,-0.019636,0.870752,0.5244310000000001,-0.054695,0.786422,0.803241,-0.118822,1.185702,0.5262610000000001,-0.0238379999999999,1.2866520000000001,0.7685310000000001,-0.093233,0.796792,1.077301,-0.147572,1.294442,1.048501,-0.146632,0.930158,0.0033369999999999,-0.0013839999999999,1.069842,-0.0033369999999999,0.001384,0.847602,-0.506579,-0.096054,1.163682,-0.513119,-0.076626,0.812882,-0.879039,-0.095389,1.207372,-0.8859589999999999,-0.07596
68,1.026858,0.706576,-0.0268415,0.872806,0.520956,-0.0618815,0.786946,0.801566,-0.1274565,1.1858659999999999,0.524726,-0.0301365,1.288026,0.765846,-0.1027445,0.798536,1.075386,-0.1574065,1.296096,1.048186,-0.1588065,0.930013,0.003313,-0.0024174999999999,1.069987,-0.003313,0.0024175,0.846486,-0.492994,-0.1110265,1.166996,-0.499534,-0.0907675,0.813236,-0.8654540000000001,-0.0983525,1.208926,-0.872374,-0.0801765
69,1.02858,0.7036815,-0.0330005,0.87477,0.5176915,-0.0677575,0.7872,0.7967915,-0.1358925,1.1859899999999999,0.5215015,-0.0360525,1.28949,0.7635115,-0.1117525,0.8002500000000001,1.0735915,-0.1664925,1.2977699999999999,1.0494915,-0.1706125,0.92975,0.0030394999999999,-0.0031735,1.07025,-0.0030395,0.0031734999999999,0.8446300000000001,-0.4778885,-0.1261624999999999,1.17109,-0.4844285,-0.1039345,0.81342,-0.8503485000000001,-0.1006215,1.21069,-0.8572685,-0.0835535
70,1.0302425,0.699176,-0.0377825,0.8764535,0.514566,-0.0721535,0.7878335,0.791686,-0.1428205,1.1861435,0.518316,-0.0404805,1.2909735,0.758726,-0.1196605,0.8020035,1.0715059999999998,-0.1737505,1.2993035,1.045106,-0.1817405,0.9294065,0.002972,-0.0040835,1.0705935,-0.0029719999999999,0.0040835,0.8422335,-0.468274,-0.1394205,1.1769235,-0.472434,-0.1156205,0.8129135000000001,-0.840104,-0.1019855,1.2136235,-0.8447739999999999,-0.0859585
71,1.0319985,0.6968095,-0.0434775,0.8778684999999999,0.5101295,-0.0782605,0.7887085,0.7881895,-0.1497995,1.1863785,0.5130495,-0.0460275,1.2924185000000001,0.7584895,-0.1278294999999999,0.8045185,1.0718394999999998,-0.1814494999999999,1.3008885000000001,1.0421395,-0.1929294999999999,0.9290035,0.0032324999999999,-0.0046854999999999,1.0709965,-0.0032324999999999,0.0046855,0.8399885,-0.4577405,-0.1535794999999999,1.1843185,-0.4618405,-0.1281095,0.8135885,-0.8283105,-0.1065545,1.2174085,-0.8332505,-0.0897285
72,1.033733,0.6938635,-0.0496895,0.878653,0.5062335,-0.0842445,0.790403,0.7853034999999999,-0.1572545,1.186533,0.5085235,-0.0513315,1.293583,0.7566735,-0.1359545,0.807123,1.0656435,-0.1891645,1.302083,1.0375235,-0.2036745,0.928589,0.0032724999999999,-0.0053265,1.071411,-0.0032725,0.0053265,0.837673,-0.4447965,-0.1675445,1.191953,-0.4462565,-0.1406045,0.813193,-0.8134465000000001,-0.1130745,1.222133,-0.8153565,-0.0937114999999999
73,1.0349645,0.6922945,-0.0554765,0.8796465,0.5019645,-0.0904095,0.7918864999999999,0.7814145,-0.1645165,1.1866065,0.5060045,-0.0561925,1.2948265,0.7554645000000001,-0.1438165,0.8097965,1.0608045,-0.1963865,1.3030265,1.0325645,-0.2146865,0.9283075,0.0032495,-0.0060165,1.0716925,-0.0032495,0.0060165,0.8353965,-0.4310555,-0.1828765,1.2005964999999998,-0.4300655,-0.1540265,0.8125964999999999,-0.7975255,-0.1239265,1.2280464999999998,-0.7966854999999999,-0.0987715
74,1.0358195,0.6914525,-0.0647325,0.8805965,0.4995625,-0.1004805,0.7926965,0.7810725000000001,-0.1756724999999999,1.1867265,0.5042424999999999,-0.0653035,1.2958865,0.7554624999999999,-0.1552425,0.8122665,1.0585025,-0.2073424999999999,1.3039165,1.0286825,-0.2289525,0.9281385,0.0032805,-0.0062715,1.0718615,-0.0032804999999999,0.0062714999999999,0.8329565000000001,-0.4141075,-0.2019024999999999,1.2094765,-0.4117875,-0.1735425,0.8119665,-0.7782674999999999,-0.1399625,1.2341765,-0.7757674999999999,-0.1080494999999999
75,1.0365495,0.69164,-0.077076,0.8815405000000001,0.49749,-0.113779,0.7934505000000001,0.7839499999999999,-0.18896,1.1872305,0.50198,-0.077796,1.2971705,0.7579899999999999,-0.16846,0.8145005,1.05997,-0.22058,1.3047505,1.03332,-0.24352,0.9277934999999999,0.00375,-0.006083,1.0722065,-0.00375,0.0060829999999999,0.8307305,-0.39472,-0.2313899999999999,1.2214105,-0.39119,-0.20156,0.8110105,-0.75665,-0.16115,1.2416005,-0.75263,-0.12605
76,1.0366705,0.688585,-0.089649,0.8815775000000001,0.496805,-0.125362,0.7934075,0.783485,-0.202862,1.1872475,0.500375,-0.088976,1.2977475,0.7542550000000001,-0.181972,0.8157775,1.054695,-0.234532,1.3047775,1.025605,-0.259042,0.9276015,0.003935,-0.0057869999999999,1.0723985,-0.0039349999999999,0.005787,0.8286575,-0.376505,-0.259282,1.2310675,-0.3706449999999999,-0.228142,0.8097675,-0.736855,-0.183562,1.2472775,-0.7320249999999999,-0.144592
77,1.036814,0.6904049999999999,-0.103188,0.881698,0.496755,-0.139106,0.793278,0.781075,-0.218384,1.187378,0.497465,-0.102542,1.298398,0.755085,-0.196284,0.8167680000000002,1.054775,-0.249714,1.304948,1.0240049999999998,-0.275154,0.927476,0.0042649999999999,-0.005385,1.072524,-0.004265,0.005385,0.826658,-0.353425,-0.288634,1.2411780000000001,-0.345245,-0.256614,0.808838,-0.712165,-0.206164,1.252688,-0.706245,-0.164374
78,1.0377095,0.69021,-0.1165445,0.8826685000000001,0.4989599999999999,-0.1520475,0.7937585,0.7805000000000001,-0.2332475,1.1877985,0.49596,-0.1156025,1.2994284999999999,0.75356,-0.2110475,0.8178785,1.05272,-0.2653375,1.3052685,1.02106,-0.2908775,0.9274755,0.0047999999999999,-0.0050344999999999,1.0725245,-0.0047999999999999,0.0050345,0.8254885000000001,-0.3311999999999999,-0.3161775,1.2509085,-0.3221299999999999,-0.2842175,0.8081685000000001,-0.68946,-0.2283875,1.2586685,-0.68263,-0.1840775
79,1.0385695,0.69301,-0.1295975,0.8832595000000001,0.50031,-0.1648795,0.7937795,0.78073,-0.2479694999999999,1.1879895,0.49496,-0.1289785,1.3003295,0.75536,-0.2252694999999999,0.8189095,1.05428,-0.2806095,1.3056495,1.02488,-0.3063695,0.9274425,0.00475,-0.0039895,1.0725575,-0.0047499999999999,0.0039895,0.8240095000000001,-0.30623,-0.3436595,1.2601095,-0.2964799999999999,-0.3109495,0.8078595,-0.66394,-0.2510795,1.2643295,-0.6545799999999999,-0.2038395
80,1.0392795,0.6934899999999999,-0.143558,0.8837815000000001,0.5035999999999999,-0.1771339999999999,0.7941515,0.77882,-0.263544,1.1881815,0.4959399999999999,-0.142423,1.3013215,0.75437,-0.240704,0.8201215,1.052,-0.297374,1.3059515,1.02581,-0.3237939999999999,0.9274035,0.0045499999999999,-0.0033659999999999,1.0725965,-0.0045499999999999,0.003366,0.8233315,-0.28571,-0.369824,1.2680315,-0.2753300000000001,-0.336714,0.8082615,-0.6427200000000001,-0.2736039999999999,1.2694815,-0.63126,-0.223634
81,1.039965,0.694215,-0.157049,0.88387,0.507115,-0.189543,0.7944,0.776755,-0.278443,1.18906,0.495425,-0.156382,1.30227,0.754215,-0.256703,0.82124,1.055855,-0.3140929999999999,1.3062,1.028785,-0.3417829999999999,0.92744,0.0049849999999999,-0.0030879999999999,1.07256,-0.004985,0.003088,0.82365,-0.265775,-0.3950629999999999,1.27534,-0.253365,-0.3619529999999999,0.80889,-0.620605,-0.294023,1.27359,-0.607125,-0.243053
82,1.040755,0.694445,-0.1706905,0.883805,0.507895,-0.2020405,0.794665,0.7763249999999999,-0.2933705,1.190095,0.495065,-0.1711225,1.303475,0.7536149999999999,-0.2732105,0.8224250000000001,1.058455,-0.3313205,1.306765,1.031545,-0.3602805,0.927505,0.0049249999999999,-0.0029745,1.072495,-0.004925,0.0029745,0.824215,-0.246735,-0.4194305,1.281465,-0.231985,-0.3861105,0.8098850000000001,-0.5995550000000001,-0.3102105,1.276445,-0.583755,-0.2623505
83,1.041312,0.69589,-0.179944,0.883814,0.5062800000000001,-0.20977,0.7943440000000002,0.7728200000000001,-0.3030699999999999,1.190674,0.49295,-0.180788,1.304664,0.75124,-0.2853,0.823304,1.05747,-0.34412,1.307394,1.0268000000000002,-0.37432,0.927494,0.00467,-0.0026259999999999,1.072506,-0.00467,0.002626,0.825204,-0.2284699999999999,-0.43826,1.287124,-0.21092,-0.4022099999999999,0.810724,-0.57946,-0.3204,1.279014,-0.56098,-0.27668
84,1.04201,0.694025,-0.1863905,0.8838090000000001,0.504735,-0.2138685,0.794219,0.767835,-0.3098885,1.191019,0.491675,-0.1870865,1.305799,0.7455050000000001,-0.2950085,0.8240190000000001,1.057945,-0.3527485,1.307849,1.018205,-0.3853785,0.927719,0.0043549999999999,-0.0027014999999999,1.072281,-0.0043549999999999,0.0027014999999999,0.825859,-0.2153849999999999,-0.4451585,1.289029,-0.1978349999999999,-0.4085285,0.811529,-0.566375,-0.3244785,1.279939,-0.547895,-0.2821185
85,1.042656,0.6931700000000001,-0.191531,0.883722,0.50368,-0.217702,0.794162,0.76249,-0.316082,1.191312,0.49092,-0.19322,1.3068819999999999,0.74361,-0.304142,0.824582,1.06028,-0.360922,1.308272,1.0167000000000002,-0.395792,0.927862,0.0042099999999999,-0.0028279999999999,1.072138,-0.0042099999999999,0.002828,0.826402,-0.2021499999999999,-0.451002,1.290632,-0.1846,-0.414252,0.811962,-0.55314,-0.326982,1.280842,-0.53436,-0.285672
86,1.042987,0.68912,-0.1950065,0.8833260000000001,0.50221,-0.2191995,0.794036,0.75917,-0.3198795,1.191306,0.49079,-0.1969665,1.307646,0.73793,-0.3121195,0.824926,1.05828,-0.3675495,1.3084259999999999,1.01005,-0.4048695,0.927746,0.0039,-0.0030304999999999,1.072254,-0.0038999999999999,0.0030305,0.826616,-0.1938099999999999,-0.4539495,1.290846,-0.1762599999999999,-0.4165295,0.8121160000000001,-0.5448,-0.3279395,1.281006,-0.52565,-0.2867495
87,1.043282,0.686085,-0.1982265,0.882928,0.5009349999999999,-0.2207505,0.793828,0.7572949999999999,-0.3237505,1.1914779999999998,0.490625,-0.2007585,1.308228,0.734405,-0.3189905,0.825148,1.057775,-0.3735905,1.308558,1.004085,-0.4135505,0.927908,0.0037249999999999,-0.0032294999999999,1.072092,-0.003725,0.0032294999999999,0.827468,-0.188275,-0.4568105,1.290918,-0.1688050000000001,-0.4185505,0.8134080000000001,-0.5379550000000001,-0.3286505,1.280738,-0.517445,-0.2881205
88,1.043705,0.6809799999999999,-0.2012419999999999,0.882505,0.50021,-0.22225,0.793595,0.75457,-0.32746,1.191535,0.48978,-0.204054,1.308645,0.72966,-0.32564,0.8252349999999999,1.05459,-0.37983,1.308645,0.99734,-0.42122,0.927995,0.0040099999999999,-0.0032299999999999,1.072005,-0.00401,0.0032299999999999,0.828465,-0.18441,-0.45862,1.290925,-0.1633799999999999,-0.41966,0.8147750000000001,-0.53308,-0.3297,1.280855,-0.51169,-0.28978
89,1.044416,0.6764749999999999,-0.203849,0.8823150000000001,0.499145,-0.22392,0.7937550000000001,0.753735,-0.33083,1.192005,0.488825,-0.2075,1.309495,0.7268749999999999,-0.33135,0.8256450000000001,1.053305,-0.38543,1.309215,0.991625,-0.42811,0.928335,0.004195,-0.00321,1.071665,-0.004195,0.0032099999999999,0.830365,-0.180195,-0.4599,1.291325,-0.1579549999999999,-0.42082,0.816585,-0.528465,-0.33059,1.280945,-0.506175,-0.29046
90,1.044856,0.67459,-0.206635,0.8821820000000001,0.49648,-0.225885,0.7939220000000001,0.7524,-0.334325,1.192542,0.4879,-0.210805,1.310322,0.7241599999999999,-0.336495,0.8261820000000001,1.05195,-0.391075,1.309782,0.98483,-0.434595,0.928682,0.0039399999999999,-0.003145,1.071318,-0.0039399999999999,0.0031449999999999,0.8325819999999999,-0.17684,-0.461345,1.291672,-0.15419,-0.422325,0.818602,-0.52464,-0.331535,1.281232,-0.5021800000000001,-0.291965
91,1.045198,0.67123,-0.2095,0.8825070000000002,0.4968599999999999,-0.2274199999999999,0.794097,0.7497499999999999,-0.33758,1.193187,0.48631,-0.2131699999999999,1.310967,0.72124,-0.34094,0.826577,1.04886,-0.39646,1.3102369999999999,0.97617,-0.4402399999999999,0.928957,0.0041499999999999,-0.0031599999999999,1.071043,-0.0041499999999999,0.00316,0.835197,-0.17629,-0.4627799999999999,1.291727,-0.15363,-0.42374,0.820577,-0.52393,-0.33163,1.2813970000000001,-0.50208,-0.29296
92,1.045484,0.6675500000000001,-0.21237,0.8827390000000002,0.4967,-0.22943,0.794219,0.74794,-0.3412,1.193769,0.485,-0.21587,1.311529,0.71946,-0.3453,0.8269190000000001,1.04718,-0.4018199999999999,1.310799,0.97355,-0.44549,0.929119,0.00419,-0.0030799999999999,1.070881,-0.0041899999999999,0.0030799999999999,0.837379,-0.1763799999999999,-0.46472,1.291509,-0.15359,-0.42543,0.8220390000000001,-0.52416,-0.33225,1.281619,-0.50232,-0.29467
93,1.045595,0.6657900000000001,-0.215525,0.8828360000000001,0.4967,-0.231765,0.794206,0.7476,-0.344865,1.194056,0.48385,-0.218325,1.311976,0.71946,-0.349455,0.827026,1.0467,-0.407355,1.3110659999999998,0.97355,-0.451075,0.929136,0.00419,-0.003005,1.070864,-0.0041899999999999,0.0030049999999999,0.838996,-0.1763799999999999,-0.466495,1.291146,-0.15364,-0.426355,0.8230459999999999,-0.52416,-0.332955,1.281416,-0.50257,-0.296305
94,1.04565,0.6655200000000001,-0.21888,0.882878,0.4967,-0.2343599999999999,0.7942080000000001,0.7476,-0.34878,1.194278,0.48306,-0.22092,1.312408,0.71946,-0.35318,0.826778,1.0467,-0.41303,1.311228,0.97355,-0.45606,0.9291780000000001,0.00419,-0.0029599999999999,1.070822,-0.0041899999999999,0.00296,0.8404380000000001,-0.1763799999999999,-0.4670299999999999,1.290678,-0.15364,-0.42682,0.8238380000000001,-0.52416,-0.33387,1.280848,-0.50288,-0.2966999999999999
95,1.045829,0.6653800000000001,-0.22242,0.882788,0.49656,-0.23711,0.7940780000000001,0.74746,-0.35263,1.1943679999999999,0.48292,-0.22371,1.312708,0.71932,-0.35643,0.8261780000000001,1.04656,-0.41861,1.311288,0.97341,-0.46077,0.929408,0.00433,-0.0028799999999999,1.070592,-0.00433,0.00288,0.841708,-0.17652,-0.46715,1.289958,-0.1537499999999999,-0.42718,0.8244279999999999,-0.5243,-0.33484,1.279958,-0.50302,-0.2974299999999999
96,1.045937,0.664255,-0.225405,0.882646,0.4954949999999999,-0.239975,0.793866,0.746335,-0.356415,1.194126,0.481795,-0.226675,1.313126,0.718815,-0.359375,0.825246,1.045435,-0.424095,1.311336,0.976365,-0.465535,0.929746,0.0045449999999999,-0.0028549999999999,1.070254,-0.004545,0.0028549999999999,0.842686,-0.176975,-0.467235,1.289086,-0.154225,-0.4272849999999999,0.824796,-0.525135,-0.336315,1.278756,-0.503505,-0.297865
97,1.0459135,0.661965,-0.2282799999999999,0.8823765,0.493765,-0.24296,0.7934365,0.745035,-0.36009,1.1936764999999998,0.479505,-0.22974,1.3134565,0.718575,-0.3624699999999999,0.8240465,1.043675,-0.429,1.3111964999999999,0.980005,-0.47002,0.9299965,0.004635,-0.0028399999999999,1.0700034999999999,-0.004635,0.00284,0.8432665,-0.177885,-0.46708,1.2879965,-0.1554749999999999,-0.4269699999999999,0.8246964999999999,-0.5265949999999999,-0.33791,1.2771965,-0.505285,-0.29902
98,1.0459015,0.66003,-0.230585,0.8820955,0.49141,-0.245735,0.7929655,0.74363,-0.363645,1.1929755,0.47677,-0.232395,1.3138455,0.71885,-0.365455,0.8228255,1.04163,-0.433575,1.3109655,0.98363,-0.473705,0.9301655,0.00461,-0.002845,1.0698345,-0.00461,0.0028449999999999,0.8437255,-0.1799099999999999,-0.466425,1.2868955,-0.1577299999999999,-0.426305,0.8244955,-0.52918,-0.339075,1.2755855,-0.50786,-0.299725
99,1.0456275,0.65952,-0.23317,0.8818155,0.48884,-0.24825,0.7925155,0.74239,-0.3669,1.1923355,0.4741499999999999,-0.23472,1.3142055,0.71926,-0.3682,0.8217155,1.03956,-0.43761,1.3107655,0.98727,-0.47686,0.9302665,0.0045,-0.0029,1.0697335,-0.0045,0.0028999999999999,0.8439955,-0.18144,-0.46547,1.2856655,-0.1608899999999999,-0.42527,0.8241855,-0.53145,-0.3401,1.2738654999999999,-0.51115,-0.30022
100,1.0449655,0.660015,-0.235895,0.8814425,0.486035,-0.250645,0.7920225,0.741305,-0.369945,1.1918225,0.471475,-0.236835,1.3145025000000001,0.719855,-0.370385,0.8207225,1.0387149999999998,-0.441325,1.3105025000000001,0.990915,-0.479535,0.9302765,0.0043349999999999,-0.003045,1.0697235,-0.0043349999999999,0.0030449999999999,0.8439425,-0.183875,-0.464365,1.2843125,-0.164545,-0.424215,0.8237025,-0.534535,-0.341395,1.2719825,-0.515075,-0.300735
101,1.04441,0.661105,-0.2381599999999999,0.88137,0.484195,-0.2525199999999999,0.79155,0.740095,-0.37248,1.19129,0.469055,-0.2380799999999999,1.31473,0.720025,-0.37181,0.82003,1.037225,-0.44433,1.31034,0.994475,-0.48179,0.930204,0.004225,-0.0032499999999999,1.069796,-0.0042249999999999,0.00325,0.8434699999999999,-0.1870549999999999,-0.4632199999999999,1.2829,-0.1683949999999999,-0.42321,0.82302,-0.538235,-0.34216,1.27037,-0.519195,-0.30139
102,1.0441145,0.660775,-0.2401749999999999,0.8814145,0.482545,-0.2540949999999999,0.7911445,0.7388950000000001,-0.3747549999999999,1.1908145,0.466845,-0.238975,1.3150645,0.720105,-0.372795,0.8193345000000001,1.035625,-0.446965,1.3103544999999999,0.998175,-0.483795,0.9300865,0.0041249999999999,-0.0034749999999999,1.0699135,-0.0041249999999999,0.003475,0.8427344999999999,-0.1906949999999999,-0.461835,1.2815345,-0.172165,-0.422305,0.8222345,-0.542285,-0.342085,1.2689345,-0.523495,-0.302025
103,1.044172,0.66048,-0.2418349999999999,0.8816270000000002,0.48091,-0.255465,0.791017,0.73751,-0.376635,1.190527,0.46487,-0.239695,1.315507,0.7196,-0.3733649999999999,0.8188070000000001,1.03373,-0.449125,1.3107769999999999,1.00209,-0.485495,0.929971,0.0039899999999999,-0.0037349999999999,1.070029,-0.0039899999999999,0.003735,0.842097,-0.19422,-0.4605349999999999,1.280307,-0.17583,-0.421255,0.8216270000000001,-0.54612,-0.341785,1.267517,-0.52756,-0.302335
104,1.0446965,0.66061,-0.243095,0.8820465,0.47976,-0.256635,0.7912465,0.73641,-0.3782149999999999,1.1904964999999998,0.46322,-0.240255,1.3162065,0.7191700000000001,-0.373415,0.8185365,1.03218,-0.450995,1.3115665,1.00664,-0.486485,0.9298165,0.00395,-0.0039549999999999,1.0701835,-0.00395,0.003955,0.8417365,-0.19686,-0.459485,1.2793865,-0.17888,-0.4202849999999999,0.8212165,-0.54918,-0.341725,1.2665165,-0.53139,-0.302555
105,1.0454695,0.6607449999999999,-0.243265,0.8826215,0.4791249999999999,-0.257335,0.7917715000000001,0.735865,-0.379235,1.1906515,0.4621349999999999,-0.240381,1.3169515,0.718715,-0.372895,0.8187015000000001,1.030885,-0.452145,1.3126715,1.005265,-0.486815,0.9297265,0.0039449999999999,-0.004155,1.0702735,-0.003945,0.0041549999999999,0.8416115,-0.198715,-0.458685,1.2788115,-0.181255,-0.419425,0.8210015000000002,-0.5514450000000001,-0.341945,1.2659415,-0.5342950000000001,-0.302615
106,1.0462395,0.66083,-0.242895,0.8831875,0.47882,-0.257585,0.7923575,0.73552,-0.379695,1.1908175,0.46151,-0.240112,1.3176875,0.71817,-0.372035,0.8192075,1.03012,-0.452635,1.3138475,1.00311,-0.486615,0.9297124999999999,0.0039299999999999,-0.0043549999999999,1.0702875,-0.0039299999999999,0.0043549999999999,0.8414575,-0.2001799999999999,-0.458015,1.2784075,-0.1829599999999999,-0.418685,0.8207775000000002,-0.5531600000000001,-0.341885,1.2655875,-0.5362800000000001,-0.302425
107,1.0467715,0.660785,-0.242195,0.8837205,0.478995,-0.257485,0.7929705,0.735665,-0.379715,1.1910105,0.461205,-0.23953,1.3184505,0.7178249999999999,-0.370905,0.8199105000000001,1.029805,-0.452685,1.3150405,1.001685,-0.486045,0.9297055,0.0040149999999999,-0.004425,1.0702945,-0.0040149999999999,0.0044249999999999,0.8409705000000001,-0.2009249999999999,-0.457495,1.2780805,-0.184055,-0.418325,0.8204005,-0.554135,-0.341885,1.2652605000000001,-0.537595,-0.302315
108,1.0472215,0.661305,-0.241665,0.8841595,0.479435,-0.2573499999999999,0.7935395000000001,0.736035,-0.37967,1.1911995,0.461195,-0.2390189999999999,1.3191795,0.717375,-0.36998,0.8208695,1.029975,-0.45261,1.3164595000000001,1.001025,-0.48479,0.9295675,0.0041749999999999,-0.0044299999999999,1.0704325,-0.0041749999999999,0.0044299999999999,0.8402695,-0.2010749999999999,-0.45736,1.2778395,-0.184185,-0.41833,0.8199895,-0.5545249999999999,-0.3419,1.2652195,-0.5382549999999999,-0.30232
109,1.0475945,0.662165,-0.241364,0.8845895000000001,0.479935,-0.257255,0.7941294999999999,0.736495,-0.3796049999999999,1.1913895,0.4612349999999999,-0.238619,1.3198995,0.717195,-0.369135,0.8219095,1.030185,-0.452485,1.3183595000000001,0.997375,-0.481715,0.9293965,0.0043549999999999,-0.0044349999999999,1.0706035,-0.0043549999999999,0.0044349999999999,0.8393295000000001,-0.2008649999999999,-0.457385,1.2776395,-0.184365,-0.418335,0.8197194999999999,-0.554605,-0.341905,1.2649395,-0.538435,-0.3023249999999999
110,1.0477725,0.662875,-0.24122,0.8846625000000001,0.479935,-0.25725,0.7947025,0.736495,-0.37956,1.1916125,0.4612349999999999,-0.238608,1.3204725,0.717195,-0.36848,0.8229025,1.030185,-0.4522799999999999,1.3200625000000001,0.993405,-0.4789,0.9292235000000001,0.0043549999999999,-0.0044499999999999,1.0707764999999998,-0.0043549999999999,0.00445,0.8382425,-0.2006649999999999,-0.45742,1.2775625,-0.184365,-0.41834,0.8192325,-0.554605,-0.34192,1.2651325,-0.538555,-0.3026999999999999
111,1.047843,0.662885,-0.240949,0.884733,0.479935,-0.25695,0.795273,0.736495,-0.37911,1.191823,0.4612349999999999,-0.238331,1.320993,0.717195,-0.36757,0.8238030000000001,1.030185,-0.45163,1.321553,0.989285,-0.47585,0.929086,0.0043549999999999,-0.0044299999999999,1.070914,-0.0043549999999999,0.00443,0.8370230000000001,-0.2006649999999999,-0.4572,1.277673,-0.184365,-0.41849,0.8187330000000002,-0.554605,-0.34203,1.2654130000000001,-0.538635,-0.30311
112,1.0480035,0.662885,-0.2402,0.8848975,0.479935,-0.256245,0.7958875,0.736495,-0.378295,1.1921275,0.4612349999999999,-0.237667,1.3214975,0.716835,-0.3663849999999999,0.8247575,1.030185,-0.450455,1.3228075,0.984805,-0.472555,0.9290445,0.0043549999999999,-0.0043249999999999,1.0709555,-0.0043549999999999,0.0043249999999999,0.8359075,-0.2006649999999999,-0.456865,1.2778875,-0.184365,-0.418705,0.8184175,-0.554625,-0.3423549999999999,1.2658875,-0.538635,-0.3033949999999999
113,1.048145,0.6635949999999999,-0.2389029999999999,0.885044,0.4796249999999999,-0.255055,0.796394,0.736895,-0.376765,1.192374,0.4612849999999999,-0.2365339999999999,1.321914,0.716105,-0.364375,0.825584,1.030135,-0.448405,1.323714,0.980655,-0.4689049999999999,0.928938,0.0044549999999999,-0.0042549999999999,1.071062,-0.004455,0.004255,0.8348940000000001,-0.199955,-0.456875,1.278084,-0.184555,-0.4188949999999999,0.817994,-0.553915,-0.342765,1.266134,-0.5385150000000001,-0.303355
114,1.0481825,0.665225,-0.237235,0.8850945,0.479765,-0.253535,0.7968045,0.737365,-0.374705,1.1926245,0.461905,-0.235144,1.3222144999999998,0.715935,-0.361915,0.8263245,1.030675,-0.445825,1.3244544999999999,0.977415,-0.464865,0.9288105,0.0045449999999999,-0.004165,1.0711895,-0.004545,0.0041649999999999,0.8340445,-0.198305,-0.457225,1.2782845,-0.1839049999999999,-0.419225,0.8177045000000001,-0.552265,-0.343005,1.2667745,-0.537545,-0.303085
115,1.0481525,0.66714,-0.235388,0.8851015,0.48044,-0.251845,0.7971815000000001,0.7381599999999999,-0.3723849999999999,1.1928715,0.46297,-0.2335499999999999,1.3224315,0.7162599999999999,-0.359255,0.8269715,1.03161,-0.442905,1.3251015,0.97472,-0.460565,0.9286115,0.0047499999999999,-0.004055,1.0713885,-0.00475,0.004055,0.8334115,-0.19608,-0.457855,1.2787315,-0.18242,-0.419815,0.8174515,-0.5499,-0.343145,1.2671815,-0.5358700000000001,-0.302645
116,1.04792,0.66928,-0.233586,0.885067,0.48151,-0.250185,0.797457,0.73895,-0.370095,1.193077,0.46447,-0.2319069999999999,1.3225069999999999,0.71665,-0.356515,0.827377,1.03269,-0.4399349999999999,1.325517,0.97205,-0.456315,0.928442,0.00494,-0.0039649999999999,1.071558,-0.00494,0.0039649999999999,0.833187,-0.1936399999999999,-0.458445,1.279167,-0.18056,-0.420625,0.817227,-0.5471999999999999,-0.3427449999999999,1.267317,-0.5338499999999999,-0.3021749999999999
117,1.047532,0.6712849999999999,-0.232025,0.884912,0.4825649999999999,-0.24867,0.797562,0.739525,-0.36799,1.193152,0.4660849999999999,-0.230449,1.322452,0.717055,-0.35392,0.827482,1.033685,-0.4372,1.3255219999999999,0.969895,-0.45226,0.928392,0.0050949999999999,-0.00383,1.071608,-0.005095,0.00383,0.832912,-0.191155,-0.45891,1.279512,-0.178835,-0.4215,0.817002,-0.544425,-0.34233,1.2673320000000001,-0.531725,-0.30182
118,1.0473305,0.6738899999999999,-0.2307489999999999,0.8847495,0.4832999999999999,-0.247465,0.7975795,0.73986,-0.3662649999999999,1.1932095,0.46756,-0.2293599999999999,1.3224195,0.71943,-0.351495,0.8273895,1.03501,-0.434975,1.3254295,0.97192,-0.450335,0.9283605,0.0051299999999999,-0.0036849999999999,1.0716395,-0.00513,0.003685,0.8326895,-0.1890400000000001,-0.459285,1.2795895,-0.17748,-0.422635,0.8167195,-0.5420200000000001,-0.341865,1.2674395,-0.52993,-0.302245
119,1.0472495,0.675635,-0.230093,0.8846645,0.483615,-0.24681,0.7975845,0.740415,-0.3651,1.1932645,0.468415,-0.228848,1.3223745,0.720785,-0.34955,0.8272745,1.036365,-0.43345,1.3253245,0.973275,-0.44889,0.9282995,0.005025,-0.0036299999999999,1.0717005,-0.005025,0.0036299999999999,0.8324545000000001,-0.187955,-0.45941,1.2796145,-0.176665,-0.4236799999999999,0.8166945000000001,-0.540665,-0.34137,1.2676545,-0.5290250000000001,-0.30328
120,1.047002,0.676085,-0.229588,0.8844260000000002,0.483605,-0.24638,0.7974559999999999,0.740415,-0.36426,1.193196,0.468415,-0.228497,1.322136,0.720785,-0.34761,0.8270060000000001,1.036365,-0.43224,1.325026,0.973275,-0.44703,0.9280740000000001,0.005025,-0.0036,1.071926,-0.005025,0.0035999999999999,0.832126,-0.187955,-0.45918,1.2793759999999998,-0.1769949999999999,-0.42402,0.816336,-0.540665,-0.34115,1.267666,-0.5294350000000001,-0.30411
121,1.046392,0.676545,-0.229012,0.883826,0.483605,-0.24616,0.797086,0.740415,-0.36339,1.192836,0.468415,-0.228284,1.321536,0.720785,-0.34518,0.826346,1.036365,-0.43098,1.3237459999999999,0.973275,-0.4443899999999999,0.927812,0.005025,-0.00361,1.072188,-0.005025,0.00361,0.831536,-0.187955,-0.4592,1.278756,-0.177055,-0.42404,0.815746,-0.540635,-0.34117,1.267086,-0.529935,-0.30423
122,1.045134,0.677095,-0.2272489999999999,0.882465,0.483605,-0.245745,0.796095,0.740415,-0.361975,1.191805,0.468415,-0.227901,1.320185,0.7216549999999999,-0.342565,0.824685,1.036365,-0.429635,1.321785,0.979795,-0.441435,0.927699,0.005025,-0.003615,1.072301,-0.005025,0.003615,0.830195,-0.187955,-0.459245,1.277415,-0.177055,-0.424085,0.814435,-0.5406150000000001,-0.341035,1.265755,-0.529935,-0.304855
123,1.0438685,0.67805,-0.224631,0.8806975,0.4831999999999999,-0.2451249999999999,0.7947474999999999,0.74098,-0.360155,1.1903975,0.4685699999999999,-0.227243,1.3184575,0.7236899999999999,-0.339545,0.8224575000000001,1.03684,-0.427905,1.3197575,0.98689,-0.438615,0.9276314999999999,0.0048199999999999,-0.003615,1.0723685,-0.00482,0.003615,0.8281175000000001,-0.18819,-0.458985,1.2756075,-0.17746,-0.424145,0.8124775,-0.5407000000000001,-0.3403549999999999,1.2636475,-0.53034,-0.305045
124,1.0423785,0.6788099999999999,-0.222096,0.8796635,0.48633,-0.24251,0.7931635000000001,0.74134,-0.35792,1.1895035,0.47169,-0.223895,1.3164535,0.72571,-0.3359999999999999,0.8197135,1.03666,-0.42565,1.3174635000000001,0.99227,-0.4353399999999999,0.9276185,0.0046299999999999,-0.00361,1.0723815,-0.00463,0.00361,0.8257035,-0.19062,-0.4573399999999999,1.2734035,-0.18049,-0.42393,0.8099135,-0.54306,-0.3394399999999999,1.2614835,-0.53337,-0.30569
125,1.040934,0.678455,-0.2190059999999999,0.878116,0.487705,-0.240375,0.7910460000000001,0.741285,-0.355635,1.188236,0.473115,-0.22094,1.313936,0.7274750000000001,-0.3324749999999999,0.8163460000000001,1.035485,-0.423805,1.314576,0.996225,-0.432175,0.927887,0.004325,-0.003695,1.072113,-0.0043249999999999,0.003695,0.822766,-0.194775,-0.454585,1.270236,-0.1848149999999999,-0.423675,0.806736,-0.547285,-0.338645,1.258386,-0.538395,-0.306685
126,1.0393135,0.67733,-0.214218,0.8771665,0.49057,-0.237135,0.7894265,0.74367,-0.352145,1.1876465,0.47605,-0.21679,1.3122965,0.73289,-0.327735,0.8133565,1.0345,-0.420505,1.3121365,1.00075,-0.427415,0.9289045,0.0040499999999999,-0.003665,1.0710955,-0.0040499999999999,0.003665,0.8205965,-0.1992399999999999,-0.450415,1.2673265,-0.1886299999999999,-0.421805,0.8042965,-0.55242,-0.336385,1.2554465000000001,-0.54327,-0.306715
127,1.038191,0.676495,-0.208775,0.876348,0.495425,-0.2336949999999999,0.787858,0.746965,-0.348445,1.187028,0.482005,-0.212688,1.310778,0.738555,-0.323565,0.8106880000000001,1.033405,-0.416965,1.309818,1.005455,-0.422295,0.930028,0.003645,-0.0036049999999999,1.069972,-0.003645,0.003605,0.817978,-0.204525,-0.445835,1.264208,-0.193425,-0.419475,0.8015280000000001,-0.558825,-0.334155,1.2525979999999999,-0.549415,-0.3071049999999999
128,1.037602,0.67455,-0.20336,0.8756510000000001,0.49817,-0.230522,0.786591,0.75004,-0.34416,1.186491,0.48641,-0.208774,1.309361,0.7432799999999999,-0.31885,0.808281,1.03063,-0.41308,1.307941,1.01417,-0.41589,0.930951,0.00295,-0.00359,1.069049,-0.00295,0.0035899999999999,0.8157610000000001,-0.21162,-0.44079,1.260931,-0.2000299999999999,-0.4165,0.799211,-0.56724,-0.3314,1.249871,-0.55693,-0.30712
129,1.037567,0.670685,-0.1972239999999999,0.875588,0.500525,-0.2268319999999999,0.785908,0.751605,-0.33911,1.186268,0.486855,-0.20464,1.3083179999999999,0.745775,-0.31321,0.8060780000000001,1.023555,-0.4082099999999999,1.306648,1.017485,-0.40958,0.931935,0.002805,-0.00358,1.068065,-0.002805,0.00358,0.813778,-0.224575,-0.43259,1.257618,-0.212425,-0.41095,0.7966680000000002,-0.581755,-0.3286099999999999,1.247158,-0.570525,-0.30552
130,1.0378235,0.66701,-0.191176,0.8758285,0.50301,-0.223099,0.7854285,0.75529,-0.33398,1.1863285000000001,0.48724,-0.200528,1.3076185,0.7471399999999999,-0.30781,0.8041685000000001,1.02402,-0.40211,1.3060085,1.02315,-0.40309,0.9327995,0.0028599999999999,-0.0035,1.0672005,-0.00286,0.0035,0.8120985000000001,-0.23656,-0.42464,1.2547185,-0.22452,-0.40506,0.7946584999999999,-0.59546,-0.32548,1.2452285,-0.58426,-0.3042
131,1.038688,0.664435,-0.185271,0.876873,0.505735,-0.2186479999999999,0.785523,0.7590250000000001,-0.3283,1.187233,0.4911149999999999,-0.194929,1.307823,0.749125,-0.3016,0.803973,1.028095,-0.39479,1.306213,1.022835,-0.3958899999999999,0.9334850000000001,0.0028449999999999,-0.0034799999999999,1.0665149999999999,-0.002845,0.00348,0.811063,-0.250835,-0.41452,1.251763,-0.238845,-0.3967799999999999,0.793823,-0.6115950000000001,-0.32182,1.243473,-0.600155,-0.3020199999999999
132,1.0388695000000001,0.66177,-0.179494,0.8780935000000001,0.51091,-0.214036,0.7857635000000001,0.7646,-0.322345,1.1882635,0.49473,-0.189503,1.3083635,0.7519500000000001,-0.295265,0.8041435,1.03376,-0.3877549999999999,1.3070235000000001,1.02413,-0.387345,0.9339185,0.00307,-0.0034649999999999,1.0660815,-0.0030699999999999,0.0034649999999999,0.8102535000000001,-0.26514,-0.4036849999999999,1.2488934999999999,-0.25325,-0.3878749999999999,0.7932935,-0.62801,-0.317915,1.2417435000000001,-0.61601,-0.298705
133,1.0390575,0.6621,-0.173376,0.8785594999999999,0.51405,-0.211268,0.7861295,0.77165,-0.31625,1.1886895,0.49683,-0.186587,1.3091295,0.75731,-0.28889,0.8047595000000001,1.04046,-0.38066,1.3084995,1.02762,-0.37878,0.9342685,0.00328,-0.00349,1.0657315,-0.00328,0.0034899999999999,0.8099095000000001,-0.27821,-0.39322,1.2463795,-0.26581,-0.37927,0.7931695,-0.64302,-0.31377,1.2402695,-0.63021,-0.29449
134,1.038371,0.65954,-0.166905,0.8787130000000001,0.51605,-0.207198,0.786363,0.77515,-0.30903,1.1885729999999999,0.49706,-0.182655,1.309703,0.7597400000000001,-0.28147,0.8048830000000001,1.04644,-0.37117,1.309643,1.03207,-0.36843,0.934152,0.00347,-0.00362,1.065848,-0.00347,0.00362,0.8103230000000001,-0.29437,-0.37982,1.242253,-0.2818199999999999,-0.36649,0.7923930000000001,-0.66113,-0.30739,1.2378230000000001,-0.64765,-0.28776
135,1.0377025,0.65959,-0.160754,0.8789375,0.5174799999999999,-0.203092,0.7866175,0.78072,-0.30121,1.1883875,0.49908,-0.178327,1.3098175,0.75963,-0.27363,0.8049775,1.05208,-0.36178,1.3105475,1.03543,-0.35835,0.9341665,0.0034899999999999,-0.00368,1.0658335,-0.0034899999999999,0.0036799999999999,0.8109475000000002,-0.31043,-0.36604,1.2378575,-0.30058,-0.35311,0.7919075000000001,-0.67883,-0.30114,1.2352775,-0.66779,-0.27952
136,1.037012,0.659225,-0.154853,0.879151,0.516215,-0.199346,0.787141,0.7849649999999999,-0.29344,1.1883110000000001,0.497905,-0.173794,1.309491,0.760185,-0.2648,0.805051,1.058045,-0.35183,1.311541,1.039685,-0.34786,0.934378,0.0036049999999999,-0.00368,1.065622,-0.0036049999999999,0.0036799999999999,0.811751,-0.329185,-0.35219,1.2334109999999998,-0.320335,-0.33884,0.791521,-0.699025,-0.29432,1.232741,-0.6888650000000001,-0.27133
137,1.036923,0.659075,-0.1476849999999999,0.880247,0.5146850000000001,-0.19504,0.788527,0.787745,-0.28495,1.188747,0.497815,-0.168592,1.3093569999999999,0.761145,-0.2557,0.805407,1.064275,-0.34121,1.312867,1.039625,-0.33762,0.935152,0.003295,-0.0033899999999999,1.064848,-0.003295,0.00339,0.813097,-0.348755,-0.33708,1.228917,-0.341295,-0.32325,0.791587,-0.719905,-0.28715,1.230747,-0.711045,-0.26125
138,1.036611,0.660405,-0.141379,0.880997,0.512785,-0.191898,0.790557,0.791295,-0.276295,1.189087,0.5009250000000001,-0.16391,1.309187,0.766095,-0.247405,0.8056070000000001,1.074245,-0.331565,1.313917,1.045215,-0.327245,0.935858,0.002515,-0.003085,1.064142,-0.002515,0.003085,0.8152370000000001,-0.364105,-0.323835,1.223557,-0.357395,-0.306355,0.792707,-0.736415,-0.280175,1.228297,-0.728405,-0.249875
139,1.03599,0.6611435000000001,-0.134745,0.882045,0.5112734999999999,-0.18839,0.792745,0.7928835000000001,-0.26751,1.189425,0.5042635,-0.159191,1.308895,0.7702435000000001,-0.23891,0.805495,1.0764835,-0.32272,1.314825,1.0491935,-0.31761,0.935711,0.0022095,-0.0028099999999999,1.064289,-0.0022095,0.00281,0.819605,-0.3806565,-0.3041,1.218145,-0.3739465,-0.28856,0.795345,-0.7529665000000001,-0.2675499999999999,1.225825,-0.7449565,-0.23826
140,1.036096,0.660547,-0.128109,0.882699,0.509717,-0.184824,0.793609,0.7938369999999999,-0.25834,1.189509,0.504317,-0.155226,1.3097590000000001,0.773687,-0.23015,0.8065990000000001,1.074827,-0.31356,1.315679,1.053277,-0.30738,0.935619,0.001896,-0.0022599999999999,1.064381,-0.0018959999999999,0.0022599999999999,0.824109,-0.394013,-0.28498,1.213309,-0.387303,-0.27005,0.797979,-0.7663230000000001,-0.25466,1.2223389999999998,-0.758313,-0.22623
141,1.03677,0.660468,-0.122066,0.8828210000000001,0.506288,-0.18195,0.793971,0.792718,-0.249445,1.189051,0.504768,-0.151675,1.309891,0.776378,-0.221595,0.807321,1.072788,-0.303815,1.315891,1.056708,-0.2976649999999999,0.934938,0.0014199999999999,-0.0017249999999999,1.065062,-0.00142,0.001725,0.827981,-0.406362,-0.264965,1.207811,-0.399652,-0.251835,0.8000510000000001,-0.778672,-0.241885,1.218471,-0.771342,-0.215446
142,1.036633,0.6572895,-0.109759,0.882117,0.5012095000000001,-0.172691,0.793647,0.7903895,-0.234375,1.187837,0.5035995,-0.141855,1.309397,0.7765595,-0.206414,0.806957,1.0715595,-0.287185,1.314737,1.0598595,-0.281005,0.934024,0.0010235,-0.001915,1.065976,-0.0010234999999999,0.001915,0.830857,-0.4198705,-0.236675,1.199527,-0.4152105,-0.222635,0.799377,-0.7928305,-0.225025,1.213717,-0.7882205,-0.198698
143,1.0351735,0.6636625,-0.09389,0.8807445,0.5064125,-0.154648,0.7927845,0.7928125,-0.215767,1.1879045,0.5087125,-0.123858,1.3083445,0.7763825,-0.1879009999999999,0.8055145000000001,1.0719125,-0.265797,1.3128845,1.0574125,-0.258997,0.9334455,0.0014035,-0.0013019999999999,1.0665545,-0.0014034999999999,0.0013019999999999,0.8325545,-0.4405675,-0.204417,1.1909345,-0.4401075,-0.190257,0.7984245,-0.8143975,-0.206007,1.2096045,-0.8135275,-0.180567
144,1.0332615,0.668628,-0.078381,0.8791935,0.510518,-0.136742,0.7918635,0.7912180000000001,-0.197873,1.1878635,0.510228,-0.106534,1.3070335,0.775308,-0.170037,0.8040835,1.072058,-0.244743,1.3108435,1.056558,-0.236683,0.9329075,0.001931,-0.000838,1.0670925,-0.0019309999999999,0.0008379999999999,0.8341335000000001,-0.466092,-0.172116,1.1823435,-0.459332,-0.158737,0.7975135,-0.835892,-0.187323,1.2052034999999999,-0.8329519999999999,-0.162614
145,1.031774,0.6741670000000001,-0.0631475,0.8777150000000001,0.514877,-0.1187145,0.7906850000000001,0.7900870000000001,-0.1796525,1.187765,0.5115770000000001,-0.0892145,1.305635,0.773247,-0.1524195,0.8027150000000001,1.071927,-0.2241125,1.308625,1.055327,-0.2144225,0.932419,0.002393,-0.0004945,1.0675810000000001,-0.002393,0.0004944999999999,0.8354750000000001,-0.490623,-0.1397385,1.173895,-0.479673,-0.1278915,0.796525,-0.859713,-0.1690825,1.200945,-0.853193,-0.1445875
146,1.0300945,0.68048,-0.0488549999999999,0.8758195,0.52088,-0.10095,0.7889395,0.79103,-0.162411,1.1875695,0.51316,-0.07235,1.3040295,0.77181,-0.135435,0.8009895,1.07302,-0.204151,1.3070994999999999,1.04832,-0.192681,0.9320155,0.003495,-0.0003099999999999,1.0679845000000001,-0.003495,0.00031,0.8366395,-0.51113,-0.1101689999999999,1.1661595,-0.5014500000000001,-0.0987619999999999,0.7948895,-0.87941,-0.1529309999999999,1.1970895,-0.87478,-0.127862
147,1.0297575,0.6874135,-0.0348509999999999,0.8741645,0.5274435,-0.083393,0.7874045000000001,0.7926235,-0.1464099999999999,1.1875445,0.5152735,-0.0556079999999999,1.3024845,0.7686935,-0.11896,0.7995745000000001,1.0745335,-0.184386,1.3056645,1.0447335,-0.171726,0.9313945,0.0042815,-0.0002539999999999,1.0686055,-0.0042815,0.000254,0.8380145,-0.5321265,-0.0823779999999999,1.1605945,-0.5228465,-0.074016,0.7939944999999999,-0.8995665,-0.1359369999999999,1.1938245,-0.8958865,-0.114634
148,1.030049,0.6948325,-0.0209724999999999,0.872528,0.5336225,-0.0658755,0.785908,0.7949324999999999,-0.1305365,1.187618,0.5178925,-0.0386915,1.301118,0.7665624999999999,-0.1026395,0.798648,1.0758025,-0.1649775,1.304358,1.0429025,-0.1506875,0.930929,0.0049844999999999,-8.149999999999824e-05,1.069071,-0.0049845,8.149999999999824e-05,0.8372980000000001,-0.5536975000000001,-0.0607225,1.1554280000000001,-0.5433475,-0.0503275,0.792278,-0.9200975,-0.1235284999999999,1.190998,-0.9160175,-0.1022625
149,1.0308305,0.7025655,-0.0071395,0.8711405,0.5409255,-0.0482165,0.7845805000000001,0.7973555,-0.1155705,1.1880405,0.5208955,-0.0218495,1.3001205,0.7646155,-0.0870045,0.7983705,1.0770755,-0.1466945,1.3033705,1.0404755,-0.1306245,0.9303764999999999,0.0056305,-0.0001615,1.0696235,-0.0056304999999999,0.0001614999999999,0.8364905,-0.5747045,-0.0406845,1.1501705,-0.5628245,-0.0299925,0.7913705,-0.9400145,-0.1112665,1.1892405,-0.9347945,-0.0900285
150,1.0317875,0.7106480000000001,0.0063725,0.8699425000000001,0.5482480000000001,-0.0305054999999999,0.7826124999999999,0.799648,-0.1013955,1.1886525,0.5238780000000001,-0.0049074999999999,1.2997125,0.761548,-0.0719205,0.7984825,1.077808,-0.1294415,1.3026125,1.037308,-0.1110215,0.9296605,0.006306,-0.0002854999999999,1.0703395,-0.0063059999999999,0.0002855,0.8358025,-0.5940219999999999,-0.0232435,1.1453625,-0.581622,-0.0107335,0.7900725,-0.958182,-0.0989935,1.1879125,-0.952852,-0.0784725
151,1.033352,0.718958,0.0141395,0.8691600000000002,0.5549080000000001,-0.0189235,0.78098,0.8018580000000001,-0.0936325,1.18984,0.527468,0.0061665,1.30038,0.7584380000000001,-0.0633845,0.79933,1.077028,-0.1192975,1.3023799999999999,1.033728,-0.0980055,0.929468,0.006926,0.0003185,1.070532,-0.006926,-0.0003185,0.83565,-0.6109519999999999,-0.0143395,1.14351,-0.599542,-0.0022385,0.78948,-0.974342,-0.0926465,1.18709,-0.970212,-0.0732645
152,1.0337839999999998,0.7201380000000001,0.0171979999999999,0.8685970000000001,0.5549080000000001,-0.017249,0.779937,0.802058,-0.090825,1.1890869999999998,0.527468,0.00817,1.300017,0.7584380000000001,-0.059432,0.798477,1.077028,-0.116559,1.302007,1.038128,-0.092357,0.929603,0.006926,0.0002359999999999,1.070397,-0.006926,-0.000236,0.835247,-0.6154919999999999,-0.012714,1.142317,-0.605042,-0.000563,0.787827,-0.977822,-0.094392,1.1860369999999998,-0.974892,-0.071399
153,1.034184,0.720518,0.020522,0.867687,0.5549080000000001,-0.01545,0.7789070000000001,0.802058,-0.08793,1.1883569999999999,0.527468,0.010413,1.299737,0.7584380000000001,-0.054545,0.797547,1.077028,-0.113915,1.3013569999999999,1.038428,-0.087078,0.929705,0.006926,0.0001809999999999,1.070295,-0.006926,-0.000181,0.8349170000000001,-0.617642,-0.011018,1.141027,-0.609142,0.0010139999999999,0.786597,-0.980382,-0.095594,1.185057,-0.978352,-0.069886
154,1.0340365,0.720538,0.023321,0.8666385,0.554998,-0.013725,0.7776885,0.802058,-0.0855409999999999,1.1875585,0.527468,0.012502,1.2993785,0.7584380000000001,-0.0500629999999999,0.7965485,1.077028,-0.111582,1.3006085,1.038428,-0.082693,0.9298665,0.006926,0.0001539999999999,1.0701335,-0.006926,-0.000154,0.8341885,-0.620722,-0.009246,1.1396785,-0.611872,0.0024699999999999,0.7854885,-0.983782,-0.095871,1.1841885,-0.981162,-0.068777
155,1.0341179999999999,0.7218585,0.0264635,0.866317,0.5541385,-0.0119035,0.776957,0.8033685,-0.0834755,1.186997,0.5276885,0.0145875,1.299277,0.7591885,-0.0458285,0.795817,1.0758385,-0.1096434999999999,1.300287,1.0397385,-0.0788585,0.929878,0.0068555,0.0001475,1.070122,-0.0068555,-0.0001475,0.834167,-0.6158615,-0.0083605,1.139277,-0.6118015,0.0036065,0.7847770000000001,-0.9824715,-0.0945334999999999,1.183807,-0.9810015,-0.0682504999999999
156,1.0340494999999998,0.723163,0.0292424999999999,0.8660155,0.553493,-0.0102515,0.7763755,0.8045629999999999,-0.0817205,1.1865955,0.5279130000000001,0.0164904999999999,1.2993255,0.7596829999999999,-0.0422055,0.7952455,1.074943,-0.1080525,1.3004354999999999,1.039843,-0.0754775,0.9298955,0.006801,9.549999999999988e-05,1.0701045,-0.006801,-9.55000000000001e-05,0.8340555000000001,-0.614557,-0.0081444999999999,1.1392255,-0.6128370000000001,0.0045935,0.7842155,-0.981167,-0.0933625,1.1836555,-0.981577,-0.0680395
157,1.0340325,0.7245444999999999,0.031727,0.8658764999999999,0.5533745,-0.008728,0.7760865,0.8053845,-0.080149,1.1864765,0.5282844999999999,0.0182069999999999,1.2996064999999999,0.7601145,-0.039159,0.7948565,1.0744245,-0.1068839999999999,1.3011165,1.0391245,-0.0727179999999999,0.9299285,0.0068244999999999,-7.900000000000008e-05,1.0700715,-0.0068244999999999,7.900000000000008e-05,0.8346165,-0.6096855,-0.008114,1.1392665,-0.6134255000000001,0.004945,0.7852565,-0.9764755,-0.092431,1.1835365,-0.9820555,-0.068092
158,1.034084,0.725826,0.0340045,0.865811,0.553646,-0.0072845,0.775751,0.805526,-0.0786915,1.186521,0.5286759999999999,0.0197935,1.300061,0.760286,-0.0364205,0.7945409999999999,1.073916,-0.1057945,1.301451,1.038416,-0.0702935,0.929931,0.006841,-0.0002915,1.070069,-0.006841,0.0002914999999999,0.835021,-0.6051340000000001,-0.0075445,1.139091,-0.6113540000000001,0.0051885,0.7867109999999999,-0.972614,-0.0909265,1.183281,-0.980344,-0.0671794999999999
159,1.0340145,0.72684,0.0361235,0.8657655000000001,0.55416,-0.0058924999999999,0.7752955,0.8055599999999999,-0.0774115,1.1865555,0.52903,0.0211975,1.3004955,0.76001,-0.0341265,0.7940155,1.0727799999999998,-0.1050335,1.3018355,1.03798,-0.0690715,0.9299385,0.0069039999999999,-0.0005244999999999,1.0700615,-0.006904,0.0005245,0.8353555,-0.60088,-0.0068374999999999,1.1394455,-0.613,0.0057315,0.7872455,-0.96863,-0.0898255,1.1835155,-0.9811,-0.0673025
160,1.033955,0.7276865,0.037922,0.86571,0.5545565,-0.004453,0.7746500000000001,0.8053665,-0.076168,1.18656,0.5294265,0.0224359999999999,1.3008199999999999,0.7588865,-0.032941,0.79323,1.0719865,-0.104369,1.3021,1.0382865,-0.068308,0.929948,0.0069695,-0.000812,1.070052,-0.0069695,0.0008119999999999,0.83533,-0.5990435000000001,-0.006101,1.13983,-0.6146235,0.0061499999999999,0.78739,-0.9670135,-0.088987,1.18356,-0.9807035,-0.066668
161,1.033904,0.728292,0.039477,0.865669,0.554792,-0.0030589999999999,0.7734989999999999,0.804502,-0.0755499999999999,1.186539,0.529712,0.023566,1.301079,0.757592,-0.0322789999999999,0.792279,1.070982,-0.1039559999999999,1.302219,1.039482,-0.06765,0.929957,0.007023,-0.0010869999999999,1.070043,-0.007023,0.001087,0.834389,-0.600858,-0.005346,1.140169,-0.616318,0.006568,0.787569,-0.969038,-0.087407,1.183569,-0.980298,-0.066024
162,1.034032,0.7285205,0.040637,0.865239,0.5547305,-0.001281,0.7716890000000001,0.8025505,-0.07496,1.1866889999999999,0.5300005,0.0245099999999999,1.301599,0.7572205000000001,-0.031612,0.790909,1.0696405,-0.1035809999999999,1.302679,1.0385405,-0.0669849999999999,0.9298960000000001,0.0070785,-0.001354,1.070104,-0.0070785,0.0013539999999999,0.833959,-0.6042194999999999,-0.004711,1.140339,-0.6162694999999999,0.0070049999999999,0.788099,-0.9724695,-0.0857889999999999,1.183619,-0.9806895,-0.065372
163,1.0342915,0.7287899999999999,0.0418155,0.8651215000000001,0.55457,0.0002944999999999,0.7687915000000001,0.7989999999999999,-0.0744205,1.1872115,0.53035,0.0254275,1.3035415000000001,0.7554,-0.0309135,0.7897715000000001,1.06828,-0.1033684999999999,1.3042815,1.03248,-0.0689645,0.9297765,0.0071429999999999,-0.0015325,1.0702235,-0.007143,0.0015325,0.8349315000000002,-0.59984,-0.0042045,1.1405215,-0.6128300000000001,0.0074684999999999,0.7897515000000002,-0.96814,-0.0827344999999999,1.1839615000000001,-0.97945,-0.0640345
164,1.0345295,0.729169,0.0431229999999999,0.8651115,0.5546690000000001,0.0019229999999999,0.7630515,0.7910090000000001,-0.073934,1.1879114999999998,0.530859,0.026394,1.3069315,0.7520690000000001,-0.030532,0.7889615,1.064079,-0.10342,1.3061415,1.026779,-0.071357,0.9296805,0.007272,-0.001745,1.0703195,-0.0072719999999999,0.0017449999999999,0.8363015,-0.594171,-0.003622,1.1414914999999999,-0.615091,0.008176,0.7915814999999999,-0.963281,-0.080315,1.1847215,-0.979011,-0.062863
165,1.034607,0.729197,0.044531,0.865011,0.5550970000000001,0.003639,0.755501,0.7820870000000001,-0.074113,1.188601,0.531497,0.027433,1.313971,0.745537,-0.031976,0.787911,1.053767,-0.106565,1.308721,1.019367,-0.076113,0.929652,0.0073479999999999,-0.002023,1.070348,-0.007348,0.002023,0.8377810000000001,-0.588783,-0.0029599999999999,1.142601,-0.6170629999999999,0.008973,0.792281,-0.958413,-0.077751,1.1856309999999999,-0.978873,-0.062208
166,1.0347709999999999,0.7297145,0.046119,0.864741,0.5561945,0.005341,0.744121,0.7698245,-0.074958,1.189441,0.5322445,0.028501,1.323191,0.7381545,-0.03231,0.786941,1.0404345,-0.111248,1.312271,1.0082345,-0.084105,0.929679,0.0073835,-0.00233,1.070321,-0.0073834999999999,0.00233,0.839361,-0.5831355,-0.002928,1.143541,-0.6165055,0.009254,0.793091,-0.9531955,-0.0764509999999999,1.186551,-0.9770055,-0.061391
167,1.034802,0.7313850000000001,0.0480185,0.863031,0.553415,0.0072164999999999,0.730981,0.752475,-0.0761835,1.189711,0.531765,0.0305325,1.334051,0.722905,-0.0323245,0.782761,1.016605,-0.1176784999999999,1.318351,0.989405,-0.0940184999999999,0.9297660000000001,0.0071689999999999,-0.0026665,1.070234,-0.007169,0.0026664999999999,0.8398310000000001,-0.580955,-0.0022635,1.144551,-0.615835,0.0095675,0.794411,-0.949325,-0.0733245,1.187561,-0.973855,-0.0613134999999999
168,1.0347979999999999,0.733246,0.0502134999999999,0.861422,0.550486,0.0089454999999999,0.7171719999999999,0.728716,-0.0754865,1.189982,0.530386,0.0323775,1.343442,0.702876,-0.0312055,0.777672,0.985346,-0.1258294999999999,1.3272719999999998,0.959846,-0.1050095,0.92981,0.0070569999999999,-0.0029825,1.07019,-0.007057,0.0029824999999999,0.8402620000000001,-0.578864,-0.0016715,1.145792,-0.615414,0.0099354999999999,0.795282,-0.945974,-0.0698475,1.188622,-0.971004,-0.0611765
169,1.0347125,0.7351424999999999,0.0524245,0.8598235,0.5473925,0.0103065,0.7057035,0.6998825,-0.0747235,1.1898935,0.5291625,0.0342785,1.3504135,0.6762625,-0.0301265,0.7719135,0.9466725,-0.1374715,1.3372635,0.9250025,-0.1200715,0.9298035,0.0068814999999999,-0.0031965,1.0701965,-0.0068814999999999,0.0031964999999999,0.8408835,-0.5766275000000001,-0.0009965,1.1470635,-0.6149475,0.0102475,0.7959035,-0.9427875,-0.0688295,1.1897435,-0.9677175,-0.0608844999999999
170,1.034427,0.73741,0.0547015,0.858178,0.5440499999999999,0.0112265,0.698978,0.6647599999999999,-0.0737745,1.189718,0.5275099999999999,0.0359445,1.355848,0.64338,-0.0291565,0.765958,0.90706,-0.1513435,1.350338,0.87774,-0.1329935,0.929787,0.0068109999999999,-0.0033655,1.070213,-0.006811,0.0033655,0.840378,-0.5793200000000001,-0.0002804999999999,1.148278,-0.61409,0.0105395,0.796648,-0.94308,-0.0658375,1.190698,-0.96416,-0.0601135
171,1.0340889999999998,0.7404875,0.0570735,0.857037,0.5405675,0.0118275,0.6941269999999999,0.6237874999999999,-0.0718055,1.189437,0.5252374999999999,0.0370585,1.358667,0.6041274999999999,-0.0268195,0.7581869999999999,0.8456275,-0.1621095,1.362727,0.8186975,-0.1438195,0.929722,0.0064554999999999,-0.0034824999999999,1.070278,-0.0064555,0.0034824999999999,0.840917,-0.5757125000000001,5.05000000000002e-05,1.148807,-0.6089825,0.0107464999999999,0.797067,-0.9395025,-0.0627625,1.191207,-0.9594125,-0.0588155
172,1.0336325,0.7437825,0.0594115,0.8557165000000001,0.5358425,0.0122495,0.6921765000000001,0.5777125000000001,-0.0685545,1.1890065,0.5224825000000001,0.0375405,1.3591165,0.5620525000000001,-0.0230744999999999,0.7478564999999999,0.7705525000000001,-0.1687155,1.3693465,0.7505625,-0.1481655,0.9296215,0.0060344999999999,-0.0035884999999999,1.0703785,-0.0060345,0.0035884999999999,0.8409265,-0.5733475,7.749999999999944e-05,1.1495965,-0.6072575,0.0108605,0.7973865,-0.9365575,-0.0597254999999999,1.1918665,-0.9549875,-0.0575474999999999
173,1.0332374999999998,0.7474854999999999,0.061804,0.8544815,0.5302754999999999,0.0125529999999999,0.6925215,0.5330855,-0.062478,1.1884715,0.5192055,0.037867,1.3595215,0.5191555,-0.018948,0.7382715,0.6965155,-0.1686939999999999,1.3710815,0.6684855,-0.1477639999999999,0.9294155,0.0055445,-0.0036769999999999,1.0705845,-0.0055444999999999,0.0036769999999999,0.8411115,-0.5697645,3.099999999999804e-05,1.1501315,-0.6028545000000001,0.0108849999999999,0.7974915,-0.9327745,-0.058654,1.1923915,-0.9507945,-0.057133
174,1.0329405,0.751855,0.0641579999999999,0.8534094999999999,0.524465,0.011909,0.6928095000000001,0.485375,-0.056326,1.1879195,0.515555,0.038021,1.3598695,0.475295,-0.01449,0.7322394999999999,0.606775,-0.168716,1.3715695,0.580445,-0.1475759999999999,0.9291495,0.0050779999999999,-0.0037249999999999,1.0708505,-0.005078,0.0037249999999999,0.8408895000000001,-0.567825,-0.0001,1.1504695,-0.598095,0.010804,0.7983195,-0.928795,-0.055907,1.1929595,-0.945965,-0.0569419999999999
175,1.032635,0.7565515,0.066177,0.8524700000000001,0.5188315,0.011,0.6930499999999999,0.4385015,-0.050144,1.18728,0.5115115,0.038034,1.35992,0.4289815,-0.009267,0.72906,0.5104215,-0.168787,1.37201,0.4863515,-0.147527,0.92884,0.0046114999999999,-0.0037009999999999,1.07116,-0.0046115,0.0037009999999999,0.8409900000000001,-0.5641885,-0.00025,1.1507100000000001,-0.5926285,0.010824,0.79923,-0.9223485,-0.054149,1.19344,-0.9411085,-0.057888
176,1.032338,0.760372,0.0677675,0.852913,0.517422,0.0099215,0.696253,0.393492,-0.0429585,1.187163,0.508582,0.0373965,1.355923,0.387842,-0.0030324999999999,0.729393,0.419032,-0.1668335,1.372323,0.393362,-0.1444535,0.9285289999999999,0.0044289999999999,-0.0036854999999999,1.071471,-0.004429,0.0036854999999999,0.841033,-0.5621579999999999,-0.0004255,1.150793,-0.587688,0.0107705,0.799683,-0.917208,-0.0537165,1.193993,-0.938028,-0.0590935
177,1.0321395,0.764122,0.068787,0.8533725,0.515862,0.008573,0.7032125,0.356592,-0.033288,1.1870625,0.506672,0.036211,1.3453925,0.349762,0.0054319999999999,0.7293525000000001,0.331882,-0.1532649999999999,1.3683625,0.307122,-0.131515,0.9282954999999999,0.004091,-0.003707,1.0717045,-0.004091,0.003707,0.8411525,-0.559218,-0.000554,1.1508725,-0.582928,0.010725,0.8002125,-0.913328,-0.053508,1.1946425,-0.934428,-0.06
178,1.031963,0.7679370000000001,0.0694719999999999,0.853793,0.514437,0.007134,0.715113,0.324987,-0.0186169999999999,1.187263,0.504607,0.034898,1.3298429999999999,0.322457,0.01686,0.728973,0.252127,-0.130218,1.357713,0.230317,-0.108308,0.928098,0.0037739999999999,-0.0036439999999999,1.071902,-0.003774,0.0036439999999999,0.8408329999999999,-0.5588930000000001,-0.000285,1.151243,-0.5794630000000001,0.010879,0.8000430000000001,-0.912393,-0.05331,1.1950129999999999,-0.931013,-0.059913
179,1.0318365,0.7714315,0.0697545,0.8543045,0.5133015000000001,0.0051664999999999,0.7289845000000001,0.3027215,7.049999999999938e-05,1.1875145,0.5029715,0.0322365,1.3118545,0.3022614999999999,0.0316445,0.7294645,0.1794115,-0.1020435,1.3437345,0.1673915,-0.0796255,0.9279125,0.0033795,-0.0035005,1.0720875,-0.0033794999999999,0.0035004999999999,0.8406845000000001,-0.5583684999999999,-0.0002865,1.1513245,-0.5753685,0.0109395,0.8001345,-0.9113885,-0.0533045,1.1953245,-0.9277685,-0.0598045
180,1.031708,0.7742755,0.069717,0.854749,0.5120755,0.0031559999999999,0.743769,0.2870454999999999,0.018947,1.187789,0.5019655000000001,0.029684,1.2945689999999999,0.2882754999999999,0.046623,0.7308490000000001,0.1286455,-0.068551,1.326139,0.1168454999999999,-0.047005,0.9277880000000001,0.0032505,-0.003352,1.072212,-0.0032505,0.0033519999999999,0.840599,-0.5584844999999999,-0.0001229999999999,1.151229,-0.5719245,0.010903,0.800539,-0.9102145,-0.0540169999999999,1.195299,-0.9242145,-0.0584149999999999
181,1.031634,0.776127,0.0695185,0.8551780000000001,0.511567,0.0012735,0.7562380000000001,0.2767469999999999,0.0369875,1.188128,0.501447,0.0270014999999999,1.2790979999999998,0.2786869999999999,0.0612795,0.7326779999999999,0.091477,-0.0311774999999999,1.306808,0.079983,-0.0090275,0.927694,0.0031719999999999,-0.0032704999999999,1.072306,-0.003172,0.0032704999999999,0.8406880000000001,-0.557593,-0.0003154999999999,1.151108,-0.569743,0.0106935,0.800538,-0.909993,-0.0542135,1.195428,-0.922033,-0.0581075
182,1.031706,0.7773935,0.0693135,0.855644,0.5113835,-0.0001095,0.763354,0.2673235,0.0519405,1.188414,0.5010635,0.0244155,1.265314,0.2695035,0.0744684999999999,0.730904,0.0496444999999999,0.0127445,1.284484,0.0549405,0.0258675,0.9276560000000001,0.0030685,-0.0031624999999999,1.072344,-0.0030685,0.0031625,0.840904,-0.5558065,-0.0006905,1.1507939999999999,-0.5681965,0.0104745,0.8004439999999999,-0.9100065,-0.0547405,1.195314,-0.9209565,-0.0574835
183,1.031851,0.7782760000000001,0.0689445,0.855872,0.511266,-0.0009485,0.768652,0.260606,0.0642105,1.188862,0.500866,0.0222155,1.254882,0.261916,0.0861215,0.7355320000000001,0.028135,0.0509245,1.2636720000000001,0.034842,0.0576855,0.927647,0.003004,-0.0031255,1.0723530000000001,-0.003004,0.0031254999999999,0.841112,-0.5548139999999999,-0.0009055,1.150672,-0.5660839999999999,0.0102894999999999,0.800462,-0.910124,-0.0554154999999999,1.195152,-0.918964,-0.0564974999999999
184,1.0320525,0.778881,0.06826,0.8560605,0.511101,-0.0012419999999999,0.7718105,0.255251,0.07446,1.1892905,0.500801,0.020657,1.2462205,0.255951,0.095311,0.7384605,0.0174399999999999,0.078492,1.2470205,0.023422,0.085386,0.9276465,0.002962,-0.0031249999999999,1.0723535,-0.002962,0.003125,0.8413305,-0.554209,-0.0010449999999999,1.1501505,-0.560469,0.010156,0.8007805,-0.909339,-0.054563,1.1950005,-0.916229,-0.055855
185,1.0322285,0.779525,0.0671765,0.8562225,0.511065,-0.0013985,0.7717925,0.249085,0.0815205,1.1898225,0.500995,0.0199155,1.2411225,0.248965,0.1025105,0.7388325,0.008752,0.0913865,1.2382125,0.017075,0.0994825,0.9276305,0.002935,-0.0031085,1.0723695,-0.002935,0.0031085,0.8415225,-0.553395,-0.0012005,1.1495225,-0.554715,0.0099915,0.8007124999999999,-0.908525,-0.0557165,1.1948625,-0.913365,-0.0552485
186,1.0323455,0.7801185,0.0655985,0.8564125000000001,0.5107085,-0.0018185,0.7718825000000001,0.2431985,0.0840154999999999,1.1903325,0.5014385,0.0194885,1.2405225,0.2427385,0.1034404999999999,0.7390225,0.0016454999999999,0.0909664999999999,1.2364724999999999,0.0115675,0.0989994999999999,0.9276155,0.0029335,-0.0031015,1.0723845,-0.0029335,0.0031015,0.8413125000000001,-0.5526015,-0.0015475,1.1496624999999998,-0.5564414999999999,0.0095855,0.8004525,-0.9076415,-0.0561345,1.1948325,-0.9149615,-0.0560445
187,1.0324325,0.7808275,0.0636685,0.8563525,0.5101375,-0.0026965,0.7720925000000001,0.2391675,0.0831465,1.1909725,0.5020175,0.0186335,1.2407325,0.2375175,0.1025715,0.7392325,-0.0034885,0.0900975,1.2366825,0.0078435,0.0981305,0.9276175,0.0029085,-0.0030594999999999,1.0723825,-0.0029085,0.0030594999999999,0.8411725,-0.5516025,-0.0023344999999999,1.1490624999999999,-0.5508225,0.0087145,0.8005525,-0.9075525,-0.0584964999999999,1.1944625,-0.9127325,-0.0568894999999999
188,1.0325145,0.7816015,0.061861,0.8560675,0.5096815,-0.0036299999999999,0.7723475000000001,0.2397315,0.081939,1.1919175,0.5024015,0.017449,1.2409875,0.2372815,0.101364,0.7394875000000001,-0.0014464999999999,0.08889,1.2369375,0.0081605,0.096923,0.9276125,0.0028304999999999,-0.0028909999999999,1.0723875,-0.0028304999999999,0.002891,0.8409475000000001,-0.5530685,-0.0033249999999999,1.1484975,-0.5460385,0.007515,0.8007175,-0.9078685,-0.061361,1.1941575,-0.9098685,-0.057187
189,1.0327635,0.782319,0.0603205,0.8557025,0.509509,-0.0043175,0.7708125,0.245679,0.0803885,1.1930224999999999,0.502979,0.0159855,1.2414224999999999,0.242759,0.0998785,0.7394425,0.007065,0.0856585,1.2373725,0.016283,0.0953225,0.9275705,0.002709,-0.0026324999999999,1.0724295,-0.002709,0.0026325,0.8411725,-0.550911,-0.0043584999999999,1.1480925,-0.541331,0.0062715,0.8011425,-0.907501,-0.0627015,1.1938225,-0.906171,-0.0574164999999999
190,1.0331725,0.7830245,0.0586115,0.8554045,0.5095345,-0.0048375,0.7683945,0.2528145,0.0752285,1.1941845,0.5036145,0.0144495,1.2451745,0.2500845,0.0932955,0.7378045,0.0177795,0.0673545,1.2437345,0.0240595,0.0800655,0.9275015,0.0025725,-0.0023355,1.0724985,-0.0025725,0.0023355,0.8416145000000002,-0.5502455,-0.0056905,1.1482045,-0.5399855,0.0049715,0.8017045,-0.9067555,-0.0643904999999999,1.1942545,-0.9047855,-0.0588545
191,1.0337985,0.78331,0.0566545,0.8552225,0.50964,-0.0054665,0.7662725000000001,0.2580699999999999,0.0627095,1.1953825,0.50401,0.0130865,1.2507424999999999,0.25688,0.0793985,0.7363824999999999,0.028404,0.0400165,1.2527325,0.031127,0.0550425,0.9274295,0.002491,-0.0020315,1.0725705,-0.0024909999999999,0.0020315,0.8424925,-0.5463,-0.0069415,1.1484725,-0.53891,0.0035865,0.8026725,-0.90584,-0.0656585,1.1948725,-0.90334,-0.0607745
192,1.0342965,0.7840545,0.0504055,0.8528565,0.5077245,-0.0060284999999999,0.7552565,0.2191845,0.0465445,1.1976665,0.5041845,0.0115785,1.2514365,0.2070745,0.0761265,0.7179465,-0.0166895,0.0193955,1.2556365,-0.0221584999999999,0.0557835,0.9276695,0.0022785,-0.0014844999999999,1.0723305,-0.0022785,0.0014845,0.8398165,-0.5624355,-0.0099575,1.1455665,-0.5165555000000001,-0.0008564999999999,0.7997565,-0.9292055,-0.1029335,1.1910565,-0.8883955,-0.0625265
193,1.0355935,0.7844899999999999,0.0483855,0.8528455,0.50849,-0.0069245,0.7534655,0.22552,0.0223415,1.1995655,0.50428,0.0091855,1.2676855,0.22734,0.0316974999999999,0.7132255000000001,-0.0025859999999999,-0.0403115,1.2777055,-0.0004929999999999,-0.0066215,0.9273525,0.001954,-0.0009305,1.0726475,-0.001954,0.0009305,0.8444955000000001,-0.5277700000000001,-0.0106334999999999,1.1487554999999998,-0.53801,0.0001004999999999,0.8000555,-0.8881100000000001,-0.0620905,1.1946155,-0.90873,-0.0685845
194,1.036909,0.7854175,0.0472449999999999,0.853672,0.5095675,-0.007741,0.756752,0.2382575,-0.001602,1.2010219999999998,0.5052175,0.006938,1.278422,0.2347075,0.010234,0.7164820000000001,0.0145064999999999,-0.10529,1.296562,0.0153324999999999,-0.0670009999999999,0.927082,0.0017155,-0.000625,1.072918,-0.0017155,0.0006249999999999,0.846502,-0.5258725,-0.013064,1.1489019999999999,-0.5154025,-0.001284,0.806712,-0.8970125,-0.083218,1.194392,-0.8867125,-0.066798
195,1.03739,0.7843515000000001,0.048176,0.854953,0.5103715000000001,-0.0091089999999999,0.758073,0.2533315,-0.02889,1.201913,0.5049815,0.005968,1.2887229999999998,0.2519815,-0.021286,0.722793,0.0516805,-0.156264,1.313653,0.0417245,-0.122014,0.927014,0.0021085,-0.0006019999999999,1.072986,-0.0021085,0.000602,0.8437930000000001,-0.5487985,-0.0124809999999999,1.150053,-0.5184785,-0.0028329999999999,0.806983,-0.9131185,-0.0865239999999999,1.196113,-0.8896784999999999,-0.068554
196,1.0373425,0.784376,0.0477085,0.8551305000000001,0.511226,-0.0109364999999999,0.7630705,0.272256,-0.0490905,1.2021205,0.505436,0.0030765,1.2927905,0.263576,-0.0426435,0.7337405,0.086246,-0.2007155,1.3265105,0.06784,-0.1890055,0.9269385,0.0024079999999999,-0.0010644999999999,1.0730615000000001,-0.002408,0.0010645,0.8470405,-0.528934,-0.0164414999999999,1.1501305,-0.516064,-0.0062054999999999,0.8092405,-0.898354,-0.0731335,1.1960605,-0.887384,-0.0712005
197,1.0376005,0.7832635,0.0481765,0.8560645,0.5118135,-0.0131445,0.7630245,0.2846634999999999,-0.0656025,1.2024845,0.5053435000000001,0.0009764999999999,1.2942345,0.2845634999999999,-0.0591275,0.7404645000000001,0.1304735,-0.2452085,1.3369045,0.1246635,-0.2294185,0.9268805,0.0026784999999999,-0.0016585,1.0731195,-0.0026785,0.0016585,0.8455745,-0.5531065,-0.0168625,1.1551345,-0.5672965,-0.0036214999999999,0.8089845,-0.8956164999999999,-0.0775075,1.2027145,-0.9111765,-0.0802885
198,1.037827,0.7828215,0.0486515,0.856741,0.5120914999999999,-0.0145875,0.766031,0.3020315,-0.0755025,1.2026109999999999,0.5052815,-0.0007235,1.296721,0.2999115,-0.0717245,0.7429510000000001,0.1638315,-0.2682495,1.3494709999999999,0.1628215,-0.2590795,0.9267259999999999,0.0029025,-0.0015545,1.073274,-0.0029025,0.0015545,0.849891,-0.5268385,-0.0164785,1.156141,-0.5668085,-0.0055985,0.809921,-0.8963385,-0.0805955,1.203861,-0.9100585,-0.0819285
