sb224sc-HT22-VT27/4dt907/src/data/kinect_good_preprocessed_not_cut_A11_mediapipe/A115_kinect.csv
FrameNo,nose_3d_x,nose_3d_y,nose_3d_z,left_shoulder_3d_x,left_shoulder_3d_y,left_shoulder_3d_z,left_elbow_3d_x,left_elbow_3d_y,left_elbow_3d_z,right_shoulder_3d_x,right_shoulder_3d_y,right_shoulder_3d_z,right_elbow_3d_x,right_elbow_3d_y,right_elbow_3d_z,left_wrist_3d_x,left_wrist_3d_y,left_wrist_3d_z,right_wrist_3d_x,right_wrist_3d_y,right_wrist_3d_z,left_hip_3d_x,left_hip_3d_y,left_hip_3d_z,right_hip_3d_x,right_hip_3d_y,right_hip_3d_z,left_knee_3d_x,left_knee_3d_y,left_knee_3d_z,right_knee_3d_x,right_knee_3d_y,right_knee_3d_z,left_ankle_3d_x,left_ankle_3d_y,left_ankle_3d_z,right_ankle_3d_x,right_ankle_3d_y,right_ankle_3d_z
0,-0.024870999999999997,0.773239,0.038709,-0.192637,0.5015890000000001,0.0033339999999999967,-0.244367,0.241419,-0.019067,0.15430300000000002,0.49994900000000003,-0.004305999999999997,0.214763,0.233599,-0.028086999999999994,-0.20884699999999998,0.015816999999999998,-0.093499,0.192803,0.015064,-0.10957900000000001,-0.076688,-0.000889,-0.0006250000000000006,0.076688,0.000889,0.0006250000000000006,-0.153907,-0.5653509999999999,0.030010000000000002,0.16329300000000002,-0.559331,0.024904000000000003,-0.190937,-0.9075409999999999,-0.019756999999999997,0.207013,-0.897281,-0.035474
1,-0.024404500000000003,0.7730925000000001,0.038412999999999996,-0.1924445,0.5016025000000001,0.0030579999999999982,-0.2440845,0.2398925,-0.019572,0.15436550000000002,0.5000325,-0.004340000000000004,0.2148355,0.2334525,-0.028012999999999996,-0.2087745,0.0165745,-0.093503,0.1925555,0.0151435,-0.109653,-0.0766915,-0.0007934999999999999,-0.0006280000000000036,0.0766915,0.0007934999999999999,0.0006279999999999966,-0.1539245,-0.5667074999999999,0.029706999999999997,0.1633755,-0.5592975,0.024933999999999998,-0.1887645,-0.9072275,-0.014671999999999998,0.2059955,-0.8953675,-0.035129999999999995
2,-0.024236999999999998,0.773113,0.0402845,-0.192101,0.5015729999999999,0.0036264999999999978,-0.244151,0.240473,-0.019035499999999997,0.154429,0.5000129999999999,-0.003211499999999999,0.214789,0.232993,-0.027367500000000003,-0.208761,0.016776,-0.0935345,0.191929,0.015138,-0.10969449999999999,-0.076712,-0.0007720000000000001,-0.0006315000000000001,0.076712,0.0007720000000000001,0.0006315000000000001,-0.153971,-0.566737,0.0284175,0.163139,-0.557097,0.0233725,-0.189361,-0.909147,-0.018986500000000003,0.198649,-0.890367,-0.0016745000000000024
3,-0.024001500000000002,0.7731095,0.040022999999999996,-0.1917355,0.5015895,0.0034269999999999995,-0.24404550000000003,0.2406795,-0.018906,0.1545645,0.4999895,-0.0031880000000000033,0.2149145,0.2329495,-0.027332999999999996,-0.2084855,0.016876500000000003,-0.09352200000000001,0.19157449999999998,0.0153295,-0.109752,-0.0767595,-0.0008105000000000005,-0.0006229999999999986,0.0767595,0.0008105000000000005,0.0006229999999999986,-0.1536655,-0.5661105,0.028706999999999996,0.16321449999999998,-0.5566305,0.023063999999999998,-0.19269550000000002,-0.9118805,-0.029725,0.2014045,-0.8827405,-0.005831000000000003
4,-0.023814000000000002,0.7731045,0.040045,-0.191579,0.5015745,0.003375999999999997,-0.243669,0.2414545,-0.019008000000000004,0.154731,0.49996450000000003,-0.0030869999999999995,0.215021,0.2329345,-0.027409000000000003,-0.207709,0.016892499999999998,-0.093803,0.190771,0.0155725,-0.11016300000000001,-0.076768,-0.0008144999999999993,-0.0006169999999999995,0.076768,0.0008145000000000001,0.0006169999999999995,-0.15337900000000002,-0.5653155000000001,0.028935999999999996,0.163971,-0.5591455000000001,0.023726999999999998,-0.191779,-0.9132855000000001,-0.029788999999999996,0.200441,-0.8845855,-0.005360000000000004
5,-0.0233035,0.7727805,0.039575,-0.1912685,0.5016005,0.0035320000000000004,-0.24356850000000002,0.2416105,-0.018850000000000006,0.1549915,0.5001605,-0.0032160000000000036,0.21523150000000002,0.2329505,-0.027285000000000004,-0.20671850000000003,0.0175675,-0.09389399999999999,0.18959150000000002,0.0161235,-0.111164,-0.0768055,-0.0008295000000000004,-0.0006990000000000052,0.0768055,0.0008294999999999995,0.0006989999999999982,-0.15315849999999998,-0.5655295,0.029108999999999996,0.16424149999999998,-0.5592195,0.023854999999999998,-0.19167850000000003,-0.9118095,-0.028447,0.1965615,-0.8895695,-0.018315000000000005
6,-0.022982499999999996,0.772833,0.039348999999999995,-0.1911775,0.501663,0.0036430000000000004,-0.2435175,0.242003,-0.018935,0.1550625,0.500033,-0.003153000000000003,0.2151925,0.232693,-0.027242000000000002,-0.2051775,0.01745,-0.094419,0.18873250000000003,0.016395,-0.111789,-0.0768445,-0.0008540000000000006,-0.0007759999999999989,0.0768445,0.0008539999999999997,0.0007759999999999989,-0.15302749999999998,-0.565987,0.029219,0.16425250000000002,-0.560017,0.024048999999999997,-0.19185750000000001,-0.9107569999999999,-0.02755400000000001,0.2064725,-0.8973169999999999,-0.046709
7,-0.0230805,0.772739,0.0389175,-0.1905995,0.501459,0.004117500000000003,-0.2435795,0.242789,-0.018895500000000003,0.1549005,0.500229,-0.0032674999999999996,0.2151005,0.235599,-0.027022499999999998,-0.2030295,0.016248,-0.09641450000000001,0.1881305,0.017202,-0.1120545,-0.07692550000000001,-0.0008780000000000003,-0.0007394999999999971,0.07692550000000001,0.0008780000000000003,0.0007394999999999971,-0.1531495,-0.565671,0.0293735,0.1639905,-0.5575910000000001,0.0243715,-0.1927895,-0.909341,-0.026800499999999998,0.2046105,-0.889171,-0.0363945
8,-0.0228975,0.7727075,0.038934,-0.1903405,0.5014575,0.004235999999999997,-0.2434905,0.2427975,-0.018855999999999998,0.1549795,0.5002175,-0.0031860000000000013,0.21513949999999998,0.2354175,-0.026938999999999998,-0.20196050000000002,0.0159165,-0.09695099999999998,0.18754949999999998,0.0172005,-0.112511,-0.0769505,-0.0008694999999999996,-0.0007479999999999987,0.0769505,0.0008695000000000005,0.0007479999999999987,-0.1530205,-0.5660625,0.02942,0.1641095,-0.5579425,0.02442,-0.19311050000000002,-0.9102625000000001,-0.027486000000000003,0.2044195,-0.8892025,-0.035869000000000005
9,-0.022733,0.7726775,0.038991000000000005,-0.190096,0.5014675,0.004343,-0.243426,0.24281750000000002,-0.018764999999999997,0.155034,0.5002175,-0.0030950000000000005,0.215144,0.23526750000000002,-0.026846999999999996,-0.201036,0.0156805,-0.097429,0.187064,0.0171915,-0.112939,-0.076973,-0.0008695000000000005,-0.0007599999999999968,0.076973,0.0008694999999999996,0.0007600000000000037,-0.152906,-0.5660425,0.029479,0.164204,-0.5582825,0.024466,-0.193396,-0.9109225,-0.027818999999999997,0.204154,-0.8894625,-0.03546099999999999
10,-0.022614499999999996,0.7726675000000001,0.0389955,-0.1898765,0.5014675,0.0044125,-0.24339650000000002,0.2431475,-0.0187325,0.1550735,0.5002475,-0.003077499999999997,0.2151335,0.2355975,-0.026784499999999996,-0.2002865,0.0154625,-0.09780250000000001,0.1867535,0.017378499999999998,-0.11323250000000001,-0.0769795,-0.0008824999999999996,-0.0007645000000000013,0.0769795,0.0008825000000000005,0.0007645000000000013,-0.1528165,-0.5657225,0.0295895,0.1642735,-0.5585025,0.024571500000000003,-0.19338650000000002,-0.9108025,-0.027742499999999996,0.20448349999999998,-0.8894825,-0.0368755
11,-0.022615000000000003,0.772657,0.0390615,-0.189807,0.5014569999999999,0.004506499999999997,-0.24339700000000003,0.243367,-0.018715500000000003,0.15507300000000002,0.500257,-0.0030695000000000028,0.215113,0.235977,-0.026737500000000004,-0.199857,0.015251,-0.0979765,0.18655299999999997,0.01755,-0.1134465,-0.07699,-0.0008999999999999998,-0.0007544999999999982,0.07699,0.0009000000000000006,0.0007544999999999982,-0.15270699999999998,-0.565363,0.0296885,0.16436299999999998,-0.558793,0.0246645,-0.193287,-0.910373,-0.027208500000000004,0.204673,-0.890263,-0.03681550000000001
12,-0.022627499999999995,0.7726515,0.039130000000000005,-0.18976949999999998,0.5014415,0.00460300000000001,-0.24338949999999998,0.2433615,-0.018683999999999992,0.15506050000000002,0.5002814999999999,-0.0030629999999999963,0.2150705,0.2363315,-0.026699999999999988,-0.19986949999999998,0.0150715,-0.09790599999999999,0.18648050000000002,0.0176795,-0.113566,-0.07700950000000001,-0.0009195000000000002,-0.0007389999999999966,0.07700950000000001,0.0009195000000000002,0.0007390000000000035,-0.1526195,-0.5649285,0.029786000000000007,0.1644305,-0.5588385,0.024761000000000005,-0.19323949999999998,-0.9098685,-0.026358999999999994,0.20466050000000002,-0.8908985,-0.036745
13,-0.022648,0.7727075,0.039166,-0.18978899999999999,0.5013875,0.0046710000000000015,-0.243409,0.2433575,-0.018646999999999997,0.155041,0.5002875,-0.0030600000000000002,0.215031,0.2364775,-0.026609999999999995,-0.19988899999999998,0.015013499999999999,-0.097842,0.18646100000000002,0.0177975,-0.113612,-0.07703099999999999,-0.0009475000000000004,-0.0007290000000000005,0.07703099999999999,0.0009474999999999996,0.0007290000000000005,-0.152399,-0.5645924999999999,0.029875,0.164501,-0.5589425,0.024844,-0.19286899999999998,-0.9093424999999999,-0.025307999999999997,0.20464100000000002,-0.8909425,-0.036681000000000005
14,-0.022772000000000004,0.772748,0.039143500000000005,-0.189813,0.501328,0.004701500000000004,-0.243433,0.243348,-0.018646499999999996,0.15491699999999997,0.500288,-0.003072499999999999,0.215007,0.236648,-0.0265335,-0.199913,0.014977,-0.0978115,0.18643700000000002,0.017881,-0.1136115,-0.077044,-0.0009779999999999997,-0.0007204999999999989,0.077044,0.0009780000000000006,0.0007205000000000059,-0.152333,-0.565002,0.029942500000000004,0.16468699999999997,-0.558982,0.024876500000000003,-0.19260300000000002,-0.9089619999999999,-0.0243955,0.204457,-0.890262,-0.034909499999999996
15,-0.022941,0.7727835,0.039122500000000004,-0.18984299999999998,0.5012835,0.0047285000000000035,-0.243483,0.2433335,-0.018643499999999993,0.154777,0.5002735,-0.003069499999999996,0.214997,0.2368835,-0.026482499999999992,-0.20005299999999998,0.0150165,-0.09763449999999999,0.18640700000000002,0.017909500000000002,-0.11359449999999999,-0.07705799999999999,-0.0010124999999999995,-0.0007164999999999949,0.07705799999999999,0.0010124999999999995,0.0007165000000000019,-0.152313,-0.5654365,0.0299675,0.164867,-0.5592165,0.024897500000000003,-0.192133,-0.9089765,-0.023639499999999994,0.204397,-0.8902765,-0.031382499999999994
16,-0.023140499999999994,0.7728555,0.039124,-0.1900475,0.5012955,0.004624000000000003,-0.2435975,0.2432455,-0.018659999999999996,0.1546225,0.5002555,-0.0030869999999999995,0.2149525,0.2371655,-0.026463999999999994,-0.2002875,0.014992499999999999,-0.097409,0.1864025,0.0179415,-0.113589,-0.0770685,-0.0010435000000000002,-0.0007199999999999984,0.0770685,0.0010435000000000002,0.0007199999999999984,-0.1521875,-0.5647145,0.02998,0.1650125,-0.5593144999999999,0.024871,-0.1916575,-0.9089944999999999,-0.022979999999999993,0.2042025,-0.8902945,-0.030711999999999996
17,-0.023344000000000004,0.772957,0.039125499999999994,-0.190274,0.501297,0.004553499999999995,-0.24370400000000003,0.24317699999999998,-0.018656500000000006,0.15443600000000002,0.500287,-0.0031455000000000025,0.21494599999999997,0.23751699999999998,-0.02640350000000001,-0.200594,0.015004,-0.09711750000000001,0.18646600000000002,0.017997,-0.1135875,-0.077082,-0.0010919999999999992,-0.0007195000000000049,0.077082,0.001092,0.0007194999999999979,-0.152024,-0.564053,0.030010499999999996,0.16515599999999997,-0.559583,0.024873499999999996,-0.19090400000000002,-0.908733,-0.02205850000000001,0.204146,-0.8905230000000001,-0.029881500000000005
18,-0.023556999999999998,0.773065,0.039126,-0.190541,0.501285,0.004489,-0.243851,0.243085,-0.018661999999999998,0.154259,0.500305,-0.0032189999999999996,0.214909,0.237755,-0.026387999999999995,-0.201231,0.015158999999999999,-0.096597,0.186569,0.018036,-0.11356699999999999,-0.07709,-0.001137,-0.0007300000000000015,0.07709,0.001137,0.0007300000000000015,-0.151881,-0.563875,0.030060000000000003,0.165309,-0.559765,0.024856,-0.190241,-0.9087149999999999,-0.022033999999999998,0.204029,-0.8901049999999999,-0.029051999999999994
19,-0.023778499999999994,0.773169,0.03916,-0.1908105,0.501269,0.004451999999999998,-0.2440105,0.242979,-0.018676000000000005,0.1540795,0.500329,-0.003283000000000001,0.2148895,0.23811900000000003,-0.026348999999999997,-0.2018905,0.01519,-0.09603099999999999,0.1867095,0.01808,-0.11354100000000002,-0.07709150000000001,-0.0011879999999999998,-0.0007350000000000065,0.07709150000000001,0.0011879999999999998,0.0007349999999999995,-0.1517605,-0.5639909999999999,0.030134999999999995,0.16535950000000002,-0.559761,0.024816999999999995,-0.1895605,-0.908821,-0.022062,0.20382950000000002,-0.8901009999999999,-0.028189000000000006
20,-0.0240005,0.7732695,0.0391595,-0.1911025,0.5012395000000001,0.004388499999999997,-0.2441625,0.24282949999999998,-0.018700500000000002,0.1539075,0.5003395,-0.0033885000000000026,0.2148975,0.23833949999999998,-0.026369500000000004,-0.2024925,0.015251500000000001,-0.0956315,0.1868575,0.018111500000000003,-0.11350149999999999,-0.0770985,-0.0012224999999999996,-0.0007615000000000052,0.0770985,0.0012225000000000005,0.0007614999999999983,-0.1518325,-0.5644205,0.0301875,0.1653875,-0.5597705,0.0247445,-0.1893825,-0.9094205,-0.0226055,0.2036275,-0.8905504999999999,-0.027731500000000006
21,-0.024235,0.7733300000000001,0.03913199999999999,-0.191412,0.50119,0.0043159999999999935,-0.244282,0.24284,-0.018755,0.153718,0.50035,-0.003508000000000004,0.21487799999999999,0.23862,-0.026436,-0.20311200000000001,0.015222000000000001,-0.09561900000000001,0.186988,0.018131,-0.113569,-0.07708999999999999,-0.0012519999999999996,-0.000790000000000006,0.07708999999999999,0.0012520000000000005,0.000789999999999999,-0.151672,-0.56335,0.030160999999999993,0.165368,-0.5597599999999999,0.024665999999999997,-0.188952,-0.90954,-0.02261400000000001,0.203438,-0.89098,-0.027783000000000002
22,-0.024508500000000003,0.773384,0.039146,-0.1917805,0.501144,0.0042169999999999985,-0.2443905,0.242804,-0.018872,0.1535195,0.500364,-0.0036370000000000013,0.2147995,0.238984,-0.026543999999999998,-0.2036705,0.015314999999999999,-0.09566300000000001,0.1870895,0.018095,-0.11364300000000001,-0.0770825,-0.001288,-0.0008109999999999992,0.0770825,0.001288,0.0008109999999999992,-0.1515005,-0.562286,0.030142000000000002,0.1653495,-0.559696,0.024555,-0.1887705,-0.909656,-0.022390999999999994,0.2033195,-0.891186,-0.027908000000000002
23,-0.02461,0.7734505,0.039171,-0.192029,0.5011205,0.0040959999999999955,-0.244439,0.2427805,-0.019017,0.153411,0.5003905,-0.003817000000000001,0.214771,0.2394705,-0.026652999999999996,-0.204119,0.0152915,-0.095726,0.187221,0.0180635,-0.11371600000000001,-0.077071,-0.0013115000000000002,-0.0008280000000000023,0.077071,0.0013115000000000002,0.0008279999999999954,-0.151309,-0.5619095,0.030141999999999995,0.165341,-0.5594695,0.024464999999999997,-0.188549,-0.9095095,-0.022049,0.203271,-0.8913595,-0.028071
24,-0.024719,0.7735075,0.039161,-0.19223600000000002,0.5010375,0.003942000000000001,-0.24460600000000002,0.2427875,-0.019334999999999998,0.15329399999999999,0.5004175,-0.004041999999999997,0.214774,0.2401575,-0.026760999999999993,-0.20469600000000002,0.015466500000000001,-0.09581300000000001,0.18742399999999998,0.0180815,-0.11383299999999999,-0.077038,-0.0013224999999999999,-0.0008519999999999986,0.077038,0.0013224999999999999,0.0008519999999999986,-0.151166,-0.5619525,0.030121000000000002,0.16530399999999998,-0.5592125,0.024321000000000002,-0.188586,-0.9094825,-0.022155999999999995,0.20321399999999998,-0.8910724999999999,-0.028177999999999995
25,-0.024889499999999995,0.7735845,0.038936,-0.19243549999999998,0.5009545000000001,0.003599999999999999,-0.2447955,0.2431145,-0.020419,0.1532445,0.5004745,-0.004319000000000003,0.21475450000000001,0.2413345,-0.027665999999999996,-0.2058455,0.0156305,-0.097195,0.18811450000000002,0.0180695,-0.115375,-0.0769955,-0.0013265000000000004,-0.000789000000000005,0.0769955,0.0013265000000000004,0.000788999999999998,-0.15110549999999998,-0.5615055,0.029834999999999997,0.1652545,-0.5588555,0.023975999999999997,-0.18866549999999999,-0.9093754999999999,-0.023326,0.2030845,-0.8912954999999999,-0.028599
26,-0.025001999999999996,0.7736004999999999,0.038594,-0.19255499999999998,0.5009705,0.0029800000000000035,-0.24510500000000002,0.24425049999999998,-0.024091,0.153055,0.5005904999999999,-0.004865000000000001,0.214625,0.2430405,-0.030321,-0.208945,0.0158395,-0.10353699999999999,0.190625,0.018134499999999998,-0.12084700000000001,-0.07689,-0.0013425,-0.0006489999999999968,0.07689,0.0013425,0.0006490000000000037,-0.15124500000000002,-0.5612895,0.029365000000000002,0.164945,-0.5580295000000001,0.023379,-0.189125,-0.9097995000000001,-0.025005,0.20298500000000003,-0.8908195000000001,-0.028342999999999993
27,-0.025078499999999997,0.7736379999999999,0.0382835,-0.1926505,0.500988,0.002091500000000003,-0.24595050000000002,0.246638,-0.031218499999999996,0.15289950000000002,0.500848,-0.005752500000000001,0.21583950000000002,0.246358,-0.03852849999999999,-0.21459050000000002,0.016974,-0.11588549999999999,0.1960095,0.019073,-0.1327955,-0.0767925,-0.0013940000000000003,-0.0004154999999999992,0.0767925,0.0013940000000000003,0.0004154999999999992,-0.15148050000000002,-0.561572,0.0286555,0.1644695,-0.556562,0.0224555,-0.18952049999999998,-0.910262,-0.026983499999999994,0.2030095,-0.890462,-0.0290585
28,-0.025094499999999995,0.7736495,0.0382235,-0.1927005,0.5009195,0.0009935000000000013,-0.24803050000000001,0.25186949999999997,-0.042180499999999996,0.1527395,0.5012195,-0.006699500000000004,0.2175495,0.2510095,-0.0489035,-0.2230105,0.0215015,-0.1345135,0.2039995,0.0217995,-0.1524335,-0.07664750000000001,-0.0014385000000000005,-0.0002065000000000053,0.07664750000000001,0.0014385000000000005,0.00020649999999999835,-0.1514005,-0.5609505,0.0276925,0.1636695,-0.5515205,0.0213415,-0.1897705,-0.9102104999999999,-0.028828500000000007,0.2030895,-0.8901304999999999,-0.029786500000000007
29,-0.0251085,0.7736345,0.038662,-0.1927095,0.5008345000000001,-0.0004529999999999951,-0.2530895,0.2611945,-0.05659299999999999,0.1524005,0.5020345,-0.007913999999999997,0.2201005,0.2606445,-0.062377,-0.2339795,0.0343915,-0.15821000000000002,0.2140805,0.0324545,-0.17815999999999999,-0.0764685,-0.0014665000000000008,7.599999999999968e-05,0.0764685,0.0014665,-7.599999999999968e-05,-0.1514695,-0.5600855,0.026554,0.1633405,-0.5502455,0.019889000000000004,-0.1901995,-0.9107655,-0.031246999999999997,0.2031205,-0.8902255,-0.03135299999999999
30,-0.025092499999999997,0.7736615,0.039550999999999996,-0.1924515,0.5008015,-0.001917000000000002,-0.2590515,0.27329149999999997,-0.072587,0.1517585,0.5033215,-0.009290000000000007,0.2239285,0.2731515,-0.077987,-0.2484215,0.054482499999999996,-0.188547,0.2254685,0.0559645,-0.206207,-0.0762885,-0.0014905000000000005,0.0003789999999999974,0.0762885,0.0014904999999999996,-0.00037900000000000433,-0.1512415,-0.5592285,0.025216999999999996,0.1623185,-0.5444285,0.018239999999999996,-0.1906615,-0.9106285000000001,-0.03311800000000001,0.2032785,-0.8889185000000001,-0.03278400000000001
31,-0.024953000000000003,0.7735965,0.041098499999999996,-0.191822,0.5008765,-0.0030314999999999995,-0.265992,0.2898065,-0.09042049999999999,0.150968,0.5052465,-0.010467499999999998,0.229198,0.2901365,-0.09583049999999999,-0.26678199999999996,0.0879305,-0.22273049999999997,0.23760799999999999,0.0877015,-0.23861049999999998,-0.076098,-0.0016265000000000003,0.0006354999999999972,0.076098,0.0016264999999999995,-0.0006354999999999972,-0.151092,-0.5557435,0.023661500000000002,0.161918,-0.5428335,0.0164415,-0.19109199999999998,-0.9099535,-0.035303499999999995,0.203268,-0.8891835,-0.0339495
32,-0.024705500000000002,0.77334,0.042748,-0.1909365,0.5010600000000001,-0.003909000000000003,-0.2744165,0.31082,-0.107794,0.1501235,0.50743,-0.011374000000000002,0.2346635,0.31224999999999997,-0.115844,-0.2864165,0.13085,-0.255754,0.2522835,0.12779,-0.273504,-0.0759165,-0.0018069999999999996,0.0008579999999999977,0.0759165,0.001807,-0.0008579999999999977,-0.1508265,-0.5521499999999999,0.021951,0.1609735,-0.5376599999999999,0.014495999999999998,-0.1917265,-0.90975,-0.037357999999999995,0.2032535,-0.88866,-0.035893
33,-0.024397499999999996,0.7727655,0.044617500000000004,-0.18975550000000002,0.5015155,-0.004428499999999998,-0.2837555,0.3370655,-0.12417949999999998,0.14950449999999998,0.5096055,-0.0119515,0.24134450000000002,0.3396355,-0.1360395,-0.3085255,0.1802155,-0.28688949999999996,0.2676545,0.1779455,-0.3088595,-0.0757235,-0.0021125,0.0010544999999999999,0.0757235,0.0021125000000000007,-0.0010544999999999999,-0.1509355,-0.5529544999999999,0.0203855,0.1600045,-0.5328345,0.012442500000000002,-0.19236550000000002,-0.9105544999999999,-0.03936049999999999,0.2031845,-0.8883844999999999,-0.03826249999999999
34,-0.023973500000000002,0.7717815,0.0466185,-0.18826350000000003,0.5023415,-0.004708499999999997,-0.2937435,0.3677115,-0.1393495,0.1490665,0.5118715,-0.012192500000000002,0.24817650000000002,0.3721215,-0.1550995,-0.3300935,0.2380315,-0.3161895,0.2816965,0.2328615,-0.3437795,-0.0755625,-0.0024805,0.001181500000000002,0.0755625,0.0024805,-0.0011814999999999985,-0.15096350000000003,-0.5508285,0.0186155,0.1599565,-0.5331485,0.0106615,-0.1929635,-0.9109385,-0.041069499999999995,0.20355649999999997,-0.8903585,-0.040680499999999994
35,-0.0233885,0.7707195,0.0486955,-0.1866825,0.5036095,-0.0044924999999999965,-0.3038425,0.4036195,-0.1504795,0.1489075,0.5143395000000001,-0.011813499999999998,0.2552675,0.4092795,-0.1695995,-0.3513225,0.30743950000000003,-0.3390395,0.29205749999999997,0.30422950000000004,-0.36859949999999997,-0.0753945,-0.0027685,0.0012185000000000008,0.0753945,0.0027685,-0.0012184999999999974,-0.1509125,-0.5491405,0.017216500000000003,0.1589375,-0.5285805,0.009170500000000002,-0.1934925,-0.9116805,-0.04275249999999999,0.2035375,-0.8896205,-0.0433305
36,-0.022778000000000003,0.7692375,0.050173999999999996,-0.185204,0.5050074999999999,-0.003753000000000003,-0.313314,0.4428775,-0.155825,0.148716,0.5169575,-0.010922000000000005,0.260376,0.4505675,-0.175915,-0.367724,0.3852675,-0.349205,0.297786,0.38569749999999997,-0.381235,-0.075214,-0.0031834999999999997,0.0012209999999999999,0.075214,0.0031834999999999997,-0.0012209999999999999,-0.150974,-0.5485925,0.016145,0.157726,-0.5240525,0.008053999999999999,-0.193994,-0.9129325,-0.043881,0.203476,-0.8883425,-0.04453499999999999
37,-0.022129500000000003,0.7672225,0.051096499999999996,-0.1842435,0.5066525000000001,-0.002581500000000004,-0.32104350000000004,0.4848325,-0.1562315,0.14853650000000002,0.5199725000000001,-0.0101515,0.26360649999999997,0.4952625,-0.1791215,-0.3798035,0.46949250000000003,-0.3494615,0.2990965,0.4763425,-0.3834015,-0.0750545,-0.0035695,0.0012704999999999973,0.0750545,0.0035694999999999998,-0.0012705000000000008,-0.15111349999999998,-0.5487275,0.015493499999999999,0.1574065,-0.5262875,0.007430499999999996,-0.1946235,-0.9146575,-0.044783500000000004,0.2037565,-0.8916175,-0.045840500000000006
38,-0.021496499999999998,0.764838,0.051227999999999996,-0.1835165,0.508708,-0.0007320000000000035,-0.3250565,0.526398,-0.156223,0.1484335,0.523568,-0.009023000000000003,0.26535349999999996,0.5369980000000001,-0.17930300000000002,-0.3871065,0.5536580000000001,-0.349353,0.2991835,0.563118,-0.383533,-0.0749415,-0.003967,0.0012609999999999982,0.0749415,0.003967,-0.0012610000000000017,-0.1512565,-0.550082,0.015311999999999997,0.1573435,-0.529412,0.00733,-0.19490649999999998,-0.9181119999999999,-0.04533500000000001,0.2039735,-0.8950619999999999,-0.04632100000000001
39,-0.020673999999999998,0.7621065,0.0512,-0.182947,0.5108465000000001,0.0009750000000000002,-0.32731699999999997,0.5677165000000001,-0.15614699999999998,0.148203,0.5266365000000001,-0.007861,0.26547299999999996,0.5787765,-0.179307,-0.38952699999999996,0.6345965,-0.349277,0.299303,0.6420365,-0.383537,-0.074848,-0.0043495,0.0012580000000000022,0.074848,0.004349499999999999,-0.0012579999999999987,-0.151347,-0.5540934999999999,0.015336,0.156753,-0.5303334999999999,0.007335000000000001,-0.195127,-0.9220335,-0.045397999999999994,0.203693,-0.8960634999999999,-0.048850000000000005
40,-0.0198035,0.7587845000000001,0.0511715,-0.1826285,0.5133745000000001,0.0022324999999999984,-0.3281685,0.6077145,-0.1554815,0.1480215,0.5288745,-0.0069865,0.2656015,0.6204545,-0.1793115,-0.38932849999999997,0.7047745000000001,-0.3471815,0.2994315,0.7212445000000001,-0.3835415,-0.0747195,-0.004558499999999998,0.0012535000000000011,0.0747195,0.0045585,-0.0012535000000000011,-0.1517985,-0.5622455,0.0154395,0.1557215,-0.5267755,0.0068755,-0.1953985,-0.9282855,-0.045881500000000006,0.20335150000000002,-0.8948455,-0.04883950000000001
41,-0.018950000000000005,0.7554894999999999,0.051143999999999995,-0.182344,0.5165195,0.0032569999999999995,-0.32786400000000004,0.6448294999999999,-0.149955,0.147606,0.5305995000000001,-0.006827,0.265756,0.6578595,-0.178065,-0.388814,0.7677395,-0.335085,0.29743600000000003,0.7955494999999999,-0.37384500000000004,-0.07457,-0.004680499999999997,0.0012490000000000001,0.07457,0.004680500000000001,-0.0012490000000000001,-0.15132400000000001,-0.5634305,0.015026,0.156446,-0.5358805,0.006855,-0.195274,-0.9314305,-0.045446999999999994,0.202946,-0.9016605,-0.053304
42,-0.018098999999999997,0.752355,0.050329,-0.18218,0.519825,0.004086000000000003,-0.32743,0.677795,-0.14084,0.14730000000000001,0.532305,-0.0066779999999999964,0.26529,0.691925,-0.17291,-0.38801,0.833735,-0.31486000000000003,0.29281,0.862685,-0.35721,-0.074383,-0.004736999999999998,0.0012020000000000017,0.074383,0.004737000000000002,-0.0012019999999999982,-0.15144,-0.568005,0.015170000000000003,0.15723,-0.545195,0.006985000000000002,-0.19553,-0.936325,-0.04553599999999999,0.20239000000000001,-0.909965,-0.057589
43,-0.01728,0.7491150000000001,0.0485275,-0.181903,0.5226350000000001,0.005129500000000002,-0.326883,0.7067950000000001,-0.1286655,0.147497,0.5348550000000001,-0.005913499999999999,0.262467,0.721635,-0.16427550000000002,-0.383633,0.8932150000000001,-0.2870355,0.28636700000000004,0.927065,-0.3326055,-0.074125,-0.004788000000000001,0.0011195000000000024,0.074125,0.004788000000000001,-0.001119499999999999,-0.151973,-0.576345,0.015787500000000003,0.15703699999999998,-0.547385,0.006772500000000001,-0.195973,-0.9428749999999999,-0.045578499999999994,0.201687,-0.912025,-0.059965500000000005
44,-0.016536500000000003,0.7461074999999999,0.046282500000000004,-0.1816275,0.5249775,0.006292500000000003,-0.3250775,0.7306174999999999,-0.11566950000000001,0.1479325,0.5368775,-0.005085499999999996,0.2588725,0.7467374999999999,-0.1521295,-0.3762575,0.9408774999999999,-0.2567195,0.2766825,0.9759174999999999,-0.3012695,-0.07387450000000001,-0.0048924999999999975,0.0009895000000000008,0.07387450000000001,0.004892500000000001,-0.0009894999999999973,-0.15206750000000002,-0.5816225,0.0164435,0.1558925,-0.5426725,0.006760500000000003,-0.1957275,-0.9475325,-0.0448255,0.2006025,-0.9101825,-0.062265499999999994
45,-0.015714,0.7432615,0.043802,-0.18162,0.5286814999999999,0.007998000000000002,-0.32149,0.7510614999999999,-0.10228399999999999,0.14848,0.5383715,-0.003979999999999997,0.25334999999999996,0.7671515,-0.138564,-0.36495,0.9789414999999999,-0.224584,0.26583999999999997,1.0137415,-0.26668400000000003,-0.073619,-0.004852500000000003,0.0007960000000000016,0.073619,0.004852499999999996,-0.0007959999999999981,-0.15264,-0.5900385,0.017411000000000003,0.15654,-0.5518285,0.007571000000000001,-0.19568000000000002,-0.9536285,-0.04399599999999999,0.20018000000000002,-0.9184085000000001,-0.065713
46,-0.014209,0.741101,0.041026,-0.181695,0.531601,0.009696,-0.316465,0.7658309999999999,-0.088753,0.148815,0.5415409999999999,-0.0029379999999999996,0.247365,0.782691,-0.124503,-0.353025,1.0070109999999999,-0.191803,0.254995,1.0413109999999999,-0.231413,-0.073433,-0.004847999999999998,0.0005140000000000006,0.073433,0.004848000000000005,-0.0005140000000000006,-0.153005,-0.597539,0.018404,0.155315,-0.547089,0.007783999999999999,-0.195735,-0.9590190000000001,-0.042645999999999996,0.199845,-0.915599,-0.066106
47,-0.012281500000000002,0.738445,0.038407000000000004,-0.1817145,0.533135,0.011394000000000001,-0.3113045,0.775875,-0.07586199999999999,0.1489655,0.543115,-0.0019389999999999963,0.2409055,0.795305,-0.112452,-0.3389545,1.0258349999999998,-0.159302,0.2456055,1.063535,-0.199932,-0.0731725,-0.004900000000000002,9.20000000000018e-05,0.0731725,0.004899999999999995,-9.199999999999833e-05,-0.1534045,-0.6052150000000001,0.019507000000000004,0.15494549999999999,-0.548635,0.008112000000000005,-0.19585450000000001,-0.964615,-0.04147699999999999,0.1997555,-0.916905,-0.067073
48,-0.010289000000000001,0.735928,0.0364185,-0.181641,0.5346080000000001,0.012987499999999999,-0.305671,0.783688,-0.06493850000000001,0.149129,0.5450980000000001,-0.0010735000000000015,0.234919,0.805388,-0.1025025,-0.326711,1.041488,-0.1330125,0.237729,1.079288,-0.1732925,-0.072907,-0.004965999999999998,-0.00041550000000000267,0.072907,0.004965999999999998,0.0004154999999999992,-0.152921,-0.606792,0.019900499999999998,0.154539,-0.549762,0.008392499999999997,-0.195721,-0.9682219999999999,-0.04000750000000001,0.199309,-0.917782,-0.06754950000000001
49,-0.008445500000000002,0.7336360000000001,0.034803,-0.1817455,0.534956,0.014442,-0.3005255,0.787816,-0.055497000000000005,0.1490245,0.547006,-0.00039900000000000005,0.2300745,0.810766,-0.093157,-0.3157855,1.054456,-0.11172699999999999,0.2312245,1.085756,-0.148997,-0.0725835,-0.005083999999999998,-0.0010089999999999995,0.0725835,0.005084000000000005,0.0010089999999999995,-0.1529255,-0.610664,0.020445,0.1529445,-0.544224,0.008536000000000002,-0.1957055,-0.972084,-0.038668999999999995,0.1983145,-0.914444,-0.067913
50,-0.006213499999999997,0.7316334999999999,0.033644,-0.1819095,0.5344935,0.015681,-0.29612950000000005,0.7902035,-0.047602,0.14884050000000001,0.5493035,0.00017399999999999707,0.2256305,0.8163435,-0.084564,-0.30732950000000003,1.0650235000000001,-0.095694,0.2256705,1.0886235000000002,-0.129864,-0.0723145,-0.005230499999999999,-0.0015600000000000024,0.0723145,0.005230499999999999,0.0015599999999999989,-0.15343949999999998,-0.6166865,0.021399999999999995,0.1537705,-0.5557265,0.009725999999999999,-0.19606949999999998,-0.9763165,-0.037741000000000004,0.1984305,-0.9249065,-0.06735
51,-0.004001499999999997,0.7294475,0.033021999999999996,-0.1817305,0.5330675,0.016909,-0.29255050000000005,0.7909175,-0.04161100000000001,0.1486495,0.5517475000000001,0.0008449999999999985,0.2221695,0.8196075,-0.077931,-0.30030049999999997,1.0659575,-0.081221,0.2211395,1.0887574999999998,-0.11513100000000001,-0.0721135,-0.005336500000000001,-0.002062999999999999,0.0721135,0.005336500000000008,0.002062999999999999,-0.1539805,-0.6224124999999999,0.022274999999999996,0.15319950000000002,-0.5576525,0.010459999999999997,-0.19649049999999998,-0.9807425,-0.037165000000000004,0.1976695,-0.9265325,-0.06683
52,-0.00181,0.7275905,0.0327195,-0.181092,0.5314405,0.0178395,-0.289032,0.7906805000000001,-0.0365915,0.14843800000000001,0.5531904999999999,0.0017075000000000007,0.219568,0.8213305,-0.0724765,-0.29532200000000003,1.0645005,-0.07066650000000001,0.217568,1.0870005,-0.10402650000000001,-0.071882,-0.005405499999999994,-0.0023975000000000003,0.071882,0.0054055000000000075,0.0023975000000000003,-0.154602,-0.6279295,0.0230795,0.153038,-0.5605595,0.010394500000000001,-0.19725199999999998,-0.9848794999999999,-0.03703150000000001,0.196848,-0.9296595000000001,-0.06631050000000001
53,0.0003885000000000043,0.725551,0.032692,-0.1804885,0.5297409999999999,0.018535,-0.2860385,0.7895409999999999,-0.03296299999999999,0.1481915,0.555041,0.0025540000000000007,0.2178215,0.822591,-0.06827899999999999,-0.2918385,1.062761,-0.064386,0.2147615,1.0848609999999999,-0.096736,-0.0716165,-0.005516999999999994,-0.0026000000000000016,0.0716165,0.005516999999999994,0.0026000000000000016,-0.1548385,-0.631629,0.023511,0.1527915,-0.562989,0.010054,-0.1979485,-0.987599,-0.036857,0.1964615,-0.932459,-0.066146
54,0.0024369999999999995,0.723611,0.032455000000000005,-0.17999700000000002,0.527261,0.018529000000000004,-0.283857,0.787181,-0.030806999999999994,0.14785299999999998,0.5563710000000001,0.0028390000000000047,0.216853,0.821971,-0.06576099999999999,-0.289647,1.060881,-0.061977,0.212363,1.082881,-0.091866,-0.071295,-0.005626999999999993,-0.002711999999999999,0.071295,0.005627000000000007,0.0027120000000000026,-0.154967,-0.633259,0.023480000000000004,0.153673,-0.575039,0.009923000000000005,-0.198417,-0.9900789999999999,-0.036943,0.196803,-0.944209,-0.066972
55,0.0034870000000000036,0.722298,0.0320015,-0.179575,0.525928,0.018271500000000003,-0.28223499999999996,0.785848,-0.0297345,0.147365,0.555038,0.002562499999999999,0.21626499999999999,0.821448,-0.0641765,-0.288035,1.0598480000000001,-0.0617395,0.210815,1.0819480000000001,-0.0894135,-0.07095499999999999,-0.005747000000000002,-0.003016500000000002,0.07095499999999999,0.005747000000000002,0.003016500000000002,-0.154385,-0.626852,0.0228525,0.153565,-0.577072,0.0096335,-0.198165,-0.985612,-0.0369545,0.19700499999999999,-0.946492,-0.06725450000000001
56,0.0036580000000000054,0.722298,0.031239,-0.17926899999999998,0.525928,0.017851,-0.281099,0.785848,-0.030038000000000002,0.146791,0.555038,0.0021709999999999993,0.215721,0.821448,-0.063639,-0.286889,1.0588479999999998,-0.062188,0.209851,1.082148,-0.08804500000000001,-0.070742,-0.005747000000000002,-0.0034339999999999996,0.070742,0.005747000000000002,0.0034339999999999996,-0.15495899999999999,-0.626852,0.022461000000000002,0.152111,-0.568372,0.008636000000000001,-0.198759,-0.985612,-0.038033000000000004,0.195571,-0.938592,-0.06578300000000001
57,0.002948000000000001,0.722298,0.030252499999999998,-0.179137,0.525108,0.0170475,-0.28048700000000004,0.785848,-0.0307225,0.146093,0.555038,0.0015304999999999971,0.215013,0.821448,-0.0642135,-0.286547,1.0588479999999998,-0.06286249999999999,0.209163,1.081448,-0.08844550000000001,-0.070573,-0.005747000000000002,-0.004070499999999998,0.070573,0.005747000000000002,0.004070499999999998,-0.154587,-0.617552,0.021156499999999998,0.15085300000000001,-0.559212,0.007658499999999999,-0.198397,-0.978282,-0.038704499999999996,0.194493,-0.930272,-0.06460750000000001
58,0.0022990000000000024,0.722298,0.028792,-0.17919100000000002,0.524178,0.015717000000000002,-0.280151,0.785518,-0.032049,0.145099,0.554668,-0.00013899999999999677,0.214369,0.821448,-0.065508,-0.286531,1.0588479999999998,-0.064179,0.20851899999999998,1.079748,-0.08974,-0.07045699999999999,-0.005747000000000002,-0.004251999999999999,0.07045699999999999,0.005747000000000002,0.004252000000000002,-0.153911,-0.608132,0.018113000000000004,0.151119,-0.559172,0.003726,-0.197851,-0.970922,-0.040038000000000004,0.194369,-0.930682,-0.064662
59,0.0015520000000000009,0.721906,0.026942,-0.179425,0.523476,0.013902,-0.279725,0.784806,-0.033858,0.143805,0.553336,-0.0026289999999999994,0.213665,0.821286,-0.06728,-0.286625,1.0584259999999999,-0.06762299999999999,0.207775,1.078126,-0.09151100000000001,-0.07039,-0.005594000000000002,-0.0042689999999999985,0.07039,0.005594000000000002,0.0042689999999999985,-0.153375,-0.598244,0.013584,0.151665,-0.558944,-0.0010369999999999997,-0.198085,-0.9635239999999999,-0.042932000000000005,0.193955,-0.930474,-0.064913
60,-0.00028050000000000037,0.721231,0.023511499999999998,-0.1802205,0.523131,0.0111425,-0.2796805,0.783631,-0.03737650000000001,0.1417995,0.549171,-0.007402499999999999,0.2132595,0.8205009999999999,-0.0698605,-0.2869105,1.056751,-0.0733295,0.2071095,1.078451,-0.0940855,-0.0701985,-0.005375000000000005,-0.004054499999999999,0.0701985,0.005375000000000005,0.004054499999999999,-0.1531405,-0.5877290000000001,0.0069695,0.1506595,-0.548579,-0.0078265,-0.1983805,-0.954859,-0.04649550000000001,0.1928795,-0.9203490000000001,-0.0656145
61,-0.0026449999999999963,0.7207009999999999,0.018992,-0.181081,0.523631,0.007687999999999999,-0.28008099999999997,0.783251,-0.042261,0.140159,0.545661,-0.01294,0.212889,0.820341,-0.073865,-0.287331,1.0541909999999999,-0.081056,0.206889,1.077691,-0.098626,-0.06995799999999999,-0.005103999999999997,-0.0037630000000000025,0.06995799999999999,0.005104000000000011,0.003762999999999999,-0.153151,-0.575029,-0.0015210000000000015,0.150969,-0.545869,-0.016392000000000004,-0.198581,-0.943949,-0.05062900000000001,0.191699,-0.917949,-0.069651
62,-0.005958499999999997,0.719218,0.013992000000000001,-0.18198350000000002,0.524548,0.003673000000000001,-0.2807735,0.779648,-0.048698,0.13844650000000003,0.541798,-0.019015999999999998,0.2130865,0.817788,-0.07949600000000001,-0.28794349999999996,1.052138,-0.089778,0.2066265,1.077238,-0.104238,-0.0697165,-0.004793999999999993,-0.003452,0.0697165,0.004794000000000007,0.003452,-0.1533335,-0.561502,-0.011836,0.1511965,-0.542632,-0.026933,-0.1988335,-0.932292,-0.05481199999999999,0.1908265,-0.915162,-0.07309099999999999
63,-0.009478500000000004,0.717252,0.008239999999999999,-0.18294850000000001,0.526242,-0.0009530000000000007,-0.2815685,0.776872,-0.056078,0.1371915,0.538172,-0.02569,0.2133515,0.815242,-0.08602,-0.2889585,1.050242,-0.099659,0.2068015,1.0772419999999998,-0.111299,-0.0695305,-0.004538999999999994,-0.003018,0.0695305,0.004539000000000001,0.003018,-0.15505850000000002,-0.557908,-0.022854000000000003,0.1514015,-0.538958,-0.039303000000000005,-0.20021850000000002,-0.928558,-0.059229000000000004,0.19013149999999998,-0.911838,-0.07685
64,-0.012937499999999998,0.7155400000000001,0.0018655,-0.18399949999999998,0.5262899999999999,-0.0063315,-0.2827095,0.7746999999999999,-0.0645385,0.1354505,0.5341899999999999,-0.0328685,0.2134705,0.81318,-0.0934605,-0.29023950000000004,1.05056,-0.1100005,0.2067005,1.0795599999999999,-0.11906050000000001,-0.06957050000000001,-0.004310000000000001,-0.0021775000000000006,0.06957050000000001,0.004309999999999994,0.0021774999999999997,-0.1575995,-0.55477,-0.0346145,0.15148050000000002,-0.53657,-0.0525405,-0.2028095,-0.92523,-0.06361950000000001,0.1893805,-0.9096200000000001,-0.08202050000000001
65,-0.0164385,0.7120154999999999,-0.005447,-0.1849915,0.5268155000000001,-0.011838000000000001,-0.2838915,0.7722655,-0.073831,0.13370849999999998,0.5308155000000001,-0.040186,0.21368849999999998,0.8101555,-0.101687,-0.2915015,1.0513355,-0.12116700000000001,0.2061785,1.0815355,-0.127637,-0.0696225,-0.004178500000000002,-0.0009960000000000004,0.0696225,0.004178500000000002,0.000996,-0.1591815,-0.5415145,-0.048109,0.1511485,-0.5240345,-0.066991,-0.2043915,-0.9133245000000001,-0.06811199999999999,0.1880685,-0.8974745,-0.08702
66,-0.020034000000000003,0.710042,-0.012710500000000001,-0.18549200000000002,0.527372,-0.0175185,-0.285262,0.769652,-0.0837285,0.131548,0.528012,-0.0472795,0.213648,0.805042,-0.11064349999999999,-0.292912,1.048112,-0.13446349999999999,0.204978,1.077612,-0.13801349999999998,-0.06966,-0.0036540000000000045,0.0005675,0.06966,0.0036539999999999975,-0.0005675000000000001,-0.160962,-0.5270079999999999,-0.0625555,0.151478,-0.5204679999999999,-0.08202749999999999,-0.205822,-0.899848,-0.0723345,0.18720799999999999,-0.893028,-0.0922385
67,-0.023563,0.709361,-0.019636,-0.185702,0.5262610000000001,-0.023837999999999998,-0.286652,0.7685310000000001,-0.093233,0.129248,0.5244310000000001,-0.054695,0.213578,0.803241,-0.118822,-0.294442,1.0485010000000001,-0.146632,0.203208,1.077301,-0.147572,-0.069842,-0.0033369999999999997,0.001384,0.069842,0.0033369999999999997,-0.0013839999999999998,-0.163682,-0.513119,-0.076626,0.152398,-0.506579,-0.096054,-0.207372,-0.8859589999999999,-0.07596,0.187118,-0.879039,-0.095389
68,-0.026858,0.706576,-0.0268415,-0.18586599999999998,0.524726,-0.0301365,-0.288026,0.765846,-0.1027445,0.127194,0.520956,-0.061881500000000006,0.21305400000000002,0.801566,-0.1274565,-0.296096,1.048186,-0.15880650000000002,0.201464,1.075386,-0.1574065,-0.069987,-0.003313,0.0024175000000000004,0.069987,0.003313,-0.0024174999999999995,-0.16699599999999998,-0.499534,-0.0907675,0.153514,-0.492994,-0.1110265,-0.208926,-0.872374,-0.0801765,0.186764,-0.8654540000000001,-0.0983525
69,-0.02858,0.7036815,-0.0330005,-0.18599000000000002,0.5215015,-0.0360525,-0.28949,0.7635115,-0.1117525,0.12522999999999998,0.5176915,-0.0677575,0.2128,0.7967915,-0.1358925,-0.29777000000000003,1.0494915,-0.1706125,0.19974999999999998,1.0735915,-0.1664925,-0.07025,-0.0030395,0.0031734999999999992,0.07025,0.0030394999999999997,-0.0031735,-0.17109000000000002,-0.4844285,-0.1039345,0.15536999999999998,-0.4778885,-0.12616249999999998,-0.21069000000000002,-0.8572685,-0.0835535,0.18658,-0.8503485000000001,-0.1006215
70,-0.0302425,0.699176,-0.0377825,-0.18614350000000002,0.518316,-0.0404805,-0.2909735,0.758726,-0.1196605,0.1235465,0.514566,-0.07215350000000001,0.2121665,0.791686,-0.14282050000000002,-0.2993035,1.0451059999999999,-0.1817405,0.1979965,1.0715059999999998,-0.1737505,-0.0705935,-0.002971999999999999,0.0040835,0.0705935,0.0029720000000000007,-0.0040835,-0.1769235,-0.472434,-0.1156205,0.1577665,-0.468274,-0.1394205,-0.2136235,-0.8447739999999999,-0.08595850000000001,0.1870865,-0.840104,-0.1019855
71,-0.0319985,0.6968095,-0.0434775,-0.1863785,0.5130495,-0.0460275,-0.2924185,0.7584895,-0.12782949999999998,0.12213150000000002,0.5101295,-0.0782605,0.2112915,0.7881895,-0.1497995,-0.3008885,1.0421395,-0.19292949999999998,0.1954815,1.0718394999999998,-0.18144949999999999,-0.0709965,-0.0032324999999999993,0.0046855,0.0709965,0.0032324999999999993,-0.004685499999999999,-0.1843185,-0.4618405,-0.1281095,0.1600115,-0.4577405,-0.15357949999999998,-0.2174085,-0.8332505,-0.0897285,0.18641149999999998,-0.8283105,-0.1065545
72,-0.033733,0.6938635,-0.0496895,-0.186533,0.5085235,-0.0513315,-0.29358300000000004,0.7566735,-0.1359545,0.12134700000000001,0.5062335,-0.0842445,0.209597,0.7853034999999999,-0.15725450000000002,-0.302083,1.0375235,-0.2036745,0.192877,1.0656435,-0.1891645,-0.071411,-0.0032725000000000046,0.0053265,0.071411,0.0032724999999999976,-0.0053265,-0.191953,-0.4462565,-0.14060450000000002,0.162327,-0.4447965,-0.1675445,-0.222133,-0.8153565,-0.09371149999999999,0.186807,-0.8134465000000001,-0.1130745
73,-0.0349645,0.6922945,-0.0554765,-0.1866065,0.5060045,-0.0561925,-0.2948265,0.7554645000000001,-0.1438165,0.1203535,0.5019645,-0.0904095,0.2081135,0.7814145,-0.1645165,-0.3030265,1.0325644999999999,-0.2146865,0.1902035,1.0608045,-0.19638650000000002,-0.0716925,-0.0032495000000000024,0.006016500000000001,0.0716925,0.0032495000000000024,-0.006016500000000001,-0.20059649999999998,-0.43006550000000004,-0.1540265,0.1646035,-0.4310555,-0.1828765,-0.22804649999999999,-0.7966854999999999,-0.0987715,0.1874035,-0.7975255,-0.1239265
74,-0.035819500000000004,0.6914525,-0.0647325,-0.18672650000000002,0.5042424999999999,-0.0653035,-0.2958865,0.7554624999999999,-0.1552425,0.1194035,0.4995625,-0.1004805,0.2073035,0.7810725000000001,-0.17567249999999998,-0.30391650000000003,1.0286825,-0.2289525,0.1877335,1.0585025,-0.20734249999999999,-0.0718615,-0.0032804999999999918,0.006271499999999999,0.0718615,0.0032805000000000056,-0.006271500000000001,-0.2094765,-0.41178750000000003,-0.1735425,0.16704349999999998,-0.4141075,-0.20190249999999998,-0.2341765,-0.7757674999999999,-0.10804949999999999,0.1880335,-0.7782674999999999,-0.1399625
75,-0.0365495,0.69164,-0.077076,-0.1872305,0.50198,-0.077796,-0.2971705,0.7579899999999999,-0.16846,0.1184595,0.49749,-0.113779,0.2065495,0.7839499999999999,-0.18896000000000002,-0.30475050000000004,1.03332,-0.24352000000000001,0.1854995,1.05997,-0.22058,-0.0722065,-0.0037500000000000033,0.006082999999999998,0.0722065,0.0037500000000000033,-0.006083000000000002,-0.2214105,-0.39119000000000004,-0.20156000000000002,0.1692695,-0.39472000000000007,-0.23138999999999998,-0.2416005,-0.75263,-0.12605,0.1889895,-0.75665,-0.16115000000000002
76,-0.0366705,0.688585,-0.089649,-0.1872475,0.500375,-0.088976,-0.2977475,0.7542550000000001,-0.181972,0.11842249999999999,0.496805,-0.125362,0.20659249999999998,0.783485,-0.20286200000000001,-0.3047775,1.025605,-0.259042,0.18422249999999998,1.054695,-0.23453200000000002,-0.0723985,-0.003934999999999994,0.0057870000000000005,0.0723985,0.003935000000000022,-0.005786999999999997,-0.2310675,-0.37064499999999995,-0.228142,0.17134249999999998,-0.37650500000000003,-0.259282,-0.2472775,-0.7320249999999999,-0.144592,0.1902325,-0.736855,-0.183562
77,-0.036814,0.6904049999999999,-0.103188,-0.18737800000000002,0.497465,-0.102542,-0.298398,0.755085,-0.196284,0.118302,0.496755,-0.139106,0.206722,0.781075,-0.218384,-0.304948,1.0240049999999998,-0.275154,0.18323199999999998,1.054775,-0.249714,-0.072524,-0.004265000000000019,0.005385000000000001,0.072524,0.004264999999999991,-0.005385000000000001,-0.241178,-0.345245,-0.256614,0.173342,-0.353425,-0.288634,-0.252688,-0.706245,-0.164374,0.191162,-0.712165,-0.206164
78,-0.0377095,0.69021,-0.1165445,-0.1877985,0.49596000000000007,-0.1156025,-0.2994285,0.75356,-0.2110475,0.11733149999999999,0.49895999999999996,-0.1520475,0.2062415,0.7805000000000001,-0.2332475,-0.3052685,1.02106,-0.2908775,0.1821215,1.0527199999999999,-0.2653375,-0.0725245,-0.004799999999999999,0.005034500000000004,0.0725245,0.004799999999999999,-0.005034499999999997,-0.2509085,-0.3221299999999999,-0.2842175,0.17451149999999999,-0.33119999999999994,-0.3161775,-0.25866849999999997,-0.68263,-0.1840775,0.1918315,-0.68946,-0.22838750000000002
79,-0.0385695,0.69301,-0.1295975,-0.1879895,0.49496,-0.1289785,-0.30032949999999997,0.75536,-0.22526949999999998,0.11674049999999998,0.50031,-0.1648795,0.2062205,0.78073,-0.24796949999999998,-0.3056495,1.02488,-0.3063695,0.18109050000000002,1.0542799999999999,-0.2806095,-0.0725575,-0.0047499999999999765,0.0039895,0.0725575,0.004750000000000004,-0.0039895,-0.2601095,-0.29647999999999997,-0.3109495,0.17599050000000002,-0.30623,-0.3436595,-0.2643295,-0.6545799999999999,-0.2038395,0.19214050000000002,-0.66394,-0.2510795
80,-0.039279499999999995,0.6934899999999999,-0.143558,-0.1881815,0.49593999999999994,-0.142423,-0.3013215,0.75437,-0.240704,0.11621849999999999,0.5035999999999999,-0.17713399999999999,0.20584850000000002,0.77882,-0.263544,-0.30595150000000004,1.02581,-0.32379399999999997,0.17987850000000002,1.052,-0.297374,-0.0725965,-0.0045499999999999985,0.003366000000000008,0.0725965,0.0045499999999999985,-0.003365999999999994,-0.2680315,-0.2753300000000001,-0.336714,0.1766685,-0.28571,-0.369824,-0.2694815,-0.63126,-0.223634,0.1917385,-0.6427200000000001,-0.27360399999999996
81,-0.039965,0.694215,-0.157049,-0.18905999999999998,0.495425,-0.156382,-0.30227,0.754215,-0.256703,0.11613,0.507115,-0.189543,0.2056,0.776755,-0.278443,-0.30619999999999997,1.028785,-0.34178299999999995,0.17876,1.055855,-0.31409299999999996,-0.07256,-0.004985000000000017,0.0030880000000000074,0.07256,0.004984999999999962,-0.0030879999999999935,-0.27534000000000003,-0.25336500000000006,-0.36195299999999997,0.17635,-0.265775,-0.39506299999999994,-0.27359,-0.607125,-0.243053,0.19111,-0.620605,-0.29402300000000003
82,-0.040755,0.694445,-0.1706905,-0.19009500000000001,0.495065,-0.1711225,-0.303475,0.7536149999999999,-0.2732105,0.116195,0.507895,-0.2020405,0.205335,0.7763249999999999,-0.2933705,-0.306765,1.031545,-0.3602805,0.17757499999999998,1.058455,-0.3313205,-0.072495,-0.004925000000000013,0.002974500000000005,0.072495,0.004924999999999957,-0.002974500000000005,-0.281465,-0.231985,-0.3861105,0.17578500000000002,-0.24673500000000004,-0.4194305,-0.276445,-0.583755,-0.2623505,0.19011499999999998,-0.5995550000000001,-0.3102105
83,-0.041312,0.69589,-0.179944,-0.190674,0.49295,-0.180788,-0.304664,0.75124,-0.2853,0.116186,0.5062800000000001,-0.20977,0.20565599999999998,0.7728200000000001,-0.30306999999999995,-0.307394,1.0268000000000002,-0.37432,0.176696,1.05747,-0.34412,-0.072506,-0.0046700000000000075,0.0026260000000000033,0.072506,0.0046700000000000075,-0.0026259999999999895,-0.287124,-0.21092,-0.40220999999999996,0.17479599999999998,-0.22846999999999995,-0.43826,-0.279014,-0.56098,-0.27668,0.189276,-0.57946,-0.3204
84,-0.04201,0.694025,-0.18639050000000001,-0.191019,0.491675,-0.1870865,-0.305799,0.7455050000000001,-0.2950085,0.11619099999999999,0.504735,-0.21386850000000002,0.205781,0.767835,-0.3098885,-0.307849,1.018205,-0.3853785,0.175981,1.0579450000000001,-0.3527485,-0.072281,-0.004354999999999998,0.0027014999999999956,0.072281,0.004354999999999998,-0.0027014999999999956,-0.289029,-0.19783499999999998,-0.4085285,0.174141,-0.21538499999999994,-0.4451585,-0.279939,-0.547895,-0.2821185,0.188471,-0.566375,-0.3244785
85,-0.042656,0.6931700000000001,-0.191531,-0.19131199999999998,0.49092,-0.19322,-0.306882,0.74361,-0.304142,0.116278,0.50368,-0.217702,0.20583800000000002,0.76249,-0.316082,-0.308272,1.0167000000000002,-0.395792,0.17541800000000002,1.0602800000000001,-0.360922,-0.072138,-0.0042099999999999915,0.002828000000000011,0.072138,0.0042099999999999915,-0.002827999999999997,-0.290632,-0.1846,-0.414252,0.173598,-0.20214999999999994,-0.451002,-0.28084200000000004,-0.53436,-0.285672,0.188038,-0.55314,-0.326982
86,-0.042987,0.68912,-0.1950065,-0.191306,0.49079000000000006,-0.1969665,-0.30764600000000003,0.73793,-0.3121195,0.116674,0.50221,-0.2191995,0.205964,0.75917,-0.3198795,-0.308426,1.0100500000000001,-0.4048695,0.175074,1.0582799999999999,-0.3675495,-0.072254,-0.003899999999999959,0.0030305000000000054,0.072254,0.0039000000000000146,-0.0030304999999999915,-0.290846,-0.17625999999999997,-0.4165295,0.173384,-0.19380999999999993,-0.4539495,-0.281006,-0.52565,-0.2867495,0.187884,-0.5448,-0.3279395
87,-0.043282,0.686085,-0.1982265,-0.19147799999999998,0.490625,-0.2007585,-0.308228,0.734405,-0.3189905,0.117072,0.5009349999999999,-0.22075050000000002,0.20617200000000002,0.7572949999999999,-0.3237505,-0.308558,1.004085,-0.4135505,0.174852,1.057775,-0.3735905,-0.072092,-0.003725000000000034,0.0032294999999999963,0.072092,0.0037249999999999783,-0.0032294999999999963,-0.290918,-0.1688050000000001,-0.4185505,0.17253200000000002,-0.18827500000000008,-0.4568105,-0.280738,-0.517445,-0.2881205,0.18659199999999998,-0.5379550000000001,-0.3286505
88,-0.043705,0.6809799999999999,-0.20124199999999998,-0.191535,0.48978,-0.204054,-0.308645,0.72966,-0.32564,0.117495,0.50021,-0.22225,0.206405,0.75457,-0.32746,-0.308645,0.99734,-0.42122,0.174765,1.0545900000000001,-0.37983,-0.072005,-0.0040100000000000136,0.0032299999999999968,0.072005,0.004009999999999958,-0.0032299999999999968,-0.290925,-0.16337999999999997,-0.41966000000000003,0.171535,-0.18441000000000007,-0.45862,-0.280855,-0.51169,-0.28978,0.18522499999999997,-0.53308,-0.3297
89,-0.044416,0.6764749999999999,-0.203849,-0.192005,0.488825,-0.20750000000000002,-0.309495,0.7268749999999999,-0.33135000000000003,0.11768499999999998,0.499145,-0.22392,0.20624499999999998,0.753735,-0.33083,-0.309215,0.991625,-0.42811,0.17435499999999998,1.053305,-0.38543,-0.071665,-0.004195000000000004,0.0032099999999999906,0.071665,0.004195000000000004,-0.0032100000000000045,-0.291325,-0.15795499999999996,-0.42082,0.169635,-0.180195,-0.45990000000000003,-0.280945,-0.506175,-0.29046,0.183415,-0.528465,-0.33059
90,-0.044856,0.67459,-0.206635,-0.192542,0.4879,-0.21080500000000002,-0.310322,0.7241599999999999,-0.336495,0.11781799999999999,0.49648,-0.225885,0.20607799999999998,0.7524,-0.334325,-0.309782,0.98483,-0.43459500000000006,0.17381799999999997,1.05195,-0.39107500000000006,-0.07131799999999999,-0.003939999999999999,0.003144999999999995,0.071318,0.003939999999999999,-0.003145000000000009,-0.291672,-0.15419000000000005,-0.42232500000000006,0.167418,-0.17684,-0.461345,-0.281232,-0.5021800000000001,-0.29196500000000003,0.181398,-0.52464,-0.331535
91,-0.045198,0.67123,-0.2095,-0.193187,0.48631,-0.21316999999999997,-0.310967,0.72124,-0.34094,0.11749299999999999,0.49685999999999997,-0.22741999999999998,0.205903,0.7497499999999999,-0.33758,-0.310237,0.97617,-0.44023999999999996,0.173423,1.04886,-0.39646000000000003,-0.071043,-0.004149999999999987,0.00316000000000001,0.071043,0.004149999999999987,-0.003159999999999996,-0.291727,-0.15363000000000004,-0.42374,0.164803,-0.17629000000000006,-0.46277999999999997,-0.281397,-0.50208,-0.29296,0.179423,-0.52393,-0.33163
92,-0.045484000000000004,0.6675500000000001,-0.21237,-0.19376900000000002,0.48500000000000004,-0.21587,-0.311529,0.71946,-0.3453,0.11726099999999999,0.49670000000000003,-0.22943,0.205781,0.74794,-0.3412,-0.310799,0.97355,-0.44549000000000005,0.17308099999999998,1.04718,-0.40181999999999995,-0.070881,-0.0041899999999999715,0.0030799999999999994,0.070881,0.004190000000000027,-0.0030799999999999994,-0.291509,-0.15359,-0.42543,0.16262100000000002,-0.17637999999999998,-0.46472,-0.281619,-0.50232,-0.29467,0.17796099999999998,-0.52416,-0.33225
93,-0.045595000000000004,0.6657900000000001,-0.21552500000000002,-0.194056,0.48385000000000006,-0.218325,-0.31197600000000003,0.71946,-0.349455,0.11716399999999999,0.49670000000000003,-0.231765,0.205794,0.7476,-0.344865,-0.31106599999999995,0.97355,-0.451075,0.172974,1.0467,-0.407355,-0.07086400000000001,-0.0041899999999999715,0.003004999999999994,0.070864,0.004190000000000027,-0.0030050000000000077,-0.291146,-0.15364,-0.426355,0.161004,-0.17637999999999998,-0.466495,-0.281416,-0.50257,-0.29630500000000004,0.176954,-0.52416,-0.332955
94,-0.04565,0.6655200000000001,-0.21888,-0.194278,0.48306000000000004,-0.22092,-0.312408,0.71946,-0.35318,0.11712199999999999,0.49670000000000003,-0.23435999999999998,0.20579199999999997,0.7476,-0.34878,-0.311228,0.97355,-0.45606,0.173222,1.0467,-0.41303,-0.070822,-0.0041899999999999715,0.0029600000000000043,0.070822,0.004190000000000027,-0.0029599999999999904,-0.290678,-0.15364,-0.42682,0.15956199999999998,-0.17637999999999998,-0.46702999999999995,-0.280848,-0.50288,-0.29669999999999996,0.17616199999999999,-0.52416,-0.33387
95,-0.045829,0.6653800000000001,-0.22242,-0.19436799999999999,0.48292,-0.22371,-0.312708,0.71932,-0.35643,0.117212,0.49656,-0.23711,0.205922,0.74746,-0.35263,-0.311288,0.97341,-0.46077,0.17382199999999998,1.04656,-0.41861,-0.070592,-0.0043300000000000005,0.0028800000000000076,0.070592,0.0043300000000000005,-0.0028799999999999937,-0.289958,-0.15374999999999994,-0.42718,0.158292,-0.17652,-0.46715,-0.279958,-0.50302,-0.29742999999999997,0.175572,-0.5243,-0.33484
96,-0.045937000000000006,0.664255,-0.225405,-0.194126,0.481795,-0.22667500000000002,-0.313126,0.718815,-0.359375,0.11735400000000001,0.49549499999999996,-0.239975,0.206134,0.746335,-0.356415,-0.311336,0.9763649999999999,-0.465535,0.174754,1.045435,-0.424095,-0.07025400000000001,-0.004545000000000021,0.0028549999999999964,0.07025400000000001,0.004544999999999966,-0.0028549999999999964,-0.289086,-0.15422500000000006,-0.42728499999999997,0.157314,-0.176975,-0.467235,-0.278756,-0.503505,-0.297865,0.175204,-0.525135,-0.336315
97,-0.045913499999999996,0.661965,-0.22827999999999998,-0.19367649999999997,0.479505,-0.22974,-0.31345649999999997,0.718575,-0.36246999999999996,0.1176235,0.493765,-0.24296,0.2065635,0.745035,-0.36009,-0.3111965,0.980005,-0.47002,0.1759535,1.043675,-0.42900000000000005,-0.0700035,-0.004635,0.002840000000000009,0.0700035,0.004635,-0.0028399999999999953,-0.2879965,-0.15547499999999997,-0.42696999999999996,0.15673350000000003,-0.17788500000000002,-0.46708000000000005,-0.2771965,-0.505285,-0.29902,0.1753035,-0.5265949999999999,-0.33791
98,-0.0459015,0.66003,-0.230585,-0.1929755,0.47677,-0.23239500000000002,-0.3138455,0.71885,-0.36545500000000003,0.1179045,0.49141,-0.24573500000000004,0.2070345,0.74363,-0.363645,-0.3109655,0.98363,-0.47370500000000004,0.1771745,1.04163,-0.43357500000000004,-0.0698345,-0.004610000000000003,0.0028449999999999864,0.0698345,0.004610000000000003,-0.002845000000000014,-0.2868955,-0.15772999999999998,-0.42630500000000005,0.1562745,-0.17990999999999996,-0.46642500000000003,-0.2755855,-0.50786,-0.299725,0.1755045,-0.52918,-0.339075
99,-0.0456275,0.65952,-0.23317000000000002,-0.1923355,0.47414999999999996,-0.23472000000000004,-0.3142055,0.71926,-0.3682,0.1181845,0.48884,-0.24825000000000003,0.2074845,0.74239,-0.3669,-0.31076550000000003,0.98727,-0.47686,0.1782845,1.03956,-0.43761,-0.0697335,-0.004500000000000004,0.002899999999999986,0.0697335,0.004500000000000004,-0.0029000000000000137,-0.2856655,-0.16088999999999998,-0.42527000000000004,0.1560045,-0.18144000000000005,-0.46547,-0.27386550000000004,-0.51115,-0.30022000000000004,0.1758145,-0.53145,-0.3401
100,-0.0449655,0.660015,-0.23589500000000002,-0.1918225,0.471475,-0.23683500000000002,-0.3145025,0.719855,-0.370385,0.11855750000000001,0.486035,-0.250645,0.2079775,0.741305,-0.369945,-0.3105025,0.990915,-0.479535,0.1792775,1.0387149999999998,-0.441325,-0.0697235,-0.004334999999999978,0.003044999999999992,0.0697235,0.004334999999999978,-0.00304500000000002,-0.2843125,-0.16454500000000005,-0.424215,0.1560575,-0.183875,-0.464365,-0.2719825,-0.515075,-0.300735,0.1762975,-0.534535,-0.341395
101,-0.04441,0.661105,-0.23815999999999998,-0.19129,0.469055,-0.23807999999999999,-0.31473,0.720025,-0.37181,0.11863,0.48419500000000004,-0.25251999999999997,0.20845000000000002,0.740095,-0.37248,-0.31034,0.994475,-0.48179,0.17997000000000002,1.037225,-0.44433,-0.069796,-0.004224999999999979,0.003250000000000003,0.069796,0.004225000000000034,-0.003249999999999975,-0.2829,-0.16839499999999996,-0.42321,0.15653,-0.18705499999999997,-0.46321999999999997,-0.27037,-0.519195,-0.30139,0.17698,-0.538235,-0.34216
102,-0.0441145,0.660775,-0.24017499999999997,-0.1908145,0.466845,-0.238975,-0.3150645,0.720105,-0.372795,0.1185855,0.482545,-0.25409499999999996,0.2088555,0.7388950000000001,-0.37475499999999995,-0.31035450000000003,0.998175,-0.483795,0.18066549999999998,1.035625,-0.446965,-0.0699135,-0.00412499999999999,0.003475000000000006,0.0699135,0.00412499999999999,-0.003474999999999978,-0.2815345,-0.172165,-0.422305,0.1572655,-0.19069499999999995,-0.461835,-0.2689345,-0.523495,-0.302025,0.1777655,-0.542285,-0.342085
103,-0.044172,0.66048,-0.24183499999999997,-0.190527,0.46487,-0.239695,-0.315507,0.7196,-0.37336499999999995,0.11837299999999999,0.48091,-0.255465,0.208983,0.73751,-0.376635,-0.31077699999999997,1.00209,-0.485495,0.181193,1.03373,-0.449125,-0.07002900000000001,-0.0039899999999999936,0.003735000000000016,0.07002900000000001,0.0039899999999999936,-0.0037349999999999883,-0.280307,-0.17583000000000004,-0.421255,0.157903,-0.19422000000000006,-0.46053499999999997,-0.267517,-0.52756,-0.302335,0.17837299999999998,-0.54612,-0.341785
104,-0.0446965,0.66061,-0.243095,-0.19049649999999999,0.46322,-0.240255,-0.3162065,0.7191700000000001,-0.373415,0.11795350000000002,0.47976,-0.256635,0.2087535,0.73641,-0.37821499999999997,-0.3115665,1.00664,-0.486485,0.1814635,1.0321799999999999,-0.450995,-0.07018350000000001,-0.003950000000000009,0.003955000000000014,0.07018350000000001,0.003950000000000009,-0.003954999999999986,-0.27938650000000004,-0.17888000000000004,-0.42028499999999996,0.1582635,-0.19686000000000003,-0.459485,-0.2665165,-0.53139,-0.302555,0.1787835,-0.54918,-0.341725
105,-0.0454695,0.6607449999999999,-0.243265,-0.1906515,0.46213499999999996,-0.240381,-0.3169515,0.718715,-0.372895,0.11737850000000001,0.47912499999999997,-0.257335,0.20822849999999998,0.735865,-0.379235,-0.3126715,1.005265,-0.486815,0.18129849999999997,1.030885,-0.452145,-0.0702735,-0.003945000000000032,0.004154999999999992,0.0702735,0.003944999999999976,-0.00415500000000002,-0.2788115,-0.18125500000000005,-0.419425,0.1583885,-0.19871500000000009,-0.458685,-0.2659415,-0.5342950000000001,-0.302615,0.17899849999999998,-0.5514450000000001,-0.34194500000000005
106,-0.0462395,0.66083,-0.242895,-0.1908175,0.46151,-0.240112,-0.31768749999999996,0.71817,-0.372035,0.1168125,0.47882,-0.257585,0.20764249999999998,0.73552,-0.379695,-0.3138475,1.00311,-0.486615,0.1807925,1.03012,-0.452635,-0.0702875,-0.003929999999999989,0.004354999999999998,0.0702875,0.003929999999999989,-0.004354999999999998,-0.2784075,-0.18295999999999996,-0.41868500000000003,0.1585425,-0.20017999999999997,-0.458015,-0.2655875,-0.5362800000000001,-0.302425,0.17922249999999998,-0.5531600000000001,-0.341885
107,-0.046771499999999994,0.660785,-0.24219500000000002,-0.1910105,0.461205,-0.23953000000000002,-0.3184505,0.7178249999999999,-0.37090500000000004,0.11627950000000001,0.478995,-0.257485,0.2070295,0.735665,-0.379715,-0.3150405,1.001685,-0.486045,0.18008949999999999,1.029805,-0.452685,-0.0702945,-0.004014999999999991,0.0044249999999999845,0.0702945,0.004014999999999991,-0.004425000000000012,-0.2780805,-0.18405500000000002,-0.418325,0.1590295,-0.20092499999999996,-0.45749500000000004,-0.2652605,-0.537595,-0.302315,0.1795995,-0.554135,-0.341885
108,-0.0472215,0.661305,-0.241665,-0.1911995,0.461195,-0.23901899999999998,-0.3191795,0.717375,-0.36998,0.1158405,0.479435,-0.25734999999999997,0.20646050000000002,0.736035,-0.37967,-0.3164595,1.001025,-0.48479,0.1791305,1.029975,-0.45261,-0.0704325,-0.004174999999999984,0.0044299999999999895,0.0704325,0.004174999999999984,-0.0044299999999999895,-0.2778395,-0.184185,-0.41833,0.1597305,-0.20107499999999995,-0.45736,-0.2652195,-0.5382549999999999,-0.30232000000000003,0.18001050000000002,-0.5545249999999999,-0.3419
109,-0.047594500000000005,0.662165,-0.241364,-0.1913895,0.46123499999999995,-0.238619,-0.3198995,0.717195,-0.369135,0.11541049999999999,0.479935,-0.257255,0.2058705,0.736495,-0.37960499999999997,-0.3183595,0.997375,-0.481715,0.1780905,1.030185,-0.452485,-0.0706035,-0.004354999999999998,0.0044349999999999945,0.0706035,0.004354999999999998,-0.0044349999999999945,-0.2776395,-0.184365,-0.418335,0.1606705,-0.20086499999999996,-0.45738500000000004,-0.2649395,-0.538435,-0.30232499999999995,0.1802805,-0.554605,-0.341905
110,-0.0477725,0.662875,-0.24122,-0.19161250000000002,0.46123499999999995,-0.238608,-0.3204725,0.717195,-0.36848,0.11533749999999998,0.479935,-0.25725,0.2052975,0.736495,-0.37956,-0.3200625,0.993405,-0.4789,0.1770975,1.030185,-0.45227999999999996,-0.07077649999999999,-0.004354999999999998,0.0044500000000000095,0.07077649999999999,0.004354999999999998,-0.004449999999999982,-0.2775625,-0.184365,-0.41834,0.1617575,-0.20066499999999998,-0.45742,-0.2651325,-0.538555,-0.30269999999999997,0.1807675,-0.554605,-0.34192
111,-0.047843,0.662885,-0.240949,-0.19182300000000002,0.46123499999999995,-0.23833100000000002,-0.320993,0.717195,-0.36757,0.115267,0.479935,-0.25695,0.204727,0.736495,-0.37911,-0.321553,0.989285,-0.47585,0.176197,1.030185,-0.45163,-0.070914,-0.004354999999999998,0.004430000000000017,0.070914,0.004354999999999998,-0.0044299999999999895,-0.277673,-0.184365,-0.41849,0.16297699999999998,-0.20066499999999998,-0.4572,-0.265413,-0.538635,-0.30311,0.18126699999999998,-0.554605,-0.34203
112,-0.048003500000000004,0.662885,-0.2402,-0.1921275,0.46123499999999995,-0.23766700000000002,-0.3214975,0.716835,-0.36638499999999996,0.1151025,0.479935,-0.256245,0.2041125,0.736495,-0.378295,-0.32280749999999997,0.984805,-0.472555,0.1752425,1.030185,-0.450455,-0.0709555,-0.004354999999999998,0.0043249999999999955,0.0709555,0.004354999999999998,-0.0043249999999999955,-0.2778875,-0.184365,-0.418705,0.1640925,-0.20066499999999998,-0.456865,-0.2658875,-0.538635,-0.30339499999999997,0.1815825,-0.554625,-0.34235499999999996
113,-0.048145,0.6635949999999999,-0.23890299999999998,-0.192374,0.46128499999999995,-0.23653399999999997,-0.321914,0.716105,-0.364375,0.11495599999999999,0.47962499999999997,-0.255055,0.203606,0.736895,-0.376765,-0.323714,0.9806549999999999,-0.46890499999999996,0.17441600000000002,1.030135,-0.448405,-0.071062,-0.004455000000000042,0.004255000000000009,0.071062,0.004454999999999987,-0.004254999999999981,-0.278084,-0.18455500000000002,-0.41889499999999996,0.16510599999999998,-0.199955,-0.456875,-0.266134,-0.5385150000000001,-0.303355,0.182006,-0.553915,-0.342765
114,-0.0481825,0.665225,-0.23723500000000003,-0.1926245,0.461905,-0.23514400000000002,-0.32221449999999996,0.715935,-0.361915,0.1149055,0.479765,-0.253535,0.2031955,0.737365,-0.374705,-0.3244545,0.977415,-0.46486500000000003,0.1736755,1.030675,-0.445825,-0.0711895,-0.004545000000000021,0.004164999999999974,0.0711895,0.004544999999999966,-0.004165000000000002,-0.27828450000000005,-0.18390499999999999,-0.419225,0.1659555,-0.19830500000000006,-0.457225,-0.2667745,-0.537545,-0.30308500000000005,0.1822955,-0.552265,-0.343005
115,-0.0481525,0.66714,-0.235388,-0.1928715,0.46297,-0.23354999999999998,-0.3224315,0.7162599999999999,-0.359255,0.1148985,0.48044,-0.251845,0.20281849999999998,0.7381599999999999,-0.37238499999999997,-0.3251015,0.9747199999999999,-0.460565,0.1730285,1.03161,-0.442905,-0.07138850000000001,-0.004750000000000032,0.004055000000000003,0.07138850000000001,0.0047499999999999765,-0.004055000000000003,-0.27873149999999997,-0.18242000000000003,-0.419815,0.1665885,-0.19608000000000003,-0.457855,-0.2671815,-0.5358700000000001,-0.302645,0.1825485,-0.5499,-0.34314500000000003
116,-0.047920000000000004,0.66928,-0.233586,-0.193077,0.46447,-0.23190699999999997,-0.32250700000000004,0.71665,-0.356515,0.114933,0.48151,-0.250185,0.202543,0.73895,-0.370095,-0.325517,0.9720500000000001,-0.456315,0.172623,1.0326899999999999,-0.43993499999999996,-0.071558,-0.00494,0.003964999999999996,0.071558,0.00494,-0.003964999999999996,-0.279167,-0.18056,-0.420625,0.16681300000000002,-0.19363999999999998,-0.458445,-0.267317,-0.5338499999999999,-0.30217499999999997,0.18277300000000002,-0.5471999999999999,-0.34274499999999997
117,-0.047532,0.6712849999999999,-0.232025,-0.193152,0.46608499999999997,-0.23044900000000001,-0.322452,0.717055,-0.35392,0.115088,0.48256499999999997,-0.24867,0.202438,0.739525,-0.36799000000000004,-0.32552200000000003,0.969895,-0.45226,0.172518,1.033685,-0.43720000000000003,-0.071608,-0.005095000000000016,0.00383,0.071608,0.005094999999999961,-0.00383,-0.27951200000000004,-0.17883500000000008,-0.4215,0.16708800000000001,-0.19115500000000007,-0.45891000000000004,-0.267332,-0.531725,-0.30182,0.182998,-0.544425,-0.34233
118,-0.0473305,0.6738899999999999,-0.23074899999999998,-0.1932095,0.46756,-0.22935999999999998,-0.3224195,0.71943,-0.351495,0.1152505,0.48329999999999995,-0.247465,0.2024205,0.73986,-0.36626499999999995,-0.3254295,0.97192,-0.450335,0.1726105,1.03501,-0.434975,-0.0716395,-0.005130000000000023,0.0036850000000000216,0.0716395,0.005129999999999968,-0.003684999999999994,-0.2795895,-0.17748000000000008,-0.422635,0.1673105,-0.1890400000000001,-0.459285,-0.2674395,-0.52993,-0.302245,0.18328049999999999,-0.5420200000000001,-0.341865
119,-0.0472495,0.675635,-0.230093,-0.1932645,0.468415,-0.228848,-0.3223745,0.720785,-0.34955,0.1153355,0.483615,-0.24681,0.2024155,0.740415,-0.3651,-0.3253245,0.9732750000000001,-0.44889,0.1727255,1.036365,-0.43345,-0.0717005,-0.005025000000000002,0.0036299999999999943,0.0717005,0.005025000000000002,-0.0036299999999999943,-0.2796145,-0.17666500000000002,-0.42367999999999995,0.16754549999999999,-0.18795500000000004,-0.45941,-0.2676545,-0.5290250000000001,-0.30328,0.18330549999999998,-0.540665,-0.34137
120,-0.047002,0.676085,-0.22958800000000001,-0.193196,0.468415,-0.228497,-0.322136,0.720785,-0.34761,0.11557399999999998,0.483605,-0.24638000000000002,0.202544,0.740415,-0.36426000000000003,-0.325026,0.9732750000000001,-0.44703000000000004,0.17299399999999998,1.036365,-0.43224,-0.07192599999999999,-0.005025000000000002,0.003599999999999992,0.07192599999999999,0.005025000000000002,-0.00360000000000002,-0.27937599999999996,-0.17699499999999996,-0.42402,0.167874,-0.18795500000000004,-0.45918000000000003,-0.267666,-0.5294350000000001,-0.30411,0.183664,-0.540665,-0.34115
121,-0.046392,0.676545,-0.229012,-0.192836,0.468415,-0.228284,-0.321536,0.720785,-0.34518000000000004,0.116174,0.483605,-0.24616,0.202914,0.740415,-0.36339,-0.323746,0.9732750000000001,-0.44438999999999995,0.173654,1.036365,-0.43098000000000003,-0.072188,-0.005025000000000002,0.003610000000000002,0.072188,0.005025000000000002,-0.003610000000000002,-0.278756,-0.17705500000000002,-0.42404,0.168464,-0.18795500000000004,-0.45920000000000005,-0.267086,-0.529935,-0.30423,0.184254,-0.540635,-0.34117
122,-0.045133999999999994,0.677095,-0.22724899999999998,-0.191805,0.468415,-0.227901,-0.320185,0.7216549999999999,-0.342565,0.117535,0.483605,-0.245745,0.203905,0.740415,-0.361975,-0.32178500000000004,0.979795,-0.441435,0.175315,1.036365,-0.429635,-0.072301,-0.005025000000000002,0.003615000000000007,0.072301,0.005025000000000002,-0.003615000000000007,-0.277415,-0.17705500000000002,-0.424085,0.169805,-0.18795500000000004,-0.459245,-0.265755,-0.529935,-0.304855,0.185565,-0.5406150000000001,-0.341035
123,-0.043868500000000005,0.67805,-0.224631,-0.1903975,0.46856999999999993,-0.227243,-0.3184575,0.7236899999999999,-0.339545,0.1193025,0.48319999999999996,-0.24512499999999998,0.2052525,0.74098,-0.360155,-0.31975750000000003,0.9868899999999999,-0.438615,0.1775425,1.03684,-0.427905,-0.0723685,-0.0048200000000000465,0.003615000000000007,0.0723685,0.004819999999999991,-0.003615000000000007,-0.2756075,-0.17746000000000006,-0.424145,0.1718825,-0.18819000000000008,-0.458985,-0.26364750000000003,-0.53034,-0.305045,0.1875225,-0.5407000000000001,-0.34035499999999996
124,-0.0423785,0.6788099999999999,-0.22209600000000002,-0.18950350000000002,0.47169,-0.223895,-0.3164535,0.72571,-0.33599999999999997,0.1203365,0.48633,-0.24251,0.20683649999999998,0.74134,-0.35792,-0.3174635,0.99227,-0.43533999999999995,0.1802865,1.03666,-0.42565,-0.0723815,-0.004630000000000023,0.003610000000000002,0.0723815,0.0046299999999999675,-0.003610000000000002,-0.27340349999999997,-0.18049000000000004,-0.42393000000000003,0.1742965,-0.19062,-0.45733999999999997,-0.2614835,-0.53337,-0.30569,0.1900865,-0.54306,-0.33943999999999996
125,-0.040934,0.678455,-0.21900599999999998,-0.18823600000000001,0.473115,-0.22094,-0.313936,0.7274750000000001,-0.33247499999999997,0.121884,0.48770500000000006,-0.240375,0.20895399999999997,0.741285,-0.35563500000000003,-0.314576,0.996225,-0.432175,0.18365399999999998,1.035485,-0.423805,-0.072113,-0.004324999999999968,0.003695000000000004,0.072113,0.004325000000000023,-0.003695000000000004,-0.27023600000000003,-0.18481499999999995,-0.423675,0.177234,-0.19477500000000003,-0.454585,-0.258386,-0.538395,-0.306685,0.193264,-0.547285,-0.338645
126,-0.0393135,0.67733,-0.21421800000000002,-0.1876465,0.47605,-0.21679,-0.31229650000000003,0.73289,-0.327735,0.12283350000000001,0.49057,-0.237135,0.2105735,0.74367,-0.35214500000000004,-0.31213650000000004,1.00075,-0.427415,0.1866435,1.0345,-0.420505,-0.0710955,-0.004049999999999998,0.0036650000000000016,0.0710955,0.004049999999999998,-0.0036650000000000016,-0.2673265,-0.18862999999999996,-0.421805,0.1794035,-0.19923999999999997,-0.450415,-0.2554465,-0.54327,-0.306715,0.1957035,-0.55242,-0.33638500000000005
127,-0.038191,0.676495,-0.208775,-0.187028,0.482005,-0.212688,-0.310778,0.738555,-0.323565,0.123652,0.495425,-0.23369499999999999,0.212142,0.746965,-0.348445,-0.309818,1.005455,-0.422295,0.18931199999999998,1.0334050000000001,-0.416965,-0.069972,-0.0036450000000000093,0.003605000000000025,0.069972,0.0036450000000000093,-0.003604999999999997,-0.264208,-0.19342500000000007,-0.419475,0.182022,-0.20452500000000007,-0.445835,-0.252598,-0.549415,-0.30710499999999996,0.19847199999999998,-0.558825,-0.334155
128,-0.037602,0.67455,-0.20336,-0.186491,0.48641,-0.20877400000000002,-0.309361,0.7432799999999999,-0.31885,0.12434899999999999,0.49817,-0.230522,0.213409,0.75004,-0.34416,-0.307941,1.01417,-0.41589000000000004,0.191719,1.03063,-0.41308,-0.069049,-0.002950000000000008,0.003589999999999982,0.069049,0.002950000000000008,-0.00359000000000001,-0.260931,-0.20002999999999999,-0.41650000000000004,0.18423899999999999,-0.21162000000000003,-0.44079,-0.249871,-0.55693,-0.30712,0.200789,-0.56724,-0.33140000000000003
129,-0.037567,0.670685,-0.19722399999999998,-0.18626800000000002,0.486855,-0.20464,-0.308318,0.745775,-0.31321,0.124412,0.500525,-0.22683199999999998,0.214092,0.751605,-0.33911,-0.306648,1.017485,-0.40958,0.19392199999999998,1.023555,-0.40820999999999996,-0.068065,-0.002805000000000002,0.00358,0.068065,0.002805000000000002,-0.00358,-0.257618,-0.21242500000000003,-0.41095,0.186222,-0.22457500000000002,-0.43259,-0.24715800000000002,-0.570525,-0.30552,0.20333199999999998,-0.581755,-0.32860999999999996
130,-0.037823499999999996,0.66701,-0.191176,-0.1863285,0.48724,-0.200528,-0.3076185,0.7471399999999999,-0.30781000000000003,0.12417150000000002,0.50301,-0.223099,0.2145715,0.75529,-0.33398,-0.3060085,1.02315,-0.40309,0.19583150000000002,1.02402,-0.40211,-0.0672005,-0.002860000000000029,0.003500000000000003,0.0672005,0.0028599999999999737,-0.003500000000000003,-0.2547185,-0.22452,-0.40506000000000003,0.1879015,-0.23656,-0.42464,-0.2452285,-0.58426,-0.3042,0.2053415,-0.59546,-0.32548
131,-0.038688,0.664435,-0.185271,-0.18723299999999998,0.49111499999999997,-0.194929,-0.307823,0.749125,-0.3016,0.12312700000000001,0.505735,-0.21864799999999998,0.214477,0.7590250000000001,-0.3283,-0.306213,1.022835,-0.39588999999999996,0.196027,1.028095,-0.39479,-0.06651499999999999,-0.002845000000000014,0.003480000000000011,0.06651499999999999,0.0028449999999999864,-0.003479999999999983,-0.251763,-0.23884500000000003,-0.39677999999999997,0.188937,-0.25083500000000003,-0.41452,-0.243473,-0.600155,-0.30201999999999996,0.206177,-0.6115950000000001,-0.32182
132,-0.0388695,0.66177,-0.17949400000000001,-0.18826350000000003,0.49473,-0.189503,-0.3083635,0.7519500000000001,-0.295265,0.12190649999999999,0.51091,-0.214036,0.2142365,0.7646,-0.322345,-0.3070235,1.02413,-0.38734500000000005,0.1958565,1.03376,-0.38775499999999996,-0.0660815,-0.0030699999999999894,0.003464999999999996,0.0660815,0.003070000000000017,-0.003464999999999996,-0.2488935,-0.25325,-0.38787499999999997,0.18974649999999998,-0.26514,-0.40368499999999996,-0.2417435,-0.61601,-0.298705,0.20670650000000002,-0.62801,-0.317915
133,-0.039057499999999995,0.6621,-0.17337600000000003,-0.1886895,0.49683,-0.186587,-0.3091295,0.75731,-0.28889,0.1214405,0.51405,-0.211268,0.2138705,0.77165,-0.31625000000000003,-0.3084995,1.02762,-0.37878,0.19524049999999998,1.04046,-0.38066,-0.0657315,-0.003280000000000005,0.003489999999999993,0.0657315,0.003280000000000005,-0.003490000000000021,-0.2463795,-0.26581,-0.37927,0.1900905,-0.27821,-0.39322,-0.2402695,-0.63021,-0.29449000000000003,0.2068305,-0.64302,-0.31377
134,-0.038371,0.65954,-0.166905,-0.188573,0.49706000000000006,-0.182655,-0.309703,0.7597400000000001,-0.28147,0.12128699999999999,0.51605,-0.207198,0.21363700000000002,0.77515,-0.30903,-0.309643,1.03207,-0.36843000000000004,0.19511699999999998,1.04644,-0.37117,-0.065848,-0.003470000000000001,0.003620000000000012,0.065848,0.003470000000000001,-0.003620000000000012,-0.242253,-0.28181999999999996,-0.36649,0.18967699999999998,-0.29437,-0.37982,-0.237823,-0.64765,-0.28776,0.20760699999999999,-0.66113,-0.30739
135,-0.0377025,0.65959,-0.160754,-0.1883875,0.49908,-0.178327,-0.3098175,0.75963,-0.27363000000000004,0.1210625,0.5174799999999999,-0.203092,0.2133825,0.78072,-0.30121,-0.31054750000000003,1.0354299999999999,-0.35835,0.1950225,1.0520800000000001,-0.36178,-0.0658335,-0.003489999999999993,0.003679999999999989,0.0658335,0.003489999999999993,-0.0036800000000000166,-0.2378575,-0.30058,-0.35311000000000003,0.18905249999999998,-0.31043,-0.36604000000000003,-0.2352775,-0.66779,-0.27952,0.20809249999999999,-0.67883,-0.30114
136,-0.037012,0.659225,-0.15485300000000002,-0.188311,0.49790500000000004,-0.17379400000000003,-0.309491,0.760185,-0.26480000000000004,0.120849,0.516215,-0.19934600000000002,0.21285900000000002,0.7849649999999999,-0.29344000000000003,-0.311541,1.039685,-0.34786000000000006,0.194949,1.0580450000000001,-0.35183000000000003,-0.065622,-0.003604999999999997,0.003679999999999989,0.065622,0.003604999999999997,-0.0036800000000000166,-0.23341099999999998,-0.32033500000000004,-0.33884000000000003,0.188249,-0.32918500000000006,-0.35219,-0.232741,-0.6888650000000001,-0.27133,0.208479,-0.699025,-0.29432
137,-0.036923,0.659075,-0.14768499999999998,-0.188747,0.497815,-0.168592,-0.309357,0.761145,-0.2557,0.119753,0.5146850000000001,-0.19504,0.211473,0.787745,-0.28495,-0.312867,1.039625,-0.33762000000000003,0.194593,1.064275,-0.34121,-0.064848,-0.0032950000000000063,0.003390000000000004,0.064848,0.0032950000000000063,-0.0033899999999999902,-0.228917,-0.341295,-0.32325,0.186903,-0.34875500000000004,-0.33708,-0.230747,-0.711045,-0.26125,0.20841300000000001,-0.719905,-0.28715
138,-0.036611000000000005,0.660405,-0.141379,-0.189087,0.5009250000000001,-0.16391,-0.309187,0.766095,-0.247405,0.119003,0.512785,-0.191898,0.209443,0.791295,-0.276295,-0.313917,1.045215,-0.327245,0.19439299999999998,1.074245,-0.331565,-0.064142,-0.0025150000000000033,0.0030850000000000044,0.064142,0.0025150000000000033,-0.0030850000000000044,-0.223557,-0.357395,-0.30635500000000004,0.18476299999999998,-0.364105,-0.323835,-0.228297,-0.728405,-0.249875,0.20729299999999998,-0.736415,-0.280175
139,-0.035989999999999994,0.6611435000000001,-0.134745,-0.18942499999999998,0.5042635,-0.159191,-0.308895,0.7702435000000001,-0.23891,0.117955,0.5112734999999999,-0.18839,0.207255,0.7928835000000001,-0.26751,-0.314825,1.0491935000000001,-0.31761,0.194505,1.0764835,-0.32272,-0.064289,-0.002209500000000003,0.002810000000000007,0.064289,0.002209500000000003,-0.002809999999999993,-0.218145,-0.3739465,-0.28856,0.180395,-0.3806565,-0.3041,-0.225825,-0.7449565,-0.23826,0.204655,-0.7529665000000001,-0.26754999999999995
140,-0.036096,0.660547,-0.128109,-0.18950899999999998,0.504317,-0.155226,-0.309759,0.773687,-0.23015000000000002,0.117301,0.509717,-0.184824,0.20639100000000002,0.7938369999999999,-0.25834,-0.315679,1.053277,-0.30738,0.19340100000000002,1.074827,-0.31356,-0.064381,-0.001895999999999995,0.002259999999999998,0.064381,0.0018960000000000088,-0.002259999999999998,-0.213309,-0.387303,-0.27005,0.17589100000000002,-0.394013,-0.28498,-0.22233899999999998,-0.758313,-0.22623,0.202021,-0.7663230000000001,-0.25466
141,-0.03677,0.660468,-0.122066,-0.189051,0.504768,-0.151675,-0.309891,0.776378,-0.221595,0.11717899999999999,0.506288,-0.18195,0.20602900000000002,0.792718,-0.249445,-0.31589100000000003,1.056708,-0.29766499999999996,0.19267900000000002,1.072788,-0.303815,-0.065062,-0.0014200000000000046,0.0017250000000000043,0.065062,0.0014199999999999977,-0.0017249999999999904,-0.207811,-0.399652,-0.25183500000000003,0.172019,-0.406362,-0.264965,-0.218471,-0.771342,-0.215446,0.19994900000000002,-0.778672,-0.241885
142,-0.036633000000000006,0.6572895,-0.10975900000000001,-0.187837,0.5035995,-0.141855,-0.30939700000000003,0.7765595,-0.206414,0.11788299999999999,0.5012095000000001,-0.172691,0.206353,0.7903895,-0.234375,-0.31473700000000004,1.0598595,-0.281005,0.193043,1.0715595,-0.287185,-0.065976,-0.0010234999999999966,0.001915,0.065976,0.0010235000000000036,-0.001915,-0.199527,-0.4152105,-0.22263500000000003,0.16914300000000002,-0.4198705,-0.236675,-0.213717,-0.7882205,-0.198698,0.200623,-0.7928305,-0.225025
143,-0.0351735,0.6636625,-0.09389,-0.18790449999999997,0.5087125,-0.123858,-0.3083445,0.7763825,-0.18790099999999998,0.1192555,0.5064125,-0.154648,0.2072155,0.7928125,-0.215767,-0.3128845,1.0574125,-0.25899700000000003,0.19448549999999998,1.0719125,-0.265797,-0.0665545,-0.001403499999999995,0.0013019999999999976,0.0665545,0.001403500000000002,-0.0013019999999999976,-0.1909345,-0.4401075,-0.190257,0.16744550000000002,-0.4405675,-0.20441700000000002,-0.20960450000000003,-0.8135275,-0.180567,0.20157550000000002,-0.8143975,-0.206007
144,-0.0332615,0.668628,-0.078381,-0.18786350000000002,0.510228,-0.10653400000000002,-0.3070335,0.775308,-0.170037,0.1208065,0.510518,-0.136742,0.2081365,0.7912180000000001,-0.19787300000000002,-0.3108435,1.0565579999999999,-0.236683,0.1959165,1.072058,-0.24474300000000002,-0.0670925,-0.0019309999999999987,0.0008379999999999915,0.0670925,0.0019310000000000004,-0.0008380000000000054,-0.1823435,-0.459332,-0.15873700000000002,0.16586649999999997,-0.466092,-0.172116,-0.20520349999999998,-0.8329519999999999,-0.162614,0.2024865,-0.835892,-0.18732300000000002
145,-0.031774000000000004,0.6741670000000001,-0.06314750000000001,-0.18776500000000002,0.5115770000000001,-0.0892145,-0.305635,0.773247,-0.1524195,0.12228499999999999,0.514877,-0.1187145,0.20931499999999997,0.7900870000000001,-0.1796525,-0.30862500000000004,1.0553270000000001,-0.21442250000000002,0.197285,1.071927,-0.22411250000000002,-0.067581,-0.002393,0.0004944999999999949,0.067581,0.002393,-0.0004945000000000088,-0.17389500000000002,-0.479673,-0.12789150000000002,0.16452499999999998,-0.49062300000000003,-0.13973850000000002,-0.20094499999999998,-0.853193,-0.1445875,0.20347500000000002,-0.859713,-0.16908250000000002
146,-0.030094499999999996,0.68048,-0.048854999999999996,-0.1875695,0.51316,-0.07235,-0.30402949999999995,0.77181,-0.135435,0.1241805,0.52088,-0.10095,0.2110605,0.79103,-0.162411,-0.30709949999999997,1.04832,-0.192681,0.1990105,1.0730199999999999,-0.204151,-0.0679845,-0.003495,0.0003100000000000047,0.0679845,0.0034950000000000016,-0.0003099999999999978,-0.1661595,-0.5014500000000001,-0.09876199999999999,0.1633605,-0.51113,-0.11016899999999999,-0.1970895,-0.87478,-0.127862,0.2051105,-0.87941,-0.15293099999999998
147,-0.0297575,0.6874135,-0.03485099999999999,-0.1875445,0.5152735,-0.05560799999999999,-0.3024845,0.7686935,-0.11896,0.1258355,0.5274435,-0.083393,0.2125955,0.7926235,-0.14640999999999998,-0.3056645,1.0447335,-0.171726,0.20042549999999998,1.0745335,-0.184386,-0.0686055,-0.004281500000000001,0.0002540000000000042,0.0686055,0.004281500000000001,-0.0002539999999999973,-0.16059449999999997,-0.5228465,-0.074016,0.1619855,-0.5321265,-0.08237799999999999,-0.1938245,-0.8958865,-0.114634,0.2060055,-0.8995665,-0.13593699999999997
148,-0.030048999999999996,0.6948325,-0.020972499999999998,-0.187618,0.5178925,-0.0386915,-0.301118,0.7665624999999999,-0.1026395,0.127472,0.5336225,-0.0658755,0.214092,0.7949324999999999,-0.1305365,-0.30435799999999996,1.0429025,-0.1506875,0.201352,1.0758025,-0.1649775,-0.06907100000000001,-0.004984500000000003,8.149999999999824e-05,0.06907100000000001,0.004984499999999996,-8.149999999999824e-05,-0.155428,-0.5433475,-0.0503275,0.16270199999999999,-0.5536975000000001,-0.0607225,-0.190998,-0.9160175,-0.1022625,0.207722,-0.9200975,-0.12352849999999999
149,-0.030830500000000004,0.7025655,-0.0071395000000000035,-0.1880405,0.5208955,-0.0218495,-0.3001205,0.7646155,-0.0870045,0.1288595,0.5409255,-0.0482165,0.21541949999999999,0.7973555,-0.1155705,-0.3033705,1.0404755,-0.1306245,0.2016295,1.0770755,-0.1466945,-0.0696235,-0.005630499999999997,0.00016149999999999845,0.0696235,0.0056305000000000036,-0.00016150000000000192,-0.1501705,-0.5628245,-0.029992500000000002,0.1635095,-0.5747045,-0.0406845,-0.1892405,-0.9347945,-0.0900285,0.2086295,-0.9400145,-0.1112665
150,-0.0317875,0.7106480000000001,0.0063725,-0.1886525,0.5238780000000001,-0.0049074999999999995,-0.2997125,0.761548,-0.0719205,0.1300575,0.5482480000000001,-0.030505499999999998,0.2173875,0.799648,-0.1013955,-0.3026125,1.0373080000000001,-0.1110215,0.20151750000000002,1.077808,-0.12944150000000001,-0.0703395,-0.006305999999999999,0.00028550000000000103,0.0703395,0.006306000000000006,-0.0002854999999999993,-0.1453625,-0.581622,-0.0107335,0.1641975,-0.5940219999999999,-0.0232435,-0.18791249999999998,-0.952852,-0.0784725,0.2099275,-0.958182,-0.0989935
151,-0.03335200000000001,0.718958,0.0141395,-0.18984,0.527468,0.0061665,-0.30038,0.7584380000000001,-0.06338450000000001,0.13083999999999998,0.5549080000000001,-0.0189235,0.21902,0.8018580000000001,-0.0936325,-0.30238,1.033728,-0.0980055,0.20067000000000002,1.077028,-0.1192975,-0.070532,-0.006926000000000002,-0.0003185000000000002,0.070532,0.006926000000000002,0.0003185000000000002,-0.14351,-0.599542,-0.0022385,0.16435,-0.6109519999999999,-0.0143395,-0.18709,-0.970212,-0.0732645,0.21052,-0.9743419999999999,-0.0926465
152,-0.033783999999999995,0.7201380000000001,0.017197999999999998,-0.18908699999999998,0.527468,0.00817,-0.300017,0.7584380000000001,-0.059432,0.131403,0.5549080000000001,-0.017249,0.220063,0.802058,-0.090825,-0.30200699999999997,1.038128,-0.09235700000000001,0.201523,1.077028,-0.11655900000000001,-0.070397,-0.006926000000000002,-0.0002360000000000001,0.070397,0.006926000000000002,0.00023599999999999923,-0.142317,-0.605042,-0.0005630000000000006,0.164753,-0.6154919999999999,-0.012714,-0.18603699999999998,-0.974892,-0.071399,0.212173,-0.977822,-0.094392
153,-0.034184000000000006,0.720518,0.020522,-0.188357,0.527468,0.010413,-0.299737,0.7584380000000001,-0.054545,0.13231300000000001,0.5549080000000001,-0.01545,0.22109299999999998,0.802058,-0.08793000000000001,-0.301357,1.038428,-0.087078,0.202453,1.077028,-0.113915,-0.070295,-0.006926000000000002,-0.00018100000000000017,0.070295,0.006926000000000002,0.00018099999999999974,-0.141027,-0.609142,0.0010139999999999997,0.16508299999999998,-0.617642,-0.011018,-0.18505700000000003,-0.978352,-0.069886,0.213403,-0.980382,-0.095594
154,-0.0340365,0.720538,0.023321,-0.18755850000000002,0.527468,0.012502,-0.2993785,0.7584380000000001,-0.050062999999999996,0.1333615,0.554998,-0.013725000000000001,0.2223115,0.802058,-0.08554099999999999,-0.3006085,1.038428,-0.082693,0.2034515,1.077028,-0.111582,-0.0701335,-0.006926000000000002,-0.00015400000000000006,0.0701335,0.006926000000000002,0.00015399999999999984,-0.1396785,-0.611872,0.0024699999999999995,0.1658115,-0.620722,-0.009246,-0.1841885,-0.981162,-0.068777,0.2145115,-0.9837819999999999,-0.095871
155,-0.034117999999999996,0.7218585,0.0264635,-0.186997,0.5276885,0.0145875,-0.29927699999999996,0.7591885,-0.0458285,0.133683,0.5541385,-0.0119035,0.223043,0.8033685,-0.0834755,-0.30028699999999997,1.0397385,-0.0788585,0.204183,1.0758385,-0.10964349999999999,-0.070122,-0.0068555000000000005,-0.0001475,0.070122,0.0068555000000000005,0.0001475,-0.139277,-0.6118015,0.0036065000000000003,0.165833,-0.6158615,-0.0083605,-0.183807,-0.9810015,-0.06825049999999999,0.215223,-0.9824714999999999,-0.09453349999999999
156,-0.034049499999999996,0.723163,0.029242499999999998,-0.1865955,0.5279130000000001,0.016490499999999998,-0.29932549999999997,0.7596829999999999,-0.0422055,0.1339845,0.553493,-0.0102515,0.2236245,0.8045629999999999,-0.0817205,-0.30043549999999997,1.039843,-0.0754775,0.20475449999999998,1.074943,-0.10805250000000001,-0.0701045,-0.0068010000000000015,-9.55000000000001e-05,0.0701045,0.0068010000000000015,9.549999999999988e-05,-0.1392255,-0.6128370000000001,0.0045935,0.1659445,-0.614557,-0.008144499999999999,-0.1836555,-0.9815769999999999,-0.0680395,0.2157845,-0.9811669999999999,-0.0933625
157,-0.03403250000000001,0.7245444999999999,0.031727,-0.1864765,0.5282844999999999,0.018206999999999997,-0.29960650000000005,0.7601145,-0.039159,0.1341235,0.5533745,-0.008728,0.2239135,0.8053845,-0.080149,-0.3011165,1.0391245,-0.07271799999999999,0.2051435,1.0744245,-0.10688399999999999,-0.0700715,-0.006824499999999997,7.900000000000008e-05,0.0700715,0.006824499999999997,-7.900000000000008e-05,-0.1392665,-0.6134255000000001,0.004945,0.1653835,-0.6096855,-0.008114,-0.1835365,-0.9820555,-0.068092,0.2147435,-0.9764755,-0.092431
158,-0.034084,0.725826,0.0340045,-0.186521,0.5286759999999999,0.0197935,-0.30006099999999997,0.760286,-0.0364205,0.134189,0.553646,-0.0072845,0.224249,0.805526,-0.0786915,-0.30145099999999997,1.038416,-0.0702935,0.205459,1.0739159999999999,-0.1057945,-0.070069,-0.006841,0.00029149999999999966,0.070069,0.006841,-0.0002915000000000001,-0.139091,-0.6113540000000001,0.0051885,0.16497900000000001,-0.6051340000000001,-0.0075445,-0.183281,-0.980344,-0.06717949999999999,0.213289,-0.9726140000000001,-0.0909265
159,-0.0340145,0.72684,0.0361235,-0.1865555,0.52903,0.0211975,-0.3004955,0.76001,-0.0341265,0.13423449999999998,0.55416,-0.005892499999999999,0.2247045,0.8055599999999999,-0.07741150000000001,-0.30183550000000003,1.0379800000000001,-0.06907150000000001,0.2059845,1.0727799999999998,-0.1050335,-0.0700615,-0.006904,0.0005245000000000002,0.0700615,0.0069039999999999935,-0.0005244999999999998,-0.1394455,-0.613,0.0057315000000000005,0.1646445,-0.60088,-0.006837499999999999,-0.1835155,-0.9811,-0.0673025,0.21275449999999999,-0.96863,-0.0898255
160,-0.033955,0.7276865,0.037922000000000004,-0.18656,0.5294265,0.022435999999999998,-0.30082000000000003,0.7588865,-0.032941,0.13429,0.5545565,-0.004453,0.22535000000000002,0.8053665,-0.076168,-0.30210000000000004,1.0382865,-0.068308,0.20677,1.0719865,-0.104369,-0.070052,-0.0069695000000000035,0.0008119999999999994,0.070052,0.0069695000000000035,-0.0008120000000000002,-0.13982999999999998,-0.6146235,0.006149999999999999,0.16467,-0.5990435000000001,-0.0061010000000000005,-0.18356,-0.9807035000000001,-0.066668,0.21261000000000002,-0.9670135,-0.088987
161,-0.033904000000000004,0.728292,0.039477000000000005,-0.186539,0.529712,0.023566000000000004,-0.30107900000000004,0.757592,-0.032278999999999995,0.134331,0.554792,-0.0030589999999999992,0.226501,0.804502,-0.07554999999999999,-0.302219,1.039482,-0.06765,0.207721,1.0709819999999999,-0.10395599999999999,-0.070043,-0.0070230000000000015,0.0010870000000000003,0.070043,0.0070230000000000015,-0.0010869999999999994,-0.140169,-0.616318,0.006568,0.165611,-0.600858,-0.005346,-0.183569,-0.980298,-0.066024,0.212431,-0.969038,-0.087407
162,-0.03403200000000001,0.7285205,0.040637,-0.186689,0.5300005,0.024509999999999997,-0.301599,0.7572205000000001,-0.031612,0.134761,0.5547305,-0.0012810000000000009,0.22831100000000001,0.8025505,-0.07496,-0.30267900000000003,1.0385405,-0.06698499999999999,0.209091,1.0696405,-0.10358099999999999,-0.070104,-0.0070785000000000015,0.0013539999999999993,0.070104,0.0070785000000000015,-0.0013540000000000002,-0.140339,-0.6162694999999999,0.007004999999999999,0.16604100000000002,-0.6042194999999999,-0.004711,-0.183619,-0.9806895,-0.065372,0.211901,-0.9724695,-0.08578899999999999
163,-0.0342915,0.7287899999999999,0.0418155,-0.1872115,0.53035,0.0254275,-0.3035415,0.7554,-0.030913500000000003,0.13487849999999998,0.55457,0.0002944999999999996,0.23120849999999998,0.7989999999999999,-0.0744205,-0.3042815,1.03248,-0.0689645,0.21022849999999998,1.06828,-0.10336849999999999,-0.0702235,-0.0071430000000000035,0.0015325,0.0702235,0.007142999999999997,-0.0015325000000000009,-0.14052150000000002,-0.6128300000000001,0.0074684999999999994,0.16506849999999998,-0.59984,-0.0042045,-0.1839615,-0.97945,-0.0640345,0.21024849999999998,-0.96814,-0.08273449999999999
164,-0.034529500000000005,0.729169,0.043122999999999995,-0.18791149999999998,0.530859,0.026394,-0.30693149999999997,0.7520690000000001,-0.030532,0.1348885,0.5546690000000001,0.0019229999999999994,0.2369485,0.7910090000000001,-0.073934,-0.3061415,1.0267789999999999,-0.071357,0.21103850000000002,1.064079,-0.10342,-0.07031950000000001,-0.007271999999999994,0.0017449999999999992,0.07031950000000001,0.007272000000000001,-0.001745,-0.1414915,-0.615091,0.008176,0.16369850000000002,-0.594171,-0.0036220000000000002,-0.18472149999999998,-0.9790110000000001,-0.062863,0.2084185,-0.963281,-0.080315
165,-0.034607,0.729197,0.044531,-0.18860100000000002,0.531497,0.027433,-0.313971,0.745537,-0.031976000000000004,0.134989,0.5550970000000001,0.003639,0.244499,0.7820870000000001,-0.074113,-0.308721,1.019367,-0.076113,0.212089,1.053767,-0.106565,-0.070348,-0.007348,0.0020230000000000005,0.070348,0.007347999999999993,-0.0020230000000000005,-0.142601,-0.6170629999999999,0.008973,0.16221899999999997,-0.588783,-0.002959999999999999,-0.18563100000000002,-0.978873,-0.062208,0.207719,-0.958413,-0.077751
166,-0.034770999999999996,0.7297145,0.046119,-0.189441,0.5322445,0.028501,-0.323191,0.7381545,-0.03231,0.13525900000000002,0.5561945,0.005341,0.255879,0.7698245,-0.074958,-0.31227099999999997,1.0082345,-0.084105,0.213059,1.0404345,-0.111248,-0.070321,-0.007383499999999994,0.0023300000000000005,0.070321,0.007383500000000001,-0.0023300000000000005,-0.143541,-0.6165055,0.009254,0.160639,-0.5831355,-0.002928,-0.186551,-0.9770055,-0.061391,0.206909,-0.9531955,-0.07645099999999999
167,-0.034802,0.7313850000000001,0.048018500000000006,-0.18971100000000002,0.531765,0.0305325,-0.334051,0.722905,-0.032324500000000006,0.136969,0.553415,0.007216499999999999,0.269019,0.752475,-0.0761835,-0.318351,0.989405,-0.09401849999999999,0.217239,1.016605,-0.11767849999999999,-0.07023399999999999,-0.007169000000000002,0.0026664999999999996,0.07023399999999999,0.007168999999999995,-0.0026665000000000005,-0.144551,-0.615835,0.0095675,0.16016899999999998,-0.580955,-0.0022635,-0.187561,-0.973855,-0.06131349999999999,0.205589,-0.949325,-0.0733245
168,-0.034797999999999996,0.733246,0.050213499999999994,-0.189982,0.530386,0.032377500000000003,-0.34344199999999997,0.702876,-0.0312055,0.138578,0.550486,0.008945499999999999,0.282828,0.728716,-0.0754865,-0.32727199999999995,0.959846,-0.1050095,0.222328,0.985346,-0.12582949999999998,-0.07019,-0.007057000000000001,0.002982499999999999,0.07019,0.007056999999999994,-0.0029825000000000008,-0.145792,-0.615414,0.009935499999999998,0.159738,-0.578864,-0.0016715000000000011,-0.188622,-0.971004,-0.06117650000000001,0.20471799999999998,-0.945974,-0.0698475
169,-0.03471250000000001,0.7351424999999999,0.0524245,-0.1898935,0.5291625,0.0342785,-0.3504135,0.6762625,-0.0301265,0.1401765,0.5473925,0.0103065,0.2942965,0.6998825,-0.0747235,-0.3372635,0.9250025,-0.1200715,0.2280865,0.9466724999999999,-0.1374715,-0.0701965,-0.006881499999999999,0.0031964999999999997,0.0701965,0.006881499999999999,-0.0031965000000000014,-0.1470635,-0.6149475,0.0102475,0.1591165,-0.5766275000000001,-0.0009965000000000009,-0.1897435,-0.9677175,-0.060884499999999994,0.2040965,-0.9427875,-0.0688295
170,-0.034427,0.73741,0.0547015,-0.189718,0.5275099999999999,0.0359445,-0.355848,0.64338,-0.029156500000000002,0.141822,0.5440499999999999,0.0112265,0.301022,0.6647599999999999,-0.0737745,-0.350338,0.87774,-0.1329935,0.234042,0.90706,-0.1513435,-0.070213,-0.0068110000000000046,0.0033655000000000004,0.070213,0.006810999999999998,-0.0033655000000000004,-0.148278,-0.61409,0.0105395,0.159622,-0.5793200000000001,-0.0002804999999999995,-0.190698,-0.96416,-0.0601135,0.203352,-0.94308,-0.06583750000000001
171,-0.034088999999999994,0.7404875,0.0570735,-0.189437,0.5252374999999999,0.0370585,-0.358667,0.6041274999999999,-0.0268195,0.142963,0.5405675,0.0118275,0.305873,0.6237874999999999,-0.07180550000000001,-0.362727,0.8186975,-0.1438195,0.241813,0.8456275,-0.1621095,-0.07027800000000001,-0.006455500000000003,0.0034824999999999995,0.07027800000000001,0.006455499999999996,-0.0034824999999999995,-0.148807,-0.6089825,0.010746499999999999,0.159083,-0.5757125000000001,5.05000000000002e-05,-0.191207,-0.9594125,-0.05881550000000001,0.202933,-0.9395025,-0.0627625
172,-0.033632499999999996,0.7437825,0.0594115,-0.1890065,0.5224825000000001,0.0375405,-0.3591165,0.5620525000000001,-0.023074499999999998,0.14428349999999998,0.5358425,0.0122495,0.30782349999999997,0.5777125000000001,-0.0685545,-0.3693465,0.7505625,-0.1481655,0.2521435,0.7705525000000001,-0.16871550000000002,-0.0703785,-0.006034500000000005,0.0035884999999999997,0.0703785,0.006034499999999998,-0.0035884999999999997,-0.1495965,-0.6072575,0.0108605,0.1590735,-0.5733475,7.749999999999944e-05,-0.1918665,-0.9549875,-0.057547499999999994,0.2026135,-0.9365574999999999,-0.059725499999999994
173,-0.033237499999999996,0.7474854999999999,0.061804,-0.18847150000000001,0.5192055,0.037867,-0.3595215,0.5191555,-0.018948000000000003,0.1455185,0.5302754999999999,0.012552999999999998,0.3074785,0.5330855,-0.062478000000000006,-0.3710815,0.6684855,-0.14776399999999998,0.2617285,0.6965155,-0.16869399999999998,-0.0705845,-0.005544499999999997,0.003676999999999998,0.0705845,0.005544500000000001,-0.0036769999999999997,-0.1501315,-0.6028545000000001,0.010884999999999999,0.1588885,-0.5697645,3.099999999999804e-05,-0.1923915,-0.9507945000000001,-0.057133,0.2025085,-0.9327745000000001,-0.058654
174,-0.0329405,0.751855,0.06415799999999999,-0.1879195,0.515555,0.038021,-0.3598695,0.475295,-0.01449,0.1465905,0.524465,0.011909,0.30719050000000003,0.485375,-0.056326,-0.3715695,0.580445,-0.14757599999999998,0.2677605,0.606775,-0.168716,-0.07085050000000001,-0.005078000000000003,0.003724999999999999,0.07085050000000001,0.005077999999999999,-0.003724999999999999,-0.1504695,-0.598095,0.010804,0.15911050000000002,-0.567825,-0.00010000000000000113,-0.1929595,-0.9459650000000001,-0.05694199999999999,0.2016805,-0.928795,-0.055907
175,-0.032635000000000004,0.7565515,0.066177,-0.18728,0.5115115,0.038034,-0.35992,0.4289815,-0.009267000000000001,0.14753,0.5188315,0.011,0.30695,0.4385015,-0.05014400000000001,-0.37201,0.48635150000000005,-0.147527,0.27094,0.5104215,-0.168787,-0.07116,-0.004611500000000001,0.0037009999999999994,0.07116,0.0046114999999999975,-0.0037009999999999994,-0.15071,-0.5926285,0.010824,0.15900999999999998,-0.5641885,-0.0002500000000000002,-0.19344,-0.9411085,-0.05788800000000001,0.20077,-0.9223485,-0.054149
176,-0.032338,0.760372,0.06776750000000001,-0.187163,0.508582,0.0373965,-0.355923,0.387842,-0.0030324999999999987,0.147087,0.517422,0.0099215,0.303747,0.393492,-0.042958500000000004,-0.372323,0.393362,-0.1444535,0.270607,0.419032,-0.1668335,-0.071471,-0.004429000000000002,0.0036854999999999995,0.071471,0.004428999999999999,-0.0036854999999999995,-0.150793,-0.587688,0.0107705,0.158967,-0.5621579999999999,-0.00042550000000000053,-0.193993,-0.938028,-0.05909350000000001,0.200317,-0.917208,-0.0537165
177,-0.0321395,0.764122,0.068787,-0.18706250000000002,0.506672,0.036211,-0.3453925,0.349762,0.005431999999999999,0.1466275,0.515862,0.008573,0.2967875,0.356592,-0.033288000000000005,-0.3683625,0.307122,-0.131515,0.2706475,0.331882,-0.15326499999999998,-0.0717045,-0.004091000000000001,0.0037070000000000002,0.0717045,0.004091000000000001,-0.0037070000000000002,-0.15087250000000002,-0.582928,0.010725,0.1588475,-0.559218,-0.0005540000000000007,-0.1946425,-0.934428,-0.060000000000000005,0.1997875,-0.913328,-0.05350800000000001
178,-0.031963,0.7679370000000001,0.06947199999999999,-0.187263,0.504607,0.034898,-0.329843,0.322457,0.01686,0.146207,0.514437,0.007134000000000001,0.284887,0.324987,-0.018616999999999995,-0.357713,0.230317,-0.108308,0.271027,0.252127,-0.130218,-0.071902,-0.0037740000000000013,0.0036439999999999997,0.071902,0.0037739999999999996,-0.0036439999999999997,-0.15124300000000002,-0.5794630000000001,0.010879,0.159167,-0.5588930000000001,-0.00028500000000000053,-0.195013,-0.9310130000000001,-0.059913,0.199957,-0.912393,-0.05331
179,-0.031836500000000004,0.7714315,0.0697545,-0.1875145,0.5029715,0.0322365,-0.31185450000000003,0.30226149999999996,0.0316445,0.1456955,0.5133015000000001,0.005166499999999999,0.27101549999999996,0.3027215,7.049999999999938e-05,-0.3437345,0.1673915,-0.0796255,0.2705355,0.1794115,-0.10204350000000001,-0.0720875,-0.003379499999999999,0.0035004999999999984,0.0720875,0.0033795000000000006,-0.0035005,-0.1513245,-0.5753685,0.0109395,0.1593155,-0.5583684999999999,-0.0002865000000000003,-0.1953245,-0.9277685,-0.05980450000000001,0.1998655,-0.9113884999999999,-0.053304500000000005
180,-0.031708,0.7742755,0.069717,-0.187789,0.5019655000000001,0.029684,-0.29456899999999997,0.28827549999999996,0.046623,0.145251,0.5120755,0.003155999999999999,0.256231,0.28704549999999995,0.018947,-0.32613899999999996,0.11684549999999999,-0.047005,0.26915100000000003,0.1286455,-0.068551,-0.072212,-0.003250500000000001,0.003351999999999999,0.072212,0.0032505,-0.003352000000000001,-0.151229,-0.5719245,0.010903,0.159401,-0.5584844999999999,-0.00012299999999999985,-0.195299,-0.9242144999999999,-0.058414999999999995,0.199461,-0.9102144999999999,-0.054016999999999996
181,-0.031634,0.776127,0.0695185,-0.18812800000000002,0.501447,0.027001499999999998,-0.27909799999999996,0.27868699999999996,0.0612795,0.14482199999999998,0.511567,0.0012735000000000003,0.24376199999999998,0.27674699999999997,0.0369875,-0.30680799999999997,0.079983,-0.0090275,0.267322,0.091477,-0.031177499999999997,-0.07230600000000001,-0.0031720000000000003,0.003270499999999999,0.07230600000000001,0.0031719999999999995,-0.003270499999999999,-0.15110800000000002,-0.569743,0.0106935,0.15931199999999998,-0.557593,-0.0003154999999999998,-0.19542800000000002,-0.922033,-0.0581075,0.199462,-0.909993,-0.054213500000000005
