sb224sc-HT22-VT27/4dt907/src/data/kinect_good_preprocessed_not_cut_A11_mediapipe/A130_kinect_mirrored.csv
FrameNo,nose_3d_x,nose_3d_y,nose_3d_z,left_shoulder_3d_x,left_shoulder_3d_y,left_shoulder_3d_z,left_elbow_3d_x,left_elbow_3d_y,left_elbow_3d_z,right_shoulder_3d_x,right_shoulder_3d_y,right_shoulder_3d_z,right_elbow_3d_x,right_elbow_3d_y,right_elbow_3d_z,left_wrist_3d_x,left_wrist_3d_y,left_wrist_3d_z,right_wrist_3d_x,right_wrist_3d_y,right_wrist_3d_z,left_hip_3d_x,left_hip_3d_y,left_hip_3d_z,right_hip_3d_x,right_hip_3d_y,right_hip_3d_z,left_knee_3d_x,left_knee_3d_y,left_knee_3d_z,right_knee_3d_x,right_knee_3d_y,right_knee_3d_z,left_ankle_3d_x,left_ankle_3d_y,left_ankle_3d_z,right_ankle_3d_x,right_ankle_3d_y,right_ankle_3d_z
0,1.015006,0.721646,0.062307,0.8345540000000001,0.5286259999999999,0.029044,0.726424,0.748316,-0.097477,1.165984,0.5442659999999999,0.029486,1.259754,0.759886,-0.0407579999999999,0.776204,0.983586,-0.153757,1.201564,1.031486,-0.094037,0.918961,0.001914,-0.002452,1.081039,-0.001914,0.0024519999999999,0.889734,-0.459954,0.062124,1.1378039999999998,-0.4651139999999999,0.011022,0.885874,-0.8189740000000001,0.103227,1.178814,-0.822914,0.0420839999999999
1,1.0166535,0.7198475,0.059978,0.8352145000000001,0.5276475,0.020056,0.7306045,0.7439775,-0.106199,1.1680045,0.5446275,0.031447,1.2632645,0.7591275,-0.0311159999999999,0.7852745,0.9803175,-0.167169,1.2058345,1.0344275,-0.0803089999999999,0.9190465,0.0022975,-0.0057209999999999,1.0809535,-0.0022975,0.005721,0.8905645000000001,-0.4595525,0.059182,1.1383745,-0.4653025,0.010821,0.8869645,-0.8201225,0.101516,1.1800845,-0.8240225,0.040676
2,1.018785,0.717343,0.0574505,0.8357610000000001,0.524123,0.0191825,0.736471,0.740243,-0.1186545,1.172831,0.548903,0.0451575,1.265981,0.757553,-0.0238905,0.794091,0.972603,-0.1802045,1.222971,0.972953,-0.0706745,0.919074,0.002845,-0.0079455,1.080926,-0.002845,0.0079455,0.890331,-0.459277,0.0559175,1.138711,-0.464207,0.0114385,0.888031,-0.821227,0.1005415,1.181491,-0.826177,0.0397165
3,1.022813,0.7108415,0.0541195,0.835518,0.5162015,0.0165004999999999,0.7480980000000002,0.7361415,-0.1368015,1.174278,0.5504414999999999,0.0521215,1.2718180000000001,0.7363415,0.0058094999999999,0.810458,0.9653615,-0.1998215,1.229198,0.9743115,-0.0636444999999999,0.91915,0.0034105,-0.0109515,1.08085,-0.0034105,0.0109515,0.890258,-0.4584784999999999,0.0511294999999999,1.139388,-0.4635884999999999,0.0138554999999999,0.889018,-0.8202785,0.0994434999999999,1.183678,-0.8269785000000001,0.0389095
4,1.0238685,0.709318,0.0525935,0.8358235,0.512738,0.0135755,0.7537635,0.734678,-0.1478404999999999,1.1755135,0.557518,0.0813825,1.2718435000000001,0.735098,0.0098655,0.8192535000000001,0.960988,-0.2106404999999999,1.2333135,0.973448,-0.0582085,0.9198205,0.003607,-0.0124895,1.0801795,-0.003607,0.0124895,0.8912535,-0.456602,0.0472255,1.1396534999999999,-0.463672,0.0137945,0.8895735,-0.820862,0.0981715,1.1842234999999999,-0.828482,0.0381775
5,1.025191,0.7082035,0.049541,0.835698,0.4968634999999999,-0.010856,0.758888,0.7304335,-0.156884,1.178188,0.5597835,0.0832509999999999,1.272148,0.7370835,0.0141389999999999,0.826608,0.9576035,-0.220564,1.236998,0.9745135,-0.052279,0.921714,0.0033935,-0.015645,1.078286,-0.0033935,0.015645,0.892028,-0.4564265,0.043578,1.140028,-0.4633865,0.0141209999999999,0.8903179999999999,-0.8211565000000001,0.095514,1.185198,-0.8279465,0.035809
6,1.0257669999999999,0.7041755,0.04928,0.835321,0.4919455,-0.014112,0.7637010000000001,0.7254554999999999,-0.164512,1.177521,0.5575254999999999,0.084929,1.272201,0.7359754999999999,0.021498,0.832371,0.9501355,-0.2284919999999999,1.239361,0.9711655,-0.046102,0.9226030000000001,0.0039465,-0.020495,1.077397,-0.0039464999999999,0.020495,0.892111,-0.4584245,0.041983,1.140221,-0.4663545,0.016434,0.890431,-0.8241545,0.095263,1.186161,-0.8312045,0.035636
7,1.0257725,0.702244,0.0483375,0.8359665000000001,0.493934,-0.0130375,0.7656065000000001,0.726914,-0.1689505,1.1766964999999998,0.5552239999999999,0.0825984999999999,1.2710865,0.739614,0.0251085,0.8347964999999999,0.956274,-0.2336405,1.2376765,0.971054,-0.0446255,0.9233275,0.003976,-0.0223135,1.0766725,-0.0039759999999999,0.0223135,0.8925065,-0.457836,0.0396414999999999,1.1403465,-0.467996,0.0163084999999999,0.8907265,-0.826696,0.0937955,1.1870265,-0.832976,0.0350754999999999
8,1.0262235,0.7011415,0.0475364999999999,0.8357475,0.4908214999999999,-0.0175025,0.7666475,0.7257215,-0.1726815,1.1769275,0.5561714999999999,0.0868075,1.2706975,0.7384014999999999,0.0265525,0.8355575,0.9548815,-0.2378415,1.2385575,0.9701015,-0.0431195,0.9238245,0.0040955,-0.0236705,1.0761755,-0.0040955,0.0236705,0.8927375,-0.4578585,0.0378415,1.1405875,-0.4683685,0.0169025,0.8910475,-0.8270785,0.0928135,1.1878175,-0.8336085,0.0345355
9,1.026489,0.700449,0.04706,0.835323,0.488439,-0.0212049999999999,0.7667930000000001,0.724769,-0.173808,1.176813,0.556279,0.087467,1.270453,0.737039,0.026351,0.835543,0.953779,-0.239918,1.238953,0.969369,-0.0435909999999999,0.924257,0.004223,-0.024643,1.0757430000000001,-0.0042229999999999,0.024643,0.892833,-0.458061,0.0367,1.140723,-0.468531,0.017551,0.8911930000000001,-0.827181,0.092153,1.188383,-0.833931,0.034262
10,1.0264445,0.700015,0.0470595,0.8352185,0.488305,-0.0211965,0.7667485,0.7245050000000001,-0.1738085,1.1764685,0.5561550000000001,0.0877834999999999,1.2704085,0.735705,0.0263514999999999,0.8354985,0.952825,-0.2399185,1.2390284999999999,0.969235,-0.0436125,0.9245315000000001,0.004357,-0.0250195,1.0754685,-0.004357,0.0250194999999999,0.8926485,-0.4581449999999999,0.0361724999999999,1.1406285,-0.4685649999999999,0.0181075,0.8910085000000001,-0.827265,0.0919685,1.1886284999999999,-0.8341149999999999,0.0344155
11,1.0262,0.699835,0.0471095,0.8351040000000001,0.488305,-0.0211764999999999,0.766634,0.7244050000000001,-0.1737885,1.176354,0.5561550000000001,0.0878034999999999,1.270294,0.7356550000000001,0.0263715,0.835384,0.952495,-0.2398985,1.239074,0.969205,-0.0436195,0.924646,0.004357,-0.0250395,1.075354,-0.004357,0.0250395,0.892484,-0.4581449999999999,0.0359025,1.140514,-0.4685649999999999,0.0181815,0.890834,-0.827255,0.0918325,1.188734,-0.8341649999999999,0.0345875
12,1.0258619999999998,0.699665,0.0472459999999999,0.8350040000000001,0.488305,-0.0211589999999999,0.7655640000000001,0.724355,-0.173601,1.176254,0.5561550000000001,0.087821,1.270194,0.7356550000000001,0.026389,0.8330839999999999,0.952495,-0.239501,1.239064,0.969115,-0.043617,0.924746,0.004357,-0.025057,1.075254,-0.004357,0.025057,0.892324,-0.4581449999999999,0.03593,1.1404139999999998,-0.4685649999999999,0.018199,0.8907039999999999,-0.827255,0.091719,1.188804,-0.834145,0.034712
13,1.0254085,0.699665,0.0474155,0.8347395000000001,0.488975,-0.0205825,0.7629695000000001,0.724435,-0.1721695,1.1761295,0.5561550000000001,0.0878424999999999,1.2697595,0.7360450000000001,0.0246774999999999,0.8283095,0.952985,-0.2386395,1.2381194999999998,0.968865,-0.0457465,0.9248705,0.004357,-0.0250785,1.0751295,-0.004357,0.0250784999999999,0.8921695000000001,-0.4581449999999999,0.0359585,1.1402895,-0.468585,0.0182204999999999,0.8905795,-0.827255,0.0917404999999999,1.1887295,-0.834185,0.0347675
14,1.024785,0.700163,0.0476945,0.834472,0.490313,-0.0194845,0.759022,0.725203,-0.1684135,1.1756319999999998,0.555803,0.0864525,1.269332,0.737083,0.0207985,0.821172,0.954333,-0.2348634999999999,1.2364419999999998,0.969523,-0.0503905,0.924953,0.004376,-0.0246135,1.075047,-0.004376,0.0246135,0.891952,-0.457787,0.0361415,1.140062,-0.4681269999999999,0.0184065,0.890352,-0.8267869999999999,0.0919265,1.188502,-0.8337169999999999,0.0349535
15,1.0238699999999998,0.701089,0.0482955,0.8339030000000001,0.492359,-0.0176625,0.7536530000000001,0.726129,-0.1622425,1.174953,0.555609,0.0849515,1.268903,0.738229,0.0152244999999999,0.811843,0.954409,-0.2284725,1.234023,0.970739,-0.0569475,0.924871,0.004366,-0.0234944999999999,1.075129,-0.0043659999999999,0.0234944999999999,0.891513,-0.457361,0.0366455,1.139643,-0.467241,0.0184184999999999,0.889893,-0.825911,0.0923865,1.188033,-0.832791,0.0354145
16,1.0229345,0.702681,0.049288,0.8333505,0.495121,-0.014839,0.7466505,0.727441,-0.15286,1.1744405,0.554711,0.080958,1.2682105,0.739211,0.004638,0.8006905,0.954801,-0.21925,1.2309205,0.972451,-0.065845,0.9245035,0.00424,-0.021445,1.0754965,-0.00424,0.021445,0.8907905,-0.456799,0.03797,1.1389805,-0.465799,0.017986,0.8892005000000001,-0.824329,0.093334,1.1872405,-0.831199,0.036347
17,1.022026,0.704855,0.0504425,0.832822,0.498115,-0.0115455,0.738782,0.729095,-0.1412145,1.1738819999999999,0.5537650000000001,0.0766075,1.267422,0.740335,-0.0071314999999999,0.7879920000000001,0.955975,-0.2081545,1.227402,0.974355,-0.0761345,0.924063,0.00402,-0.0189545,1.075937,-0.00402,0.0189545,0.890082,-0.4564749999999999,0.0400045,1.138242,-0.464215,0.0173765,0.8884120000000001,-0.8224549999999999,0.0945115,1.186242,-0.829275,0.0375005
18,1.0208785,0.7074395,0.0520665,0.8328245000000001,0.5022195,-0.0033354999999999,0.7310145,0.7304795000000001,-0.1260595,1.1734445,0.5528795000000001,0.0717005,1.2661945000000001,0.7417595,-0.0214725,0.7723545,0.9583495,-0.1935795,1.2214145,0.9783695,-0.0891495,0.9234985,0.0036544999999999,-0.0154005,1.0765015,-0.0036544999999999,0.0154005,0.8893345,-0.4562105,0.0429375,1.1375545,-0.4630305,0.0163605,0.8875045,-0.8202605,0.0962345,1.1849345,-0.8269105,0.0389665
19,1.019696,0.7101185,0.054235,0.832952,0.5067285,0.006393,0.725322,0.7314885,-0.109828,1.173642,0.5512185,0.064463,1.264882,0.7432385,-0.0366139999999999,0.758632,0.9607085,-0.177898,1.2149519999999998,0.9821285,-0.1027879999999999,0.922907,0.0032385,-0.011399,1.077093,-0.0032385,0.011399,0.888732,-0.4561215,0.046762,1.136922,-0.4619415,0.015456,0.886602,-0.8183915,0.098565,1.183452,-0.8247315000000001,0.040909
20,1.0187995,0.7123379999999999,0.0560635,0.8332645000000001,0.510838,0.0160805,0.7207345000000001,0.7318479999999999,-0.0939135,1.1739244999999998,0.548878,0.0570215,1.2633945,0.7441479999999999,-0.0521905,0.7462245000000001,0.962678,-0.1627635,1.2083245,0.985618,-0.1169335,0.9223985,0.002741,-0.0076515,1.0776015,-0.002741,0.0076515,0.8883745,-0.4564319999999999,0.0504405,1.1364445,-0.4614419999999999,0.0140075,0.8858045,-0.8171820000000001,0.1005955,1.1820145,-0.823102,0.0425385
21,1.01816,0.714216,0.0576985,0.8339150000000001,0.514916,0.0258475,0.717365,0.731896,-0.0788125,1.1742949999999999,0.546376,0.0476755,1.261495,0.744776,-0.0672224999999999,0.735645,0.964516,-0.1482925,1.201695,0.988916,-0.1303925,0.921957,0.002235,-0.0038214999999999,1.078043,-0.002235,0.0038215,0.8880250000000001,-0.456884,0.0540515,1.135915,-0.461214,0.0124535,0.884955,-0.816304,0.1025315,1.180525,-0.821784,0.0440725
22,1.018145,0.7160205,0.0590269999999999,0.834918,0.5184805,0.034732,0.715078,0.7321004999999999,-0.064105,1.174818,0.5437905,0.03757,1.259298,0.7454805,-0.0826549999999999,0.7265280000000001,0.9664405,-0.1347149999999999,1.1953179999999999,0.9923705,-0.144075,0.9215,0.0017475,0.0001639999999999,1.0785,-0.0017475,-0.0001639999999999,0.887838,-0.4575095,0.057672,1.135508,-0.4611295,0.010841,0.884108,-0.8156895000000001,0.104397,1.179038,-0.8205395,0.045545
23,1.0184704999999998,0.7176480000000001,0.060091,0.8361035,0.522068,0.043797,0.7135235000000001,0.731728,-0.050709,1.1752935,0.541718,0.028461,1.2568535,0.745808,-0.0974689999999999,0.7189435,0.968008,-0.123399,1.1895734999999998,0.995218,-0.156839,0.9212735,0.0013119999999999,0.004128,1.0787265,-0.001312,-0.004128,0.8879035,-0.458432,0.06117,1.1351035,-0.461252,0.009304,0.8831335,-0.815452,0.106256,1.1774435,-0.819442,0.046971
24,1.01905,0.7191865,0.06074,0.837435,0.5256065,0.052491,0.7128650000000001,0.7312965,-0.039462,1.175875,0.5394865,0.01888,1.254265,0.7465465,-0.111441,0.712295,0.9698265,-0.114061,1.184055,0.9981565,-0.168481,0.921227,0.0008875,0.007877,1.078773,-0.0008875,-0.007877,0.888055,-0.4594935,0.064258,1.1346949999999998,-0.4615135,0.007785,0.882165,-0.8154635,0.10788,1.1758849999999998,-0.8185235,0.048125
25,1.019872,0.7204929999999999,0.061187,0.838945,0.528893,0.060549,0.7127749999999999,0.730383,-0.030381,1.176325,0.538183,0.0116109999999999,1.251935,0.746833,-0.122039,0.707105,0.970603,-0.106969,1.179835,1.000613,-0.178779,0.921304,0.000612,0.0113239999999999,1.078696,-0.0006119999999999,-0.011324,0.8883449999999999,-0.460647,0.067092,1.134485,-0.4619569999999999,0.006709,0.8812450000000001,-0.815737,0.1092829999999999,1.174505,-0.817697,0.0491469999999999
26,1.0207845,0.7215010000000001,0.0614805,0.8403435,0.5320010000000001,0.0679555,0.7127335,0.7293010000000001,-0.0233125,1.1767935,0.537111,0.0047315,1.2498235,0.747021,-0.1316695,0.7031735,0.970971,-0.1018895,1.1763835,1.002431,-0.1885395,0.9213855,0.000504,0.0143655,1.0786145,-0.000504,-0.0143655,0.8885035,-0.461449,0.0694035,1.1342635,-0.462419,0.0057494999999999,0.8803235,-0.8160989999999999,0.1104985,1.1731935,-0.816989,0.0499685
27,1.0219435,0.7223945,0.061432,0.8411045,0.5340045,0.070688,0.7123145,0.7288445,-0.019685,1.1772345,0.5362745,-0.0015539999999999,1.2483745,0.7471645,-0.138546,0.7023245,0.9707645,-0.100756,1.1741445,1.0025745,-0.195456,0.9215335,0.0004965,0.016517,1.0784665,-0.0004964999999999,-0.0165169999999999,0.8887445,-0.4620855,0.071082,1.1339645,-0.4623454999999999,0.0053479999999999,0.8795345,-0.8165955,0.111372,1.1721045,-0.8164455,0.050533
28,1.0227065,0.7229685,0.061121,0.8414645000000001,0.5351985,0.071736,0.7114944999999999,0.7285385000000001,-0.0192759999999999,1.1770745,0.5359885000000001,-0.0052009999999999,1.2476544999999999,0.7469485,-0.142532,0.7015245,0.9700885,-0.100352,1.1724745,1.0026685,-0.200062,0.9216765000000001,0.0004064999999999,0.017822,1.0783235,-0.0004064999999999,-0.0178219999999999,0.8889145,-0.4625115,0.072156,1.1337445,-0.4622915,0.004945,0.8788145,-0.8169814999999999,0.1118339999999999,1.1711744999999998,-0.8159615,0.050692
29,1.023103,0.7233904999999999,0.0609485,0.8415509999999999,0.5359605,0.0720295,0.710971,0.7282405,-0.0189975,1.176631,0.5356204999999999,-0.0074845,1.247301,0.7467805,-0.1450875,0.700801,0.9690105,-0.1000375,1.171171,1.0027205,-0.2031475,0.9217730000000001,0.0002485,0.0187894999999999,1.0782269999999998,-0.0002484999999999,-0.0187895,0.888951,-0.4627195,0.0729635,1.133511,-0.4622595,0.0047024999999999,0.878161,-0.8173395,0.1121794999999999,1.170361,-0.8155495,0.0508065
30,1.0232945,0.7238155,0.0608644999999999,0.8414295,0.5363655,0.0721385,0.7109395000000001,0.7279655,-0.0189035,1.1761895,0.5352655,-0.0075725,1.2474095,0.7466455,-0.1465925,0.7004695000000001,0.9690455,-0.0998925,1.1717795,1.0017755000000002,-0.2056725,0.9218255,0.0001704999999999,0.0193814999999999,1.0781745,-0.0001705,-0.0193815,0.8890395000000001,-0.4629245,0.0736145,1.1333895,-0.4622345,0.0045014999999999,0.8776595000000001,-0.8177145,0.1123685,1.1696995000000001,-0.8151845,0.0507964999999999
31,1.0230134999999998,0.7241855,0.0608265,0.8411485000000001,0.5363655,0.0721005,0.7108085,0.7276455,-0.0192805,1.1759084999999998,0.5350055,-0.0076104999999999,1.2478585,0.7464555,-0.1467505,0.7010285,0.9690455,-0.1018704999999999,1.1739085,1.0004155,-0.2063904999999999,0.9218465,0.0001704999999999,0.0194655,1.0781535,-0.0001705,-0.0194655,0.8892085,-0.4631245,0.0741175,1.1333185000000001,-0.4622145,0.0044275,0.8774285,-0.8179345,0.1123065,1.1693585,-0.8149445,0.0506185
32,1.0230105,0.7244855,0.060827,0.8411455000000001,0.5363655,0.072101,0.7106155000000001,0.7273555,-0.020538,1.1759055,0.5347755,-0.0076099999999999,1.2484454999999999,0.7462955,-0.14686,0.7019155,0.9690455,-0.10455,1.1767455,0.9989155,-0.20688,0.9218495,0.0001704999999999,0.019465,1.0781505,-0.0001705,-0.019465,0.8893355000000001,-0.4631545,0.0747569999999999,1.1333355,-0.4622145,0.0044239999999999,0.8774755,-0.8180845,0.112269,1.1693055,-0.8149445,0.050543
33,1.0230105,0.72472,0.060827,0.8410555,0.5363800000000001,0.071602,0.7102455000000001,0.72718,-0.022694,1.1759055,0.53467,-0.0076099999999999,1.2488355,0.74642,-0.14692,0.7027654999999999,0.96858,-0.10789,1.1797655,0.99773,-0.2074,0.9218495,0.0001559999999999,0.019465,1.0781505,-0.0001559999999999,-0.019465,0.8894455,-0.4631099999999999,0.075408,1.1333355,-0.46219,0.0044239999999999,0.8775155,-0.81808,0.112243,1.1692655,-0.81492,0.050471
34,1.0229315,0.7249410000000001,0.060935,0.8407455,0.5360010000000001,0.070338,0.7096855,0.727211,-0.026066,1.1757055,0.534811,-0.0064219999999999,1.2489555,0.746451,-0.14622,0.7035454999999999,0.967381,-0.1120299999999999,1.1831655,0.996621,-0.20799,0.9218495,0.0001239999999999,0.019465,1.0781505,-0.0001239999999999,-0.019465,0.8895554999999999,-0.4630189999999999,0.076046,1.1333455,-0.4621189999999999,0.004443,0.8775255,-0.818049,0.112205,1.1692455,-0.814879,0.050379
35,1.0223054999999999,0.7252235,0.0611975,0.8400585,0.5352435,0.0686825,0.7091084999999999,0.7272735,-0.0297755,1.1753185,0.5350535,-0.0046954999999999,1.2492285,0.7465134999999999,-0.1446325,0.7043485,0.9666435,-0.1160125,1.1861285,0.9956035,-0.2076825,0.9217945,0.0001114999999999,0.0191485,1.0782055,-0.0001115,-0.0191485,0.8896185,-0.4630065,0.0764055,1.1333385,-0.4620265,0.0044385,0.8774985,-0.8179865000000001,0.1119565,1.1691785000000001,-0.8147965,0.0500915
36,1.021568,0.725561,0.0616875,0.839337,0.5342509999999999,0.0671475,0.708777,0.727371,-0.0333624999999999,1.1748569999999998,0.5351509999999999,-0.0023185,1.249787,0.746641,-0.1424615,0.705217,0.966231,-0.1194715,1.189317,0.995041,-0.2066415,0.9216600000000001,8.399999999999987e-05,0.0186705,1.0783399999999999,-8.399999999999987e-05,-0.0186705,0.889787,-0.4629089999999999,0.0767485,1.1335169999999999,-0.461889,0.0045154999999999,0.877637,-0.8178890000000001,0.1117634999999999,1.1693069999999999,-0.814679,0.0498985
37,1.020576,0.725928,0.062479,0.838743,0.533268,0.065847,0.7089030000000001,0.727628,-0.036372,1.174323,0.535418,0.000229,1.2504629999999999,0.746988,-0.139755,0.7059430000000001,0.966298,-0.1219049999999999,1.191833,0.995108,-0.205045,0.921511,6.799999999999948e-05,0.018084,1.078489,-6.800000000000035e-05,-0.018084,0.8899730000000001,-0.462842,0.0768929999999999,1.133793,-0.4617819999999999,0.0045979999999999,0.877943,-0.817652,0.11154,1.1695929999999999,-0.814642,0.049676
38,1.0195235,0.726338,0.063441,0.8382864999999999,0.532338,0.064844,0.7091765,0.728008,-0.0390359999999999,1.1737665,0.535648,0.0029959999999999,1.2509065,0.747778,-0.136762,0.7066965000000001,0.966298,-0.123892,1.1942365,0.995108,-0.202962,0.9213685,6.799999999999948e-05,0.01749,1.0786315,-6.800000000000035e-05,-0.01749,0.8901765000000001,-0.462842,0.076937,1.1341765,-0.461762,0.004658,0.8783765,-0.817482,0.111293,1.1700165,-0.814662,0.049431
39,1.0184485,0.726748,0.064507,0.8379945,0.531618,0.064146,0.7095345,0.728618,-0.041282,1.1732245,0.536048,0.005748,1.2511445,0.748878,-0.133756,0.7074644999999999,0.966298,-0.125136,1.1963845,0.995108,-0.201096,0.9212265,6.799999999999948e-05,0.01691,1.0787735,-6.800000000000035e-05,-0.01691,0.8903845,-0.462802,0.076934,1.1346145,-0.461722,0.004678,0.8788445,-0.817192,0.110997,1.1705344999999998,-0.814622,0.049167
40,1.0175744999999998,0.727258,0.0657195,0.8380295,0.531288,0.0636355,0.7100995,0.729778,-0.0423205,1.1725995,0.536688,0.0083765,1.2509095000000001,0.750318,-0.1310184999999999,0.7086195,0.966418,-0.1257085,1.1980795,0.995108,-0.1997485,0.9210615,6.799999999999948e-05,0.0163235,1.0789385,-6.800000000000035e-05,-0.0163234999999999,0.8905995,-0.462702,0.0768385,1.1349795,-0.461612,0.0048135,0.8794195,-0.816892,0.1107665,1.1711695,-0.814632,0.0489615
41,1.0168519999999999,0.7276505000000001,0.0669459999999999,0.8382769999999999,0.5311605,0.0634359999999999,0.710897,0.7312905000000001,-0.043146,1.172297,0.5373505000000001,0.0095949999999999,1.250307,0.7517505000000001,-0.128347,0.709937,0.9665405,-0.126097,1.199867,0.9955805,-0.198777,0.9209120000000001,4.25e-05,0.0157409999999999,1.0790879999999998,-4.25e-05,-0.015741,0.8908270000000001,-0.4625695,0.076687,1.135357,-0.4615695,0.0049799999999999,0.880047,-0.8166494999999999,0.1105329999999999,1.171837,-0.8147095,0.0487439999999999
42,1.0162415,0.7278490000000001,0.0681645,0.8386385000000001,0.530869,0.0632525,0.7121885,0.733179,-0.0438785,1.1720085,0.5379390000000001,0.0109275,1.2485785,0.7537790000000001,-0.1259875,0.7115585,0.966839,-0.1264975,1.2014885,0.997289,-0.1979875,0.9207784999999999,2.9999999999999645e-05,0.0151955,1.0792215,-3.0000000000000512e-05,-0.0151955,0.8910885,-0.462471,0.0765214999999999,1.1357385,-0.461721,0.0051345,0.8806885,-0.8166209999999999,0.1103015,1.1725385,-0.815001,0.0485375
43,1.015868,0.727952,0.0692465,0.839148,0.530362,0.0630185,0.7143280000000001,0.735052,-0.0443935,1.171738,0.5384720000000001,0.0120015,1.246188,0.7561720000000001,-0.1241715,0.713558,0.967402,-0.1269914999999999,1.202208,1.000202,-0.1977315,0.920672,3.399999999999931e-05,0.0147345,1.079328,-3.4000000000000176e-05,-0.0147344999999999,0.891338,-0.462398,0.0763325,1.136118,-0.462078,0.0051945,0.881278,-0.816898,0.1100545,1.173178,-0.8155979999999999,0.0482715
44,1.01557,0.7279175,0.070405,0.839655,0.5296875,0.0627399999999999,0.716925,0.7369675,-0.045035,1.171405,0.5390175,0.0131739999999999,1.243415,0.7585575,-0.122591,0.716035,0.9681575,-0.127611,1.202815,1.0029575,-0.197781,0.920611,6.149999999999992e-05,0.0143359999999999,1.079389,-6.149999999999992e-05,-0.014336,0.8915350000000001,-0.4623325,0.076082,1.136445,-0.4626125,0.0052349999999999,0.8817950000000001,-0.8173425,0.1097809999999999,1.1737449999999998,-0.8163625,0.0479779999999999
45,1.0153839999999998,0.7278140000000001,0.0715505,0.840195,0.5289940000000001,0.0625495,0.719625,0.738944,-0.0457285,1.171125,0.5394040000000001,0.0140295,1.240655,0.7606940000000001,-0.1213265,0.7187050000000001,0.968934,-0.1281665,1.2033749999999999,1.005714,-0.1978565,0.920571,9.200000000000008e-05,0.0139925,1.079429,-9.200000000000008e-05,-0.0139924999999999,0.891705,-0.462306,0.0757505,1.136725,-0.463206,0.0052364999999999,0.882265,-0.817916,0.1094845,1.1742650000000001,-0.8172259999999999,0.0476535
46,1.015489,0.72783,0.072733,0.840651,0.52847,0.062552,0.7227410000000001,0.74071,-0.0464359999999999,1.170861,0.53947,0.014821,1.238081,0.7625000000000001,-0.120428,0.721821,0.96989,-0.1283579999999999,1.203741,1.00846,-0.197758,0.920542,0.00015,0.013675,1.079458,-0.0001499999999999,-0.013675,0.891791,-0.4622799999999999,0.075339,1.136921,-0.4638299999999999,0.00519,0.8826309999999999,-0.81857,0.109221,1.174661,-0.81819,0.047352
47,1.0156795,0.727874,0.073851,0.8410405000000001,0.528004,0.062586,0.7260005,0.742394,-0.046998,1.1705605000000001,0.539494,0.0154609999999999,1.2356205,0.763754,-0.119764,0.7250605,0.970494,-0.128494,1.2038805,1.010984,-0.197534,0.9205145,0.0001979999999999,0.013379,1.0794855,-0.000198,-0.013379,0.8918505,-0.462256,0.074958,1.1370405,-0.464396,0.0051399999999999,0.8829405,-0.819256,0.108958,1.1749705,-0.819056,0.04705
48,1.015883,0.728011,0.0749265,0.8414280000000001,0.527621,0.0626135,0.729268,0.7441009999999999,-0.0474785,1.170248,0.5394709999999999,0.0160535,1.233408,0.764261,-0.1192735,0.7283980000000001,0.970771,-0.1285735,1.203698,1.012321,-0.1973535,0.920491,0.0002479999999999,0.0130804999999999,1.079509,-0.0002479999999999,-0.0130805,0.8918880000000001,-0.462229,0.0745815,1.137138,-0.464929,0.0051174999999999,0.8831980000000001,-0.819929,0.1086745,1.175228,-0.8199390000000001,0.0467394999999999
49,1.0161155,0.727983,0.075908,0.8418075,0.527273,0.062646,0.7322275,0.745413,-0.0478189999999999,1.1701475000000001,0.5394230000000001,0.016582,1.2314775,0.7643030000000001,-0.118921,0.7314575000000001,0.970673,-0.128791,1.2029675,1.013683,-0.197231,0.9205115000000001,0.00029,0.01279,1.0794884999999999,-0.0002899999999999,-0.01279,0.8918975000000001,-0.462247,0.0742569999999999,1.1372775,-0.465477,0.0050479999999999,0.8833775000000001,-0.820587,0.1084499999999999,1.1753974999999999,-0.820807,0.046464
50,1.0163305,0.7279525,0.076827,0.8421285000000001,0.5269725,0.062667,0.7348485,0.7463925,-0.048172,1.1700085,0.5394325,0.0170959999999999,1.2297885,0.7643125,-0.118671,0.7344685,0.9706025,-0.128931,1.2016585,1.0143025,-0.197081,0.9205295,0.0003354999999999,0.0125359999999999,1.0794705,-0.0003355,-0.0125359999999999,0.8918885,-0.4622675,0.073936,1.1373685,-0.4659675,0.004976,0.8834885000000001,-0.8211675,0.108222,1.1755084999999998,-0.8215975000000001,0.046206
51,1.0165264999999999,0.7279990000000001,0.0776735,0.8424045,0.5267590000000001,0.0626455,0.7368945,0.7469290000000001,-0.0484635,1.1698245,0.539429,0.0175075,1.2290545,0.763769,-0.1183414999999999,0.7371745000000001,0.970219,-0.1289315,1.2000944999999998,1.013759,-0.1965114999999999,0.9205375000000001,0.000374,0.0123195,1.0794625,-0.000374,-0.0123194999999999,0.8918745000000001,-0.462301,0.0736675,1.1374645,-0.466351,0.0049265,0.8835545,-0.8216209999999999,0.1080125,1.1755745,-0.8222309999999999,0.0459585
52,1.0167215,0.728079,0.0784795,0.8425905000000001,0.526529,0.0625765,0.7380905,0.747449,-0.0488425,1.1696305,0.539319,0.0176655,1.2289105,0.763389,-0.1180545,0.7393305,0.969839,-0.1289045,1.1980104999999999,1.013379,-0.1957045,0.9205585000000001,0.000388,0.0122274999999999,1.0794415,-0.000388,-0.0122275,0.8918205,-0.462341,0.0733145,1.1375104999999999,-0.466571,0.0048385,0.8835605,-0.821881,0.1077114999999999,1.1756005,-0.822691,0.0456345
53,1.0168139999999999,0.7282569999999999,0.0791105,0.842699,0.526397,0.0624555,0.738669,0.747857,-0.0491785,1.169439,0.539177,0.0176785,1.228959,0.763157,-0.1178464999999999,0.7408490000000001,0.969607,-0.1287965,1.195689,1.013247,-0.1946265,0.920565,0.000392,0.0121745,1.079435,-0.000392,-0.0121744999999999,0.8917390000000001,-0.462393,0.0729585,1.137509,-0.466643,0.0047045,0.8835290000000001,-0.822063,0.1074245,1.175579,-0.823043,0.0453295
54,1.0168789999999999,0.7284495,0.07964,0.8427830000000001,0.5262795,0.062342,0.739123,0.7480795,-0.04947,1.169283,0.5390594999999999,0.017613,1.229023,0.7627995,-0.1176039999999999,0.742073,0.9693995,-0.128634,1.1934529999999999,1.0132394999999998,-0.193224,0.920569,0.0003975,0.012134,1.079431,-0.0003975,-0.0121339999999999,0.891663,-0.4624505,0.072586,1.137503,-0.4667004999999999,0.0045509999999999,0.883503,-0.8222705,0.107092,1.175543,-0.8233905,0.044985
55,1.016897,0.728456,0.0798945,0.8428510000000001,0.526206,0.0622585,0.739101,0.747936,-0.0495855,1.169151,0.539006,0.0175095,1.229101,0.761876,-0.1171954999999999,0.742711,0.969036,-0.1283755,1.191681,1.012196,-0.1915555,0.920572,0.0003909999999999,0.0121115,1.079428,-0.0003909999999999,-0.0121114999999999,0.891611,-0.462524,0.0722665,1.137491,-0.466704,0.0044464999999999,0.883461,-0.822414,0.1067855,1.175501,-0.823614,0.0446845
56,1.0169375,0.7283915,0.0801015,0.8428975000000001,0.5261515,0.0621415,0.7390775,0.7478715,-0.0497465,1.1690475,0.5389815,0.0173055,1.2292875,0.7608714999999999,-0.1165195,0.7428575,0.9692115,-0.1280695,1.1901475,1.0112315,-0.1896595,0.9205755,0.0003825,0.0121025,1.0794245,-0.0003825,-0.0121024999999999,0.8915475,-0.4625885,0.0719825,1.1375175,-0.4667085,0.0043595,0.8834175,-0.8224785,0.1064565,1.1754775,-0.8237285,0.0443515
57,1.016969,0.728371,0.0802765,0.842919,0.526131,0.0620245,0.739059,0.747851,-0.0498644999999999,1.168959,0.539021,0.0170895,1.229559,0.759871,-0.1157805,0.742919,0.969571,-0.1277605,1.188919,1.010211,-0.1878905,0.920592,0.000362,0.0121405,1.079408,-0.000362,-0.0121404999999999,0.891489,-0.462609,0.0717235,1.137539,-0.466699,0.0042585,0.883379,-0.822489,0.1061285,1.175439,-0.823809,0.0440135
58,1.017004,0.728371,0.0804324999999999,0.842916,0.526131,0.0619075,0.739046,0.7477509999999999,-0.0498105,1.168726,0.539021,0.0169194999999999,1.229946,0.758921,-0.1150795,0.7429760000000001,0.969401,-0.1274795,1.188246,1.009111,-0.1862295,0.920608,0.000362,0.0121744999999999,1.079392,-0.000362,-0.0121745,0.891456,-0.462609,0.0714805,1.1375359999999999,-0.466699,0.0041834999999999,0.883356,-0.822449,0.1057835,1.175386,-0.823809,0.0436024999999999
59,1.017031,0.728271,0.080607,0.8429260000000001,0.526131,0.061809,0.7387159999999999,0.747531,-0.049497,1.168426,0.539021,0.01687,1.230516,0.758101,-0.11431,0.743096,0.969401,-0.12695,1.188136,1.007911,-0.18488,0.920611,0.000362,0.012167,1.079389,-0.000362,-0.0121669999999999,0.891446,-0.462619,0.071267,1.137576,-0.466699,0.004105,0.883366,-0.822439,0.105443,1.175366,-0.823809,0.043198
60,1.0170165,0.728075,0.0807735,0.8429465,0.526085,0.0618294999999999,0.7380065,0.746875,-0.0489285,1.1680865,0.539025,0.0169315,1.2310065,0.757575,-0.1136885,0.7429465,0.969185,-0.1263985,1.1883265,1.0071150000000002,-0.1838785,0.9206215,0.000358,0.0121704999999999,1.0793785,-0.000358,-0.0121705,0.8914065,-0.462675,0.0710465,1.1375765,-0.466695,0.0040024999999999,0.8833165000000001,-0.822425,0.1050224999999999,1.1753165,-0.823805,0.0427844999999999
61,1.0169215,0.7279399999999999,0.0809355,0.8429535,0.5260499999999999,0.0618694999999999,0.7370035000000001,0.74581,-0.0481505,1.1677135,0.5390699999999999,0.0170504999999999,1.2314635,0.75722,-0.1131515,0.7422335000000001,0.96905,-0.1257315,1.1884735,1.00656,-0.1830115,0.9206175,0.000336,0.0121454999999999,1.0793825,-0.000336,-0.0121455,0.8913635,-0.46275,0.0708874999999999,1.1375735,-0.46668,0.0039824999999999,0.8832635000000001,-0.82235,0.1046575,1.1752935,-0.82398,0.0424245
62,1.0168035,0.7279025,0.0810734999999999,0.8429225,0.5260525,0.0619125,0.7358325,0.7447025,-0.0473675,1.1673425,0.5390025,0.0172415,1.2320625,0.7568925,-0.1126175,0.7413025,0.9689825,-0.1249975,1.1886325,1.0059025,-0.1822075,0.9206095,0.0003175,0.0120725,1.0793905,-0.0003175,-0.0120725,0.8913225,-0.4628075,0.0707484999999999,1.1375825,-0.4666675,0.0039555,0.8832225,-0.8221975,0.1042895,1.1752625,-0.8239975,0.0421195
63,1.0166615,0.7278330000000001,0.081289,0.8428635000000001,0.526023,0.061993,0.7343535,0.7432230000000001,-0.0465139999999999,1.1669835,0.538953,0.017447,1.2329935,0.756383,-0.112051,0.7398534999999999,0.969033,-0.124151,1.1890635,1.005403,-0.181171,0.9205945000000001,0.000279,0.012007,1.0794055,-0.000279,-0.0120069999999999,0.8913135000000001,-0.462867,0.070646,1.1376135,-0.466637,0.003928,0.8832135000000001,-0.8220069999999999,0.1039269999999999,1.1752735,-0.823947,0.041813
64,1.016508,0.7277795,0.0815615,0.842778,0.5259895,0.0620625,0.7328479999999999,0.7416495,-0.0456775,1.166658,0.5388995,0.0176715,1.234108,0.7558195,-0.1114314999999999,0.738248,0.9690795,-0.1232814999999999,1.1900579999999998,1.0049195,-0.1801414999999999,0.920577,0.0002455,0.0119385,1.079423,-0.0002454999999999,-0.0119384999999999,0.891358,-0.4629205,0.0705695,1.137658,-0.4666105,0.0039145,0.883238,-0.8218405,0.1035794999999999,1.175318,-0.8238705,0.0415045
65,1.0162935,0.7276065,0.081927,0.8427005000000001,0.5259765,0.062139,0.7314305,0.7400865,-0.04484,1.1663805,0.5387965,0.018026,1.2352705,0.7552865,-0.110917,0.7365405,0.9691265,-0.122427,1.1915905,1.0043665,-0.179147,0.9205605,0.0002145,0.011869,1.0794394999999999,-0.0002145,-0.0118689999999999,0.8914205,-0.4629535,0.070507,1.1377505,-0.4665735,0.003894,0.8833105,-0.8216435,0.103277,1.1754105,-0.8237535,0.041236
66,1.0160535,0.727429,0.082401,0.8426255,0.525979,0.062234,0.7300154999999999,0.738539,-0.043971,1.1661154999999999,0.538679,0.018482,1.2365054999999998,0.7547689999999999,-0.110323,0.7348255,0.969289,-0.1216329999999999,1.1932955,1.004049,-0.178053,0.9205435,0.000183,0.01177,1.0794565,-0.000183,-0.01177,0.8915255,-0.462981,0.070471,1.1378355,-0.466541,0.00392,0.8833855,-0.8214210000000001,0.1030109999999999,1.1755155,-0.8235910000000001,0.041002
67,1.015812,0.727264,0.082915,0.842526,0.525974,0.062359,0.728696,0.737364,-0.043264,1.166036,0.538554,0.018914,1.237776,0.754304,-0.109707,0.733166,0.969404,-0.120967,1.195046,1.003744,-0.177107,0.920519,0.000156,0.011683,1.079481,-0.0001559999999999,-0.0116829999999999,0.891656,-0.4629959999999999,0.070439,1.137936,-0.466506,0.003938,0.8834960000000001,-0.821176,0.102778,1.175646,-0.823356,0.040761
68,1.0155284999999998,0.7271715,0.083507,0.8423835,0.5259715,0.062558,0.7274035,0.7362915,-0.042675,1.1660435,0.5384015,0.0192959999999999,1.2390534999999998,0.7539414999999999,-0.1091669999999999,0.7316035000000001,0.9696015,-0.120667,1.1967735,1.0036615,-0.176247,0.9205035,0.0001464999999999,0.0116069999999999,1.0794965,-0.0001464999999999,-0.011607,0.8918035,-0.4629985,0.070389,1.1380735,-0.4664785,0.0039469999999999,0.8836235,-0.8208885,0.1025,1.1757834999999999,-0.8230785,0.040498
69,1.0152195,0.7270285,0.084117,0.8422415,0.5260085,0.062641,0.7262715,0.7354385,-0.042228,1.1660815,0.5382385,0.019614,1.2402115,0.7537885,-0.108725,0.7300815,0.9698385,-0.120435,1.1983715,1.0035885,-0.175505,0.9204805000000001,0.0001394999999999,0.01153,1.0795195,-0.0001395,-0.01153,0.8919715,-0.4630015,0.070378,1.1382115,-0.4664615,0.003977,0.8837115000000001,-0.8205615,0.102211,1.1759315,-0.8227615,0.040276
70,1.0148945,0.7268035,0.08472,0.8421095000000001,0.5260235000000001,0.06273,0.7253795000000001,0.7348635,-0.041887,1.1661394999999999,0.5380435,0.01993,1.2413195,0.7536135,-0.108245,0.7288995,0.9700935,-0.120225,1.1998195,1.0035735,-0.174845,0.9204595,0.0001255,0.01146,1.0795405,-0.0001254999999999,-0.0114599999999999,0.8921395,-0.4629965,0.070379,1.1383495,-0.4664265,0.003947,0.8838095,-0.8202765,0.1019289999999999,1.1760895,-0.8224965,0.04007
71,1.0145615,0.7265325,0.0853744999999999,0.8420015000000001,0.5260025,0.0628445,0.7246315,0.7342425,-0.0414925,1.1661915,0.5379925,0.0202315,1.2422615,0.7534625,-0.1077775,0.7277215,0.9693325,-0.1200175,1.2010715,1.0037925,-0.1743075,0.9204375,0.0001085,0.0114274999999999,1.0795625,-0.0001085,-0.0114275,0.8922915,-0.4630075,0.0703935,1.1384915,-0.4663875,0.0039434999999999,0.8839115,-0.8200575,0.1016975,1.1762315,-0.8222875,0.0399254999999999
72,1.014235,0.7262985,0.0859995,0.841906,0.5260285,0.0629095,0.724136,0.7339785,-0.0411885,1.1662460000000001,0.5379185,0.0205505,1.242826,0.7535185,-0.1074305,0.7269760000000001,0.9686185,-0.1199404999999999,1.201906,1.0039685,-0.1740304999999999,0.920425,0.0001064999999999,0.0113864999999999,1.079575,-0.0001065,-0.0113865,0.892416,-0.4630114999999999,0.0703665,1.138606,-0.4663215,0.0039464999999999,0.8839859999999999,-0.8199315,0.1015175,1.176356,-0.8221115,0.0397904999999999
73,1.0139479999999998,0.7260615,0.086542,0.841711,0.5260615000000001,0.063012,0.7237210000000001,0.7337915,-0.0409039999999999,1.1663009999999998,0.5378015,0.0209169999999999,1.243231,0.7536815,-0.107218,0.7264010000000001,0.9681415,-0.119938,1.202651,1.0041415,-0.173918,0.920408,0.0001025,0.01134,1.0795919999999999,-0.0001024999999999,-0.01134,0.8925609999999999,-0.4630285,0.070313,1.138741,-0.4662585,0.0039039999999999,0.884071,-0.8198084999999999,0.101318,1.176501,-0.8217384999999999,0.0397039999999999
74,1.013755,0.7259950000000001,0.08694,0.841537,0.526085,0.063083,0.723287,0.733615,-0.0406579999999999,1.1663569999999999,0.5377350000000001,0.021151,1.243597,0.753765,-0.1070519999999999,0.725937,0.968055,-0.1200119999999999,1.202897,1.0038049999999998,-0.1741019999999999,0.920396,9.299999999999975e-05,0.011295,1.079604,-9.30000000000002e-05,-0.011295,0.892697,-0.463045,0.070223,1.138867,-0.466175,0.003827,0.884167,-0.819695,0.101083,1.176647,-0.821445,0.039561
75,1.013589,0.7259960000000001,0.087233,0.841351,0.526116,0.063137,0.7228410000000001,0.7334160000000001,-0.040462,1.166421,0.537706,0.021297,1.2438609999999999,0.7538560000000001,-0.107008,0.725511,0.968206,-0.120098,1.203091,1.003356,-0.174308,0.920384,8.099999999999991e-05,0.011247,1.079616,-8.099999999999991e-05,-0.011247,0.892801,-0.463074,0.070102,1.1389610000000001,-0.466084,0.00372,0.884251,-0.819604,0.100835,1.176801,-0.821214,0.039389
76,1.0134409999999998,0.7260025000000001,0.087506,0.841145,0.5261125000000001,0.063228,0.722335,0.7331025000000001,-0.040225,1.166485,0.5376825000000001,0.0214219999999999,1.244085,0.7539325,-0.106991,0.725115,0.9683425,-0.120231,1.203275,1.0026725,-0.174511,0.920382,7.350000000000021e-05,0.0111999999999999,1.079618,-7.349999999999978e-05,-0.0112,0.892875,-0.4631075,0.0699829999999999,1.139035,-0.4659775,0.0035939999999999,0.884325,-0.8194975,0.100576,1.176935,-0.8209474999999999,0.0392089999999999
77,1.013359,0.7260305,0.0876625,0.8410000000000001,0.5261305000000001,0.0632244999999999,0.72191,0.7328105,-0.0400895,1.16663,0.5376405000000001,0.0214894999999999,1.24426,0.7539705,-0.1070695,0.7247399999999999,0.9684505,-0.1203395,1.2037499999999999,1.0025805,-0.1748895,0.9203790000000001,6.950000000000012e-05,0.0111565,1.079621,-6.950000000000012e-05,-0.0111565,0.89291,-0.4631194999999999,0.0698675,1.1391,-0.4658494999999999,0.0034734999999999,0.8843799999999999,-0.8193794999999999,0.1003215,1.17708,-0.8207295,0.0390085
78,1.0133225,0.726108,0.087779,0.8407935,0.526078,0.06336,0.7215535,0.732558,-0.0400229999999999,1.1667635,0.5375880000000001,0.021532,1.2444735,0.753958,-0.1071629999999999,0.7243535,0.968568,-0.120503,1.2044535,1.001768,-0.175453,0.9203865,6.799999999999992e-05,0.0111339999999999,1.0796135,-6.799999999999992e-05,-0.0111339999999999,0.8929435,-0.463142,0.0697329999999999,1.1391434999999999,-0.465732,0.0033679999999999,0.8844535,-0.8192619999999999,0.10008,1.1772135,-0.820522,0.038793
79,1.013358,0.726203,0.087929,0.840615,0.526023,0.063465,0.721225,0.732323,-0.039962,1.166905,0.537563,0.021573,1.244725,0.753893,-0.1072539999999999,0.723955,0.968713,-0.120694,1.205165,1.000843,-0.176084,0.920393,6.900000000000005e-05,0.011104,1.079607,-6.900000000000005e-05,-0.0111039999999999,0.892985,-0.463167,0.069611,1.139185,-0.465617,0.003238,0.884545,-0.819147,0.099828,1.177355,-0.820307,0.038544
80,1.0133945,0.7263170000000001,0.0880519999999999,0.8404345,0.525977,0.06358,0.7209145,0.732137,-0.0399239999999999,1.1670845,0.537517,0.0215829999999999,1.2449745,0.753777,-0.107363,0.7235945000000001,0.968967,-0.120883,1.2059845,0.999477,-0.176703,0.9203985000000001,7.099999999999988e-05,0.011078,1.0796014999999999,-7.099999999999988e-05,-0.0110779999999999,0.8930145,-0.463173,0.069504,1.1392045,-0.465493,0.003105,0.8846445000000001,-0.818993,0.099589,1.1774445,-0.8201029999999999,0.038335
81,1.0134744999999998,0.7264345000000001,0.0880634999999999,0.8402735,0.5259245,0.0636605,0.7206735,0.7319545000000001,-0.0399265,1.1672935,0.5374845,0.0215435,1.2452635,0.7535945000000001,-0.1074934999999999,0.7232835,0.9692645,-0.1211135,1.2068135,0.9978445,-0.1773335,0.9204035,7.849999999999958e-05,0.0110674999999999,1.0795965,-7.850000000000044e-05,-0.0110675,0.8930435,-0.4631855,0.0693825,1.1392335,-0.4652955,0.0029494999999999,0.8847635,-0.8188455,0.0993555,1.1775535,-0.8199154999999999,0.0381085
82,1.013544,0.7265655,0.0880615,0.84022,0.5258755,0.0637055,0.72044,0.7317955,-0.0399485,1.1674699999999998,0.5374955,0.0214515,1.2455399999999999,0.7533455,-0.1076025,0.723,0.9696055,-0.1213325,1.20764,0.9962255,-0.1779224999999999,0.920411,9.049999999999944e-05,0.0110625,1.079589,-9.05000000000003e-05,-0.0110625,0.8930500000000001,-0.4631845,0.0692995,1.13922,-0.4651045,0.0028245,0.88483,-0.8187045,0.0991455,1.17763,-0.8197544999999999,0.0379315
83,1.013621,0.7267935,0.088083,0.8401360000000001,0.5257934999999999,0.0638249999999999,0.720236,0.7316634999999999,-0.0399659999999999,1.167696,0.5374734999999999,0.021375,1.245826,0.7530034999999999,-0.107653,0.722696,0.9700735,-0.121533,1.208566,0.9944935,-0.178493,0.92041,0.0001045,0.01106,1.07959,-0.0001044999999999,-0.01106,0.893046,-0.4631765,0.069278,1.139166,-0.4647865,0.0027329999999999,0.8848860000000001,-0.8186065,0.098973,1.177696,-0.8196565,0.037795
84,1.013683,0.727035,0.0880775,0.840071,0.525695,0.0639484999999999,0.720071,0.7315550000000001,-0.0399815,1.167921,0.537435,0.0213055,1.246101,0.752615,-0.1077125,0.722411,0.970545,-0.1217525,1.209511,0.992695,-0.1790824999999999,0.9204060000000001,0.000117,0.0110535,1.079594,-0.0001169999999999,-0.0110535,0.893041,-0.463165,0.0692605,1.139101,-0.464515,0.0026545,0.884941,-0.818485,0.0988335,1.177731,-0.819605,0.0376845
85,1.013736,0.727259,0.088033,0.840046,0.5256489999999999,0.064007,0.719976,0.731549,-0.040061,1.168196,0.537349,0.021188,1.246376,0.752209,-0.107774,0.722166,0.970999,-0.121964,1.210466,0.990899,-0.179644,0.920397,0.0001299999999999,0.01104,1.079603,-0.0001299999999999,-0.01104,0.893066,-0.4631409999999999,0.069241,1.139036,-0.464261,0.002579,0.884986,-0.818391,0.098703,1.177776,-0.819551,0.03757
86,1.013785,0.7274665,0.087963,0.8400260000000002,0.5255765,0.064078,0.7199059999999999,0.7315165,-0.0401639999999999,1.168466,0.5372765,0.021061,1.246596,0.7518765,-0.1078959999999999,0.721986,0.9712065,-0.1221059999999999,1.211106,0.9899465,-0.179956,0.920383,0.0001354999999999,0.011044,1.079617,-0.0001355,-0.011044,0.893096,-0.4631335,0.069246,1.138986,-0.4640235,0.002526,0.885046,-0.8183035,0.098593,1.177816,-0.8195235,0.037452
87,1.0138405,0.727694,0.0878805,0.8400535,0.5255639999999999,0.0640025,0.7198435000000001,0.731474,-0.0402535,1.1687135,0.5372039999999999,0.0209164999999999,1.2467735,0.751594,-0.1080115,0.7218235,0.971264,-0.1222215,1.2114835,0.989424,-0.1801915,0.9203645,0.0001429999999999,0.0110285,1.0796355,-0.0001429999999999,-0.0110285,0.8931335,-0.463106,0.0692745,1.1389235,-0.4638359999999999,0.0024694999999999,0.8851135,-0.818216,0.0985215,1.1778534999999999,-0.819516,0.0373825
88,1.0139129999999998,0.7279285000000001,0.0877935,0.84007,0.5255585,0.0639425,0.7198,0.7314585,-0.0403204999999999,1.16898,0.5371285,0.0207965,1.24691,0.7513485000000001,-0.1081185,0.7217,0.9712985,-0.1223084999999999,1.21183,0.9888885,-0.1803985,0.920349,0.0001504999999999,0.0110204999999999,1.079651,-0.0001505,-0.0110204999999999,0.89315,-0.4630815,0.0692985,1.13886,-0.4636415,0.0024325,0.88518,-0.8181415,0.0985005,1.17783,-0.8195914999999999,0.0373675
89,1.0140069999999999,0.7281775,0.0877075,0.8400799999999999,0.5255575,0.0638735,0.71976,0.7314675,-0.0403855,1.16914,0.5370475,0.0206985,1.2470299999999999,0.7511175,-0.1082004999999999,0.7216,0.9713175,-0.1224005,1.21213,0.9883675,-0.1805605,0.920336,0.0001554999999999,0.0110125,1.079664,-0.0001555,-0.0110125,0.89318,-0.4630625,0.0693215,1.13878,-0.4634625,0.0023985,0.88523,-0.8180425,0.0985035,1.17783,-0.8196625,0.0373535
90,1.014101,0.7284355,0.0876435,0.840082,0.5255555000000001,0.0638255,0.7197020000000001,0.7314755000000001,-0.0404585,1.169322,0.5369855,0.0205855,1.247112,0.7509155000000001,-0.1082685,0.721492,0.9713855,-0.1224885,1.212442,0.9881955,-0.1806885,0.920323,0.0001605,0.0109865,1.079677,-0.0001605,-0.0109864999999999,0.893192,-0.4630545,0.0693665,1.1387019999999999,-0.4633345,0.0024165,0.885262,-0.8179544999999999,0.0985315,1.177782,-0.8196144999999999,0.0373045
91,1.0141785,0.7286819999999999,0.087487,0.8400855,0.525562,0.063772,0.7196255,0.7314919999999999,-0.0405839999999999,1.1694355,0.536902,0.020415,1.2472055,0.750702,-0.108427,0.7213655,0.971472,-0.122627,1.2127355,0.988042,-0.1809569999999999,0.9203125,0.0001619999999999,0.010959,1.0796875,-0.0001619999999999,-0.0109589999999999,0.8931955,-0.463048,0.069404,1.1386355,-0.463218,0.002447,0.8852755,-0.817878,0.098562,1.1777455,-0.819608,0.03728
92,1.0142669999999998,0.7288565,0.087278,0.840094,0.5255665,0.063703,0.719534,0.7314765,-0.040742,1.1695039999999999,0.5368665,0.0202369999999999,1.247274,0.7505365,-0.108634,0.7212339999999999,0.9715865,-0.122814,1.212934,0.9877265,-0.181224,0.920307,0.0001605,0.0109649999999999,1.079693,-0.0001605,-0.0109649999999999,0.893194,-0.4629335,0.069412,1.138604,-0.4632135,0.00246,0.885284,-0.8178035,0.098538,1.177714,-0.8196635,0.037237
93,1.0143214999999999,0.7290139999999999,0.086995,0.8401125,0.525574,0.063627,0.7194324999999999,0.7314839999999999,-0.040932,1.1695925,0.536824,0.020016,1.2473325,0.7503639999999999,-0.108926,0.7210425,0.971754,-0.123196,1.2131125,0.987424,-0.181556,0.9203034999999999,0.0001559999999999,0.010987,1.0796965,-0.0001559999999999,-0.010987,0.8931925000000001,-0.462916,0.069432,1.1385725,-0.463206,0.0025029999999999,0.8852825,-0.817636,0.098489,1.1776625,-0.819716,0.037197
94,1.014403,0.7291305,0.086695,0.8401320000000001,0.5255805,0.063522,0.719322,0.7314904999999999,-0.041134,1.169712,0.5368005,0.0197599999999999,1.247392,0.7501705,-0.109229,0.7208319999999999,0.9718605,-0.123609,1.213272,0.9871705,-0.181989,0.9203020000000001,0.0001524999999999,0.0110119999999999,1.0796979999999998,-0.0001525,-0.011012,0.893202,-0.4629095,0.0694519999999999,1.138562,-0.4631995,0.0025469999999999,0.885292,-0.8174795,0.098434,1.177632,-0.8197795,0.037166
95,1.0144625,0.729211,0.0863599999999999,0.8401645,0.525621,0.063373,0.7192145,0.731511,-0.041345,1.1697845,0.5367810000000001,0.019499,1.2474445,0.749961,-0.1096319999999999,0.7205845,0.972001,-0.1240419999999999,1.2134145,0.986941,-0.1825419999999999,0.9203025,0.0001499999999999,0.011037,1.0796975,-0.00015,-0.0110369999999999,0.8931945,-0.462899,0.069475,1.1385545,-0.463219,0.002588,0.8852945,-0.817329,0.098373,1.1776245,-0.819809,0.037136
96,1.0145075,0.729281,0.086037,0.8401855,0.525681,0.063224,0.7190655,0.731561,-0.041587,1.1698955,0.5367609999999999,0.019223,1.2475055,0.749761,-0.110043,0.7203255,0.972181,-0.124533,1.2135055,0.986701,-0.183163,0.9203015,0.0001479999999999,0.0110689999999999,1.0796985000000001,-0.0001479999999999,-0.0110689999999999,0.8931855,-0.462889,0.069558,1.1385455,-0.4632489999999999,0.002647,0.8852855,-0.817179,0.098318,1.1776255,-0.819859,0.037105
97,1.014532,0.7293390000000001,0.085683,0.8401990000000001,0.525749,0.063078,0.718859,0.7316290000000001,-0.041843,1.169939,0.5367390000000001,0.01888,1.247539,0.749649,-0.110538,0.719959,0.972489,-0.125088,1.2135690000000001,0.986519,-0.183818,0.920295,0.0001429999999999,0.011095,1.079705,-0.0001429999999999,-0.011095,0.893179,-0.462881,0.069627,1.1385589999999999,-0.463281,0.00272,0.885279,-0.817021,0.09826,1.1776289999999998,-0.8198409999999999,0.037047
98,1.0145275,0.7294014999999999,0.0853469999999999,0.8402075,0.5258115,0.062944,0.7186475,0.7317414999999999,-0.042056,1.1699575,0.5367115,0.018547,1.2475575,0.7495615,-0.111006,0.7195475,0.9728515,-0.125656,1.2135875,0.9863615,-0.184506,0.9202885,0.0001384999999999,0.011119,1.0797115,-0.0001385,-0.011119,0.8931575,-0.4628684999999999,0.069696,1.1385675,-0.4632985,0.0028039999999999,0.8852575,-0.8169085,0.098204,1.1776275,-0.8198485000000001,0.036984
99,1.014485,0.7294244999999999,0.0850195,0.8402010000000001,0.5258744999999999,0.0628215,0.7184010000000001,0.7318545,-0.0422935,1.1699410000000001,0.5366845,0.0182455,1.247571,0.7495145,-0.1114895,0.719121,0.9732745,-0.1261995,1.213551,0.9862345,-0.1852194999999999,0.92028,0.0001345,0.0111415,1.07972,-0.0001345,-0.0111414999999999,0.8931610000000001,-0.4628555,0.0697675,1.138571,-0.4633055,0.0028685,0.885241,-0.8167855,0.0981465,1.177641,-0.8198355,0.0369445
100,1.0144395,0.7294885,0.0846715,0.8401945,0.5259385,0.0627065,0.7181445,0.7319785,-0.0425365,1.1699145,0.5366584999999999,0.0179345,1.2475545000000001,0.7494985,-0.1119735,0.7186745,0.9736685,-0.1266835,1.2134845,0.9861185,-0.1858834999999999,0.9202725,0.0001304999999999,0.0111654999999999,1.0797275,-0.0001305,-0.0111655,0.8931445000000001,-0.4628515,0.0698295,1.1385844999999999,-0.4633115,0.0029145,0.8852145000000001,-0.8166715,0.0980935,1.1776345,-0.8197815,0.0369245
101,1.014402,0.729522,0.0843775,0.840207,0.525992,0.0626235,0.717877,0.732062,-0.0427295,1.169917,0.5366420000000001,0.0176495,1.247507,0.749522,-0.1124015,0.718207,0.974072,-0.1270915,1.213397,0.986042,-0.1864915,0.920262,0.0001279999999999,0.0111665,1.079738,-0.0001279999999999,-0.0111665,0.8931370000000001,-0.462848,0.0699065,1.138607,-0.463318,0.0029735,0.8851970000000001,-0.816558,0.0980694999999999,1.177657,-0.819738,0.0368885
102,1.014363,0.7295785,0.084118,0.8402229999999999,0.5260685,0.062569,0.7175929999999999,0.7321485000000001,-0.0429219999999999,1.169903,0.5366185,0.017417,1.247463,0.7495585,-0.1128299999999999,0.717723,0.9743485,-0.1273099999999999,1.213323,0.9859985,-0.18713,0.920253,0.0001275,0.011169,1.079747,-0.0001275,-0.0111689999999999,0.893153,-0.4628515,0.070015,1.138633,-0.4632815,0.003035,0.885213,-0.8165215,0.0980439999999999,1.177693,-0.8196515,0.036844
103,1.0142915,0.7296320000000001,0.0838405,0.8402395,0.526112,0.0625235,0.7172995,0.7322420000000001,-0.0431025,1.1699195,0.536602,0.0172275,1.2474295,0.7496120000000001,-0.1132555,0.7171995,0.974592,-0.1274855,1.2132595,0.986022,-0.1876755,0.9202435,0.0001229999999999,0.0111764999999999,1.0797565,-0.0001229999999999,-0.0111764999999999,0.8931895,-0.462848,0.0701664999999999,1.1386494999999999,-0.463238,0.0030404999999999,0.8852195,-0.816478,0.0980035,1.1777294999999999,-0.819558,0.0368174999999999
104,1.0141925,0.7297155,0.0835839999999999,0.8402505,0.5261555,0.062484,0.7170105,0.7323155,-0.0432769999999999,1.1699205,0.5365854999999999,0.017044,1.2473904999999998,0.7497055,-0.11367,0.7166805,0.9748455,-0.12762,1.2132005,0.9860655,-0.18817,0.9202345000000001,0.0001145,0.011185,1.0797655,-0.0001145,-0.011185,0.8932205,-0.4629645,0.070335,1.1386805,-0.4631845,0.003053,0.8852305,-0.8164345000000001,0.097976,1.1777505,-0.8194145,0.036777
105,1.0140725,0.729729,0.0833505,0.8402505,0.526199,0.0624465,0.7167505000000001,0.732379,-0.0434244999999999,1.1699005,0.536569,0.0168695,1.2473305,0.7498589999999999,-0.1140545,0.7161605,0.975059,-0.1277045,1.2131305000000001,0.986109,-0.1885445,0.9202235,0.0001069999999999,0.0111875,1.0797765,-0.000107,-0.0111875,0.8932605,-0.4629609999999999,0.0704155,1.1386905,-0.463091,0.0030645,0.8852305,-0.816381,0.0979565,1.1778305,-0.8193710000000001,0.0367655
106,1.013918,0.7298,0.083181,0.840138,0.5262100000000001,0.0624409999999999,0.716548,0.7324200000000001,-0.043536,1.169858,0.5365500000000001,0.0167879999999999,1.247268,0.75004,-0.114348,0.7157279999999999,0.97516,-0.127718,1.212998,0.98615,-0.188908,0.9202170000000001,9.699999999999986e-05,0.0111939999999999,1.079783,-9.699999999999986e-05,-0.011194,0.8932980000000001,-0.46295,0.070493,1.138668,-0.46292,0.0030819999999999,0.885238,-0.81633,0.0979549999999999,1.177898,-0.81933,0.036761
107,1.013733,0.729877,0.083034,0.8400259999999999,0.526227,0.062434,0.7163460000000001,0.7324670000000001,-0.043652,1.169806,0.5365070000000001,0.016709,1.247226,0.750267,-0.114598,0.715326,0.975207,-0.127708,1.2128459999999999,0.986227,-0.189208,0.92021,8.700000000000027e-05,0.011198,1.07979,-8.700000000000027e-05,-0.011198,0.8933260000000001,-0.462903,0.0704849999999999,1.138646,-0.462743,0.003093,0.8852360000000001,-0.816283,0.097994,1.177976,-0.8192929999999999,0.036745
108,1.013542,0.729951,0.082902,0.8399340000000001,0.5262410000000001,0.062433,0.7162040000000001,0.7325210000000001,-0.0437059999999999,1.1697440000000001,0.5364610000000001,0.016634,1.247184,0.750491,-0.1148159999999999,0.714944,0.975261,-0.127716,1.212704,0.986371,-0.189446,0.9202,7.900000000000008e-05,0.0112,1.0798,-7.900000000000008e-05,-0.0112,0.893364,-0.462849,0.070478,1.138634,-0.462529,0.003102,0.885254,-0.816229,0.098037,1.1780439999999999,-0.819249,0.036732
109,1.0133459999999999,0.7300865000000001,0.0827765,0.839832,0.5262465000000001,0.0624275,0.716072,0.7325565,-0.0437425,1.169672,0.5364165000000001,0.0165505,1.247152,0.7506965,-0.1149994999999999,0.714612,0.9753165,-0.1277295,1.212572,0.9865265,-0.1896695,0.9201920000000001,7.049999999999938e-05,0.0112075,1.0798079999999999,-7.050000000000025e-05,-0.0112075,0.893402,-0.4627935,0.0704704999999999,1.138622,-0.4623135,0.0031065,0.8852720000000001,-0.8161634999999999,0.0980745,1.1781220000000001,-0.8192134999999999,0.0367305
110,1.0131564999999998,0.7302209999999999,0.0826565,0.8397455,0.526261,0.0624124999999999,0.7159655,0.732571,-0.0437725,1.1695455,0.536311,0.0164675,1.2471055,0.750921,-0.1152245,0.7142955,0.975251,-0.1277345,1.2124154999999999,0.986681,-0.1899245,0.9201775000000001,6.299999999999969e-05,0.0112144999999999,1.0798225,-6.300000000000056e-05,-0.0112144999999999,0.8934455,-0.462639,0.0704835,1.1386055,-0.462149,0.0031125,0.8852955,-0.816069,0.0981065,1.1781955,-0.819149,0.0367225
111,1.0130309999999998,0.730311,0.082594,0.839654,0.526251,0.0624129999999999,0.715884,0.7325210000000001,-0.0437619999999999,1.169424,0.536231,0.0163859999999999,1.2470539999999999,0.751171,-0.115392,0.713994,0.975151,-0.127732,1.212294,0.986791,-0.190072,0.920166,5.499999999999949e-05,0.0112249999999999,1.079834,-5.500000000000036e-05,-0.0112249999999999,0.893474,-0.462459,0.070487,1.1385939999999999,-0.462019,0.0031139999999999,0.885304,-0.8159789999999999,0.098146,1.178264,-0.8190989999999999,0.036722
112,1.012935,0.7303854999999999,0.082562,0.839557,0.5262454999999999,0.062416,0.715797,0.7324255,-0.0437469999999999,1.169287,0.5361655,0.0163099999999999,1.246997,0.7513555,-0.115567,0.7137169999999999,0.9750055,-0.127717,1.212177,0.9868955,-0.190217,0.920158,4.950000000000007e-05,0.011238,1.079842,-4.950000000000007e-05,-0.011238,0.893507,-0.4622845,0.070488,1.138577,-0.4618945,0.003127,0.885337,-0.8158945000000001,0.098165,1.178307,-0.8191045,0.036742
113,1.0128484999999998,0.7304889999999999,0.0825299999999999,0.8394725000000001,0.5262589999999999,0.062414,0.7157225,0.732339,-0.043731,1.1692025,0.536149,0.0162309999999999,1.2469724999999998,0.7514689999999999,-0.115707,0.7134225000000001,0.974869,-0.127707,1.2120725,0.987029,-0.1903969999999999,0.9201375,3.600000000000044e-05,0.0112609999999999,1.0798625,-3.5999999999999574e-05,-0.011261,0.8935525,-0.462151,0.0705409999999999,1.1385825,-0.461741,0.0031349999999999,0.8853825,-0.815771,0.0981769999999999,1.1783425,-0.819141,0.0367659999999999
114,1.012803,0.730625,0.082478,0.83934,0.526215,0.062429,0.71565,0.732235,-0.043715,1.1691099999999999,0.536135,0.0161569999999999,1.24697,0.751585,-0.115874,0.71314,0.974715,-0.127694,1.21199,0.987155,-0.1905939999999999,0.920118,2.000000000000005e-05,0.0112729999999999,1.079882,-2.000000000000005e-05,-0.0112729999999999,0.89359,-0.462085,0.070556,1.13861,-0.461645,0.0031239999999999,0.8854500000000001,-0.815685,0.0981799999999999,1.17838,-0.819175,0.036777
115,1.012761,0.730758,0.0824189999999999,0.839317,0.5262180000000001,0.062418,0.715597,0.732128,-0.043701,1.169007,0.5361180000000001,0.0160879999999999,1.246957,0.751688,-0.1160439999999999,0.712877,0.974598,-0.127694,1.211957,0.987248,-0.190744,0.920099,7.000000000000062e-06,0.0112869999999999,1.079901,-7.000000000000062e-06,-0.0112869999999999,0.893617,-0.462022,0.070533,1.138677,-0.461562,0.0031239999999999,0.885517,-0.815572,0.0981779999999999,1.178447,-0.819272,0.036777
116,1.0127785,0.7308264999999999,0.082342,0.8392935,0.5262064999999999,0.062408,0.7155335,0.7320165,-0.04369,1.1689734999999999,0.5361765,0.016016,1.2469435,0.7517665,-0.1162119999999999,0.7126135,0.9744465,-0.127692,1.2119335,0.9873265,-0.1908919999999999,0.9200835,-4.500000000000164e-06,0.011301,1.0799165,4.500000000000164e-06,-0.0113009999999999,0.8936335,-0.4619735,0.070504,1.1387334999999998,-0.4614935,0.003125,0.8855635,-0.8154635,0.098161,1.1785035,-0.8194535000000001,0.03678
117,1.0128009999999998,0.730868,0.082244,0.839257,0.526188,0.06243,0.7154770000000001,0.731928,-0.0436839999999999,1.168987,0.536238,0.0158929999999999,1.246907,0.751848,-0.1164139999999999,0.7123470000000001,0.974268,-0.127694,1.211877,0.987428,-0.191084,0.9200699999999999,-2.200000000000032e-05,0.011309,1.07993,2.199999999999945e-05,-0.011309,0.893627,-0.461922,0.070486,1.138777,-0.461442,0.003123,0.8856269999999999,-0.815402,0.09813,1.178537,-0.819582,0.036778
118,1.0128279999999998,0.7308475,0.082159,0.83921,0.5261775,0.062433,0.71542,0.7318475,-0.043685,1.16901,0.5362975,0.015796,1.24689,0.7519775,-0.116589,0.7121,0.9740875,-0.127699,1.2118399999999998,0.9875375,-0.191269,0.920055,-3.849999999999947e-05,0.011314,1.079945,3.850000000000034e-05,-0.0113139999999999,0.89363,-0.4618925,0.070476,1.13882,-0.4614825,0.003136,0.88571,-0.8153425,0.098118,1.17855,-0.8197125,0.036761
119,1.0128549999999998,0.730884,0.0820985,0.839167,0.526144,0.0624415,0.715367,0.731814,-0.0436715,1.1690369999999999,0.536354,0.0157054999999999,1.246887,0.752084,-0.1167145,0.711917,0.974024,-0.1276745,1.211817,0.987594,-0.1914445,0.920044,-5.400000000000023e-05,0.0113195,1.079956,5.400000000000023e-05,-0.0113195,0.893637,-0.461856,0.0704775,1.1388569999999998,-0.461576,0.0031494999999999,0.8857770000000001,-0.815296,0.0980854999999999,1.178547,-0.819856,0.0367445
120,1.0128785,0.7309685,0.082048,0.8390955,0.5261085,0.0624389999999999,0.7153255000000001,0.7318385,-0.043669,1.1690555,0.5364085,0.015609,1.2468855,0.7521885,-0.116814,0.7117655,0.9739785,-0.127664,1.2117655,0.9876585,-0.191624,0.9200335,-6.550000000000045e-05,0.011336,1.0799665,6.549999999999959e-05,-0.011336,0.8936255,-0.4618215,0.070464,1.1388955,-0.4616715,0.00315,0.8858155,-0.8153515,0.098027,1.1785255000000001,-0.8200215,0.036738
121,1.0129095,0.7309905,0.081981,0.8390385000000001,0.5260805000000001,0.0624389999999999,0.7152985000000001,0.7318705,-0.043666,1.1690885,0.5364505,0.01551,1.2468985,0.7522705000000001,-0.116917,0.7116685,0.9739505,-0.127657,1.2117185,0.9877105,-0.191797,0.9200235,-7.649999999999931e-05,0.011355,1.0799765,7.650000000000018e-05,-0.011355,0.8936285,-0.4617894999999999,0.070446,1.1389385,-0.4617795,0.0031489999999999,0.8858685,-0.8154595,0.097965,1.1785085,-0.8201295,0.0367399999999999
122,1.0129314999999999,0.7309805,0.081904,0.8389605,0.5260305000000001,0.0624509999999999,0.7152704999999999,0.7318705,-0.0436789999999999,1.1691705,0.5365405,0.01539,1.2468805,0.7523405000000001,-0.117011,0.7116205,0.9738805,-0.127671,1.2116605,0.9877105,-0.191921,0.9200295000000001,-7.649999999999931e-05,0.01138,1.0799705,7.650000000000018e-05,-0.0113799999999999,0.8936205,-0.4619795,0.070497,1.1389605,-0.4618394999999999,0.003144,0.8858905,-0.8155595,0.097925,1.1784605,-0.8201895,0.036726
123,1.012973,0.7309805,0.081837,0.8389350000000001,0.5260305000000001,0.0624339999999999,0.7152350000000001,0.7318705,-0.043689,1.169255,0.5366205000000001,0.015247,1.246855,0.7523705,-0.11712,0.711585,0.9738705,-0.12766,1.211615,0.9876905,-0.19204,0.920033,-7.649999999999931e-05,0.0114069999999999,1.079967,7.650000000000018e-05,-0.011407,0.8936050000000001,-0.4621895,0.07053,1.138985,-0.4619095,0.003133,0.885885,-0.8156395,0.097866,1.178405,-0.8202395,0.036676
124,1.0130355,0.7309005000000001,0.0817705,0.8389025,0.5260305000000001,0.0624255,0.7151925,0.7318805,-0.0436885,1.1693525,0.5366905000000001,0.0151455,1.2468124999999999,0.7523805,-0.1172055,0.7115625,0.9738705,-0.1276255,1.2115825,0.9876605,-0.1921455,0.9200365000000001,-7.649999999999931e-05,0.0114294999999999,1.0799634999999999,7.650000000000018e-05,-0.0114295,0.8935925,-0.4623494999999999,0.0705875,1.1390125,-0.4620094999999999,0.0031265,0.8858825,-0.8156995,0.0978105,1.1784025,-0.8202395,0.0366395
125,1.0131165,0.730825,0.081701,0.8388815000000001,0.526015,0.062437,0.7151615,0.7319049999999999,-0.0436769999999999,1.1694415,0.5367649999999999,0.015063,1.2467815,0.752415,-0.117291,0.7115615,0.973855,-0.127571,1.2115615,0.987635,-0.192231,0.9200415,-7.599999999999968e-05,0.011458,1.0799585,7.600000000000055e-05,-0.011458,0.8935915,-0.462485,0.070614,1.1390414999999998,-0.4621349999999999,0.0031209999999999,0.8858815,-0.815775,0.09776,1.1783815,-0.820225,0.03659
126,1.013236,0.730699,0.081645,0.8388599999999999,0.526009,0.062433,0.71513,0.731949,-0.043649,1.16954,0.536819,0.014987,1.24678,0.752449,-0.11735,0.71156,0.973849,-0.12748,1.21156,0.987609,-0.19229,0.920045,-7.200000000000002e-05,0.011472,1.079955,7.200000000000002e-05,-0.011472,0.89359,-0.462571,0.070633,1.13908,-0.462261,0.0031339999999999,0.88589,-0.815931,0.097703,1.17837,-0.820271,0.03648
127,1.0133535,0.730582,0.081611,0.8388335,0.526002,0.062444,0.7150935,0.731992,-0.0436179999999999,1.1696135,0.536902,0.014913,1.2467735,0.752512,-0.117411,0.7115535,0.973852,-0.127391,1.2115535,0.987592,-0.192351,0.9200515,-7.000000000000062e-05,0.011485,1.0799485,6.999999999999975e-05,-0.0114849999999999,0.8935835,-0.462658,0.070645,1.1391035,-0.462358,0.003163,0.8858835,-0.816078,0.097658,1.1783535,-0.820358,0.036371
128,1.013455,0.7304845000000001,0.0816015,0.838829,0.5259945,0.0624555,0.715069,0.7320345,-0.0435875,1.169649,0.5369545,0.0148465,1.246769,0.7525345,-0.1174695,0.711549,0.9738845,-0.1273095,1.211549,0.9875645,-0.1924095,0.920055,-6.450000000000032e-05,0.0114965,1.079945,6.450000000000032e-05,-0.0114965,0.893579,-0.4627255,0.0706425,1.1391390000000001,-0.4624655,0.0031965,0.8859090000000001,-0.8161955,0.0976195,1.178339,-0.8204555,0.0362515
129,1.0135655,0.730397,0.0816215,0.8388275000000001,0.5259969999999999,0.0624695,0.7150475000000001,0.732047,-0.0435385,1.1696575,0.5369269999999999,0.0148304999999999,1.2467775,0.752527,-0.1174935,0.7115475,0.973947,-0.1272035,1.2115475,0.987537,-0.1924834999999999,0.9200585,-5.400000000000023e-05,0.0114974999999999,1.0799414999999999,5.400000000000023e-05,-0.0114975,0.8935675,-0.462793,0.0706475,1.1391775,-0.462553,0.0032444999999999,0.8858975,-0.8162630000000001,0.0976485,1.1783475,-0.820573,0.0361635
130,1.0136735,0.7303445000000001,0.0816315,0.8388065,0.5259745,0.0624915,0.7150164999999999,0.7320545,-0.0434965,1.1696765,0.5369045,0.0148205,1.2467965,0.7525045,-0.1174975,0.7115465000000001,0.9740145,-0.1271175,1.2115465,0.9875145,-0.1925474999999999,0.9200605,-4.649999999999967e-05,0.0114904999999999,1.0799395,4.650000000000053e-05,-0.0114905,0.8935665,-0.4628155,0.0706535,1.1392064999999998,-0.4626355,0.0033035,0.8858965,-0.8162855,0.0976795,1.1783664999999999,-0.8206454999999999,0.0360805
131,1.013777,0.7303695,0.081619,0.838807,0.5259495,0.062512,0.714987,0.7320494999999999,-0.0434549999999999,1.169697,0.5368894999999999,0.014836,1.246827,0.7524894999999999,-0.117516,0.711527,0.9740895,-0.127086,1.211587,0.9874695,-0.192586,0.920062,-3.850000000000034e-05,0.011473,1.079938,3.850000000000034e-05,-0.011473,0.893557,-0.4628305,0.070667,1.139227,-0.4626805,0.003365,0.8858870000000001,-0.8163005000000001,0.097719,1.178407,-0.8207005,0.036036
132,1.0138605,0.7303995,0.0816065,0.8388045,0.5259495,0.0625555,0.7149745000000001,0.7320494999999999,-0.0434445,1.1697345000000001,0.5368995,0.0148624999999999,1.2468745,0.7524894999999999,-0.1175275,0.7115045,0.9741995,-0.1270875,1.2116545,0.9873895,-0.1926075,0.9200615,-3.850000000000034e-05,0.0114644999999999,1.0799385,3.850000000000034e-05,-0.0114644999999999,0.8935645000000001,-0.4628505,0.0707125,1.1392545,-0.4627104999999999,0.0034234999999999,0.8858845,-0.8162205,0.0978074999999999,1.1784345,-0.8207305,0.0359975
133,1.013929,0.7304594999999999,0.0815839999999999,0.8388100000000001,0.5259395,0.0626009999999999,0.71495,0.7320494999999999,-0.043452,1.16976,0.5369094999999999,0.0148759999999999,1.24692,0.7524095,-0.117547,0.71148,0.9742895,-0.127097,1.21173,0.9873095,-0.192627,0.92006,-3.850000000000034e-05,0.0114549999999999,1.07994,3.850000000000034e-05,-0.011455,0.8935600000000001,-0.4628805,0.070712,1.13927,-0.4627705,0.0034679999999999,0.8859,-0.8162105000000001,0.0979049999999999,1.1784299999999999,-0.8207305,0.036007
134,1.0140065,0.7304594999999999,0.081561,0.8388234999999999,0.5258995,0.062609,0.7149335,0.7320494999999999,-0.0434569999999999,1.1697935,0.5369394999999999,0.014883,1.2469835,0.7522694999999999,-0.1175649999999999,0.7114335,0.9743095,-0.127095,1.2118035,0.9872195,-0.192685,0.9200595,-3.850000000000034e-05,0.011446,1.0799405,3.850000000000034e-05,-0.011446,0.8935735,-0.4629005,0.070702,1.1393135,-0.4628605,0.003509,0.8859135,-0.8162105000000001,0.098005,1.1784335,-0.8207505,0.036041
135,1.014058,0.7303865,0.0815375,0.838822,0.5258465,0.0626265,0.7149220000000001,0.7320365000000001,-0.0434574999999999,1.1698520000000001,0.5369765000000001,0.0148805,1.2470620000000001,0.7520865,-0.1176154999999999,0.711392,0.9743965,-0.1270955,1.211872,0.9871465,-0.1927655,0.920059,-3.349999999999968e-05,0.0114315,1.079941,3.349999999999968e-05,-0.0114315,0.893582,-0.4629035,0.0706995,1.139332,-0.4629335,0.0035045,0.8859319999999999,-0.8162035,0.0981035,1.178422,-0.8207234999999999,0.0360465
136,1.0141165,0.730295,0.0815265,0.8388125000000001,0.525795,0.0626405,0.7149125000000001,0.732015,-0.0434515,1.1699525,0.537005,0.0148685,1.2471825,0.751835,-0.1176785,0.7113525,0.974405,-0.1271584999999999,1.2119325,0.987095,-0.1928885,0.9200645000000001,-2.7000000000000118e-05,0.0114165,1.0799355,2.7000000000000118e-05,-0.0114165,0.8935725,-0.462875,0.0706745,1.1393525,-0.462985,0.0035064999999999,0.8859525,-0.816165,0.0981935,1.1784025,-0.820745,0.0360145
137,1.014191,0.7302415,0.081468,0.8388329999999999,0.5257415,0.062652,0.7149030000000001,0.7320015,-0.043451,1.170073,0.5370214999999999,0.014861,1.2473130000000001,0.7515615,-0.1177629999999999,0.711313,0.9744215,-0.1272329999999999,1.212003,0.9870515,-0.193013,0.920071,-2.0500000000000556e-05,0.011394,1.079929,2.0499999999999685e-05,-0.011394,0.893563,-0.4628385,0.07066,1.139363,-0.4629985,0.003518,0.8859630000000001,-0.8161285,0.098281,1.178363,-0.8207785,0.036016
138,1.0143095,0.7301650000000001,0.0813385,0.8388455,0.5256850000000001,0.0626665,0.7148855000000001,0.7319650000000001,-0.0434645,1.1702255,0.537045,0.0148505,1.2474355,0.7512650000000001,-0.1178345,0.7112555,0.974445,-0.1273645,1.2120555,0.987025,-0.1932045,0.9200785,-1.299999999999999e-05,0.0113755,1.0799215,1.299999999999999e-05,-0.0113755,0.8935655000000001,-0.462795,0.0706495,1.1393855,-0.463005,0.0035274999999999,0.8859955,-0.816125,0.0983025,1.1783155,-0.8207549999999999,0.0360345
139,1.0144335,0.7301329999999999,0.0811429999999999,0.8388615,0.525633,0.062677,0.7148715,0.731943,-0.0434869999999999,1.1703715,0.5370429999999999,0.014813,1.2475515,0.7509929999999999,-0.117935,0.7111815,0.974473,-0.127495,1.2121115,0.987053,-0.193445,0.9200825,-4.000000000000531e-06,0.011358,1.0799175,3.999999999999664e-06,-0.011358,0.8935615000000001,-0.462777,0.07066,1.1393915,-0.4629769999999999,0.003501,0.8859915,-0.8161670000000001,0.0983189999999999,1.1782615,-0.820767,0.036025
140,1.0145585,0.730112,0.080964,0.8388774999999999,0.5255920000000001,0.062697,0.7148475000000001,0.731912,-0.043508,1.1705375,0.537052,0.014769,1.2476575,0.750772,-0.1180269999999999,0.7111075,0.974462,-0.127637,1.2121775,0.987082,-0.193727,0.9200885,3.000000000000398e-06,0.011331,1.0799115,-2.999999999999531e-06,-0.011331,0.8935575,-0.4627679999999999,0.07069,1.1394075,-0.462968,0.003493,0.8859975,-0.816218,0.098345,1.1782175,-0.820738,0.03604
141,1.0146795,0.730106,0.0807615,0.8389035,0.525556,0.0626955,0.7148135,0.731876,-0.0435485,1.1707035000000001,0.537086,0.0147215,1.2477635,0.750576,-0.1182395,0.7110434999999999,0.974406,-0.1277895,1.2122635,0.987116,-0.1940994999999999,0.9200895,8.000000000000194e-06,0.0113035,1.0799105,-8.000000000000194e-06,-0.0113035,0.8935435,-0.462714,0.0706895,1.1394135,-0.462934,0.0034965,0.8859835000000001,-0.816124,0.0984005,1.1781435,-0.820634,0.0360765
142,1.014799,0.7300989999999999,0.080539,0.8389390000000001,0.525559,0.062655,0.714789,0.731849,-0.043586,1.170859,0.5371189999999999,0.014669,1.247879,0.750409,-0.118467,0.7109989999999999,0.974349,-0.127947,1.212359,0.987089,-0.194527,0.920092,1.4000000000000123e-05,0.011279,1.079908,-1.4000000000000123e-05,-0.011279,0.893529,-0.4626409999999999,0.070689,1.139429,-0.4629209999999999,0.003485,0.885979,-0.816041,0.098456,1.178109,-0.820531,0.036102
143,1.0149039999999998,0.730075,0.0803115,0.83897,0.525575,0.0626015,0.71475,0.7318250000000001,-0.0436475,1.17105,0.537145,0.0146014999999999,1.248,0.750305,-0.1187015,0.71095,0.974295,-0.1281015,1.21245,0.987085,-0.1949615,0.920094,2.000000000000005e-05,0.0112664999999999,1.079906,-2.000000000000005e-05,-0.0112664999999999,0.8935,-0.462575,0.0706865,1.13944,-0.462905,0.0034574999999999,0.88594,-0.8159949999999999,0.0984505,1.17807,-0.820375,0.0361215
144,1.0150249999999998,0.7300415,0.0800455,0.8390219999999999,0.5255915,0.0625125,0.7147220000000001,0.7317715,-0.0437365,1.171222,0.5371915,0.0145355,1.248132,0.7502015,-0.1189595,0.7109020000000001,0.9741415,-0.1282994999999999,1.212542,0.9870615,-0.1954395,0.920102,1.950000000000042e-05,0.0112555,1.079898,-1.9499999999999552e-05,-0.0112554999999999,0.893482,-0.4624585,0.0706745,1.139462,-0.4628985,0.0034205,0.885922,-0.8160285,0.0984485,1.178022,-0.8202185,0.0361165
145,1.0151345,0.7299709999999999,0.0796735,0.8390765,0.5256109999999999,0.0623735,0.7146365,0.7316509999999999,-0.0439324999999999,1.1713565,0.5372309999999999,0.0144775,1.2482565,0.750131,-0.1193054999999999,0.7108565,0.973781,-0.1285255,1.2126165,0.987031,-0.1959455,0.9201085,2.099999999999932e-05,0.0112535,1.0798915,-2.1000000000000185e-05,-0.0112535,0.8934365,-0.4624189999999999,0.0706084999999999,1.1394765,-0.462889,0.0033775,0.8858965,-0.8161090000000001,0.0983845,1.1780065,-0.8200390000000001,0.0360805
146,1.0152375,0.729872,0.0792875,0.8391385,0.525632,0.0622255,0.7145185000000001,0.731472,-0.0442095,1.1714784999999999,0.537262,0.0144175,1.2483985,0.750052,-0.1197085,0.7108085,0.973342,-0.1288185,1.2126985000000001,0.986952,-0.1964985,0.9201005,1.6999999999999654e-05,0.0112505,1.0798995,-1.700000000000052e-05,-0.0112505,0.8933785,-0.462298,0.0705235,1.1394985,-0.462868,0.0033264999999999,0.8858685,-0.816228,0.0983075,1.1779885,-0.819868,0.0360365
147,1.0152619999999999,0.729809,0.0788005,0.839187,0.525669,0.0620585,0.714337,0.7312690000000001,-0.0445464999999999,1.171597,0.537289,0.0142545,1.2485369999999998,0.750009,-0.1201685,0.710807,0.972839,-0.1291485,1.212757,0.986909,-0.1970485,0.920089,1.4000000000000123e-05,0.0112405,1.079911,-1.4000000000000123e-05,-0.0112405,0.893277,-0.462081,0.0703135,1.139527,-0.462821,0.0032875,0.885837,-0.816311,0.0982255,1.177967,-0.819691,0.0359845
148,1.0152549999999998,0.7297629999999999,0.0781405,0.83923,0.525683,0.0618175,0.71408,0.730963,-0.0450704999999999,1.1717199999999999,0.537323,0.0140535,1.24874,0.749943,-0.1208394999999999,0.71086,0.972143,-0.1296995,1.21272,0.986723,-0.1977094999999999,0.920082,9.000000000000327e-06,0.0111995,1.079918,-9.000000000000327e-06,-0.0111995,0.89312,-0.461827,0.0698675,1.1395799999999998,-0.462757,0.0032055,0.88579,-0.8162470000000001,0.0981255,1.1779899999999999,-0.8195370000000001,0.0358765
149,1.015207,0.729764,0.07704,0.839256,0.525744,0.061489,0.713696,0.730604,-0.0458709999999999,1.171796,0.537404,0.013745,1.248936,0.749924,-0.121728,0.710996,0.971104,-0.130658,1.212556,0.986334,-0.198608,0.920058,1.999999999999398e-06,0.011151,1.079942,-2.000000000000265e-06,-0.011151,0.892726,-0.461476,0.068845,1.139596,-0.462636,0.002918,0.885686,-0.816126,0.097883,1.178016,-0.8192860000000001,0.035738
150,1.0151765,0.7298049999999999,0.0756675,0.8392855,0.525855,0.0610195,0.7132255000000001,0.730205,-0.0470105,1.1718155,0.537465,0.0132034999999999,1.2491955,0.749895,-0.1228125,0.7112155,0.969905,-0.1319525,1.2123955,0.985845,-0.1996724999999999,0.9200245,-5.000000000000664e-06,0.0111224999999999,1.0799755,4.999999999999796e-06,-0.0111225,0.8921555,-0.460915,0.0671845,1.1396255,-0.462465,0.0023494999999999,0.8855755,-0.8159550000000001,0.0974855,1.1780655,-0.819075,0.0354525
151,1.015111,0.729897,0.0733515,0.839252,0.526097,0.0598875,0.712582,0.729577,-0.0493264999999999,1.171792,0.537367,0.0120395,1.2494219999999998,0.749817,-0.1249145,0.7115020000000001,0.968217,-0.1344845,1.212112,0.984967,-0.2018245,0.919929,-9.999999999992654e-07,0.0110515,1.080071,1.0000000000001327e-06,-0.0110514999999999,0.891002,-0.459763,0.0634645,1.139602,-0.461823,0.0005795,0.885372,-0.8155830000000001,0.0965845,1.178072,-0.818493,0.0346375
152,1.0150109999999999,0.729939,0.070355,0.839134,0.5262389999999999,0.058188,0.711814,0.728819,-0.052482,1.171664,0.537149,0.010364,1.249294,0.7497189999999999,-0.1279199999999999,0.711854,0.966009,-0.1381299999999999,1.211524,0.984139,-0.2047999999999999,0.9198010000000001,4.99999999999997e-05,0.010883,1.080199,-4.99999999999997e-05,-0.0108829999999999,0.889474,-0.458341,0.058646,1.139544,-0.460461,-0.002371,0.885154,-0.815011,0.095388,1.178084,-0.8176910000000001,0.03349
153,1.01475,0.7290895000000001,0.065441,0.8390299999999999,0.5259995000000001,0.05525,0.71092,0.7277895000000001,-0.057157,1.17146,0.5363695,0.0076109999999999,1.2489,0.7490895000000001,-0.132272,0.7123999999999999,0.9637995,-0.143382,1.21054,0.9830295,-0.2094019999999999,0.91954,6.949999999999838e-05,0.010792,1.08046,-6.950000000000012e-05,-0.010792,0.8871100000000001,-0.4562205,0.051739,1.13968,-0.4575405,-0.007835,0.88493,-0.8138405,0.093492,1.17818,-0.8164104999999999,0.031572
154,1.0145195,0.7282295,0.059771,0.8389985,0.5253995,0.051368,0.7099785000000001,0.7265594999999999,-0.0629059999999999,1.1712785000000001,0.5354694999999999,0.0041969999999999,1.2483885,0.7481795,-0.137571,0.7130185,0.9615095,-0.150131,1.2092585,0.9816095,-0.215261,0.9192385,0.0001054999999999,0.010711,1.0807615,-0.0001054999999999,-0.0107109999999999,0.8843285,-0.4532104999999999,0.043207,1.1400085,-0.4539505,-0.0144999999999999,0.8846685,-0.8122005,0.09101,1.1783785,-0.8148105,0.029014
155,1.0142415,0.7269345,0.0530915,0.8389265,0.5248845,0.0465934999999999,0.7090865,0.7252345,-0.0698825,1.1710265,0.5344245000000001,-0.0002004999999999,1.2477465,0.7468245,-0.1442265,0.7132465,0.9590845,-0.1581865,1.2076465,0.9798745,-0.2225665,0.9188475,0.0002404999999999,0.0104985,1.0811525,-0.0002404999999999,-0.0104984999999999,0.8812865,-0.4496655,0.0333075,1.1403565,-0.4494655,-0.0225755,0.8843865,-0.8098654999999999,0.0878695,1.1785865,-0.8124754999999999,0.0258165
156,1.013822,0.7248330000000001,0.044407,0.838892,0.5240830000000001,0.040219,0.708052,0.7239530000000001,-0.078937,1.170612,0.533093,-0.006137,1.246952,0.745343,-0.152936,0.7131620000000001,0.956413,-0.168646,1.205532,0.977383,-0.232506,0.9182710000000001,0.0003509999999999,0.0102079999999999,1.081729,-0.000351,-0.010208,0.8773120000000001,-0.444627,0.021036,1.140862,-0.443617,-0.033302,0.884022,-0.806167,0.083486,1.178852,-0.8086369999999999,0.021464
157,1.0132355,0.721895,0.0345904999999999,0.8387925,0.523385,0.0331715,0.7069825000000001,0.721945,-0.0889235,1.1697925,0.5306949999999999,-0.0131105,1.2458925,0.743695,-0.1627895,0.7125625,0.954115,-0.1798394999999999,1.2031025,0.974535,-0.2436195,0.9177175,0.00039,0.0099495,1.0822825,-0.0003899999999999,-0.0099495,0.8730925,-0.438835,0.0077545,1.1413225,-0.437625,-0.0453385,0.8835625,-0.801625,0.0784455,1.1790425,-0.8040550000000001,0.0165325
158,1.0124845,0.7195825,0.0239565,0.8385305000000001,0.5212025,0.0247235,0.7059105,0.7197225,-0.0994984999999999,1.1687605,0.5286625,-0.0211414999999999,1.2445105,0.7412225,-0.1737785,0.7116205,0.9516125,-0.1922485,1.2003905,0.9704925,-0.2563384999999999,0.9171295,0.0004105,0.0097854999999999,1.0828705,-0.0004104999999999,-0.0097854999999999,0.8686005,-0.4314675,-0.0065684999999999,1.1417505000000001,-0.4301475,-0.0584195,0.8829605000000001,-0.7953374999999999,0.0726545,1.1791205,-0.7977274999999999,0.0107464999999999
159,1.011428,0.7171465,0.012315,0.8381959999999999,0.5193965,0.0155159999999999,0.704486,0.7177665,-0.110707,1.167256,0.5263365,-0.02975,1.242726,0.7380665000000001,-0.185367,0.710466,0.9499265,-0.205587,1.197346,0.9673765,-0.270037,0.9165270000000001,0.0004035,0.009768,1.083473,-0.0004035,-0.009768,0.864036,-0.4231335,-0.021508,1.142016,-0.4214434999999999,-0.0726889999999999,0.8821460000000001,-0.7874835,0.066121,1.178996,-0.7899335,0.004236
160,1.0101955,0.714005,0.0006659999999999,0.8379215,0.5165150000000001,0.006274,0.7030415,0.714955,-0.121362,1.1656215,0.524125,-0.0385729999999999,1.2406615,0.7348450000000001,-0.196802,0.7089215,0.946235,-0.219142,1.1940615,0.964615,-0.283952,0.9159335000000001,0.000422,0.009845,1.0840664999999998,-0.0004219999999999,-0.009845,0.8597115000000001,-0.414035,-0.035499,1.1425615,-0.4123449999999999,-0.087155,0.8812915,-0.7785449999999999,0.0595769999999999,1.1787715,-0.781115,-0.002183
161,1.0088625,0.71039,-0.011516,0.8374565,0.51388,-0.003046,0.7016965,0.71268,-0.132132,1.1638865,0.52121,-0.047866,1.2384765,0.73165,-0.208642,0.7074165,0.94353,-0.232502,1.1910165,0.96244,-0.298312,0.9154685,0.0004069999999999,0.010032,1.0845315,-0.0004069999999999,-0.010032,0.8555865,-0.40343,-0.049335,1.1433465,-0.40174,-0.1016069999999999,0.8804965,-0.76811,0.0526199999999999,1.1785665,-0.7708699999999999,-0.008921
162,1.0075245,0.7071665,-0.0225725,0.8366735000000001,0.5113865,-0.0119035,0.7002935,0.7099665,-0.1424215,1.1619735,0.5189465,-0.0566605,1.2359735,0.7285165,-0.2200315,0.7058735,0.9410565,-0.2453115,1.1880835,0.9610165,-0.3122115,0.9151565,0.0003104999999999,0.0101555,1.0848435,-0.0003105,-0.0101555,0.8517635,-0.3918035,-0.0620675,1.1438935,-0.3901135,-0.1144274999999999,0.8796035,-0.7568335,0.0458055,1.1781935,-0.7598235,-0.0153955
163,1.006007,0.7019205,-0.0342245,0.835922,0.5081505,-0.0209395,0.6987420000000001,0.7061505,-0.1532454999999999,1.1598519999999999,0.5159605,-0.0657794999999999,1.233222,0.7250005,-0.2316955,0.7040919999999999,0.9377305,-0.2584555,1.185352,0.9567705,-0.3260855,0.914896,0.0001244999999999,0.0103185,1.085104,-0.0001244999999999,-0.0103185,0.847702,-0.3794695,-0.0745905,1.144892,-0.3764395,-0.1278254999999999,0.8787020000000001,-0.7432295,0.0387825,1.177682,-0.7464095,-0.0219275
164,1.004513,0.6973469999999999,-0.0456764999999999,0.835198,0.505267,-0.0297155,0.697168,0.702757,-0.1634554999999999,1.157668,0.512147,-0.0747105,1.230708,0.721537,-0.2427655,0.702278,0.934657,-0.2712855,1.182718,0.952657,-0.3396155,0.914517,5.8000000000002494e-05,0.0104945,1.085483,-5.8000000000002494e-05,-0.0104945,0.843618,-0.367183,-0.0869814999999999,1.146188,-0.3629329999999999,-0.1408255,0.8778680000000001,-0.7289030000000001,0.0318485,1.177148,-0.7321230000000001,-0.0284285
165,1.0030245,0.6936,-0.056075,0.8342075,0.50258,-0.037782,0.6954775,0.6992100000000001,-0.172856,1.1556775,0.50939,-0.082799,1.2284675,0.71759,-0.252706,0.7002575,0.93169,-0.282846,1.1804175,0.94861,-0.351616,0.9143845,-8.999999999999286e-05,0.0108749999999999,1.0856155,9.000000000000674e-05,-0.010875,0.8401375,-0.35433,-0.098188,1.1476974999999998,-0.35022,-0.152526,0.8771675,-0.71435,0.025435,1.1765275,-0.7176499999999999,-0.034632
166,1.001485,0.69012,-0.065668,0.8333400000000001,0.49897,-0.045162,0.69387,0.69661,-0.181601,1.15381,0.50699,-0.089795,1.2263899999999999,0.71427,-0.261961,0.6980300000000002,0.92831,-0.293941,1.17838,0.94379,-0.362821,0.914239,-0.00034,0.011274,1.085761,0.00034,-0.011274,0.8368300000000001,-0.34109,-0.109157,1.14942,-0.3365599999999999,-0.1634209999999999,0.87657,-0.69867,0.019616,1.17597,-0.70208,-0.0403479999999999
167,0.9988365,0.68711,-0.0796675,0.8316385,0.4976,-0.0566284999999999,0.6911185,0.69413,-0.1952205,1.1509785,0.5046200000000001,-0.1011664999999999,1.2234585,0.7120000000000001,-0.2755005,0.6947685,0.92534,-0.3094405,1.1754885,0.94177,-0.3780405,0.9142265,-0.0006799999999999,0.0112645,1.0857735,0.00068,-0.0112644999999999,0.8326385000000001,-0.32763,-0.1244005,1.1503785,-0.32266,-0.1788905,0.8750385,-0.68247,0.0091385,1.1744585,-0.6859799999999999,-0.0506974999999999
168,0.995792,0.6869050000000001,-0.094369,0.829489,0.498395,-0.0687,0.688329,0.6942950000000001,-0.209526,1.147589,0.502405,-0.113411,1.219359,0.711775,-0.289916,0.6912389999999999,0.924735,-0.325706,1.172449,0.941785,-0.394436,0.914187,-0.0003449999999999,0.011649,1.085813,0.000345,-0.011649,0.826939,-0.311085,-0.145173,1.152309,-0.305415,-0.1993359999999999,0.8733690000000001,-0.6627350000000001,-0.0020709999999999,1.172789,-0.6663950000000001,-0.061803
169,0.9926255,0.68577,-0.108564,0.8274015,0.5002599999999999,-0.080154,0.6854115000000001,0.69329,-0.223635,1.1442915,0.50034,-0.124915,1.2153415,0.7110399999999999,-0.304215,0.6879014999999999,0.92515,-0.341455,1.1695114999999998,0.94179,-0.410605,0.9142745,-0.00013,0.0119949999999999,1.0857255,0.0001299999999999,-0.0119949999999999,0.8215215,-0.29579,-0.1649209999999999,1.1539615,-0.28872,-0.2185849999999999,0.8718615000000001,-0.64412,-0.012857,1.1711615,-0.64785,-0.072555
170,0.9892020000000001,0.68546,-0.1224119999999999,0.8251040000000001,0.50097,-0.091506,0.682034,0.69237,-0.237918,1.141064,0.50007,-0.136415,1.211384,0.7089300000000001,-0.318308,0.6844140000000001,0.92503,-0.357738,1.166324,0.9421,-0.426728,0.914234,-0.00017,0.0123579999999999,1.085766,0.00017,-0.0123579999999999,0.8159640000000001,-0.28035,-0.184968,1.155434,-0.27153,-0.237928,0.8704640000000001,-0.6250899999999999,-0.0235109999999999,1.169454,-0.6288,-0.083219
171,0.98555,0.685245,-0.136396,0.822192,0.498895,-0.102346,0.678682,0.691085,-0.251537,1.137742,0.498045,-0.148251,1.207392,0.707535,-0.332087,0.680752,0.924675,-0.374067,1.162552,0.936565,-0.443267,0.91405,-9.500000000001174e-05,0.0126929999999999,1.08595,9.500000000001174e-05,-0.012693,0.8105519999999999,-0.264295,-0.205027,1.156772,-0.254105,-0.257387,0.869112,-0.6057950000000001,-0.033924,1.167542,-0.6094250000000001,-0.09377
172,0.981958,0.686335,-0.1495465,0.819231,0.498595,-0.1122135,0.675271,0.690845,-0.2645754999999999,1.134521,0.496935,-0.1595275,1.203341,0.705995,-0.3453355,0.6772009999999999,0.924915,-0.3896055,1.158791,0.934325,-0.4590455,0.913958,4.499999999998949e-05,0.0129945,1.086042,-4.499999999998949e-05,-0.0129944999999999,0.805611,-0.249025,-0.2239654999999999,1.157391,-0.2378849999999999,-0.2756155,0.868011,-0.588895,-0.0437164999999999,1.165601,-0.592015,-0.1038365
173,0.9783885,0.686695,-0.1624555,0.8164395,0.498595,-0.1218415,0.6718795,0.6899150000000001,-0.2775615,1.1313795,0.496355,-0.1704535,1.1991595,0.704035,-0.3585715,0.6732395,0.924065,-0.4051315,1.1547995,0.932335,-0.4745915,0.9139475,4.499999999996174e-05,0.0133984999999999,1.0860525,-4.500000000001725e-05,-0.0133985,0.8007695000000001,-0.233785,-0.2420515,1.1577894999999998,-0.221815,-0.2932415,0.8669895,-0.572325,-0.0530525,1.1635895,-0.575215,-0.1133645
174,0.9750420000000001,0.686585,-0.175007,0.813908,0.4957249999999999,-0.1311749999999999,0.668608,0.6875450000000001,-0.28945,1.128238,0.494555,-0.181369,1.194878,0.702165,-0.37195,0.669208,0.923415,-0.42034,1.150658,0.931215,-0.49023,0.913953,-4.999999999977245e-06,0.0136,1.086047,5.000000000032756e-06,-0.0135999999999999,0.796158,-0.218765,-0.25947,1.158028,-0.2063149999999999,-0.31009,0.866148,-0.5560849999999999,-0.0619419999999999,1.161748,-0.558625,-0.1223049999999999
175,0.9720395000000001,0.6865100000000001,-0.18775,0.8116015000000001,0.49422,-0.140905,0.6652715,0.68499,-0.30169,1.1252815,0.49324,-0.192958,1.1907115,0.6996,-0.38573,0.6653315,0.92017,-0.43581,1.1463714999999999,0.93094,-0.5066299999999999,0.9140615,3.0000000000030003e-05,0.0138399999999999,1.0859385,-2.999999999997449e-05,-0.0138399999999999,0.7916415,-0.2044599999999999,-0.2764,1.1584115,-0.1918399999999999,-0.32709,0.8654615,-0.5404599999999999,-0.0711769999999999,1.1600615,-0.5424899999999999,-0.131569
176,0.9698455,0.684695,-0.1955329999999999,0.8100755,0.4926750000000001,-0.145478,0.6626354999999999,0.682415,-0.30923,1.1229155,0.4913350000000001,-0.199646,1.1871654999999999,0.6964750000000001,-0.39512,0.6626855,0.917485,-0.44609,1.1423355,0.927465,-0.51874,0.9142765,0.000335,0.01446,1.0857235,-0.0003349999999999,-0.0144599999999999,0.7879555,-0.1908349999999999,-0.28783,1.1593855,-0.1782649999999999,-0.33873,0.8654355,-0.525775,-0.0751169999999999,1.1590354999999999,-0.5272249999999999,-0.135602
177,0.9677995000000001,0.6798500000000001,-0.202642,0.8085765,0.4876,-0.149528,0.6600565,0.67567,-0.31635,1.1215465,0.48885,-0.205723,1.1847865,0.69051,-0.4044,0.6602365,0.91157,-0.45645,1.1380465,0.92021,-0.53035,0.9142475,0.0,0.01456,1.0857525,0.0,-0.0145599999999999,0.7851764999999999,-0.1784299999999999,-0.29332,1.1591565,-0.16633,-0.34474,0.8654265000000001,-0.51341,-0.0777269999999999,1.1578665,-0.5141600000000001,-0.1383329999999999
178,0.966188,0.67589,-0.2096009999999999,0.807098,0.4828699999999999,-0.153574,0.657958,0.67045,-0.323295,1.120268,0.4866199999999999,-0.211776,1.182648,0.68434,-0.413385,0.658298,0.90509,-0.4662949999999999,1.134318,0.91209,-0.541365,0.914252,-0.0002,0.014615,1.085748,0.0001999999999999,-0.0146149999999999,0.7823280000000001,-0.1646699999999999,-0.2987649999999999,1.159078,-0.15308,-0.350645,0.8655079999999999,-0.50102,-0.0803289999999999,1.156708,-0.50103,-0.141059
179,0.964829,0.67218,-0.216079,0.80579,0.47861,-0.157456,0.65627,0.6648799999999999,-0.329365,1.11911,0.48391,-0.217116,1.18072,0.67919,-0.421505,0.65648,0.899,-0.475405,1.13094,0.90108,-0.552025,0.91417,-8.00000000000245e-05,0.0147249999999999,1.08583,8.00000000000245e-05,-0.014725,0.7796,-0.15127,-0.303165,1.15913,-0.14087,-0.355945,0.86554,-0.48858,-0.082579,1.1556,-0.48794,-0.143515
180,0.9631265,0.667585,-0.2216989999999999,0.8043275000000001,0.477055,-0.161233,0.6543375,0.659485,-0.33513,1.1219875,0.482925,-0.226528,1.1785275,0.673645,-0.42998,0.6542675,0.892765,-0.484,1.1277575,0.895135,-0.56124,0.9141225,-0.000235,0.0148699999999999,1.0858775,0.0002349999999999,-0.0148699999999999,0.7764675,-0.140855,-0.30639,1.1587675,-0.130995,-0.3601999999999999,0.8650375000000001,-0.477485,-0.084398,1.1541475,-0.476255,-0.145542
181,0.9611615,0.66313,-0.226879,0.8026055000000001,0.473973,-0.165011,0.6523755,0.6527700000000001,-0.340255,1.1197255,0.48219,-0.23085,1.1760155,0.66808,-0.438185,0.6517955,0.88561,-0.492125,1.1244755,0.8878,-0.570575,0.9143345,-0.0005899999999999,0.014925,1.0856655,0.00059,-0.0149249999999999,0.7730055,-0.1302299999999999,-0.309135,1.1581755,-0.1211899999999999,-0.3640649999999999,0.8640255,-0.4661499999999999,-0.0861629999999999,1.1524154999999998,-0.46462,-0.1476319999999999
182,0.959284,0.6588450000000001,-0.231689,0.800879,0.469567,-0.168578,0.650459,0.644815,-0.3449649999999999,1.117349,0.481894,-0.234918,1.173579,0.6621650000000001,-0.445835,0.6498090000000001,0.8782350000000001,-0.499505,1.121569,0.8798650000000001,-0.5796049999999999,0.914451,-0.0010549999999999,0.0149749999999999,1.085549,0.001055,-0.0149749999999999,0.7696689999999999,-0.1199249999999999,-0.311475,1.157469,-0.1117349999999999,-0.367585,0.862909,-0.455545,-0.088009,1.150709,-0.4535849999999999,-0.149797
183,0.957416,0.6542049999999999,-0.23612,0.799183,0.4673679999999999,-0.1717129999999999,0.648343,0.638155,-0.34973,1.114963,0.481718,-0.238651,1.171103,0.6548849999999999,-0.45275,0.648083,0.870295,-0.50686,1.118733,0.8703749999999999,-0.58843,0.914567,-0.001435,0.01504,1.085433,0.0014349999999999,-0.0150399999999999,0.7665930000000001,-0.109765,-0.31296,1.156603,-0.102825,-0.37041,0.861593,-0.445795,-0.0897239999999999,1.148833,-0.443655,-0.151883
184,0.955792,0.65055,-0.2407099999999999,0.797369,0.465575,-0.175166,0.646309,0.63228,-0.35464,1.112489,0.477113,-0.242498,1.168799,0.64827,-0.45967,0.6463490000000001,0.8647400000000001,-0.51449,1.115859,0.8610599999999999,-0.59686,0.914541,-0.0012099999999999,0.0150899999999999,1.085459,0.0012099999999999,-0.0150899999999999,0.763589,-0.0986,-0.31478,1.155659,-0.09286,-0.37289,0.860109,-0.4352399999999999,-0.091768,1.146799,-0.43298,-0.154231
185,0.954498,0.64671,-0.244842,0.795577,0.463504,-0.178506,0.644747,0.6261,-0.35907,1.110137,0.473053,-0.245861,1.166887,0.6412100000000001,-0.4659,0.6450370000000001,0.8582000000000001,-0.52211,1.113167,0.8529500000000001,-0.6042099999999999,0.9146130000000001,-0.0010499999999999,0.0151,1.0853869999999999,0.00105,-0.0151,0.760717,-0.08838,-0.31655,1.154727,-0.08348,-0.37499,0.858607,-0.42552,-0.0937109999999999,1.1448369999999999,-0.42338,-0.1564509999999999
186,0.9533785000000001,0.64356,-0.2483929999999999,0.7940315,0.462816,-0.181505,0.6430415,0.62246,-0.36288,1.1079015,0.471079,-0.2488869999999999,1.1653915,0.6369,-0.4713,0.6440415000000002,0.8533200000000001,-0.52885,1.1105915,0.84734,-0.61077,0.9147585,-0.0011499999999999,0.01528,1.0852415,0.0011499999999999,-0.0152799999999999,0.7581015,-0.07865,-0.3185,1.1536615000000001,-0.07445,-0.37746,0.8568715,-0.41623,-0.0960539999999999,1.1428615,-0.4145,-0.1589539999999999
187,0.9526285,0.64193,-0.252074,0.7926035000000001,0.460709,-0.184849,0.6422034999999999,0.61874,-0.36708,1.1059835,0.46797,-0.252251,1.1643035,0.63271,-0.4768,0.6433935,0.85034,-0.5357799999999999,1.1084135,0.84247,-0.61785,0.9150665,-0.00113,0.0154999999999999,1.0849335,0.0011299999999999,-0.0155,0.7558035000000001,-0.0685,-0.32047,1.1528335,-0.06477,-0.38031,0.8551535,-0.40632,-0.098723,1.1410434999999999,-0.40499,-0.16173
188,0.9519325,0.638875,-0.2554309999999999,0.7912795,0.458849,-0.1877879999999999,0.6415394999999999,0.614005,-0.3711449999999999,1.1041695,0.46458,-0.2554459999999999,1.1632695,0.628455,-0.482315,0.6427295,0.846185,-0.542095,1.1065795,0.838375,-0.624665,0.9152905,-0.001305,0.015685,1.0847095,0.001305,-0.0156849999999999,0.7537395,-0.060215,-0.3220449999999999,1.1520095,-0.0570049999999999,-0.382985,0.8534795,-0.398395,-0.1011679999999999,1.1391895,-0.397425,-0.1642809999999999
189,0.9514515000000001,0.6359699999999999,-0.258154,0.7900445,0.4571409999999999,-0.190591,0.6409745,0.60931,-0.37514,1.1025845,0.461362,-0.258553,1.1623145,0.62389,-0.48703,0.6419545000000001,0.84105,-0.54813,1.1048045,0.8339099999999999,-0.6314299999999999,0.9151755,-0.0012699999999999,0.0158899999999999,1.0848245,0.0012699999999999,-0.01589,0.7522645,-0.0521,-0.32302,1.1514845,-0.04919,-0.38505,0.8519145000000001,-0.39076,-0.103549,1.1374445,-0.39007,-0.166784
190,0.9514215,0.6336900000000001,-0.261251,0.7893975,0.456465,-0.193407,0.6409375000000002,0.60599,-0.37893,1.1015475,0.458257,-0.261644,1.1619675,0.61992,-0.49136,0.6415375,0.83599,-0.55391,1.1032875,0.83025,-0.63797,0.9149725,-0.0010799999999999,0.01607,1.0850275,0.00108,-0.01607,0.7513175,-0.0441599999999999,-0.32389,1.1515675,-0.0416299999999999,-0.38692,0.8508475,-0.3835199999999999,-0.105926,1.1362275,-0.38327,-0.169307
191,0.9514025000000002,0.6314550000000001,-0.264185,0.7889015,0.456305,-0.196119,0.6409715,0.603905,-0.382675,1.1004815,0.456148,-0.264335,1.1616415,0.616615,-0.495525,0.6408815,0.832115,-0.559385,1.1016515,0.826435,-0.644105,0.9148685,-0.0008849999999999,0.0163149999999999,1.0851315,0.000885,-0.0163149999999999,0.7503815,-0.0365349999999999,-0.324525,1.1517215,-0.0342749999999999,-0.388255,0.8497615000000001,-0.376505,-0.108183,1.1349915,-0.3767049999999999,-0.171715
192,0.950881,0.630665,-0.26754,0.788475,0.457574,-0.1994159999999999,0.6407149999999999,0.6025550000000001,-0.38688,1.0941049999999999,0.452482,-0.263026,1.160765,0.6157950000000001,-0.49997,0.639535,0.828765,-0.5647,1.099515,0.824605,-0.6501399999999999,0.914985,-0.0005549999999999,0.0165899999999999,1.085015,0.000555,-0.0165899999999999,0.749125,-0.0279149999999999,-0.32484,1.151465,-0.0260049999999999,-0.3896699999999999,0.848245,-0.368595,-0.110867,1.133295,-0.3691449999999999,-0.174561
193,0.950532,0.629435,-0.2699899999999999,0.788497,0.457495,-0.2020499999999999,0.640687,0.600455,-0.3902099999999999,1.092657,0.4541509999999999,-0.265243,1.160037,0.6143149999999999,-0.50357,0.638417,0.825455,-0.56918,1.0975570000000001,0.822805,-0.65534,0.9151730000000001,-0.000735,0.01681,1.084827,0.0007349999999999,-0.0168099999999999,0.748337,-0.0215049999999999,-0.32479,1.151367,-0.019975,-0.39032,0.8469670000000001,-0.362915,-0.112921,1.131897,-0.3637250000000001,-0.17659
194,0.9500285,0.62888,-0.27218,0.7885725,0.456789,-0.204386,0.6406925,0.59942,-0.39307,1.0912925,0.4551909999999999,-0.267222,1.1592825,0.61336,-0.50662,0.6374425,0.82248,-0.57323,1.0957225,0.82152,-0.66001,0.9153675,-0.00097,0.01697,1.0846325,0.0009699999999999,-0.01697,0.7476625,-0.0159099999999999,-0.32474,1.1512125,-0.01473,-0.39088,0.8457725,-0.35803,-0.114793,1.1305825,-0.35895,-0.178421
195,0.949495,0.6282449999999999,-0.2736,0.788495,0.45546,-0.205871,0.640845,0.597495,-0.39524,1.0900050000000001,0.454712,-0.2685269999999999,1.1584349999999999,0.611065,-0.50889,0.636655,0.818365,-0.5761499999999999,1.094055,0.818705,-0.66354,0.915425,-0.000995,0.0169799999999999,1.084575,0.000995,-0.0169799999999999,0.746865,-0.013045,-0.32452,1.1510150000000001,-0.0120049999999999,-0.39102,0.844745,-0.3556149999999999,-0.115868,1.129335,-0.356645,-0.179608
196,0.948805,0.627165,-0.274595,0.788284,0.4548549999999999,-0.207131,0.640884,0.596554,-0.397075,1.088914,0.454928,-0.269708,1.157404,0.6101449999999999,-0.5107250000000001,0.636104,0.814665,-0.578625,1.0924939999999999,0.8161149999999999,-0.666215,0.9155260000000001,-0.001265,0.0169449999999999,1.084474,0.0012649999999999,-0.016945,0.7460640000000001,-0.011915,-0.324145,1.1505139999999998,-0.011125,-0.391215,0.843724,-0.354895,-0.11665,1.128094,-0.356085,-0.180494
197,0.9479885000000001,0.627165,-0.27555,0.7879285,0.4548549999999999,-0.208523,0.6410085000000001,0.596554,-0.39923,1.0876985,0.454928,-0.270949,1.1561885,0.609965,-0.51248,0.6355685000000001,0.813985,-0.58129,1.0906885,0.815085,-0.66856,0.9156315000000002,-0.001265,0.01691,1.0843684999999998,0.0012649999999999,-0.01691,0.7451385000000001,-0.011745,-0.3237299999999999,1.1496685,-0.011195,-0.3914499999999999,0.8424885,-0.354925,-0.11756,1.1267185,-0.356415,-0.181483
198,0.947289,0.627165,-0.2765999999999999,0.7874909999999999,0.4548549999999999,-0.2098439999999999,0.6411709999999999,0.596554,-0.40114,1.086501,0.454928,-0.272239,1.154961,0.609965,-0.5137700000000001,0.635481,0.813985,-0.58369,1.088731,0.815085,-0.67087,0.915729,-0.001265,0.0169,1.084271,0.0012649999999999,-0.0169,0.744211,-0.011695,-0.3232399999999999,1.148591,-0.011375,-0.3917199999999999,0.841171,-0.354925,-0.1185499999999999,1.1253009999999999,-0.356745,-0.1825369999999999
199,0.946655,0.627165,-0.277351,0.786973,0.4548549999999999,-0.211204,0.641313,0.596554,-0.403455,1.085413,0.455014,-0.273541,1.153653,0.609965,-0.515035,0.635973,0.813985,-0.586035,1.086603,0.815085,-0.672615,0.9156170000000001,-0.001265,0.017095,1.0843829999999999,0.0012649999999999,-0.017095,0.743323,-0.011565,-0.322525,1.147323,-0.011495,-0.391945,0.839863,-0.354925,-0.119555,1.123873,-0.3568450000000001,-0.183629
200,0.946381,0.62824,-0.2775269999999999,0.787371,0.455797,-0.212387,0.641861,0.5965,-0.404795,1.084911,0.455332,-0.274378,1.152421,0.60907,-0.515945,0.6378810000000001,0.81309,-0.588155,1.084721,0.81419,-0.673575,0.915399,-0.00117,0.0172549999999999,1.084601,0.00117,-0.0172549999999999,0.742741,-0.0122799999999999,-0.3215449999999999,1.1462709999999998,-0.01244,-0.391815,0.838781,-0.35575,-0.120229,1.122691,-0.35774,-0.184381
201,0.9468265000000001,0.63011,-0.2768199999999999,0.7883255,0.456999,-0.212468,0.6429855,0.59632,-0.405885,1.0850755,0.454925,-0.2740709999999999,1.1520355,0.60787,-0.516015,0.6404955,0.81135,-0.589345,1.0837155,0.81213,-0.673485,0.9151345,-0.0009,0.017385,1.0848655,0.0009,-0.0173849999999999,0.7426955,-0.01522,-0.3202549999999999,1.1458555,-0.0154299999999999,-0.3911249999999999,0.8383155,-0.3589,-0.1199889999999999,1.1222055,-0.36089,-0.1842899999999999
202,0.9472645,0.6320749999999999,-0.275981,0.7892565,0.4580579999999999,-0.212664,0.6445465,0.596425,-0.4064,1.0853965,0.454132,-0.273653,1.1517065,0.607165,-0.51571,0.6435965,0.810655,-0.58989,1.0828265,0.810565,-0.67333,0.9152235,-0.000485,0.0173699999999999,1.0847765,0.000485,-0.0173699999999999,0.7430265,-0.020285,-0.3188,1.1456065,-0.020505,-0.3903,0.8379865000000001,-0.364125,-0.119676,1.1218865,-0.366155,-0.184158
203,0.9479795,0.6343650000000001,-0.274758,0.7902875,0.459573,-0.2127639999999999,0.6466375,0.596695,-0.406755,1.0859175,0.453714,-0.273138,1.1516175,0.6094350000000001,-0.514885,0.6471375000000001,0.811115,-0.590495,1.0821275,0.812265,-0.673205,0.9153625,-0.0001649999999999,0.017345,1.0846375,0.000165,-0.017345,0.7435575,-0.0278149999999999,-0.317315,1.1453475,-0.0279949999999999,-0.389215,0.8377775000000001,-0.371675,-0.119391,1.1217575,-0.3738749999999999,-0.184052
204,0.9486395,0.6362249999999999,-0.273869,0.7914675,0.4607789999999999,-0.21291,0.6488175,0.600225,-0.4070749999999999,1.0869775,0.4544449999999999,-0.272393,1.1516675,0.6109549999999999,-0.5137050000000001,0.6507475,0.811855,-0.591065,1.0812275,0.814005,-0.6728350000000001,0.9156225,0.0001049999999999,0.0173649999999999,1.0843775,-0.000105,-0.0173649999999999,0.7441575,-0.038625,-0.315755,1.1449075,-0.039115,-0.388025,0.8375475,-0.382515,-0.119203,1.1216675,-0.384715,-0.183902
205,0.9500365,0.64015,-0.2711139999999999,0.7935595,0.46511,-0.211965,0.6514895,0.60392,-0.40617,1.0886095,0.45795,-0.270509,1.1521095,0.61528,-0.51115,0.6546894999999999,0.8148,-0.59023,1.0807194999999998,0.81871,-0.67044,0.9155205,0.00024,0.01729,1.0844795,-0.00024,-0.01729,0.7451795,-0.05331,-0.31309,1.1443195,-0.0537399999999999,-0.38519,0.8376395,-0.39764,-0.117861,1.1219495,-0.3996099999999999,-0.182562
206,0.9517615,0.64628,-0.267496,0.7959575,0.469547,-0.210531,0.6540775,0.60806,-0.40436,1.0906475,0.461761,-0.268094,1.1525775,0.6217900000000001,-0.50808,0.6592775,0.8217300000000001,-0.58744,1.0809574999999998,0.82527,-0.66705,0.9155025,0.00046,0.01718,1.0844975,-0.0004599999999999,-0.01718,0.7464275,-0.06913,-0.30994,1.1437275,-0.0691499999999999,-0.38203,0.8377875000000001,-0.41471,-0.116126,1.1223775,-0.41666,-0.180875
207,0.953355,0.6529400000000001,-0.262822,0.79809,0.477162,-0.208236,0.65669,0.61373,-0.40105,1.09282,0.466165,-0.265076,1.15302,0.62885,-0.50414,0.66393,0.83039,-0.5828800000000001,1.08141,0.83314,-0.66211,0.91539,0.00098,0.0172699999999999,1.08461,-0.0009799999999999,-0.01727,0.74798,-0.08604,-0.30589,1.1429699999999998,-0.0859699999999999,-0.37808,0.8378099999999999,-0.43364,-0.113747,1.12279,-0.43565,-0.178564
208,0.9553845000000001,0.656615,-0.257674,0.8005755,0.480019,-0.205644,0.6578955,0.6161949999999999,-0.39658,1.0952055,0.4689899999999999,-0.261602,1.1538154999999999,0.632765,-0.49937,0.6682855,0.835215,-0.57796,1.0824655,0.8369549999999999,-0.6563399999999999,0.9153445,0.0013149999999999,0.01713,1.0846555,-0.001315,-0.01713,0.7508955000000002,-0.106925,-0.30056,1.1416255,-0.106315,-0.37229,0.8379855,-0.457315,-0.111068,1.1234855,-0.459185,-0.175966
209,0.957535,0.662685,-0.252348,0.802514,0.4815449999999999,-0.202639,0.660684,0.622735,-0.391635,1.097474,0.4709549999999999,-0.258038,1.154844,0.638685,-0.493625,0.672004,0.843855,-0.5708850000000001,1.083974,0.8465149999999999,-0.648955,0.915286,0.0015449999999999,0.0169449999999999,1.084714,-0.001545,-0.016945,0.754194,-0.126145,-0.294835,1.1404239999999999,-0.124645,-0.365775,0.836564,-0.480105,-0.11084,1.124874,-0.481545,-0.17525
210,0.959933,0.66716,-0.245402,0.804388,0.4866699999999999,-0.197992,0.663968,0.62835,-0.384915,1.100398,0.47485,-0.252665,1.156098,0.6473,-0.485705,0.676078,0.8524499999999999,-0.560385,1.085788,0.8569399999999999,-0.639785,0.915452,0.0015699999999999,0.0169049999999999,1.084548,-0.00157,-0.016905,0.758248,-0.14631,-0.287145,1.138988,-0.14427,-0.357525,0.8353079999999999,-0.5047,-0.109533,1.126468,-0.50588,-0.173408
211,0.9633025,0.67082,-0.235455,0.8067555000000001,0.49282,-0.191634,0.6677955,0.63957,-0.37566,1.1039255,0.47972,-0.246255,1.1586755,0.65785,-0.47561,0.6803555,0.86633,-0.54688,1.0888355,0.871,-0.62752,0.9154845,0.00159,0.01657,1.0845155,-0.0015899999999999,-0.01657,0.7635055,-0.16817,-0.27658,1.1376855,-0.1652199999999999,-0.34646,0.8347255,-0.5334099999999999,-0.106638,1.1287955,-0.53362,-0.170439
212,0.966568,0.67366,-0.224808,0.808688,0.49798,-0.18535,0.6719280000000001,0.65302,-0.36508,1.107718,0.48325,-0.239933,1.160858,0.6661,-0.46536,0.6838679999999999,0.88216,-0.5322800000000001,1.0924079999999998,0.88443,-0.61459,0.915822,0.00179,0.0161899999999999,1.084178,-0.0017899999999999,-0.01619,0.768998,-0.1881499999999999,-0.26592,1.136568,-0.1844099999999999,-0.33536,0.8342180000000001,-0.56075,-0.104054,1.131458,-0.56006,-0.167467
213,0.9701155,0.67403,-0.212669,0.8107565000000001,0.5007699999999999,-0.178219,0.6758765,0.66196,-0.353535,1.1112165,0.48414,-0.232741,1.1631965,0.67396,-0.454175,0.6876365,0.89716,-0.515545,1.0963365,0.89646,-0.599625,0.9163335,0.00178,0.015965,1.0836665,-0.00178,-0.015965,0.7750165,-0.2084099999999999,-0.252965,1.1357265,-0.20404,-0.321855,0.8338365,-0.58862,-0.100329,1.1342165,-0.58706,-0.164218
214,0.973055,0.6699200000000001,-0.200187,0.812638,0.49837,-0.1708269999999999,0.679508,0.67049,-0.3414,1.114358,0.48706,-0.225292,1.165458,0.6818599999999999,-0.4414099999999999,0.692598,0.90938,-0.49798,1.1001779999999999,0.90573,-0.58389,0.917102,0.0022699999999999,0.01568,1.082898,-0.0022699999999999,-0.0156799999999999,0.7815179999999999,-0.22805,-0.2383409999999999,1.134728,-0.22322,-0.30713,0.833278,-0.61629,-0.0957509999999999,1.136738,-0.61392,-0.159403
