sb224sc-HT22-VT27/4dt907/src/data/kinect_good_preprocessed_not_cut_A11_mediapipe/A134_kinect_mirrored.csv
FrameNo,nose_3d_x,nose_3d_y,nose_3d_z,left_shoulder_3d_x,left_shoulder_3d_y,left_shoulder_3d_z,left_elbow_3d_x,left_elbow_3d_y,left_elbow_3d_z,right_shoulder_3d_x,right_shoulder_3d_y,right_shoulder_3d_z,right_elbow_3d_x,right_elbow_3d_y,right_elbow_3d_z,left_wrist_3d_x,left_wrist_3d_y,left_wrist_3d_z,right_wrist_3d_x,right_wrist_3d_y,right_wrist_3d_z,left_hip_3d_x,left_hip_3d_y,left_hip_3d_z,right_hip_3d_x,right_hip_3d_y,right_hip_3d_z,left_knee_3d_x,left_knee_3d_y,left_knee_3d_z,right_knee_3d_x,right_knee_3d_y,right_knee_3d_z,left_ankle_3d_x,left_ankle_3d_y,left_ankle_3d_z,right_ankle_3d_x,right_ankle_3d_y,right_ankle_3d_z
0,1.0032519999999998,0.720773,0.0572295,0.816796,0.515383,0.0261435,0.671026,0.692613,-0.0471244999999999,1.177176,0.526773,0.0246425,1.319126,0.700173,-0.0448384999999999,0.6602859999999999,0.932343,-0.0925904999999999,1.311996,0.921723,-0.0828204999999999,0.922926,-0.000747,-0.0003534999999999,1.077074,0.0007469999999999,0.0003534999999999,0.882266,-0.462857,0.0633775,1.133626,-0.465397,0.0341865,0.866866,-0.826937,0.1103905,1.163796,-0.814857,0.0980805
1,1.0032614999999998,0.7208195000000001,0.057222,0.8167475000000001,0.5155495,0.026065,0.6708075,0.6928095000000001,-0.047309,1.1772174999999998,0.5267795000000001,0.024771,1.3193575,0.7007995,-0.045236,0.6601675,0.9319795,-0.093261,1.3121075,0.9214895,-0.083401,0.9228895,-0.0006954999999999,-0.0005089999999999,1.0771105,0.0006954999999999,0.000509,0.8821875,-0.4627705,0.063328,1.1336175,-0.4654905,0.034129,0.8668375,-0.8266005,0.110351,1.1637775,-0.8147504999999999,0.098107
2,1.0032934999999998,0.7210215,0.057318,0.8169075,0.5153615,0.026232,0.6709575,0.6914815,-0.046557,1.1770975,0.5269415,0.025057,1.3195475,0.6978015,-0.044766,0.6600475,0.9317915,-0.093633,1.3124175,0.9214215,-0.084033,0.9228705000000001,-0.0007025,-0.000465,1.0771294999999999,0.0007025,0.000465,0.8821075,-0.4627684999999999,0.0633799999999999,1.1335975,-0.4654985,0.033974,0.8667975,-0.8258584999999999,0.110462,1.1637475,-0.8146985,0.097943
3,1.0033135,0.7209760000000001,0.0573194999999999,0.8169605,0.5152760000000001,0.0264265,0.6708105,0.690636,-0.0465405,1.1771105,0.5269360000000001,0.0250494999999999,1.3184405,0.694596,-0.0436605,0.6599605,0.930976,-0.0941905,1.3125004999999998,0.921356,-0.0843305,0.9228705000000001,-0.0007149999999999,-0.0004495,1.0771294999999999,0.000715,0.0004494999999999,0.8820805,-0.462804,0.0632964999999999,1.1336305,-0.465484,0.0339595,0.8667505,-0.825824,0.1104624999999999,1.1637905,-0.814774,0.0978495
4,1.003014,0.721049,0.0573345,0.816764,0.515129,0.0266825,0.6699940000000001,0.691089,-0.0471904999999999,1.176744,0.526689,0.0251615,1.317814,0.694629,-0.0446644999999999,0.659714,0.930449,-0.0946424999999999,1.312374,0.921269,-0.0849925,0.922871,-0.000712,-0.0001784999999999,1.077129,0.000712,0.0001785,0.881664,-0.462831,0.0632945,1.133324,-0.465461,0.0337975,0.866654,-0.825231,0.1105265,1.163664,-0.8148610000000001,0.0977745
5,1.002996,0.7209749999999999,0.0576505,0.8163460000000001,0.515235,0.0267755,0.6694360000000001,0.691755,-0.0472175,1.176976,0.5267149999999999,0.0254965,1.317366,0.692855,-0.0439305,0.6596759999999999,0.930275,-0.0947534999999999,1.312486,0.921055,-0.0850934999999999,0.922874,-0.000699,-0.0001755,1.077126,0.000699,0.0001755,0.881736,-0.462815,0.0632995,1.133336,-0.465505,0.0337505,0.866816,-0.8246450000000001,0.1104735,1.163486,-0.815145,0.0974174999999999
6,1.002974,0.7209095,0.058075,0.816009,0.5157094999999999,0.026833,0.669119,0.6903994999999999,-0.04713,1.176949,0.5266595,0.025731,1.318179,0.6954295,-0.044923,0.659639,0.9302895,-0.0948349999999999,1.312819,0.9207795,-0.084805,0.922872,-0.0006925,-0.0001799999999999,1.077128,0.0006925,0.0001799999999999,0.881699,-0.4627805,0.063422,1.133289,-0.4654805,0.033697,0.8667590000000001,-0.8245805,0.11052,1.163299,-0.8149805,0.097401
7,1.002828,0.721052,0.0585685,0.81581,0.5154620000000001,0.0269565,0.6685,0.688482,-0.0477514999999999,1.17687,0.526382,0.0262355,1.3189600000000001,0.698952,-0.0459134999999999,0.65913,0.932452,-0.0953095,1.31288,0.920732,-0.0854694999999999,0.922885,-0.000739,-0.0001764999999999,1.077115,0.0007389999999999,0.0001765,0.88217,-0.462798,0.0636695,1.13329,-0.465338,0.0335255,0.86652,-0.824668,0.1103955,1.16357,-0.814638,0.0972365
8,1.0027175,0.7210774999999999,0.058882,0.8154905,0.5154875,0.0270569999999999,0.6679904999999999,0.6876574999999999,-0.0479659999999999,1.1768105,0.5262574999999999,0.026434,1.3190205,0.6990675,-0.046241,0.6588105,0.9334675,-0.0956259999999999,1.3129505,0.9206075,-0.085816,0.9228905000000001,-0.0007495,-0.000129,1.0771095,0.0007495,0.0001289999999999,0.8822305,-0.4628125,0.063743,1.1332505,-0.4653125,0.033405,0.8664505,-0.8245125,0.110307,1.1635505,-0.8146425,0.097059
9,1.0026335,0.7210894999999999,0.0592035,0.8151625,0.5155295,0.0271435,0.6675424999999999,0.6867595,-0.0481745,1.1767825,0.5261494999999999,0.0266375,1.3191125,0.6991894999999999,-0.0465955,0.6585025,0.9348095,-0.0959055,1.3130325,0.9205095,-0.0861454999999999,0.9228945,-0.0007615,-9.850000000000136e-05,1.0771055,0.0007614999999999,9.850000000000136e-05,0.8823425,-0.4628204999999999,0.0638475,1.1332425,-0.4652805,0.0333095,0.8664125,-0.8244005000000001,0.1102195,1.1635725,-0.8146505,0.0969135
10,1.0025214999999998,0.7211085,0.0594704999999999,0.8148225,0.5155784999999999,0.0272065,0.6671325,0.6859685,-0.0484675,1.1767625,0.5260585,0.0268055,1.3189425,0.6988885,-0.0470385,0.6581625,0.9362185,-0.0962315,1.3131025,0.9204385,-0.0865115,0.9228965,-0.0007734999999999,-8.84999999999983e-05,1.0771035,0.0007735,8.84999999999983e-05,0.8824725,-0.4628115,0.0639815,1.1332425,-0.4652715,0.0332435,0.8663625,-0.8243115,0.1101325,1.1635725,-0.8146015,0.0967665
11,1.002384,0.7211375,0.059644,0.8144979999999999,0.5156175000000001,0.027221,0.666748,0.6852375,-0.048856,1.176738,0.5259375000000001,0.026959,1.318908,0.6989475,-0.0474679999999999,0.657638,0.9378175,-0.096817,1.313148,0.9203675,-0.086977,0.9228959999999999,-0.0007845,-7.899999999999574e-05,1.077104,0.0007845,7.900000000000268e-05,0.8826080000000001,-0.4628124999999999,0.064097,1.133258,-0.4652524999999999,0.033155,0.866318,-0.8242025,0.109987,1.163568,-0.8146025,0.09656
12,1.0022565,0.721142,0.059746,0.8142024999999999,0.515672,0.027194,0.6664224999999999,0.684612,-0.049268,1.1767225,0.525822,0.0270569999999999,1.3189025,0.699002,-0.047896,0.6571024999999999,0.939542,-0.0974019999999999,1.3131624999999998,0.920312,-0.087462,0.9228965000000001,-0.000795,-6.799999999999862e-05,1.0771035,0.000795,6.799999999999862e-05,0.8826325,-0.462808,0.064145,1.1332725,-0.465238,0.033075,0.8662625000000002,-0.824128,0.1098329999999999,1.1635625,-0.814598,0.096355
13,1.0021315,0.7211555,0.0598065,0.8139665,0.5157054999999999,0.0271535,0.6661365,0.6842155,-0.0497395,1.1766765,0.5257755,0.0270925,1.3189465,0.6991655,-0.0483395,0.6565765,0.9412855,-0.0979874999999999,1.3131765,0.9202455,-0.0879774999999999,0.9228965,-0.0008025,-6.350000000000106e-05,1.0771035,0.0008024999999999,6.350000000000106e-05,0.8826565,-0.4628045,0.0641945,1.1333065,-0.4652245,0.0329985,0.8662065,-0.8240345,0.1096785,1.1635665,-0.8145545000000001,0.0961935
14,1.002004,0.7211505,0.059798,0.813751,0.5157005,0.027086,0.665881,0.6840405,-0.050261,1.176611,0.5257205,0.027083,1.318951,0.6992905,-0.048788,0.6560710000000001,0.9431005,-0.098616,1.313201,0.9200905,-0.088616,0.922897,-0.0008104999999999,-3.999999999999837e-05,1.077103,0.0008105,3.999999999999837e-05,0.882661,-0.4628195,0.064234,1.133341,-0.4652295,0.0329319999999999,0.866151,-0.8239295,0.109509,1.163561,-0.8145495,0.096049
15,1.0018885,0.72115,0.0597105,0.8134875,0.51578,0.0269645,0.6656575,0.68393,-0.0508005,1.1765575,0.52568,0.0270385,1.3189175,0.69925,-0.0492704999999999,0.6555675000000001,0.94498,-0.0993995,1.3132275,0.91991,-0.0893595,0.9228955000000001,-0.0008159999999999,-2.7499999999999747e-05,1.0771045,0.0008159999999999,2.7499999999999747e-05,0.8826674999999999,-0.46281,0.0642655,1.1333775,-0.46522,0.0328665,0.8661075,-0.82382,0.1093355,1.1635675,-0.81457,0.0958945
16,1.0017809999999998,0.7211624999999999,0.0596074999999999,0.8132820000000001,0.5158824999999999,0.0267815,0.665462,0.6838825,-0.0513425,1.176502,0.5256525,0.0270195,1.318872,0.6992324999999999,-0.0497605,0.655152,0.9456925,-0.1002205,1.313302,0.9196925,-0.0901405,0.922893,-0.0008155,-3.949999999999787e-05,1.077107,0.0008154999999999,3.949999999999787e-05,0.882692,-0.4627874999999999,0.0642985,1.133432,-0.4652274999999999,0.0327895,0.866082,-0.8237475000000001,0.1091495,1.163592,-0.8145875,0.0957385
17,1.0017335,0.721175,0.0594359999999999,0.8132125,0.5159750000000001,0.0265649999999999,0.6653325,0.683855,-0.051935,1.1764525,0.5256350000000001,0.0270129999999999,1.3188625,0.6993250000000001,-0.050249,0.6548225,0.946355,-0.1011,1.3134225,0.919485,-0.09093,0.9228965,-0.0008149999999999,-5.900000000000349e-05,1.0771035,0.0008149999999999,5.899999999999656e-05,0.8827625,-0.462765,0.064289,1.1334925,-0.465235,0.0327079999999999,0.8660825,-0.8236749999999999,0.108987,1.1636125,-0.8146249999999999,0.0956249999999999
18,1.0017075,0.721179,0.0592354999999999,0.8131645000000001,0.5160790000000001,0.0263324999999999,0.6652445,0.6838690000000001,-0.0525865,1.1764345,0.525609,0.0269774999999999,1.3189045,0.699449,-0.0508375,0.6545545000000002,0.946879,-0.1020155,1.3135345,0.919269,-0.0917555,0.9229015,-0.000804,-9.950000000000236e-05,1.0770985,0.000804,9.949999999999544e-05,0.8828145000000001,-0.462731,0.0643064999999999,1.1335745,-0.465241,0.0326154999999999,0.8661045,-0.823661,0.1088035,1.1636445,-0.8146709999999999,0.0954955
19,1.001696,0.7211730000000001,0.059049,0.8131260000000001,0.516163,0.0261159999999999,0.665186,0.683753,-0.053249,1.176416,0.525583,0.0269169999999999,1.318856,0.699503,-0.051372,0.654266,0.946913,-0.102925,1.313576,0.919023,-0.0925749999999999,0.9229080000000001,-0.000793,-0.000125,1.077092,0.0007929999999999,0.000125,0.882876,-0.462717,0.064305,1.133646,-0.465237,0.032498,0.866126,-0.823627,0.108608,1.163686,-0.814737,0.095382
20,1.001729,0.721174,0.0588645,0.813088,0.516194,0.0258704999999999,0.6651680000000001,0.683684,-0.0538875,1.176408,0.525594,0.0268095,1.318818,0.699604,-0.0519855,0.6542479999999999,0.946934,-0.1036705,1.313598,0.918794,-0.0934305,0.922914,-0.0007819999999999,-0.0001615,1.077086,0.000782,0.0001615,0.882888,-0.462696,0.0643155,1.133728,-0.465246,0.0324265,0.866168,-0.823626,0.1084235,1.163738,-0.814776,0.0953034999999999
21,1.001761,0.7211884999999999,0.0586624999999999,0.813083,0.5161985,0.0255894999999999,0.665163,0.6836785,-0.0545724999999999,1.176393,0.5256185,0.0266544999999999,1.318733,0.6996785,-0.0526565,0.654263,0.9465785,-0.1044335,1.313613,0.9185785,-0.0943135,0.922917,-0.0007685,-0.0001955,1.077083,0.0007684999999999,0.0001954999999999,0.882893,-0.4626715,0.0643005,1.133813,-0.4652415,0.0323484999999999,0.8661730000000001,-0.8235915,0.1082245,1.163773,-0.8148115,0.0951945
22,1.001784,0.721207,0.0584515,0.8131120000000001,0.516177,0.0252685,0.665152,0.6837070000000001,-0.0552284999999999,1.176362,0.5256470000000001,0.0264445,1.318742,0.699747,-0.0533704999999999,0.654292,0.946087,-0.1054755,1.3136320000000001,0.918377,-0.0952554999999999,0.9229130000000001,-0.00076,-0.0002455,1.077087,0.0007599999999999,0.0002455,0.882872,-0.462683,0.0642595,1.133872,-0.465223,0.0322705,0.8661719999999999,-0.8235129999999999,0.1080075,1.163802,-0.814843,0.0950324999999999
23,1.0017805,0.7212270000000001,0.0581995,0.8131655,0.516147,0.0249204999999999,0.6651255,0.6835370000000001,-0.0559025,1.1763355,0.525667,0.0262414999999999,1.3187555,0.699777,-0.0542325,0.6542955000000001,0.946127,-0.1064504999999999,1.3135655,0.918217,-0.0962205,0.9229065,-0.000752,-0.0003235,1.0770935,0.000752,0.0003234999999999,0.8828355,-0.4626829999999999,0.0641384999999999,1.1339155,-0.4651929999999999,0.0321865,0.8661855,-0.823423,0.1077875,1.1638255,-0.814933,0.0948345
24,1.001754,0.721261,0.057941,0.813241,0.516111,0.024609,0.665091,0.683241,-0.0565359999999999,1.176291,0.525701,0.0260719999999999,1.318751,0.699811,-0.055082,0.654291,0.945931,-0.107351,1.3134409999999999,0.918081,-0.097141,0.9228959999999999,-0.000743,-0.0004209999999999,1.077104,0.0007429999999999,0.000421,0.882811,-0.462689,0.063969,1.133941,-0.465159,0.032143,0.866181,-0.823339,0.1076169999999999,1.163811,-0.814989,0.094664
25,1.001693,0.72126,0.0575115,0.813253,0.51606,0.0241995,0.665033,0.68295,-0.0572825,1.176213,0.5257499999999999,0.0258555,1.318813,0.70082,-0.0560704999999999,0.654283,0.94576,-0.1082795,1.313243,0.91793,-0.0982994999999999,0.9228820000000001,-0.0007359999999999,-0.0005394999999999,1.0771179999999998,0.000736,0.0005395,0.8827830000000001,-0.46269,0.0637715,1.133963,-0.4651099999999999,0.0320555,0.866153,-0.8232400000000001,0.1073995,1.163813,-0.81503,0.0944665
26,1.001635,0.7212445000000001,0.057009,0.8132159999999999,0.5160645,0.023768,0.664956,0.6826545,-0.0580329999999999,1.176146,0.5258045,0.025572,1.318816,0.7018145,-0.05712,0.654226,0.9454845,-0.109176,1.312976,0.9177145,-0.0996259999999999,0.92288,-0.0007285,-0.000675,1.07712,0.0007285,0.000675,0.882776,-0.4626855,0.063556,1.133996,-0.4650555,0.031839,0.8661360000000001,-0.8231455,0.1071419999999999,1.163836,-0.8150155,0.09425
27,1.0015695,0.721236,0.056455,0.8132135,0.516036,0.023319,0.6648535,0.682366,-0.0588239999999999,1.1760435,0.525846,0.025189,1.3188035,0.702716,-0.0582259999999999,0.6541835,0.944976,-0.1101099999999999,1.3126235,0.917496,-0.1010599999999999,0.9228875,-0.000713,-0.000784,1.0771125,0.000713,0.000784,0.8827035,-0.4626639999999999,0.063183,1.1340335,-0.464974,0.031604,0.8661435,-0.823024,0.106851,1.1638434999999998,-0.814994,0.094003
28,1.0014995,0.721206,0.055758,0.8131855,0.5160159999999999,0.022796,0.6647255000000001,0.6819759999999999,-0.059712,1.1759155,0.525906,0.024713,1.3187855,0.703386,-0.059406,0.6541555,0.944286,-0.111169,1.3121755,0.917256,-0.1026089999999999,0.9228905000000001,-0.000701,-0.000901,1.0771095,0.0007009999999999,0.000901,0.8825655,-0.4626139999999999,0.062561,1.1341055,-0.4648739999999999,0.031334,0.8661355,-0.8229040000000001,0.106525,1.1638655,-0.814934,0.093721
29,1.001444,0.721015,0.054512,0.8132010000000001,0.516015,0.0220379999999999,0.6645909999999999,0.681515,-0.061023,1.175831,0.5259649999999999,0.0238619999999999,1.318821,0.7034549999999999,-0.060984,0.6541710000000001,0.943535,-0.11278,1.311651,0.916945,-0.10474,0.92284,-0.000695,-0.001015,1.0771600000000001,0.0006949999999999,0.0010149999999999,0.882201,-0.462505,0.060753,1.134321,-0.464665,0.0304289999999999,0.866181,-0.822795,0.1060089999999999,1.163941,-0.8148850000000001,0.0931859999999999
30,1.0014295,0.7208760000000001,0.052928,0.8133375,0.5160560000000001,0.021112,0.6645175000000001,0.6811560000000001,-0.06261,1.1757875,0.526046,0.022789,1.3188575,0.703636,-0.062995,0.6541775000000001,0.942686,-0.114896,1.3111074999999999,0.916566,-0.107336,0.9227325000000001,-0.000712,-0.0010779999999999,1.0772674999999998,0.0007119999999999,0.0010779999999999,0.8817175,-0.462304,0.05813,1.1346675,-0.464224,0.028809,0.8662575,-0.8225539999999999,0.105314,1.1640575,-0.8147639999999999,0.0924
31,1.0014865,0.7208695,0.050689,0.8136025,0.5162195,0.019616,0.6644625,0.6809095000000001,-0.0647959999999999,1.1758625,0.5262995,0.021244,1.3190325,0.7040695,-0.065807,0.6542525,0.9424595,-0.117451,1.3106025,0.9162895,-0.110701,0.9225935000000001,-0.0007365,-0.0011299999999999,1.0774065,0.0007364999999999,0.00113,0.8810025,-0.4618604999999999,0.054385,1.1351725,-0.4634505,0.02613,0.8664324999999999,-0.8220405,0.104162,1.1642625,-0.8143905,0.091101
32,1.0016844999999999,0.7206135,0.0477065,0.8138945,0.5163235,0.0176925,0.6644645,0.6804835,-0.0674464999999999,1.1758945,0.5263035,0.0190135,1.3191745,0.7046235000000001,-0.0693425,0.6543645,0.9422535,-0.1208124999999999,1.3100945,0.9160535,-0.1147025,0.9224315,-0.0007734999999999,-0.0011284999999999,1.0775685,0.0007734999999999,0.0011285,0.8799645,-0.4609865,0.0492525,1.1359044999999999,-0.4623365,0.0222555,0.8666545,-0.8214365,0.1026705,1.1645444999999999,-0.8138964999999999,0.0894875
33,1.001971,0.7202935,0.044107,0.8143000000000001,0.5165235,0.01532,0.66457,0.6799135000000001,-0.070692,1.17604,0.5261535,0.016075,1.31942,0.7048135,-0.073849,0.65461,0.9403935,-0.125636,1.30954,0.9154935,-0.1198659999999999,0.922239,-0.0007474999999999,-0.0012189999999999,1.077761,0.0007474999999999,0.001219,0.87874,-0.4598465,0.042692,1.13692,-0.4607565,0.017082,0.86696,-0.8205565,0.100721,1.1649399999999999,-0.8131865,0.08745
34,1.002257,0.7198990000000001,0.039686,0.814701,0.5164690000000001,0.012199,0.6647510000000001,0.6794290000000001,-0.074739,1.176291,0.5258390000000001,0.012216,1.319621,0.704569,-0.079325,0.6549910000000001,0.939039,-0.131345,1.308921,0.915299,-0.125885,0.921947,-0.000694,-0.0012109999999999,1.078053,0.000694,0.001211,0.877331,-0.458091,0.034796,1.138211,-0.458361,0.010479,0.867281,-0.819121,0.0981269999999999,1.165351,-0.8120809999999999,0.084773
35,1.0025655,0.7194429999999999,0.0344805,0.8151305,0.5164829999999999,0.0084584999999999,0.6650705,0.677663,-0.0792735,1.1765705,0.5249429999999999,0.0074224999999999,1.3198205,0.703193,-0.0859135,0.6553505,0.937813,-0.1378135,1.3081805,0.915183,-0.1331635,0.9215715,-0.0006399999999999,-0.0010924999999999,1.0784285,0.0006399999999999,0.0010924999999999,0.8753205000000001,-0.455957,0.0253655,1.1397105,-0.455707,0.0024015,0.8676005,-0.8170270000000001,0.0949904999999999,1.1657905,-0.810417,0.0815215
36,1.0027614999999999,0.7183805,0.0283775,0.8154325,0.5162205,0.0040845,0.6652925000000001,0.6758905,-0.0843675,1.1767225,0.5239205,0.0019455,1.3198824999999998,0.7017504999999999,-0.0933475,0.6556025,0.9372805,-0.1451875,1.3071125000000001,0.9153305,-0.1415374999999999,0.9211975,-0.0005985,-0.0009434999999999,1.0788025,0.0005985,0.0009434999999999,0.8729225,-0.4529694999999999,0.0142545,1.1413125,-0.4524995,-0.0070504999999999,0.8677625,-0.8139595000000001,0.0913075,1.1661325,-0.8078895,0.0777905
37,1.003035,0.7169695,0.0216815,0.815871,0.5156395,-0.0004694999999999,0.6654610000000001,0.6742995,-0.0899695,1.176891,0.5225095000000001,-0.0039664999999999,1.319871,0.6992595,-0.1015794999999999,0.6557109999999999,0.9366895,-0.1531195,1.305861,0.9150295,-0.1510495,0.9208580000000001,-0.0005424999999999,-0.0008244999999999,1.0791419999999998,0.0005425,0.0008245,0.8703310000000001,-0.4488704999999999,0.0017995,1.143111,-0.4483505,-0.0184025,0.867841,-0.8098405,0.0870985,1.166441,-0.8044605,0.0736025
38,1.003401,0.714913,0.014176,0.816309,0.514833,-0.005681,0.6656690000000001,0.672123,-0.09605,1.176929,0.521043,-0.010576,1.3196590000000001,0.6967030000000001,-0.11065,0.656119,0.936213,-0.16149,1.304279,0.916463,-0.1616,0.9205800000000001,-0.0004469999999999,-0.000713,1.0794199999999998,0.000447,0.0007129999999999,0.866989,-0.4419769999999999,-0.012257,1.145209,-0.441407,-0.031809,0.867729,-0.802997,0.081759,1.1666590000000001,-0.798457,0.068532
39,1.0037334999999998,0.7127895,0.006423,0.8167234999999999,0.5134695,-0.011222,0.6659035,0.6692195000000001,-0.102275,1.1768835,0.5189595,-0.017373,1.3193835,0.6941895,-0.1199349999999999,0.6567235,0.9349595,-0.169925,1.3025035,0.9194995,-0.172365,0.9202505,-0.0004815,-0.0005379999999999,1.0797495,0.0004814999999999,0.000538,0.8634835,-0.4336105,-0.027036,1.1473135,-0.4328405,-0.045855,0.8675634999999999,-0.7946205,0.076186,1.1667835,-0.7909505000000001,0.063167
40,1.0038494999999998,0.7102605,-0.0012565,0.8170655,0.5120104999999999,-0.0165605,0.6660254999999999,0.6664505000000001,-0.1083745,1.1766355,0.5168605,-0.0241035,1.3188555,0.6918804999999999,-0.1290545,0.6572155,0.9302905,-0.1781745,1.3004755,0.9192405,-0.1836445,0.9199525,-0.0004774999999999,-0.0002665,1.0800475,0.0004774999999999,0.0002665,0.8599255,-0.4242995,-0.0419495,1.1492455,-0.4229695,-0.0596485,0.8671055,-0.7854295,0.0705075,1.1666855,-0.7822395,0.0578205
41,1.00404,0.707153,-0.008689,0.81745,0.5110330000000001,-0.021761,0.6660900000000001,0.663923,-0.1142099999999999,1.17641,0.514363,-0.0305609999999999,1.31827,0.689533,-0.13806,0.65794,0.926083,-0.18611,1.29846,0.919773,-0.1945,0.91967,-0.0004639999999999,-5.6000000000000494e-05,1.08033,0.0004639999999999,5.5999999999999626e-05,0.85663,-0.413837,-0.056449,1.15116,-0.412467,-0.073484,0.86658,-0.774937,0.064754,1.1665599999999998,-0.772317,0.052427
42,1.004075,0.7043765000000001,-0.016075,0.817667,0.5084665,-0.027022,0.6660170000000001,0.6608565000000001,-0.120106,1.176067,0.5123765,-0.036789,1.317427,0.6865465000000001,-0.146646,0.658587,0.9238265,-0.193186,1.296157,0.9212565,-0.205006,0.919484,-0.0005695,0.000311,1.080516,0.0005695,-0.0003109999999999,0.853217,-0.4018135,-0.070311,1.1527569999999998,-0.4006435,-0.087014,0.8658170000000001,-0.7629334999999999,0.0589109999999999,1.166237,-0.7607935,0.046845
43,1.0040445,0.701825,-0.0237925,0.8178805,0.506745,-0.0324715,0.6660405,0.658755,-0.1262345,1.1757305,0.5104150000000001,-0.0432005,1.3165705,0.685075,-0.1553445,0.6593105,0.921795,-0.2008345,1.2936904999999999,0.923315,-0.2157345,0.9192055000000001,-0.0006619999999999,0.0005485,1.0807944999999999,0.0006619999999999,-0.0005485,0.8496905000000001,-0.388405,-0.0844755,1.1542805,-0.387605,-0.1006765,0.8650105000000001,-0.749165,0.0525045,1.1659105,-0.747295,0.0409085
44,1.00402,0.6982174999999999,-0.0314055,0.8182040000000002,0.5047075,-0.0378535,0.665994,0.6571975,-0.1326585,1.175304,0.5087174999999999,-0.0493824999999999,1.3156839999999999,0.6840474999999999,-0.1637185,0.6600539999999999,0.9191975,-0.2086985,1.291264,0.9245075,-0.2260484999999999,0.9188540000000001,-0.0007395,0.0006325,1.081146,0.0007395,-0.0006324999999999,0.8465140000000001,-0.3754524999999999,-0.0979995,1.155864,-0.3745225,-0.1136755,0.864424,-0.7346325,0.0460605,1.165604,-0.7328525,0.0350455
45,1.003938,0.694915,-0.0386775,0.818404,0.502605,-0.0431745,0.665914,0.6555949999999999,-0.1390575,1.174764,0.506435,-0.0551755,1.314654,0.682025,-0.1719875,0.660784,0.916165,-0.2164775,1.288814,0.924575,-0.2361575,0.9184460000000001,-0.0008849999999999,0.0007225,1.081554,0.0008849999999999,-0.0007225,0.843264,-0.363175,-0.1105205,1.157434,-0.361645,-0.1260275,0.863834,-0.719535,0.0397745,1.165184,-0.7177250000000001,0.0292155
46,1.003685,0.691735,-0.0462795,0.8184629999999999,0.500815,-0.0485555,0.665563,0.653095,-0.1458245,1.174113,0.504515,-0.0614205,1.313633,0.6802950000000001,-0.1801845,0.6616230000000001,0.912495,-0.2246044999999999,1.286463,0.923885,-0.2460645,0.918242,-0.000895,0.0009914999999999,1.081758,0.000895,-0.0009914999999999,0.839803,-0.350245,-0.1224515,1.159173,-0.348785,-0.1376745,0.8630530000000001,-0.7035849999999999,0.0336365,1.164683,-0.701535,0.0233875
47,1.003279,0.689015,-0.0530835,0.81845,0.498755,-0.0534915,0.66517,0.651285,-0.1523435,1.17355,0.5021450000000001,-0.0670265,1.31272,0.678505,-0.1877435,0.66233,0.908535,-0.2324935,1.2844799999999998,0.921265,-0.2551035,0.918242,-0.0010349999999999,0.0012614999999999,1.081758,0.001035,-0.0012614999999999,0.83723,-0.338185,-0.1324445,1.16073,-0.336675,-0.1475235,0.8624,-0.689265,0.0282655,1.16418,-0.686095,0.0182504999999999
48,1.0027085,0.686785,-0.064788,0.8182735,0.498315,-0.06333,0.6646035,0.650705,-0.163815,1.1726735,0.501125,-0.077725,1.3116435,0.676295,-0.200465,0.6626535,0.906905,-0.245415,1.2824135,0.918355,-0.269335,0.9182095000000001,-0.0009949999999999,0.0012879999999999,1.0817904999999999,0.0009949999999999,-0.0012879999999999,0.8346235,-0.324635,-0.1466049999999999,1.1620735,-0.323255,-0.161315,0.8615235,-0.673475,0.018043,1.1634735,-0.669265,0.008216
49,1.0021795,0.687505,-0.077331,0.8184335,0.499415,-0.074434,0.6640435,0.651945,-0.176533,1.1711435,0.499555,-0.089508,1.3105035,0.6764950000000001,-0.214053,0.6629935,0.908785,-0.259863,1.2803635,0.918135,-0.284603,0.9181585,-0.000725,0.0013329999999999,1.0818415,0.000725,-0.001333,0.8312634999999999,-0.308725,-0.165983,1.1648335,-0.307495,-0.180303,0.8610035,-0.6550450000000001,0.0069339999999999,1.1627335,-0.6500649999999999,-0.002743
50,1.0016615,0.687375,-0.09027,0.8187245,0.499835,-0.085747,0.6632545000000001,0.652705,-0.189822,1.1695845,0.497185,-0.101321,1.3092445,0.675465,-0.227602,0.6631345,0.910585,-0.274502,1.2783045,0.917425,-0.300222,0.9181775000000001,-0.000365,0.0014279999999999,1.0818225,0.000365,-0.001428,0.8279245,-0.293145,-0.185132,1.1676745,-0.291485,-0.198852,0.8605345,-0.636795,-0.00404,1.1619644999999998,-0.631115,-0.013667
51,1.0011539999999999,0.68709,-0.1035949999999999,0.8193010000000001,0.49936,-0.097726,0.662371,0.65396,-0.203734,1.168101,0.49497,-0.113525,1.308071,0.67526,-0.241794,0.6631210000000001,0.91276,-0.289584,1.276511,0.91677,-0.316214,0.918181,-0.00015,0.0015939999999999,1.081819,0.00015,-0.0015939999999999,0.824771,-0.27747,-0.204644,1.170611,-0.27561,-0.217514,0.860101,-0.61854,-0.0150129999999999,1.1611909999999999,-0.61217,-0.024604
52,1.0005594999999998,0.685295,-0.1167079999999999,0.8198055,0.498095,-0.1091299999999999,0.6613055,0.653775,-0.2173159999999999,1.1665355,0.491535,-0.1252629999999999,1.3067255,0.673045,-0.2559059999999999,0.6628955000000001,0.913875,-0.304466,1.2748655,0.915115,-0.332356,0.9180615,6.50000000000095e-05,0.001853,1.0819385,-6.50000000000095e-05,-0.0018529999999999,0.8217555,-0.262665,-0.2231459999999999,1.1735055,-0.260495,-0.235346,0.8599455,-0.6013949999999999,-0.0251779999999999,1.1603554999999999,-0.5943849999999999,-0.0349629999999999
53,0.9998615,0.6831849999999999,-0.1312269999999999,0.8202905,0.497535,-0.121057,0.6599705,0.652985,-0.2325789999999999,1.1649304999999999,0.487205,-0.1378809999999999,1.3048505000000001,0.6697850000000001,-0.271869,0.6622605000000001,0.911215,-0.321109,1.2733105,0.908615,-0.351309,0.9179605000000001,0.0004149999999999,0.002122,1.0820394999999998,-0.0004149999999999,-0.0021219999999999,0.8190105,-0.2461049999999999,-0.241829,1.1768105,-0.2440349999999999,-0.253339,0.8599105,-0.5836250000000001,-0.0356959999999999,1.1595205,-0.5758749999999999,-0.0458449999999999
54,0.9986205,0.6819999999999999,-0.146177,0.8202065000000001,0.4951,-0.133481,0.6582065,0.65273,-0.24819,1.1627565,0.48395,-0.151123,1.3024165,0.6672,-0.2883,0.6612065,0.90933,-0.33865,1.2714165,0.90478,-0.3706,0.9180645000000001,0.00051,0.0024499999999999,1.0819355,-0.0005099999999999,-0.0024499999999999,0.8157865,-0.22772,-0.26036,1.1797665,-0.22633,-0.27139,0.8594765,-0.56504,-0.046639,1.1581765,-0.55667,-0.057097
55,0.997281,0.6804699999999999,-0.160866,0.820133,0.49267,-0.145997,0.6564730000000001,0.65171,-0.2635699999999999,1.160403,0.4803699999999999,-0.1640879999999999,1.299763,0.6639299999999999,-0.3051899999999999,0.6602030000000001,0.90756,-0.35669,1.269323,0.9003599999999999,-0.39102,0.9180740000000001,0.0005999999999999,0.00252,1.081926,-0.0005999999999999,-0.0025199999999999,0.812783,-0.2097799999999999,-0.2784299999999999,1.182513,-0.20887,-0.28861,0.8590530000000001,-0.54711,-0.0578319999999999,1.156793,-0.53824,-0.068523
56,0.9957885000000001,0.67822,-0.175944,0.8199895,0.4909799999999999,-0.158554,0.6548795000000001,0.64977,-0.279135,1.1578595,0.47718,-0.177361,1.2969195,0.66047,-0.322605,0.6592695,0.90331,-0.3756549999999999,1.2670295,0.89569,-0.411915,0.9181165,0.00089,0.002615,1.0818835,-0.00089,-0.0026149999999999,0.8096695,-0.1924099999999999,-0.296065,1.1851695,-0.1920199999999999,-0.3053949999999999,0.8586595,-0.5290900000000001,-0.0690979999999999,1.1553795,-0.52061,-0.080096
57,0.9944660000000001,0.674875,-0.186215,0.8198719999999999,0.4868249999999999,-0.166328,0.653332,0.646675,-0.29018,1.155492,0.472515,-0.185738,1.294222,0.656755,-0.33524,0.6582319999999999,0.897525,-0.39,1.264672,0.889045,-0.4284599999999999,0.918119,0.0010449999999999,0.0029099999999999,1.081881,-0.001045,-0.0029099999999999,0.806792,-0.176605,-0.30826,1.188132,-0.1767849999999999,-0.3173,0.858492,-0.5129750000000001,-0.075534,1.154172,-0.504935,-0.08663
58,0.9929825,0.6685650000000001,-0.195917,0.8192915000000001,0.480695,-0.1730499999999999,0.6517815,0.6411250000000001,-0.30074,1.1535515,0.468495,-0.193418,1.2914115,0.649715,-0.34774,0.6571914999999999,0.890595,-0.40399,1.2623015,0.882155,-0.44447,0.9181565,0.000825,0.00309,1.0818435,-0.0008249999999999,-0.00309,0.8046515,-0.1628649999999999,-0.31475,1.1897115,-0.163925,-0.32363,0.8583615,-0.4992149999999999,-0.081188,1.1530115,-0.4917749999999999,-0.092385
59,0.9913665000000002,0.662455,-0.2054269999999999,0.8183445,0.4756249999999999,-0.1796269999999999,0.6503844999999999,0.633745,-0.31087,1.1515145,0.4645789999999999,-0.2009139999999999,1.2886745,0.643355,-0.36045,0.6561845,0.882225,-0.41863,1.2600045,0.875665,-0.46043,0.9180515,0.0007749999999999,0.00326,1.0819485,-0.000775,-0.0032599999999999,0.8026445,-0.148955,-0.3205199999999999,1.1914445,-0.150375,-0.3292899999999999,0.8580945,-0.485815,-0.0866989999999999,1.1519845,-0.4790149999999999,-0.0979719999999999
60,0.989778,0.65673,-0.214987,0.8174980000000001,0.471037,-0.186036,0.649018,0.62696,-0.320835,1.149328,0.459889,-0.20826,1.285968,0.63705,-0.373355,0.655288,0.87191,-0.433845,1.257778,0.87032,-0.476685,0.91774,0.0006599999999999,0.0034349999999999,1.08226,-0.0006599999999999,-0.003435,0.800738,-0.13516,-0.3262049999999999,1.193328,-0.13683,-0.335085,0.8579479999999999,-0.47241,-0.092323,1.151108,-0.46629,-0.103686
61,0.9881980000000001,0.651625,-0.224022,0.816875,0.466861,-0.192226,0.6479250000000001,0.620255,-0.3309149999999999,1.1472149999999999,0.45569,-0.215167,1.283525,0.630245,-0.385825,0.654775,0.862115,-0.4486949999999999,1.255565,0.864725,-0.493155,0.917756,0.000555,0.0034649999999999,1.082244,-0.0005549999999999,-0.0034649999999999,0.7990349999999999,-0.1217949999999999,-0.331685,1.195555,-0.1243849999999999,-0.340665,0.857665,-0.4589449999999999,-0.0976779999999999,1.150455,-0.453805,-0.1091939999999999
62,0.9867005,0.6470499999999999,-0.231782,0.8165395,0.4616989999999999,-0.198258,0.6471795,0.61435,-0.34024,1.1451095,0.4521759999999999,-0.221351,1.2814394999999998,0.62323,-0.39663,0.6545795,0.85613,-0.46351,1.2531495000000001,0.85881,-0.5077400000000001,0.9178515,0.0003499999999999,0.0036199999999999,1.0821485,-0.00035,-0.00362,0.7976695,-0.10851,-0.33689,1.1979095,-0.11145,-0.34583,0.8576995000000001,-0.44538,-0.102754,1.1501795,-0.4411900000000001,-0.114384
63,0.9850865,0.6403350000000001,-0.2390219999999999,0.8159535,0.458014,-0.2035819999999999,0.6465535,0.607305,-0.34923,1.1431635,0.448968,-0.2267219999999999,1.2795535,0.616495,-0.40647,0.6544635000000001,0.849145,-0.47724,1.2507935,0.851195,-0.52153,0.9178535,0.000315,0.00367,1.0821465,-0.0003149999999999,-0.0036699999999999,0.7966335,-0.0967749999999999,-0.3409999999999999,1.2001935,-0.0999649999999999,-0.34952,0.8578034999999999,-0.4334049999999999,-0.1070329999999999,1.1500335,-0.4301849999999999,-0.1188209999999999
64,0.9834920000000001,0.633945,-0.246131,0.815301,0.455789,-0.208785,0.645991,0.602645,-0.35838,1.141071,0.446126,-0.232085,1.277781,0.611835,-0.41589,0.654161,0.842165,-0.49069,1.248531,0.8457749999999999,-0.53433,0.9178590000000001,0.000265,0.00389,1.0821409999999998,-0.0002649999999999,-0.00389,0.795721,-0.0840549999999999,-0.34438,1.2021709999999999,-0.087465,-0.3525,0.857881,-0.4205949999999999,-0.111175,1.149921,-0.418235,-0.122958
65,0.9819705000000001,0.62889,-0.252442,0.8145955,0.453254,-0.213443,0.6456955,0.59824,-0.367175,1.1390555,0.443648,-0.2368279999999999,1.2761755,0.60717,-0.424435,0.6542355,0.83681,-0.5030049999999999,1.2463755,0.84039,-0.5464549999999999,0.9178675000000001,0.00013,0.004085,1.0821325,-0.00013,-0.004085,0.7946955,-0.07159,-0.347075,1.2039355,-0.0751899999999999,-0.3548949999999999,0.8579055000000001,-0.40801,-0.1148559999999999,1.1498154999999999,-0.4065,-0.126584
66,0.9810805,0.624585,-0.257969,0.8147095,0.451722,-0.217704,0.6461494999999999,0.593935,-0.375525,1.1379294999999998,0.441814,-0.241039,1.2753394999999998,0.602265,-0.432095,0.6549995,0.8302050000000001,-0.514935,1.2452595,0.834765,-0.557715,0.9179015,7.499999999999174e-05,0.0042249999999999,1.0820985,-7.499999999999174e-05,-0.004225,0.7943595,-0.0596649999999999,-0.349465,1.2062195,-0.063235,-0.356825,0.8585595,-0.3959749999999999,-0.118232,1.1504195,-0.3952449999999999,-0.129927
67,0.9804455000000001,0.620285,-0.263174,0.8148365000000001,0.451058,-0.221285,0.6464565,0.589135,-0.38258,1.1369665,0.439918,-0.244475,1.2747165,0.597575,-0.43861,0.6556465,0.823915,-0.52554,1.2442565,0.829645,-0.56749,0.9178895,0.000205,0.0043699999999999,1.0821105,-0.000205,-0.00437,0.7939765,-0.0484949999999999,-0.35126,1.2083765,-0.051945,-0.3584,0.8592065,-0.3846349999999999,-0.121003,1.1510465,-0.384825,-0.132679
68,0.9796785,0.617235,-0.2671759999999999,0.8148515000000001,0.4497919999999999,-0.224635,0.6465715000000001,0.586185,-0.389085,1.1360115,0.439775,-0.247665,1.2741815,0.593335,-0.444345,0.6558815,0.818005,-0.535385,1.2431715,0.823565,-0.5768150000000001,0.9179015,-4.999999999977245e-06,0.004505,1.0820985,4.999999999977245e-06,-0.004505,0.7932115,-0.037475,-0.352925,1.2099214999999999,-0.0408549999999999,-0.3596749999999999,0.8596015000000001,-0.373545,-0.123501,1.1514515,-0.374665,-0.135194
69,0.9789165000000001,0.61371,-0.270323,0.8149615,0.4500699999999999,-0.22731,0.6465415,0.582979,-0.39471,1.1353214999999999,0.439654,-0.250334,1.2737215,0.5897399999999999,-0.4490499999999999,0.6560414999999999,0.81416,-0.54406,1.2422214999999999,0.81587,-0.58506,0.9179615,-1.000000000001e-05,0.0045499999999999,1.0820385,1.000000000001e-05,-0.0045499999999999,0.7924215,-0.0268499999999999,-0.35392,1.2111815,-0.0303,-0.36035,0.8599215,-0.36302,-0.125496,1.1518015,-0.36499,-0.137059
70,0.9784965,0.6094499999999999,-0.273015,0.8151625,0.4496279999999999,-0.229694,0.6465425,0.579182,-0.39939,1.1348625,0.4403339999999999,-0.252681,1.2734325,0.58687,-0.45312,0.6562025,0.8095699999999999,-0.55196,1.2416825,0.8076,-0.5918,0.9180655,-6.0000000000004494e-05,0.00472,1.0819345,5.999999999994898e-05,-0.00472,0.7917725000000001,-0.01732,-0.35478,1.2120825,-0.02084,-0.36096,0.8602625,-0.3535400000000001,-0.127245,1.1521625,-0.35625,-0.138714
71,0.9783225000000001,0.60588,-0.275081,0.8153505,0.450096,-0.231421,0.6466305,0.575951,-0.40257,1.1348805,0.441005,-0.254449,1.2735805,0.585983,-0.45661,0.6562805,0.8053,-0.55755,1.2417305,0.80515,-0.5972,0.9182985,-0.0001299999999999,0.00484,1.0817015,0.0001299999999999,-0.00484,0.7911005,-0.00946,-0.35487,1.2124205,-0.0130399999999999,-0.36118,0.8604705,-0.34587,-0.128518,1.1523605,-0.3491299999999999,-0.140022
72,0.978578,0.604444,-0.277106,0.815624,0.4513349999999999,-0.232895,0.646874,0.573421,-0.40512,1.135024,0.4411059999999999,-0.256099,1.273794,0.5850819999999999,-0.45996,0.6564540000000001,0.8011949999999999,-0.56267,1.241904,0.8023149999999999,-0.60223,0.9186110000000001,-5.500000000002725e-05,0.00497,1.081389,5.499999999991623e-05,-0.00497,0.7906340000000001,-0.002095,-0.35473,1.212744,-0.005715,-0.36153,0.860734,-0.3386150000000001,-0.129888,1.1526539999999998,-0.3422750000000001,-0.141247
73,0.978736,0.603729,-0.278705,0.8157890000000001,0.45114,-0.233992,0.6470290000000001,0.5698719999999999,-0.40689,1.135199,0.4409659999999999,-0.257273,1.2739289999999999,0.5828399999999999,-0.46257,0.6564989999999999,0.796335,-0.56688,1.241989,0.798715,-0.6064,0.918666,-8.500000000000174e-05,0.0050599999999999,1.081334,8.500000000000174e-05,-0.00506,0.790149,0.0032149999999999,-0.3544,1.213019,-0.000425,-0.36165,0.860919,-0.333435,-0.130776,1.152819,-0.337335,-0.142113
74,0.9786900000000001,0.602756,-0.2804029999999999,0.816043,0.451007,-0.2350169999999999,0.6469930000000002,0.566465,-0.40817,1.135173,0.440868,-0.258387,1.274033,0.58045,-0.4650499999999999,0.656013,0.7916650000000001,-0.57057,1.241883,0.7951349999999999,-0.61018,0.918669,-6.499999999998174e-05,0.00515,1.081331,6.499999999998174e-05,-0.0051499999999999,0.7896730000000001,0.007565,-0.3539899999999999,1.213073,0.004055,-0.36188,0.8608830000000001,-0.329075,-0.1316419999999999,1.152833,-0.333205,-0.1429639999999999
75,0.9787245000000001,0.6014600000000001,-0.282146,0.8164415,0.451525,-0.236008,0.6469815,0.562953,-0.409155,1.1351015,0.4405430000000001,-0.2594619999999999,1.2742115,0.5780830000000001,-0.467385,0.6553614999999999,0.7873400000000002,-0.573715,1.2418515,0.7920200000000001,-0.613515,0.9187075000000001,0.00014,0.005245,1.0812925,-0.0001399999999999,-0.005245,0.7892815,0.01104,-0.353535,1.2130515,0.0076600000000001,-0.362185,0.8607915000000002,-0.3254699999999999,-0.132463,1.1527815,-0.3299299999999999,-0.143774
76,0.9789465,0.6005790000000001,-0.283724,0.8169445000000001,0.4516500000000001,-0.236998,0.6471545000000001,0.5598820000000001,-0.41015,1.1353545,0.440452,-0.2605929999999999,1.2747145,0.5754270000000001,-0.4697199999999999,0.6547244999999999,0.78268,-0.57675,1.2420545,0.7885000000000001,-0.61678,0.9187415,0.00023,0.0054,1.0812585,-0.0002299999999999,-0.0053999999999999,0.7890445,0.01343,-0.35319,1.2130745,0.0100500000000001,-0.36253,0.8607045,-0.3229599999999999,-0.1333599999999999,1.1527645,-0.3275399999999999,-0.1447569999999999
77,0.97896,0.6003850000000001,-0.28484,0.817234,0.4511650000000001,-0.23803,0.6470940000000001,0.557444,-0.411175,1.135414,0.4401590000000001,-0.261766,1.2751139999999999,0.5732630000000001,-0.471725,0.654064,0.779445,-0.579365,1.242114,0.7850950000000001,-0.619985,0.9187750000000001,0.000245,0.0055649999999999,1.0812249999999999,-0.0002449999999999,-0.005565,0.788734,0.014345,-0.352835,1.212804,0.010905,-0.362955,0.8603540000000001,-0.3218249999999999,-0.134346,1.152474,-0.3264549999999999,-0.145773
78,0.9790705,0.6003850000000001,-0.2854959999999999,0.8171745,0.4511650000000001,-0.238892,0.6469644999999999,0.557444,-0.412165,1.1353145,0.4401590000000001,-0.2627279999999999,1.2754645,0.5732630000000001,-0.473225,0.6534145,0.7781250000000001,-0.5815049999999999,1.2421945,0.7839950000000001,-0.622755,0.9188085,0.000245,0.005675,1.0811915,-0.0002449999999999,-0.0056749999999999,0.7882145,0.014145,-0.352545,1.2123745,0.0106450000000001,-0.363395,0.8598445,-0.3217749999999999,-0.1351909999999999,1.1520145,-0.3264749999999999,-0.1466239999999999
79,0.979439,0.6003850000000001,-0.285854,0.817128,0.4511650000000001,-0.239705,0.646908,0.557444,-0.412785,1.135308,0.4401590000000001,-0.263561,1.276008,0.5732630000000001,-0.474345,0.6528780000000001,0.7781250000000001,-0.583345,1.242468,0.7839950000000001,-0.625095,0.918768,0.000245,0.005745,1.081232,-0.0002449999999999,-0.005745,0.7876879999999999,0.014005,-0.352135,1.211878,0.0103550000000001,-0.363795,0.8593379999999999,-0.3218449999999999,-0.136011,1.151548,-0.3264749999999999,-0.147427
80,0.980003,0.6003850000000001,-0.285419,0.817022,0.4511650000000001,-0.239773,0.646872,0.557444,-0.412875,1.135212,0.4401590000000001,-0.2636119999999999,1.276622,0.5732630000000001,-0.475035,0.6522220000000001,0.7781250000000001,-0.584245,1.243032,0.7839950000000001,-0.625555,0.918703,0.000245,0.005665,1.081297,-0.0002449999999999,-0.0056649999999999,0.787192,0.013975,-0.351105,1.211282,0.0099850000000001,-0.363625,0.858732,-0.3218349999999998,-0.135931,1.150992,-0.3264749999999999,-0.147444
81,0.980268,0.6019469999999999,-0.285527,0.816751,0.4500819999999999,-0.239653,0.646541,0.5551679999999999,-0.41296,1.1347809999999998,0.4390229999999999,-0.263571,1.276991,0.571043,-0.47541,0.651131,0.7757599999999999,-0.5845,1.243551,0.7816299999999999,-0.6256700000000001,0.918479,0.0003099999999999,0.00564,1.081521,-0.00031,-0.00564,0.786321,0.0111899999999999,-0.35013,1.210161,0.0070799999999999,-0.36344,0.8577710000000001,-0.3242100000000001,-0.135807,1.150141,-0.32878,-0.147332
82,0.9805045,0.602866,-0.284717,0.8169245,0.450106,-0.239569,0.6464745000000001,0.553516,-0.41303,1.1346245,0.438011,-0.263457,1.2776144999999999,0.569998,-0.47543,0.6503245,0.773255,-0.58449,1.2447445,0.780225,-0.62571,0.9181225000000001,0.000375,0.0056499999999999,1.0818774999999998,-0.000375,-0.00565,0.7857545,0.0063349999999999,-0.34923,1.2093245,0.002535,-0.36318,0.8571145,-0.3288449999999999,-0.13558,1.1495845,-0.3332849999999999,-0.14722
83,0.9810960000000001,0.605256,-0.284331,0.817532,0.4489829999999999,-0.239479,0.6466820000000001,0.552898,-0.41303,1.134822,0.436116,-0.263338,1.278512,0.566881,-0.47546,0.6499520000000001,0.76939,-0.58448,1.246512,0.77841,-0.6257600000000001,0.91782,0.0005699999999999,0.0056599999999999,1.08218,-0.0005699999999999,-0.00566,0.7855720000000002,-0.0029299999999999,-0.34845,1.208962,-0.0066199999999999,-0.36281,0.856822,-0.33806,-0.135328,1.149402,-0.34237,-0.147079
84,0.9817445000000001,0.60793,-0.28364,0.8182605000000001,0.4475029999999999,-0.239267,0.6465405,0.5530329999999999,-0.41285,1.1353705,0.4361709999999999,-0.262773,1.2796305000000001,0.565684,-0.47532,0.6496405000000001,0.76843,-0.5844199999999999,1.2485405,0.7777999999999999,-0.62521,0.9176664999999999,0.0005499999999999,0.0056199999999999,1.0823335,-0.00055,-0.00562,0.7857305,-0.01413,-0.34737,1.2087605,-0.01783,-0.362,0.8566705,-0.34916,-0.134996,1.1494105000000001,-0.3533400000000001,-0.146888
85,0.9823100000000001,0.6111,-0.282014,0.818893,0.448317,-0.23849,0.646593,0.552584,-0.412095,1.135993,0.436334,-0.261599,1.280543,0.567118,-0.4736249999999999,0.649403,0.76791,-0.583275,1.250713,0.77805,-0.623075,0.9176360000000001,0.00074,0.0055149999999999,1.0823639999999999,-0.00074,-0.0055149999999999,0.786383,-0.0287099999999999,-0.345505,1.208473,-0.0324399999999999,-0.360275,0.8567030000000001,-0.36365,-0.13413,1.149653,-0.36762,-0.146151
86,0.9830975000000001,0.615515,-0.2796119999999999,0.8195275,0.448637,-0.2374629999999999,0.6467475,0.5546150000000001,-0.410705,1.1367175,0.437601,-0.259912,1.2813474999999999,0.569313,-0.471265,0.6491275000000001,0.769645,-0.580855,1.2531075,0.780695,-0.619695,0.9175165,0.000795,0.005355,1.0824835,-0.0007949999999999,-0.0053549999999999,0.7873275,-0.0458149999999999,-0.343055,1.2079675,-0.0489849999999999,-0.357615,0.8568375,-0.3805849999999999,-0.132789,1.1499775,-0.384255,-0.1449389999999999
87,0.9837345,0.61981,-0.275549,0.8201215,0.448724,-0.235821,0.6469914999999999,0.55852,-0.40853,1.1375715,0.439161,-0.257546,1.2823015,0.57294,-0.46787,0.6487715000000001,0.7747900000000001,-0.57767,1.2555015,0.78461,-0.61507,0.9173235,0.00069,0.0051999999999999,1.0826765,-0.0006899999999999,-0.0052,0.7885215,-0.0654399999999999,-0.33957,1.2072315,-0.0676999999999999,-0.35381,0.8570815,-0.40057,-0.130807,1.1503215,-0.4038899999999999,-0.143098
88,0.9841465000000001,0.627175,-0.270389,0.8205795,0.449991,-0.233312,0.6472495,0.563455,-0.405705,1.1383995,0.4412,-0.254472,1.2830395,0.578665,-0.463665,0.6484695,0.7810250000000001,-0.5729850000000001,1.2578195,0.7901450000000001,-0.6092150000000001,0.9171085,0.0006349999999999,0.0049849999999999,1.0828915000000001,-0.0006349999999999,-0.004985,0.7899895,-0.0864049999999999,-0.335175,1.2061395,-0.087705,-0.348935,0.8573095,-0.4227349999999999,-0.128551,1.1507895,-0.4260549999999999,-0.140848
89,0.9849425,0.6332599999999999,-0.26441,0.8210915,0.4540679999999999,-0.2298799999999999,0.6476715,0.57034,-0.401795,1.1391415,0.4436,-0.250313,1.2838415,0.5845,-0.458005,0.6482515000000001,0.78898,-0.565995,1.2600514999999999,0.79653,-0.601625,0.9169595000000001,0.0008799999999999,0.004765,1.0830404999999999,-0.0008799999999999,-0.0047649999999999,0.7920715,-0.10899,-0.3293049999999999,1.2048515,-0.10916,-0.342635,0.8577315,-0.44738,-0.1253619999999999,1.1514615,-0.44997,-0.1376629999999999
90,0.9857365,0.6406,-0.257472,0.8216525,0.4577859999999999,-0.225677,0.6481224999999999,0.57616,-0.396735,1.1401025,0.448576,-0.245435,1.2847325,0.59015,-0.451155,0.6482825,0.79714,-0.558045,1.2619225,0.80338,-0.592855,0.9169105,0.0007899999999999,0.0045349999999999,1.0830895,-0.00079,-0.004535,0.7946325,-0.13155,-0.322215,1.2029425,-0.13062,-0.334825,0.8580625,-0.47321,-0.121457,1.1521125,-0.4751000000000001,-0.133765
91,0.9867835,0.64801,-0.249676,0.8224165,0.4619,-0.220973,0.6486864999999999,0.5840299999999999,-0.390065,1.1412465,0.4525599999999999,-0.240225,1.2857965,0.59683,-0.443485,0.6485365000000001,0.80621,-0.548535,1.2635965,0.80834,-0.583175,0.9168775,0.0009899999999999,0.0042349999999999,1.0831225,-0.00099,-0.004235,0.7978065,-0.15353,-0.313945,1.2008665,-0.15142,-0.325935,0.8571664999999999,-0.49966,-0.119855,1.1539265,-0.50075,-0.131512
92,0.9878190000000001,0.65618,-0.239781,0.823036,0.46796,-0.215181,0.649376,0.59391,-0.382365,1.142666,0.45732,-0.2339959999999999,1.286926,0.6070800000000001,-0.433995,0.6494260000000001,0.8203,-0.536675,1.265446,0.81595,-0.572355,0.91683,0.00107,0.0040749999999999,1.08317,-0.0010699999999999,-0.0040749999999999,0.802096,-0.1751399999999999,-0.302535,1.197856,-0.1716099999999999,-0.314875,0.8564160000000001,-0.52798,-0.117146,1.155936,-0.5282399999999999,-0.128053
93,0.989537,0.6654,-0.229686,0.82399,0.47387,-0.208918,0.65073,0.60222,-0.37383,1.14476,0.46295,-0.227164,1.28881,0.6155200000000001,-0.42378,0.6512800000000001,0.83133,-0.52463,1.26777,0.82488,-0.56116,0.917096,0.0010399999999999,0.004,1.082904,-0.0010399999999999,-0.004,0.80737,-0.19676,-0.2897,1.19482,-0.1917,-0.3019699999999999,0.85655,-0.55765,-0.113526,1.15849,-0.5561200000000001,-0.123901
94,0.9912175,0.67425,-0.218828,0.8245534999999999,0.4800799999999999,-0.201631,0.6522235000000001,0.61266,-0.364565,1.1466335,0.4681599999999999,-0.219759,1.2906235,0.6235999999999999,-0.413775,0.6530135,0.84258,-0.511665,1.2698635,0.83301,-0.549515,0.9174855000000001,0.0009199999999999,0.0038149999999999,1.0825144999999998,-0.00092,-0.003815,0.8125435,-0.21659,-0.275505,1.1915235,-0.21089,-0.287675,0.8569835,-0.58574,-0.108208,1.1604235,-0.58321,-0.117816
95,0.9924995,0.679605,-0.206981,0.8244555,0.485865,-0.193947,0.6534655,0.621415,-0.35441,1.1482155,0.474415,-0.211729,1.2918155,0.630725,-0.40272,0.6543455,0.8562150000000001,-0.4983,1.2713455,0.8405250000000001,-0.5371,0.9179885,0.0007149999999999,0.0037099999999999,1.0820115,-0.0007149999999999,-0.00371,0.8174655,-0.235725,-0.25955,1.1874954999999998,-0.2296549999999999,-0.27182,0.8571355,-0.613275,-0.101662,1.1615754999999999,-0.609725,-0.110955
96,0.9932710000000001,0.68641,-0.194546,0.823793,0.49478,-0.185806,0.6542130000000002,0.6300699999999999,-0.3436,1.149233,0.47956,-0.203273,1.292403,0.63781,-0.39077,0.6552530000000001,0.8665,-0.48404,1.2721230000000001,0.8486199999999999,-0.52436,0.91837,0.0005499999999999,0.00347,1.08163,-0.00055,-0.00347,0.822273,-0.25377,-0.241835,1.182643,-0.24724,-0.25465,0.856933,-0.63927,-0.09437,1.1622029999999999,-0.63455,-0.103589
97,0.9945480000000001,0.69045,-0.181109,0.823439,0.50047,-0.177039,0.6550389999999999,0.63842,-0.331585,1.150529,0.48405,-0.194035,1.293259,0.64356,-0.377245,0.6565190000000001,0.87643,-0.468735,1.272999,0.8553299999999999,-0.5105550000000001,0.9186370000000001,0.0003799999999999,0.0032049999999999,1.0813629999999999,-0.0003799999999999,-0.003205,0.827779,-0.27885,-0.222309,1.177279,-0.2729499999999999,-0.235508,0.857189,-0.6649799999999999,-0.086613,1.162849,-0.66052,-0.09565
98,0.9960935,0.69532,-0.1666019999999999,0.8229705,0.50397,-0.1685499999999999,0.6560805000000001,0.64606,-0.3193249999999999,1.1521104999999998,0.49068,-0.184715,1.2937604999999999,0.6535,-0.364365,0.6584105,0.8842,-0.453345,1.2736705,0.86178,-0.4962149999999999,0.9189625,-7.999999999999674e-05,0.002915,1.0810375,8.00000000000245e-05,-0.002915,0.8335305,-0.30272,-0.2016509999999999,1.1713405,-0.29782,-0.215137,0.8573904999999999,-0.6890499999999999,-0.0790539999999999,1.1632604999999998,-0.6853899999999999,-0.0874529999999999
99,0.997602,0.7001900000000001,-0.146901,0.822708,0.5073,-0.154693,0.658228,0.6563800000000001,-0.30163,1.153768,0.4946399999999999,-0.169988,1.294328,0.6620900000000001,-0.34614,0.660778,0.8952,-0.43088,1.274448,0.87233,-0.47563,0.919217,-0.0003399999999999,0.0025699999999999,1.080783,0.00034,-0.00257,0.839478,-0.32608,-0.17448,1.165508,-0.32231,-0.188371,0.857828,-0.71141,-0.065616,1.163578,-0.70877,-0.07343
100,0.9990405000000001,0.7038519999999999,-0.125243,0.8225205000000001,0.5102519999999999,-0.138715,0.6608305,0.6628019999999999,-0.282885,1.1557805,0.499712,-0.153205,1.2949004999999998,0.667422,-0.326155,0.6634005000000001,0.902842,-0.407275,1.2749405,0.8809720000000001,-0.453245,0.9194495,-0.0004939999999999,0.002165,1.0805505,0.0004939999999999,-0.002165,0.8461405000000001,-0.351028,-0.142475,1.1591305,-0.348348,-0.157229,0.8583505000000001,-0.734238,-0.049877,1.1638105,-0.7327379999999999,-0.057532
101,1.000368,0.7078035,-0.1061614999999999,0.822821,0.5120435,-0.1241205,0.6638109999999999,0.6672935,-0.2649645,1.158051,0.5057935,-0.1374145,1.295481,0.6723335,-0.3072844999999999,0.666821,0.9085835,-0.3848745,1.275271,0.8894135000000001,-0.4308645,0.919653,-0.0007644999999999,0.0017325,1.080347,0.0007645,-0.0017324999999999,0.851921,-0.3712465,-0.1136325,1.153811,-0.3685765,-0.1282114999999999,0.858811,-0.7516165,-0.0351694999999999,1.1640309999999998,-0.7512065,-0.0426654999999999
102,1.00176,0.7098195,-0.0866469999999999,0.82332,0.5148595,-0.1090879999999999,0.66744,0.6731595,-0.246532,1.16022,0.5089995,-0.1218229999999999,1.29589,0.6780795,-0.288222,0.67033,0.9146395,-0.361982,1.2753999999999999,0.8966795,-0.408432,0.919733,-0.0007155,0.001309,1.080267,0.0007155,-0.0013089999999999,0.85736,-0.3883205,-0.085667,1.1493,-0.3856505,-0.1004719999999999,0.8593100000000001,-0.7663005,-0.0202599999999999,1.16433,-0.7677705,-0.0275149999999999
103,1.0029955,0.7115525,-0.06723,0.8235835,0.5151224999999999,-0.094577,0.6711835000000002,0.6780825,-0.228718,1.1624435,0.5129525,-0.106446,1.2960034999999999,0.6827425,-0.269188,0.6742135,0.9219425,-0.339338,1.2750735,0.9044925,-0.386278,0.9198485,-0.0007995,0.000911,1.0801515,0.0007995,-0.0009109999999999,0.8623535,-0.4026175,-0.058836,1.1449835,-0.3998975,-0.0749539999999999,0.8609735000000001,-0.7796275,-0.0028579999999999,1.1633735,-0.7820675,-0.0106129999999999
104,1.0042674999999999,0.715497,-0.0487025,0.8238945,0.5162869999999999,-0.0803675,0.6751645,0.682867,-0.2112595,1.1645345,0.514557,-0.0914045,1.2962544999999999,0.688477,-0.2506895,0.6783745,0.925927,-0.3170195,1.2745045,0.911277,-0.3644995,0.9199235,-0.0007299999999999,0.0005164999999999,1.0800765,0.00073,-0.0005165,0.8670445,-0.415583,-0.0339025,1.1414445,-0.414133,-0.0516625,0.8625545,-0.791203,0.0138664999999999,1.1624945,-0.793743,0.0055624999999999
105,1.0051979999999998,0.7183885000000001,-0.030974,0.823963,0.5142085000000001,-0.066736,0.6789229999999999,0.6866885,-0.194734,1.166363,0.5172384999999999,-0.076902,1.296233,0.6933085000000001,-0.233064,0.682293,0.9304885,-0.295454,1.273603,0.9169285,-0.342974,0.9199400000000001,-0.0007084999999999,0.000209,1.0800599999999998,0.0007085,-0.000209,0.8708629999999999,-0.4278415,-0.011397,1.138203,-0.4277714999999999,-0.030556,0.863743,-0.8006914999999999,0.0293399999999999,1.161463,-0.8031215,0.0205419999999999
106,1.0060349999999998,0.7209075,-0.0137714999999999,0.824074,0.5141375,-0.0531294999999999,0.682714,0.6902075000000001,-0.1788585,1.168244,0.5196375000000001,-0.0624255,1.296314,0.6979675000000001,-0.2161385,0.686604,0.9350975,-0.2746185,1.272814,0.9229575,-0.3216285,0.9199930000000001,-0.0006485,8.750000000000077e-05,1.080007,0.0006484999999999,-8.74999999999973e-05,0.8739340000000001,-0.4390325,0.0090675,1.135894,-0.4398625,-0.0118295,0.864534,-0.8076224999999999,0.0435445,1.160894,-0.8100124999999999,0.0340425
107,1.0065045,0.7234075,0.001791,0.8244465,0.5138775,-0.0398479999999999,0.6860565000000001,0.6922575,-0.1638879999999999,1.1696865,0.5192175,-0.048517,1.2964565000000001,0.6980375,-0.1993579999999999,0.6905365,0.9394675,-0.255538,1.2720665,0.9284375,-0.301818,0.9200905,-0.0004394999999999,3.500000000000031e-05,1.0799095,0.0004394999999999,-3.500000000000031e-05,0.8762265,-0.4500825,0.026871,1.1344165,-0.4518425,0.004434,0.8651865000000001,-0.8132024999999999,0.056492,1.1607665,-0.8165325,0.046268
108,1.006807,0.724444,0.0115004999999999,0.824781,0.5151239999999999,-0.0323725,0.688851,0.692394,-0.1552535,1.171061,0.519964,-0.0403775,1.296371,0.6988939999999999,-0.1888435,0.6938610000000001,0.940264,-0.2443135,1.271371,0.929204,-0.2889735,0.9201900000000001,-8.399999999999987e-05,3.850000000000034e-05,1.07981,8.400000000000031e-05,-3.850000000000034e-05,0.8778110000000001,-0.460286,0.0368455,1.1334209999999998,-0.463206,0.0127005,0.865541,-0.817446,0.0626175,1.160531,-0.8221160000000001,0.0520285
109,1.007103,0.725742,0.0187285,0.825086,0.515742,-0.0273285,0.691046,0.6945920000000001,-0.1490345,1.171856,0.520432,-0.0344285,1.2961859999999998,0.701042,-0.1808145,0.696906,0.943032,-0.2358345,1.2708359999999999,0.932382,-0.2788045,0.920287,-0.0001099999999999,0.0001974999999999,1.079713,0.0001099999999999,-0.0001974999999999,0.878126,-0.461228,0.0407724999999999,1.133096,-0.464198,0.0158195,0.865436,-0.8191179999999999,0.0660584999999999,1.160206,-0.823738,0.0553675
110,1.007472,0.7262565,0.025811,0.825446,0.5164165,-0.022347,0.692916,0.6955865,-0.143306,1.1725459999999999,0.5204664999999999,-0.028784,1.296036,0.7015665,-0.1736059999999999,0.6992659999999999,0.9435465,-0.229066,1.270646,0.9333465,-0.270816,0.920372,-8.250000000000011e-05,0.000381,1.079628,8.249999999999989e-05,-0.000381,0.878396,-0.4619634999999999,0.044328,1.132776,-0.4648135,0.018818,0.8652960000000001,-0.8203935,0.069285,1.1598959999999998,-0.8244335,0.058467
111,1.0080075,0.7268355,0.0320605,0.8260455,0.5165854999999999,-0.0182105,0.6943755,0.6959154999999999,-0.1386715,1.1733655,0.5204455,-0.0238724999999999,1.2962855,0.7013155,-0.1675215,0.7015755,0.9441155,-0.2235415,1.2705855,0.9331055,-0.2642215,0.9205065,-1.850000000000007e-05,0.0004955,1.0794934999999999,1.8499999999999853e-05,-0.0004954999999999,0.8786955,-0.4623744999999999,0.0469505,1.1326055,-0.4651245,0.0212925,0.8652755,-0.8213545,0.0719585,1.1598755,-0.8246845,0.0609614999999999
112,1.0083525,0.7270894999999999,0.0371095,0.8264585,0.5166895,-0.0146245,0.6953085,0.6958694999999999,-0.1349285,1.1739085,0.5203995,-0.0197205,1.2964285,0.7012695,-0.1626185,0.7031585,0.9440695,-0.2197485,1.2703285,0.9330595,-0.2592184999999999,0.9205525,2.7499999999999964e-05,0.0006624999999999,1.0794475000000001,-2.750000000000018e-05,-0.0006625,0.8788185,-0.4625804999999999,0.0490414999999999,1.1323085,-0.4652104999999999,0.0229305,0.8650685,-0.8220305,0.0741935,1.1596485,-0.8247305,0.0630835
113,1.0086975,0.7272894999999999,0.041418,0.8267805,0.5167295,-0.0114229999999999,0.6960305,0.6958694999999999,-0.131805,1.1744505,0.5203995,-0.016131,1.2967505,0.7012695,-0.1585949999999999,0.7041005,0.9440695,-0.2170949999999999,1.2700505,0.9330595,-0.255525,0.9206115,2.7499999999999964e-05,0.00077,1.0793885,-2.750000000000018e-05,-0.00077,0.8789605,-0.4628704999999999,0.050772,1.1320605,-0.4652405,0.023754,0.8648405,-0.8225905,0.075996,1.1594404999999999,-0.8247305,0.064841
114,1.0090614999999998,0.7273495,0.04507,0.8270135000000001,0.5167295,-0.008596,0.6965735,0.6958694999999999,-0.129278,1.1749335,0.5203995,-0.012981,1.2972435,0.7009894999999999,-0.155528,0.7048135,0.9440695,-0.2152079999999999,1.2700935,0.9330595,-0.252898,0.9206685,2.7499999999999964e-05,0.000923,1.0793314999999999,-2.750000000000018e-05,-0.000923,0.8790835,-0.4631504999999999,0.052175,1.1318835,-0.4651504999999999,0.023677,0.8645735,-0.8230405000000001,0.077458,1.1591935,-0.8245505000000001,0.066255
115,1.0094144999999999,0.7273545,0.0471705,0.8272465,0.5167445,-0.0067125,0.6968965,0.6957845,-0.1278025,1.1754065,0.5201645,-0.0109355,1.2980665,0.6997545000000001,-0.1540925,0.7052165,0.9433445,-0.2145025,1.2704965,0.9323145,-0.2521724999999999,0.9207155,3.249999999999998e-05,0.0008955,1.0792845,-3.249999999999998e-05,-0.0008955,0.8791665,-0.4633855,0.0524805,1.1318765,-0.4651455,0.0233285,0.8643665,-0.8232254999999999,0.0782085,1.1590565,-0.8243155,0.0669335
116,1.0098135,0.7274305,0.0487234999999999,0.8274735,0.5168205,-0.0052435,0.6971635,0.6952904999999999,-0.1266354999999999,1.1758935,0.5198305,-0.0094335,1.2988835,0.6978905,-0.1532754999999999,0.7055035000000001,0.9418205,-0.2140055,1.2712035,0.9311105,-0.2516755,0.9207755,9.65e-05,0.0008285,1.0792245,-9.65e-05,-0.0008284999999999,0.8792935,-0.4635094999999999,0.0525115,1.1318735,-0.4650694999999999,0.0229534999999999,0.8642135000000001,-0.8232995000000001,0.0787545,1.1589935,-0.8239995,0.0674155
117,1.0102609999999999,0.7275525,0.0499565,0.827671,0.5169425000000001,-0.0040535,0.697291,0.6945125000000001,-0.1257095,1.176311,0.5194725,-0.0083045,1.299671,0.6961625,-0.1528695,0.705721,0.9403725,-0.2135795,1.272071,0.9296525,-0.2512695,0.920823,0.0001544999999999,0.0007274999999999,1.079177,-0.0001545,-0.0007275,0.8794510000000001,-0.4636075,0.0524085,1.131921,-0.4649475,0.0225975,0.8640909999999999,-0.8233174999999999,0.0792145,1.158911,-0.8236975,0.0678445
118,1.0106495,0.72771,0.0507965,0.8278215,0.51706,-0.0029265,0.6972615,0.69375,-0.1248875,1.1766315,0.51915,-0.0073785,1.3005115,0.6944400000000001,-0.1523875,0.7058315,0.93898,-0.2134375,1.2729815,0.92814,-0.2507975,0.9208615,0.0001949999999999,0.0006324999999999,1.0791385,-0.000195,-0.0006325,0.8796215000000001,-0.46363,0.0522335,1.1320215,-0.4648299999999999,0.0223485,0.8639315,-0.8231999999999999,0.0797285,1.1588615,-0.82328,0.0683285
119,1.0109685,0.7278645,0.0515585,0.8279275,0.5171845,-0.0019104999999999,0.6970875000000001,0.6931245,-0.1242145,1.1768775,0.5188745,-0.0065794999999999,1.3013075,0.6929145,-0.1519245,0.7058475,0.9376545,-0.2135545,1.2738775,0.9266745,-0.2506545,0.9208855,0.0002295,0.0005384999999999,1.0791145,-0.0002295,-0.0005384999999999,0.8798175,-0.4636555,0.0520705,1.1320975,-0.4647055,0.0221185,0.8637775,-0.8230755,0.0802455,1.1588075,-0.8228755,0.0687955
120,1.0112335,0.7279694999999999,0.0522665,0.8279795,0.5172995,-0.0009835,0.6969195,0.6924895,-0.1235555,1.1770695,0.5186495,-0.0058705,1.3020595,0.6915895,-0.1514555,0.7057694999999999,0.9363795,-0.2136954999999999,1.2747294999999998,0.9252395,-0.2508455,0.9209134999999999,0.0002555,0.0004614999999999,1.0790865,-0.0002555,-0.0004615,0.8800095,-0.4636705,0.0519445,1.1321295,-0.4646404999999999,0.0220075,0.8636195,-0.8229705,0.0807915,1.1587295,-0.8224905,0.0692815
121,1.0114635,0.7279985,0.0528425,0.8280105,0.5174285,-0.0001694999999999,0.6967505,0.6918785,-0.1229504999999999,1.1772105,0.5184584999999999,-0.0052654999999999,1.3026805000000001,0.6906485,-0.1511705,0.7056205,0.9352285,-0.2138405,1.2754604999999999,0.9240385,-0.2512104999999999,0.9209415,0.0002715,0.0004335,1.0790585,-0.0002715,-0.0004334999999999,0.8801605000000001,-0.4636814999999999,0.0518295,1.1321705,-0.4645614999999999,0.0217925,0.8634705,-0.8228715000000001,0.0812965,1.1586605,-0.8221315,0.0697145
122,1.0116349999999998,0.7280385,0.053339,0.828041,0.5175485000000001,0.0005089999999999,0.696561,0.6913585,-0.122367,1.177251,0.5183385,-0.004762,1.3031709999999999,0.6899985000000001,-0.151117,0.705451,0.9345285,-0.213797,1.276011,0.9231885,-0.2516469999999999,0.920966,0.0002865,0.0004319999999999,1.079034,-0.0002864999999999,-0.000432,0.880321,-0.4637115,0.051753,1.132231,-0.4645015,0.021572,0.863321,-0.8229615,0.081815,1.158601,-0.8218015,0.070126
123,1.011749,0.7280205000000001,0.053865,0.8280620000000001,0.5176005,0.0012469999999999,0.6963520000000001,0.6908805,-0.1217569999999999,1.1772719999999999,0.5182105,-0.004246,1.303592,0.6894505000000001,-0.151057,0.7053119999999999,0.9338305,-0.213617,1.276422,0.9225205,-0.251847,0.9209890000000001,0.0002915,0.000517,1.079011,-0.0002915,-0.000517,0.880492,-0.4637895,0.051758,1.1323619999999999,-0.4645095,0.021368,0.8631920000000001,-0.8231195,0.082401,1.158572,-0.8215595,0.070579
124,1.0118305,0.7279845,0.0544125,0.8280555,0.5176545,0.0020145,0.6961255,0.6904345,-0.1211315,1.1772455,0.5180745,-0.0037024999999999,1.3039355000000001,0.6889745,-0.1509714999999999,0.7051955,0.9334545,-0.2132514999999999,1.2767155,0.9221545,-0.2517614999999999,0.9210045,0.0002934999999999,0.0005825,1.0789955,-0.0002934999999999,-0.0005824999999999,0.8806855,-0.4639155,0.0517485,1.1325155,-0.4645555,0.0211855,0.8630955,-0.8233055,0.0829655,1.1585855,-0.8213155,0.0710575
125,1.0118575,0.7279895000000001,0.055005,0.8279935,0.5177195,0.002826,0.6958235000000002,0.6900695,-0.120447,1.1771735,0.5179795,-0.003107,1.3041935,0.6886295,-0.150807,0.7050635000000001,0.9332695,-0.212777,1.2769235,0.9219395,-0.251527,0.9210055,0.0002915,0.000625,1.0789945,-0.0002915,-0.0006249999999999,0.8808635,-0.4640204999999999,0.0518099999999999,1.1326335,-0.4646004999999999,0.021037,0.8629935,-0.8234104999999999,0.083581,1.1585835,-0.8210605,0.071578
126,1.0118325,0.727977,0.055637,0.8279305,0.517777,0.003647,0.6954905,0.689767,-0.119735,1.1771004999999999,0.517887,-0.002482,1.3043905,0.688317,-0.150575,0.7048805,0.933157,-0.212225,1.2770805,0.921757,-0.251205,0.9210075,0.0002889999999999,0.000752,1.0789925,-0.000289,-0.0007519999999999,0.8810405,-0.464133,0.051968,1.1327605,-0.464643,0.020928,0.8629005000000001,-0.823543,0.08421,1.1586005,-0.820773,0.072091
127,1.0117755,0.7279675,0.0561945,0.8278725,0.5177875000000001,0.0043404999999999,0.6951525000000001,0.6896075,-0.1191545,1.1770325,0.5177875000000001,-0.0020015,1.3044925,0.6881675,-0.1501945,0.7046525,0.9331075,-0.2117145,1.2771725,0.9216975,-0.2507645,0.9209995,0.0002804999999999,0.0008954999999999,1.0790005,-0.0002805,-0.0008955,0.8811725,-0.4642225,0.0522025,1.1328524999999998,-0.4646725,0.0208245,0.8628525,-0.8237224999999999,0.0847175,1.1586325,-0.8205224999999999,0.0725085
128,1.011734,0.7279425,0.0567265,0.827828,0.5177725000000001,0.0050075,0.6948380000000001,0.6894725,-0.1187005,1.176988,0.5177325,-0.0015865,1.304578,0.6880625,-0.1498304999999999,0.704438,0.9331125,-0.2112705,1.277248,0.9216725,-0.2503305,0.921001,0.0002724999999999,0.0010334999999999,1.078999,-0.0002725,-0.0010335,0.8812280000000001,-0.4642975,0.0524295,1.1329479999999998,-0.4646875,0.0207265,0.862818,-0.8238675,0.0851595,1.158688,-0.8202975,0.0728705
129,1.011725,0.7279315,0.0572025,0.827827,0.5177415,0.0056165,0.694577,0.6893815,-0.1182715,1.176977,0.5176815,-0.0012055,1.304657,0.6879915,-0.1494615,0.7042670000000001,0.9331315,-0.2108815,1.277347,0.9216515,-0.2499315,0.9209960000000001,0.0002585,0.0011434999999999,1.0790039999999999,-0.0002585,-0.0011435,0.8813070000000001,-0.4642585,0.0526424999999999,1.133047,-0.4646585,0.0206254999999999,0.862817,-0.8239885,0.0855554999999999,1.158777,-0.8200485,0.0731955
130,1.0117385,0.727955,0.0577025,0.8278285,0.517675,0.0062194999999999,0.6943684999999999,0.689345,-0.1178025,1.1769685,0.517645,-0.0008175,1.3047385,0.687955,-0.1490625,0.7041284999999999,0.933165,-0.2105324999999999,1.2774385,0.921575,-0.2495325,0.9209985,0.0002499999999999,0.0012335,1.0790015,-0.00025,-0.0012335,0.8813485,-0.464245,0.0528335,1.1331185,-0.464585,0.0206855,0.8628285,-0.824085,0.0859625,1.1589285,-0.819765,0.0735145
131,1.011714,0.7279855,0.0582165,0.827793,0.5175755,0.0066394999999999,0.694153,0.6892955,-0.1173335,1.176953,0.5175755,-0.0003985,1.304783,0.6879255,-0.1486434999999999,0.703983,0.9331755,-0.2101235,1.277533,0.9214155,-0.2491135,0.921005,0.0002474999999999,0.0013644999999999,1.078995,-0.0002475,-0.0013645,0.881343,-0.4641345,0.0529955,1.133163,-0.4645245,0.0207515,0.862833,-0.8239845,0.0863744999999999,1.159063,-0.8194745,0.0738365
132,1.0116505,0.7280085,0.058632,0.8277215,0.5174285,0.0069509999999999,0.6939515,0.6892285,-0.116965,1.1769115,0.5175185,-8.800000000000127e-05,1.3048214999999999,0.6879085,-0.148335,0.7038515000000001,0.9331585,-0.209855,1.2776215,0.9212285,-0.248695,0.9210065000000001,0.0002444999999999,0.0014109999999999,1.0789935,-0.0002444999999999,-0.001411,0.8813515000000001,-0.4640115,0.0530039999999999,1.1331715,-0.4644315,0.020801,0.8628415,-0.8238615,0.086683,1.1591815,-0.8191715,0.074073
133,1.011525,0.728022,0.059042,0.827608,0.517252,0.007195,0.693748,0.689082,-0.116694,1.1768480000000001,0.517492,0.000158,1.304848,0.687902,-0.148084,0.703728,0.933072,-0.209624,1.277728,0.920982,-0.248254,0.921009,0.0002509999999999,0.001509,1.078991,-0.000251,-0.001509,0.881348,-0.463878,0.0530169999999999,1.133168,-0.464348,0.0207919999999999,0.862858,-0.823728,0.086926,1.1592779999999998,-0.818918,0.074284
134,1.011375,0.7280615,0.0594385,0.827291,0.5162515000000001,0.0071935,0.6935910000000001,0.6889415000000001,-0.1164735,1.176801,0.5174515000000001,0.0004064999999999,1.304891,0.6879215000000001,-0.1478735,0.703621,0.9329315,-0.2094735,1.277871,0.9207115,-0.2478334999999999,0.921002,0.0002415,0.0016345,1.078998,-0.0002414999999999,-0.0016345,0.881321,-0.4636685,0.0529685,1.133181,-0.4642085,0.0207715,0.862881,-0.8234885,0.0870595,1.159401,-0.8186085,0.0744185
135,1.0111875,0.7280665000000001,0.059812,0.8269575,0.5151965000000001,0.0071979999999999,0.6933875,0.6885165,-0.116273,1.1767575,0.5173865,0.0006699999999999,1.3049575,0.6878865,-0.147633,0.7035075,0.9325165,-0.209543,1.2781175,0.9202965,-0.247283,0.9210065000000001,0.0002275,0.0017059999999999,1.0789935,-0.0002274999999999,-0.001706,0.8813075,-0.4634435,0.0528239999999999,1.1332275,-0.4640835,0.020658,0.8629375,-0.8232835,0.0871199999999999,1.1595275,-0.8183635,0.074518
136,1.010984,0.7281099999999999,0.0601769999999999,0.826621,0.51411,0.007032,0.693181,0.688,-0.116057,1.176681,0.51739,0.001061,1.305081,0.68782,-0.147257,0.7034210000000001,0.93209,-0.209657,1.278391,0.91992,-0.246677,0.9210220000000001,0.000216,0.001793,1.078978,-0.000216,-0.0017929999999999,0.881261,-0.46312,0.052661,1.133281,-0.4639299999999999,0.02053,0.8630010000000001,-0.82304,0.087189,1.159661,-0.81808,0.07461
137,1.010778,0.728145,0.0605175,0.826328,0.5130250000000001,0.0068255,0.692978,0.687415,-0.1158465,1.1766079999999999,0.517355,0.0015005,1.3052380000000001,0.687725,-0.1468465,0.703338,0.931545,-0.2098465,1.278708,0.919495,-0.2460065,0.921041,0.0002,0.0018695,1.078959,-0.0001999999999999,-0.0018694999999999,0.8812280000000001,-0.4628049999999999,0.0524595,1.133338,-0.463755,0.0204025,0.863098,-0.8227949999999999,0.0872574999999999,1.159828,-0.8177949999999999,0.0747025
138,1.010559,0.728178,0.060838,0.8260190000000001,0.511808,0.006401,0.692769,0.686778,-0.115651,1.176539,0.5173180000000001,0.0019529999999999,1.305409,0.687588,-0.146371,0.703279,0.930978,-0.210071,1.279039,0.919098,-0.2453209999999999,0.921065,0.0001889999999999,0.0019439999999999,1.078935,-0.0001889999999999,-0.0019439999999999,0.881209,-0.4624919999999999,0.052243,1.133399,-0.463582,0.020267,0.863209,-0.822622,0.087334,1.160009,-0.817522,0.07477
139,1.010325,0.7282115,0.0611475,0.8257019999999999,0.5105815,0.0061945,0.6925520000000001,0.6860915,-0.1154935,1.176442,0.5172615,0.0024765,1.305582,0.6874715,-0.1458835,0.703202,0.9303715,-0.2103634999999999,1.279402,0.9187615,-0.2445635,0.921088,0.0001675,0.0019944999999999,1.078912,-0.0001675,-0.0019944999999999,0.881132,-0.4623085,0.0520725,1.133452,-0.4633985,0.0201135,0.863312,-0.8223785,0.0873815,1.160132,-0.8172585,0.0748175
140,1.0100995,0.7282730000000001,0.0614269999999999,0.8253935,0.5093530000000001,0.00574,0.6923535000000001,0.6854830000000001,-0.115358,1.1763335,0.5172530000000001,0.003008,1.3057635,0.6873530000000001,-0.145388,0.7031435000000001,0.929833,-0.210708,1.2797835,0.918493,-0.2437679999999999,0.9211085,0.000128,0.002003,1.0788915000000001,-0.0001279999999999,-0.0020029999999999,0.8810635,-0.462127,0.05196,1.1335235,-0.463177,0.019998,0.8634135000000001,-0.8221269999999999,0.087388,1.1602535,-0.816967,0.074823
141,1.0098865,0.728355,0.0616905,0.8250375,0.508085,0.0051935,0.6921675,0.684875,-0.1152305,1.1762175,0.5172450000000001,0.0036144999999999,1.3059475,0.687245,-0.1448305,0.7030675,0.929375,-0.2110505,1.2801574999999998,0.918305,-0.2429705,0.9211355,8.600000000000014e-05,0.0020055,1.0788645,-8.600000000000014e-05,-0.0020055,0.8809675,-0.4619149999999999,0.0519145,1.1335975,-0.4629649999999999,0.0198875,0.8634875,-0.821865,0.0874004999999999,1.1603675,-0.8166749999999999,0.0748205
142,1.009674,0.728477,0.061939,0.8246730000000001,0.5067870000000001,0.0045979999999999,0.691973,0.684417,-0.115094,1.176103,0.517227,0.0042699999999999,1.306143,0.687157,-0.144244,0.7029930000000001,0.929017,-0.211374,1.280513,0.918197,-0.242154,0.9211620000000001,3.300000000000004e-05,0.002038,1.078838,-3.300000000000004e-05,-0.002038,0.880843,-0.461683,0.0518529999999999,1.133683,-0.462733,0.01978,0.863533,-0.821603,0.087407,1.160493,-0.8163729999999999,0.074804
143,1.0094655,0.7285815000000001,0.062194,0.8245125,0.5062615,0.004212,0.6918025,0.6839615,-0.1149529999999999,1.1760025,0.5172215,0.004939,1.3063325,0.6870415000000001,-0.143653,0.7029225,0.9286915,-0.211653,1.2808525,0.9181215,-0.241343,0.9211885,-9.49999999999996e-06,0.002073,1.0788115,9.49999999999996e-06,-0.002073,0.8807225,-0.4614785,0.051815,1.1337424999999999,-0.4625385,0.01968,0.8635625,-0.8213685,0.087414,1.1606025,-0.8160985,0.074792
144,1.009272,0.728728,0.0624794999999999,0.824357,0.505748,0.0038714999999999,0.6916770000000001,0.683788,-0.1148834999999999,1.175897,0.517218,0.0056254999999999,1.306517,0.686968,-0.1430835,0.702887,0.928658,-0.2117335,1.2811270000000001,0.918178,-0.2406135,0.921207,-4.99999999999997e-05,0.0021204999999999,1.0787930000000001,5.0000000000000565e-05,-0.0021205,0.8805769999999999,-0.461452,0.0517664999999999,1.1337769999999998,-0.462362,0.0196124999999999,0.863587,-0.821142,0.0874165,1.1606969999999999,-0.815822,0.0747855
145,1.0090819999999998,0.7288505000000001,0.062783,0.8241970000000001,0.5052105,0.0035619999999999,0.6915570000000001,0.6836805,-0.114782,1.175837,0.5172005000000001,0.0061969999999999,1.306657,0.6869205,-0.142582,0.7028570000000001,0.9286405,-0.211772,1.281377,0.9182205,-0.239862,0.921221,-9.55000000000001e-05,0.0021449999999999,1.078779,9.55000000000001e-05,-0.002145,0.880447,-0.4613995,0.051732,1.133817,-0.4621995,0.019545,0.863587,-0.8209194999999999,0.087418,1.160747,-0.8155794999999999,0.074793
146,1.0088945,0.729048,0.063112,0.8240265,0.504698,0.0034189999999999,0.6914564999999999,0.6836880000000001,-0.114647,1.1757965,0.517288,0.0067599999999999,1.3067965,0.6869580000000001,-0.142067,0.7028365,0.928788,-0.211817,1.2816065,0.918378,-0.239157,0.9212345000000001,-0.0001609999999999,0.0021609999999999,1.0787654999999998,0.0001609999999999,-0.002161,0.8803165,-0.4613219999999999,0.051691,1.1338365,-0.461952,0.019485,0.8635865,-0.820612,0.087434,1.1607565,-0.815252,0.074775
147,1.0087,0.7292665,0.0634735,0.8238430000000001,0.5043865,0.0032115,0.691353,0.6837465,-0.1145044999999999,1.175753,0.5173565,0.0073364999999999,1.306933,0.6870165,-0.1415644999999999,0.7028030000000001,0.9288965,-0.2118545,1.281823,0.9185065,-0.2384045,0.9212450000000001,-0.0002304999999999,0.0021595,1.078755,0.0002305,-0.0021595,0.8801730000000001,-0.4612535,0.0516665,1.133853,-0.4617035,0.0194325,0.8635530000000001,-0.8202935,0.0874585,1.160753,-0.8149235,0.0747525
148,1.008532,0.7294865,0.063847,0.823696,0.5042165000000001,0.003339,0.6912659999999999,0.6838465,-0.114354,1.175776,0.5174465,0.0079569999999999,1.307076,0.6870365,-0.141004,0.702766,0.9289965,-0.211884,1.282026,0.9186665,-0.237714,0.921257,-0.0002894999999999,0.002149,1.078743,0.0002894999999999,-0.002149,0.880096,-0.4610935,0.051566,1.133846,-0.4614535,0.019389,0.863536,-0.8200135,0.087485,1.160746,-0.8146435,0.07472
149,1.008374,0.7296845,0.0642915,0.82357,0.5041344999999999,0.0033004999999999,0.6911700000000001,0.6839245,-0.1141534999999999,1.17581,0.5175045,0.0085415,1.30722,0.6870245,-0.1404335,0.70272,0.9290845,-0.2118335,1.28223,0.9188245,-0.2370335,0.921269,-0.0003355,0.0021384999999999,1.0787309999999999,0.0003354999999999,-0.0021384999999999,0.88002,-0.4609855,0.0515135,1.13385,-0.4612355,0.0193475,0.8635200000000001,-0.8197955,0.0875045,1.16075,-0.8144155,0.0746915
150,1.008215,0.72984,0.0647415,0.8234870000000001,0.50422,0.0032705,0.6910769999999999,0.68396,-0.1139565,1.175827,0.51758,0.0090394999999999,1.307347,0.68703,-0.1399365,0.702657,0.92915,-0.2117765,1.282427,0.91896,-0.2364165,0.921277,-0.00037,0.0021235,1.078723,0.00037,-0.0021235,0.8799770000000001,-0.46086,0.0514494999999999,1.133857,-0.46103,0.0192985,0.8635070000000001,-0.81958,0.0874755,1.1607569999999998,-0.81417,0.0746585
151,1.008082,0.729959,0.0652045,0.823493,0.504409,0.0032604999999999,0.690993,0.683969,-0.1137265,1.175843,0.5176390000000001,0.0095394999999999,1.307463,0.686969,-0.1394265,0.702563,0.929149,-0.2116565,1.282613,0.919089,-0.2358665,0.921283,-0.000394,0.0021134999999999,1.078717,0.000394,-0.0021135,0.8799530000000001,-0.460781,0.0514405,1.1338629999999998,-0.460831,0.0192625,0.8634930000000001,-0.819361,0.0874715,1.160763,-0.8139109999999999,0.0746475
152,1.0079735,0.730055,0.0657099999999999,0.8235155000000001,0.504575,0.0034999999999999,0.6909155,0.683945,-0.113496,1.1758955,0.517695,0.0099779999999999,1.3075855,0.686875,-0.138876,0.7024555,0.929145,-0.211536,1.2828455,0.919195,-0.235236,0.9212835,-0.00041,0.0021049999999999,1.0787165,0.0004099999999999,-0.002105,0.8799355000000001,-0.460745,0.051432,1.1338754999999998,-0.460655,0.019206,0.8635055,-0.8192349999999999,0.087462,1.1607655000000001,-0.813685,0.074629
153,1.0078825,0.7301485,0.0661695,0.8235695000000001,0.5049985,0.0038415,0.6908395,0.6838485,-0.1132074999999999,1.1759495,0.5177485000000001,0.0103575,1.3076895,0.6867585,-0.1382975,0.7023195,0.9290885,-0.2113875,1.2830495,0.9192985,-0.2346475,0.9212855000000001,-0.0004285,0.0021035,1.0787144999999998,0.0004285,-0.0021034999999999,0.8799295,-0.4606915,0.0514285,1.1338795,-0.4604815,0.0191405,0.8635395000000001,-0.8190715,0.0874525,1.1607695,-0.8135015,0.0746045
154,1.0077945,0.7302115,0.0665885,0.8236005,0.5053115,0.0042724999999999,0.6907905,0.6837715,-0.1129585,1.1760105,0.5177915,0.0107265,1.3078005,0.6866614999999999,-0.1377785,0.7022005,0.9290215,-0.2112485,1.2832705,0.9193815,-0.2341285,0.9212975,-0.0004394999999999,0.0020824999999999,1.0787025,0.0004395,-0.0020825,0.8799205,-0.4605885,0.0513595,1.1339005,-0.4603285,0.0189515,0.8635405,-0.8189285000000001,0.0874475,1.1607905,-0.8133385000000001,0.0745775
155,1.0077315,0.730201,0.067009,0.8236574999999999,0.505731,0.0049689999999999,0.6907475000000001,0.6836110000000001,-0.1127239999999999,1.1760575,0.517761,0.011072,1.3078975,0.686471,-0.1373039999999999,0.7020875,0.928861,-0.211084,1.2834875000000001,0.919391,-0.233614,0.9213085,-0.0004269999999999,0.002059,1.0786915,0.000427,-0.002059,0.8799175,-0.460529,0.0512839999999999,1.1339575,-0.460269,0.018741,0.8635675,-0.819009,0.0874669999999999,1.1607975,-0.8132389999999999,0.074526
156,1.007698,0.7301675000000001,0.0674055,0.823766,0.5062375,0.0057375,0.690706,0.6833975000000001,-0.1124905,1.1761059999999999,0.5177375000000001,0.0113985,1.307996,0.6862875,-0.1368705,0.7019660000000001,0.9287275,-0.2109505,1.283706,0.9193875,-0.2331105,0.921318,-0.0004104999999999,0.0020315,1.078682,0.0004104999999999,-0.0020315,0.879916,-0.4605025,0.0511955,1.134026,-0.4602325,0.0185045,0.863596,-0.8191124999999999,0.0874974999999999,1.160806,-0.8131324999999999,0.0744755
157,1.0076744999999998,0.7301395,0.067805,0.8238814999999999,0.5068295,0.006543,0.6906615,0.6831895,-0.112291,1.1761515,0.5177395,0.01159,1.3081015,0.6859895,-0.136431,0.7018515000000001,0.9285795,-0.210831,1.2839215,0.9193495,-0.2326309999999999,0.9213305,-0.0003964999999999,0.002001,1.0786695,0.0003965,-0.0020009999999999,0.8799015,-0.4604905,0.051101,1.1340815,-0.4601805,0.018237,0.8636315,-0.8191504999999999,0.087515,1.1608114999999999,-0.8130404999999999,0.074406
158,1.007695,0.7301245000000001,0.0681585,0.82404,0.5074945,0.0074104999999999,0.6906300000000001,0.6828745,-0.1120675,1.17618,0.5177445,0.0117904999999999,1.30822,0.6856745000000001,-0.1360075,0.7016800000000001,0.9283545,-0.2107375,1.28417,0.9191545,-0.2321575,0.9213439999999999,-0.0003794999999999,0.0019755,1.078656,0.0003794999999999,-0.0019755,0.87991,-0.4604555,0.0510055,1.13415,-0.4601455,0.0179275,0.8636699999999999,-0.8191955,0.0875165,1.1608399999999999,-0.8129354999999999,0.0743395
159,1.007718,0.7301475,0.0685345,0.824187,0.5081975,0.0081695,0.690597,0.6826075,-0.1118845,1.176207,0.5177575,0.0119755,1.308327,0.6853675,-0.1355845,0.701497,0.9281275,-0.2106645,1.284407,0.9189775,-0.2317045,0.9213550000000001,-0.0003634999999999,0.0019515,1.0786449999999999,0.0003634999999999,-0.0019515,0.879927,-0.4604025,0.0508955,1.134257,-0.4602325,0.0175985,0.863687,-0.8192325,0.0875105,1.160847,-0.8128625,0.0742695
160,1.0077485,0.7301695,0.0688739999999999,0.8243285000000001,0.5087995,0.00886,0.6905685000000001,0.6823095,-0.111707,1.1762285000000001,0.5177995,0.012108,1.3084585,0.6850795,-0.135207,0.7013385000000001,0.9279195,-0.210607,1.2846685,0.9187095,-0.231257,0.9213735,-0.0003464999999999,0.001942,1.0786265,0.0003464999999999,-0.0019419999999999,0.8799585,-0.4603804999999999,0.05088,1.1343785,-0.4602905,0.017305,0.8637185000000001,-0.8193104999999999,0.08751,1.1608684999999999,-0.8128205,0.074229
161,1.0077794999999998,0.730205,0.0691775,0.8244825,0.509345,0.0094885,0.6905625,0.682015,-0.1115495,1.1762525,0.5178550000000001,0.0122145,1.3085925,0.6848150000000001,-0.1348794999999999,0.7012025,0.927715,-0.2105695,1.2849325,0.918425,-0.2308395,0.9213925000000001,-0.0003309999999999,0.0019375,1.0786075,0.0003309999999999,-0.0019375,0.8800225,-0.460295,0.0508725,1.1345025,-0.460375,0.0170255,0.8637525,-0.819325,0.0875265,1.1608925,-0.8127449999999999,0.0741795
162,1.0078045,0.730232,0.0694839999999999,0.8246295,0.509822,0.010062,0.6905495000000001,0.681782,-0.111463,1.1762695,0.517922,0.01231,1.3087295,0.684582,-0.134623,0.7010995000000001,0.927522,-0.210523,1.2851895,0.918072,-0.230423,0.9214095,-0.000314,0.0019439999999999,1.0785905,0.000314,-0.001944,0.8800695000000001,-0.460238,0.050873,1.1346195,-0.460448,0.0167739999999999,0.8637895,-0.819328,0.08755,1.1609094999999998,-0.8126779999999999,0.074158
163,1.0078189999999998,0.7302799999999999,0.0697605,0.824683,0.50993,0.0101865,0.6905330000000001,0.6815399999999999,-0.1113815,1.176253,0.518,0.0123935,1.308863,0.68434,-0.1343815,0.7009930000000001,0.92732,-0.2105014999999999,1.285433,0.91772,-0.2300414999999999,0.921413,-0.0003059999999999,0.0019535,1.078587,0.000306,-0.0019534999999999,0.880073,-0.46027,0.0508685,1.134733,-0.46055,0.0166455,0.8638129999999999,-0.8193400000000001,0.0875545,1.160923,-0.8126,0.0741255
164,1.007847,0.7303284999999999,0.070032,0.824721,0.5100285,0.01026,0.690511,0.6813184999999999,-0.111287,1.176221,0.5180785,0.012485,1.308991,0.6840885,-0.1341069999999999,0.7008810000000001,0.9271285,-0.210477,1.285691,0.9173385,-0.229647,0.921417,-0.0002985,0.001968,1.078583,0.0002984999999999,-0.0019679999999999,0.880081,-0.4601815,0.050857,1.134831,-0.4606315,0.016572,0.863841,-0.8192415000000001,0.087568,1.1609209999999999,-0.8125215,0.074136
165,1.0079105,0.7303705,0.070336,0.8247575,0.5101305,0.010327,0.6904975000000001,0.6811305,-0.111192,1.1761875,0.5181505000000001,0.0125729999999999,1.3091275,0.6838605,-0.133842,0.7007675000000001,0.9269405,-0.210462,1.2859475,0.9170105,-0.229282,0.9214205,-0.0002944999999999,0.0019829999999999,1.0785795,0.0002945,-0.001983,0.8800775000000001,-0.4600795,0.0508459999999999,1.1349175,-0.4607095,0.016529,0.8638475,-0.8191594999999999,0.087584,1.1609075,-0.8124295,0.074151
166,1.00798,0.730372,0.0706015,0.8247720000000001,0.510152,0.0103675,0.690482,0.680922,-0.1111115,1.176142,0.518192,0.0126404999999999,1.309212,0.6837420000000001,-0.1336915,0.700662,0.926752,-0.2104515,1.286182,0.916682,-0.2289614999999999,0.921436,-0.000288,0.0019825,1.078564,0.000288,-0.0019825,0.8801019999999999,-0.460008,0.0508225,1.134992,-0.4608179999999999,0.0165034999999999,0.8638520000000001,-0.8190879999999999,0.0875835,1.1608919999999998,-0.8123779999999999,0.0741515
167,1.0080464999999998,0.730383,0.07083,0.8247745,0.5101629999999999,0.010368,0.6904445,0.680823,-0.11109,1.1761145,0.518223,0.012704,1.3092845,0.6836829999999999,-0.13358,0.7006145000000001,0.926653,-0.21046,1.2863445,0.916513,-0.22871,0.9214515,-0.000281,0.001992,1.0785485,0.000281,-0.0019919999999999,0.8801745,-0.459907,0.050792,1.1350445,-0.460907,0.016493,0.8638445000000001,-0.8188770000000001,0.087607,1.1608545000000001,-0.8123170000000001,0.074156
168,1.0081304999999998,0.7303474999999999,0.0710555,0.8247935,0.5101574999999999,0.0103725,0.6904235000000001,0.6807074999999999,-0.1110595,1.1760935,0.5182374999999999,0.0127775,1.3093635,0.6836074999999999,-0.1334895,0.7005935000000001,0.9265575,-0.2104795,1.2865134999999999,0.9163075,-0.2284695,0.9214675,-0.0002815,0.0019994999999999,1.0785325000000001,0.0002815,-0.0019994999999999,0.8802335,-0.4598525,0.0507765,1.1350434999999999,-0.4608724999999999,0.0164825,0.8638135,-0.8187125000000001,0.0876074999999999,1.1608435,-0.8122325,0.0741864999999999
169,1.0082175,0.7303335,0.071365,0.8248115,0.5101535,0.010397,0.6903915,0.6806335,-0.111012,1.1760815,0.5182535,0.012895,1.3094415,0.6835535,-0.1333619999999999,0.7005515,0.9264935,-0.2104919999999999,1.2866615000000001,0.9161735,-0.228202,0.9214885,-0.0002894999999999,0.002002,1.0785115,0.0002895,-0.002002,0.8803215,-0.4597664999999999,0.050756,1.1350215,-0.4608164999999999,0.016473,0.8637915,-0.8185665,0.0876049999999999,1.1608215,-0.8121364999999999,0.074218
170,1.0082564999999999,0.730336,0.071605,0.8248015,0.5101260000000001,0.010408,0.6903615000000001,0.6805760000000001,-0.110962,1.1760415,0.518256,0.013021,1.3094915,0.683466,-0.133242,0.7005015,0.926436,-0.210512,1.2867815,0.916046,-0.227992,0.9214985,-0.0002909999999999,0.001995,1.0785015,0.000291,-0.001995,0.8804015000000001,-0.459644,0.050721,1.1349815,-0.4607639999999999,0.016484,0.8637615000000001,-0.8184239999999999,0.087625,1.1607815,-0.8121039999999999,0.0742449999999999
171,1.008294,0.7303355,0.071835,0.824767,0.5100955,0.010404,0.690327,0.6805355000000001,-0.1109159999999999,1.1760169999999999,0.5182455,0.0131589999999999,1.309557,0.6833955,-0.133126,0.700457,0.9264255,-0.210526,1.286867,0.9159955,-0.227796,0.921511,-0.0002924999999999,0.0019889999999999,1.078489,0.0002924999999999,-0.001989,0.880447,-0.4594945,0.050692,1.134947,-0.4606945,0.0165,0.863737,-0.8182444999999999,0.087674,1.160747,-0.8120445,0.07428
172,1.0083335,0.7303535,0.0720495,0.8247385,0.5100635,0.0103945,0.6902785,0.6805034999999999,-0.1108655,1.1759884999999999,0.5182235,0.0133125,1.3096485,0.6832235,-0.1329055,0.7004285,0.9264135,-0.2105455,1.2869585,0.9158935,-0.2275855,0.9215205,-0.0002924999999999,0.0019775,1.0784795,0.0002925,-0.0019775,0.8804885000000001,-0.4592965,0.0506535,1.1349185,-0.4605865,0.0165195,0.8636985,-0.8180565000000001,0.0877225,1.1607185,-0.8119665,0.0742994999999999
173,1.0083585,0.730383,0.072249,0.8247115,0.5100530000000001,0.010381,0.6902215,0.6805030000000001,-0.110819,1.1759715,0.518193,0.013485,1.3097715,0.6829930000000001,-0.132639,0.7004015,0.926433,-0.210569,1.2870115,0.915793,-0.227349,0.9215315,-0.000289,0.001961,1.0784685,0.0002889999999999,-0.0019609999999999,0.8805015,-0.459097,0.050627,1.1348915,-0.460467,0.016516,0.8636615,-0.8178669999999999,0.08778,1.1606715,-0.811877,0.07431
174,1.0083674999999999,0.730445,0.0723935,0.8246845,0.510015,0.0103305,0.6901545,0.680485,-0.1107625,1.1759745,0.518155,0.0136525,1.3099045,0.6827150000000001,-0.1323325,0.7003945,0.926455,-0.2106025,1.2870445,0.915685,-0.2271225,0.9215375000000001,-0.0002859999999999,0.0019375,1.0784624999999999,0.0002859999999999,-0.0019375,0.8805145,-0.458915,0.0505915,1.1348645,-0.460335,0.0164995,0.8636145,-0.817635,0.0878335,1.1606545,-0.811735,0.0743165
175,1.0083715,0.7305200000000001,0.0725445,0.8246735000000001,0.5099899999999999,0.0102755,0.6900735,0.68046,-0.1107255,1.1759935,0.51811,0.0138284999999999,1.3100435,0.68245,-0.1320055,0.7003835,0.92647,-0.2106355,1.2870735,0.91559,-0.2268955,0.9215365000000001,-0.0002719999999999,0.0018964999999999,1.0784634999999998,0.0002719999999999,-0.0018965,0.8805235,-0.45864,0.0505414999999999,1.1348235,-0.46015,0.0164825,0.8635935,-0.81738,0.0879015,1.1606334999999999,-0.81157,0.0743135
176,1.0083745,0.7305895,0.0726909999999999,0.8246525,0.5099695000000001,0.010227,0.6899625,0.6803995,-0.110674,1.1760024999999998,0.5180494999999999,0.014015,1.3101824999999998,0.6821395,-0.131664,0.7003625,0.9264595,-0.210664,1.2870925,0.9154995,-0.226694,0.9215365000000001,-0.0002624999999999,0.0018569999999999,1.0784634999999998,0.0002625,-0.0018569999999999,0.8805324999999999,-0.4584305,0.050498,1.1347625,-0.4599205,0.016466,0.8635725,-0.8171005,0.08796,1.1606225000000001,-0.8114205,0.074297
177,1.0083815,0.730661,0.0728175,0.8246255,0.509991,0.0102154999999999,0.6898255000000001,0.6803210000000001,-0.1106465,1.1760054999999998,0.517961,0.0142025,1.3103155,0.681851,-0.1313165,0.7003255000000002,0.926431,-0.2107065,1.2870955,0.915381,-0.2264965,0.9215385,-0.0002539999999999,0.0018114999999999,1.0784615,0.000254,-0.0018115,0.8805355,-0.458219,0.0504415,1.1346854999999998,-0.459689,0.0164484999999999,0.8635455,-0.816809,0.0880365,1.1606255,-0.811299,0.0742845
178,1.0083909999999998,0.7307400000000001,0.0728525,0.824606,0.5100399999999999,0.0101885,0.689676,0.68023,-0.1106735,1.176026,0.51789,0.0143525,1.310446,0.68156,-0.1310335,0.7002459999999999,0.92636,-0.2107735,1.287116,0.9153,-0.2263435,0.921548,-0.00023,0.0017435,1.078452,0.0002299999999999,-0.0017435,0.880546,-0.45801,0.0503555,1.1346159999999998,-0.4594399999999999,0.0164135,0.863506,-0.8164899999999999,0.0880825,1.160636,-0.81118,0.0742575
179,1.0083925,0.7308215,0.0729115,0.8245915000000001,0.5101515,0.0101805,0.6895215,0.6801115,-0.1106625,1.1760415,0.5180115,0.0143435,1.3105615,0.6812915,-0.1307025,0.7000314999999999,0.9261315,-0.2108425,1.2871315,0.9151815,-0.2262025,0.9215565,-0.0002265,0.0016684999999999,1.0784435,0.0002264999999999,-0.0016684999999999,0.8805215,-0.4577985,0.0502895,1.1345414999999999,-0.4591885,0.0163875,0.8634715,-0.8161885,0.0881415,1.1606515,-0.8110585,0.0742485
180,1.0083625,0.7309064999999999,0.0729674999999999,0.8245635,0.5102765,0.0102595,0.6893335,0.6799265000000001,-0.1106405,1.1760534999999999,0.5180965,0.0143355,1.3105935,0.6809665,-0.1303705,0.6995735000000001,0.9256065,-0.2109905,1.2871234999999999,0.9150265,-0.2261005,0.9215655,-0.0002215,0.0015885,1.0784345,0.0002214999999999,-0.0015884999999999,0.8804835,-0.4576635,0.0502185,1.1344334999999999,-0.4588935,0.0163395,0.8634335000000001,-0.8159135,0.0881545,1.1606935,-0.8109035,0.0741585
181,1.008341,0.7309424999999999,0.073022,0.824562,0.5103825000000001,0.010344,0.6891320000000001,0.6797025,-0.1106409999999999,1.176092,0.5181525,0.014335,1.310652,0.6807425,-0.130121,0.699072,0.9249625,-0.211181,1.287092,0.9149025,-0.226111,0.921575,-0.0002194999999999,0.001513,1.078425,0.0002195,-0.0015129999999999,0.880472,-0.4575575,0.0501449999999999,1.1343619999999999,-0.4586375,0.016268,0.863422,-0.8156875,0.088106,1.160752,-0.8107875,0.074063
182,1.008297,0.7309515000000001,0.0730865,0.824568,0.5104615,0.0105365,0.688938,0.6794115000000001,-0.1106215,1.176028,0.5182015000000001,0.0143455,1.310708,0.6805715,-0.1299415,0.6985180000000001,0.9242515,-0.2113915,1.286888,0.9141415,-0.2261115,0.92159,-0.0002275,0.0014494999999999,1.07841,0.0002275,-0.0014494999999999,0.8804480000000001,-0.4574785,0.0500825,1.134288,-0.4584185,0.0162075,0.863398,-0.8156884999999999,0.0880655,1.160828,-0.8107185,0.0739835
183,1.008264,0.730958,0.0731525,0.824584,0.510568,0.0107815,0.6886939999999999,0.6790579999999999,-0.1105755,1.175984,0.518218,0.0143915,1.310764,0.680288,-0.1296955,0.697924,0.923498,-0.2116155,1.286624,0.913578,-0.2260955,0.921602,-0.000236,0.0013924999999999,1.078398,0.000236,-0.0013924999999999,0.880404,-0.4573919999999999,0.0500214999999999,1.134244,-0.458202,0.0161415,0.8634539999999999,-0.815602,0.0880625,1.160944,-0.8106420000000001,0.0739025
184,1.0082275,0.730955,0.073218,0.8245855,0.5107550000000001,0.011171,0.6884655,0.678725,-0.110543,1.1759555,0.518225,0.014461,1.3107455,0.6799850000000001,-0.129413,0.6973355,0.922765,-0.211843,1.2863655,0.913075,-0.226093,0.9216145,-0.000252,0.001346,1.0783855,0.000252,-0.001346,0.8803955,-0.457365,0.050014,1.1342254999999999,-0.458015,0.016082,0.8634955,-0.815545,0.088066,1.1610955,-0.810585,0.073829
185,1.008178,0.73094,0.073282,0.824585,0.51095,0.0116029999999999,0.6882350000000002,0.67843,-0.110516,1.175935,0.51823,0.0144889999999999,1.3106550000000001,0.6797,-0.129176,0.696715,0.92198,-0.212086,1.286085,0.91259,-0.226146,0.921624,-0.000264,0.0012929999999999,1.078376,0.000264,-0.001293,0.880395,-0.4573399999999999,0.050002,1.134245,-0.4578899999999999,0.016016,0.8634850000000001,-0.8155,0.088004,1.161245,-0.81056,0.073813
186,1.008107,0.7309175,0.073349,0.8245359999999999,0.5111475000000001,0.012175,0.6879660000000001,0.6781375000000001,-0.110529,1.175906,0.5182375,0.014492,1.310556,0.6794175,-0.128949,0.696096,0.9212175,-0.212309,1.2857859999999999,0.9121975,-0.226199,0.921627,-0.0002744999999999,0.0012409999999999,1.078373,0.0002745,-0.001241,0.880396,-0.4573025,0.049945,1.134266,-0.4577625,0.015952,0.8634660000000001,-0.8154224999999999,0.087924,1.161386,-0.8105525,0.073809
187,1.0080215,0.730875,0.073432,0.8244935,0.5113650000000001,0.0128149999999999,0.6876435000000001,0.677875,-0.110516,1.1758735,0.5182450000000001,0.0145059999999999,1.3104135000000001,0.6791250000000001,-0.128716,0.6954935,0.920465,-0.212526,1.2854835,0.911805,-0.2262259999999999,0.9216255,-0.0002919999999999,0.0012129999999999,1.0783745,0.000292,-0.001213,0.8803935,-0.457325,0.0499,1.1342935,-0.457645,0.015885,0.8634335000000001,-0.8155049999999999,0.087832,1.1615335,-0.810585,0.073819
188,1.007935,0.7307950000000001,0.073479,0.824464,0.511595,0.013472,0.687334,0.677635,-0.110541,1.175854,0.5182450000000001,0.014535,1.310284,0.6788350000000001,-0.128521,0.6950340000000002,0.919865,-0.212731,1.285194,0.911485,-0.226251,0.9216219999999999,-0.0002919999999999,0.001208,1.078378,0.000292,-0.0012079999999999,0.8804240000000001,-0.457345,0.049858,1.134354,-0.457565,0.01581,0.863434,-0.8156549999999999,0.087701,1.161684,-0.810615,0.073814
189,1.0077935,0.7307250000000001,0.0735155,0.8244135,0.5118050000000001,0.0140315,0.6870235,0.6774650000000001,-0.1105645,1.1758535,0.518255,0.0145445,1.3101135,0.678585,-0.1283345,0.6948235,0.919565,-0.2128545,1.2849135,0.911215,-0.2262845,0.9216195000000001,-0.0002919999999999,0.0012065,1.0783805,0.000292,-0.0012064999999999,0.8804935,-0.457295,0.0498325,1.1344435,-0.457535,0.0157615,0.8634535,-0.8157749999999999,0.0875705,1.1618235000000001,-0.810615,0.0738095
190,1.007612,0.730675,0.0735685,0.824337,0.512015,0.0146235,0.686697,0.677335,-0.1105865,1.175847,0.5182249999999999,0.0145755,1.3099370000000001,0.6784049999999999,-0.1282865,0.6946270000000001,0.919325,-0.2129464999999999,1.284617,0.910965,-0.2263264999999999,0.92162,-0.000302,0.0012075,1.0783800000000001,0.000302,-0.0012075,0.880557,-0.457255,0.0498085,1.134537,-0.457545,0.0157605,0.863477,-0.815875,0.0874085,1.161957,-0.810625,0.0738075
191,1.007418,0.730613,0.0736159999999999,0.824253,0.5121929999999999,0.015147,0.686373,0.6772229999999999,-0.1106119999999999,1.175953,0.5181929999999999,0.014599,1.309773,0.6781729999999999,-0.128222,0.694503,0.919103,-0.213022,1.2844929999999999,0.910933,-0.226352,0.921618,-0.0003199999999999,0.0012069999999999,1.078382,0.00032,-0.0012069999999999,0.880663,-0.457277,0.049772,1.134653,-0.457577,0.015756,0.863563,-0.815947,0.087315,1.162133,-0.810657,0.073824
192,1.0071759999999998,0.7305605,0.0736655,0.824166,0.5123605,0.0156134999999999,0.686086,0.6771904999999999,-0.1106635,1.176036,0.5181604999999999,0.0145884999999999,1.309706,0.6780704999999999,-0.1280935,0.6944159999999999,0.9189305,-0.2130635,1.284426,0.9109005,-0.2263635,0.921619,-0.0003285,0.0012034999999999,1.078381,0.0003284999999999,-0.0012035,0.8807659999999999,-0.4572095,0.0497045,1.134776,-0.4576095,0.0157444999999999,0.863626,-0.8160595,0.0872245,1.162266,-0.8106595000000001,0.0738935
193,1.006852,0.730512,0.07373,0.8241,0.5124420000000001,0.015946,0.6857500000000001,0.677152,-0.110743,1.17612,0.518122,0.014569,1.30964,0.677952,-0.128023,0.6942900000000001,0.918722,-0.213193,1.28436,0.910862,-0.226373,0.921623,-0.000329,0.00122,1.078377,0.0003289999999999,-0.00122,0.88085,-0.457248,0.0496599999999999,1.13487,-0.457678,0.015726,0.86372,-0.816188,0.087196,1.16238,-0.810628,0.073971
194,1.0065265,0.730473,0.073792,0.8240425,0.512523,0.0162259999999999,0.6854425,0.6770930000000001,-0.110866,1.1761925,0.517953,0.0147689999999999,1.3095925,0.677873,-0.127996,0.6941925,0.918533,-0.213336,1.2843225,0.911243,-0.226416,0.9216265,-0.00033,0.0012289999999999,1.0783735,0.00033,-0.001229,0.8809425,-0.457267,0.049587,1.1349725,-0.457757,0.0157019999999999,0.8638224999999999,-0.816227,0.0871369999999999,1.1625025,-0.810617,0.074056
195,1.0062045,0.7304355,0.0738554999999999,0.8240235,0.5125955,0.0163965,0.6851835,0.6770255000000001,-0.1110055,1.1762635,0.5177955000000001,0.0149415,1.3094835,0.6777755,-0.1279955,0.6941135,0.9183355,-0.2135055,1.2843235,0.9114155,-0.2264455,0.9216345,-0.0003225,0.0012495,1.0783655,0.0003224999999999,-0.0012495,0.8810235,-0.4571444999999999,0.0495155,1.1350635,-0.4578545,0.0156915,0.8639235000000001,-0.8162745,0.0871074999999999,1.1626135,-0.8106344999999999,0.0741474999999999
196,1.0058675,0.730219,0.0736204999999999,0.8239055,0.512689,0.0167375,0.6848354999999999,0.677049,-0.1110305,1.1760955,0.517529,0.0149415,1.3097155,0.677559,-0.1279705,0.6941455000000001,0.918329,-0.2131905,1.2841955,0.911689,-0.2261705,0.9216385,-0.000332,0.0012884999999999,1.0783615,0.0003319999999999,-0.0012884999999999,0.8813955,-0.456241,0.0493205,1.1351955,-0.457731,0.0156015,0.8638455,-0.816441,0.0866644999999999,1.1626855,-0.810741,0.0741795
197,1.0051495,0.7303025,0.0740355,0.8239885,0.5127524999999999,0.0166785,0.6844185,0.6770425,-0.1116495,1.1764885,0.5172924999999999,0.0154085,1.3093885,0.6781825,-0.1292295,0.6937785000000001,0.9178125,-0.2140795,1.2842585,0.9117325,-0.2263795,0.9216635,-0.0002935,0.0013515,1.0783365,0.0002935,-0.0013515,0.8813985,-0.4563975,0.0491425,1.1353085,-0.4582375,0.0157345,0.8639885,-0.8162975,0.0865885,1.1628485,-0.8104175,0.0742724999999999
198,1.004973,0.730259,0.0740475,0.8240090000000001,0.512729,0.0165724999999999,0.6843990000000001,0.676899,-0.1116535,1.176569,0.517309,0.0155824999999999,1.309209,0.677899,-0.1288834999999999,0.693799,0.917609,-0.2142135,1.284319,0.911799,-0.2264034999999999,0.9216660000000001,-0.000307,0.0012964999999999,1.078334,0.000307,-0.0012965,0.881429,-0.456401,0.0490275,1.135349,-0.458281,0.0156595,0.864299,-0.816081,0.0870755,1.162969,-0.8105209999999999,0.0743815
199,1.004842,0.7302339999999999,0.0741315,0.8239040000000001,0.512814,0.0167475,0.684284,0.676944,-0.1118285,1.1765439999999998,0.5171739999999999,0.0156475,1.308754,0.6773939999999999,-0.1280385,0.693764,0.917434,-0.2146085,1.284344,0.911744,-0.2263585,0.921685,-0.000298,0.0013024999999999,1.078315,0.0002979999999999,-0.0013024999999999,0.881444,-0.456416,0.0489425,1.135394,-0.458346,0.0156784999999999,0.8643640000000001,-0.8161560000000001,0.0870755,1.162944,-0.810536,0.0743195
200,1.0048285,0.73024,0.074094,0.8238805000000001,0.5129600000000001,0.017063,0.6843205,0.67691,-0.111952,1.1766805,0.5169400000000001,0.0158519999999999,1.3088005,0.67732,-0.127982,0.6938205,0.91739,-0.214792,1.2844205,0.9117,-0.226472,0.9217075,-0.000313,0.0013839999999999,1.0782925,0.0003129999999999,-0.0013839999999999,0.8813805,-0.45739,0.049228,1.1354205,-0.45898,0.016008,0.8644805,-0.81635,0.087169,1.1630205,-0.81063,0.074253
201,1.004862,0.7302335,0.0741335,0.823875,0.5130335,0.0172005,0.6843250000000001,0.6765335,-0.1120925,1.176555,0.5169035000000001,0.0159655,1.308715,0.6770435,-0.1276925,0.6938350000000001,0.9170735,-0.2151325,1.284535,0.9118035,-0.2265724999999999,0.921729,-0.0002995,0.0013915,1.078271,0.0002994999999999,-0.0013915,0.8812550000000001,-0.4572865,0.0491114999999999,1.135385,-0.4588365,0.0159635,0.864655,-0.8154564999999999,0.0869475,1.163095,-0.8106565,0.0743065
202,1.0050329999999998,0.7304505,0.0745185,0.823782,0.5130405,0.0174814999999999,0.684312,0.6765705,-0.1121365,1.176492,0.5168605000000001,0.0161325,1.308772,0.6770805,-0.1276065,0.6938219999999999,0.9170305,-0.2152265,1.284622,0.9120705,-0.2262665,0.921725,-0.0002875,0.0013524999999999,1.078275,0.0002874999999999,-0.0013525,0.881432,-0.4562994999999999,0.0490395,1.135352,-0.4586895,0.0159685,0.864592,-0.8154994999999999,0.0869365,1.1631719999999999,-0.8106295,0.0743005
