sb224sc-HT22-VT27/4dt907/src/data/kinect_good_preprocessed_not_cut_A11_mediapipe/A135_kinect_mirrored.csv
FrameNo,nose_3d_x,nose_3d_y,nose_3d_z,left_shoulder_3d_x,left_shoulder_3d_y,left_shoulder_3d_z,left_elbow_3d_x,left_elbow_3d_y,left_elbow_3d_z,right_shoulder_3d_x,right_shoulder_3d_y,right_shoulder_3d_z,right_elbow_3d_x,right_elbow_3d_y,right_elbow_3d_z,left_wrist_3d_x,left_wrist_3d_y,left_wrist_3d_z,right_wrist_3d_x,right_wrist_3d_y,right_wrist_3d_z,left_hip_3d_x,left_hip_3d_y,left_hip_3d_z,right_hip_3d_x,right_hip_3d_y,right_hip_3d_z,left_knee_3d_x,left_knee_3d_y,left_knee_3d_z,right_knee_3d_x,right_knee_3d_y,right_knee_3d_z,left_ankle_3d_x,left_ankle_3d_y,left_ankle_3d_z,right_ankle_3d_x,right_ankle_3d_y,right_ankle_3d_z
0,1.000568,0.737774,0.09014,0.822523,0.512654,0.016426,0.693743,0.689794,-0.1128059999999999,1.168713,0.519574,0.023225,1.295233,0.695384,-0.1200459999999999,0.706283,0.936154,-0.210756,1.274313,0.930924,-0.223206,0.921696,-0.000564,-2.3000000000002185e-05,1.078304,0.0005639999999999,2.3000000000002185e-05,0.8814630000000001,-0.4528959999999999,0.049769,1.135273,-0.454096,0.024813,0.8640830000000002,-0.8122159999999999,0.092328,1.163473,-0.805146,0.085717
1,1.0004775,0.73776,0.0902119999999999,0.8228475,0.51243,0.0158189999999999,0.6948675,0.69214,-0.1125419999999999,1.1684474999999999,0.51983,0.0232229999999999,1.2931275,0.6986600000000001,-0.119972,0.7074475,0.9404,-0.208232,1.2728774999999999,0.93418,-0.222262,0.9216895,-0.0005599999999999,-4.300000000000137e-05,1.0783105,0.00056,4.299999999999443e-05,0.8814675,-0.4528899999999999,0.049761,1.1352574999999998,-0.45409,0.024803,0.8641375,-0.8120499999999999,0.092247,1.1635575,-0.80525,0.085682
2,1.0001404999999999,0.737736,0.090038,0.8230615,0.5124259999999999,0.015219,0.6966215,0.695306,-0.11121,1.1682515,0.5199659999999999,0.0232689999999999,1.2915815,0.701156,-0.1189099999999999,0.7083015000000001,0.943246,-0.20556,1.2711115,0.937206,-0.2204199999999999,0.9216755000000001,-0.0005969999999999,7.000000000000062e-06,1.0783245,0.000597,-7.000000000000062e-06,0.8813415,-0.452794,0.049615,1.1352415,-0.454024,0.024811,0.8641115,-0.812054,0.09225,1.1636815,-0.8053640000000001,0.0858
3,0.9998470000000002,0.737567,0.0897955,0.823148,0.512197,0.0146895,0.6983980000000001,0.697357,-0.1104685,1.169018,0.5240170000000001,0.0197315,1.290178,0.703357,-0.1182785,0.7089380000000001,0.946697,-0.2037985,1.269538,0.939257,-0.2188385,0.921665,-0.000637,-4.749999999999893e-05,1.078335,0.000637,4.749999999999893e-05,0.8812180000000001,-0.453353,0.0497195,1.135218,-0.454183,0.0247335,0.863878,-0.812373,0.0922715,1.163648,-0.8055629999999999,0.0855855
4,0.9992090000000001,0.7375590000000001,0.090031,0.823469,0.513089,0.0149389999999999,0.7032590000000001,0.7048490000000001,-0.10842,1.167469,0.525379,0.0199399999999999,1.284169,0.716199,-0.1189699999999999,0.709999,0.951889,-0.20253,1.266289,0.945489,-0.21398,0.921561,-0.0006789999999999,-0.0003739999999999,1.078439,0.000679,0.0003739999999999,0.881279,-0.453931,0.0497129999999999,1.135119,-0.454471,0.0247079999999999,0.8640290000000002,-0.812821,0.092374,1.163699,-0.8059609999999999,0.085428
5,0.9990605000000001,0.737216,0.090123,0.8241795000000001,0.513396,0.0154799999999999,0.7070195,0.711186,-0.1085819999999999,1.1677395,0.527026,0.0183659999999999,1.2809795,0.722566,-0.118252,0.7122695,0.963876,-0.203402,1.2640095,0.951196,-0.212802,0.9215135,-0.000708,-0.000396,1.0784865,0.000708,0.000396,0.8811995,-0.4543339999999999,0.049814,1.1350495,-0.4548439999999999,0.0248019999999999,0.8639695000000001,-0.813244,0.092508,1.1635795,-0.806534,0.0855259999999999
6,0.9989735000000001,0.7370810000000001,0.0902125,0.8246315000000001,0.513101,0.0150175,0.7101115,0.716441,-0.1088235,1.1675815,0.528381,0.0170625,1.2774315,0.725581,-0.1179035,0.7125315,0.965181,-0.2038535,1.2602715,0.959591,-0.2113435,0.9214935,-0.000743,-0.0003554999999999,1.0785065,0.0007429999999999,0.0003555,0.8810915,-0.454529,0.0498275,1.1350115,-0.454999,0.0248185,0.8640115000000002,-0.813539,0.0925855,1.1635214999999999,-0.806669,0.0855405
7,0.999108,0.736032,0.089953,0.825391,0.513202,0.015268,0.7103210000000001,0.7157220000000001,-0.110451,1.167511,0.527722,0.017576,1.277781,0.723712,-0.1160309999999999,0.7134310000000001,0.964712,-0.2067709999999999,1.259661,0.957002,-0.2087009999999999,0.9214380000000001,-0.000629,-0.0005239999999999,1.0785619999999998,0.000629,0.000524,0.8811410000000001,-0.455088,0.049594,1.134991,-0.456378,0.02496,0.864051,-0.814758,0.092674,1.163471,-0.8081579999999999,0.085854
8,0.9990165,0.735638,0.089897,0.8258985,0.513268,0.01522,0.7121385,0.718368,-0.110383,1.1673485000000001,0.528258,0.017162,1.2759885,0.726788,-0.1152929999999999,0.7141885,0.967298,-0.206693,1.2581785,0.959598,-0.206553,0.9213965000000001,-0.000616,-0.0006009999999999,1.0786034999999998,0.000616,0.0006009999999999,0.8810985,-0.455572,0.049601,1.1349485,-0.456962,0.025029,0.8640385000000002,-0.815382,0.092756,1.1634785,-0.808802,0.085894
9,0.9990125,0.7352465,0.089821,0.8263555,0.5132965,0.015142,0.7132755,0.7199365,-0.110334,1.1673155,0.5286465,0.016732,1.2749955,0.7283765,-0.1145139999999999,0.7147055,0.9689965,-0.2068539999999999,1.2572854999999998,0.9613265,-0.2049539999999999,0.9213665,-0.0005964999999999,-0.0006539999999999,1.0786335,0.0005965,0.000654,0.8810555,-0.4560234999999999,0.049593,1.1349155,-0.4575335,0.025088,0.8640155,-0.8159635,0.092832,1.1634755,-0.8094935,0.08593
10,0.999012,0.734892,0.08974,0.826696,0.5132519999999999,0.0150639999999999,0.713966,0.720702,-0.110343,1.167286,0.5288619999999999,0.016432,1.2744959999999999,0.729052,-0.1137929999999999,0.7149559999999999,0.969222,-0.207403,1.256746,0.962372,-0.203583,0.9213439999999999,-0.0005729999999999,-0.000705,1.078656,0.000573,0.0007049999999999,0.881006,-0.456438,0.049575,1.134886,-0.458058,0.0251389999999999,0.864006,-0.816508,0.092916,1.163456,-0.8101280000000001,0.085967
11,0.9990245,0.7345619999999999,0.089676,0.8269385000000001,0.513312,0.015053,0.7142785,0.720692,-0.110432,1.1672985,0.528922,0.016277,1.2744585,0.729362,-0.113122,0.7151485,0.969182,-0.2081619999999999,1.2567585000000001,0.962332,-0.202452,0.9213305,-0.000543,-0.00075,1.0786695,0.000543,0.00075,0.8809785,-0.456818,0.049563,1.1348384999999999,-0.458568,0.02519,0.8640185000000001,-0.817138,0.092994,1.1634585,-0.810758,0.086004
12,0.999035,0.734278,0.0895975,0.82716,0.5134179999999999,0.0150275,0.7142900000000001,0.720248,-0.1106414999999999,1.1673,0.5287879999999999,0.0163275,1.27447,0.729418,-0.1126215,0.71516,0.968738,-0.2088815,1.25677,0.962078,-0.2014814999999999,0.921319,-0.00052,-0.0007674999999999,1.078681,0.00052,0.0007675,0.8809400000000001,-0.457202,0.0495995,1.13479,-0.459012,0.0252515,0.8640300000000001,-0.817702,0.0930745,1.16346,-0.811332,0.0860665
13,0.999056,0.7340815,0.089481,0.8273150000000001,0.5135415,0.014987,0.714295,0.7199115,-0.110844,1.167285,0.5285615,0.016346,1.2744749999999998,0.7290915,-0.112304,0.715165,0.9684015,-0.209584,1.256785,0.9617415,-0.200874,0.921314,-0.0005105,-0.000759,1.078686,0.0005105,0.000759,0.880875,-0.4574985,0.049606,1.1347450000000001,-0.4593485,0.025259,0.8640650000000001,-0.8180485,0.093114,1.163445,-0.8117885,0.086092
14,0.999082,0.7340265,0.0894125,0.827348,0.5135965,0.0149714999999999,0.7142980000000001,0.7198065,-0.1109565,1.167288,0.5284565,0.0163525,1.274488,0.7289865,-0.1121664999999999,0.715168,0.9682965,-0.2102365,1.256788,0.9616365,-0.2008665,0.921311,-0.0005075,-0.0007534999999999,1.078689,0.0005075,0.0007534999999999,0.880818,-0.4575835,0.0495905,1.134718,-0.4594535,0.0252555,0.864098,-0.8180935,0.0931605,1.163428,-0.8119835,0.0861025
15,0.999121,0.7339990000000001,0.0893944999999999,0.827427,0.513699,0.0149864999999999,0.714307,0.719669,-0.1110585,1.167297,0.5284190000000001,0.0164504999999999,1.274727,0.728929,-0.1120185,0.715177,0.968039,-0.2109485,1.257007,0.961579,-0.2008585,0.921319,-0.000507,-0.0007455,1.078681,0.0005069999999999,0.0007454999999999,0.880757,-0.457571,0.0495915,1.134687,-0.459501,0.0252714999999999,0.864117,-0.818071,0.0931864999999999,1.163417,-0.8121309999999999,0.0861204999999999
16,0.999198,0.7339885,0.0893855,0.827485,0.5137984999999999,0.0149665,0.714125,0.7190584999999999,-0.1111485,1.167305,0.5283685,0.0166965,1.275255,0.7288785,-0.1119285,0.715025,0.9669785,-0.2118085,1.2576749999999999,0.9613585,-0.2008384999999999,0.921332,-0.0005064999999999,-0.0007305,1.078668,0.0005065,0.0007305,0.8806849999999999,-0.4576015,0.0496095,1.134665,-0.4595915,0.0253125,0.864155,-0.8180715000000001,0.0932125,1.163425,-0.8122015,0.0861215
17,0.999316,0.733957,0.0893355,0.827503,0.513787,0.0149084999999999,0.713673,0.717817,-0.1112575,1.1674229999999999,0.528127,0.0169875,1.276273,0.727407,-0.1118774999999999,0.7147330000000001,0.965397,-0.2126675,1.258903,0.960447,-0.2011575,0.921341,-0.0005059999999999,-0.0007045,1.078659,0.000506,0.0007044999999999,0.880653,-0.457653,0.0496205,1.1346429999999998,-0.459693,0.0253494999999999,0.864173,-0.818123,0.0932665,1.163433,-0.812283,0.0861035
18,0.9994930000000001,0.7339295,0.089221,0.827531,0.5136995,0.014822,0.7133710000000001,0.7166294999999999,-0.1113719999999999,1.167611,0.5278495,0.017404,1.277031,0.7259994999999999,-0.111882,0.714531,0.9639695,-0.213482,1.260081,0.9595895,-0.201602,0.9213580000000001,-0.0004995,-0.000694,1.0786419999999999,0.0004994999999999,0.000694,0.8806210000000001,-0.4577104999999999,0.04966,1.134631,-0.4597704999999999,0.025375,0.864161,-0.8181805000000001,0.093322,1.163431,-0.8123605,0.086086
19,0.999709,0.733894,0.0890315,0.827535,0.513634,0.0147165,0.713125,0.715524,-0.1115325,1.167785,0.5275340000000001,0.0178185,1.277715,0.724514,-0.1118825,0.714385,0.962444,-0.2143125,1.261235,0.958754,-0.2022025,0.921374,-0.0004969999999999,-0.0006854999999999,1.078626,0.000497,0.0006855,0.880595,-0.457736,0.0496855,1.134625,-0.459846,0.0253995,0.8641449999999999,-0.818256,0.0933795,1.163435,-0.812446,0.0860635
20,0.9999565,0.733859,0.0888009999999999,0.8275395,0.5136590000000001,0.01461,0.7129395000000001,0.714419,-0.1117479999999999,1.1680195,0.5272290000000001,0.018119,1.2783895,0.723039,-0.111908,0.7143195,0.960889,-0.215158,1.2622095,0.958089,-0.202878,0.9213884999999999,-0.0004919999999999,-0.0006649999999999,1.0786115,0.000492,0.0006649999999999,0.8805595000000002,-0.457741,0.049675,1.1346195,-0.459911,0.025429,0.8641595000000001,-0.8183509999999999,0.09342,1.1634295,-0.812511,0.0860259999999999
21,1.00029,0.7338065,0.088428,0.827531,0.5137265,0.014489,0.712871,0.7135065,-0.1121099999999999,1.168221,0.5268965,0.018498,1.278941,0.7215865,-0.11209,0.7143010000000001,0.9596265,-0.21599,1.262981,0.9575765,-0.20363,0.921397,-0.0004705,-0.0006129999999999,1.078603,0.0004705,0.000613,0.880511,-0.4577835,0.049639,1.134621,-0.4599835,0.025461,0.864151,-0.8184035,0.09341,1.1634209999999998,-0.8125335,0.085997
22,1.0006385,0.7337535000000001,0.088031,0.8275385,0.5137835000000001,0.014348,0.7128485,0.7126935,-0.112507,1.1684185,0.5265435,0.018925,1.2793685,0.7202835,-0.1122769999999999,0.7142985,0.9584735,-0.216717,1.2636685,0.9570935,-0.204307,0.9214115,-0.0004504999999999,-0.0005659999999999,1.0785885,0.0004504999999999,0.000566,0.8804784999999999,-0.4579364999999999,0.049582,1.1345985,-0.4600565,0.025495,0.8641485,-0.8184064999999999,0.09336,1.1634285,-0.8125465,0.085966
23,1.0009975,0.7337060000000001,0.0875934999999999,0.8275675,0.513846,0.0142114999999999,0.7128275,0.7120660000000001,-0.1129675,1.1686175,0.526196,0.0193794999999999,1.2797774999999998,0.719036,-0.1124575,0.7142875,0.957416,-0.2175475,1.2642275,0.956776,-0.2049475,0.9214255000000001,-0.000432,-0.0005194999999999,1.0785745,0.000432,0.0005194999999999,0.8804375000000001,-0.458014,0.0495095,1.1346175,-0.460104,0.0255245,0.8641575,-0.818274,0.0932995,1.1634275,-0.8125239999999999,0.0859235
24,1.0013854999999998,0.7336665,0.0870255,0.8276285000000001,0.5138364999999999,0.0139535,0.7127585000000001,0.7114864999999999,-0.1135265,1.1688185,0.5260364999999999,0.0192295,1.2800685,0.7180365,-0.1127265,0.7143685,0.9565565,-0.2184165,1.2647185,0.9565365,-0.2056565,0.9214235,-0.0004074999999999,-0.0004644999999999,1.0785765,0.0004074999999999,0.0004644999999999,0.8804085000000001,-0.4580535,0.0493075,1.1346384999999999,-0.4601234999999999,0.0253635,0.8641685,-0.8182235,0.0931505,1.1634385,-0.8125235000000001,0.0857495
25,1.0018529999999999,0.7336535000000001,0.085966,0.827726,0.5138235,0.013648,0.7126859999999999,0.7109235,-0.11433,1.169016,0.5260135,0.019035,1.280376,0.7174235,-0.11324,0.714646,0.9558035,-0.21947,1.264966,0.9563935,-0.2065,0.921426,-0.0003944999999999,-0.0004279999999999,1.078574,0.0003944999999999,0.000428,0.880336,-0.4579565,0.049063,1.134666,-0.4600965,0.025148,0.864186,-0.8181364999999999,0.092937,1.163456,-0.8124665,0.085533
26,1.0022825,0.7336435,0.0845835,0.8278515,0.5138235,0.0132155,0.7126115,0.7103235,-0.1152655,1.1692315,0.5259435,0.0187975,1.2807415,0.7170335,-0.1139255,0.7150215,0.9550735,-0.2206055,1.2650515,0.9562235,-0.2074055,0.9214335,-0.0003944999999999,-0.0004044999999999,1.0785665,0.0003944999999999,0.0004045,0.8802515,-0.4578265,0.0486295,1.1346815,-0.4600465,0.0248825,0.8642015000000001,-0.8180465,0.0926795,1.1634615,-0.8124165,0.0852735
27,1.0026959999999998,0.7332735,0.0819635,0.8279030000000001,0.5138235,0.0123484999999999,0.7125429999999999,0.7093535000000001,-0.1169635,1.169503,0.5258535000000001,0.0180544999999999,1.281243,0.7165235,-0.1153535,0.715653,0.9536835,-0.2223035,1.2650730000000001,0.9558235,-0.2090035,0.921426,-0.0003944999999999,-0.0004265,1.078574,0.0003944999999999,0.0004264999999999,0.879723,-0.4576165,0.0466134999999999,1.134813,-0.4599965,0.0243224999999999,0.864223,-0.8179965,0.0920755,1.163503,-0.8124064999999999,0.0847294999999999
28,1.003116,0.7327680000000001,0.078763,0.827948,0.5137780000000001,0.011111,0.712388,0.7079380000000001,-0.119135,1.169658,0.525798,0.01668,1.281808,0.715688,-0.117435,0.7164480000000001,0.951688,-0.224445,1.265118,0.955028,-0.211055,0.92137,-0.00035,-0.0005319999999999,1.07863,0.00035,0.0005319999999999,0.8787880000000001,-0.457222,0.042885,1.135108,-0.459782,0.023065,0.864248,-0.817912,0.091167,1.163608,-0.8123619999999999,0.083947
29,1.0033439999999998,0.7320585000000001,0.074736,0.82813,0.5136485000000001,0.0094719999999999,0.71218,0.7060685,-0.122037,1.16983,0.5259285,0.014692,1.2823,0.7146485,-0.120317,0.71748,0.9491285,-0.227127,1.2652899999999998,0.9537585,-0.213817,0.9212670000000001,-0.0003064999999999,-0.000696,1.078733,0.0003065,0.000696,0.8777,-0.4566115,0.038042,1.13578,-0.4593514999999999,0.02088,0.86439,-0.8177215,0.089899,1.16388,-0.8121714999999999,0.082839
30,1.003643,0.7310705,0.069829,0.828442,0.5134905,0.0073699999999999,0.711882,0.7038105,-0.125551,1.170142,0.5253605,0.012361,1.282732,0.7131504999999999,-0.124001,0.7188220000000001,0.9462505,-0.230331,1.2653919999999999,0.9517605,-0.217421,0.921122,-0.0002304999999999,-0.000946,1.078878,0.0002304999999999,0.0009459999999999,0.876572,-0.4557095,0.032073,1.136762,-0.4582795,0.017396,0.8646920000000001,-0.8172795,0.088286,1.164282,-0.8116795,0.081412
31,1.004164,0.730132,0.0638685,0.828879,0.513232,0.0042645,0.7116089999999999,0.701482,-0.1301415,1.170689,0.524652,0.0092205,1.283259,0.711492,-0.1288415,0.720529,0.943372,-0.2343515,1.265519,0.949312,-0.2221015,0.920909,-0.000159,-0.0012845,1.079091,0.0001589999999999,0.0012845,0.875299,-0.454198,0.0248585,1.138239,-0.456138,0.0122964999999999,0.865129,-0.816248,0.0859905,1.164949,-0.810758,0.0793415
32,1.005147,0.7290705000000001,0.055511,0.8294750000000001,0.5124205000000001,-0.0010949999999999,0.711445,0.6987905000000001,-0.1370839999999999,1.171155,0.5233305,0.00408,1.284245,0.7098105,-0.1361139999999999,0.7230850000000001,0.9404905,-0.2404539999999999,1.265525,0.9438605,-0.229504,0.920535,-7.450000000000002e-05,-0.0016129999999999,1.079465,7.449999999999991e-05,0.0016129999999999,0.8736550000000001,-0.4510795,0.014333,1.140535,-0.4525695,0.004011,0.865965,-0.8133595,0.082179,1.166145,-0.8081495,0.075868
33,1.006057,0.726968,0.0459355,0.830035,0.5118379999999999,-0.0071885,0.711195,0.694498,-0.1449475,1.1715550000000001,0.5222279999999999,-0.0018435,1.285325,0.706428,-0.1443075,0.7258249999999999,0.937338,-0.2475375,1.265455,0.938658,-0.2375775,0.920089,2.099999999999932e-05,-0.0019594999999999,1.079911,-2.1000000000000185e-05,0.0019594999999999,0.871855,-0.447132,0.0023134999999999,1.1430150000000001,-0.448312,-0.0056395,0.8668750000000001,-0.8095920000000001,0.0778835,1.167405,-0.804702,0.0719225
34,1.0068525,0.7243485,0.035372,0.8306335,0.5104685,-0.014205,0.7108835,0.6907485,-0.153582,1.1717435,0.5199585,-0.009038,1.2863835,0.7026884999999999,-0.1531819999999999,0.7284835000000001,0.9326885,-0.255902,1.2651735,0.9339985,-0.246592,0.9196425,8.44999999999995e-05,-0.002228,1.0803575,-8.44999999999995e-05,0.002228,0.8698735000000001,-0.4417615,-0.010856,1.1455935,-0.4428315,-0.016582,0.8677935,-0.8042515,0.072845,1.1687135,-0.7997915,0.067206
35,1.0076319999999999,0.7211934999999999,0.022598,0.83144,0.5091835,-0.022947,0.71052,0.6863135,-0.164586,1.17217,0.5178835,-0.017733,1.28718,0.6984735,-0.163796,0.7313700000000001,0.9263635,-0.2663759999999999,1.26453,0.9294035,-0.258316,0.919112,0.0001965,-0.0024679999999999,1.080888,-0.0001964999999999,0.002468,0.86774,-0.4334965,-0.026749,1.1487699999999998,-0.4344765,-0.0301859999999999,0.86886,-0.7961265000000001,0.0663209999999999,1.17026,-0.7921965,0.061092
36,1.008392,0.7183755,0.0098859999999999,0.83216,0.5069555,-0.032346,0.71028,0.6825355,-0.175877,1.17253,0.5153455,-0.0265439999999999,1.28796,0.6941554999999999,-0.174917,0.7338100000000001,0.9217455,-0.277437,1.26356,0.9225255,-0.270857,0.918623,0.0002095,-0.002644,1.081377,-0.0002094999999999,0.0026439999999999,0.86603,-0.4233045,-0.042336,1.15213,-0.4241645,-0.044768,0.8699,-0.7862445,0.059308,1.17181,-0.7828145000000001,0.054504
37,1.008965,0.7147235000000001,-0.0033615,0.833213,0.5043535,-0.0419174999999999,0.710143,0.6785034999999999,-0.1876765,1.172743,0.5122234999999999,-0.0357424999999999,1.2884630000000001,0.6900234999999999,-0.1864665,0.735943,0.9168235,-0.2891265,1.262493,0.9170035,-0.2837065,0.918098,0.0002375,-0.0028185,1.081902,-0.0002374999999999,0.0028185,0.864663,-0.4117665,-0.0572235,1.155613,-0.4121965,-0.0597085,0.870913,-0.7748265000000001,0.0520265,1.1732529999999999,-0.7719164999999999,0.0474145
38,1.0095094999999998,0.7105254999999999,-0.01806,0.8343185,0.5015155,-0.052537,0.7101284999999999,0.6744055,-0.200949,1.1727185,0.5085355,-0.04634,1.2885485,0.6852355000000001,-0.199559,0.7378785,0.9127455,-0.303319,1.2611185,0.9099555,-0.298909,0.9175405000000001,0.0001635,-0.0028729999999999,1.0824595,-0.0001634999999999,0.0028729999999999,0.8627485,-0.3977745,-0.073414,1.1593985,-0.3973045,-0.075751,0.8718285,-0.7597145000000001,0.043743,1.1746585,-0.7575345,0.039442
39,1.0092725,0.70594,-0.032464,0.8343205000000001,0.49929,-0.06292,0.7093305000000001,0.66913,-0.214068,1.1716905,0.50449,-0.056948,1.2876705,0.6803299999999999,-0.212568,0.7389705000000001,0.90655,-0.318198,1.2591204999999999,0.90315,-0.313758,0.9172505,0.0002009999999999,-0.002888,1.0827495,-0.000201,0.002888,0.8598605,-0.38314,-0.089346,1.1627505,-0.38202,-0.091504,0.8720005,-0.74319,0.035544,1.1753205,-0.7417499999999999,0.031589
40,1.0089759999999999,0.700432,-0.047789,0.8344320000000001,0.495752,-0.073605,0.7084820000000001,0.663792,-0.227952,1.170492,0.500502,-0.067915,1.286432,0.674712,-0.226342,0.740272,0.900652,-0.334492,1.256772,0.896762,-0.329622,0.917092,7.799999999999474e-05,-0.002725,1.082908,-7.799999999999474e-05,0.0027249999999999,0.8563419999999999,-0.365578,-0.106477,1.167112,-0.364018,-0.10808,0.872262,-0.724258,0.0272999999999999,1.175982,-0.722458,0.023488
41,1.008451,0.695905,-0.066256,0.83416,0.492985,-0.087412,0.70765,0.6578949999999999,-0.244721,1.16942,0.4973849999999999,-0.082397,1.28481,0.670145,-0.243271,0.7409399999999999,0.8946050000000001,-0.354781,1.25427,0.8938649999999999,-0.3488909999999999,0.9169980000000001,4.999999999991123e-06,-0.002592,1.0830019999999998,-5.000000000005e-06,0.0025919999999999,0.85316,-0.348115,-0.125732,1.17066,-0.345685,-0.126841,0.87236,-0.7042250000000001,0.0153829999999999,1.1761300000000001,-0.7019249999999999,0.0115999999999999
42,1.007697,0.6941050000000001,-0.0855745,0.833765,0.491565,-0.1020315,0.7068650000000001,0.656315,-0.2628175,1.167685,0.493855,-0.0979555,1.2828249999999999,0.668945,-0.2616175,0.7414149999999999,0.890285,-0.3765874999999999,1.2515049999999999,0.8909250000000001,-0.3700274999999999,0.9169080000000001,-0.000225,-0.0022674999999999,1.083092,0.000225,0.0022675,0.848425,-0.327995,-0.1512175,1.175945,-0.3245949999999999,-0.1505274999999999,0.8723650000000001,-0.6807949999999999,0.0022445,1.176065,-0.677975,-0.0013334999999999
43,1.0069644999999998,0.691215,-0.105108,0.8334195,0.489115,-0.116468,0.7060895,0.6537850000000001,-0.281881,1.1660795,0.490505,-0.113316,1.2805594999999999,0.666865,-0.2802409999999999,0.7418095,0.888195,-0.398641,1.2485395,0.888505,-0.391701,0.9169095,-0.0002749999999999,-0.002077,1.0830905,0.000275,0.0020769999999999,0.8438295,-0.3068849999999999,-0.177161,1.1817895,-0.303045,-0.174711,0.8722894999999999,-0.656135,-0.010646,1.1757895,-0.652255,-0.014102
44,1.0063885,0.68833,-0.1229225,0.8329625,0.48559,-0.1299795,0.7055225,0.65107,-0.2992075,1.1643724999999998,0.4866,-0.1277805,1.2787225,0.6648700000000001,-0.2980375,0.7420725,0.88819,-0.4195975,1.2459324999999999,0.88588,-0.4118475,0.9168935,-0.0003799999999999,-0.0018505,1.0831065,0.0003799999999999,0.0018504999999999,0.8395425,-0.28688,-0.2009775,1.1876525,-0.28219,-0.1971575,0.8721925,-0.63247,-0.0223655,1.1754025,-0.62752,-0.0257715
45,1.0056314999999998,0.68426,-0.141324,0.8323425,0.48195,-0.1438269999999999,0.7047125000000001,0.6478200000000001,-0.317341,1.1623025,0.4823,-0.1426899999999999,1.2765325,0.6624099999999999,-0.316931,0.7419325,0.88361,-0.441231,1.2434625,0.88163,-0.432681,0.9168054999999999,-0.00046,-0.0016899999999999,1.0831945,0.0004599999999999,0.0016899999999999,0.8351425,-0.26514,-0.2252509999999999,1.1939624999999998,-0.25947,-0.2195909999999999,0.8722624999999999,-0.6069,-0.033976,1.1747824999999998,-0.60113,-0.037463
46,1.004637,0.68023,-0.1593075,0.8315540000000001,0.4790399999999999,-0.1574545,0.703684,0.64408,-0.3349395,1.160054,0.4783199999999999,-0.1573765,1.2742239999999998,0.65927,-0.3352895,0.741124,0.881,-0.4620595,1.2408839999999999,0.87749,-0.4531895,0.916797,-0.00062,-0.0013935,1.083203,0.0006199999999999,0.0013935,0.830374,-0.2436,-0.2490295,1.200284,-0.23683,-0.2414795,0.872174,-0.58135,-0.0450605,1.173934,-0.57477,-0.0485585
47,1.003164,0.6770400000000001,-0.1760554999999999,0.830353,0.47607,-0.1701635,0.7021930000000001,0.6408200000000001,-0.3512855,1.1574229999999999,0.4745,-0.1708315,1.2714729999999999,0.6569100000000001,-0.3523754999999999,0.739663,0.87854,-0.4809655,1.237873,0.87411,-0.4718055,0.916895,-0.0006799999999999,-0.0010854999999999,1.083105,0.00068,0.0010855,0.8257530000000001,-0.2219599999999999,-0.2711055,1.206003,-0.2152099999999999,-0.2621955,0.8717230000000001,-0.5576099999999999,-0.0553684999999999,1.172563,-0.54999,-0.0590104999999999
48,1.001483,0.6729700000000001,-0.193279,0.828927,0.4717099999999999,-0.183485,0.700697,0.63716,-0.367965,1.154607,0.47072,-0.184848,1.268537,0.65299,-0.369865,0.737967,0.8752,-0.500265,1.2343469999999999,0.87015,-0.491635,0.91695,-0.00086,-0.000755,1.08305,0.0008599999999999,0.0007549999999999,0.820857,-0.1982,-0.292505,1.211687,-0.19182,-0.282725,0.871197,-0.5327500000000001,-0.065939,1.170907,-0.52456,-0.069882
49,0.999576,0.6689849999999999,-0.20958,0.8272740000000001,0.467875,-0.196092,0.699014,0.6327149999999999,-0.383535,1.151824,0.467035,-0.19828,1.265714,0.648995,-0.386515,0.7362139999999999,0.8704449999999999,-0.5183949999999999,1.230924,0.866225,-0.510525,0.9168340000000001,-0.000975,-0.000445,1.0831659999999999,0.000975,0.000445,0.816614,-0.177395,-0.3118849999999999,1.215954,-0.170715,-0.301355,0.870584,-0.5096050000000001,-0.076152,1.169134,-0.5018750000000001,-0.0803059999999999
50,0.9976800000000001,0.6637599999999999,-0.2209149999999999,0.825646,0.4639899999999999,-0.2037209999999999,0.6973560000000001,0.62798,-0.394355,1.148796,0.4616399999999999,-0.2066589999999999,1.262966,0.64308,-0.3985849999999999,0.7342160000000001,0.8651,-0.531175,1.2276159999999998,0.86012,-0.524535,0.916733,-0.00098,-7.499999999999174e-05,1.083267,0.0009799999999999,7.500000000000562e-05,0.812296,-0.15716,-0.325785,1.220386,-0.15067,-0.314635,0.870086,-0.4881500000000001,-0.081435,1.167356,-0.481,-0.0857599999999999
51,0.9960135000000001,0.65561,-0.231185,0.8242935,0.457525,-0.210438,0.6957935,0.61875,-0.403345,1.1462835,0.455338,-0.214027,1.2608535,0.63298,-0.409955,0.7325735,0.85484,-0.543575,1.2251435,0.85057,-0.538315,0.9163715,-0.00078,0.0002949999999999,1.0836285,0.00078,-0.000295,0.8097435,-0.13835,-0.332525,1.2232335,-0.1325,-0.322135,0.8698735,-0.4687199999999999,-0.085636,1.1658534999999999,-0.46234,-0.090304
52,0.9944050000000001,0.64805,-0.2399949999999999,0.8230050000000001,0.453559,-0.216183,0.694415,0.60848,-0.410635,1.143835,0.450422,-0.2205249999999999,1.259055,0.62318,-0.4206749999999999,0.730375,0.84153,-0.5548150000000001,1.223235,0.8396,-0.550885,0.916102,-0.00059,0.000735,1.083898,0.0005899999999999,-0.0007349999999999,0.807185,-0.12084,-0.3373649999999999,1.225555,-0.11614,-0.327765,0.869695,-0.45136,-0.0894929999999999,1.164435,-0.44644,-0.0943729999999999
53,0.9929630000000002,0.6394150000000001,-0.248935,0.822105,0.448554,-0.221818,0.6933750000000001,0.5979350000000001,-0.417425,1.141575,0.4448850000000001,-0.227272,1.257085,0.613175,-0.431785,0.728275,0.827445,-0.566025,1.221625,0.8271250000000001,-0.564235,0.915881,-0.0005549999999999,0.001125,1.084119,0.000555,-0.0011249999999999,0.8046949999999999,-0.1025849999999999,-0.341885,1.227725,-0.0990749999999999,-0.332955,0.869355,-0.4333349999999999,-0.09367,1.163095,-0.4300949999999999,-0.0987659999999999
54,0.991504,0.631155,-0.256205,0.821423,0.444607,-0.2259229999999999,0.6924429999999999,0.584665,-0.421465,1.1398329999999999,0.440352,-0.232428,1.2555830000000001,0.6025050000000001,-0.440565,0.726263,0.815445,-0.5757650000000001,1.2200929999999999,0.817455,-0.576025,0.915435,-0.000435,0.0015649999999999,1.084565,0.000435,-0.001565,0.802403,-0.0882449999999999,-0.345325,1.229243,-0.0854649999999999,-0.336415,0.868853,-0.4184549999999999,-0.097121,1.162023,-0.416985,-0.102442
55,0.9898325,0.62392,-0.263145,0.8206715,0.439285,-0.230272,0.6913215000000001,0.5734,-0.425645,1.1380515,0.434976,-0.23747,1.2540315,0.59308,-0.449175,0.7237815000000001,0.80281,-0.585705,1.2183915,0.80701,-0.588395,0.9151255000000001,-0.0003599999999999,0.0018849999999999,1.0848745,0.00036,-0.0018849999999999,0.8001915,-0.07379,-0.349205,1.2301515,-0.0714399999999999,-0.340355,0.8682415,-0.4035799999999999,-0.100973,1.1608615,-0.40361,-0.106503
56,0.988644,0.616115,-0.269225,0.8203230000000001,0.434312,-0.2339839999999999,0.690453,0.561815,-0.429425,1.1367829999999999,0.429369,-0.241974,1.253333,0.583015,-0.457015,0.7215929999999999,0.788685,-0.5951150000000001,1.217433,0.797385,-0.5999950000000001,0.914977,-0.0001849999999999,0.0021349999999999,1.085023,0.0001849999999999,-0.0021349999999999,0.798583,-0.060315,-0.3527949999999999,1.231023,-0.058445,-0.343955,0.868043,-0.390355,-0.1045639999999999,1.160173,-0.391505,-0.1102739999999999
57,0.9879705000000001,0.60896,-0.2740599999999999,0.8206105,0.429905,-0.2374109999999999,0.6899905,0.5498149999999999,-0.43292,1.1359205,0.424928,-0.24547,1.2530705,0.57402,-0.46384,0.7198905,0.77586,-0.60339,1.2170605,0.78776,-0.61042,0.9149785,1.000000000001e-05,0.0022999999999999,1.0850215,-1.000000000001e-05,-0.0022999999999999,0.7977105000000001,-0.0483,-0.3553699999999999,1.2313705,-0.0467599999999999,-0.34738,0.8681305,-0.37855,-0.107927,1.1599105,-0.38042,-0.113792
58,0.987232,0.602685,-0.2779749999999999,0.820991,0.426928,-0.2404089999999999,0.689541,0.539441,-0.435945,1.135141,0.420853,-0.24846,1.252841,0.565778,-0.469545,0.7185509999999999,0.764455,-0.610615,1.216621,0.777865,-0.619815,0.914979,0.000205,0.0024049999999999,1.085021,-0.000205,-0.0024049999999999,0.796901,-0.036765,-0.3568449999999999,1.231661,-0.035555,-0.349935,0.868121,-0.367205,-0.110833,1.159621,-0.369815,-0.116875
59,0.986767,0.598665,-0.281305,0.821497,0.425752,-0.243442,0.689217,0.531982,-0.438895,1.1347369999999999,0.420006,-0.251487,1.252727,0.560325,-0.474305,0.717457,0.7556149999999999,-0.6172850000000001,1.216367,0.771265,-0.628225,0.914885,0.000655,0.0026549999999999,1.085115,-0.000655,-0.0026549999999999,0.796237,-0.023995,-0.357745,1.231867,-0.0229649999999999,-0.351755,0.868197,-0.3544949999999999,-0.113789,1.159497,-0.357625,-0.119989
60,0.987135,0.596238,-0.2841,0.822375,0.426567,-0.245902,0.6893549999999999,0.526854,-0.4412,1.135005,0.420758,-0.254281,1.252965,0.557535,-0.47765,0.716985,0.750255,-0.62224,1.216335,0.767685,-0.63487,0.914839,0.000725,0.00275,1.085161,-0.0007249999999999,-0.00275,0.796005,-0.0115149999999999,-0.35819,1.232245,-0.011325,-0.35226,0.868565,-0.342785,-0.116493,1.159725,-0.346255,-0.122864
61,0.9875965,0.5943120000000001,-0.2867999999999999,0.8232535,0.4265940000000001,-0.2480869999999999,0.6897135,0.5228440000000001,-0.44305,1.1354435,0.4210320000000001,-0.2568519999999999,1.2534334999999999,0.5549510000000001,-0.4803699999999999,0.7173735,0.7469000000000001,-0.6265499999999999,1.2166335,0.7637400000000001,-0.641,0.9149565,0.00062,0.00282,1.0850435,-0.0006199999999999,-0.0028199999999999,0.7959635,-0.0001299999999998,-0.3585199999999999,1.2327935,-0.0007099999999998,-0.3525699999999999,0.8690835,-0.3321399999999999,-0.1190919999999999,1.1601435,-0.3357999999999999,-0.1256219999999999
62,0.9880875000000001,0.593206,-0.28898,0.8242045,0.428645,-0.249524,0.6900744999999999,0.519808,-0.44392,1.1358445,0.422315,-0.2587629999999999,1.2539245,0.5526960000000001,-0.48255,0.7177645,0.743715,-0.62952,1.2169745,0.761515,-0.64503,0.9151865,0.000635,0.0029399999999999,1.0848135,-0.0006349999999999,-0.0029399999999999,0.7960245,0.008245,-0.35826,1.2332945,0.006865,-0.35253,0.8695645000000001,-0.324545,-0.121165,1.1605945,-0.328175,-0.127793
63,0.988406,0.592989,-0.290675,0.825294,0.431282,-0.2515529999999999,0.6905140000000001,0.519444,-0.4453149999999999,1.136334,0.42407,-0.261186,1.254494,0.551984,-0.485405,0.7182040000000001,0.74166,-0.632395,1.217544,0.7605200000000001,-0.649165,0.915775,0.00065,0.003015,1.084225,-0.0006499999999999,-0.0030149999999999,0.796204,0.01539,-0.358095,1.233524,0.0131299999999999,-0.352515,0.870094,-0.31835,-0.1238249999999999,1.161134,-0.32196,-0.130623
64,0.9888645,0.591715,-0.29197,0.8262515,0.432877,-0.253522,0.6909215,0.519615,-0.44669,1.1367815000000001,0.425665,-0.263306,1.2550215,0.552848,-0.48805,0.7186615000000001,0.7408750000000001,-0.6355500000000001,1.2182415,0.759685,-0.65231,0.9163095,0.000605,0.00314,1.0836905,-0.0006049999999999,-0.00314,0.7963715,0.017835,-0.3578099999999999,1.2334515,0.014785,-0.35225,0.8705915,-0.3169849999999999,-0.126319,1.1616215,-0.320465,-0.133257
65,0.9885295,0.591715,-0.292385,0.8266235,0.432877,-0.2555969999999999,0.6908935,0.519615,-0.448015,1.1367634999999998,0.425665,-0.265198,1.2553634999999999,0.552848,-0.489745,0.7186235000000001,0.7408750000000001,-0.638505,1.2183235,0.759685,-0.655285,0.9165675000000001,0.000605,0.003255,1.0834324999999998,-0.0006049999999999,-0.003255,0.7962535,0.018625,-0.3575049999999999,1.2327035,0.0148449999999999,-0.351915,0.8706235,-0.3172149999999999,-0.128808,1.1616535,-0.3205049999999999,-0.135922
66,0.987986,0.591715,-0.29204,0.826273,0.432877,-0.257097,0.690273,0.519615,-0.44977,1.136313,0.425665,-0.266769,1.255303,0.552848,-0.4916399999999999,0.718183,0.7408750000000001,-0.64109,1.217943,0.759685,-0.65787,0.9164470000000001,0.000605,0.00347,1.083553,-0.0006049999999999,-0.00347,0.7958630000000001,0.019365,-0.3569799999999999,1.231443,0.015125,-0.35177,0.8702030000000001,-0.3172349999999999,-0.131142,1.161243,-0.3203349999999999,-0.138507
67,0.987816,0.591715,-0.291205,0.826125,0.435145,-0.258013,0.689685,0.519615,-0.451375,1.136035,0.427571,-0.268116,1.255435,0.552848,-0.493065,0.717705,0.7408750000000001,-0.643235,1.2177850000000001,0.759685,-0.660365,0.916455,0.000605,0.003665,1.083545,-0.0006049999999999,-0.003665,0.7957350000000001,0.020225,-0.356135,1.230035,0.015465,-0.3512349999999999,0.8699250000000001,-0.3172349999999999,-0.13327,1.161055,-0.320225,-0.140975
68,0.987455,0.592369,-0.28924,0.826023,0.437999,-0.258397,0.688963,0.51989,-0.45222,1.1358329999999999,0.430465,-0.26869,1.2556530000000001,0.554871,-0.49374,0.7171430000000001,0.740595,-0.6445099999999999,1.217673,0.759595,-0.66222,0.917065,0.000425,0.00381,1.082935,-0.000425,-0.00381,0.795643,0.019225,-0.35445,1.228593,0.014445,-0.35068,0.869693,-0.3186949999999999,-0.134796,1.160893,-0.321565,-0.142776
69,0.987282,0.5957079999999999,-0.285605,0.826109,0.4399929999999999,-0.256435,0.6881889999999999,0.5223549999999999,-0.451375,1.135869,0.4322159999999999,-0.267044,1.257129,0.5554859999999999,-0.492915,0.716449,0.7414399999999999,-0.644565,1.217719,0.7594299999999999,-0.661065,0.91824,0.0002499999999999,0.0037349999999999,1.08176,-0.00025,-0.003735,0.795459,0.0092899999999999,-0.351905,1.227049,0.0046099999999998,-0.349235,0.8695189999999999,-0.32901,-0.134458,1.160889,-0.3317500000000001,-0.142758
70,0.9870970000000001,0.601315,-0.28189,0.82619,0.441614,-0.25427,0.68738,0.525164,-0.45016,1.13596,0.433706,-0.265236,1.25767,0.557369,-0.49178,0.7155,0.742775,-0.6432800000000001,1.21802,0.761925,-0.65915,0.919173,0.000155,0.00373,1.080827,-0.000155,-0.0037299999999999,0.79541,-0.002515,-0.34955,1.2252399999999999,-0.006715,-0.34806,0.8692700000000001,-0.341195,-0.133969,1.16092,-0.343825,-0.142533
71,0.9873615000000001,0.6080300000000001,-0.2779,0.8268445,0.442133,-0.251986,0.6866845000000001,0.52934,-0.44858,1.1365345,0.434384,-0.263341,1.2593045,0.5602,-0.49072,0.7149145,0.74603,-0.6408400000000001,1.2191144999999999,0.7659400000000001,-0.65692,0.9195305,-0.0003699999999999,0.00373,1.0804695,0.00037,-0.0037299999999999,0.7960545,-0.0171599999999999,-0.34662,1.2238945,-0.0211699999999999,-0.3463699999999999,0.8695145,-0.35646,-0.1333889999999999,1.1614645000000001,-0.3590099999999999,-0.1422749999999999
72,0.9872145000000001,0.615815,-0.274236,0.8270405000000001,0.446409,-0.2492809999999999,0.6854104999999999,0.535112,-0.4472,1.1367305,0.4400349999999999,-0.261133,1.2605605,0.565425,-0.48886,0.7136205,0.749385,-0.63752,1.2199805,0.770215,-0.65375,0.9197165,-0.000585,0.00373,1.0802835,0.000585,-0.0037299999999999,0.7963804999999999,-0.034795,-0.34407,1.2223705,-0.0387549999999999,-0.3453199999999999,0.8692905,-0.375925,-0.1333869999999999,1.1616905,-0.3783849999999999,-0.142293
73,0.9872140000000001,0.62646,-0.269773,0.8269420000000001,0.450377,-0.246239,0.684112,0.544461,-0.44532,1.136982,0.445132,-0.258553,1.261962,0.57548,-0.48558,0.712052,0.758,-0.6329899999999999,1.221112,0.7795000000000001,-0.6494,0.919946,-0.0007699999999999,0.0036299999999999,1.080054,0.0007699999999999,-0.00363,0.7968620000000001,-0.0528199999999999,-0.34143,1.220822,-0.0561899999999999,-0.34416,0.869122,-0.39612,-0.133074,1.1619519999999999,-0.3978899999999999,-0.141983
74,0.9873845,0.635935,-0.263894,0.8272895,0.453138,-0.242828,0.6829295,0.552075,-0.4418299999999999,1.1377695,0.449183,-0.254885,1.2635695,0.582825,-0.48131,0.7106695000000001,0.764835,-0.62669,1.2226294999999998,0.786865,-0.6436499999999999,0.9199865,-0.0007949999999999,0.00345,1.0800135,0.0007949999999999,-0.00345,0.7995095,-0.0794249999999999,-0.33626,1.2174895000000001,-0.081185,-0.33984,0.8690195000000001,-0.4257449999999999,-0.13247,1.1624495,-0.4273549999999999,-0.141383
75,0.9874170000000001,0.645905,-0.256819,0.827351,0.455881,-0.238043,0.6817610000000001,0.5600849999999999,-0.437045,1.138511,0.4526599999999999,-0.250003,1.264991,0.590295,-0.475285,0.708941,0.774565,-0.6184350000000001,1.224141,0.793365,-0.635705,0.919872,-0.000815,0.0033949999999999,1.080128,0.0008149999999999,-0.003395,0.8024910000000001,-0.107215,-0.329195,1.213651,-0.107365,-0.333585,0.867571,-0.457215,-0.133498,1.163461,-0.458615,-0.141091
76,0.9873730000000001,0.658775,-0.247329,0.827027,0.460155,-0.231523,0.6805270000000001,0.570295,-0.4296299999999999,1.139187,0.456595,-0.243365,1.2661769999999999,0.598395,-0.46658,0.707257,0.786015,-0.60633,1.225477,0.806025,-0.62477,0.91979,-0.0006649999999999,0.00317,1.0802100000000001,0.000665,-0.00317,0.806157,-0.135695,-0.3193,1.208677,-0.134685,-0.32373,0.865677,-0.491695,-0.133106,1.164127,-0.492695,-0.13943
77,0.9876495000000001,0.67148,-0.236687,0.8269735,0.4648099999999999,-0.223947,0.6799135000000001,0.58221,-0.420895,1.1405135,0.46308,-0.235455,1.2675635,0.60856,-0.456145,0.7065235000000001,0.79984,-0.592705,1.2273435,0.8182699999999999,-0.611925,0.9195785,-0.00065,0.0029649999999999,1.0804215,0.0006499999999999,-0.0029649999999999,0.8101635,-0.16318,-0.3078849999999999,1.2036635,-0.16099,-0.312455,0.8643434999999999,-0.5258,-0.131168,1.1653135,-0.52612,-0.137029
78,0.988226,0.6826099999999999,-0.224704,0.8272010000000001,0.47211,-0.215745,0.680391,0.59511,-0.410415,1.142121,0.4706599999999999,-0.2268279999999999,1.2680609999999999,0.6215999999999999,-0.4436049999999999,0.7061310000000001,0.81578,-0.5764849999999999,1.229451,0.83385,-0.597445,0.919429,-0.0005999999999999,0.002605,1.080571,0.0005999999999999,-0.0026049999999999,0.8149109999999999,-0.18517,-0.2941049999999999,1.198801,-0.18168,-0.298655,0.863691,-0.55522,-0.1266129999999999,1.166221,-0.55435,-0.131964
79,0.988544,0.68926,-0.2111,0.8272830000000001,0.4797599999999999,-0.20657,0.6807030000000001,0.6088899999999999,-0.398395,1.143613,0.47824,-0.216851,1.268383,0.63444,-0.429135,0.705903,0.83241,-0.559095,1.231353,0.84756,-0.5818650000000001,0.919206,-0.00071,0.0023849999999999,1.080794,0.0007099999999999,-0.0023849999999999,0.819653,-0.20748,-0.278615,1.193503,-0.20324,-0.282915,0.8631130000000001,-0.58492,-0.120195,1.166933,-0.58328,-0.125518
80,0.9902635000000001,0.6916,-0.1963629999999999,0.8281265,0.48661,-0.1966819999999999,0.6816065,0.62049,-0.3854849999999999,1.1458665,0.48402,-0.2062699999999999,1.2703065,0.6450199999999999,-0.4130649999999999,0.7068365,0.84789,-0.5408949999999999,1.2339665,0.85848,-0.564505,0.9190505,-0.00072,0.001955,1.0809495,0.0007199999999999,-0.0019549999999999,0.8253765,-0.23793,-0.2615449999999999,1.1884665,-0.23233,-0.265285,0.8636965,-0.61587,-0.1129259999999999,1.1677865,-0.61386,-0.1183839999999999
81,0.9923085,0.691135,-0.178821,0.8291255,0.490935,-0.186662,0.6825555000000001,0.6342650000000001,-0.3717899999999999,1.1479754999999998,0.480565,-0.1941729999999999,1.2711554999999999,0.6526350000000001,-0.39392,0.7076455000000001,0.863355,-0.5208999999999999,1.2370555,0.869425,-0.54463,0.9186215000000001,-0.0009349999999999,0.00156,1.0813784999999998,0.000935,-0.00156,0.8321155,-0.270095,-0.24108,1.1821755,-0.2632049999999999,-0.24436,0.8643255,-0.647965,-0.1058649999999999,1.1684955,-0.646265,-0.1113509999999999
82,0.9941675,0.69055,-0.161088,0.8298375,0.49626,-0.176311,0.6835575,0.64609,-0.357465,1.1497975,0.47932,-0.181716,1.2719975,0.6564300000000001,-0.375605,0.7081775,0.8773900000000001,-0.499815,1.2400574999999998,0.8794599999999999,-0.523155,0.9183395,-0.0009299999999999,0.0011249999999999,1.0816605,0.00093,-0.001125,0.8393275,-0.30154,-0.218265,1.1753375,-0.2943599999999999,-0.221455,0.8647374999999999,-0.67953,-0.098557,1.1689574999999999,-0.67851,-0.104041
83,0.995714,0.69567,-0.136226,0.830264,0.5013,-0.156259,0.685844,0.65678,-0.33374,1.152494,0.4854,-0.160759,1.272964,0.66432,-0.34867,0.708704,0.89085,-0.4694,1.243094,0.88878,-0.4933099999999999,0.918338,-0.00084,0.0005399999999999,1.081662,0.0008399999999999,-0.0005399999999999,0.846614,-0.33023,-0.182572,1.168714,-0.3239,-0.187375,0.864854,-0.70703,-0.081613,1.169104,-0.70672,-0.086879
84,0.9972435000000001,0.7006305,-0.11145,0.8305665,0.5058005,-0.137064,0.6889365000000001,0.6682005,-0.309585,1.1551765,0.4914805,-0.14029,1.2735865,0.6727505,-0.322295,0.7099065,0.9027705,-0.439335,1.2463765,0.8998405,-0.4637749999999999,0.9183455,-0.0008055,-7.499999999999174e-05,1.0816545,0.0008055,7.500000000000562e-05,0.8534965,-0.3567495,-0.1479649999999999,1.1624265,-0.3513295,-0.15419,0.8649665000000001,-0.7314795,-0.064966,1.1692365,-0.7322295,-0.0698069999999999
85,0.9990175000000001,0.7039110000000001,-0.088365,0.8309625,0.508671,-0.119421,0.6924425000000001,0.676681,-0.287004,1.1575225,0.496351,-0.121094,1.2752325,0.679361,-0.297934,0.7118525,0.912291,-0.411714,1.2496825,0.905031,-0.435454,0.9183425000000001,-0.0008419999999999,-0.00048,1.0816575,0.000842,0.0004799999999999,0.8593225,-0.377259,-0.116011,1.1571725,-0.372789,-0.124158,0.8650725,-0.749949,-0.049076,1.1693425,-0.7519589999999999,-0.053543
86,1.0004405,0.706125,-0.065831,0.8305665,0.512245,-0.102111,0.6958765,0.6842349999999999,-0.264828,1.1592165,0.499765,-0.102374,1.2764465,0.683775,-0.274328,0.7137665,0.920235,-0.384748,1.2523765,0.911015,-0.407208,0.9186535,-0.0007039999999999,-0.000881,1.0813465,0.000704,0.0008809999999999,0.8646165,-0.395815,-0.085135,1.1518365,-0.391995,-0.095155,0.8648365,-0.766725,-0.033545,1.1689565,-0.770355,-0.037684
87,1.0018889999999998,0.7081705,-0.0437255,0.830179,0.5142505,-0.0853845,0.699329,0.6911505,-0.2437305,1.161109,0.5029605,-0.0841495,1.277819,0.6881205,-0.2514905,0.716179,0.9274905,-0.3590205,1.255039,0.9148505,-0.3802005,0.918986,-0.0006634999999999,-0.0011134999999999,1.081014,0.0006635,0.0011135,0.869389,-0.4111795,-0.0566915,1.147059,-0.4079095,-0.0684475,0.865939,-0.7809595,-0.0150174999999999,1.167849,-0.7862595,-0.0202624999999999
88,1.0032055,0.7121995,-0.022154,0.8302955000000001,0.5159695,-0.068767,0.7028455,0.6963995,-0.222831,1.1632755,0.5059795,-0.066393,1.2793955000000001,0.6917395,-0.229421,0.7186755,0.9334195,-0.333461,1.2576654999999999,0.9187095,-0.353111,0.9192915,-0.0003955,-0.001391,1.0807085,0.0003955,0.0013909999999999,0.8737455000000001,-0.4255805,-0.029814,1.1426954999999999,-0.4237205,-0.0435,0.8668155000000001,-0.7935905000000001,0.0030899999999999,1.1665255,-0.7995205000000001,-0.003281
89,1.004403,0.717496,-0.002053,0.8304819999999999,0.517706,-0.053032,0.706442,0.700896,-0.203142,1.165302,0.509836,-0.049502,1.281402,0.694726,-0.208592,0.7210920000000001,0.936796,-0.3095819999999999,1.2602419999999999,0.922446,-0.3274519999999999,0.919522,-0.000242,-0.001612,1.080478,0.000242,0.0016119999999999,0.877682,-0.438864,-0.005115,1.1388319999999998,-0.438614,-0.020666,0.867592,-0.804644,0.0199769999999999,1.165062,-0.810634,0.0133119999999999
90,1.0052215,0.7242645,0.0140645,0.8309145,0.5172545,-0.0385965,0.7093745,0.7011944999999999,-0.1848655,1.1673145,0.5174044999999999,-0.0351885,1.2835345,0.6981244999999999,-0.1919855,0.7234145000000001,0.9401345,-0.2886955,1.2624545,0.9260745,-0.3049155,0.9198375,0.0001184999999999,-0.0016145,1.0801625,-0.0001185,0.0016145,0.8804645000000001,-0.4498455,0.0150184999999999,1.1362445,-0.4511755,-0.0023474999999999,0.8680345,-0.8119755000000001,0.0345915,1.1641045,-0.8180155,0.0276035
91,1.0062055,0.728524,0.0294865,0.8315985000000001,0.5161739999999999,-0.0246175,0.7122585,0.700384,-0.1675105,1.1694784999999999,0.523404,-0.0215045,1.2859185,0.7012339999999999,-0.1756805,0.7258884999999999,0.940174,-0.2696705,1.2646785,0.926484,-0.2847105,0.9202045,0.0002589999999999,-0.0015185,1.0797955,-0.000259,0.0015184999999999,0.8826685,-0.461686,0.0324405,1.1343485,-0.464306,0.0138005,0.8684885,-0.8188960000000001,0.0477014999999999,1.1633685,-0.8257260000000001,0.0408484999999999
92,1.0071184999999998,0.7292335000000001,0.0361435,0.8320765,0.5166035,-0.0204034999999999,0.7138964999999999,0.7027635,-0.1609255,1.1700865,0.5230935,-0.0171634999999999,1.2874865,0.7033235,-0.1685655,0.7275165,0.9429235,-0.2615754999999999,1.2664665,0.9295135,-0.2739655,0.9204665,0.0002094999999999,-0.0012705,1.0795335,-0.0002094999999999,0.0012705,0.8825465,-0.4621565,0.0350535,1.1339065,-0.4654165,0.0164155,0.8683065,-0.8193665,0.0506065,1.1629265,-0.8272265,0.0438055
93,1.008054,0.7295225000000001,0.042215,0.832562,0.5170525,-0.016299,0.7149719999999999,0.7044625,-0.155296,1.170782,0.5227425,-0.012871,1.288992,0.7047425,-0.161746,0.728872,0.9447325,-0.254156,1.268082,0.9318525,-0.264166,0.9206920000000001,0.0001825,-0.001042,1.079308,-0.0001825,0.001042,0.882302,-0.4625075,0.037551,1.133452,-0.4663475,0.018915,0.868022,-0.8200974999999999,0.0533629999999999,1.162472,-0.8280474999999999,0.046335
94,1.0086499999999998,0.729487,0.0476605,0.832956,0.517417,-0.0122515,0.715696,0.705627,-0.1501875,1.1715659999999999,0.5224869999999999,-0.0085235,1.290236,0.7053969999999999,-0.1551775,0.729696,0.945687,-0.2474675,1.269426,0.933477,-0.2556474999999999,0.920893,0.000175,-0.0008655,1.079107,-0.0001749999999999,0.0008655,0.881956,-0.463003,0.0399384999999999,1.1329159999999998,-0.4670729999999999,0.0213035,0.867606,-0.820613,0.0559085,1.161936,-0.828393,0.0487245
95,1.009058,0.7293120000000001,0.05286,0.833169,0.5177120000000001,-0.008342,0.7161390000000001,0.706232,-0.1453199999999999,1.1720789999999999,0.522292,-0.004621,1.291399,0.7057220000000001,-0.14887,0.730059,0.946342,-0.24111,1.270569,0.934292,-0.24822,0.921067,0.0001799999999999,-0.000722,1.078933,-0.0001799999999999,0.000722,0.881629,-0.4629479999999999,0.0413269999999999,1.132409,-0.467618,0.022505,0.8670789999999999,-0.8211379999999999,0.05841,1.1613689999999999,-0.8286279999999999,0.0510809999999999
96,1.009216,0.7291925,0.0574675,0.833297,0.5179524999999999,-0.0046565,0.7164470000000001,0.7065125,-0.1408184999999999,1.172467,0.5221724999999999,-0.0009795,1.292347,0.7057025,-0.1433384999999999,0.7300770000000001,0.9465425,-0.2355185,1.271437,0.9350825,-0.2419585,0.921201,0.0001834999999999,-0.0005605,1.078799,-0.0001834999999999,0.0005604999999999,0.881277,-0.4628675,0.0422894999999999,1.132037,-0.4680275,0.0232485,0.866557,-0.8216075,0.0607835,1.160807,-0.8287475,0.0533425
97,1.0091975,0.7291575,0.0608494999999999,0.8331765000000001,0.5179174999999999,-0.0020645,0.7164465,0.7064775,-0.1374495,1.1724765,0.5220675,0.0016534999999999,1.2929765,0.7056675,-0.1392295,0.7297065,0.9465075,-0.2314294999999999,1.2720465,0.9352575,-0.2372395,0.9212845000000001,0.0001594999999999,-0.0004534999999999,1.0787155,-0.0001594999999999,0.0004534999999999,0.8810165000000001,-0.4628825,0.0425544999999999,1.1318165,-0.4681324999999999,0.0233795,0.8661065,-0.8221025000000001,0.0625615,1.1602865,-0.8287825,0.0549845
98,1.0091,0.7290675,0.063883,0.83293,0.5178974999999999,0.0003039999999999,0.7162,0.7064575,-0.134479,1.17253,0.5218875,0.004205,1.29325,0.7056475,-0.135819,0.7291799999999999,0.9464875,-0.227959,1.27229,0.9352975,-0.233449,0.921352,0.0001394999999999,-0.0003309999999999,1.078648,-0.0001395,0.0003309999999999,0.8807300000000001,-0.4629025,0.042772,1.13163,-0.4681725,0.023415,0.86565,-0.8224825,0.064128,1.15976,-0.8288025,0.0564669999999999
99,1.0089415,0.7288835,0.066175,0.8325705,0.5178834999999999,0.002098,0.7157804999999999,0.7064435,-0.13198,1.1726305,0.5216735,0.006277,1.2932305,0.7056335,-0.13336,0.7286205,0.9464735,-0.22522,1.2722105,0.9352835,-0.23084,0.9213815,0.0001254999999999,-0.0002439999999999,1.0786185,-0.0001255,0.000244,0.8804905000000001,-0.4629165,0.043045,1.1314905,-0.4682065,0.023337,0.8652005,-0.8226965,0.065314,1.1592805,-0.8287865,0.057579
100,1.0087315,0.7287724999999999,0.0682055,0.8321895,0.5178625,0.0037055,0.7152895,0.7064024999999999,-0.1296145,1.1728095,0.5214424999999999,0.0083865,1.2931694999999999,0.7054324999999999,-0.1310945,0.7281095,0.9463025,-0.2226645,1.2719395,0.9352825,-0.2284245,0.9213865,0.0001104999999999,-0.0001184999999999,1.0786135,-0.0001104999999999,0.0001185,0.8802795,-0.4628775,0.0433275,1.1314395,-0.4682375,0.0232105,0.8647895,-0.8228575,0.0664365,1.1588895,-0.8285275000000001,0.0585845
101,1.0085005,0.7286965,0.070053,0.8318315000000001,0.5177965,0.0051799999999999,0.7148215,0.7061164999999999,-0.127414,1.1730215,0.5212465,0.0104299999999999,1.2930614999999999,0.7052065,-0.129094,0.7276415,0.9460865,-0.220274,1.2716315,0.9350665,-0.226104,0.9213725000000001,0.0001045,2.8999999999999512e-05,1.0786274999999999,-0.0001045,-2.9000000000001247e-05,0.8800715,-0.4628835,0.043628,1.1314415,-0.4682635,0.023099,0.8644215,-0.8229835000000001,0.0674599999999999,1.1585415000000001,-0.8281635,0.059418
102,1.008228,0.7286524999999999,0.071572,0.8314720000000001,0.5176625,0.006474,0.714392,0.7057125,-0.125413,1.173152,0.5210724999999999,0.012114,1.292942,0.7049825,-0.1273629999999999,0.727152,0.9459425,-0.218183,1.271302,0.9348625,-0.223993,0.921368,8.850000000000004e-05,0.00016,1.078632,-8.850000000000004e-05,-0.00016,0.8799020000000001,-0.4631375,0.043812,1.131462,-0.4682475,0.022978,0.864092,-0.8230575,0.068331,1.158222,-0.8278075,0.060144
103,1.0080125,0.728627,0.0728265,0.8312185,0.517507,0.0074684999999999,0.7140785000000001,0.705177,-0.1236074999999999,1.1732185,0.520907,0.0134545,1.2928985,0.704767,-0.1259674999999999,0.7267385,0.945737,-0.2164775,1.2710985,0.934707,-0.2221275,0.9213535,5.400000000000023e-05,0.0003204999999999,1.0786465,-5.400000000000023e-05,-0.0003205,0.8798185000000001,-0.463453,0.0439035,1.1315585,-0.468233,0.0227655,0.8638685,-0.823033,0.0690195,1.1579985,-0.827463,0.0607455
104,1.0078625,0.7286050000000001,0.0735335,0.8310415,0.517325,0.0081005,0.7138415,0.704595,-0.1222875,1.1734015,0.520715,0.0145405,1.2929015,0.704565,-0.1250075,0.7264515,0.945565,-0.2152875,1.2710015000000001,0.934615,-0.2206975,0.9213405,1.600000000000039e-05,0.0005005,1.0786595,-1.600000000000039e-05,-0.0005004999999999,0.8797415000000001,-0.463705,0.0440865,1.1317115,-0.468195,0.0225635,0.8637915,-0.822995,0.0694175,1.1579115,-0.827105,0.0611155
105,1.007747,0.7286005000000001,0.0740425,0.830913,0.5170405,0.0085705,0.7135830000000001,0.7039505,-0.1211704999999999,1.173573,0.5205205,0.0153265,1.2929629999999999,0.7043905,-0.1242305,0.726143,0.9453705,-0.2143405,1.270963,0.9345305,-0.2193604999999999,0.921342,-1.549999999999989e-05,0.0006045,1.078658,1.5500000000001624e-05,-0.0006044999999999,0.8797030000000001,-0.4638795,0.0442085,1.131843,-0.4681695,0.0223505,0.863733,-0.8229894999999999,0.0696545,1.157843,-0.8268295,0.0612845
106,1.007646,0.7286345,0.074543,0.83075,0.5167444999999999,0.009,0.71322,0.7032445,-0.1201479999999999,1.17377,0.5203345,0.016089,1.29305,0.7042145,-0.123418,0.72584,0.9450745,-0.2135679999999999,1.27092,0.9342645,-0.218108,0.921337,-4.0500000000000605e-05,0.000691,1.078663,4.049999999999887e-05,-0.000691,0.87965,-0.4639255,0.0443589999999999,1.13194,-0.4681455,0.022178,0.8637,-0.8229655,0.069864,1.1578,-0.8265855,0.061435
107,1.0075935,0.728649,0.0750089999999999,0.8305454999999999,0.5164489999999999,0.009273,0.7127955,0.702539,-0.1192399999999999,1.1739355,0.520179,0.016794,1.2931854999999999,0.703979,-0.1226799999999999,0.7255855,0.944809,-0.21292,1.2707955,0.933919,-0.21697,0.9213365,-5.400000000000023e-05,0.00076,1.0786635,5.400000000000023e-05,-0.00076,0.8796355,-0.463951,0.044456,1.1320454999999998,-0.468121,0.022005,0.8637255,-0.822921,0.070027,1.1577955,-0.826321,0.061529
108,1.0075584999999998,0.7286505000000001,0.0754695,0.8303675,0.5161505000000001,0.0094135,0.7123275,0.7020205,-0.1185275,1.1740875,0.5200205,0.0174754999999999,1.2933375,0.7036105,-0.1218275,0.7253275,0.9445005,-0.2123175,1.2706374999999999,0.9335605,-0.2158775,0.9213515,-7.850000000000044e-05,0.0008164999999999,1.0786485,7.849999999999871e-05,-0.0008165,0.8796275,-0.4639395,0.0445075,1.1321775,-0.4680995,0.0218025,0.8637675,-0.8228395,0.0701325,1.1578075,-0.8260495,0.0616325
109,1.007535,0.7285969999999999,0.0757875,0.8301890000000001,0.515907,0.0097055,0.711939,0.701587,-0.1179885,1.174209,0.5198969999999999,0.0180715,1.293469,0.703297,-0.1210185,0.725139,0.944347,-0.2119385,1.270549,0.933277,-0.2150085,0.921367,-0.0001,0.0008085,1.078633,9.99999999999994e-05,-0.0008084999999999,0.879629,-0.463953,0.0444995,1.132239,-0.468093,0.0216395,0.863829,-0.822693,0.0701825,1.157789,-0.8259230000000001,0.0616745
110,1.007495,0.728536,0.076101,0.8299740000000001,0.5157160000000001,0.010007,0.711554,0.701256,-0.117526,1.174334,0.5197660000000001,0.018699,1.293574,0.703016,-0.1202559999999999,0.724904,0.944156,-0.211506,1.270454,0.933016,-0.2141759999999999,0.921382,-0.0001229999999999,0.000795,1.078618,0.0001229999999999,-0.000795,0.8796140000000001,-0.4639439999999999,0.044494,1.132274,-0.468084,0.021488,0.863884,-0.822614,0.070259,1.157774,-0.825804,0.061708
111,1.007443,0.7284525,0.0764115,0.829762,0.5155225,0.0102655,0.711202,0.7009325,-0.1171065,1.174442,0.5196324999999999,0.0193585,1.293682,0.7027325,-0.1194965,0.7246620000000001,0.9438825,-0.2110265,1.2703820000000001,0.9327825,-0.2133365,0.921394,-0.0001384999999999,0.0007825,1.078606,0.0001384999999999,-0.0007825,0.879602,-0.4639375,0.0444965,1.132312,-0.4680975,0.0213115,0.863952,-0.8225575,0.0703375,1.157762,-0.8256775000000001,0.0617485
112,1.0073759999999998,0.7283434999999999,0.076711,0.829568,0.5152835,0.0105799999999999,0.710858,0.7006635,-0.11673,1.174538,0.5195135,0.0199729999999999,1.293788,0.7024334999999999,-0.11872,0.724458,0.9435535,-0.21053,1.270348,0.9325935,-0.2125,0.921416,-0.0001514999999999,0.0007729999999999,1.078584,0.0001515,-0.000773,0.879598,-0.4639465,0.0444429999999999,1.132348,-0.4680964999999999,0.021164,0.864028,-0.8225465000000001,0.070413,1.157768,-0.8254965000000001,0.0617739999999999
113,1.0073005,0.7282120000000001,0.077028,0.8293785000000001,0.515042,0.010987,0.7105085,0.700392,-0.116333,1.1745385,0.519412,0.020344,1.2938885,0.7021120000000001,-0.1179529999999999,0.7242685000000001,0.943212,-0.210003,1.2704185,0.932412,-0.2116029999999999,0.9214385,-0.000167,0.000767,1.0785615,0.000167,-0.000767,0.8796285000000001,-0.464078,0.044378,1.1323785,-0.468098,0.020991,0.8642085000000002,-0.8230179999999999,0.070534,1.1577685,-0.825328,0.0618009999999999
114,1.007221,0.7280490000000001,0.0773865,0.8292200000000001,0.514859,0.0115045,0.71014,0.700099,-0.1159134999999999,1.17455,0.519329,0.0208765,1.29395,0.701779,-0.1171835,0.72407,0.942809,-0.2094635,1.2705,0.932259,-0.2107835,0.921462,-0.000177,0.0007645,1.078538,0.000177,-0.0007644999999999,0.87964,-0.464161,0.0442985,1.13243,-0.468111,0.0207465,0.86435,-0.823381,0.0705915,1.15778,-0.825141,0.0618255
115,1.0071555,0.7278555,0.0778355,0.8290215000000001,0.5146955,0.0121325,0.7097715,0.6998354999999999,-0.1154465,1.1745515,0.5192555,0.0214245,1.2940014999999998,0.7013955,-0.1163365,0.7238715,0.9423855,-0.2089165,1.2705815,0.9321155,-0.2099365,0.9214875,-0.0001884999999999,0.0007444999999999,1.0785125,0.0001884999999999,-0.0007445,0.8796415,-0.4642945,0.0442195,1.1324815,-0.4680745,0.0204985,0.8644715000000001,-0.8238045,0.0706575,1.1577914999999999,-0.8249945000000001,0.0618795
116,1.007106,0.727663,0.0784255,0.8288480000000001,0.514563,0.0126725,0.709408,0.6995629999999999,-0.1148825,1.174558,0.5191629999999999,0.0216195,1.294068,0.701013,-0.1153624999999999,0.723678,0.941913,-0.2082625,1.270718,0.931973,-0.2089425,0.921512,-0.0002009999999999,0.0007035,1.0784880000000001,0.0002009999999999,-0.0007034999999999,0.879668,-0.464437,0.0440595,1.132568,-0.4680169999999999,0.0201045,0.864608,-0.8241970000000001,0.0707204999999999,1.157808,-0.8248070000000001,0.0619635
117,1.007061,0.7274695,0.0790875,0.8287059999999999,0.5144495,0.0133185,0.709076,0.6992794999999999,-0.1143155,1.174506,0.5190494999999999,0.0221815,1.294156,0.7006494999999999,-0.1144755,0.723506,0.9414195,-0.2075955,1.270826,0.9318695,-0.2079355,0.921534,-0.0002105,0.0006395,1.078466,0.0002104999999999,-0.0006394999999999,0.879706,-0.4645505,0.0437805,1.132666,-0.4679605,0.0196105,0.8646960000000001,-0.8245405,0.0708155,1.157836,-0.8246405,0.0620735
118,1.0070454999999998,0.727328,0.0798075,0.8286945,0.514338,0.0139564999999999,0.7087445,0.698998,-0.1137194999999999,1.1744945,0.518898,0.0227095,1.2943645,0.699398,-0.1131295,0.7233944999999999,0.940908,-0.2069795,1.2709445,0.931738,-0.2069595,0.9215675,-0.0002159999999999,0.0005604999999999,1.0784325,0.000216,-0.0005605,0.8797245,-0.464672,0.0434984999999999,1.1327745,-0.467892,0.0190665,0.8647445,-0.825042,0.0709025,1.1578645,-0.824462,0.0621945
119,1.007058,0.7272255,0.0805235,0.8287249999999999,0.5142654999999999,0.0147785,0.708475,0.6987755,-0.1131305,1.174515,0.5187755,0.0232845,1.294605,0.6978755,-0.1116505,0.723355,0.9404155,-0.2064605,1.271105,0.9315855,-0.2060305,0.92161,-0.0002225,0.0004775,1.07839,0.0002225,-0.0004774999999999,0.879785,-0.4646944999999999,0.0432015,1.132905,-0.4677944999999999,0.0185265,0.864825,-0.8255045,0.0709984999999999,1.157925,-0.8242445,0.0623085
120,1.0067724999999998,0.7269955,0.081949,0.8288145,0.5137055,0.018027,0.7078845,0.6984255,-0.111871,1.1725245,0.5186955,0.0212569999999999,1.2943045,0.6998155,-0.111141,0.7226645,0.9399055,-0.205331,1.2712945,0.9313855,-0.203961,0.9216805,-0.0002325,0.000465,1.0783195,0.0002325,-0.000465,0.8797045,-0.4651445,0.043032,1.1329945,-0.4680145,0.01815,0.8653045,-0.8269945,0.071776,1.1578045,-0.8242845,0.062903
121,1.006886,0.726795,0.082795,0.828125,0.514075,0.016138,0.7076550000000001,0.698175,-0.111625,1.173375,0.518575,0.023558,1.294675,0.6987249999999999,-0.110305,0.7226250000000001,0.939525,-0.204995,1.2714750000000001,0.931245,-0.203285,0.921691,-0.000269,0.0002509999999999,1.078309,0.000269,-0.000251,0.879945,-0.464795,0.042186,1.133165,-0.467885,0.016735,0.864995,-0.8262550000000001,0.071504,1.158045,-0.823845,0.062844
122,1.0070675,0.7268665000000001,0.0834205,0.8284665,0.5139665,0.0174095,0.7075965,0.6979265,-0.1111725,1.1742365,0.5181665000000001,0.0256315,1.2958064999999999,0.6902565,-0.1050125,0.7228265,0.9392065,-0.2049125,1.2718365,0.9310265,-0.2028424999999999,0.9217285,-0.0002465,0.0001894999999999,1.0782715,0.0002464999999999,-0.0001895,0.8800365,-0.4646035,0.0420585,1.1333865,-0.4674135,0.0160114999999999,0.8651165000000001,-0.8260535,0.0714305,1.1580865,-0.8237734999999999,0.0629005
123,1.0072415,0.7270325000000001,0.083641,0.8281025000000001,0.5145425,0.0157269999999999,0.7077625000000001,0.6980425,-0.110763,1.1721725,0.5181925000000001,0.0214159999999999,1.2961924999999999,0.6877125000000001,-0.103253,0.7230925,0.9387225,-0.204923,1.2722125,0.9308025,-0.202553,0.9217645,-0.0002444999999999,0.0001759999999999,1.0782355,0.0002444999999999,-0.000176,0.8802225,-0.4646975,0.042002,1.1335925,-0.4671275,0.015946,0.8653525,-0.8256175,0.071301,1.1582724999999998,-0.8234075,0.062861
124,1.0072625,0.7269215,0.0839045,0.8287735,0.5144815,0.0179795,0.7077235,0.6980014999999999,-0.1106444999999999,1.1740035,0.5167215,0.0250185,1.2963734999999998,0.6848615,-0.1013744999999999,0.7232135,0.9377615,-0.2043845,1.2724434999999998,0.9304815,-0.2023545,0.9217665,-0.0002275,7.949999999999971e-05,1.0782335,0.0002275,-7.949999999999971e-05,0.8801635,-0.4644685,0.0419195,1.1336435,-0.4669385,0.0155355,0.8651234999999999,-0.8252885,0.0712705,1.1584035,-0.8231085,0.0628815
125,1.0073165,0.7269194999999999,0.0841455,0.8292035,0.5144695,0.0207245,0.7076535000000002,0.6980395,-0.1106885,1.1744835,0.5165695,0.0280025,1.2969335,0.6829895,-0.1011885,0.7234735,0.9361895,-0.2040584999999999,1.2727935000000001,0.9301695,-0.2022785,0.9218175,-0.0002215,7.650000000000018e-05,1.0781825,0.0002214999999999,-7.650000000000018e-05,0.8799835,-0.4644605,0.0416485,1.1336035,-0.4666805,0.0150315,0.8647635,-0.8261305,0.0709445,1.1583435,-0.8228005,0.0628515
126,1.0074154999999998,0.7268515,0.084392,0.8293605,0.5146014999999999,0.021265,0.7076405,0.6979515,-0.110618,1.1745705,0.5164515,0.028606,1.2974204999999999,0.6822914999999999,-0.101338,0.7236505,0.9357415,-0.204228,1.2729305,0.9294715,-0.2023579999999999,0.9218225,-0.0002245,7.500000000000041e-05,1.0781775,0.0002244999999999,-7.499999999999868e-05,0.8802205,-0.4638685,0.041448,1.1336205,-0.4666385,0.015025,0.8649305,-0.8261185,0.070784,1.1583705,-0.8228085,0.062918
