sb224sc-HT22-VT27/4dt907/src/data/kinect_good_preprocessed_not_cut_A11_mediapipe/A136_kinect.csv
FrameNo,nose_3d_x,nose_3d_y,nose_3d_z,left_shoulder_3d_x,left_shoulder_3d_y,left_shoulder_3d_z,left_elbow_3d_x,left_elbow_3d_y,left_elbow_3d_z,right_shoulder_3d_x,right_shoulder_3d_y,right_shoulder_3d_z,right_elbow_3d_x,right_elbow_3d_y,right_elbow_3d_z,left_wrist_3d_x,left_wrist_3d_y,left_wrist_3d_z,right_wrist_3d_x,right_wrist_3d_y,right_wrist_3d_z,left_hip_3d_x,left_hip_3d_y,left_hip_3d_z,right_hip_3d_x,right_hip_3d_y,right_hip_3d_z,left_knee_3d_x,left_knee_3d_y,left_knee_3d_z,right_knee_3d_x,right_knee_3d_y,right_knee_3d_z,left_ankle_3d_x,left_ankle_3d_y,left_ankle_3d_z,right_ankle_3d_x,right_ankle_3d_y,right_ankle_3d_z
0,-0.004529500000000001,0.7357955,0.0854625,-0.1719655,0.5181255,0.023533500000000002,-0.3023555,0.6886755,-0.1212825,0.1754345,0.5163955,0.015107500000000003,0.30057449999999997,0.6865555,-0.1235325,-0.2832855,0.9246555000000001,-0.2216125,0.28602449999999996,0.9230855,-0.2320625,-0.0782965,0.00012049999999999995,8.150000000000518e-05,0.0782965,-0.00012049999999999995,-8.149999999999824e-05,-0.13548549999999998,-0.4592045,0.0239585,0.1170145,-0.45478450000000004,0.047338500000000006,-0.1621355,-0.8110045,0.0806065,0.1340445,-0.8143845,0.0892405
1,-0.004512500000000001,0.735638,0.0856185,-0.17199550000000002,0.517988,0.023681499999999998,-0.3022455,0.689288,-0.1213305,0.1753945,0.516598,0.015241499999999998,0.30052449999999997,0.686528,-0.12337050000000001,-0.2832755,0.9245979999999999,-0.22122050000000004,0.2858245,0.922818,-0.23159050000000003,-0.0782775,8.99999999999998e-05,0.00019249999999999823,0.0782775,-9.000000000000024e-05,-0.00019249999999999823,-0.1356255,-0.45947200000000005,0.0243955,0.1169545,-0.454762,0.0475205,-0.16206550000000003,-0.811382,0.08132149999999999,0.1340445,-0.814992,0.0894085
2,-0.0045705,0.7355125,0.085035,-0.1719565,0.5180725,0.023532999999999995,-0.3022165,0.6893125,-0.12131600000000001,0.1754235,0.5168025,0.015135999999999997,0.3005935,0.6866025,-0.123356,-0.2832865,0.9247425,-0.22053599999999998,0.2856435,0.9228725,-0.231426,-0.0782735,9.64999999999998e-05,0.0002109999999999959,0.0782735,-9.650000000000023e-05,-0.00021100000000000285,-0.1355865,-0.4595475,0.024495999999999997,0.1170335,-0.45474749999999997,0.047554,-0.16209649999999998,-0.8114175,0.08141599999999999,0.1341635,-0.8145175,0.089664
3,-0.004603499999999999,0.735403,0.08508850000000001,-0.17196050000000002,0.5179929999999999,0.023663500000000004,-0.3022205,0.689263,-0.1210885,0.1754495,0.516573,0.015371500000000003,0.30062950000000005,0.6865629999999999,-0.1233085,-0.28326049999999997,0.924663,-0.2203585,0.2856195,0.922733,-0.2312785,-0.07825950000000001,9.400000000000033e-05,0.0002555000000000057,0.07825950000000001,-9.39999999999999e-05,-0.0002554999999999988,-0.1356005,-0.459807,0.0247575,0.11705950000000001,-0.454847,0.047705500000000005,-0.16211050000000002,-0.811847,0.0815515,0.1342595,-0.814597,0.0897345
4,-0.004852499999999998,0.735213,0.084594,-0.1719465,0.517963,0.02368,-0.30247650000000004,0.689603,-0.121303,0.17518350000000002,0.515443,0.015075000000000002,0.3006435,0.686543,-0.12320300000000001,-0.2833465,0.924833,-0.220103,0.2854735,0.9226329999999999,-0.23091299999999998,-0.07826549999999999,8.799999999999997e-05,0.0002689999999999984,0.07826549999999999,-8.799999999999997e-05,-0.0002689999999999984,-0.1355765,-0.459747,0.024843000000000004,0.1166835,-0.453627,0.047707,-0.16215649999999998,-0.811967,0.081566,0.1340935,-0.814467,0.089917
5,-0.004854500000000001,0.73519,0.084546,-0.1720555,0.5179100000000001,0.023343999999999997,-0.30244550000000003,0.6896000000000001,-0.121225,0.1752745,0.51524,0.015153999999999997,0.3007245,0.68652,-0.12320500000000001,-0.2833155,0.9248900000000001,-0.219855,0.2854945,0.92261,-0.230855,-0.0782525,0.00012800000000000008,0.00029499999999999665,0.0782525,-0.00012799999999999964,-0.0002950000000000036,-0.1355655,-0.45903,0.024574999999999996,0.1166645,-0.45339,0.047638,-0.1619555,-0.81192,0.081735,0.1341145,-0.8144699999999999,0.090096
6,-0.004925499999999997,0.735063,0.0844885,-0.1721085,0.517923,0.0232985,-0.3025085,0.689633,-0.1211745,0.17526150000000001,0.5151530000000001,0.0152125,0.3007115,0.6864830000000001,-0.12307449999999999,-0.28342849999999997,0.925083,-0.21958450000000002,0.2854815,0.9225530000000001,-0.2307945,-0.0782515,9.8e-05,0.0003254999999999994,0.0782515,-9.8e-05,-0.0003254999999999994,-0.1357885,-0.459417,0.0246395,0.1165615,-0.45317700000000005,0.047558500000000004,-0.1620085,-0.811987,0.0816755,0.1339915,-0.814437,0.0901525
7,-0.0051769999999999984,0.734982,0.084604,-0.172178,0.517992,0.023262,-0.302668,0.689662,-0.12085699999999999,0.175072,0.515822,0.015504,0.300572,0.6865720000000001,-0.122607,-0.283798,0.925142,-0.21860700000000002,0.28532199999999996,0.9224720000000001,-0.22976700000000003,-0.078249,0.00011500000000000008,0.00018699999999999967,0.078249,-0.00011500000000000008,-0.00018699999999999967,-0.135648,-0.45952800000000005,0.024545,0.116652,-0.455048,0.047994,-0.16205799999999998,-0.8115279999999999,0.08160500000000001,0.13392199999999999,-0.814668,0.08970600000000001
8,-0.005318999999999997,0.7348925,0.08461550000000001,-0.17224699999999998,0.5179925,0.0232575,-0.302787,0.6897425,-0.12072350000000001,0.174993,0.5157825,0.015529500000000002,0.300563,0.6865725,-0.12236350000000001,-0.283927,0.9252325,-0.2180135,0.285263,0.9223725,-0.2291035,-0.078248,0.00011749999999999998,0.00017350000000000004,0.078248,-0.00011749999999999998,-0.00017350000000000004,-0.13565699999999997,-0.4595675,0.0245525,0.116583,-0.4550775,0.0480695,-0.16207699999999997,-0.8115275,0.08161850000000001,0.133913,-0.8146975,0.0896785
9,-0.0054319999999999985,0.73483,0.084613,-0.172311,0.51798,0.023257,-0.30295099999999997,0.68984,-0.120564,0.17493899999999998,0.51569,0.015581000000000001,0.300559,0.68657,-0.12198399999999998,-0.28407099999999996,0.92532,-0.217314,0.285239,0.9222600000000001,-0.228344,-0.07824300000000001,0.00011099999999999999,0.00017299999999999954,0.07824300000000001,-0.00011099999999999999,-0.00017299999999999954,-0.135671,-0.45961,0.024542,0.11654900000000001,-0.45521,0.048173,-0.162081,-0.8115399999999999,0.0816,0.133909,-0.8147599999999999,0.089646
10,-0.005552999999999997,0.734769,0.084606,-0.17238,0.517969,0.02325,-0.30313,0.6899390000000001,-0.12036,0.17487,0.515529,0.015707000000000002,0.30054,0.686559,-0.12158,-0.28422000000000003,0.925439,-0.21655999999999997,0.28521,0.9221790000000001,-0.22754000000000002,-0.078242,0.00010399999999999993,0.00016700000000000048,0.078242,-0.00010399999999999993,-0.00016700000000000048,-0.13567,-0.459671,0.024536000000000002,0.11655000000000001,-0.455351,0.048271,-0.1621,-0.811561,0.081526,0.13391,-0.814861,0.089572
11,-0.005669999999999998,0.7347045,0.08458,-0.17245,0.5179645,0.023224,-0.30331,0.6900445000000001,-0.12015499999999998,0.17479999999999998,0.5153945,0.015901000000000005,0.30053,0.6865645,-0.121145,-0.28436,0.9255645,-0.215715,0.28519,0.9221145000000001,-0.226615,-0.078242,9.049999999999987e-05,0.00014200000000000323,0.078242,-9.05000000000003e-05,-0.0001419999999999963,-0.13567,-0.4597355,0.024511000000000005,0.11655000000000001,-0.45554550000000005,0.048363,-0.1621,-0.8115555,0.081451,0.13391,-0.8149755,0.089492
12,-0.005759499999999998,0.7346379999999999,0.0846495,-0.17256049999999998,0.5179779999999999,0.023242500000000003,-0.3035005,0.6901379999999999,-0.1198775,0.1747495,0.5153679999999999,0.016221500000000003,0.3005195,0.686568,-0.1206875,-0.2844805,0.9256979999999999,-0.21479749999999997,0.28516949999999996,0.922068,-0.22567749999999998,-0.07824049999999999,7.900000000000008e-05,0.00010250000000000536,0.07824049999999999,-7.900000000000008e-05,-0.00010249999999999843,-0.1356705,-0.459802,0.024468500000000004,0.11653949999999999,-0.455752,0.048448500000000005,-0.1620905,-0.811582,0.0813745,0.1338995,-0.8151120000000001,0.0893765
13,-0.0058845,0.734585,0.0848985,-0.1727295,0.518015,0.023428499999999998,-0.3037895,0.690255,-0.11950350000000001,0.1746605,0.515345,0.0166715,0.3005105,0.686555,-0.1200135,-0.2846295,0.925845,-0.21373350000000002,0.2851505,0.922005,-0.22455350000000002,-0.0782355,6.899999999999983e-05,6.749999999999812e-05,0.0782355,-6.900000000000005e-05,-6.749999999999812e-05,-0.1356795,-0.459945,0.0244235,0.1165405,-0.455835,0.0485415,-0.1620995,-0.811645,0.0812615,0.1338805,-0.815255,0.0892815
14,-0.006013500000000002,0.7345505,0.085225,-0.1728885,0.5180405,0.023620999999999996,-0.3040985,0.6904005000000001,-0.11917100000000001,0.1745715,0.5152705000000001,0.01712,0.3004915,0.6865105,-0.119411,-0.2847685,0.9259505,-0.212791,0.28513150000000004,0.9219605000000001,-0.223611,-0.07823050000000001,5.250000000000003e-05,2.8000000000000247e-05,0.07823050000000001,-5.250000000000003e-05,-2.8000000000000247e-05,-0.1356685,-0.4600595,0.024364999999999998,0.1165515,-0.45593950000000005,0.048576999999999995,-0.1620985,-0.8117194999999999,0.081121,0.1338715,-0.8153994999999999,0.089174
15,-0.006140500000000001,0.7345214999999999,0.085584,-0.1730515,0.5180715,0.023894,-0.3044115,0.6905515,-0.11882000000000001,0.1744685,0.5151915,0.017564999999999997,0.3004885,0.6864615,-0.11882999999999999,-0.28491150000000004,0.9260915,-0.21180000000000002,0.2851085,0.9220015,-0.22265,-0.0782245,3.449999999999981e-05,-4.000000000004e-06,0.0782245,-3.4500000000000025e-05,3.9999999999970615e-06,-0.1356715,-0.4601885,0.024293999999999996,0.1165785,-0.4560385,0.048598999999999996,-0.1620715,-0.8117985,0.080986,0.1338785,-0.8155585000000001,0.08905099999999999
16,-0.006253500000000005,0.734507,0.0859935,-0.17321150000000002,0.518097,0.024224500000000003,-0.3047115,0.690707,-0.1184925,0.1743585,0.515117,0.018059500000000003,0.3004785,0.686417,-0.1183025,-0.2850515,0.926237,-0.2108725,0.28509850000000003,0.922057,-0.22180249999999999,-0.0782215,1.7000000000000088e-05,-3.449999999999981e-05,0.0782215,-1.7000000000000088e-05,3.449999999999981e-05,-0.13566150000000002,-0.460303,0.024238500000000003,0.1165885,-0.456103,0.0486115,-0.1620415,-0.811873,0.0808435,0.1338585,-0.815633,0.08894550000000001
17,-0.006375500000000004,0.7345085,0.086446,-0.17337550000000002,0.5181385,0.024564999999999997,-0.3049955,0.6908485,-0.11819900000000001,0.17424449999999997,0.5150184999999999,0.018636,0.3004945,0.6863684999999999,-0.11775899999999999,-0.2852055,0.9263985,-0.20996900000000002,0.2851145,0.9220885,-0.22103900000000004,-0.0782215,5.000000000000664e-07,-6.0000000000004494e-05,0.0782215,-5.000000000000664e-07,5.9999999999997555e-05,-0.13565549999999998,-0.4604015,0.024187,0.1165745,-0.45604150000000004,0.048648,-0.1620255,-0.8120015,0.080743,0.13383450000000002,-0.8157015000000001,0.088836
18,-0.0064955,0.7345215,0.086953,-0.1735185,0.5182115,0.024961999999999998,-0.3052385,0.6909315,-0.117862,0.1741415,0.5149415,0.01923,0.3005115,0.6863415,-0.117282,-0.2853485,0.9265315,-0.20916200000000001,0.2851515,0.9221315,-0.22036200000000003,-0.0782235,-7.500000000000128e-06,-9.900000000000186e-05,0.0782235,7.499999999999911e-06,9.900000000000186e-05,-0.1356485,-0.4604785,0.024116,0.1165815,-0.4560185,0.048632999999999996,-0.16201849999999998,-0.8121485,0.080607,0.1338615,-0.8157385,0.088702
19,-0.006602000000000006,0.7345305,0.08745149999999999,-0.173687,0.5182705,0.025437499999999995,-0.30546700000000004,0.6909905,-0.1175565,0.17405299999999999,0.5148005,0.019819499999999997,0.300543,0.6862905,-0.11682650000000001,-0.28548700000000005,0.9266105,-0.20844649999999998,0.28519300000000003,0.9221605,-0.21969650000000002,-0.078223,-2.050000000000012e-05,-0.0001475000000000018,0.078223,2.0499999999999902e-05,0.00014749999999999486,-0.13564700000000002,-0.4605595,0.024018499999999998,0.116613,-0.4560595,0.04858849999999999,-0.161997,-0.8122795,0.0804485,0.13386299999999998,-0.8159095,0.0885455
20,-0.006708500000000004,0.7345445,0.0879625,-0.1738555,0.5183145,0.0259135,-0.3056955,0.6909945000000001,-0.1170775,0.17396450000000002,0.5147245,0.020345500000000002,0.3005645,0.6862345000000001,-0.11631749999999999,-0.28561549999999997,0.9266645,-0.2077975,0.2852345,0.9222445,-0.2191375,-0.0782225,-2.7499999999999964e-05,-0.00019450000000000023,0.0782225,2.7499999999999964e-05,0.00019450000000000023,-0.13564550000000003,-0.46063550000000003,0.0238875,0.1166545,-0.4561155,0.0485255,-0.1619755,-0.8124055,0.0803045,0.1338645,-0.8160554999999999,0.0883845
21,-0.006812500000000002,0.734573,0.088549,-0.1740025,0.518273,0.026401,-0.3059025,0.691023,-0.116505,0.17387750000000002,0.514633,0.020934,0.30060749999999997,0.686163,-0.11571499999999998,-0.28576250000000003,0.926703,-0.207125,0.2852575,0.922493,-0.21836499999999998,-0.0782175,-4.100000000000002e-05,-0.0002549999999999983,0.0782175,4.100000000000002e-05,0.0002550000000000052,-0.1356425,-0.460727,0.023750000000000004,0.1166975,-0.456177,0.048443,-0.1619525,-0.812567,0.080115,0.13386749999999997,-0.816227,0.088199
22,-0.006897000000000003,0.734584,0.08914949999999999,-0.174097,0.518254,0.0267955,-0.30601700000000004,0.691014,-0.11590349999999999,0.173843,0.514554,0.021380499999999997,0.30067299999999997,0.686114,-0.11520350000000001,-0.28587700000000005,0.9267639999999999,-0.20648350000000001,0.285313,0.9228139999999999,-0.21758349999999999,-0.078214,-5.400000000000001e-05,-0.0003275000000000014,0.078214,5.400000000000001e-05,0.00032749999999999446,-0.135637,-0.460796,0.0236095,0.116733,-0.456206,0.04832549999999999,-0.161917,-0.812716,0.0799485,0.133853,-0.8163560000000001,0.0879925
23,-0.006971499999999998,0.7346,0.0897705,-0.1742085,0.51823,0.027269499999999995,-0.3060685,0.691,-0.11515050000000002,0.1738115,0.5144799999999999,0.021836499999999995,0.3007315,0.68607,-0.11457049999999999,-0.2859985,0.92685,-0.2057805,0.2853815,0.92315,-0.2166505,-0.0782075,-7.200000000000002e-05,-0.00040950000000000014,0.0782075,7.200000000000002e-05,0.00040950000000000014,-0.1356485,-0.46088,0.023453499999999995,0.1167615,-0.45637,0.048201499999999994,-0.16191850000000002,-0.81289,0.07976849999999999,0.13380150000000002,-0.81652,0.0877925
24,-0.0070625,0.734592,0.09043000000000001,-0.1743515,0.518182,0.027784,-0.30615149999999997,0.690962,-0.11438799999999999,0.17379850000000002,0.514492,0.022276,0.3007885,0.686022,-0.113868,-0.2860115,0.926742,-0.20504799999999998,0.28548850000000003,0.923432,-0.215688,-0.0781975,-8.200000000000004e-05,-0.0004860000000000003,0.0781975,8.200000000000004e-05,0.0004860000000000003,-0.1356615,-0.460968,0.023269,0.1167785,-0.456488,0.04804,-0.16191149999999999,-0.813078,0.079585,0.13373849999999998,-0.8166680000000001,0.08757999999999999
25,-0.0071335000000000036,0.734521,0.091158,-0.17448750000000002,0.518101,0.028417,-0.3062375,0.690871,-0.113423,0.1738025,0.514541,0.022709,0.3008825,0.6860109999999999,-0.112933,-0.2860175,0.9265909999999999,-0.204153,0.2856925,0.923651,-0.214353,-0.07818549999999999,-9.400000000000001e-05,-0.0005690000000000001,0.07818549999999999,9.39999999999999e-05,0.0005690000000000001,-0.1356775,-0.461079,0.022994,0.11678249999999998,-0.456639,0.047772,-0.1618975,-0.8132590000000001,0.07929900000000001,0.1337025,-0.816789,0.087297
26,-0.007183999999999998,0.734392,0.0919545,-0.17463199999999998,0.5179720000000001,0.029068499999999997,-0.306312,0.6907620000000001,-0.1123875,0.173798,0.5146120000000001,0.022987499999999998,0.30098800000000003,0.6859320000000001,-0.1118875,-0.286022,0.926412,-0.2032075,0.285928,0.923892,-0.2128575,-0.078176,-0.00010599999999999997,-0.0006315000000000001,0.078176,0.00010600000000000008,0.0006315000000000001,-0.135702,-0.461198,0.022621499999999996,0.116808,-0.456818,0.047474499999999996,-0.161882,-0.813468,0.0788935,0.13367800000000002,-0.816958,0.0869125
27,-0.007240000000000002,0.734229,0.0927715,-0.174796,0.517829,0.0297445,-0.306356,0.690609,-0.11137150000000001,0.173784,0.514689,0.0234985,0.30109400000000003,0.685799,-0.1108015,-0.286056,0.924759,-0.2014515,0.286214,0.924269,-0.2111415,-0.07817099999999999,-0.00011200000000000001,-0.0006794999999999995,0.07817099999999999,0.00011200000000000007,0.0006794999999999995,-0.135736,-0.461321,0.0221745,0.11685399999999999,-0.457131,0.0470415,-0.16186599999999998,-0.8136909999999999,0.0784275,0.133614,-0.817111,0.08645649999999999
28,-0.0073049999999999955,0.734064,0.0936335,-0.17492999999999997,0.517664,0.030370499999999998,-0.30639,0.6904440000000001,-0.11011950000000001,0.17378,0.514784,0.023954499999999997,0.30124,0.6856340000000001,-0.10959950000000002,-0.28607,0.922694,-0.1996895,0.28658,0.924664,-0.2092195,-0.078167,-0.00011700000000000002,-0.0006864999999999996,0.078167,0.000117,0.0006864999999999996,-0.13579000000000002,-0.461426,0.021615499999999996,0.11691,-0.457446,0.0464845,-0.16187999999999997,-0.813866,0.0778365,0.13355,-0.817236,0.08586150000000001
29,-0.007372500000000005,0.7339115,0.09443950000000001,-0.17504650000000002,0.5175115,0.0309665,-0.3064165,0.6902915000000001,-0.10901749999999999,0.1737935,0.5149415,0.0244075,0.3014035,0.6854715,-0.10837749999999999,-0.2860665,0.9205415,-0.1980075,0.28696350000000004,0.9245115,-0.2072675,-0.0781605,-0.00012749999999999998,-0.0006984999999999977,0.0781605,0.0001275,0.0006984999999999977,-0.13585650000000002,-0.46150850000000004,0.0209985,0.1169635,-0.4577085,0.0458765,-0.1619065,-0.8140185,0.0772225,0.1334935,-0.8173484999999999,0.0852285
30,-0.007458999999999999,0.7338885,0.095128,-0.175168,0.5174685,0.031536,-0.306458,0.6901685000000001,-0.10807199999999999,0.173802,0.5149385000000001,0.024642000000000004,0.301572,0.6854485,-0.10729199999999998,-0.286058,0.9184385,-0.19652199999999997,0.287382,0.9244885,-0.20552199999999998,-0.078147,-0.0001505,-0.0007069999999999993,0.078147,0.00015049999999999997,0.0007070000000000062,-0.13594799999999999,-0.4613715,0.020174000000000004,0.117112,-0.4577115,0.045152000000000005,-0.16194799999999998,-0.8140115,0.076538,0.133432,-0.8173115,0.084568
31,-0.0075525,0.7338685,0.0954595,-0.17531149999999998,0.5174085,0.0320685,-0.30649150000000003,0.6900285,-0.10723650000000001,0.1737885,0.5149385000000001,0.024784499999999998,0.3017685,0.6853885000000001,-0.10620650000000001,-0.2860315,0.9163185,-0.1953065,0.2878785,0.9244885,-0.2039465,-0.07812749999999999,-0.0001505,-0.0006885000000000016,0.07812749999999999,0.00015049999999999997,0.0006884999999999981,-0.1361115,-0.4612115,0.019130499999999998,0.1173585,-0.4576815,0.0439465,-0.1620015,-0.8139915,0.0757375,0.13335850000000002,-0.8171915,0.08379249999999999
32,-0.007675500000000002,0.7337785,0.09526399999999999,-0.1754525,0.5173485,0.032404999999999996,-0.3065525,0.6898685,-0.106688,0.1737075,0.5149385000000001,0.024849999999999997,0.30198749999999996,0.6852185000000001,-0.10528800000000002,-0.2860125,0.9141185000000001,-0.194268,0.28877749999999996,0.9237785000000001,-0.202238,-0.07813049999999999,-0.0001505,-0.0006710000000000015,0.07813049999999999,0.00015049999999999997,0.000670999999999998,-0.13646250000000001,-0.4610415,0.017521999999999996,0.1179075,-0.4576815,0.041581999999999994,-0.16211250000000002,-0.8139215,0.074766,0.1332875,-0.8170514999999999,0.082881
33,-0.007828000000000005,0.733463,0.09439349999999999,-0.17556900000000003,0.517213,0.0324705,-0.306639,0.689333,-0.10674750000000001,0.173591,0.514943,0.0248565,0.30223099999999997,0.684503,-0.10436750000000002,-0.285989,0.911823,-0.19357749999999999,0.289711,0.922643,-0.2007475,-0.078138,-0.000155,-0.0005935000000000003,0.078138,0.00015499999999999997,0.0005935000000000003,-0.137079,-0.460697,0.0150095,0.11887099999999999,-0.457607,0.0377605,-0.162259,-0.813967,0.0736405,0.133181,-0.816967,0.0817875
34,-0.008185499999999998,0.7331519999999999,0.09267099999999999,-0.1758585,0.517022,0.031244,-0.30690850000000003,0.688932,-0.107899,0.1733515,0.5150619999999999,0.024102,0.3023915,0.682812,-0.104469,-0.2860685,0.9096219999999999,-0.19392900000000002,0.2908315,0.9211419999999999,-0.200049,-0.0782555,-0.00020700000000000004,-0.00047900000000000026,0.0782555,0.000207,0.00047900000000000026,-0.1382885,-0.459598,0.010311,0.12020149999999999,-0.45683799999999997,0.03147,-0.16252850000000002,-0.813508,0.071755,0.1329215,-0.8162480000000001,0.080066
35,-0.008574499999999995,0.7327994999999999,0.0906495,-0.17617349999999998,0.5164694999999999,0.0294315,-0.30716350000000003,0.6886994999999999,-0.10955050000000001,0.1730365,0.5144995,0.0228915,0.3025865,0.6810195,-0.10531049999999999,-0.28613350000000004,0.9077394999999999,-0.1949205,0.2919365,0.9198594999999999,-0.1999105,-0.07845250000000001,-0.00032949999999999993,-0.0002475000000000012,0.07845250000000001,0.00032949999999999993,0.0002475000000000012,-0.13975349999999997,-0.4573305,0.003998499999999999,0.1220465,-0.4555105,0.0239455,-0.1628435,-0.8124105,0.0695325,0.13266650000000002,-0.8149605000000001,0.0779585
36,-0.0089865,0.7319245,0.0882385,-0.17650849999999998,0.5159945,0.027022499999999998,-0.3074585,0.6883945,-0.1119405,0.1727015,0.5139144999999999,0.020934499999999998,0.30281149999999996,0.6791045,-0.10701050000000001,-0.2862585,0.9078345,-0.1972005,0.2929215,0.9188745,-0.20066050000000002,-0.0786695,-0.00046850000000000017,6.749999999999812e-05,0.0786695,0.00046849999999999973,-6.750000000000159e-05,-0.1414185,-0.4546355,-0.0034415000000000036,0.12427150000000001,-0.4536855,0.014834499999999997,-0.1632285,-0.8106655,0.06691949999999999,0.1324515,-0.8131055,0.0753925
37,-0.009362999999999996,0.7304744999999999,0.084848,-0.176776,0.5151545,0.024318,-0.30775600000000003,0.6870445,-0.114646,0.172344,0.5133245,0.018229999999999996,0.303044,0.6768345,-0.109706,-0.28637599999999996,0.9090444999999999,-0.199906,0.29385399999999995,0.9176645,-0.202406,-0.078946,-0.0005715,0.000390999999999999,0.078946,0.0005715,-0.00039100000000000246,-0.143306,-0.4515055,-0.012140999999999999,0.126804,-0.4512055,0.004339999999999997,-0.163686,-0.8084855000000001,0.063968,0.13220400000000002,-0.8104655000000001,0.07250999999999999
38,-0.00964,0.7292865,0.080488,-0.17688399999999999,0.5145265,0.021118,-0.30788400000000005,0.6856065,-0.11784799999999998,0.172076,0.5126465,0.015028000000000001,0.303766,0.6746965,-0.11290799999999998,-0.28623400000000004,0.9109365,-0.203098,0.294786,0.9169865,-0.205128,-0.07930799999999999,-0.0006534999999999996,0.0007510000000000017,0.07930799999999999,0.0006534999999999996,-0.0007509999999999982,-0.14524399999999998,-0.4474635,-0.022218999999999996,0.12956600000000001,-0.44753350000000003,-0.007415999999999999,-0.16400399999999998,-0.8052635,0.060509,0.13206600000000002,-0.8066535,0.06908500000000001
39,-0.009950500000000004,0.7280205000000001,0.074614,-0.17680649999999998,0.5136705,0.016702,-0.3080165,0.6851205,-0.12185499999999999,0.1717635,0.5122205,0.011022,0.30465349999999997,0.6728305,-0.116895,-0.2859065,0.9142905,-0.207105,0.29543349999999996,0.9172205,-0.209105,-0.0797205,-0.0007555000000000027,0.0010159999999999995,0.0797205,0.0007554999999999992,-0.0010159999999999995,-0.1474065,-0.4417595,-0.033801000000000005,0.1325735,-0.4420195,-0.020645000000000004,-0.16436650000000003,-0.8002794999999999,0.056243,0.13192349999999997,-0.8009495,0.06478400000000001
40,-0.010219499999999994,0.7260795000000001,0.0665225,-0.17665949999999997,0.5123295,0.010649500000000001,-0.3078495,0.6843895000000001,-0.12772350000000002,0.17158050000000002,0.5105295,0.005485500000000001,0.3058905,0.6709195,-0.1220135,-0.28522949999999997,0.9179695000000001,-0.2124335,0.2959405,0.9149995000000001,-0.21406350000000002,-0.0800945,-0.0007654999999999988,0.0014275,0.0800945,0.0007655000000000023,-0.0014275,-0.14979949999999997,-0.4328405,-0.0477535,0.1358605,-0.4334405,-0.0361475,-0.1646895,-0.7922104999999999,0.0507625,0.13191049999999999,-0.7923604999999999,0.0592255
41,-0.010343499999999999,0.724034,0.057393,-0.1764565,0.510934,0.0038169999999999996,-0.3072565,0.684044,-0.134561,0.1714735,0.509054,-0.0005310000000000002,0.3071935,0.668074,-0.127961,-0.2837465,0.919424,-0.218641,0.2963735,0.913424,-0.219551,-0.0804995,-0.0006479999999999958,0.0018369999999999997,0.0804995,0.0006480000000000027,-0.001837,-0.1521365,-0.422146,-0.062634,0.1390635,-0.423206,-0.052004,-0.1649465,-0.782766,0.04467,0.1319935,-0.782296,0.052801
42,-0.0103305,0.721971,0.0475175,-0.1758985,0.508911,-0.0038585,-0.30646850000000003,0.682781,-0.1423035,0.1714715,0.507081,-0.007520499999999999,0.3085215,0.665711,-0.1348935,-0.2820385,0.921421,-0.2256235,0.2967315,0.912771,-0.22549349999999999,-0.0809375,-0.0005549999999999999,0.0021465,0.0809375,0.0005549999999999999,-0.0021465,-0.15436850000000002,-0.409819,-0.0778005,0.1419915,-0.411319,-0.0674625,-0.1651685,-0.771569,0.0380625,0.1321515,-0.770969,0.0458205
43,-0.010080000000000002,0.7186405,0.037065,-0.175204,0.5073905000000001,-0.011569,-0.305354,0.6819205,-0.150468,0.171626,0.5049005,-0.01423,0.309926,0.6632205000000001,-0.142408,-0.279874,0.9229105000000001,-0.232848,0.296976,0.9110105000000001,-0.23216799999999999,-0.081322,-0.0004595000000000016,0.0023239999999999997,0.081322,0.0004595000000000016,-0.0023239999999999997,-0.15629400000000002,-0.3965995,-0.09182599999999999,0.144816,-0.3982495,-0.081414,-0.16526400000000002,-0.7592694999999999,0.031783,0.132426,-0.7582095,0.039254000000000004
44,-0.009700500000000004,0.715096,0.0247495,-0.1740425,0.505466,-0.0212455,-0.3041025,0.679716,-0.1606785,0.1718675,0.503166,-0.0226705,0.3115075,0.6600659999999999,-0.1519385,-0.2769325,0.923516,-0.2425685,0.29731749999999996,0.9073559999999999,-0.2418385,-0.08165549999999999,-0.0003439999999999971,0.0021975000000000015,0.08165549999999999,0.0003439999999999971,-0.0021975,-0.1584325,-0.38140399999999997,-0.1068355,0.1479375,-0.383704,-0.09711049999999999,-0.1651625,-0.7434240000000001,0.024183500000000004,0.1326475,-0.741894,0.0313965
45,-0.009203,0.7118045000000001,0.012527499999999997,-0.172818,0.5027245,-0.0311465,-0.30260800000000004,0.6771445,-0.17101550000000001,0.172082,0.5011345,-0.031649500000000004,0.313252,0.6571245,-0.1623155,-0.27389800000000003,0.9214445,-0.2532155,0.297562,0.9041045,-0.2521455,-0.081899,-8.850000000000524e-05,0.0022174999999999973,0.081899,8.849999999999136e-05,-0.0022175000000000007,-0.160688,-0.36454549999999997,-0.12167050000000001,0.151062,-0.36879550000000005,-0.1122805,-0.165298,-0.7260355,0.016510499999999997,0.132612,-0.7241255,0.023461499999999996
46,-0.008552500000000001,0.70885,0.0006114999999999975,-0.1717005,0.5009,-0.0408185,-0.3011105,0.6757,-0.18186650000000001,0.1722395,0.49836,-0.040710500000000004,0.3153595,0.65258,-0.1729465,-0.27071049999999997,0.91877,-0.2643665,0.2979795,0.89759,-0.26382649999999996,-0.0820735,0.00017000000000000348,0.0021484999999999976,0.0820735,-0.00017000000000000348,-0.002148500000000001,-0.1629805,-0.34698999999999997,-0.1361565,0.1539495,-0.35296,-0.1269925,-0.1651505,-0.70706,0.0089165,0.1325095,-0.70519,0.015550500000000002
47,-0.007671999999999999,0.707005,-0.016081999999999996,-0.170404,0.49943499999999996,-0.055421,-0.299654,0.673925,-0.198243,0.17249599999999998,0.496505,-0.054598999999999995,0.317106,0.649785,-0.188503,-0.267414,0.913565,-0.281413,0.298236,0.892995,-0.280563,-0.082233,0.0004049999999999887,0.002031000000000005,0.082233,-0.00040500000000001646,-0.002030999999999998,-0.16522399999999998,-0.32843500000000003,-0.15437299999999998,0.156796,-0.33532500000000004,-0.146093,-0.16499399999999997,-0.686075,-0.0033279999999999976,0.132446,-0.684445,0.0029860000000000025
48,-0.006595499999999999,0.707165,-0.0330375,-0.1684205,0.497575,-0.0704045,-0.2978905,0.6739350000000001,-0.21549449999999998,0.17273950000000002,0.496235,-0.06919349999999999,0.3185995,0.648205,-0.2048145,-0.2643105,0.9102250000000001,-0.2995745,0.2983495,0.8900750000000001,-0.2985745,-0.0824085,0.0005950000000000122,0.0019085000000000005,0.0824085,-0.0005950000000000122,-0.0019084999999999935,-0.1686405,-0.30822499999999997,-0.17712450000000002,0.1602295,-0.315955,-0.16914449999999998,-0.1648405,-0.663175,-0.016287499999999996,0.1323795,-0.6621549999999999,-0.010220499999999993
49,-0.005723499999999996,0.706105,-0.04868050000000001,-0.16662549999999998,0.496505,-0.08400350000000001,-0.2962955,0.672015,-0.2318865,0.17274450000000002,0.497345,-0.08217450000000001,0.3196645,0.6452249999999999,-0.2202665,-0.2614755,0.906245,-0.3175065,0.29857449999999996,0.889105,-0.3163765,-0.0825945,0.0005449999999999899,0.0015934999999999977,0.0825945,-0.0005450000000000177,-0.0015935000000000046,-0.17223549999999999,-0.290175,-0.1977565,0.1632345,-0.298425,-0.1900765,-0.1648755,-0.642395,-0.028151500000000003,0.13205450000000002,-0.6417550000000001,-0.022210500000000008
50,-0.004840499999999998,0.705255,-0.06384899999999999,-0.16487049999999998,0.494335,-0.09756,-0.2948205,0.670075,-0.248032,0.1726995,0.494995,-0.095298,0.3206395,0.643255,-0.236032,-0.25911049999999997,0.9051750000000001,-0.33578199999999997,0.2988195,0.888855,-0.334752,-0.0827425,0.00045500000000001095,0.0012780000000000014,0.0827425,-0.0004549999999999832,-0.0012780000000000014,-0.1761105,-0.27186499999999997,-0.217602,0.16622949999999997,-0.280645,-0.21082199999999998,-0.16493049999999998,-0.6211450000000001,-0.039606999999999996,0.1316195,-0.620935,-0.03357399999999999
51,-0.004092999999999996,0.70427,-0.07888099999999999,-0.163254,0.49171000000000004,-0.11113599999999998,-0.29354399999999997,0.66909,-0.264402,0.172596,0.49404000000000003,-0.108041,0.321836,0.6407400000000001,-0.251672,-0.256994,0.9038600000000001,-0.35444200000000003,0.298956,0.8878300000000001,-0.353472,-0.08308499999999999,0.0003200000000000147,0.0010460000000000053,0.08308499999999999,-0.00031999999999998696,-0.0010459999999999914,-0.180164,-0.25405,-0.236812,0.169026,-0.26325,-0.231422,-0.165054,-0.60036,-0.05090399999999999,0.13103599999999999,-0.60005,-0.04466699999999999
52,-0.0035499999999999993,0.70335,-0.09387350000000001,-0.16173600000000002,0.48847000000000007,-0.1247265,-0.29260600000000003,0.6674100000000001,-0.2810105,0.172224,0.49310000000000004,-0.1209345,0.322874,0.6389400000000001,-0.2672505,-0.25540599999999997,0.89792,-0.3738705,0.298574,0.8840800000000001,-0.37251049999999997,-0.083236,0.000140000000000029,0.0009064999999999906,0.083236,-0.00013999999999997348,-0.0009065000000000045,-0.184596,-0.23628999999999994,-0.2553605,0.171294,-0.24612999999999996,-0.2518505,-0.165366,-0.57982,-0.06209350000000001,0.130074,-0.57972,-0.05580450000000001
53,-0.0033525000000000013,0.70122,-0.108044,-0.1607515,0.48534,-0.137273,-0.2916515,0.6652800000000001,-0.296865,0.1715485,0.49285,-0.132574,0.3234885,0.63626,-0.282185,-0.2548615,0.89056,-0.392225,0.2977685,0.88227,-0.390145,-0.08323549999999999,-0.00011999999999995348,0.000905000000000003,0.08323549999999999,0.00012000000000000899,-0.000905000000000003,-0.18941149999999998,-0.21919,-0.271995,0.1727285,-0.22882000000000002,-0.270375,-0.1659915,-0.5609799999999999,-0.072253,0.12860850000000001,-0.56133,-0.065847
54,-0.0032059999999999996,0.69981,-0.122394,-0.15989699999999998,0.48314999999999997,-0.149995,-0.290947,0.6637500000000001,-0.31310499999999997,0.170853,0.49005,-0.144786,0.323823,0.63385,-0.297535,-0.254407,0.8867499999999999,-0.410585,0.296913,0.8801399999999999,-0.408535,-0.083225,-0.00020999999999998797,0.0006250000000000006,0.083225,0.00020999999999998797,-0.0006250000000000006,-0.194167,-0.20190999999999998,-0.288565,0.174053,-0.21056000000000002,-0.288785,-0.16666699999999998,-0.5422100000000001,-0.08252600000000002,0.127033,-0.54315,-0.07596900000000001
55,-0.0029435000000000025,0.6979500000000001,-0.136512,-0.1585785,0.47944,-0.162237,-0.2901085,0.66021,-0.32882500000000003,0.1704115,0.48862,-0.156637,0.3237815,0.6327,-0.31288499999999997,-0.2539285,0.88218,-0.428975,0.2965415,0.88012,-0.426505,-0.0832215,-0.0008199999999999874,0.00034500000000001196,0.0832215,0.0008199999999999874,-0.0003449999999999981,-0.19884849999999998,-0.18564999999999998,-0.304315,0.1755915,-0.19321,-0.30622499999999997,-0.1671085,-0.52443,-0.09248399999999998,0.12565149999999997,-0.5259199999999999,-0.085705
56,-0.002773000000000002,0.69502,-0.14577,-0.15736,0.47556999999999994,-0.169435,-0.28921,0.6576799999999999,-0.33957499999999996,0.17001,0.48549999999999993,-0.16370099999999999,0.32386,0.62961,-0.32369499999999995,-0.2535,0.87932,-0.442035,0.29633,0.87618,-0.439915,-0.083235,-0.0010300000000000309,-5.0000000000050004e-06,0.083235,0.0010299999999999754,5.0000000000050004e-06,-0.20345999999999997,-0.17061000000000004,-0.315455,0.17736000000000002,-0.17686000000000002,-0.318345,-0.16749999999999998,-0.50805,-0.097755,0.12441,-0.50985,-0.09072
57,-0.0026819999999999978,0.6892499999999999,-0.154074,-0.156925,0.47240999999999994,-0.175386,-0.288655,0.65111,-0.34911499999999995,0.169545,0.48061999999999994,-0.16960899999999998,0.323915,0.62419,-0.333495,-0.25283500000000003,0.8723299999999999,-0.45435499999999995,0.296065,0.8694799999999999,-0.451955,-0.083311,-0.0011400000000000299,-0.00026499999999998747,0.083311,0.0011399999999999744,0.0002650000000000152,-0.206735,-0.15737000000000007,-0.320485,0.178405,-0.16269,-0.32498499999999997,-0.167845,-0.49433000000000005,-0.10175599999999999,0.12348500000000001,-0.4960500000000001,-0.09452699999999997
58,-0.002501999999999998,0.68493,-0.16239399999999998,-0.156244,0.46868000000000004,-0.181779,-0.288014,0.64659,-0.35887,0.169436,0.47550000000000003,-0.175628,0.323986,0.61892,-0.34297,-0.252124,0.86516,-0.46686,0.29565600000000003,0.8604900000000001,-0.46421999999999997,-0.08341799999999999,-0.0011399999999999744,-0.0005099999999999827,0.08341799999999999,0.0011400000000000299,0.0005100000000000104,-0.20965399999999998,-0.14279999999999998,-0.3255,0.179786,-0.14803,-0.33132,-0.167964,-0.4805499999999999,-0.10583999999999999,0.12285600000000002,-0.48202,-0.098489
59,-0.0024565000000000012,0.6805049999999999,-0.170731,-0.1553565,0.465371,-0.18811,-0.28758649999999997,0.641045,-0.36924,0.1694635,0.473535,-0.18134099999999997,0.32393350000000004,0.613795,-0.35216,-0.2516265,0.8554649999999999,-0.47964,0.2951335,0.852095,-0.4757,-0.08358850000000001,-0.0012350000000000416,-0.0007699999999999929,0.08358850000000001,0.0012349999999999861,0.0007700000000000207,-0.2122165,-0.12879500000000005,-0.33037,0.1811235,-0.13402500000000006,-0.3368,-0.1680065,-0.46755500000000005,-0.11009299999999998,0.12230349999999998,-0.4685250000000001,-0.10260999999999998
60,-0.002232000000000005,0.6748700000000001,-0.17955499999999996,-0.154443,0.461969,-0.19454699999999997,-0.286933,0.63422,-0.380335,0.169537,0.470432,-0.18719799999999998,0.323937,0.60792,-0.36178499999999997,-0.250923,0.84503,-0.493075,0.294867,0.8429,-0.488185,-0.083689,-0.0013799999999999923,-0.0011549999999999894,0.083689,0.0013799999999999923,0.0011550000000000171,-0.214653,-0.11613000000000001,-0.335095,0.18284699999999998,-0.12008999999999997,-0.34196499999999996,-0.167863,-0.45305,-0.11410599999999997,0.12198699999999998,-0.45458000000000004,-0.10664699999999998
61,-0.0021259999999999977,0.669795,-0.187413,-0.153628,0.45826400000000006,-0.20042,-0.286368,0.6252150000000001,-0.39027,0.169582,0.46742200000000006,-0.192458,0.324012,0.6011150000000001,-0.3702,-0.250318,0.8378450000000001,-0.50596,0.294792,0.835365,-0.5,-0.083686,-0.001664999999999972,-0.0015199999999999936,0.083686,0.0016650000000000276,0.0015199999999999936,-0.216828,-0.104105,-0.33938,0.184732,-0.10687499999999994,-0.34601,-0.167738,-0.4404849999999999,-0.117908,0.12171200000000001,-0.4416049999999999,-0.110358
62,-0.0020565000000000045,0.6647150000000001,-0.193996,-0.15300950000000002,0.454423,-0.205254,-0.2862195,0.616965,-0.39908,0.16962049999999998,0.46420600000000006,-0.19684200000000002,0.3240805,0.5944750000000001,-0.3771,-0.2497395,0.831855,-0.5183599999999999,0.29486049999999997,0.8261850000000001,-0.5111600000000001,-0.0836835,-0.0020549999999999735,-0.001820000000000016,0.0836835,0.002055000000000029,0.0018199999999999883,-0.2185795,-0.093665,-0.34285,0.18638049999999998,-0.09553499999999993,-0.34903,-0.1676795,-0.4299449999999999,-0.120995,0.12159049999999999,-0.43039499999999997,-0.113406
63,-0.0018400000000000014,0.65919,-0.199943,-0.15224600000000002,0.45033500000000004,-0.20941700000000002,-0.285976,0.60838,-0.406875,0.169824,0.460156,-0.200478,0.324144,0.58765,-0.38283500000000004,-0.249086,0.8236000000000001,-0.530435,0.29526399999999997,0.81626,-0.521135,-0.083841,-0.0022599999999999842,-0.0020950000000000135,0.083841,0.0022600000000000398,0.0020949999999999858,-0.22007600000000002,-0.08382999999999996,-0.345505,0.188014,-0.08477000000000001,-0.351425,-0.167496,-0.42013,-0.123472,0.12168399999999999,-0.41959,-0.11582200000000001
64,-0.0011620000000000016,0.654305,-0.206,-0.15124100000000001,0.447612,-0.213872,-0.285291,0.601185,-0.414765,0.170399,0.457107,-0.204231,0.324459,0.579215,-0.388285,-0.247911,0.815795,-0.542565,0.295899,0.8073250000000001,-0.531165,-0.083997,-0.00193500000000002,-0.0022649999999999892,0.083997,0.00193500000000002,0.0022649999999999892,-0.221011,-0.07212500000000005,-0.348295,0.189979,-0.07221499999999997,-0.35407500000000003,-0.166851,-0.40857499999999997,-0.126176,0.122259,-0.40716499999999994,-0.118465
65,-0.00021499999999999644,0.64889,-0.21155200000000002,-0.15007099999999998,0.445094,-0.21790400000000001,-0.284401,0.5934,-0.42190500000000003,0.17114900000000002,0.455179,-0.207378,0.324949,0.5712200000000001,-0.392875,-0.24659099999999998,0.80768,-0.553795,0.296749,0.79949,-0.540525,-0.084199,-0.0019100000000000228,-0.0024350000000000205,0.084199,0.0019100000000000228,0.0024349999999999927,-0.221661,-0.06119000000000002,-0.350665,0.19203900000000002,-0.06070000000000003,-0.356205,-0.165951,-0.39797,-0.128444,0.12307900000000002,-0.3957,-0.12068500000000001
66,0.0007699999999999981,0.6440899999999999,-0.21645400000000004,-0.148819,0.44340899999999994,-0.221426,-0.283469,0.5866399999999999,-0.42824500000000004,0.171761,0.45274,-0.210048,0.325561,0.56429,-0.39666500000000005,-0.245329,0.80044,-0.5640750000000001,0.297691,0.79109,-0.549215,-0.084312,-0.0015400000000000413,-0.002595000000000014,0.084312,0.0015399999999999858,0.002594999999999986,-0.222159,-0.05025000000000002,-0.35258500000000004,0.194101,-0.04927999999999999,-0.35757500000000003,-0.164929,-0.3873500000000001,-0.13038000000000002,0.124061,-0.38429,-0.12258500000000003
67,0.001602000000000001,0.63998,-0.220549,-0.147748,0.440462,-0.224376,-0.282598,0.58075,-0.433655,0.172262,0.450624,-0.212555,0.32604200000000005,0.559234,-0.39936499999999997,-0.244218,0.79413,-0.5731649999999999,0.298662,0.7857000000000001,-0.5565549999999999,-0.084384,-0.0015200000000000213,-0.0027549999999999797,0.084384,0.0015200000000000213,0.0027550000000000074,-0.222578,-0.03919,-0.35421499999999995,0.195962,-0.03792000000000001,-0.358405,-0.164068,-0.37671000000000004,-0.13204899999999997,0.124942,-0.37293000000000004,-0.12422899999999998
68,0.0023454999999999986,0.63569,-0.224063,-0.1468865,0.438444,-0.22666200000000003,-0.28187650000000003,0.575055,-0.437935,0.1727535,0.448868,-0.214488,0.32651349999999996,0.553893,-0.40171500000000004,-0.2431665,0.78963,-0.580965,0.2995535,0.77981,-0.563355,-0.08439150000000001,-0.0015999999999999903,-0.0028650000000000064,0.08439150000000001,0.0015999999999999903,0.0028649999999999787,-0.2229165,-0.028760000000000008,-0.355325,0.19763350000000002,-0.027220000000000022,-0.358895,-0.1632765,-0.36649999999999994,-0.133273,0.1258535,-0.36214999999999997,-0.125418
69,0.0030199999999999992,0.63294,-0.22639900000000002,-0.146016,0.4377039999999999,-0.227966,-0.281196,0.570681,-0.44023,0.17316399999999998,0.44754199999999994,-0.215759,0.32703400000000005,0.549759,-0.40332,-0.242076,0.7856799999999999,-0.5869,0.30044400000000004,0.7741499999999999,-0.56796,-0.084391,-0.0015800000000000258,-0.0029700000000000004,0.084391,0.0015799999999999703,0.0029700000000000004,-0.222896,-0.019580000000000042,-0.35598,0.199124,-0.017910000000000093,-0.3589,-0.162476,-0.35750000000000004,-0.134162,0.126714,-0.35284000000000004,-0.126258
70,0.0036694999999999974,0.63046,-0.228374,-0.1452545,0.437151,-0.22921799999999998,-0.2807345,0.568474,-0.44248,0.1734155,0.445972,-0.21703,0.3272655,0.545415,-0.40495000000000003,-0.24120450000000002,0.78269,-0.5917399999999999,0.3010355,0.77064,-0.57167,-0.0843875,-0.0014000000000000123,-0.0030999999999999917,0.0843875,0.0014000000000000123,0.0030999999999999917,-0.22272450000000002,-0.010740000000000027,-0.35661,0.20042549999999998,-0.008949999999999958,-0.359,-0.1617845,-0.34876999999999997,-0.135053,0.1274855,-0.34389,-0.12712099999999998
71,0.004088000000000005,0.6291249999999999,-0.23007500000000003,-0.14476799999999998,0.43674999999999997,-0.230475,-0.280448,0.566611,-0.44444500000000003,0.173352,0.444045,-0.21850400000000003,0.327332,0.542535,-0.406725,-0.24059799999999998,0.779625,-0.5956950000000001,0.301232,0.7677350000000001,-0.575115,-0.08446000000000001,-0.0011750000000000371,-0.00328500000000001,0.08446000000000001,0.0011750000000000371,0.0032849999999999824,-0.22261799999999998,-0.003175000000000039,-0.35729500000000003,0.20142200000000002,-0.0013050000000000006,-0.35901500000000003,-0.16139799999999999,-0.34121500000000005,-0.13615900000000003,0.127942,-0.336125,-0.12817300000000004
72,0.004472500000000003,0.628395,-0.23143199999999997,-0.14437049999999998,0.437536,-0.23169599999999999,-0.2800905,0.565204,-0.446195,0.1732595,0.445108,-0.21975799999999998,0.32730950000000003,0.54011,-0.408485,-0.2401805,0.7779149999999999,-0.5988249999999999,0.30136949999999996,0.765775,-0.578195,-0.0843405,-0.0010449999999999626,-0.0034150000000000014,0.0843405,0.0010449999999999626,0.0034150000000000014,-0.2222305,0.002214999999999967,-0.358105,0.2022695,0.004194999999999949,-0.35899499999999995,-0.16105049999999999,-0.335765,-0.13738,0.1283295,-0.33074500000000007,-0.12925899999999999
73,0.004869499999999995,0.6274949999999999,-0.23257299999999997,-0.14406650000000001,0.43749999999999994,-0.232837,-0.2798865,0.564082,-0.447475,0.1731535,0.44498999999999994,-0.220903,0.3272335,0.5389229999999999,-0.410205,-0.2397765,0.775965,-0.6010249999999999,0.3014835,0.7635149999999999,-0.580565,-0.0842035,-0.0010450000000000736,-0.0036449999999999816,0.0842035,0.0010449999999999626,0.0036450000000000093,-0.2217665,0.0025249999999998884,-0.35850499999999996,0.2030335,0.004554999999999976,-0.358735,-0.1606465,-0.3353050000000001,-0.13849799999999998,0.12877349999999999,-0.33035500000000007,-0.130251
74,0.005173499999999998,0.6274949999999999,-0.23393799999999998,-0.1438355,0.43749999999999994,-0.234203,-0.2796555,0.564082,-0.44884,0.1727845,0.44498999999999994,-0.222275,0.3269545,0.5389229999999999,-0.4119,-0.23939549999999998,0.775965,-0.60319,0.3014745,0.7635149999999999,-0.5831299999999999,-0.0841285,-0.0010450000000000736,-0.00381999999999999,0.0841285,0.0010449999999999626,0.00381999999999999,-0.2214055,0.0022449999999999415,-0.35875,0.2036645,0.004554999999999976,-0.35847,-0.1603155,-0.335515,-0.13983,0.1291445,-0.3306150000000001,-0.13142500000000001
75,0.005511,0.6274949999999999,-0.23567900000000003,-0.143599,0.43749999999999994,-0.23575700000000002,-0.279479,0.564082,-0.45059,0.172581,0.44498999999999994,-0.223889,0.32638100000000003,0.5389229999999999,-0.41365,-0.239219,0.775965,-0.60494,0.301121,0.7635149999999999,-0.58534,-0.084065,-0.0010450000000000736,-0.0037800000000000056,0.084065,0.0010449999999999626,0.003779999999999978,-0.221049,0.0021249999999999325,-0.35888,0.20403100000000002,0.004454999999999987,-0.35842,-0.159969,-0.335515,-0.14153600000000002,0.129521,-0.3307150000000001,-0.132838
76,0.005922500000000003,0.6274949999999999,-0.23704799999999998,-0.14330849999999998,0.43749999999999994,-0.237258,-0.27916850000000004,0.564082,-0.45237499999999997,0.1724515,0.44498999999999994,-0.225222,0.32580149999999997,0.5389229999999999,-0.41608500000000004,-0.23877849999999998,0.775965,-0.606725,0.30060149999999997,0.7635149999999999,-0.587135,-0.0840175,-0.0010450000000000736,-0.0038650000000000073,0.0840175,0.0010449999999999626,0.0038650000000000073,-0.2204785,0.0021249999999999325,-0.358965,0.2044715,0.004454999999999987,-0.358105,-0.1595285,-0.335515,-0.143285,0.13003150000000002,-0.3307150000000001,-0.13428099999999998
77,0.006234500000000005,0.628225,-0.237644,-0.1431005,0.43672000000000005,-0.23853,-0.27882049999999997,0.563627,-0.453805,0.1721995,0.44352900000000006,-0.226468,0.3250195,0.539205,-0.418935,-0.23814049999999998,0.775215,-0.6084849999999999,0.29994950000000004,0.761545,-0.588915,-0.08404149999999999,-0.0008549999999999391,-0.0038449999999999873,0.08404149999999999,0.0008550000000000502,0.003845000000000015,-0.21969049999999998,-0.00016499999999997073,-0.358935,0.2048695,0.0021849999999999925,-0.357665,-0.1591405,-0.33779499999999996,-0.145036,0.1305195,-0.3329749999999999,-0.135699
78,0.0063110000000000015,0.630075,-0.2368,-0.14327800000000002,0.435879,-0.23849,-0.27877799999999997,0.565065,-0.454135,0.171602,0.444184,-0.226843,0.323462,0.5399360000000001,-0.42096500000000003,-0.23791800000000002,0.7757750000000001,-0.609015,0.298632,0.7619150000000001,-0.589955,-0.08399999999999999,-0.001274999999999915,-0.0037649999999999906,0.08399999999999999,0.0012750000000000261,0.0037649999999999906,-0.218778,-0.007714999999999916,-0.357825,0.204742,-0.005444999999999922,-0.355815,-0.159108,-0.3453649999999999,-0.146016,0.130822,-0.340615,-0.13635999999999998
79,0.006009500000000001,0.6324799999999999,-0.234712,-0.1436215,0.43737499999999996,-0.237478,-0.2789515,0.5656399999999999,-0.4526,0.1708685,0.444909,-0.22608899999999998,0.3219285,0.541386,-0.42113999999999996,-0.2378715,0.77528,-0.60778,0.2971185,0.76294,-0.5900299999999999,-0.0839915,-0.0011700000000000044,-0.003599999999999992,0.0839915,0.0011700000000000044,0.003599999999999992,-0.2177615,-0.019260000000000055,-0.35567,0.20439849999999998,-0.01707000000000003,-0.3526,-0.1592715,-0.35686000000000007,-0.146064,0.1309885,-0.35221,-0.136127
80,0.005388000000000002,0.63636,-0.231815,-0.144421,0.439488,-0.23598,-0.279401,0.569433,-0.450745,0.169719,0.44561599999999996,-0.225027,0.32004900000000003,0.545245,-0.420815,-0.238221,0.77922,-0.6047549999999999,0.295209,0.76669,-0.588835,-0.084032,-0.0010000000000000009,-0.003604999999999997,0.084032,0.0010000000000000009,0.003604999999999997,-0.216601,-0.033060000000000034,-0.35275500000000004,0.203469,-0.03118000000000004,-0.349335,-0.159721,-0.37111,-0.145897,0.130859,-0.36663000000000007,-0.135751
81,0.004975000000000001,0.641795,-0.228603,-0.145154,0.44321,-0.23430600000000001,-0.279494,0.575445,-0.4486,0.168686,0.446927,-0.223765,0.31829599999999997,0.551009,-0.42042,-0.23849399999999998,0.783485,-0.60141,0.293276,0.773245,-0.58718,-0.084095,-0.0007449999999999957,-0.003599999999999992,0.084095,0.0007449999999999957,0.003599999999999992,-0.215314,-0.048614999999999964,-0.34996,0.202526,-0.04744499999999996,-0.34621999999999997,-0.160104,-0.38766500000000004,-0.145685,0.130796,-0.383425,-0.135378
82,0.004310499999999996,0.6472450000000001,-0.224008,-0.1459345,0.44645700000000005,-0.231891,-0.2793545,0.581445,-0.44516500000000003,0.16787549999999998,0.44804800000000006,-0.22227500000000003,0.3162755,0.559385,-0.420335,-0.23884450000000002,0.791015,-0.5961350000000001,0.2910555,0.7805550000000001,-0.584045,-0.0840645,-0.0004549999999999832,-0.003505000000000008,0.0840645,0.0004550000000000387,0.0035049999999999804,-0.2127645,-0.07000499999999998,-0.34547500000000003,0.2003355,-0.07038499999999992,-0.34155500000000005,-0.1605945,-0.412535,-0.14559000000000002,0.1307355,-0.408805,-0.13527900000000004
83,0.0035745000000000004,0.6550050000000001,-0.21853499999999998,-0.14690350000000002,0.450153,-0.22874199999999997,-0.27912349999999997,0.590285,-0.440145,0.16724650000000002,0.452862,-0.220212,0.31424650000000004,0.568695,-0.41927499999999995,-0.23943350000000002,0.799895,-0.589555,0.2887365,0.791705,-0.579325,-0.0839795,-0.00018499999999999073,-0.003144999999999981,0.0839795,0.00018499999999999073,0.003145000000000009,-0.21006350000000001,-0.092115,-0.34050499999999995,0.1975465,-0.09401500000000002,-0.33606499999999995,-0.1612535,-0.43844500000000003,-0.14505099999999999,0.1304865,-0.435595,-0.134735
84,0.002560000000000005,0.663305,-0.211639,-0.148196,0.455133,-0.224694,-0.279106,0.598705,-0.43338,0.16638400000000003,0.456487,-0.217147,0.312164,0.5786549999999999,-0.4163,-0.24004599999999998,0.809035,-0.58057,0.286424,0.803105,-0.5725899999999999,-0.083883,-0.00018500000000004624,-0.002899999999999986,0.083883,0.00018499999999999073,0.0029000000000000137,-0.207196,-0.11607500000000004,-0.33408,0.19397399999999998,-0.11933500000000002,-0.32911999999999997,-0.162136,-0.467105,-0.143596,0.13013400000000003,-0.464395,-0.133276
85,0.001539999999999998,0.6724,-0.203695,-0.149515,0.4603,-0.219581,-0.278845,0.6111500000000001,-0.425325,0.165555,0.46069,-0.213198,0.310175,0.59276,-0.412275,-0.240565,0.8245199999999999,-0.570085,0.284325,0.81757,-0.563685,-0.08378,-1.0000000000010001e-05,-0.0026750000000000107,0.08378,1.0000000000010001e-05,0.0026750000000000107,-0.203855,-0.13923999999999997,-0.32638500000000004,0.189995,-0.1437,-0.32133500000000004,-0.163775,-0.49571,-0.142929,0.130905,-0.49321000000000004,-0.133767
86,0.0011144999999999992,0.68163,-0.19449400000000003,-0.1502095,0.46609,-0.21301200000000003,-0.2778695,0.62355,-0.41548,0.1653205,0.46704,-0.20792300000000002,0.3089405,0.6049800000000001,-0.40659,-0.2407395,0.83773,-0.55725,0.2828505,0.83109,-0.55254,-0.08356949999999999,-0.00014999999999998348,-0.0024000000000000132,0.08356949999999999,0.000150000000000039,0.0023999999999999855,-0.1993795,-0.16237999999999997,-0.31671000000000005,0.1861105,-0.16759999999999997,-0.31181000000000003,-0.1647195,-0.5254099999999999,-0.14092800000000003,0.1322405,-0.52323,-0.13317500000000002
87,0.0003129999999999982,0.690175,-0.18434999999999999,-0.15121400000000002,0.471995,-0.205363,-0.277174,0.634865,-0.403625,0.164736,0.471545,-0.20124199999999998,0.307536,0.618665,-0.39885499999999996,-0.241554,0.852085,-0.542465,0.281086,0.8467450000000001,-0.539535,-0.083394,4.500000000001725e-05,-0.002234999999999987,0.083394,-4.500000000001725e-05,0.0022350000000000148,-0.195144,-0.183085,-0.304975,0.181766,-0.189365,-0.300725,-0.166124,-0.5532649999999999,-0.13735999999999998,0.133196,-0.5520849999999999,-0.13080199999999997
88,0.00041700000000000244,0.6965600000000001,-0.171246,-0.15096299999999999,0.47784000000000004,-0.197223,-0.275563,0.64746,-0.38894,0.164797,0.47522,-0.194019,0.306417,0.6331800000000001,-0.38778,-0.24140299999999998,0.86866,-0.52418,0.281267,0.86477,-0.52352,-0.08349899999999999,0.00023000000000000798,-0.0018799999999999928,0.08349899999999999,-0.00023000000000000798,0.0018799999999999928,-0.189243,-0.20475,-0.28854,0.177977,-0.2118,-0.28579,-0.165853,-0.58276,-0.12981,0.134307,-0.5825,-0.12339900000000001
89,-0.0008565000000000022,0.7003,-0.15676299999999999,-0.1526775,0.48305,-0.18669999999999998,-0.2761075,0.65957,-0.372255,0.1640325,0.47697,-0.18492999999999998,0.3026625,0.64457,-0.37309499999999995,-0.2431675,0.88296,-0.504895,0.2787825,0.8803799999999999,-0.505835,-0.0832555,0.0008599999999999997,-0.0016349999999999976,0.0832555,-0.0008599999999999997,0.0016350000000000253,-0.1848675,-0.2321,-0.27103499999999997,0.1726325,-0.23887,-0.269235,-0.1671175,-0.612,-0.12137999999999999,0.1333425,-0.61244,-0.11511199999999999
90,-0.0021020000000000006,0.701765,-0.142511,-0.154227,0.487685,-0.176396,-0.276647,0.6715249999999999,-0.35443,0.163593,0.479065,-0.177138,0.298983,0.655315,-0.35702999999999996,-0.244447,0.897895,-0.48484,0.276373,0.894455,-0.48761,-0.08307,0.0011049999999999949,-0.0012899999999999856,0.08307,-0.0011049999999999949,0.0012900000000000134,-0.180087,-0.258735,-0.25245,0.166893,-0.265015,-0.25146999999999997,-0.168207,-0.640575,-0.113269,0.132473,-0.641235,-0.107189
91,-0.002995000000000002,0.7007249999999999,-0.12247599999999999,-0.15546,0.490865,-0.159297,-0.27719,0.683815,-0.32963,0.16404999999999997,0.483425,-0.16189699999999999,0.29552999999999996,0.6679849999999999,-0.33479000000000003,-0.24544,0.914095,-0.45635000000000003,0.27421999999999996,0.906205,-0.46036999999999995,-0.082944,0.0013949999999999796,-0.001109999999999986,0.082944,-0.0013950000000000073,0.0011099999999999999,-0.17437999999999998,-0.284345,-0.22336699999999998,0.16101,-0.28946500000000003,-0.22297899999999998,-0.16892000000000001,-0.6662750000000001,-0.097105,0.13179999999999997,-0.666285,-0.092028
92,-0.0035899999999999986,0.703525,-0.100441,-0.157777,0.498255,-0.139725,-0.277727,0.693025,-0.30342,0.164703,0.486525,-0.14438800000000002,0.292163,0.677175,-0.31053,-0.246647,0.9265249999999999,-0.42371000000000003,0.27227300000000004,0.9179849999999999,-0.42913,-0.082501,0.0015250000000000125,-0.000899999999999998,0.082501,-0.0015249999999999986,0.000899999999999998,-0.16834700000000002,-0.315265,-0.189042,0.15414299999999997,-0.319245,-0.189235,-0.16941699999999998,-0.697055,-0.078369,0.13128299999999998,-0.695955,-0.07381
93,-0.0042524999999999985,0.705211,-0.079491,-0.16000150000000002,0.503211,-0.120973,-0.2783015,0.703621,-0.278428,0.1659185,0.492671,-0.127409,0.2890185,0.687661,-0.287128,-0.24781150000000002,0.939161,-0.392238,0.27061850000000004,0.929291,-0.398938,-0.08212549999999999,0.0016110000000000013,-0.0005669999999999981,0.08212549999999999,-0.0016110000000000013,0.0005669999999999981,-0.1627515,-0.343669,-0.156192,0.1478785,-0.34657899999999997,-0.156535,-0.16988150000000002,-0.724649,-0.060146000000000005,0.1307385,-0.722609,-0.056150000000000005
94,-0.0044765,0.70645,-0.05890750000000001,-0.1618145,0.50847,-0.1025065,-0.2786145,0.71122,-0.25347050000000004,0.16740549999999998,0.49791,-0.11086750000000001,0.2862955,0.69545,-0.2636805,-0.2487045,0.94698,-0.36003050000000003,0.2691455,0.9387,-0.36891050000000003,-0.08164550000000001,0.0016000000000000042,-0.00017850000000001198,0.08164550000000001,-0.0016000000000000042,0.0001784999999999981,-0.1571545,-0.37045,-0.1237145,0.1421355,-0.37235,-0.1237835,-0.1700645,-0.74987,-0.042265500000000004,0.1305055,-0.74706,-0.038603500000000006
95,-0.0044325,0.7063665,-0.039059500000000004,-0.1634065,0.5134865,-0.08440550000000001,-0.2787465,0.7181265,-0.22911350000000003,0.1690235,0.5021765,-0.09440950000000001,0.2838235,0.7033665,-0.24039349999999998,-0.2497165,0.9564765000000001,-0.3285135,0.2679935,0.9493265000000001,-0.3394035,-0.0813105,0.0016185000000000019,0.0004964999999999969,0.0813105,-0.0016185000000000019,-0.0004965000000000039,-0.15203650000000002,-0.3937635,-0.0925655,0.1369435,-0.39568349999999997,-0.0914865,-0.1701165,-0.7717235,-0.024612500000000002,0.13043349999999998,-0.7681635,-0.021255500000000004
96,-0.004283000000000002,0.706169,-0.019944499999999993,-0.164721,0.517409,-0.0671485,-0.278681,0.724539,-0.2056895,0.17089900000000002,0.506639,-0.07862249999999998,0.281849,0.709159,-0.2180995,-0.250251,0.963369,-0.2985995,0.26720900000000003,0.956029,-0.31080949999999996,-0.080827,0.0014999999999999979,0.0009955000000000033,0.080827,-0.0015000000000000013,-0.0009954999999999964,-0.147161,-0.41400099999999995,-0.06319949999999999,0.13220900000000002,-0.415651,-0.060509499999999994,-0.16991099999999998,-0.791331,-0.007617499999999992,0.130629,-0.7860509999999999,-0.00446549999999999
97,-0.003956500000000002,0.7073975,-0.003421500000000001,-0.1659895,0.5208575000000001,-0.0514715,-0.2788295,0.7297475,-0.1848775,0.17287049999999998,0.5117175,-0.0647105,0.2806305,0.7127575,-0.1980775,-0.2510995,0.9686175,-0.2716175,0.2667605,0.9595275000000001,-0.2848875,-0.0802725,0.0012935000000000012,0.0013594999999999996,0.0802725,-0.0012934999999999995,-0.0013594999999999996,-0.14330949999999998,-0.4279825,-0.038192500000000004,0.1279405,-0.4294025,-0.033328500000000004,-0.16878949999999998,-0.8053125,0.0100425,0.12974049999999998,-0.7996825,0.014139499999999996
98,-0.003660999999999995,0.710103,0.0116595,-0.16724299999999998,0.524123,-0.0362115,-0.279323,0.7328129999999999,-0.16508850000000003,0.17446699999999998,0.518463,-0.051534500000000004,0.28059700000000004,0.717293,-0.18046849999999998,-0.252023,0.971833,-0.24601850000000003,0.26649700000000004,0.962633,-0.2610885,-0.079764,0.0006709999999999999,0.001798499999999998,0.079764,-0.0006709999999999999,-0.0017985000000000015,-0.139903,-0.44127700000000003,-0.014645500000000002,0.12366700000000001,-0.441977,-0.007420500000000002,-0.16768299999999997,-0.817507,0.0272175,0.128647,-0.811697,0.0324855
99,-0.003289499999999998,0.7135545,0.026429,-0.16832750000000002,0.5263745,-0.021093,-0.2799875,0.7341344999999999,-0.146998,0.17581249999999998,0.5239745,-0.038196,0.2807025,0.7205944999999999,-0.164518,-0.25264749999999997,0.9741044999999999,-0.22149799999999997,0.26657250000000005,0.9650945,-0.238498,-0.0792995,0.0003715000000000003,0.0020870000000000003,0.0792995,-0.0003715000000000003,-0.002087,-0.1367775,-0.4551055,0.007507999999999999,0.1200225,-0.4548055,0.017072,-0.1665675,-0.8287455,0.044422,0.1278225,-0.8229855,0.050505
100,-0.0027940000000000005,0.7197965,0.033465,-0.169315,0.5306765,-0.013814,-0.280615,0.7352265,-0.137742,0.176955,0.5277565,-0.032135,0.281075,0.7207564999999999,-0.15660200000000002,-0.253245,0.9724665,-0.207852,0.266895,0.9692465,-0.227212,-0.078823,2.5499999999997747e-05,0.0023620000000000004,0.078823,-2.5500000000001216e-05,-0.0023619999999999995,-0.135615,-0.4669335,0.016534,0.11787500000000001,-0.4658135,0.028472,-0.166105,-0.8363935,0.051157,0.127505,-0.8295335,0.057844
101,-0.002420499999999999,0.7198844999999999,0.037794,-0.1691185,0.5306145,-0.009636999999999998,-0.2810085,0.7368045,-0.131297,0.1781015,0.5288845,-0.028548000000000004,0.2813415,0.7230945,-0.15154700000000002,-0.2539285,0.9737245,-0.19925700000000002,0.2670515,0.9697045,-0.221087,-0.0784105,-1.2500000000002093e-05,0.0024920000000000003,0.0784105,1.2499999999998623e-05,-0.0024919999999999994,-0.1350585,-0.4671955,0.02053,0.11718150000000001,-0.4658755,0.033723,-0.1657285,-0.8374355,0.055156,0.1276415,-0.8297255,0.062001
102,-0.001993000000000001,0.7199945,0.041888499999999995,-0.16886,0.5306145,-0.0056585,-0.28141,0.7370445,-0.1253565,0.17853,0.5288845,-0.0250635,0.28183,0.7230945,-0.1470765,-0.25458000000000003,0.9741645,-0.1915965,0.26717,0.9697045,-0.2159165,-0.077949,-1.2500000000002093e-05,0.0026134999999999995,0.077949,1.2499999999998623e-05,-0.0026134999999999995,-0.13457,-0.4673955,0.0245115,0.11653,-0.4658755,0.0385925,-0.1653,-0.8380155,0.059136499999999995,0.12784,-0.8297255,0.0660685
103,-0.0020245000000000003,0.7200445,0.0452325,-0.16912449999999998,0.5306145,-0.0019644999999999975,-0.2823445,0.7370445,-0.1204905,0.1784955,0.5288845,-0.021367499999999998,0.28179550000000003,0.7230945,-0.1433805,-0.2556845,0.9741645,-0.1860405,0.2668355,0.9697045,-0.2122205,-0.0779505,-1.2500000000002093e-05,0.0027975000000000014,0.0779505,1.2499999999998623e-05,-0.002797499999999998,-0.1346045,-0.4675855,0.028207500000000003,0.1156355,-0.4658955,0.0423405,-0.1654145,-0.8385355000000001,0.0628325,0.1276255,-0.8305555,0.0697845
104,-0.001582499999999997,0.7203470000000001,0.0485705,-0.1689425,0.530877,0.0013705000000000037,-0.2826125,0.7373470000000001,-0.11667149999999998,0.1790775,0.5291870000000001,-0.018674499999999997,0.2821775,0.7233970000000001,-0.14004149999999999,-0.2563425,0.9744670000000001,-0.1821315,0.2672875,0.9700070000000001,-0.2088915,-0.07787150000000001,3.099999999999978e-05,0.0027145000000000016,0.07787150000000001,-3.099999999999978e-05,-0.002714499999999998,-0.13402250000000002,-0.467283,0.030608500000000004,0.1154675,-0.46542300000000003,0.045672500000000005,-0.1649425,-0.8384229999999999,0.0661705,0.1280075,-0.831073,0.0731215
105,-0.0012114999999999973,0.7207445,0.051711999999999994,-0.1688945,0.5311545,0.0045000000000000005,-0.2830745,0.7377445,-0.113539,0.1790755,0.5291645,-0.015536999999999999,0.2826155,0.7233245,-0.136899,-0.2570345,0.9748645,-0.178999,0.26769550000000003,0.9703545,-0.20574900000000002,-0.0778035,-2.8500000000000747e-05,0.002679000000000001,0.0778035,2.8499999999997278e-05,-0.002679000000000001,-0.13346449999999999,-0.46708550000000004,0.032466999999999996,0.1153855,-0.4649855,0.048809,-0.16447450000000002,-0.8380255,0.069197,0.12841550000000002,-0.8313955000000001,0.076263
106,-0.0010390000000000035,0.7211040000000001,0.054301,-0.16886199999999998,0.5313540000000001,0.007187000000000002,-0.283622,0.7373040000000001,-0.11077500000000001,0.178848,0.5289140000000001,-0.013245,0.283048,0.7227640000000001,-0.134165,-0.257822,0.9744940000000001,-0.176245,0.268108,0.969994,-0.20325500000000002,-0.07777200000000001,-8.599999999999927e-05,0.002643000000000003,0.07777200000000001,8.599999999999927e-05,-0.0026429999999999995,-0.133052,-0.467016,0.033559000000000005,0.11527799999999999,-0.464626,0.051577,-0.164092,-0.8376659999999999,0.071847,0.128768,-0.8314959999999999,0.079036
107,-0.001061999999999996,0.7213355,0.055994999999999996,-0.169084,0.5312855000000001,0.008950999999999997,-0.284254,0.7361455,-0.10863799999999998,0.17854599999999998,0.5285955,-0.011874000000000003,0.28334600000000004,0.7219855000000001,-0.132608,-0.25867399999999996,0.9736655000000001,-0.17410799999999998,0.268316,0.9691255000000001,-0.20238799999999998,-0.077766,-0.00014250000000000027,0.0026999999999999975,0.077766,0.00014250000000000027,-0.002700000000000001,-0.132884,-0.4670145,0.034026999999999995,0.11515600000000001,-0.4643545,0.052911,-0.163804,-0.8373944999999999,0.07391,0.12901600000000002,-0.8315445,0.081123
108,-0.0013455000000000003,0.7213965,0.056732500000000005,-0.16939949999999998,0.5311865,0.0102065,-0.28500949999999997,0.7350464999999999,-0.10708549999999999,0.17830049999999997,0.5283165,-0.011005499999999998,0.28355050000000004,0.7209464999999999,-0.1318655,-0.25957949999999996,0.9730665,-0.17240550000000002,0.2683805,0.9682864999999999,-0.20279550000000002,-0.0777805,-0.00019349999999999923,0.002718500000000002,0.0777805,0.00019349999999999923,-0.002718500000000002,-0.1327795,-0.4670535,0.0342065,0.1150805,-0.4639835,0.053638500000000006,-0.16355950000000002,-0.8369835,0.0757275,0.12918049999999998,-0.8315635,0.0829495
109,-0.0016779999999999968,0.7214455000000001,0.0571395,-0.16979899999999998,0.5308755000000001,0.010819500000000003,-0.285829,0.7339755,-0.10646149999999999,0.177991,0.5279455000000001,-0.0103585,0.283671,0.7198855000000001,-0.13199149999999998,-0.260559,0.9723955000000001,-0.1720015,0.268271,0.9672955000000001,-0.2039315,-0.077792,-0.00027749999999999997,0.002737500000000004,0.077792,0.00027749999999999997,-0.002737499999999997,-0.13265899999999997,-0.4671345,0.034272500000000004,0.11517100000000001,-0.4636845,0.054291500000000006,-0.16328900000000002,-0.8363744999999999,0.07737450000000001,0.129411,-0.8315245,0.0846755
110,-0.0020964999999999964,0.7214495000000001,0.0573305,-0.1703085,0.5305795000000001,0.011255499999999998,-0.2867085,0.7329095,-0.1066925,0.17748150000000001,0.5274895000000001,-0.009982499999999998,0.2837015,0.7187295,-0.1322025,-0.26160849999999997,0.9716595,-0.1722725,0.2680515,0.9661795000000001,-0.2051325,-0.07778750000000001,-0.00032149999999999887,0.0028144999999999976,0.07778750000000001,0.00032150000000000234,-0.0028144999999999976,-0.13256849999999998,-0.4672005,0.0343035,0.1152215,-0.46338050000000003,0.0547875,-0.1629785,-0.8357505,0.0790335,0.1296315,-0.8314705,0.0863815
111,-0.002646500000000003,0.7214245,0.0573695,-0.1709345,0.5302344999999999,0.011481499999999999,-0.2876945,0.7317845,-0.1070855,0.1766455,0.5269145,-0.009538499999999998,0.2836355,0.7175545,-0.1324955,-0.2627345,0.9708045,-0.1728955,0.2676955,0.9648545,-0.2065255,-0.0777945,-0.0003475000000000006,0.0028045000000000014,0.0777945,0.0003475000000000006,-0.0028045000000000014,-0.1326145,-0.4672255,0.034249499999999995,0.11523549999999999,-0.46319550000000004,0.0551225,-0.1627645,-0.8351655,0.08065249999999999,0.1297955,-0.8312555,0.0880845
112,-0.0031420000000000007,0.7214165,0.0572595,-0.17151,0.5299665,0.011582499999999999,-0.28861000000000003,0.7306765000000001,-0.10760249999999999,0.17584,0.5263865,-0.009257500000000002,0.28364,0.7164065000000001,-0.1329625,-0.26377,0.9700365,-0.1737925,0.26743,0.9636465000000001,-0.2079025,-0.077787,-0.0003575000000000002,0.002771499999999996,0.077787,0.0003575000000000002,-0.002771500000000003,-0.1326,-0.46723349999999997,0.0342445,0.11529,-0.4629635,0.0553865,-0.16249,-0.8345435,0.0821625,0.12999,-0.8310235,0.08967549999999999
113,-0.0035880000000000026,0.7214625,0.056903499999999996,-0.171961,0.5297925,0.0116525,-0.289441,0.7296524999999999,-0.1082225,0.17509899999999998,0.5259925,-0.009120499999999997,0.283719,0.7152725,-0.1334225,-0.264701,0.9693725,-0.17487250000000001,0.267339,0.9625925,-0.2093625,-0.07777200000000001,-0.0003554999999999982,0.002743500000000003,0.07777200000000001,0.00035550000000000165,-0.002743500000000003,-0.132521,-0.4672475,0.0342335,0.115399,-0.4626875,0.055627499999999996,-0.16218100000000002,-0.8338675000000001,0.0835085,0.130219,-0.8307275000000001,0.0910865
114,-0.0040754999999999975,0.7214695,0.05633250000000001,-0.1723835,0.5296295,0.011654500000000005,-0.2902135,0.7286495,-0.1088805,0.1745765,0.5254195,-0.009094499999999998,0.2838265,0.7142395,-0.13390049999999998,-0.2656035,0.9685695,-0.17620049999999998,0.26731649999999996,0.9616695,-0.21081049999999996,-0.07775950000000001,-0.0003495000000000026,0.002668500000000004,0.07775950000000001,0.0003494999999999991,-0.0026684999999999973,-0.1324535,-0.4672405,0.03418450000000001,0.11545649999999999,-0.4625305,0.055670500000000005,-0.1618735,-0.8331805,0.08469850000000001,0.1304265,-0.8304305,0.09235750000000001
115,-0.004452000000000001,0.721522,0.055954500000000004,-0.17283600000000002,0.529482,0.0114925,-0.290836,0.727952,-0.10942149999999999,0.174154,0.524972,-0.009143499999999999,0.28399399999999997,0.713252,-0.13437149999999998,-0.26629600000000003,0.967952,-0.1774115,0.267424,0.960962,-0.2120415,-0.07774900000000001,-0.00032500000000000064,0.0025784999999999975,0.07774900000000001,0.00032500000000000064,-0.0025784999999999975,-0.13242600000000002,-0.467228,0.0340455,0.11554400000000001,-0.462538,0.0556425,-0.161556,-0.832428,0.0857845,0.13067399999999998,-0.830148,0.0935445
116,-0.0048070000000000005,0.7216315,0.055636000000000005,-0.173208,0.5294415,0.011372,-0.291288,0.7279315000000001,-0.109824,0.17375200000000002,0.5245215,-0.009099999999999997,0.284252,0.7124615,-0.134684,-0.266758,0.9675815,-0.178254,0.267582,0.9605615000000001,-0.21291400000000002,-0.07774800000000001,-0.00030950000000000075,0.002461000000000005,0.07774800000000001,0.000309499999999999,-0.002460999999999998,-0.13236799999999999,-0.46720849999999997,0.033929,0.11571200000000001,-0.46252849999999995,0.055892,-0.16122799999999998,-0.8316985,0.08682200000000001,0.13093200000000002,-0.8298485,0.094727
117,-0.004959999999999996,0.72187,0.055709999999999996,-0.173568,0.52935,0.011194999999999997,-0.29166800000000004,0.72766,-0.110027,0.173332,0.52404,-0.008996000000000004,0.28448199999999996,0.71189,-0.134747,-0.26723800000000003,0.9668599999999999,-0.178987,0.26778199999999996,0.96006,-0.21347699999999997,-0.077741,-0.00028800000000000006,0.0023299999999999987,0.077741,0.00028800000000000006,-0.0023299999999999987,-0.13233799999999998,-0.46718,0.033886,0.11586199999999999,-0.46257,0.056109,-0.160938,-0.83111,0.087795,0.13121200000000002,-0.82957,0.095816
118,-0.005127000000000002,0.7221185,0.055792999999999995,-0.173927,0.5292884999999999,0.011123999999999995,-0.291977,0.7274585,-0.11022400000000002,0.17275300000000002,0.5235585,-0.008874000000000007,0.284723,0.7114985,-0.134614,-0.267657,0.9661784999999999,-0.179324,0.268013,0.9597485,-0.213734,-0.07775699999999999,-0.00023849999999999913,0.0021979999999999986,0.07775699999999999,0.00023850000000000086,-0.0021980000000000055,-0.132397,-0.4671415,0.03375499999999999,0.116013,-0.4626515,0.056219,-0.160727,-0.8305615000000001,0.088721,0.131433,-0.8292915,0.09676399999999999
119,-0.0052595000000000055,0.722417,0.055890499999999996,-0.1741895,0.529217,0.010962499999999993,-0.2922695,0.726937,-0.11034150000000001,0.1722305,0.5230870000000001,-0.008649500000000004,0.2849505,0.7111770000000001,-0.1345615,-0.26808950000000004,0.965447,-0.1796915,0.2682305,0.959437,-0.2138915,-0.0777775,-0.0002210000000000007,0.0020424999999999957,0.0777775,0.00022099999999999898,-0.0020425000000000026,-0.13241950000000002,-0.46712299999999995,0.0335515,0.1162005,-0.462743,0.056305499999999994,-0.16051949999999998,-0.830013,0.0894165,0.13167049999999997,-0.828973,0.0975355
120,-0.0053615,0.7228920000000001,0.0558245,-0.1743975,0.5293220000000001,0.010881500000000002,-0.2923075,0.727172,-0.11031650000000001,0.1717925,0.522452,-0.008775499999999999,0.2853825,0.710832,-0.1352865,-0.2674275,0.965712,-0.1804865,0.2686625,0.959312,-0.2144865,-0.0777765,-0.0003060000000000007,0.001867500000000001,0.0777765,0.000305999999999999,-0.001867500000000001,-0.1323075,-0.467248,0.0331205,0.1164125,-0.463258,0.0562085,-0.1600575,-0.829538,0.0900745,0.1318525,-0.8287279999999999,0.0983495
121,-0.005583500000000003,0.7228635000000001,0.056081000000000006,-0.17468250000000002,0.5288735,0.010519,-0.2928725,0.7253434999999999,-0.109997,0.1717775,0.5223335,-0.008633999999999996,0.2853075,0.7103335,-0.134627,-0.2687525,0.9627735,-0.180367,0.2685175,0.9585935000000001,-0.214387,-0.0778125,-0.0001965000000000005,0.0015620000000000009,0.0778125,0.00019649999999999876,-0.001561999999999994,-0.1324925,-0.4670965,0.033021,0.11656749999999999,-0.4633365,0.05659600000000001,-0.16011250000000002,-0.8295465,0.090562,0.1319675,-0.8287465,0.098881
122,-0.005604000000000006,0.723596,0.056537000000000004,-0.17525100000000002,0.528436,0.010369000000000003,-0.293231,0.7254959999999999,-0.11080499999999999,0.171009,0.5223059999999999,-0.007814999999999996,0.285609,0.7102459999999999,-0.133835,-0.26995100000000005,0.961926,-0.180345,0.26876900000000004,0.958816,-0.21381499999999998,-0.077945,-0.00015600000000000162,0.0015270000000000006,0.077945,0.0001559999999999999,-0.0015270000000000006,-0.132681,-0.46703399999999995,0.033016000000000004,0.11663899999999999,-0.46343399999999996,0.056395,-0.160061,-0.8281540000000001,0.091559,0.132499,-0.8286140000000001,0.099715
123,-0.005636500000000005,0.7237495,0.0567725,-0.17518250000000002,0.5285895,0.010445499999999996,-0.29344250000000005,0.7228895,-0.11055949999999999,0.1709475,0.5221895000000001,-0.007527500000000006,0.2857575,0.7100995000000001,-0.13348949999999998,-0.27085250000000005,0.9609595,-0.1806895,0.2690275,0.9583595,-0.2134395,-0.0779455,-0.00016749999999999925,0.001523499999999997,0.0779455,0.00016750000000000098,-0.001523500000000004,-0.1326825,-0.4670705,0.0328725,0.11702749999999999,-0.4633305,0.056640499999999996,-0.15997250000000002,-0.8276905000000001,0.0915765,0.1326175,-0.8283005000000001,0.1000735
124,-0.0059665,0.723653,0.056626499999999996,-0.17524450000000003,0.528493,0.0101155,-0.2937545,0.721633,-0.1106615,0.17083549999999997,0.521953,-0.0078825,0.2858855,0.709383,-0.1332515,-0.2721445,0.9596129999999999,-0.1814515,0.2689355,0.958313,-0.21312150000000002,-0.0779705,-0.00019099999999999846,0.0015125,0.0779705,0.0001910000000000002,-0.0015125,-0.13279449999999998,-0.467097,0.032785499999999995,0.1169455,-0.463267,0.056875499999999996,-0.15991450000000001,-0.827257,0.09180050000000001,0.13265549999999998,-0.828137,0.1003945
125,-0.006307500000000002,0.723661,0.056512,-0.1756955,0.528101,0.010047,-0.2943555,0.720291,-0.110769,0.1705145,0.521961,-0.007671999999999998,0.28576450000000003,0.709381,-0.133029,-0.27329549999999997,0.958731,-0.181929,0.2687545,0.958241,-0.212879,-0.0780025,-0.0001299999999999999,0.0016359999999999986,0.0780025,0.0001299999999999999,-0.0016359999999999986,-0.1331755,-0.466999,0.032865,0.1170745,-0.46326900000000004,0.056967,-0.1600255,-0.8269989999999999,0.091985,0.1324345,-0.8276089999999999,0.10069600000000001
126,-0.0063599999999999985,0.723744,0.056757999999999996,-0.175743,0.528124,0.009997999999999993,-0.294813,0.721174,-0.111287,0.170167,0.521624,-0.0073760000000000076,0.285947,0.709304,-0.132807,-0.273893,0.958534,-0.18196700000000002,0.269117,0.955684,-0.21182700000000002,-0.07803,-7.099999999999988e-05,0.0016129999999999964,0.07803,7.099999999999988e-05,-0.0016130000000000033,-0.133163,-0.46693599999999996,0.032902999999999995,0.117277,-0.463296,0.057046999999999994,-0.159943,-0.8268759999999999,0.09215899999999999,0.132747,-0.827286,0.10087199999999999
