sb224sc-HT22-VT27/4dt907/src/data/kinect_good_preprocessed_not_cut_A11_mediapipe/A141_kinect.csv
FrameNo,nose_3d_x,nose_3d_y,nose_3d_z,left_shoulder_3d_x,left_shoulder_3d_y,left_shoulder_3d_z,left_elbow_3d_x,left_elbow_3d_y,left_elbow_3d_z,right_shoulder_3d_x,right_shoulder_3d_y,right_shoulder_3d_z,right_elbow_3d_x,right_elbow_3d_y,right_elbow_3d_z,left_wrist_3d_x,left_wrist_3d_y,left_wrist_3d_z,right_wrist_3d_x,right_wrist_3d_y,right_wrist_3d_z,left_hip_3d_x,left_hip_3d_y,left_hip_3d_z,right_hip_3d_x,right_hip_3d_y,right_hip_3d_z,left_knee_3d_x,left_knee_3d_y,left_knee_3d_z,right_knee_3d_x,right_knee_3d_y,right_knee_3d_z,left_ankle_3d_x,left_ankle_3d_y,left_ankle_3d_z,right_ankle_3d_x,right_ankle_3d_y,right_ankle_3d_z
0,0.010039,0.705025,-0.0649405,-0.169326,0.456425,0.0320715,-0.189526,0.218115,0.0349095,0.164924,0.46515500000000004,0.0319995,0.187774,0.229835,0.0547385,-0.194656,0.008583,-0.0382875,0.198294,0.015681,-0.008456499999999999,-0.07494100000000001,-0.00032800000000000017,-7.750000000000118e-05,0.07494100000000001,0.00032800000000000017,7.750000000000118e-05,-0.131286,-0.332115,-0.0037075000000000025,0.12213399999999999,-0.338165,0.0029975,-0.138626,-0.6764450000000001,0.0300305,0.14094399999999999,-0.6636150000000001,0.0253395
1,0.0124125,0.7092944999999999,-0.057009500000000005,-0.1682385,0.4561145,0.0343975,-0.18918849999999998,0.21839450000000002,0.036657499999999996,0.16612149999999998,0.46437449999999997,0.035589499999999996,0.1881215,0.2301745,0.0545065,-0.1927085,0.0147095,-0.036671499999999996,0.19835150000000001,0.014394500000000001,-0.011777500000000003,-0.0748765,-0.00014150000000000013,-0.0008065000000000017,0.0748765,0.0001414999999999997,0.0008065000000000017,-0.1314785,-0.3322855,-0.003415500000000002,0.1221215,-0.33842550000000005,0.004117499999999996,-0.1382385,-0.6766755,0.0310425,0.1408415,-0.6637055000000001,0.026959499999999997
2,0.016402000000000003,0.717561,-0.0403485,-0.163894,0.456481,0.0402815,-0.18790400000000002,0.22181099999999998,0.0402415,0.168476,0.463901,0.0427845,0.18967599999999998,0.231281,0.0547035,-0.192554,0.01807,-0.034966500000000005,0.199306,0.021512,-0.013241500000000003,-0.07488600000000001,8.5e-05,-0.0013784999999999978,0.07488600000000001,-8.5e-05,0.0013784999999999978,-0.131244,-0.332159,-0.0030405000000000015,0.122176,-0.338609,0.0051625,-0.13739400000000002,-0.6750090000000001,0.0308955,0.140586,-0.664729,0.0285755
3,0.019354,0.7233985,-0.027535000000000004,-0.162078,0.4551785,0.044816,-0.186778,0.22396850000000001,0.044225,0.170062,0.46343850000000003,0.04659,0.191782,0.23185850000000002,0.054241,-0.191228,0.0106955,-0.036229,0.199982,0.025690499999999998,-0.014754000000000003,-0.074875,0.00016649999999999998,-0.0013680000000000012,0.074875,-0.00016649999999999998,0.0013680000000000012,-0.131068,-0.3322015,-0.0031110000000000027,0.122272,-0.3385415,0.005374999999999998,-0.137358,-0.6751815,0.031037,0.140632,-0.6643015,0.028836999999999998
4,0.020211999999999997,0.7262515,-0.021352500000000003,-0.16138,0.4549715,0.0464085,-0.18638000000000002,0.2247915,0.0456865,0.17074,0.46367149999999996,0.0482885,0.19341,0.2353815,0.0531935,-0.19148,-0.0309595,-0.05874950000000001,0.20029999999999998,0.0265805,-0.016476500000000005,-0.074873,0.00017149999999999978,-0.0013785000000000047,0.074873,-0.0001715000000000002,0.0013784999999999978,-0.13098,-0.33223850000000005,-0.0031805000000000028,0.12231999999999998,-0.3385685,0.005379499999999995,-0.13735,-0.6752484999999999,0.031093499999999996,0.14067,-0.6641885,0.028849499999999997
5,0.020788000000000004,0.729722,-0.014387999999999998,-0.160541,0.45469200000000004,0.048799,-0.186131,0.225232,0.047847,0.171159,0.46352200000000005,0.049976,0.19461900000000001,0.23605199999999998,0.052723,-0.19589099999999998,0.025957,-0.025354,0.200349,0.027207000000000002,-0.017301999999999998,-0.074872,0.0001910000000000002,-0.001341999999999996,0.074872,-0.00019099999999999976,0.001342000000000003,-0.130961,-0.332298,-0.003381000000000002,0.12240899999999999,-0.338528,0.005315,-0.137321,-0.6752480000000001,0.030935,0.14102900000000002,-0.663458,0.028905
6,0.021717999999999994,0.7325474999999999,-0.009234999999999993,-0.159857,0.4549475,0.051627000000000006,-0.186037,0.2273775,0.050828000000000005,0.17141299999999998,0.4636175,0.051605000000000005,0.196733,0.2379075,0.052467,-0.195837,0.0215525,-0.026355000000000003,0.20044299999999998,0.0282965,-0.018435,-0.07494,0.0001975000000000002,-0.0012109999999999968,0.07494,-0.00019749999999999976,0.0012110000000000037,-0.130827,-0.33204249999999996,-0.0038969999999999977,0.12262299999999998,-0.3385125,0.0052340000000000025,-0.137157,-0.6753925000000001,0.030747000000000003,0.141083,-0.6632925000000001,0.028867000000000004
7,0.0193605,0.7357075,-0.0032545000000000004,-0.1618775,0.4553875,0.0514295,-0.18708750000000002,0.22574750000000002,0.0514255,0.1709425,0.4632675,0.0497955,0.19757249999999998,0.2359475,0.0517445,-0.19492749999999998,0.010953500000000001,-0.028268500000000002,0.20133250000000003,0.0278675,-0.019902500000000004,-0.0750295,0.00014350000000000018,-0.0005124999999999991,0.0750295,-0.00014349999999999996,0.0005124999999999991,-0.1297275,-0.3320825,-0.004708500000000004,0.1234125,-0.3388525,0.004362499999999998,-0.13592749999999998,-0.6762525,0.0302455,0.14173249999999998,-0.6639425,0.0281215
8,0.0196555,0.738356,0.0021799999999999944,-0.1615375,0.455276,0.053078,-0.18674749999999998,0.225826,0.053311,0.1711525,0.462826,0.050489,0.19799250000000002,0.235586,0.051628999999999994,-0.19509749999999998,0.010592,-0.02756800000000001,0.2015325,0.02805,-0.020346000000000003,-0.07504250000000001,0.00017999999999999982,-0.0004320000000000018,0.07504250000000001,-0.00018000000000000004,0.0004319999999999949,-0.1293975,-0.331964,-0.004795000000000001,0.12367249999999999,-0.339244,0.004281,-0.13556749999999998,-0.676404,0.030157999999999997,0.14196250000000002,-0.663914,0.02822
9,0.0197855,0.7408005,0.007146999999999994,-0.1614585,0.4551205,0.054478,-0.1863985,0.2255005,0.05512399999999999,0.1712615,0.46266050000000003,0.050793,0.1980315,0.2352205,0.051321,-0.19529849999999999,0.009499500000000001,-0.026417999999999997,0.2015615,0.028105500000000002,-0.020677,-0.07506850000000001,0.00020149999999999996,-0.00019300000000000567,0.07506850000000001,-0.00020150000000000007,0.00019299999999999873,-0.1292185,-0.3318495,-0.005105000000000005,0.12383150000000001,-0.3396095,0.004171999999999995,-0.1353885,-0.6765795,0.029847999999999996,0.1420515,-0.6637395,0.028149999999999994
10,0.01965,0.7428549999999999,0.011263000000000002,-0.161334,0.454835,0.055414000000000005,-0.186194,0.225125,0.056597,0.171276,0.462535,0.050776,0.198036,0.233955,0.050592,-0.195254,0.009151,-0.025062999999999995,0.201576,0.028092,-0.021399999999999995,-0.075081,0.0002149999999999999,0.00011900000000000105,0.075081,-0.00021500000000000002,-0.00011900000000000105,-0.129064,-0.331755,-0.005830999999999996,0.124066,-0.33998500000000004,0.003970000000000001,-0.135224,-0.676805,0.029293,0.142146,-0.663525,0.027620000000000002
11,0.019140499999999998,0.7445674999999999,0.014792000000000007,-0.1613005,0.4547275,0.056392000000000005,-0.18614050000000001,0.2247475,0.0577,0.1711395,0.4624275,0.05047600000000001,0.1980295,0.2326575,0.04972900000000001,-0.1952305,0.0099775,-0.024068999999999993,0.2015895,0.027966500000000002,-0.022263999999999992,-0.0750735,0.0002275,0.0005030000000000034,0.0750735,-0.0002275,-0.0005029999999999965,-0.1289405,-0.3316625,-0.0066869999999999916,0.12433949999999999,-0.3403325,0.003713000000000008,-0.1350805,-0.6769925000000001,0.028628000000000008,0.1422695,-0.6633125000000001,0.026955000000000007
12,0.018483499999999996,0.7458705,0.0175025,-0.1616405,0.45471049999999996,0.0569605,-0.18611049999999998,0.2243705,0.058622499999999994,0.1710195,0.46221049999999997,0.0501905,0.19804950000000002,0.2309205,0.0487035,-0.1952105,0.0106135,-0.022851500000000004,0.2015795,0.0276775,-0.0233185,-0.07506750000000001,0.0002455,0.0008345000000000019,0.07506750000000001,-0.0002455,-0.0008345000000000019,-0.12877049999999998,-0.3315495,-0.007690500000000003,0.1246795,-0.3407095,0.003327499999999997,-0.1349305,-0.6771595,0.0277755,0.1424695,-0.6631695,0.026091499999999997
13,0.017714999999999998,0.7466585,0.019236500000000004,-0.16208999999999998,0.4546985,0.0575285,-0.18616,0.2239685,0.05924750000000001,0.171,0.4620985,0.050072500000000006,0.19813,0.2292385,0.047586500000000004,-0.19533,0.0098735,-0.021959499999999993,0.20159000000000002,0.027275499999999998,-0.024495499999999996,-0.07508300000000001,0.0002545,0.0010835000000000011,0.07508300000000001,-0.00025449999999999995,-0.0010834999999999942,-0.12861,-0.3314815,-0.008661499999999996,0.12498000000000001,-0.34111149999999996,0.002984500000000001,-0.1348,-0.6773915,0.026953500000000005,0.14273,-0.6629315,0.025246500000000005
14,0.017152,0.7467484999999999,0.020854,-0.16214199999999998,0.4547185,0.058136,-0.18654199999999999,0.2243785,0.058189000000000005,0.170938,0.4620985,0.050098000000000004,0.198688,0.2301385,0.046429,-0.19567199999999998,0.0098735,-0.023018999999999998,0.201568,0.027781499999999997,-0.025903000000000002,-0.07511100000000001,0.0002545,0.0013200000000000017,0.07511100000000001,-0.00025449999999999995,-0.0013200000000000017,-0.128582,-0.3314815,-0.009606999999999997,0.125228,-0.3411315,0.002602,-0.134882,-0.6773915,0.026081,0.142858,-0.6628515,0.024178
15,0.016716,0.7467484999999999,0.022259,-0.16225099999999998,0.45478850000000004,0.058921,-0.186971,0.2249285,0.057220999999999994,0.170799,0.4620985,0.050234,0.199169,0.2311585,0.045348,-0.196201,0.0110585,-0.023984,0.201459,0.0283285,-0.027137,-0.075129,0.0002545,0.001464,0.075129,-0.00025449999999999995,-0.001464,-0.12859099999999998,-0.3314815,-0.010422,0.125439,-0.34118149999999997,0.0023320000000000007,-0.135021,-0.6773915,0.025280999999999998,0.142979,-0.6628215000000001,0.0232
16,0.016248,0.7467484999999999,0.0235275,-0.16252,0.4549785,0.0599825,-0.1875,0.2254285,0.0562785,0.17037,0.4620985,0.0504295,0.19912,0.2319785,0.0442465,-0.19704,0.013376500000000001,-0.0252565,0.20118,0.028860499999999997,-0.0282655,-0.07511899999999999,0.0002545,0.0016235000000000034,0.07511899999999999,-0.00025449999999999995,-0.0016235,-0.1288,-0.33146149999999996,-0.011178500000000001,0.12547,-0.3412615,0.002098500000000003,-0.13532,-0.6773915,0.024512500000000003,0.14289000000000002,-0.6628215000000001,0.022277500000000002
17,0.015835499999999995,0.7469965,0.025506,-0.16237449999999998,0.4552765,0.061278,-0.1917145,0.2296765,0.051642,0.1698755,0.4620365,0.050511,0.20153549999999998,0.23481649999999998,0.037233,-0.2051945,0.0241265,-0.038288,0.2061155,0.036898499999999994,-0.041215,-0.0751025,0.0002825,0.0018309999999999993,0.0751025,-0.0002825,-0.0018309999999999993,-0.12907449999999998,-0.3312135,-0.011691,0.12538549999999998,-0.3417635,0.0018390000000000004,-0.1357445,-0.6777135,0.023521,0.1426055,-0.6627435,0.021166
18,0.015407999999999998,0.747024,0.027491500000000002,-0.16179,0.45534399999999997,0.0625145,-0.19766,0.23542400000000002,0.0444445,0.16924,0.462084,0.0505905,0.20439000000000002,0.23830400000000002,0.027797500000000003,-0.21675,0.038016,-0.0576835,0.21343,0.049524,-0.0601425,-0.075086,0.00030199999999999997,0.0020595000000000023,0.075086,-0.00030199999999999997,-0.002059499999999999,-0.12945,-0.331156,-0.0120245,0.12512,-0.342156,0.0015434999999999997,-0.13623000000000002,-0.6782659999999999,0.0225925,0.14229999999999998,-0.6628959999999999,0.020157500000000002
19,0.014986999999999997,0.746784,0.0296865,-0.16094,0.45534399999999997,0.0635465,-0.20563,0.243284,0.035750500000000004,0.1686,0.462084,0.0503515,0.20897000000000002,0.244784,0.014826500000000001,-0.23044,0.057271999999999997,-0.0804845,0.22305,0.065924,-0.0830445,-0.075079,0.00030199999999999997,0.002356500000000001,0.075079,-0.00030199999999999997,-0.0023564999999999975,-0.12983999999999998,-0.331156,-0.012109500000000002,0.1247,-0.342156,0.0011964999999999996,-0.13672,-0.6789459999999999,0.021823500000000003,0.14208,-0.6631159999999999,0.019388500000000003
20,0.014596500000000002,0.746414,0.032122,-0.15988449999999998,0.455704,0.063677,-0.2159245,0.255634,0.024291,0.1679555,0.462084,0.049840999999999996,0.2151355,0.253934,0.00016199999999999895,-0.2473245,0.087007,-0.10732399999999999,0.23615550000000002,0.090797,-0.11029399999999999,-0.07509850000000001,0.00030199999999999997,0.002679000000000001,0.07509850000000001,-0.00030199999999999997,-0.002679000000000001,-0.1301945,-0.331046,-0.012142,0.12425550000000002,-0.342156,0.0007740000000000004,-0.1371745,-0.679576,0.020954,0.1418655,-0.663356,0.01849
21,0.014502999999999995,0.745884,0.034737000000000004,-0.15833,0.456374,0.063205,-0.22955,0.27616399999999997,0.010112,0.16751,0.462084,0.048881,0.22541,0.272984,-0.019554,-0.2682,0.12968400000000002,-0.13495000000000001,0.25187000000000004,0.131174,-0.14377,-0.075087,0.00030199999999999997,0.0031020000000000006,0.075087,-0.00030199999999999997,-0.0031020000000000006,-0.13031,-0.33068600000000004,-0.012002999999999996,0.12409999999999999,-0.342156,0.00041000000000000064,-0.13735,-0.680226,0.020069,0.14179,-0.663396,0.017468
22,0.0146295,0.745036,0.037317499999999997,-0.1564225,0.45739599999999997,0.062224499999999995,-0.24217249999999998,0.305226,-0.0033665000000000014,0.1672875,0.462796,0.0476775,0.2364375,0.30363599999999996,-0.0371295,-0.2874025,0.19046600000000002,-0.15908650000000002,0.2668075,0.191386,-0.17287650000000002,-0.0750495,0.00033,0.003505499999999998,0.0750495,-0.00033,-0.0035055000000000017,-0.1303525,-0.33040400000000003,-0.011969500000000001,0.12405750000000001,-0.342484,-6.850000000000259e-05,-0.1374025,-0.681404,0.0189925,0.1418075,-0.663854,0.016226499999999998
23,0.014692,0.7439605,0.039866,-0.154536,0.4584705,0.060987,-0.25452600000000003,0.3382105,-0.016328,0.167234,0.4638705,0.046448,0.246754,0.3385405,-0.053172,-0.305556,0.25946050000000004,-0.175036,0.280464,0.2602105,-0.19700600000000001,-0.075041,0.0003645,0.003959000000000001,0.075041,-0.0003645,-0.003959000000000001,-0.130306,-0.33034949999999996,-0.011968999999999997,0.12407399999999999,-0.3430795,-0.000562,-0.13742600000000002,-0.6830295,0.01788,0.14188399999999998,-0.6647095,0.01497
24,0.014703,0.7421654999999999,0.041976,-0.152752,0.4597155,0.059582,-0.26656199999999997,0.3807255,-0.028990999999999996,0.16691799999999998,0.46549549999999995,0.044882000000000005,0.25619800000000004,0.3826055,-0.06811,-0.32317199999999996,0.3411555,-0.19295600000000002,0.293018,0.3438155,-0.218256,-0.07503399999999999,0.00041049999999999984,0.004343,0.07503399999999999,-0.0004105000000000003,-0.004343,-0.13026200000000002,-0.3310445,-0.012095000000000002,0.12401799999999999,-0.3443645,-0.0011529999999999978,-0.137432,-0.6854945,0.016626000000000002,0.141988,-0.6665945,0.013573
25,0.014708000000000006,0.7402114999999999,0.043785,-0.150876,0.4612915,0.058301,-0.277956,0.4242615,-0.040556,0.166594,0.4672715,0.04316299999999999,0.264834,0.43116150000000003,-0.081511,-0.33972600000000003,0.4284815,-0.20844100000000002,0.304934,0.43289150000000004,-0.237321,-0.07502600000000001,0.0004475,0.004735999999999997,0.07502600000000001,-0.0004475,-0.004736000000000001,-0.130226,-0.3319785,-0.012106000000000006,0.123944,-0.3457785,-0.0016250000000000014,-0.137446,-0.6882685000000001,0.015494999999999998,0.14202399999999998,-0.6688985000000001,0.012280999999999999
26,0.014776499999999995,0.7378465,0.04460650000000001,-0.1494725,0.4631965,0.0570345,-0.28465250000000003,0.4690265,-0.04540949999999999,0.16632750000000002,0.4693865,0.041550500000000004,0.2695375,0.4766565,-0.0869075,-0.34765250000000003,0.5074665,-0.2091675,0.31003749999999997,0.5166665,-0.2384675,-0.0749605,0.00048450000000000056,0.004944500000000001,0.0749605,-0.0004844999999999997,-0.0049444999999999975,-0.13012250000000003,-0.3333735,-0.012157499999999995,0.12390749999999999,-0.3476535,-0.001962499999999999,-0.13728250000000003,-0.6909935,0.014691500000000003,0.1421575,-0.6713435,0.011344500000000002
27,0.0149175,0.735127,0.045080499999999996,-0.14829550000000002,0.465297,0.0558545,-0.2889255,0.513317,-0.046353500000000006,0.16592449999999997,0.472167,0.0398425,0.2729745,0.523937,-0.0885975,-0.3511555,0.591327,-0.2098775,0.3123745,0.597697,-0.23928750000000004,-0.0748815,0.0005050000000000002,0.0050925,0.0748815,-0.0005050000000000002,-0.0050925,-0.12998549999999998,-0.33512299999999995,-0.012241500000000002,0.12390450000000001,-0.349803,-0.002271499999999999,-0.13709549999999998,-0.694023,0.0139815,0.1423145,-0.674103,0.0104935
28,0.015099000000000005,0.7319169999999999,0.045307,-0.14722200000000002,0.46790699999999996,0.055015,-0.29077200000000003,0.556927,-0.046883999999999995,0.16548800000000002,0.474827,0.038565,0.274068,0.568917,-0.089177,-0.351872,0.674657,-0.21042699999999998,0.312588,0.679007,-0.23985700000000004,-0.074795,0.00046699999999999867,0.005168999999999998,0.074795,-0.0004670000000000004,-0.005169,-0.129762,-0.337343,-0.012237999999999999,0.123988,-0.352283,-0.0025650000000000013,-0.13685199999999997,-0.697473,0.013477,0.14256800000000003,-0.677393,0.009836
29,0.015200999999999996,0.7284655,0.0452985,-0.146347,0.4703755,0.053698499999999996,-0.29047700000000004,0.5971355,-0.0470805,0.16497299999999998,0.4779855,0.0375025,0.27436299999999997,0.6120355,-0.08937350000000001,-0.35153700000000004,0.7487655,-0.2083835,0.31288299999999997,0.7536455,-0.24005350000000003,-0.074697,0.00042050000000000073,0.005098500000000001,0.074697,-0.00042049999999999726,-0.005098499999999999,-0.129457,-0.3403045,-0.012203500000000003,0.124163,-0.3550245,-0.0027075000000000016,-0.136517,-0.7015245000000001,0.0133445,0.143063,-0.6812745,0.0096185
30,0.015242500000000003,0.725036,0.0452765,-0.1455645,0.47310599999999997,0.0529505,-0.2901445,0.630006,-0.0471085,0.1644655,0.48100599999999993,0.0365755,0.2746955,0.646616,-0.08940150000000001,-0.3509745,0.809366,-0.1961015,0.3133355,0.8143659999999999,-0.23398149999999998,-0.0745925,0.0003699999999999988,0.0050755,0.0745925,-0.0003699999999999988,-0.0050755,-0.1291145,-0.34351400000000004,-0.012231500000000003,0.12438550000000001,-0.35777400000000004,-0.0027335,-0.1361445,-0.7057140000000001,0.013379499999999999,0.1435955,-0.685194,0.0095885
31,0.015199,0.7218534999999999,0.045277,-0.14493099999999998,0.47594349999999996,0.052421999999999996,-0.289701,0.6553235,-0.044760999999999995,0.16395900000000002,0.48331349999999995,0.03587,0.275169,0.6721635,-0.085519,-0.350151,0.8539034999999999,-0.173529,0.312589,0.8570535,-0.219259,-0.074431,0.0002944999999999996,0.005072,0.074431,-0.0002944999999999996,-0.005072,-0.12867099999999998,-0.34689650000000005,-0.012239999999999997,0.124599,-0.3603065,-0.002738000000000001,-0.13571100000000003,-0.7096965000000001,0.013382999999999999,0.144129,-0.6890965,0.009517
32,0.015005500000000003,0.718883,0.045281,-0.1442355,0.479163,0.052201000000000004,-0.2880855,0.678123,-0.038096,0.1632045,0.485283,0.035262,0.2739345,0.694303,-0.07822699999999999,-0.3458155,0.890673,-0.150417,0.30802450000000003,0.8919630000000001,-0.197137,-0.0742215,0.00024500000000000216,0.005068000000000001,0.0742215,-0.0002449999999999987,-0.005068,-0.12818549999999998,-0.350247,-0.012248999999999996,0.1247945,-0.36255699999999996,-0.002740999999999997,-0.13526549999999998,-0.713627,0.013381,0.1447045,-0.692967,0.009392000000000001
33,0.0146405,0.716762,0.045049,-0.1435645,0.48291199999999995,0.052274,-0.2821445,0.691782,-0.027909,0.16221549999999998,0.48642199999999997,0.035141,0.2684255,0.707492,-0.064814,-0.3368245,0.915822,-0.12177899999999998,0.3011255,0.912182,-0.16728900000000002,-0.0740055,0.00016000000000000042,0.004978,0.0740055,-0.00016000000000000042,-0.004978,-0.1277045,-0.35304800000000003,-0.012224000000000002,0.12491550000000001,-0.364088,-0.002745000000000001,-0.1348345,-0.716958,0.013464,0.14525549999999998,-0.6962379999999999,0.009348
34,0.014131999999999999,0.714831,0.044765,-0.14303900000000003,0.486291,0.052684999999999996,-0.277119,0.705121,-0.018076,0.16090100000000002,0.48749099999999995,0.035357,0.26277100000000003,0.7162310000000001,-0.052994,-0.329069,0.9358810000000001,-0.095834,0.295141,0.927331,-0.14053400000000002,-0.073795,8.49999999999948e-05,0.004902999999999999,0.073795,-8.500000000000174e-05,-0.004903000000000001,-0.127259,-0.355759,-0.012025000000000004,0.124991,-0.365649,-0.0025790000000000014,-0.13444899999999999,-0.7201489999999999,0.013883999999999999,0.14576099999999997,-0.699549,0.009624999999999998
35,0.013578999999999999,0.71321,0.0443755,-0.142567,0.48939,0.0531855,-0.272117,0.71244,-0.008316500000000001,0.159383,0.48824999999999996,0.0356965,0.25760299999999997,0.7232299999999999,-0.0421525,-0.322457,0.95561,-0.07473850000000001,0.29040299999999997,0.93987,-0.1175705,-0.073596,3.0000000000030003e-06,0.004862499999999999,0.073596,-3.0000000000030003e-06,-0.004862500000000002,-0.126897,-0.35817,-0.011775500000000001,0.12499299999999999,-0.36683,-0.0023835,-0.134127,-0.72285,0.0143865,0.146123,-0.7025100000000001,0.010017499999999999
36,0.012944,0.7119679999999999,0.044365,-0.142272,0.49208799999999997,0.054112,-0.26740200000000003,0.719208,0.0013830000000000023,0.15766799999999997,0.48848800000000003,0.036204,0.252918,0.727708,-0.031803,-0.317342,0.966978,-0.053082000000000004,0.286638,0.950928,-0.097274,-0.073433,-0.00011399999999999605,0.004900000000000002,0.073433,0.00011400000000000299,-0.004899999999999998,-0.12659199999999998,-0.36004200000000003,-0.011559,0.124958,-0.36760200000000004,-0.0022649999999999997,-0.13379200000000002,-0.724892,0.014922000000000001,0.146418,-0.704692,0.010408
37,0.012221500000000007,0.7111545,0.0442825,-0.14211649999999998,0.4944645,0.0549835,-0.26350650000000003,0.7245345,0.0103965,0.15595350000000002,0.4888945,0.0365135,0.24871350000000003,0.7315345,-0.022408499999999998,-0.3131665,0.9735945,-0.0332485,0.2833535,0.9578745,-0.07834749999999999,-0.0732955,-0.00019049999999999623,0.004911499999999999,0.0732955,0.00019050000000000317,-0.004911499999999999,-0.12635649999999998,-0.3615255,-0.0115655,0.1249035,-0.36814549999999996,-0.002375499999999999,-0.13351649999999998,-0.7265555,0.0152575,0.14663350000000003,-0.7064855,0.0106275
38,0.011360000000000002,0.7108185,0.0439965,-0.142048,0.4962285,0.0556295,-0.26026799999999994,0.7287985,0.0181245,0.15432200000000001,0.48884849999999996,0.0365465,0.244952,0.7344185000000001,-0.014727499999999998,-0.310048,0.9786985,-0.016127499999999996,0.28149199999999996,0.9628985,-0.0644265,-0.073216,-0.0003135000000000013,0.0049125,0.073216,0.0003135000000000013,-0.0049125,-0.126228,-0.36272150000000003,-0.011928500000000002,0.124802,-0.3686015,-0.0028135,-0.133438,-0.7279215,0.015234500000000002,0.146752,-0.7079915,0.010516500000000002
39,0.010136000000000003,0.7105360000000001,0.0437545,-0.142128,0.49789599999999995,0.0566965,-0.257768,0.7324459999999999,0.0253965,0.152722,0.48887600000000003,0.0367405,0.241422,0.7366760000000001,-0.0072885,-0.308158,0.9833160000000001,-0.0011625000000000003,0.27990200000000004,0.9666160000000001,-0.0492665,-0.07314899999999999,-0.0004600000000000021,0.004911499999999999,0.07314899999999999,0.0004600000000000021,-0.004911499999999999,-0.125998,-0.364104,-0.0122875,0.12476200000000001,-0.368994,-0.0032715,-0.133298,-0.7300439999999999,0.0150615,0.147042,-0.7101740000000001,0.0103605
40,0.008796000000000002,0.7103835,0.043616,-0.14227700000000001,0.4990535,0.057775,-0.255837,0.7351934999999999,0.031668,0.151023,0.48908350000000006,0.036964,0.23841299999999999,0.7383434999999999,-0.0008139999999999988,-0.306967,0.9860035,0.011151000000000001,0.279453,0.9687034999999999,-0.038162,-0.07311999999999999,-0.0006084999999999979,0.004910999999999999,0.07311999999999999,0.0006085000000000049,-0.004910999999999999,-0.12587700000000002,-0.36534649999999996,-0.012598999999999999,0.124723,-0.3695965,-0.003612999999999998,-0.133227,-0.7318965000000001,0.014872,0.147263,-0.7120865000000001,0.010205
41,0.007382500000000004,0.710444,0.0436065,-0.1423855,0.4999739999999999,0.0585745,-0.2547155,0.736714,0.0361535,0.1494745,0.48933399999999994,0.0370205,0.2364445,0.739074,0.004092499999999999,-0.30682550000000003,0.987934,0.0193495,0.2794745,0.9701339999999999,-0.0297305,-0.0731015,-0.0007479999999999987,0.004947499999999997,0.0731015,0.0007479999999999987,-0.0049475000000000005,-0.1256755,-0.36637600000000003,-0.012795500000000001,0.1246945,-0.370216,-0.003912500000000003,-0.13313550000000002,-0.733446,0.014636499999999998,0.1475245,-0.713736,0.010006499999999998
42,0.005984999999999999,0.710406,0.043408,-0.14251399999999997,0.5000760000000001,0.05892,-0.25440399999999996,0.737986,0.039441000000000004,0.14799600000000002,0.489386,0.036912,0.23497600000000002,0.739356,0.007939,-0.306724,0.987326,0.025109,0.27956600000000004,0.971526,-0.022639000000000003,-0.073086,-0.0008739999999999998,0.005021000000000001,0.073086,0.0008739999999999998,-0.005021000000000001,-0.12547399999999997,-0.36740399999999995,-0.013107999999999998,0.124676,-0.37082400000000004,-0.004490000000000001,-0.13301400000000002,-0.7349439999999999,0.014173,0.14778599999999997,-0.715324,0.009616
43,0.0045499999999999985,0.7104655,0.042945,-0.142646,0.5001755,0.058986,-0.254356,0.7384955,0.041928999999999994,0.146884,0.4895054999999999,0.036553,0.233824,0.7394054999999999,0.010989999999999998,-0.30667599999999995,0.9867855,0.029511,0.27963400000000005,0.9722855,-0.016989999999999998,-0.073056,-0.0009814999999999963,0.005180999999999998,0.073056,0.0009815000000000032,-0.005181000000000002,-0.125266,-0.3684845,-0.013603000000000004,0.124704,-0.3713645,-0.005446000000000003,-0.132876,-0.7363845,0.013440999999999998,0.148034,-0.7167645,0.008948
44,0.0032464999999999972,0.7104215,0.0421585,-0.1428115,0.5003415,0.0589315,-0.2542315,0.7389114999999999,0.043576500000000004,0.1459685,0.48955150000000003,0.0358445,0.2330585,0.7394215,0.0132895,-0.3068415,0.9862415,0.0321145,0.2798085,0.9726414999999999,-0.0129435,-0.07302249999999999,-0.001071499999999996,0.005412499999999999,0.07302249999999999,0.001071500000000003,-0.005412500000000001,-0.1249015,-0.3697185,-0.014472500000000003,0.12493850000000001,-0.37190850000000003,-0.006780500000000002,-0.13260149999999998,-0.7378885000000001,0.012289499999999998,0.1484585,-0.7181385,0.007894499999999999
45,0.0018490000000000013,0.7105105,0.0411435,-0.143079,0.5007205,0.058539499999999994,-0.254139,0.7392705,0.0443465,0.14515099999999997,0.48961050000000006,0.0349325,0.232771,0.7392705,0.0147465,-0.307189,0.9856405,0.0330135,0.280001,0.9721405,-0.0097075,-0.072986,-0.0011125000000000024,0.005709499999999999,0.072986,0.0011125000000000024,-0.005709499999999999,-0.12447899999999999,-0.3709995,-0.015644500000000002,0.125221,-0.3726195,-0.008507500000000001,-0.13232899999999997,-0.7394195,0.010784499999999999,0.148841,-0.7194794999999999,0.0065395
46,0.00038399999999999546,0.7106275,0.039716,-0.143467,0.5011875,0.057602,-0.254097,0.7396975,0.044017,0.144403,0.48968749999999994,0.033613,0.23256300000000002,0.7392075,0.015280999999999998,-0.307497,0.9841374999999999,0.032823,0.28018299999999996,0.9717374999999999,-0.007824000000000001,-0.072965,-0.0011665000000000009,0.006023999999999998,0.072965,0.0011665000000000009,-0.006024000000000002,-0.124047,-0.3722525,-0.017344000000000005,0.12545299999999998,-0.3734425,-0.010897000000000004,-0.13203700000000002,-0.7408725,0.008651999999999996,0.149223,-0.7207725,0.004484999999999998
47,-0.001074000000000005,0.710739,0.037953,-0.143969,0.501549,0.056421,-0.25449900000000003,0.740159,0.042963,0.143531,0.48980899999999994,0.032039,0.232531,0.739119,0.015016999999999997,-0.307899,0.982719,0.031527,0.280511,0.9713189999999999,-0.007284000000000002,-0.072961,-0.001239000000000004,0.006244999999999999,0.072961,0.001238999999999997,-0.0062450000000000006,-0.123699,-0.373521,-0.019427,0.125611,-0.37465099999999996,-0.013857000000000001,-0.131819,-0.7422810000000001,0.006079999999999999,0.149521,-0.721991,0.0019679999999999975
48,-0.0020785000000000014,0.710989,0.0356785,-0.1446525,0.502129,0.0553775,-0.2549625,0.740799,0.0405405,0.1427875,0.489869,0.0303745,0.23254750000000002,0.739029,0.0133495,-0.30790249999999997,0.982539,0.029095500000000003,0.2810775,0.9715389999999999,-0.008961499999999999,-0.07298750000000001,-0.0013200000000000017,0.0063845,0.07298750000000001,0.0013200000000000017,-0.0063844999999999996,-0.12356249999999999,-0.373701,-0.021746499999999995,0.1256075,-0.375451,-0.0169365,-0.13182249999999998,-0.742461,0.0034254999999999997,0.14950750000000002,-0.722171,-0.0007205000000000007
49,-0.002860999999999998,0.711196,0.033261,-0.145221,0.502756,0.054377999999999996,-0.255101,0.741146,0.037891,0.142309,0.48988600000000004,0.028595000000000002,0.232679,0.7389560000000001,0.011234,-0.30778099999999997,0.9824660000000001,0.026441,0.28202900000000003,0.9717660000000001,-0.011500000000000002,-0.072991,-0.0013930000000000053,0.0065309999999999995,0.072991,0.0013929999999999984,-0.006531,-0.123331,-0.37392400000000003,-0.024247000000000005,0.125719,-0.37613399999999997,-0.020149,-0.131691,-0.742534,0.0005979999999999996,0.149629,-0.722244,-0.003649000000000001
50,-0.003293500000000003,0.7113915,0.030851000000000003,-0.1456255,0.5033814999999999,0.053368,-0.2549755,0.7415915,0.035248,0.14212450000000001,0.4898515,0.026784000000000002,0.2329445,0.7389215,0.008788,-0.3075155,0.9824315,0.023795000000000004,0.2832645,0.9720315,-0.014164999999999999,-0.0730105,-0.0014274999999999982,0.006649,0.0730105,0.0014275000000000052,-0.006649,-0.12303549999999999,-0.37415849999999995,-0.026712,0.1259745,-0.37696850000000004,-0.023308000000000002,-0.1314055,-0.7425685000000001,-0.002246999999999999,0.1499045,-0.7222785,-0.006579999999999999
51,-0.0034925000000000017,0.7112795000000001,0.028383000000000002,-0.1458235,0.5045895,0.052143999999999996,-0.2546735,0.7419695000000001,0.032499,0.1421365,0.4899395,0.024919,0.2338565,0.7384795000000001,0.006123000000000001,-0.3067935,0.9830795000000001,0.020181,0.2850765,0.9717795,-0.016897,-0.07302149999999999,-0.001305500000000001,0.006756000000000001,0.07302149999999999,0.001305500000000001,-0.006756,-0.12266350000000001,-0.3750805,-0.029199,0.1263365,-0.3787205,-0.026349,-0.1310135,-0.7432305,-0.0051129999999999995,0.1503165,-0.7232205,-0.009609999999999999
52,-0.003488499999999997,0.7112065,0.025655999999999998,-0.1459455,0.5060264999999999,0.050807,-0.2542455,0.7422964999999999,0.029356,0.14232450000000002,0.4900265,0.022765,0.2351145,0.7379865,0.003091,-0.3058555,0.9841864999999999,0.015880000000000002,0.2872745,0.9713864999999999,-0.019946000000000002,-0.0730335,-0.0011504999999999987,0.006786,0.0730335,0.0011504999999999987,-0.006786,-0.12223550000000001,-0.3759435,-0.031995,0.1266645,-0.38036349999999997,-0.029588,-0.13053549999999997,-0.7437535000000001,-0.008341000000000001,0.15077449999999998,-0.7239935000000001,-0.012956
53,-0.0032110000000000046,0.7111695,0.022949999999999998,-0.145741,0.5076195,0.049326,-0.253701,0.7426995,0.026206,0.142699,0.49024950000000006,0.020711999999999998,0.23663900000000002,0.7375995,0.00012399999999999998,-0.304641,0.9844695,0.011191,0.289779,0.9705695,-0.023506000000000003,-0.073041,-0.0009645000000000001,0.0067540000000000005,0.073041,0.0009645000000000001,-0.0067540000000000005,-0.12168100000000001,-0.37683049999999996,-0.034716000000000004,0.127059,-0.38194049999999996,-0.032705,-0.129941,-0.7440505000000001,-0.011467999999999999,0.15140900000000002,-0.7245705,-0.016274
54,-0.0027214999999999982,0.7111175000000001,0.020234,-0.1454145,0.5086975,0.04782,-0.2531745,0.7431475,0.023009,0.14324550000000003,0.49007750000000005,0.018697000000000002,0.23827550000000003,0.7372575,-0.002855,-0.30336450000000004,0.9853274999999999,0.006562999999999999,0.2922855,0.9696275000000001,-0.027518,-0.0730495,-0.0007655000000000023,0.006673999999999999,0.0730495,0.0007655000000000023,-0.006673999999999999,-0.1211445,-0.3776025,-0.037445000000000006,0.1273355,-0.3835625,-0.035707,-0.1293645,-0.7441725,-0.014586,0.15201550000000003,-0.7249525,-0.019604999999999997
55,-0.0022219999999999965,0.711038,0.017687,-0.14503,0.509458,0.046258,-0.25256,0.743498,0.019921,0.14385,0.48982800000000004,0.016710000000000003,0.24,0.736998,-0.005773,-0.30199,0.986478,0.0023809999999999994,0.29476,0.9685779999999999,-0.03164,-0.07303699999999999,-0.0005889999999999992,0.006548,0.07303699999999999,0.0005889999999999992,-0.006548,-0.12068000000000001,-0.378222,-0.040086000000000004,0.12756,-0.384982,-0.038524,-0.12884,-0.744212,-0.017513,0.15256999999999998,-0.725332,-0.022526
56,-0.001988499999999997,0.711056,0.0153755,-0.14481149999999998,0.509946,0.0446195,-0.25214149999999996,0.743406,0.0169705,0.1444185,0.489576,0.014721499999999998,0.2414985,0.736796,-0.0086175,-0.3005115,0.986086,-0.0017445000000000013,0.2969985,0.967686,-0.035971500000000003,-0.0730725,-0.0004969999999999974,0.006432500000000001,0.0730725,0.0004970000000000044,-0.006432500000000001,-0.12054150000000001,-0.378694,-0.0425625,0.1276085,-0.385984,-0.041176500000000005,-0.1285715,-0.743984,-0.0202355,0.15277849999999998,-0.725604,-0.0252745
57,-0.001961499999999998,0.7110225,0.0132685,-0.14478149999999998,0.5099525,0.042582499999999995,-0.2517415,0.7433725,0.0141525,0.14481850000000002,0.4895425,0.012616500000000001,0.2426685,0.7366125,-0.0114895,-0.29928150000000003,0.9860525,-0.0056815,0.29900849999999995,0.9666524999999999,-0.0403765,-0.07312550000000001,-0.00046349999999999864,0.006418499999999999,0.07312550000000001,0.00046349999999999864,-0.0064185,-0.1206515,-0.3790675,-0.044999500000000005,0.1275385,-0.3865275,-0.0437375,-0.12852149999999998,-0.7436275,-0.0228445,0.1527985,-0.7258575,-0.0279265
58,-0.001862,0.7110225,0.011317,-0.14482499999999998,0.5099525,0.040378,-0.251265,0.7433725,0.011459999999999998,0.14530500000000002,0.4895425,0.010549,0.243845,0.7362825,-0.014372000000000001,-0.298145,0.9867524999999999,-0.009402,0.300945,0.9656525,-0.044721,-0.073126,-0.00046349999999999864,0.00639,0.073126,0.00046349999999999864,-0.006390000000000002,-0.120815,-0.3793375,-0.047282000000000005,0.127495,-0.3870375,-0.046113,-0.12861499999999998,-0.7431675,-0.025277,0.152765,-0.7260175,-0.030302000000000003
59,-0.0016940000000000002,0.71107,0.009141,-0.144874,0.51,0.037826,-0.250514,0.7434,0.008462,0.146146,0.48932999999999993,0.008175000000000002,0.24509599999999998,0.7357899999999999,-0.017638,-0.29677400000000004,0.9867999999999999,-0.014367,0.303056,0.9646999999999999,-0.049628000000000005,-0.073126,-0.0004159999999999997,0.006381999999999999,0.073126,0.0004159999999999997,-0.006381999999999999,-0.120934,-0.37952,-0.049833,0.127446,-0.38703000000000004,-0.04868599999999999,-0.128724,-0.7426400000000001,-0.028014999999999998,0.15271600000000002,-0.72613,-0.03304
60,-0.0014434999999999951,0.710985,0.006892000000000002,-0.14464449999999998,0.510105,0.035175000000000005,-0.2498545,0.743265,0.005527000000000004,0.1473055,0.488845,0.005609000000000003,0.2464955,0.735055,-0.021057,-0.2957145,0.9869049999999999,-0.019329999999999996,0.30526549999999997,0.9648049999999999,-0.054916,-0.0731275,-0.0003109999999999988,0.006315000000000001,0.0731275,0.0003109999999999988,-0.006314999999999998,-0.1209845,-0.379685,-0.052478,0.1273955,-0.386925,-0.051330999999999995,-0.1287945,-0.7425350000000001,-0.031016999999999996,0.1526955,-0.726205,-0.035843
61,-0.0012230000000000045,0.7107225,0.0048885000000000005,-0.144376,0.5099125,0.0328965,-0.24933600000000003,0.7430625000000001,0.002885499999999999,0.148494,0.48825250000000003,0.0033114999999999985,0.24767399999999998,0.7342025000000001,-0.0240595,-0.294836,0.9870125,-0.023862500000000002,0.307284,0.9647125,-0.0600365,-0.073207,-0.0001805000000000001,0.006269500000000001,0.073207,0.0001805000000000001,-0.006269500000000001,-0.12120600000000001,-0.3793675,-0.0549075,0.127254,-0.38681750000000004,-0.0536025,-0.128976,-0.7423075,-0.033827499999999996,0.152434,-0.7261274999999999,-0.0382965
62,-0.0010790000000000027,0.710328,0.002828999999999998,-0.144201,0.509568,0.030692999999999998,-0.249031,0.742828,0.0002610000000000008,0.149649,0.48755800000000005,0.0010989999999999993,0.248769,0.733238,-0.027049,-0.294051,0.9871479999999999,-0.028558,0.309139,0.964448,-0.065068,-0.07328499999999999,-7.800000000000168e-05,0.006203,0.07328499999999999,7.800000000000168e-05,-0.006203,-0.121561,-0.37936200000000003,-0.057414,0.127129,-0.386382,-0.055924,-0.12932100000000002,-0.742162,-0.036566,0.15195899999999998,-0.726092,-0.040657
63,-0.0010120000000000025,0.7098965,0.0008184999999999998,-0.14407599999999998,0.5089665,0.0285595,-0.24877599999999997,0.7423465,-0.0023675000000000015,0.150754,0.4867665,-0.0009705000000000026,0.249804,0.7324165,-0.0299735,-0.293376,0.9851565,-0.0332695,0.31106399999999995,0.9639565000000001,-0.0701065,-0.073376,-3.849999999999687e-05,0.006076499999999999,0.073376,3.850000000000381e-05,-0.006076500000000002,-0.12201599999999999,-0.3791535,-0.059867500000000004,0.127124,-0.3865635,-0.0584425,-0.129716,-0.7416635,-0.0393075,0.151614,-0.7257735,-0.0429435
64,-0.0007910000000000035,0.709514,-0.001004999999999999,-0.143809,0.508124,0.026279999999999998,-0.24829900000000002,0.7418440000000001,-0.005032999999999999,0.151961,0.48599400000000004,-0.002697999999999999,0.251121,0.731664,-0.032907,-0.29247900000000004,0.9829040000000001,-0.038518,0.31315099999999996,0.9609040000000001,-0.07541300000000001,-0.073469,-7.000000000000062e-06,0.005970999999999997,0.073469,7.000000000000062e-06,-0.005971000000000001,-0.12253900000000001,-0.378966,-0.062243,0.12712099999999998,-0.386436,-0.061265,-0.130429,-0.741076,-0.041861,0.15113100000000002,-0.725426,-0.045058
65,-0.000592999999999998,0.7086629999999999,-0.002728999999999999,-0.14364899999999997,0.507243,0.024029,-0.24787899999999996,0.7410329999999999,-0.007946000000000002,0.152901,0.485043,-0.004399,0.252591,0.730563,-0.036155,-0.291889,0.9807429999999999,-0.043589,0.315091,0.957543,-0.080587,-0.073556,2.6999999999999247e-05,0.005888000000000001,0.073556,-2.6999999999999247e-05,-0.005888000000000001,-0.123179,-0.379267,-0.065551,0.127061,-0.386317,-0.064853,-0.13126900000000002,-0.740467,-0.04439,0.150461,-0.7251270000000001,-0.047261
66,-0.0003550000000000007,0.707518,-0.004279999999999999,-0.143533,0.506698,0.021891,-0.247223,0.739368,-0.010894000000000001,0.153287,0.484378,-0.006065000000000001,0.25411700000000004,0.729518,-0.039312,-0.291133,0.978628,-0.048802,0.316987,0.9559280000000001,-0.085485,-0.073634,6.0000000000004494e-05,0.005742000000000004,0.073634,-5.9999999999997555e-05,-0.005742000000000001,-0.12382299999999999,-0.38002199999999997,-0.06894700000000001,0.127077,-0.385982,-0.069341,-0.132123,-0.739822,-0.046667,0.149767,-0.724812,-0.049427
67,-7.050000000000025e-05,0.705964,-0.005953,-0.14341749999999998,0.506414,0.020041000000000003,-0.2466175,0.737944,-0.013856999999999998,0.1532525,0.483564,-0.007698,0.2557825,0.728034,-0.042616,-0.2904075,0.9764039999999999,-0.054089,0.3188925,0.953044,-0.09043,-0.0736995,9.599999999999886e-05,0.005609000000000003,0.0736995,-9.60000000000058e-05,-0.005608999999999999,-0.1245875,-0.380616,-0.073107,0.12706250000000002,-0.385366,-0.074662,-0.1330175,-0.738936,-0.048803,0.14904250000000002,-0.724396,-0.051712999999999995
68,0.0003914999999999997,0.704182,-0.007595499999999998,-0.1428025,0.505012,0.018717500000000005,-0.2460125,0.736442,-0.0170775,0.1533475,0.48248199999999997,-0.008802499999999998,0.25738750000000005,0.726122,-0.0458495,-0.2896625,0.9752120000000001,-0.058770499999999996,0.3208075,0.950652,-0.0950075,-0.0737825,0.0001500000000000043,0.005518500000000003,0.0737825,-0.00014999999999999736,-0.005518499999999999,-0.1257025,-0.38106799999999996,-0.0781925,0.1271275,-0.38440799999999997,-0.0807855,-0.1338725,-0.737228,-0.0507595,0.1482575,-0.723208,-0.0539105
69,0.0008000000000000006,0.7027285000000001,-0.009187999999999998,-0.142061,0.5036885000000001,0.017615000000000006,-0.24540099999999998,0.7354185000000001,-0.020145999999999997,0.15313900000000003,0.48179849999999996,-0.009687999999999999,0.258719,0.7246085,-0.048797999999999994,-0.288931,0.9743085,-0.06344,0.322779,0.9484885000000001,-0.098878,-0.073863,0.00018649999999999917,0.005431999999999999,0.073863,-0.00018649999999999917,-0.005431999999999996,-0.126851,-0.3813615,-0.083293,0.12715900000000002,-0.3829015,-0.08698,-0.13467099999999999,-0.7351814999999999,-0.052279,0.14747900000000003,-0.7215615,-0.056116
70,0.0012140000000000041,0.701352,-0.011026000000000001,-0.14127499999999998,0.502692,0.016524999999999998,-0.244755,0.735002,-0.023453,0.152835,0.48063200000000006,-0.010596000000000001,0.259955,0.722642,-0.052054,-0.288105,0.973922,-0.068284,0.32455500000000004,0.945622,-0.104184,-0.07394300000000001,0.00019199999999999773,0.005315,0.07394300000000001,-0.00019200000000000467,-0.005315,-0.12814499999999998,-0.381148,-0.08877299999999999,0.127205,-0.380598,-0.093774,-0.13549499999999998,-0.7322379999999999,-0.053605,0.14677500000000002,-0.718988,-0.058392
71,0.0015729999999999982,0.6992375,-0.013563500000000003,-0.140551,0.5020375,0.015135499999999996,-0.244101,0.7337075,-0.0275425,0.152469,0.47983750000000003,-0.0118825,0.261079,0.7209575,-0.0560705,-0.287331,0.9732775,-0.07351650000000001,0.326179,0.9434975,-0.10940749999999999,-0.07403,0.00017350000000000004,0.005153499999999998,0.07403,-0.00017350000000000004,-0.005153500000000002,-0.129581,-0.3809925,-0.0951205,0.127239,-0.3785425,-0.10146650000000002,-0.136441,-0.7286925,-0.0553935,0.14604899999999998,-0.7161725,-0.0609465
72,0.001913000000000004,0.697745,-0.016265,-0.139915,0.5009349999999999,0.013378000000000001,-0.243505,0.7332449999999999,-0.031892000000000004,0.152205,0.47883500000000007,-0.013484000000000003,0.262085,0.7192149999999999,-0.060202000000000006,-0.28652500000000003,0.973855,-0.07889399999999999,0.327625,0.942515,-0.114455,-0.074107,0.0001899999999999992,0.005090999999999998,0.074107,-0.00019000000000000267,-0.005091000000000002,-0.131125,-0.379755,-0.101771,0.127235,-0.375765,-0.109208,-0.137405,-0.724005,-0.057186,0.145345,-0.712145,-0.06371
73,0.0020139999999999976,0.69611,-0.019171499999999998,-0.139429,0.50001,0.0115665,-0.243209,0.73295,-0.0362915,0.151891,0.47767,-0.015276499999999998,0.262891,0.71726,-0.0644225,-0.28602900000000003,0.97471,-0.0837995,0.328321,0.94329,-0.1191745,-0.07419500000000001,0.0001820000000000016,0.0050305,0.07419500000000001,-0.00018199999999999814,-0.0050305,-0.132719,-0.37817999999999996,-0.1087285,0.127271,-0.37242,-0.1169085,-0.13808900000000002,-0.71875,-0.0588505,0.144871,-0.7073400000000001,-0.0666455
74,0.002038000000000002,0.694508,-0.0221425,-0.138976,0.49871799999999994,0.0096575,-0.24291600000000002,0.732858,-0.0408295,0.151644,0.47714799999999996,-0.017044499999999997,0.263554,0.715638,-0.0688285,-0.285526,0.975958,-0.08900949999999999,0.328964,0.945538,-0.1244325,-0.074291,0.000168999999999999,0.004955500000000002,0.074291,-0.00016900000000000075,-0.004955499999999998,-0.13436599999999999,-0.375082,-0.1153845,0.127344,-0.36848200000000003,-0.1244195,-0.138766,-0.7122919999999999,-0.060588499999999997,0.14444400000000002,-0.701032,-0.0698105
75,0.0019344999999999979,0.69269,-0.025336000000000004,-0.1383215,0.49729,0.007635999999999997,-0.2426915,0.7333299999999999,-0.045585,0.15148849999999997,0.47674999999999995,-0.018850000000000006,0.2642385,0.71433,-0.07343,-0.2850715,0.97703,-0.094547,0.3297585,0.94819,-0.129992,-0.0743355,0.00012299999999999985,0.004845999999999996,0.0743355,-0.00012299999999999985,-0.004846000000000003,-0.1358315,-0.37137000000000003,-0.12221,0.1275285,-0.36404000000000003,-0.131381,-0.13930150000000002,-0.7059,-0.062385,0.1441485,-0.6945100000000001,-0.073189
76,0.0017875000000000005,0.691539,-0.029026499999999997,-0.1378525,0.495469,0.004885500000000001,-0.24251250000000002,0.733279,-0.051045499999999994,0.15102749999999998,0.476319,-0.0212025,0.2640675,0.713129,-0.07845949999999999,-0.28492249999999997,0.979179,-0.1015475,0.3302975,0.943299,-0.1380205,-0.0744155,0.00017199999999999984,0.004638500000000004,0.0744155,-0.00017199999999999984,-0.004638499999999997,-0.13733250000000002,-0.366521,-0.1291025,0.1276175,-0.35835100000000003,-0.1380305,-0.13990249999999999,-0.697901,-0.0647615,0.1437775,-0.686031,-0.0765405
77,0.0016219999999999997,0.6901915000000001,-0.03285300000000001,-0.13793,0.4951115,0.001899999999999992,-0.24234,0.7336815,-0.056258,0.15058,0.4759315,-0.023830000000000004,0.26388,0.7121615,-0.083319,-0.28506000000000004,0.9809215,-0.107972,0.33079,0.9384415,-0.145611,-0.074512,0.00023950000000000013,0.004486999999999998,0.074512,-0.00023950000000000013,-0.004487000000000005,-0.13843,-0.3613585,-0.13489600000000002,0.12761,-0.35254850000000004,-0.14381100000000002,-0.14046999999999998,-0.6903585,-0.06711500000000001,0.14345999999999998,-0.6777685,-0.079543
78,0.0015254999999999995,0.688419,-0.037512500000000004,-0.1379905,0.495769,-0.0016164999999999999,-0.2422105,0.731569,-0.0627055,0.1500795,0.47628899999999996,-0.0269985,0.2637695,0.711499,-0.08948249999999999,-0.28518049999999995,0.980349,-0.1163245,0.33117949999999996,0.935219,-0.1541195,-0.0746655,0.00032100000000000184,0.004341499999999998,0.0746655,-0.00032099999999999837,-0.004341499999999998,-0.13957050000000001,-0.35523099999999996,-0.1416895,0.1276995,-0.345981,-0.1503495,-0.1409505,-0.6808409999999999,-0.0700795,0.1431195,-0.6677109999999999,-0.0825525
79,0.001496999999999998,0.687262,-0.0421155,-0.13783099999999998,0.494212,-0.0061804999999999985,-0.24212099999999998,0.7290319999999999,-0.0690095,0.14946900000000002,0.476052,-0.0309815,0.263689,0.710882,-0.09533349999999999,-0.285261,0.975622,-0.1263465,0.331449,0.9338120000000001,-0.16127750000000002,-0.074782,0.00041000000000000064,0.004195500000000005,0.074782,-0.00041000000000000064,-0.004195499999999998,-0.140571,-0.344008,-0.1484375,0.12789899999999998,-0.335978,-0.1564975,-0.14131100000000002,-0.6708879999999999,-0.0729895,0.14282899999999998,-0.6571180000000001,-0.08458550000000001
80,0.0013795000000000038,0.6867695,-0.046472,-0.13758949999999998,0.49282950000000003,-0.010524000000000002,-0.24180949999999998,0.7276195,-0.074874,0.14884050000000001,0.4756695,-0.034862000000000004,0.26355049999999997,0.7101695,-0.100989,-0.2852795,0.9722495,-0.135719,0.3317905,0.9325995,-0.168688,-0.07493849999999999,0.0005275000000000002,0.004073,0.07493849999999999,-0.0005275000000000002,-0.004073,-0.1414095,-0.3319005,-0.154468,0.1280705,-0.32488049999999996,-0.16192800000000002,-0.1414895,-0.6605205,-0.075457,0.1422605,-0.6459604999999999,-0.087095
81,0.001386500000000003,0.687089,-0.0551135,-0.1372805,0.493229,-0.0186925,-0.2414105,0.727019,-0.0848505,0.1482695,0.476789,-0.0426805,0.2635595,0.710759,-0.11101549999999999,-0.28538050000000004,0.969979,-0.1492315,0.3321495,0.931989,-0.18070150000000001,-0.0751905,0.000669999999999997,0.0040795,0.0751905,-0.000669999999999997,-0.0040795,-0.1421905,-0.319231,-0.1646815,0.1283195,-0.312901,-0.1716115,-0.1415705,-0.649121,-0.0818825,0.1416795,-0.633931,-0.0933045
82,0.0015884999999999999,0.6880805,-0.0630515,-0.13682350000000001,0.4929705,-0.0267125,-0.2411035,0.7265305,-0.0944545,0.1479265,0.4773905,-0.0500235,0.2637265,0.7092505,-0.1205115,-0.2852135,0.9682605,-0.1621975,0.3323365,0.9308105,-0.1919675,-0.07546549999999999,0.0009195000000000036,0.004059500000000001,0.07546549999999999,-0.0009195000000000036,-0.004059500000000001,-0.1428335,-0.3067595,-0.1766975,0.1290165,-0.3009395,-0.1829475,-0.1414435,-0.6368595,-0.0875415,0.14078649999999998,-0.6224495,-0.09857550000000001
83,0.0016384999999999982,0.688411,-0.070633,-0.1364405,0.49348099999999995,-0.033939,-0.2409005,0.721541,-0.10331699999999999,0.1474395,0.477861,-0.056741,0.26326950000000005,0.708001,-0.12895099999999998,-0.2854405,0.963701,-0.174498,0.3322395,0.929141,-0.202918,-0.0758195,0.0011049999999999949,0.0038720000000000004,0.0758195,-0.0011049999999999949,-0.0038720000000000004,-0.1434305,-0.295859,-0.187458,0.1295995,-0.289689,-0.19312800000000002,-0.1413805,-0.624849,-0.09237000000000001,0.1398095,-0.611949,-0.102433
84,0.001871500000000002,0.6891849999999999,-0.077722,-0.1359595,0.494735,-0.040527999999999995,-0.2405695,0.717585,-0.111299,0.1471105,0.47906499999999996,-0.06296299999999999,0.2634705,0.707145,-0.137233,-0.2855495,0.960025,-0.186356,0.3321205,0.928015,-0.213946,-0.07610449999999999,0.0012650000000000022,0.003821999999999999,0.07610449999999999,-0.0012650000000000022,-0.003821999999999999,-0.14403950000000001,-0.284635,-0.19791599999999998,0.1304405,-0.278465,-0.20282599999999998,-0.1411195,-0.612195,-0.096609,0.1389405,-0.600965,-0.104636
85,0.002123999999999995,0.690525,-0.084596,-0.134884,0.493415,-0.048009,-0.240204,0.715895,-0.119046,0.146816,0.479525,-0.069655,0.263536,0.7073449999999999,-0.145424,-0.28599399999999997,0.957535,-0.19734000000000002,0.331916,0.9337549999999999,-0.22291,-0.076406,0.0013049999999999867,0.003955999999999994,0.076406,-0.0013050000000000006,-0.003956000000000001,-0.144764,-0.272645,-0.20766,0.131556,-0.266335,-0.21241000000000002,-0.140784,-0.5982350000000001,-0.099556,0.13802599999999998,-0.588595,-0.105953
86,0.0023194999999999995,0.6924,-0.090569,-0.1339645,0.49212,-0.054631,-0.2398245,0.71425,-0.126099,0.1466155,0.48046,-0.075442,0.2629255,0.7082,-0.153186,-0.2868545,0.95507,-0.207486,0.3312755,0.93909,-0.23177599999999998,-0.0767945,0.0011300000000000199,0.003963000000000001,0.0767945,-0.0011299999999999921,-0.003962999999999994,-0.1458145,-0.26161999999999996,-0.21662599999999999,0.1326655,-0.25483,-0.22099599999999997,-0.14061449999999998,-0.58458,-0.10095399999999999,0.1371655,-0.57583,-0.107213
87,0.002317000000000001,0.6941600000000001,-0.096215,-0.133199,0.49051,-0.060719,-0.239559,0.71522,-0.13277,0.146421,0.48129,-0.080758,0.26212100000000005,0.70886,-0.160524,-0.287419,0.95543,-0.21621400000000002,0.330421,0.9427099999999999,-0.240224,-0.07691200000000001,0.0010700000000000154,0.003942000000000001,0.07691200000000001,-0.0010699999999999876,-0.003942000000000001,-0.14699900000000002,-0.25201,-0.22498400000000002,0.133631,-0.24496,-0.229474,-0.140619,-0.5725100000000001,-0.10172500000000001,0.136671,-0.5647599999999999,-0.108342
88,0.0022035000000000023,0.69584,-0.1021965,-0.13251749999999998,0.49046,-0.0669035,-0.2395175,0.71587,-0.1396165,0.1463025,0.48202,-0.0867565,0.2619725,0.7094400000000001,-0.1679025,-0.2875675,0.9592700000000001,-0.2241425,0.3299125,0.94621,-0.2490125,-0.0769125,0.0010999999999999899,0.003900500000000001,0.0769125,-0.0010999999999999899,-0.003900500000000001,-0.14833749999999998,-0.24159,-0.2334525,0.13458250000000002,-0.2346,-0.2385525,-0.14070749999999999,-0.55997,-0.10246050000000001,0.1360125,-0.55362,-0.10945350000000001
89,0.002162500000000003,0.696975,-0.109761,-0.1315845,0.48956500000000003,-0.074712,-0.2392945,0.716205,-0.148256,0.14612550000000002,0.482955,-0.093789,0.2617655,0.710205,-0.176847,-0.2878145,0.960975,-0.234497,0.3297455,0.947125,-0.259317,-0.07695450000000001,0.0009649999999999936,0.003922000000000002,0.07695450000000001,-0.0009649999999999936,-0.003921999999999995,-0.15013449999999998,-0.227785,-0.243757,0.1360355,-0.221075,-0.250267,-0.1408645,-0.543285,-0.103052,0.1358755,-0.538405,-0.111783
90,0.0021889999999999987,0.696615,-0.117046,-0.130877,0.48778499999999997,-0.08207500000000001,-0.238927,0.714085,-0.15712199999999998,0.14569300000000002,0.48211499999999996,-0.10034,0.261133,0.709465,-0.185092,-0.288247,0.960325,-0.244462,0.329193,0.946825,-0.269512,-0.077186,0.0008449999999999847,0.003948,0.077186,-0.0008450000000000124,-0.003948,-0.152327,-0.212225,-0.25425200000000003,0.137713,-0.20652500000000001,-0.26129199999999997,-0.141287,-0.526055,-0.102727,0.135483,-0.522335,-0.113009
91,0.0022070000000000006,0.694885,-0.123998,-0.130376,0.486225,-0.08904699999999999,-0.23896599999999998,0.710965,-0.164704,0.145104,0.481125,-0.10680699999999999,0.260724,0.707685,-0.19291399999999997,-0.28882599999999997,0.956425,-0.253934,0.328454,0.944945,-0.279414,-0.077398,0.0006349999999999967,0.003985000000000002,0.077398,-0.0006349999999999967,-0.0039849999999999955,-0.154666,-0.19443499999999997,-0.262674,0.14000400000000002,-0.190075,-0.27056399999999997,-0.142056,-0.506165,-0.102196,0.135014,-0.502015,-0.11291899999999999
92,0.0027405000000000033,0.69381,-0.13074799999999998,-0.1297045,0.48410000000000003,-0.09612899999999999,-0.2386145,0.71364,-0.172425,0.14506550000000001,0.48091,-0.113053,0.2604555,0.70834,-0.20076499999999997,-0.2890845,0.95662,-0.263575,0.3278955,0.94539,-0.289455,-0.0771975,0.00030000000000002247,0.0038550000000000043,0.0771975,-0.0002999999999999947,-0.0038549999999999973,-0.1566345,-0.17491999999999996,-0.271215,0.1428855,-0.17148999999999998,-0.279745,-0.1423645,-0.48413999999999996,-0.101549,0.13496550000000002,-0.47915,-0.11323
93,0.002957000000000002,0.6933549999999999,-0.133127,-0.129147,0.482695,-0.09934799999999999,-0.23822700000000002,0.716375,-0.176449,0.14477299999999999,0.478105,-0.11591699999999999,0.259933,0.7074750000000001,-0.203819,-0.289487,0.957535,-0.268689,0.326903,0.942255,-0.294699,-0.077112,0.0003049999999999997,0.003610000000000002,0.077112,-0.0003049999999999997,-0.003610000000000002,-0.158767,-0.154495,-0.275559,0.145333,-0.151835,-0.284789,-0.14293699999999998,-0.461345,-0.096884,0.13449300000000003,-0.454955,-0.108993
94,0.0028239999999999984,0.6906950000000001,-0.13510049999999998,-0.129431,0.48387500000000006,-0.10075250000000001,-0.238021,0.717315,-0.1802505,0.144139,0.47680500000000003,-0.11755650000000001,0.259329,0.706095,-0.2067005,-0.289941,0.956465,-0.2728605,0.325739,0.940115,-0.2989805,-0.077113,0.0003350000000000297,0.0034115000000000013,0.077113,-0.0003349999999999742,-0.0034115000000000013,-0.161021,-0.14166499999999999,-0.2797805,0.147259,-0.138835,-0.2894205,-0.143791,-0.44152499999999995,-0.0928805,0.134129,-0.43328500000000003,-0.1064765
95,0.002668999999999999,0.688025,-0.136853,-0.12968800000000003,0.486615,-0.102225,-0.238338,0.7182850000000001,-0.183353,0.14341199999999998,0.47402500000000003,-0.119201,0.258302,0.703325,-0.208873,-0.29049800000000003,0.9563250000000001,-0.276663,0.324472,0.9385049999999999,-0.302423,-0.077065,0.001354999999999995,0.003497,0.077065,-0.001354999999999995,-0.003497,-0.163078,-0.127965,-0.283943,0.149082,-0.12454499999999996,-0.293943,-0.14457799999999998,-0.420495,-0.08926,0.133492,-0.41070500000000004,-0.104209
96,0.0024294999999999968,0.686815,-0.138873,-0.1298985,0.48490500000000003,-0.105002,-0.2385885,0.717465,-0.186373,0.14264149999999998,0.472315,-0.121503,0.25693150000000003,0.702115,-0.210983,-0.2908185,0.955325,-0.279503,0.3230615,0.9390449999999999,-0.305803,-0.07703850000000001,0.0011349999999999971,0.0034610000000000005,0.07703850000000001,-0.0011349999999999971,-0.0034610000000000005,-0.1650685,-0.11189500000000002,-0.288373,0.1509615,-0.108095,-0.298443,-0.14551850000000002,-0.39723500000000006,-0.086446,0.1327315,-0.385855,-0.10247099999999999
97,0.0021014999999999975,0.684205,-0.141061,-0.1302465,0.48404500000000006,-0.107222,-0.2383165,0.717005,-0.189281,0.1417535,0.471545,-0.12298100000000001,0.25574349999999996,0.7010050000000001,-0.214001,-0.29099650000000005,0.9498650000000001,-0.282431,0.32164349999999997,0.938455,-0.30913100000000004,-0.0771055,0.0010850000000000026,0.0033629999999999997,0.0771055,-0.0010849999999999471,-0.0033630000000000005,-0.1669265,-0.09658499999999998,-0.29278099999999996,0.1527635,-0.09239499999999995,-0.30276099999999995,-0.1463865,-0.3749549999999999,-0.084517,0.13188350000000001,-0.362235,-0.100972
98,0.001426999999999996,0.68253,-0.14286949999999998,-0.13089800000000001,0.48402999999999996,-0.10926949999999999,-0.238678,0.71549,-0.19115949999999998,0.140632,0.470349,-0.1250095,0.25437200000000004,0.69999,-0.21560949999999998,-0.29154800000000003,0.9467300000000001,-0.28428950000000003,0.32014200000000004,0.9385600000000001,-0.3123095,-0.07703,0.0012199999999999989,0.0033305,0.07703,-0.0012199999999999989,-0.0033305,-0.168558,-0.08089000000000002,-0.29611950000000004,0.154682,-0.07708000000000004,-0.3049695,-0.147498,-0.35398,-0.0841605,0.13084199999999999,-0.34039,-0.09951249999999999
99,0.0008089999999999998,0.6808500000000001,-0.14434,-0.131627,0.48355400000000004,-0.11141000000000001,-0.238817,0.71624,-0.19208999999999998,0.139683,0.469314,-0.12703,0.252963,0.6989700000000001,-0.21711,-0.292547,0.94272,-0.28611000000000003,0.318813,0.9386,-0.31476000000000004,-0.076953,0.0012900000000000134,0.003286,0.076953,-0.0012899999999999578,-0.003286,-0.169827,-0.06645999999999996,-0.29842,0.15656299999999998,-0.06259999999999993,-0.30692,-0.14846700000000002,-0.33607,-0.084883,0.12992299999999998,-0.32060999999999995,-0.097383
100,6.349999999999845e-05,0.6795599999999999,-0.1459575,-0.13236250000000002,0.483525,-0.1132775,-0.2391425,0.71527,-0.19379749999999998,0.1387775,0.469286,-0.1286475,0.2521675,0.7013499999999999,-0.21857749999999998,-0.2934725,0.9397,-0.28801750000000004,0.31764749999999997,0.9403699999999999,-0.3173475,-0.0770585,0.0013299999999999979,0.0032425000000000006,0.0770585,-0.0013299999999999979,-0.0032424999999999997,-0.17093250000000001,-0.054710000000000036,-0.30005750000000003,0.15793749999999998,-0.05077000000000004,-0.3076775,-0.1492125,-0.32131,-0.0855955,0.12904749999999998,-0.30557,-0.0966205
101,-0.0009700000000000038,0.67929,-0.147267,-0.133391,0.483311,-0.11520699999999999,-0.240221,0.71225,-0.195107,0.13766899999999999,0.468385,-0.13042700000000002,0.251259,0.6993,-0.219857,-0.29451099999999997,0.93846,-0.289257,0.316929,0.93852,-0.318697,-0.077041,0.0013900000000000023,0.0032640000000000004,0.077041,-0.0013900000000000023,-0.003264,-0.172351,-0.04229000000000005,-0.301437,0.160079,-0.03858,-0.308267,-0.150391,-0.30623,-0.086865,0.127779,-0.29161000000000004,-0.096097
102,-0.0018909999999999969,0.67848,-0.148593,-0.134326,0.482024,-0.116983,-0.24098599999999998,0.7092700000000001,-0.196253,0.136644,0.46943500000000005,-0.131533,0.25068399999999996,0.6991,-0.22137300000000001,-0.29554600000000003,0.93674,-0.290563,0.31646399999999997,0.94058,-0.319843,-0.076989,0.0011900000000000244,0.003292,0.076989,-0.0011899999999999689,-0.0032920000000000002,-0.173676,-0.030029999999999946,-0.302793,0.16259400000000002,-0.02690999999999999,-0.308423,-0.15167599999999998,-0.29208,-0.088469,0.125214,-0.27886,-0.094122
103,-0.002696000000000005,0.67888,-0.14959799999999998,-0.135251,0.480792,-0.11881800000000001,-0.241921,0.7064900000000001,-0.19680799999999998,0.135729,0.47030700000000003,-0.13261799999999999,0.24983900000000003,0.69932,-0.222218,-0.297161,0.9353100000000001,-0.291918,0.31621900000000003,0.94248,-0.321278,-0.076959,0.0009600000000000164,0.003291,0.076959,-0.0009599999999999609,-0.0032910000000000005,-0.174881,-0.017239999999999978,-0.303798,0.16528900000000002,-0.014419999999999988,-0.30847800000000003,-0.15214100000000003,-0.27784,-0.08846,0.12386899999999999,-0.26347999999999994,-0.092171
104,-0.0034195000000000024,0.678765,-0.1501735,-0.1360235,0.47746299999999997,-0.1202135,-0.2426835,0.703475,-0.1974635,0.1349265,0.47251699999999996,-0.1332835,0.24911650000000002,0.700525,-0.22285349999999998,-0.2987635,0.932535,-0.29333349999999997,0.3154865,0.943595,-0.3225735,-0.07679649999999999,-0.00017500000000003624,0.0032875,0.07679649999999999,0.00017499999999998073,-0.0032874999999999996,-0.1757735,-0.005574999999999997,-0.3044035,0.1681165,-0.003155000000000019,-0.3085235,-0.15236349999999999,-0.26502500000000007,-0.0891695,0.1223765,-0.25156500000000004,-0.0889675
105,-0.004364500000000002,0.67748,-0.150458,-0.1368585,0.47785,-0.120888,-0.2437685,0.7019799999999999,-0.19814800000000002,0.1340015,0.47309199999999996,-0.133698,0.2485015,0.70011,-0.22309800000000002,-0.3007785,0.93026,-0.294798,0.3146515,0.94287,-0.323708,-0.0767265,-0.00021000000000004349,0.003286,0.0767265,0.00020999999999998797,-0.0032860000000000003,-0.17668850000000003,0.0036399999999999766,-0.305008,0.1707515,0.005699999999999983,-0.30857799999999996,-0.1528985,-0.25551,-0.090247,0.1215615,-0.24275999999999998,-0.088599
106,-0.005191500000000005,0.6769799999999999,-0.15067,-0.1374885,0.47773099999999996,-0.12161000000000001,-0.2442485,0.70033,-0.19884,0.1332815,0.47397799999999995,-0.13396,0.2478915,0.7001999999999999,-0.22344,-0.3027285,0.9328,-0.29649,0.3141215,0.9424699999999999,-0.32474,-0.0767365,-0.00046999999999997044,0.003272,0.0767365,0.00046999999999997044,-0.003272,-0.1774185,0.012609999999999955,-0.30556,0.17262149999999998,0.014380000000000004,-0.30837,-0.1530085,-0.24694000000000005,-0.09031800000000001,0.12100149999999998,-0.23358,-0.086563
107,-0.005729500000000004,0.676165,-0.150932,-0.1377395,0.477149,-0.122322,-0.2444895,0.699775,-0.199162,0.13294050000000002,0.475094,-0.134222,0.24795050000000002,0.700265,-0.223972,-0.3045495,0.9340649999999999,-0.298102,0.3140605,0.9434549999999999,-0.32562199999999997,-0.0767275,-0.0008150000000000102,0.00317,0.0767275,0.0008150000000000102,-0.00317,-0.17783949999999998,0.018735,-0.306152,0.1739105,0.021814999999999973,-0.307982,-0.15327949999999999,-0.241645,-0.09173,0.12081050000000002,-0.22665500000000005,-0.084381
108,-0.0060979999999999975,0.675845,-0.151282,-0.138128,0.4765440000000001,-0.122952,-0.245418,0.698385,-0.200362,0.132632,0.4759810000000001,-0.134582,0.24810200000000002,0.700895,-0.224672,-0.306668,0.937135,-0.300302,0.314372,0.944245,-0.32646200000000003,-0.076732,-0.0010549999999999171,0.003031,0.076732,0.0010550000000000281,-0.003031,-0.178108,0.024635000000000074,-0.306642,0.175052,0.028365000000000085,-0.307272,-0.15339799999999998,-0.23591499999999987,-0.09209,0.12121200000000001,-0.2213449999999999,-0.084751
109,-0.0063624999999999975,0.675905,-0.15164049999999998,-0.13840550000000001,0.475927,-0.1235705,-0.24609550000000002,0.698605,-0.2013005,0.1324245,0.476826,-0.1349405,0.24818449999999997,0.701385,-0.2249405,-0.30866550000000004,0.941125,-0.3020805,0.31495449999999997,0.944805,-0.3273105,-0.0767345,-0.0012750000000000261,0.0029005000000000003,0.0767345,0.0012750000000000261,-0.0029005,-0.17816549999999998,0.030384999999999995,-0.3069705,0.17581449999999998,0.03453500000000004,-0.3064705,-0.15351549999999997,-0.23085500000000003,-0.0934155,0.12193450000000002,-0.21668500000000002,-0.08530549999999999
110,-0.006630500000000003,0.675385,-0.1517395,-0.1386405,0.475582,-0.1238895,-0.2463305,0.6997249999999999,-0.2021295,0.1322195,0.477434,-0.1348395,0.2488595,0.703645,-0.2252295,-0.3103305,0.941865,-0.3040095,0.3157595,0.946665,-0.3280195,-0.0767365,-0.001334999999999975,0.0028215000000000002,0.0767365,0.001334999999999975,-0.0028215,-0.17819050000000003,0.03351499999999996,-0.30721950000000003,0.1758595,0.03807499999999997,-0.3060395,-0.1531905,-0.228545,-0.0927875,0.1227195,-0.213225,-0.0820445
111,-0.0069424999999999955,0.67491,-0.151572,-0.13887249999999998,0.474841,-0.123972,-0.2466525,0.70139,-0.202712,0.13196750000000002,0.477832,-0.134592,0.24947750000000002,0.70496,-0.225102,-0.3118125,0.9418500000000001,-0.305592,0.3166575,0.94728,-0.328472,-0.0767635,-0.0014300000000000423,0.002796,0.0767635,0.0014300000000000423,-0.0027960000000000007,-0.17828249999999998,0.03517999999999999,-0.307302,0.1758675,0.04026000000000002,-0.305952,-0.1526925,-0.22716999999999998,-0.092701,0.12385750000000001,-0.21357000000000004,-0.08168500000000001
112,-0.007209,0.675035,-0.151302,-0.13897400000000001,0.47461300000000006,-0.123972,-0.247244,0.702615,-0.20372200000000001,0.131826,0.477918,-0.134422,0.24949600000000002,0.706175,-0.224832,-0.31298400000000004,0.941285,-0.306902,0.31735599999999997,0.948105,-0.328482,-0.07671,-0.001475000000000004,0.0027949999999999997,0.07671,0.001475000000000004,-0.002795,-0.178284,0.035775,-0.307572,0.175876,0.04126500000000005,-0.305952,-0.152124,-0.22665499999999994,-0.092816,0.12456600000000001,-0.21459499999999998,-0.080821
113,-0.007175499999999999,0.6751800000000001,-0.1508565,-0.13882250000000002,0.4747580000000001,-0.1239765,-0.24746249999999997,0.70276,-0.2039665,0.13197750000000003,0.4778240000000001,-0.1342265,0.2497475,0.7063200000000001,-0.22487649999999998,-0.3132725,0.9414300000000001,-0.3070565,0.3181675,0.94825,-0.3284965,-0.0767395,-0.0013299999999999423,0.0027954999999999994,0.0767395,0.0013300000000000534,-0.0027955000000000002,-0.17786249999999998,0.03538000000000008,-0.3080065,0.1757975,0.041160000000000085,-0.3059565,-0.1513625,-0.22692999999999985,-0.0929445,0.12575750000000002,-0.21589999999999987,-0.0805865
114,-0.007022500000000004,0.6751800000000001,-0.1502515,-0.1386375,0.4747580000000001,-0.1239715,-0.24741749999999998,0.70276,-0.2039715,0.1320525,0.4778240000000001,-0.1339815,0.2503125,0.7063200000000001,-0.22488149999999998,-0.3131875,0.9414300000000001,-0.3070615,0.3188925,0.94825,-0.3285115,-0.0767845,-0.0013299999999999423,0.0027965000000000004,0.0767845,0.0013300000000000534,-0.0027965,-0.1773875,0.03487000000000007,-0.3083715,0.1754425,0.041060000000000096,-0.3059415,-0.1507975,-0.22692999999999985,-0.0935635,0.1281525,-0.21704999999999985,-0.0830395
115,-0.006855,0.6751800000000001,-0.1496325,-0.13846899999999998,0.4747580000000001,-0.1238725,-0.24714899999999998,0.7029700000000001,-0.20393250000000002,0.132141,0.4778240000000001,-0.1337025,0.250581,0.7063200000000001,-0.2248425,-0.312919,0.9414300000000001,-0.3070225,0.319451,0.94825,-0.3284225,-0.076823,-0.0013299999999999423,0.0028235000000000005,0.076823,0.0013300000000000534,-0.0028235,-0.176869,0.034680000000000044,-0.3087425,0.17489100000000002,0.0408400000000001,-0.3061325,-0.150399,-0.22692999999999985,-0.0945155,0.129491,-0.21765999999999985,-0.0868575
116,-0.006566999999999999,0.676235,-0.14901450000000002,-0.138281,0.47598700000000005,-0.12350449999999999,-0.247141,0.703385,-0.2038645,0.132269,0.477729,-0.1333945,0.251049,0.707095,-0.22499450000000001,-0.313231,0.942095,-0.30691450000000003,0.31999900000000003,0.948945,-0.3279545,-0.076847,-0.0012349999999999861,0.0028255,0.076847,0.0012349999999999861,-0.0028255000000000003,-0.176511,0.03458499999999998,-0.30913450000000003,0.173909,0.04074500000000003,-0.3064945,-0.149621,-0.22702499999999992,-0.09484949999999999,0.130419,-0.21682499999999993,-0.0908435
117,-0.006321000000000002,0.6772,-0.148315,-0.13807200000000003,0.476852,-0.122985,-0.24724200000000002,0.70195,-0.203715,0.132438,0.47736999999999996,-0.133005,0.251628,0.7076899999999999,-0.225025,-0.313512,0.9410000000000001,-0.306465,0.320478,0.94947,-0.327285,-0.076803,-0.0010200000000000209,0.0028069999999999996,0.076803,0.0010200000000000209,-0.002807,-0.176012,0.03245999999999993,-0.309625,0.172688,0.03861999999999999,-0.30694499999999997,-0.14862199999999998,-0.22897,-0.09473999999999999,0.130668,-0.21782,-0.09371499999999999
118,-0.0061264999999999965,0.6785300000000001,-0.147508,-0.1379365,0.47773200000000005,-0.122118,-0.2472765,0.69884,-0.203088,0.1325535,0.476611,-0.132288,0.25151350000000006,0.70813,-0.22466799999999998,-0.3138765,0.93815,-0.305558,0.32099350000000004,0.94898,-0.32644799999999996,-0.0767675,-0.0008000000000000229,0.0027790000000000002,0.0767675,0.0008000000000000229,-0.0027789999999999994,-0.1753365,0.028229999999999977,-0.310608,0.1721935,0.03439000000000003,-0.307278,-0.14847649999999998,-0.23236999999999997,-0.096013,0.1308735,-0.22204999999999997,-0.096209
119,-0.005691500000000001,0.6798200000000001,-0.146848,-0.1375845,0.47844100000000006,-0.121318,-0.2466145,0.7005700000000001,-0.202268,0.1329155,0.47608200000000006,-0.131608,0.2514555,0.70811,-0.224138,-0.31341450000000004,0.9384100000000001,-0.303948,0.3215055,0.9472100000000001,-0.32572799999999996,-0.0767555,-0.00046999999999997044,0.0027139999999999994,0.0767555,0.00047000000000008146,-0.0027140000000000003,-0.1742945,0.02133000000000007,-0.31162799999999996,0.1718355,0.02689000000000008,-0.307618,-0.1479445,-0.2379199999999999,-0.096173,0.1313255,-0.22912999999999994,-0.098475
120,-0.005029999999999997,0.68079,-0.1459715,-0.137148,0.479271,-0.1200015,-0.24603799999999998,0.69947,-0.2003615,0.133492,0.475681,-0.1306215,0.252352,0.70721,-0.2233715,-0.312918,0.9380200000000001,-0.3017515,0.322232,0.94387,-0.32461150000000005,-0.076809,-0.00027999999999994696,0.0027215,0.076809,0.00027999999999994696,-0.0027215,-0.172778,0.011920000000000042,-0.3112615,0.17126200000000003,0.017359999999999987,-0.3073015,-0.147028,-0.24619000000000002,-0.0953185,0.131322,-0.23728000000000005,-0.0969625
121,-0.004317000000000001,0.682485,-0.144793,-0.13668000000000002,0.48017499999999996,-0.118343,-0.24569999999999997,0.697905,-0.198673,0.13418000000000002,0.475294,-0.129423,0.25244,0.706785,-0.222433,-0.31265,0.936515,-0.299473,0.32286000000000004,0.943225,-0.323343,-0.076941,-0.00010500000000002174,0.002754,0.076941,0.00010499999999996623,-0.0027539999999999995,-0.17098000000000002,0.0007649999999999602,-0.310823,0.17037000000000002,0.0063650000000000095,-0.306813,-0.14656999999999998,-0.25688500000000003,-0.09485199999999999,0.1316,-0.24915500000000002,-0.096826
122,-0.003508499999999996,0.6854750000000001,-0.143539,-0.1361485,0.480531,-0.116629,-0.2452585,0.696475,-0.19582899999999998,0.13491150000000002,0.47372000000000003,-0.128239,0.25235149999999995,0.705735,-0.220909,-0.31219850000000005,0.935315,-0.296599,0.3232815,0.941575,-0.321299,-0.0770125,0.00016500000000002624,0.0027849999999999997,0.0770125,-0.00016499999999997073,-0.002785,-0.1692685,-0.010865000000000014,-0.31038899999999997,0.1693115,-0.004834999999999978,-0.306319,-0.1456385,-0.26868499999999995,-0.093349,0.13205150000000002,-0.26168499999999995,-0.096363
123,-0.0028224999999999986,0.68691,-0.142247,-0.1356655,0.481662,-0.11412699999999999,-0.2448055,0.6946,-0.192577,0.1356845,0.47306099999999995,-0.126427,0.25240450000000003,0.70477,-0.21904700000000002,-0.31253549999999997,0.93426,-0.292447,0.3232845,0.9354,-0.317637,-0.0770755,0.00040999999999996595,0.002755,0.0770755,-0.00041000000000002146,-0.0027549999999999996,-0.1677355,-0.027220000000000022,-0.309867,0.1678745,-0.02103000000000005,-0.30573700000000004,-0.1447255,-0.28724000000000005,-0.092817,0.1325345,-0.27860000000000007,-0.093938
124,-0.0020120000000000064,0.68858,-0.14034449999999998,-0.1351,0.48337399999999997,-0.1111445,-0.24445,0.6961200000000001,-0.1891245,0.13662,0.47321799999999997,-0.12439449999999999,0.25276999999999994,0.70487,-0.2160145,-0.31213,0.93796,-0.2876645,0.32336,0.9359,-0.3138745,-0.077237,0.0006599999999999939,0.0027904999999999996,0.077237,-0.0006599999999999939,-0.0027904999999999996,-0.16632,-0.04488000000000003,-0.3088945,0.16647,-0.038270000000000026,-0.3049045,-0.14361000000000002,-0.30762999999999996,-0.0907935,0.1333,-0.29686999999999997,-0.09153349999999999
125,-0.0012449999999999996,0.6893750000000001,-0.137871,-0.134565,0.483267,-0.108011,-0.24443499999999999,0.697545,-0.186131,0.13753500000000002,0.473951,-0.121671,0.252865,0.705545,-0.213161,-0.31251500000000004,0.9392849999999999,-0.283391,0.323025,0.935305,-0.30973100000000003,-0.07739199999999999,0.0006249999999999867,0.0028480000000000003,0.07739199999999999,-0.0006249999999999867,-0.002848,-0.164925,-0.063745,-0.30745100000000003,0.16523500000000002,-0.05694500000000002,-0.30370100000000005,-0.142865,-0.330305,-0.090195,0.13420500000000002,-0.31985500000000006,-0.091271
126,-0.0005519999999999991,0.691325,-0.1350045,-0.13405,0.483606,-0.1044845,-0.24459,0.700245,-0.1820945,0.13842,0.474929,-0.1186745,0.25302,0.7064349999999999,-0.2101545,-0.31296999999999997,0.942345,-0.27765449999999997,0.3227,0.934585,-0.3052345,-0.077595,0.0005950000000000122,0.0030355,0.077595,-0.0005950000000000122,-0.0030355,-0.16344,-0.08177499999999999,-0.3052645,0.16401,-0.074405,-0.3013645,-0.14204,-0.352745,-0.0881735,0.13511,-0.34028500000000006,-0.0894795
127,-6.14999999999996e-05,0.6934899999999999,-0.1304565,-0.1337985,0.48358,-0.0998665,-0.2450685,0.7006600000000001,-0.1754365,0.1392915,0.47725,-0.11444649999999999,0.2537115,0.70855,-0.2047765,-0.3135285,0.94313,-0.2695865,0.32234149999999995,0.93649,-0.2984965,-0.0772665,0.0005200000000000204,0.0031715,0.0772665,-0.0005200000000000204,-0.0031715,-0.1619185,-0.10127000000000003,-0.3002765,0.1623515,-0.09362999999999999,-0.2964065,-0.1411085,-0.38001999999999997,-0.08480149999999999,0.1356515,-0.36618,-0.0873665
128,9.650000000000331e-05,0.696445,-0.12579200000000001,-0.13385650000000002,0.484805,-0.094987,-0.2461765,0.699985,-0.168212,0.1399435,0.47845499999999996,-0.110152,0.25387350000000003,0.710375,-0.199022,-0.31415649999999995,0.9443549999999999,-0.261442,0.32176350000000004,0.9405749999999999,-0.29116200000000003,-0.0768835,0.0005249999999999977,0.003272,0.0768835,-0.0005249999999999977,-0.003272,-0.1605465,-0.11915500000000001,-0.294732,0.1605835,-0.11035500000000004,-0.290782,-0.14040650000000002,-0.40622500000000006,-0.08108599999999999,0.1359135,-0.39131499999999997,-0.084768
129,-0.00011750000000000248,0.700095,-0.1193685,-0.1343325,0.4864550000000001,-0.08887350000000001,-0.24789250000000002,0.7034050000000001,-0.1605885,0.1404375,0.4815750000000001,-0.1038385,0.2545175,0.7111050000000001,-0.1902385,-0.3157025,0.9480350000000001,-0.2520985,0.3209375,0.943065,-0.2819185,-0.0763495,0.0004950000000000232,0.0033304999999999997,0.0763495,-0.0004949999999999677,-0.0033305,-0.1591725,-0.13822499999999993,-0.2867585,0.1588875,-0.12808499999999995,-0.28237850000000003,-0.1397225,-0.4343149999999999,-0.0763385,0.1364975,-0.41922499999999996,-0.08208850000000001
130,-0.00028900000000000063,0.7031099999999999,-0.111494,-0.134804,0.48714999999999997,-0.081689,-0.24925399999999998,0.7074099999999999,-0.151114,0.141316,0.48523999999999995,-0.096484,0.255576,0.71534,-0.180634,-0.317724,0.9524499999999999,-0.240144,0.320316,0.9482499999999999,-0.26960399999999995,-0.07547799999999999,0.00035999999999997145,0.003358,0.07547799999999999,-0.00036000000000002697,-0.003358,-0.157184,-0.15907000000000004,-0.273584,0.157346,-0.14853000000000005,-0.270074,-0.139064,-0.4657300000000001,-0.07281800000000001,0.137206,-0.4514,-0.076516
131,-0.0005985000000000053,0.70739,-0.1033325,-0.13552250000000002,0.49196,-0.0740815,-0.2504225,0.71087,-0.1417125,0.1422175,0.48923,-0.0887425,0.2557375,0.71963,-0.1712025,-0.3196125,0.95635,-0.2265725,0.3201375,0.95369,-0.2576525,-0.0745465,0.0004699999999999982,0.0034715000000000006,0.0745465,-0.0004699999999999982,-0.003471499999999999,-0.1547625,-0.17946,-0.2588225,0.1559075,-0.16957,-0.2565325,-0.1382725,-0.49660000000000004,-0.0674635,0.1383575,-0.48418000000000005,-0.0707385
132,-0.001467000000000003,0.71038,-0.0945745,-0.13678700000000002,0.49252,-0.06666050000000001,-0.25237699999999996,0.7102599999999999,-0.1314245,0.142543,0.49427,-0.0805205,0.25556300000000004,0.72397,-0.1610645,-0.322027,0.9567399999999999,-0.2139445,0.319293,0.96017,-0.24707450000000003,-0.073623,0.0003999999999999837,0.003981499999999999,0.073623,-0.00040000000000001146,-0.003981500000000002,-0.15265700000000001,-0.20055,-0.2432745,0.153883,-0.19078,-0.24124450000000003,-0.137717,-0.5264,-0.061392499999999996,0.138733,-0.5139499999999999,-0.06488949999999999
133,-0.002775500000000002,0.7149650000000001,-0.08603999999999999,-0.1385135,0.494295,-0.05932499999999999,-0.25475349999999997,0.710515,-0.12131999999999998,0.1428665,0.497515,-0.072452,0.2550865,0.727125,-0.15173999999999999,-0.3250035,0.9570350000000001,-0.20194,0.3182965,0.958105,-0.2367,-0.0726725,0.0005049999999999777,0.004427,0.0726725,-0.0005050000000000054,-0.004427,-0.1508135,-0.22130500000000003,-0.22599,0.1513465,-0.21204500000000004,-0.22502,-0.1370435,-0.5554350000000001,-0.055481,0.1385965,-0.543995,-0.059905
134,-0.003912500000000003,0.71782,-0.0726995,-0.14008949999999998,0.49419,-0.04708949999999999,-0.2567395,0.70966,-0.1059495,0.1433005,0.49815,-0.0597915,0.2553205,0.7279399999999999,-0.1370495,-0.32779949999999997,0.95643,-0.1850195,0.3178405,0.95461,-0.2217295,-0.0718915,0.0008200000000000013,0.0041215,0.0718915,-0.0008200000000000013,-0.0041215,-0.14895950000000002,-0.24219,-0.2024495,0.14871050000000002,-0.23328000000000002,-0.2022395,-0.1360095,-0.58408,-0.04420349999999999,0.1385205,-0.57367,-0.049256499999999995
135,-0.005214,0.7192055,-0.05925050000000001,-0.142317,0.49604550000000003,-0.03450850000000001,-0.259347,0.7108055,-0.09130950000000002,0.143323,0.4993155,-0.047157500000000005,0.25493299999999997,0.7295555,-0.1220395,-0.33132700000000004,0.9572555,-0.1692595,0.318223,0.9562755000000001,-0.2067995,-0.071164,0.0007795000000000024,0.0038194999999999965,0.071164,-0.0007795000000000024,-0.0038195000000000034,-0.145017,-0.2634545,-0.1757495,0.144773,-0.2556445,-0.1765995,-0.134427,-0.6129445,-0.0304885,0.138133,-0.6034445,-0.0373285
136,-0.006737,0.72019,-0.047124,-0.14463499999999999,0.49807,-0.023064,-0.262135,0.71584,-0.07930499999999999,0.143145,0.49964000000000003,-0.035847000000000004,0.254455,0.7302,-0.109295,-0.335065,0.96196,-0.155675,0.317305,0.95594,-0.193905,-0.070591,0.000681000000000001,0.003707000000000002,0.070591,-0.000681000000000001,-0.003707000000000002,-0.141275,-0.28196,-0.151495,0.140945,-0.27458,-0.153115,-0.132935,-0.63559,-0.017377000000000004,0.137175,-0.6269399999999999,-0.024984999999999993
137,-0.008342,0.720514,-0.034820500000000004,-0.14701199999999998,0.498934,-0.011547500000000002,-0.26480200000000004,0.716824,-0.0676485,0.142818,0.500234,-0.024528499999999995,0.254028,0.731104,-0.09685849999999999,-0.338702,0.962614,-0.1424385,0.316318,0.953734,-0.1813985,-0.070057,0.0003339999999999975,0.003680500000000003,0.070057,-0.00033400000000000096,-0.0036804999999999963,-0.13724199999999998,-0.30040599999999995,-0.1272385,0.13718799999999998,-0.29404600000000003,-0.1296385,-0.13129200000000002,-0.658316,-0.0041765,0.13624799999999998,-0.650386,-0.012509499999999993
138,-0.009854500000000004,0.7202685,-0.0240775,-0.1490865,0.49913850000000004,-0.0014264999999999972,-0.26710649999999997,0.7169385,-0.05697049999999999,0.14225349999999998,0.4992285,-0.015190499999999996,0.2530435,0.7334585,-0.0873805,-0.3413465,0.9609085,-0.1305605,0.3151335,0.9541385,-0.1708405,-0.0696485,6.650000000000015e-05,0.003740499999999994,0.0696485,-6.649999999999972e-05,-0.003740499999999994,-0.13323649999999998,-0.3156115,-0.10465050000000001,0.13358350000000002,-0.3112115,-0.10837050000000001,-0.12985649999999999,-0.6771115,0.008151499999999999,0.1351135,-0.6693515,-0.0006145000000000039
139,-0.0108,0.720145,-0.014864500000000003,-0.150555,0.5002350000000001,0.0074104999999999865,-0.268925,0.717665,-0.04788350000000001,0.141875,0.49737499999999996,-0.007076500000000013,0.252075,0.731935,-0.0785535,-0.342915,0.960095,-0.12117350000000002,0.314095,0.9491850000000001,-0.1629235,-0.06955900000000001,-4.99999999999997e-05,0.0037914999999999893,0.06955900000000001,4.99999999999997e-05,-0.003791500000000003,-0.12970500000000001,-0.327185,-0.0861035,0.130805,-0.323835,-0.09041350000000001,-0.12815500000000002,-0.6896749999999999,0.019620499999999992,0.13411499999999998,-0.6821349999999999,0.010681499999999997
140,-0.011215499999999998,0.71751,-0.005880499999999997,-0.1515655,0.49777,0.01585750000000001,-0.2705155,0.71858,-0.039640499999999995,0.1416645,0.49611999999999995,0.0006645000000000123,0.2512345,0.7307600000000001,-0.06996049999999998,-0.3442055,0.9593700000000001,-0.11329049999999999,0.31312450000000003,0.94489,-0.1550905,-0.0695065,-0.00051,0.003757500000000011,0.0695065,0.00051,-0.003757499999999997,-0.1265955,-0.33747000000000005,-0.06872049999999999,0.1282745,-0.33524000000000004,-0.0732305,-0.1266755,-0.7009299999999999,0.030887500000000005,0.1330945,-0.6937399999999999,0.021696500000000007
141,-0.011480499999999998,0.717691,0.002270000000000008,-0.1525475,0.498961,0.023520000000000013,-0.2719675,0.722581,-0.032672999999999994,0.14154250000000002,0.49309099999999995,0.007105000000000014,0.2507725,0.729351,-0.062412999999999996,-0.3453575,0.962181,-0.10619299999999998,0.31218250000000003,0.944641,-0.147923,-0.0695135,-0.0007259999999999975,0.003378000000000006,0.0695135,0.000726000000000001,-0.003377999999999992,-0.12388749999999998,-0.343629,-0.05304299999999998,0.1260925,-0.342469,-0.057973,-0.1253975,-0.708039,0.04126100000000001,0.13230250000000002,-0.701179,0.03194200000000001
142,-0.011777000000000003,0.7155035000000001,0.010088,-0.15354600000000002,0.49798349999999997,0.030780000000000002,-0.273256,0.7220335,-0.025591000000000003,0.141114,0.4908835,0.013583999999999999,0.249754,0.7277835,-0.05506100000000001,-0.34587599999999996,0.9605635,-0.098951,0.31132400000000005,0.9458435000000001,-0.14092100000000002,-0.06983600000000001,-0.0011595000000000008,0.003036999999999998,0.06983600000000001,0.0011595000000000008,-0.003036999999999998,-0.121726,-0.3485365,-0.039250999999999994,0.12396399999999999,-0.3491765,-0.04340100000000001,-0.12459600000000001,-0.7147365,0.051561,0.131604,-0.7081164999999999,0.042223
143,-0.012252999999999997,0.7152455,0.012590500000000004,-0.154745,0.49940549999999995,0.0326015,-0.274695,0.7236155,-0.023664500000000005,0.140425,0.4908555,0.014610499999999998,0.248685,0.7281755,-0.052984500000000004,-0.346645,0.9612355,-0.09704449999999999,0.310245,0.9496055,-0.1393645,-0.07028000000000001,-0.0016535000000000022,0.0034824999999999995,0.07028000000000001,0.0016534999999999953,-0.0034824999999999995,-0.11993499999999999,-0.3523945,-0.03192450000000001,0.121775,-0.3541745,-0.03525450000000001,-0.124285,-0.7198745,0.0564365,0.130715,-0.7128845,0.046857499999999996
144,-0.012119499999999998,0.715673,0.014770000000000005,-0.1547585,0.498853,0.033670000000000005,-0.27471850000000003,0.723793,-0.021961999999999995,0.1404515,0.489903,0.015206999999999998,0.2483015,0.727683,-0.05107199999999999,-0.3466385,0.9606830000000001,-0.09516199999999998,0.3097815,0.948723,-0.137722,-0.07065250000000001,-0.0017590000000000036,0.003734000000000001,0.07065250000000001,0.0017589999999999967,-0.003734000000000001,-0.1197185,-0.354657,-0.02781199999999999,0.12147150000000001,-0.356587,-0.030222,-0.1238985,-0.722077,0.058471,0.1308415,-0.715987,0.048924
145,-0.011888999999999997,0.715987,0.016658999999999993,-0.154613,0.49853699999999995,0.034571,-0.274623,0.724017,-0.020776000000000003,0.14055700000000002,0.488837,0.015632999999999994,0.24793700000000002,0.727067,-0.04912600000000002,-0.346563,0.960247,-0.09344600000000002,0.309687,0.948507,-0.13629600000000003,-0.07097200000000001,-0.0017680000000000057,0.0037900000000000017,0.07097200000000001,0.0017679999999999987,-0.0037900000000000017,-0.119443,-0.356493,-0.023556000000000007,0.12121699999999999,-0.358423,-0.025066000000000005,-0.123613,-0.7239129999999999,0.06027899999999999,0.13106700000000002,-0.718173,0.050665999999999996
146,-0.011643999999999996,0.7161715,0.01860400000000001,-0.154395,0.49826149999999997,0.03531000000000001,-0.27442500000000003,0.7244615,-0.01899999999999999,0.140675,0.48846150000000005,0.01668800000000001,0.247645,0.7269715,-0.04685,-0.346395,0.9608414999999999,-0.09101999999999999,0.309935,0.9494214999999999,-0.13438,-0.07118,-0.0016585000000000003,0.0037940000000000057,0.07118,0.0016585000000000003,-0.003793999999999992,-0.119145,-0.3576985,-0.01881999999999999,0.120895,-0.35962849999999996,-0.01956999999999999,-0.12337500000000001,-0.7251185,0.062006000000000006,0.131315,-0.7193785,0.05273100000000001
147,-0.011229,0.7161234999999999,0.020556000000000005,-0.15421400000000002,0.4981035,0.036019999999999996,-0.274214,0.7240835,-0.016534999999999994,0.140796,0.48835350000000005,0.017851000000000006,0.247406,0.7273035,-0.04434500000000001,-0.345734,0.9618034999999999,-0.08769500000000001,0.309616,0.9508135,-0.13100499999999998,-0.07137099999999999,-0.0015694999999999945,0.0038689999999999974,0.07137099999999999,0.0015695000000000014,-0.0038689999999999974,-0.118864,-0.3574965,-0.014274999999999996,0.12054599999999999,-0.3602765,-0.014164999999999997,-0.123144,-0.7256265000000001,0.063694,0.131566,-0.7203165,0.054587
148,-0.010751999999999998,0.7157469999999999,0.022406999999999996,-0.15407099999999999,0.497847,0.036651,-0.274021,0.723787,-0.013850000000000001,0.140909,0.48828699999999997,0.019226000000000007,0.247369,0.727517,-0.041779999999999984,-0.34514100000000003,0.962687,-0.08393,0.309469,0.952527,-0.12724,-0.071554,-0.0015309999999999976,0.004074000000000008,0.071554,0.0015310000000000046,-0.004073999999999994,-0.11868100000000001,-0.357263,-0.00981,0.12007899999999999,-0.360973,-0.008980000000000002,-0.12293099999999998,-0.7258530000000001,0.065306,0.131859,-0.721133,0.056146
149,-0.0101295,0.7152885,0.02386300000000001,-0.1537435,0.4976285,0.037903000000000006,-0.2737535,0.7236985,-0.011370999999999992,0.1410765,0.4884985,0.02049100000000001,0.2473665,0.7279985,-0.039310999999999985,-0.3445935,0.9640085,-0.08028099999999999,0.30956649999999997,0.9546085,-0.123471,-0.0717235,-0.0014825000000000046,0.004314000000000012,0.0717235,0.0014824999999999977,-0.004313999999999998,-0.1187735,-0.3569115,-0.0054499999999999965,0.1196765,-0.36151150000000004,-0.0037619999999999876,-0.12283350000000001,-0.7256815,0.06667400000000001,0.1321465,-0.7217115,0.057328000000000004
150,-0.009441500000000002,0.7148264999999999,0.025189500000000004,-0.1533285,0.4973464999999999,0.0394765,-0.2732985,0.7235364999999999,-0.009222499999999995,0.1413215,0.4885864999999999,0.0216745,0.2475115,0.7285265,-0.03666249999999999,-0.3440085,0.9651965,-0.07701250000000001,0.30993149999999997,0.9570965,-0.11959249999999999,-0.0718685,-0.0014375000000000013,0.004534499999999997,0.0718685,0.0014374999999999943,-0.004534499999999997,-0.1190185,-0.35668350000000004,-0.001410499999999995,0.1194115,-0.36202350000000005,0.0011444999999999927,-0.12280850000000001,-0.7255735,0.0677025,0.1324815,-0.7220935,0.0581715
151,-0.0087445,0.7144889999999999,0.026421499999999987,-0.1528425,0.49719899999999995,0.04110249999999999,-0.2728125,0.723349,-0.007256500000000013,0.1416975,0.48887899999999995,0.022794499999999995,0.24783750000000002,0.7289289999999999,-0.03419650000000002,-0.3434025,0.966659,-0.0739465,0.3103175,0.9596589999999999,-0.1157965,-0.0720095,-0.0013830000000000023,0.004790499999999989,0.0720095,0.0013830000000000023,-0.004790500000000003,-0.11945249999999999,-0.356331,0.002164499999999986,0.1192075,-0.36236100000000004,0.005555499999999991,-0.1228525,-0.725411,0.0684335,0.1328675,-0.722261,0.05867649999999999
152,-0.008320000000000004,0.7144095,0.0275575,-0.152461,0.4970795,0.042678499999999994,-0.27243100000000003,0.7232095,-0.005644500000000011,0.14193899999999998,0.48918949999999994,0.024095499999999992,0.248029,0.7294095,-0.0318345,-0.34281100000000003,0.9678794999999999,-0.0713145,0.31065899999999996,0.9626795,-0.11195450000000001,-0.072116,-0.0013535000000000005,0.004924499999999998,0.072116,0.0013535000000000005,-0.004924500000000012,-0.119911,-0.3560705,0.005118499999999998,0.11928899999999999,-0.3624405,0.00909249999999999,-0.122511,-0.7253105,0.06866449999999999,0.133309,-0.7223605,0.058698499999999994
153,-0.007779499999999995,0.7143035,0.028822,-0.1520475,0.49698349999999997,0.044268,-0.27196750000000003,0.7230835,-0.004146999999999998,0.1423925,0.48957350000000005,0.025718000000000005,0.2484525,0.7299034999999999,-0.029414999999999997,-0.34216749999999996,0.9689734999999999,-0.06908500000000001,0.3111425,0.9658735,-0.10822499999999999,-0.0722005,-0.0013444999999999985,0.005032999999999996,0.0722005,0.0013444999999999985,-0.005032999999999996,-0.12033749999999999,-0.3558365,0.007525000000000004,0.1194825,-0.3624265,0.012188000000000004,-0.12216749999999998,-0.7251565000000001,0.068455,0.13377250000000002,-0.7223665,0.058041
154,-0.0072149999999999975,0.7140405,0.029963500000000004,-0.151594,0.4968905,0.04595350000000001,-0.271464,0.7228805,-0.0029084999999999944,0.142956,0.4900105,0.027544500000000006,0.248906,0.7304705,-0.02707649999999999,-0.341404,0.9697705000000001,-0.0672265,0.311766,0.9687705,-0.10506650000000001,-0.07225200000000001,-0.0013225000000000042,0.005126500000000006,0.07225200000000001,0.0013224999999999973,-0.005126499999999992,-0.12071400000000002,-0.3555995,0.009354500000000002,0.11974599999999999,-0.3625395,0.014735500000000012,-0.12185400000000002,-0.7249995,0.0676925,0.134276,-0.7223695,0.05701250000000001
155,-0.006633999999999994,0.713373,0.030896,-0.151193,0.49670299999999995,0.047471,-0.271053,0.7224630000000001,-0.002255000000000007,0.143377,0.49026299999999995,0.028841,0.249337,0.7307830000000001,-0.025252999999999998,-0.340833,0.9699530000000001,-0.066163,0.312397,0.9713530000000001,-0.102653,-0.07230400000000001,-0.0013360000000000039,0.005169999999999994,0.07230400000000001,0.001335999999999997,-0.005170000000000008,-0.12101299999999998,-0.355377,0.010402999999999996,0.12007700000000002,-0.362887,0.016576999999999995,-0.12156299999999998,-0.7248169999999999,0.06665199999999999,0.135087,-0.722397,0.055478
156,-0.006086000000000001,0.712551,0.0317395,-0.15077800000000002,0.49650099999999997,0.0490375,-0.270588,0.721881,-0.0018674999999999942,0.14383200000000002,0.49063100000000004,0.030463499999999998,0.24974200000000002,0.730981,-0.023629499999999998,-0.340078,0.970081,-0.0655095,0.313102,0.973681,-0.1005395,-0.072342,-0.0013249999999999998,0.005190500000000001,0.072342,0.0013249999999999998,-0.005190500000000001,-0.12130800000000001,-0.35523899999999997,0.011013499999999996,0.120432,-0.363359,0.017922499999999994,-0.12128799999999999,-0.724809,0.0652485,0.13585199999999997,-0.722479,0.0537375
157,-0.005682500000000002,0.7117640000000001,0.032492499999999994,-0.15043650000000003,0.496334,0.05064149999999999,-0.2701865,0.721174,-0.0016565000000000052,0.1441535,0.49085399999999996,0.03167149999999999,0.2503135,0.730964,-0.02217250000000001,-0.3393965,0.9700039999999999,-0.06547150000000002,0.3139435,0.9756039999999999,-0.09872150000000002,-0.0723925,-0.0013079999999999967,0.005093499999999987,0.0723925,0.0013080000000000036,-0.005093500000000001,-0.12165650000000001,-0.355126,0.010909499999999989,0.1206535,-0.36403599999999997,0.018660499999999997,-0.1211665,-0.7249859999999999,0.0635665,0.13646350000000002,-0.7226060000000001,0.0517855
158,-0.005442000000000004,0.711074,0.0332475,-0.150316,0.496154,0.051414499999999995,-0.26991600000000004,0.720494,-0.0014964999999999978,0.144294,0.491054,0.0327455,0.25080399999999997,0.730604,-0.02078250000000001,-0.33874600000000005,0.9696339999999999,-0.06558450000000002,0.31463399999999997,0.977134,-0.0971245,-0.07239899999999999,-0.0012730000000000033,0.004915499999999989,0.07239899999999999,0.0012730000000000033,-0.004915500000000003,-0.12193599999999999,-0.355146,0.010315499999999991,0.12065399999999998,-0.364646,0.018552499999999993,-0.12123599999999998,-0.725296,0.0618035,0.136874,-0.722746,0.0498905
159,-0.005041499999999999,0.7104095,0.033901,-0.1502275,0.49560950000000004,0.051677,-0.2696175,0.7198395,-0.001460000000000003,0.14453249999999998,0.49118950000000006,0.033746,0.2515025,0.7301595000000001,-0.019763000000000003,-0.3379375,0.9691894999999999,-0.066085,0.3155425,0.9772894999999999,-0.095855,-0.07240250000000001,-0.0011955000000000021,0.004729999999999998,0.07240250000000001,0.0011955000000000021,-0.004729999999999998,-0.12199750000000001,-0.3553105,0.009361999999999995,0.12064250000000001,-0.36513049999999997,0.017926000000000004,-0.1212675,-0.7257205,0.059993000000000005,0.1372725,-0.7228804999999999,0.047893000000000005
160,-0.0043905,0.709843,0.0345045,-0.1501065,0.495163,0.0518175,-0.26961650000000004,0.719193,-0.001733499999999999,0.1452035,0.491583,0.035002500000000006,0.25280349999999996,0.729813,-0.01865449999999999,-0.33681649999999996,0.9688429999999999,-0.0671805,0.3169335,0.9769429999999999,-0.0943205,-0.0724075,-0.0010830000000000006,0.004470500000000002,0.0724075,0.0010830000000000006,-0.004470500000000002,-0.1220165,-0.35557700000000003,0.008406500000000004,0.1208135,-0.365587,0.0168195,-0.1212665,-0.726067,0.0581655,0.1376535,-0.722937,0.0458785
161,-0.0034024999999999975,0.709392,0.03468600000000001,-0.1499625,0.49496199999999996,0.05176500000000001,-0.2697425,0.7185220000000001,-0.002589999999999995,0.1462175,0.49213199999999996,0.036247000000000015,0.2549975,0.7295419999999999,-0.017718999999999985,-0.33537249999999996,0.9686519999999998,-0.06953399999999998,0.31860750000000004,0.9767519999999998,-0.093194,-0.0724825,-0.0009340000000000043,0.00421500000000001,0.0724825,0.0009339999999999973,-0.0042149999999999965,-0.1221025,-0.35576800000000003,0.007557000000000008,0.1211075,-0.365918,0.015603000000000013,-0.1212425,-0.7262679999999999,0.05641800000000001,0.13795749999999998,-0.7228380000000001,0.043906000000000014
162,-0.0023039999999999988,0.7090715,0.0342195,-0.149553,0.4948315,0.0513605,-0.270153,0.7175015,-0.0046105000000000035,0.147517,0.4926315,0.037471500000000005,0.258477,0.7285915,-0.016917500000000002,-0.332543,0.9664014999999999,-0.0716165,0.320237,0.9767014999999999,-0.0923265,-0.072575,-0.0008834999999999954,0.003956500000000002,0.072575,0.0008835000000000023,-0.003956500000000002,-0.122423,-0.35581850000000004,0.0068485,0.121217,-0.3661685,0.014038500000000002,-0.12140300000000001,-0.7263185,0.0549865,0.137997,-0.7226585,0.041944499999999996
163,-0.0006854999999999969,0.7088695,0.032688499999999995,-0.1494135,0.4942195,0.04999049999999999,-0.2727035,0.7124095,-0.006374500000000005,0.14986649999999999,0.4930695,0.03915249999999999,0.2648765,0.7246695000000001,-0.015904500000000002,-0.3294235,0.9575295,-0.0734895,0.3229665,0.9662295,-0.0912495,-0.0726485,-0.0007115000000000038,0.0035315,0.0726485,0.0007114999999999969,-0.003531500000000007,-0.12302350000000001,-0.3556105,0.006317499999999997,0.1210165,-0.3662805,0.012230499999999998,-0.12216350000000001,-0.7262105,0.0537755,0.1374265,-0.7225205,0.04016449999999999
164,0.0011415000000000006,0.7086830000000001,0.031106,-0.1495955,0.493623,0.048612,-0.2763955,0.7055330000000001,-0.007850999999999997,0.15242450000000002,0.493083,0.04118,0.2727345,0.718483,-0.014565999999999996,-0.3258255,0.946123,-0.07511000000000001,0.3256545,0.9543429999999999,-0.08943999999999999,-0.07276350000000001,-0.0006980000000000042,0.002931000000000003,0.07276350000000001,0.0006979999999999972,-0.002931000000000003,-0.12386549999999999,-0.355507,0.005825000000000004,0.12053449999999999,-0.36606700000000003,0.010692,-0.12347549999999999,-0.725897,0.052753,0.13613450000000002,-0.722397,0.038641
165,0.003239500000000003,0.708333,0.030050999999999998,-0.1497735,0.492453,0.047599999999999996,-0.2781035,0.6968030000000001,-0.009194000000000008,0.1549865,0.493083,0.042973,0.2814965,0.710283,-0.013290999999999997,-0.32171350000000004,0.931983,-0.077758,0.3294765,0.938953,-0.08729800000000001,-0.0728705,-0.0006980000000000042,0.0025259999999999935,0.0728705,0.0006979999999999972,-0.0025260000000000005,-0.1250435,-0.355507,0.005170999999999995,0.11975650000000002,-0.365807,0.009690999999999998,-0.1253135,-0.725567,0.052108999999999996,0.1343465,-0.722247,0.037659
166,0.005556500000000002,0.7080625,0.029568000000000004,-0.1502055,0.49079249999999996,0.047169,-0.2834255,0.6813825,-0.012475999999999994,0.15758450000000002,0.4932225,0.045262000000000004,0.2918345,0.6966125,-0.011624000000000002,-0.3169355,0.9108325,-0.08280299999999999,0.3345445,0.9179625,-0.08654299999999998,-0.0729795,-0.0005585000000000034,0.002120000000000004,0.0729795,0.0005584999999999965,-0.002120000000000004,-0.12691550000000001,-0.3555375,0.004768000000000001,0.1184945,-0.3653675,0.009147000000000002,-0.1282755,-0.7251275,0.051775,0.13151449999999998,-0.7213875,0.03726600000000001
167,0.008349,0.7083395,0.028949500000000003,-0.151223,0.48864949999999996,0.0470305,-0.287983,0.6573195,-0.014580499999999996,0.160587,0.4931595,0.0478245,0.304017,0.6759995,-0.009912500000000005,-0.312183,0.8781395,-0.08951749999999999,0.338527,0.8903995,-0.0867775,-0.073104,-0.00031749999999999834,0.001964500000000001,0.073104,0.00031749999999999834,-0.001964500000000001,-0.129513,-0.3551205,0.004659500000000004,0.116587,-0.3649005,0.008351499999999998,-0.132853,-0.7242705,0.0517035,0.127497,-0.7201705,0.0370065
168,0.010866999999999998,0.709997,0.027411000000000005,-0.15051,0.485417,0.045884,-0.29461,0.625337,-0.016300000000000002,0.16318,0.49244699999999997,0.050472,0.31337000000000004,0.646147,-0.008093999999999997,-0.30523,0.8377870000000001,-0.09965399999999999,0.34173000000000003,0.855247,-0.086834,-0.073267,-0.00010100000000000386,0.0019680000000000045,0.073267,0.00010099999999999693,-0.0019680000000000045,-0.13296,-0.353653,0.004725,0.11387,-0.363143,0.0072610000000000036,-0.13946,-0.722023,0.05183,0.12151999999999999,-0.717613,0.036875000000000005
169,0.013360000000000004,0.7120385,0.024781499999999998,-0.150313,0.4823385,0.04392349999999999,-0.302343,0.5875684999999999,-0.015868500000000008,0.16514700000000002,0.4916285,0.0523465,0.317867,0.6124385,-0.004469500000000001,-0.296853,0.7937185,-0.1120215,0.344357,0.8131585,-0.08689150000000001,-0.073309,7.949999999999624e-05,0.001968499999999998,0.073309,-7.950000000000318e-05,-0.001968499999999998,-0.136453,-0.3519315,0.004466499999999998,0.110847,-0.3606615,0.0057244999999999935,-0.14696299999999998,-0.7194115,0.05197349999999999,0.114587,-0.7144415000000001,0.036669499999999994
170,0.0164535,0.7146275,0.021026499999999997,-0.14923050000000002,0.47907750000000004,0.040578499999999997,-0.30351049999999996,0.5433475,-0.015235499999999999,0.1667195,0.4904275,0.0538625,0.3185195,0.5684475,0.0034644999999999954,-0.2888805,0.7346775,-0.1259725,0.3441495,0.7583875,-0.0864725,-0.0733095,0.00028550000000000103,0.0015534999999999993,0.0733095,-0.00028550000000000103,-0.0015534999999999993,-0.1394505,-0.3514825,0.002394500000000001,0.1075095,-0.3572025,0.0041635000000000005,-0.1558105,-0.7155025,0.0517665,0.10602950000000001,-0.7103025,0.03686249999999999
171,0.019568500000000003,0.7175465,0.01686,-0.1484095,0.4763265,0.036858,-0.3033195,0.49838650000000007,-0.014245,0.1675405,0.48918649999999997,0.054753,0.3154905,0.5228665,0.013804000000000004,-0.2817695,0.6723865,-0.138934,0.3408005,0.6977165,-0.086034,-0.0733105,0.0005214999999999942,0.0009660000000000016,0.0733105,-0.0005215000000000011,-0.0009660000000000016,-0.1417895,-0.3526435,-0.0016159999999999994,0.10419049999999999,-0.3545335,0.0028760000000000036,-0.16506949999999998,-0.7108435,0.05106,0.0966005,-0.7051735,0.037554000000000004
172,0.0219535,0.7209675,0.012055000000000003,-0.1478845,0.47356750000000003,0.032871000000000004,-0.29799149999999996,0.4541875,-0.011483999999999994,0.1660685,0.4874775,0.057216,0.3061385,0.47853749999999995,0.025041,-0.2756815,0.6128675,-0.13663799999999998,0.3328985,0.6355275,-0.08664799999999999,-0.0730285,0.0008655000000000017,-9.699999999999986e-05,0.0730285,-0.0008655000000000017,9.699999999999986e-05,-0.1428295,-0.3527925,-0.009957999999999995,0.0995085,-0.3533425,0.0028730000000000006,-0.17356149999999998,-0.7052925,0.048162,0.0845185,-0.6999425,0.03980500000000001
173,0.024052000000000004,0.724418,0.007178000000000011,-0.14743299999999998,0.470788,0.02893500000000001,-0.292217,0.411878,-0.0074669999999999875,0.164033,0.485508,0.06020500000000001,0.294703,0.436178,0.03451800000000001,-0.268517,0.554198,-0.133817,0.324173,0.568888,-0.087367,-0.07277299999999999,0.0010509999999999999,-0.0011339999999999961,0.072773,-0.0010509999999999999,0.00113400000000001,-0.14282899999999998,-0.35021199999999997,-0.020691999999999988,0.094393,-0.352912,0.003394000000000008,-0.17962699999999998,-0.700192,0.043676000000000006,0.07122300000000001,-0.6946720000000001,0.04263100000000001
174,0.025197999999999984,0.7272155,0.0011659999999999865,-0.148843,0.4681655,0.025339999999999994,-0.285262,0.3678555,-0.0008480000000000015,0.159878,0.48259549999999996,0.06387999999999999,0.27792799999999995,0.39313549999999997,0.044818,-0.267122,0.4792055,-0.12797,0.310388,0.4929255,-0.08532000000000001,-0.07265800000000001,0.0012914999999999975,-0.0027810000000000057,0.072658,-0.001291500000000001,0.002780999999999992,-0.138186,-0.3470445,-0.03952000000000001,0.08690799999999999,-0.3555745,0.005763999999999991,-0.176315,-0.6950045,0.03098199999999999,0.05348799999999998,-0.6893945,0.04731999999999999
