sb224sc-HT22-VT27/4dt907/src/data/kinect_good_preprocessed_not_cut_A11_mediapipe/A143_kinect_mirrored.csv
FrameNo,nose_3d_x,nose_3d_y,nose_3d_z,left_shoulder_3d_x,left_shoulder_3d_y,left_shoulder_3d_z,left_elbow_3d_x,left_elbow_3d_y,left_elbow_3d_z,right_shoulder_3d_x,right_shoulder_3d_y,right_shoulder_3d_z,right_elbow_3d_x,right_elbow_3d_y,right_elbow_3d_z,left_wrist_3d_x,left_wrist_3d_y,left_wrist_3d_z,right_wrist_3d_x,right_wrist_3d_y,right_wrist_3d_z,left_hip_3d_x,left_hip_3d_y,left_hip_3d_z,right_hip_3d_x,right_hip_3d_y,right_hip_3d_z,left_knee_3d_x,left_knee_3d_y,left_knee_3d_z,right_knee_3d_x,right_knee_3d_y,right_knee_3d_z,left_ankle_3d_x,left_ankle_3d_y,left_ankle_3d_z,right_ankle_3d_x,right_ankle_3d_y,right_ankle_3d_z
0,0.99027,0.7280205,0.0482455,0.850388,0.4773205,0.0299454999999999,0.744768,0.6809005,-0.1144345,1.146028,0.4734005,0.0375444999999999,1.279948,0.6600105,-0.1010845,0.7229380000000001,0.8550105,-0.2818045,1.323428,0.8060705,-0.2338345,0.926123,0.0001835,-0.0009765,1.073877,-0.0001835,0.0009764999999999,0.878928,-0.3605095,-0.0096535,1.121818,-0.3414795,-0.0227755,0.861128,-0.6858395,-0.0007505,1.1280279999999998,-0.7090595,-0.0026045
1,0.9900945,0.7246130000000001,0.049142,0.8508305,0.478633,0.032035,0.7544005,0.698913,-0.0951529999999999,1.1446505,0.472783,0.03847,1.2696005000000001,0.683763,-0.080583,0.7279305,0.913033,-0.2558129999999999,1.3152504999999999,0.8957930000000001,-0.2246729999999999,0.9263255,0.00044,-0.000833,1.0736745,-0.00044,0.000833,0.8789705,-0.363287,-0.008832,1.1215805,-0.344557,-0.0216859999999999,0.8609305,-0.6899569999999999,0.001059,1.1277705,-0.712607,-0.0009939999999999
2,0.9903545000000001,0.721402,0.0498885,0.8510555000000001,0.481122,0.0330425,0.7577255,0.707692,-0.0864355,1.1431255,0.4749819999999999,0.0392225,1.2668555000000001,0.689972,-0.0717355,0.7357255,0.936142,-0.2124455,1.3101954999999998,0.909302,-0.2130455,0.9266345,0.0007309999999999,-0.0006724999999999,1.0733655,-0.000731,0.0006724999999999,0.8792155000000001,-0.366298,-0.0080825,1.1218055,-0.347708,-0.0208275,0.8611255000000001,-0.693118,0.0018805,1.1279555,-0.715928,-0.0001234999999999
3,0.990127,0.7185524999999999,0.0504305,0.850331,0.4840925,0.0355015,0.7605109999999999,0.7124225,-0.0785695,1.1418409999999999,0.4749625,0.0407045,1.262041,0.6942824999999999,-0.0609495,0.7338009999999999,0.9416925,-0.2109095,1.3044609999999999,0.9272325,-0.1904595,0.926997,0.0008904999999999,-0.0006135,1.073003,-0.0008905,0.0006134999999999,0.880341,-0.3639275,-0.0089144999999999,1.1217009999999998,-0.3505675,-0.0203255,0.860921,-0.6961775,0.0024925,1.127571,-0.7184975,0.0004854999999999
4,0.9900235,0.716498,0.0512855,0.8505975,0.484728,0.0377194999999999,0.7630375,0.716698,-0.0697285,1.1411275,0.4743779999999999,0.0420904999999999,1.2594075,0.698298,-0.0539255,0.7342375,0.951988,-0.1989285,1.3010675,0.934928,-0.1759585,0.9271695,0.0010399999999999,-0.0005935,1.0728305,-0.00104,0.0005934999999999,0.8813475,-0.361922,-0.0096055,1.1215875,-0.352442,-0.0197725,0.8608075,-0.698152,0.0032384999999999,1.1274275,-0.720612,0.0013384999999999
5,0.990008,0.7085454999999999,0.050955,0.851468,0.4841055,0.043852,0.7708380000000001,0.7298254999999999,-0.033015,1.140248,0.4921855,0.050837,1.2430080000000001,0.7143255,-0.0189529999999999,0.743618,0.9815655,-0.1199769999999999,1.284058,0.9534255,-0.0924469999999999,0.927954,0.0012794999999999,-4.900000000000043e-05,1.072046,-0.0012795,4.900000000000043e-05,0.880868,-0.3643745,-0.0106819999999999,1.119748,-0.3617045,-0.019294,0.859228,-0.7098345,0.004823,1.125618,-0.7319445,0.003532
6,0.9910915000000001,0.7082245,0.050714,0.8520465,0.4844945,0.044511,0.7729465,0.7319545000000001,-0.026541,1.1398965,0.4936145,0.052047,1.2409065,0.7180245000000001,-0.014295,0.7441065,0.9856245,-0.105948,1.2825265,0.9730745,-0.078718,0.9280635,0.0010534999999999,0.00014,1.0719365,-0.0010534999999999,-0.00014,0.8808565,-0.3638655,-0.010764,1.1197365,-0.3625755,-0.019166,0.8593565,-0.7111854999999999,0.0053889999999999,1.1257065,-0.7334554999999999,0.004191
7,0.9930495000000001,0.709755,0.049686,0.8530465,0.4829449999999999,0.040906,0.7730165,0.728965,-0.0278469999999999,1.1394965,0.490405,0.050588,1.2411265,0.721205,-0.0151149999999999,0.7385665,0.978565,-0.104591,1.2814465,0.958455,-0.078761,0.9279135000000001,0.001034,-0.0002629999999999,1.0720865,-0.001034,0.0002629999999999,0.8806065,-0.365015,-0.0103369999999999,1.1201265,-0.3622849999999999,-0.019124,0.8598365,-0.710365,0.005179,1.1264365,-0.7326550000000001,0.003916
8,0.9939355000000001,0.7085475,0.049366,0.8534645000000001,0.4822575,0.041601,0.7751045,0.7310775,-0.018344,1.1389345,0.4931175,0.05221,1.2374445,0.7263775,-0.0061099999999999,0.7390145,0.9840475,-0.083777,1.2772945,0.9644975,-0.0570069999999999,0.9280915,0.0010604999999999,-0.0003,1.0719085,-0.0010604999999999,0.0003,0.8806645,-0.3649725,-0.010553,1.1199145,-0.3640925,-0.0189319999999999,0.8597345000000001,-0.7128225,0.005649,1.1263045,-0.7350325,0.004486
9,0.9948455,0.707574,0.0489485,0.8538415,0.4813739999999999,0.0421905,0.7768415,0.732594,-0.0096545,1.1383915,0.496104,0.0537135,1.2341415,0.7312339999999999,0.0023664999999999,0.7394715000000001,0.988304,-0.0630405,1.2735915,0.969144,-0.0363855,0.9282605,0.001041,-0.0003604999999999,1.0717395,-0.0010409999999999,0.0003604999999999,0.8806015,-0.365176,-0.0106675,1.1197115,-0.365686,-0.0187735,0.8596415,-0.715126,0.0060414999999999,1.1261815,-0.737206,0.0049904999999999
10,0.9956625000000001,0.707517,0.0485914999999999,0.8540375,0.4807369999999999,0.0425585,0.7775875,0.732527,-0.0049215,1.1379575,0.497117,0.0542635,1.2326475000000001,0.7344269999999999,0.0071384999999999,0.7394375,0.987667,-0.0518275,1.2718975000000001,0.971977,-0.0249804999999999,0.9282905,0.000993,-0.0004834999999999,1.0717095,-0.000993,0.0004834999999999,0.8806475,-0.364983,-0.0106484999999999,1.1196075,-0.366103,-0.0186735,0.8596575000000001,-0.716163,0.0062684999999999,1.1261575,-0.738173,0.0052554999999999
11,0.9963945000000001,0.7075465,0.048307,0.8541735000000001,0.4802565,0.042887,0.7780635000000001,0.7320465,-0.000828,1.1375835,0.4980265,0.054713,1.2314635,0.7372365,0.0116599999999999,0.7394035,0.9871865,-0.0420049999999999,1.2706235000000001,0.9741465,-0.0150479999999999,0.9283095,0.0009575,-0.0006359999999999,1.0716905,-0.0009575,0.0006359999999999,0.8806735,-0.3646735,-0.010587,1.1195035,-0.3664235,-0.0185719999999999,0.8596735,-0.7170435,0.006455,1.1261535,-0.7389635,0.0054649999999999
12,0.996987,0.707793,0.0481385,0.854208,0.479983,0.0430585,0.778278,0.731773,0.0027885,1.137178,0.498883,0.0550975,1.230588,0.739733,0.0158585,0.7392080000000001,0.986913,-0.0336254999999999,1.269838,0.976513,-0.0063114999999999,0.928316,0.0009279999999999,-0.0008114999999999,1.071684,-0.000928,0.0008114999999999,0.880598,-0.3641669999999999,-0.0105154999999999,1.119388,-0.366527,-0.0184724999999999,0.859668,-0.717717,0.0066075,1.126128,-0.7395170000000001,0.0056635
13,0.9974375,0.7081719999999999,0.048125,0.8541195,0.479522,0.0427839999999999,0.7782895,0.731622,0.0058579999999999,1.1368194999999999,0.499822,0.055517,1.2298695,0.7420019999999999,0.0197079999999999,0.7372295,0.985962,-0.026385,1.2692495,0.978562,0.0017719999999999,0.9283875,0.0008799999999999,-0.001013,1.0716125,-0.0008799999999999,0.001013,0.8804795,-0.363668,-0.010435,1.1192594999999999,-0.3665879999999999,-0.018373,0.8596695,-0.718248,0.0069059999999999,1.1260995,-0.7399380000000001,0.0058729999999999
14,0.9977410000000001,0.7085525,0.048246,0.854013,0.4787425,0.042475,0.7782830000000001,0.7315225000000001,0.0085229999999999,1.136493,0.5008225000000001,0.055961,1.229363,0.7427425000000001,0.0233679999999999,0.735323,0.9845625,-0.0211,1.268943,0.9795625,0.0094389999999999,0.928438,0.0008134999999999,-0.001227,1.071562,-0.0008135,0.0012269999999999,0.8803230000000001,-0.3632375,-0.010319,1.119113,-0.3666275,-0.018246,0.8596429999999999,-0.7187074999999999,0.0072149999999999,1.126053,-0.7402375,0.0060629999999999
15,0.997859,0.7089605,0.048317,0.853966,0.4779205,0.042407,0.778296,0.7312305,0.010027,1.136406,0.5014605,0.056248,1.228946,0.7437005,0.025938,0.733776,0.9834505,-0.0179389999999999,1.268706,0.9803505,0.012595,0.928479,0.0007785,-0.0014249999999999,1.071521,-0.0007785,0.001425,0.8801559999999999,-0.3629895,-0.0100629999999999,1.118966,-0.3666995,-0.018066,0.859556,-0.7188195,0.007469,1.125966,-0.7403495,0.006317
16,0.9979525,0.709406,0.0484655,0.8539165,0.477126,0.0424665,0.7782965,0.7306360000000001,0.0109534999999999,1.1363265,0.501876,0.0564935,1.2285665,0.744676,0.0278555,0.7323465,0.981956,-0.0162585,1.2681865,0.981356,0.0151685,0.9285035000000001,0.0007469999999999,-0.0016105,1.0714964999999999,-0.000747,0.0016105,0.8800765,-0.362844,-0.0098214999999999,1.1188065,-0.366674,-0.0178825,0.8594765,-0.7189139999999999,0.0077954999999999,1.1258865,-0.740444,0.0065525
17,0.998064,0.709869,0.0486,0.853766,0.476379,0.042495,0.778236,0.729989,0.0117309999999999,1.136256,0.502269,0.056721,1.228186,0.745699,0.029438,0.731026,0.981499,-0.015134,1.267576,0.982199,0.0173819999999999,0.928513,0.0007029999999999,-0.001772,1.071487,-0.000703,0.0017719999999999,0.880006,-0.362671,-0.0095939999999999,1.1186559999999999,-0.366601,-0.01771,0.859406,-0.718971,0.0080869999999999,1.125816,-0.7405010000000001,0.0067479999999999
18,0.9983730000000001,0.710398,0.0487069999999999,0.8535820000000001,0.475578,0.042454,0.7782020000000001,0.7292679999999999,0.012398,1.136212,0.5024179999999999,0.056969,1.228012,0.7467379999999999,0.0307629999999999,0.730032,0.979598,-0.014257,1.267482,0.981898,0.0190859999999999,0.9285140000000001,0.000691,-0.001948,1.071486,-0.0006909999999999,0.0019479999999999,0.879792,-0.362522,-0.009279,1.118422,-0.366382,-0.017512,0.859322,-0.7192320000000001,0.0085259999999999,1.125622,-0.7404820000000001,0.0069959999999999
19,0.998747,0.7109025,0.0488199999999999,0.853464,0.4748325,0.0424229999999999,0.778194,0.7285925,0.0129769999999999,1.136194,0.5025425,0.05722,1.227704,0.7477024999999999,0.031928,0.729174,0.9775025,-0.013601,1.2674940000000001,0.9816025,0.020827,0.9285160000000001,0.0006774999999999,-0.00214,1.0714839999999999,-0.0006775,0.0021399999999999,0.879604,-0.3623675,-0.008967,1.118234,-0.3661975,-0.017291,0.859264,-0.7194875000000001,0.0089549999999999,1.1254439999999999,-0.7404275,0.007244
20,0.9991880000000001,0.711387,0.0489015,0.8534050000000001,0.4742369999999999,0.0423765,0.778205,0.728057,0.0135365,1.136205,0.502637,0.0574215,1.227295,0.7486569999999999,0.0328025,0.728515,0.975807,-0.0129695,1.267415,0.9813070000000002,0.0225224999999999,0.9285170000000001,0.0006689999999999,-0.0023234999999999,1.071483,-0.0006689999999999,0.0023234999999999,0.879435,-0.362273,-0.0086644999999999,1.118065,-0.366023,-0.0170854999999999,0.8592050000000001,-0.719703,0.0093395,1.125305,-0.740383,0.0075104999999999
21,0.9996605,0.7118165,0.0490035,0.8533975,0.4737564999999999,0.0423285,0.7782475,0.7276365,0.0140355,1.1362375,0.5027465,0.0576115,1.2266175,0.7496765,0.0334385,0.7279074999999999,0.9741365,-0.0129625,1.2668675,0.9819365,0.0240335,0.9285155,0.0006405,-0.0025004999999999,1.0714845,-0.0006404999999999,0.0025005,0.8792475,-0.3622135,-0.0083485,1.1178975,-0.3658635,-0.0168915,0.8591375,-0.7198035,0.0096875,1.1251575,-0.7402935,0.0077225
22,1.0001645,0.7121890000000001,0.049054,0.8533925,0.473409,0.042264,0.7782825000000001,0.7273390000000001,0.0143889999999999,1.1362725,0.502799,0.057734,1.2258725,0.750499,0.033796,0.7279025,0.973869,-0.012866,1.2653225,0.985569,0.025609,0.9285115,0.000625,-0.0026209999999999,1.0714885,-0.000625,0.0026209999999999,0.8790925,-0.362141,-0.008078,1.1177425,-0.365711,-0.0167449999999999,0.8590725000000001,-0.719911,0.009994,1.1250325,-0.740211,0.0078739999999999
23,1.000664,0.7124725,0.0490795,0.85339,0.4730925,0.0422144999999999,0.77822,0.7270025,0.0145264999999999,1.13631,0.5027525,0.0577955,1.2251,0.7513425,0.0339565,0.72784,0.9733925,-0.0128905,1.26365,0.9891925,0.0264944999999999,0.928512,0.0006104999999999,-0.0027065,1.071488,-0.0006104999999999,0.0027064999999999,0.87896,-0.3620575,-0.0078465,1.11759,-0.3655775,-0.0166285,0.859,-0.7200275,0.0102674999999999,1.1249,-0.7401575,0.0080444999999999
24,1.0011195,0.7126855000000001,0.0490204999999999,0.8534015,0.4727854999999999,0.0421425,0.7781315,0.7266355,0.0146264999999999,1.1363315,0.5027155,0.0578065,1.2241515,0.7517155,0.0340824999999999,0.7277715,0.9728755,-0.0129755,1.2616915,0.9932155,0.0271054999999999,0.9285185,0.0005964999999999,-0.0027665,1.0714815,-0.0005964999999999,0.0027664999999999,0.8788615,-0.3619445,-0.0076695,1.1174115,-0.3653945,-0.0165735,0.8589215,-0.7201245,0.0104934999999999,1.1247814999999999,-0.7401245,0.0081514999999999
25,1.001562,0.712841,0.0489239999999999,0.8534840000000001,0.472471,0.042074,0.778124,0.7262609999999999,0.0147279999999999,1.136404,0.502691,0.057765,1.223244,0.752031,0.034212,0.727794,0.973041,-0.0128759999999999,1.259464,0.997141,0.027607,0.928505,0.000581,-0.002811,1.071495,-0.0005809999999999,0.002811,0.878854,-0.361809,-0.007498,1.117304,-0.3652689999999999,-0.016517,0.858894,-0.720219,0.0105999999999999,1.124714,-0.740109,0.0082879999999999
26,1.0019414999999998,0.712924,0.048789,0.8535865,0.4722639999999999,0.042029,0.7781365,0.7259840000000001,0.014681,1.1364565,0.5026440000000001,0.057672,1.2222164999999998,0.752384,0.03407,0.7278465000000001,0.972954,-0.012783,1.2570065000000001,1.000954,0.027895,0.9284975,0.0005789999999999,-0.0028559999999999,1.0715025,-0.0005789999999999,0.0028559999999999,0.8789065000000001,-0.361526,-0.00735,1.1172065,-0.365136,-0.016457,0.8588865,-0.720316,0.0107169999999999,1.1246565,-0.7401359999999999,0.008433
27,1.002098,0.7129150000000001,0.0485995,0.853648,0.4722449999999999,0.0420445,0.778088,0.7259650000000001,0.0144374999999999,1.136518,0.502635,0.0575995,1.221458,0.7526050000000001,0.0337195,0.7278980000000002,0.972935,-0.0127634999999999,1.254568,1.004535,0.0280145,0.9284870000000001,0.00058,-0.0028725,1.071513,-0.00058,0.0028725,0.8789780000000001,-0.361155,-0.0072945,1.1172179999999998,-0.365055,-0.0164534999999999,0.858918,-0.720285,0.0107594999999999,1.1247079999999998,-0.7401249999999999,0.0084945
28,1.0021855,0.7128965,0.048389,0.8536995000000001,0.4722265,0.042054,0.7781195,0.7259465,0.0141439999999999,1.1365695,0.5026265,0.057512,1.2208495,0.7527665,0.033231,0.7279295,0.9729165,-0.012867,1.2524195,1.0081165,0.0280909999999999,0.9284845,0.0005784999999999,-0.002873,1.0715155,-0.0005784999999999,0.002873,0.8790295,-0.3607634999999999,-0.007245,1.1172195,-0.3649735,-0.016464,0.8589295,-0.7202635,0.0107039999999999,1.1247495,-0.7401335,0.0085509999999999
29,1.0022225,0.7129335,0.0480445,0.8537475,0.4722435,0.0420635,0.7781375,0.7260735,0.0138505,1.1365975,0.5026135,0.0573965,1.2203375,0.7529235,0.0326045,0.7277875,0.9728935,-0.0132955,1.2505375,1.0113934999999998,0.0280285,0.9284845,0.0005785,-0.0028755,1.0715155,-0.0005784999999999,0.0028755,0.8790775000000001,-0.3603665,-0.0071774999999999,1.1172175,-0.3648765,-0.0164735,0.8589275000000001,-0.7202365,0.0107345,1.1247575,-0.7401165,0.0086275
30,1.0022495,0.71298,0.047626,0.8537585,0.47222,0.042066,0.7778985,0.72607,0.013497,1.1365685,0.50259,0.057283,1.2198985,0.75305,0.031948,0.7272985000000001,0.97204,-0.0143329999999999,1.2489185,1.01467,0.027966,0.9284835,0.0005779999999999,-0.0028769999999999,1.0715165,-0.000578,0.002877,0.8791785,-0.3599799999999999,-0.0071059999999999,1.1172185,-0.36478,-0.0165039999999999,0.8589385,-0.7202200000000001,0.010766,1.1247685,-0.74009,0.008662
31,1.002265,0.713008,0.047186,0.853799,0.472198,0.042058,0.777549,0.726058,0.0130129999999999,1.136539,0.502568,0.0571789999999999,1.219509,0.753178,0.031256,0.7266589999999999,0.971208,-0.0153389999999999,1.248319,1.014848,0.0277539999999999,0.928479,0.0005779999999999,-0.00288,1.071521,-0.000578,0.00288,0.879229,-0.359602,-0.007042,1.117199,-0.364682,-0.016534,0.858939,-0.720192,0.0107949999999999,1.124769,-0.740082,0.008728
32,1.002214,0.712963,0.046492,0.853802,0.472133,0.041909,0.777082,0.725793,0.0121889999999999,1.136472,0.502563,0.056929,1.219222,0.753233,0.030297,0.725712,0.970903,-0.0170279999999999,1.247942,1.014973,0.027046,0.9284749999999999,0.000562,-0.002882,1.071525,-0.000562,0.002882,0.879242,-0.359627,-0.006955,1.117172,-0.364657,-0.016507,0.8589220000000001,-0.720197,0.0108639999999999,1.124762,-0.740177,0.0088779999999999
33,1.0021,0.71291,0.045742,0.8538060000000001,0.4720799999999999,0.04173,0.776436,0.72557,0.011091,1.136356,0.50259,0.056614,1.219106,0.7533,0.029233,0.724576,0.97032,-0.0194249999999999,1.247906,1.01509,0.026008,0.928473,0.0005539999999999,-0.0028779999999999,1.071527,-0.000554,0.0028779999999999,0.879246,-0.3601,-0.006871,1.117176,-0.36474,-0.0164519999999999,0.858906,-0.72022,0.010894,1.124746,-0.74026,0.008985
34,1.0019615,0.712819,0.0449909999999999,0.8538505000000001,0.4724589999999999,0.0411799999999999,0.7755005,0.725449,0.0098489999999999,1.1361204999999999,0.502689,0.056046,1.2191005,0.753319,0.0281359999999999,0.7233205,0.969479,-0.021856,1.2478805,1.015069,0.0241069999999999,0.9284765000000001,0.000522,-0.0028719999999999,1.0715234999999999,-0.0005219999999999,0.0028719999999999,0.8792805,-0.3607209999999999,-0.0067989999999999,1.1172004999999998,-0.3648909999999999,-0.01639,0.8589505,-0.720691,0.0110089999999999,1.1247605,-0.740371,0.0090909999999999
35,1.0018334999999998,0.7127105,0.043997,0.8539215,0.4728805,0.04043,0.7744715,0.7253705,0.0083039999999999,1.1358715,0.5028305,0.05518,1.2191115,0.7532205,0.026632,0.7218415,0.9688505,-0.024672,1.2478615,1.0150104999999998,0.021508,0.9284815,0.0004755,-0.002861,1.0715185,-0.0004754999999999,0.0028609999999999,0.8791915,-0.3613794999999999,-0.006723,1.1172315,-0.3651895,-0.016349,0.8590115,-0.7211595,0.0110759999999999,1.1247915,-0.7404895,0.0091909999999999
36,1.001741,0.712609,0.0427219999999999,0.854014,0.473589,0.039662,0.773474,0.725549,0.0064699999999999,1.135694,0.5029790000000001,0.054318,1.219124,0.753069,0.024886,0.719794,0.968229,-0.028848,1.247824,1.014849,0.0181799999999999,0.928473,0.000431,-0.00284,1.071527,-0.000431,0.0028399999999999,0.878934,-0.3620409999999999,-0.006836,1.117224,-0.365511,-0.0164279999999999,0.859084,-0.721661,0.0111399999999999,1.124794,-0.740661,0.00929
37,1.0016745,0.7125225,0.041239,0.8541655,0.4742825,0.0388269999999999,0.7725255,0.7256225,0.0044659999999999,1.1355455,0.5031125,0.0534119999999999,1.2191455,0.7528625,0.0228059999999999,0.7179255,0.9689925,-0.032747,1.2479655,1.0145925,0.0143579999999999,0.9284675,0.0003835,-0.002786,1.0715325,-0.0003834999999999,0.0027859999999999,0.8786255000000001,-0.3626974999999999,-0.007095,1.1171555,-0.3659174999999999,-0.016662,0.8592355,-0.7223175000000001,0.0111469999999999,1.1247855,-0.7409075,0.0093439999999999
38,1.0016695,0.7124739999999999,0.039597,0.8543025,0.4749139999999999,0.037545,0.7715225,0.725634,0.002223,1.1354624999999998,0.503244,0.052529,1.2193925,0.7526039999999999,0.020468,0.7160625,0.968554,-0.036481,1.2482625,1.014254,0.010124,0.9284555,0.00032,-0.0027449999999999,1.0715445,-0.00032,0.002745,0.8782225,-0.363706,-0.0075689999999999,1.1170825,-0.366406,-0.0169899999999999,0.8594025000000001,-0.722966,0.011144,1.1247725,-0.741136,0.009375
39,1.0016945,0.712617,0.037721,0.8543955,0.475457,0.036222,0.7705655,0.725517,-0.000146,1.1354454999999999,0.503427,0.05158,1.2197255,0.752087,0.017697,0.7143855,0.967167,-0.039937,1.2487055,1.013737,0.005324,0.9284355,0.0002279999999999,-0.0027439999999999,1.0715645,-0.0002279999999999,0.002744,0.8777255,-0.364763,-0.0084599999999999,1.1169255,-0.366923,-0.017458,0.8595755,-0.723523,0.010874,1.1247655,-0.741303,0.009333
40,1.0016785,0.7125885,0.0355985,0.8544615,0.4754484999999999,0.0350535,0.7696815000000001,0.7254785,-0.0027594999999999,1.1354214999999999,0.5034285,0.0506065,1.2201615000000001,0.7520785,0.0145054999999999,0.7128215,0.9670185,-0.0435905,1.2493015,1.0137385,0.0001195,0.9283965,0.0002264999999999,-0.0027374999999999,1.0716035,-0.0002264999999999,0.0027374999999999,0.8771815000000001,-0.3654315,-0.0096515,1.1169015,-0.3669215,-0.0180834999999999,0.8599015,-0.7236515,0.0102674999999999,1.1248315,-0.7413015000000001,0.0092394999999999
41,1.0017269999999998,0.7125684999999999,0.0333775,0.854571,0.4754385,0.0339395,0.768831,0.7254585,-0.0052965,1.135481,0.5034285,0.0498115,1.220521,0.7520685,0.0113585,0.7107209999999999,0.9667085,-0.0487535,1.250011,1.0137385,-0.0051345,0.928347,0.0002264999999999,-0.0027135,1.071653,-0.0002264999999999,0.0027135,0.876541,-0.3665415,-0.0114744999999999,1.117041,-0.3669215,-0.0188874999999999,0.860431,-0.7242215000000001,0.0095874999999999,1.124951,-0.7413015000000001,0.0090944999999999
42,1.001758,0.712576,0.030462,0.854734,0.4754360000000001,0.032756,0.768064,0.7254360000000001,-0.008389,1.135454,0.503436,0.049001,1.220774,0.751766,0.007411,0.708634,0.966676,-0.053714,1.250574,1.013346,-0.011949,0.9282680000000001,0.0002189999999999,-0.002623,1.071732,-0.0002189999999999,0.002623,0.875834,-0.368054,-0.014089,1.117184,-0.367054,-0.020456,0.8609740000000001,-0.724984,0.008305,1.125124,-0.741294,0.008667
43,1.0017909999999999,0.7126170000000001,0.026889,0.85488,0.475967,0.031494,0.76719,0.7252270000000001,-0.0121359999999999,1.13548,0.5037370000000001,0.047929,1.2208700000000001,0.7512070000000001,0.002301,0.7066,0.967147,-0.060167,1.25084,1.012627,-0.0200989999999999,0.928161,0.00016,-0.0025939999999999,1.071839,-0.00016,0.002594,0.87519,-0.370113,-0.0181459999999999,1.11729,-0.367953,-0.023551,0.86136,-0.7262029999999999,0.006492,1.1252900000000001,-0.741393,0.007179
44,1.0017945,0.7122005,0.0228155,0.8551625,0.4763905,0.0302335,0.7665525000000001,0.7248104999999999,-0.0161125,1.1354425,0.5039804999999999,0.0469645,1.2208725,0.7503405,-0.0028544999999999,0.7049025,0.9680305,-0.0673035,1.2507424999999999,1.0116205,-0.0284714999999999,0.9280125,8.449999999999777e-05,-0.0025404999999999,1.0719875,-8.450000000000124e-05,0.0025405,0.8745025000000001,-0.3719794999999999,-0.0226704999999999,1.1173525,-0.3687695,-0.0275684999999999,0.8614725,-0.7273995000000001,0.0043405,1.1254025,-0.7414395,0.0053175
45,1.0018794999999998,0.7115349999999999,0.018805,0.8554595,0.476755,0.02798,0.7658795,0.724335,-0.020574,1.1353695,0.5033449999999999,0.043945,1.2208595,0.749065,-0.0084419999999999,0.7038095,0.968945,-0.073305,1.2506495,1.010175,-0.036958,0.9278425,1.8999999999998185e-05,-0.002542,1.0721575,-1.900000000000165e-05,0.002542,0.8739295,-0.3738849999999999,-0.0281859999999999,1.1175295,-0.369565,-0.032595,0.8615695,-0.728425,0.002105,1.1255295,-0.7414050000000001,0.0032189999999999
46,1.0019865,0.710143,0.015309,0.8554815,0.4760729999999999,0.026333,0.7651615,0.723013,-0.024668,1.1353815,0.502783,0.04132,1.2208714999999999,0.747223,-0.013737,0.7034214999999999,0.968923,-0.079111,1.2505515,1.008023,-0.045451,0.9276725,-2.399999999999972e-05,-0.002521,1.0723275,2.399999999999972e-05,0.002521,0.8733115,-0.375397,-0.034573,1.1179015,-0.370497,-0.038046,0.8616715,-0.728737,-0.0002469999999999,1.1257115,-0.740977,0.0014139999999999
47,1.002001,0.7086515,0.0116329999999999,0.8552270000000001,0.4747215,0.0234909999999999,0.764827,0.7212915,-0.028973,1.135097,0.5006215,0.0372659999999999,1.220357,0.7451015,-0.019037,0.703287,0.9668915,-0.08498,1.250157,1.0057015,-0.05402,0.9276260000000001,5.450000000000246e-05,-0.002517,1.072374,-5.4499999999998994e-05,0.0025169999999999,0.872527,-0.3754384999999999,-0.042372,1.118367,-0.3703484999999999,-0.044511,0.861617,-0.7274785,-0.003128,1.1258169999999998,-0.7390185,-0.000741
48,1.0019035,0.7067455,0.0075894999999999,0.8549615,0.4737754999999999,0.0204024999999999,0.7643215,0.7197755,-0.0336945,1.1347215,0.4990654999999999,0.0331524999999999,1.2196514999999999,0.7435355,-0.0246655,0.7030415000000001,0.9662455,-0.0918765,1.2491115,1.0019255,-0.0642065,0.9276005,0.0001114999999999,-0.0025235,1.0723995,-0.0001115,0.0025234999999999,0.8715815,-0.3753045,-0.0510785,1.1192115,-0.3715345,-0.0531265,0.8615815,-0.7253445000000001,-0.0064705,1.1259014999999999,-0.7362945,-0.0030635
49,1.001483,0.7049340000000001,0.0033369999999999,0.854622,0.474044,0.0167539999999999,0.763352,0.719494,-0.039694,1.134082,0.497384,0.0285989999999999,1.2180819999999999,0.742034,-0.031494,0.702352,0.967254,-0.100094,1.246892,0.997944,-0.075964,0.927234,-2.599999999999998e-05,-0.002646,1.072766,2.599999999999998e-05,0.0026459999999999,0.869992,-0.370926,-0.064804,1.121002,-0.367656,-0.066474,0.861212,-0.715276,-0.009556,1.125642,-0.726216,-0.005486
50,1.0010655,0.703284,-0.000971,0.8541345000000001,0.473954,0.0133219999999999,0.7623545,0.714534,-0.045552,1.1336245,0.496734,0.0243759999999999,1.2168345,0.741264,-0.038707,0.7014445,0.963694,-0.106066,1.2451345,0.994884,-0.086976,0.9268505,-0.0001419999999999,-0.00275,1.0731495,0.0001419999999999,0.0027499999999999,0.8683845,-0.366306,-0.0791159999999999,1.1230345,-0.363496,-0.080506,0.8608545000000001,-0.703826,-0.013992,1.1252845,-0.715206,-0.008018
51,1.000539,0.7006110000000001,-0.0037364999999999,0.853648,0.473861,0.0103925,0.761448,0.712721,-0.0498835,1.132998,0.493511,0.0202375,1.2150979999999998,0.738981,-0.0443185,0.700628,0.958061,-0.1135635,1.243018,0.992391,-0.0953835,0.9263260000000001,-0.000131,-0.0028824999999999,1.073674,0.0001309999999999,0.0028825,0.866608,-0.359309,-0.0934235,1.125248,-0.356849,-0.0941735,0.860208,-0.6889489999999999,-0.0187185,1.124928,-0.701019,-0.0101074999999999
52,0.9998410000000001,0.6983035000000001,-0.0080865,0.853118,0.4738435,0.0051985,0.760338,0.7115035000000001,-0.0562315,1.1322079999999999,0.4910335,0.0142764999999999,1.213748,0.7371035,-0.0515415,0.6992579999999999,0.9532435,-0.1217515,1.241568,0.9903235,-0.1051915,0.925816,-0.0001034999999999,-0.0023425,1.074184,0.0001034999999999,0.0023424999999999,0.864698,-0.3516865,-0.1097414999999999,1.127568,-0.3492565,-0.1097915,0.859268,-0.6723764999999999,-0.0255365,1.124468,-0.6851065,-0.0138075
53,0.998936,0.6957415,-0.012936,0.852218,0.4732215,-0.001362,0.759058,0.7106315,-0.06363,1.130998,0.4880815,0.006974,1.2120980000000001,0.7348715,-0.05988,0.698708,0.9526215,-0.12978,1.239668,0.9877215,-0.11673,0.925254,-0.0002325,-0.002,1.074746,0.0002324999999999,0.002,0.862218,-0.3387585,-0.12877,1.129988,-0.3363385,-0.1272499999999999,0.8582380000000001,-0.6511685,-0.0336449999999999,1.123638,-0.6647885,-0.0182419999999999
54,0.9977865,0.693358,-0.0185295,0.8512365,0.472518,-0.0078685,0.7576165,0.709898,-0.0713755,1.1296864999999998,0.485878,0.0008514999999999,1.2104765,0.732998,-0.0680755,0.6982065,0.952678,-0.1380855,1.2378465,0.985718,-0.1272355,0.9247385,-4.200000000000037e-05,-0.0016895,1.0752615,4.200000000000037e-05,0.0016894999999999,0.8588665,-0.3214019999999999,-0.1493555,1.1325065,-0.3199919999999999,-0.1452255,0.8570765,-0.626022,-0.0416814999999999,1.1227965,-0.6404719999999999,-0.0235594999999999
55,0.9968695000000001,0.69266,-0.0239695,0.8504975,0.47385,-0.0136244999999999,0.7560575,0.71107,-0.0785905,1.1283775,0.48543,-0.0042854999999999,1.2087375,0.73378,-0.0753305,0.6981775,0.95486,-0.1462705,1.2361175,0.98531,-0.1371305,0.9241105000000001,-0.0003899999999999,-0.0013475,1.0758895,0.00039,0.0013475,0.8555575,-0.30243,-0.1680605,1.1351275,-0.30225,-0.1623005,0.8557575,-0.5991,-0.0481105,1.1220675,-0.6144,-0.0279534999999999
56,0.996083,0.6942900000000001,-0.0288839999999999,0.8504590000000001,0.4752699999999999,-0.018357,0.754699,0.71207,-0.085241,1.1269989999999999,0.48561,-0.009006,1.206739,0.7326600000000001,-0.082061,0.698079,0.95589,-0.154611,1.234609,0.98369,-0.147011,0.92357,-0.00029,-0.0010949999999999,1.07643,0.0002899999999999,0.001095,0.851529,-0.28032,-0.188551,1.138009,-0.28132,-0.182991,0.8545090000000001,-0.5692900000000001,-0.053761,1.121329,-0.5852900000000001,-0.0319499999999999
57,0.9950885000000002,0.69604,-0.0334905,0.8501485,0.47737,-0.0227695,0.7535085,0.71031,-0.0917775,1.1257785,0.48575,-0.0137885,1.2051285,0.7319100000000001,-0.0880975,0.6966085,0.95462,-0.1624375,1.2329585,0.98446,-0.1549475,0.9230095,-0.0003799999999999,-0.0006805,1.0769905,0.00038,0.0006805,0.8473984999999999,-0.25897,-0.2078475,1.1403185,-0.25831,-0.2015275,0.8525885,-0.53945,-0.0589275,1.1205785,-0.5559799999999999,-0.0360155
58,0.994415,0.69597,-0.0377229999999999,0.850297,0.47802,-0.02667,0.752567,0.70892,-0.0978449999999999,1.124947,0.48507,-0.018555,1.203907,0.72829,-0.092365,0.695747,0.95328,-0.169315,1.231697,0.98277,-0.160725,0.9227920000000001,-0.0002199999999999,-0.0007729999999999,1.077208,0.00022,0.000773,0.8437870000000001,-0.2405899999999999,-0.221965,1.141947,-0.2382599999999999,-0.215855,0.8519570000000001,-0.51512,-0.0638349999999999,1.120177,-0.53195,-0.0399149999999999
59,0.9939385,0.6963699999999999,-0.041216,0.8503725,0.47883,-0.030666,0.7512025,0.71336,-0.103696,1.1244025,0.48316,-0.0237749999999999,1.2030124999999998,0.72326,-0.095766,0.6945625,0.95765,-0.176026,1.2311424999999998,0.97775,-0.167976,0.9224455,-4.000000000001225e-05,-0.0008179999999999,1.0775545,3.999999999998449e-05,0.000818,0.8399325,-0.22062,-0.235336,1.1434825,-0.2171,-0.229846,0.8516125,-0.48956,-0.067226,1.1201725,-0.50698,-0.043916
60,0.9938340000000001,0.69672,-0.0458165,0.850962,0.47942,-0.0348915,0.751002,0.71486,-0.1099365,1.124652,0.48417,-0.0286735,1.202452,0.7210000000000001,-0.1003565,0.693892,0.96359,-0.1829765,1.231572,0.97502,-0.1753165,0.922073,-6.999999999995898e-05,-0.0009205,1.077927,7.00000000000145e-05,0.0009204999999999,0.835932,-0.1959499999999999,-0.2483065,1.144902,-0.1917999999999999,-0.2444565,0.8517020000000001,-0.4623199999999999,-0.0690565,1.120532,-0.4784899999999999,-0.0477965
61,0.994151,0.69601,-0.0512435,0.852245,0.4791999999999999,-0.0397835,0.750975,0.7151099999999999,-0.1168934999999999,1.125185,0.48417,-0.0342625,1.202815,0.71761,-0.1049435,0.693145,0.96729,-0.1905235,1.2331649999999998,0.971,-0.1830235,0.921816,-0.0002,-0.0003174999999999,1.078184,0.0001999999999999,0.0003174999999999,0.832205,-0.16815,-0.2615435,1.1464349999999999,-0.16551,-0.2591135,0.852055,-0.43312,-0.0700834999999999,1.121155,-0.4481900000000001,-0.0525534999999999
62,0.994552,0.6953,-0.0560894999999999,0.853618,0.47982,-0.0438695,0.750738,0.71468,-0.1229794999999999,1.125718,0.4856,-0.0390265,1.203498,0.71504,-0.1088095,0.691818,0.96691,-0.1979994999999999,1.235668,0.96723,-0.1892994999999999,0.921807,-0.0002599999999999,0.0002305,1.078193,0.0002599999999999,-0.0002305,0.828948,-0.14439,-0.2723795,1.147608,-0.14329,-0.2718395,0.851928,-0.4082099999999999,-0.0713594999999999,1.121848,-0.42147,-0.0570894999999999
63,0.995087,0.69575,-0.0607665,0.8553100000000001,0.47986,-0.0485265,0.7506000000000002,0.71421,-0.1289765,1.1263,0.4855,-0.0442865,1.20457,0.71524,-0.1134365,0.6910499999999999,0.96579,-0.2060665,1.2383,0.96511,-0.1964965,0.921824,-0.0004,0.0007714999999999,1.078176,0.0004,-0.0007715,0.82614,-0.12051,-0.2813664999999999,1.14852,-0.12142,-0.2843765,0.85185,-0.38259,-0.0736465,1.12275,-0.39409,-0.0613565
64,0.9957,0.693765,-0.0630635,0.85693,0.4793739999999999,-0.0516035,0.75036,0.713195,-0.1325535,1.12693,0.484718,-0.0480835,1.20562,0.7092849999999999,-0.1158034999999999,0.69042,0.959635,-0.2115835,1.24051,0.957135,-0.2011135,0.921824,1.4999999999987246e-05,0.0007785,1.078176,-1.5000000000042755e-05,-0.0007784999999999,0.8230500000000001,-0.097715,-0.2883435,1.14935,-0.099515,-0.2944235,0.85178,-0.357555,-0.0743835,1.12346,-0.367215,-0.0639235
65,0.996355,0.6895899999999999,-0.065216,0.858105,0.479927,-0.054006,0.750325,0.71326,-0.135826,1.127745,0.485422,-0.050656,1.206875,0.70598,-0.118236,0.690295,0.95554,-0.216646,1.242985,0.95183,-0.205196,0.9215490000000001,-0.00023,0.0008009999999999,1.0784509999999998,0.00023,-0.000801,0.820505,-0.07755,-0.291736,1.149985,-0.08111,-0.2995859999999999,0.851865,-0.3364399999999999,-0.0752159999999999,1.124425,-0.34378,-0.066396
66,0.9968255,0.685565,-0.067164,0.8590424999999999,0.479749,-0.056334,0.7498525,0.716025,-0.138594,1.1282424999999998,0.485793,-0.053184,1.2078125,0.701945,-0.120754,0.6896525,0.954325,-0.221274,1.2455924999999999,0.946005,-0.209614,0.9214135,-0.0002749999999999,0.0008689999999999,1.0785865000000001,0.000275,-0.000869,0.8178325000000001,-0.0558849999999999,-0.295074,1.1504424999999998,-0.0626949999999999,-0.304734,0.8518425000000001,-0.315905,-0.075474,1.1250125,-0.3213049999999999,-0.069444
67,0.9975795000000001,0.68392,-0.0687075,0.8601795,0.4796859999999999,-0.0582274999999999,0.7495695,0.7159099999999999,-0.1398875,1.1291695,0.4868749999999999,-0.0549275,1.2091695,0.70121,-0.1232375,0.6897795,0.9533,-0.2250575,1.2488895,0.94364,-0.2138174999999999,0.9213535,-0.0004,0.0008745,1.0786465,0.0003999999999999,-0.0008745,0.8155595000000001,-0.03507,-0.2979275,1.1510894999999999,-0.04504,-0.3089475,0.8521295,-0.29689,-0.0757175,1.1258895,-0.2998,-0.0722275
68,0.9981835,0.6814100000000001,-0.070157,0.8610085000000001,0.47956,-0.0597369999999999,0.7491085,0.71453,-0.140727,1.1303284999999998,0.4882,-0.056127,1.2108185,0.70082,-0.125587,0.6886385000000002,0.95082,-0.2288369999999999,1.2527585,0.94369,-0.216747,0.9213845,-0.0005399999999999,0.0009979999999999,1.0786155,0.0005399999999999,-0.0009979999999999,0.8137085,-0.0208599999999999,-0.299847,1.1517285,-0.0308799999999999,-0.312237,0.8517185,-0.2802699999999999,-0.0765069999999999,1.1265285,-0.28014,-0.074347
69,0.9986825,0.6797350000000001,-0.0704335,0.8615135,0.4794390000000001,-0.0606035,0.7480135,0.7130850000000001,-0.1410435,1.1308935,0.4890710000000001,-0.0567635,1.2126535,0.6996550000000001,-0.1266635,0.6876635000000001,0.949405,-0.2296535,1.2572635,0.941555,-0.2195734999999999,0.9213365,-0.0005849999999999,0.0010844999999999,1.0786635,0.000585,-0.0010845,0.8123635000000001,-0.0109749999999999,-0.3006335,1.1523035,-0.0219049999999999,-0.3136735,0.8511635000000001,-0.2690249999999999,-0.0774235,1.1269334999999998,-0.2672749999999999,-0.0759235
70,0.9988755000000001,0.6790200000000001,-0.0704835,0.8617055,0.4797530000000001,-0.0608735,0.7479955,0.7126100000000001,-0.1408035,1.1311955,0.49018,-0.0571035,1.2143455,0.6990600000000001,-0.1276035,0.6863155000000001,0.94836,-0.2302635,1.2617855,0.94016,-0.2219034999999999,0.9212445,-0.0006499999999999,0.0011865,1.0787555,0.00065,-0.0011865,0.8108055000000001,-0.0038599999999998,-0.3005835,1.1524855,-0.0149499999999999,-0.3144335,0.8503355,-0.2611999999999999,-0.0783534999999999,1.1271054999999999,-0.2578699999999999,-0.0767934999999999
71,0.9991675000000001,0.67905,-0.0705274999999999,0.8619844999999999,0.479759,-0.0611375,0.7474745,0.71271,-0.1405975,1.1315945,0.490343,-0.0575275,1.2158745,0.69908,-0.1284075,0.6852045,0.94751,-0.2306474999999999,1.2654645,0.93984,-0.2237875,0.9211165,-0.0006199999999999,0.0013034999999999,1.0788834999999999,0.00062,-0.0013034999999999,0.8093745,0.00268,-0.3005374999999999,1.1526945,-0.00817,-0.3150975,0.8494945,-0.2535199999999999,-0.0792475,1.1272845,-0.2493499999999999,-0.0775775
72,0.9997215000000002,0.678215,-0.070535,0.8625455,0.481091,-0.060965,0.7467455000000001,0.712925,-0.140335,1.1322154999999998,0.492224,-0.057355,1.2173355,0.696655,-0.128925,0.6846355,0.947385,-0.230495,1.2691955,0.938005,-0.225585,0.9212415,-0.0007249999999999,0.0013629999999999,1.0787585,0.0007249999999999,-0.001363,0.8084955,0.0052949999999999,-0.300415,1.1530055,-0.004695,-0.315095,0.8494655,-0.250835,-0.0795749999999999,1.1274855,-0.2453849999999999,-0.078235
73,0.9999805,0.67881,-0.070523,0.8628825,0.481348,-0.060803,0.7458925000000001,0.71238,-0.139463,1.1326725,0.492837,-0.057233,1.2185625,0.69828,-0.129343,0.6836725,0.95053,-0.230433,1.2727225,0.94092,-0.227263,0.9212955,-0.0007699999999999,0.0014549999999999,1.0787045,0.00077,-0.001455,0.8077425,0.00685,-0.300373,1.1530425,-0.0025699999999999,-0.315133,0.8487225,-0.2496699999999999,-0.0803929999999999,1.1275825,-0.2431099999999999,-0.078983
74,1.000088,0.67947,-0.0704799999999999,0.863182,0.480998,-0.0606199999999999,0.745552,0.71151,-0.13818,1.133152,0.492892,-0.05701,1.220102,0.69973,-0.12981,0.682682,0.95271,-0.23021,1.276392,0.94289,-0.22743,0.921361,-0.00077,0.0015509999999999,1.078639,0.00077,-0.0015509999999999,0.807402,0.0084999999999999,-0.30031,1.1530420000000001,-0.0009399999999999,-0.3156,0.8486819999999999,-0.2487399999999999,-0.08095,1.127642,-0.2415699999999999,-0.0796099999999999
75,1.0002575,0.680305,-0.0703129999999999,0.8631854999999999,0.480418,-0.060163,0.7448655,0.710585,-0.137383,1.1337155,0.492788,-0.056763,1.2217455,0.701145,-0.130013,0.6818655,0.954305,-0.2299129999999999,1.2799855,0.944495,-0.2280829999999999,0.9213935,-0.0007649999999999,0.0016439999999999,1.0786065,0.000765,-0.0016439999999999,0.8072155,0.009755,-0.300033,1.1533755,0.000435,-0.316253,0.8487955,-0.2481249999999999,-0.0811129999999999,1.1278755,-0.2400049999999999,-0.0793829999999999
76,1.000434,0.6803649999999999,-0.0702434999999999,0.863336,0.4807349999999999,-0.0596634999999999,0.7448060000000001,0.710625,-0.1361735,1.134246,0.4929629999999999,-0.0563935,1.223376,0.7009449999999999,-0.1301835,0.681146,0.955065,-0.2295335,1.283226,0.944725,-0.2292735,0.921403,-0.000675,0.0016305,1.078597,0.0006749999999999,-0.0016304999999999,0.8070760000000001,0.0099149999999998,-0.2998135,1.153656,0.0007549999999999,-0.3169335,0.8489860000000001,-0.2484250000000001,-0.0809034999999999,1.128176,-0.239825,-0.0791735
77,1.0007214999999998,0.6805500000000001,-0.0700585,0.8635815,0.48096,-0.0591285,0.7452215,0.7106100000000001,-0.1350385,1.1348415,0.4931250000000001,-0.0560084999999999,1.2248315,0.7006100000000001,-0.1304785,0.6810514999999999,0.95554,-0.2291484999999999,1.2856515,0.94476,-0.2296685,0.9214185,-0.0005899999999999,0.0016305,1.0785815,0.00059,-0.0016305,0.8070215000000001,0.01001,-0.2997585,1.1538815,0.00082,-0.3177585,0.8495715,-0.2483199999999998,-0.0805384999999999,1.1285315,-0.2397699999999999,-0.0788184999999999
78,1.001039,0.6805500000000001,-0.069871,0.863902,0.48096,-0.058731,0.7458020000000001,0.7106100000000001,-0.134711,1.135422,0.4931250000000001,-0.0556409999999999,1.225682,0.6999900000000001,-0.130161,0.681262,0.95585,-0.229011,1.287102,0.94438,-0.229371,0.921454,-0.0005899999999999,0.0016569999999999,1.078546,0.00059,-0.001657,0.807052,0.01002,-0.299701,1.1540219999999999,0.00074,-0.318581,0.850152,-0.2483199999999998,-0.0802109999999999,1.128802,-0.2396099999999998,-0.078621
79,1.001442,0.6803549999999999,-0.0696809999999999,0.8643340000000002,0.4817829999999999,-0.058311,0.7464740000000001,0.7106549999999999,-0.133741,1.136074,0.4930969999999999,-0.0552509999999999,1.226394,0.7004949999999999,-0.129811,0.6819040000000001,0.956025,-0.2285809999999999,1.288244,0.944555,-0.2290309999999999,0.9214670000000001,-0.000485,0.001633,1.078533,0.0004849999999999,-0.0016329999999999,0.807374,0.0100549999999999,-0.299751,1.154204,0.0006949999999998,-0.319001,0.850904,-0.248515,-0.0797809999999999,1.129284,-0.2396850000000001,-0.078441
80,1.0018099999999999,0.68015,-0.0695089999999999,0.8646929999999999,0.482539,-0.0579689999999999,0.747073,0.7106,-0.133519,1.136673,0.493019,-0.054969,1.226993,0.70113,-0.129589,0.6825130000000001,0.95625,-0.2281389999999999,1.288843,0.94478,-0.2288089999999999,0.921486,-0.0003999999999999,0.001506,1.078514,0.0003999999999999,-0.0015059999999999,0.807803,0.00985,-0.299909,1.1545429999999999,0.00063,-0.318879,0.851653,-0.2487199999999999,-0.079409,1.129893,-0.23989,-0.078429
81,1.0019725,0.68059,-0.0693375,0.8650945,0.48287,-0.0577275,0.7475244999999999,0.71195,-0.1333375,1.1371845,0.492884,-0.0547275,1.2281245,0.70085,-0.1293975,0.6830445,0.95784,-0.2279574999999999,1.2899445,0.94447,-0.2286375,0.9214495,-0.00029,0.0013255,1.0785505,0.00029,-0.0013254999999999,0.8083145,0.00917,-0.3001375,1.1549045,9.00000000000345e-05,-0.3186975,0.8522445000000001,-0.24897,-0.0791675,1.1304044999999998,-0.2401999999999999,-0.0787374999999999
82,1.001984,0.6812349999999999,-0.069155,0.865383,0.482778,-0.057445,0.7478830000000001,0.712815,-0.133255,1.137563,0.4924769999999999,-0.054485,1.229173,0.7004049999999999,-0.129115,0.683523,0.958585,-0.227545,1.290683,0.943675,-0.228175,0.921381,-0.000205,0.0011409999999999,1.078619,0.000205,-0.001141,0.808763,0.007915,-0.3002249999999999,1.155243,-0.001025,-0.318515,0.853003,-0.249615,-0.078875,1.130793,-0.240875,-0.078795
83,1.00189,0.68222,-0.0688999999999999,0.8649490000000001,0.4822040000000001,-0.0570499999999999,0.7482390000000001,0.71367,-0.1326999999999999,1.137509,0.491624,-0.0537999999999999,1.229629,0.6980600000000001,-0.12872,0.6840189999999999,0.95846,-0.22686,1.2911489999999999,0.94069,-0.2276599999999999,0.921329,-0.0002399999999999,0.000978,1.078671,0.00024,-0.0009779999999999,0.8092090000000001,0.00429,-0.30025,1.155609,-0.0043999999999999,-0.31828,0.854109,-0.25276,-0.0782199999999999,1.1312389999999999,-0.2440699999999999,-0.07868
84,1.0016174999999998,0.68276,-0.0687065,0.8641814999999999,0.481569,-0.0566965,0.7486515,0.71357,-0.1330765,1.1372815,0.491069,-0.0529064999999999,1.2298915,0.7008300000000001,-0.1281565,0.6844815,0.95815,-0.2266965,1.2914715,0.94359,-0.2268065,0.9212775,-0.0002699999999999,0.0007964999999999,1.0787225,0.0002699999999999,-0.0007965,0.8095515,-0.00129,-0.3000865,1.1556715,-0.00939,-0.3178665,0.8553815,-0.25786,-0.0777165,1.1317015,-0.2497199999999999,-0.0784665
85,1.0011789999999998,0.68341,-0.068226,0.863201,0.481118,-0.056156,0.748881,0.7138800000000001,-0.133136,1.136951,0.490276,-0.051776,1.229921,0.7011499999999999,-0.127066,0.684871,0.95613,-0.226386,1.2915510000000001,0.94416,-0.225376,0.921312,-0.0003699999999999,0.0007979999999999,1.078688,0.0003699999999999,-0.000798,0.810271,-0.00843,-0.299786,1.155681,-0.0158,-0.316976,0.856731,-0.2652299999999999,-0.076866,1.132181,-0.25765,-0.078066
86,1.0004709999999999,0.68449,-0.0675935,0.862134,0.48042,-0.0555735,0.749124,0.71304,-0.1326735,1.136414,0.489499,-0.0504235,1.229214,0.69986,-0.1252235,0.6853739999999999,0.95548,-0.2256835,1.291304,0.94324,-0.2228735,0.921266,-0.0004399999999999,0.0007444999999999,1.078734,0.0004399999999999,-0.0007445,0.811144,-0.01666,-0.2995135,1.155674,-0.0234199999999999,-0.3154435,0.857934,-0.2739899999999999,-0.0760435,1.132394,-0.26671,-0.0777535
87,0.9998545,0.686025,-0.0665419999999999,0.8610515,0.4798,-0.0548619999999999,0.7492015000000001,0.7134050000000001,-0.132202,1.1358315,0.488846,-0.0487819999999999,1.2290815,0.699075,-0.122972,0.6860015000000002,0.956045,-0.225142,1.2912314999999999,0.942575,-0.2202319999999999,0.9212625,-0.0004849999999999,0.000609,1.0787375,0.000485,-0.0006089999999999,0.8123914999999999,-0.0282749999999999,-0.298782,1.1556615,-0.0348349999999999,-0.312862,0.8593515,-0.2869849999999999,-0.075072,1.1326014999999998,-0.2818649999999999,-0.0773119999999999
88,0.999027,0.68767,-0.0651085,0.859592,0.479778,-0.0536485,0.749512,0.71448,-0.1315785,1.135092,0.487805,-0.0470685,1.228562,0.69753,-0.1206285,0.6867719999999999,0.95706,-0.2245184999999999,1.290802,0.94123,-0.2176284999999999,0.921254,-0.00044,0.0004635,1.078746,0.0004399999999999,-0.0004635,0.813582,-0.0423,-0.2978685,1.155382,-0.0487199999999999,-0.3096985,0.860652,-0.3033600000000001,-0.0740885,1.132512,-0.30112,-0.0762384999999999
89,0.9982445,0.689855,-0.0629075,0.8581485,0.480073,-0.0517374999999999,0.7496385,0.716315,-0.1305975,1.1343685,0.486642,-0.0448774999999999,1.2277585,0.695235,-0.1175874999999999,0.6874285,0.957435,-0.2235275,1.2903685,0.938595,-0.2141074999999999,0.9212655,-0.0004149999999999,0.0002595,1.0787345,0.000415,-0.0002594999999999,0.8149385,-0.0586949999999999,-0.2960374999999999,1.1549185,-0.064975,-0.3057775,0.8619685,-0.3231849999999999,-0.0726975,1.1325684999999999,-0.3239949999999999,-0.0742875
90,0.9975555,0.69196,-0.0603485,0.8565965,0.480687,-0.0492684999999999,0.7496365,0.71614,-0.1290784999999999,1.1336864999999998,0.486427,-0.0421484999999999,1.2268565,0.69737,-0.1142584999999999,0.6879265,0.9574,-0.2223585,1.2898465,0.94114,-0.2100284999999999,0.9212835,-0.0003199999999999,4.550000000000387e-05,1.0787165,0.00032,-4.549999999998999e-05,0.8162865,-0.0759999999999999,-0.2934285,1.1540765,-0.08071,-0.3006685,0.8631465,-0.3449599999999999,-0.0709984999999999,1.1327565,-0.34816,-0.0725684999999999
91,0.9970055,0.69466,-0.057266,0.8551085,0.481147,-0.0466059999999999,0.7496484999999999,0.71416,-0.127156,1.1330885,0.48574,-0.0391559999999999,1.2259985,0.6983699999999999,-0.110766,0.6884585,0.95558,-0.220406,1.2894885,0.94241,-0.204406,0.9213115000000001,-0.0002699999999999,-0.0001819999999999,1.0786885,0.0002699999999999,0.000182,0.8178685,-0.09336,-0.2894059999999999,1.1530885,-0.0973,-0.295276,0.8641985,-0.36845,-0.0691759999999999,1.1327684999999998,-0.37362,-0.070386
92,0.9967830000000001,0.697055,-0.0535715,0.854397,0.4832749999999999,-0.0431515,0.750287,0.7162649999999999,-0.1240515,1.133127,0.4855549999999999,-0.0360015,1.226547,0.699085,-0.1066115,0.689527,0.958475,-0.2179515,1.290097,0.943635,-0.1985015,0.9215409999999999,-5.500000000002725e-05,-0.0002015,1.078459,5.499999999997174e-05,0.0002014999999999,0.8199069999999999,-0.110365,-0.2832715,1.152077,-0.115385,-0.2894314999999999,0.864787,-0.3939950000000001,-0.0669115,1.133007,-0.4008750000000001,-0.0677115
93,0.9966960000000001,0.69946,-0.049388,0.853916,0.48512,-0.0389979999999999,0.7509760000000001,0.71495,-0.117538,1.133286,0.48582,-0.032208,1.2273859999999999,0.6933,-0.101958,0.690836,0.95571,-0.214468,1.2904360000000001,0.9368,-0.191788,0.922165,0.00015,-0.000181,1.077835,-0.0001499999999999,0.000181,0.822106,-0.1298499999999999,-0.275358,1.150616,-0.1352699999999999,-0.281848,0.8654660000000001,-0.42291,-0.065108,1.1332659999999999,-0.4303899999999999,-0.064138
94,0.9967845,0.702375,-0.0451885,0.8535585,0.486675,-0.0348385,0.7512885,0.7139949999999999,-0.1133185,1.1339985,0.486155,-0.0283685,1.2287185,0.693335,-0.0972485,0.6915585,0.955155,-0.2103785,1.2912285,0.936495,-0.1855885,0.9227985,0.000255,-6.849999999999912e-05,1.0772015,-0.000255,6.849999999999912e-05,0.8240085,-0.1470949999999999,-0.2670285,1.1489485,-0.153275,-0.2740985,0.8661485,-0.449235,-0.0624484999999999,1.1331685,-0.4574149999999999,-0.0606685
95,0.997317,0.705605,-0.0407045,0.853151,0.489585,-0.0302545,0.751901,0.711915,-0.1079745,1.134961,0.486475,-0.0245265,1.231171,0.696965,-0.0927445,0.6925410000000001,0.949185,-0.2060445,1.292911,0.940155,-0.1801045,0.923503,0.000445,0.0001234999999999,1.076497,-0.000445,-0.0001234999999999,0.826121,-0.166525,-0.2569445,1.146991,-0.172915,-0.2646345,0.867081,-0.477705,-0.0596945,1.1329609999999999,-0.4882350000000001,-0.0566944999999999
96,0.9984880000000002,0.70911,-0.035827,0.853147,0.49276,-0.025147,0.753007,0.70963,-0.102177,1.136407,0.48671,-0.0205059999999999,1.232687,0.6959299999999999,-0.088157,0.693997,0.94633,-0.201267,1.294937,0.93958,-0.174597,0.924615,0.00053,0.000197,1.075385,-0.00053,-0.000197,0.828827,-0.18774,-0.243877,1.145147,-0.19345,-0.252377,0.867927,-0.5074000000000001,-0.0568469999999999,1.133087,-0.5185299999999999,-0.052467
97,0.9999245,0.7103950000000001,-0.0261364999999999,0.8533045000000001,0.492405,-0.0161665,0.7532145,0.708855,-0.0921765,1.1383945,0.488185,-0.0119374999999999,1.2347945,0.6985650000000001,-0.0793265,0.6934345,0.945145,-0.1922565,1.2976345,0.942295,-0.1645565,0.9256795,0.000595,0.0001025,1.0743205,-0.0005949999999999,-0.0001024999999999,0.8338145000000001,-0.212825,-0.2208264999999999,1.1417645,-0.218105,-0.2295565,0.8689645,-0.540575,-0.0465265,1.1331145,-0.5518749999999999,-0.0409065
98,1.001487,0.711505,-0.0171645,0.8535,0.492865,-0.0077535,0.75295,0.708515,-0.0825645,1.14044,0.489695,-0.0038305,1.23759,0.701795,-0.0711845,0.69228,0.945025,-0.1832045,1.30085,0.946255,-0.1553245,0.9267690000000001,0.0006249999999999,-1.4500000000000624e-05,1.0732309999999998,-0.0006249999999999,1.4500000000000624e-05,0.83907,-0.235865,-0.1980845,1.13843,-0.240435,-0.2061245,0.8700600000000001,-0.570875,-0.0365145,1.1334,-0.582105,-0.0299345
99,1.0030825,0.7131500000000001,-0.008212,0.8538304999999999,0.4937,0.0002899999999999,0.7522905000000001,0.70968,-0.073362,1.1426505,0.49036,0.0036639999999999,1.2407205000000001,0.7015,-0.063542,0.6912405000000001,0.94373,-0.174132,1.3038905,0.94589,-0.146732,0.9278135,0.0006899999999999,-0.000136,1.0721865,-0.00069,0.0001359999999999,0.8447105,-0.2578,-0.174542,1.1353705,-0.2631099999999999,-0.182082,0.8715105000000001,-0.59924,-0.026442,1.1336905,-0.6115999999999999,-0.018602
100,1.0045975,0.7143849999999999,0.00035,0.8542225000000001,0.494935,0.0080419999999999,0.7516925,0.713255,-0.064495,1.1448125,0.491485,0.0107219999999999,1.2438425,0.703305,-0.056325,0.6902825,0.944765,-0.165845,1.3068225,0.947605,-0.139705,0.9287755,0.000842,-0.0002329999999999,1.0712245,-0.0008419999999999,0.0002329999999999,0.8501725,-0.278925,-0.151795,1.1325625,-0.2840749999999999,-0.157995,0.8730025000000001,-0.625715,-0.016535,1.1341825,-0.639705,-0.0072149999999999
101,1.005849,0.7158835,0.0084829999999999,0.8545330000000001,0.4949435,0.0149569999999999,0.750733,0.7129735,-0.056865,1.1468530000000001,0.4922435,0.0171279999999999,1.246933,0.7068735,-0.049615,0.688463,0.9419735,-0.158345,1.309653,0.9515035,-0.133235,0.929391,0.0009595,-0.000505,1.070609,-0.0009595,0.0005049999999999,0.855133,-0.2982065,-0.129775,1.129743,-0.3018465,-0.133655,0.873963,-0.6480064999999999,-0.006965,1.134523,-0.6640364999999999,0.0035049999999999
102,1.006612,0.7173299999999999,0.016497,0.8544970000000001,0.4956,0.021343,0.749347,0.7163299999999999,-0.05025,1.148317,0.49188,0.022582,1.248857,0.7110399999999999,-0.04306,0.685947,0.9448,-0.1504,1.3116970000000001,0.95661,-0.12722,0.929789,0.0011569999999999,-0.0007899999999999,1.070211,-0.001157,0.0007899999999999,0.859847,-0.31394,-0.10855,1.127107,-0.31708,-0.11009,0.874507,-0.66595,0.00264,1.134337,-0.6843,0.014831
103,1.007257,0.7178565,0.024422,0.8542190000000001,0.4959365,0.027254,0.747769,0.7186665,-0.0436749999999999,1.149639,0.4915865,0.027606,1.250769,0.7116264999999999,-0.0369849999999999,0.683529,0.9473065,-0.143055,1.3137889999999999,0.9572965,-0.121455,0.930124,0.0014175,-0.001055,1.069876,-0.0014175,0.001055,0.864559,-0.3308135,-0.087095,1.124579,-0.3329135,-0.086515,0.875009,-0.6845335,0.0122349999999999,1.134179,-0.7043735,0.025749
104,1.0077155,0.717463,0.032044,0.8539745,0.4949829999999999,0.032498,0.7459445,0.723193,-0.037785,1.1506945,0.491283,0.032277,1.2521145,0.709803,-0.0311449999999999,0.6808145,0.954083,-0.135885,1.3156744999999999,0.955373,-0.1159849999999999,0.9303095,0.001555,-0.001235,1.0696905,-0.0015549999999999,0.001235,0.8690245,-0.344667,-0.066705,1.1223045,-0.346027,-0.064165,0.8754245,-0.699607,0.021842,1.1338345,-0.719427,0.035899
105,1.00812,0.7163395,0.0388589999999999,0.853656,0.4934195,0.037497,0.743926,0.7266495000000001,-0.03261,1.151806,0.4912195,0.037149,1.2526760000000001,0.7120895,-0.02634,0.6778759999999999,0.9567695,-0.12921,1.316206,0.9573295,-0.11148,0.9303669999999999,0.0016735,-0.00132,1.069633,-0.0016734999999999,0.00132,0.8730760000000001,-0.3534405,-0.04919,1.1207859999999998,-0.3545705,-0.04528,0.875646,-0.7091605,0.0309259999999999,1.133436,-0.7289905,0.045376
106,1.008324,0.7173780000000001,0.042529,0.853348,0.494558,0.040297,0.743448,0.7277279999999999,-0.0296799999999999,1.151948,0.490488,0.039908,1.253038,0.711328,-0.0237899999999999,0.676918,0.957428,-0.12513,1.316578,0.956668,-0.1084899999999999,0.930455,0.0017089999999999,-0.00132,1.069545,-0.001709,0.00132,0.8752380000000001,-0.355962,-0.0387199999999999,1.121018,-0.356552,-0.03504,0.875668,-0.7116819999999999,0.034568,1.133208,-0.732132,0.0487949999999999
107,1.008488,0.717978,0.0465219999999999,0.853101,0.494408,0.0435459999999999,0.743301,0.7275980000000001,-0.027035,1.152041,0.489798,0.0428699999999999,1.253451,0.710828,-0.020575,0.676211,0.957968,-0.121755,1.316921,0.956208,-0.105375,0.930592,0.0017929999999999,-0.001325,1.069408,-0.001793,0.0013249999999999,0.8773110000000001,-0.357912,-0.027795,1.121181,-0.358292,-0.0252249999999999,0.8757610000000001,-0.713822,0.0382629999999999,1.132971,-0.7346119999999999,0.0523989999999999
108,1.0081725,0.71782,0.050548,0.8526195,0.49372,0.046763,0.7429395000000001,0.72683,-0.02412,1.1518395,0.48939,0.046086,1.2536595,0.7104,-0.0170799999999999,0.6753995000000002,0.95907,-0.1183799999999999,1.3170095,0.95588,-0.1022899999999999,0.9301505,0.0017689999999999,-0.0013099999999999,1.0698495,-0.0017689999999999,0.00131,0.8787495,-0.35997,-0.01785,1.1210095,-0.35974,-0.0166899999999999,0.8757195,-0.71525,0.0417,1.1324995,-0.73616,0.055352
109,1.007676,0.717236,0.0524909999999999,0.851892,0.492846,0.0479659999999999,0.7423919999999999,0.725866,-0.02165,1.1514319999999998,0.489226,0.0474479999999999,1.253722,0.7100460000000001,-0.01561,0.674482,0.960146,-0.11585,1.316812,0.955536,-0.10071,0.929703,0.001736,-0.00124,1.070297,-0.0017359999999999,0.0012399999999999,0.879952,-0.360934,-0.01031,1.120752,-0.360324,-0.0109,0.875452,-0.716424,0.0428049999999999,1.131842,-0.737394,0.0557389999999999
110,1.0069735,0.7165499999999999,0.0537989999999999,0.8509725,0.49216,0.049052,0.7416525,0.7251799999999999,-0.0199649999999999,1.1509525,0.4894,0.0487999999999999,1.2537425,0.7098,-0.014925,0.6734825000000001,0.96117,-0.113835,1.3168825,0.9552,-0.099865,0.9293505,0.001615,-0.001235,1.0706495,-0.0016149999999999,0.001235,0.8808125,-0.36162,-0.004445,1.1205625,-0.36063,-0.007235,0.8749625,-0.7173400000000001,0.042862,1.1309825,-0.73829,0.0552439999999999
111,1.0059945,0.7162485,0.054654,0.8499035,0.4918685,0.049712,0.7406135,0.7248785,-0.0189499999999999,1.1503535,0.4899985,0.050109,1.2536835,0.7098585,-0.01506,0.6723435,0.9620485,-0.11285,1.3171335,0.9551385,-0.0997899999999999,0.9291605000000001,0.0014484999999999,-0.00118,1.0708395,-0.0014485,0.00118,0.8812235,-0.3621515,0.0001299999999999,1.1204435,-0.3607115,-0.00508,0.8740335000000001,-0.7178415,0.041877,1.1300235,-0.7386115,0.053419
112,1.004805,0.716032,0.0549859999999999,0.8488169999999999,0.4916719999999999,0.0504339999999999,0.739437,0.724782,-0.01857,1.149677,0.490632,0.0511199999999999,1.253457,0.7098720000000001,-0.01574,0.671207,0.962802,-0.11234,1.3172169999999999,0.955032,-0.10023,0.929005,0.00127,-0.0012,1.070995,-0.00127,0.0011999999999999,0.881297,-0.362848,0.0035699999999999,1.120297,-0.360808,-0.00378,0.8730169999999999,-0.718368,0.0400159999999999,1.128887,-0.7388279999999999,0.0511579999999999
113,1.003628,0.7155885,0.0549715,0.847837,0.4913185,0.0511115,0.738347,0.7241985,-0.0184644999999999,1.149087,0.4912984999999999,0.0518925,1.253217,0.7098785,-0.0166245,0.670187,0.9633385,-0.1122745,1.317097,0.9549285,-0.1008244999999999,0.928897,0.0011064999999999,-0.0012844999999999,1.071103,-0.0011064999999999,0.0012845,0.881257,-0.3639715,0.0060165,1.120167,-0.3610915,-0.0034845,0.872077,-0.7188515,0.0376705,1.127837,-0.7390015,0.0486645
114,1.0026745,0.714819,0.0546344999999999,0.8471045,0.4906589999999999,0.0510734999999999,0.7374745,0.723449,-0.0187745,1.1486945,0.491699,0.0516115,1.2531345,0.709549,-0.0176344999999999,0.6694345000000002,0.963439,-0.1124245,1.3168045,0.954539,-0.1019844999999999,0.9287385,0.0009769999999999,-0.0013704999999999,1.0712615,-0.0009769999999999,0.0013704999999999,0.8812745,-0.365051,0.0074484999999999,1.1202445,-0.361271,-0.0036805,0.8714045,-0.7192810000000001,0.0352904999999999,1.1271145,-0.739021,0.0460794999999999
115,1.0022145,0.7142595,0.0540574999999999,0.8468735000000001,0.4901795,0.0505565,0.7371935000000001,0.7229195,-0.0192425,1.1485835,0.4917895,0.0504465,1.2536035,0.7091395,-0.0197625,0.6691435,0.9633695,-0.1129125,1.3166134999999999,0.9542295,-0.1058525,0.9286645,0.0008554999999999,-0.0014115,1.0713355,-0.0008554999999999,0.0014114999999999,0.8812135,-0.3657605,0.0076624999999999,1.1205635,-0.3615605,-0.0044925,0.8709935,-0.7195404999999999,0.0323394999999999,1.1268235,-0.7389505,0.0432204999999999
116,1.0016345,0.713893,0.0530259999999999,0.8466915,0.489903,0.0497149999999999,0.7364014999999999,0.7225630000000001,-0.019812,1.1485414999999999,0.491803,0.0492209999999999,1.2540615,0.7088230000000001,-0.023102,0.6685315000000001,0.963383,-0.113472,1.3164814999999999,0.954003,-0.110062,0.9286615,0.0007759999999999,-0.001494,1.0713385,-0.0007759999999999,0.0014939999999999,0.8811815000000001,-0.366167,0.0068489999999999,1.1207415,-0.361767,-0.005832,0.8706615,-0.719707,0.0293659999999999,1.1266415,-0.7386569999999999,0.0402289999999999
117,1.0008724999999998,0.7135455,0.0515479999999999,0.8464075,0.4897255,0.0489389999999999,0.7348775000000001,0.7221255,-0.020352,1.1485075,0.4918655,0.0479509999999999,1.2544275,0.7085555,-0.027092,0.6676475,0.9634455,-0.114102,1.3163574999999998,0.9537955,-0.114032,0.9286645,0.0007134999999999,-0.001408,1.0713355,-0.0007134999999999,0.0014079999999999,0.8811375000000001,-0.3664345,0.0053949999999999,1.1206875,-0.3619345,-0.007453,0.8702575000000001,-0.7197344999999999,0.0262689999999999,1.1265175,-0.7383244999999999,0.0372779999999999
118,0.9995590000000001,0.7131784999999999,0.04924,0.8445690000000001,0.4892584999999999,0.048998,0.730289,0.7188884999999999,-0.0205479999999999,1.148179,0.4919084999999999,0.046314,1.255229,0.7072585,-0.030918,0.665799,0.9563485,-0.113858,1.313799,0.9499485,-0.1177579999999999,0.928557,0.0005705,-0.00132,1.071443,-0.0005705,0.00132,0.881109,-0.3667315,0.0033009999999999,1.120749,-0.3621315,-0.0089879999999999,0.8698890000000001,-0.7196615000000001,0.023078,1.1265290000000001,-0.7379215,0.034401
119,0.9980980000000002,0.7128859999999999,0.0467005,0.842698,0.488976,0.0492785,0.724138,0.713556,-0.0207424999999999,1.147788,0.4920159999999999,0.0441545,1.257728,0.7032959999999999,-0.0340184999999999,0.663558,0.945176,-0.1139284999999999,1.311268,0.943296,-0.1209684999999999,0.928387,0.0003249999999999,-0.0010314999999999,1.071613,-0.0003249999999999,0.0010315,0.8810880000000001,-0.366984,0.0007065,1.121318,-0.362244,-0.0098204999999999,0.870058,-0.7194440000000001,0.0203665,1.127028,-0.737464,0.0321645
120,0.9967275,0.7128255,0.044484,0.8405205,0.4889354999999999,0.04987,0.7163005,0.7060555,-0.0206569999999999,1.1475805000000001,0.4917654999999999,0.041903,1.2617205,0.6970255,-0.0364739999999999,0.6613405,0.9330155,-0.1138239999999999,1.3084305,0.9320855,-0.1248439999999999,0.9282535000000001,-3.500000000000031e-06,-0.0005599999999999,1.0717465,3.500000000000031e-06,0.00056,0.8813605,-0.3670845,-0.0015609999999999,1.1223405,-0.3620745,-0.0105929999999999,0.8709405,-0.7189045000000001,0.01808,1.1281705,-0.7369045,0.030398
121,0.9951985,0.7129989999999999,0.043344,0.8383535,0.489139,0.050939,0.7073735000000001,0.6937789999999999,-0.0189629999999999,1.1476335,0.491209,0.040713,1.2675535,0.6876789999999999,-0.0395819999999999,0.6596335000000001,0.921309,-0.1133519999999999,1.3055235,0.919519,-0.129212,0.9281055,-0.0003549999999999,6.40000000000085e-05,1.0718945,0.000355,-6.399999999999462e-05,0.8820335,-0.366781,-0.0027689999999999,1.1238335,-0.361401,-0.0116619999999999,0.8725835,-0.717941,0.016841,1.1300235,-0.735911,0.029338
122,0.9936165000000001,0.7133505,0.0428289999999999,0.8362245,0.4893105,0.052523,0.6978945,0.6797704999999999,-0.016308,1.1476345000000001,0.4900505,0.040149,1.2743345,0.6734705,-0.043511,0.6579545,0.9079205,-0.113871,1.3010745,0.9016205,-0.135701,0.9279915,-0.0006844999999999,0.0006319999999999,1.0720085,0.0006845,-0.000632,0.8827245000000001,-0.3673495,-0.003355,1.1257445,-0.3605195,-0.012286,0.8749645,-0.7165295,0.0162019999999999,1.1326145,-0.7344695,0.0286929999999999
123,0.9916,0.713907,0.04149,0.834271,0.489577,0.054415,0.687691,0.661937,-0.0126269999999999,1.147901,0.488427,0.03973,1.2790709999999998,0.6569470000000001,-0.0465739999999999,0.6535610000000001,0.882077,-0.1138839999999999,1.2964310000000001,0.876987,-0.143874,0.927884,-0.0009989999999999,0.000785,1.072116,0.0009989999999999,-0.0007849999999999,0.883901,-0.3675029999999999,-0.0040059999999999,1.127991,-0.360473,-0.0125049999999999,0.878241,-0.714603,0.01591,1.136101,-0.732493,0.028435
124,0.989583,0.7153164999999999,0.0387999999999999,0.833005,0.4898265,0.0559019999999999,0.676895,0.6361665,-0.008416,1.148225,0.4862165,0.0381249999999999,1.284725,0.6265565,-0.048657,0.650425,0.8490865,-0.113777,1.291755,0.8398964999999999,-0.155037,0.927789,-0.0012305,0.0007879999999999,1.072211,0.0012304999999999,-0.000788,0.8862050000000001,-0.3670934999999999,-0.005721,1.130915,-0.3601135,-0.012596,0.883635,-0.7114235000000001,0.0152329999999999,1.141815,-0.7294735,0.0282559999999999
125,0.9876705,0.717213,0.0352315,0.8323345,0.489973,0.0573945,0.6658845,0.604413,-0.0022635,1.1490145,0.483993,0.0360835,1.2917245,0.591223,-0.0483395,0.6484945,0.811433,-0.1138295,1.2870245,0.796243,-0.1677595,0.9277545000000001,-0.001398,0.0008505,1.0722455,0.001398,-0.0008505,0.8893145,-0.3661069999999999,-0.0077394999999999,1.1339145,-0.359707,-0.0138334999999999,0.8903245,-0.707627,0.0144634999999999,1.1487145,-0.725897,0.0280645
126,0.9860015000000001,0.71976,0.0312294999999999,0.8320095000000001,0.49003,0.0585274999999999,0.6585195000000001,0.5678,0.0044964999999999,1.1494895,0.48148,0.0335494999999999,1.3000494999999999,0.5514399999999999,-0.0478785,0.6472895000000001,0.76747,-0.1136985,1.2828595,0.74566,-0.1778185,0.9278295,-0.001563,0.0012054999999999,1.0721705,0.001563,-0.0012055,0.8929195,-0.3652499999999999,-0.0098685,1.1364235,-0.3590799999999999,-0.0173425,0.8983795,-0.70309,0.0137864999999999,1.1564195,-0.7212500000000001,0.0272764999999999
127,0.9844015,0.7225255,0.026828,0.8331625,0.4898455,0.059619,0.6574325000000001,0.5335055000000001,0.012452,1.1499125000000001,0.4789555,0.031014,1.3077225000000001,0.5089155000000001,-0.0469819999999999,0.6487324999999999,0.7239855000000001,-0.1131819999999999,1.2817425,0.6912555,-0.1831519999999999,0.9278824999999999,-0.0017015,0.001712,1.0721175,0.0017014999999999,-0.0017119999999999,0.8970225000000001,-0.3640744999999999,-0.0115609999999999,1.1375525,-0.3606744999999999,-0.0237799999999999,0.9072625,-0.6982145,0.01379,1.1635325,-0.7161845,0.026194
128,0.9827830000000001,0.7255940000000001,0.0225749999999999,0.834604,0.489504,0.061325,0.659834,0.496664,0.0212219999999999,1.149678,0.476234,0.028399,1.312984,0.465934,-0.045378,0.652164,0.679014,-0.112118,1.281464,0.6316440000000001,-0.187458,0.927964,-0.00183,0.0023119999999999,1.072036,0.00183,-0.0023119999999999,0.901184,-0.363026,-0.012655,1.1379139999999999,-0.356866,-0.032358,0.916964,-0.692866,0.01419,1.169964,-0.710286,0.022861
129,0.9819110000000001,0.7287335,0.0186534999999999,0.8372570000000001,0.4887335,0.0639375,0.667767,0.4593835,0.0308654999999999,1.150117,0.4739035,0.0261845,1.314067,0.4249535,-0.0410455,0.658057,0.6288335,-0.1112055,1.281647,0.5694035,-0.1865155,0.927957,-0.0019975,0.0028595,1.072043,0.0019975,-0.0028595,0.906187,-0.3622965,-0.0127135,1.1365,-0.3530665,-0.0444855,0.927777,-0.6875065,0.0155294999999999,1.175357,-0.7039665,0.0184335
130,0.9813005,0.7317319999999999,0.0151084999999999,0.8403365,0.487472,0.0667965,0.6790565,0.422722,0.0425484999999999,1.1502184999999998,0.4716619999999999,0.0240624999999999,1.3127564999999999,0.387092,-0.0346575,0.6654465,0.571752,-0.1113075,1.2820165000000001,0.4999119999999999,-0.1829375,0.9281965000000001,-0.0021019999999999,0.0035415,1.0718035,0.0021019999999999,-0.0035415,0.9111865000000001,-0.363818,-0.0117504999999999,1.1327855,-0.348998,-0.0592375,0.9392465,-0.682658,0.0177844999999999,1.1767414999999999,-0.696568,0.0115084999999999
131,0.981269,0.734678,0.0117465,0.8440989999999999,0.486018,0.0693615,0.691959,0.387338,0.0531945,1.150728,0.469798,0.0223345,1.309159,0.352758,-0.0276244999999999,0.674759,0.511968,-0.1108644999999999,1.283589,0.431368,-0.1785744999999999,0.928369,-0.002225,0.0042255,1.071631,0.0022249999999999,-0.0042254999999999,0.917169,-0.365322,-0.0096554999999999,1.1261160000000001,-0.3449819999999999,-0.0779445,0.951919,-0.6781119999999999,0.0209255,1.173929,-0.691642,0.0010615
132,0.9825895000000001,0.7374325,0.009132,0.8488995,0.4841225,0.071544,0.7060995,0.3535925,0.062415,1.1517555,0.4682625,0.020764,1.3045495,0.3194625,-0.0219639999999999,0.6883995,0.4599725,-0.1097939999999999,1.2846395,0.3635425,-0.173024,0.9283995,-0.0023434999999999,0.004912,1.0716005,0.0023435,-0.004912,0.9228695000000001,-0.3683875,-0.007161,1.1178855,-0.3401274999999999,-0.0977739999999999,0.9658895000000001,-0.6740975,0.024782,1.1655115,-0.6847675,-0.0107069999999999
133,0.9836180000000001,0.7392145,0.0064029999999999,0.8532580000000001,0.4815844999999999,0.072346,0.717408,0.3271945,0.068157,1.15303,0.4671345,0.0197159999999999,1.295418,0.2993745,-0.017198,0.700658,0.4101145,-0.1090179999999999,1.286238,0.3060145,-0.165628,0.928378,-0.0025085,0.005568,1.071622,0.0025085,-0.005568,0.9285980000000001,-0.3719755,-0.004627,1.105991,-0.3380555,-0.119878,0.9781880000000001,-0.6716155,0.019872,1.151281,-0.6798855,-0.028968
134,0.9839765000000001,0.7400485,0.0038819999999999,0.8570465,0.4785585,0.073529,0.7290865,0.3055585,0.076341,1.1533674999999999,0.4659085,0.018352,1.2827765,0.2825685,-0.0099459999999999,0.7116165,0.3579885,-0.105326,1.2875965,0.2500785,-0.149106,0.9282965,-0.0028615,0.006196,1.0717035,0.0028614999999999,-0.0061959999999999,0.9339565,-0.3761115,-0.0131359999999999,1.0930745,-0.3379415,-0.141326,0.9906265,-0.6697315,0.0041719999999999,1.1260774999999998,-0.6770915,-0.0594659999999999
135,0.9830965,0.7392019999999999,0.0012299999999999,0.8600865,0.474802,0.0751459999999999,0.7389764999999999,0.288602,0.087919,1.1527655,0.463822,0.0164959999999999,1.2705065,0.267972,0.0023299999999999,0.7229464999999999,0.308202,-0.10101,1.2874765,0.197442,-0.12944,0.9283165,-0.0034399999999999,0.0078099999999999,1.0716835,0.00344,-0.0078099999999999,0.9405465000000001,-0.377808,-0.00791,1.0794385,-0.338738,-0.15898,1.0035565,-0.6670980000000001,-0.0098199999999999,1.0988095,-0.675048,-0.08758
136,0.984258,0.738055,-0.00212,0.864988,0.471755,0.076549,0.754678,0.272405,0.097424,1.154895,0.461945,0.01374,1.2621529999999999,0.258625,0.0177399999999999,0.739418,0.265455,-0.09425,1.289328,0.153685,-0.11066,0.9284880000000001,-0.003629,0.00913,1.0715119999999998,0.0036289999999999,-0.00913,0.951028,-0.377905,-0.0052699999999999,1.0672,-0.338485,-0.1740999999999999,0.991968,-0.663765,-0.04016,1.071946,-0.672305,-0.11578
137,0.9851900000000001,0.736047,-0.00545,0.86949,0.469437,0.077321,0.7720000000000001,0.261677,0.104764,1.158068,0.460337,0.0120299999999999,1.255407,0.253487,0.0317799999999999,0.7551300000000001,0.2281969999999999,-0.09268,1.28922,0.118772,-0.09544,0.9285800000000001,-0.0035979999999999,0.0105699999999999,1.07142,0.003598,-0.0105699999999999,0.95858,-0.376413,-0.00729,1.05435,-0.335573,-0.18783,0.97843,-0.662223,-0.07448,1.04427,-0.6680729999999999,-0.1423799999999999
138,0.9850050000000001,0.7336745,-0.010065,0.872715,0.4676845,0.0785479999999999,0.790855,0.2528745,0.1086699999999999,1.159721,0.4585445,0.0080849999999999,1.252132,0.2488645,0.0431649999999999,0.770005,0.1944345,-0.087115,1.288911,0.0910015,-0.075795,0.928835,-0.0036594999999999,0.0124149999999999,1.071165,0.0036595,-0.012415,0.967975,-0.3759955,-0.006025,1.036945,-0.3331155,-0.198625,0.9654650000000001,-0.6562355,-0.106275,1.011225,-0.6636655,-0.168385
139,0.9850050000000001,0.7319199999999999,-0.0148149999999999,0.8760050000000001,0.46583,0.079395,0.8100450000000001,0.24905,0.112093,1.161209,0.45819,0.003775,1.2503630000000001,0.24725,0.051335,0.7855350000000001,0.16877,-0.0830849999999999,1.289281,0.074358,-0.050815,0.928815,-0.0036749999999999,0.013865,1.071185,0.0036749999999999,-0.0138649999999999,0.9804350000000001,-0.37928,-0.0024449999999999,1.022405,-0.32755,-0.205235,0.953895,-0.65761,-0.1348149999999999,0.973655,-0.6588700000000001,-0.204075
140,0.9854350000000001,0.7306549999999999,-0.0193349999999999,0.8793650000000001,0.464505,0.080995,0.828335,0.247225,0.116275,1.164032,0.458465,-3.499999999997949e-05,1.250364,0.247525,0.054575,0.799695,0.149275,-0.0775849999999999,1.291372,0.064242,-0.0244049999999999,0.9290050000000001,-0.0039499999999999,0.015165,1.070995,0.00395,-0.0151649999999999,0.9962650000000001,-0.382935,0.005775,1.014575,-0.3249849999999999,-0.204625,0.9455350000000001,-0.660625,-0.1583649999999999,0.944135,-0.658755,-0.232205
141,0.9847650000000001,0.7292445000000001,-0.024015,0.8809750000000001,0.4633245,0.0817049999999999,0.842285,0.2473245,0.1170849999999999,1.165085,0.4586345,-0.004525,1.24975,0.2476944999999999,0.0542649999999999,0.811985,0.1353855,-0.074725,1.293668,0.0597725,-0.004685,0.9292250000000001,-0.0041194999999999,0.0160749999999999,1.070775,0.0041194999999999,-0.016075,1.012115,-0.3850754999999999,0.0155949999999999,1.007545,-0.3232055,-0.203305,0.9356250000000002,-0.6640254999999999,-0.180435,0.9189050000000001,-0.6598155,-0.259445
142,0.98303,0.7274525000000001,-0.0286449999999999,0.88284,0.4624725,0.082095,0.85216,0.2469124999999999,0.113765,1.16567,0.4583224999999999,-0.008875,1.249687,0.2473825,0.050765,0.82116,0.1271175,-0.070695,1.294301,0.0570245,0.007145,0.92977,-0.0044314999999999,0.017085,1.07023,0.0044315,-0.017085,1.01754,-0.3876875,0.0016749999999999,1.00369,-0.3226775,-0.1978349999999999,0.92547,-0.6703075,-0.1924449999999999,0.89778,-0.6630975,-0.275015
143,0.9806,0.726051,-0.0338549999999999,0.88369,0.461631,0.081985,0.85877,0.246051,0.108275,1.16623,0.458751,-0.0128649999999999,1.251704,0.247471,0.045035,0.82492,0.125864,-0.0714249999999999,1.294914,0.05641,0.013505,0.9305,-0.004683,0.018805,1.0695000000000001,0.004683,-0.0188049999999999,1.02264,-0.389219,-0.0081749999999999,0.99957,-0.325689,-0.1888349999999999,0.91529,-0.6787989999999999,-0.190605,0.88741,-0.668889,-0.2753249999999999
144,0.978125,0.7249,-0.039015,0.884345,0.46051,0.0806549999999999,0.8622650000000001,0.24528,0.102725,1.1677149999999998,0.45999,-0.016015,1.254775,0.24876,0.0385349999999999,0.825765,0.125373,-0.071735,1.296158,0.055919,0.0118949999999999,0.931075,-0.004975,0.0197149999999999,1.068925,0.004975,-0.0197149999999999,1.0263149999999999,-0.38709,-0.014425,0.998575,-0.32904,-0.180395,0.903795,-0.68482,-0.189635,0.8892450000000001,-0.67395,-0.258025
145,0.972605,0.7236475,-0.0436199999999999,0.8822550000000001,0.4594475,0.0784699999999999,0.860685,0.2455574999999999,0.1019499999999999,1.1662649999999999,0.4615975,-0.0181399999999999,1.2551649999999999,0.2517675,0.03165,0.819505,0.1249405,-0.07494,1.293687,0.0554865,0.0024,0.931515,-0.0053884999999999,0.02072,1.068485,0.0053885,-0.02072,1.021065,-0.3846025,-0.01926,0.999235,-0.3332825,-0.17125,0.915995,-0.6907424999999999,-0.17137,0.893715,-0.6797124999999999,-0.23883
146,0.966755,0.7218334999999999,-0.0482399999999999,0.880105,0.4578235,0.07586,0.8560650000000001,0.2468635,0.09589,1.1637549999999999,0.4642935,-0.0213299999999999,1.255755,0.2571635,0.02508,0.8124750000000001,0.1247865,-0.0764699999999999,1.291915,0.0583095,-0.0125099999999999,0.931925,-0.0057415,0.02166,1.0680749999999999,0.0057415,-0.0216599999999999,1.015175,-0.3818265,-0.0242799999999999,1.003085,-0.3401865,-0.1605299999999999,0.9226650000000001,-0.6909865000000001,-0.1476499999999999,0.899795,-0.6797665,-0.2177799999999999
147,0.9603800000000001,0.7198305,-0.0521049999999999,0.8777600000000001,0.4566905,0.071835,0.85241,0.2483305,0.091245,1.1612099999999999,0.4683405,-0.0227249999999999,1.25602,0.2652205,0.018695,0.80576,0.1245915,-0.0808449999999999,1.2901,0.0654245,-0.0300149999999999,0.9321400000000001,-0.0060054999999999,0.021965,1.0678599999999998,0.0060055,-0.0219649999999999,1.00084,-0.3794895,-0.036055,1.01359,-0.3469695,-0.148505,0.9230700000000001,-0.6893095,-0.1273149999999999,0.91214,-0.6862794999999999,-0.195165
148,0.952505,0.7176214999999999,-0.0557149999999999,0.875265,0.4550315,0.068755,0.846915,0.2485015,0.0862649999999999,1.159635,0.4724115,-0.021395,1.2552949999999998,0.2723215,0.014475,0.796045,0.1252525,-0.0847449999999999,1.287455,0.0714755,-0.045815,0.932245,-0.0067285,0.0219249999999999,1.067755,0.0067284999999999,-0.0219249999999999,0.982465,-0.3784685,-0.049765,1.024265,-0.3522385,-0.135415,0.915865,-0.6862284999999999,-0.1142849999999999,0.930695,-0.6913885,-0.168085
149,0.942915,0.7163775,-0.0594399999999999,0.869705,0.4541575,0.06165,0.8398750000000001,0.2480575,0.08127,1.1534849999999999,0.4770175,-0.0228199999999999,1.2526950000000001,0.2786775,0.01238,0.7821850000000001,0.1287745,-0.0958899999999999,1.2832949999999999,0.0770575,-0.05769,0.9321150000000001,-0.0076025,0.02178,1.067885,0.0076025,-0.02178,0.960255,-0.3767324999999999,-0.0680499999999999,1.0314949999999998,-0.3551725,-0.1246899999999999,0.9041350000000001,-0.6826525,-0.10958,0.9445350000000001,-0.6942325,-0.1459099999999999
150,0.93138,0.7159095,-0.064535,0.8641400000000001,0.4536894999999999,0.0557949999999999,0.82955,0.2480494999999999,0.0708149999999999,1.14813,0.4815095,-0.022365,1.24913,0.2860995,0.0117749999999999,0.76608,0.1296545,-0.106785,1.27957,0.0827785,-0.064645,0.9319300000000001,-0.0080705,0.0211949999999999,1.06807,0.0080705,-0.021195,0.9367,-0.3762305,-0.0905949999999999,1.04034,-0.3571205,-0.111165,0.89235,-0.6881205,-0.109405,0.9573400000000001,-0.6966705,-0.123785
151,0.920705,0.715413,-0.068535,0.8564350000000001,0.453383,0.0497349999999999,0.819685,0.247983,0.0636549999999999,1.141325,0.484903,-0.022295,1.245645,0.291233,0.0148749999999999,0.751305,0.132353,-0.117695,1.277005,0.087274,-0.064225,0.931445,-0.0082069999999999,0.020305,1.068555,0.008207,-0.020305,0.923245,-0.375577,-0.0858849999999999,1.0497249999999998,-0.358467,-0.096695,0.880955,-0.688797,-0.107785,0.968805,-0.698597,-0.095975
152,0.9106749999999999,0.7137020000000001,-0.0721,0.849535,0.451682,0.0435599999999999,0.8103149999999999,0.248022,0.0576099999999999,1.134475,0.487662,-0.0220799999999999,1.2413949999999998,0.296042,0.0185699999999999,0.7399450000000001,0.134602,-0.12519,1.274895,0.091038,-0.06042,0.930795,-0.008335,0.0188,1.069205,0.0083349999999999,-0.0188,0.909635,-0.375588,-0.08421,1.056385,-0.361498,-0.0847499999999999,0.8684350000000001,-0.689458,-0.1089799999999999,0.978535,-0.700758,-0.06927
153,0.9007800000000001,0.711402,-0.076125,0.84257,0.449362,0.0374149999999999,0.7997800000000002,0.248392,0.0501349999999999,1.12713,0.490312,-0.022125,1.2367,0.301072,0.0224449999999999,0.72943,0.136692,-0.133105,1.2732,0.095387,-0.054995,0.9301900000000001,-0.008719,0.017205,1.06981,0.008719,-0.017205,0.8964100000000002,-0.375368,-0.083955,1.06197,-0.363898,-0.0731549999999999,0.8553300000000001,-0.6903779999999999,-0.110775,0.9898700000000001,-0.7021379999999999,-0.040355
154,0.89152,0.7080884999999999,-0.0798249999999999,0.83551,0.4473285,0.032005,0.78956,0.2483685,0.043015,1.11959,0.4927485,-0.0221249999999999,1.23192,0.3051185,0.026885,0.72075,0.1381485,-0.1398849999999999,1.27241,0.1002695,-0.0466449999999999,0.9296,-0.0091855,0.015655,1.0704,0.0091855,-0.0156549999999999,0.8877900000000001,-0.3730815,-0.0843049999999999,1.06706,-0.3656215,-0.0609849999999999,0.8420800000000002,-0.6841515,-0.1134849999999999,1.0053699999999999,-0.7023615000000001,-0.0097849999999999
155,0.88254,0.7041565000000001,-0.08355,0.82918,0.4448565,0.0281599999999999,0.78239,0.2467464999999999,0.0409599999999999,1.1132399999999998,0.4942864999999999,-0.02097,1.2268899999999998,0.3079665,0.0311299999999999,0.7153099999999999,0.1380965,-0.14402,1.27158,0.1046475,-0.03773,0.92911,-0.0093395,0.0140599999999999,1.07089,0.0093395,-0.0140599999999999,0.88245,-0.3694335,-0.08457,1.0750899999999999,-0.3656335,-0.04851,0.83534,-0.6763834999999999,-0.1172499999999999,1.02219,-0.7030734999999999,0.01907
156,0.8741499999999999,0.7000135000000001,-0.0870900000000001,0.8221599999999999,0.4431035,0.0230899999999999,0.7758599999999999,0.2456235,0.0394599999999999,1.1053899999999999,0.4953435,-0.02182,1.22199,0.3104635,0.0356899999999998,0.7115799999999999,0.1358835,-0.14672,1.2708899999999999,0.1081025,-0.0282500000000001,0.9287799999999999,-0.0091455,0.0127499999999999,1.0712199999999998,0.0091454999999999,-0.01275,0.88313,-0.3678565,-0.08178,1.08216,-0.3659965,-0.03576,0.8335499999999999,-0.6695964999999999,-0.11889,1.0292199999999998,-0.7027365,0.0338899999999999
157,0.8672,0.696171,-0.0903100000000001,0.81528,0.441831,0.0177999999999999,0.77154,0.244871,0.0395599999999999,1.0972499999999998,0.496421,-0.02426,1.21759,0.312521,0.0394499999999999,0.70981,0.132471,-0.14746,1.27035,0.111351,-0.01921,0.92862,-0.0091489999999999,0.0121099999999999,1.07138,0.009149,-0.01211,0.8847300000000001,-0.365729,-0.07856,1.08842,-0.366189,-0.02445,0.83742,-0.662789,-0.1157800000000001,1.03555,-0.702199,0.0468099999999999
158,0.8609199999999999,0.6932235,-0.0938649999999999,0.81063,0.4416434999999999,0.016225,0.76814,0.2444434999999999,0.0386849999999999,1.09225,0.4969435,-0.024125,1.2131299999999998,0.3135035,0.0424449999999999,0.7167199999999999,0.1286435,-0.1362649999999999,1.2688199999999998,0.1133204999999999,-0.011355,0.9286,-0.0092895,0.0118949999999999,1.0714,0.0092895,-0.0118949999999999,0.88647,-0.3632165,-0.0750849999999999,1.09527,-0.3633665,-0.0153849999999999,0.84236,-0.6616565,-0.108195,1.04277,-0.7011865,0.060385
159,0.85761,0.6904205,-0.0960949999999999,0.80617,0.4408404999999999,0.0150850000000001,0.76959,0.2436404999999999,0.044355,1.08767,0.4971005,-0.0261649999999998,1.2098399999999998,0.3127005,0.043935,0.7235199999999999,0.1232485,-0.1246249999999998,1.26675,0.1138474999999999,-0.0069349999999999,0.92877,-0.0098395,0.012495,1.07123,0.0098395,-0.0124949999999999,0.88967,-0.3600195,-0.0712949999999998,1.10195,-0.3609395,-0.0074049999999998,0.84773,-0.6611795,-0.0986749999999999,1.04961,-0.7011495,0.0708750000000001
160,0.8550349999999999,0.687824,-0.0989999999999998,0.803515,0.4399039999999999,0.01582,0.771485,0.2427039999999999,0.04816,1.085035,0.497014,-0.0280399999999999,1.207155,0.311764,0.04346,0.7299349999999999,0.11575,-0.1150999999999998,1.2646249999999999,0.112911,-0.0052699999999998,0.928985,-0.010249,0.01333,1.0710149999999998,0.010249,-0.0133299999999999,0.892565,-0.357186,-0.0686299999999998,1.107065,-0.359066,-0.0010199999999999,0.852915,-0.660926,-0.0908099999999999,1.0546049999999998,-0.702086,0.0794000000000001
161,0.85362,0.6850160000000001,-0.101705,0.8010800000000001,0.438766,0.016745,0.7744,0.2412159999999999,0.0520749999999999,1.0833,0.496066,-0.030235,1.20495,0.310276,0.0416349999999999,0.7363500000000001,0.107525,-0.106055,1.2613699999999999,0.111423,-0.0064849999999999,0.92911,-0.010314,0.0141949999999999,1.07089,0.010314,-0.0141949999999999,0.8953900000000001,-0.354254,-0.066355,1.11108,-0.357514,0.0049249999999999,0.8586400000000001,-0.6612039999999999,-0.083145,1.0604,-0.702294,0.087705
162,0.8532299999999999,0.6823545000000001,-0.1039899999999999,0.7992499999999999,0.4379345,0.01805,0.77797,0.2398044999999999,0.05584,1.0822399999999999,0.4949044999999999,-0.0326199999999999,1.2031399999999999,0.3079044999999999,0.03881,0.74674,0.1007485,-0.0918099999999999,1.25761,0.1098415,-0.0095699999999999,0.92922,-0.0102254999999999,0.0151,1.0707799999999998,0.0102255,-0.0151,0.89798,-0.3509255,-0.0644899999999999,1.11509,-0.3559755,0.01021,0.8646,-0.6627854999999999,-0.07599,1.0668799999999998,-0.7028255,0.09586
163,0.853505,0.6799445000000001,-0.1060250000000001,0.7987250000000001,0.4375644999999999,0.0196049999999998,0.782115,0.2391845,0.0596149999999998,1.081965,0.4937145,-0.034885,1.2017149999999999,0.3046345,0.0351549999999999,0.756955,0.0928195,-0.0766050000000001,1.252905,0.1073705,-0.0150350000000001,0.929345,-0.0100174999999999,0.0160749999999999,1.070655,0.0100174999999999,-0.016075,0.9003750000000001,-0.3478555,-0.0627050000000001,1.1191049999999998,-0.3545255,0.0149149999999999,0.870795,-0.6642355,-0.069105,1.073345,-0.7035055,0.1031849999999998
164,0.85433,0.6778025,-0.107825,0.79783,0.4370425,0.0203449999999999,0.78672,0.2385325,0.063455,1.08137,0.4924825,-0.038085,1.20037,0.3005225,0.030595,0.7661100000000001,0.0820795,-0.061625,1.24738,0.1033765,-0.022715,0.9294700000000001,-0.0097435,0.016985,1.07053,0.0097435,-0.016985,0.90264,-0.3451775,-0.060925,1.1225999999999998,-0.3532775,0.0188749999999999,0.87693,-0.6655175,-0.0629849999999999,1.07965,-0.7039075,0.109685
165,0.8556999999999999,0.676,-0.109125,0.7982899999999999,0.4367499999999999,0.023355,0.7905699999999999,0.2379399999999999,0.0659649999999999,1.08324,0.4913099999999999,-0.039015,1.19912,0.29746,0.0249049999999999,0.7741999999999999,0.072365,-0.050065,1.2412699999999999,0.101723,-0.032115,0.92955,-0.009423,0.0177849999999999,1.07045,0.0094229999999999,-0.017785,0.90439,-0.34304,-0.059385,1.12513,-0.35172,0.0213949999999999,0.8822699999999999,-0.6667,-0.0585149999999999,1.0848799999999998,-0.70366,0.114395
166,0.85724,0.6743954999999999,-0.1102050000000001,0.79836,0.4366255,0.0260549999999999,0.7941200000000002,0.2373055,0.0678649999999999,1.08481,0.4901755,-0.040375,1.19777,0.2955255,0.0187249999999998,0.78101,0.0638125,-0.040255,1.23413,0.0986565,-0.042885,0.9296300000000001,-0.0091054999999999,0.0184649999999999,1.07037,0.0091055,-0.018465,0.90606,-0.3412345,-0.0579750000000001,1.12741,-0.3502345,0.0234149999999999,0.88721,-0.6672944999999999,-0.0547550000000001,1.08967,-0.7031544999999999,0.1184149999999999
167,0.8592300000000002,0.6730155,-0.1106499999999999,0.79875,0.4367454999999999,0.0285,0.79741,0.2368555,0.07008,1.08629,0.4892455,-0.0418899999999999,1.19666,0.2941654999999999,0.01248,0.7860200000000002,0.0586145,-0.0328999999999999,1.22626,0.0950795,-0.0528899999999999,0.9297,-0.0087945,0.01893,1.0703,0.0087945,-0.01893,0.90724,-0.3395045,-0.0571699999999999,1.12889,-0.3490345,0.02451,0.89091,-0.6674245,-0.05235,1.09321,-0.7023545,0.12087
168,0.8605600000000001,0.6727925,-0.1106249999999999,0.7997700000000001,0.4372725,0.0301949999999999,0.7996300000000001,0.2366325,0.070775,1.0877500000000002,0.4892025,-0.0419749999999999,1.19471,0.2939425,0.006665,0.7888400000000001,0.0527194999999999,-0.031815,1.21568,0.0923555,-0.061755,0.9297500000000001,-0.0085905,0.019235,1.07025,0.0085905,-0.019235,0.9081400000000001,-0.3380875,-0.0569549999999999,1.12969,-0.3477975,0.024795,0.8937100000000002,-0.6669275,-0.050705,1.09588,-0.7014475,0.122345
169,0.8616550000000001,0.6727925,-0.1099499999999999,0.8007250000000001,0.4372725,0.03153,0.801285,0.2366325,0.07098,1.0888449999999998,0.4892025,-0.0415699999999999,1.192535,0.2935225,0.00155,0.791075,0.0527194999999999,-0.0311799999999999,1.2051049999999999,0.0893905,-0.07067,0.929805,-0.0085905,0.01948,1.070195,0.0085905,-0.0194799999999999,0.908595,-0.3370475,-0.05696,1.1299249999999998,-0.3467975,0.0248,0.896035,-0.6668275,-0.0495099999999999,1.0981349999999999,-0.7004075,0.1235
170,0.862285,0.6727925,-0.10897,0.8019450000000001,0.4372725,0.03249,0.802195,0.2366325,0.07102,1.089615,0.4892025,-0.0407299999999999,1.190405,0.2930725,-0.002,0.792535,0.0527194999999999,-0.0302299999999999,1.1966549999999998,0.0867185,-0.07699,0.929935,-0.0085905,0.0197,1.0700649999999998,0.0085905,-0.0196999999999999,0.9087950000000001,-0.3363675,-0.0568299999999999,1.1294849999999999,-0.3460375,0.02456,0.8975950000000001,-0.6667475,-0.0487599999999999,1.099675,-0.6994975,0.12443
171,0.862725,0.6727139999999999,-0.10813,0.803015,0.437354,0.03349,0.802215,0.2358539999999999,0.0706499999999999,1.090425,0.489104,-0.0399,1.188415,0.292494,-0.00451,0.792195,0.052801,-0.02937,1.189515,0.084501,-0.0816,0.9300650000000001,-0.008509,0.0199099999999999,1.0699349999999999,0.008509,-0.0199099999999999,0.908905,-0.335766,-0.05646,1.128695,-0.345246,0.02422,0.898925,-0.666586,-0.04818,1.1009149999999999,-0.698636,0.12524
172,0.862725,0.6727489999999999,-0.1074249999999999,0.803795,0.4376089999999999,0.034175,0.801625,0.235279,0.0701549999999999,1.090975,0.4892189999999999,-0.039215,1.186685,0.291709,-0.0060649999999999,0.791395,0.0536359999999999,-0.030795,1.184775,0.082801,-0.084655,0.930185,-0.008277,0.0200949999999999,1.069815,0.008277,-0.0200949999999999,0.9088950000000001,-0.335051,-0.055945,1.1276149999999998,-0.344051,0.023715,0.899885,-0.666031,-0.047625,1.101855,-0.697511,0.125745
173,0.8624799999999999,0.6728795,-0.1067299999999999,0.80438,0.4373395,0.03473,0.80036,0.2345394999999999,0.06921,1.09144,0.4894295,-0.0386499999999999,1.1854099999999999,0.2914395,-0.00658,0.7874,0.0576855,-0.0375499999999999,1.1817499999999999,0.0807685,-0.0855599999999999,0.9302999999999999,-0.0081315,0.0202999999999999,1.0696999999999999,0.0081315,-0.0202999999999999,0.90886,-0.3342305,-0.0554,1.1269,-0.3430005,0.0234499999999999,0.9005399999999999,-0.6654805,-0.04712,1.1025699999999998,-0.6966605,0.12583
174,0.8621,0.6731015,-0.105605,0.8050800000000001,0.4367115,0.0350249999999999,0.79888,0.2335315,0.067435,1.0917899999999998,0.4897915,-0.037625,1.18464,0.2914915,-0.006085,0.78268,0.0627365,-0.048035,1.18066,0.0788895,-0.0850549999999999,0.93041,-0.0080535,0.020475,1.0695899999999998,0.0080534999999999,-0.020475,0.90872,-0.3335085,-0.054945,1.12652,-0.3422985,0.023455,0.90095,-0.6649385,-0.046665,1.103,-0.6958985,0.1258349999999999
175,0.86151,0.6734965,-0.1043399999999999,0.8059800000000001,0.4359165,0.03514,0.7970300000000001,0.2324465,0.06506,1.09207,0.4901965,-0.0363799999999999,1.18429,0.2916765,-0.00573,0.7766000000000001,0.0665875,-0.0577999999999999,1.18091,0.0774015,-0.0847099999999999,0.9305000000000001,-0.0080474999999999,0.0205899999999999,1.0695000000000001,0.0080474999999999,-0.0205899999999999,0.90846,-0.3329135,-0.0545999999999999,1.1261,-0.3417035,0.0234699999999999,0.9012,-0.6645035,-0.0463299999999999,1.10324,-0.6952634999999999,0.12573
176,0.8607400000000001,0.6739905,-0.1028449999999999,0.80684,0.4350604999999999,0.0350950000000001,0.79477,0.2313305,0.062225,1.09225,0.4906705,-0.0348649999999999,1.18407,0.2923805,-0.0054549999999998,0.77011,0.0741334999999999,-0.0733549999999999,1.18095,0.0784955,-0.0844449999999998,0.93053,-0.0080635,0.020615,1.06947,0.0080635,-0.0206149999999999,0.9080000000000001,-0.3322895,-0.0544049999999999,1.1255799999999998,-0.3410895,0.0235550000000001,0.90124,-0.6642695,-0.0460349999999999,1.1032499999999998,-0.6946494999999999,0.1255250000000001
177,0.860115,0.6746045,-0.1012600000000001,0.8075149999999999,0.4342945,0.0349899999999999,0.7924849999999999,0.2303045,0.0593199999999999,1.0921849999999997,0.4911145,-0.03345,1.1840849999999998,0.2930245,-0.0048300000000001,0.7651649999999999,0.0801105,-0.08359,1.1809749999999999,0.0804545,-0.0837000000000001,0.930525,-0.0080924999999999,0.0205499999999999,1.069475,0.0080925,-0.02055,0.907575,-0.3317055,-0.0541500000000001,1.1252749999999998,-0.3404455,0.0238099999999998,0.9012849999999999,-0.6639255,-0.04582,1.103195,-0.6940054999999999,0.1254499999999999
178,0.8596,0.6752275,-0.0996249999999999,0.8079399999999999,0.4336075,0.0349549999999999,0.7901299999999999,0.2293275,0.0562949999999999,1.09222,0.4915175,-0.0320749999999999,1.18414,0.2936575,-0.003005,0.76106,0.0859735,-0.0936049999999999,1.1815099999999998,0.0829864999999999,-0.0810349999999999,0.9305199999999999,-0.0081355,0.020425,1.06948,0.0081355,-0.020425,0.9071899999999999,-0.3312725,-0.0539049999999999,1.12493,-0.3398825,0.024055,0.9013100000000001,-0.6637125,-0.045575,1.1031099999999998,-0.6933725,0.125415
179,0.8591650000000001,0.6758909999999999,-0.097965,0.8085550000000001,0.432911,0.0348649999999999,0.7879150000000001,0.228331,0.0532549999999999,1.092245,0.491911,-0.030335,1.184225,0.294291,-0.0005749999999999,0.7575350000000001,0.08968,-0.102175,1.184775,0.084039,-0.077095,0.930515,-0.0081929999999999,0.020235,1.069485,0.008193,-0.020235,0.9067950000000001,-0.330949,-0.053665,1.124675,-0.3395289999999999,0.0242949999999999,0.901335,-0.6635390000000001,-0.045285,1.103065,-0.692849,0.1254449999999999
180,0.8588200000000001,0.6764330000000001,-0.0963049999999998,0.80936,0.4318929999999999,0.0345250000000001,0.78577,0.228723,0.0520250000000001,1.0923399999999999,0.492303,-0.0287249999999998,1.1847599999999998,0.2937829999999999,0.0029350000000001,0.7561,0.092913,-0.1053849999999999,1.1915499999999999,0.0842509999999999,-0.0718149999999999,0.93049,-0.0082679999999999,0.020005,1.06951,0.008268,-0.0200049999999999,0.9061400000000001,-0.330557,-0.0535449999999999,1.12418,-0.339707,0.0245950000000001,0.9010500000000001,-0.663137,-0.0450449999999998,1.10279,-0.6927669999999999,0.1255950000000001
181,0.8585849999999999,0.6764415,-0.0949200000000001,0.8100450000000001,0.4311415,0.0341799999999998,0.783875,0.2287215,0.0510699999999999,1.0923349999999998,0.4923115,-0.0273700000000001,1.185555,0.2920715,0.0066699999999999,0.7548850000000001,0.0947425,-0.1065300000000001,1.198845,0.0841415,-0.06473,0.930445,-0.0082765,0.0197699999999999,1.069555,0.0082765,-0.01977,0.905435,-0.3305484999999999,-0.0535000000000001,1.123635,-0.3401385,0.0249299999999998,0.900715,-0.6631684999999999,-0.0448,1.102515,-0.6932285,0.1258399999999999
182,0.858325,0.6764834999999999,-0.0937,0.810445,0.4307235,0.03386,0.782465,0.2287235,0.05037,1.0923049999999999,0.4923135,-0.02617,1.1864549999999998,0.2906635,0.01049,0.7537149999999999,0.0948995,-0.1073399999999999,1.205555,0.0839395,-0.05766,0.930395,-0.0082784999999999,0.01953,1.069605,0.0082785,-0.01953,0.904745,-0.3306965,-0.0534599999999999,1.1230749999999998,-0.3405865,0.0253299999999999,0.900365,-0.6631665,-0.04457,1.102215,-0.6937065,0.12609
183,0.8569499999999999,0.6769204999999999,-0.0924600000000001,0.8111899999999999,0.4302205,0.0331999999999998,0.7799399999999999,0.2288204999999999,0.0497099999999999,1.0931499999999998,0.4928305,-0.02458,1.18728,0.2892605,0.0148399999999999,0.7457400000000001,0.1088514999999999,-0.11628,1.2167299999999999,0.0849864999999999,-0.04934,0.93034,-0.0083594999999999,0.0190799999999999,1.0696599999999998,0.0083594999999999,-0.01908,0.9041499999999999,-0.3296695,-0.05304,1.1223699999999999,-0.3407095,0.0256899999999998,0.8999,-0.6635095000000001,-0.0439600000000001,1.10235,-0.6935595,0.1265399999999999
184,0.8568100000000001,0.6778775,-0.09121,0.81089,0.4299874999999999,0.03316,0.77881,0.2288375,0.05021,1.09123,0.4928875,-0.0238399999999999,1.18918,0.2887875,0.02158,0.7535000000000001,0.0935555,-0.1051799999999999,1.22098,0.0869145,-0.0402699999999999,0.9302700000000002,-0.0084665,0.0188099999999999,1.06973,0.0084665,-0.0188099999999999,0.90311,-0.3294225,-0.05357,1.1218,-0.3422425,0.0269099999999999,0.89976,-0.6631324999999999,-0.0441199999999999,1.10145,-0.6948025,0.12665
185,0.856885,0.6779999999999999,-0.0900100000000001,0.810555,0.4298,0.0332099999999998,0.7780149999999999,0.22872,0.0501399999999998,1.091705,0.49301,-0.0222200000000001,1.190605,0.28851,0.0250199999999999,0.753115,0.0925429999999999,-0.10452,1.225015,0.088017,-0.02987,0.930155,-0.008551,0.0186499999999999,1.069845,0.008551,-0.01865,0.902365,-0.3302799999999999,-0.0539100000000001,1.1210849999999999,-0.34225,0.0271199999999999,0.899395,-0.66234,-0.04392,1.1007049999999998,-0.69527,0.1264999999999999
186,0.85686,0.6784525,-0.0895049999999999,0.81043,0.4297525,0.033145,0.7776599999999999,0.2287124999999999,0.049995,1.09018,0.4930725,-0.0225049999999999,1.1907999999999999,0.2883725,0.026405,0.7531199999999999,0.0922434999999999,-0.1044649999999999,1.2259099999999998,0.0879414999999999,-0.0254749999999999,0.9301299999999999,-0.0085925,0.018545,1.0698699999999999,0.0085924999999999,-0.0185449999999999,0.90199,-0.3305375,-0.0540249999999999,1.12066,-0.3427174999999999,0.027325,0.89957,-0.6626775,-0.0433149999999999,1.1005399999999999,-0.6959175,0.126685
187,0.8591750000000001,0.6795260000000001,-0.08886,0.811495,0.4301359999999999,0.0329599999999999,0.777955,0.229206,0.0496999999999999,1.0919649999999999,0.492926,-0.02185,1.191865,0.287246,0.02746,0.753415,0.092291,-0.10435,1.226535,0.086825,-0.02307,0.930035,-0.0084389999999999,0.0184199999999999,1.0699649999999998,0.008439,-0.0184199999999999,0.9009650000000001,-0.330254,-0.0541899999999999,1.119475,-0.3431039999999999,0.0274699999999999,0.8974950000000002,-0.661034,-0.0440099999999999,1.098955,-0.6967439999999999,0.12719
188,0.859805,0.6803735,-0.08806,0.811455,0.4299935,0.0329099999999999,0.777725,0.2291435,0.04988,1.092445,0.4929535,-0.0212099999999999,1.192025,0.2860635,0.0286999999999999,0.753475,0.0920795,-0.1040999999999999,1.2268849999999998,0.0857555,-0.02061,0.930005,-0.0084655,0.01836,1.0699949999999998,0.0084654999999999,-0.01836,0.900505,-0.3296765,-0.05439,1.119025,-0.3433365,0.02754,0.897265,-0.6613665,-0.04383,1.0988449999999998,-0.6968265,0.1273699999999999
189,0.859845,0.6805875,-0.0876649999999999,0.8114350000000001,0.4300475,0.032885,0.7776950000000001,0.2292674999999999,0.050255,1.0927449999999999,0.4929675,-0.0207349999999999,1.1923949999999999,0.2849775,0.029845,0.753475,0.0923935,-0.1039049999999999,1.226845,0.0849795,-0.019135,0.9299650000000002,-0.0084585,0.018295,1.0700349999999998,0.0084584999999999,-0.0182949999999999,0.9002750000000002,-0.3315825,-0.054385,1.119035,-0.3441324999999999,0.028065,0.897025,-0.6614025,-0.043945,1.098855,-0.6968925,0.127595
