sb224sc-HT22-VT27/4dt907/src/data/kinect_good_preprocessed_not_cut_A11_mediapipe/A147_kinect_mirrored.csv
FrameNo,nose_3d_x,nose_3d_y,nose_3d_z,left_shoulder_3d_x,left_shoulder_3d_y,left_shoulder_3d_z,left_elbow_3d_x,left_elbow_3d_y,left_elbow_3d_z,right_shoulder_3d_x,right_shoulder_3d_y,right_shoulder_3d_z,right_elbow_3d_x,right_elbow_3d_y,right_elbow_3d_z,left_wrist_3d_x,left_wrist_3d_y,left_wrist_3d_z,right_wrist_3d_x,right_wrist_3d_y,right_wrist_3d_z,left_hip_3d_x,left_hip_3d_y,left_hip_3d_z,right_hip_3d_x,right_hip_3d_y,right_hip_3d_z,left_knee_3d_x,left_knee_3d_y,left_knee_3d_z,right_knee_3d_x,right_knee_3d_y,right_knee_3d_z,left_ankle_3d_x,left_ankle_3d_y,left_ankle_3d_z,right_ankle_3d_x,right_ankle_3d_y,right_ankle_3d_z
0,1.0010865,0.7479095,0.0295455,0.8433535,0.4574895,0.0506775,0.8101835,0.2209795,0.0523165,1.1536835,0.4561395,0.0580245,1.1762035,0.2148295,0.0437105,0.7983235000000001,0.0164145,-0.0174145,1.1949335,-0.0429095,-0.0454385,0.9270585000000001,0.0003974999999999,-0.0014715,1.0729415,-0.0003974999999999,0.0014715,0.8768735,-0.3547105,0.0104224999999999,1.1266135,-0.3380205,-0.0147325,0.8642735,-0.6599805,0.0273645,1.1399835,-0.6743005,0.0184865
1,1.000781,0.7478225,0.0296615,0.84333,0.4572425,0.0514205,0.81058,0.2196325,0.0534474999999999,1.1537899999999999,0.4556725,0.0578685,1.17635,0.2147425,0.0437785,0.79816,0.0154885,-0.0155185,1.17019,0.0226975,-0.0247775,0.9270730000000001,0.0003144999999999,-0.0012964999999999,1.072927,-0.0003145,0.0012964999999999,0.87719,-0.3538775,0.0103054999999999,1.12681,-0.3395675,-0.0146605,0.86422,-0.6595875000000001,0.0264795,1.1401899999999998,-0.6744175,0.0185154999999999
2,1.0005169999999999,0.7476959999999999,0.0298049999999999,0.8431109999999999,0.457226,0.051994,0.810581,0.219966,0.054,1.153821,0.455766,0.057932,1.176551,0.214136,0.043741,0.798411,0.014235,-0.015557,1.170581,0.022398,-0.0258149999999999,0.927113,0.0002249999999999,-0.0011289999999999,1.072887,-0.0002249999999999,0.0011289999999999,0.8772610000000001,-0.3539339999999999,0.010513,1.126731,-0.338694,-0.0149159999999999,0.864391,-0.659614,0.0265159999999999,1.140321,-0.674614,0.018579
3,1.0003119999999999,0.7478779999999999,0.030179,0.843062,0.457308,0.052626,0.810542,0.220728,0.054336,1.153822,0.455458,0.057879,1.176792,0.214138,0.043558,0.7985320000000001,0.014137,-0.0153849999999999,1.1788319999999999,-0.019809,-0.041242,0.927054,0.000208,-0.0009909999999999,1.072946,-0.0002079999999999,0.000991,0.8774120000000001,-0.354002,0.010773,1.126752,-0.338192,-0.0150099999999999,0.864492,-0.6610820000000001,0.029518,1.140542,-0.674682,0.018446
4,0.999995,0.7477905,0.0304969999999999,0.842971,0.4572705,0.0528919999999999,0.8106010000000001,0.2207105,0.054339,1.153871,0.4554805,0.0579379999999999,1.176941,0.2140105,0.0432999999999999,0.798591,0.0137565,-0.015225,1.178961,-0.0200755,-0.04123,0.927084,0.0001654999999999,-0.000946,1.072916,-0.0001655,0.0009459999999999,0.877461,-0.3536795,0.0105309999999999,1.126781,-0.3375895,-0.015003,0.864951,-0.6613395,0.0295779999999999,1.140371,-0.6739995,0.0185009999999999
5,1.0006025,0.7477925000000001,0.0288785,0.8435085,0.4573625,0.0523805,0.8115384999999999,0.2202625,0.0532585,1.1544085,0.4554924999999999,0.0568465,1.1772485,0.2138925,0.0426355,0.7987485,0.0135455,-0.0157154999999999,1.1792285,-0.0183624999999999,-0.0415025,0.9270905,0.0002385,-0.0008294999999999,1.0729095,-0.0002384999999999,0.0008295,0.8772385,-0.3530475,0.0111725,1.1263285,-0.3369475,-0.0143755,0.8646185,-0.6610775,0.0313985,1.1398385,-0.6741975,0.0202215
6,1.000235,0.7478395,0.0293329999999999,0.843495,0.4573295,0.052623,0.811315,0.2210895,0.052694,1.153195,0.4540695,0.055459,1.1771049999999998,0.2131795,0.041692,0.799395,0.0131165,-0.017446,1.184405,-0.0340745,-0.0536419999999999,0.92709,0.0002404999999999,-0.0008039999999999,1.07291,-0.0002405,0.0008039999999999,0.877225,-0.3531105,0.011281,1.126195,-0.3363305,-0.014508,0.864815,-0.6614005000000001,0.03153,1.1398849999999998,-0.6741305000000001,0.020267
7,0.9993470000000001,0.746875,0.0318585,0.8440190000000001,0.457415,0.0530695,0.7925690000000001,0.245255,0.0226015,1.1534289999999998,0.453685,0.0550925,1.196249,0.235305,0.0115455,0.767709,0.0667899999999999,-0.0831785,1.218249,0.05141,-0.1063285,0.927021,0.0001899999999999,-0.0007304999999999,1.072979,-0.00019,0.0007305,0.878059,-0.352525,0.0116695,1.127289,-0.334825,-0.0144175,0.864099,-0.6581750000000001,0.0290185,1.139989,-0.677965,0.0188375
8,0.9990115,0.7467915,0.0327105,0.8442685,0.4575815,0.0529625,0.7846785000000001,0.2562515,0.0094285,1.1532485000000001,0.4535715,0.0543335,1.2047685,0.2459815,-0.0026274999999999,0.7537885000000001,0.0905575,-0.1080844999999999,1.2312185,0.0786145,-0.1305644999999999,0.9269705,0.0002125,-0.0005704999999999,1.0730295,-0.0002125,0.0005705,0.8782485000000001,-0.3521785,0.0119905,1.1274485,-0.3340285,-0.0143304999999999,0.8639085,-0.6576885,0.0290215,1.1399585,-0.6781485,0.0187715
9,0.998705,0.7466815,0.033724,0.844361,0.4580415,0.052686,0.775331,0.2699215,-0.004982,1.153201,0.4536715,0.053368,1.2146810000000001,0.2605615,-0.017443,0.738831,0.1211614999999999,-0.136047,1.248211,0.1083114999999999,-0.156937,0.9268959999999999,0.0002535,-0.0004089999999999,1.073104,-0.0002534999999999,0.0004089999999999,0.878461,-0.3518585,0.0122199999999999,1.127661,-0.3332685,-0.014256,0.863681,-0.6571284999999999,0.0289819999999999,1.139961,-0.6783585,0.0186159999999999
10,0.9984425000000001,0.7466245,0.0348155,0.8444945,0.4584844999999999,0.0521574999999999,0.7641645,0.2901045,-0.0221735,1.1532845,0.4546145,0.0522575,1.2269645,0.2815445,-0.0340595,0.7215245,0.1678245,-0.1714794999999999,1.2678045,0.1516545,-0.1861094999999999,0.9267875,0.0002734999999999,-0.0002694999999999,1.0732125,-0.0002735,0.0002694999999999,0.8786645000000001,-0.3517055,0.0122375,1.1278845,-0.3326055,-0.0142675,0.8633545,-0.6563255,0.0287315,1.1400744999999999,-0.6782254999999999,0.0182135
11,0.998304,0.7458739999999999,0.035765,0.844758,0.459694,0.051349,0.7514580000000001,0.318134,-0.03949,1.153558,0.455754,0.0506729999999999,1.241948,0.310004,-0.050882,0.703598,0.228604,-0.204881,1.290408,0.214224,-0.216021,0.926679,0.0003199999999999,-0.000146,1.073321,-0.0003199999999999,0.000146,0.8789780000000001,-0.351906,0.012166,1.128218,-0.332356,-0.014327,0.863068,-0.6561060000000001,0.028185,1.1402079999999999,-0.6793760000000001,0.017808
12,0.9983055,0.7449725,0.0366784999999999,0.8449065,0.4614425,0.0503495,0.7407365,0.3506825,-0.0520995,1.1537165,0.4568325,0.0489495,1.2548664999999999,0.3410225,-0.0627975,0.6903665,0.2960925,-0.2178105,1.3089265,0.2798825,-0.2296405,0.9266575,0.0003705,-4.849999999999993e-05,1.0733425,-0.0003704999999999,4.849999999999993e-05,0.8791565000000001,-0.3522975,0.0119934999999999,1.1284165,-0.3323375,-0.0144145,0.8627165,-0.6567975,0.0275604999999999,1.1402465,-0.6808974999999999,0.0173224999999999
13,0.9983955000000001,0.743618,0.037148,0.8448955000000001,0.463378,0.049179,0.7327155000000001,0.384328,-0.060642,1.1538055,0.457738,0.046851,1.2653555,0.374358,-0.0704149999999999,0.6806355,0.364118,-0.222975,1.3239255,0.350498,-0.2340449999999999,0.9267095,0.0004299999999999,7.200000000000262e-05,1.0732905,-0.0004299999999999,-7.199999999999568e-05,0.8793955,-0.352902,0.011656,1.1286654999999999,-0.332522,-0.0146509999999999,0.8624455,-0.6579820000000001,0.02679,1.1402555,-0.6831020000000001,0.016562
14,0.998569,0.7420644999999999,0.0372575,0.844784,0.4653345,0.0479805,0.727104,0.4194445,-0.0659985,1.153944,0.4590445,0.0446435,1.274174,0.4103945,-0.0757014999999999,0.673694,0.4344345,-0.2235714999999999,1.335304,0.4201445,-0.2355815,0.9267950000000001,0.0004794999999999,0.0001425,1.073205,-0.0004795,-0.0001424999999999,0.879634,-0.3539155,0.0113025,1.128874,-0.3330655,-0.0148454999999999,0.862124,-0.6594855000000001,0.0261355,1.140264,-0.6855755,0.0159395
15,0.998659,0.7393605,0.0368654999999999,0.844834,0.4686505,0.0461415,0.725894,0.4647105,-0.0669164999999999,1.153954,0.4614605,0.0422405,1.279394,0.4551805,-0.0769455,0.6708339999999999,0.5163005,-0.2244055,1.3413439999999999,0.5009905,-0.2368655,0.9269060000000001,0.0004994999999999,0.0001444999999999,1.073094,-0.0004994999999999,-0.0001444999999999,0.879804,-0.3558294999999999,0.0107234999999999,1.1290040000000001,-0.3348195,-0.0151145,0.861824,-0.6623795,0.0256174999999999,1.140234,-0.6893994999999999,0.0154284999999999
16,0.9987095000000001,0.735635,0.036249,0.8450815,0.472445,0.044656,0.7258215,0.5117750000000001,-0.067777,1.1538115,0.465035,0.040813,1.2805715,0.5018149999999999,-0.077871,0.6699415,0.5956049999999999,-0.225221,1.3441215,0.583345,-0.237871,0.9269835,0.000556,7.400000000000115e-05,1.0730165,-0.000556,-7.400000000000115e-05,0.8799415000000002,-0.357355,0.009944,1.1291315,-0.338385,-0.015447,0.8616215,-0.6667350000000001,0.025061,1.1402915,-0.6941949999999999,0.014918
17,0.998781,0.7317395,0.0356615,0.845359,0.4761395,0.0433945,0.725839,0.5556595000000001,-0.0683615,1.153669,0.4688994999999999,0.0396995,1.280819,0.5453195000000001,-0.0784655,0.6700190000000001,0.6714295,-0.2247655,1.3441589999999999,0.6604395000000001,-0.2379655,0.92703,0.0006164999999999,4.149999999999987e-05,1.07297,-0.0006165,-4.149999999999987e-05,0.880049,-0.3591905,0.0093544999999999,1.129239,-0.3422605,-0.0156105,0.861429,-0.6713705,0.0248455,1.140329,-0.6991605,0.0146794999999999
18,0.9989835,0.728061,0.035465,0.8456155000000001,0.4797309999999999,0.04254,0.7260154999999999,0.5997509999999999,-0.064726,1.1534855,0.473821,0.039026,1.2809355,0.588101,-0.076101,0.6707555000000001,0.749721,-0.210201,1.3448555,0.7349709999999999,-0.224331,0.9270295,0.000673,-4.699999999999843e-05,1.0729705,-0.000673,4.70000000000019e-05,0.8802655,-0.360799,0.009158,1.1292955,-0.3460689999999999,-0.015562,0.8611854999999999,-0.6760090000000001,0.024846,1.1403455,-0.703999,0.014765
19,0.9991895,0.724402,0.0354415,0.8460635,0.483002,0.0419135,0.7262335000000001,0.637502,-0.0584525,1.1531635,0.4784319999999999,0.0385795,1.2812835,0.624542,-0.0670635,0.6717135000000001,0.812442,-0.1892085,1.3460035000000001,0.7966420000000001,-0.1995585,0.9271395,0.000722,-6.650000000000059e-05,1.0728605,-0.000722,6.650000000000059e-05,0.8804735,-0.3625179999999999,0.0091335,1.1292235,-0.350078,-0.0154945,0.8610535,-0.681098,0.0250095,1.1402935,-0.709648,0.0149555
20,0.9994135,0.7211825000000001,0.0353735,0.8466525,0.4850725,0.0412645,0.7286025,0.6670225000000001,-0.0490785,1.1528325,0.4827425000000001,0.0385745,1.2816325,0.6534025,-0.0567574999999999,0.6749725000000001,0.8601825000000001,-0.1633595,1.3469225,0.8436425000000001,-0.1724695,0.9273205,0.0007544999999999,-7.549999999999918e-05,1.0726795,-0.0007544999999999,7.550000000000265e-05,0.8806025000000001,-0.3638675,0.0089465,1.1290525,-0.3534075,-0.0154855,0.8608825,-0.6852174999999999,0.0251695,1.1401625,-0.7141474999999999,0.0149655
21,0.9996440000000001,0.718106,0.034873,0.8470610000000001,0.4864659999999999,0.0408,0.733331,0.689846,-0.037805,1.1524009999999998,0.486996,0.038597,1.2799209999999999,0.680066,-0.044734,0.680361,0.899586,-0.132386,1.345251,0.883866,-0.141316,0.927582,0.0007769999999999,-8.89999999999988e-05,1.072418,-0.0007769999999999,8.900000000000227e-05,0.8806710000000001,-0.365104,0.008588,1.128751,-0.356564,-0.0154699999999999,0.860621,-0.689494,0.025314,1.139951,-0.718514,0.014977
22,0.9998865,0.71527,0.0340465,0.8473865,0.48761,0.0405434999999999,0.7401665,0.71052,-0.0235604999999999,1.1519865,0.4911099999999999,0.0387114999999999,1.2755765000000001,0.70262,-0.0306175,0.6884165,0.93251,-0.0935265,1.3408165,0.91747,-0.1065365,0.9278725,0.000784,-0.0001974999999999,1.0721275,-0.000784,0.0001974999999999,0.8806865,-0.36598,0.0082554999999999,1.1284165,-0.35958,-0.0153594999999999,0.8602865,-0.69364,0.0254245,1.1396865,-0.72252,0.0150835
23,1.0000825,0.7126380000000001,0.0337919999999999,0.8476485,0.488598,0.040761,0.7487685,0.7276480000000001,-0.008645,1.1512185,0.4949579999999999,0.0393009999999999,1.2681985,0.720628,-0.015622,0.6975685,0.957448,-0.0557929999999999,1.3326385,0.944688,-0.068935,0.9281645000000001,0.0008109999999999,-0.000408,1.0718355,-0.000811,0.0004079999999999,0.8806385,-0.366602,0.0080939999999999,1.1279385,-0.362522,-0.015004,0.8599085000000001,-0.6982820000000001,0.0258909999999999,1.1394185000000001,-0.7270319999999999,0.0155619999999999
24,1.0002355,0.711308,0.0336265,0.8481485000000001,0.4881479999999999,0.0412435,0.7564285,0.7332380000000001,0.0036505,1.1503785,0.497848,0.0402195,1.2618485,0.728508,-0.0038814999999999,0.7036385000000001,0.968298,-0.0318194999999999,1.3262185,0.957098,-0.0436684999999999,0.9283785,0.000876,-0.0006164999999999,1.0716215,-0.000876,0.0006165,0.8806285000000001,-0.366352,0.0079445,1.1274785,-0.364302,-0.0146144999999999,0.8595485,-0.701342,0.0264885,1.1391685,-0.730192,0.0161695
25,1.0003799999999998,0.710792,0.0339045,0.848792,0.487112,0.0419964999999999,0.7625919999999999,0.735872,0.0133884999999999,1.149442,0.499532,0.0415474999999999,1.2565819999999999,0.734082,0.0055904999999999,0.7082120000000001,0.975442,-0.0139305,1.3209119999999999,0.963842,-0.0235335,0.9285160000000001,0.000892,-0.0008765,1.0714839999999999,-0.0008919999999999,0.0008764999999999,0.880652,-0.3665079999999999,0.0079074999999999,1.127072,-0.365388,-0.0141295,0.859172,-0.703558,0.0268864999999999,1.138962,-0.732508,0.0168984999999999
26,1.0005814999999998,0.7104860000000001,0.0344864999999999,0.8495385,0.486376,0.0427955,0.7679785,0.738206,0.0219735,1.1484585,0.500716,0.0431195,1.2515985,0.738786,0.0143434999999999,0.7127685,0.981806,0.0018904999999999,1.3162985,0.970006,-0.0062004999999999,0.9286155,0.000883,-0.0010975,1.0713845,-0.0008829999999999,0.0010975,0.8806285,-0.3663639999999999,0.0078785,1.1267185,-0.366214,-0.0135904999999999,0.8587585,-0.705164,0.0272654999999999,1.1387785,-0.734484,0.0175624999999999
27,1.000811,0.7102335,0.03524,0.850124,0.4859735,0.043682,0.770454,0.7379735000000001,0.025974,1.147564,0.5006335000000001,0.044828,1.248714,0.7403735,0.018737,0.715814,0.9819935,0.00923,1.313844,0.9714935,0.002117,0.92869,0.0008634999999999,-0.0013149999999999,1.07131,-0.0008635,0.001315,0.880494,-0.3664365,0.007956,1.126394,-0.3668865,-0.0130059999999999,0.858454,-0.7065265,0.027868,1.138644,-0.7360865,0.018209
28,1.001221,0.7100609999999999,0.0358794999999999,0.8502870000000001,0.4861909999999999,0.0444045,0.772417,0.737831,0.0286954999999999,1.146937,0.500391,0.0457085,1.246257,0.742001,0.0217284999999999,0.7186969999999999,0.982331,0.0147144999999999,1.311057,0.972731,0.0073154999999999,0.928712,0.000876,-0.0015915,1.071288,-0.000876,0.0015914999999999,0.880427,-0.366299,0.0080784999999999,1.126217,-0.367339,-0.0125215,0.858367,-0.707089,0.0285224999999999,1.138527,-0.736549,0.0188924999999999
29,1.0017204999999998,0.7099525,0.036222,0.8503655,0.4864524999999999,0.044815,0.7738555,0.7379025,0.030544,1.1465455,0.5004225,0.046255,1.2441855,0.7437225,0.02394,0.7213955000000001,0.9827325,0.017594,1.3083055,0.9738325,0.010865,0.9287315,0.0008775,-0.001901,1.0712685,-0.0008774999999999,0.001901,0.8803855,-0.3662075,0.007998,1.1261455,-0.3676775,-0.01219,0.8583455,-0.7074575,0.028815,1.1385055,-0.7368675,0.01926
30,1.0022355,0.7097755,0.0364135,0.8505825,0.4858954999999999,0.0449755,0.7743925,0.7373655,0.0311714999999999,1.1463025,0.5003755,0.0465644999999999,1.2428925,0.7444455,0.0247604999999999,0.7230425,0.9798755,0.0177305,1.3057525,0.9732755,0.0115455,0.9287345,0.0008815,-0.0020725,1.0712655,-0.0008815,0.0020724999999999,0.8803725,-0.3663045,0.0078404999999999,1.1261425,-0.3682345,-0.0120185,0.8583425,-0.7081045,0.0289854999999999,1.1385325,-0.7374245,0.0194295
31,1.002688,0.709938,0.0364865,0.8511029999999999,0.485898,0.0448965,0.774513,0.737688,0.0311975,1.145693,0.501178,0.0468935,1.241783,0.745468,0.0248495,0.724453,0.979678,0.0176925,1.303013,0.973278,0.0117185,0.928734,0.000869,-0.0021054999999999,1.071266,-0.000869,0.0021055,0.8803529999999999,-0.3663019999999999,0.0075705,1.126093,-0.3684019999999999,-0.0119834999999999,0.858303,-0.708662,0.0286605,1.138553,-0.737942,0.0194445
32,1.003023,0.709878,0.0366485,0.8513430000000001,0.485548,0.0447845,0.7745830000000001,0.737738,0.0311945,1.145013,0.5016879999999999,0.0473185,1.240943,0.746338,0.0248925,0.725533,0.978778,0.0176365,1.299993,0.972878,0.0118725,0.928734,0.000862,-0.0021054999999999,1.071266,-0.000862,0.0021055,0.8803430000000001,-0.366672,0.0073595,1.126023,-0.368882,-0.0119794999999999,0.858223,-0.709662,0.0286645,1.138563,-0.738672,0.0193815
33,1.0033195,0.709751,0.0368425,0.8514855,0.485351,0.0446315,0.7745955000000001,0.737611,0.0310705,1.1443254999999999,0.5024109999999999,0.0475785,1.2401555,0.747201,0.0248095,0.7266155000000001,0.977731,0.0174575,1.2969355,0.972331,0.0119055,0.9287465,0.0008599999999999,-0.0022294999999999,1.0712535,-0.0008599999999999,0.0022295,0.8803355,-0.367319,0.0070815,1.1259554999999999,-0.369499,-0.0120334999999999,0.8582155000000001,-0.710869,0.0287125,1.1385755,-0.7394689999999999,0.0192355
34,1.00356,0.709543,0.0368715,0.851793,0.4854429999999999,0.0442624999999999,0.774593,0.737613,0.0302145,1.143733,0.503043,0.0477235,1.239073,0.748013,0.0245034999999999,0.727333,0.977813,0.0155024999999999,1.293763,0.971113,0.0108874999999999,0.928774,0.000886,-0.0024855,1.071226,-0.0008859999999999,0.0024855,0.880233,-0.368207,0.0066784999999999,1.125843,-0.370397,-0.0123945,0.858073,-0.7122269999999999,0.0286895,1.1386129999999999,-0.740477,0.0189524999999999
35,1.0037015,0.7093345,0.0363975,0.8522175000000001,0.4857745,0.0435815,0.7745175,0.7377144999999999,0.0286175,1.1432575,0.5037944999999999,0.0475605,1.2381775,0.7488845,0.0234905,0.7272974999999999,0.9786245,0.0126345,1.2909074999999999,0.9697245,0.0086945,0.9287815000000001,0.0009124999999999,-0.0026554999999999,1.0712184999999999,-0.0009125,0.0026555,0.8800875,-0.3693955,0.0059475,1.1257975,-0.3714455,-0.0130284999999999,0.8580274999999999,-0.7134155,0.0283095,1.1386975,-0.7415855,0.0183595
36,1.003809,0.7093345,0.0358885,0.8526580000000001,0.4858844999999999,0.0429755,0.774358,0.7376045,0.0268305,1.142858,0.5041545,0.0472955,1.2373779999999999,0.7494744999999999,0.0222915,0.7272780000000001,0.9792245,0.0096984999999999,1.288368,0.9694245,0.0062245,0.928768,0.0009124999999999,-0.0028214999999999,1.071232,-0.0009125,0.0028215,0.879868,-0.3693955,0.0050415,1.1257579999999998,-0.3714455,-0.0137025,0.858048,-0.7134155,0.0273435,1.138788,-0.7415955000000001,0.0176074999999999
37,1.0039075,0.7093345,0.0352505,0.8530995,0.4860344999999999,0.0422254999999999,0.7740395000000001,0.7375045,0.0247754999999999,1.1424695,0.5042945,0.0469184999999999,1.2365595,0.7498444999999999,0.0207684999999999,0.7272395,0.9798245,0.0063484999999999,1.2859395,0.9694245,0.0034254999999999,0.9287515000000001,0.0009124999999999,-0.0029095,1.0712484999999998,-0.0009125,0.0029094999999999,0.8796195,-0.3693955,0.0038234999999999,1.1256694999999999,-0.3714455,-0.0145055,0.8581395,-0.7136455,0.0263744999999999,1.1388595,-0.7416155,0.0166394999999999
38,1.003991,0.7093345,0.0343405,0.853483,0.4861645,0.0413285,0.7735529999999999,0.7374645,0.0223825,1.142103,0.5042945,0.0463885,1.235743,0.7498444999999999,0.0190245,0.727033,0.9821245,0.0023935,1.283523,0.9694245,0.0002634999999999,0.928728,0.0009124999999999,-0.0030104999999999,1.071272,-0.0009125,0.0030104999999999,0.879163,-0.3704355,0.0015184999999999,1.125473,-0.3714455,-0.0157995,0.858243,-0.7139755,0.0254635,1.1388530000000001,-0.7416255,0.0154325
39,1.0039665,0.709092,0.0332415,0.8537975000000001,0.486402,0.0401745,0.7728875,0.7376619999999999,0.0199025,1.1416075,0.504532,0.0453805,1.2347875,0.7500819999999999,0.0169015,0.7266375,0.984062,-0.0018045,1.2809175,0.967662,-0.0030115,0.9286975000000001,0.0009449999999999,-0.0031044999999999,1.0713024999999998,-0.000945,0.0031044999999999,0.8785875,-0.372478,-0.0015105,1.1250575,-0.372718,-0.0178044999999999,0.8582675000000001,-0.715708,0.0243064999999999,1.1387175,-0.742878,0.0134964999999999
40,1.0038465,0.7087870000000001,0.03238,0.8538005000000001,0.486747,0.039158,0.7721804999999999,0.737907,0.0175309999999999,1.1415104999999999,0.504877,0.044577,1.2337305,0.750427,0.015049,0.7260705000000001,0.985507,-0.00561,1.2784404999999999,0.966007,-0.0060689999999999,0.9286455,0.0009689999999999,-0.003062,1.0713545,-0.0009689999999999,0.0030619999999999,0.8779605,-0.374823,-0.0047589999999999,1.1247205,-0.374793,-0.020182,0.8583005000000001,-0.717493,0.023459,1.1385605,-0.744013,0.011792
41,1.003683,0.7083955,0.0322145,0.854023,0.4872755,0.0388915,0.771393,0.7381555,0.0155645,1.141413,0.5053255000000001,0.0445665,1.232513,0.7508554999999999,0.0131155,0.725163,0.9861354999999998,-0.0090634999999999,1.275873,0.9637355,-0.0096575,0.928609,0.0009894999999999,-0.0030444999999999,1.071391,-0.0009895,0.0030445,0.877333,-0.3776945,-0.0082694999999999,1.124633,-0.3774345,-0.0229634999999999,0.858463,-0.7198644999999999,0.0230525,1.138423,-0.7452045,0.0106205
42,1.003408,0.7078720000000001,0.0317935,0.854445,0.4880919999999999,0.0386775,0.7705150000000001,0.7384620000000001,0.0133514999999999,1.141295,0.505572,0.0445725,1.231235,0.751282,0.0107655,0.723835,0.987202,-0.0132024999999999,1.273255,0.961502,-0.0134555,0.928567,0.0010039999999999,-0.0030425,1.071433,-0.0010039999999999,0.0030425,0.876625,-0.3807279999999999,-0.0121905,1.124505,-0.379888,-0.0263115,0.858595,-0.7221179999999999,0.0221295,1.138245,-0.746228,0.0092464999999999
43,1.0030505,0.707237,0.0307269999999999,0.8546385,0.488217,0.038394,0.7694385,0.7381669999999999,0.0110129999999999,1.1410685,0.504937,0.044202,1.2302785,0.750977,0.0074939999999999,0.7221685,0.9888869999999998,-0.017411,1.2705484999999999,0.959287,-0.01822,0.9285335000000001,0.0010379999999999,-0.003041,1.0714664999999999,-0.001038,0.0030409999999999,0.8758085000000001,-0.383613,-0.017876,1.1242785,-0.381753,-0.031493,0.8587385000000001,-0.724353,0.020918,1.1379785,-0.746823,0.0075229999999999
44,1.0026325,0.7061405,0.0288915,0.8546095000000001,0.4880505,0.0372954999999999,0.7682395000000001,0.7375005,0.0078564999999999,1.1407095,0.5043605,0.0428734999999999,1.2292595,0.7506204999999999,0.0033294999999999,0.7201995,0.9914605,-0.0233515,1.2675494999999999,0.9572604999999998,-0.0241785,0.9284875,0.0010534999999999,-0.0029294999999999,1.0715125,-0.0010534999999999,0.0029294999999999,0.8748295,-0.3860895,-0.0257545,1.1239695,-0.3838895,-0.0395035,0.8588195000000001,-0.7258895000000001,0.0190965,1.1375995,-0.7467295,0.0053174999999999
45,1.0021135,0.705089,0.0274105,0.8544195,0.486859,0.0359135,0.7669195,0.7358790000000001,0.0049834999999999,1.1401295,0.503619,0.0416814999999999,1.2279895,0.750049,-0.0008225,0.7180295,0.993399,-0.0283705,1.2644195,0.955999,-0.0304435,0.9283845,0.001009,-0.0027564999999999,1.0716155,-0.0010089999999999,0.0027564999999999,0.8732695,-0.387881,-0.0349135,1.1238095,-0.3856009999999999,-0.0486474999999999,0.8587994999999999,-0.726191,0.0169964999999999,1.1371295,-0.7456309999999999,0.0038154999999999
46,1.001578,0.7038595,0.0259919999999999,0.854218,0.4860394999999999,0.035033,0.765578,0.7344895,0.0024089999999999,1.1395279999999999,0.5030195,0.0406539999999999,1.226758,0.7494895,-0.004462,0.7161379999999999,0.9916795,-0.033234,1.261628,0.9560295,-0.036029,0.9282410000000001,0.0010044999999999,-0.0024209999999999,1.071759,-0.0010044999999999,0.0024209999999999,0.871568,-0.3888905,-0.044347,1.1238380000000001,-0.3869405,-0.058152,0.858938,-0.7255705,0.0143289999999999,1.136578,-0.7437605,0.0028119999999999
47,1.0009715,0.70238,0.024995,0.8542455,0.48488,0.034246,0.7642355000000001,0.73272,-0.0001419999999999,1.1388455,0.50059,0.039623,1.2254755,0.74728,-0.0074759999999999,0.7143755,0.98965,-0.0374599999999999,1.2590455,0.95759,-0.0410779999999999,0.9280495,0.000905,-0.0021699999999999,1.0719505,-0.0009049999999999,0.00217,0.8699455,-0.38755,-0.053673,1.1240455,-0.3873399999999999,-0.0686509999999999,0.8589555,-0.72277,0.011691,1.1363355,-0.7393299999999999,0.002517
48,1.0003285,0.700153,0.023658,0.8542295,0.4839129999999999,0.0337849999999999,0.7629895,0.7310329999999999,-0.002899,1.1379895,0.498563,0.038936,1.2240995,0.7451829999999999,-0.010341,0.7126695000000001,0.987643,-0.04195,1.2567095,0.959573,-0.046685,0.9278245,0.000729,-0.001937,1.0721755,-0.000729,0.0019369999999999,0.8682395,-0.386137,-0.063143,1.1243595,-0.387367,-0.079763,0.8589595,-0.7192270000000001,0.0098429999999999,1.1360695,-0.734347,0.0025599999999999
49,0.9997055000000001,0.6978525,0.0224844999999999,0.8541345,0.4833225,0.0338595,0.7617645,0.7249525,-0.0050695,1.1372745,0.4972625,0.0385745,1.2226045,0.7437025,-0.0130625,0.7110145,0.9814625,-0.0459875,1.2545245,0.9614125,-0.0518335,0.9276044999999999,0.0005405,-0.0018115,1.0723955,-0.0005404999999999,0.0018115,0.8661845,-0.3845375,-0.0730495,1.1250045,-0.3862075,-0.0906195,0.8590245,-0.7153775,0.0085104999999999,1.1357945,-0.7294775,0.0030724999999999
50,0.9986490000000001,0.694591,0.0216545,0.853469,0.482751,0.0341095,0.760099,0.7236509999999999,-0.0077164999999999,1.135949,0.497251,0.0384225,1.220629,0.743641,-0.0154254999999999,0.708779,0.979951,-0.0505235,1.252359,0.964901,-0.0562644999999999,0.927312,0.0002269999999999,-0.0015634999999999,1.072688,-0.0002269999999999,0.0015635,0.863059,-0.378569,-0.0847145,1.126269,-0.379969,-0.1027845,0.858509,-0.705929,0.0064855,1.135579,-0.7193590000000001,0.0032525
51,0.9975075000000001,0.692361,0.0214115,0.8523965,0.480611,0.0336175,0.7583165000000001,0.7212409999999999,-0.0096364999999999,1.1347464999999999,0.494921,0.0380615,1.2189765,0.7394109999999999,-0.0169524999999999,0.7071265,0.977481,-0.0537254999999999,1.2509165,0.966711,-0.0597754999999999,0.9270285,-5.799999999999989e-05,-0.0015224999999999,1.0729715,5.8000000000000326e-05,0.0015225,0.8599965,-0.370449,-0.0962055,1.1276765,-0.371679,-0.1145954999999999,0.8577764999999999,-0.6937490000000001,0.0045705,1.1353265,-0.7069690000000001,0.0038925
52,0.9965955000000001,0.68931,0.0211615,0.8515794999999999,0.47889,0.0330395,0.7568895,0.7178100000000001,-0.0117275,1.1331495,0.49365,0.0379355,1.2171995,0.73372,-0.0172275,0.7056495,0.9714,-0.0579795,1.2494795,0.96712,-0.0626395,0.9265194999999999,-0.0003279999999999,-0.0015814999999999,1.0734805,0.000328,0.0015814999999999,0.8568595,-0.3608699999999999,-0.1080395,1.1294795,-0.3617599999999999,-0.1260494999999999,0.8577494999999999,-0.6786099999999999,0.0022744999999999,1.1353095,-0.69191,0.0046264999999999
53,0.995509,0.6868935,0.0157935,0.85061,0.4776035,0.0275715,0.75537,0.7156235,-0.0187295,1.13207,0.4913135,0.0327065,1.21573,0.7304634999999999,-0.0222134999999999,0.70434,0.9676635,-0.0663614999999999,1.24842,0.9699535,-0.0699115,0.925902,-0.0004405,-0.0015205,1.074098,0.0004404999999999,0.0015205,0.85366,-0.3501765,-0.1241615,1.13074,-0.3501065,-0.1411215,0.85774,-0.6618364999999999,-0.0047504999999999,1.13513,-0.6752165000000001,-0.0002344999999999
54,0.9944725,0.6836895,0.0096904999999999,0.8501655000000001,0.4765195,0.0224515,0.7538355000000001,0.7140695,-0.0268775,1.1305055,0.4912094999999999,0.0275594999999999,1.2140655,0.7306794999999999,-0.0281645,0.7032355,0.9661095,-0.0756945,1.2473355,0.9747995,-0.0789045,0.9252525,-0.0006455,-0.0013525,1.0747475,0.0006455,0.0013524999999999,0.8509455,-0.3367105,-0.1399045,1.1320855,-0.3354905,-0.1558945,0.8577255,-0.6422805,-0.0115994999999999,1.1351255,-0.6546105,-0.0053845
55,0.9935885000000001,0.680851,0.0038805,0.8498114999999999,0.475991,0.0172465,0.7525315,0.713291,-0.0351034999999999,1.1290615,0.488581,0.0220835,1.2124215,0.728271,-0.0349835,0.7022315,0.965111,-0.0861065,1.2464715,0.977221,-0.0876565,0.9247055,-0.000715,-0.0012604999999999,1.0752945,0.0007149999999999,0.0012605,0.8480615,-0.3205789999999999,-0.1572165,1.1334315,-0.318369,-0.1701165,0.8577915,-0.620419,-0.0169305,1.1353415,-0.631429,-0.0105544999999999
56,0.9926935,0.67845,-0.001778,0.8494095,0.47625,0.012606,0.7514695,0.71326,-0.042382,1.1277695,0.49037,0.0177319999999999,1.2108495,0.7298500000000001,-0.042132,0.7013995,0.96489,-0.096932,1.2457295,0.98005,-0.097692,0.9241925,-0.0007599999999999,-0.0012339999999999,1.0758075,0.0007599999999999,0.0012339999999999,0.8448694999999999,-0.29958,-0.172872,1.1347595,-0.29643,-0.182462,0.8576895,-0.5943,-0.021772,1.1353494999999998,-0.60392,-0.0155919999999999
57,0.9918620000000001,0.67977,-0.0069235,0.848833,0.477,0.0077244999999999,0.750233,0.71183,-0.0494105,1.126593,0.48942,0.0127104999999999,1.209553,0.7289000000000001,-0.0490305,0.699883,0.96305,-0.1075405,1.245113,0.98059,-0.1071505,0.923671,-0.0009299999999999,-0.0010275,1.076329,0.00093,0.0010274999999999,0.840463,-0.27571,-0.1898505,1.1361729999999999,-0.27128,-0.1971805,0.857473,-0.56501,-0.0267915,1.135363,-0.5739399999999999,-0.0205805
58,0.9909185,0.680385,-0.0123829999999999,0.8482875,0.477275,0.002141,0.7487575,0.715545,-0.0575119999999999,1.1251875,0.488635,0.006957,1.2086475,0.7282649999999999,-0.056462,0.6983675,0.966255,-0.1188719999999999,1.2447575,0.981975,-0.117182,0.9231895,-0.000865,-0.001007,1.0768105000000001,0.0008649999999999,0.001007,0.8362275,-0.250555,-0.206192,1.1373475,-0.245605,-0.212432,0.8569475,-0.535115,-0.0325089999999999,1.1348175,-0.543435,-0.0263219999999999
59,0.9902160000000001,0.681685,-0.017502,0.848259,0.475585,-0.0032989999999999,0.748139,0.713645,-0.063868,1.124679,0.486555,0.001312,1.208509,0.7264349999999999,-0.063308,0.697899,0.964285,-0.128278,1.244859,0.982375,-0.125808,0.923024,-0.0009149999999999,-0.000926,1.076976,0.0009149999999999,0.0009259999999999,0.8319690000000001,-0.226245,-0.219978,1.138229,-0.221255,-0.225848,0.8564490000000001,-0.508535,-0.036637,1.135049,-0.515495,-0.0327979999999999
60,0.989641,0.68164,-0.022862,0.8484300000000001,0.47629,-0.00816,0.7479899999999999,0.71361,-0.070466,1.1243400000000001,0.4868699999999999,-0.003876,1.2076,0.72855,-0.069506,0.69755,0.96374,-0.138156,1.24421,0.98435,-0.134886,0.922837,-0.00091,-0.00069,1.077163,0.0009099999999999,0.0006899999999999,0.82787,-0.20297,-0.233706,1.13916,-0.1978,-0.238986,0.8560900000000001,-0.48341,-0.040847,1.13498,-0.48891,-0.039485
61,0.9890955000000001,0.6820350000000001,-0.0278819999999999,0.8486415,0.477325,-0.01307,0.7475615,0.7154450000000001,-0.0763669999999999,1.1241115,0.487305,-0.009264,1.2064715,0.7326250000000001,-0.0755269999999999,0.6972215000000002,0.967745,-0.145527,1.2442115,0.985965,-0.141807,0.9226105,-0.0010549999999999,-0.000389,1.0773895,0.001055,0.000389,0.8239915000000001,-0.1807849999999999,-0.245797,1.1400415,-0.1756749999999999,-0.251147,0.8557915,-0.4599649999999999,-0.044757,1.1348915,-0.465735,-0.046707
62,0.988939,0.683595,-0.0340645,0.8495550000000001,0.476925,-0.0190685,0.747555,0.7156750000000001,-0.0835595,1.123705,0.487685,-0.0156984999999999,1.205195,0.733765,-0.0828495,0.697675,0.969195,-0.1538995,1.244705,0.986565,-0.1497895,0.922044,-0.001165,-0.0001824999999999,1.077956,0.0011649999999999,0.0001825,0.820265,-0.156675,-0.2586795,1.141235,-0.152425,-0.2645095,0.855395,-0.436425,-0.0502995,1.135475,-0.444225,-0.0557995
63,0.988597,0.6859999999999999,-0.039323,0.850279,0.4782999999999999,-0.0246369999999999,0.747259,0.7171099999999999,-0.089265,1.1235689999999998,0.48595,-0.0219769999999999,1.204589,0.7274700000000001,-0.089195,0.697479,0.97008,-0.161935,1.2453789999999998,0.98036,-0.157165,0.921726,-0.00115,0.000167,1.078274,0.0011499999999999,-0.0001669999999999,0.816299,-0.13484,-0.2704149999999999,1.142309,-0.13199,-0.276845,0.854729,-0.41533,-0.055755,1.1356689999999998,-0.4260899999999999,-0.065265
64,0.9883555,0.68807,-0.042455,0.8509835,0.47886,-0.0285579999999999,0.7471135,0.71752,-0.092886,1.1232335,0.48689,-0.026401,1.2048835,0.72346,-0.093656,0.6977234999999999,0.96689,-0.166416,1.2460235,0.97622,-0.163506,0.9216465000000001,-0.0013499999999999,0.000675,1.0783535,0.00135,-0.000675,0.8126535,-0.1147599999999999,-0.2786059999999999,1.1434734999999998,-0.1125599999999999,-0.287906,0.8533935,-0.3954499999999999,-0.059816,1.1353235,-0.40945,-0.073216
65,0.9882,0.68879,-0.042447,0.852011,0.47962,-0.029031,0.747391,0.71794,-0.093177,1.123181,0.4858,-0.0276329999999999,1.205191,0.71757,-0.094527,0.697911,0.96387,-0.166427,1.247301,0.97057,-0.165717,0.921474,-0.00139,0.000684,1.078526,0.00139,-0.0006839999999999,0.809501,-0.1002299999999999,-0.283517,1.144751,-0.0983999999999999,-0.295407,0.852041,-0.3801499999999999,-0.0597469999999999,1.134861,-0.3980999999999999,-0.077647
66,0.988103,0.6877249999999999,-0.0424425,0.8529240000000001,0.478919,-0.0294174999999999,0.7477940000000001,0.7193149999999999,-0.0936125,1.123054,0.4868349999999999,-0.0283435,1.2052939999999999,0.716475,-0.0953025,0.697894,0.964885,-0.1664225,1.2484039999999998,0.962795,-0.1676325,0.921377,-0.001345,0.0006885,1.0786229999999999,0.0013449999999999,-0.0006885,0.807674,-0.086425,-0.2867125,1.146004,-0.085305,-0.2997924999999999,0.851174,-0.365545,-0.0597025,1.134424,-0.386935,-0.0819225
67,0.98796,0.687625,-0.042286,0.853682,0.478678,-0.0296859999999999,0.747822,0.720505,-0.0939859999999999,1.123052,0.48771,-0.0289079999999999,1.205492,0.717765,-0.095856,0.697562,0.966175,-0.166406,1.249692,0.957855,-0.168396,0.921264,-0.0014849999999999,0.000694,1.078736,0.001485,-0.000694,0.805372,-0.0678949999999999,-0.290866,1.146592,-0.0711149999999999,-0.305146,0.850022,-0.348005,-0.059636,1.133682,-0.373695,-0.0862459999999999
68,0.9877705000000001,0.6876800000000001,-0.0396679999999999,0.8539685000000001,0.480635,-0.0278799999999999,0.7477385000000001,0.7225699999999999,-0.0920449999999999,1.1224085,0.48863,-0.0272,1.2053384999999999,0.71892,-0.0942349999999999,0.6968084999999999,0.96806,-0.164165,1.2501085,0.95328,-0.166805,0.9211295,-0.0014399999999999,0.000947,1.0788705,0.0014399999999999,-0.0009469999999999,0.8034885,-0.05219,-0.2925149999999999,1.1464185,-0.0594299999999999,-0.307605,0.8488785,-0.33125,-0.0558749999999999,1.1327485,-0.36211,-0.087085
69,0.987653,0.687385,-0.0370709999999999,0.85419,0.481838,-0.0259139999999999,0.74746,0.724055,-0.090438,1.12251,0.489885,-0.02527,1.20561,0.7202850000000001,-0.093458,0.69571,0.969775,-0.161248,1.25124,0.948695,-0.1652179999999999,0.921121,-0.0013949999999999,0.001031,1.078879,0.001395,-0.0010309999999999,0.80174,-0.0413749999999999,-0.293918,1.14611,-0.0495649999999999,-0.310168,0.84782,-0.315265,-0.051868,1.13152,-0.3508449999999999,-0.0878379999999999
70,0.987654,0.6875749999999999,-0.0344549999999999,0.854403,0.4822219999999999,-0.023989,0.746813,0.724725,-0.0884579999999999,1.122653,0.4898779999999999,-0.023381,1.206223,0.721295,-0.092058,0.694763,0.970605,-0.158158,1.252453,0.946065,-0.1635579999999999,0.9211340000000001,-0.001225,0.001078,1.0788659999999999,0.0012249999999999,-0.001078,0.800033,-0.031475,-0.295228,1.145713,-0.040145,-0.312618,0.846833,-0.300185,-0.047802,1.130173,-0.338555,-0.0881079999999999
71,0.9878545,0.6863400000000001,-0.031693,0.8544345,0.483782,-0.021709,0.7461045,0.72607,-0.08563,1.1227544999999999,0.491159,-0.021329,1.2074544999999999,0.72284,-0.08972,0.6938345,0.97192,-0.1547299999999999,1.2541245,0.9423,-0.1617799999999999,0.9211425,-0.0012499999999999,0.0011069999999999,1.0788575,0.00125,-0.001107,0.7985845,-0.0244699999999999,-0.29597,1.1451745,-0.0330399999999999,-0.3141299999999999,0.8461045,-0.2880199999999999,-0.043406,1.1293145,-0.3264699999999999,-0.08721
72,0.988082,0.684975,-0.0287965,0.854502,0.4845879999999999,-0.0194835,0.7456320000000001,0.726625,-0.0830405,1.122912,0.4924909999999999,-0.0192164999999999,1.209822,0.728175,-0.0871604999999999,0.693322,0.972555,-0.1514505,1.256132,0.944555,-0.1600805,0.921126,-0.001255,0.0010065,1.0788739999999999,0.0012549999999999,-0.0010064999999999,0.797262,-0.018055,-0.2966005,1.144392,-0.026345,-0.3154805,0.845422,-0.277405,-0.0387654999999999,1.1285020000000001,-0.315855,-0.0860605
73,0.988426,0.68379,-0.0261124999999999,0.8546469999999999,0.485709,-0.0174254999999999,0.7449669999999999,0.72714,-0.0810875,1.123087,0.493594,-0.0173065,1.210577,0.73375,-0.0852775,0.6926670000000001,0.97671,-0.1492975,1.256877,0.94612,-0.1582075,0.921085,-0.0012499999999999,0.0009035,1.078915,0.00125,-0.0009035,0.796067,-0.0127499999999999,-0.2968174999999999,1.143577,-0.02107,-0.3163375,0.844757,-0.26835,-0.0342505,1.127787,-0.3067999999999999,-0.0850875
74,0.9888565000000001,0.68368,-0.0236839999999999,0.8547385000000001,0.486197,-0.0156869999999999,0.7439385000000001,0.72727,-0.079656,1.1233385,0.4943039999999999,-0.015695,1.2119585,0.73895,-0.0838059999999999,0.6918385,0.98042,-0.147716,1.2582985,0.94699,-0.156736,0.9210445,-0.0013199999999999,0.0008,1.0789555,0.0013199999999999,-0.0007999999999999,0.7949485000000001,-0.00745,-0.297166,1.1428685,-0.0161899999999999,-0.317146,0.8444485000000002,-0.259,-0.0298029999999999,1.1263585,-0.2983699999999999,-0.0835259999999999
75,0.989456,0.68248,-0.0217755,0.855029,0.487317,-0.0145074999999999,0.743499,0.72699,-0.0782165,1.123499,0.495233,-0.0144595,1.214479,0.74167,-0.0834465,0.691639,0.98084,-0.1465165,1.2614889999999999,0.95177,-0.1561664999999999,0.921045,-0.00129,0.0007585,1.078955,0.00129,-0.0007584999999999,0.794179,-0.00417,-0.2967565,1.142499,-0.0134599999999999,-0.3177864999999999,0.844049,-0.2532,-0.0287474999999999,1.125199,-0.2922999999999999,-0.0830964999999999
76,0.989576,0.681435,-0.0215535,0.855079,0.488019,-0.0144834999999999,0.7433990000000001,0.726075,-0.0776665,1.1237389999999998,0.49548,-0.0143765,1.216589,0.741115,-0.0837965,0.691489,0.980205,-0.1464265,1.264359,0.952375,-0.1567665,0.921045,-0.001255,0.0007585,1.078955,0.0012549999999999,-0.0007584999999999,0.793659,-0.0035549999999999,-0.2967265,1.142489,-0.012405,-0.3180265,0.844049,-0.250395,-0.0287474999999999,1.124869,-0.2901250000000001,-0.0838865
77,0.989591,0.681435,-0.0212575,0.855079,0.488019,-0.0143824999999999,0.743429,0.724275,-0.0771065,1.123819,0.49548,-0.0142795,1.218149,0.740765,-0.0839264999999999,0.691309,0.978365,-0.1460865,1.266409,0.951635,-0.1570165,0.921045,-0.001255,0.0007585,1.078955,0.0012549999999999,-0.0007584999999999,0.792729,-0.0035549999999999,-0.2966765,1.1425489999999998,-0.012405,-0.3180265,0.843919,-0.250415,-0.0293874999999999,1.124869,-0.289525,-0.0838865
78,0.989607,0.681435,-0.0209574999999999,0.855089,0.488019,-0.0142844999999999,0.742939,0.724275,-0.0765365,1.123819,0.49548,-0.0142434999999999,1.218739,0.740765,-0.0839564999999999,0.691179,0.978365,-0.1456464999999999,1.267679,0.951635,-0.1567065,0.921045,-0.001255,0.0007585,1.078955,0.0012549999999999,-0.0007584999999999,0.791079,-0.0035549999999999,-0.2965965,1.142509,-0.012405,-0.3180265,0.843839,-0.250805,-0.0307515,1.124869,-0.290825,-0.0840565
79,0.989728,0.681435,-0.0208775,0.85519,0.488019,-0.0144844999999999,0.74229,0.724275,-0.0766185,1.12393,0.49548,-0.0143705,1.21884,0.740765,-0.0842685,0.6911,0.978365,-0.1455085,1.26818,0.952035,-0.1567085,0.921082,-0.001255,0.0006124999999999,1.078918,0.0012549999999999,-0.0006125,0.7897600000000001,-0.0035549999999999,-0.2962685,1.14261,-0.012405,-0.3183385,0.84392,-0.2506050000000001,-0.0314225,1.12463,-0.289805,-0.0843484999999999
80,0.989554,0.68161,-0.020942,0.855076,0.487945,-0.0150119999999999,0.741826,0.7234,-0.077344,1.124306,0.49493,-0.014907,1.219126,0.73989,-0.085224,0.6911160000000001,0.97749,-0.146804,1.268486,0.95245,-0.157374,0.921463,-0.0011099999999999,0.0005659999999999,1.078537,0.0011099999999999,-0.000566,0.788796,-0.0037899999999999,-0.295874,1.142946,-0.01283,-0.318384,0.843906,-0.2521799999999999,-0.0357839999999999,1.124916,-0.289,-0.0853039999999999
81,0.9894160000000001,0.6834100000000001,-0.021766,0.854797,0.488042,-0.0163479999999999,0.741527,0.72346,-0.078729,1.124727,0.494522,-0.0163619999999999,1.219567,0.73657,-0.086369,0.690797,0.97569,-0.148839,1.2688869999999999,0.95136,-0.159059,0.921586,-0.0011599999999999,0.0006839999999999,1.078414,0.0011599999999999,-0.0006839999999999,0.788227,-0.006,-0.294929,1.143457,-0.01585,-0.318059,0.843607,-0.2580599999999999,-0.041364,1.125267,-0.29183,-0.087079
82,0.989336,0.6863900000000001,-0.022722,0.854599,0.487283,-0.017686,0.741279,0.7227600000000001,-0.0797649999999999,1.125189,0.49373,-0.017864,1.219739,0.73247,-0.0869549999999999,0.690689,0.97497,-0.150885,1.269379,0.94852,-0.159595,0.921665,-0.00119,0.0007579999999999,1.078335,0.00119,-0.000758,0.787819,-0.0098199999999999,-0.293565,1.1441489999999999,-0.0195499999999999,-0.317135,0.8431690000000001,-0.2650599999999999,-0.046547,1.125599,-0.2966299999999999,-0.088615
83,0.989404,0.689685,-0.0235875,0.854467,0.488906,-0.0190785,0.741817,0.723965,-0.0803275,1.125737,0.495582,-0.0190215,1.221137,0.726195,-0.0879974999999999,0.691227,0.973695,-0.1526074999999999,1.2716370000000001,0.944525,-0.1617374999999999,0.921638,-0.0011649999999999,0.0008714999999999,1.078362,0.001165,-0.0008714999999999,0.787627,-0.015405,-0.2913275,1.144697,-0.0251649999999999,-0.3159675,0.842947,-0.274765,-0.0519475,1.125807,-0.305065,-0.0895175
84,0.9896205,0.6900350000000001,-0.0241604999999999,0.8546835,0.48638,-0.0200455,0.7424235,0.720975,-0.0815964999999999,1.1263735,0.493266,-0.0201025,1.2218235,0.7184250000000001,-0.0884865,0.6918135000000001,0.966545,-0.1547164999999999,1.2736634999999998,0.934735,-0.1633365,0.9216285,-0.0011649999999999,0.0010254999999999,1.0783715,0.001165,-0.0010254999999999,0.7880335,-0.0263049999999999,-0.2884265,1.1451435,-0.0361149999999999,-0.3144765,0.8428735,-0.290505,-0.0575665,1.1261735,-0.314665,-0.0909265
85,0.989712,0.69251,-0.0242814999999999,0.8546,0.486356,-0.0206945,0.74272,0.7194,-0.0826835,1.12681,0.493177,-0.0205555,1.22031,0.71148,-0.0881034999999999,0.69218,0.96477,-0.1564435,1.27473,0.93157,-0.1629335,0.921645,-0.00117,0.0012435,1.078355,0.00117,-0.0012435,0.7885800000000001,-0.03761,-0.2853135,1.14544,-0.04738,-0.3122035,0.84308,-0.30716,-0.0623635,1.12887,-0.32574,-0.0919934999999999
86,0.990026,0.695005,-0.0236554999999999,0.854544,0.4852729999999999,-0.0202885,0.743414,0.715035,-0.0823945,1.127234,0.49229,-0.0203404999999999,1.220714,0.709425,-0.0871044999999999,0.692654,0.959665,-0.1572644999999999,1.2760639999999999,0.932925,-0.1624445,0.9218840000000001,-0.001065,0.0014585,1.0781159999999999,0.0010649999999999,-0.0014585,0.789184,-0.053015,-0.2815745,1.145764,-0.060995,-0.3088445,0.843244,-0.330195,-0.0671245,1.131294,-0.342845,-0.0923544999999999
87,0.990477,0.6979,-0.0229849999999999,0.8541799999999999,0.485356,-0.0196289999999999,0.7435700000000001,0.7164900000000001,-0.081986,1.12768,0.49133,-0.0199189999999999,1.2212,0.7058800000000001,-0.0856559999999999,0.6932,0.96085,-0.157296,1.2773299999999999,0.93194,-0.161326,0.92213,-0.0008299999999999,0.001446,1.0778699999999999,0.0008299999999999,-0.0014459999999999,0.7898000000000001,-0.0683699999999999,-0.2776459999999999,1.14613,-0.07356,-0.3048459999999999,0.84365,-0.35404,-0.0673759999999999,1.13363,-0.3606,-0.092916
88,0.9908980000000001,0.700385,-0.022874,0.853884,0.484205,-0.019083,0.743654,0.7154849999999999,-0.0814569999999999,1.128284,0.4908349999999999,-0.019928,1.221704,0.700655,-0.084007,0.6940839999999999,0.959705,-0.156767,1.278874,0.929765,-0.160267,0.9224019999999999,-0.000775,0.0014319999999999,1.077598,0.0007749999999999,-0.001432,0.790414,-0.086655,-0.273777,1.146284,-0.089055,-0.299887,0.844234,-0.380565,-0.067407,1.135334,-0.381895,-0.0929469999999999
89,0.9913305,0.702765,-0.0228965,0.8539165,0.4842649999999999,-0.0186134999999999,0.7444965,0.716885,-0.0808895,1.1289465,0.4906049999999999,-0.0199624999999999,1.2222165,0.700295,-0.0824495,0.6950065000000001,0.960365,-0.1561195,1.2808465,0.933235,-0.1583395,0.9228345,-0.0006349999999999,0.0014095,1.0771655,0.0006349999999999,-0.0014094999999999,0.7928364999999999,-0.106915,-0.2674195,1.1462965,-0.109285,-0.2932794999999999,0.8441365000000001,-0.4109049999999999,-0.0679895,1.1365165,-0.408475,-0.0922995
90,0.9917785,0.7063249999999999,-0.0226595,0.8538965000000001,0.485865,-0.0178594999999999,0.7451165,0.7182249999999999,-0.0800705,1.1298565,0.4896349999999999,-0.0197484999999999,1.2214365,0.7013149999999999,-0.0809605,0.6951965,0.963415,-0.1550705,1.2823565000000001,0.936925,-0.1563105,0.9233335,-0.000115,0.0015495,1.0766665,0.0001149999999999,-0.0015495,0.7962765,-0.128135,-0.2608305,1.1461065,-0.128065,-0.2860505,0.8444065000000001,-0.4391550000000001,-0.0669404999999999,1.1372965,-0.435745,-0.0912105
91,0.992112,0.70643,-0.0220729999999999,0.853472,0.48717,-0.017053,0.745692,0.71931,-0.0786949999999999,1.130422,0.48985,-0.0191409999999999,1.221832,0.7005600000000001,-0.0803849999999999,0.694542,0.96314,-0.153725,1.2839019999999999,0.93955,-0.155785,0.923563,0.00012,0.001893,1.076437,-0.0001199999999999,-0.0018929999999999,0.799622,-0.1521699999999999,-0.2531949999999999,1.145172,-0.1537699999999999,-0.277965,0.8452120000000001,-0.47264,-0.0656549999999999,1.137812,-0.4711899999999999,-0.089415
92,0.9927745000000001,0.70915,-0.021471,0.8527925000000001,0.48588,-0.015812,0.7457225000000001,0.7181799999999999,-0.077104,1.1308125,0.4871299999999999,-0.01814,1.2225025,0.7023499999999999,-0.079254,0.6937225,0.96317,-0.151934,1.2859525,0.94379,-0.1547339999999999,0.9240225,0.0002,0.0022099999999999,1.0759775,-0.0002,-0.00221,0.8027825,-0.1739599999999999,-0.243134,1.1435325,-0.17784,-0.268034,0.8456325,-0.50305,-0.063624,1.1358525,-0.50285,-0.088154
93,0.9936915,0.7132350000000001,-0.020244,0.8526104999999999,0.489805,-0.0138799999999999,0.7461405,0.720995,-0.074583,1.1312905,0.488135,-0.0162489999999999,1.2242305,0.7035950000000001,-0.077413,0.6936605,0.969985,-0.149273,1.2889205,0.950535,-0.153163,0.9243855,0.000225,0.002249,1.0756145,-0.000225,-0.002249,0.8071105000000001,-0.197285,-0.2299429999999999,1.1413505,-0.203215,-0.253013,0.8462205,-0.534555,-0.0598629999999999,1.1343105,-0.5409149999999999,-0.084393
94,0.9948095,0.7140449999999999,-0.0140694999999999,0.8525785000000001,0.490055,-0.0072174999999999,0.7468185,0.7239749999999999,-0.0673375,1.1329185,0.488455,-0.0096844999999999,1.2275085,0.7095049999999999,-0.0718474999999999,0.6937185,0.969595,-0.1422574999999999,1.2938085,0.953395,-0.1481974999999999,0.9247765,0.000265,0.0022814999999999,1.0752234999999999,-0.000265,-0.0022814999999999,0.8138285000000001,-0.224935,-0.2070474999999999,1.1379085,-0.233035,-0.2269475,0.8471785000000001,-0.569385,-0.0496774999999999,1.1348285,-0.582395,-0.0736274999999999
95,0.9959425000000001,0.715284,-0.0076869999999999,0.8524725,0.491334,-0.000336,0.7476625,0.729614,-0.059734,1.1347325,0.489534,-0.003294,1.2313325,0.710064,-0.066634,0.6940525,0.972084,-0.134664,1.2975425,0.951184,-0.143144,0.9247415,0.000292,0.0023809999999999,1.0752585,-0.000292,-0.002381,0.8207425,-0.248966,-0.184164,1.1347425,-0.2611759999999999,-0.201284,0.8483925,-0.600306,-0.040004,1.1336625,-0.6188560000000001,-0.0623239999999999
96,0.9970625,0.7165125,-0.0012174999999999,0.8524975,0.4913925,0.0063835,0.7483075,0.7296625,-0.0523855,1.1366075,0.4908125,0.0031324999999999,1.2344175,0.7121225,-0.0611354999999999,0.6944375,0.9686225,-0.1273655,1.2998875,0.9500025,-0.1375354999999999,0.9254635,0.0001715,0.0023075,1.0745365,-0.0001714999999999,-0.0023075,0.8276375,-0.2735675,-0.1614855,1.1317974999999998,-0.2906975,-0.1755755,0.8496675,-0.6309374999999999,-0.0301455,1.1341975,-0.6540975,-0.0508355
97,0.9982195000000001,0.7180605,0.0050164999999999,0.8524085,0.4926905,0.0126614999999999,0.7489985,0.7312005,-0.0452615,1.1383985,0.4915505,0.0092934999999999,1.2364585,0.7158205,-0.0557215,0.6949685,0.9662105,-0.1201815,1.3018585,0.9504205,-0.1318815,0.9261415,0.0002944999999999,0.0021754999999999,1.0738585,-0.0002945,-0.0021754999999999,0.8348485,-0.2954595,-0.1384615,1.1292185,-0.3177994999999999,-0.1501615,0.8508685,-0.6591294999999999,-0.0208415,1.1346585,-0.6853595,-0.0388915
98,0.9991135000000001,0.7187819999999999,0.0107504999999999,0.8522815,0.4935119999999999,0.0185874999999999,0.7491415,0.731922,-0.0394895,1.1401215,0.492722,0.0149214999999999,1.2383015,0.715472,-0.0496294999999999,0.6947415,0.963372,-0.1131995,1.3036415,0.947052,-0.1249095,0.9267025,0.0003169999999999,0.0020334999999999,1.0732975,-0.000317,-0.0020335,0.8408815000000001,-0.314548,-0.1178295,1.1267415,-0.339398,-0.1262495,0.8521215,-0.6817880000000001,-0.0103364999999999,1.1351015,-0.709368,-0.0272695
99,0.99993,0.7173554999999999,0.016196,0.852348,0.4922555,0.024174,0.749468,0.7308855,-0.0331049999999999,1.141608,0.4942855,0.020386,1.240118,0.7157155,-0.043875,0.694968,0.9582255,-0.106425,1.304878,0.9444555,-0.118045,0.927249,3.850000000000381e-05,0.00193,1.072751,-3.849999999999687e-05,-0.00193,0.846758,-0.3306745,-0.098145,1.124328,-0.3572645,-0.103315,0.852888,-0.7001545,6.0000000000060005e-06,1.135628,-0.7319145,-0.014405
100,1.0006815,0.7183595,0.0213835,0.8524195,0.4920095,0.0294905,0.7501395,0.7308595,-0.0270764999999999,1.1429595,0.4948795,0.0254915,1.2414395,0.7184895,-0.0385365,0.6949195,0.9555295,-0.0996465,1.3058295,0.9447095,-0.1129165,0.9276805,6.450000000000206e-05,0.0016285,1.0723195,-6.450000000000206e-05,-0.0016284999999999,0.8524295,-0.3427205,-0.0790064999999999,1.1220195,-0.3703205,-0.0811464999999999,0.8533495,-0.7139405,0.0100715,1.1352195,-0.7457005,-0.0019594999999999
101,1.0013455,0.716577,0.0263135,0.8525035,0.491877,0.0344825,0.7502935,0.731107,-0.0214795,1.1442735,0.495687,0.0303665,1.2423835,0.720787,-0.0332895,0.6949434999999999,0.953337,-0.0930095,1.3064334999999998,0.944537,-0.1071294999999999,0.9279945,0.0001989999999999,0.0012795,1.0720055,-0.000199,-0.0012795,0.8579235000000001,-0.355403,-0.0615894999999999,1.1199635,-0.382013,-0.0596994999999999,0.8540835,-0.727793,0.0200165,1.1352435,-0.759803,0.0094245
102,1.001847,0.7162885,0.031124,0.852577,0.4906685,0.0390979999999999,0.7507969999999999,0.7317085,-0.016145,1.1455469999999999,0.4969485,0.0349209999999999,1.2429869999999998,0.7254485,-0.028365,0.695147,0.9504385,-0.086435,1.306617,0.9473385,-0.1017049999999999,0.928025,0.0004325,0.0010349999999999,1.071975,-0.0004325,-0.001035,0.862277,-0.3615115,-0.0465649999999999,1.118547,-0.3889515,-0.042325,0.854827,-0.7362515,0.0288419999999999,1.1351369999999998,-0.7695315,0.0197369999999999
103,1.0020689999999999,0.718119,0.0316049999999999,0.852577,0.491239,0.039134,0.751217,0.732329,-0.015215,1.145737,0.497139,0.0351159999999999,1.243037,0.724569,-0.028205,0.695247,0.951359,-0.084355,1.306807,0.948559,-0.1006249999999999,0.928025,0.000795,0.0010349999999999,1.071975,-0.0007949999999999,-0.001035,0.864447,-0.362391,-0.0404549999999999,1.1181969999999999,-0.391761,-0.035775,0.855157,-0.7396510000000001,0.0314119999999999,1.134717,-0.771751,0.0223659999999999
104,1.0021769999999999,0.718119,0.032333,0.8525739999999999,0.491239,0.0392099999999999,0.751494,0.732449,-0.0140549999999999,1.1457439999999999,0.497139,0.0353109999999999,1.243034,0.724569,-0.028205,0.695344,0.953159,-0.0823349999999999,1.3068039999999999,0.950159,-0.1006249999999999,0.928028,0.000795,0.0010349999999999,1.071972,-0.0007949999999999,-0.001035,0.866714,-0.3632309999999999,-0.033415,1.1179039999999998,-0.3937009999999999,-0.0286649999999999,0.855584,-0.740051,0.0345459999999999,1.134284,-0.772891,0.0251969999999999
105,1.0022294999999999,0.718119,0.0335349999999999,0.8525235000000001,0.491239,0.0392389999999999,0.7517235000000001,0.732449,-0.012655,1.1457035,0.497139,0.0355289999999999,1.2429935,0.724569,-0.027975,0.6957035,0.954759,-0.080185,1.3067535,0.951359,-0.100555,0.9280785,0.000795,0.0010349999999999,1.0719215,-0.0007949999999999,-0.001035,0.8687435,-0.364011,-0.026065,1.1176635,-0.394471,-0.022095,0.8559935000000001,-0.740691,0.037996,1.1340335,-0.773091,0.0280699999999999
106,1.0024259999999998,0.718119,0.034261,0.852657,0.491239,0.038816,0.752057,0.732449,-0.011325,1.145817,0.497139,0.03519,1.2428469999999998,0.7242689999999999,-0.0260149999999999,0.6965669999999999,0.956459,-0.078335,1.3059669999999999,0.952459,-0.098595,0.928111,0.000795,0.000805,1.071889,-0.0007949999999999,-0.000805,0.870647,-0.364301,-0.017695,1.1178569999999999,-0.3937009999999999,-0.013605,0.856437,-0.741811,0.04131,1.133417,-0.773201,0.030045
107,1.002506,0.718506,0.034875,0.852711,0.4917859999999999,0.038887,0.752191,0.733156,-0.01049,1.145641,0.497146,0.03521,1.242621,0.723666,-0.0247,0.697041,0.958866,-0.07726,1.3053810000000001,0.953866,-0.0972799999999999,0.928152,0.0009859999999999,0.0006599999999999,1.071848,-0.000986,-0.0006599999999999,0.872371,-0.364954,-0.00972,1.117811,-0.393034,-0.0063499999999999,0.856791,-0.742094,0.043036,1.132361,-0.775914,0.0311469999999999
108,1.00254,0.718378,0.0348224999999999,0.85273,0.4925079999999999,0.0386334999999999,0.75224,0.7340979999999999,-0.0102335,1.1453499999999999,0.4973179999999999,0.0350714999999999,1.24245,0.7233379999999999,-0.0239635,0.69728,0.961928,-0.0768735,1.30504,0.955728,-0.0967835,0.9281820000000001,0.0011869999999999,0.0005204999999999,1.071818,-0.001187,-0.0005205,0.87393,-0.3650219999999999,-0.0028335,1.11812,-0.3910519999999999,-0.0004885,0.85705,-0.741642,0.0439084999999999,1.1312799999999998,-0.774972,0.0312174999999999
109,1.0025515,0.718015,0.034523,0.8527015,0.493185,0.038175,0.7522715,0.734945,-0.0102029999999999,1.1450515,0.4977549999999999,0.035111,1.2422914999999999,0.723145,-0.0235229999999999,0.6973015,0.965155,-0.076953,1.3048214999999999,0.957655,-0.0967329999999999,0.9282025,0.0013009999999999,0.000406,1.0717975,-0.0013009999999999,-0.0004059999999999,0.8753115,-0.364815,0.00307,1.1184015,-0.388695,0.004598,0.8572215,-0.740765,0.04442,1.1301415,-0.773635,0.030744
110,1.002467,0.7174965,0.0338684999999999,0.852637,0.4937565,0.0374624999999999,0.752247,0.7356765000000001,-0.0104495,1.144697,0.4983764999999999,0.0351094999999999,1.242107,0.7229565,-0.0235095,0.6972670000000001,0.9686165,-0.0774595,1.3047469999999999,0.9599165,-0.0970594999999999,0.928229,0.0013784999999999,0.0003074999999999,1.071771,-0.0013785,-0.0003075,0.876467,-0.3643535,0.0079224999999999,1.118597,-0.3859935,0.0086524999999999,0.857287,-0.7397335,0.0443234999999999,1.128977,-0.7717735000000001,0.0297904999999999
111,1.0022594999999999,0.716907,0.033009,0.8525465,0.4943269999999999,0.036581,0.7521365,0.7362070000000001,-0.011146,1.1443165,0.499077,0.034967,1.2419565,0.7228370000000001,-0.023954,0.6972065000000001,0.972137,-0.078644,1.3046265,0.962337,-0.0978639999999999,0.9282775,0.0014759999999999,0.0002749999999999,1.0717225,-0.0014759999999999,-0.0002749999999999,0.8774565,-0.363873,0.012103,1.1187765,-0.383343,0.012128,0.8573565,-0.7385929999999999,0.043604,1.1278065,-0.769863,0.02833
112,1.0019485,0.71631,0.0318375,0.8524575,0.49495,0.0355075,0.7518475,0.73673,-0.0122764999999999,1.1439175,0.4999099999999999,0.0346765,1.2418375,0.72274,-0.0248674999999999,0.6970875000000001,0.97555,-0.0802274999999999,1.3043675000000001,0.96475,-0.0991274999999999,0.9283375,0.00155,0.0001915,1.0716625,-0.0015499999999999,-0.0001914999999999,0.8782075,-0.3636,0.0154415,1.1185675,-0.38242,0.0147175,0.8574275,-0.73731,0.0422985,1.1266874999999998,-0.7709199999999999,0.0263865
113,1.001565,0.715793,0.0304384999999999,0.852294,0.495593,0.0345244999999999,0.751394,0.737203,-0.0136565,1.143454,0.500773,0.0343194999999999,1.241714,0.722813,-0.0260785,0.696824,0.978683,-0.0820785,1.3039939999999999,0.967183,-0.1005285,0.928396,0.0016219999999999,9.049999999999336e-05,1.071604,-0.0016219999999999,-9.050000000000724e-05,0.878764,-0.363167,0.0176924999999999,1.118404,-0.380067,0.0164334999999999,0.857414,-0.735877,0.0403564999999999,1.125594,-0.769157,0.0241594999999999
114,1.001105,0.7153594999999999,0.028731,0.851959,0.4962594999999999,0.03367,0.750699,0.7375995,-0.015366,1.1429589999999998,0.5015795,0.033806,1.241539,0.7228494999999999,-0.02758,0.696369,0.9817795,-0.0842599999999999,1.303749,0.9693795,-0.1021599999999999,0.928418,0.0016725,4.800000000000637e-05,1.071582,-0.0016725,-4.800000000000637e-05,0.879179,-0.3625805,0.018993,1.118289,-0.3796604999999999,0.017799,0.857359,-0.7342405000000001,0.037869,1.124579,-0.7701505000000001,0.021698
115,1.0005804999999999,0.7140375,0.02716,0.8515425,0.4963075,0.033331,0.7499225,0.7375575,-0.0174229999999999,1.1424725,0.5020275,0.033177,1.2413525,0.7231875,-0.029421,0.6957025,0.9835875,-0.086741,1.3036325,0.9701875,-0.103961,0.9284675,0.0015965,-1.5000000000001124e-05,1.0715325,-0.0015965,1.5000000000001124e-05,0.8794525,-0.3622325,0.018206,1.1179925,-0.3804524999999999,0.016746,0.8572925,-0.7331225,0.03508,1.1239125,-0.7721225,0.018934
116,0.999967,0.7137100000000001,0.025428,0.851045,0.49633,0.032315,0.749115,0.7374799999999999,-0.0192299999999999,1.142195,0.50214,0.03183,1.241185,0.72336,-0.031004,0.694685,0.9838900000000002,-0.0889669999999999,1.303605,0.97039,-0.105847,0.9285150000000001,0.0015869999999999,-8.999999999999286e-05,1.0714849999999998,-0.001587,9.000000000000674e-05,0.879515,-0.36218,0.016692,1.117725,-0.38121,0.015254,0.8572649999999999,-0.7329399999999999,0.032434,1.123625,-0.77288,0.016389
117,0.9991865000000001,0.7133970000000001,0.024167,0.8503864999999999,0.496237,0.031685,0.7481265,0.737307,-0.020606,1.1417964999999999,0.5021370000000001,0.0304769999999999,1.2408165,0.723267,-0.032195,0.6933965,0.983997,-0.0907989999999999,1.3034664999999999,0.970297,-0.107649,0.9285605,0.0015649999999999,-2.1999999999994246e-05,1.0714395,-0.001565,2.1999999999994246e-05,0.8795665,-0.362353,0.0155099999999999,1.1173965,-0.383273,0.014175,0.8572565,-0.732943,0.03034,1.1234365,-0.775153,0.0143939999999999
118,0.998135,0.7130934999999999,0.0230749999999999,0.849571,0.4961835,0.0313309999999999,0.746801,0.7371735,-0.021699,1.141281,0.5021235,0.0289159999999999,1.240181,0.7231135,-0.033441,0.691871,0.9841135,-0.092582,1.302851,0.9702135,-0.109822,0.928563,0.0015405,6.999999999993123e-06,1.071437,-0.0015405,-7.000000000007001e-06,0.8795610000000001,-0.3624865,0.0144859999999999,1.117391,-0.3844265,0.0132319999999999,0.857211,-0.7328265,0.0284829999999999,1.123281,-0.7747565,0.0125559999999999
119,0.9970175000000001,0.7125205,0.0223864999999999,0.8487605,0.4961005,0.0313674999999999,0.7454405,0.7368105,-0.0224385,1.1409505,0.5022905,0.0277854999999999,1.2395505,0.7230705000000001,-0.0351895,0.6902805000000001,0.9840805,-0.0942975,1.3019405,0.9700805,-0.1116675,0.9285585000000001,0.0014884999999999,2.4999999999955613e-06,1.0714415,-0.0014884999999999,-2.5000000000025e-06,0.8797105000000001,-0.3624595,0.0135584999999999,1.1173704999999998,-0.3837095,0.0119064999999999,0.8573105,-0.7329295,0.0266994999999999,1.1232305,-0.7726594999999999,0.0109544999999999
120,0.9961745,0.7119625,0.021745,0.8479745,0.4960025,0.031956,0.7439945,0.7364925,-0.0224,1.1408445,0.5024525,0.026827,1.2389945,0.7231225,-0.0364179999999999,0.6887845,0.9840425,-0.09548,1.3010345,0.9700425,-0.11288,0.9285565,0.0014454999999999,7.800000000000168e-05,1.0714435,-0.0014455,-7.799999999999474e-05,0.8800345,-0.3623675,0.012548,1.1176244999999998,-0.3837175,0.010636,0.8578045,-0.7330475,0.025417,1.1236345,-0.7704575,0.009968
121,0.9953415000000001,0.71137,0.021364,0.8474535,0.49593,0.033318,0.7425635000000002,0.73609,-0.021417,1.1410135000000001,0.50262,0.026395,1.2398635,0.72297,-0.0368859999999999,0.6872435,0.98361,-0.095827,1.2999935,0.96981,-0.113287,0.9285585,0.0013989999999999,0.0002119999999999,1.0714415,-0.001399,-0.0002119999999999,0.8804635,-0.36221,0.0121039999999999,1.1176035,-0.38592,0.010214,0.8586135,-0.73316,0.024953,1.1243934999999998,-0.77321,0.0099059999999999
122,0.9947885000000001,0.710697,0.0213925,0.8470635,0.495857,0.0351445,0.7406835,0.735307,-0.0198554999999999,1.1414135,0.502877,0.0263745,1.2418335,0.722267,-0.0369864999999999,0.6854534999999999,0.982877,-0.0957375,1.2985635,0.968877,-0.1152175,0.9285225,0.0013179999999999,0.0002135,1.0714775,-0.0013179999999999,-0.0002134999999999,0.8809335000000001,-0.3622829999999999,0.0120795,1.1185135,-0.385793,0.0101685,0.8604134999999999,-0.733193,0.0248605,1.1263635,-0.7729429999999999,0.0098055
123,0.9944550000000001,0.7102365,0.02141,0.846047,0.4956565,0.0368039999999999,0.735367,0.7324765,-0.018253,1.141677,0.5023365,0.0262819999999999,1.2451269999999999,0.7200565,-0.039625,0.683307,0.9803665,-0.095992,1.2964769999999999,0.9668665,-0.119862,0.928443,0.0010524999999999,0.0002179999999999,1.071557,-0.0010525,-0.000218,0.881907,-0.3619535,0.0120299999999999,1.119307,-0.3878034999999999,0.0097399999999999,0.863467,-0.7327035,0.024609,1.1297769999999998,-0.7751435,0.0096309999999999
124,0.9938955,0.7102059999999999,0.0211275,0.8448475,0.496076,0.0387885,0.7269875,0.724586,-0.0164655,1.1427175,0.500666,0.0255665,1.2501275,0.712156,-0.0454445,0.6796575,0.970446,-0.0963645,1.2951975,0.955946,-0.1286945,0.9283735,0.0008379999999999,0.0002214999999999,1.0716265,-0.0008379999999999,-0.0002214999999999,0.8831675,-0.365704,0.0106584999999999,1.1219275,-0.389374,0.0088395,0.8683575,-0.7312240000000001,0.0238074999999999,1.1352975,-0.776144,0.0093484999999999
125,0.9930460000000001,0.7110885,0.020585,0.843414,0.4965085,0.041233,0.717484,0.7103685,-0.0135459999999999,1.144504,0.4979085,0.024521,1.256584,0.6946884999999999,-0.046651,0.6757040000000001,0.9499285,-0.0967909999999999,1.294174,0.9348285,-0.141571,0.928412,0.0005494999999999,0.0006789999999999,1.071588,-0.0005495,-0.0006789999999999,0.886144,-0.3695914999999999,0.009146,1.125044,-0.3900114999999999,0.0065069999999999,0.876304,-0.7286815,0.024015,1.1427640000000001,-0.7739615000000001,0.0045279999999999
126,0.9922725,0.712763,0.0203095,0.8420955,0.496733,0.0434805,0.7070755,0.690823,-0.0097165,1.1465855,0.494413,0.0237065,1.2642455,0.673913,-0.0481115,0.6731355,0.926613,-0.0976015,1.2934554999999999,0.907723,-0.1548115,0.9285005,0.000271,0.0012095,1.0714995,-0.000271,-0.0012095,0.8897355000000001,-0.373447,0.0078114999999999,1.1283155,-0.3905369999999999,0.0035704999999999,0.8854455,-0.7251569999999999,0.0240565,1.1510354999999999,-0.770107,-0.0021255
127,0.9904265000000001,0.7156505,0.019926,0.8406795,0.4963005,0.046212,0.6997295,0.6640305,-0.0035639999999999,1.1472395,0.4902605,0.022554,1.2744395,0.6461705,-0.0459269999999999,0.6690595000000001,0.8901205,-0.0993069999999999,1.2943295,0.8687904999999999,-0.159407,0.9285795,-0.0001475,0.001786,1.0714204999999999,0.0001475,-0.0017859999999999,0.8943895,-0.3773995,0.007066,1.1306655,-0.3887995,-0.0044199999999999,0.8965695000000001,-0.7188795,0.026175,1.1592895,-0.7618695000000001,-0.0077419999999999
128,0.9885675000000002,0.7195779999999999,0.0185144999999999,0.8411474999999999,0.4946879999999999,0.0505795,0.6981775,0.618498,0.0041554999999999,1.1484425,0.4863679999999999,0.0209525,1.2773475,0.599428,-0.0414845,0.6689275,0.8276479999999999,-0.1017945,1.2975475,0.787268,-0.1599745,0.9287974999999999,-0.000577,0.0028635,1.0712025,0.0005769999999999,-0.0028635,0.9016275000000001,-0.381222,0.0078154999999999,1.1276895,-0.381342,-0.0209605,0.9123575,-0.7117220000000001,0.0284945,1.1591775,-0.754892,-0.0169414999999999
129,0.9866035,0.723534,0.0164135,0.8425045,0.492804,0.0556195,0.6987945,0.5693739999999999,0.0134795,1.1499774999999999,0.482444,0.0193195,1.2798145,0.547024,-0.0378274999999999,0.6703144999999999,0.758054,-0.1050674999999999,1.2999445,0.698794,-0.1552075,0.9291245,-0.0010779999999999,0.0040565,1.0708755,0.0010779999999999,-0.0040564999999999,0.9094245000000001,-0.385166,0.0085395,1.1210345,-0.373226,-0.0407274999999999,0.9304045000000001,-0.706746,0.0326895,1.1553375,-0.7453960000000001,-0.0285664999999999
130,0.984844,0.7270745,0.0136245,0.8450340000000001,0.4901044999999999,0.0614985,0.702304,0.5177645,0.0236955,1.151663,0.4778745,0.0174155,1.279644,0.4937245,-0.0323924999999999,0.6748540000000001,0.6770944999999999,-0.1065325,1.2985039999999999,0.6015645,-0.1476724999999999,0.929214,-0.0015515,0.0054615,1.070786,0.0015515,-0.0054614999999999,0.916354,-0.3891455,0.0098374999999999,1.109476,-0.3646055,-0.0640225,0.9513240000000001,-0.7013055,0.0398415,1.142391,-0.7357255,-0.0475825
131,0.9824075000000001,0.7303869999999999,0.00993,0.8473875,0.487027,0.066802,0.7045175,0.464697,0.032037,1.1531715,0.473337,0.015556,1.2775075,0.440827,-0.029295,0.6803775000000001,0.5934969999999999,-0.1080349999999999,1.2957774999999998,0.5031969999999999,-0.139075,0.9293675,-0.001968,0.006905,1.0706324999999999,0.001968,-0.0069049999999999,0.9225375,-0.393013,0.0062299999999999,1.0960535,-0.359653,-0.088615,0.9724275,-0.6969730000000001,0.04814,1.1229555,-0.727983,-0.0714249999999999
132,0.9791195000000001,0.7331835,0.0048249999999999,0.8506195,0.4833535,0.070394,0.7131395,0.4141635,0.0428809999999999,1.1543515,0.4694135,0.0120849999999999,1.2729395000000001,0.3876935,-0.025617,0.6887595,0.5057635,-0.107627,1.2917794999999999,0.3997035,-0.127587,0.9296295,-0.0025325,0.008387,1.0703705000000001,0.0025325,-0.008387,0.9336695000000002,-0.3945264999999999,0.009977,1.0838025,-0.3536864999999999,-0.111027,0.9956695000000001,-0.6925565,0.059774,1.1037155,-0.7173265,-0.0936169999999999
133,0.9769565000000001,0.735309,0.0001164999999999,0.8550765000000001,0.478929,0.0739064999999999,0.7247764999999999,0.367769,0.0540994999999999,1.1561175,0.466549,0.0094274999999999,1.2671465,0.339239,-0.0208435,0.7001565000000001,0.424389,-0.1073435,1.2872365000000001,0.304979,-0.1135035,0.9298765,-0.003069,0.0099434999999999,1.0701235,0.0030689999999999,-0.0099435,0.9453665,-0.391271,0.0148954999999999,1.0656345,-0.348271,-0.1356235,1.0188564999999998,-0.6890809999999999,0.0720224999999999,1.0674335,-0.705861,-0.1207335
134,0.9748600000000001,0.7363695,-0.005485,0.85941,0.4739795,0.076177,0.73996,0.3271595,0.0652469999999999,1.156599,0.4642895,0.0052649999999999,1.259982,0.2995995,-0.013925,0.71261,0.3511695,-0.105995,1.28326,0.2200395,-0.098185,0.93004,-0.0035484999999999,0.0114349999999999,1.06996,0.0035485,-0.011435,0.9566900000000002,-0.3863205,0.0212119999999999,1.0450899999999999,-0.3449305,-0.158405,1.04275,-0.6863104999999999,0.0874649999999999,1.02865,-0.6971205,-0.148375
135,0.972185,0.7357419999999999,-0.01117,0.863335,0.469032,0.0787169999999999,0.755425,0.291912,0.0762329999999999,1.156848,0.462332,0.0015699999999999,1.251281,0.264942,-0.00378,0.724665,0.278922,-0.1028,1.279835,0.142862,-0.08615,0.930035,-0.004149,0.0127699999999999,1.0699649999999998,0.004149,-0.01277,0.968045,-0.382298,0.0261299999999999,1.024465,-0.341198,-0.17892,1.0652149999999998,-0.6865479999999999,0.1066179999999999,0.989085,-0.6904980000000001,-0.17253
136,0.97067,0.7340019999999999,-0.016825,0.86646,0.465002,0.079247,0.7693300000000001,0.264612,0.085527,1.1580300000000001,0.461302,-0.002445,1.2387069999999998,0.238342,0.0079849999999999,0.73468,0.219922,-0.097505,1.275652,0.078535,-0.072445,0.93004,-0.0046059999999999,0.014225,1.06996,0.0046059999999999,-0.0142249999999999,0.97823,-0.381178,0.031535,1.0042399999999998,-0.338988,-0.195075,1.08632,-0.6906680000000001,0.126532,0.94896,-0.6844680000000001,-0.197685
137,0.969915,0.7321019999999999,-0.02182,0.8684350000000001,0.463082,0.078695,0.7791049999999999,0.256812,0.093714,1.159284,0.461302,-0.0054299999999999,1.2366489999999999,0.232122,0.02021,0.742695,0.187982,-0.09438,1.271618,0.058072,-0.0550799999999999,0.930035,-0.0046059999999999,0.01543,1.0699649999999998,0.0046059999999999,-0.01543,0.986525,-0.381178,0.0370999999999999,0.989555,-0.336078,-0.2026899999999999,1.1046749999999999,-0.690238,0.143951,0.918955,-0.6804880000000001,-0.21946
138,0.9685350000000001,0.7308819999999999,-0.0258349999999999,0.8687050000000001,0.462092,0.0783049999999999,0.786985,0.253422,0.0997849999999999,1.159585,0.461302,-0.007735,1.23525,0.232122,0.034805,0.7479750000000001,0.165332,-0.093415,1.270586,0.046645,-0.030715,0.9298649999999999,-0.0046059999999999,0.0163349999999999,1.070135,0.0046059999999999,-0.016335,0.9980550000000001,-0.381858,0.0471949999999999,0.9792850000000001,-0.331998,-0.205705,1.123925,-0.6916880000000001,0.1672799999999999,0.8954250000000001,-0.677448,-0.2328049999999999
139,0.9678450000000001,0.730282,-0.0298399999999999,0.868365,0.462092,0.07706,0.7966250000000001,0.253282,0.10488,1.160405,0.461302,-0.0100099999999999,1.237268,0.232122,0.05124,0.7504450000000001,0.154742,-0.09325,1.2744,0.044934,-0.0075499999999999,0.9300450000000001,-0.0046059999999999,0.01698,1.069955,0.0046059999999999,-0.0169799999999999,1.011005,-0.380278,0.05785,0.975105,-0.326558,-0.1994699999999999,1.141625,-0.693288,0.185859,0.887295,-0.673308,-0.23863
140,0.9675,0.7293780000000001,-0.03319,0.8682799999999999,0.461188,0.07582,0.80709,0.252018,0.10513,1.16207,0.460478,-0.01158,1.240241,0.231218,0.05381,0.7546200000000001,0.146998,-0.09041,1.280211,0.04403,0.01422,0.93016,-0.0048869999999999,0.01736,1.06984,0.004887,-0.01736,1.0251,-0.379742,0.06942,0.9733200000000001,-0.323562,-0.19169,1.1581,-0.6994819999999999,0.199852,0.88693,-0.668422,-0.23676
141,0.967225,0.7280405,-0.0349,0.867965,0.4598505,0.0757099999999999,0.810875,0.2506805,0.1016599999999999,1.163245,0.4602705,-0.01194,1.245029,0.2313105,0.0530399999999999,0.755335,0.1456605,-0.0882,1.28856,0.0426924999999999,0.0309499999999999,0.930245,-0.0053195,0.0176099999999999,1.069755,0.0053195,-0.01761,1.028835,-0.3797594999999999,0.0506899999999999,0.9721950000000001,-0.3248995,-0.18307,1.138165,-0.7046295,0.1700199999999999,0.8817750000000001,-0.6697595000000001,-0.22924
142,0.9656850000000001,0.726654,-0.037175,0.8667050000000001,0.458794,0.0749749999999999,0.811705,0.249294,0.097825,1.163455,0.461154,-0.0126749999999999,1.249155,0.2339639999999999,0.049845,0.752335,0.1424639999999999,-0.089305,1.296363,0.0413059999999999,0.035735,0.930415,-0.0059239999999999,0.017795,1.069585,0.005924,-0.017795,1.032175,-0.380026,0.034395,0.969545,-0.326286,-0.172585,1.124975,-0.709446,0.139315,0.8924350000000001,-0.672146,-0.2150749999999999
143,0.96397,0.7252705,-0.03863,0.8657,0.4582905,0.0739899999999999,0.8120499999999999,0.2495804999999999,0.0953899999999999,1.16383,0.4627905,-0.01196,1.2532,0.2375904999999999,0.0471899999999999,0.7503900000000001,0.1409804999999999,-0.09084,1.303183,0.0411435,0.0354499999999999,0.93061,-0.0063735,0.0177999999999999,1.06939,0.0063734999999999,-0.0178,1.03073,-0.3765495,0.0187699999999999,0.9734500000000001,-0.3308095,-0.16127,1.10881,-0.7117795,0.1129899999999999,0.9059400000000001,-0.6725295,-0.19498
144,0.9616800000000001,0.723762,-0.040665,0.8648600000000001,0.458262,0.0713049999999999,0.8131300000000001,0.249122,0.0920449999999999,1.1637,0.465122,-0.011855,1.25696,0.244392,0.0439449999999999,0.74682,0.138392,-0.095835,1.3079990000000001,0.0495559999999999,0.0266749999999999,0.9309000000000001,-0.006496,0.0180949999999999,1.0691,0.0064959999999999,-0.018095,1.02674,-0.375258,0.0051949999999999,0.9811600000000001,-0.3391479999999999,-0.148365,1.0865,-0.714368,0.0802549999999999,0.92134,-0.675118,-0.173315
145,0.9583000000000002,0.722042,-0.0433799999999999,0.8643500000000001,0.457932,0.06773,0.81179,0.250082,0.08417,1.16337,0.467542,-0.0114099999999999,1.2601,0.252522,0.04055,0.7435700000000001,0.1370819999999999,-0.1059299999999999,1.31195,0.058453,0.01352,0.9311300000000001,-0.00654,0.01811,1.06887,0.0065399999999999,-0.0181099999999999,1.01845,-0.3741879999999999,-0.0099799999999999,0.99012,-0.347748,-0.1356499999999999,1.0597,-0.7172080000000001,0.04472,0.93606,-0.679328,-0.15095
146,0.9533300000000001,0.7202010000000001,-0.0461499999999999,0.86233,0.457781,0.06292,0.81032,0.2513309999999999,0.07684,1.16191,0.470981,-0.0108399999999999,1.26128,0.262341,0.03762,0.7404900000000001,0.138521,-0.1138299999999999,1.3136,0.068772,0.00143,0.93115,-0.006529,0.01772,1.06885,0.0065289999999999,-0.0177199999999999,1.0025499999999998,-0.373719,-0.0274599999999999,1.0008299999999999,-0.353549,-0.1223299999999999,1.01866,-0.720339,0.0094,0.95014,-0.684819,-0.1266999999999999
147,0.94793,0.719169,-0.049005,0.86078,0.4578689999999999,0.057585,0.8085100000000001,0.252579,0.0687549999999999,1.1602299999999999,0.4751689999999999,-0.009935,1.2619500000000001,0.270929,0.0362449999999999,0.73665,0.141309,-0.119575,1.31338,0.077552,-0.0076249999999999,0.9310300000000001,-0.006503,0.0170649999999999,1.06897,0.006503,-0.0170649999999999,0.9817600000000001,-0.372051,-0.051935,1.01178,-0.356501,-0.112265,0.9742600000000001,-0.718161,-0.036035,0.9632800000000001,-0.688511,-0.105545
148,0.9410750000000002,0.7178519999999999,-0.051405,0.8580050000000001,0.457102,0.0528649999999999,0.805865,0.252412,0.0621849999999999,1.157055,0.479522,-0.008515,1.261325,0.278692,0.0365349999999999,0.7333350000000001,0.141282,-0.125015,1.312065,0.085658,-0.014245,0.930755,-0.006578,0.0163149999999999,1.069245,0.006578,-0.016315,0.9606250000000001,-0.370938,-0.075415,1.022655,-0.359218,-0.099245,0.9293950000000001,-0.715518,-0.081845,0.9762750000000001,-0.691818,-0.084065
149,0.933885,0.716691,-0.0539649999999999,0.854615,0.456121,0.048015,0.800835,0.252421,0.053665,1.152565,0.482881,-0.0076149999999999,1.259245,0.284701,0.037755,0.728375,0.142041,-0.1331649999999999,1.310135,0.091933,-0.0180049999999999,0.930545,-0.00652,0.015655,1.0694549999999998,0.00652,-0.0156549999999999,0.938195,-0.369549,-0.098515,1.032275,-0.360429,-0.087835,0.8857349999999999,-0.713579,-0.1175349999999999,0.988845,-0.694609,-0.064465
150,0.9263000000000001,0.715774,-0.05728,0.85007,0.455294,0.0424399999999999,0.7966,0.252214,0.0470799999999999,1.1479300000000001,0.485784,-0.00569,1.25501,0.289144,0.0417299999999999,0.72434,0.142564,-0.1402999999999999,1.30676,0.096564,-0.01668,0.93014,-0.006266,0.0144499999999999,1.0698599999999998,0.006266,-0.01445,0.92422,-0.368956,-0.0922,1.04141,-0.362886,-0.07806,0.87804,-0.710116,-0.1083199999999999,1.00332,-0.6987859999999999,-0.04466
151,0.9188000000000001,0.7145889999999999,-0.0601049999999999,0.84529,0.454399,0.037075,0.79088,0.252169,0.040045,1.1432399999999998,0.488859,-0.004035,1.2501799999999998,0.291779,0.046765,0.71978,0.1419089999999999,-0.1467349999999999,1.30243,0.100189,-0.011595,0.92977,-0.006284,0.0133349999999999,1.07023,0.006284,-0.0133349999999999,0.91078,-0.3687209999999999,-0.087925,1.05189,-0.365851,-0.067675,0.86899,-0.7067910000000001,-0.1009649999999999,1.0169899999999998,-0.7047910000000001,-0.026115
152,0.9104199999999999,0.7124725000000001,-0.0639149999999999,0.83937,0.4534725,0.031355,0.78514,0.2519625,0.035025,1.1360899999999998,0.4913225,-0.0029749999999999,1.2427199999999998,0.2932425,0.0534649999999999,0.7166699999999999,0.1409824999999999,-0.151065,1.2955999999999999,0.1023425,-0.003545,0.92938,-0.0063355,0.0119949999999999,1.07062,0.0063355,-0.0119949999999999,0.89961,-0.3689475,-0.0847949999999999,1.0629499999999998,-0.3687875,-0.055875,0.86103,-0.7061775,-0.0918149999999999,1.02978,-0.7076875,-0.0077549999999999
153,0.9030500000000001,0.709936,-0.0673599999999999,0.8333699999999999,0.452286,0.0264499999999999,0.7793,0.251566,0.0310799999999999,1.13001,0.493056,-0.0011499999999999,1.23515,0.292836,0.06095,0.71465,0.1397159999999999,-0.15285,1.28931,0.101616,0.00677,0.92906,-0.006364,0.0104499999999999,1.07094,0.006364,-0.0104499999999999,0.89033,-0.364964,-0.08423,1.07206,-0.369554,-0.0464099999999999,0.8520400000000001,-0.703314,-0.0850199999999999,1.04076,-0.709374,0.00953
154,0.8965450000000001,0.7073189999999999,-0.070315,0.8278850000000001,0.450719,0.0223149999999999,0.775725,0.251189,0.0312149999999999,1.123305,0.494709,7.499999999993623e-05,1.227685,0.292449,0.068745,0.7161650000000002,0.137799,-0.150765,1.283175,0.101229,0.0179249999999999,0.9287750000000001,-0.006443,0.0090249999999999,1.071225,0.006443,-0.009025,0.8855550000000001,-0.360851,-0.0829149999999999,1.085185,-0.370251,-0.0365149999999999,0.8472550000000001,-0.700071,-0.076525,1.051915,-0.710891,0.025715
155,0.8909150000000001,0.704361,-0.072895,0.8232150000000001,0.449161,0.0188849999999999,0.7713750000000001,0.250951,0.0298449999999999,1.117035,0.495851,0.0010449999999999,1.220615,0.292191,0.0757649999999999,0.716055,0.134951,-0.1478750000000001,1.277585,0.100841,0.0286949999999999,0.928565,-0.0066179999999999,0.0077249999999999,1.071435,0.006618,-0.007725,0.888565,-0.358029,-0.078595,1.095825,-0.370809,-0.0266250000000001,0.853285,-0.697949,-0.070155,1.061455,-0.712289,0.0397449999999999
156,0.88635,0.701625,-0.07577,0.81898,0.447695,0.0157599999999999,0.76805,0.250135,0.0292899999999999,1.11143,0.4966949999999999,0.00134,1.21379,0.292085,0.0812499999999999,0.71833,0.1316949999999999,-0.14359,1.2723,0.100605,0.0380599999999999,0.9285200000000001,-0.006856,0.0067599999999999,1.07148,0.006856,-0.0067599999999999,0.89133,-0.355165,-0.07515,1.10492,-0.368145,-0.0186,0.86035,-0.697575,-0.06129,1.0695999999999999,-0.7127549999999999,0.0494999999999999
157,0.88242,0.699202,-0.0784849999999999,0.81502,0.446492,0.0130150000000001,0.76488,0.249762,0.0284050000000001,1.1064299999999998,0.497502,0.001565,1.20735,0.292002,0.086135,0.72012,0.130602,-0.1401849999999999,1.26724,0.100202,0.046905,0.92853,-0.007026,0.005975,1.07147,0.007026,-0.0059749999999999,0.89413,-0.352758,-0.0719149999999999,1.1136199999999998,-0.365788,-0.0110249999999999,0.86761,-0.6975680000000001,-0.0526549999999998,1.07842,-0.713128,0.0588250000000001
158,0.8789900000000002,0.6970590000000001,-0.0808399999999999,0.8115100000000001,0.445379,0.0108099999999999,0.7641600000000001,0.248749,0.03119,1.10199,0.498389,0.0018,1.2017,0.290959,0.09039,0.7222200000000001,0.126959,-0.1362799999999999,1.26215,0.098789,0.0547199999999999,0.9285100000000001,-0.0073089999999999,0.00534,1.07149,0.0073089999999999,-0.00534,0.8969500000000001,-0.350281,-0.0687599999999999,1.11951,-0.363911,-0.0035199999999999,0.8745800000000001,-0.697421,-0.0441899999999999,1.08547,-0.714221,0.06739
159,0.8766,0.6949405000000001,-0.0825799999999999,0.80915,0.4443804999999999,0.00953,0.76241,0.2477605,0.0320899999999999,1.0985099999999999,0.4991705,0.00117,1.1973699999999998,0.2897504999999999,0.09269,0.72376,0.1234804999999999,-0.13429,1.25762,0.0975205,0.05964,0.92865,-0.0075785,0.0051799999999999,1.0713499999999998,0.0075785,-0.0051799999999999,0.8988700000000001,-0.3478295,-0.06672,1.12278,-0.3625895,0.00226,0.8801699999999999,-0.6973094999999999,-0.0379399999999999,1.0907799999999999,-0.7150495,0.07352
160,0.874485,0.6946535,-0.084485,0.806885,0.4440935,0.008205,0.7614250000000001,0.2474735,0.031795,1.094555,0.4994834999999999,0.000375,1.193725,0.2894635,0.094785,0.7270450000000002,0.1212135,-0.129355,1.253805,0.0972335,0.0636649999999999,0.928645,-0.0076514999999999,0.004905,1.071355,0.0076515,-0.0049049999999999,0.9007850000000001,-0.3456065,-0.0642549999999999,1.125045,-0.3616465,0.007705,0.885745,-0.6974565,-0.0311549999999999,1.0959649999999999,-0.7153365,0.080115
161,0.8737100000000001,0.694423,-0.0853999999999999,0.8057300000000001,0.4438629999999999,0.00761,0.76082,0.247243,0.03021,1.09345,0.4997929999999999,0.00025,1.19241,0.2892329999999999,0.09499,0.72845,0.118993,-0.1256799999999999,1.25227,0.097003,0.06384,0.9286300000000001,-0.00773,0.00481,1.07137,0.00773,-0.0048099999999999,0.9023500000000001,-0.344307,-0.0622999999999999,1.12558,-0.360787,0.01003,0.8892300000000001,-0.6976870000000001,-0.0276199999999999,1.09966,-0.7155670000000001,0.08391
162,0.873175,0.69421,-0.085925,0.804495,0.44365,0.0072149999999999,0.7607649999999999,0.24703,0.0291749999999999,1.091835,0.50015,-0.0003849999999999,1.191055,0.28902,0.094315,0.730305,0.11681,-0.1221849999999999,1.250845,0.09679,0.0627649999999999,0.928635,-0.007925,0.004735,1.071365,0.007925,-0.004735,0.903945,-0.34371,-0.060235,1.125705,-0.36,0.011795,0.892315,-0.6975600000000001,-0.024505,1.103025,-0.7157800000000001,0.087315
163,0.873065,0.693033,-0.0864249999999999,0.803125,0.443133,0.0070449999999999,0.7614650000000001,0.246273,0.0289549999999999,1.0916249999999998,0.500243,-0.0001649999999999,1.190105,0.288093,0.0932349999999999,0.732345,0.112913,-0.116865,1.249825,0.0957129999999999,0.061235,0.928695,-0.008023,0.004735,1.071305,0.0080229999999999,-0.004735,0.905435,-0.343367,-0.0579549999999999,1.125695,-0.359637,0.013395,0.8951350000000001,-0.697327,-0.0215049999999999,1.105875,-0.715997,0.090605
164,0.873075,0.692265,-0.08662,0.801625,0.442405,0.0074699999999999,0.7628450000000001,0.245405,0.0295699999999999,1.091395,0.5001650000000001,0.0001299999999999,1.189285,0.287545,0.09204,0.733955,0.107235,-0.1137099999999999,1.248775,0.0953649999999999,0.0584299999999999,0.9287750000000001,-0.0081219999999999,0.0048399999999999,1.071225,0.008122,-0.0048399999999999,0.9068150000000001,-0.343525,-0.0556299999999999,1.125795,-0.359985,0.015,0.8979150000000001,-0.6968249999999999,-0.0183999999999999,1.108445,-0.716155,0.09396
165,0.873225,0.6915560000000001,-0.0865499999999999,0.8000849999999999,0.441656,0.00823,0.7648349999999999,0.244346,0.03083,1.0913149999999998,0.4999559999999999,0.0004900000000001,1.188535,0.286706,0.0906800000000001,0.735995,0.100886,-0.1089799999999999,1.2476949999999998,0.094686,0.05491,0.928885,-0.008216,0.00501,1.0711149999999998,0.008216,-0.0050099999999999,0.9080949999999999,-0.3438839999999999,-0.0534,1.125705,-0.360394,0.01631,0.900415,-0.6963239999999999,-0.0156099999999999,1.1107349999999998,-0.716324,0.09699
166,0.8736000000000002,0.6909455,-0.0862750000000001,0.7986400000000001,0.4410555,0.0093449999999999,0.76708,0.2430855,0.0320049999999999,1.09147,0.4996555,0.0009049999999999,1.18805,0.2857655,0.0893049999999999,0.7385200000000001,0.0940855,-0.102695,1.24665,0.0938855,0.0507949999999999,0.92899,-0.0082865,0.0052149999999999,1.07101,0.0082864999999999,-0.005215,0.90924,-0.3444645,-0.0512650000000001,1.12565,-0.3608645,0.0174349999999999,0.90235,-0.6957245000000001,-0.013325,1.11275,-0.7164945,0.0996549999999999
167,0.87408,0.690391,-0.0881649999999999,0.7965400000000001,0.439551,0.006465,0.76381,0.238811,0.0216750000000001,1.09189,0.5000009999999999,0.000335,1.1869699999999999,0.289671,0.0861050000000001,0.7335,0.0827789999999999,-0.1098549999999999,1.2472599999999998,0.097681,0.049655,0.9291500000000001,-0.0083819999999999,0.005205,1.0708499999999999,0.008382,-0.0052049999999999,0.9100000000000001,-0.344099,-0.0489949999999999,1.12222,-0.361069,0.018075,0.90387,-0.696739,-0.0090249999999999,1.11414,-0.715839,0.104395
168,0.87418,0.689875,-0.0863249999999999,0.795,0.438395,0.009145,0.7673900000000001,0.237365,0.028395,1.0913499999999998,0.499225,0.001325,1.1867899999999998,0.289445,0.085405,0.73942,0.073308,-0.0931549999999999,1.24533,0.098325,0.040475,0.92948,-0.0084729999999999,0.006045,1.07052,0.008473,-0.0060449999999999,0.91107,-0.345505,-0.0465649999999999,1.12303,-0.362455,0.020245,0.90581,-0.6930449999999999,-0.007475,1.11634,-0.7158749999999999,0.1072549999999999
169,0.87477,0.6896125,-0.085415,0.79382,0.4381325,0.0109549999999999,0.77173,0.2371625,0.0352149999999999,1.09232,0.4984825,0.0020449999999999,1.1862199999999998,0.2888625,0.083855,0.74577,0.0636745,-0.072215,1.2435299999999998,0.0983025,0.034305,0.92955,-0.0084335,0.006255,1.07045,0.0084335,-0.006255,0.91195,-0.3462575,-0.045325,1.1236499999999998,-0.3631575,0.0210749999999999,0.9071500000000001,-0.6931375,-0.006135,1.11781,-0.7164675,0.108445
170,0.8761900000000001,0.689381,-0.084705,0.79245,0.439051,0.0131749999999999,0.77559,0.2375909999999999,0.0384749999999999,1.09375,0.497791,0.0025749999999999,1.18639,0.287121,0.082785,0.7492300000000001,0.058544,-0.058585,1.2424199999999999,0.096981,0.0297049999999999,0.92963,-0.0084069999999999,0.006645,1.0703699999999998,0.008407,-0.006645,0.9132000000000001,-0.346939,-0.044205,1.12461,-0.364239,0.0217049999999999,0.90868,-0.692929,-0.005155,1.1193199999999999,-0.716869,0.1092549999999999
171,0.877245,0.6891785,-0.0840749999999999,0.793265,0.4404085,0.014585,0.778295,0.2388485,0.0404850000000001,1.0946449999999999,0.4972385,0.002845,1.186305,0.2838985,0.080415,0.747525,0.0220165,-0.0562149999999999,1.241585,0.0937685,0.026435,0.9296950000000002,-0.0083115,0.006895,1.0703049999999998,0.0083115,-0.0068949999999999,0.9140350000000002,-0.3477315,-0.0430949999999998,1.125495,-0.3649515,0.0221150000000001,0.909555,-0.6923915,-0.0044949999999999,1.1206049999999999,-0.7172015,0.1099150000000001
172,0.878355,0.689303,-0.0832899999999999,0.794005,0.441063,0.01605,0.7807949999999999,0.239353,0.0421099999999999,1.0957849999999998,0.496973,0.00322,1.1858849999999999,0.2810829999999999,0.07735,0.752955,0.0199959999999999,-0.0466499999999999,1.2394649999999998,0.090533,0.0230899999999999,0.929665,-0.00821,0.0071499999999999,1.0703349999999998,0.0082099999999999,-0.0071499999999999,0.915035,-0.347967,-0.04231,1.128985,-0.364017,0.02327,0.910185,-0.6900470000000001,-0.00361,1.121665,-0.7171270000000001,0.11038
173,0.8792550000000001,0.6894425,-0.082705,0.7940150000000001,0.4417625,0.0185349999999999,0.7828350000000001,0.2381025,0.0439749999999999,1.096765,0.4964824999999999,0.0033149999999999,1.1859250000000001,0.2774224999999999,0.0744649999999998,0.7584650000000002,0.0136885,-0.031315,1.235405,0.0865725,0.0171049999999999,0.9296550000000001,-0.0081025,0.0073949999999999,1.070345,0.0081024999999999,-0.007395,0.9155150000000001,-0.3493175,-0.041025,1.131485,-0.3636375,0.0240949999999999,0.9106350000000001,-0.6880775,-0.0031350000000001,1.122115,-0.7164875,0.1103449999999999
