sb224sc-HT22-VT27/4dt907/src/data/kinect_good_preprocessed_not_cut_A11_mediapipe/A148_kinect_mirrored.csv
FrameNo,nose_3d_x,nose_3d_y,nose_3d_z,left_shoulder_3d_x,left_shoulder_3d_y,left_shoulder_3d_z,left_elbow_3d_x,left_elbow_3d_y,left_elbow_3d_z,right_shoulder_3d_x,right_shoulder_3d_y,right_shoulder_3d_z,right_elbow_3d_x,right_elbow_3d_y,right_elbow_3d_z,left_wrist_3d_x,left_wrist_3d_y,left_wrist_3d_z,right_wrist_3d_x,right_wrist_3d_y,right_wrist_3d_z,left_hip_3d_x,left_hip_3d_y,left_hip_3d_z,right_hip_3d_x,right_hip_3d_y,right_hip_3d_z,left_knee_3d_x,left_knee_3d_y,left_knee_3d_z,right_knee_3d_x,right_knee_3d_y,right_knee_3d_z,left_ankle_3d_x,left_ankle_3d_y,left_ankle_3d_z,right_ankle_3d_x,right_ankle_3d_y,right_ankle_3d_z
0,0.997159,0.7256075,0.050122,0.838472,0.4855375,0.037281,0.717202,0.6971275,-0.074819,1.1476819999999999,0.4703575,0.036982,1.2899219999999998,0.6743775,-0.070609,0.6804220000000001,0.8845575,-0.187309,1.367962,0.8719975,-0.1993289999999999,0.926636,0.0007625,-0.0012659999999999,1.073364,-0.0007625,0.001266,0.8771620000000001,-0.3531225,0.000244,1.124282,-0.3423325,-0.0204929999999999,0.856622,-0.6847125000000001,0.009399,1.128582,-0.7106925000000001,0.002821
1,0.9969800000000001,0.721354,0.049377,0.8379570000000001,0.488534,0.038711,0.7233670000000001,0.7055440000000001,-0.056156,1.150337,0.478244,0.037485,1.288267,0.6898340000000001,-0.0578129999999999,0.684107,0.947804,-0.16441,1.364567,0.920614,-0.17104,0.927081,0.000676,-0.0008669999999999,1.072919,-0.0006759999999999,0.0008669999999999,0.876757,-0.3582559999999999,7.399999999999768e-05,1.123917,-0.3474959999999999,-0.020627,0.856197,-0.689796,0.009315,1.128217,-0.716046,0.00264
2,0.9951055,0.7193579999999999,0.0494625,0.8376655,0.489788,0.0413985,0.7278655,0.719008,-0.0423495,1.1491155,0.480258,0.0389155,1.2822755,0.695538,-0.0462215,0.6854055,0.963308,-0.1435715,1.3586355,0.930138,-0.1500015,0.9272345,0.0007259999999999,-0.0010704999999999,1.0727655,-0.000726,0.0010705,0.8773355,-0.361502,-0.0001684999999999,1.1246355,-0.3500419999999999,-0.0208834999999999,0.8576455000000001,-0.6930620000000001,0.0086665,1.1298255,-0.7186020000000001,0.0021275
3,0.994668,0.717155,0.0484675,0.838938,0.491515,0.0430064999999999,0.730788,0.723625,-0.0326745,1.150008,0.484935,0.0404845,1.280028,0.703075,-0.0351174999999999,0.693118,0.972335,-0.1228824999999999,1.350488,0.932025,-0.1215825,0.927558,0.000671,-0.0014305,1.0724420000000001,-0.0006709999999999,0.0014304999999999,0.8778380000000001,-0.361035,-0.0014695,1.1242679999999998,-0.352985,-0.0211025,0.857388,-0.696795,0.0086314999999999,1.129408,-0.721775,0.0020634999999999
4,0.994139,0.7161434999999999,0.047538,0.840357,0.4906735,0.043606,0.736387,0.7254835,-0.0233939999999999,1.150147,0.4909435,0.043656,1.277377,0.7123935,-0.025713,0.699587,0.9790835,-0.095916,1.345357,0.9343335,-0.108036,0.927702,0.0005924999999999,-0.001534,1.072298,-0.0005925,0.001534,0.878127,-0.3609565,-0.0019419999999999,1.123907,-0.3548565,-0.0209569999999999,0.856557,-0.6966965,0.009323,1.129087,-0.7236765000000001,0.002068
5,0.993586,0.713977,0.047051,0.84197,0.490307,0.045125,0.74219,0.732387,-0.0102409999999999,1.15005,0.494587,0.046671,1.2735400000000001,0.7173269999999999,-0.0172789999999999,0.70428,0.987217,-0.0762849999999999,1.34003,0.947987,-0.082365,0.927786,0.000334,-0.0018199999999999,1.072214,-0.0003339999999999,0.00182,0.87801,-0.361553,-0.0027159999999999,1.12323,-0.357263,-0.0208289999999999,0.85605,-0.699653,0.009698,1.12858,-0.726653,0.002654
6,0.993565,0.7107034999999999,0.0465735,0.843365,0.4901335,0.0471965,0.750045,0.7364035,0.0066675,1.150285,0.4996635,0.0514455,1.267935,0.7309034999999999,0.0006195,0.717625,0.9964935,-0.0278164999999999,1.329465,0.9759535,-0.0386234999999999,0.928152,0.0005714999999999,-0.0016034999999999,1.071848,-0.0005715,0.0016035,0.878125,-0.3630265,-0.0028564999999999,1.1229149999999999,-0.3604765,-0.0204864999999999,0.855895,-0.7036965000000001,0.0102045,1.128375,-0.7304365,0.0034645
7,0.9944695,0.710453,0.0470514999999999,0.8447035,0.4901329999999999,0.0479825,0.7516134999999999,0.733463,0.0069865,1.1480535,0.497243,0.0510105,1.2662135,0.725483,0.0022295,0.7128835,0.979713,-0.0359795,1.3321334999999999,0.964873,-0.0420315,0.9282045,0.000491,-0.0016885,1.0717955,-0.000491,0.0016885,0.8785335,-0.363657,-0.0025185,1.1230134999999999,-0.359837,-0.0204975,0.8565935,-0.7043470000000001,0.0107965,1.1289935,-0.7313270000000001,0.0039734999999999
8,0.9944825,0.7089735,0.0470535,0.8459795,0.4899435,0.0490945,0.7556295,0.7344035,0.0154835,1.1476994999999999,0.4996135,0.0529535,1.2629095000000001,0.7292035,0.0098775,0.7164395,0.9793335,-0.0194584999999999,1.3283295,0.9708235,-0.0255245,0.9283025,0.0004764999999999,-0.0018115,1.0716975,-0.0004764999999999,0.0018115,0.8786795000000001,-0.3642465,-0.0027345,1.1229794999999998,-0.3615965,-0.0204455,0.8566195,-0.7060164999999999,0.0111655,1.1290194999999998,-0.7330964999999999,0.0043205
9,0.9945455,0.7077715,0.0471715,0.8471115000000001,0.4898315,0.0501475,0.7588815,0.7353315,0.0230485,1.1469814999999999,0.5013015000000001,0.0545945,1.2594615,0.7319915,0.0168805,0.7191315,0.9789215,-0.0053585,1.3248514999999998,0.9766115,-0.0102324999999999,0.9283565,0.0004755,-0.0019604999999999,1.0716435,-0.0004755,0.0019604999999999,0.8787815,-0.3647685,-0.0029044999999999,1.1229715,-0.3632085,-0.0204315,0.8566914999999999,-0.7075285,0.0115035,1.1290915,-0.7346984999999999,0.0046375
10,0.9947520000000001,0.7068734999999999,0.047392,0.848043,0.4897835,0.051244,0.761413,0.7353434999999999,0.029392,1.146313,0.5025634999999999,0.056414,1.256173,0.7342035,0.023444,0.721033,0.9786735,0.006828,1.321633,0.9809235,0.002825,0.928442,0.0005014999999999,-0.002089,1.071558,-0.0005015,0.002089,0.878873,-0.3651665,-0.0029999999999999,1.122853,-0.3644564999999999,-0.020498,0.856753,-0.7092065000000001,0.011752,1.129143,-0.7365565000000001,0.0048279999999999
11,0.994991,0.706372,0.0476959999999999,0.8488249999999999,0.4897519999999999,0.0521129999999999,0.763035,0.734822,0.0338529999999999,1.145395,0.503262,0.057745,1.253385,0.734992,0.0281109999999999,0.721635,0.978562,0.0135009999999999,1.319345,0.982562,0.0109959999999999,0.92854,0.000502,-0.002222,1.07146,-0.0005019999999999,0.0022219999999999,0.8789750000000001,-0.365398,-0.003075,1.1227349999999998,-0.365348,-0.020617,0.856835,-0.710428,0.0119549999999999,1.129205,-0.737998,0.0049559999999999
12,0.995287,0.7060485000000001,0.0478979999999999,0.849487,0.4897784999999999,0.052839,0.764037,0.7342885,0.037464,1.1443569999999998,0.5039485,0.058946,1.250767,0.7358385000000001,0.0322499999999999,0.721997,0.9781685,0.0187159999999999,1.316857,0.9840285,0.0185509999999999,0.928671,0.0004965,-0.002342,1.071329,-0.0004965,0.0023419999999999,0.879107,-0.3655815,-0.003166,1.1226269999999998,-0.3660915,-0.020788,0.856947,-0.7116515,0.0120289999999999,1.129297,-0.7391814999999999,0.0049939999999999
13,0.9956465,0.705877,0.04802,0.8500775,0.489797,0.053412,0.7648075,0.733927,0.0404529999999999,1.1434175,0.504617,0.0599969999999999,1.2484575,0.7365470000000001,0.035579,0.7223375000000001,0.977707,0.0232059999999999,1.3144274999999999,0.984967,0.0241779999999999,0.9287615,0.000504,-0.002468,1.0712385,-0.0005039999999999,0.0024679999999999,0.8792875,-0.365593,-0.0033159999999999,1.1225875,-0.366703,-0.020929,0.8571175,-0.712703,0.0120399999999999,1.1294374999999999,-0.740213,0.0049219999999999
14,0.9960115,0.7058285000000001,0.048125,0.8505835000000002,0.4898784999999999,0.053918,0.7652135000000001,0.7337285,0.042566,1.1426435,0.5052385,0.060953,1.2465435,0.7369685,0.038008,0.7224634999999999,0.9766685,0.025957,1.3122135,0.9857685,0.027572,0.9288025,0.0005224999999999,-0.002569,1.0711975,-0.0005225,0.002569,0.8794535,-0.3654515,-0.003358,1.1225435,-0.3671815,-0.021079,0.8572835,-0.7136015,0.0120259999999999,1.1295935,-0.7410815,0.004866
15,0.996363,0.705796,0.048336,0.8509599999999999,0.489936,0.0542599999999999,0.76544,0.734056,0.043517,1.14194,0.505656,0.061742,1.24495,0.737246,0.039886,0.72271,0.976076,0.0272929999999999,1.31013,0.986296,0.0299869999999999,0.928829,0.0005429999999999,-0.002636,1.071171,-0.000543,0.0026359999999999,0.87958,-0.365344,-0.003449,1.12249,-0.367684,-0.02123,0.85742,-0.714464,0.0119909999999999,1.12975,-0.741824,0.0047859999999999
16,0.9966945,0.705785,0.0485725,0.8512815,0.490015,0.0544345,0.7656415,0.734305,0.0440295,1.1413915000000001,0.505835,0.0624374999999999,1.2435415,0.737385,0.0411965,0.7228615,0.975045,0.0273364999999999,1.3081814999999999,0.986645,0.0309715,0.9288495,0.000559,-0.0026845,1.0711505,-0.000559,0.0026844999999999,0.8797015,-0.365325,-0.0035485,1.1224315,-0.368275,-0.0214165,0.8575415,-0.715315,0.0119364999999999,1.1299115,-0.742545,0.0046894999999999
17,0.996971,0.7057505000000001,0.0487925,0.8514619999999999,0.4901205,0.0544315,0.765802,0.7343705,0.0440255,1.141012,0.5058005,0.0630115,1.242472,0.7374205,0.0420015,0.7225820000000001,0.9735405,0.0273465,1.306562,0.9866205,0.0310245,0.928868,0.0005735,-0.0027394999999999,1.071132,-0.0005735,0.0027394999999999,0.879782,-0.3652695,-0.0036515,1.122322,-0.3688694999999999,-0.0216485,0.857632,-0.7160894999999999,0.0118494999999999,1.130052,-0.7432495,0.0045465
18,0.9972305000000001,0.7057694999999999,0.0489675,0.8516295,0.4902394999999999,0.0543904999999999,0.7655895,0.7342995,0.0439974999999999,1.1406795,0.5058095,0.0634825,1.2417894999999999,0.7373995,0.0422494999999999,0.7221595000000001,0.9723195,0.0273244999999999,1.3051495,0.9865495,0.0310344999999999,0.9288815,0.0006304999999999,-0.0028275,1.0711185,-0.0006305,0.0028274999999999,0.8798595,-0.3651705,-0.0038385,1.1222095,-0.3694205,-0.0219205,0.8577395,-0.7168305,0.0117344999999999,1.1302195,-0.7438905,0.0043724999999999
19,0.9974145000000001,0.7058194999999999,0.0489924999999999,0.8517985000000001,0.4902394999999999,0.0544165,0.7652885,0.7342995,0.0440385,1.1403985,0.5058895,0.0635235,1.2413085,0.7373895,0.0422965,0.7216485,0.9717395,0.0273715,1.3040285,0.9865495,0.0311024999999999,0.9288815,0.0006304999999999,-0.0028585,1.0711185,-0.0006305,0.0028585,0.8799385,-0.3652205,-0.0039685,1.1220785,-0.3694805,-0.0220935,0.8579085,-0.7169205,0.0117204999999999,1.1303885,-0.7439605,0.0043844999999999
20,0.9975980000000001,0.7058194999999999,0.0490135,0.8519680000000001,0.4902394999999999,0.0544375,0.7647380000000001,0.7345595,0.0433095,1.140228,0.5059494999999999,0.0635545,1.2409080000000001,0.7372394999999999,0.0423365,0.720998,0.9708695,0.0264865,1.3030680000000001,0.9864495,0.0307925,0.928883,0.0006304999999999,-0.0028844999999999,1.071117,-0.0006305,0.0028844999999999,0.8800080000000001,-0.3652605,-0.0041105,1.121948,-0.3695805,-0.0222735,0.858078,-0.7170305,0.0117015,1.130558,-0.7440405,0.0043915
21,0.9977625,0.7058194999999999,0.0490325,0.8521195,0.4902394999999999,0.0544275,0.7642694999999999,0.7349995,0.0423405,1.1401395,0.5059895,0.0635815,1.2406395,0.7370995,0.0423685,0.7203595,0.9700495,0.0248515,1.3023395,0.9860495,0.0299675,0.9288795,0.0006304999999999,-0.0029084999999999,1.0711205,-0.0006305,0.0029085,0.8800695000000001,-0.3654205,-0.0042594999999999,1.1218095,-0.3696705,-0.0224484999999999,0.8582295,-0.7171105,0.0116805,1.1307295,-0.7441205,0.0043895
22,0.9979755000000001,0.706013,0.048969,0.8522665,0.490403,0.053968,0.7637265,0.7358129999999999,0.040678,1.1400265,0.505973,0.063404,1.2402765,0.737103,0.041785,0.7198565,0.969673,0.022715,1.3014465,0.985493,0.027507,0.9288905,0.00064,-0.0029549999999999,1.0711095,-0.0006399999999999,0.002955,0.8801765,-0.365577,-0.0046779999999999,1.1217365,-0.369857,-0.0227079999999999,0.8584565,-0.717367,0.011689,1.1309665,-0.744347,0.004377
23,0.998231,0.7062295,0.048841,0.8524570000000001,0.4905794999999999,0.05344,0.763247,0.7366295,0.038938,1.1399869999999999,0.5059095,0.063108,1.239947,0.7370795,0.040984,0.7194670000000001,0.9696095,0.020504,1.3006669999999998,0.9846295,0.024816,0.928895,0.0006584999999999,-0.0029959999999999,1.071105,-0.0006585,0.0029959999999999,0.880267,-0.3657405,-0.005238,1.121697,-0.3700305,-0.02301,0.8586670000000001,-0.7176305,0.011624,1.131217,-0.7446005,0.004354
24,0.9984700000000001,0.7065644999999999,0.0484955,0.852624,0.4908245,0.0526215,0.762764,0.7372544999999999,0.0369945,1.139894,0.5058845,0.0626105,1.239534,0.7371544999999999,0.0396414999999999,0.719164,0.9687045,0.0180404999999999,1.299684,0.9835745,0.0213434999999999,0.928887,0.0006814999999999,-0.0030325,1.071113,-0.0006815,0.0030325,0.880194,-0.3658055,-0.0062285,1.121564,-0.3703355,-0.0236405,0.858884,-0.7178055,0.0112834999999999,1.131464,-0.7447555,0.0041864999999999
25,0.9987065,0.7067844999999999,0.0480185,0.8527865,0.4909445,0.0517524999999999,0.7622865,0.7376745,0.0350184999999999,1.1397765,0.5058845,0.0619664999999999,1.2390765,0.7371845,0.0378494999999999,0.7189465000000002,0.9673845,0.0155234999999999,1.2986265000000001,0.9823745,0.0179074999999999,0.9288695,0.0006814999999999,-0.0030575,1.0711305,-0.0006815,0.0030574999999999,0.8799265000000001,-0.3660655,-0.0079535,1.1213065,-0.3712554999999999,-0.0247015,0.8590965,-0.7180855,0.0105864999999999,1.1317365,-0.7449855000000001,0.0039154999999999
26,0.998991,0.707064,0.047442,0.852961,0.490814,0.050782,0.761651,0.7381540000000001,0.032599,1.139901,0.505904,0.061173,1.2386409999999999,0.7372240000000001,0.03583,0.718701,0.966324,0.013254,1.2974510000000001,0.981644,0.014289,0.928842,0.000698,-0.0030799999999999,1.071158,-0.000698,0.0030799999999999,0.879571,-0.366546,-0.0103349999999999,1.1210209999999998,-0.372396,-0.025952,0.8593310000000001,-0.7184259999999999,0.009571,1.1320109999999999,-0.745116,0.00356
27,0.9994310000000001,0.7073465,0.046604,0.8532590000000001,0.4907065,0.049663,0.761359,0.7380465,0.03019,1.140319,0.5059465,0.059987,1.238389,0.7373165,0.0333,0.718289,0.9652965,0.010162,1.295889,0.9812365,0.010153,0.9287940000000001,0.0007274999999999,-0.0030889999999999,1.0712059999999999,-0.0007274999999999,0.003089,0.879129,-0.3673335,-0.0136439999999999,1.120629,-0.3739635,-0.0278269999999999,0.8597290000000001,-0.7188435,0.008308,1.132379,-0.7452235,0.002987
28,1.000143,0.7073465,0.0447875,0.8537129999999999,0.4907065,0.0474755,0.761233,0.7380465,0.0261945,1.141013,0.5060965000000001,0.0579355,1.238413,0.7372665,0.0291455,0.7178530000000001,0.9643865,0.0050875,1.294233,0.9807365,0.0040634999999999,0.928694,0.0007274999999999,-0.0030104999999999,1.071306,-0.0007274999999999,0.0030104999999999,0.878663,-0.3681935,-0.0183064999999999,1.120253,-0.3765135,-0.0315654999999999,0.860033,-0.7191935,0.0061285,1.132803,-0.7452235,0.0012305
29,1.0009175,0.7073465,0.042144,0.8540185,0.4907065,0.044819,0.7611585000000001,0.7380465,0.021464,1.1417285,0.5060865,0.05552,1.2384685,0.7371165000000001,0.024078,0.7173885,0.9631265,-0.001833,1.2926484999999999,0.9795765,-0.002978,0.9285805,0.0007274999999999,-0.002873,1.0714195,-0.0007274999999999,0.002873,0.8780185,-0.3691435,-0.023257,1.1197285,-0.3792435,-0.035681,0.8601084999999999,-0.7198335,0.0035839999999999,1.1329185,-0.7450035,-0.000738
30,1.0016554999999998,0.7076815,0.0390975,0.8542275,0.4905515,0.0418225,0.7610275,0.7377414999999999,0.0164055,1.1424875,0.5064015,0.0527625,1.2385975,0.7373115,0.0184965,0.7169575,0.9626215,-0.0090094999999999,1.2910675,0.9787115,-0.0104924999999999,0.9284565,0.0007454999999999,-0.0027264999999999,1.0715435,-0.0007455,0.0027264999999999,0.8772975000000001,-0.3703385,-0.0287565,1.1192475,-0.3819785,-0.0404095,0.8602675,-0.7203385,0.0006745,1.1330375,-0.7445485000000001,-0.0031444999999999
31,1.002425,0.70752,0.035244,0.85444,0.4898999999999999,0.03838,0.7609,0.7369,0.010768,1.14347,0.50676,0.049486,1.23898,0.73753,0.012068,0.71662,0.96246,-0.0170719999999999,1.2899,0.97793,-0.0185439999999999,0.928318,0.000775,-0.0025219999999999,1.071682,-0.0007749999999999,0.002522,0.8764,-0.37148,-0.03554,1.11882,-0.38481,-0.046392,0.86041,-0.7208399999999999,-0.003547,1.13315,-0.7440599999999999,-0.0063849999999999
32,1.003144,0.7070500000000001,0.030778,0.854544,0.48927,0.034588,0.760714,0.73602,0.0043239999999999,1.144374,0.5073500000000001,0.045878,1.2393839999999998,0.7376600000000001,0.0047979999999999,0.716024,0.96169,-0.02631,1.288724,0.97727,-0.027824,0.928194,0.0007759999999999,-0.002252,1.071806,-0.000776,0.0022519999999999,0.875474,-0.37225,-0.043091,1.118454,-0.3873,-0.0534,0.860574,-0.72103,-0.008441,1.133224,-0.7432,-0.010428
33,1.0038815,0.7061535000000001,0.0257905,0.8550195,0.4882435,0.0305075,0.7607395,0.7346735,-0.0027904999999999,1.1448795,0.5078535,0.0419505,1.2398695,0.7377635,-0.0030624999999999,0.7156695,0.9606535,-0.0361845,1.2877795,0.9770935,-0.0374374999999999,0.9280965,0.0007384999999999,-0.0019334999999999,1.0719035,-0.0007385,0.0019335,0.8745295,-0.3734065,-0.0516285,1.1182095,-0.3893765,-0.0611755,0.8608395,-0.7208165,-0.0139444999999999,1.1333195,-0.7418564999999999,-0.0148884999999999
34,1.0046799999999998,0.704349,0.0202994999999999,0.855428,0.487129,0.0260714999999999,0.760628,0.7332190000000001,-0.0104085,1.145428,0.508179,0.0377995,1.240348,0.737299,-0.0116085,0.715258,0.959549,-0.0467555,1.286968,0.976959,-0.0480845,0.9280180000000001,0.0007919999999999,-0.0017845,1.071982,-0.0007919999999999,0.0017844999999999,0.873738,-0.373911,-0.0605845,1.118148,-0.390561,-0.0696235,0.861118,-0.7199409999999999,-0.0197015,1.133378,-0.740051,-0.0197715
35,1.005427,0.7024929999999999,0.0143524999999999,0.855793,0.486363,0.0214655,0.7605230000000001,0.731993,-0.0181605,1.1459929999999998,0.5074329999999999,0.0332084999999999,1.2408229999999998,0.7361129999999999,-0.0207105,0.714753,0.958543,-0.0582275,1.286303,0.976753,-0.0597495,0.927945,0.00084,-0.0015695,1.072055,-0.0008399999999999,0.0015694999999999,0.872913,-0.374727,-0.0702115,1.118283,-0.391397,-0.0789475,0.861523,-0.718307,-0.0256215,1.133413,-0.737457,-0.0251455
36,1.0061135,0.7017654999999999,0.0087485,0.8560695,0.4849155,0.0162795,0.7605195,0.7303655,-0.0254895,1.1462495,0.5044854999999999,0.0276785,1.2411695,0.7347055,-0.0296304999999999,0.7144895,0.9561355,-0.0695045,1.2859494999999999,0.9768955,-0.0711535,0.9275895,0.0009304999999999,-0.0011474999999999,1.0724105,-0.0009304999999999,0.0011475,0.8721995000000001,-0.3738345,-0.0796304999999999,1.1188095,-0.3899645,-0.0883195,0.8619995,-0.7144245,-0.0312794999999999,1.1334195,-0.7324345,-0.0304754999999999
37,1.0065419999999998,0.7005910000000001,0.0040005,0.8563720000000001,0.4840509999999999,0.0122275,0.760182,0.729221,-0.0318335,1.146322,0.502221,0.0230845,1.241102,0.733591,-0.0374245,0.714582,0.955361,-0.0786315,1.285562,0.974741,-0.0821784999999999,0.927315,0.0010019999999999,-0.0007985,1.0726849999999999,-0.001002,0.0007985,0.871432,-0.372239,-0.0883414999999999,1.1192019999999998,-0.387179,-0.0969815,0.862512,-0.709689,-0.0361654999999999,1.133282,-0.7262689999999999,-0.0348545
38,1.0067994999999998,0.6986595,0.0001665,0.8567485,0.4832395,0.0089025,0.7597085,0.7280395,-0.0373675,1.1463185,0.5004394999999999,0.0191525,1.2407985,0.7326094999999999,-0.0444345,0.7143085,0.9555795,-0.0858805,1.2850785,0.9734095,-0.0919705,0.9270305000000001,0.0010265,-0.0003704999999999,1.0729695,-0.0010264999999999,0.0003705,0.8705085,-0.3706005,-0.0971904999999999,1.1194484999999998,-0.3840505,-0.1056604999999999,0.8628985,-0.7041005,-0.0407094999999999,1.1333685,-0.7194205,-0.0388205
39,1.0069095,0.69665,-0.0034554999999999,0.8570895000000001,0.48256,0.0058605,0.7592095,0.72676,-0.0429135,1.1463495,0.49778,0.0150975,1.2404194999999998,0.73067,-0.0512535,0.7140295,0.95667,-0.0932284999999999,1.2846795,0.9729,-0.1019485,0.9267425,0.0009319999999999,-4.55000000000004e-05,1.0732575,-0.000932,4.55000000000004e-05,0.8694295,-0.3679,-0.1062485,1.1195995,-0.37998,-0.1145484999999999,0.8631895,-0.69716,-0.0452985,1.1334595,-0.71125,-0.0424585
40,1.0067245,0.695302,-0.005774,0.8571375,0.481992,0.003913,0.7586575,0.722622,-0.047036,1.1461075,0.495482,0.012099,1.2396475,0.725512,-0.0565689999999999,0.7135875,0.955792,-0.0991119999999999,1.2841075,0.969572,-0.110062,0.9266345,0.000871,-4.200000000000037e-05,1.0733655,-0.000871,4.200000000000037e-05,0.8682375,-0.3644179999999999,-0.113872,1.1196675,-0.374998,-0.122122,0.8633375,-0.688558,-0.047805,1.1332175,-0.701858,-0.044861
41,1.0063805,0.6941885,-0.0083995,0.8571335,0.4808785,0.0011535,0.7579935000000001,0.7201285,-0.0508225,1.1454535,0.4927985,0.0085565,1.2386635,0.7219385,-0.0619555,0.7127935000000001,0.9517385,-0.1061745,1.2836035,0.9671985,-0.1184144999999999,0.9265485,0.0008345,-3.950000000000134e-05,1.0734515,-0.0008345,3.9499999999999605e-05,0.8670635,-0.3604015,-0.1222144999999999,1.1200835,-0.3692615,-0.1300345,0.8637835,-0.6789715000000001,-0.0500635,1.1329535,-0.6921615,-0.0468935
42,1.0059935,0.6932875000000001,-0.0112905,0.8571635,0.4807774999999999,-0.0016925,0.7572835,0.7188175,-0.0548045,1.1446035,0.4905275,0.0046865,1.2373635,0.7195175,-0.0671745,0.7119435000000001,0.9484175,-0.1127445,1.2829635,0.9657275,-0.1269245,0.9265485,0.0007674999999999,-3.950000000000134e-05,1.0734515,-0.0007675,3.9499999999999605e-05,0.8661735,-0.3553225,-0.1303145,1.1205735,-0.3633125,-0.1381945,0.8643835,-0.6688824999999999,-0.0526125,1.1326135,-0.6819525,-0.0492175
43,1.0054335,0.69313,-0.0153514999999999,0.8571655,0.48041,-0.0061064999999999,0.7564655,0.7176499999999999,-0.0606565,1.1434455,0.48769,-0.0006034999999999,1.2358955,0.7170000000000001,-0.0734955,0.7107355,0.94831,-0.1197695,1.2822155,0.96395,-0.1354395,0.9262745,0.000595,0.0001895,1.0737255,-0.0005949999999999,-0.0001895,0.8650655,-0.3478,-0.1396794999999999,1.1212055,-0.3548,-0.1476595,0.8646155,-0.65438,-0.0551435,1.1319655,-0.66733,-0.0517375
44,1.0047959999999998,0.6928125,-0.0207804999999999,0.857207,0.4799225,-0.0121224999999999,0.755687,0.7164425000000001,-0.0678595,1.142257,0.4858425,-0.0072594999999999,1.2345769999999998,0.7150224999999999,-0.0809545,0.709757,0.9481025,-0.1281415,1.281537,0.9616225,-0.1463315,0.925951,0.0004524999999999,0.0002365,1.074049,-0.0004524999999999,-0.0002364999999999,0.863907,-0.3404475,-0.1503115,1.121787,-0.3464275,-0.1579515,0.864777,-0.6402874999999999,-0.0592755,1.131257,-0.6532875,-0.0556085
45,1.0039195,0.6907545,-0.0264065,0.8571044999999999,0.4805845,-0.0171725,0.7550145,0.7152745,-0.0752995,1.1413945,0.4866345,-0.0124824999999999,1.2329645,0.7133545,-0.0881975,0.7092145000000001,0.9501645,-0.1359375,1.2805945,0.9593145,-0.1565774999999999,0.9255555,0.0002214999999999,0.0002824999999999,1.0744445,-0.0002214999999999,-0.0002824999999999,0.8625745,-0.3317255,-0.1603774999999999,1.1223245,-0.3375055,-0.1679774999999999,0.8648245,-0.6273755,-0.0633035,1.1303845,-0.6407855,-0.0589225
46,1.0025545,0.6895399999999999,-0.0325345,0.8565725,0.47972,-0.0234785,0.7535325000000002,0.7137699999999999,-0.0834195,1.1399925,0.48719,-0.0189014999999999,1.2309425,0.71215,-0.0962995,0.7081925,0.9515,-0.1461495,1.2793425,0.95796,-0.1666595,0.9251135,9.999999999996125e-06,0.0005025,1.0748865,-9.999999999996125e-06,-0.0005024999999999,0.8608025,-0.31971,-0.1707195,1.1227325,-0.32488,-0.1777895,0.8643325,-0.6114700000000001,-0.0675545,1.1289925,-0.62578,-0.0618885
47,1.0009005,0.68872,-0.0382405,0.8557625,0.4799,-0.0289345,0.7523025,0.7124,-0.0911044999999999,1.1384225,0.4892,-0.0242105,1.2291825,0.7108800000000001,-0.1040445,0.7069325,0.95243,-0.1555845,1.2777325,0.95738,-0.1761945,0.9245925000000002,-0.0004099999999999,0.0007744999999999,1.0754074999999998,0.00041,-0.0007745,0.8589725,-0.30687,-0.1801545,1.1228725,-0.3118499999999999,-0.1864145,0.8635425000000001,-0.5942,-0.0706295,1.1275125,-0.60959,-0.0643275
48,0.999044,0.690465,-0.043577,0.854712,0.480095,-0.03503,0.750302,0.7124349999999999,-0.098357,1.136342,0.488855,-0.030867,1.227402,0.710925,-0.111007,0.7052320000000001,0.952065,-0.166067,1.276202,0.958405,-0.1848169999999999,0.924342,-0.000215,0.0009449999999999,1.075658,0.0002149999999999,-0.0009449999999999,0.856102,-0.291135,-0.192027,1.123522,-0.296075,-0.1982769999999999,0.862622,-0.574275,-0.07278,1.125862,-0.590815,-0.06305
49,0.9971850000000001,0.6914250000000001,-0.048704,0.8537399999999999,0.481285,-0.040276,0.74849,0.716145,-0.1055219999999999,1.13437,0.488595,-0.036609,1.2258499999999999,0.714535,-0.1178519999999999,0.7036,0.951125,-0.175742,1.27475,0.958905,-0.1948119999999999,0.924137,-0.0001149999999999,0.0010419999999999,1.075863,0.000115,-0.001042,0.8533200000000001,-0.275935,-0.202772,1.12426,-0.280505,-0.2088819999999999,0.8618399999999999,-0.555095,-0.0745229999999999,1.12453,-0.572465,-0.0641559999999999
50,0.9954885000000001,0.6924399999999999,-0.0540475,0.8527575000000001,0.48205,-0.0456785,0.7469675,0.71745,-0.1136595,1.1324575000000001,0.48839,-0.0425325,1.2237375,0.71397,-0.1247995,0.7021475000000001,0.9559,-0.1844295,1.2729675,0.95757,-0.2043695,0.9239415,-0.00018,0.0009905,1.0760585,0.0001799999999999,-0.0009904999999999,0.8499675000000001,-0.25797,-0.2138795,1.1251875,-0.26264,-0.2201595,0.8613474999999999,-0.53398,-0.0761095,1.1231875,-0.55172,-0.0648044999999999
51,0.9939055000000001,0.693595,-0.0594829999999999,0.8519194999999999,0.482355,-0.051148,0.7456295000000002,0.7159150000000001,-0.121423,1.1306295,0.487915,-0.048487,1.2217595,0.7137850000000001,-0.1316729999999999,0.7007995,0.958835,-0.193653,1.2710995,0.956835,-0.213593,0.9236785,-0.000195,0.000895,1.0763215,0.000195,-0.000895,0.8467195000000001,-0.240535,-0.224963,1.1261295,-0.244645,-0.2312129999999999,0.8608195000000001,-0.5124850000000001,-0.07697,1.1219595,-0.530375,-0.066049
52,0.9928885,0.69489,-0.0630594999999999,0.8514545,0.48324,-0.0544195,0.7444345,0.7158,-0.1263065,1.1292845,0.48823,-0.0526435,1.2206044999999999,0.7155400000000001,-0.1363565,0.6995045000000001,0.95984,-0.2015565,1.2700745,0.95736,-0.2213065,0.9235065000000001,-0.0001499999999999,0.0008534999999999,1.0764935,0.00015,-0.0008535,0.8440245,-0.2252099999999999,-0.2338965,1.1271545,-0.22907,-0.2402365,0.8608045,-0.49411,-0.0768685,1.1215145,-0.51309,-0.0682754999999999
53,0.9917545,0.6954199999999999,-0.0677545,0.8509355000000001,0.48222,-0.0590165,0.7435755,0.71515,-0.1318165,1.1278555,0.4875499999999999,-0.0575025,1.2192955,0.71703,-0.1415065,0.6985755,0.96065,-0.2092065,1.2687454999999999,0.95913,-0.2278364999999999,0.9232925,-0.00024,0.0007274999999999,1.0767075,0.0002399999999999,-0.0007275,0.8409355000000001,-0.20574,-0.2447264999999999,1.1281255,-0.20955,-0.2510965,0.8608155,-0.47189,-0.0767365,1.1211855,-0.49188,-0.0701104999999999
54,0.9906825000000001,0.69696,-0.071946,0.8504845,0.4814199999999999,-0.06331,0.7427945,0.71546,-0.136787,1.1265045,0.4871199999999999,-0.0621909999999999,1.2180845,0.71909,-0.146437,0.6978845,0.96129,-0.216167,1.2673145,0.95653,-0.2343269999999999,0.9230405,-0.0002,0.0007059999999999,1.0769595,0.0001999999999999,-0.0007059999999999,0.8380045,-0.1864,-0.254947,1.1292245,-0.18958,-0.261887,0.8611545,-0.4501900000000001,-0.076317,1.1211345,-0.47055,-0.0717
55,0.9900670000000001,0.6974450000000001,-0.076094,0.850379,0.482485,-0.066892,0.742599,0.716365,-0.141254,1.125529,0.487015,-0.066218,1.217459,0.7206950000000001,-0.150814,0.698069,0.962255,-0.221524,1.266429,0.956545,-0.2396339999999999,0.922865,-0.0002249999999999,0.000796,1.077135,0.000225,-0.0007959999999999,0.835259,-0.169435,-0.265774,1.1302889999999999,-0.1728549999999999,-0.2729439999999999,0.861819,-0.431435,-0.076014,1.121599,-0.451825,-0.074264
56,0.9895415000000001,0.6986300000000001,-0.078866,0.8503615000000001,0.48147,-0.069719,0.7422314999999999,0.71657,-0.144106,1.1248015,0.48445,-0.06978,1.2169115,0.71982,-0.153236,0.6982014999999999,0.96169,-0.2253959999999999,1.2657715,0.95721,-0.243506,0.9229215,-3.999999999998449e-05,0.0008669999999999,1.0770785,4.000000000004e-05,-0.0008669999999999,0.8325515,-0.1516099999999999,-0.275466,1.1314615,-0.1554199999999999,-0.283716,0.8626315,-0.4127699999999999,-0.075266,1.1224615,-0.4319999999999999,-0.076206
57,0.9891005,0.696795,-0.081295,0.8503315000000001,0.480855,-0.071055,0.7418815000000001,0.7156750000000001,-0.146255,1.1245115,0.485265,-0.070855,1.2162215,0.719365,-0.155215,0.6979115,0.962095,-0.2270249999999999,1.2651415,0.956835,-0.246495,0.9230155,-0.000395,0.0009379999999999,1.0769845,0.0003949999999999,-0.000938,0.8307115,-0.136125,-0.281785,1.1318315,-0.140575,-0.289915,0.8632915000000001,-0.397235,-0.074585,1.1235515,-0.414935,-0.077335
58,0.9885495,0.695155,-0.0836295,0.8498985,0.4791649999999999,-0.0727095,0.7413084999999999,0.714155,-0.1482195,1.1241185,0.485155,-0.0725795,1.2152285,0.719565,-0.1568895,0.6974985,0.964915,-0.2292795,1.2643685,0.959865,-0.2475295,0.9230285,-0.000755,0.0009584999999999,1.0769715,0.000755,-0.0009585,0.8288085000000001,-0.117575,-0.2890395,1.1321685,-0.122345,-0.2972895,0.8636185000000001,-0.3799849999999999,-0.0747195,1.1247685,-0.396095,-0.0791095
59,0.9882340000000001,0.69365,-0.0827065,0.84985,0.478612,-0.0709165,0.74108,0.71351,-0.1467665,1.12394,0.48504,-0.0710265,1.21501,0.72265,-0.1547065,0.69731,0.96578,-0.2280265,1.26385,0.96104,-0.2451665,0.9227980000000001,-0.00092,0.0008854999999999,1.077202,0.0009199999999999,-0.0008855,0.82757,-0.10027,-0.2925765,1.13247,-0.10558,-0.3010865,0.86375,-0.3645899999999999,-0.0726665,1.12616,-0.37912,-0.0786365
60,0.9879270000000001,0.6917949999999999,-0.081483,0.849909,0.477886,-0.0691229999999999,0.7406889999999999,0.7149449999999999,-0.145363,1.123899,0.4850509999999999,-0.069453,1.214989,0.724375,-0.151913,0.6964090000000001,0.964585,-0.2267529999999999,1.263089,0.959765,-0.242023,0.922601,-0.001165,0.000798,1.077399,0.0011649999999999,-0.000798,0.826409,-0.086365,-0.295983,1.132979,-0.091405,-0.304963,0.8638589999999999,-0.349145,-0.071343,1.127539,-0.362305,-0.077953
61,0.9875240000000001,0.689905,-0.0803145,0.8497890000000001,0.476887,-0.0675045,0.740379,0.714935,-0.1443245,1.123689,0.484975,-0.0678845,1.214739,0.724985,-0.1494245,0.6951689999999999,0.962985,-0.2251044999999999,1.262319,0.958025,-0.2393845,0.922399,-0.0014049999999999,0.0007204999999999,1.077601,0.0014049999999999,-0.0007204999999999,0.825109,-0.072795,-0.2992045,1.1333389999999999,-0.077265,-0.3086645,0.863749,-0.3344749999999999,-0.0705445,1.1281889999999999,-0.345365,-0.0761445
62,0.987064,0.688975,-0.0790084999999999,0.8495429999999999,0.477564,-0.0655785,0.7396130000000001,0.715345,-0.1431585,1.123383,0.485996,-0.0665685,1.2136529999999999,0.723205,-0.1474685,0.693873,0.962445,-0.2241385,1.261303,0.956095,-0.2374285,0.922226,-0.0015149999999999,0.0007274999999999,1.077774,0.0015149999999999,-0.0007274999999999,0.8241030000000001,-0.060805,-0.3008285,1.133613,-0.065125,-0.3116784999999999,0.8634729999999999,-0.323125,-0.0706585,1.128603,-0.331885,-0.0753485
63,0.9865835,0.68748,-0.0780714999999999,0.8491725,0.477718,-0.0642515,0.7390425,0.71533,-0.1424315,1.1230325,0.486439,-0.0655415,1.2131224999999999,0.72036,-0.1461415,0.6924925,0.96202,-0.2234215,1.2607724999999999,0.95784,-0.2361015,0.9220524999999999,-0.0017399999999999,0.0007185,1.0779475,0.00174,-0.0007184999999999,0.8230025,-0.0487799999999999,-0.3022215,1.1338025,-0.0528299999999999,-0.3145314999999999,0.8628925000000001,-0.31154,-0.0710315,1.1287025,-0.31859,-0.0751015
64,0.9862525000000001,0.686205,-0.077059,0.8488735000000001,0.4769279999999999,-0.063229,0.7388135,0.714595,-0.141409,1.1227735,0.4855549999999999,-0.064769,1.2126035,0.7167349999999999,-0.146029,0.6911835,0.960015,-0.222369,1.2603035,0.958265,-0.234379,0.9219935,-0.001855,0.000835,1.0780065,0.0018549999999999,-0.000835,0.8220035,-0.037215,-0.302149,1.1340735,-0.040915,-0.316729,0.8623735000000001,-0.300545,-0.070719,1.1287535,-0.3058850000000001,-0.075049
65,0.9858315,0.684,-0.076834,0.8486025,0.477169,-0.062964,0.7383925,0.7139,-0.141184,1.1224825,0.485191,-0.064544,1.2126425,0.7153,-0.146384,0.6900325,0.95926,-0.2221139999999999,1.2605525,0.95587,-0.233984,0.9219075,-0.0018999999999999,0.0010279999999999,1.0780925,0.0019,-0.001028,0.8210425,-0.0279399999999999,-0.302094,1.1343525,-0.03115,-0.318454,0.8619525,-0.2910399999999999,-0.070594,1.1286925,-0.2959799999999999,-0.075364
66,0.985395,0.682955,-0.0767005,0.848556,0.477472,-0.0624705,0.737606,0.713825,-0.1410404999999999,1.122326,0.48524,-0.0644204999999999,1.212836,0.714635,-0.1464305,0.689156,0.959245,-0.2219705,1.2606760000000001,0.950605,-0.2322905,0.921926,-0.0019549999999999,0.0010785,1.078074,0.001955,-0.0010784999999999,0.820006,-0.017405,-0.3019405,1.1347260000000001,-0.0204149999999999,-0.3198404999999999,0.8610260000000001,-0.280745,-0.0704505,1.128596,-0.285135,-0.0757205
67,0.985135,0.682535,-0.076595,0.84882,0.478163,-0.061605,0.73731,0.714155,-0.140635,1.1224,0.485493,-0.064325,1.2136,0.714155,-0.145905,0.68866,0.959405,-0.221515,1.2610000000000001,0.945665,-0.230745,0.922064,-0.001875,0.0010649999999999,1.077936,0.001875,-0.001065,0.81776,-0.0079549999999999,-0.301765,1.13533,-0.0109149999999999,-0.320555,0.85957,-0.274815,-0.071595,1.12842,-0.275515,-0.076025
68,0.9853145000000001,0.68182,-0.075998,0.8492945000000001,0.4786149999999999,-0.0600879999999999,0.7369245,0.7143999999999999,-0.140138,1.1226245,0.4859999999999999,-0.0640179999999999,1.2144845,0.71397,-0.145358,0.6884645,0.95938,-0.220498,1.2619045,0.94336,-0.229118,0.9221355,-0.00184,0.0010819999999999,1.0778645,0.0018399999999999,-0.0010819999999999,0.8153045,3.999999999992898e-05,-0.301548,1.1361145,-0.00239,-0.3211179999999999,0.8587945,-0.2703000000000001,-0.0727579999999999,1.1285645,-0.26687,-0.076168
69,0.98563,0.68153,-0.074973,0.849777,0.479202,-0.058463,0.7371369999999999,0.71485,-0.1378329999999999,1.1229669999999998,0.486487,-0.063573,1.215457,0.71384,-0.144793,0.688257,0.96241,-0.2188629999999999,1.262857,0.94239,-0.2275329999999999,0.922141,-0.0017099999999999,0.0012539999999999,1.077859,0.0017099999999999,-0.0012539999999999,0.812697,0.0069399999999999,-0.301093,1.136777,0.0051799999999999,-0.321473,0.8581170000000001,-0.2668899999999999,-0.073783,1.1285569999999998,-0.25911,-0.076363
70,0.9859380000000001,0.6811349999999999,-0.0738699999999999,0.850195,0.4804929999999999,-0.05702,0.736965,0.7160849999999999,-0.13568,1.123325,0.4875169999999999,-0.06309,1.216675,0.714375,-0.14436,0.688035,0.965095,-0.21766,1.263785,0.941285,-0.2261399999999999,0.922146,-0.001665,0.001415,1.077854,0.0016649999999999,-0.0014149999999999,0.8102050000000001,0.0135149999999999,-0.30027,1.137395,0.0123349999999998,-0.32202,0.857455,-0.2641450000000001,-0.07453,1.128555,-0.2520350000000001,-0.07662
71,0.9862865,0.680505,-0.0726875,0.8508005000000001,0.481636,-0.0554475,0.7369505000000001,0.7161250000000001,-0.1332575,1.1238305,0.488751,-0.0625275,1.2181004999999998,0.7179350000000001,-0.1442675,0.6879905,0.965955,-0.2159375,1.2647405,0.939785,-0.2248175,0.9221985,-0.0017049999999999,0.0015654999999999,1.0778015,0.001705,-0.0015655,0.8079105,0.019715,-0.2992575,1.1379504999999999,0.0189450000000001,-0.3235175,0.8568205,-0.2622449999999999,-0.0755975,1.1285305,-0.245525,-0.0786775
72,0.986929,0.679905,-0.0712775,0.851676,0.4828559999999999,-0.0538175,0.737446,0.717405,-0.1306875,1.124636,0.4899639999999999,-0.0618574999999999,1.219806,0.722035,-0.1439275,0.6883360000000001,0.966965,-0.2131175,1.2661660000000001,0.938795,-0.2236574999999999,0.92232,-0.001735,0.0017474999999999,1.07768,0.0017349999999999,-0.0017474999999999,0.805976,0.0249949999999999,-0.2980475,1.138676,0.0244249999999999,-0.3246975,0.8562260000000002,-0.2612150000000001,-0.0761775,1.128666,-0.240045,-0.0804475
73,0.98749,0.679685,-0.0698835,0.852382,0.484382,-0.0523135,0.737742,0.717905,-0.1280335,1.125242,0.491778,-0.0612235,1.221362,0.726425,-0.1435435,0.688662,0.968565,-0.2104935,1.267662,0.938095,-0.2224935,0.922484,-0.001815,0.0019424999999999,1.077516,0.001815,-0.0019424999999999,0.804072,0.0297749999999999,-0.2967935,1.1392120000000001,0.029375,-0.3257135,0.8555920000000001,-0.260605,-0.0763035,1.128512,-0.235085,-0.0821435
74,0.9880400000000001,0.679955,-0.0684589999999999,0.85301,0.485964,-0.050889,0.73802,0.720385,-0.1256489999999999,1.1257899999999998,0.493568,-0.0605989999999999,1.22272,0.729515,-0.142679,0.6888799999999999,0.970665,-0.207639,1.26929,0.938165,-0.221579,0.922645,-0.001905,0.002187,1.077355,0.001905,-0.002187,0.80218,0.034015,-0.295649,1.13951,0.0336549999999999,-0.326439,0.8546400000000001,-0.260125,-0.0763389999999999,1.12821,-0.230805,-0.083599
75,0.9888225,0.6794549999999999,-0.0670359999999999,0.8535265,0.487162,-0.049716,0.7385965,0.722065,-0.123356,1.1264965,0.494629,-0.059956,1.2246765,0.731375,-0.142426,0.6893865,0.971165,-0.204736,1.2711465,0.939875,-0.220656,0.9228415000000001,-0.001925,0.0025319999999999,1.0771585,0.0019249999999999,-0.0025319999999999,0.8006665,0.036115,-0.295116,1.1398765,0.035605,-0.326416,0.8544265,-0.261615,-0.076126,1.1280965,-0.2288649999999999,-0.084396
76,0.9894620000000001,0.678905,-0.065807,0.853853,0.487862,-0.048891,0.739153,0.722765,-0.121247,1.127073,0.495329,-0.059317,1.225883,0.731085,-0.141737,0.689883,0.971625,-0.2022169999999999,1.272973,0.940445,-0.219667,0.922983,-0.0020149999999999,0.0028489999999999,1.0770170000000001,0.0020149999999999,-0.002849,0.800453,0.0373149999999999,-0.294657,1.140163,0.0364149999999999,-0.326357,0.8543229999999999,-0.261085,-0.076007,1.127873,-0.228035,-0.085167
77,0.990083,0.678505,-0.0648245,0.854128,0.488082,-0.0482665,0.739868,0.722985,-0.1193845,1.1275979999999999,0.495549,-0.0587745,1.227378,0.731115,-0.1413845,0.690388,0.971845,-0.2000344999999999,1.274748,0.940545,-0.2186145,0.9231610000000001,-0.0020949999999999,0.0031334999999999,1.0768389999999999,0.002095,-0.0031334999999999,0.800708,0.038165,-0.2941445,1.140408,0.036885,-0.3262545,0.854198,-0.2610049999999999,-0.0759845,1.127438,-0.2275049999999999,-0.0859244999999999
78,0.990702,0.678235,-0.063964,0.854419,0.488082,-0.047596,0.740459,0.722985,-0.1187939999999999,1.128089,0.495549,-0.058114,1.228409,0.731115,-0.140514,0.690939,0.971845,-0.198414,1.276489,0.940425,-0.2174839999999999,0.923255,-0.0020949999999999,0.00319,1.076745,0.002095,-0.0031899999999999,0.800979,0.038745,-0.293394,1.140309,0.037125,-0.3259339999999999,0.854229,-0.261275,-0.0757539999999999,1.126439,-0.2271649999999999,-0.086404
79,0.9913045,0.678235,-0.0636215,0.8546525,0.488713,-0.0472945,0.7407325,0.723965,-0.1184914999999999,1.1285525,0.496213,-0.0578115,1.2299025000000001,0.731245,-0.1397215,0.6914125,0.971845,-0.1974615,1.2782025,0.940325,-0.2166515,0.9233235,-0.0020949999999999,0.0031785,1.0766765,0.002095,-0.0031785,0.8011925,0.0398549999999999,-0.2932415,1.1399625,0.0375849999999999,-0.3256914999999999,0.8545625,-0.261475,-0.0755215,1.1265925,-0.2272549999999999,-0.0881115
80,0.9918805,0.678235,-0.063646,0.8547865,0.489915,-0.047298,0.7408764999999999,0.725465,-0.1184959999999999,1.1288165000000001,0.497223,-0.057826,1.2312865,0.731645,-0.139426,0.6917765,0.972135,-0.197436,1.2796764999999999,0.940305,-0.2160659999999999,0.9234215,-0.0020949999999999,0.0031759999999999,1.0765785,0.002095,-0.003176,0.8013665,0.0410749999999999,-0.293356,1.1393965,0.037765,-0.325666,0.8547065,-0.261645,-0.0755359999999999,1.1267065,-0.2273149999999999,-0.089276
81,0.9925455000000001,0.6780050000000001,-0.063668,0.8548155,0.49122,-0.047299,0.7412255,0.727485,-0.118658,1.1289855,0.498309,-0.057698,1.2325955,0.732095,-0.139108,0.6919255,0.973205,-0.197438,1.2810455,0.940075,-0.215518,0.9234805,-0.0021649999999999,0.0031739999999999,1.0765195,0.002165,-0.003174,0.8017755,0.042255,-0.293368,1.1389655,0.0378250000000001,-0.325658,0.8547555,-0.2616549999999999,-0.075768,1.1265755,-0.2275549999999999,-0.091188
82,0.9932105,0.677575,-0.063688,0.8547755000000001,0.491811,-0.047365,0.7415255000000001,0.728785,-0.118758,1.1290855,0.498759,-0.057578,1.2335055,0.7325750000000001,-0.138688,0.6921955,0.973535,-0.197398,1.2822655,0.939565,-0.215558,0.9234805,-0.0021749999999999,0.0031739999999999,1.0765195,0.002175,-0.003174,0.8019355000000001,0.042685,-0.293368,1.1387554999999998,0.0374350000000001,-0.325648,0.8546555,-0.2620149999999999,-0.075978,1.1261255000000001,-0.2307349999999999,-0.092928
83,0.9938935000000001,0.6774549999999999,-0.064026,0.8547315,0.4921899999999999,-0.047649,0.7417715,0.7299549999999999,-0.118896,1.1291315,0.4987359999999999,-0.0577059999999999,1.2342015,0.7330549999999999,-0.137996,0.6926915,0.973855,-0.197286,1.2833515,0.938735,-0.215726,0.9234805000000001,-0.002045,0.003196,1.0765194999999999,0.0020449999999999,-0.0031959999999999,0.8019315000000001,0.0425749999999999,-0.293496,1.1386415,0.0364649999999999,-0.3240659999999999,0.8541615000000001,-0.262905,-0.075606,1.1260315,-0.234845,-0.092756
84,0.9943525,0.677745,-0.0649319999999999,0.8545965,0.49225,-0.048465,0.7416165,0.730505,-0.119582,1.1290865,0.498257,-0.058522,1.2345864999999998,0.733365,-0.137792,0.6935264999999999,0.974435,-0.197702,1.2841165,0.937455,-0.216092,0.9235835,-0.001885,0.003012,1.0764165,0.001885,-0.003012,0.8018365000000001,0.041755,-0.293882,1.1385265,0.035055,-0.322702,0.8537565,-0.263305,-0.075972,1.1257665000000001,-0.2380649999999999,-0.093402
85,0.9946315000000001,0.67842,-0.0658395,0.8545575,0.491172,-0.0494405,0.7418575000000001,0.72987,-0.1202095,1.1290875,0.496634,-0.0594995,1.2345475,0.7321200000000001,-0.1377295,0.6941474999999999,0.97451,-0.1983095,1.2843575,0.93995,-0.2167295,0.9237075,-0.00173,0.0028175,1.0762925,0.00173,-0.0028175,0.8019775,0.03918,-0.2941994999999999,1.1384975,0.03219,-0.3215095,0.8533575,-0.26486,-0.0765694999999999,1.1255074999999999,-0.2416699999999999,-0.0941595
86,0.9947360000000001,0.67914,-0.067065,0.854461,0.4891959999999999,-0.050676,0.742171,0.7281799999999999,-0.121455,1.129141,0.494152,-0.060625,1.234481,0.72995,-0.138135,0.6945410000000001,0.97396,-0.199665,1.284621,0.94071,-0.217745,0.923647,-0.00153,0.002706,1.0763530000000001,0.0015299999999999,-0.002706,0.801971,0.0350099999999999,-0.294475,1.138441,0.02788,-0.321605,0.852921,-0.2675,-0.077795,1.125711,-0.24636,-0.0967349999999999
87,0.9947195000000001,0.680125,-0.0685635,0.8546205,0.488999,-0.0514775,0.7424904999999999,0.727555,-0.1222135,1.1293705,0.492757,-0.0612235,1.2344505,0.726765,-0.1385935,0.6951505,0.972075,-0.2010835,1.2854804999999998,0.940015,-0.2185435,0.9236305,-0.001225,0.0025545,1.0763695,0.001225,-0.0025545,0.8019405,0.029735,-0.2947535,1.1384105,0.022225,-0.3222635,0.8525805000000001,-0.2722449999999999,-0.0792934999999999,1.1260705,-0.253335,-0.0998135
88,0.9946825,0.682625,-0.070799,0.8547315,0.488171,-0.0524869999999999,0.7424715,0.726735,-0.124479,1.1297115,0.491129,-0.062099,1.2343615,0.721625,-0.138579,0.6958715,0.972285,-0.203379,1.2863215000000001,0.936455,-0.220209,0.9235475,-0.000955,0.002522,1.0764525,0.000955,-0.0025219999999999,0.8018215,0.022635,-0.2950589999999999,1.1383115,0.014485,-0.323399,0.8521715,-0.280435,-0.081549,1.1263415,-0.263995,-0.103659
89,0.994603,0.68368,-0.0722485,0.8548390000000001,0.487071,-0.0525775,0.742659,0.72548,-0.1257984999999999,1.1301189999999999,0.489191,-0.0620785,1.2344789999999999,0.71468,-0.1392685,0.6966589999999999,0.97186,-0.2054185,1.2877290000000001,0.93254,-0.2215885,0.923488,-0.00069,0.0025414999999999,1.076512,0.0006899999999999,-0.0025415,0.8017190000000001,0.0104199999999999,-0.2951385,1.138949,0.0040799999999999,-0.3240985,0.8519090000000001,-0.2942599999999999,-0.0840585,1.126989,-0.27973,-0.1075685
90,0.994727,0.6848650000000001,-0.073027,0.8549780000000001,0.485869,-0.0519779999999999,0.7427980000000001,0.723745,-0.126707,1.130638,0.487798,-0.061687,1.234488,0.710615,-0.139067,0.697408,0.971115,-0.207147,1.289148,0.932555,-0.222237,0.923311,-0.0003549999999999,0.0025769999999999,1.076689,0.0003549999999999,-0.002577,0.801578,-0.003825,-0.294907,1.1401080000000001,-0.008475,-0.324387,0.851888,-0.3101049999999999,-0.085977,1.128148,-0.297745,-0.1119469999999999
91,0.99471,0.68677,-0.07267,0.855143,0.4850109999999999,-0.0504609999999999,0.742773,0.72234,-0.12648,1.131103,0.4861009999999999,-0.0603699999999999,1.233943,0.7091399999999999,-0.13818,0.697963,0.96993,-0.20782,1.2902529999999999,0.93495,-0.22228,0.923139,-0.00013,0.0026759999999999,1.076861,0.0001299999999999,-0.0026759999999999,0.801523,-0.01969,-0.2941,1.1411529999999999,-0.02284,-0.32442,0.8518129999999999,-0.32739,-0.08745,1.1303329999999998,-0.31789,-0.11512
92,0.9946765,0.6887800000000001,-0.071071,0.8551155,0.48446,-0.04808,0.7426455000000001,0.7214100000000001,-0.124931,1.1314955,0.484722,-0.058272,1.2328955,0.7075800000000001,-0.136151,0.6983455000000001,0.9686,-0.207121,1.2907355,0.93879,-0.221651,0.9230395,0.00015,0.0027159999999999,1.0769605,-0.0001499999999999,-0.002716,0.8013855,-0.0365499999999999,-0.292641,1.1415354999999998,-0.0382499999999999,-0.323461,0.8516055,-0.346,-0.088461,1.1332055,-0.34014,-0.118471
93,0.9945485,0.690555,-0.0681715,0.8549185000000001,0.484085,-0.0446274999999999,0.7424185000000001,0.720515,-0.1223314999999999,1.1318085,0.483276,-0.0551064999999999,1.2320085,0.705085,-0.1334115,0.6983685,0.965905,-0.2050114999999999,1.2911485,0.941765,-0.2199815,0.9229685,0.000375,0.0027184999999999,1.0770315,-0.0003749999999999,-0.0027184999999999,0.8012485,-0.053755,-0.2899215,1.1414885,-0.0545749999999999,-0.3218115,0.8512985,-0.366125,-0.0891315,1.1357585000000001,-0.363765,-0.1214015
94,0.9946505,0.692115,-0.064767,0.8549985,0.485305,-0.040562,0.7429285,0.7209749999999999,-0.119187,1.1323185,0.482975,-0.05157,1.2316085,0.701955,-0.129197,0.6986085,0.962155,-0.201887,1.2922685,0.939075,-0.217267,0.9231085,0.0005549999999999,0.002714,1.0768915,-0.000555,-0.002714,0.8012485,-0.070645,-0.286887,1.1415585,-0.071635,-0.319827,0.8510185,-0.386695,-0.089527,1.1361385,-0.384645,-0.122637
95,0.9946560000000001,0.6940500000000001,-0.0607995,0.855102,0.48703,-0.0362545,0.7429520000000001,0.72192,-0.1155895,1.132892,0.4839,-0.0476455,1.231522,0.69813,-0.1242295,0.698852,0.96288,-0.1983995,1.2933919999999999,0.93704,-0.2122395,0.923139,0.00078,0.0027135,1.076861,-0.00078,-0.0027135,0.801102,-0.0877,-0.2837095,1.141442,-0.0867899999999999,-0.3156795,0.850782,-0.4081199999999999,-0.0895195,1.134242,-0.406,-0.1206995
96,0.994596,0.696095,-0.055712,0.855272,0.487415,-0.031721,0.7430220000000001,0.721695,-0.1104479999999999,1.1337220000000001,0.484695,-0.043202,1.231512,0.693245,-0.1173879999999999,0.6989920000000001,0.964735,-0.194288,1.2943120000000001,0.934075,-0.206728,0.92313,0.0008549999999999,0.002963,1.07687,-0.0008549999999999,-0.002963,0.801452,-0.105955,-0.278548,1.141392,-0.1045749999999999,-0.310238,0.850652,-0.430685,-0.0890779999999999,1.134812,-0.430795,-0.119398
97,0.9947605,0.69753,-0.048499,0.8554885,0.48905,-0.025464,0.7432985000000001,0.72133,-0.1030009999999999,1.1345285,0.4843699999999999,-0.037489,1.2316585,0.69216,-0.110041,0.6992785,0.96175,-0.1861209999999999,1.2946085,0.936,-0.198271,0.9231265,0.0011599999999999,0.00313,1.0768735,-0.0011599999999999,-0.00313,0.8030085000000001,-0.1276499999999999,-0.271271,1.1413685,-0.12643,-0.301701,0.8506085,-0.45603,-0.087701,1.1350985,-0.45965,-0.1174109999999999
98,0.9952055,0.7010000000000001,-0.041126,0.8558765,0.49136,-0.019534,0.7434065000000001,0.72349,-0.094974,1.1355065,0.4843699999999999,-0.032087,1.2324864999999998,0.69859,-0.102214,0.6997264999999999,0.95713,-0.177054,1.2958465000000001,0.94054,-0.189044,0.9235045,0.0012699999999999,0.0030639999999999,1.0764955,-0.0012699999999999,-0.0030639999999999,0.8052665,-0.14638,-0.262944,1.1413464999999998,-0.14666,-0.290634,0.8506965,-0.47834,-0.085784,1.1351065,-0.48509,-0.114964
99,0.9959820000000001,0.70438,-0.0336179999999999,0.856044,0.49334,-0.0136049999999999,0.744364,0.7256799999999999,-0.0864569999999999,1.1366139999999998,0.48366,-0.026268,1.234044,0.70044,-0.0934469999999999,0.7002440000000001,0.95151,-0.167097,1.298414,0.94329,-0.179417,0.923851,0.0011499999999999,0.00293,1.076149,-0.00115,-0.0029299999999999,0.808014,-0.17024,-0.253667,1.141124,-0.17366,-0.278237,0.851004,-0.5051700000000001,-0.083047,1.135224,-0.51481,-0.112797
100,0.9966355,0.7066250000000001,-0.0255959999999999,0.8557605,0.493995,-0.0070789999999999,0.7443204999999999,0.726815,-0.0773269999999999,1.1373505,0.482295,-0.0199,1.2365005,0.698415,-0.0844169999999999,0.7002904999999999,0.945445,-0.156527,1.3005605,0.942495,-0.168897,0.9244565,0.001145,0.002778,1.0755435,-0.001145,-0.0027779999999999,0.8107005,-0.1944949999999999,-0.242607,1.1402805,-0.200505,-0.264197,0.8510805,-0.5324150000000001,-0.078567,1.1350105,-0.544225,-0.108957
101,0.9970770000000001,0.707005,-0.0144665,0.855273,0.494065,0.0029234999999999,0.743803,0.726485,-0.0651565,1.137713,0.4801649999999999,-0.0098915,1.238513,0.693015,-0.0722065,0.699913,0.944215,-0.1432965,1.302143,0.936955,-0.1536965,0.925403,0.0010249999999999,0.0025444999999999,1.074597,-0.0010249999999999,-0.0025445,0.815223,-0.221265,-0.2245665,1.137943,-0.229985,-0.2428265,0.850773,-0.562785,-0.0700465,1.134053,-0.576175,-0.0986565
102,0.9973620000000001,0.7081299999999999,-0.0036265,0.854523,0.49505,0.0126574999999999,0.7434430000000001,0.7275499999999999,-0.0532035,1.138753,0.4836399999999999,0.0001664999999999,1.239963,0.6952799999999999,-0.0599935,0.699353,0.94712,-0.1309435,1.302913,0.9362,-0.1390635,0.92631,0.0010099999999999,0.0022895,1.07369,-0.00101,-0.0022895,0.819893,-0.2486,-0.2042435,1.134563,-0.25833,-0.2170535,0.850843,-0.59256,-0.0591934999999999,1.133043,-0.6084700000000001,-0.0854935
103,0.997676,0.709435,0.006362,0.8538330000000001,0.495455,0.021237,0.743363,0.728445,-0.0423429999999999,1.1398329999999999,0.486575,0.009149,1.241383,0.698935,-0.0489629999999999,0.698843,0.951735,-0.1201029999999999,1.303853,0.936985,-0.125783,0.927206,0.0011049999999999,0.002014,1.072794,-0.001105,-0.002014,0.824753,-0.272325,-0.1845429999999999,1.131263,-0.2843449999999999,-0.191883,0.850983,-0.620445,-0.049153,1.132283,-0.639335,-0.0731129999999999
104,0.998297,0.7107045,0.0160695,0.853205,0.4963445,0.0295315,0.743295,0.7295345,-0.0321365,1.140595,0.4882845,0.0173284999999999,1.242165,0.7032045,-0.0396175,0.698295,0.9526545,-0.1097375,1.304205,0.9384545,-0.1147875,0.9279580000000001,0.0010814999999999,0.0017174999999999,1.072042,-0.0010814999999999,-0.0017174999999999,0.8307450000000001,-0.2951755,-0.1628175,1.128315,-0.3090055,-0.1660174999999999,0.8511150000000001,-0.6473055,-0.0395375,1.131425,-0.6700255,-0.0611775
105,0.9986940000000001,0.7118264999999999,0.0235795,0.852466,0.4963965,0.0357165,0.743486,0.7307565,-0.0241464999999999,1.140936,0.4886865,0.0231875,1.242896,0.7097865000000001,-0.0331054999999999,0.697506,0.9539065,-0.1005955,1.304856,0.9425065,-0.1052855,0.92854,0.0010425,0.0012085,1.07146,-0.0010425,-0.0012084999999999,0.836646,-0.3135535,-0.1424254999999999,1.125346,-0.3285135,-0.1417554999999999,0.851166,-0.6692635,-0.0312755,1.128136,-0.6949535,-0.0482854999999999
106,0.998751,0.7118855,0.028584,0.851739,0.4959655,0.03973,0.743539,0.7324755,-0.0190339999999999,1.141209,0.4906455,0.027505,1.244039,0.7143555,-0.0286,0.6966590000000001,0.9581155,-0.095442,1.3052190000000001,0.9447155,-0.098922,0.929146,0.0007925,0.0008299999999999,1.070854,-0.0007925,-0.0008299999999999,0.842489,-0.3249045,-0.1236819999999999,1.1223589999999999,-0.3417745,-0.119652,0.851349,-0.6846345,-0.0237229999999999,1.125139,-0.7129245,-0.0374619999999999
107,0.9988125000000001,0.711359,0.032406,0.8511385000000001,0.495029,0.043029,0.7436285,0.732019,-0.014907,1.1415285,0.492979,0.031299,1.2443785,0.7143189999999999,-0.0249019999999999,0.6960585,0.964559,-0.091539,1.3049884999999999,0.947269,-0.092939,0.9295695,0.0006739999999999,0.000639,1.0704305,-0.000674,-0.000639,0.8482485000000001,-0.3340909999999999,-0.105789,1.1202885,-0.350721,-0.099659,0.8517385,-0.6979010000000001,-0.017296,1.1235785,-0.725781,-0.029389
108,0.998804,0.7109854999999999,0.0360625,0.850455,0.4947855,0.0463465,0.743455,0.7322555,-0.0111175,1.141855,0.4953755,0.0348845,1.244085,0.7150255,-0.0217824999999999,0.695485,0.9725855,-0.0880265,1.304535,0.9482555,-0.0877265,0.92996,0.0006884999999999,0.0005924999999999,1.07004,-0.0006884999999999,-0.0005925,0.854075,-0.3439345,-0.0864165,1.118395,-0.3622045,-0.0796165,0.852235,-0.7113645000000001,-0.0111274999999999,1.122425,-0.7416645000000001,-0.0219305
109,0.998563,0.7109575,0.039331,0.849683,0.4955075,0.049432,0.742983,0.7332275,-0.0077219999999999,1.142043,0.4987574999999999,0.038257,1.2435329999999998,0.7167975,-0.0186799999999999,0.694653,0.9813975,-0.084761,1.303853,0.9505475,-0.0828509999999999,0.929833,0.0007024999999999,0.000533,1.070167,-0.0007025,-0.0005329999999999,0.859343,-0.3541925,-0.067491,1.1171829999999998,-0.3705325,-0.0604809999999999,0.852673,-0.7240025,-0.0060229999999999,1.121483,-0.7530125,-0.0158289999999999
110,0.9987565,0.712407,0.0420625,0.8494325,0.496687,0.0519785,0.7431025,0.734757,-0.0049344999999999,1.1426625,0.502707,0.0410745,1.2433224999999999,0.722097,-0.0163824999999999,0.6943425000000001,0.984877,-0.0818605,1.3033925,0.956327,-0.0794604999999999,0.9295975,0.0007239999999999,0.0005404999999999,1.0704025,-0.000724,-0.0005404999999999,0.8631725,-0.360383,-0.0518804999999999,1.1170825,-0.375623,-0.0434404999999999,0.8536525,-0.732193,-0.0010594999999999,1.1213024999999999,-0.761193,-0.0109925
111,0.999004,0.7128895,0.0443195,0.849278,0.4968895,0.0542985,0.743188,0.7348995,-0.0024014999999999,1.142728,0.5013495,0.0431325,1.2433379999999998,0.7208495,-0.0140214999999999,0.694168,0.9848895,-0.0789675,1.303038,0.9585595,-0.0763974999999999,0.929536,0.0006975,0.0005425,1.070464,-0.0006975,-0.0005424999999999,0.8669979999999999,-0.3649205,-0.0393674999999999,1.117058,-0.3799105,-0.0320974999999999,0.854088,-0.7364805,0.0013525,1.121248,-0.7654805,-0.0093584999999999
112,0.9992595,0.713082,0.0463485,0.8490685,0.497072,0.0565205,0.7432385,0.735062,1.15000000000115e-05,1.1427584999999998,0.5004620000000001,0.0452595,1.2434085,0.720012,-0.0120704999999999,0.6938885,0.985232,-0.0761324999999999,1.3028785,0.961282,-0.0741925,0.9293765,0.000623,0.0005475,1.0706235,-0.000623,-0.0005474999999999,0.8701785,-0.370378,-0.0267794999999999,1.1166885,-0.386248,-0.0207124999999999,0.8541485,-0.7403379999999999,0.0040135,1.1209485,-0.772438,-0.0076964999999999
113,0.9990680000000001,0.7129234999999999,0.0446205,0.8487080000000001,0.4970734999999999,0.0552785,0.743008,0.7352934999999999,-0.0009274999999999,1.142638,0.5004035,0.0443245,1.243318,0.7199935,-0.0131425,0.693388,0.9854535,-0.0769515,1.302788,0.9644335,-0.0757015,0.929101,0.0005815,0.0005305,1.070899,-0.0005815,-0.0005305,0.871748,-0.3742665,-0.0198205,1.116158,-0.3886265,-0.0167095,0.854048,-0.7427165,0.0035705,1.120758,-0.7748165,-0.0090874999999999
114,0.9989990000000001,0.712527,0.0428665,0.8485940000000001,0.497387,0.0543865,0.742954,0.735457,-0.0021634999999999,1.142484,0.500697,0.0435645,1.243104,0.7195969999999999,-0.0144924999999999,0.6927639999999999,0.985457,-0.0779965,1.302494,0.967367,-0.0780065,0.9290840000000001,0.0005949999999999,0.0005544999999999,1.070916,-0.000595,-0.0005544999999999,0.8727739999999999,-0.374923,-0.0142684999999999,1.115934,-0.387903,-0.0131444999999999,0.8540640000000002,-0.743403,0.0032584999999999,1.120774,-0.776483,-0.0103294999999999
115,0.9989485000000001,0.712148,0.0413025,0.8485705,0.497478,0.0538075,0.7429205,0.734908,-0.0030725,1.1423705,0.500538,0.0428525,1.2429005,0.7187180000000001,-0.0160145,0.6923305,0.984778,-0.0787565,1.3021705,0.969398,-0.0802765,0.9290865000000001,0.000628,0.0006374999999999,1.0709134999999999,-0.0006279999999999,-0.0006374999999999,0.8729205000000001,-0.376572,-0.0098835,1.1154805,-0.387602,-0.0106404999999999,0.8540605,-0.743452,0.0033475,1.1207405,-0.778092,-0.0112764999999999
116,0.9988670000000001,0.7116655,0.0398199999999999,0.848383,0.4976055,0.0538779999999999,0.742823,0.7343455,-0.003321,1.142273,0.4998355,0.0418079999999999,1.242783,0.7177755,-0.017642,0.691533,0.9841455,-0.079078,1.301773,0.9685055,-0.081898,0.929038,0.0007314999999999,0.0008499999999999,1.070962,-0.0007314999999999,-0.00085,0.873083,-0.3772445,-0.006564,1.115203,-0.3871645,-0.008458,0.854123,-0.7432645,0.0035869999999999,1.1207729999999998,-0.7790645,-0.01189
117,0.998657,0.7111805,0.0392654999999999,0.848109,0.4975405,0.0545994999999999,0.7422690000000001,0.7338505,-0.0027915,1.142299,0.4990205,0.0412454999999999,1.242769,0.7167105,-0.0182025,0.689829,0.9837805,-0.0789045,1.301759,0.9674405,-0.0824545,0.928878,0.0007964999999999,0.0012654999999999,1.071122,-0.0007964999999999,-0.0012655,0.873299,-0.3771195,-0.0051275,1.115009,-0.3866795,-0.0069125,0.854319,-0.7426794999999999,0.0041624999999999,1.120959,-0.7786695,-0.0116305
118,0.9984945000000001,0.7108975,0.0392254999999999,0.8479495,0.4979775,0.0553185,0.7415395,0.7338374999999999,-0.0021105,1.1427095,0.4984475,0.0411875,1.2428995,0.7161375,-0.0182525,0.6876695000000002,0.9832075,-0.0783435,1.3012595,0.9668675,-0.0829535,0.9287945,0.0007565,0.0013135,1.0712055,-0.0007565,-0.0013134999999999,0.8738895,-0.3782425,-0.0051334999999999,1.1156295,-0.3859825,-0.0060915,0.8552195,-0.7415425,0.0047405,1.1217895,-0.7770925000000001,-0.0107804999999999
119,0.998393,0.71092,0.039229,0.8478740000000001,0.49899,0.055756,0.740794,0.7338199999999999,-0.001464,1.143324,0.49843,0.0411679999999999,1.2431439999999998,0.71612,-0.0187449999999999,0.685494,0.98319,-0.077723,1.300964,0.96685,-0.085823,0.928817,0.000739,0.001313,1.071183,-0.000739,-0.0013129999999999,0.874634,-0.37949,-0.0051569999999999,1.117104,-0.3856199999999999,-0.006139,0.857004,-0.7398100000000001,0.004947,1.1235339999999998,-0.7749400000000001,-0.010379
120,0.998384,0.71092,0.0384609999999999,0.848009,0.4992,0.0557509999999999,0.740299,0.73358,-0.001143,1.144189,0.49843,0.040962,1.245199,0.7159599999999999,-0.02054,0.683539,0.98269,-0.076963,1.300499,0.96641,-0.089833,0.928952,0.000739,0.0013089999999999,1.071048,-0.000739,-0.001309,0.875529,-0.381,-0.005186,1.119349,-0.3856199999999999,-0.006212,0.859489,-0.7398100000000001,0.0048669999999999,1.126739,-0.77483,-0.010482
121,0.9986695000000001,0.71092,0.037187,0.8484805,0.49929,0.05616,0.7384204999999999,0.73324,-0.0002819999999999,1.1458805,0.49799,0.0398219999999999,1.2499005,0.7151099999999999,-0.02407,0.6811404999999999,0.98079,-0.075763,1.3003305,0.96538,-0.096003,0.9290565000000001,0.000739,0.00173,1.0709434999999998,-0.000739,-0.00173,0.8771305000000001,-0.38332,-0.004813,1.1227304999999999,-0.3856199999999999,-0.005896,0.8637705,-0.7398100000000001,0.0051539999999999,1.1319405,-0.77483,-0.010225
122,0.998978,0.7108565,0.036135,0.849989,0.4993165,0.057495,0.735799,0.7319365,0.0015959999999999,1.148329,0.4969464999999999,0.038921,1.255589,0.7130965,-0.02823,0.679019,0.9727365,-0.07367,1.300349,0.9635165,-0.10218,0.92911,0.0007125,0.0020939999999999,1.07089,-0.0007124999999999,-0.0020939999999999,0.879379,-0.3859535,-0.004754,1.125539,-0.3884035,-0.005901,0.8691590000000001,-0.7379435,0.0066959999999999,1.137619,-0.7780735,-0.009024
123,1.000215,0.7116429999999999,0.0352219999999999,0.8502970000000001,0.5009429999999999,0.0596219999999999,0.731077,0.726663,0.0050289999999999,1.150797,0.494913,0.0363349999999999,1.264767,0.7056929999999999,-0.034041,0.679737,0.965753,-0.070291,1.301647,0.952623,-0.108551,0.929284,0.0006819999999999,0.0024789999999999,1.070716,-0.000682,-0.002479,0.8840470000000001,-0.388517,-0.004275,1.1289069999999999,-0.387977,-0.007724,0.8783870000000001,-0.735647,0.0099419999999999,1.1469070000000001,-0.776417,-0.009244
124,1.0009,0.7124925,0.033971,0.850658,0.5028125,0.061863,0.7251080000000001,0.7190225,0.008532,1.153558,0.4930424999999999,0.03379,1.272688,0.6964224999999999,-0.040354,0.6787580000000001,0.9543225,-0.0669439999999999,1.302428,0.9395425,-0.114914,0.929554,0.0006875,0.0029,1.070446,-0.0006875,-0.0029,0.8887880000000001,-0.3908575,-0.0044489999999999,1.132128,-0.3903975,-0.0099999999999999,0.889088,-0.7323475,0.013354,1.156618,-0.7744175,-0.0097949999999999
125,1.0013515,0.7137764999999999,0.0322945,0.8511355,0.5047965,0.0640005,0.7180955,0.7080265,0.0128414999999999,1.1565855,0.4907665,0.0309964999999999,1.2817755,0.6811165,-0.0417624999999999,0.6774955,0.9370165,-0.0630024999999999,1.3032355,0.9188765,-0.1221125,0.9298355000000001,0.0006825,0.0033574999999999,1.0701645,-0.0006824999999999,-0.0033574999999999,0.8937955000000001,-0.3929134999999999,-0.0046355,1.1345795,-0.3880234999999999,-0.0140205,0.9002455,-0.7287535,0.0165835,1.1671155,-0.7713835,-0.0140165
126,1.001603,0.7153875,0.0300474999999999,0.851402,0.5064074999999999,0.0661195,0.710622,0.6949875,0.0173544999999999,1.159162,0.4882375,0.0283254999999999,1.291912,0.6618974999999999,-0.0399635,0.6766019999999999,0.9165975,-0.0587335,1.302492,0.8953975,-0.1300435,0.930142,0.0005384999999999,0.0038964999999999,1.069858,-0.0005385,-0.0038965,0.899172,-0.3944125,-0.0047955,1.135556,-0.3849625,-0.0200205,0.911632,-0.7245525,0.0197844999999999,1.175722,-0.7699425000000001,-0.0175065
127,1.0022205,0.718214,0.026628,0.8528025,0.506574,0.069036,0.7022525,0.668934,0.024702,1.1629855,0.484834,0.026165,1.3056725,0.627614,-0.035803,0.6782725000000001,0.881774,-0.054953,1.3024025,0.850554,-0.139033,0.9304325,0.0002889999999999,0.0045609999999999,1.0695675,-0.000289,-0.0045609999999999,0.9076925000000001,-0.394896,-0.003029,1.1334195,-0.380506,-0.032973,0.9275725,-0.717636,0.0252249999999999,1.1763625,-0.7647160000000001,-0.0221429999999999
128,1.0021784999999999,0.7203324999999999,0.0225194999999999,0.8549935000000001,0.5052225,0.0717925,0.6958934999999999,0.6294624999999999,0.0331525,1.1663425,0.4811725,0.0236935,1.3112135,0.5784225,-0.0312204999999999,0.6813435,0.8289525,-0.0549604999999999,1.3037935,0.7761024999999999,-0.1462005,0.9304235,-0.0001154999999999,0.0053655,1.0695765,0.0001155,-0.0053654999999999,0.9164435,-0.3955475,-0.0001044999999999,1.1213235,-0.3770274999999999,-0.0558305,0.9453935,-0.7107575,0.0303945,1.1634455,-0.7612475000000001,-0.0395105
129,1.001525,0.7221625,0.018526,0.857185,0.5032625000000001,0.074958,0.691525,0.5867425000000001,0.043392,1.168575,0.4766325,0.0208909999999999,1.311945,0.5292425000000001,-0.024683,0.684245,0.7710425000000001,-0.0569129999999999,1.303215,0.6942125,-0.147053,0.930275,-0.0005894999999999,0.0058329999999999,1.069725,0.0005895,-0.005833,0.925315,-0.3965875,-0.004103,1.107761,-0.3734175,-0.078813,0.9630650000000001,-0.7043874999999999,0.028657,1.144048,-0.7559374999999999,-0.0588029999999999
130,1.0000545,0.723723,0.01496,0.8588245000000001,0.500123,0.078234,0.6919945000000001,0.540483,0.05318,1.1695834999999999,0.472123,0.018541,1.3100345,0.480143,-0.0189749999999999,0.6883745,0.709963,-0.0612149999999999,1.3021144999999998,0.605873,-0.142295,0.9302945,-0.001092,0.0065349999999999,1.0697055,0.0010919999999999,-0.0065349999999999,0.9335945,-0.397127,-0.007485,1.0906505,-0.370257,-0.1018949999999999,0.9789945,-0.698857,0.026559,1.1191245,-0.7510469999999999,-0.078125
131,0.9985235000000001,0.7249,0.0112299999999999,0.8599035000000002,0.49576,0.081703,0.6916435000000001,0.49375,0.0638469999999999,1.1702664999999999,0.46775,0.01575,1.3065335,0.42844,-0.01373,0.6930735,0.64911,-0.06505,1.3009035,0.50903,-0.13538,0.9306435000000001,-0.001756,0.0077199999999999,1.0693565,0.001756,-0.00772,0.9416835000000001,-0.39269,-0.0110399999999999,1.0742035,-0.36529,-0.12435,0.9947835000000002,-0.69374,0.0241279999999999,1.0927135,-0.74452,-0.09811
132,0.9962300000000001,0.7253205,0.0070899999999999,0.86273,0.4902304999999999,0.084727,0.6947,0.4489205,0.074166,1.1713149999999999,0.4644705,0.01406,1.30045,0.3823605,-0.0079299999999999,0.6961999999999999,0.5841205,-0.07006,1.29732,0.4216804999999999,-0.12696,0.9307700000000001,-0.0025044999999999,0.0088999999999999,1.06923,0.0025044999999999,-0.0088999999999999,0.94818,-0.3877795,-0.01671,1.05679,-0.3606295,-0.14541,1.0073699999999999,-0.6904195,0.0190999999999999,1.06395,-0.7390994999999999,-0.11739
133,0.9941900000000001,0.7259009999999999,0.0031999999999999,0.86572,0.484451,0.087485,0.70002,0.406551,0.083018,1.171378,0.461111,0.0117099999999999,1.29302,0.338611,0.0002999999999999,0.70121,0.520691,-0.07537,1.29345,0.335191,-0.11662,0.93076,-0.0034079999999999,0.0101099999999999,1.06924,0.0034079999999999,-0.01011,0.9552,-0.3825989999999999,-0.02197,1.0393,-0.3554489999999999,-0.16523,1.01988,-0.687119,0.01432,1.03442,-0.733139,-0.13547
134,0.991385,0.7258815000000001,-0.00029,0.867725,0.4774915,0.090628,0.708495,0.3658415,0.094958,1.170405,0.4573315,0.00916,1.283699,0.2994915,0.0123099999999999,0.706995,0.4591215,-0.07871,1.288828,0.2523515,-0.1022899999999999,0.9305750000000002,-0.0040274999999999,0.01124,1.0694249999999998,0.0040275,-0.01124,0.962185,-0.3780185,-0.04368,1.0204749999999998,-0.3503385,-0.18256,1.004035,-0.6855785000000001,-0.0236,1.0105549999999999,-0.7279685,-0.1470699999999999
135,0.9885750000000001,0.7258129999999999,-0.0031899999999999,0.869585,0.471143,0.093437,0.719075,0.326703,0.10635,1.171371,0.453913,0.00876,1.27097,0.263973,0.02624,0.711355,0.397753,-0.08581,1.285755,0.170863,-0.0877799999999999,0.930055,-0.0044949999999999,0.0118199999999999,1.069945,0.0044949999999999,-0.0118199999999999,0.9685350000000001,-0.374207,-0.06527,1.0028549999999998,-0.3442969999999999,-0.19754,0.9887950000000001,-0.6794570000000001,-0.0593199999999999,0.981785,-0.7221770000000001,-0.1588999999999999
136,0.9858100000000001,0.7243335,-0.0045899999999999,0.87043,0.4665435,0.0951,0.72974,0.2996835,0.113475,1.168719,0.4510834999999999,0.00464,1.256921,0.2440635,0.03829,0.71505,0.3499035,-0.09114,1.283139,0.1110605,-0.07626,0.93018,-0.0050515,0.01316,1.06982,0.0050515,-0.0131599999999999,0.97212,-0.3728365,-0.0880699999999999,0.9885200000000001,-0.3403665,-0.2057,0.96908,-0.6778865000000001,-0.0963799999999999,0.9640400000000001,-0.7174265,-0.1701499999999999
137,0.98398,0.723923,-0.0054149999999999,0.87078,0.463903,0.096495,0.7409400000000002,0.285753,0.119031,1.167699,0.449193,0.001985,1.2502769999999999,0.239383,0.047775,0.71765,0.319233,-0.0941949999999999,1.279905,0.081904,-0.0640149999999999,0.92992,-0.005261,0.013895,1.07008,0.005261,-0.0138949999999999,0.97616,-0.371317,-0.1105149999999999,0.9843100000000001,-0.336157,-0.2038049999999999,0.9485500000000001,-0.679617,-0.1313249999999999,0.95947,-0.711747,-0.166995
138,0.9829,0.723986,-0.006085,0.8708899999999999,0.462196,0.0967349999999999,0.7513000000000001,0.275386,0.123375,1.16729,0.448916,-0.000975,1.248548,0.235516,0.056285,0.72126,0.2927559999999999,-0.094375,1.27915,0.061045,-0.050815,0.9299700000000001,-0.005324,0.0148149999999999,1.07003,0.005324,-0.0148149999999999,0.98112,-0.371354,-0.124625,0.98038,-0.333204,-0.202655,0.92944,-0.681444,-0.156795,0.95525,-0.707874,-0.160805
139,0.9822450000000001,0.723986,-0.00712,0.8714950000000001,0.4620559999999999,0.09693,0.761575,0.268916,0.12426,1.167935,0.448916,-0.0029,1.247703,0.234256,0.06299,0.724855,0.270096,-0.0931299999999999,1.279282,0.049745,-0.0325499999999999,0.9302450000000001,-0.005324,0.01603,1.069755,0.005324,-0.0160299999999999,0.987195,-0.369774,-0.1375299999999999,0.978935,-0.329554,-0.2007999999999999,0.912435,-0.684994,-0.1798699999999999,0.9568050000000001,-0.708134,-0.15369
140,0.9817000000000001,0.7239225,-0.00825,0.87121,0.4619925,0.0957099999999999,0.7741600000000001,0.2641325,0.12583,1.16895,0.4488525,-0.0044299999999999,1.248455,0.2341925,0.06341,0.72855,0.2525825,-0.092,1.279784,0.0487045,-0.0126,0.9298300000000002,-0.0054714999999999,0.0161999999999999,1.07017,0.0054714999999999,-0.0161999999999999,0.9925500000000002,-0.3697075,-0.15064,0.97674,-0.3282975,-0.19399,0.89575,-0.6884975,-0.20122,0.96064,-0.7077275,-0.13976
141,0.9808000000000001,0.7244825,-0.0094549999999999,0.87092,0.4618224999999999,0.094965,0.786,0.2614125,0.127155,1.16843,0.4490125,-0.006245,1.248823,0.2343525,0.062195,0.73168,0.2377425,-0.091075,1.2813430000000001,0.0488645,0.002225,0.9299100000000001,-0.0059984999999999,0.016465,1.07009,0.0059984999999999,-0.016465,0.99554,-0.3694075,-0.161825,0.9764,-0.3313975,-0.1893349999999999,0.8803300000000001,-0.6912775,-0.2186049999999999,0.96569,-0.7102974999999999,-0.1271149999999999
142,0.97954,0.7254485,-0.0108099999999999,0.87053,0.4614585,0.0939899999999999,0.79609,0.2582385,0.1287799999999999,1.1687999999999998,0.4496585,-0.00689,1.25075,0.2339885,0.0600799999999999,0.73596,0.2235285,-0.08889,1.284007,0.0485005,0.01322,0.93049,-0.0064584999999999,0.0171999999999999,1.06951,0.0064585,-0.0171999999999999,1.0002499999999999,-0.3696415,-0.16908,0.97871,-0.3329915,-0.18128,0.86715,-0.6957715,-0.23209,0.97271,-0.7088015,-0.11182
143,0.9787350000000001,0.726615,-0.0125349999999999,0.870665,0.4613049999999999,0.092355,0.803525,0.2561449999999999,0.127165,1.169845,0.4507449999999999,-0.007085,1.252785,0.237005,0.055815,0.7411050000000001,0.213135,-0.088175,1.287445,0.0480089999999999,0.0224449999999999,0.931095,-0.006607,0.0180049999999999,1.068905,0.0066069999999999,-0.0180049999999999,1.0020749999999998,-0.3700449999999999,-0.1588849999999999,0.9782250000000001,-0.334665,-0.172165,0.8823050000000001,-0.700665,-0.211465,0.9745850000000001,-0.708585,-0.100065
144,0.97749,0.7277475,-0.0142999999999999,0.87077,0.4615574999999999,0.09069,0.80817,0.2547475,0.12162,1.1688399999999999,0.4521475,-0.00916,1.25516,0.2402775,0.05261,0.74637,0.2043375,-0.08764,1.28992,0.0473395,0.01779,0.93194,-0.0067065,0.0190899999999999,1.06806,0.0067065,-0.0190899999999999,1.0050299999999999,-0.3674125,-0.1471999999999999,0.9851,-0.3372325,-0.16211,0.8969500000000001,-0.7066225,-0.1915199999999999,0.97745,-0.7072825,-0.0910399999999999
145,0.9752250000000001,0.728388,-0.016525,0.870505,0.461718,0.089175,0.813735,0.252658,0.1182849999999999,1.1696550000000001,0.453888,-0.008095,1.256585,0.242848,0.049285,0.749025,0.195668,-0.0877649999999999,1.2913949999999998,0.04899,0.007755,0.932125,-0.0067769999999999,0.019465,1.067875,0.006777,-0.019465,1.005325,-0.365192,-0.1346349999999999,0.993355,-0.340652,-0.150555,0.9111350000000001,-0.708712,-0.171585,0.978745,-0.706722,-0.0821649999999999
146,0.971705,0.7291245000000001,-0.01911,0.869255,0.4629645,0.08675,0.817905,0.2515445,0.1154,1.168815,0.4569245,-0.00805,1.257345,0.2481745,0.0460599999999999,0.752205,0.1875444999999999,-0.08598,1.291335,0.0556534999999999,-0.00639,0.932955,-0.0071354999999999,0.0203099999999999,1.0670449999999998,0.0071354999999999,-0.0203099999999999,1.0006849999999998,-0.3669155,-0.12264,1.0015049999999999,-0.3459255,-0.1391499999999999,0.924015,-0.7102354999999999,-0.15265,0.980165,-0.7065754999999999,-0.07449
147,0.9663,0.7287965,-0.0226299999999999,0.8674100000000001,0.4635565,0.08309,0.82042,0.2506365,0.11213,1.1674399999999998,0.4603465,-0.00706,1.25707,0.2542264999999999,0.0433999999999999,0.75522,0.1799665,-0.08422,1.2900399999999999,0.0635115,-0.02454,0.93321,-0.0071434999999999,0.0207499999999999,1.06679,0.0071435,-0.0207499999999999,0.98696,-0.3671435,-0.1147499999999999,1.01172,-0.3508835,-0.12722,0.9368600000000001,-0.7112035000000001,-0.1330199999999999,0.98921,-0.7063335000000001,-0.06568
148,0.95981,0.7283305,-0.0257299999999999,0.86444,0.4635005,0.07904,0.82098,0.2506205,0.10941,1.1645599999999998,0.4643604999999999,-0.0060799999999999,1.2558799999999999,0.2603005,0.04214,0.7545800000000001,0.1736705,-0.0853799999999999,1.2882099999999999,0.0717605,-0.04084,0.93309,-0.0069224999999999,0.02037,1.0669099999999998,0.0069225,-0.02037,0.9717200000000001,-0.3670695,-0.1077699999999999,1.0224499999999999,-0.3561094999999999,-0.1151,0.93011,-0.7099595,-0.1197799999999999,0.99692,-0.7066695,-0.0555899999999999
149,0.95313,0.7274365,-0.027985,0.86146,0.4626865,0.0760749999999999,0.8187900000000001,0.2505165,0.1046749999999999,1.1604999999999999,0.4678365,-0.004495,1.2537699999999998,0.2667365,0.0417949999999999,0.7530399999999999,0.1676565,-0.086775,1.28615,0.0793915,-0.052065,0.93326,-0.0067215,0.0203849999999999,1.0667399999999998,0.0067215,-0.0203849999999999,0.9563800000000001,-0.3668335,-0.100125,1.0336999999999998,-0.3610435,-0.101765,0.92194,-0.7089035,-0.108625,1.00362,-0.7069734999999999,-0.040825
150,0.9452800000000001,0.7260875,-0.030115,0.85698,0.4614675,0.072025,0.8144899999999999,0.2506775,0.098315,1.1565699999999999,0.4713275,-0.0013549999999999,1.25027,0.2728475,0.0433149999999999,0.7500100000000001,0.1631375,-0.0902349999999999,1.2841399999999998,0.0864405,-0.0587649999999999,0.93285,-0.0065614999999999,0.019795,1.0671499999999998,0.0065615,-0.019795,0.9428900000000001,-0.3684525,-0.0920949999999999,1.04467,-0.3659225,-0.0882349999999999,0.91277,-0.7110725,-0.098025,1.00956,-0.7093825,-0.0295649999999999
151,0.9373950000000001,0.724867,-0.03214,0.8518950000000001,0.460277,0.0679299999999999,0.8080050000000001,0.251297,0.0918299999999999,1.152815,0.474137,0.0022499999999999,1.246065,0.277037,0.04635,0.7458750000000001,0.160617,-0.09414,1.281485,0.090953,-0.05927,0.931975,-0.0063889999999999,0.01844,1.068025,0.006389,-0.01844,0.927075,-0.3700029999999999,-0.0879499999999999,1.053515,-0.3703229999999999,-0.07793,0.901545,-0.712403,-0.09037,1.013425,-0.711303,-0.02112
152,0.92927,0.723679,-0.03427,0.8466499999999999,0.459119,0.06334,0.80051,0.252199,0.08412,1.1466399999999999,0.476929,0.00436,1.24173,0.279909,0.05058,0.73878,0.157589,-0.10124,1.27734,0.094329,-0.0568999999999999,0.93122,-0.0062599999999999,0.0169599999999999,1.0687799999999998,0.00626,-0.0169599999999999,0.91433,-0.371191,-0.08479,1.06128,-0.372711,-0.0682899999999999,0.88931,-0.7118410000000001,-0.08331,1.0205199999999999,-0.7125910000000001,-0.0129599999999999
153,0.9213000000000001,0.7221139999999999,-0.03676,0.84123,0.457814,0.0583599999999999,0.7947299999999999,0.252274,0.08,1.14068,0.479264,0.00629,1.2368199999999998,0.281604,0.05476,0.7333099999999999,0.154164,-0.10589,1.27386,0.095498,-0.05071,0.93055,-0.0061189999999999,0.0154999999999999,1.0694499999999998,0.0061189999999999,-0.0154999999999999,0.90084,-0.368926,-0.08313,1.06799,-0.374016,-0.0584299999999999,0.87705,-0.7111660000000001,-0.0769999999999999,1.0271199999999998,-0.713856,0.00068
154,0.913425,0.719934,-0.03965,0.835665,0.456204,0.0527799999999999,0.786925,0.252004,0.0733499999999999,1.1343649999999998,0.481454,0.0080099999999999,1.231275,0.282854,0.0591399999999999,0.7296649999999999,0.1508739999999999,-0.1101700000000001,1.2701749999999998,0.095773,-0.04221,0.929885,-0.005919,0.0137399999999999,1.070115,0.0059189999999999,-0.01374,0.8896949999999999,-0.365906,-0.08251,1.074525,-0.375196,-0.0505900000000001,0.8649349999999999,-0.709106,-0.07144,1.035135,-0.715066,0.0148499999999999
155,0.906005,0.717547,-0.04229,0.830395,0.454527,0.0475999999999999,0.7791149999999999,0.251857,0.0657999999999999,1.1281649999999999,0.483357,0.00988,1.2256649999999998,0.282997,0.06472,0.7255649999999999,0.147647,-0.11542,1.2671249999999998,0.094621,-0.0299099999999999,0.9292050000000001,-0.005752,0.0118199999999999,1.070795,0.0057519999999999,-0.01182,0.882505,-0.361803,-0.08193,1.0862349999999998,-0.376443,-0.04375,0.852555,-0.706463,-0.06623,1.0426749999999998,-0.716333,0.02842
156,0.8998650000000001,0.7152185,-0.044675,0.825295,0.4532885,0.043555,0.772805,0.2515785,0.0589349999999999,1.123225,0.4846884999999999,0.012005,1.220005,0.2824784999999999,0.070025,0.7203550000000001,0.1456785,-0.1221649999999999,1.2643550000000001,0.0936225,-0.017695,0.928865,-0.0060055,0.0102349999999999,1.071135,0.0060054999999999,-0.0102349999999999,0.883095,-0.3605415,-0.078315,1.093505,-0.3742415,-0.036625,0.838785,-0.7029115,-0.0639149999999999,1.048335,-0.7171615,0.039215
157,0.8943450000000001,0.7130485,-0.04769,0.8206250000000002,0.4519485,0.0392299999999999,0.7677350000000001,0.2513985,0.0530299999999999,1.117565,0.4861085,0.0122999999999999,1.214405,0.2815685,0.0746,0.718125,0.1423384999999999,-0.12616,1.261415,0.0927125,-0.00766,0.928565,-0.0061884999999999,0.0088299999999998,1.071435,0.0061885,-0.00883,0.8840850000000001,-0.3594414999999999,-0.07496,1.100005,-0.3710914999999999,-0.0309,0.8426850000000001,-0.7035315,-0.05742,1.054925,-0.7179814999999999,0.0478399999999999
158,0.888595,0.7109544999999999,-0.0516299999999999,0.8163149999999999,0.4506145,0.03443,0.7633549999999999,0.2511545,0.0470599999999999,1.112115,0.4875745,0.0119299999999999,1.2092649999999998,0.2806745,0.07905,0.716065,0.1384545,-0.1303099999999999,1.258375,0.0918185,0.00106,0.928325,-0.0063574999999999,0.00752,1.071675,0.0063575,-0.0075199999999999,0.885505,-0.3585255,-0.0718599999999999,1.1060349999999999,-0.3681955,-0.0258999999999999,0.847425,-0.7042555,-0.0501199999999999,1.0610249999999999,-0.7187655000000001,0.0551099999999999
159,0.8838650000000002,0.7096439999999999,-0.0559349999999999,0.8125450000000001,0.450014,0.0295349999999999,0.7591650000000001,0.250504,0.041085,1.107405,0.488854,0.0108449999999999,1.204795,0.280414,0.0823549999999999,0.7154950000000001,0.135264,-0.132565,1.255405,0.091361,0.0123149999999999,0.9283250000000001,-0.006579,0.0066249999999999,1.071675,0.006579,-0.0066249999999999,0.8869950000000001,-0.358186,-0.069365,1.107895,-0.365666,-0.0215549999999999,0.8520050000000002,-0.704516,-0.044235,1.064725,-0.7190960000000001,0.0606649999999999
160,0.879825,0.7083365,-0.0602449999999999,0.809115,0.4493565,0.0248749999999999,0.755865,0.2501165,0.0363749999999999,1.1022249999999998,0.4901265,0.0087549999999999,1.2005849999999998,0.2801165,0.0852049999999999,0.715015,0.1319565,-0.135345,1.2529249999999998,0.0900835,0.021695,0.928345,-0.0067375,0.0058949999999999,1.0716549999999998,0.0067374999999999,-0.0058949999999999,0.888835,-0.3578835,-0.067015,1.109805,-0.3634535,-0.017575,0.856375,-0.7048135,-0.039105,1.068325,-0.7194535,0.065465
161,0.8764850000000001,0.7070925,-0.06405,0.806025,0.4489625,0.02088,0.7525550000000001,0.2498725,0.0322999999999999,1.099395,0.4910325,0.0082299999999999,1.196715,0.2793225,0.08801,0.716635,0.1285125,-0.1362299999999999,1.251905,0.0887345,0.0279399999999999,0.928365,-0.0069444999999999,0.00522,1.0716350000000001,0.0069445,-0.00522,0.890665,-0.3574974999999999,-0.0647499999999999,1.111635,-0.3616074999999999,-0.0139,0.8608550000000001,-0.7054475,-0.03451,1.071875,-0.7198475,0.0698699999999999
162,0.87372,0.7054134999999999,-0.06737,0.8034100000000001,0.4481335,0.0175899999999999,0.7503000000000001,0.2489434999999999,0.0279599999999999,1.09673,0.4917935,0.0074999999999999,1.19346,0.2783735,0.0905,0.71825,0.1243635,-0.13256,1.25076,0.0882435,0.0322799999999999,0.9283700000000001,-0.0070735,0.0046699999999999,1.07163,0.0070735,-0.0046699999999999,0.8924200000000001,-0.3571665,-0.06284,1.11335,-0.3605365,-0.01082,0.8650000000000001,-0.7055765,-0.03064,1.07524,-0.7200965,0.0734399999999999
163,0.8719149999999999,0.7039274999999999,-0.070145,0.8011249999999999,0.4473975,0.014875,0.750605,0.2484375,0.026595,1.0949749999999998,0.4923675,0.007215,1.190745,0.2775375,0.092785,0.7207749999999999,0.1203175,-0.1282649999999999,1.249515,0.0877785,0.036695,0.928375,-0.0071195,0.004155,1.0716249999999998,0.0071194999999999,-0.004155,0.8946549999999999,-0.3567025,-0.060585,1.115395,-0.3601025,-0.0075649999999999,0.869615,-0.7056225,-0.026675,1.0788349999999998,-0.7201125,0.076675
164,0.87074,0.702577,-0.0725199999999999,0.79928,0.446637,0.01275,0.7517200000000002,0.247757,0.02387,1.09362,0.492607,0.0069300000000001,1.18863,0.276777,0.09452,0.7227600000000001,0.117447,-0.1256799999999999,1.24854,0.086757,0.04061,0.9283700000000001,-0.007146,0.00372,1.0716299999999999,0.0071459999999999,-0.0037199999999999,0.8968800000000001,-0.356423,-0.0583599999999999,1.1173899999999999,-0.360113,-0.0046799999999999,0.8739200000000001,-0.705633,-0.0233999999999999,1.0822699999999998,-0.7200629999999999,0.07945
165,0.8706400000000001,0.701452,-0.0740049999999999,0.79843,0.446042,0.0118749999999999,0.753,0.247022,0.022545,1.09271,0.492852,0.006695,1.18701,0.275892,0.094725,0.72739,0.110773,-0.1219449999999999,1.2475100000000001,0.085856,0.042865,0.92845,-0.0071909999999999,0.003515,1.07155,0.0071909999999999,-0.003515,0.8992800000000001,-0.3559879999999999,-0.0556649999999999,1.11955,-0.360068,-0.0015349999999999,0.87832,-0.705378,-0.020205,1.08595,-0.7197979999999999,0.0821549999999999
166,0.8679749999999999,0.698335,-0.07572,0.795225,0.444185,0.0087099999999999,0.7422749999999999,0.246725,0.00729,1.0897949999999998,0.494365,0.00701,1.185045,0.269025,0.09938,0.7222249999999999,0.103217,-0.14046,1.249345,0.078639,0.06106,0.928195,-0.0078669999999999,0.0028599999999999,1.071805,0.0078669999999999,-0.0028599999999999,0.898935,-0.354275,-0.0579499999999999,1.120245,-0.356645,-0.0013299999999999,0.880365,-0.708645,-0.0207499999999999,1.0873149999999998,-0.7220949999999999,0.08328
167,0.8707500000000001,0.6977979999999999,-0.0772450000000001,0.7944600000000002,0.444178,0.0077449999999998,0.74966,0.244428,0.0069649999999998,1.09161,0.494108,0.0078849999999999,1.1835,0.272908,0.0976749999999999,0.72304,0.100048,-0.1494850000000001,1.24579,0.083156,0.0516849999999999,0.9283700000000001,-0.0077929999999999,0.0025549999999999,1.0716299999999999,0.007793,-0.002555,0.90547,-0.354222,-0.052405,1.12463,-0.357532,0.0043449999999999,0.88959,-0.7109420000000001,-0.010755,1.0940999999999999,-0.720442,0.0862749999999998
168,0.87191,0.697696,-0.077125,0.79521,0.443916,0.0082349999999999,0.75139,0.243976,0.008475,1.0921599999999998,0.494326,0.0081649999999999,1.18417,0.2725459999999999,0.097225,0.72478,0.101429,-0.145225,1.24602,0.083312,0.0480249999999999,0.9284,-0.00784,0.0025049999999999,1.0716,0.00784,-0.0025049999999999,0.9065,-0.354234,-0.0514149999999999,1.1256,-0.3578639999999999,0.0053949999999999,0.89179,-0.7104539999999999,-0.010295,1.09564,-0.720464,0.0871849999999999
169,0.87727,0.6979065,-0.07482,0.79867,0.4432165,0.0129599999999999,0.7644600000000001,0.2424965,0.0265199999999999,1.09813,0.4938565,0.0113999999999999,1.18458,0.2784865,0.0875399999999999,0.74141,0.0758495,-0.09262,1.24271,0.0897935,0.03086,0.92906,-0.0077615,0.0037,1.07094,0.0077614999999999,-0.0037,0.9102000000000001,-0.3536134999999999,-0.0460899999999999,1.12795,-0.3615934999999999,0.0095899999999999,0.8962100000000001,-0.7020635,-0.0096699999999999,1.10179,-0.7191035,0.09143
170,0.8789500000000001,0.698202,-0.07379,0.80074,0.443652,0.01485,0.7706999999999999,0.242952,0.0337699999999999,1.0990799999999998,0.493732,0.0115499999999999,1.18562,0.276852,0.08359,0.74691,0.073014,-0.08018,1.2422499999999999,0.087783,0.0265699999999999,0.92928,-0.0076209999999999,0.00434,1.0707200000000001,0.0076209999999999,-0.00434,0.9107100000000001,-0.353668,-0.0440099999999999,1.1290799999999999,-0.362918,0.01095,0.89755,-0.698008,-0.0092799999999999,1.10307,-0.7183980000000001,0.09216
171,0.880465,0.6984870000000001,-0.0730149999999999,0.802475,0.443987,0.016445,0.7773550000000001,0.168387,0.011965,1.102215,0.493277,0.013475,1.1863249999999999,0.276847,0.079415,0.726765,0.015116,-0.1155049999999999,1.2407849999999998,0.086842,0.0235349999999999,0.9293850000000001,-0.0074849999999999,0.0047049999999999,1.0706149999999999,0.007485,-0.0047049999999999,0.910815,-0.354153,-0.0416649999999999,1.129705,-0.365713,0.012135,0.898765,-0.6971029999999999,-0.008005,1.104375,-0.7179629999999999,0.092785
172,0.8833250000000001,0.698635,-0.0719999999999999,0.8053850000000002,0.444405,0.01821,0.7746350000000001,0.180475,0.02796,1.106065,0.492715,0.01492,1.1860750000000002,0.2720349999999999,0.07139,0.7663050000000002,-0.010282,-0.0458699999999999,1.235345,0.080652,0.01547,0.929645,-0.007372,0.00555,1.070355,0.007372,-0.0055499999999999,0.9118450000000002,-0.354265,-0.0392399999999999,1.1315050000000002,-0.367415,0.01347,0.9007550000000001,-0.694515,-0.0062199999999998,1.106605,-0.717705,0.09371
