sb224sc-HT22-VT27/4dt907/src/data/kinect_good_preprocessed_not_cut_A11_mediapipe/A150_kinect.csv
FrameNo,nose_3d_x,nose_3d_y,nose_3d_z,left_shoulder_3d_x,left_shoulder_3d_y,left_shoulder_3d_z,left_elbow_3d_x,left_elbow_3d_y,left_elbow_3d_z,right_shoulder_3d_x,right_shoulder_3d_y,right_shoulder_3d_z,right_elbow_3d_x,right_elbow_3d_y,right_elbow_3d_z,left_wrist_3d_x,left_wrist_3d_y,left_wrist_3d_z,right_wrist_3d_x,right_wrist_3d_y,right_wrist_3d_z,left_hip_3d_x,left_hip_3d_y,left_hip_3d_z,right_hip_3d_x,right_hip_3d_y,right_hip_3d_z,left_knee_3d_x,left_knee_3d_y,left_knee_3d_z,right_knee_3d_x,right_knee_3d_y,right_knee_3d_z,left_ankle_3d_x,left_ankle_3d_y,left_ankle_3d_z,right_ankle_3d_x,right_ankle_3d_y,right_ankle_3d_z
0,-0.046028,0.7227085,-0.0241325,-0.212563,0.5045084999999999,-0.004873500000000003,-0.44365299999999996,0.6138484999999999,-0.06266849999999999,0.157387,0.5074884999999999,-0.021824499999999997,0.36230700000000005,0.6246185,-0.1247895,-0.529933,0.8553084999999999,-0.1569095,0.453017,0.8339785,-0.2395295,-0.07772100000000001,-0.0034895,0.0009745000000000031,0.07772100000000001,0.0034895000000000004,-0.0009745000000000031,-0.15299300000000002,-0.4449615,0.0328905,0.17440699999999998,-0.44758149999999997,0.040384500000000004,-0.231573,-0.8513315,0.0731425,0.26632700000000004,-0.8513615,0.0848065
1,-0.042903000000000004,0.7213745,-0.0234875,-0.212434,0.5052745,-0.007702500000000001,-0.44029399999999996,0.6513245,-0.0748425,0.15906599999999999,0.5108644999999999,-0.019956500000000002,0.365236,0.6515345,-0.1185125,-0.5023340000000001,0.9166345,-0.14215250000000001,0.44077599999999995,0.8516144999999999,-0.2179025,-0.077582,-0.0034505,-7.500000000000562e-06,0.077582,0.0034505,7.500000000000562e-06,-0.15296400000000002,-0.4478655,0.0327055,0.173686,-0.4490155,0.041639499999999996,-0.231694,-0.8545455000000001,0.0730995,0.26654599999999995,-0.8537055,0.08444750000000001
2,-0.041255499999999994,0.7202784999999999,-0.023052499999999997,-0.21122049999999998,0.5064784999999999,-0.011474499999999992,-0.4330905,0.6507585,-0.07491249999999999,0.16027950000000002,0.5116785,-0.018743499999999996,0.3626695,0.6567185,-0.11221249999999999,-0.4922105,0.9213184999999999,-0.1374625,0.42781949999999996,0.8907085,-0.1952525,-0.07759150000000001,-0.0027834999999999995,-0.000947499999999997,0.07759150000000001,0.0027835,0.0009475000000000039,-0.15300049999999998,-0.4485015,0.03331750000000001,0.1738595,-0.4506115,0.042801500000000006,-0.2313905,-0.8561515000000001,0.0738655,0.2667795,-0.8553415,0.08483950000000001
3,-0.038717,0.720345,-0.022360999999999992,-0.21058900000000003,0.5076050000000001,-0.012153999999999998,-0.427529,0.653605,-0.074238,0.161061,0.511895,-0.01703199999999999,0.360171,0.666425,-0.10185799999999999,-0.465259,0.937845,-0.124568,0.420491,0.898155,-0.180218,-0.077463,-0.0024879999999999998,-0.0018269999999999953,0.077463,0.0024880000000000006,0.0018270000000000022,-0.153459,-0.45083500000000004,0.034419000000000005,0.173821,-0.452565,0.044339,-0.231169,-0.858445,0.075126,0.266591,-0.8570949999999999,0.08624000000000001
4,-0.0365255,0.719673,-0.021788000000000002,-0.2091205,0.510053,-0.012527000000000003,-0.4207105,0.6609229999999999,-0.074556,0.16243950000000001,0.512663,-0.014970999999999998,0.35674950000000005,0.673233,-0.092186,-0.46085050000000005,0.9368329999999999,-0.12119600000000001,0.4118995,0.918273,-0.15715600000000002,-0.0772835,-0.002342,-0.0021940000000000015,0.0772835,0.0023419999999999995,0.0021940000000000015,-0.1536005,-0.453267,0.035496,0.1739395,-0.45342699999999997,0.045637,-0.2308805,-0.860267,0.076133,0.2661395,-0.857947,0.087871
5,-0.033774500000000006,0.717231,-0.018349500000000005,-0.20635350000000002,0.5098309999999999,-0.012251500000000005,-0.4134735,0.662551,-0.07308250000000001,0.16520649999999998,0.5145609999999999,-0.009068500000000007,0.3519065,0.683191,-0.0743525,-0.4512335,0.9356209999999999,-0.11919249999999999,0.4059965,0.924381,-0.13550250000000003,-0.0770795,-0.0018520000000000012,-0.003429500000000002,0.0770795,0.0018519999999999995,0.003429499999999995,-0.15314350000000002,-0.456069,0.0371025,0.1742965,-0.45507899999999996,0.047856499999999996,-0.23038350000000002,-0.8637090000000001,0.07857149999999999,0.2660065,-0.859589,0.0908605
6,-0.033405,0.7160915,-0.016277,-0.205705,0.5096415,-0.010828999999999998,-0.407345,0.6644915,-0.073375,0.165795,0.5145415,-0.006200999999999998,0.350045,0.6848215,-0.068615,-0.446065,0.9324915,-0.119005,0.404135,0.9296515000000001,-0.127305,-0.07695199999999999,-0.0017925000000000007,-0.003976,0.07695199999999999,0.0017925000000000007,0.003976,-0.153315,-0.4566385,0.037397,0.173765,-0.4558485,0.048931,-0.22989500000000002,-0.8644085,0.080641,0.265655,-0.8587684999999999,0.092183
7,-0.0338315,0.7174455,-0.01371,-0.2062545,0.5096755,-0.009932999999999997,-0.4090945,0.6636654999999999,-0.07333799999999999,0.1654455,0.5151855,-0.004361999999999998,0.3491855,0.6838755,-0.067778,-0.44707450000000004,0.9300554999999999,-0.12445799999999999,0.4059155,0.9270854999999999,-0.128308,-0.0766995,-0.0019625000000000007,-0.0039920000000000025,0.0766995,0.0019625000000000007,0.0039920000000000025,-0.15377449999999998,-0.4563245,0.037539,0.1732155,-0.4558645,0.048785,-0.23065449999999998,-0.8636245,0.081195,0.2650955,-0.8599145,0.092973
8,-0.032992,0.7170865,-0.011694999999999997,-0.205529,0.5098864999999999,-0.009312,-0.40591900000000003,0.6651265,-0.073214,0.16645100000000002,0.5161764999999999,-0.001242,0.347261,0.6865865,-0.061664,-0.44394900000000004,0.9290265,-0.122974,0.40401099999999995,0.9313064999999999,-0.11943400000000001,-0.076605,-0.001877499999999999,-0.004498000000000002,0.076605,0.0018775000000000007,0.004498000000000002,-0.153839,-0.4572135,0.037961,0.17306100000000002,-0.4565935,0.049932000000000004,-0.230629,-0.8647335,0.082385,0.264791,-0.8604835000000001,0.094264
9,-0.032366,0.7168300000000001,-0.009757500000000002,-0.20491,0.50981,-0.008540500000000006,-0.40337999999999996,0.6658000000000001,-0.0730245,0.1673,0.51708,0.0018064999999999956,0.34572,0.6886,-0.0563545,-0.44127,0.92816,-0.12152450000000001,0.40342,0.93327,-0.11284450000000001,-0.076573,-0.001821999999999999,-0.004886500000000002,0.076573,0.0018220000000000007,0.004886499999999995,-0.15386,-0.45790000000000003,0.038309499999999996,0.17292,-0.45722,0.0508475,-0.23067000000000001,-0.86564,0.0835455,0.26455,-0.8609899999999999,0.0955475
10,-0.031937,0.716894,-0.0078955,-0.204499,0.509764,-0.007735499999999999,-0.40151899999999996,0.666294,-0.07296749999999999,0.167931,0.517764,0.0043155,0.34481100000000003,0.689504,-0.05285549999999999,-0.439529,0.927644,-0.1205175,0.403191,0.9345140000000001,-0.1084475,-0.076519,-0.00183,-0.005161499999999999,0.076519,0.00183,0.005161499999999999,-0.15390900000000002,-0.45833599999999997,0.0384095,0.172811,-0.45767599999999997,0.051458500000000004,-0.23073899999999997,-0.866196,0.0844655,0.26439100000000004,-0.861316,0.0965865
11,-0.0315285,0.7171050000000001,-0.006076499999999999,-0.2041515,0.509745,-0.007033499999999998,-0.4003015,0.6665650000000001,-0.0728525,0.1685185,0.518445,0.0065705,0.3441385,0.690235,-0.04976950000000001,-0.4382715,0.9269550000000001,-0.12080250000000001,0.4029785,0.934995,-0.10482250000000001,-0.07645550000000001,-0.001849,-0.005373500000000003,0.07645550000000001,0.001849,0.005373499999999996,-0.1539615,-0.458555,0.0384695,0.1727185,-0.458045,0.0519695,-0.23080150000000002,-0.866575,0.0851875,0.26429850000000005,-0.861625,0.0974265
12,-0.031209999999999998,0.717418,-0.0041285,-0.203846,0.5096780000000001,-0.0063555,-0.399406,0.666748,-0.07273450000000001,0.169014,0.519038,0.008836499999999997,0.343694,0.6906880000000001,-0.047025500000000005,-0.437376,0.926508,-0.1209345,0.402754,0.9350780000000001,-0.10158450000000002,-0.07635600000000001,-0.0018540000000000015,-0.005565500000000001,0.07635600000000001,0.0018539999999999997,0.005565500000000001,-0.154056,-0.458712,0.0384155,0.172614,-0.458382,0.052449499999999996,-0.23086600000000002,-0.8669119999999999,0.08577850000000001,0.264184,-0.861922,0.0981065
13,-0.031039499999999998,0.7177579999999999,-0.002357999999999999,-0.2036775,0.5096179999999999,-0.005711000000000001,-0.3987475,0.6668480000000001,-0.072619,0.1693325,0.519558,0.010893,0.34333250000000004,0.690958,-0.044789999999999996,-0.4367875,0.926188,-0.12111899999999999,0.4029525,0.9349080000000001,-0.098959,-0.0762775,-0.001861999999999999,-0.005703,0.0762775,0.0018620000000000008,0.005703,-0.15418749999999998,-0.458982,0.038307,0.17241250000000002,-0.458692,0.052846000000000004,-0.23099750000000002,-0.867232,0.086241,0.2639725,-0.8622320000000001,0.098675
14,-0.030955499999999997,0.718094,-0.0008159999999999973,-0.2035635,0.5095740000000001,-0.005153999999999999,-0.3982635,0.6669240000000001,-0.072411,0.1695765,0.519984,0.012674999999999999,0.34305650000000004,0.691144,-0.04287799999999999,-0.43635349999999995,0.925944,-0.121361,0.4035765,0.934664,-0.09684099999999998,-0.07621649999999999,-0.0018840000000000003,-0.0058,0.07621649999999999,0.0018840000000000003,0.0058,-0.1543035,-0.459166,0.038152,0.1722265,-0.458936,0.053153,-0.2311435,-0.8674759999999999,0.086589,0.2638665,-0.862476,0.099076
15,-0.030932,0.7184045,0.0005710000000000021,-0.203449,0.5095145,-0.004719000000000001,-0.397949,0.6669345,-0.07213,0.169681,0.5203045000000001,0.014134,0.342811,0.6912145000000001,-0.041367,-0.436019,0.9257445,-0.12169,0.404391,0.9344645,-0.09532,-0.076181,-0.0019045000000000017,-0.005875999999999999,0.076181,0.0019045,0.005875999999999999,-0.154399,-0.45929549999999997,0.038007,0.172081,-0.4591355,0.053394,-0.231279,-0.8676754999999999,0.086838,0.263761,-0.8627655,0.099521
16,-0.030880499999999998,0.718735,0.0016559999999999978,-0.2032655,0.509505,-0.004408000000000002,-0.3977255,0.666945,-0.071822,0.1696145,0.5202749999999999,0.015022,0.3426345,0.691225,-0.040138,-0.4357655,0.925675,-0.121972,0.40544450000000004,0.934365,-0.094222,-0.0761825,-0.0019319999999999997,-0.005892000000000001,0.0761825,0.0019319999999999997,0.005892000000000001,-0.15446549999999998,-0.459365,0.037821999999999995,0.1720045,-0.459275,0.053575,-0.2313555,-0.8678250000000001,0.086989,0.2637645,-0.862935,0.099825
17,-0.030815,0.719104,0.0026015000000000066,-0.203102,0.509554,-0.004242499999999996,-0.397572,0.667034,-0.0716615,0.16949799999999998,0.5202439999999999,0.0155975,0.342528,0.691244,-0.039141499999999996,-0.435612,0.9257839999999999,-0.12220149999999999,0.40661800000000003,0.934174,-0.09352150000000001,-0.076196,-0.0019629999999999995,-0.005884499999999994,0.076196,0.0019629999999999995,0.005884500000000001,-0.154522,-0.459396,0.037639500000000006,0.171968,-0.459336,0.053629500000000004,-0.231402,-0.867976,0.0870505,0.26380800000000004,-0.863066,0.0999805
18,-0.030713500000000005,0.7194200000000001,0.003509000000000005,-0.2029185,0.50965,-0.0040979999999999975,-0.3974685,0.6670900000000001,-0.071619,0.1694315,0.52023,0.016074000000000005,0.3425815,0.69123,-0.038367,-0.4354885,0.92591,-0.122479,0.40791150000000004,0.93367,-0.09311900000000001,-0.0762085,-0.0019769999999999996,-0.0059019999999999975,0.0762085,0.0019769999999999996,0.0059020000000000045,-0.15453850000000002,-0.45941,0.037455,0.17195149999999998,-0.45942,0.053622,-0.2313985,-0.86815,0.087062,0.2639015,-0.86322,0.100051
19,-0.030628500000000003,0.71967,0.004281,-0.2027635,0.50975,-0.003925999999999999,-0.39739349999999996,0.66716,-0.07161,0.1693965,0.52023,0.016466,0.3427165,0.69123,-0.037688,-0.43543350000000003,0.92606,-0.12264,0.4092365,0.93309,-0.09301999999999999,-0.0762235,-0.0019769999999999996,-0.0059029999999999985,0.0762235,0.0019769999999999996,0.0059030000000000055,-0.1545435,-0.45938999999999997,0.037391,0.17195649999999998,-0.45953,0.053622,-0.2313935,-0.86829,0.08705,0.26397649999999995,-0.86347,0.1001
20,-0.0305425,0.719926,0.005054000000000003,-0.2026165,0.5098659999999999,-0.0036779999999999938,-0.3973565,0.667246,-0.07150999999999999,0.1693635,0.520116,0.016844000000000005,0.34290349999999997,0.691236,-0.03719499999999999,-0.43540650000000003,0.926276,-0.12270999999999999,0.4105435,0.932366,-0.09295999999999999,-0.0762265,-0.0019830000000000004,-0.0059029999999999985,0.0762265,0.0019829999999999987,0.0059030000000000055,-0.1545465,-0.45947400000000005,0.037391,0.1719635,-0.459614,0.053622,-0.2313965,-0.868374,0.08704300000000001,0.2640935,-0.863514,0.100024
21,-0.0304835,0.7200385,0.005595000000000003,-0.20257650000000002,0.5100085000000001,-0.0033039999999999944,-0.3973665,0.6673685,-0.07124,0.1693035,0.5199784999999999,0.017053000000000006,0.3431035,0.6912285,-0.036988999999999994,-0.43540650000000003,0.9265384999999999,-0.12270999999999999,0.4115735,0.9316184999999999,-0.09292,-0.0762265,-0.001995499999999999,-0.0059029999999999985,0.0762265,0.0019955000000000007,0.0059030000000000055,-0.15453650000000002,-0.4594015,0.037392,0.1719635,-0.4596915,0.053622,-0.2313965,-0.8684215,0.08704300000000001,0.2642235,-0.8635515,0.099931
22,-0.030420500000000003,0.720083,0.006022,-0.2025755,0.510213,-0.0028960000000000027,-0.39736550000000004,0.667523,-0.07094700000000001,0.1692145,0.519833,0.017158,0.3432845,0.691203,-0.036898999999999994,-0.43539550000000005,0.926903,-0.12281699999999998,0.41253449999999997,0.930883,-0.09298699999999999,-0.07623450000000001,-0.002014,-0.005875999999999999,0.07623450000000001,0.002014,0.005875999999999999,-0.1545255,-0.459467,0.037285,0.1719745,-0.459747,0.053562,-0.2313855,-0.868487,0.086944,0.2642845,-0.863647,0.099942
23,-0.030349,0.720161,0.006314500000000001,-0.20256200000000002,0.510441,-0.002536500000000004,-0.397362,0.667741,-0.0707005,0.16909800000000003,0.519711,0.0172065,0.343468,0.691261,-0.036941499999999995,-0.43537200000000004,0.927291,-0.1230405,0.41331799999999996,0.930331,-0.09330050000000001,-0.07625,-0.002032000000000001,-0.005833499999999998,0.07625,0.002031999999999999,0.005833499999999998,-0.15450200000000003,-0.459499,0.0370645,0.17198799999999997,-0.459769,0.053393499999999997,-0.231362,-0.868489,0.0867205,0.26434799999999997,-0.863879,0.0997265
24,-0.030217,0.720241,0.006419500000000002,-0.20252599999999998,0.510721,-0.0021675000000000028,-0.397326,0.668021,-0.07049749999999999,0.168994,0.519641,0.017182500000000003,0.343694,0.691341,-0.0371685,-0.435346,0.927731,-0.12341750000000001,0.414074,0.9298609999999999,-0.09408750000000002,-0.07627800000000001,-0.0020420000000000004,-0.005801500000000001,0.07627800000000001,0.0020419999999999987,0.005801500000000001,-0.15445599999999998,-0.45951899999999996,0.0368945,0.172054,-0.45980899999999997,0.0531395,-0.23130599999999998,-0.868479,0.0864095,0.264484,-0.8640990000000001,0.0993715
25,-0.0300955,0.7203625,0.006408000000000004,-0.20246250000000002,0.5110625,-0.0018460000000000004,-0.3973325,0.6684525,-0.070331,0.1689175,0.5196525,0.017033,0.3438975,0.6914925,-0.037575000000000004,-0.4353625,0.9282725,-0.12379099999999998,0.4147275,0.9295225,-0.095051,-0.0763135,-0.0020654999999999996,-0.005718000000000001,0.0763135,0.0020654999999999996,0.005718000000000001,-0.1544725,-0.4595575,0.036819000000000005,0.17211749999999998,-0.45981750000000005,0.052798000000000005,-0.2313325,-0.8683775,0.085976,0.2646175,-0.8642475000000001,0.098851
26,-0.029988499999999998,0.720524,0.006319999999999999,-0.2024165,0.511434,-0.001565999999999998,-0.3973465,0.668884,-0.07021,0.1688435,0.519704,0.016821000000000003,0.3441735,0.691684,-0.03806,-0.4353865,0.928744,-0.12415000000000001,0.4152635,0.929304,-0.09611,-0.07635449999999999,-0.002095999999999999,-0.005607000000000001,0.07635449999999999,0.0020960000000000006,0.005607000000000001,-0.1544865,-0.459566,0.036702,0.1721935,-0.45977599999999996,0.052383,-0.2313665,-0.868246,0.08547099999999999,0.2647235,-0.864336,0.09834899999999999
27,-0.029886,0.7206629999999999,0.006137499999999997,-0.20238499999999998,0.511763,-0.0013505000000000045,-0.397375,0.669343,-0.0701665,0.168795,0.519773,0.016578499999999996,0.344395,0.691873,-0.038572499999999996,-0.43544499999999997,0.929243,-0.12446650000000001,0.415655,0.929263,-0.0971265,-0.07639299999999999,-0.002123,-0.0055105000000000015,0.07639299999999999,0.002123,0.0055105000000000015,-0.154495,-0.459577,0.0365985,0.172235,-0.459687,0.0519255,-0.231395,-0.868157,0.0849435,0.264785,-0.864407,0.0978105
28,-0.029801000000000005,0.720764,0.005943500000000004,-0.20239200000000002,0.512114,-0.0011414999999999967,-0.397422,0.669824,-0.0701815,0.168738,0.519884,0.016303500000000005,0.344628,0.692124,-0.03920549999999999,-0.435502,0.929804,-0.12479149999999999,0.415948,0.929284,-0.09818149999999999,-0.07643,-0.0021539999999999997,-0.0054115,0.07643,0.0021540000000000014,0.005411500000000007,-0.154502,-0.459496,0.0364345,0.172278,-0.459586,0.051451500000000004,-0.231452,-0.868036,0.08439050000000001,0.264828,-0.864456,0.09721550000000001
29,-0.0297385,0.7208439999999999,0.005690000000000001,-0.2024265,0.5124839999999999,-0.0009520000000000015,-0.3974765,0.670264,-0.070229,0.1686935,0.520004,0.015988,0.3448535,0.6923739999999999,-0.039858000000000005,-0.4355665,0.930364,-0.125139,0.4161435,0.929334,-0.09922900000000001,-0.0764715,-0.0021769999999999984,-0.005308,0.0764715,0.002177,0.005308,-0.1544965,-0.459476,0.036234,0.1723235,-0.45951600000000004,0.050953,-0.23151650000000001,-0.867986,0.083825,0.2648935,-0.864546,0.09657199999999999
30,-0.029684500000000003,0.7209690000000001,0.005347999999999999,-0.2024665,0.5128590000000001,-0.0008440000000000045,-0.3975265,0.670709,-0.07036200000000001,0.1686435,0.520159,0.015586999999999997,0.3450635,0.692679,-0.040579000000000004,-0.4356065,0.930919,-0.125532,0.4162235,0.929469,-0.10028200000000001,-0.0765025,-0.002201999999999999,-0.0052290000000000045,0.0765025,0.002202000000000001,0.0052289999999999975,-0.1544865,-0.459411,0.035989999999999994,0.1723635,-0.459411,0.05039999999999999,-0.2315865,-0.8679209999999999,0.083159,0.2649035,-0.864491,0.095747
31,-0.0296375,0.7210995,0.004991500000000003,-0.2024885,0.5131895000000001,-0.000842499999999996,-0.3975685,0.6711495000000001,-0.07051450000000001,0.1686115,0.5203395000000001,0.015179500000000002,0.3452515,0.6930095000000001,-0.04129649999999999,-0.4356285,0.9313895,-0.1259845,0.4162915,0.9296095,-0.1012345,-0.0765335,-0.0022275000000000003,-0.005147499999999999,0.0765335,0.0022275000000000003,0.005147499999999999,-0.1544985,-0.45938049999999997,0.0357975,0.1724015,-0.45926049999999996,0.0498805,-0.2316785,-0.8678604999999999,0.0825585,0.2649115,-0.8644204999999999,0.09492249999999999
32,-0.029591500000000003,0.721261,0.004589499999999996,-0.2024765,0.513481,-0.0009815000000000032,-0.3975965,0.671571,-0.0707795,0.1685935,0.520541,0.014636499999999997,0.3453335,0.6933509999999999,-0.042020499999999995,-0.4356365,0.931851,-0.1264495,0.4163535,0.929791,-0.1021795,-0.0765605,-0.0022559999999999993,-0.0050595000000000015,0.0765605,0.002256000000000001,0.0050595000000000015,-0.1545065,-0.459309,0.0356095,0.1724435,-0.459059,0.049403499999999996,-0.2317765,-0.867669,0.0819515,0.2649135,-0.8642690000000001,0.0941525
33,-0.02958,0.721409,0.004112999999999999,-0.202497,0.513749,-0.0012969999999999995,-0.397667,0.671959,-0.07117499999999999,0.168573,0.520749,0.013968999999999999,0.345353,0.693719,-0.042685999999999995,-0.435627,0.932199,-0.12693500000000002,0.416383,0.929999,-0.10308500000000001,-0.076581,-0.002291999999999999,-0.004941000000000001,0.076581,0.0022920000000000006,0.004941000000000001,-0.154537,-0.459271,0.035324,0.172453,-0.458881,0.048957,-0.231867,-0.867531,0.081394,0.264893,-0.864121,0.093483
34,-0.029570000000000003,0.7215455,0.0034934999999999966,-0.20248700000000003,0.5139255,-0.0019015000000000004,-0.397657,0.6722255,-0.0717845,0.168543,0.5209255,0.013348499999999996,0.34536300000000003,0.6940155,-0.0433355,-0.435617,0.9323755,-0.12755450000000002,0.416313,0.9302155,-0.10398450000000001,-0.076602,-0.0023155,-0.004859500000000003,0.076602,0.0023155000000000016,0.004859499999999996,-0.154567,-0.4591545,0.034998499999999995,0.17246299999999998,-0.4587045,0.0483375,-0.23189700000000002,-0.8675045,0.0808335,0.264893,-0.8641045,0.0927955
35,-0.029581,0.7217395,0.002724000000000004,-0.202498,0.5141595,-0.002670999999999993,-0.397668,0.6724694999999999,-0.072554,0.168502,0.5211395,0.012577000000000005,0.345352,0.6942495,-0.044213,-0.435628,0.9326095,-0.128324,0.416172,0.9304595,-0.105054,-0.076659,-0.0023385000000000003,-0.004789999999999996,0.076659,0.0023384999999999986,0.004790000000000003,-0.154608,-0.4589205,0.03422700000000001,0.172462,-0.4585005,0.047568000000000006,-0.231968,-0.8674305,0.08006100000000001,0.264842,-0.8640305,0.09201600000000001
36,-0.029626,0.7219765,0.0017370000000000024,-0.20251200000000003,0.5144265,-0.0036569999999999936,-0.397682,0.6727465,-0.07354,0.16842800000000002,0.5214165000000001,0.011550000000000005,0.345438,0.6945265,-0.045412999999999995,-0.435642,0.9328865000000001,-0.12931,0.415898,0.9308765,-0.10635,-0.076729,-0.0023665000000000005,-0.004694999999999998,0.076729,0.0023665000000000005,0.004695000000000005,-0.154652,-0.45864350000000004,0.033240000000000006,0.172468,-0.4582235,0.046583000000000006,-0.23203200000000002,-0.8673135,0.079073,0.264728,-0.8638435,0.091026
37,-0.029662499999999998,0.7222705,0.0004415000000000044,-0.2024955,0.5147505,-0.004880499999999996,-0.3976755,0.6730805,-0.0747635,0.1683745,0.5217505,0.010006500000000002,0.3455745,0.6948605,-0.04711749999999999,-0.43550550000000005,0.9331404999999999,-0.1306135,0.41546449999999996,0.9313905,-0.10802350000000001,-0.0767855,-0.0024054999999999997,-0.0046345,0.0767855,0.0024054999999999997,0.0046345,-0.1546555,-0.4582895,0.0320165,0.17257450000000002,-0.45785950000000003,0.0451635,-0.2320855,-0.8671095,0.0778455,0.26470449999999995,-0.8635995,0.08973249999999999
38,-0.029587500000000003,0.722567,-0.0016089999999999924,-0.2023145,0.5150469999999999,-0.006874999999999992,-0.3974945,0.673557,-0.076594,0.1684155,0.522017,0.007559000000000003,0.3457755,0.695257,-0.04970999999999999,-0.43511449999999996,0.933367,-0.132594,0.41501550000000004,0.9319069999999999,-0.110314,-0.0768405,-0.0024389999999999985,-0.004561999999999997,0.0768405,0.002439,0.0045620000000000036,-0.1547145,-0.457693,0.030244000000000007,0.17295549999999998,-0.45729299999999995,0.04218600000000001,-0.2320545,-0.8668130000000001,0.076128,0.26475550000000003,-0.863213,0.08796000000000001
39,-0.029479999999999996,0.722734,-0.004577499999999998,-0.201954,0.5148739999999999,-0.0101095,-0.397134,0.673904,-0.0794035,0.168436,0.522244,0.004078499999999999,0.34606600000000004,0.695614,-0.0533955,-0.43440399999999996,0.933284,-0.1355035,0.41439600000000004,0.9326139999999999,-0.1133035,-0.077037,-0.002495,-0.004445499999999998,0.077037,0.0024950000000000007,0.004445499999999998,-0.155204,-0.456696,0.027137500000000002,0.173836,-0.45645600000000003,0.0373395,-0.232024,-0.866146,0.0737885,0.26479600000000003,-0.862676,0.08569750000000001
40,-0.0294695,0.7227705,-0.009139000000000001,-0.2015455,0.5144005,-0.014624000000000005,-0.39679549999999997,0.6744405,-0.083487,0.1684145,0.5223605,-0.0008560000000000026,0.34637450000000003,0.6961105,-0.058575,-0.4334555,0.9331205,-0.139757,0.41360450000000004,0.9338805,-0.11727699999999999,-0.0771525,-0.0026135000000000004,-0.004186000000000002,0.0771525,0.0026134999999999995,0.004185999999999995,-0.1566855,-0.4550095,0.021558999999999995,0.1752345,-0.4551795,0.029504999999999997,-0.2320855,-0.8649995,0.070528,0.26489450000000003,-0.8615895,0.08230499999999999
41,-0.029458,0.722937,-0.015602499999999998,-0.20103700000000002,0.513587,-0.0207955,-0.39586699999999997,0.674027,-0.0891945,0.168423,0.5219870000000001,-0.007788499999999997,0.34698300000000004,0.696567,-0.0657525,-0.432257,0.933177,-0.1455145,0.412603,0.936107,-0.1225245,-0.077233,-0.002741,-0.0038424999999999987,0.077233,0.0027410000000000004,0.0038424999999999987,-0.158967,-0.45282300000000003,0.0141025,0.177123,-0.45293300000000003,0.0197955,-0.232357,-0.8630629999999999,0.06615950000000001,0.265023,-0.8595929999999999,0.0776245
42,-0.029321,0.721133,-0.025110999999999998,-0.200308,0.512143,-0.030057999999999998,-0.394938,0.672443,-0.098448,0.168462,0.520793,-0.018192999999999997,0.348122,0.695103,-0.077108,-0.429838,0.932603,-0.155258,0.411302,0.939973,-0.131488,-0.07731199999999999,-0.0027159999999999997,-0.003424,0.07731199999999999,0.0027159999999999997,0.003424,-0.162638,-0.447647,0.002582000000000001,0.180392,-0.447737,0.005954000000000001,-0.232708,-0.858047,0.059313000000000005,0.265252,-0.854737,0.070624
43,-0.029064000000000006,0.7179865,-0.037,-0.199432,0.5095265,-0.040994,-0.393852,0.6698565,-0.109674,0.168468,0.5192764999999999,-0.030134,0.349268,0.6917565,-0.09049399999999999,-0.427172,0.9272965,-0.167164,0.409208,0.9385264999999999,-0.14311400000000002,-0.077404,-0.0027405,-0.002824,0.077404,0.0027405,0.002824,-0.167142,-0.4403335,-0.010582999999999999,0.184408,-0.4407335,-0.009937999999999999,-0.233262,-0.8509435000000001,0.051285,0.265548,-0.8481335000000001,0.062373
44,-0.028794000000000004,0.715212,-0.0500365,-0.19854500000000003,0.506892,-0.0527115,-0.392665,0.666072,-0.1221455,0.16839500000000002,0.516782,-0.0434665,0.35047500000000004,0.688442,-0.10534550000000001,-0.424295,0.9214019999999999,-0.1801855,0.406935,0.933252,-0.15627549999999998,-0.07753,-0.002620000000000001,-0.0025135,0.07753,0.002620000000000001,0.0025135,-0.173165,-0.431238,-0.025487499999999996,0.189095,-0.431998,-0.027576499999999997,-0.234095,-0.841668,0.0424295,0.265905,-0.839548,0.0533085
45,-0.028245999999999993,0.710249,-0.0648575,-0.19745400000000002,0.502859,-0.0657295,-0.391324,0.661779,-0.1358005,0.168306,0.513799,-0.057833499999999996,0.351886,0.6828489999999999,-0.12206049999999999,-0.420634,0.9149689999999999,-0.1948205,0.404746,0.9303389999999999,-0.1704605,-0.077473,-0.0025570000000000002,-0.0020315000000000003,0.077473,0.0025569999999999968,0.0020314999999999995,-0.180664,-0.421261,-0.042164499999999994,0.19478600000000001,-0.42132100000000006,-0.0466805,-0.23565399999999997,-0.829801,0.0319965,0.266686,-0.8284710000000001,0.042924500000000004
46,-0.027853499999999996,0.7042465,-0.0807605,-0.1965585,0.4990565,-0.0791715,-0.3900085,0.6563065,-0.1510035,0.16804149999999998,0.5089565,-0.0729235,0.3527715,0.6770465,-0.1396935,-0.4168185,0.9064065,-0.2109035,0.40213150000000003,0.9242365,-0.1870335,-0.0774765,-0.0024414999999999992,-0.0014624999999999998,0.0774765,0.002441500000000006,0.0014624999999999998,-0.18963850000000002,-0.40879350000000003,-0.0602895,0.20129149999999998,-0.4084535,-0.0668595,-0.2375385,-0.8155435,0.0208115,0.2673315,-0.8150135000000001,0.0318815
47,-0.027410999999999994,0.6983285,-0.10191549999999999,-0.195563,0.4940885,-0.0975765,-0.388573,0.6498485,-0.1722405,0.16773700000000002,0.5047285,-0.09267249999999999,0.35407700000000003,0.6708785,-0.1622605,-0.412553,0.9012285,-0.23207049999999999,0.399527,0.9206285000000001,-0.2085605,-0.077334,-0.002413499999999999,-0.0009905,0.077334,0.002413499999999999,0.0009905000000000018,-0.199283,-0.3934615,-0.08390149999999999,0.20864700000000003,-0.3928315,-0.0913885,-0.239493,-0.7981115,0.0044095,0.268517,-0.7980714999999999,0.015682500000000002
48,-0.026805,0.6947019999999999,-0.1255405,-0.193656,0.490252,-0.11794450000000001,-0.386866,0.644352,-0.1955995,0.16711399999999998,0.501072,-0.11478350000000001,0.355334,0.6709719999999999,-0.1877295,-0.408196,0.893432,-0.2578495,0.396744,0.9230119999999999,-0.2326195,-0.07711100000000001,-0.0021709999999999924,-0.00033049999999999746,0.07711100000000001,0.0021710000000000063,0.00033050000000000093,-0.212426,-0.372588,-0.11448249999999999,0.220414,-0.37180799999999997,-0.12194949999999999,-0.241936,-0.774518,-0.0157935,0.270704,-0.774748,-0.0050715
49,-0.026342999999999995,0.68945,-0.14858300000000002,-0.191943,0.48633000000000004,-0.137708,-0.385533,0.63878,-0.21875299999999998,0.166297,0.49717,-0.136065,0.356357,0.6632899999999999,-0.212683,-0.403873,0.88668,-0.283413,0.393637,0.9171199999999999,-0.258763,-0.07675799999999999,-0.0021100000000000008,9.800000000000086e-05,0.07675799999999999,0.0021100000000000008,-9.800000000000086e-05,-0.225413,-0.35085,-0.14350400000000002,0.231867,-0.34994000000000003,-0.150373,-0.243843,-0.74973,-0.034612000000000004,0.272697,-0.75039,-0.025219000000000002
50,-0.026343,0.6825300000000001,-0.1717815,-0.190293,0.48230999999999996,-0.1577315,-0.38472300000000004,0.6341699999999999,-0.2436915,0.16475700000000001,0.49396999999999996,-0.1572235,0.35650699999999996,0.65574,-0.23754150000000002,-0.399393,0.87995,-0.31326149999999997,0.390057,0.9134599999999999,-0.2863015,-0.07626,-0.002050000000000024,0.0004585000000000006,0.07626,0.0020499999999999963,-0.0004585000000000006,-0.238663,-0.32455,-0.1730715,0.24327700000000002,-0.32336000000000004,-0.1796215,-0.24593299999999998,-0.7204600000000001,-0.053240499999999996,0.27407699999999996,-0.7205300000000001,-0.0448625
51,-0.0265725,0.676925,-0.19244250000000002,-0.1888355,0.477425,-0.1753125,-0.3842455,0.629465,-0.2665825,0.1629945,0.488915,-0.1753725,0.3563045,0.649455,-0.25868250000000004,-0.3962555,0.8687549999999999,-0.3391625,0.38661449999999997,0.902895,-0.3109225,-0.0757355,-0.0020050000000000068,0.0007054999999999978,0.0757355,0.0020050000000000068,-0.0007054999999999978,-0.2508955,-0.299025,-0.1997225,0.25349449999999996,-0.29823500000000003,-0.2057025,-0.2480355,-0.6912550000000001,-0.0693445,0.27503449999999996,-0.6907150000000001,-0.062206500000000005
52,-0.026830499999999997,0.6718299999999999,-0.21070899999999998,-0.1874805,0.4729,-0.191569,-0.3838205,0.62527,-0.288449,0.1612595,0.48521,-0.192309,0.3557495,0.64375,-0.278549,-0.3931805,0.8620099999999999,-0.36318900000000004,0.3838395,0.89562,-0.33393900000000004,-0.0753085,-0.002030000000000004,0.0007640000000000008,0.0753085,0.002030000000000004,-0.0007640000000000008,-0.2623405,-0.27449,-0.225779,0.26314950000000004,-0.27349,-0.230439,-0.24979049999999997,-0.66196,-0.084173,0.2756095,-0.66033,-0.078081
53,-0.027057000000000005,0.66324,-0.2286015,-0.18615700000000002,0.46843999999999997,-0.20762150000000001,-0.384187,0.6194,-0.3101515,0.159623,0.48174,-0.2086515,0.35536300000000004,0.6375299999999999,-0.2981115,-0.390287,0.85706,-0.38747149999999997,0.381243,0.89322,-0.3561915,-0.07494200000000001,-0.002140000000000003,0.001063499999999995,0.07494200000000001,0.002140000000000003,-0.001063499999999995,-0.27236699999999997,-0.24868,-0.2512615,0.272243,-0.2484,-0.2546115,-0.251177,-0.63159,-0.0983715,0.275963,-0.62903,-0.0933405
54,-0.027399500000000004,0.658415,-0.244669,-0.18490650000000003,0.46643500000000004,-0.222369,-0.38446650000000004,0.609915,-0.330509,0.15802349999999998,0.480055,-0.223759,0.3546935,0.632485,-0.316279,-0.3879865,0.845235,-0.41090899999999997,0.3787435,0.8905050000000001,-0.37751900000000005,-0.0744615,-0.0023050000000000015,0.0012509999999999882,0.0744615,0.0023050000000000015,-0.0012510000000000021,-0.28071650000000004,-0.22246499999999997,-0.27554900000000004,0.28050349999999996,-0.223765,-0.277659,-0.2519665,-0.602115,-0.110779,0.2758835,-0.598635,-0.10701100000000001
55,-0.028131,0.6517999999999999,-0.26052,-0.183921,0.46231,-0.23689,-0.384711,0.60346,-0.34996,0.156089,0.47767000000000004,-0.23842,0.353939,0.62712,-0.33404999999999996,-0.386821,0.83846,-0.43313999999999997,0.376509,0.8857299999999999,-0.39888999999999997,-0.07405400000000001,-0.0025299999999999767,0.0012100000000000027,0.07405400000000001,0.0025299999999999767,-0.0012100000000000027,-0.287721,-0.19539,-0.29883,0.287709,-0.19863000000000003,-0.29996,-0.253031,-0.57178,-0.122368,0.27524899999999997,-0.56768,-0.119748
56,-0.029082000000000004,0.6479349999999999,-0.27127999999999997,-0.183049,0.45989499999999994,-0.24625,-0.384859,0.597595,-0.36433,0.154191,0.47546499999999997,-0.24821,0.35291100000000003,0.622015,-0.34718,-0.386499,0.828335,-0.45208000000000004,0.374471,0.8802449999999999,-0.41566000000000003,-0.073801,-0.0025350000000000095,0.0013400000000000079,0.073801,0.002534999999999954,-0.001339999999999994,-0.293699,-0.16890500000000008,-0.31632,0.294231,-0.17406500000000003,-0.31694999999999995,-0.254179,-0.5420550000000001,-0.128461,0.274151,-0.537525,-0.126985
57,-0.030039500000000004,0.6396550000000001,-0.27921,-0.1831585,0.45604800000000006,-0.25334,-0.3856385,0.5894750000000001,-0.37646999999999997,0.1523915,0.47172500000000006,-0.25542,0.3518815,0.6097750000000001,-0.35753999999999997,-0.3871585,0.8210250000000001,-0.46718,0.3727615,0.868735,-0.43068,-0.0736115,-0.002764999999999962,0.00136,0.0736115,0.0027650000000000174,-0.00136,-0.2949585,-0.14595499999999995,-0.32542,0.2959415,-0.15266499999999994,-0.32658,-0.2550885,-0.5158649999999999,-0.131129,0.2729715,-0.5114749999999999,-0.129665
58,-0.0310405,0.63226,-0.286845,-0.1832395,0.451733,-0.260245,-0.3864695,0.577,-0.388185,0.1505205,0.467865,-0.262565,0.3507405,0.6035,-0.367745,-0.3878595,0.8042,-0.481615,0.3714305,0.8592,-0.444385,-0.0735535,-0.0028699999999999837,0.0012749999999999984,0.0735535,0.0028699999999999837,-0.0012749999999999984,-0.2959395,-0.12294,-0.333625,0.2972005,-0.13123,-0.335335,-0.2557095,-0.48954000000000003,-0.13376,0.27176049999999996,-0.48532000000000003,-0.13232
59,-0.03217099999999999,0.627435,-0.29386,-0.183643,0.44931,-0.26563,-0.38696299999999995,0.565915,-0.3969,0.14882700000000001,0.46631199999999995,-0.26798999999999995,0.34959700000000005,0.596205,-0.37683,-0.38867300000000005,0.7883749999999999,-0.49133,0.370367,0.845175,-0.45679,-0.073448,-0.0033150000000000124,0.0011600000000000082,0.073448,0.003314999999999957,-0.0011599999999999944,-0.296913,-0.10367500000000007,-0.33938,0.297397,-0.11312500000000003,-0.34108,-0.256003,-0.4658650000000001,-0.135739,0.27047699999999997,-0.46287500000000004,-0.134341
60,-0.034100500000000006,0.621405,-0.301675,-0.1840635,0.443012,-0.271745,-0.3887435,0.557205,-0.405385,0.14628649999999999,0.462073,-0.274865,0.3479765,0.588715,-0.387135,-0.38983350000000005,0.777425,-0.504815,0.3688665,0.835415,-0.469935,-0.0737945,-0.0038349999999999773,0.0009149999999999991,0.0737945,0.003835000000000033,-0.0009149999999999991,-0.2984135,-0.08540499999999995,-0.344695,0.2967065,-0.09546500000000002,-0.346655,-0.2559635,-0.44389500000000004,-0.137936,0.2677165,-0.442095,-0.13664300000000001
61,-0.035867500000000004,0.61417,-0.31050500000000003,-0.1844905,0.437192,-0.27803500000000003,-0.39050050000000003,0.548676,-0.41361499999999995,0.1438395,0.457313,-0.28169500000000003,0.34661949999999997,0.57965,-0.397745,-0.39124050000000005,0.7671600000000001,-0.519905,0.3676695,0.82389,-0.483495,-0.0742745,-0.004379999999999995,0.0006849999999999912,0.0742745,0.004379999999999995,-0.0006849999999999912,-0.29927050000000005,-0.06782999999999995,-0.34901499999999996,0.2957995,-0.07848999999999995,-0.35163500000000003,-0.2563105,-0.42313999999999996,-0.1409,0.2648195,-0.42276,-0.138793
62,-0.0375345,0.60835,-0.31907,-0.1847715,0.432336,-0.28397000000000006,-0.3921515,0.533408,-0.42084,0.14153849999999998,0.448843,-0.28821,0.34453849999999997,0.5683199999999999,-0.40744,-0.3940015,0.74855,-0.53415,0.3668185,0.80779,-0.49792000000000003,-0.0749085,-0.0044800000000000395,0.0004099999999999937,0.0749085,0.004479999999999984,-0.00041000000000002146,-0.2994215,-0.052610000000000046,-0.35232,0.29479849999999996,-0.06313999999999997,-0.35553,-0.2564615,-0.40456000000000003,-0.14381400000000003,0.2620785,-0.40593,-0.14108
63,-0.0393635,0.5996190000000001,-0.32843500000000003,-0.1852435,0.4216060000000001,-0.290665,-0.39369350000000003,0.5224920000000001,-0.427975,0.1391565,0.43972200000000006,-0.29508500000000004,0.3420665,0.5571450000000001,-0.417045,-0.3968235,0.7362250000000001,-0.5481750000000001,0.3657265,0.7899850000000002,-0.513035,-0.07555049999999999,-0.004804999999999948,0.00014499999999997848,0.07555049999999999,0.004805000000000059,-0.00014500000000000624,-0.2991935,-0.03827499999999995,-0.355935,0.29335649999999996,-0.04879499999999992,-0.359225,-0.2567135,-0.38704499999999986,-0.147103,0.2592565,-0.38956499999999994,-0.14357
64,-0.0408265,0.5926440000000001,-0.337055,-0.18533850000000002,0.41309500000000005,-0.29695499999999997,-0.3946285,0.5076430000000001,-0.434415,0.1372715,0.432184,-0.301685,0.3398215,0.544791,-0.426055,-0.4001285,0.7173050000000001,-0.561835,0.3644815,0.777485,-0.526095,-0.0763635,-0.005144999999999955,5.0000000000050004e-06,0.0763635,0.005145000000000066,-4.999999999977245e-06,-0.29852850000000003,-0.02768499999999996,-0.35967499999999997,0.29233149999999997,-0.03674499999999992,-0.363035,-0.2566085,-0.3723949999999999,-0.15037499999999998,0.2569815,-0.37570499999999996,-0.146253
65,-0.0424275,0.5817300000000001,-0.34529,-0.1854145,0.40451000000000004,-0.303,-0.39608449999999995,0.4922290000000001,-0.4396,0.1354255,0.42362000000000005,-0.30796999999999997,0.3376155,0.5316150000000001,-0.4344,-0.4034345,0.6983,-0.57351,0.36272550000000003,0.7625600000000001,-0.5391699999999999,-0.07724349999999999,-0.005469999999999975,-0.00017999999999998573,0.07724349999999999,0.005470000000000086,0.00018000000000001348,-0.2978645,-0.01924999999999999,-0.36336999999999997,0.2913655,-0.02686999999999995,-0.3669,-0.2565345,-0.36017,-0.15359,0.25476550000000003,-0.36395999999999995,-0.149395
66,-0.044048500000000004,0.572597,-0.353385,-0.1855485,0.397045,-0.308475,-0.3976285,0.47729200000000005,-0.44477500000000003,0.1339115,0.415955,-0.31379500000000005,0.33543150000000005,0.518516,-0.442145,-0.40658849999999996,0.679025,-0.584005,0.36051150000000004,0.746435,-0.552065,-0.0781465,-0.005654999999999966,-0.00029500000000001747,0.0781465,0.005654999999999966,0.0002949999999999897,-0.29745849999999996,-0.01234499999999994,-0.36590500000000004,0.2904215,-0.019015000000000004,-0.370715,-0.2565985,-0.350055,-0.15671800000000002,0.2526815,-0.354205,-0.152593
67,-0.045494999999999994,0.564052,-0.361,-0.185631,0.39049999999999996,-0.31361,-0.399061,0.466479,-0.44901,0.132589,0.40915,-0.31919,0.333449,0.506596,-0.4497,-0.409621,0.66771,-0.59434,0.35812900000000003,0.73573,-0.56362,-0.079014,-0.005709999999999993,-0.00023000000000000798,0.079014,0.005709999999999993,0.00023000000000000798,-0.297481,-0.006530000000000036,-0.36780999999999997,0.289089,-0.012689999999999979,-0.37368,-0.256631,-0.34164000000000005,-0.15971,0.25055900000000003,-0.34591000000000005,-0.155862
68,-0.0465345,0.554489,-0.36729500000000004,-0.1857355,0.382265,-0.318465,-0.4005655,0.453665,-0.452905,0.13144450000000002,0.39995500000000006,-0.324565,0.3316345,0.495163,-0.456925,-0.4122755,0.655501,-0.603685,0.35564450000000003,0.725805,-0.574155,-0.0797705,-0.005584999999999951,-0.000125000000000014,0.0797705,0.005585000000000062,0.00012499999999998623,-0.2978955,-0.002874999999999961,-0.369235,0.2873245,-0.00900499999999993,-0.376255,-0.25659550000000003,-0.3362649999999999,-0.162668,0.2484245,-0.34062499999999996,-0.159116
69,-0.0470335,0.54789,-0.37216,-0.1857175,0.379205,-0.32194,-0.4034575,0.43968500000000005,-0.4558,0.1312725,0.39676500000000003,-0.32809,0.33038249999999997,0.485476,-0.46253,-0.41389750000000003,0.645887,-0.60929,0.3536125,0.717075,-0.58338,-0.07989450000000001,-0.005674999999999986,0.000130000000000019,0.07989450000000001,0.005674999999999986,-0.00012999999999999123,-0.2979975,-0.0005450000000000177,-0.36985,0.2859725,-0.007044999999999968,-0.3777,-0.2562975,-0.332615,-0.16469199999999998,0.24697249999999998,-0.3368749999999999,-0.161792
70,-0.0474195,0.544246,-0.376035,-0.1856265,0.37768500000000005,-0.324525,-0.4070065,0.42645500000000003,-0.458395,0.1311435,0.39334500000000006,-0.331295,0.3292335,0.47993800000000003,-0.467025,-0.4153465,0.63773,-0.612525,0.35078349999999997,0.711515,-0.591485,-0.07987949999999999,-0.005495000000000028,0.00031499999999998196,0.07987949999999999,0.005495000000000028,-0.0003150000000000097,-0.2980165,0.0004850000000000687,-0.370045,0.2845935,-0.0063949999999999285,-0.37899499999999997,-0.25611649999999997,-0.330635,-0.166305,0.24588349999999998,-0.33487500000000003,-0.164268
71,-0.047665,0.544641,-0.378985,-0.185326,0.3761700000000001,-0.326585,-0.41061600000000004,0.4269900000000001,-0.460615,0.131114,0.3938800000000001,-0.333975,0.328584,0.47869000000000006,-0.470785,-0.415856,0.6382650000000001,-0.614625,0.348054,0.7098200000000001,-0.5972850000000001,-0.080101,-0.005919999999999925,0.00048499999999998544,0.080101,0.005920000000000036,-0.0004850000000000132,-0.297816,0.001020000000000132,-0.36975500000000006,0.283464,-0.006319999999999881,-0.380165,-0.255846,-0.3305699999999999,-0.16758900000000002,0.24518399999999999,-0.33443999999999996,-0.16634500000000002
72,-0.0481745,0.544641,-0.38086,-0.1852395,0.3761700000000001,-0.32827,-0.4140995,0.4269900000000001,-0.46162,0.1310905,0.3938800000000001,-0.33619,0.32783049999999997,0.47869000000000006,-0.47415,-0.4163295,0.6382650000000001,-0.61612,0.3457205,0.7098200000000001,-0.60215,-0.08036950000000001,-0.005919999999999925,0.0005600000000000049,0.08036950000000001,0.005920000000000036,-0.0005600000000000049,-0.2983195,0.001020000000000132,-0.36917,0.28254049999999997,-0.006319999999999881,-0.38097000000000003,-0.2555495,-0.3307499999999999,-0.168313,0.24463049999999997,-0.33443999999999996,-0.168036
73,-0.048724500000000004,0.544641,-0.38227,-0.1854805,0.3761700000000001,-0.32967,-0.4171805,0.4269900000000001,-0.46225,0.13079949999999999,0.3938800000000001,-0.33796,0.3268895,0.47869000000000006,-0.47592999999999996,-0.4163405,0.6382650000000001,-0.61563,0.3432795,0.7098200000000001,-0.60373,-0.0804855,-0.005919999999999925,0.0006700000000000039,0.0804855,0.005920000000000036,-0.0006699999999999762,-0.2994205,0.001020000000000132,-0.36828,0.2818295,-0.006319999999999881,-0.38149999999999995,-0.2552705,-0.3307499999999999,-0.168908,0.2442495,-0.33443999999999996,-0.16968799999999998
74,-0.049252000000000004,0.544641,-0.38326,-0.185671,0.3761700000000001,-0.33058,-0.42230100000000004,0.4286000000000001,-0.46295,0.13017900000000002,0.3957300000000001,-0.33895,0.326059,0.47869000000000006,-0.47692,-0.416271,0.6383610000000001,-0.61659,0.341549,0.7098200000000001,-0.60477,-0.080274,-0.005919999999999925,0.0007600000000000107,0.080274,0.005920000000000036,-0.0007599999999999829,-0.300641,0.001120000000000121,-0.36697,0.28145899999999996,-0.006319999999999881,-0.3813,-0.25483100000000003,-0.3307499999999999,-0.16915999999999998,0.244169,-0.33443999999999996,-0.17118199999999997
75,-0.0493325,0.5465700000000001,-0.38348,-0.18562050000000002,0.3799950000000001,-0.33002,-0.4233305,0.4293150000000001,-0.46237,0.1297995,0.3973950000000001,-0.33918000000000004,0.3255995,0.4804880000000001,-0.47716,-0.41581049999999997,0.6397870000000001,-0.6150800000000001,0.3406695,0.7082350000000002,-0.60502,-0.0796775,-0.005804999999999949,0.0006800000000000139,0.0796775,0.00580500000000006,-0.0006799999999999862,-0.3017505,-0.0006549999999998501,-0.36509,0.28156950000000003,-0.008204999999999907,-0.37985,-0.2541705,-0.33386499999999986,-0.168694,0.24454950000000003,-0.3374949999999999,-0.171752
76,-0.04957,0.551194,-0.382985,-0.18592399999999998,0.38449,-0.329365,-0.428004,0.43416999999999994,-0.462185,0.129496,0.40079,-0.339455,0.325306,0.48414399999999996,-0.47742500000000004,-0.415384,0.647339,-0.610645,0.33945600000000004,0.713,-0.605335,-0.078862,-0.005589999999999984,0.0008749999999999869,0.078862,0.005589999999999984,-0.0008750000000000147,-0.302264,-0.00501000000000007,-0.36301500000000003,0.28183600000000003,-0.014140000000000041,-0.37783500000000003,-0.253464,-0.3422700000000001,-0.16835000000000003,0.24559600000000004,-0.34551,-0.17222700000000002
77,-0.0496485,0.55681,-0.381175,-0.1861535,0.38778500000000005,-0.32826500000000003,-0.4282335,0.44095500000000004,-0.46135499999999996,0.1292665,0.40437500000000004,-0.339425,0.32510649999999996,0.4903970000000001,-0.47709500000000005,-0.4145735,0.6564350000000001,-0.606125,0.3388965,0.7163250000000001,-0.604185,-0.07796449999999999,-0.005544999999999911,0.0009149999999999991,0.07796449999999999,0.005545000000000022,-0.0009149999999999991,-0.3030635,-0.012494999999999923,-0.360875,0.2827965,-0.02261499999999994,-0.37517500000000004,-0.2528235,-0.353915,-0.167857,0.24679649999999997,-0.35714499999999993,-0.17230399999999998
78,-0.04924850000000001,0.562692,-0.3778,-0.18652950000000001,0.3927,-0.32709,-0.4268595,0.451299,-0.45947,0.12922050000000002,0.40871,-0.33921999999999997,0.3251905,0.49763999999999997,-0.47581,-0.4132495,0.66551,-0.60146,0.3390705,0.72544,-0.6015999999999999,-0.0770425,-0.005430000000000046,0.0009500000000000064,0.0770425,0.005430000000000046,-0.0009499999999999786,-0.3025695,-0.02303999999999995,-0.35902,0.2841905,-0.03359000000000001,-0.37212999999999996,-0.25181950000000003,-0.36863999999999997,-0.167489,0.2483105,-0.37173,-0.172372
79,-0.04863000000000001,0.569798,-0.37397,-0.18680100000000002,0.396625,-0.32575,-0.425371,0.460287,-0.45716,0.129429,0.41314500000000004,-0.33871,0.326579,0.506549,-0.47351,-0.41181100000000004,0.676485,-0.5952500000000001,0.33996899999999997,0.733875,-0.59788,-0.076189,-0.005035000000000012,0.0009799999999999809,0.076189,0.005035000000000012,-0.0009800000000000086,-0.301491,-0.03615499999999994,-0.35733000000000004,0.285829,-0.04655500000000001,-0.36841999999999997,-0.250551,-0.38602499999999995,-0.16742100000000001,0.250169,-0.388965,-0.172408
80,-0.048355499999999996,0.5806560000000001,-0.369455,-0.18768449999999998,0.40480800000000006,-0.323775,-0.4246045,0.474324,-0.453115,0.12913550000000001,0.41880500000000004,-0.337365,0.32748550000000004,0.5178710000000001,-0.469505,-0.4110045,0.691935,-0.587445,0.3407055,0.743725,-0.5922350000000001,-0.0753755,-0.004525000000000001,0.0011550000000000171,0.0753755,0.004525000000000057,-0.0011549999999999894,-0.3002045,-0.04964499999999994,-0.355085,0.2867655,-0.05942499999999995,-0.364155,-0.24984449999999997,-0.40544499999999994,-0.166793,0.2520855,-0.40717499999999995,-0.171879
81,-0.048207999999999994,0.585455,-0.3621,-0.18875899999999998,0.408859,-0.32038,-0.423279,0.484392,-0.44801,0.128831,0.42316,-0.33468,0.32825099999999996,0.526145,-0.4636,-0.41030900000000003,0.700325,-0.57791,0.340811,0.753225,-0.58334,-0.074569,-0.004115000000000035,0.0012999999999999956,0.074569,0.00411499999999998,-0.0013000000000000234,-0.29913900000000004,-0.06826500000000002,-0.3513,0.28746099999999997,-0.07641500000000001,-0.35848,-0.249309,-0.429805,-0.16492400000000002,0.25405099999999997,-0.43057500000000004,-0.170492
82,-0.0481875,0.59234,-0.354305,-0.1897945,0.412789,-0.316955,-0.4216145,0.498874,-0.442415,0.1285055,0.429058,-0.331405,0.32868549999999996,0.5381670000000001,-0.457365,-0.4095845,0.70936,-0.568315,0.3407055,0.76656,-0.5735049999999999,-0.0738955,-0.0040000000000000036,0.0014349999999999918,0.0738955,0.0040000000000000036,-0.0014349999999999918,-0.2984145,-0.08652000000000004,-0.347425,0.2879155,-0.09289000000000003,-0.35267499999999996,-0.2493145,-0.45343999999999995,-0.16295199999999999,0.25572550000000005,-0.45325000000000004,-0.169016
83,-0.0484795,0.596175,-0.34562499999999996,-0.19135749999999999,0.417716,-0.312465,-0.42023750000000004,0.506949,-0.435685,0.12844250000000001,0.433114,-0.326835,0.3287525,0.546495,-0.449825,-0.40924750000000004,0.716935,-0.558505,0.3404525,0.7803249999999999,-0.562365,-0.0735645,-0.003794999999999993,0.0014049999999999896,0.0735645,0.003794999999999993,-0.0014049999999999896,-0.2980475,-0.10764499999999999,-0.342395,0.2878325,-0.11167499999999997,-0.34619500000000003,-0.2524275,-0.479785,-0.163566,0.2586225,-0.47877499999999995,-0.169206
84,-0.049076,0.60449,-0.33629,-0.193083,0.423367,-0.30701999999999996,-0.418523,0.5174799999999999,-0.42782,0.128337,0.43982699999999997,-0.32143,0.328637,0.5552,-0.44105,-0.409043,0.72561,-0.5482899999999999,0.34008700000000003,0.79846,-0.54977,-0.07352600000000001,-0.0037699999999999956,0.0013900000000000023,0.07352600000000001,0.0037699999999999956,-0.0013900000000000023,-0.297213,-0.12866000000000005,-0.33647,0.287537,-0.13045999999999996,-0.33947,-0.255993,-0.5062,-0.164153,0.261457,-0.50414,-0.168992
85,-0.04952750000000001,0.6121300000000001,-0.326935,-0.1945325,0.427484,-0.30137499999999995,-0.41650250000000005,0.52874,-0.419925,0.1282675,0.445117,-0.315585,0.32856749999999996,0.56364,-0.432305,-0.4083625,0.74167,-0.5381849999999999,0.3397975,0.80894,-0.538855,-0.0733995,-0.0039000000000000146,0.0013250000000000206,0.0733995,0.0039000000000000146,-0.0013249999999999929,-0.2955125,-0.14804,-0.330195,0.28694749999999997,-0.14684999999999998,-0.33279499999999995,-0.2595325,-0.52983,-0.164729,0.2647575,-0.52702,-0.169534
86,-0.049569999999999996,0.62085,-0.31774500000000006,-0.19568600000000003,0.432367,-0.295175,-0.41294600000000004,0.53812,-0.410685,0.128334,0.45157,-0.308945,0.32928399999999997,0.57285,-0.423005,-0.408266,0.7539199999999999,-0.5274350000000001,0.33982399999999996,0.82075,-0.527175,-0.073046,-0.0041999999999999815,0.0011249999999999871,0.073046,0.0041999999999999815,-0.0011250000000000149,-0.293206,-0.16626999999999997,-0.322755,0.286514,-0.16245000000000004,-0.32528500000000005,-0.26302600000000004,-0.55341,-0.165856,0.268624,-0.54891,-0.170495
87,-0.049565,0.6301399999999999,-0.30898499999999995,-0.19645500000000002,0.43625,-0.28796499999999997,-0.409255,0.54503,-0.401095,0.12842499999999998,0.45754,-0.301745,0.329795,0.58046,-0.413805,-0.407455,0.76642,-0.5146649999999999,0.339675,0.82725,-0.514205,-0.07261899999999999,-0.004500000000000004,0.0008450000000000124,0.07261899999999999,0.004500000000000004,-0.0008449999999999847,-0.290125,-0.18423999999999996,-0.314365,0.285765,-0.17784,-0.31721499999999997,-0.266295,-0.5767,-0.165873,0.272565,-0.57057,-0.17124799999999998
88,-0.04966999999999999,0.6410750000000001,-0.299735,-0.197301,0.441045,-0.280755,-0.409111,0.555475,-0.391235,0.128359,0.46227500000000005,-0.294665,0.329799,0.589575,-0.404695,-0.407441,0.778055,-0.502605,0.340459,0.8362850000000001,-0.501085,-0.072707,-0.004924999999999957,0.0006849999999999912,0.072707,0.004925000000000013,-0.0006849999999999912,-0.287171,-0.19970499999999997,-0.305805,0.284499,-0.19137499999999996,-0.309705,-0.268061,-0.597735,-0.163942,0.274269,-0.5900449999999999,-0.170405
89,-0.050134000000000005,0.646645,-0.28890499999999997,-0.198214,0.440735,-0.273445,-0.408944,0.562045,-0.38204499999999997,0.128266,0.466205,-0.287455,0.329626,0.6035250000000001,-0.39520500000000003,-0.406754,0.784325,-0.489985,0.340796,0.8491150000000001,-0.48731499999999994,-0.07278899999999999,-0.005284999999999984,0.00044500000000000095,0.07278899999999999,0.00528500000000004,-0.00044500000000000095,-0.284264,-0.21663499999999997,-0.296525,0.282756,-0.206075,-0.30156499999999997,-0.269364,-0.619375,-0.160806,0.27500600000000003,-0.610055,-0.168783
90,-0.050836000000000006,0.65786,-0.27995000000000003,-0.199298,0.4486,-0.26558000000000004,-0.409798,0.56995,-0.37270000000000003,0.128162,0.4748,-0.27947,0.328922,0.61522,-0.38629,-0.406608,0.7996599999999999,-0.47699,0.34077199999999996,0.8590099999999999,-0.47491,-0.072902,-0.005340000000000011,9.999999999998899e-05,0.072902,0.005339999999999984,-0.00010000000000001674,-0.280638,-0.23117000000000004,-0.28624000000000005,0.279262,-0.21924000000000005,-0.29198,-0.270498,-0.63832,-0.15721400000000002,0.274452,-0.62771,-0.16575900000000002
91,-0.051602999999999996,0.661555,-0.26783,-0.200695,0.452565,-0.25627,-0.410135,0.575445,-0.36163,0.128415,0.478655,-0.26995,0.328235,0.619705,-0.37382,-0.406445,0.8072050000000001,-0.46179,0.340725,0.869465,-0.45954,-0.073015,-0.005534999999999984,-0.0002899999999999986,0.073015,0.005535000000000012,0.0002899999999999986,-0.274445,-0.250735,-0.27134,0.27274499999999996,-0.237415,-0.27818,-0.271305,-0.661815,-0.151134,0.274225,-0.650365,-0.161162
92,-0.052012499999999996,0.66705,-0.25603,-0.2016965,0.45569,-0.24745,-0.4111265,0.5833200000000001,-0.35105,0.12937349999999997,0.48713,-0.26039,0.32787350000000004,0.62736,-0.36145,-0.4059365,0.8232299999999999,-0.44818,0.3408435,0.8797600000000001,-0.44488,-0.0733105,-0.005749999999999977,-0.0004900000000000043,0.0733105,0.005750000000000005,0.0004900000000000043,-0.2677865,-0.26822,-0.2564,0.26592350000000003,-0.25392,-0.26438,-0.2718465,-0.6827700000000001,-0.145494,0.27502350000000003,-0.67021,-0.156854
93,-0.052282999999999996,0.669855,-0.244115,-0.20238899999999999,0.458165,-0.238865,-0.41157900000000003,0.5910949999999999,-0.340445,0.130491,0.492025,-0.25082499999999996,0.327781,0.633665,-0.34901499999999996,-0.405169,0.837055,-0.434525,0.341541,0.885455,-0.430245,-0.073301,-0.006144999999999984,-0.0007150000000000073,0.073301,0.0061450000000000116,0.0007149999999999934,-0.260519,-0.285315,-0.240555,0.258731,-0.270135,-0.249305,-0.272089,-0.703105,-0.139739,0.274901,-0.689095,-0.151094
94,-0.052372,0.677435,-0.231825,-0.203112,0.462795,-0.229545,-0.411972,0.596365,-0.328465,0.131548,0.497875,-0.240435,0.327198,0.640945,-0.336415,-0.40468200000000004,0.842465,-0.419735,0.342558,0.891835,-0.415125,-0.073296,-0.006374999999999992,-0.0008350000000000024,0.073296,0.0063750000000000195,0.0008350000000000024,-0.252812,-0.306595,-0.222995,0.251208,-0.293105,-0.231875,-0.27180200000000004,-0.725295,-0.133382,0.274648,-0.711415,-0.145094
95,-0.052218,0.68378,-0.219601,-0.203537,0.46794,-0.220161,-0.411497,0.60442,-0.316821,0.132633,0.50366,-0.229951,0.327093,0.64674,-0.32364099999999996,-0.404097,0.8509300000000001,-0.404731,0.344073,0.89908,-0.399891,-0.073186,-0.006419999999999995,-0.0009089999999999931,0.073186,0.006420000000000009,0.000909000000000007,-0.243887,-0.32733,-0.20394099999999998,0.243823,-0.31549000000000005,-0.214841,-0.268217,-0.74558,-0.122642,0.273363,-0.73276,-0.137981
96,-0.051310499999999995,0.6915035,-0.2008985,-0.2033545,0.47241350000000004,-0.2050385,-0.4102945,0.6134035,-0.2992085,0.1341455,0.5099435,-0.21275850000000002,0.3272755,0.6551735000000001,-0.3038985,-0.4035045,0.8608835,-0.38411850000000003,0.3458655,0.9072335,-0.37862850000000003,-0.07352149999999999,-0.006557499999999994,-0.001186500000000007,0.07352149999999999,0.006557500000000008,0.0011864999999999931,-0.2335845,-0.3473265,-0.1754615,0.2359955,-0.3370265,-0.18705950000000002,-0.2629245,-0.7649064999999999,-0.10251550000000001,0.2715355,-0.7529564999999999,-0.12032350000000001
97,-0.050025,0.6954715,-0.1817085,-0.203537,0.4781915,-0.18779849999999998,-0.408697,0.6192115,-0.2813685,0.136533,0.5163815,-0.1939985,0.328063,0.6601115,-0.2831085,-0.403077,0.8691815,-0.3629485,0.347863,0.9128514999999999,-0.3569385,-0.073963,-0.006492499999999998,-0.001515499999999989,0.073963,0.006492499999999998,0.001515500000000003,-0.220177,-0.3691785,-0.1434495,0.223293,-0.3596685,-0.1547445,-0.257107,-0.7857985000000001,-0.0806765,0.267473,-0.7745085,-0.09844649999999999
98,-0.0482175,0.701086,-0.1638555,-0.2034055,0.485116,-0.1709055,-0.4071755,0.624596,-0.26392550000000004,0.1393245,0.5219360000000001,-0.1753355,0.3289945,0.658086,-0.2632355,-0.4019755,0.878566,-0.34240550000000003,0.3503345,0.914126,-0.3365755,-0.0742775,-0.006451999999999999,-0.0019525000000000028,0.0742775,0.006451999999999999,0.001952499999999996,-0.2071555,-0.389094,-0.1126535,0.21114449999999998,-0.38002400000000003,-0.1232645,-0.2505755,-0.804834,-0.0581825,0.2636645,-0.7942940000000001,-0.0758515
99,-0.046343,0.7061915000000001,-0.14565899999999998,-0.203279,0.48815149999999996,-0.154828,-0.405669,0.6326915000000001,-0.247248,0.14220100000000002,0.5230915,-0.15783799999999998,0.330151,0.6601215,-0.243898,-0.400359,0.8836215000000001,-0.323068,0.353031,0.9189415000000001,-0.31678799999999996,-0.074656,-0.006444499999999999,-0.002245999999999998,0.074656,0.006444499999999999,0.002246000000000005,-0.195519,-0.40500850000000005,-0.084323,0.20066099999999998,-0.3958285,-0.09418599999999999,-0.24423899999999998,-0.8208685,-0.036907999999999996,0.260121,-0.8101585,-0.0533
100,-0.044327000000000005,0.7158565,-0.13032749999999999,-0.20317,0.4941565,-0.1398065,-0.40459,0.6384365000000001,-0.23234549999999998,0.14496,0.5269665,-0.1417755,0.33167,0.6640265000000001,-0.22777550000000002,-0.39892,0.8941065,-0.3052255,0.35585,0.9201765000000001,-0.2997755,-0.07524700000000001,-0.006092500000000001,-0.0024635000000000004,0.07524700000000001,0.006092499999999997,0.0024635000000000004,-0.18666,-0.4130935,-0.0609425,0.19357,-0.40402350000000004,-0.0691705,-0.23964,-0.8291535,-0.0190315,0.25857,-0.8180634999999999,-0.0336655
101,-0.042436,0.7244185000000001,-0.11509749999999999,-0.20325700000000002,0.4989685,-0.1249375,-0.403587,0.6426585,-0.21735749999999998,0.147453,0.5266085,-0.1258725,0.33282300000000004,0.6667485000000001,-0.2121475,-0.397717,0.8961385000000001,-0.2869275,0.358733,0.9209585,-0.2826875,-0.076085,-0.0056774999999999985,-0.002700499999999998,0.076085,0.0056775,0.0027005000000000015,-0.17855700000000002,-0.4199115,-0.0388035,0.187023,-0.4118815,-0.044941499999999995,-0.235757,-0.8360314999999999,-0.0022674999999999987,0.257493,-0.8249015,-0.0142825
102,-0.0406885,0.7309450000000001,-0.100115,-0.2033955,0.503165,-0.11043599999999999,-0.40302550000000004,0.645795,-0.202745,0.1497345,0.5271250000000001,-0.11010199999999999,0.3338545,0.668255,-0.197295,-0.3969255,0.900105,-0.268465,0.3612245,0.9214950000000001,-0.266495,-0.07726050000000001,-0.005101,-0.0029560000000000003,0.07726050000000001,0.005101000000000001,0.0029560000000000003,-0.1714455,-0.426145,-0.018477999999999998,0.1812145,-0.419335,-0.022504999999999997,-0.2325355,-0.841305,0.013345,0.2567545,-0.830715,0.004938000000000001
103,-0.0384345,0.7317429999999999,-0.08539949999999999,-0.2030625,0.5057429999999999,-0.0964495,-0.4016425,0.6487229999999999,-0.18902549999999999,0.1525375,0.5272929999999999,-0.0949055,0.3359675,0.668843,-0.1827855,-0.39565249999999996,0.9030929999999999,-0.2518855,0.3640675,0.9227029999999999,-0.2505755,-0.0777795,-0.00458,-0.0033074999999999997,0.0777795,0.00458,0.0033075000000000014,-0.16474250000000001,-0.433127,-0.00021549999999999868,0.1766175,-0.427547,-0.0025845,-0.2294225,-0.8470070000000001,0.027818500000000003,0.25678749999999995,-0.8371270000000001,0.0229025
104,-0.0361515,0.732871,-0.070953,-0.2026445,0.507831,-0.082832,-0.4004145,0.649811,-0.17532699999999998,0.1552655,0.5264810000000001,-0.080622,0.33822549999999996,0.6684110000000001,-0.16893699999999998,-0.39435450000000005,0.9056310000000001,-0.23540699999999998,0.3668055,0.9237810000000001,-0.23512699999999997,-0.0782645,-0.004056000000000001,-0.003609,0.0782645,0.004056000000000001,0.003609,-0.15916450000000001,-0.439479,0.015597999999999999,0.1721655,-0.435319,0.016866,-0.2267945,-0.852039,0.040917999999999996,0.25701549999999995,-0.843019,0.04065
105,-0.0344885,0.732275,-0.06400600000000001,-0.2025565,0.509575,-0.07594400000000001,-0.3994765,0.6497550000000001,-0.168702,0.1575235,0.5250450000000001,-0.07361000000000001,0.34019350000000004,0.666995,-0.16231199999999998,-0.3934565,0.9068050000000001,-0.226162,0.3691635,0.9245950000000001,-0.226572,-0.0785275,-0.0036040000000000004,-0.003725,0.0785275,0.0036040000000000004,0.003725,-0.1556565,-0.445045,0.020835,0.1682835,-0.442665,0.024548,-0.2256165,-0.855895,0.044398,0.25744350000000005,-0.848235,0.047738
106,-0.033047,0.7327685,-0.0583315,-0.20208199999999998,0.5099785,-0.0712295,-0.399132,0.6507585,-0.16277049999999998,0.159048,0.5250385000000001,-0.0682345,0.34205800000000003,0.6670585,-0.1567605,-0.393132,0.9091285,-0.2172305,0.371348,0.9264385,-0.21888049999999998,-0.07871700000000001,-0.0035975,-0.0038085000000000003,0.07871700000000001,0.0035975,0.0038085,-0.154662,-0.44532150000000004,0.022852499999999998,0.16911800000000002,-0.4428015,0.027249500000000003,-0.224722,-0.8561814999999999,0.0464885,0.258158,-0.8482815,0.0515265
107,-0.031774000000000004,0.7331185,-0.053130000000000004,-0.20173600000000003,0.5101385,-0.06666699999999999,-0.398526,0.6515085,-0.157027,0.16026400000000002,0.5250385000000001,-0.063441,0.343794,0.6671285,-0.151537,-0.393026,0.9108885,-0.208787,0.373294,0.9282285,-0.211237,-0.078907,-0.0035975,-0.003932,0.078907,0.0035975,0.003932,-0.153746,-0.4455815,0.024749,0.16971399999999998,-0.44293150000000003,0.029616999999999997,-0.224086,-0.8563514999999999,0.048395999999999995,0.258704,-0.8483415,0.05507
108,-0.030735,0.7332185,-0.049095,-0.201497,0.5102885,-0.063091,-0.398907,0.6521685,-0.15170799999999998,0.161123,0.5250685,-0.059347000000000004,0.34537300000000004,0.6670685000000001,-0.14665799999999998,-0.39326700000000003,0.9125885,-0.20052799999999998,0.37496300000000005,0.9296985,-0.204068,-0.079084,-0.0035975,-0.004029,0.079084,0.0035975,0.0040290000000000005,-0.153097,-0.44577150000000004,0.026331,0.170013,-0.4431315,0.031516,-0.223777,-0.8563715,0.049999,0.25896300000000005,-0.8483715,0.058134
109,-0.030010500000000002,0.7333525,-0.045625,-0.2015015,0.5103925,-0.05998100000000001,-0.3994415,0.6527925,-0.14643499999999998,0.1615985,0.5244025,-0.055790000000000006,0.34666850000000005,0.6664525,-0.14202499999999998,-0.39360150000000005,0.9142724999999999,-0.19311499999999998,0.37625849999999994,0.9312024999999999,-0.196965,-0.0792095,-0.0034865,-0.004096000000000001,0.0792095,0.0034865,0.004096,-0.1532315,-0.4459075,0.027103,0.1704885,-0.4430575,0.033193,-0.2238815,-0.8563375,0.051334000000000005,0.26042849999999995,-0.8482175000000001,0.061315999999999996
110,-0.029407000000000003,0.7335499999999999,-0.042514,-0.201621,0.51061,-0.057115000000000006,-0.39970100000000003,0.6532399999999999,-0.141625,0.161969,0.52405,-0.052851,0.347819,0.6660499999999999,-0.137875,-0.394121,0.9158499999999999,-0.186265,0.37725899999999996,0.93262,-0.190365,-0.07921,-0.003339,-0.004083,0.07921,0.003339,0.004083,-0.153261,-0.44594,0.02767,0.170899,-0.44289,0.034739,-0.224111,-0.85621,0.052576,0.261509,-0.8478600000000001,0.064138
111,-0.028822500000000004,0.7337465,-0.0397105,-0.2015705,0.5108465,-0.0544095,-0.39989050000000004,0.6536065,-0.1373185,0.16245949999999998,0.5240864999999999,-0.0502665,0.3488495,0.6660465,-0.1340585,-0.39456050000000004,0.9170465,-0.1802685,0.3780595,0.9341565,-0.1839785,-0.07921349999999999,-0.0031934999999999997,-0.003995500000000001,0.07921349999999999,0.0031935,0.0039955,-0.15329050000000002,-0.4457835,0.0282885,0.1713495,-0.44270349999999997,0.036157499999999995,-0.2242105,-0.8559835,0.0539025,0.2623995,-0.8474635,0.0666235
112,-0.0282505,0.7338975,-0.037322999999999995,-0.2014185,0.5110175,-0.051945000000000005,-0.40004850000000003,0.6537875,-0.133431,0.16305150000000002,0.5242275,-0.047982,0.34978149999999997,0.6661875,-0.130521,-0.39478850000000004,0.9179475,-0.175071,0.3786815,0.9356075,-0.178091,-0.0792215,-0.0030825,-0.003861,0.0792215,0.0030825,0.003860999999999998,-0.15330850000000001,-0.4455525,0.028852,0.17184149999999998,-0.44256249999999997,0.037508,-0.22430850000000002,-0.8557625,0.05516,0.2629915,-0.8471125,0.068874
113,-0.027796500000000005,0.7340125,-0.035117499999999996,-0.20124050000000002,0.5111325,-0.0496765,-0.4003105,0.6539124999999999,-0.1299255,0.1635595,0.5243024999999999,-0.0458465,0.35044949999999997,0.6662625,-0.1271555,-0.3950705,0.9186025,-0.1707555,0.3789095,0.9369325,-0.1728955,-0.0793095,-0.0030075,-0.0037394999999999998,0.0793095,0.0030074999999999998,0.0037394999999999998,-0.1534105,-0.4456275,0.0293895,0.1721395,-0.4425075,0.0388335,-0.22456050000000002,-0.8556575000000001,0.0563825,0.2631595,-0.8468375,0.07098549999999999
114,-0.027606,0.7341325000000001,-0.0330845,-0.201206,0.5112625000000001,-0.0476375,-0.400616,0.6540025,-0.12700150000000002,0.163834,0.5243525,-0.043924500000000005,0.350804,0.6663125000000001,-0.1240315,-0.39552600000000004,0.9192325,-0.1671715,0.37863399999999997,0.9380725000000001,-0.1685115,-0.07934,-0.0029575,-0.0036295000000000008,0.07934,0.0029575,0.003629499999999999,-0.15353599999999998,-0.4455775,0.0297675,0.172184,-0.4425875,0.0401565,-0.22503599999999999,-0.8555474999999999,0.057430499999999995,0.262964,-0.8465575,0.07287249999999999
115,-0.0276355,0.734208,-0.0312975,-0.2012475,0.511368,-0.0460185,-0.4007575,0.654098,-0.12467050000000002,0.1640225,0.524558,-0.042027499999999995,0.3508225,0.666408,-0.1211805,-0.3960375,0.919768,-0.1647305,0.3780225,0.939178,-0.1645705,-0.07932349999999999,-0.0029360000000000002,-0.003523499999999999,0.07932349999999999,0.0029360000000000002,0.0035235000000000023,-0.1537175,-0.445662,0.029962500000000003,0.1720425,-0.442762,0.041329500000000005,-0.2256475,-0.855482,0.0584685,0.2625825,-0.846332,0.07446849999999999
116,-0.027881499999999997,0.734302,-0.029800000000000004,-0.2013595,0.511482,-0.044591000000000006,-0.40102950000000004,0.6541520000000001,-0.122682,0.1640905,0.524922,-0.040108000000000005,0.3506005,0.666822,-0.118432,-0.3963495,0.9202020000000001,-0.162932,0.3773005,0.9401820000000001,-0.161042,-0.07928750000000001,-0.0029300000000000003,-0.0034539999999999987,0.07928750000000001,0.0029300000000000003,0.0034540000000000005,-0.1539895,-0.445668,0.030033,0.17171050000000002,-0.442828,0.042219,-0.2263995,-0.8554379999999999,0.059472,0.2619605,-0.845888,0.075747
117,-0.028218000000000003,0.7343649999999999,-0.028414500000000002,-0.201559,0.511605,-0.043284500000000004,-0.401319,0.654205,-0.12116549999999998,0.16409100000000001,0.525335,-0.0382275,0.350151,0.667405,-0.11575549999999998,-0.396479,0.920575,-0.1616255,0.376561,0.941175,-0.1576855,-0.079269,-0.0028929999999999997,-0.0034605000000000018,0.079269,0.0028929999999999997,0.0034605,-0.154409,-0.445705,0.0300655,0.171181,-0.442865,0.0429465,-0.227159,-0.855415,0.0604945,0.261301,-0.845515,0.0770335
118,-0.028487500000000002,0.7344480000000001,-0.027150000000000004,-0.2016615,0.5117980000000001,-0.042011999999999994,-0.4014215,0.654228,-0.119893,0.1641085,0.5257580000000001,-0.036423,0.3496785,0.668008,-0.113233,-0.39616150000000006,0.920938,-0.160333,0.37588849999999996,0.942118,-0.154623,-0.0792495,-0.0028259999999999995,-0.003521,0.0792495,0.0028259999999999995,0.003521,-0.1548415,-0.445772,0.030062,0.1706285,-0.442932,0.043718,-0.2279315,-0.855462,0.061398999999999995,0.2607085,-0.845362,0.078285
119,-0.028667500000000002,0.734678,-0.0259965,-0.2017325,0.512008,-0.0408545,-0.40138250000000003,0.654238,-0.1187315,0.1641875,0.526178,-0.0347595,0.3492175,0.668738,-0.11067149999999999,-0.3956425,0.921298,-0.1591515,0.3752275,0.943078,-0.15186149999999998,-0.07921049999999999,-0.0027489999999999997,-0.003605500000000001,0.07921049999999999,0.0027489999999999997,0.003605500000000001,-0.1552325,-0.445842,0.0298885,0.17020749999999998,-0.443042,0.0442395,-0.2285925,-0.855572,0.0621945,0.2601475,-0.845292,0.0794025
120,-0.0288285,0.734817,-0.024985999999999998,-0.2017985,0.512267,-0.039879,-0.40121850000000003,0.654267,-0.11770900000000001,0.1642215,0.526707,-0.033223,0.3488115,0.669617,-0.10808899999999999,-0.39483850000000004,0.921467,-0.158429,0.3744915,0.944107,-0.149009,-0.0791615,-0.002692,-0.0037470000000000003,0.0791615,0.002692,0.0037470000000000003,-0.1554885,-0.445993,0.029616,0.1698915,-0.443173,0.044436,-0.2291885,-0.855693,0.062718,0.25913149999999996,-0.845183,0.07999099999999999
121,-0.028896500000000006,0.7349835,-0.024245000000000003,-0.20174950000000003,0.5125234999999999,-0.039229,-0.4009895,0.6542835,-0.11703,0.1642905,0.5271435,-0.032001,0.3485505,0.6704534999999999,-0.10586000000000001,-0.3937995,0.9215534999999999,-0.1585,0.3738605,0.9450735,-0.14649,-0.0791375,-0.0026675,-0.0039040000000000012,0.0791375,0.0026674999999999997,0.0039040000000000012,-0.1556395,-0.44626649999999995,0.029362,0.1697205,-0.44332649999999996,0.044431,-0.22965950000000002,-0.8558965000000001,0.062968,0.25833049999999996,-0.8451465,0.08003099999999999
122,-0.028909999999999998,0.7351095,-0.023764,-0.201652,0.5127495,-0.03887,-0.400702,0.6542195,-0.116822,0.164408,0.5276195,-0.030902,0.348398,0.6712995,-0.10382200000000001,-0.39257200000000003,0.9215395,-0.159092,0.37329799999999996,0.9459695,-0.14407199999999998,-0.079113,-0.0026615,-0.004083,0.079113,0.0026615,0.004083,-0.155752,-0.4464905,0.029049,0.169568,-0.4434605,0.044256000000000004,-0.22994199999999998,-0.8561405,0.063079,0.257528,-0.8450705,0.07989199999999999
123,-0.028925500000000003,0.7351435000000001,-0.023569,-0.2015435,0.5129535000000001,-0.038770000000000006,-0.4003935,0.6541435000000001,-0.11706,0.1645165,0.5281935000000001,-0.029888000000000005,0.3482465,0.6721235000000001,-0.10205,-0.3913635,0.9214235000000001,-0.16016,0.3727365,0.9467535,-0.14193,-0.07909150000000001,-0.0026545,-0.004296000000000001,0.07909150000000001,0.0026545,0.004295999999999998,-0.1558635,-0.4466165,0.028776999999999997,0.1693865,-0.4435065,0.044004,-0.2301435,-0.8563565,0.063194,0.2567465,-0.8450464999999999,0.079541
124,-0.028960999999999997,0.7351695,-0.0235145,-0.201488,0.5131595,-0.038809500000000004,-0.400108,0.6541595,-0.11747850000000001,0.164472,0.5286995,-0.029025500000000003,0.348042,0.6729195,-0.1004485,-0.390328,0.9212595,-0.1613685,0.372162,0.9474395,-0.1399285,-0.079073,-0.0026595,-0.004524500000000001,0.079073,0.0026595,0.004524500000000001,-0.156018,-0.4466005,0.0285825,0.169092,-0.4434505,0.0437235,-0.230218,-0.8564705,0.0632455,0.255962,-0.8451005,0.0790855
125,-0.02898,0.735224,-0.0236045,-0.201457,0.5133939999999999,-0.038985500000000006,-0.399847,0.654254,-0.1181025,0.164423,0.5292739999999999,-0.0282245,0.347843,0.6735939999999999,-0.0989625,-0.389597,0.921184,-0.1625425,0.371633,0.948044,-0.1381525,-0.079068,-0.00267,-0.004671500000000002,0.079068,0.00267,0.004671499999999999,-0.156167,-0.446596,0.0283945,0.168703,-0.443566,0.043646500000000005,-0.230247,-0.8565060000000001,0.0631915,0.255173,-0.845136,0.07850850000000001
126,-0.029010499999999998,0.7351475000000001,-0.023772,-0.2014565,0.5136275,-0.039133999999999995,-0.39966650000000004,0.6543475,-0.118731,0.1643435,0.5299975,-0.027369000000000004,0.3476135,0.6742775,-0.09745100000000001,-0.3891165,0.9211075000000001,-0.163631,0.3711535,0.9485875,-0.136631,-0.0790685,-0.0027065,-0.004735,0.0790685,0.0027065,0.004735,-0.1562965,-0.4465725,0.028262,0.1683135,-0.4436325,0.043653,-0.2303065,-0.8565225,0.063054,0.25439350000000005,-0.8451525,0.078056
127,-0.0290745,0.7351095000000001,-0.02397,-0.2015065,0.5138095,-0.039143,-0.3996265,0.6544595000000001,-0.119273,0.1642535,0.5308295000000001,-0.026486,0.3473735,0.6749695,-0.09600299999999999,-0.38894650000000003,0.9211495000000001,-0.16445300000000002,0.3706735,0.9491995000000001,-0.135083,-0.07907449999999999,-0.0027405,-0.004735,0.07907449999999999,0.0027405,0.004735,-0.1563765,-0.4465405,0.028179,0.1679335,-0.4436705,0.043636999999999995,-0.2303665,-0.8564404999999999,0.062912,0.2536235,-0.8451905,0.077627
128,-0.0292305,0.7350840000000001,-0.024206,-0.20157650000000002,0.5139440000000001,-0.039214,-0.3996865,0.6545540000000001,-0.11960399999999999,0.1640835,0.5317040000000001,-0.025618999999999996,0.3471435,0.6755840000000001,-0.09464399999999999,-0.38899649999999997,0.921344,-0.164904,0.3701835,0.949744,-0.13364399999999999,-0.0790835,-0.0027660000000000002,-0.004803999999999999,0.0790835,0.0027660000000000002,0.004804000000000003,-0.15644650000000002,-0.446496,0.028108,0.1676435,-0.44369600000000003,0.043557,-0.23046650000000002,-0.8563259999999999,0.062773,0.25305350000000004,-0.845236,0.07738
129,-0.029412000000000004,0.7350599999999999,-0.02443,-0.20162200000000002,0.5139499999999999,-0.039325,-0.39973200000000003,0.65462,-0.11971499999999999,0.163908,0.5324099999999999,-0.024784999999999995,0.347008,0.6760499999999999,-0.09357499999999999,-0.389042,0.92153,-0.165015,0.369738,0.9501,-0.132565,-0.079101,-0.002775,-0.004913999999999998,0.079101,0.002775,0.004914000000000002,-0.156532,-0.44643,0.027996000000000004,0.16752799999999998,-0.44371,0.043443,-0.230572,-0.85623,0.06265899999999999,0.253008,-0.84523,0.077269
130,-0.029639999999999996,0.7349455,-0.024608500000000002,-0.20167799999999997,0.5139555,-0.039496500000000004,-0.399758,0.6546955000000001,-0.11988549999999999,0.16372199999999998,0.5331455,-0.0239555,0.346882,0.6765255,-0.09249550000000001,-0.38906799999999997,0.9216755000000001,-0.16518549999999999,0.369252,0.9505155000000001,-0.13137549999999998,-0.079124,-0.0027815,-0.0050545,0.079124,0.0027815,0.0050545,-0.156638,-0.4462745,0.027821500000000002,0.16750199999999998,-0.4437045,0.0433325,-0.230638,-0.8560844999999999,0.0624865,0.25298200000000004,-0.8452445,0.0770985
131,-0.029894,0.7346545,-0.0248575,-0.201735,0.5139845000000001,-0.039511500000000005,-0.399755,0.6548545,-0.1201235,0.163525,0.5339045,-0.0231855,0.346825,0.6770145,-0.0913235,-0.389065,0.9217845,-0.1654235,0.36883499999999997,0.9511045,-0.1301835,-0.07913700000000001,-0.0027974999999999996,-0.0051895,0.07913700000000001,0.0027974999999999996,0.0051895,-0.156735,-0.4462755,0.0277415,0.167495,-0.4437855,0.0433155,-0.230725,-0.8559355,0.062245499999999995,0.252985,-0.8452455,0.0768605
132,-0.030136999999999997,0.7344955,-0.025194499999999998,-0.20185899999999998,0.5141555,-0.03927649999999999,-0.399869,0.6551455,-0.1199295,0.16334100000000001,0.5345155,-0.0224195,0.346771,0.6773155000000001,-0.0899595,-0.389339,0.9219255000000001,-0.1651395,0.368741,0.9517155,-0.12882949999999999,-0.07913300000000001,-0.0028255,-0.0053215,0.07913300000000001,0.0028255,0.0053215,-0.156749,-0.4462345,0.0276035,0.167491,-0.44389449999999997,0.0433805,-0.23071899999999998,-0.8557245,0.062119499999999994,0.253231,-0.8452445,0.0768155
133,-0.030363499999999998,0.734453,-0.025481,-0.2020155,0.514393,-0.038955000000000004,-0.4000755,0.6555230000000001,-0.11940500000000001,0.1631745,0.5350330000000001,-0.021675999999999997,0.3467045,0.677533,-0.088515,-0.3897955,0.922253,-0.164275,0.3686745,0.952443,-0.12712500000000002,-0.07912949999999999,-0.0028539999999999998,-0.005413000000000001,0.07912949999999999,0.0028539999999999998,0.005413000000000001,-0.1567355,-0.446027,0.027382,0.16752450000000002,-0.443857,0.043344,-0.2307255,-0.855467,0.062026,0.2535645,-0.845117,0.076798
134,-0.030571999999999995,0.7344185,-0.025699499999999997,-0.202186,0.5146685,-0.0385325,-0.400296,0.6559385,-0.11850649999999999,0.16303399999999998,0.5353985,-0.0209865,0.34672400000000003,0.6776185,-0.0870565,-0.39045599999999997,0.9228385,-0.1627865,0.36860400000000004,0.9531385,-0.1252165,-0.07913300000000001,-0.0028855,-0.005485500000000001,0.07913300000000001,0.0028855,0.005485500000000001,-0.156786,-0.4457815,0.0272045,0.167604,-0.4438215,0.0432945,-0.230706,-0.8551315,0.061963500000000005,0.25397400000000003,-0.8449915,0.0767955
135,-0.030717500000000002,0.7344609999999999,-0.025521000000000002,-0.20239749999999998,0.515011,-0.037599,-0.4006875,0.6566209999999999,-0.11674999999999999,0.1628725,0.535651,-0.020201999999999998,0.3469925,0.677661,-0.08532000000000001,-0.3912575,0.923631,-0.16036,0.3685625,0.953861,-0.12248,-0.0791705,-0.002924,-0.005524999999999999,0.0791705,0.002924,0.005525000000000002,-0.1568775,-0.445539,0.027161,0.16774250000000002,-0.443829,0.043242,-0.23073749999999998,-0.854819,0.062021,0.2545025,-0.8448990000000001,0.07685900000000001
136,-0.030743999999999997,0.734468,-0.025199,-0.202562,0.515428,-0.036399999999999995,-0.401052,0.657368,-0.11471900000000002,0.162778,0.535798,-0.019399,0.34737799999999996,0.677708,-0.08354899999999998,-0.39191200000000004,0.924638,-0.157479,0.368788,0.954498,-0.11976900000000001,-0.079204,-0.0029639999999999996,-0.005534999999999998,0.079204,0.0029639999999999996,0.005535000000000002,-0.156892,-0.445222,0.027199,0.167968,-0.44382200000000005,0.043201,-0.230632,-0.854562,0.062128,0.255088,-0.844762,0.076976
137,-0.030698000000000003,0.734529,-0.024730500000000002,-0.202722,0.515859,-0.0350155,-0.401512,0.658169,-0.11244950000000001,0.162708,0.535889,-0.018584499999999997,0.347858,0.677769,-0.0818895,-0.392432,0.925689,-0.15444950000000002,0.369238,0.955069,-0.1169695,-0.079236,-0.002994,-0.0055295,0.079236,0.002994,0.0055295,-0.156892,-0.445161,0.0273175,0.168218,-0.443811,0.042994500000000005,-0.230542,-0.8543510000000001,0.0622735,0.255698,-0.8446710000000001,0.0771355
138,-0.030576,0.7346285,-0.0241665,-0.20289200000000002,0.5163085000000001,-0.0335755,-0.401992,0.6590085,-0.11000750000000001,0.162688,0.5359585,-0.0178445,0.348388,0.6777285,-0.0802375,-0.392912,0.9268685,-0.1512075,0.369848,0.9555885,-0.1141575,-0.07925499999999999,-0.0030004999999999997,-0.005514500000000002,0.07925499999999999,0.0030004999999999997,0.005514499999999999,-0.15685200000000002,-0.4450915,0.0274255,0.168508,-0.4438015,0.0428085,-0.23042200000000002,-0.8541715,0.0623995,0.256328,-0.8445615,0.07721449999999999
139,-0.0303675,0.734783,-0.02345,-0.2030325,0.516803,-0.032050999999999996,-0.4024725,0.659883,-0.10729200000000001,0.16273749999999998,0.536033,-0.017096,0.3489775,0.677593,-0.078622,-0.3933425,0.928233,-0.147642,0.3706375,0.956063,-0.11143199999999999,-0.0792745,-0.0030039999999999997,-0.005492999999999998,0.0792745,0.0030039999999999997,0.005493000000000001,-0.15682249999999998,-0.445077,0.027562000000000003,0.16882750000000002,-0.44372700000000004,0.042647000000000004,-0.23037249999999998,-0.854077,0.062549,0.2569975,-0.844487,0.077309
140,-0.030119499999999997,0.734961,-0.022548,-0.2030795,0.517301,-0.030508,-0.4028695,0.660801,-0.104517,0.1628505,0.536111,-0.016392999999999998,0.3496305,0.677391,-0.077212,-0.3937195,0.929491,-0.144237,0.3716505,0.956451,-0.108817,-0.0792905,-0.003011,-0.005470000000000003,0.0792905,0.003011,0.005469999999999999,-0.15674949999999999,-0.445039,0.027794,0.1691805,-0.443559,0.042487,-0.2302895,-0.853999,0.06264700000000001,0.2576905,-0.844409,0.077415
141,-0.029886500000000003,0.735205,-0.021424000000000002,-0.2030055,0.517715,-0.029122,-0.4032155,0.6616150000000001,-0.10198700000000001,0.16303449999999997,0.536185,-0.01583,0.3503045,0.677085,-0.07608100000000001,-0.3939955,0.9306650000000001,-0.14099699999999998,0.3727245,0.956825,-0.10648700000000001,-0.0793005,-0.0030239999999999998,-0.005433,0.0793005,0.0030239999999999998,0.005433,-0.15663549999999998,-0.445015,0.028083,0.1695045,-0.443405,0.042332999999999996,-0.23012549999999998,-0.8539249999999999,0.062707,0.2582145,-0.8443649999999999,0.077492
142,-0.029694,0.7355079999999999,-0.020272,-0.20291,0.518118,-0.027646999999999998,-0.40356,0.6623479999999999,-0.09939400000000001,0.16321,0.5362279999999999,-0.015315000000000002,0.35096,0.676688,-0.075071,-0.39437,0.931958,-0.137514,0.3739,0.957058,-0.10455399999999998,-0.079295,-0.0030419999999999996,-0.0054009999999999996,0.079295,0.0030419999999999996,0.0054009999999999996,-0.15646000000000002,-0.445032,0.028422,0.16979,-0.443282,0.042129,-0.22994,-0.853862,0.062772,0.25862,-0.8443820000000001,0.077566
143,-0.029513499999999998,0.7359195000000001,-0.019116,-0.2028275,0.5184995,-0.026157,-0.4039075,0.6630695000000001,-0.096593,0.16338249999999999,0.5362895000000001,-0.014863000000000001,0.3515225,0.6762495000000001,-0.074222,-0.3948375,0.9332295,-0.133943,0.3751125,0.9572895,-0.102693,-0.0792795,-0.0030605,-0.005342000000000003,0.0792795,0.0030605,0.0053419999999999995,-0.1562775,-0.4450505,0.028717,0.17003249999999998,-0.4432305,0.041957999999999995,-0.2297475,-0.8538104999999999,0.06279299999999999,0.25896250000000004,-0.8444005,0.07760500000000001
144,-0.029372500000000006,0.7362835,-0.018255,-0.20277250000000002,0.5187935,-0.02511,-0.4041325,0.6635735,-0.09427,0.1634775,0.5363235000000001,-0.014558000000000001,0.35183749999999997,0.6760335000000001,-0.073811,-0.3952925,0.9343535000000001,-0.13095,0.3760075,0.9574635,-0.10175000000000001,-0.0792505,-0.0030775,-0.005265000000000002,0.0792505,0.0030775,0.005264999999999999,-0.1561825,-0.44526649999999995,0.028928999999999996,0.17016749999999997,-0.4431965,0.041843,-0.22964250000000003,-0.8538264999999999,0.062778,0.25913749999999997,-0.8444765,0.077628
145,-0.029249999999999998,0.7365744999999999,-0.017492,-0.20276999999999998,0.5190345,-0.024277,-0.40435000000000004,0.6640145,-0.092052,0.1635,0.5363445,-0.014332999999999999,0.35205,0.6759145,-0.07350200000000001,-0.39585000000000004,0.9352944999999999,-0.128192,0.37668999999999997,0.9576245,-0.100962,-0.079232,-0.0030885,-0.005184000000000001,0.079232,0.0030885,0.005184000000000001,-0.15614999999999998,-0.44558549999999997,0.02908,0.17025,-0.4431755,0.041743,-0.22960999999999998,-0.8538855000000001,0.062774,0.25923999999999997,-0.8444555,0.077626
146,-0.028863999999999997,0.7368305,-0.015516999999999996,-0.203184,0.5198305,-0.022787999999999996,-0.404714,0.6646005,-0.089431,0.163496,0.5357605,-0.013926999999999995,0.35259599999999997,0.6753005,-0.072628,-0.396054,0.9375105,-0.12411099999999999,0.37795599999999996,0.9571805,-0.100721,-0.079314,-0.0030755,-0.0052229999999999985,0.079314,0.0030755,0.005223000000000002,-0.156294,-0.4464995,0.029769000000000004,0.170456,-0.4427295,0.041468000000000005,-0.22961399999999998,-0.8540295,0.062541,0.25945599999999996,-0.8443795,0.077763
147,-0.028787000000000004,0.7378779999999999,-0.01499,-0.20271499999999998,0.519988,-0.021844,-0.40436500000000003,0.6653279999999999,-0.086205,0.16353499999999999,0.535808,-0.013911999999999997,0.352745,0.675508,-0.072703,-0.397145,0.9393079999999999,-0.11983499999999998,0.37854499999999996,0.9582179999999999,-0.098565,-0.07929,-0.003169,-0.004964,0.07929,0.003169,0.004964,-0.15587499999999999,-0.446752,0.029653,0.17067500000000002,-0.442862,0.041327,-0.229775,-0.8546020000000001,0.062124,0.25981499999999996,-0.844712,0.077562
148,-0.028833,0.73792,-0.014959,-0.20257999999999998,0.51999,-0.021790000000000004,-0.40465,0.66515,-0.084538,0.16386,0.53649,-0.013655,0.35259999999999997,0.67547,-0.07255500000000001,-0.39762000000000003,0.93926,-0.11848800000000001,0.37853,0.95828,-0.09864800000000001,-0.079244,-0.003193,-0.004802000000000001,0.079244,0.0031929999999999997,0.004802000000000001,-0.1558,-0.4466,0.029533999999999998,0.17054999999999998,-0.4429,0.041179,-0.22943000000000002,-0.85419,0.062721,0.25978,-0.84463,0.077299
149,-0.028708499999999994,0.73802,-0.015111,-0.2023935,0.52,-0.021627999999999994,-0.40473349999999997,0.66539,-0.083619,0.1639065,0.5366799999999999,-0.013694999999999999,0.35243650000000004,0.67536,-0.07276099999999999,-0.39822349999999995,0.93911,-0.117689,0.3784865,0.95833,-0.098379,-0.0792145,-0.0031130000000000003,-0.004705999999999998,0.0792145,0.0031130000000000003,0.004706000000000002,-0.1555035,-0.44647000000000003,0.029309,0.1703965,-0.44316,0.040931,-0.2292435,-0.8542500000000001,0.062949,0.25973650000000004,-0.84479,0.077402
150,-0.028625499999999998,0.737862,-0.0149235,-0.2024685,0.520312,-0.0205715,-0.40470849999999997,0.665592,-0.0829155,0.16416150000000002,0.5373519999999999,-0.0132375,0.3525515,0.675682,-0.0727765,-0.3984585,0.9392119999999999,-0.11656550000000002,0.3784015,0.958462,-0.0976555,-0.07918249999999999,-0.00313,-0.004643499999999998,0.07918249999999999,0.00313,0.004643500000000002,-0.1555085,-0.447388,0.029547500000000004,0.1704215,-0.44396800000000003,0.0411435,-0.22928849999999998,-0.854318,0.06274350000000001,0.2597115,-0.8449880000000001,0.0772645
151,-0.028584500000000006,0.7378305000000001,-0.014619499999999997,-0.2025275,0.5202705,-0.020476499999999998,-0.4049475,0.6656905,-0.0823715,0.1641725,0.5376405,-0.012918500000000003,0.35247249999999997,0.6759805,-0.0725365,-0.3989975,0.9389405,-0.11571150000000001,0.3780225,0.9589405,-0.09699150000000001,-0.07914650000000001,-0.0031865,-0.004592499999999999,0.07914650000000001,0.0031865,0.004592499999999999,-0.1556275,-0.4477495,0.029645499999999998,0.1703425,-0.4441195,0.041195499999999996,-0.2294475,-0.8545795,0.062367500000000006,0.25955249999999996,-0.8452395,0.0773105
152,-0.028382499999999998,0.7377404999999999,-0.014513000000000005,-0.2022585,0.5202304999999999,-0.020508,-0.4046785,0.6657304999999999,-0.08205100000000001,0.1644115,0.5375504999999999,-0.012843,0.3526915,0.6762705,-0.07217000000000001,-0.3992285,0.9397405,-0.11397100000000002,0.3780915,0.9591605,-0.096671,-0.0791895,-0.0031585,-0.004528000000000001,0.0791895,0.0031585,0.004527999999999999,-0.1552485,-0.4472795,0.029427999999999996,0.1704615,-0.4441495,0.040997,-0.2293685,-0.8545195000000001,0.062190999999999996,0.2594415,-0.8441495000000001,0.077648
