sb224sc-HT22-VT27/4dt907/src/data/kinect_good_preprocessed_not_cut_A11_mediapipe/A153_kinect.csv
FrameNo,nose_3d_x,nose_3d_y,nose_3d_z,left_shoulder_3d_x,left_shoulder_3d_y,left_shoulder_3d_z,left_elbow_3d_x,left_elbow_3d_y,left_elbow_3d_z,right_shoulder_3d_x,right_shoulder_3d_y,right_shoulder_3d_z,right_elbow_3d_x,right_elbow_3d_y,right_elbow_3d_z,left_wrist_3d_x,left_wrist_3d_y,left_wrist_3d_z,right_wrist_3d_x,right_wrist_3d_y,right_wrist_3d_z,left_hip_3d_x,left_hip_3d_y,left_hip_3d_z,right_hip_3d_x,right_hip_3d_y,right_hip_3d_z,left_knee_3d_x,left_knee_3d_y,left_knee_3d_z,right_knee_3d_x,right_knee_3d_y,right_knee_3d_z,left_ankle_3d_x,left_ankle_3d_y,left_ankle_3d_z,right_ankle_3d_x,right_ankle_3d_y,right_ankle_3d_z
0,-0.011207000000000002,0.7457739999999999,-0.029556500000000006,-0.191747,0.49002399999999996,-0.0167005,-0.242367,0.217834,0.0169745,0.154833,0.488544,-0.036452500000000006,0.21401299999999998,0.225554,-0.029274500000000002,-0.22850700000000002,-0.022004,-0.0575245,0.210703,-0.01848,-0.11318250000000002,-0.079464,-0.0019890000000000003,-0.00031950000000000034,0.079464,0.001989,0.00031950000000000034,-0.11052700000000001,-0.452066,0.0434415,0.146313,-0.45846600000000004,0.0326185,-0.143877,-0.831316,0.0880975,0.194963,-0.832686,0.0535465
1,-0.0111845,0.7457295,-0.029679999999999998,-0.1918475,0.48995950000000005,-0.016753999999999998,-0.2424575,0.2178095,0.016949000000000002,0.1548125,0.48855950000000004,-0.036373,0.2139625,0.22554949999999999,-0.029264,-0.2285475,-0.022128500000000002,-0.057685,0.2106525,-0.018612499999999997,-0.11333900000000001,-0.0794635,-0.0019845,-0.0003429999999999961,0.0794635,0.0019844999999999997,0.000343000000000003,-0.1105975,-0.4521405,0.043411000000000005,0.1462725,-0.4577305,0.032469000000000005,-0.1437275,-0.8305705,0.087615,0.1950225,-0.8319504999999999,0.053157
2,-0.011244999999999996,0.7456195,-0.0297245,-0.191865,0.48991949999999995,-0.0168445,-0.242485,0.2178195,0.016886500000000002,0.154765,0.4885695,-0.0364285,0.21393500000000001,0.2256795,-0.029369499999999993,-0.228375,-0.022394499999999998,-0.05776149999999999,0.210755,-0.017933499999999998,-0.11323549999999999,-0.079444,-0.0020015,-0.0003104999999999983,0.079444,0.0020015000000000002,0.0003105000000000052,-0.110515,-0.4519905,0.043438500000000005,0.14649500000000001,-0.45817050000000004,0.0325615,-0.143475,-0.8308605,0.08767849999999999,0.195185,-0.8321805,0.052916500000000005
3,-0.011316000000000003,0.7454985000000001,-0.029995499999999994,-0.19191200000000003,0.4898385,-0.017064499999999996,-0.242572,0.2179285,0.016729500000000005,0.154598,0.48881850000000004,-0.03651349999999999,0.213878,0.2258085,-0.02938049999999999,-0.22844199999999998,-0.0225785,-0.0581285,0.210688,-0.0180275,-0.11343249999999999,-0.079455,-0.0020425,-0.000392499999999997,0.079455,0.0020425000000000005,0.00039250000000000396,-0.110622,-0.4521615,0.043264500000000004,0.14640799999999998,-0.45739149999999995,0.032419500000000004,-0.14356200000000002,-0.8309515,0.0874595,0.19507799999999997,-0.8325414999999999,0.05283750000000001
4,-0.011551000000000002,0.745363,-0.029957499999999998,-0.19193500000000002,0.48983299999999996,-0.0171435,-0.24271500000000001,0.21787299999999998,0.016861499999999998,0.154495,0.48872299999999996,-0.0365255,0.21376499999999998,0.22586299999999998,-0.029331499999999996,-0.228415,-0.023063,-0.057787500000000006,0.21057499999999998,-0.017997,-0.11331949999999999,-0.079451,-0.0020570000000000002,-0.0004284999999999983,0.079451,0.002057,0.0004284999999999983,-0.110545,-0.451787,0.0434535,0.146415,-0.457977,0.0326835,-0.143705,-0.831137,0.0876005,0.194995,-0.8325670000000001,0.0527885
5,-0.0118395,0.7450869999999999,-0.030041999999999992,-0.1920845,0.489747,-0.017055,-0.2428445,0.217667,0.017324000000000003,0.1544355,0.488757,-0.036345999999999996,0.2137255,0.22581700000000002,-0.029416000000000005,-0.2285645,-0.023049999999999998,-0.058056,0.2106755,-0.017568999999999998,-0.11310100000000001,-0.0794675,-0.0020919999999999997,-0.0004709999999999992,0.0794675,0.002092,0.0004709999999999992,-0.1109645,-0.453463,0.044009,0.1464155,-0.45710300000000004,0.032618,-0.1439245,-0.832173,0.087401,0.1948555,-0.832603,0.052966
6,-0.011841500000000001,0.7450285,-0.030527,-0.1920875,0.48962849999999997,-0.017509999999999998,-0.2427275,0.2176585,0.016999,0.1544025,0.48878849999999996,-0.036570000000000005,0.2138225,0.2256385,-0.029726000000000002,-0.2286575,-0.0227335,-0.058192999999999995,0.2108925,-0.0167135,-0.11290199999999999,-0.0794675,-0.0021435,-0.0003620000000000012,0.0794675,0.0021435000000000004,0.0003620000000000012,-0.1110075,-0.45359150000000004,0.043549,0.1464325,-0.4567915,0.032358,-0.1437875,-0.8319815,0.086979,0.1947925,-0.8315115000000001,0.052022
7,-0.015581499999999998,0.7417775,-0.0375025,-0.19295249999999997,0.4898175,-0.018251499999999997,-0.2423825,0.21866750000000001,0.015113500000000002,0.15396749999999998,0.4893475,-0.0384425,0.21439750000000002,0.2270075,-0.030191499999999996,-0.2283325,-0.0217085,-0.0602305,0.21123750000000002,-0.0158315,-0.11431850000000002,-0.0794985,-0.0021414999999999997,-0.00015249999999999986,0.0794985,0.0021415,0.00015249999999999986,-0.1104025,-0.4527425,0.0415395,0.1469375,-0.4588325,0.0314525,-0.14322249999999997,-0.8313625,0.08439150000000001,0.19530750000000002,-0.8329525,0.0497625
8,-0.017555999999999995,0.7396675,-0.041757,-0.193313,0.4897075,-0.019132999999999997,-0.24238300000000002,0.21912749999999998,0.014264,0.15370699999999998,0.48961750000000004,-0.039533,0.21475699999999998,0.22777750000000002,-0.030452,-0.228103,-0.0212945,-0.061424999999999993,0.21157700000000002,-0.015186499999999999,-0.114897,-0.079515,-0.0021774999999999997,-6.899999999999962e-05,0.079515,0.0021774999999999997,6.899999999999962e-05,-0.11021299999999999,-0.4525825,0.040403,0.147287,-0.4589425,0.030571,-0.142903,-0.8311625,0.08282300000000001,0.195627,-0.8328825,0.04818
9,-0.0200425,0.736864,-0.048419500000000004,-0.1940915,0.489454,-0.0205225,-0.2424415,0.219814,0.013241500000000002,0.15335849999999998,0.489824,-0.041383500000000004,0.21535849999999998,0.22864400000000001,-0.0309645,-0.2276415,-0.020588000000000002,-0.0630135,0.2120385,-0.014587999999999999,-0.11529850000000001,-0.07951549999999999,-0.0022860000000000003,2.4500000000000216e-05,0.07951549999999999,0.002286,-2.4500000000000216e-05,-0.1098915,-0.452296,0.0388085,0.1476485,-0.459156,0.0293915,-0.1423415,-0.830856,0.08060049999999999,0.1961785,-0.8327760000000001,0.0459005
10,-0.022800000000000004,0.733589,-0.056369499999999996,-0.19503399999999999,0.48919900000000005,-0.0225145,-0.242424,0.220199,0.0118875,0.152946,0.49006900000000003,-0.0440805,0.216136,0.229369,-0.0316215,-0.227064,-0.020384,-0.0647055,0.212606,-0.014372999999999999,-0.11575750000000001,-0.079535,-0.002404,0.00018550000000000164,0.079535,0.0024040000000000003,-0.00018549999999999817,-0.10961400000000002,-0.45181099999999996,0.036796499999999996,0.148146,-0.45952099999999996,0.0277385,-0.141534,-0.830491,0.0776885,0.196946,-0.8326709999999999,0.0429685
11,-0.0259055,0.729987,-0.0653885,-0.1960895,0.488887,-0.024850500000000005,-0.2423895,0.22045700000000001,0.010546499999999999,0.1524805,0.490327,-0.046992500000000006,0.2168805,0.230187,-0.0322865,-0.2264795,-0.020171,-0.0660765,0.2132705,-0.014114999999999999,-0.1160825,-0.0795565,-0.002541,0.0003494999999999991,0.0795565,0.002541,-0.0003495000000000026,-0.1092595,-0.451243,0.0346925,0.1486705,-0.460013,0.026054499999999998,-0.1405295,-0.830053,0.0744975,0.1979305,-0.832443,0.0397285
12,-0.029474,0.7259395000000001,-0.07553000000000001,-0.197265,0.4884595,-0.027906,-0.242485,0.2207395,0.009033999999999999,0.151725,0.4906195,-0.050289999999999994,0.217555,0.2311095,-0.033169000000000004,-0.225825,-0.0198785,-0.06731200000000001,0.214065,-0.0138225,-0.115928,-0.079593,-0.0026915,0.0005179999999999976,0.079593,0.0026914999999999994,-0.0005180000000000011,-0.108845,-0.4506405,0.032369999999999996,0.14929499999999998,-0.4604205,0.02402,-0.139295,-0.8294404999999999,0.070909,0.199175,-0.8321904999999999,0.036086999999999994
13,-0.0335125,0.720921,-0.0878525,-0.19888650000000002,0.48780100000000004,-0.0322505,-0.2426165,0.221131,0.0068565,0.1505535,0.49101100000000003,-0.0546195,0.2184435,0.232021,-0.0346015,-0.22491650000000002,-0.019551,-0.0683415,0.21524349999999998,-0.013603,-0.11546050000000001,-0.0795575,-0.0028799999999999997,0.0005774999999999999,0.0795575,0.0028800000000000006,-0.0005774999999999999,-0.1080165,-0.44970899999999997,0.0293075,0.1502735,-0.460819,0.0214565,-0.13728649999999998,-0.828519,0.0662185,0.2012335,-0.831909,0.0312635
14,-0.037065999999999995,0.7162365,-0.099657,-0.200627,0.4870065,-0.037055,-0.243067,0.2215165,0.004874,0.149343,0.4913565,-0.059157,0.219003,0.2328665,-0.036089,-0.224517,-0.0194625,-0.068478,0.216503,-0.013555500000000002,-0.114687,-0.07952200000000001,-0.0030885,0.0006490000000000003,0.07952200000000001,0.0030884999999999997,-0.0006490000000000003,-0.107177,-0.4486335,0.026518,0.15124300000000002,-0.4612935,0.018662,-0.135067,-0.8275435,0.061475999999999996,0.20361300000000002,-0.8315435,0.026373999999999998
15,-0.04089500000000001,0.711596,-0.1115035,-0.202881,0.485866,-0.0417555,-0.243801,0.221606,0.0030015,0.147649,0.491626,-0.0636235,0.219299,0.233556,-0.037326500000000006,-0.223861,-0.01988,-0.0680775,0.21775899999999998,-0.013471,-0.1135535,-0.079485,-0.0033229999999999996,0.0006544999999999999,0.079485,0.0033230000000000004,-0.0006545000000000001,-0.106661,-0.447264,0.0241625,0.152359,-0.461734,0.015987499999999998,-0.132601,-0.826514,0.056854499999999995,0.206249,-0.831134,0.0215755
16,-0.044675,0.707167,-0.123614,-0.205572,0.484427,-0.047026,-0.244772,0.221137,2.0000000000002655e-06,0.145698,0.491647,-0.06828100000000001,0.21933799999999998,0.234237,-0.038209,-0.223242,-0.021073,-0.06712900000000001,0.219018,-0.013564,-0.111624,-0.07947699999999999,-0.0036359999999999995,0.0005989999999999997,0.07947699999999999,0.0036360000000000003,-0.0005989999999999997,-0.10589200000000001,-0.445813,0.021702,0.154028,-0.46219299999999996,0.012781999999999998,-0.12940200000000002,-0.825343,0.051939000000000006,0.209978,-0.8306530000000001,0.016118999999999998
17,-0.0484775,0.7026865,-0.1353615,-0.2085245,0.4827765,-0.0522815,-0.2459345,0.2201165,-0.0032765000000000008,0.1432655,0.4916665,-0.0727165,0.21922550000000002,0.2349065,-0.0389235,-0.2228045,-0.022717499999999998,-0.0662895,0.22005550000000001,-0.013714500000000001,-0.1092615,-0.07942450000000001,-0.0040045,0.00044950000000000025,0.07942450000000001,0.004004499999999999,-0.00044950000000000025,-0.10498449999999998,-0.44436349999999997,0.019258499999999998,0.15586550000000002,-0.4626035,0.009407500000000001,-0.1259345,-0.8241935,0.0470915,0.2140855,-0.8301535,0.0106595
18,-0.051881500000000004,0.6986915,-0.1449925,-0.2111375,0.4810815,-0.0573895,-0.24759750000000003,0.2189115,-0.0068165,0.1406125,0.4916715,-0.07648849999999999,0.21880249999999998,0.2354615,-0.0391015,-0.2231575,-0.0248975,-0.06569549999999999,0.22085249999999998,-0.013847500000000002,-0.10681750000000001,-0.07937749999999999,-0.0043375,0.00027250000000000017,0.07937749999999999,0.004337499999999999,-0.00027250000000000017,-0.10409750000000001,-0.4430985,0.0171345,0.1579725,-0.46293850000000003,0.0060255,-0.12230750000000001,-0.8232985,0.0427015,0.2183725,-0.8297285,0.0056305
19,-0.05520699999999999,0.6950415,-0.15374849999999998,-0.213659,0.4792515,-0.0624285,-0.249689,0.2176515,-0.010642499999999997,0.13781100000000002,0.4917015,-0.0797245,0.21798099999999998,0.2360815,-0.0388265,-0.22513899999999998,-0.026822500000000003,-0.0665875,0.22124100000000002,-0.0133385,-0.1038995,-0.079319,-0.0047255,1.6500000000002624e-05,0.079319,0.0047255000000000005,-1.6499999999999154e-05,-0.10298899999999998,-0.44190850000000004,0.0151955,0.16036100000000003,-0.4628785,0.002601500000000003,-0.11844899999999998,-0.8223285,0.0386065,0.222991,-0.8292885,0.0008445000000000015
20,-0.0582665,0.6916329999999999,-0.1613815,-0.21610649999999998,0.477453,-0.0671395,-0.2523465,0.216233,-0.014614500000000002,0.1349935,0.491673,-0.0825655,0.2171635,0.23656300000000002,-0.038324500000000004,-0.2282265,-0.028672,-0.0683715,0.2213835,-0.012900000000000002,-0.1008995,-0.07925650000000001,-0.005095,-0.00028650000000000203,0.07925650000000001,0.005095,0.00028649999999999856,-0.1019365,-0.440617,0.013440500000000001,0.1628735,-0.462737,-0.0008125000000000007,-0.1147065,-0.821427,0.0348075,0.2275335,-0.8288070000000001,-0.0036485000000000024
21,-0.060935500000000004,0.6887645,-0.16776,-0.2185505,0.4758145,-0.071541,-0.2555505,0.2146045,-0.018341999999999997,0.1324295,0.49167449999999996,-0.08489,0.2163995,0.2369945,-0.037412999999999995,-0.23229049999999998,-0.0301065,-0.07102,0.2211895,-0.012515500000000002,-0.09790499999999999,-0.0791805,-0.0054535,-0.0006219999999999976,0.0791805,0.005453499999999999,0.000622000000000001,-0.10110050000000001,-0.43932550000000004,0.011927,0.16540950000000001,-0.4626855,-0.0038969999999999977,-0.11137049999999998,-0.8206755,0.031529,0.2317295,-0.8283655,-0.007649999999999997
22,-0.062936,0.6869350000000001,-0.17110250000000002,-0.220356,0.474845,-0.07418849999999999,-0.260056,0.21334499999999998,-0.020636500000000002,0.130623,0.49155499999999996,-0.0858825,0.21567399999999998,0.237235,-0.0356235,-0.23892600000000003,-0.029893,-0.07323550000000001,0.221204,-0.010986,-0.09433649999999999,-0.079236,-0.0057339999999999995,-0.000847500000000001,0.079236,0.005734,0.000847500000000001,-0.10151600000000001,-0.438135,0.011390499999999998,0.167064,-0.46237500000000004,-0.006141500000000001,-0.10992600000000001,-0.8199949999999999,0.029657499999999996,0.23453400000000002,-0.828035,-0.010179500000000001
23,-0.063921,0.6856665,-0.17313050000000002,-0.22157100000000002,0.4743165,-0.0759715,-0.264741,0.21238649999999998,-0.022291500000000002,0.129603,0.4913265,-0.08626249999999999,0.21514899999999998,0.23729650000000002,-0.033440500000000005,-0.24639100000000003,-0.0296615,-0.0747875,0.22147899999999998,-0.010689500000000001,-0.0916405,-0.079251,-0.0059445,-0.0010735000000000015,0.079251,0.005944499999999999,0.001073499999999998,-0.10230099999999999,-0.43732350000000003,0.010926499999999999,0.168149,-0.4624235,-0.007774500000000004,-0.109451,-0.8196235000000001,0.028458499999999998,0.23656899999999997,-0.8278035,-0.012042500000000001
24,-0.0639775,0.6850425,-0.174627,-0.2218375,0.4743425,-0.07746,-0.26869750000000003,0.2123125,-0.023936,0.1294255,0.4910625,-0.086143,0.2152125,0.2372225,-0.031773,-0.25542750000000003,-0.0295155,-0.07595199999999999,0.2215625,-0.0104835,-0.08932699999999999,-0.0792575,-0.0060625,-0.0012990000000000015,0.07925750000000001,0.0060625,0.0012990000000000015,-0.10288749999999999,-0.43696749999999995,0.010300000000000004,0.1681025,-0.4624875,-0.009047,-0.11004749999999999,-0.8194475,0.027603000000000003,0.2378725,-0.8276475,-0.013538000000000001
25,-0.06399400000000001,0.684998,-0.175145,-0.221854,0.47437799999999997,-0.07797799999999999,-0.269924,0.21234799999999998,-0.025181999999999996,0.129455,0.490778,-0.085411,0.21526599999999999,0.237228,-0.030469999999999997,-0.263004,-0.029242999999999998,-0.077664,0.221596,-0.010061,-0.088481,-0.079264,-0.006069,-0.0013939999999999994,0.079264,0.006069000000000001,0.0013939999999999994,-0.10289400000000001,-0.436882,0.009974000000000004,0.168096,-0.462272,-0.009339999999999998,-0.110264,-0.8194119999999999,0.0274,0.240096,-0.8275619999999999,-0.014099999999999998
26,-0.063999,0.6850109999999999,-0.1752445,-0.22184899999999996,0.474391,-0.07782449999999999,-0.269939,0.212361,-0.0254345,0.129475,0.49045099999999997,-0.08484749999999999,0.215271,0.237161,-0.0301175,-0.267789,-0.027962,-0.0807695,0.22159099999999998,-0.010048000000000001,-0.0885805,-0.079259,-0.006056000000000001,-0.001294499999999997,0.079259,0.006056,0.001294499999999997,-0.102899,-0.436809,0.009874500000000001,0.168391,-0.462259,-0.009215500000000001,-0.110419,-0.819399,0.0273585,0.242601,-0.827549,-0.0142515
27,-0.063997,0.685031,-0.17482,-0.221947,0.47441099999999997,-0.077164,-0.270047,0.212381,-0.025393,0.12936399999999998,0.490111,-0.084698,0.21525299999999997,0.23702099999999998,-0.030166,-0.270187,-0.025001000000000002,-0.08473,0.221493,-0.010028,-0.088627,-0.079277,-0.006036,-0.0012439999999999951,0.079277,0.0060360000000000006,0.001244000000000002,-0.10301700000000001,-0.436699,0.009829000000000004,0.169313,-0.462139,-0.008973999999999996,-0.11059700000000001,-0.819379,0.027315000000000006,0.245083,-0.827509,-0.014287999999999995
28,-0.063279,0.6850765,-0.1736065,-0.221459,0.4749165,-0.0762675,-0.272309,0.21372649999999999,-0.0254095,0.129598,0.48976650000000005,-0.08480750000000001,0.215701,0.2369565,-0.0302825,-0.272629,-0.0201355,-0.0894735,0.221911,-0.009982500000000002,-0.0887425,-0.079199,-0.005990500000000001,-0.0011475000000000027,0.07919899999999999,0.005990499999999999,0.0011475000000000027,-0.104629,-0.43635349999999995,0.009787499999999998,0.169161,-0.46178349999999996,-0.0088605,-0.11290900000000001,-0.8195735,0.0273005,0.245571,-0.8273334999999999,-0.014201499999999999
29,-0.060891,0.6856730000000001,-0.1720415,-0.219941,0.475833,-0.0749725,-0.274941,0.215673,-0.025469500000000003,0.131307,0.489263,-0.0850275,0.217169,0.236473,-0.0304945,-0.277711,-0.014349,-0.09391050000000001,0.22295900000000002,-0.010133,-0.08944650000000001,-0.079181,-0.005821,-0.0008345000000000019,0.079181,0.005821000000000001,0.000834499999999995,-0.10735099999999999,-0.436327,0.0090205,0.168099,-0.460897,-0.008790500000000003,-0.11798099999999999,-0.8199369999999999,0.027331499999999995,0.243649,-0.827187,-0.0140505
30,-0.057646499999999996,0.6865325,-0.17023900000000003,-0.2175935,0.4772625,-0.073072,-0.2764935,0.2179525,-0.025271000000000002,0.1338765,0.48874249999999997,-0.08515700000000001,0.2192565,0.2357925,-0.031148000000000002,-0.28400349999999996,-0.007820499999999998,-0.096939,0.2246765,-0.011061499999999998,-0.091767,-0.0791435,-0.005539499999999999,-0.0004070000000000046,0.0791435,0.005539500000000001,0.00040699999999999764,-0.11073350000000001,-0.4362875,0.007865999999999998,0.1668865,-0.4597075,-0.008570000000000005,-0.1243235,-0.8203075,0.027232999999999993,0.24047649999999998,-0.8270975,-0.013602000000000003
31,-0.05352,0.6875555,-0.1680265,-0.214472,0.4788855,-0.0705015,-0.277322,0.2202755,-0.023924499999999998,0.136928,0.4879655,-0.0851835,0.222578,0.2348355,-0.033104499999999995,-0.290562,-0.0018374999999999989,-0.0977945,0.227338,-0.0114795,-0.0955065,-0.079097,-0.005119499999999999,4.950000000000093e-05,0.079097,0.005119500000000001,-4.950000000000093e-05,-0.11510200000000001,-0.4359445,0.006055499999999998,0.164818,-0.4584645,-0.0077564999999999995,-0.132332,-0.8204845,0.027381500000000003,0.235308,-0.8270445,-0.0125335
32,-0.048951499999999995,0.6887745000000001,-0.1657195,-0.21102449999999998,0.48059450000000004,-0.0678555,-0.2772645,0.2225945,-0.0219945,0.1402755,0.4871745,-0.0854985,0.22605550000000002,0.2337545,-0.0356855,-0.2956645,0.0039735000000000005,-0.0980355,0.23096550000000002,-0.0109915,-0.10016349999999999,-0.0790885,-0.0046745,0.0005425000000000013,0.0790885,0.0046745,-0.0005425000000000013,-0.1204345,-0.43542549999999997,0.0036105000000000026,0.1620055,-0.45684549999999996,-0.006891499999999998,-0.1414945,-0.8208055,0.0274895,0.22871550000000002,-0.8270255,-0.011307500000000002
33,-0.04363,0.689836,-0.1633095,-0.206712,0.482256,-0.0649815,-0.276122,0.224956,-0.0197655,0.144168,0.486326,-0.0858035,0.230288,0.233506,-0.0392275,-0.29879200000000006,0.00916,-0.0981395,0.236328,-0.009073,-0.1067195,-0.079096,-0.004177999999999999,0.0009834999999999983,0.079096,0.004178,-0.0009834999999999983,-0.126132,-0.434494,0.0004904999999999979,0.158798,-0.455274,-0.0059054999999999976,-0.151302,-0.8213739999999999,0.027355499999999998,0.221408,-0.827094,-0.0099045
34,-0.0372895,0.6909204999999999,-0.1614045,-0.20212650000000001,0.4834505,-0.0625445,-0.2740965,0.2271605,-0.018863500000000002,0.14842349999999999,0.4856405,-0.0859905,0.23622349999999998,0.23312049999999998,-0.0447745,-0.3014365,0.0132325,-0.0995355,0.2441335,-0.0094785,-0.1168995,-0.07908950000000001,-0.0035924999999999993,0.0012215000000000004,0.07908950000000001,0.0035924999999999998,-0.0012215000000000004,-0.13174650000000002,-0.4335795,-0.0025235000000000014,0.15610349999999998,-0.45302950000000003,-0.005040500000000003,-0.1616265,-0.8221195,0.0269565,0.2136735,-0.8272595,-0.008567500000000002
35,-0.0313585,0.6917025,-0.159601,-0.19776749999999998,0.4843025,-0.060533000000000003,-0.2752275,0.2292625,-0.018692,0.1522525,0.4850725,-0.085568,0.24297250000000004,0.2327125,-0.051122,-0.3099075,0.0160135,-0.10080700000000001,0.25312250000000003,-0.0098865,-0.127734,-0.0791415,-0.0030275,0.0013670000000000002,0.0791415,0.0030274999999999994,-0.0013670000000000002,-0.1371475,-0.43308749999999996,-0.0038119999999999994,0.1535725,-0.4499375,-0.004345000000000002,-0.1718475,-0.8228575,0.026704999999999996,0.20632250000000002,-0.8273475,-0.007211000000000002
36,-0.02577,0.692375,-0.157572,-0.193438,0.48497500000000004,-0.058843,-0.279198,0.231145,-0.018241,0.156042,0.484565,-0.084997,0.25060200000000005,0.232845,-0.057813,-0.31733799999999995,0.018361000000000002,-0.101768,0.26541200000000004,-0.010234,-0.140622,-0.07917199999999999,-0.002529,0.001516,0.07917199999999999,0.0025289999999999996,-0.001516,-0.142158,-0.432905,-0.004423999999999997,0.15126199999999998,-0.446965,-0.0036829999999999988,-0.181448,-0.823565,0.026465,0.200062,-0.827345,-0.005852999999999997
37,-0.020488,0.6930985,-0.15569300000000003,-0.189471,0.48553850000000004,-0.057454000000000005,-0.284231,0.2331285,-0.017716000000000003,0.159399,0.4841185,-0.084622,0.25904900000000003,0.23439849999999998,-0.065401,-0.32315099999999997,0.0204825,-0.102548,0.279669,-0.0054105,-0.154783,-0.079299,-0.0021215,0.0017569999999999981,0.079299,0.0021214999999999993,-0.0017570000000000016,-0.145921,-0.4326215,-0.004806000000000001,0.149599,-0.4442715,-0.0031550000000000016,-0.189851,-0.8241815,0.026284999999999996,0.195199,-0.8273615000000001,-0.004739000000000004
38,-0.016848499999999995,0.6942630000000001,-0.1525735,-0.1867065,0.485963,-0.056302500000000005,-0.28712649999999995,0.236723,-0.018868500000000003,0.1616535,0.483803,-0.08417050000000001,0.2677935,0.23766299999999999,-0.07334550000000001,-0.32625649999999995,0.025723,-0.1095055,0.2970035,0.007809999999999999,-0.1727135,-0.0793435,-0.0018060000000000003,0.0019054999999999975,0.0793435,0.0018059999999999994,-0.001905500000000001,-0.1482565,-0.432137,-0.0042535,0.1487835,-0.442217,-0.0026125000000000002,-0.1957765,-0.824897,0.026360499999999995,0.1929735,-0.8271369999999999,-0.003658500000000002
39,-0.013887000000000007,0.6956405,-0.148378,-0.184747,0.4861805,-0.05506,-0.28851699999999997,0.2418305,-0.022552,0.16307299999999997,0.4835105,-0.083393,0.276743,0.24300049999999998,-0.081924,-0.330767,0.0334205,-0.119547,0.315743,0.0256655,-0.192008,-0.079513,-0.0015135,0.0020960000000000006,0.079513,0.0015135,-0.0020960000000000006,-0.149487,-0.4317895,-0.003377999999999999,0.148113,-0.4404895,-0.0020610000000000003,-0.20020700000000002,-0.8255295,0.027014999999999997,0.192303,-0.8268995,-0.0024799999999999996
40,-0.013217000000000003,0.6976829999999999,-0.1429225,-0.184691,0.486553,-0.0534935,-0.288701,0.248663,-0.0274295,0.163129,0.48329300000000003,-0.08192050000000001,0.285039,0.250503,-0.0903445,-0.337671,0.046769,-0.1321425,0.334899,0.048339,-0.2125225,-0.079509,-0.0012659999999999998,0.0021574999999999997,0.079509,0.0012659999999999998,-0.0021574999999999997,-0.149441,-0.432037,-0.0021895000000000005,0.148129,-0.439017,-0.001413499999999998,-0.203481,-0.8260970000000001,0.0283235,0.192809,-0.8266870000000001,-0.0010884999999999992
41,-0.0129715,0.7002425,-0.136216,-0.1846235,0.48702249999999997,-0.051585,-0.2931435,0.2582425,-0.034456,0.1632265,0.48330249999999997,-0.079278,0.2925665,0.26010249999999996,-0.09939999999999999,-0.3500435,0.0647375,-0.147006,0.3532965,0.07667049999999999,-0.234746,-0.07950650000000001,-0.0010955000000000001,0.002286,0.0795065,0.0010954999999999997,-0.002286,-0.1493835,-0.43232750000000003,-0.0006040000000000004,0.14815650000000002,-0.4380875,-0.000611999999999998,-0.20653349999999998,-0.8265575000000001,0.030045,0.1932565,-0.8265575000000001,0.0005890000000000027
42,-0.012685999999999996,0.7027725,-0.128516,-0.184541,0.48764250000000003,-0.049484,-0.30339099999999997,0.2694725,-0.04488399999999999,0.16334900000000002,0.48353250000000003,-0.075791,0.299479,0.2722425,-0.108221,-0.369151,0.0860245,-0.16581600000000002,0.370279,0.1123025,-0.257366,-0.079509,-0.0010185000000000003,0.0022010000000000016,0.079509,0.0010184999999999999,-0.002200999999999998,-0.149561,-0.4327275,0.001637000000000003,0.14819900000000003,-0.43709749999999997,0.0003130000000000008,-0.209281,-0.8269875,0.032089,0.193699,-0.8265475,0.002577000000000003
43,-0.011184999999999997,0.7056910000000001,-0.1189405,-0.18389,0.48824100000000004,-0.0469325,-0.3151,0.28454100000000004,-0.0550465,0.16456,0.484101,-0.07105349999999999,0.30508,0.292161,-0.11992649999999999,-0.39167,0.121671,-0.1873365,0.38403,0.161161,-0.2815165,-0.07955999999999999,-0.0011819999999999999,0.0019514999999999984,0.07955999999999999,0.0011820000000000003,-0.0019515000000000018,-0.14957,-0.43371899999999997,0.0052625,0.1487,-0.437349,0.0015004999999999984,-0.21009999999999998,-0.8280489999999999,0.034694499999999996,0.19526000000000002,-0.827009,0.005111499999999998
44,-0.009889500000000002,0.7089030000000001,-0.10843599999999999,-0.1834845,0.488883,-0.043919,-0.3288745,0.301833,-0.066055,0.1656555,0.484793,-0.065497,0.3120755,0.316353,-0.13134200000000001,-0.4152445,0.164013,-0.212702,0.3952455,0.217443,-0.302802,-0.0796155,-0.00133,0.0015249999999999986,0.0796155,0.00133,-0.0015250000000000003,-0.1483045,-0.435227,0.009828,0.1501055,-0.438067,0.0031909999999999994,-0.2088645,-0.8294769999999999,0.037815,0.1984055,-0.8279569999999999,0.008024
45,-0.009465499999999998,0.7119915,-0.097908,-0.1839805,0.4894615,-0.040916,-0.3435605,0.32441149999999996,-0.079683,0.1660895,0.4857515,-0.059838,0.3169895,0.34168149999999997,-0.141326,-0.4407005,0.2126515,-0.23971599999999998,0.4035995,0.27868149999999997,-0.320376,-0.0796395,-0.0015195,0.001013,0.0796395,0.0015195,-0.001013,-0.1463105,-0.4375685,0.015118,0.1517295,-0.43907850000000004,0.004637000000000002,-0.2063905,-0.8313685000000001,0.041332,0.2023695,-0.8291985000000001,0.010941
46,-0.0104325,0.7149329999999999,-0.0872755,-0.1850925,0.489883,-0.037900500000000004,-0.3604225,0.346043,-0.0921235,0.1655975,0.487163,-0.0542425,0.3225375,0.365783,-0.1500265,-0.4624925,0.268473,-0.26226649999999996,0.4089175,0.343043,-0.3309265,-0.0796255,-0.001752,0.0005035000000000005,0.0796255,0.001752,-0.0005034999999999987,-0.14343250000000002,-0.440537,0.0202595,0.1533375,-0.440417,0.005962499999999999,-0.2024725,-0.8335570000000001,0.0451425,0.2073775,-0.8307570000000001,0.0139015
47,-0.012304999999999998,0.717163,-0.077112,-0.186577,0.490123,-0.035022,-0.375577,0.37111299999999997,-0.10267899999999999,0.16492300000000001,0.489073,-0.049135,0.327593,0.397663,-0.15640199999999999,-0.475227,0.334623,-0.276402,0.414003,0.412553,-0.334722,-0.079543,-0.0019699999999999995,0.00010399999999999993,0.079543,0.00197,-0.00010399999999999993,-0.140417,-0.443737,0.023916,0.155033,-0.44272700000000004,0.007410000000000001,-0.197577,-0.836067,0.048907000000000006,0.212933,-0.832877,0.01689
48,-0.014300500000000002,0.7191235,-0.0676735,-0.1885005,0.4905335,-0.0322605,-0.3878405,0.3986435,-0.1108905,0.1639795,0.4913035,-0.0444795,0.3326295,0.4318835,-0.1609205,-0.4837205,0.4046035,-0.28434050000000005,0.4192595,0.4836235,-0.3334305,-0.0794105,-0.0022514999999999996,-0.0002205000000000002,0.0794105,0.0022515,0.0002205000000000002,-0.1375905,-0.44684650000000004,0.0269895,0.1568995,-0.44517650000000003,0.0088525,-0.19263049999999998,-0.8386764999999999,0.0524035,0.2183595,-0.8352164999999999,0.0196365
49,-0.0166105,0.720422,-0.058459500000000005,-0.1906175,0.49099200000000004,-0.0295075,-0.3986275,0.42987200000000003,-0.1183685,0.1632825,0.494412,-0.040107500000000004,0.33732249999999997,0.469872,-0.1633985,-0.4889675,0.477762,-0.2875885,0.4241525,0.558792,-0.3303185,-0.0791505,-0.002556,-0.0004935,0.0791505,0.002556,0.0004935,-0.1352775,-0.450358,0.0301965,0.1586325,-0.447988,0.0105975,-0.18803750000000002,-0.8416980000000001,0.0558025,0.2233525,-0.8379580000000001,0.022475500000000002
50,-0.018739000000000002,0.7209535,-0.050183000000000005,-0.192347,0.4912835,-0.026874,-0.405347,0.4617435,-0.122548,0.162773,0.49785349999999995,-0.036335000000000006,0.341323,0.5070635,-0.16388799999999998,-0.491637,0.5505935,-0.286748,0.425663,0.6294835,-0.327118,-0.078924,-0.002767499999999999,-0.0007620000000000001,0.078924,0.002767500000000001,0.0007620000000000001,-0.133387,-0.4538865,0.033380999999999994,0.16012300000000002,-0.4510465,0.012467,-0.184137,-0.8450365,0.059066999999999995,0.227603,-0.8409865,0.025245
51,-0.0210395,0.721509,-0.042583,-0.19393449999999998,0.491449,-0.024354,-0.4076045,0.493719,-0.122721,0.1627555,0.501349,-0.033088,0.3440655,0.5435989999999999,-0.162531,-0.4893745,0.6202489999999999,-0.283661,0.4238255,0.695049,-0.323881,-0.07854649999999999,-0.003000000000000001,-0.0008610000000000007,0.07854649999999999,0.002999999999999999,0.0008609999999999998,-0.1318145,-0.457061,0.036199999999999996,0.1612555,-0.454191,0.014369999999999999,-0.1809845,-0.848291,0.062231999999999996,0.2310355,-0.844051,0.027970000000000002
52,-0.022917499999999997,0.721606,-0.0366235,-0.19484249999999997,0.491846,-0.0222545,-0.40969249999999996,0.523696,-0.12256850000000001,0.16294750000000002,0.5048860000000001,-0.0302795,0.3447275,0.574006,-0.1597385,-0.4874225,0.679226,-0.2809185,0.41900750000000003,0.748036,-0.3183585,-0.0782875,-0.003125000000000001,-0.000821500000000001,0.0782875,0.0031249999999999993,0.0008214999999999993,-0.13085249999999998,-0.45955399999999996,0.038248500000000005,0.1615975,-0.456794,0.0161325,-0.1791025,-0.851174,0.0649805,0.2329775,-0.846694,0.0304285
53,-0.02452,0.7214775,-0.0314235,-0.195686,0.4925075,-0.020394500000000003,-0.409806,0.5535775000000001,-0.1213265,0.163104,0.5085175000000001,-0.027584499999999998,0.34392399999999995,0.6009875,-0.1570065,-0.486086,0.7319875,-0.2782665,0.411834,0.7929275,-0.30853650000000005,-0.07799600000000001,-0.0032334999999999985,-0.0007165000000000001,0.07799600000000001,0.0032335000000000003,0.0007165000000000001,-0.13025599999999998,-0.46187249999999996,0.0398545,0.161584,-0.4591225,0.0177855,-0.17782599999999998,-0.8538724999999999,0.0676345,0.234304,-0.8491624999999999,0.0328825
54,-0.025906,0.721526,-0.026137999999999998,-0.196175,0.49349599999999993,-0.018734999999999998,-0.409355,0.578596,-0.11855700000000001,0.163495,0.5122059999999999,-0.024816,0.341635,0.626986,-0.15413700000000002,-0.484965,0.779266,-0.269887,0.40288500000000005,0.835096,-0.292427,-0.077722,-0.003275,-0.0005430000000000001,0.077722,0.003275,0.0005430000000000001,-0.129885,-0.464084,0.041394,0.161575,-0.461414,0.019727,-0.176915,-0.856274,0.070384,0.235215,-0.851624,0.03543
55,-0.026985000000000002,0.7216724999999999,-0.0213175,-0.19649,0.49483249999999995,-0.017205500000000002,-0.40878,0.6039825000000001,-0.11597450000000001,0.16405999999999998,0.5155924999999999,-0.0225945,0.33863000000000004,0.6538425000000001,-0.1473045,-0.48185,0.8185625000000001,-0.2574845,0.39387,0.8692325000000001,-0.2706045,-0.077452,-0.003274500000000003,-0.00036749999999999977,0.077452,0.0032744999999999996,0.0003675000000000015,-0.12965000000000002,-0.4659975,0.042800500000000005,0.16158,-0.4634175,0.021708500000000002,-0.17634,-0.8584475,0.0729665,0.23575,-0.8538874999999999,0.0378805
56,-0.027342999999999992,0.722057,-0.0176385,-0.196463,0.496497,-0.015891500000000003,-0.408603,0.6245069999999999,-0.11385550000000001,0.164217,0.5185569999999999,-0.021061499999999997,0.334447,0.671457,-0.1398455,-0.477653,0.8442069999999999,-0.24070549999999996,0.386787,0.8910769999999999,-0.24986549999999996,-0.077347,-0.0032860000000000007,-0.00020649999999999835,0.077347,0.0032860000000000007,0.00020650000000000182,-0.129513,-0.467373,0.0437195,0.16153700000000001,-0.464983,0.0233315,-0.176163,-0.8601829999999999,0.0750455,0.235827,-0.8556330000000001,0.0399845
57,-0.02747,0.7225564999999999,-0.014346999999999999,-0.196431,0.49792649999999994,-0.014852999999999998,-0.40846099999999996,0.6408965,-0.11017900000000001,0.164259,0.5213165,-0.019804999999999996,0.33193900000000004,0.6848465,-0.133129,-0.47191099999999997,0.8637965,-0.22214899999999999,0.380419,0.9069665,-0.230589,-0.077344,-0.0032615000000000005,-0.00012099999999999958,0.077344,0.0032615000000000005,0.00012099999999999958,-0.129481,-0.4685535,0.044481,0.16147899999999998,-0.4664835,0.024807,-0.17603100000000002,-0.8616735,0.07685,0.235779,-0.8571535,0.041894
58,-0.027393999999999995,0.7232135000000001,-0.012316999999999998,-0.19641499999999998,0.4992535,-0.014494999999999997,-0.405255,0.6520335,-0.107377,0.16445500000000002,0.5232835,-0.019254999999999998,0.329455,0.6925035,-0.127367,-0.467435,0.8747735,-0.206297,0.376195,0.9142135,-0.216597,-0.07733999999999999,-0.003227500000000001,-1.4000000000000123e-05,0.07733999999999999,0.003227500000000001,1.4000000000000123e-05,-0.12947499999999998,-0.4692265,0.044618000000000005,0.161505,-0.4677365,0.025585,-0.175865,-0.8627565,0.07792,0.23567500000000002,-0.8582965,0.04308
59,-0.0274905,0.7240314999999999,-0.011370000000000005,-0.1965565,0.5006915,-0.014856000000000001,-0.39958649999999996,0.6600714999999999,-0.10413900000000001,0.1650835,0.5249615,-0.019397000000000005,0.3272435,0.6994215,-0.123079,-0.4637165,0.8820215,-0.192759,0.3724035,0.9210015,-0.204699,-0.0772075,-0.0031895000000000014,4.29999999999979e-05,0.0772075,0.003189499999999998,-4.300000000000137e-05,-0.12949650000000001,-0.4696385,0.044109999999999996,0.16138349999999999,-0.4688985,0.025634999999999998,-0.1758665,-0.8635585,0.078323,0.2354235,-0.8592985000000001,0.043566999999999995
60,-0.027750999999999998,0.7248115,-0.011344000000000003,-0.196547,0.5021915,-0.015694999999999997,-0.39413699999999996,0.6665315,-0.10143300000000001,0.165903,0.5263215,-0.020038999999999998,0.32548299999999997,0.7047715,-0.12043300000000001,-0.460557,0.8890615,-0.182723,0.36959299999999995,0.9290015,-0.195963,-0.077015,-0.003151499999999998,5.300000000000096e-05,0.077015,0.0031515000000000015,-5.300000000000096e-05,-0.129497,-0.4698785,0.043171,0.161103,-0.4697885,0.02515,-0.176027,-0.8641985,0.07821,0.235043,-0.8603185,0.043553
61,-0.028008500000000006,0.7248715,-0.011334000000000004,-0.1963725,0.5030515,-0.016656999999999998,-0.3894925,0.6709415,-0.09952,0.16655749999999997,0.5267515,-0.020768000000000002,0.3238275,0.7088315,-0.11983000000000002,-0.4578225,0.8930315,-0.17572000000000002,0.36664749999999996,0.9375715,-0.19014,-0.0769165,-0.003151499999999998,4.899999999999696e-05,0.0769165,0.0031515000000000015,-4.900000000000043e-05,-0.13016250000000001,-0.4693885,0.042067,0.16055750000000002,-0.4698385,0.024317,-0.1764925,-0.8641985,0.078069,0.2343175,-0.8607085,0.043556
62,-0.028304999999999997,0.7248715,-0.011323,-0.196192,0.5030515,-0.017828000000000004,-0.387512,0.6720315,-0.099597,0.167018,0.5267515,-0.021629000000000002,0.322268,0.7109015,-0.11976700000000001,-0.455012,0.8956915,-0.170597,0.364058,0.9457715,-0.186637,-0.07685800000000001,-0.003151499999999998,4.699999999999843e-05,0.07685800000000001,0.0031515000000000015,-4.70000000000019e-05,-0.131102,-0.4689685,0.040701999999999995,0.159988,-0.4698385,0.022877999999999996,-0.177392,-0.8641985,0.07791999999999999,0.23335799999999998,-0.8610685,0.043574
63,-0.028449999999999996,0.7248715,-0.011512000000000001,-0.196049,0.5030515,-0.019206,-0.386329,0.6720315,-0.099766,0.167271,0.5267515,-0.022902,0.320991,0.7109015,-0.11984600000000001,-0.45246899999999995,0.8961215,-0.170326,0.36202100000000004,0.9457715,-0.18668600000000002,-0.076843,-0.003151499999999998,0.00017199999999999854,0.076843,0.0031515000000000015,-0.000172000000000002,-0.132179,-0.4682385,0.038381,0.159631,-0.4698385,0.020537,-0.178399,-0.8640885,0.077435,0.232341,-0.8614085,0.043456999999999996
64,-0.028973,0.7249535,-0.015091,-0.196336,0.5031335,-0.022935999999999998,-0.38544599999999996,0.6721135,-0.101574,0.166734,0.5268335000000001,-0.026954,0.31905399999999995,0.7109835,-0.121554,-0.44985600000000003,0.8962035,-0.172204,0.35928400000000005,0.9458535,-0.188364,-0.076914,-0.0031734999999999992,0.00045600000000000154,0.076914,0.0031735000000000027,-0.0004559999999999981,-0.134236,-0.46730649999999996,0.03191,0.159314,-0.4697565,0.014031000000000002,-0.180116,-0.8638564999999999,0.074993,0.230654,-0.8617465,0.041677000000000006
65,-0.029531,0.7241715,-0.020179000000000002,-0.196795,0.5035014999999999,-0.027996,-0.384655,0.6729915,-0.104773,0.165855,0.5263415,-0.032852,0.316785,0.7118614999999999,-0.12515300000000001,-0.447015,0.8970815,-0.174973,0.355915,0.9467315,-0.190903,-0.077041,-0.0031955000000000004,0.0006950000000000012,0.077041,0.003195499999999997,-0.0006950000000000012,-0.137165,-0.46580849999999996,0.023412,0.15917499999999998,-0.4686185,0.005634999999999999,-0.182185,-0.8628485,0.07138900000000001,0.228695,-0.8615985,0.038865
66,-0.0302395,0.7224105000000001,-0.027275499999999998,-0.1973885,0.5029505000000001,-0.0346115,-0.3842485,0.6737705,-0.1109825,0.1645215,0.5248405,-0.040779499999999996,0.31404150000000003,0.7125705,-0.13201249999999998,-0.4441485,0.8994005,-0.1788425,0.3511615,0.9447605,-0.1975025,-0.0771355,-0.0033285000000000016,0.001062500000000001,0.0771355,0.0033285000000000016,-0.0010624999999999992,-0.14090850000000002,-0.4634895,0.012398500000000002,0.1591715,-0.46634950000000003,-0.0050965,-0.18480850000000001,-0.8605495,0.0663775,0.2264115,-0.8600494999999999,0.034695500000000004
67,-0.03157600000000001,0.7188885,-0.037754499999999996,-0.198396,0.5003085,-0.0442675,-0.384586,0.6718785,-0.1210375,0.162474,0.5224085,-0.0516565,0.310724,0.7111285,-0.1428275,-0.440486,0.9032585,-0.1870475,0.345244,0.9481885,-0.20736749999999998,-0.07717,-0.0034814999999999985,0.0015234999999999997,0.07717,0.003481500000000002,-0.0015235000000000005,-0.145426,-0.45779149999999996,-0.001872500000000001,0.159434,-0.46079149999999997,-0.019985500000000003,-0.188166,-0.8548515,0.0590175,0.223634,-0.8551215,0.028553500000000002
68,-0.0332185,0.7138565,-0.050493500000000004,-0.1996145,0.4972965,-0.055081500000000005,-0.3851945,0.6689864999999999,-0.1332945,0.15977550000000001,0.5197965,-0.0639845,0.3069855,0.7071265,-0.1563445,-0.4368145,0.9068265,-0.1982745,0.3381155,0.9515965,-0.2200145,-0.0770695,-0.0036464999999999996,0.0020675,0.0770695,0.0036465000000000004,-0.0020675000000000003,-0.1503245,-0.4502035,-0.0177475,0.1598355,-0.4533235,-0.0366675,-0.1918345,-0.8472535,0.050151499999999995,0.2207055,-0.8482835000000001,0.0212915
69,-0.034318999999999995,0.7080495,-0.0643105,-0.20033399999999998,0.4945195,-0.0665275,-0.385204,0.6653395,-0.1470195,0.157096,0.5159295,-0.0774415,0.303956,0.7024995,-0.1712295,-0.432434,0.9048495,-0.2122695,0.331006,0.9553995000000001,-0.2341195,-0.07736,-0.0036125000000000003,0.0026014999999999996,0.07736,0.0036125000000000003,-0.0026015000000000005,-0.155364,-0.44062049999999997,-0.0350915,0.161396,-0.4436805,-0.055598499999999995,-0.195094,-0.8377505,0.0401065,0.218336,-0.8392204999999999,0.012800500000000001
70,-0.035777,0.700733,-0.078992,-0.20126100000000002,0.490053,-0.078262,-0.385971,0.661153,-0.162256,0.154229,0.511073,-0.09143300000000001,0.300869,0.697353,-0.187346,-0.428421,0.9040630000000001,-0.22748600000000002,0.323829,0.9588030000000001,-0.250736,-0.077144,-0.0036299999999999995,0.0030729999999999993,0.077144,0.0036300000000000004,-0.003073000000000001,-0.161931,-0.43022699999999997,-0.053492,0.163339,-0.43237699999999996,-0.074993,-0.19877099999999998,-0.825587,0.029757,0.215959,-0.827427,0.003794999999999998
71,-0.0375345,0.6931499999999999,-0.09977749999999999,-0.2022855,0.48412,-0.09589149999999999,-0.3872055,0.65499,-0.1836295,0.1513545,0.5053799999999999,-0.11092350000000001,0.2976145,0.69031,-0.2104895,-0.4244055,0.8991399999999999,-0.2502395,0.3162645,0.95853,-0.2743695,-0.0769595,-0.0036759999999999987,0.003720499999999998,0.0769595,0.0036759999999999987,-0.0037205000000000016,-0.1704755,-0.41545,-0.0787385,0.1666545,-0.41659999999999997,-0.1013085,-0.2027355,-0.8078500000000001,0.013527499999999998,0.2141345,-0.81059,-0.012041500000000002
72,-0.0397,0.6889435,-0.12091299999999999,-0.203193,0.48080350000000005,-0.113995,-0.38798299999999997,0.6526935,-0.20592699999999997,0.147787,0.4995035,-0.130969,0.294237,0.6853735000000001,-0.23434699999999997,-0.42089299999999996,0.8953835,-0.27508699999999997,0.308667,0.9587035,-0.300157,-0.076767,-0.0034655000000000033,0.004122000000000001,0.076767,0.0034654999999999964,-0.004121999999999997,-0.183013,-0.3953765,-0.109942,0.172427,-0.3952365,-0.133818,-0.207073,-0.7858864999999999,-0.0046079999999999975,0.214667,-0.7908965,-0.034101
73,-0.041680499999999995,0.682258,-0.1426225,-0.2038295,0.475978,-0.1335435,-0.3891695,0.647848,-0.2301425,0.14460050000000002,0.493768,-0.1517725,0.29164049999999997,0.677958,-0.2595725,-0.4167695,0.891128,-0.3007225,0.30196049999999997,0.956068,-0.3258125,-0.0764565,-0.003490999999999994,0.0044265,0.0764565,0.003491000000000008,-0.0044265,-0.19509949999999998,-0.370522,-0.1409905,0.1784305,-0.369502,-0.1658325,-0.21089950000000002,-0.759292,-0.0233465,0.21327050000000003,-0.7644920000000001,-0.0525045
74,-0.043595,0.67572,-0.16380299999999998,-0.204454,0.47208,-0.152096,-0.390954,0.64353,-0.253653,0.141496,0.48958999999999997,-0.17100300000000002,0.289076,0.66943,-0.283443,-0.412704,0.88631,-0.326073,0.295686,0.94684,-0.352873,-0.076067,-0.0035200000000000092,0.0046589999999999965,0.076067,0.0035199999999999954,-0.0046589999999999965,-0.206314,-0.34576,-0.170543,0.184476,-0.34383,-0.196853,-0.21418399999999999,-0.73253,-0.041475,0.212096,-0.73792,-0.070492
75,-0.0456515,0.6702400000000001,-0.1842155,-0.2052435,0.46675999999999995,-0.17049550000000002,-0.3924835,0.63727,-0.2758155,0.1382165,0.48390999999999995,-0.1892855,0.2866465,0.6619700000000001,-0.3062455,-0.4102035,0.88268,-0.3512755,0.29075650000000003,0.94436,-0.3771955,-0.0755865,-0.0035600000000000076,0.004880499999999996,0.0755865,0.0035600000000000076,-0.00488050000000001,-0.2171135,-0.31976000000000004,-0.1995055,0.19052650000000002,-0.31723999999999997,-0.2274555,-0.2170935,-0.70368,-0.058523500000000006,0.2110965,-0.7088099999999999,-0.08765650000000001
76,-0.047569,0.6646650000000001,-0.201536,-0.206042,0.463045,-0.185946,-0.393822,0.633625,-0.295416,0.134878,0.478265,-0.204806,0.284288,0.654945,-0.326456,-0.408532,0.872085,-0.374546,0.286478,0.937585,-0.40034600000000004,-0.075019,-0.003735000000000016,0.005081000000000002,0.075019,0.0037349999999999883,-0.005081000000000002,-0.22781200000000001,-0.295865,-0.225406,0.195988,-0.293485,-0.254266,-0.219842,-0.676825,-0.073215,0.210378,-0.6815950000000001,-0.10280500000000001
77,-0.048873,0.659635,-0.217502,-0.20645999999999998,0.458845,-0.200552,-0.39483,0.627365,-0.313952,0.13201999999999997,0.47221500000000005,-0.21932200000000002,0.28271,0.647755,-0.344522,-0.4069,0.859525,-0.395892,0.28431,0.9308649999999999,-0.421272,-0.0746,-0.003904999999999992,0.00523499999999999,0.0746,0.003904999999999992,-0.0052350000000000035,-0.23826000000000003,-0.272265,-0.250362,0.20198,-0.270065,-0.280342,-0.22208,-0.649225,-0.08664300000000001,0.21026,-0.653675,-0.117083
78,-0.050232,0.65662,-0.2329285,-0.206872,0.45731,-0.21470850000000002,-0.396322,0.62212,-0.3315085,0.129138,0.46880999999999995,-0.2328885,0.281278,0.64375,-0.36207849999999997,-0.40561200000000003,0.85093,-0.41674849999999997,0.28242799999999996,0.91935,-0.4421585,-0.074408,-0.003710000000000019,0.00547149999999999,0.074408,0.003709999999999991,-0.005471500000000004,-0.248212,-0.24673,-0.2757085,0.207708,-0.24538000000000004,-0.3059585,-0.22450199999999998,-0.61931,-0.09923150000000001,0.210158,-0.62394,-0.13022050000000002
79,-0.051872,0.653695,-0.2476235,-0.207335,0.455185,-0.2285335,-0.397855,0.6158250000000001,-0.3477135,0.126155,0.465505,-0.2460935,0.279775,0.6369750000000001,-0.3787435,-0.405225,0.840465,-0.4366735,0.280255,0.910985,-0.4610535,-0.074175,-0.0038549999999999973,0.005646500000000013,0.074175,0.0038549999999999973,-0.005646499999999999,-0.257975,-0.21796499999999996,-0.3007435,0.214015,-0.218155,-0.3314135,-0.227025,-0.587565,-0.11085049999999999,0.210285,-0.591935,-0.1421245
80,-0.053014500000000006,0.65154,-0.25570000000000004,-0.20767750000000001,0.45472999999999997,-0.23593,-0.3993675,0.61268,-0.35788000000000003,0.12363249999999998,0.46335,-0.25338,0.2785625,0.6334,-0.38869,-0.4052075,0.83561,-0.45003,0.27822250000000004,0.90169,-0.47451,-0.0738325,-0.0037699999999999956,0.005589999999999998,0.0738325,0.0037699999999999956,-0.005589999999999998,-0.2661075,-0.19084,-0.31854000000000005,0.2197325,-0.19208000000000003,-0.34938,-0.2289775,-0.55832,-0.115999,0.2101325,-0.56196,-0.14672000000000002
81,-0.0543435,0.64699,-0.263085,-0.2079365,0.45025,-0.242635,-0.4007465,0.60477,-0.367245,0.12208350000000001,0.46124,-0.259375,0.2775735,0.62788,-0.397675,-0.4051365,0.83093,-0.461205,0.2767535,0.89397,-0.485435,-0.0736035,-0.0041999999999999815,0.005665000000000003,0.0736035,0.0041999999999999815,-0.005665000000000003,-0.2705865,-0.16722000000000004,-0.329015,0.22350350000000002,-0.17015000000000002,-0.360085,-0.2305065,-0.53089,-0.118279,0.2101035,-0.53418,-0.148814
82,-0.0552555,0.6445700000000001,-0.267025,-0.20802949999999998,0.447568,-0.246095,-0.4015395,0.59855,-0.37177499999999997,0.12058050000000001,0.46009500000000003,-0.262575,0.27698049999999996,0.62337,-0.40342500000000003,-0.4061095,0.82101,-0.46979499999999996,0.27532049999999997,0.88558,-0.49504499999999996,-0.07355049999999999,-0.0044299999999999895,0.005644999999999997,0.07355049999999999,0.004430000000000045,-0.005644999999999997,-0.2748395,-0.14489999999999992,-0.336015,0.2279205,-0.14922999999999997,-0.367845,-0.2318095,-0.50369,-0.118244,0.21029050000000002,-0.50671,-0.148835
83,-0.056261500000000006,0.6420399999999999,-0.27063000000000004,-0.20823250000000001,0.44474,-0.24946000000000002,-0.4024725,0.59137,-0.37561999999999995,0.11894749999999998,0.458091,-0.26598,0.27612749999999997,0.61802,-0.40908,-0.4072025,0.81247,-0.47777000000000003,0.2742575,0.88359,-0.50234,-0.0736175,-0.004720000000000002,0.005650000000000002,0.0736175,0.004720000000000002,-0.005650000000000002,-0.2791825,-0.12212,-0.34235000000000004,0.2322075,-0.12782000000000004,-0.37503,-0.2332025,-0.47543,-0.11819700000000001,0.2102775,-0.47829,-0.148839
84,-0.05690049999999999,0.6401,-0.27366,-0.2079595,0.444425,-0.25158,-0.4032695,0.5861,-0.37931000000000004,0.11773049999999999,0.458025,-0.26855,0.2753405,0.61416,-0.41411,-0.4079795,0.80366,-0.48451,0.2737505,0.87408,-0.50938,-0.0737605,-0.0046800000000000175,0.005629999999999996,0.0737605,0.0046800000000000175,-0.00563000000000001,-0.2835795,-0.09975,-0.34687999999999997,0.2366605,-0.10602999999999996,-0.38056999999999996,-0.2336195,-0.4467,-0.11737700000000001,0.2081005,-0.45018,-0.144811
85,-0.057196000000000004,0.63937,-0.275925,-0.206786,0.4433,-0.252755,-0.403736,0.57647,-0.381675,0.116694,0.45866700000000005,-0.27049500000000004,0.274874,0.6097400000000001,-0.41847500000000004,-0.409346,0.7932600000000001,-0.489035,0.274184,0.8696200000000001,-0.5145150000000001,-0.073974,-0.0046399999999999775,0.005594999999999989,0.073974,0.004640000000000033,-0.005595000000000003,-0.288176,-0.07608999999999999,-0.350595,0.24120400000000003,-0.08238999999999996,-0.385215,-0.233766,-0.41596,-0.116306,0.207934,-0.42038999999999993,-0.143571
86,-0.057266,0.63872,-0.27761,-0.20533500000000002,0.442759,-0.25362,-0.403805,0.571032,-0.38355000000000006,0.11590499999999998,0.460744,-0.27211,0.274735,0.60774,-0.42271000000000003,-0.410895,0.7855300000000001,-0.49373,0.274895,0.85858,-0.5205,-0.073985,-0.0047800000000000065,0.005399999999999988,0.073985,0.0047800000000000065,-0.005400000000000002,-0.29241500000000004,-0.053029999999999966,-0.35387,0.245575,-0.059890000000000054,-0.38877000000000006,-0.233735,-0.38636,-0.115344,0.207985,-0.39175,-0.14219600000000002
87,-0.05727549999999999,0.636825,-0.27918,-0.2038405,0.43908099999999994,-0.25462,-0.40454049999999997,0.565434,-0.38547,0.11512950000000001,0.45969799999999994,-0.27380000000000004,0.27469950000000004,0.6010179999999999,-0.42668,-0.4128205,0.7802849999999999,-0.49746,0.2757895,0.853355,-0.52564,-0.0739895,-0.005325000000000024,0.005239999999999995,0.0739895,0.005324999999999913,-0.0052400000000000085,-0.2966505,-0.03224500000000008,-0.35548,0.2494295,-0.03942500000000004,-0.3907,-0.2343905,-0.36160500000000007,-0.11529,0.20802949999999998,-0.364965,-0.141025
88,-0.056874999999999995,0.6361160000000001,-0.280005,-0.201758,0.4379050000000001,-0.254825,-0.404678,0.5611550000000001,-0.387085,0.11490199999999999,0.4595250000000001,-0.274575,0.275052,0.5974170000000001,-0.42995500000000003,-0.414058,0.775695,-0.501355,0.277542,0.8457050000000002,-0.530475,-0.074072,-0.005394999999999928,0.004985000000000003,0.074072,0.005395000000000039,-0.004985000000000003,-0.299348,-0.014774999999999872,-0.355355,0.252572,-0.021864999999999912,-0.391305,-0.23460799999999998,-0.3405449999999999,-0.114998,0.209102,-0.34452499999999986,-0.140379
89,-0.0564365,0.6351110000000001,-0.280755,-0.1998325,0.43672000000000005,-0.25504499999999997,-0.40431249999999996,0.5552290000000001,-0.388115,0.11465750000000001,0.45882000000000006,-0.275275,0.27579750000000003,0.592222,-0.43283499999999997,-0.41502249999999996,0.76953,-0.504505,0.2797075,0.8418700000000001,-0.534375,-0.0741375,-0.005589999999999984,0.004805000000000004,0.0741375,0.005590000000000095,-0.004805000000000004,-0.30146249999999997,0.0006500000000000394,-0.354995,0.2552175,-0.006859999999999977,-0.391435,-0.2346325,-0.32219,-0.114566,0.21026750000000002,-0.3267,-0.139478
90,-0.056045,0.632845,-0.281065,-0.198625,0.437295,-0.25504499999999997,-0.404455,0.551177,-0.388815,0.11434499999999999,0.45801499999999995,-0.276055,0.27658499999999997,0.586516,-0.435225,-0.415485,0.7626649999999999,-0.5072949999999999,0.281705,0.835385,-0.538605,-0.074375,-0.005425000000000013,0.004725000000000007,0.074375,0.005425000000000013,-0.004724999999999993,-0.30346500000000004,0.014255000000000018,-0.354835,0.25698499999999996,0.0071550000000000225,-0.39141499999999996,-0.23477499999999998,-0.306175,-0.11413299999999998,0.211215,-0.310945,-0.138456
91,-0.055713,0.631779,-0.28112,-0.197816,0.4377,-0.25509,-0.40495600000000004,0.548539,-0.38977999999999996,0.114224,0.45682999999999996,-0.27631,0.277424,0.58256,-0.43676,-0.41693600000000003,0.76022,-0.5099400000000001,0.283924,0.82664,-0.5414,-0.074544,-0.005170000000000008,0.004610000000000003,0.074544,0.005170000000000008,-0.004610000000000003,-0.304946,0.022809999999999997,-0.35476,0.257994,0.016129999999999978,-0.39144,-0.23482599999999998,-0.29547999999999996,-0.113536,0.211824,-0.30061000000000004,-0.137545
92,-0.0556365,0.631995,-0.281045,-0.1976025,0.4376549999999999,-0.255105,-0.40673250000000005,0.5461149999999999,-0.390195,0.11394750000000001,0.4562649999999999,-0.276215,0.27805749999999996,0.5823969999999999,-0.437725,-0.41841249999999997,0.7557449999999999,-0.5114150000000001,0.2857275,0.8212649999999999,-0.541795,-0.0747675,-0.004965000000000108,0.004424999999999998,0.0747675,0.004964999999999997,-0.004424999999999998,-0.3067725,0.029054999999999942,-0.354485,0.25864750000000003,0.022724999999999995,-0.391265,-0.2352225,-0.2877550000000001,-0.113024,0.2122175,-0.293165,-0.136655
93,-0.0551125,0.631556,-0.28095,-0.1967805,0.437975,-0.25509,-0.4070005,0.547257,-0.39052,0.11426950000000001,0.45623500000000006,-0.27611,0.2792295,0.5809030000000001,-0.43773999999999996,-0.4193705,0.752425,-0.5131600000000001,0.2885895,0.820765,-0.54178,-0.0749895,-0.004974999999999952,0.004299999999999998,0.0749895,0.004975000000000063,-0.004299999999999998,-0.3082705,0.03141499999999997,-0.35391,0.2603895,0.025125000000000064,-0.39088,-0.23510050000000002,-0.28449499999999994,-0.112665,0.21318949999999998,-0.29042499999999993,-0.13575
94,-0.0542085,0.631556,-0.281,-0.1954715,0.437975,-0.25485,-0.40690149999999997,0.547257,-0.39044,0.1150585,0.45623500000000006,-0.27616,0.2810185,0.5809030000000001,-0.43783,-0.4188415,0.752425,-0.5132099999999999,0.2923485,0.820385,-0.54194,-0.0752185,-0.004974999999999952,0.0042099999999999915,0.0752185,0.004975000000000063,-0.004210000000000005,-0.3091415,0.03141499999999997,-0.35314999999999996,0.2626985,0.024695000000000022,-0.38993,-0.2343615,-0.285095,-0.11249400000000001,0.21464850000000002,-0.29125499999999993,-0.135045
95,-0.053261,0.631556,-0.28069,-0.193811,0.437975,-0.25461,-0.406671,0.547257,-0.38983,0.11597899999999998,0.45623500000000006,-0.27626,0.282939,0.5809030000000001,-0.4379,-0.418061,0.752425,-0.5126900000000001,0.295499,0.820385,-0.54158,-0.075269,-0.004974999999999952,0.0042099999999999915,0.075269,0.004975000000000063,-0.004210000000000005,-0.309701,0.03141499999999997,-0.35257000000000005,0.265399,0.024695000000000022,-0.38868,-0.233331,-0.28556499999999996,-0.112098,0.21647899999999998,-0.291455,-0.134584
96,-0.0521235,0.631556,-0.2802,-0.1927585,0.437975,-0.25433,-0.4069185,0.547257,-0.38956,0.11692150000000001,0.45623500000000006,-0.27642,0.2850515,0.5809030000000001,-0.43798000000000004,-0.4174285,0.752425,-0.51153,0.2983415,0.820385,-0.54093,-0.0751965,-0.004974999999999952,0.004210000000000005,0.0751965,0.004975000000000063,-0.0042099999999999915,-0.3103585,0.03141499999999997,-0.3519,0.2678815,0.024695000000000022,-0.38708,-0.2320985,-0.28556499999999996,-0.111297,0.2185215,-0.291455,-0.13436599999999999
97,-0.051345,0.632663,-0.279055,-0.19249499999999997,0.438685,-0.254285,-0.40681500000000004,0.551018,-0.389675,0.11784499999999999,0.45677500000000004,-0.276415,0.286885,0.5813510000000001,-0.43711500000000003,-0.416995,0.756575,-0.511665,0.300795,0.818485,-0.541105,-0.074948,-0.004885000000000028,0.0043249999999999955,0.074948,0.004885000000000028,-0.0043249999999999955,-0.31145500000000004,0.02968499999999996,-0.351175,0.270155,0.02279500000000001,-0.385295,-0.230945,-0.28746499999999997,-0.110612,0.220615,-0.29335500000000003,-0.13456
98,-0.0509235,0.6338520000000001,-0.27786500000000003,-0.1935095,0.441195,-0.25431499999999996,-0.4069795,0.5550930000000001,-0.389865,0.11862050000000002,0.45572500000000005,-0.276445,0.28865050000000003,0.5816990000000001,-0.435675,-0.4166995,0.760945,-0.5114650000000001,0.3026505,0.821535,-0.538995,-0.0746835,-0.004284999999999983,0.004505000000000009,0.0746835,0.004284999999999983,-0.004504999999999995,-0.3128595,0.024675000000000002,-0.349935,0.2719505,0.01782499999999998,-0.383655,-0.2299495,-0.29366499999999995,-0.109924,0.2225405,-0.299555,-0.134829
99,-0.050821000000000005,0.635332,-0.27597,-0.194526,0.44221999999999995,-0.25409,-0.407596,0.559375,-0.38975000000000004,0.11929400000000001,0.45677,-0.2764,0.290344,0.584376,-0.43384,-0.416276,0.76583,-0.50926,0.304404,0.82794,-0.53539,-0.074375,-0.0041200000000000125,0.004490000000000008,0.074375,0.0041200000000000125,-0.004489999999999994,-0.314736,0.016649999999999943,-0.34799,0.273634,0.009639999999999982,-0.38153000000000004,-0.22897599999999999,-0.30377,-0.10902099999999999,0.22459400000000002,-0.30942000000000003,-0.135019
100,-0.050573999999999994,0.6374430000000001,-0.273785,-0.19550599999999999,0.44335000000000013,-0.253765,-0.407736,0.5645560000000001,-0.38902499999999995,0.12009399999999999,0.4577200000000001,-0.276395,0.292264,0.5870440000000001,-0.43161499999999997,-0.415386,0.77478,-0.506385,0.306404,0.8330900000000001,-0.531035,-0.074122,-0.003869999999999929,0.004514999999999991,0.074122,0.00387000000000004,-0.004515000000000005,-0.316636,0.005840000000000067,-0.34580500000000003,0.275494,-0.0006999999999999229,-0.37939500000000004,-0.22786599999999999,-0.31714999999999993,-0.108019,0.22687400000000002,-0.3220599999999999,-0.135124
101,-0.050280500000000006,0.639885,-0.2711,-0.19632349999999998,0.444355,-0.25334,-0.4063735,0.571537,-0.38786,0.12090649999999999,0.458845,-0.27635,0.2941665,0.5919019999999999,-0.42907,-0.4143335,0.781365,-0.503,0.3086965,0.8394550000000001,-0.52494,-0.0739205,-0.0037249999999999783,0.004580000000000001,0.0739205,0.0037249999999999783,-0.004580000000000001,-0.3183035,-0.007565000000000044,-0.34348,0.27763649999999995,-0.01346500000000006,-0.37716,-0.2263935,-0.33326500000000003,-0.106877,0.22938650000000002,-0.33743500000000004,-0.135146
102,-0.050035,0.6424050000000001,-0.268025,-0.19733599999999998,0.4456270000000001,-0.252435,-0.40527599999999997,0.57576,-0.38544500000000004,0.121524,0.4601290000000001,-0.275905,0.295514,0.5959830000000002,-0.426145,-0.413496,0.7880750000000001,-0.497255,0.310634,0.8447650000000001,-0.517825,-0.073626,-0.003534999999999955,0.004845000000000002,0.073626,0.003535000000000066,-0.004845000000000002,-0.319556,-0.022904999999999953,-0.340965,0.279624,-0.028614999999999946,-0.375165,-0.225026,-0.3518849999999999,-0.105467,0.231774,-0.35535499999999987,-0.134959
103,-0.0496805,0.645955,-0.26431,-0.19842949999999998,0.44742599999999993,-0.25107999999999997,-0.40412950000000003,0.5797279999999999,-0.38168,0.1222005,0.46154399999999995,-0.27508,0.29625049999999997,0.5993689999999999,-0.42257,-0.41289950000000003,0.7944849999999999,-0.48993,0.3124205,0.8497649999999999,-0.51047,-0.0733485,-0.003335000000000088,0.005100000000000007,0.0733485,0.003334999999999977,-0.005099999999999993,-0.3201395,-0.039245000000000085,-0.33804,0.2814405,-0.04487500000000011,-0.37273,-0.22367949999999998,-0.37273500000000004,-0.10492099999999999,0.23413050000000002,-0.3745950000000001,-0.13471
104,-0.04914550000000001,0.648555,-0.260332,-0.1992545,0.44894900000000004,-0.249342,-0.4020645,0.587338,-0.37707199999999996,0.1230455,0.46218000000000004,-0.273932,0.2969155,0.602105,-0.418562,-0.4121945,0.802835,-0.482292,0.3136655,0.8541350000000001,-0.5031220000000001,-0.0731715,-0.0029649999999999954,0.005358000000000002,0.0731715,0.0029649999999999954,-0.005358000000000002,-0.3204745,-0.056615000000000026,-0.334592,0.2826255,-0.06163499999999994,-0.369942,-0.2223145,-0.39387500000000003,-0.103493,0.2364755,-0.395005,-0.134265
105,-0.0486575,0.65083,-0.255918,-0.1997315,0.449904,-0.247148,-0.40019150000000003,0.59148,-0.37211799999999995,0.12377850000000001,0.463464,-0.272408,0.2973085,0.60517,-0.41446799999999995,-0.41085150000000004,0.81223,-0.47215799999999997,0.3137585,0.8615200000000001,-0.495768,-0.07315650000000001,-0.00273000000000001,0.005652000000000004,0.07315650000000001,0.00273000000000001,-0.005652000000000004,-0.32055150000000004,-0.07382,-0.330648,0.2827385,-0.07821,-0.366908,-0.22119149999999999,-0.41503,-0.102259,0.2387185,-0.41500000000000004,-0.133929
106,-0.0479325,0.653945,-0.25186949999999997,-0.2000055,0.450908,-0.2446095,-0.3987555,0.598225,-0.3664095,0.1245645,0.46351899999999996,-0.2708395,0.2973845,0.607185,-0.40978950000000003,-0.4092855,0.8199749999999999,-0.4634795,0.3137645,0.864285,-0.4884195,-0.0732805,-0.0023550000000000515,0.005940500000000001,0.0732805,0.002354999999999996,-0.005940500000000001,-0.3193455,-0.09159499999999998,-0.3262895,0.2825745,-0.09472500000000006,-0.3632995,-0.2207055,-0.43684500000000004,-0.1009205,0.2409845,-0.43572500000000003,-0.13363350000000002
107,-0.047254,0.658235,-0.246882,-0.199419,0.449531,-0.242032,-0.39781900000000003,0.605445,-0.360622,0.125071,0.46570100000000003,-0.26917199999999997,0.297321,0.6112150000000001,-0.405312,-0.407859,0.8286150000000001,-0.45387199999999994,0.313751,0.869605,-0.480772,-0.07345,-0.0026049999999999685,0.0062480000000000036,0.07345,0.002605000000000024,-0.0062480000000000036,-0.317799,-0.10763499999999993,-0.322372,0.282171,-0.110205,-0.359402,-0.220159,-0.45772499999999994,-0.099496,0.24338100000000001,-0.4548749999999999,-0.133791
108,-0.0461525,0.6615,-0.241596,-0.1987825,0.45073399999999997,-0.239086,-0.3967425,0.6142,-0.354536,0.1258775,0.46568899999999996,-0.267366,0.29738749999999997,0.61601,-0.400686,-0.4063825,0.8423499999999999,-0.444456,0.3140275,0.87627,-0.473246,-0.0736555,-0.0021000000000000463,0.006554000000000004,0.0736555,0.0020999999999999908,-0.006554000000000004,-0.3156725,-0.12279000000000007,-0.318466,0.2819475,-0.12319999999999998,-0.355456,-0.2192825,-0.47698000000000007,-0.098317,0.2458375,-0.47261,-0.133867
109,-0.044995,0.6636550000000001,-0.2356605,-0.19854,0.45477,-0.2347005,-0.39568,0.619495,-0.3477805,0.12686999999999998,0.46854500000000004,-0.26428050000000003,0.29769,0.619685,-0.3953905,-0.40491,0.847515,-0.43451049999999997,0.31454000000000004,0.8809150000000001,-0.4649605,-0.07362,-0.0021649999999999725,0.006589500000000012,0.07362,0.002165000000000028,-0.006589499999999998,-0.31345,-0.13956499999999994,-0.3131505,0.28122,-0.13841499999999995,-0.3495605,-0.22059,-0.497965,-0.09911049999999999,0.2484,-0.492675,-0.1333645
110,-0.0437655,0.668895,-0.229771,-0.1983615,0.45773900000000006,-0.230051,-0.3950215,0.626495,-0.34108099999999997,0.1279585,0.47094500000000006,-0.260641,0.2978985,0.622625,-0.389671,-0.4036915,0.855125,-0.42459100000000005,0.3150185,0.884885,-0.457411,-0.07357250000000001,-0.001994999999999969,0.006498999999999991,0.07357250000000001,0.0019950000000000245,-0.006499000000000005,-0.31132150000000003,-0.15520499999999993,-0.307541,0.2805585,-0.15244499999999994,-0.34360100000000005,-0.2233815,-0.517575,-0.101359,0.2528685,-0.511505,-0.13548500000000002
111,-0.042676,0.6733549999999999,-0.2242405,-0.198016,0.46047499999999997,-0.2258205,-0.394186,0.6329549999999999,-0.3351105,0.129004,0.47395499999999996,-0.25701050000000003,0.298324,0.6273249999999999,-0.3841005,-0.402386,0.8609549999999999,-0.4157905,0.315544,0.890015,-0.4498805,-0.073631,-0.0020050000000000345,0.006371500000000002,0.073631,0.002004999999999979,-0.006371500000000002,-0.308606,-0.17039500000000007,-0.3019905,0.279364,-0.16593500000000005,-0.3373605,-0.226626,-0.536825,-0.1046045,0.257344,-0.5305850000000001,-0.13806649999999998
112,-0.041973500000000004,0.67791,-0.21879900000000002,-0.19769350000000002,0.46289,-0.221659,-0.3933635,0.64127,-0.329829,0.1298965,0.47672000000000003,-0.252889,0.2988365,0.63173,-0.378289,-0.4013135,0.86819,-0.407589,0.31585650000000004,0.8949199999999999,-0.442449,-0.07371549999999999,-0.0020499999999999963,0.006109000000000003,0.07371549999999999,0.0020499999999999963,-0.006109000000000003,-0.3052335,-0.18542999999999993,-0.295979,0.2781465,-0.17812999999999996,-0.331049,-0.22994350000000002,-0.5562499999999999,-0.10787,0.26206650000000004,-0.5497399999999999,-0.14264
113,-0.041564500000000004,0.6832100000000001,-0.21260300000000001,-0.19773449999999998,0.46654,-0.216983,-0.3925945,0.647,-0.324373,0.1306255,0.4802,-0.24722300000000003,0.29915549999999996,0.63601,-0.371633,-0.40106450000000005,0.8746400000000001,-0.398403,0.3162855,0.8981300000000001,-0.434943,-0.0738515,-0.0020600000000000063,0.005710999999999994,0.0738515,0.0020600000000000063,-0.005711000000000008,-0.3002145,-0.20187,-0.288203,0.27590549999999997,-0.19235999999999998,-0.322773,-0.23314450000000003,-0.57893,-0.11090200000000001,0.2662055,-0.57101,-0.14689400000000002
114,-0.04108649999999999,0.687465,-0.20644200000000001,-0.1977435,0.469005,-0.212362,-0.3918735,0.6530549999999999,-0.319162,0.1316865,0.48133499999999996,-0.241662,0.2995165,0.640065,-0.364902,-0.4008035,0.880405,-0.391322,0.3173565,0.898435,-0.42710200000000004,-0.0740585,-0.00193500000000002,0.005306000000000005,0.0740585,0.00193500000000002,-0.005306000000000005,-0.2940135,-0.21857500000000002,-0.280112,0.2730165,-0.206565,-0.313902,-0.23412349999999998,-0.601795,-0.11174,0.2684165,-0.592415,-0.148129
115,-0.040856,0.6897150000000001,-0.199511,-0.197854,0.470645,-0.208011,-0.391424,0.6589750000000001,-0.314471,0.13261599999999998,0.482495,-0.236331,0.30019599999999996,0.647065,-0.358261,-0.40090400000000004,0.887825,-0.384571,0.318266,0.9057850000000001,-0.418991,-0.07423199999999999,-0.0020649999999999835,0.004855999999999999,0.07423199999999999,0.0020650000000000113,-0.004855999999999999,-0.287364,-0.23429499999999998,-0.271941,0.269626,-0.219675,-0.305131,-0.233444,-0.622935,-0.111455,0.27077599999999996,-0.612225,-0.150169
116,-0.0402425,0.69141,-0.193018,-0.1977975,0.47248999999999997,-0.202898,-0.3907475,0.6635,-0.309378,0.1341625,0.48111000000000004,-0.229198,0.30134249999999996,0.6531399999999999,-0.351028,-0.40030750000000004,0.8932599999999999,-0.378388,0.31949249999999996,0.9173,-0.41099800000000003,-0.0743195,-0.0015600000000000058,0.004610000000000003,0.0743195,0.0015600000000000058,-0.004610000000000003,-0.27979750000000003,-0.25011000000000005,-0.263018,0.26626249999999996,-0.23312000000000002,-0.296108,-0.2317775,-0.64391,-0.109519,0.2730225,-0.6320100000000001,-0.151237
117,-0.0404085,0.69541,-0.1863705,-0.1985285,0.47708999999999996,-0.1969705,-0.3903485,0.66364,-0.30335049999999997,0.1350415,0.47687999999999997,-0.2210305,0.3014715,0.65533,-0.34271050000000003,-0.40121850000000003,0.89364,-0.37188050000000006,0.32049150000000004,0.9189499999999999,-0.40313050000000006,-0.0743785,-0.0011800000000000144,0.0041645000000000015,0.0743785,0.0011799999999999866,-0.0041645000000000015,-0.2705885,-0.2679,-0.2511505,0.2604915,-0.25029,-0.28398049999999997,-0.2306985,-0.66645,-0.1059715,0.2740515,-0.65418,-0.1489125
118,-0.041051000000000004,0.69868,-0.179374,-0.199078,0.4805,-0.19174400000000003,-0.390268,0.66943,-0.296814,0.13550199999999998,0.47087,-0.213264,0.30057199999999995,0.66088,-0.33345400000000003,-0.40257800000000005,0.8986400000000001,-0.36469399999999996,0.320992,0.92482,-0.39509400000000006,-0.074625,-0.00037999999999999146,0.004039999999999988,0.074625,0.00037999999999999146,-0.004040000000000002,-0.260768,-0.28389,-0.237864,0.254042,-0.26552,-0.271774,-0.227568,-0.68739,-0.099797,0.27470199999999995,-0.6740900000000001,-0.145402
119,-0.041871000000000005,0.698785,-0.17226999999999998,-0.199781,0.485385,-0.1857,-0.389961,0.671575,-0.2897,0.136039,0.466175,-0.20534999999999998,0.299449,0.6659649999999999,-0.32404,-0.403851,0.902865,-0.35701,0.321409,0.9300250000000001,-0.38689,-0.075054,0.0002650000000000152,0.003804000000000002,0.075054,-0.00026499999999998747,-0.003804000000000002,-0.250251,-0.30222499999999997,-0.22316999999999998,0.247249,-0.284985,-0.25833,-0.226881,-0.7105950000000001,-0.096118,0.275229,-0.696715,-0.141716
120,-0.0427505,0.701185,-0.163932,-0.2005415,0.487295,-0.178422,-0.3895415,0.675945,-0.281082,0.1366785,0.471455,-0.195772,0.2979785,0.669305,-0.313622,-0.40574150000000003,0.905355,-0.348692,0.3217885,0.931465,-0.377612,-0.0754475,-0.0004950000000000093,0.003362000000000004,0.0754475,0.0004949999999999954,-0.003362000000000004,-0.2382415,-0.324075,-0.204472,0.23844849999999998,-0.307885,-0.24149199999999998,-0.22469150000000002,-0.736505,-0.090118,0.2739385,-0.721545,-0.13671
121,-0.0434515,0.705777,-0.155238,-0.20115449999999999,0.489827,-0.170503,-0.3890345,0.678337,-0.271773,0.1372955,0.476677,-0.185583,0.2967155,0.674807,-0.302753,-0.4076845,0.907587,-0.339063,0.3221555,0.934337,-0.367423,-0.07585549999999999,-0.0010020000000000029,0.0028870000000000007,0.07585549999999999,0.001001999999999989,-0.0028870000000000007,-0.2256745,-0.34519299999999997,-0.184333,0.22924550000000002,-0.330773,-0.22309299999999999,-0.22177449999999999,-0.760433,-0.082701,0.2722355,-0.744533,-0.131026
122,-0.044081,0.7069795,-0.1412845,-0.201965,0.4899295,-0.15606350000000002,-0.388125,0.6766195,-0.2562335,0.138085,0.4794695,-0.1709835,0.295615,0.6767295,-0.28662350000000003,-0.40874499999999997,0.9060095,-0.32387350000000004,0.32189500000000004,0.9383195,-0.35138349999999996,-0.07619999999999999,-0.0015505000000000033,0.002884499999999998,0.07619999999999999,0.0015504999999999963,-0.002884500000000005,-0.211645,-0.36715050000000005,-0.1566435,0.218915,-0.3544205,-0.1951035,-0.214335,-0.7827305,-0.0633295,0.268865,-0.7674504999999999,-0.1122385
123,-0.04477450000000001,0.7103,-0.127424,-0.2028915,0.49191,-0.141367,-0.3872215,0.67542,-0.240147,0.1389385,0.48418,-0.156067,0.2946285,0.67878,-0.270517,-0.4097515,0.90288,-0.307307,0.3216885,0.94243,-0.335947,-0.0764625,-0.0020570000000000033,0.002822999999999999,0.0764625,0.0020569999999999963,-0.002822999999999999,-0.1982815,-0.38779,-0.129437,0.2095285,-0.37655,-0.167407,-0.2063815,-0.80309,-0.043274,0.26582849999999997,-0.78891,-0.09292900000000001
124,-0.045249000000000004,0.7138745,-0.1140955,-0.203736,0.49586450000000004,-0.1265595,-0.386316,0.6733745,-0.22356949999999998,0.139854,0.4899945,-0.14075949999999998,0.293614,0.6791444999999999,-0.2545395,-0.41054599999999997,0.8994345,-0.2904695,0.321564,0.9427145,-0.3208895,-0.076621,-0.0023985000000000013,0.002694499999999999,0.076621,0.0023984999999999996,-0.0026945000000000024,-0.185026,-0.4076455,-0.1022755,0.200914,-0.39640549999999997,-0.1388595,-0.198396,-0.8214255,-0.0229775,0.26212399999999997,-0.8084355,-0.0710615
125,-0.0457255,0.7174665,-0.1006795,-0.20439649999999998,0.5005965,-0.1123865,-0.38533649999999997,0.6708164999999999,-0.2070715,0.1409535,0.4969365,-0.12680149999999998,0.29251350000000004,0.6783365,-0.23887150000000001,-0.4105965,0.8960665,-0.2738215,0.3212435,0.9328865,-0.3061315,-0.0766855,-0.0030595,0.0023065000000000013,0.0766855,0.0030594999999999997,-0.0023064999999999995,-0.17214649999999998,-0.4259235,-0.0753415,0.19283350000000002,-0.4146835,-0.1096815,-0.1906465,-0.8383435,-0.002347499999999999,0.2588435,-0.8265035000000001,-0.0486265
126,-0.04621,0.7193940000000001,-0.0876625,-0.20526,0.502274,-0.0982865,-0.38455,0.670374,-0.19124950000000002,0.14176,0.508534,-0.1133995,0.2916,0.6803640000000001,-0.2241195,-0.41131999999999996,0.891104,-0.2575995,0.32063,0.9306840000000001,-0.2919095,-0.07688400000000001,-0.004057999999999999,0.0020875,0.07688400000000001,0.004057999999999999,-0.0020874999999999995,-0.16163,-0.43841600000000003,-0.051168500000000006,0.18642,-0.427466,-0.0833025,-0.18506999999999998,-0.850266,0.015335500000000002,0.25688,-0.8387359999999999,-0.0282225
127,-0.046553,0.7225830000000001,-0.07499,-0.206142,0.501923,-0.084039,-0.38357199999999997,0.6673330000000001,-0.17615,0.14266800000000002,0.519043,-0.09969,0.291258,0.680143,-0.21040999999999999,-0.411612,0.8859530000000001,-0.24201999999999999,0.320018,0.9275030000000001,-0.2781,-0.076903,-0.005075,0.001543,0.076903,0.005075,-0.001543,-0.152192,-0.448407,-0.028216,0.180628,-0.43933700000000003,-0.057797,-0.179882,-0.859587,0.032428,0.255258,-0.8484269999999999,-0.007859999999999999
128,-0.04690799999999999,0.7253050000000001,-0.0624895,-0.207037,0.5009950000000001,-0.0705875,-0.382737,0.664455,-0.16165649999999998,0.143343,0.5287350000000001,-0.0861565,0.290983,0.679045,-0.1969865,-0.411667,0.8810450000000001,-0.22709649999999998,0.31943299999999997,0.925505,-0.2641465,-0.076847,-0.006114999999999999,0.0010564999999999984,0.076847,0.006115000000000002,-0.0010565000000000019,-0.143577,-0.457535,-0.006777500000000002,0.17513299999999998,-0.450025,-0.033635500000000006,-0.175317,-0.867325,0.0482045,0.25361300000000003,-0.8568749999999999,0.011469499999999997
129,-0.047730499999999995,0.7267585,-0.0515085,-0.2087815,0.5025584999999999,-0.058220499999999994,-0.3825815,0.6613785,-0.14898850000000002,0.1433685,0.5279984999999999,-0.07441249999999999,0.29052849999999997,0.6786584999999999,-0.1846685,-0.41197150000000005,0.8790884999999999,-0.21381850000000002,0.3180085,0.9254684999999999,-0.25134850000000003,-0.0770015,-0.0057315000000000005,0.0007605000000000008,0.0770015,0.0057315000000000005,-0.0007605000000000008,-0.13746150000000001,-0.46440149999999997,0.0102795,0.1716385,-0.4581515,-0.013639500000000002,-0.1726415,-0.8716215,0.0606255,0.2537385,-0.8623215000000001,0.0276385
130,-0.048457499999999994,0.72468,-0.041453000000000004,-0.21047649999999998,0.50349,-0.047008999999999995,-0.3824465,0.65845,-0.137683,0.1433835,0.5273,-0.063848,0.29010349999999996,0.67658,-0.173473,-0.4118565,0.8771599999999999,-0.20242300000000002,0.31664349999999997,0.92531,-0.24000299999999997,-0.07718649999999999,-0.0055580000000000004,0.0005850000000000022,0.07718649999999999,0.0055580000000000004,-0.0005849999999999952,-0.1324165,-0.47141,0.025006,0.1686735,-0.46676999999999996,0.004163,-0.17059649999999998,-0.87548,0.071293,0.2540035,-0.8675,0.041865
131,-0.0493835,0.72471,-0.03782550000000001,-0.2119015,0.5045999999999999,-0.04313750000000001,-0.38301149999999995,0.65845,-0.1334015,0.1429585,0.52733,-0.059231500000000006,0.2892785,0.67658,-0.16877150000000002,-0.41219150000000004,0.8777699999999999,-0.1978915,0.3157185,0.92633,-0.2363515,-0.0771815,-0.0055580000000000004,0.00020449999999999635,0.0771815,0.0055580000000000004,-0.0002045000000000033,-0.1307315,-0.47376999999999997,0.029857499999999995,0.1678085,-0.46919,0.009921499999999993,-0.1693715,-0.87548,0.0734835,0.2537485,-0.8675200000000001,0.045072499999999995
132,-0.049473500000000004,0.72471,-0.0345615,-0.2123535,0.50484,-0.039616500000000006,-0.3825735,0.65845,-0.1296645,0.1433565,0.52733,-0.054980499999999995,0.2891165,0.67658,-0.16401449999999998,-0.4117335,0.8781599999999999,-0.19568449999999998,0.3154265,0.9285599999999999,-0.2326645,-0.0771935,-0.0055580000000000004,-2.5499999999997747e-05,0.0771935,0.0055580000000000004,2.5499999999997747e-05,-0.1285035,-0.47608,0.0343565,0.1676565,-0.47137999999999997,0.014904500000000001,-0.1674735,-0.87549,0.07552049999999999,0.2540665,-0.8675200000000001,0.0480555
133,-0.04961550000000001,0.72471,-0.031476500000000004,-0.2128805,0.50506,-0.0359135,-0.38240050000000003,0.65833,-0.1265155,0.1437095,0.5274399999999999,-0.0510225,0.2892395,0.67668,-0.15963549999999999,-0.41138050000000004,0.8786499999999999,-0.19347550000000002,0.31514949999999997,0.93084,-0.2289855,-0.0770305,-0.0055580000000000004,-3.149999999999681e-05,0.0770305,0.0055580000000000004,3.149999999999681e-05,-0.1267505,-0.47795,0.0381965,0.1674495,-0.47343999999999997,0.0184415,-0.1657205,-0.87549,0.0772935,0.2542895,-0.8675200000000001,0.050616499999999995
134,-0.049784999999999996,0.7258675,-0.02867,-0.21343299999999998,0.5064875,-0.03206900000000001,-0.382653,0.6586075,-0.12348599999999998,0.14382699999999998,0.5288875,-0.047438,0.289717,0.6775875,-0.155516,-0.41121300000000005,0.8804575,-0.191356,0.31509699999999996,0.9302475,-0.22565599999999997,-0.076793,-0.005458499999999998,-0.00018599999999999867,0.076793,0.005458499999999998,0.00018599999999999867,-0.125343,-0.4782525,0.041496,0.16711700000000002,-0.4738425,0.020929,-0.16417299999999999,-0.8735225,0.078857,0.254617,-0.8661125000000001,0.052672
135,-0.05007,0.726075,-0.0260455,-0.21347300000000002,0.507845,-0.029165500000000004,-0.38331299999999996,0.658135,-0.1207745,0.143767,0.529835,-0.0444405,0.290007,0.677815,-0.1519145,-0.411303,0.880945,-0.1902945,0.31527700000000003,0.927275,-0.2250645,-0.076643,-0.005409999999999998,-0.00046449999999999964,0.076643,0.005409999999999998,0.00046449999999999964,-0.12430300000000001,-0.478365,0.0441425,0.16679699999999997,-0.474165,0.0227595,-0.162873,-0.871585,0.08014450000000001,0.254637,-0.864615,0.0541065
136,-0.050252000000000005,0.7261540000000001,-0.024176500000000004,-0.213393,0.508684,-0.0269905,-0.384023,0.657084,-0.11883250000000001,0.143627,0.530254,-0.042407499999999994,0.290097,0.677444,-0.1495525,-0.411663,0.8812840000000001,-0.1907825,0.315257,0.9240440000000001,-0.2255625,-0.076653,-0.005366999999999997,-0.0007735000000000034,0.076653,0.005367000000000004,0.0007734999999999999,-0.123783,-0.47831599999999996,0.0449665,0.166787,-0.47404599999999997,0.0233835,-0.162033,-0.870486,0.0805915,0.254367,-0.863756,0.0546925
137,-0.050242999999999996,0.726206,-0.022969499999999997,-0.21333799999999997,0.509306,-0.025472500000000002,-0.38502800000000004,0.655876,-0.11754450000000001,0.143532,0.530606,-0.0409235,0.29015199999999997,0.677076,-0.1478545,-0.412138,0.8814160000000001,-0.19168449999999998,0.315222,0.921026,-0.22648449999999998,-0.076658,-0.005352999999999997,-0.0009255000000000027,0.076658,0.005353000000000004,0.0009254999999999992,-0.12341799999999999,-0.478424,0.0450225,0.166792,-0.473964,0.0234025,-0.16149799999999997,-0.8698539999999999,0.0802635,0.254002,-0.863034,0.054752499999999996
138,-0.0502595,0.726299,-0.022146999999999997,-0.21334250000000002,0.509279,-0.024222999999999998,-0.3864425,0.6533990000000001,-0.116924,0.1434175,0.5309189999999999,-0.040006,0.2914375,0.676099,-0.14688400000000001,-0.41315250000000003,0.881399,-0.192934,0.31591749999999996,0.9178390000000001,-0.22779400000000002,-0.0766125,-0.005382999999999999,-0.0009750000000000002,0.0766125,0.005382999999999999,0.0009750000000000002,-0.12315249999999998,-0.478531,0.044458,0.1667275,-0.473851,0.022963,-0.1611325,-0.869351,0.079405,0.25370750000000003,-0.862411,0.054266
139,-0.0504265,0.7265015,-0.021594,-0.2132335,0.5091215,-0.022680999999999996,-0.3893335,0.6491914999999999,-0.11623800000000001,0.1431565,0.5312215,-0.039347999999999994,0.2945165,0.6734215,-0.14657799999999999,-0.4163135,0.8769615,-0.196218,0.3171665,0.9134715,-0.23098799999999997,-0.0764635,-0.005421499999999996,-0.0008289999999999999,0.0764635,0.005421500000000003,0.0008289999999999999,-0.12297350000000001,-0.4785885,0.043522000000000005,0.1665065,-0.47363849999999996,0.022182,-0.1608735,-0.8688885000000001,0.078286,0.25335650000000004,-0.8618385000000001,0.053589
140,-0.05083549999999999,0.726833,-0.020717,-0.21294849999999999,0.508983,-0.020969,-0.39193849999999997,0.6395029999999999,-0.114931,0.1427315,0.5313329999999999,-0.03881400000000001,0.2992715,0.666793,-0.146531,-0.42087850000000004,0.8660329999999999,-0.200821,0.31917150000000005,0.9089229999999999,-0.238951,-0.0763385,-0.0055150000000000025,-0.0005780000000000021,0.0763385,0.005514999999999999,0.0005779999999999987,-0.1229585,-0.478637,0.042576,0.1661715,-0.47335699999999997,0.021290999999999997,-0.1609585,-0.8683470000000001,0.077122,0.2527915,-0.861147,0.052861
141,-0.051119,0.7271155,-0.019242,-0.212497,0.5089355,-0.018467,-0.392767,0.6265355,-0.112762,0.14214300000000002,0.5307455,-0.03788699999999999,0.305173,0.6561655,-0.146432,-0.426627,0.8485555,-0.207392,0.321963,0.8961055,-0.25003200000000003,-0.076267,-0.005573500000000002,-0.00032000000000000084,0.076267,0.005573499999999995,0.00032000000000000084,-0.123107,-0.4786745,0.041627,0.165763,-0.47305450000000004,0.020472999999999998,-0.161197,-0.8678545000000001,0.076039,0.252133,-0.8604545,0.051911
142,-0.0514155,0.72725,-0.017581,-0.2117965,0.50877,-0.015565999999999997,-0.3934165,0.60866,-0.10990899999999998,0.1414435,0.52966,-0.036596,0.3105835,0.64123,-0.145959,-0.4330165,0.82563,-0.21165899999999999,0.3271235,0.87213,-0.258869,-0.0762105,-0.005597000000000005,-3.900000000000084e-05,0.0762105,0.005596999999999998,3.900000000000084e-05,-0.1233265,-0.47862000000000005,0.040762,0.1653335,-0.4726,0.019728000000000002,-0.1615765,-0.86728,0.075104,0.2513335,-0.85965,0.050985
143,-0.05154800000000001,0.7277225,-0.015349499999999995,-0.210825,0.5082325,-0.0119475,-0.394175,0.5827925,-0.1045055,0.140695,0.5272125,-0.0347665,0.313645,0.6140425,-0.14297549999999998,-0.437265,0.7815925,-0.2128555,0.333915,0.8304325,-0.2666155,-0.07624,-0.0055584999999999975,0.0003145000000000023,0.07624,0.005558500000000001,-0.0003144999999999988,-0.12368500000000002,-0.47811750000000003,0.0399805,0.164935,-0.4717675,0.0190645,-0.16209500000000002,-0.8662875,0.0743065,0.25033500000000003,-0.8583075,0.0502175
144,-0.0516875,0.728541,-0.013012999999999997,-0.2098195,0.5074310000000001,-0.008381999999999997,-0.39485950000000003,0.5517310000000001,-0.09587199999999999,0.1400805,0.524611,-0.032643,0.3159105,0.585871,-0.137302,-0.4396695,0.7262810000000001,-0.212972,0.3414705,0.7782910000000001,-0.268972,-0.0762935,-0.005495999999999997,0.0007310000000000025,0.0762935,0.005496000000000001,-0.000730999999999999,-0.12406949999999999,-0.47733899999999996,0.039322,0.16452050000000001,-0.470789,0.018488,-0.1628095,-0.8650089999999999,0.073626,0.24935050000000003,-0.856679,0.049522000000000004
145,-0.0516345,0.7297365,-0.010570000000000003,-0.2085255,0.5064164999999999,-0.005149000000000004,-0.39409550000000004,0.5185765,-0.08582900000000002,0.13962449999999998,0.5219564999999999,-0.030609000000000004,0.31621449999999995,0.5558965,-0.130509,-0.44066550000000004,0.6607664999999999,-0.213289,0.3484245,0.7148165,-0.269849,-0.0764065,-0.0054255,0.0010739999999999986,0.0764065,0.0054255,-0.001074000000000002,-0.1244855,-0.47628349999999997,0.03877,0.1641645,-0.4694435,0.018094,-0.1635755,-0.8632935,0.073082,0.2484245,-0.8547235000000001,0.048903999999999996
146,-0.051485500000000003,0.7312985000000001,-0.008122499999999998,-0.2071265,0.5050785,-0.0024464999999999973,-0.3909565,0.4829585,-0.0743125,0.1392535,0.5192585000000001,-0.029131499999999998,0.31554350000000003,0.5216685000000001,-0.12164149999999999,-0.4416865,0.5884685000000001,-0.2134515,0.3522035,0.6494785000000001,-0.2703415,-0.0765625,-0.005337500000000002,0.0013865000000000023,0.0765625,0.0053374999999999985,-0.0013864999999999988,-0.1249365,-0.4747715,0.0382865,0.1637435,-0.4677715,0.017757500000000002,-0.16435650000000002,-0.8611215000000001,0.0726465,0.2474835,-0.8524315,0.048364500000000005
147,-0.051333000000000004,0.7331465,-0.0059355,-0.205997,0.5036065,-0.0005135000000000001,-0.38610700000000003,0.4469265,-0.062079499999999996,0.138963,0.5165365,-0.0280895,0.31488299999999997,0.4866665,-0.11214949999999999,-0.442587,0.5091365,-0.2106595,0.35212299999999996,0.5738365,-0.27065950000000005,-0.07677099999999999,-0.005181500000000002,0.0016205000000000004,0.07677099999999999,0.005181499999999999,-0.0016205000000000004,-0.12540700000000002,-0.4728835,0.0379875,0.163263,-0.46585350000000003,0.017617499999999998,-0.165167,-0.8586435,0.0724445,0.246603,-0.8498835,0.0480815
148,-0.051108,0.7352460000000001,-0.004282999999999999,-0.205097,0.501766,0.0007240000000000024,-0.379447,0.40903599999999996,-0.048794,0.138663,0.513676,-0.027401999999999996,0.314313,0.448496,-0.10092499999999999,-0.441437,0.427656,-0.204045,0.351223,0.492586,-0.268365,-0.077004,-0.00502,0.0017710000000000017,0.077004,0.00502,-0.0017709999999999983,-0.125867,-0.470704,0.037863,0.16281299999999999,-0.46389400000000003,0.017626000000000003,-0.165997,-0.855924,0.07241900000000001,0.245733,-0.846934,0.04801
149,-0.0507875,0.7374864999999999,-0.0031985,-0.2041055,0.4997965,0.0012574999999999982,-0.37059549999999997,0.3750465,-0.0351975,0.1384445,0.5109465,-0.027216500000000005,0.3138845,0.4121165,-0.08922050000000001,-0.4347955,0.3472965,-0.19124049999999998,0.35065450000000004,0.4083265,-0.2604705,-0.0772625,-0.004831500000000001,0.0018075,0.0772625,0.004831499999999999,-0.0018075,-0.1262455,-0.4682535,0.037849499999999994,0.16248449999999998,-0.4616835,0.017683499999999998,-0.16672550000000003,-0.8528635,0.0724595,0.24495450000000002,-0.8438935,0.0480305
150,-0.0505445,0.7405535,0.0012794999999999994,-0.2020205,0.49699350000000003,0.0096455,-0.3580905,0.3284035,-0.011495499999999999,0.1391095,0.5071334999999999,-0.0204335,0.3168695,0.3666335,-0.0688645,-0.4522405,0.2334635,-0.20468750000000002,0.3737995,0.3224235,-0.2932575,-0.07750850000000001,-0.0046715,0.002125499999999999,0.07750850000000001,0.0046715,-0.002125499999999999,-0.1270005,-0.4666765,0.0371555,0.16183950000000003,-0.4582565,0.0166805,-0.1676705,-0.8487965000000001,0.0716055,0.2434695,-0.8394965000000001,0.0477635
151,-0.050665499999999995,0.743422,0.001471,-0.20158849999999998,0.49480199999999996,0.008088,-0.3442285,0.311462,-0.007161000000000001,0.1388915,0.507222,-0.020773,0.30777150000000003,0.354752,-0.063937,-0.4352585,0.167092,-0.16739199999999999,0.3803915,0.223162,-0.244232,-0.0778125,-0.004285000000000001,0.0023609999999999985,0.0778125,0.004284999999999999,-0.002361000000000002,-0.1276385,-0.46322800000000003,0.037243,0.16111150000000002,-0.455788,0.016748,-0.1685185,-0.845608,0.071741,0.24321150000000002,-0.837788,0.047226000000000004
152,-0.0503685,0.746403,0.0023455000000000004,-0.20221650000000002,0.49090300000000003,0.006440499999999998,-0.32938649999999997,0.27936300000000003,0.0037914999999999997,0.1384235,0.507143,-0.0214445,0.2914435,0.310273,-0.0489955,-0.40614649999999997,0.10652299999999999,-0.13300849999999997,0.37516350000000004,0.159703,-0.2072985,-0.0780685,-0.004363,0.002536499999999997,0.0780685,0.004363,-0.0025365000000000006,-0.12772650000000002,-0.46008699999999997,0.037018499999999996,0.1612035,-0.45497699999999996,0.017173499999999998,-0.1692165,-0.842877,0.0718375,0.2434735,-0.836177,0.047148499999999996
153,-0.049679999999999995,0.7491939999999999,0.0012504999999999981,-0.20102299999999998,0.490474,0.0027844999999999988,-0.314303,0.265374,0.0130625,0.137937,0.506774,-0.025427500000000002,0.28541700000000003,0.291234,-0.0437245,-0.359093,0.057707999999999995,-0.08009949999999999,0.348837,0.099774,-0.15974850000000002,-0.07828199999999999,-0.004418999999999999,0.0026774999999999993,0.07828199999999999,0.004419,-0.0026774999999999993,-0.127773,-0.457096,0.0367975,0.161407,-0.452326,0.0168685,-0.169453,-0.840586,0.0716435,0.242877,-0.8316060000000001,0.0466815
154,-0.0488815,0.7511895000000001,-0.0003114999999999993,-0.20072250000000003,0.48942949999999996,-0.0017935,-0.2942325,0.23595950000000002,0.0331595,0.1376975,0.5056295000000001,-0.0293515,0.2682275,0.2624895,-0.024713499999999996,-0.3269225,0.0182965,-0.0369535,0.32651749999999996,0.0553335,-0.1100005,-0.0784145,-0.0045525,0.0025325,0.0784145,0.0045525,-0.0025325,-0.12789250000000002,-0.4541605,0.0375115,0.16146749999999999,-0.4574805,0.018673500000000003,-0.17008250000000003,-0.8378304999999999,0.0724865,0.24209750000000002,-0.8282505,0.0475505
155,-0.047892,0.7519845,-0.003262000000000001,-0.20155299999999998,0.4888645,-0.003186999999999999,-0.274613,0.21228450000000001,0.05337,0.138317,0.5032044999999999,-0.031100999999999997,0.25282699999999997,0.2319045,0.0006880000000000011,-0.288463,-0.0133635,0.012668,0.301087,-0.008146500000000001,-0.059748,-0.07853199999999999,-0.0043555,0.0024670000000000004,0.07853199999999999,0.0043555,-0.0024670000000000004,-0.12814299999999998,-0.4522055,0.038522,0.161147,-0.4557755,0.019705,-0.170373,-0.8357655,0.073922,0.241327,-0.8251655000000001,0.049127000000000004
156,-0.047206500000000005,0.7534740000000001,-0.005048999999999998,-0.20209950000000002,0.487234,-0.00638,-0.26140949999999996,0.20481400000000002,0.067309,0.13857049999999999,0.501754,-0.033103999999999995,0.2365405,0.225144,0.020696,-0.2548395,-0.039775000000000005,0.065171,0.27323050000000004,-0.014476999999999999,0.007062000000000001,-0.0785725,-0.004011000000000001,0.0026359999999999995,0.0785725,0.004011,-0.0026359999999999995,-0.1279795,-0.45074600000000004,0.038788,0.1611505,-0.45551600000000003,0.020599,-0.1707495,-0.833406,0.074546,0.2408705,-0.8248059999999999,0.049754
