sb224sc-HT22-VT27/4dt907/src/data/kinect_good_preprocessed_not_cut_A11_mediapipe/A157_kinect.csv
FrameNo,nose_3d_x,nose_3d_y,nose_3d_z,left_shoulder_3d_x,left_shoulder_3d_y,left_shoulder_3d_z,left_elbow_3d_x,left_elbow_3d_y,left_elbow_3d_z,right_shoulder_3d_x,right_shoulder_3d_y,right_shoulder_3d_z,right_elbow_3d_x,right_elbow_3d_y,right_elbow_3d_z,left_wrist_3d_x,left_wrist_3d_y,left_wrist_3d_z,right_wrist_3d_x,right_wrist_3d_y,right_wrist_3d_z,left_hip_3d_x,left_hip_3d_y,left_hip_3d_z,right_hip_3d_x,right_hip_3d_y,right_hip_3d_z,left_knee_3d_x,left_knee_3d_y,left_knee_3d_z,right_knee_3d_x,right_knee_3d_y,right_knee_3d_z,left_ankle_3d_x,left_ankle_3d_y,left_ankle_3d_z,right_ankle_3d_x,right_ankle_3d_y,right_ankle_3d_z
0,-0.044497999999999996,0.733798,-0.0549095,-0.20630600000000002,0.480748,-0.034560499999999994,-0.326586,0.25941800000000004,-0.04940549999999999,0.142844,0.491218,-0.0460985,0.30758399999999997,0.276578,-0.05519349999999999,-0.415516,0.086028,-0.17715550000000002,0.424194,0.091323,-0.16222550000000002,-0.07905300000000001,-0.005136,0.00017350000000000004,0.07905300000000001,0.005136,-0.00017350000000000004,-0.103296,-0.465802,0.030025500000000004,0.135074,-0.47343199999999996,0.027212500000000004,-0.118196,-0.8359620000000001,0.052401500000000004,0.167494,-0.840782,0.0380515
1,-0.044394,0.7346875,-0.051308000000000006,-0.20683100000000001,0.4805275,-0.03153600000000001,-0.33077100000000004,0.2660175,-0.050772,0.143979,0.4917475,-0.045074,0.310369,0.2809575,-0.059448,-0.420771,0.0976795,-0.184799,0.42559899999999995,0.11158749999999999,-0.168459,-0.079099,-0.0050875,0.0010229999999999961,0.079099,0.0050875,-0.001023000000000003,-0.103521,-0.46548249999999997,0.031452,0.134929,-0.4723825,0.028276999999999997,-0.120261,-0.8366425,0.054403999999999994,0.165799,-0.8409225,0.040372
2,-0.044018,0.735383,-0.044964000000000004,-0.208035,0.479663,-0.028498999999999997,-0.341605,0.28503300000000004,-0.056084999999999996,0.144095,0.49213300000000004,-0.043891,0.313605,0.283803,-0.062634,-0.426655,0.115323,-0.19180399999999997,0.428265,0.117533,-0.177334,-0.079214,-0.0050279999999999995,0.0018519999999999995,0.079214,0.0050279999999999995,-0.0018519999999999995,-0.10494500000000001,-0.46568699999999996,0.032606,0.13336499999999998,-0.472497,0.02971,-0.12235499999999999,-0.838587,0.056388,0.163545,-0.841487,0.042321
3,-0.0438185,0.7355765,-0.040417999999999996,-0.2083675,0.4794265,-0.025076,-0.3471375,0.2896165,-0.057095999999999994,0.1445725,0.49229649999999997,-0.042771,0.31430250000000004,0.2850065,-0.064343,-0.4294175,0.1198165,-0.19455299999999998,0.42564250000000003,0.1205165,-0.18523299999999998,-0.0791095,-0.0049965,0.0023200000000000026,0.0791095,0.0049965,-0.0023199999999999957,-0.1055175,-0.4656035,0.033913000000000006,0.1328025,-0.4715235,0.030690000000000002,-0.1238075,-0.8391835,0.058075,0.1624125,-0.8415635,0.044311
4,-0.043678,0.735568,-0.036601999999999996,-0.208349,0.479588,-0.021999000000000005,-0.35050899999999996,0.291098,-0.056796,0.14502099999999998,0.49265800000000004,-0.04155400000000001,0.31407100000000004,0.284988,-0.065705,-0.43105899999999997,0.123788,-0.198515,0.422761,0.119968,-0.188445,-0.07915900000000001,-0.005149,0.0035460000000000005,0.07915900000000001,0.005149,-0.0035460000000000005,-0.10575799999999999,-0.465642,0.034885,0.132521,-0.467902,0.030754999999999998,-0.125249,-0.840252,0.059773999999999994,0.160871,-0.841612,0.046280999999999996
5,-0.0418355,0.7384430000000001,-0.028161000000000005,-0.2055325,0.480173,-0.018978999999999996,-0.3578225,0.290663,-0.060597,0.14601750000000002,0.492693,-0.041674,0.3133375,0.283653,-0.070087,-0.4236225,0.11970299999999999,-0.20588700000000001,0.4078075,0.111663,-0.195427,-0.0789575,-0.00492,0.0043300000000000005,0.0789575,0.00492,-0.0043300000000000005,-0.1063565,-0.467907,0.03661,0.1318275,-0.468127,0.031216999999999998,-0.12669249999999999,-0.8415069999999999,0.06282,0.1595475,-0.8434269999999999,0.048204
6,-0.039783,0.7402415,-0.02156849999999999,-0.20247300000000001,0.4809315,-0.0174425,-0.347483,0.2894515,-0.05305549999999999,0.146677,0.4924215,-0.0424045,0.302057,0.2722815,-0.0685855,-0.38864299999999996,0.0965085,-0.17753549999999998,0.363517,0.0818595,-0.1877155,-0.078959,-0.0044405,0.004514500000000005,0.078959,0.0044405,-0.004514499999999998,-0.107221,-0.4690385,0.0383575,0.130697,-0.46759850000000003,0.0332235,-0.128053,-0.8414685,0.06524450000000001,0.158697,-0.8426285,0.050869500000000005
7,-0.0393015,0.741533,-0.022910499999999993,-0.20343250000000002,0.47988299999999995,-0.018978500000000002,-0.3265525,0.26287299999999997,-0.037051499999999994,0.1462775,0.49159299999999995,-0.04200149999999999,0.2873675,0.26019299999999995,-0.0495745,-0.3606825,0.067355,-0.14875549999999998,0.3424375,0.051447,-0.15130549999999998,-0.0788585,-0.0044410000000000005,0.0038575,0.0788585,0.0044410000000000005,-0.0038575,-0.1066115,-0.468287,0.03916650000000001,0.13032749999999999,-0.47031700000000004,0.0339145,-0.1272525,-0.840947,0.0657895,0.1594175,-0.842357,0.0520995
8,-0.0383245,0.7426940000000001,-0.0197825,-0.2024615,0.47981399999999996,-0.017814500000000004,-0.3187415,0.258214,-0.0311035,0.1464685,0.49152399999999996,-0.0419265,0.2802385,0.254534,-0.04584649999999999,-0.3408915,0.056256,-0.1349495,0.3223485,0.040060000000000005,-0.1419895,-0.0788295,-0.004378,0.003946499999999999,0.0788295,0.004378,-0.003946499999999999,-0.1067055,-0.468326,0.0403475,0.1299485,-0.47033600000000003,0.0348135,-0.1277015,-0.8412459999999999,0.0675075,0.1590785,-0.842426,0.0539085
9,-0.03737,0.7438205,-0.016976500000000005,-0.20130900000000002,0.4795805,-0.017549499999999996,-0.30983900000000003,0.25241050000000004,-0.024577500000000002,0.146611,0.4914905,-0.0418965,0.271881,0.2483705,-0.0408665,-0.31949900000000003,0.043386499999999995,-0.1189955,0.300921,0.026169500000000002,-0.1300355,-0.078792,-0.0043485,0.003874499999999996,0.078792,0.0043485,-0.003874500000000003,-0.106731,-0.46837949999999995,0.041513499999999995,0.12967099999999998,-0.4703695,0.0359015,-0.127969,-0.8414595,0.0692395,0.15892099999999998,-0.8424495,0.0557535
10,-0.0366715,0.7445495,-0.014932,-0.2005125,0.4793895,-0.017498,-0.2992625,0.24409950000000002,-0.017137,0.1465875,0.4912495,-0.041693999999999995,0.26249750000000005,0.2417795,-0.03505699999999999,-0.29683250000000005,0.0282245,-0.09981699999999999,0.28027749999999996,0.011421500000000001,-0.115227,-0.0787785,-0.0043105,0.003696000000000005,0.0787785,0.0043105,-0.003695999999999998,-0.1066745,-0.4685005,0.042717000000000005,0.12957749999999998,-0.4704105,0.037125000000000005,-0.1280625,-0.8416305000000001,0.07097600000000001,0.1589375,-0.8425005000000001,0.057577
11,-0.036382,0.7451315,-0.013216999999999993,-0.20028400000000002,0.4792015,-0.017931000000000002,-0.287944,0.2348115,-0.009496999999999992,0.146596,0.49088149999999997,-0.041409,0.253486,0.23623149999999998,-0.028901999999999997,-0.279154,0.0149105,-0.08257799999999998,0.265326,3.499999999999631e-06,-0.100828,-0.078781,-0.0042474999999999995,0.003488000000000005,0.078781,0.0042474999999999995,-0.003487999999999998,-0.106525,-0.4685285,0.043794,0.129606,-0.4705885,0.03822400000000001,-0.12803399999999998,-0.8417585,0.07253000000000001,0.15899600000000003,-0.8425485,0.059216000000000005
12,-0.03625099999999999,0.745668,-0.0115875,-0.200178,0.479008,-0.0185665,-0.278098,0.226718,-0.0025885000000000005,0.146592,0.490478,-0.04113750000000001,0.24527200000000002,0.23150800000000002,-0.0224655,-0.265868,0.0023490000000000004,-0.06708650000000001,0.254202,-0.007903,-0.0871965,-0.07878199999999999,-0.004163,0.003305499999999996,0.07878199999999999,0.004163,-0.003305500000000003,-0.10643,-0.468472,0.0447085,0.12962200000000001,-0.471192,0.039211499999999996,-0.127998,-0.841722,0.07399549999999999,0.15902200000000002,-0.842532,0.0607655
13,-0.03622349999999999,0.7460495,-0.010011499999999993,-0.2001905,0.47871949999999996,-0.01925149999999999,-0.2698005,0.2203595,0.0034705000000000083,0.1465995,0.49015949999999997,-0.0407405,0.2383295,0.2278795,-0.01586549999999999,-0.2560805,-0.0075705,-0.05526049999999999,0.2465695,-0.0136745,-0.0765805,-0.07878450000000001,-0.0041215,0.0031465000000000035,0.07878450000000001,0.0041215,-0.0031464999999999965,-0.10637949999999999,-0.46839050000000004,0.045588500000000004,0.1294995,-0.4719205,0.04015250000000001,-0.1279805,-0.8416705,0.0754115,0.1590695,-0.8424505,0.062281500000000004
14,-0.036171499999999995,0.7463575,-0.009028999999999995,-0.2001705,0.4784275,-0.019913,-0.2636405,0.21539750000000002,0.008241000000000005,0.1464795,0.4899275,-0.040357000000000004,0.2331295,0.2253775,-0.010778999999999997,-0.2500705,-0.0160705,-0.048237,0.24249949999999998,-0.0155655,-0.06883700000000001,-0.0787625,-0.0040945,0.0030000000000000027,0.0787625,0.0040945,-0.0030000000000000027,-0.10632849999999999,-0.4683025,0.046372000000000003,0.1294495,-0.47248249999999997,0.041210000000000004,-0.1278805,-0.8416325,0.076696,0.1591495,-0.8424024999999999,0.063671
15,-0.036115,0.7465135,-0.008410500000000001,-0.200133,0.4781835,-0.02056050000000001,-0.259953,0.2127635,0.011237499999999997,0.146277,0.4897835,-0.0400065,0.22958699999999999,0.22399349999999998,-0.0070795000000000025,-0.246763,-0.021405499999999997,-0.0441965,0.24134699999999998,-0.016649499999999998,-0.06425650000000001,-0.078746,-0.0040785000000000005,0.002860499999999995,0.078746,0.0040785000000000005,-0.002860500000000002,-0.10627400000000001,-0.4682565,0.04688149999999999,0.129437,-0.4731765,0.04212049999999999,-0.127773,-0.8416165,0.0778025,0.159237,-0.8423864999999999,0.0648595
16,-0.036084500000000005,0.746617,-0.007957500000000006,-0.20004450000000001,0.478047,-0.0210095,-0.2579345,0.210847,0.012383499999999999,0.14608549999999998,0.489667,-0.0395775,0.22779549999999998,0.223667,-0.005012500000000003,-0.24662450000000002,-0.022751,-0.0430175,0.24148549999999996,-0.016626,-0.06307750000000001,-0.0787335,-0.0040820000000000006,0.002773499999999998,0.0787335,0.0040820000000000006,-0.002773499999999998,-0.1061475,-0.468163,0.04735349999999999,0.1295055,-0.473743,0.042978499999999996,-0.1276245,-0.841573,0.0788285,0.15939550000000002,-0.842403,0.0659575
17,-0.036121,0.7466915,-0.007572000000000009,-0.20003100000000001,0.4781015,-0.021317000000000003,-0.257741,0.21090150000000002,0.013328,0.145899,0.48972150000000003,-0.03918300000000001,0.227989,0.22372150000000002,-0.004068000000000002,-0.246431,-0.0226965,-0.042073,0.24167899999999998,-0.0166565,-0.06213300000000001,-0.078725,-0.0040715000000000005,0.002692999999999994,0.078725,0.0040715000000000005,-0.002693000000000001,-0.10597,-0.4681085,0.047710999999999996,0.129619,-0.47402849999999996,0.043571,-0.127421,-0.8415485,0.079638,0.159599,-0.8423985,0.066842
18,-0.036185499999999995,0.746783,-0.007199999999999998,-0.2000785,0.478163,-0.020981,-0.2574685,0.210963,0.014058000000000008,0.1457415,0.489783,-0.038792999999999994,0.2282615,0.223783,-0.0033379999999999937,-0.2461585,-0.022635000000000002,-0.04134299999999999,0.24195149999999999,-0.016595000000000002,-0.061403,-0.0787185,-0.0040680000000000004,0.0026209999999999983,0.0787185,0.0040680000000000004,-0.0026209999999999983,-0.10573550000000001,-0.468047,0.04795300000000001,0.1298115,-0.474277,0.043965000000000004,-0.1271585,-0.841547,0.08024200000000001,0.1598815,-0.842407,0.067516
19,-0.03639150000000001,0.7468485,-0.006893999999999997,-0.2002535,0.4782185,-0.020866999999999997,-0.2572635,0.2110185,0.014422999999999998,0.14550649999999998,0.4898385,-0.038544999999999996,0.2284665,0.2238385,-0.0029700000000000004,-0.2470435,-0.022579500000000002,-0.043234999999999996,0.24427649999999998,-0.0150005,-0.061775,-0.07867550000000001,-0.0040555,0.0025440000000000046,0.07867550000000001,0.0040555,-0.0025440000000000046,-0.1056165,-0.4679915,0.04790899999999999,0.1298865,-0.4745415,0.044185,-0.1269535,-0.8414915000000001,0.080491,0.1600865,-0.8424215,0.067884
20,-0.03675300000000001,0.7469359999999999,-0.006708500000000006,-0.200452,0.47833600000000004,-0.020753500000000008,-0.25969200000000003,0.211256,0.010650499999999993,0.145208,0.489906,-0.038359500000000005,0.229458,0.224496,-0.0045935,-0.252922,-0.018788,-0.0505395,0.250468,-0.012953000000000001,-0.06718950000000001,-0.078624,-0.00404,0.0024684999999999985,0.078624,0.00404,-0.0024685000000000124,-0.105488,-0.467954,0.04767149999999999,0.129988,-0.47449399999999997,0.04418649999999999,-0.126612,-0.8414240000000001,0.08063749999999999,0.160328,-0.842334,0.0680595
21,-0.037146,0.746976,-0.006680000000000005,-0.200871,0.47867600000000005,-0.020725000000000007,-0.263581,0.213166,0.0050059999999999966,0.14485900000000002,0.49005600000000005,-0.038332000000000005,0.232139,0.22644599999999998,-0.008618,-0.262291,-0.013793000000000001,-0.062502,0.260949,-0.010852,-0.076882,-0.07857,-0.00404,0.00244599999999999,0.07857,0.00404,-0.0024460000000000037,-0.10540999999999999,-0.467974,0.047379,0.130059,-0.47449399999999997,0.04411999999999999,-0.126311,-0.841384,0.080618,0.16056900000000002,-0.842264,0.068077
22,-0.0375135,0.7469865,-0.006673000000000012,-0.2011825,0.47896649999999996,-0.020719000000000015,-0.2701325,0.21697650000000002,-0.0043310000000000015,0.1446175,0.4903165,-0.038327000000000014,0.23620750000000001,0.22960650000000002,-0.014665000000000011,-0.27597249999999995,-0.0090005,-0.08046700000000001,0.27554750000000006,-0.0070745,-0.09195700000000001,-0.0785115,-0.0040405,0.002444999999999989,0.0785115,0.0040405,-0.0024450000000000027,-0.1053205,-0.46802350000000004,0.04711399999999999,0.1301475,-0.4744935,0.04411799999999999,-0.1259525,-0.8414134999999999,0.080606,0.16085750000000001,-0.8422535,0.06806799999999999
23,-0.037752999999999995,0.7470765,-0.006059999999999996,-0.201262,0.4791865,-0.020718,-0.277722,0.2241965,-0.014538999999999996,0.14454799999999998,0.4906565,-0.038023,0.242348,0.2353865,-0.023576,-0.292632,0.0002645,-0.10155299999999999,0.291568,0.0036455000000000003,-0.109673,-0.078461,-0.0040695,0.0024440000000000017,0.078461,0.0040695,-0.0024440000000000017,-0.10522399999999998,-0.4681635,0.046935000000000004,0.130218,-0.4745335,0.044117,-0.125552,-0.8414735,0.080599,0.161188,-0.8422735,0.068058
24,-0.037913,0.747236,-0.004876000000000005,-0.20124199999999998,0.479386,-0.020738000000000006,-0.28683200000000003,0.234226,-0.02591800000000001,0.14466800000000002,0.490976,-0.03744800000000001,0.24973799999999996,0.244726,-0.034054,-0.311432,0.017764000000000002,-0.12448800000000002,0.308498,0.02223,-0.130498,-0.078434,-0.004093,0.0024049999999999905,0.078434,0.004093,-0.0024050000000000044,-0.10507999999999999,-0.46833400000000003,0.04689399999999999,0.13030799999999998,-0.474514,0.04407699999999999,-0.125082,-0.841614,0.080569,0.161578,-0.842314,0.068018
25,-0.03805,0.7475205,-0.003310500000000008,-0.201135,0.4795605,-0.020806500000000006,-0.297135,0.2459405,-0.03870950000000001,0.144915,0.4913205,-0.036749500000000004,0.258275,0.2571105,-0.04581950000000001,-0.334465,0.043250500000000004,-0.1502995,0.326635,0.0480855,-0.1532995,-0.078427,-0.0041085,0.0023594999999999866,0.078427,0.0041085,-0.0023595000000000005,-0.10495099999999999,-0.4684895,0.04668649999999999,0.130435,-0.4742195,0.04388249999999999,-0.12462500000000001,-0.8416294999999999,0.08036549999999999,0.161945,-0.8422694999999999,0.06783149999999999
26,-0.0381475,0.7479565,-0.0011499999999999982,-0.20104149999999998,0.4797965,-0.020852999999999997,-0.3100315,0.2624565,-0.05321100000000001,0.1452785,0.4918865,-0.03574100000000001,0.2684585,0.2729165,-0.058311,-0.3583015,0.07508450000000001,-0.17679099999999998,0.34636849999999997,0.0818315,-0.178981,-0.0784195,-0.0041125,0.0022739999999999982,0.0784195,0.0041125,-0.0022739999999999982,-0.1048355,-0.4686035,0.046279,0.1305685,-0.47373350000000003,0.04355,-0.12425149999999999,-0.8416735,0.079985,0.16227850000000002,-0.8422634999999999,0.067478
27,-0.0382055,0.7482835,0.0011550000000000032,-0.2008725,0.4799435,-0.02094199999999999,-0.3234925,0.2816135,-0.068266,0.1456175,0.4927635,-0.034422999999999995,0.2797175,0.2935935,-0.07306599999999999,-0.3853925,0.1158535,-0.20463599999999998,0.3671975,0.12364349999999999,-0.207096,-0.0784005,-0.0041305000000000005,0.002119000000000003,0.0784005,0.0041305000000000005,-0.002118999999999996,-0.10469250000000001,-0.4688665,0.045864,0.13069750000000002,-0.4733365,0.043036000000000005,-0.1238825,-0.8418465,0.079393,0.16261749999999997,-0.8423665,0.066897
28,-0.0381735,0.7484795,0.0037559999999999955,-0.2005685,0.48031949999999995,-0.020835000000000006,-0.3377585,0.3064495,-0.083892,0.1459515,0.4938295,-0.032834,0.2915115,0.3186195,-0.088782,-0.4130085,0.1630295,-0.23296200000000003,0.3879015,0.1750595,-0.236712,-0.0783825,-0.0041425,0.0019339999999999913,0.0783825,0.0041425,-0.0019340000000000052,-0.1045055,-0.46922050000000004,0.04539499999999999,0.1308815,-0.47266050000000004,0.042456999999999995,-0.1235285,-0.8421505,0.07873699999999999,0.1629215,-0.8425805000000001,0.066315
29,-0.0380205,0.748668,0.006365499999999996,-0.2004035,0.481018,-0.02076850000000001,-0.3509035,0.334478,-0.0975145,0.14621650000000003,0.494998,-0.031157500000000005,0.30330650000000003,0.34843799999999997,-0.10598450000000001,-0.4404435,0.21906799999999998,-0.25766449999999996,0.4057565,0.237548,-0.26367450000000003,-0.0783475,-0.004129,0.0017544999999999922,0.0783475,0.004129,-0.001754500000000006,-0.1044065,-0.469672,0.04488349999999999,0.13096649999999999,-0.472282,0.0419045,-0.12335349999999999,-0.842622,0.07801349999999999,0.16308650000000002,-0.842922,0.0656775
30,-0.0378505,0.748671,0.008902500000000008,-0.20027150000000002,0.48169100000000004,-0.020747499999999988,-0.36470149999999996,0.36702100000000004,-0.10859449999999998,0.14677849999999998,0.496711,-0.0295005,0.3144785,0.38234100000000004,-0.1199945,-0.4647515,0.28354100000000004,-0.2732745,0.4186785,0.308611,-0.2832445,-0.0782735,-0.004121,0.0015405000000000071,0.0782735,0.004121,-0.0015405000000000002,-0.1043155,-0.47029899999999997,0.0443385,0.13101849999999998,-0.471889,0.04131850000000001,-0.12322150000000001,-0.843379,0.07716550000000001,0.1632185,-0.8434090000000001,0.06496450000000001
31,-0.037737,0.748421,0.011287999999999992,-0.200134,0.48290099999999997,-0.020777000000000004,-0.37652399999999997,0.403061,-0.11524300000000001,0.147576,0.49864099999999995,-0.028079000000000007,0.324626,0.41923099999999996,-0.131473,-0.485324,0.355471,-0.283023,0.426326,0.38299099999999997,-0.297023,-0.078205,-0.004085,0.0012769999999999934,0.078205,0.004085,-0.0012770000000000004,-0.10425300000000001,-0.471269,0.043779,0.131016,-0.471649,0.04068999999999999,-0.123164,-0.8444889999999999,0.076292,0.163256,-0.844159,0.064177
32,-0.0376525,0.7480384999999999,0.013022000000000006,-0.1998235,0.4845085,-0.020792999999999992,-0.3877035,0.44023850000000003,-0.11975399999999999,0.1485965,0.5011884999999999,-0.02699399999999999,0.3325465,0.4545385,-0.139484,-0.4989535,0.4304485,-0.284404,0.4305065,0.4594385,-0.303044,-0.0781555,-0.0040205,0.001022000000000002,0.0781555,0.0040205,-0.0010219999999999951,-0.1042065,-0.4725715,0.043341000000000005,0.13099650000000002,-0.4720815,0.040115000000000005,-0.12313349999999999,-0.8458015000000001,0.07551100000000001,0.1632765,-0.8451915000000001,0.063456
33,-0.0375155,0.747563,0.014246000000000002,-0.1994125,0.486863,-0.020723,-0.3934025,0.477693,-0.120344,0.1501975,0.504653,-0.026233,0.33724750000000003,0.493133,-0.143814,-0.5087125,0.508243,-0.284924,0.4317575,0.539503,-0.303754,-0.0781175,-0.003923,0.0007549999999999987,0.0781175,0.003923,-0.0007549999999999987,-0.1041695,-0.47448700000000005,0.04301,0.13099750000000002,-0.47347700000000004,0.039751,-0.1231225,-0.847777,0.074779,0.16327750000000002,-0.846847,0.06281
34,-0.037313000000000006,0.7468205,0.0149595,-0.19898300000000002,0.4891905,-0.0206745,-0.397403,0.5148405,-0.12087850000000001,0.151947,0.5085305,-0.025772500000000004,0.340037,0.5313105,-0.14620850000000002,-0.511993,0.5804505,-0.2854685,0.431747,0.6162105,-0.30435850000000003,-0.078057,-0.0038494999999999996,0.0004725000000000007,0.078057,0.0038495000000000005,-0.0004725000000000007,-0.104144,-0.4765595,0.0427695,0.130957,-0.4752495,0.0394495,-0.123143,-0.8499595,0.0741435,0.16323700000000002,-0.8487695,0.0622155
35,-0.0370095,0.745836,0.015141000000000002,-0.1985565,0.49168600000000007,-0.02062599999999999,-0.3979765,0.548496,-0.121351,0.1537335,0.512376,-0.025678999999999993,0.3403435,0.5695560000000001,-0.14677099999999998,-0.5120365,0.650066,-0.285951,0.4317035,0.685166,-0.30484100000000003,-0.07796249999999999,-0.003743999999999999,0.00022100000000000591,0.07796249999999999,0.003744000000000001,-0.00022099999999999898,-0.10412949999999999,-0.47880399999999995,0.042619000000000004,0.1309535,-0.477444,0.03926500000000001,-0.1232165,-0.852474,0.073504,0.1631735,-0.850904,0.061736000000000006
36,-0.03668299999999999,0.7449640000000001,0.015029,-0.198192,0.49448400000000003,-0.020442999999999996,-0.398052,0.582214,-0.12148400000000001,0.155438,0.516024,-0.025896999999999996,0.340268,0.603874,-0.147044,-0.512052,0.710654,-0.282784,0.431648,0.745704,-0.304004,-0.077835,-0.0035949999999999992,7.900000000000268e-05,0.077835,0.003595000000000001,-7.900000000000268e-05,-0.104137,-0.48108599999999996,0.042391,0.130948,-0.479796,0.039357,-0.12331199999999999,-0.855076,0.073075,0.163058,-0.8531759999999999,0.061488
37,-0.036347,0.7441295,0.014795500000000003,-0.19796,0.4970495,-0.020448499999999994,-0.3981,0.6103995000000001,-0.1199305,0.15696000000000002,0.5193395000000001,-0.02593949999999999,0.34019,0.6343995,-0.1472705,-0.51196,0.7626695,-0.2731005,0.42963999999999997,0.7972295,-0.2985905,-0.077685,-0.003445499999999999,-5.2499999999996994e-05,0.077685,0.003445499999999999,5.250000000000393e-05,-0.10413,-0.4833905,0.0422105,0.13093000000000002,-0.4823005,0.039489500000000004,-0.12337999999999999,-0.8577604999999999,0.0726865,0.16297,-0.8556005,0.061305500000000006
38,-0.036005499999999996,0.7432225,0.0146185,-0.19780150000000002,0.49933249999999996,-0.0203715,-0.39808150000000003,0.6353525,-0.11582049999999999,0.1582885,0.5221025,-0.025875499999999996,0.3401285,0.6608525,-0.1474405,-0.5110515,0.8050325,-0.2583205,0.4246185,0.8394225,-0.2877205,-0.0775395,-0.0033375,-0.0001465000000000008,0.0775395,0.0033375,0.0001465000000000008,-0.1041035,-0.4857175,0.042078500000000005,0.13090849999999998,-0.4848775,0.0397645,-0.1234215,-0.8605175,0.0723715,0.1628885,-0.8580975,0.0611795
39,-0.0356495,0.742422,0.014491000000000004,-0.19767450000000003,0.501592,-0.020255999999999996,-0.3972645,0.654972,-0.110321,0.1593655,0.524042,-0.02571699999999999,0.3386555,0.682362,-0.144881,-0.5060245,0.838712,-0.24025100000000002,0.4171355,0.8728520000000001,-0.27275099999999997,-0.0773785,-0.0032189999999999996,-0.00018999999999999573,0.0773785,0.0032189999999999996,0.00019000000000000267,-0.1040625,-0.48772800000000005,0.042005,0.1309055,-0.48731800000000003,0.040065,-0.12345450000000001,-0.862918,0.07211100000000001,0.1628555,-0.8604379999999999,0.061123000000000004
40,-0.035361500000000004,0.7419155,0.014120999999999995,-0.1976975,0.5035955,-0.019886,-0.39491750000000003,0.6704055,-0.102884,0.16036250000000002,0.5262155,-0.025687,0.3359625,0.7005454999999999,-0.140174,-0.49832750000000003,0.8643655,-0.219194,0.4082925,0.9008554999999999,-0.253874,-0.0772205,-0.0031255,-0.00016900000000000248,0.0772205,0.0031255,0.00016899999999999554,-0.10401850000000001,-0.48930450000000003,0.042044,0.13091250000000001,-0.48969450000000003,0.040447,-0.12347749999999999,-0.8650145,0.071936,0.1628225,-0.8624445000000001,0.061059999999999996
41,-0.035072,0.7413265,0.013526500000000004,-0.197651,0.5052865,-0.019424499999999997,-0.392111,0.6818865,-0.0952555,0.161279,0.5273565,-0.025673500000000002,0.331639,0.7180365,-0.13191550000000002,-0.488401,0.8834865,-0.19797549999999997,0.399489,0.9215764999999999,-0.2331955,-0.077109,-0.0030584999999999987,-0.00013549999999999673,0.077109,0.003058500000000002,0.00013550000000000367,-0.103908,-0.4906235,0.0421225,0.130969,-0.4918335,0.0408265,-0.123441,-0.8668935000000001,0.0717145,0.162869,-0.8641735,0.0610075
42,-0.034807500000000005,0.740777,0.012726000000000001,-0.19756250000000003,0.506287,-0.018860000000000002,-0.3876925,0.690187,-0.08842599999999999,0.1617075,0.527417,-0.025749999999999995,0.3274375,0.728977,-0.12488600000000001,-0.4788825,0.8920170000000001,-0.181886,0.3923375,0.931417,-0.21695600000000004,-0.0770285,-0.0030290000000000004,-8.600000000000274e-05,0.0770285,0.003028999999999997,8.600000000000274e-05,-0.1037465,-0.49127299999999996,0.042247,0.1310675,-0.49357300000000004,0.041095,-0.1233925,-0.8681329999999999,0.071557,0.1629375,-0.865343,0.06095
43,-0.034585500000000005,0.740378,0.011831500000000002,-0.1975365,0.507338,-0.0182625,-0.3830865,0.6969380000000001,-0.0823435,0.1620235,0.527638,-0.0257825,0.3232935,0.737468,-0.11829350000000001,-0.4702165,0.898238,-0.16772350000000003,0.3866935,0.938048,-0.20257350000000002,-0.0769425,-0.002973,-3.249999999999781e-05,0.0769425,0.002973,3.249999999999781e-05,-0.1036165,-0.491742,0.0424045,0.1311435,-0.495072,0.0414245,-0.12333649999999999,-0.869092,0.0714525,0.16299349999999999,-0.866292,0.0608955
44,-0.034432000000000004,0.740068,0.010999000000000002,-0.19765,0.508218,-0.017526999999999994,-0.37878,0.702188,-0.077379,0.16229,0.527958,-0.025862000000000003,0.31953,0.7425579999999999,-0.11213899999999999,-0.46424,0.901928,-0.157389,0.38188999999999995,0.944608,-0.190639,-0.076861,-0.002942,4.099999999999937e-05,0.076861,0.002942,-4.099999999999937e-05,-0.10350100000000001,-0.492072,0.042571000000000005,0.13119999999999998,-0.496372,0.04169200000000001,-0.12331,-0.870002,0.071366,0.16303,-0.867072,0.060818000000000004
45,-0.03434050000000001,0.7397020000000001,0.010272500000000004,-0.19785750000000002,0.5088619999999999,-0.016794500000000004,-0.37780749999999996,0.704612,-0.07462049999999999,0.1625325,0.528632,-0.02592649999999999,0.3177525,0.7466919999999999,-0.10784049999999999,-0.45878749999999996,0.905132,-0.1482905,0.3782325,0.951152,-0.18097049999999998,-0.0767855,-0.002944000000000002,0.00010050000000000336,0.0767855,0.0029439999999999987,-0.00010049999999999643,-0.1033965,-0.492268,0.0427675,0.13126249999999998,-0.497188,0.0419375,-0.12330750000000001,-0.8706179999999999,0.0713005,0.1630625,-0.867588,0.060784500000000005
46,-0.034241,0.7393955,0.009699499999999993,-0.198111,0.5094854999999999,-0.01606450000000001,-0.37693099999999996,0.7068654999999999,-0.07204750000000001,0.162789,0.5290554999999999,-0.025648500000000005,0.316409,0.7502154999999999,-0.1041475,-0.454461,0.9080155,-0.1411775,0.375309,0.9567454999999999,-0.1726175,-0.07675199999999999,-0.0029474999999999987,0.0001764999999999961,0.07675199999999999,0.0029474999999999987,-0.00017650000000000304,-0.10327800000000001,-0.4923145,0.0429475,0.131359,-0.4978145,0.0421675,-0.12326100000000001,-0.8709745000000001,0.0712025,0.163139,-0.8679245000000001,0.06077249999999999
47,-0.034134,0.7392685,0.009108500000000005,-0.198344,0.5100885,-0.0152225,-0.376224,0.7086985,-0.06973950000000001,0.162976,0.5292684999999999,-0.0251035,0.31534599999999996,0.7525485,-0.10098950000000001,-0.451714,0.9109185,-0.1363095,0.373116,0.9605184999999999,-0.1660995,-0.076732,-0.0029404999999999987,0.00028550000000000103,0.076732,0.002940500000000002,-0.00028550000000000103,-0.103153,-0.49220149999999996,0.043133500000000005,0.131466,-0.49814149999999996,0.0422705,-0.12329399999999999,-0.8711615,0.0710615,0.16320600000000002,-0.8680715,0.0607265
48,-0.034003,0.739222,0.008676000000000003,-0.19861299999999998,0.510732,-0.01433899999999999,-0.375703,0.710012,-0.06788,0.163037,0.529222,-0.024401999999999993,0.314567,0.7543920000000001,-0.09822999999999998,-0.449433,0.913182,-0.13269,0.371307,0.963562,-0.16066,-0.076746,-0.0029369999999999986,0.00039300000000000446,0.076746,0.0029369999999999986,-0.0003929999999999975,-0.103042,-0.49208799999999997,0.043305,0.13154700000000003,-0.49840799999999996,0.04238,-0.123363,-0.871258,0.07089000000000001,0.163267,-0.8681679999999999,0.060651000000000004
49,-0.033873,0.7392035,0.008385999999999998,-0.19871999999999998,0.5110735,-0.013602999999999997,-0.37544,0.7104035,-0.066801,0.16316,0.5293435,-0.023763,0.31423,0.7554335,-0.09634100000000001,-0.44818,0.9142135,-0.130701,0.37041999999999997,0.9652235,-0.157261,-0.07675499999999999,-0.002944499999999999,0.0004950000000000024,0.07675499999999999,0.002944499999999999,-0.0004950000000000024,-0.10296,-0.4921065,0.043414999999999995,0.13162000000000001,-0.4986865,0.042469,-0.12342999999999998,-0.8713065,0.070745,0.16332000000000002,-0.8682465,0.060533
50,-0.033732,0.7390925,0.008129499999999998,-0.19872800000000002,0.5112825,-0.012972499999999998,-0.375198,0.7105825,-0.0658685,0.16332200000000002,0.5293625,-0.0231615,0.314002,0.7560725,-0.09473849999999999,-0.447278,0.9146525,-0.12968849999999998,0.369782,0.9661325,-0.1552285,-0.076755,-0.0029484999999999997,0.0006145000000000039,0.076755,0.0029484999999999997,-0.000614499999999997,-0.102878,-0.4921575,0.0434845,0.13168200000000002,-0.4988075,0.0425885,-0.123488,-0.8713475,0.0706185,0.163362,-0.8682975,0.0604315
51,-0.033599000000000004,0.7389439999999999,0.007905000000000002,-0.19872299999999998,0.511474,-0.012361000000000004,-0.375033,0.710704,-0.06512399999999999,0.163507,0.529314,-0.022560000000000004,0.313847,0.756494,-0.09342400000000001,-0.446613,0.9149039999999999,-0.129204,0.369277,0.966884,-0.15379400000000001,-0.07675,-0.0029469999999999982,0.0007010000000000002,0.07675,0.0029470000000000017,-0.0007010000000000002,-0.102817,-0.49220600000000003,0.043514,0.13170700000000002,-0.498896,0.042693,-0.123563,-0.871326,0.07050200000000001,0.16339700000000001,-0.868326,0.060313
52,-0.033446500000000004,0.738771,0.007667500000000008,-0.1987195,0.511641,-0.011776499999999995,-0.3748395,0.710851,-0.0645095,0.1638705,0.530211,-0.021847499999999992,0.31368050000000003,0.756981,-0.0924195,-0.44606949999999995,0.9151009999999999,-0.1289095,0.3688305,0.967431,-0.15273949999999997,-0.0767475,-0.0029330000000000016,0.0007865000000000025,0.0767475,0.002932999999999998,-0.0007864999999999955,-0.1027585,-0.492259,0.043509500000000007,0.13177049999999998,-0.49911900000000003,0.042711500000000006,-0.1236495,-0.871399,0.0703945,0.1634205,-0.868329,0.06019050000000001
53,-0.0332825,0.7385284999999999,0.007399500000000003,-0.1987275,0.5118885,-0.011138499999999996,-0.3746375,0.7110885,-0.0640095,0.1641825,0.5313184999999999,-0.021168499999999993,0.3135225,0.7574285,-0.09165949999999999,-0.4456275,0.9153285,-0.12882949999999999,0.3686425,0.9677785,-0.15289950000000002,-0.0767545,-0.0029264999999999985,0.000843500000000004,0.0767545,0.0029264999999999985,-0.000843499999999997,-0.1027305,-0.4923015,0.043521500000000005,0.1318125,-0.49937149999999997,0.042717500000000005,-0.1237375,-0.8714415,0.0702535,0.1634325,-0.8682915,0.0600715
54,-0.033123,0.7382485,0.0071349999999999955,-0.198772,0.5121485,-0.010466000000000003,-0.374332,0.7113885,-0.063677,0.164438,0.5324385,-0.02049100000000001,0.31329799999999997,0.7579785,-0.091187,-0.445202,0.9155785000000001,-0.12887700000000002,0.36847799999999997,0.9680485,-0.153057,-0.076754,-0.0029175,0.000888999999999994,0.076754,0.0029175,-0.0008890000000000009,-0.10272300000000001,-0.4924315,0.043501,0.131838,-0.4996515,0.042699999999999995,-0.12380200000000001,-0.8716315,0.070126,0.163428,-0.8684014999999999,0.059919999999999994
55,-0.03295100000000001,0.7379735000000001,0.006879999999999997,-0.198799,0.5123935,-0.009787000000000004,-0.373879,0.7117335,-0.063339,0.16469099999999998,0.5334334999999999,-0.019985000000000003,0.313031,0.7585735,-0.090829,-0.44470899999999997,0.9158035,-0.128939,0.368221,0.9683435,-0.153209,-0.076752,-0.002909499999999999,0.0009289999999999993,0.076752,0.0029095000000000024,-0.0009289999999999993,-0.102707,-0.4925865,0.043475,0.131851,-0.4999765,0.042702,-0.123869,-0.8718064999999999,0.069975,0.163431,-0.8685164999999999,0.059761999999999996
56,-0.032786499999999996,0.7376845,0.006728000000000005,-0.19881749999999998,0.5125445,-0.009255,-0.3733775,0.7122244999999999,-0.06315899999999999,0.16488250000000002,0.5345044999999999,-0.019668999999999992,0.3126925,0.7590745,-0.09072899999999999,-0.4440975,0.9162644999999999,-0.12898900000000002,0.3682325,0.9681544999999999,-0.15341899999999997,-0.07674349999999999,-0.0028924999999999992,0.0009460000000000024,0.07674349999999999,0.0028924999999999992,-0.0009459999999999955,-0.1026995,-0.4927755,0.043411000000000005,0.13186250000000002,-0.5002755,0.042711,-0.12385750000000001,-0.8719955,0.069912,0.1634225,-0.8686955000000001,0.059637
57,-0.032647499999999996,0.73744,0.006617499999999998,-0.19885550000000002,0.51266,-0.008773499999999997,-0.3727855,0.71279,-0.06302650000000001,0.16501449999999998,0.53546,-0.0193785,0.3123145,0.75961,-0.09077649999999998,-0.44308549999999997,0.9169200000000001,-0.1290065,0.3680045,0.96847,-0.1537865,-0.0767295,-0.002877000000000001,0.000958500000000001,0.0767295,0.002877000000000001,-0.000958500000000001,-0.1026945,-0.49296,0.0433165,0.1318745,-0.50057,0.0427055,-0.1238455,-0.87218,0.0698595,0.16340449999999998,-0.86886,0.0595055
58,-0.032479999999999995,0.7372335,0.0065134999999999985,-0.198853,0.5127135,-0.008331500000000006,-0.372083,0.7133535,-0.0629445,0.165157,0.5363135,-0.01909050000000001,0.311917,0.7600535,-0.0908845,-0.44181299999999996,0.9176235,-0.12900450000000002,0.367697,0.9688635,-0.1541845,-0.076707,-0.002853500000000002,0.000953499999999996,0.076707,0.002853500000000002,-0.000953500000000003,-0.102652,-0.4931065,0.043221499999999996,0.131907,-0.5008365,0.04267649999999999,-0.123803,-0.8723565,0.06980149999999999,0.163417,-0.8690165,0.05939149999999999
59,-0.03225,0.737024,0.006419000000000001,-0.198797,0.512764,-0.007909,-0.371287,0.7138639999999999,-0.062897,0.165243,0.536704,-0.018807000000000004,0.311453,0.7604339999999999,-0.090967,-0.440187,0.918404,-0.128977,0.365613,0.9740539999999999,-0.15452700000000003,-0.076685,-0.0028309999999999967,0.0009219999999999992,0.076685,0.002831,-0.0009219999999999992,-0.102608,-0.493106,0.043133,0.131953,-0.501046,0.042610999999999996,-0.12367700000000001,-0.872356,0.069774,0.163463,-0.869166,0.059252
60,-0.032020999999999994,0.7368365,0.006342500000000001,-0.198753,0.5127765,-0.007501500000000008,-0.370523,0.7143565,-0.06288250000000001,0.165327,0.5370465,-0.018549499999999997,0.31094700000000003,0.7607765,-0.0910425,-0.438403,0.9192365,-0.1288625,0.363387,0.9791865,-0.1548525,-0.07666300000000001,-0.002800500000000001,0.0008894999999999945,0.07666300000000001,0.002800500000000001,-0.0008895000000000014,-0.10258699999999998,-0.4930735,0.0430515,0.131997,-0.5011535,0.0425285,-0.12354299999999999,-0.8723635000000001,0.06973549999999999,0.163517,-0.8693135000000001,0.059089499999999996
61,-0.0318035,0.7366360000000001,0.006298999999999999,-0.1987065,0.5127860000000001,-0.007099000000000008,-0.3697465,0.714816,-0.062863,0.16544350000000002,0.537616,-0.018439999999999998,0.3103735,0.760946,-0.09113299999999999,-0.4365265,0.920096,-0.128713,0.3610935,0.9843360000000001,-0.155083,-0.0766395,-0.002797000000000001,0.0008529999999999996,0.0766395,0.002797000000000001,-0.0008530000000000065,-0.1025615,-0.493084,0.043004,0.13204349999999998,-0.501264,0.042475,-0.1234065,-0.872504,0.06970799999999999,0.16357349999999998,-0.869464,0.058945
62,-0.031615500000000005,0.7364545,0.006327000000000006,-0.19866650000000002,0.5127044999999999,-0.006866999999999998,-0.3689965,0.7151745,-0.06283599999999999,0.1655235,0.5379445,-0.018378999999999993,0.3097435,0.7611345,-0.09127599999999998,-0.43469650000000004,0.9208645,-0.128496,0.3587235,0.9895345,-0.155366,-0.0766255,-0.0027795000000000007,0.0008210000000000023,0.0766255,0.0027794999999999973,-0.0008209999999999953,-0.1025515,-0.4930455,0.04299900000000001,0.13208350000000002,-0.5012755,0.042460000000000005,-0.1232665,-0.8726054999999999,0.069704,0.1636535,-0.8695655,0.058917000000000004
63,-0.031403,0.7361965,0.006359999999999998,-0.198596,0.5125965,-0.006759000000000001,-0.368286,0.7153865,-0.06281999999999999,0.165624,0.5380965,-0.018404999999999998,0.30913399999999996,0.7611365,-0.09146000000000001,-0.432856,0.9215165000000001,-0.12824000000000002,0.356384,0.9945865,-0.15564,-0.076599,-0.0027815000000000027,0.0007689999999999989,0.076599,0.0027814999999999993,-0.0007689999999999989,-0.102546,-0.4930535,0.042956,0.13212400000000002,-0.5012735,0.042404,-0.123106,-0.8727535,0.069649,0.163754,-0.8696935,0.058883
64,-0.031195,0.735922,0.0064629999999999965,-0.198511,0.5125419999999999,-0.006635000000000002,-0.367711,0.715552,-0.06280000000000001,0.16572900000000002,0.5382319999999999,-0.018436999999999995,0.308499,0.761102,-0.09172,-0.431091,0.9221619999999999,-0.12793,0.354149,0.9995519999999999,-0.1559,-0.076576,-0.0027829999999999973,0.0007199999999999984,0.076576,0.0027830000000000008,-0.0007199999999999984,-0.10256199999999999,-0.49304800000000004,0.042912,0.132169,-0.501258,0.042336,-0.122921,-0.872928,0.069598,0.163859,-0.869828,0.058866999999999996
65,-0.030987,0.7356115,0.006620500000000001,-0.198441,0.5124915,-0.0064875,-0.367121,0.7156215,-0.0626675,0.16583900000000001,0.5382915,-0.018463499999999994,0.307759,0.7611215,-0.09199750000000001,-0.429381,0.9226415,-0.1275975,0.351889,1.0047115,-0.1561875,-0.07655300000000001,-0.002776500000000001,0.0006724999999999995,0.07655300000000001,0.002776500000000001,-0.0006724999999999995,-0.10256699999999999,-0.4931485,0.0428235,0.132199,-0.5013985,0.0423025,-0.12274099999999999,-0.8731385,0.0695535,0.163969,-0.8700885,0.058806500000000005
66,-0.030789999999999994,0.7352650000000001,0.006811499999999998,-0.198347,0.5123850000000001,-0.006319499999999999,-0.36655699999999997,0.715705,-0.06253149999999999,0.165923,0.5383249999999999,-0.018470499999999994,0.30701300000000004,0.7611650000000001,-0.0922715,-0.428037,0.922995,-0.1272615,0.349673,1.009765,-0.1565415,-0.07653,-0.002766000000000001,0.0006294999999999981,0.07653,0.0027659999999999976,-0.0006294999999999981,-0.10256,-0.493265,0.0427735,0.13226300000000002,-0.501565,0.0422805,-0.12254699999999999,-0.8733550000000001,0.0695305,0.164093,-0.870295,0.058777499999999996
67,-0.030619000000000004,0.7348675,0.007037999999999996,-0.198278,0.5122675,-0.006071,-0.366048,0.7157775000000001,-0.062409000000000006,0.16599199999999997,0.5383775000000001,-0.018456,0.306252,0.7612775,-0.09255899999999999,-0.426848,0.9233575,-0.126809,0.347472,1.0147074999999999,-0.15686899999999998,-0.076513,-0.002753499999999999,0.0006120000000000014,0.076513,0.002753499999999999,-0.0006120000000000014,-0.102549,-0.49340249999999997,0.042738,0.132322,-0.5016425,0.042239,-0.122348,-0.8736725,0.069549,0.16422199999999998,-0.8705025,0.058769999999999996
68,-0.030501499999999997,0.734475,0.007225499999999996,-0.1982265,0.512115,-0.005816500000000002,-0.3655665,0.7159049999999999,-0.062193500000000006,0.16604349999999998,0.538445,-0.018417499999999996,0.3054835,0.761355,-0.0928135,-0.4259065,0.9236749999999999,-0.1263335,0.3469135,1.014845,-0.1572435,-0.0764965,-0.0027410000000000004,0.0006034999999999999,0.0764965,0.0027410000000000004,-0.0006034999999999999,-0.10254250000000001,-0.493535,0.0427165,0.1323635,-0.501715,0.0422115,-0.1222065,-0.873735,0.06955349999999999,0.16435349999999999,-0.870695,0.0587585
69,-0.030382,0.7340745,0.007393499999999997,-0.1982,0.5119644999999999,-0.0055115000000000025,-0.3651,0.7160945,-0.061923500000000006,0.16608,0.5385144999999999,-0.018370499999999998,0.30473,0.7614344999999999,-0.09306350000000001,-0.42511,0.9240044999999999,-0.1258935,0.34633,1.0149845,-0.1576535,-0.076476,-0.0027284999999999983,0.0005915000000000017,0.076476,0.0027284999999999983,-0.0005915000000000017,-0.102521,-0.4936955,0.0427015,0.13240000000000002,-0.5017555,0.0421825,-0.12206,-0.8738155000000001,0.06957050000000001,0.16449999999999998,-0.8708555,0.0587905
70,-0.030246499999999996,0.733635,0.007565500000000003,-0.1981775,0.5118550000000001,-0.005098499999999999,-0.3646475,0.716315,-0.061648499999999995,0.1661425,0.538605,-0.018325499999999995,0.3039525,0.761485,-0.09333849999999999,-0.4243575,0.924355,-0.1253785,0.3456525,1.014915,-0.15810849999999999,-0.07645550000000001,-0.0027149999999999987,0.0005735000000000046,0.07645550000000001,0.002715000000000002,-0.0005734999999999976,-0.1025055,-0.493865,0.0426955,0.1324325,-0.501775,0.0421655,-0.1219275,-0.873895,0.0696005,0.1646225,-0.8710249999999999,0.058841500000000005
71,-0.030109999999999994,0.7332155,0.0077030000000000015,-0.198173,0.5118155,-0.004688999999999999,-0.364213,0.7165555,-0.06135499999999999,0.166197,0.5386755,-0.018282999999999994,0.303207,0.7615554999999999,-0.093645,-0.42360299999999995,0.9247455,-0.124855,0.344967,1.0148455,-0.15859499999999999,-0.076433,-0.0027054999999999996,0.0005570000000000019,0.076433,0.0027054999999999996,-0.0005570000000000019,-0.1025,-0.49410449999999995,0.042682,0.132447,-0.5017845,0.042135,-0.121793,-0.8740345,0.069654,0.16475700000000001,-0.8711945,0.058934
72,-0.029979,0.7328960000000001,0.007843999999999997,-0.19816999999999999,0.511876,-0.004277000000000003,-0.36381,0.716956,-0.06104300000000001,0.16624,0.538796,-0.018235000000000008,0.30251,0.761676,-0.093943,-0.42291,0.9252560000000001,-0.12437299999999998,0.34424,1.0148460000000001,-0.159103,-0.07642299999999999,-0.0026799999999999984,0.0005479999999999999,0.07642299999999999,0.0026799999999999984,-0.0005479999999999999,-0.102521,-0.494324,0.042672,0.13246000000000002,-0.5017039999999999,0.042055999999999996,-0.12165000000000001,-0.874104,0.069714,0.16490000000000002,-0.871254,0.059053
73,-0.029857,0.7325855,0.007956999999999999,-0.198161,0.5120055,-0.0038980000000000056,-0.36346100000000003,0.7174355,-0.060762000000000004,0.166299,0.5388755000000001,-0.018177000000000006,0.301859,0.7618155000000001,-0.094252,-0.422261,0.9258655,-0.123942,0.34346899999999997,1.0149355,-0.159632,-0.07641,-0.0026524999999999986,0.0005490000000000009,0.07641,0.0026524999999999986,-0.0005490000000000009,-0.10253300000000001,-0.4945045,0.042636999999999994,0.132459,-0.5016345,0.041964999999999995,-0.121501,-0.8741945,0.069783,0.165049,-0.8713445,0.059129
74,-0.029740499999999996,0.732358,0.008070999999999995,-0.1981445,0.512208,-0.0035190000000000013,-0.3631645,0.717868,-0.060562000000000005,0.1663555,0.538988,-0.01810400000000001,0.3013555,0.761958,-0.09457200000000002,-0.4217345,0.926408,-0.123552,0.3427655,1.014958,-0.16004200000000002,-0.07640050000000001,-0.002630999999999998,0.0005519999999999969,0.07640050000000001,0.0026310000000000014,-0.0005520000000000039,-0.1025355,-0.494652,0.04261999999999999,0.13246549999999999,-0.501602,0.04189299999999999,-0.1213545,-0.874422,0.069865,0.1652055,-0.871392,0.05918899999999999
75,-0.029617,0.732169,0.008216500000000002,-0.198118,0.512409,-0.003114499999999999,-0.362898,0.718239,-0.0603265,0.166412,0.5389889999999999,-0.0180065,0.300862,0.762059,-0.09482650000000001,-0.421208,0.926899,-0.12313650000000001,0.342082,1.0149890000000001,-0.1603765,-0.076394,-0.002617999999999999,0.0005744999999999986,0.076394,0.002617999999999999,-0.0005744999999999986,-0.10254,-0.49479100000000004,0.0426345,0.132512,-0.501671,0.0419245,-0.121218,-0.874581,0.0700265,0.165362,-0.8714810000000001,0.059284500000000004
76,-0.029512,0.732026,0.008367000000000006,-0.19807399999999997,0.512566,-0.0027719999999999967,-0.36265400000000003,0.718606,-0.060098,0.166466,0.538966,-0.017895999999999995,0.300396,0.7620859999999999,-0.09503799999999998,-0.420764,0.927346,-0.12282799999999999,0.34144599999999997,1.015026,-0.160698,-0.076396,-0.0026019999999999967,0.0005860000000000032,0.076396,0.002602,-0.0005859999999999962,-0.102551,-0.494924,0.042648000000000005,0.132596,-0.501734,0.04194900000000001,-0.121064,-0.8745940000000001,0.07023,0.16549599999999998,-0.8715240000000001,0.059393
77,-0.029441500000000006,0.7319104999999999,0.0085195,-0.19805150000000002,0.5126904999999999,-0.002406499999999999,-0.3624815,0.7189205,-0.059896500000000005,0.1665285,0.5389004999999999,-0.0177635,0.2999985,0.7621104999999999,-0.0952165,-0.42039150000000003,0.9277304999999999,-0.1225065,0.3408885,1.0149505,-0.1609065,-0.07639750000000001,-0.002578500000000001,0.0005634999999999946,0.07639750000000001,0.002578500000000001,-0.0005635000000000015,-0.10255449999999999,-0.4950495,0.042679499999999995,0.13267849999999998,-0.5018495000000001,0.041979499999999996,-0.12092150000000002,-0.8745495000000001,0.0704265,0.16559849999999998,-0.8715395,0.0594785
78,-0.029371,0.731747,0.008682500000000003,-0.19798300000000002,0.512747,-0.002086499999999998,-0.362313,0.719187,-0.059692499999999996,0.166457,0.538867,-0.017661499999999997,0.299627,0.762117,-0.0953625,-0.420053,0.928077,-0.1222025,0.340397,1.014977,-0.1610525,-0.076401,-0.0025540000000000007,0.0005285000000000012,0.076401,0.0025540000000000007,-0.0005284999999999943,-0.102545,-0.495123,0.0427145,0.132777,-0.5021329999999999,0.0420215,-0.12079300000000001,-0.874353,0.0706725,0.165717,-0.871543,0.0595655
79,-0.029289000000000006,0.7315895,0.0088945,-0.197905,0.5127094999999999,-0.001848499999999996,-0.362155,0.7194294999999999,-0.059442499999999995,0.166375,0.5388094999999999,-0.017529500000000003,0.29933499999999996,0.7620395,-0.09536249999999999,-0.41979500000000003,0.9283595,-0.12191250000000001,0.339945,1.0148895,-0.1610825,-0.076398,-0.0025344999999999986,0.0004425000000000054,0.076398,0.002534500000000002,-0.00044249999999999845,-0.102524,-0.4952105,0.042786500000000005,0.132905,-0.5024405,0.0420755,-0.120645,-0.8741305,0.0708865,0.165815,-0.8715405,0.0596905
80,-0.0292075,0.731456,0.009094499999999998,-0.1978515,0.512636,-0.0016185000000000019,-0.3620115,0.719646,-0.0591855,0.1662885,0.538766,-0.017412499999999997,0.29907849999999997,0.7619659999999999,-0.09534550000000001,-0.4195515,0.9286059999999999,-0.12165550000000001,0.3394985,1.014906,-0.1609955,-0.0763955,-0.0025179999999999994,0.0003564999999999957,0.0763955,0.0025179999999999994,-0.00035650000000000265,-0.1024825,-0.495264,0.042874499999999996,0.13301849999999998,-0.502564,0.0421555,-0.12050150000000001,-0.874174,0.0710865,0.1659085,-0.871534,0.0598125
81,-0.029170999999999996,0.7313225,0.009298,-0.19780699999999998,0.5125525,-0.0013779999999999973,-0.361887,0.7197724999999999,-0.058906999999999994,0.166193,0.5387225,-0.017282,0.298783,0.7618925,-0.09528700000000001,-0.419327,0.9287725,-0.121387,0.339053,1.0149225,-0.160857,-0.07639699999999999,-0.0025004999999999993,0.00023999999999999716,0.07639699999999999,0.0025005000000000027,-0.00023999999999999716,-0.10241900000000001,-0.4953275,0.042985999999999996,0.133103,-0.5026275,0.042289,-0.120387,-0.8742175000000001,0.071306,0.16598300000000002,-0.8715075000000001,0.059942
82,-0.0291645,0.7312325,0.009492,-0.1977545,0.5124925,-0.0011359999999999981,-0.36179449999999996,0.7198125,-0.05864699999999999,0.1660855,0.5386825,-0.01714299999999999,0.29845550000000004,0.7618625,-0.095207,-0.4191145,0.9288525,-0.121107,0.33863550000000003,1.0150625,-0.16067700000000001,-0.0763995,-0.002489500000000002,0.00011700000000000599,0.0763995,0.0024894999999999987,-0.00011699999999999905,-0.1023475,-0.4953675,0.043131,0.13314550000000003,-0.5026875000000001,0.042413000000000006,-0.1202845,-0.8742275,0.071524,0.16606549999999998,-0.8714775,0.060065
83,-0.029179500000000004,0.731177,0.009683499999999998,-0.1977095,0.512447,-0.0009425000000000058,-0.36171949999999997,0.7198669999999999,-0.0583795,0.1659805,0.538647,-0.0169995,0.2981305,0.761837,-0.0950895,-0.41892949999999995,0.928947,-0.1208495,0.33827050000000003,1.015117,-0.1604795,-0.07640050000000001,-0.0024859999999999986,-8.500000000001562e-06,0.07640050000000001,0.002486000000000002,8.499999999994623e-06,-0.10229150000000001,-0.495413,0.0432665,0.1331605,-0.502673,0.0424465,-0.1201895,-0.8742730000000001,0.0717115,0.1661305,-0.871523,0.0602015
84,-0.029216000000000006,0.731115,0.009908,-0.19768300000000003,0.512385,-0.0007190000000000044,-0.361653,0.719925,-0.058113000000000005,0.165877,0.538635,-0.016807999999999997,0.297827,0.761805,-0.094893,-0.418773,0.929025,-0.12054299999999998,0.337937,1.015175,-0.160263,-0.076398,-0.002479000000000002,-9.800000000000086e-05,0.076398,0.002479000000000002,9.800000000000086e-05,-0.102241,-0.495385,0.043434,0.133177,-0.502775,0.042503,-0.12010300000000002,-0.874285,0.07192799999999999,0.16618699999999997,-0.871615,0.060364
85,-0.029259999999999998,0.731058,0.010120499999999998,-0.19765,0.512288,-0.0004945000000000019,-0.36157999999999996,0.719988,-0.0578095,0.16577999999999998,0.538628,-0.016615500000000005,0.29757,0.761778,-0.0946895,-0.41863999999999996,0.9291079999999999,-0.1202595,0.33766,1.015248,-0.1600395,-0.07639199999999999,-0.002478000000000001,-0.00017250000000000598,0.07639199999999999,0.002478000000000001,0.00017249999999999904,-0.10219999999999999,-0.495292,0.04356449999999999,0.13319999999999999,-0.502852,0.0425725,-0.11998,-0.874312,0.0721995,0.16623,-0.871752,0.0605705
86,-0.0292775,0.7310095,0.010299500000000003,-0.1976125,0.5120895,-0.00029549999999999715,-0.36151249999999996,0.7200595000000001,-0.057540499999999994,0.1656875,0.5386395,-0.016436499999999993,0.2973275,0.7617295000000001,-0.0944905,-0.4185025,0.9291995000000001,-0.12000049999999998,0.3373775,1.0153394999999998,-0.1597905,-0.07638049999999999,-0.0024864999999999957,-0.00020249999999999435,0.07638049999999999,0.0024865000000000026,0.0002025000000000013,-0.10216349999999999,-0.49512049999999996,0.043661500000000006,0.13323749999999998,-0.5029105,0.0426155,-0.11986250000000001,-0.8742905,0.0724385,0.1662875,-0.8718005,0.06075950000000001
87,-0.029279499999999997,0.730942,0.010487499999999997,-0.1975495,0.511892,-0.00010650000000000243,-0.3614295,0.720112,-0.05726350000000001,0.1657605,0.538642,-0.0162495,0.2971105,0.7616919999999999,-0.09430350000000001,-0.4183495,0.9292619999999999,-0.1197435,0.3371505,1.015432,-0.1594835,-0.07637050000000001,-0.002494000000000003,-0.00022350000000000148,0.07637050000000001,0.0024939999999999962,0.00022349999999999454,-0.1021215,-0.49494800000000005,0.0437665,0.13327050000000001,-0.502918,0.042652499999999996,-0.1197395,-0.874348,0.0726675,0.1663405,-0.871838,0.0609465
88,-0.029286999999999997,0.73089,0.0106435,-0.19749,0.5116700000000001,4.749999999999893e-05,-0.36136,0.72014,-0.057079500000000005,0.16583,0.5386500000000001,-0.0160955,0.29691,0.76164,-0.09412949999999999,-0.41823,0.9293,-0.1195895,0.337,1.0154299999999998,-0.15917949999999997,-0.07636899999999999,-0.002496000000000005,-0.0002025000000000013,0.07636899999999999,0.0024959999999999982,0.0002025000000000013,-0.10209399999999999,-0.49476,0.0438225,0.1333,-0.50292,0.042651499999999995,-0.11961,-0.87437,0.0728475,0.16640000000000002,-0.87186,0.0611055
89,-0.029289000000000003,0.730834,0.010820000000000003,-0.197418,0.511484,0.00019300000000000567,-0.36128800000000005,0.720164,-0.056923,0.165892,0.5386540000000001,-0.015938999999999995,0.29674199999999995,0.761594,-0.093933,-0.418118,0.929324,-0.119433,0.336912,1.015434,-0.158933,-0.076367,-0.0024999999999999988,-0.00016799999999999454,0.076367,0.0025000000000000022,0.00016800000000000148,-0.10207000000000001,-0.49471600000000004,0.043870000000000006,0.133342,-0.503246,0.042675000000000005,-0.119488,-0.874286,0.073019,0.166452,-0.8718859999999999,0.061293
90,-0.0292625,0.730807,0.010981500000000005,-0.1973585,0.511307,0.0003125000000000003,-0.3612185,0.720187,-0.0567975,0.1659615,0.538747,-0.015761499999999998,0.2965915,0.761537,-0.09373749999999999,-0.41799850000000005,0.929367,-0.1193075,0.33685149999999997,1.015437,-0.1587175,-0.0763625,-0.0025029999999999983,-0.00011949999999999461,0.0763625,0.0025030000000000052,0.00011950000000000155,-0.1020405,-0.494653,0.043897500000000006,0.1333215,-0.503223,0.0426155,-0.1193685,-0.874213,0.0731475,0.1664915,-0.871883,0.061497500000000004
91,-0.029189999999999997,0.73079,0.011172499999999995,-0.19727999999999998,0.51117,0.0004694999999999977,-0.36113,0.72025,-0.05665150000000001,0.16604000000000002,0.53882,-0.015560500000000005,0.2965,0.76153,-0.09353149999999999,-0.41781,0.92945,-0.1191815,0.33682,1.0153599999999998,-0.15847150000000002,-0.07635700000000001,-0.002517000000000002,-5.350000000000493e-05,0.07635700000000001,0.0025169999999999984,5.3499999999997994e-05,-0.10200000000000001,-0.49457,0.043948499999999995,0.13328,-0.5032,0.0426185,-0.11928,-0.87407,0.0733135,0.16654000000000002,-0.8719,0.061718499999999996
92,-0.029104499999999995,0.7307794999999999,0.011339500000000002,-0.1971845,0.5110795,0.0005975000000000077,-0.36102449999999997,0.7203195,-0.056542499999999996,0.1660855,0.5389195,-0.015354499999999993,0.2964355,0.7615295,-0.0933525,-0.41756449999999995,0.9295395,-0.11912249999999999,0.3368355,1.0152995,-0.1582625,-0.07635249999999999,-0.002528500000000003,1.1500000000004562e-05,0.07635249999999999,0.002528499999999996,-1.1499999999997623e-05,-0.10196449999999999,-0.4944805,0.0439765,0.1332555,-0.5031705,0.042703500000000005,-0.11919450000000001,-0.8738905,0.0734505,0.1665855,-0.8719905,0.061872500000000004
93,-0.029019500000000004,0.730791,0.011483,-0.1971005,0.511061,0.000683000000000003,-0.3609205,0.7204309999999999,-0.05651099999999999,0.16612949999999999,0.5389809999999999,-0.015191999999999997,0.2963795,0.761551,-0.093211,-0.4173205,0.9296709999999999,-0.119131,0.3368395,1.015251,-0.158101,-0.0763475,-0.0025410000000000016,4.099999999999937e-05,0.0763475,0.0025410000000000016,-4.099999999999937e-05,-0.1019205,-0.494369,0.04396800000000001,0.1332795,-0.503189,0.042786000000000005,-0.1191005,-0.873859,0.073504,0.1666395,-0.8720190000000001,0.062025000000000004
94,-0.028947,0.73078,0.011575000000000002,-0.197029,0.5111,0.0007540000000000047,-0.360829,0.72053,-0.05651099999999999,0.166081,0.5390400000000001,-0.015035999999999994,0.296311,0.76161,-0.09315099999999998,-0.417029,0.92979,-0.11929100000000001,0.336841,1.0151999999999999,-0.157931,-0.076345,-0.0025480000000000017,6.500000000000256e-05,0.076345,0.0025480000000000017,-6.499999999999562e-05,-0.101879,-0.49424999999999997,0.043984,0.133291,-0.503,0.042829000000000006,-0.119039,-0.8737199999999999,0.07358100000000001,0.166681,-0.8721099999999999,0.062185000000000004
95,-0.028881499999999994,0.7307605,0.0116705,-0.1969685,0.5111405,0.0008275000000000018,-0.36073849999999996,0.7206205,-0.056521499999999995,0.16600150000000002,0.5391005,-0.014886500000000004,0.2962715,0.7616505,-0.09306150000000002,-0.41674849999999997,0.9299005,-0.1194615,0.3368515,1.0151405,-0.1578415,-0.0763485,-0.0025505000000000007,8.249999999999924e-05,0.0763485,0.002550499999999997,-8.249999999999924e-05,-0.1018285,-0.4941595,0.0440035,0.13331150000000003,-0.5028795,0.042828500000000005,-0.1189785,-0.8735995,0.0736515,0.1667015,-0.8720694999999999,0.062351500000000004
96,-0.028829,0.730746,0.011774,-0.196936,0.511176,0.0009410000000000043,-0.360666,0.720706,-0.056562,0.16591399999999998,0.539166,-0.014732999999999996,0.29622400000000004,0.761656,-0.09296199999999999,-0.41647599999999996,0.929976,-0.11966199999999999,0.33684400000000003,1.015076,-0.157792,-0.076351,-0.002551000000000001,9.800000000000086e-05,0.076351,0.0025509999999999977,-9.800000000000086e-05,-0.10180600000000001,-0.494074,0.044015,0.133314,-0.5027739999999999,0.042812,-0.11893600000000001,-0.873564,0.073733,0.166704,-0.872104,0.062481
97,-0.0287705,0.7306985,0.011876999999999999,-0.1968925,0.5112085,0.0010480000000000003,-0.3605625,0.7208185,-0.05668100000000001,0.1658275,0.5392184999999999,-0.01458000000000001,0.2961775,0.7616585,-0.09288099999999999,-0.4161825,0.9300585,-0.120031,0.3368375,1.0150085,-0.157741,-0.07634750000000001,-0.0025515000000000017,0.0001239999999999991,0.07634750000000001,0.002551499999999998,-0.00012400000000000605,-0.10177249999999999,-0.49399150000000003,0.044023999999999994,0.1333275,-0.5026415,0.042776999999999996,-0.11889250000000001,-0.8735315,0.073818,0.1666975,-0.8721315000000001,0.062609
98,-0.028709999999999996,0.730639,0.011971999999999997,-0.196874,0.511339,0.0011819999999999956,-0.360464,0.720879,-0.056808,0.165736,0.539269,-0.014439000000000007,0.296116,0.7616390000000001,-0.09280800000000002,-0.415864,0.9301090000000001,-0.120488,0.336816,1.014939,-0.157698,-0.076346,-0.002551000000000001,0.0001419999999999963,0.076346,0.0025509999999999977,-0.00014200000000000323,-0.101744,-0.494031,0.044038,0.133326,-0.502561,0.042729,-0.118874,-0.873601,0.07384199999999999,0.16666599999999998,-0.8721409999999999,0.062665
99,-0.028647,0.7305775,0.012026000000000002,-0.196837,0.5114675,0.0013229999999999978,-0.360367,0.7209475,-0.056955000000000006,0.165633,0.5392975,-0.014308000000000001,0.296063,0.7616075,-0.09273500000000001,-0.415587,0.9301575,-0.120975,0.336803,1.0148675,-0.157655,-0.076346,-0.0025505000000000007,0.00015899999999999942,0.076346,0.002550500000000004,-0.00015899999999999942,-0.101717,-0.4940525,0.044043,0.133333,-0.5025225,0.042695,-0.118857,-0.8736524999999999,0.07388600000000001,0.16664299999999999,-0.8721725,0.062709
100,-0.0285935,0.7305130000000001,0.012046000000000008,-0.19680950000000003,0.511623,0.0014350000000000057,-0.36026949999999996,0.7210030000000001,-0.057115,0.16553050000000002,0.5393330000000001,-0.014202999999999993,0.2960205,0.7615930000000001,-0.092705,-0.4153795,0.930203,-0.12144499999999998,0.3367905,1.014793,-0.157655,-0.0763475,-0.002544000000000001,0.00017800000000000454,0.0763475,0.0025439999999999977,-0.0001779999999999976,-0.1016995,-0.49411700000000003,0.044016000000000007,0.1333205,-0.502647,0.04263800000000001,-0.1188695,-0.873697,0.07391700000000001,0.1666205,-0.872217,0.06273000000000001
101,-0.028540999999999997,0.7303634999999999,0.012069000000000003,-0.196782,0.5117535,0.0015570000000000028,-0.360162,0.7210135,-0.057312,0.16547800000000001,0.5393535,-0.014127,0.29598800000000003,0.7615635000000001,-0.09267199999999999,-0.415162,0.9302135,-0.121912,0.336768,1.0147035,-0.157692,-0.07635,-0.002537500000000005,0.00019700000000000273,0.07635,0.002537499999999998,-0.0001969999999999958,-0.10169199999999999,-0.4941965,0.043978,0.13330799999999998,-0.5027865,0.042582999999999996,-0.118882,-0.8737865,0.073945,0.16659800000000002,-0.8722764999999999,0.062755
102,-0.028470000000000002,0.7302465,0.012090999999999998,-0.196767,0.5119265,0.0017099999999999962,-0.360037,0.7210265,-0.057519,0.16542300000000001,0.5393665,-0.014050000000000007,0.295953,0.7615365,-0.092659,-0.414937,0.9302265,-0.12236899999999999,0.336733,1.0147165,-0.157719,-0.076353,-0.0025284999999999995,0.00021599999999999397,0.076353,0.002528500000000003,-0.0002160000000000009,-0.10167699999999999,-0.49428350000000004,0.04393999999999999,0.133293,-0.5029534999999999,0.042577,-0.118927,-0.8738135,0.073946,0.166553,-0.8723035,0.06271199999999999
103,-0.02841,0.7301135,0.012110000000000003,-0.196742,0.5121235,0.0018490000000000034,-0.359892,0.7210335,-0.057748999999999995,0.165438,0.5393735,-0.013982999999999995,0.295938,0.7615135,-0.09265899999999999,-0.41472200000000004,0.9302334999999999,-0.12270899999999998,0.336708,1.0146235000000001,-0.157769,-0.076355,-0.0025214999999999994,0.0002360000000000001,0.076355,0.002521500000000003,-0.0002360000000000001,-0.101682,-0.4943765,0.043893,0.133298,-0.5030965000000001,0.042604,-0.118952,-0.8738565,0.073953,0.166518,-0.8723265,0.062681
104,-0.028348500000000002,0.7299574999999999,0.012143499999999995,-0.1967295,0.5123274999999999,0.0019914999999999933,-0.3596895,0.7210175,-0.0580175,0.1654505,0.5393775,-0.013919500000000001,0.2959105,0.7615175,-0.09265750000000002,-0.41444949999999997,0.9302475,-0.12309750000000001,0.3366905,1.0146275,-0.1578075,-0.0763565,-0.0025155000000000004,0.00025849999999999485,0.0763565,0.002515499999999997,-0.0002585000000000018,-0.1016695,-0.4943725,0.043845499999999996,0.1332305,-0.5029725,0.042583499999999996,-0.1189395,-0.8739125,0.0739605,0.16649049999999999,-0.8723625,0.06267149999999999
105,-0.028277999999999994,0.72982,0.012160999999999998,-0.196711,0.51247,0.0020770000000000025,-0.35947100000000004,0.72098,-0.05831,0.16545900000000002,0.53938,-0.013884999999999995,0.29588899999999996,0.76152,-0.09264000000000001,-0.41409100000000004,0.93025,-0.12347999999999999,0.336659,1.0146300000000001,-0.15786,-0.07635600000000001,-0.002512999999999998,0.00028299999999999853,0.07635600000000001,0.0025130000000000013,-0.00028299999999999853,-0.101681,-0.49443000000000004,0.043787,0.133169,-0.50283,0.042548,-0.11894099999999999,-0.874,0.073965,0.166469,-0.87237,0.062661
106,-0.0281865,0.729681,0.012153999999999998,-0.1966885,0.512641,0.0022080000000000016,-0.3592785,0.720941,-0.058559,0.1655115,0.539431,-0.013867000000000004,0.2958615,0.761531,-0.09263900000000001,-0.4136385,0.930261,-0.123759,0.3366415,1.014631,-0.15792899999999999,-0.0763575,-0.0025020000000000042,0.00029599999999999765,0.0763575,0.0025019999999999973,-0.00029599999999999765,-0.1016885,-0.494509,0.043723,0.1331015,-0.502689,0.042499999999999996,-0.1189485,-0.874139,0.073935,0.1664315,-0.872339,0.062612
107,-0.028071000000000006,0.729571,0.012126500000000005,-0.196658,0.512761,0.0023245,-0.359078,0.720901,-0.058817499999999995,0.16552199999999997,0.539451,-0.013859499999999997,0.295852,0.761541,-0.09263750000000001,-0.413178,0.930271,-0.12397749999999999,0.336602,1.014631,-0.1579775,-0.07635700000000001,-0.0024909999999999967,0.0003085000000000032,0.07635700000000001,0.002491,-0.0003084999999999963,-0.10170799999999999,-0.494579,0.0436575,0.13303199999999998,-0.502469,0.0424505,-0.11895800000000001,-0.8742989999999999,0.0738855,0.166432,-0.872269,0.06256250000000001
108,-0.027941000000000004,0.729441,0.012084999999999999,-0.196608,0.512921,0.002465999999999996,-0.358838,0.720841,-0.059113,0.165572,0.539491,-0.013858999999999996,0.295852,0.761561,-0.09264300000000002,-0.412578,0.930291,-0.124183,0.336552,1.014631,-0.15801300000000001,-0.07635700000000001,-0.0024789999999999986,0.0003249999999999989,0.07635700000000001,0.002479000000000002,-0.00032500000000000584,-0.10172800000000001,-0.494659,0.04359299999999999,0.13294199999999998,-0.502269,0.042394999999999995,-0.11899799999999999,-0.874439,0.073852,0.166432,-0.872269,0.062466999999999995
109,-0.0277925,0.7292995,0.012048499999999997,-0.1965415,0.5130895,0.0026144999999999988,-0.3586015,0.7207895,-0.0593625,0.1656185,0.5395295,-0.013847499999999999,0.2958385,0.7615795000000001,-0.0926225,-0.4119115,0.9302995000000001,-0.12442249999999999,0.33649850000000003,1.0147295,-0.1580125,-0.0763585,-0.0024684999999999985,0.0003384999999999985,0.0763585,0.0024684999999999985,-0.00033850000000000546,-0.1017415,-0.4947705,0.043539499999999995,0.1328785,-0.5020705,0.04235749999999999,-0.1190315,-0.8745805,0.0738255,0.1664285,-0.8722905,0.0623735
110,-0.027611999999999998,0.7292485,0.012026500000000002,-0.196461,0.5132585,0.002753499999999999,-0.358351,0.7207685,-0.0596175,0.165659,0.5395785,-0.013838499999999997,0.295829,0.7616185,-0.09261750000000002,-0.41124099999999997,0.9303385,-0.1247075,0.336419,1.0147285000000001,-0.1580175,-0.076359,-0.0024585000000000024,0.00035149999999999765,0.076359,0.0024585000000000024,-0.00035149999999999765,-0.101751,-0.4948215,0.0434945,0.132809,-0.5020215,0.0423125,-0.119061,-0.8746915,0.0737765,0.166409,-0.8723615,0.0623235
111,-0.027439000000000005,0.7292125,0.011999499999999996,-0.19636900000000002,0.5134225,0.0028874999999999942,-0.358109,0.7207625,-0.059853500000000004,0.165701,0.5396325,-0.0138205,0.295821,0.7616825,-0.09261350000000002,-0.41056899999999996,0.9303925,-0.12497350000000002,0.336341,1.0147325,-0.1580135,-0.076362,-0.0024535000000000043,0.0003554999999999947,0.076362,0.0024534999999999973,-0.00035550000000000165,-0.101759,-0.4948475,0.04345449999999999,0.132751,-0.5019775,0.0422675,-0.11905900000000001,-0.8748175,0.0736825,0.166411,-0.8724075,0.062260499999999996
112,-0.0272405,0.7291995,0.011966999999999998,-0.1962795,0.5135395,0.003040999999999995,-0.3578895,0.7207595,-0.060083,0.1657605,0.5396795,-0.013796000000000003,0.2958205,0.7617295000000001,-0.092603,-0.4099195,0.9304795,-0.12523299999999998,0.3362605,1.0148295,-0.15801300000000001,-0.0763635,-0.0024435000000000012,0.0003549999999999942,0.0763635,0.0024435000000000012,-0.00035500000000000115,-0.1017695,-0.4948805,0.043418,0.1327305,-0.5019605,0.04223199999999999,-0.11906950000000001,-0.8749605,0.073567,0.1664305,-0.8724704999999999,0.062188999999999994
113,-0.027042999999999998,0.7292255,0.011938499999999998,-0.196169,0.5136755000000001,0.003196499999999998,-0.357699,0.7207555,-0.0602925,0.16581100000000001,0.5397355,-0.013757500000000006,0.295821,0.7617855,-0.09256249999999999,-0.409299,0.9305755,-0.1254625,0.336181,1.0149255,-0.1579625,-0.076363,-0.002433499999999998,0.00035450000000000065,0.076363,0.002433500000000005,-0.00035450000000000065,-0.101769,-0.49489449999999996,0.043385499999999994,0.132721,-0.5020045,0.0421895,-0.119079,-0.8750844999999999,0.0735015,0.16645100000000002,-0.8725445,0.062106499999999995
114,-0.02686,0.7292085,0.011935999999999995,-0.196054,0.5137985,0.003358,-0.357524,0.7207485,-0.060502,0.165856,0.5397785,-0.013720999999999997,0.295806,0.7618385000000001,-0.092512,-0.40876399999999996,0.9306785000000001,-0.12569200000000003,0.336096,1.0150185,-0.157902,-0.076365,-0.0024224999999999976,0.00035500000000000115,0.076365,0.002422500000000001,-0.00035500000000000115,-0.101774,-0.4949215,0.043365,0.132706,-0.5020315,0.042117,-0.119074,-0.8752215,0.07345399999999999,0.16649599999999998,-0.8726815,0.061992
115,-0.026684,0.7291885,0.011943000000000002,-0.195959,0.5139085,0.0034529999999999977,-0.35733899999999996,0.7207385,-0.060717,0.165911,0.5398585,-0.013672999999999998,0.29581100000000005,0.7619385,-0.092477,-0.40829899999999997,0.9307885,-0.12589699999999998,0.336021,1.0152085,-0.15778699999999998,-0.076366,-0.0024075,0.0003449999999999981,0.076366,0.0024075,-0.0003449999999999981,-0.101759,-0.4949515,0.043352,0.132691,-0.5019015,0.042046,-0.119049,-0.8753415,0.073406,0.166551,-0.8728515,0.061893
116,-0.026531000000000002,0.7291664999999999,0.011944000000000003,-0.19586599999999998,0.5140165,0.0035530000000000075,-0.35715600000000003,0.7207965,-0.06096299999999999,0.165954,0.5399265,-0.013637999999999997,0.295824,0.7620064999999999,-0.09244299999999998,-0.407866,0.9309065,-0.12610300000000002,0.335954,1.0152965,-0.157663,-0.076366,-0.002392499999999999,0.00033800000000000496,0.076366,0.002392499999999999,-0.000337999999999998,-0.101756,-0.4949635,0.043321000000000005,0.13268400000000002,-0.5019135,0.041981000000000004,-0.119046,-0.8754435,0.07334700000000001,0.16659400000000002,-0.8729935000000001,0.06180000000000001
117,-0.026391,0.7291505,0.011951999999999997,-0.19578500000000001,0.5140905,0.0036169999999999952,-0.357005,0.7208505000000001,-0.061196,0.165995,0.5399905,-0.013607000000000008,0.29584499999999997,0.7620705000000001,-0.09240600000000002,-0.407555,0.9310004999999999,-0.126306,0.335905,1.0153805,-0.157556,-0.07636499999999999,-0.0023784999999999987,0.000335999999999996,0.07636499999999999,0.0023784999999999987,-0.00033600000000000296,-0.101745,-0.4949695,0.04329899999999999,0.13269499999999998,-0.5019294999999999,0.041922999999999995,-0.119035,-0.8754595000000001,0.07332999999999999,0.16663499999999998,-0.8731694999999999,0.061702999999999994
118,-0.026275,0.729154,0.011979999999999998,-0.19573100000000002,0.514154,0.0036850000000000008,-0.356881,0.7208939999999999,-0.061399999999999996,0.166039,0.5400539999999999,-0.013579000000000008,0.29585900000000004,0.7621439999999999,-0.09237000000000001,-0.40729099999999996,0.931094,-0.12647,0.335859,1.015464,-0.15743000000000001,-0.07636399999999999,-0.002363000000000004,0.00033199999999999896,0.07636399999999999,0.002362999999999997,-0.00033199999999999896,-0.101741,-0.49498600000000004,0.04328,0.13269899999999998,-0.501936,0.041894,-0.11902099999999999,-0.875556,0.073324,0.166689,-0.873286,0.061633
119,-0.0262145,0.729126,0.011967499999999999,-0.1956965,0.514236,0.003750499999999997,-0.3567865,0.720966,-0.0615875,0.1660735,0.540116,-0.013554499999999997,0.2958835,0.762226,-0.0923375,-0.40709650000000003,0.931196,-0.12660749999999998,0.3358135,1.0155459999999998,-0.1573275,-0.0763645,-0.0023500000000000014,0.0003275000000000014,0.0763645,0.002349999999999998,-0.0003275000000000014,-0.10173650000000001,-0.494994,0.0432535,0.1326935,-0.501884,0.0418635,-0.1190565,-0.875654,0.0732955,0.1667135,-0.873364,0.0615715
120,-0.026171499999999997,0.7290555,0.011918999999999999,-0.19567449999999997,0.5143154999999999,0.0037850000000000036,-0.3567145,0.7210455,-0.061761,0.1660955,0.5401355,-0.013537,0.29590550000000004,0.7623154999999999,-0.092311,-0.40691449999999996,0.9313055,-0.126741,0.3357655,1.0157155,-0.157201,-0.0763645,-0.0023305000000000027,0.00029799999999999965,0.0763645,0.0023304999999999992,-0.00029799999999999965,-0.1017245,-0.49495449999999996,0.043219,0.13270549999999998,-0.5018545,0.041829000000000005,-0.1190845,-0.8757745,0.073228,0.16673549999999998,-0.8735245,0.061505000000000004
121,-0.026165000000000004,0.7289865,0.011845500000000002,-0.195662,0.5143865,0.0037605,-0.35666200000000003,0.7211565,-0.0619345,0.166118,0.5401765,-0.013560500000000003,0.29592799999999997,0.7624264999999999,-0.09233450000000001,-0.40678200000000003,0.9314365,-0.1269245,0.335698,1.0157764999999999,-0.1570745,-0.07636,-0.0023124999999999986,0.00028550000000000103,0.07636,0.002312500000000002,-0.00028550000000000103,-0.101702,-0.4949135,0.0431945,0.132708,-0.5018935,0.041764499999999996,-0.11911200000000001,-0.8758935000000001,0.0731585,0.166738,-0.8736035000000001,0.0614005
122,-0.026166000000000002,0.728939,0.011769500000000002,-0.19566499999999998,0.5144489999999999,0.0037164999999999976,-0.35662499999999997,0.721279,-0.062148499999999995,0.16613499999999998,0.540219,-0.013622499999999996,0.295935,0.762529,-0.0924285,-0.406665,0.931589,-0.1271585,0.335615,1.015929,-0.1569885,-0.076354,-0.0022879999999999984,0.0002874999999999961,0.076354,0.0022879999999999984,-0.00028750000000000303,-0.101697,-0.494861,0.0431545,0.132695,-0.502021,0.0417335,-0.119145,-0.876031,0.0730735,0.16673500000000002,-0.873671,0.0612835
123,-0.02617,0.728908,0.011672500000000002,-0.195668,0.5144979999999999,0.0036565,-0.356598,0.7214879999999999,-0.062424499999999994,0.16615200000000002,0.5402579999999999,-0.013699500000000003,0.295952,0.7626379999999999,-0.0925245,-0.406538,0.9318179999999999,-0.12746449999999998,0.335542,1.016178,-0.15693449999999998,-0.076347,-0.0022670000000000017,0.00028450000000000003,0.076347,0.002266999999999998,-0.00028450000000000003,-0.101689,-0.494812,0.0431215,0.132702,-0.5020720000000001,0.0416925,-0.119168,-0.876052,0.0730415,0.16671200000000003,-0.873722,0.0611875
124,-0.0261985,0.728903,0.011564500000000005,-0.1956715,0.514543,0.0035785000000000053,-0.3566015,0.7217129999999999,-0.06271149999999999,0.1661585,0.540273,-0.0138075,0.2959385,0.762723,-0.09263149999999999,-0.4064515,0.932073,-0.12776149999999997,0.3354485,1.0163330000000002,-0.1569315,-0.0763375,-0.002253999999999999,0.00030150000000000315,0.0763375,0.002253999999999999,-0.0003014999999999962,-0.1016985,-0.494767,0.043078500000000006,0.1326785,-0.502117,0.0416425,-0.1191915,-0.876097,0.0730235,0.1666585,-0.873767,0.061041500000000005
125,-0.0262285,0.728877,0.0114415,-0.1956835,0.514557,0.0034695000000000004,-0.35662350000000004,0.721927,-0.0630145,0.16613650000000002,0.540257,-0.013921500000000003,0.2959365,0.762807,-0.09276449999999999,-0.4063635,0.932307,-0.12807449999999998,0.3353565,1.0164870000000001,-0.1569545,-0.0763295,-0.002243000000000002,0.0003145000000000023,0.0763295,0.002242999999999995,-0.00031449999999999534,-0.1017035,-0.494713,0.0430315,0.1326465,-0.502163,0.0415885,-0.1192235,-0.876143,0.0729665,0.1666165,-0.873873,0.0609005
126,-0.0262795,0.7288665000000001,0.011297000000000001,-0.1956875,0.5145765,0.0033429999999999988,-0.3566475,0.7221465,-0.06334,0.16610250000000001,0.5402365,-0.014047000000000004,0.2959225,0.7629165,-0.09291999999999999,-0.4062775,0.9325365,-0.12845,0.3352725,1.0166365,-0.15698,-0.07632050000000001,-0.002235499999999998,0.00033500000000000196,0.07632050000000001,0.0022355000000000014,-0.00033500000000000196,-0.10171250000000001,-0.49466350000000003,0.042984,0.1326125,-0.5022234999999999,0.041532,-0.1192175,-0.8761135,0.072902,0.1665725,-0.8739034999999999,0.060785
127,-0.0263335,0.7287755,0.011137499999999995,-0.1957055,0.5145455,0.003211499999999999,-0.3566755,0.7223554999999999,-0.06369050000000001,0.1660345,0.5401455,-0.014180499999999999,0.2958845,0.7629555,-0.09310050000000002,-0.40622549999999996,0.9327354999999999,-0.1288605,0.33516450000000003,1.0167455,-0.15704050000000003,-0.07631750000000001,-0.002234499999999997,0.00035049999999999665,0.07631750000000001,0.0022345000000000004,-0.0003505000000000036,-0.10171949999999999,-0.4946245,0.042928499999999994,0.13257449999999998,-0.5023245,0.04146949999999999,-0.11925549999999999,-0.8761345,0.07280049999999999,0.1665045,-0.8739645,0.0606675
128,-0.026382999999999997,0.7287105,0.010915000000000001,-0.19571999999999998,0.5144905000000001,0.003025,-0.3567,0.7226005000000001,-0.064118,0.16598000000000002,0.5400205,-0.01439,0.29587,0.7629705,-0.093348,-0.40610999999999997,0.9330205,-0.129328,0.33506,1.0167205,-0.157138,-0.076315,-0.002234499999999997,0.00032000000000000084,0.076315,0.0022345000000000004,-0.00032000000000000084,-0.10170799999999999,-0.4946195,0.042839,0.13254000000000002,-0.5023695,0.041382,-0.11926999999999999,-0.8761595,0.072667,0.16646,-0.8739895,0.060504
129,-0.0264225,0.7286635,0.010676499999999998,-0.1957325,0.5144335,0.0028324999999999947,-0.3567225,0.7228435,-0.06453249999999999,0.1659275,0.5399134999999999,-0.014599500000000008,0.2958475,0.7629735,-0.09359250000000002,-0.4060125,0.9332935,-0.1297925,0.3349575,1.0168135,-0.1572925,-0.0763115,-0.0022334999999999994,0.0003044999999999992,0.0763115,0.0022334999999999994,-0.0003044999999999992,-0.1016915,-0.49462649999999997,0.0427525,0.1325175,-0.5024465,0.0413165,-0.1192825,-0.8761665000000001,0.0725335,0.1664175,-0.8739465000000001,0.0603275
130,-0.026462999999999997,0.7286429999999999,0.010405999999999999,-0.195737,0.5143629999999999,0.0026660000000000017,-0.356717,0.723043,-0.064926,0.165853,0.539793,-0.014813999999999994,0.295833,0.762953,-0.093836,-0.405887,0.933503,-0.130116,0.334873,1.016803,-0.157436,-0.07631199999999999,-0.002234,0.0002710000000000004,0.07631199999999999,0.002234,-0.0002710000000000004,-0.10167799999999999,-0.494637,0.042651999999999995,0.13250299999999998,-0.5025270000000001,0.041271,-0.11929699999999999,-0.876137,0.072421,0.16639299999999999,-0.8738870000000001,0.060178
131,-0.026501,0.7286255,0.010132000000000002,-0.19574999999999998,0.5143055000000001,0.0025020000000000042,-0.35671,0.7232255000000001,-0.065313,0.16577,0.5396755000000001,-0.015029,0.29581999999999997,0.7629855,-0.094103,-0.40577,0.9336955,-0.13049299999999997,0.33479,1.0167955,-0.15758299999999997,-0.076315,-0.002241499999999997,0.00023200000000000304,0.076315,0.0022415000000000004,-0.0002319999999999961,-0.101666,-0.4946545,0.042548,0.13246,-0.5025645,0.041225000000000005,-0.11932000000000001,-0.8760045,0.072301,0.16637000000000002,-0.8736444999999999,0.060020000000000004
132,-0.026547000000000005,0.728711,0.009830500000000006,-0.19576700000000002,0.5142410000000001,0.002317500000000007,-0.356707,0.7233310000000001,-0.06560049999999999,0.16569299999999998,0.539551,-0.015256499999999992,0.295813,0.763061,-0.0944305,-0.405707,0.933831,-0.1308005,0.334683,1.016781,-0.15772049999999999,-0.07631399999999999,-0.002243000000000002,0.00019750000000000323,0.07631399999999999,0.002243000000000002,-0.0001974999999999963,-0.10166,-0.49465899999999996,0.04245050000000001,0.13244299999999998,-0.502679,0.04119450000000001,-0.11935699999999999,-0.875969,0.07218550000000001,0.166343,-0.873429,0.05987750000000001
133,-0.0265895,0.7287745,0.009524999999999999,-0.19579549999999998,0.5141545000000001,0.002119999999999997,-0.3567055,0.7234645000000001,-0.065884,0.1655945,0.5394345,-0.015498000000000005,0.2958045,0.7631345,-0.094754,-0.40562549999999997,0.9339945000000001,-0.131104,0.3345245,1.0170445000000001,-0.157934,-0.0763105,-0.002241499999999997,0.00015899999999999942,0.0763105,0.0022415000000000004,-0.00015899999999999942,-0.10165650000000001,-0.4947355,0.042365,0.1324245,-0.5028155,0.041146,-0.11939549999999999,-0.8757555,0.072032,0.16630450000000002,-0.8733854999999999,0.059723
134,-0.026636,0.7288604999999999,0.009229000000000001,-0.195826,0.5140804999999999,0.001912000000000004,-0.356686,0.7236104999999999,-0.066185,0.165494,0.5393304999999999,-0.015742,0.295804,0.7632705,-0.09506500000000001,-0.405246,0.9409504999999999,-0.13142500000000001,0.334334,1.0172105,-0.15815500000000002,-0.076308,-0.002239500000000002,0.0001239999999999991,0.076308,0.0022394999999999984,-0.0001239999999999991,-0.101654,-0.49481949999999997,0.042284,0.13242400000000001,-0.5029495,0.041125,-0.11945599999999999,-0.8756095,0.071881,0.166234,-0.8732895,0.059573
135,-0.026690000000000005,0.7289475,0.008903000000000001,-0.195859,0.5140175,0.0016439999999999996,-0.35664900000000005,0.7237675,-0.066524,0.165381,0.5392175,-0.016033999999999993,0.295811,0.7634075,-0.09546400000000001,-0.40487900000000004,0.9479175,-0.131764,0.334121,1.0175775,-0.158464,-0.07630300000000001,-0.002232500000000002,9.699999999999986e-05,0.07630300000000001,0.0022324999999999984,-9.699999999999986e-05,-0.101657,-0.4949225,0.042205000000000006,0.132461,-0.5030825,0.04109600000000001,-0.119509,-0.8755625,0.07172300000000001,0.166181,-0.8731825,0.059374
136,-0.026741000000000004,0.7290544999999999,0.008525999999999999,-0.19587700000000002,0.5139845,0.0013189999999999938,-0.356597,0.7239445,-0.066897,0.165273,0.5391144999999999,-0.016385999999999998,0.295823,0.7636045,-0.095917,-0.40448700000000004,0.9549044999999999,-0.132117,0.333903,1.0179645,-0.15884700000000002,-0.076295,-0.002234499999999997,4.399999999999543e-05,0.076295,0.0022345000000000004,-4.400000000000237e-05,-0.101662,-0.4950255,0.042155,0.132523,-0.5032755,0.04105199999999999,-0.119577,-0.8755455,0.071505,0.16612300000000002,-0.8731055,0.059167
137,-0.026799999999999997,0.729082,0.008125499999999994,-0.195904,0.513922,0.0009794999999999943,-0.356554,0.724012,-0.0672465,0.165186,0.539002,-0.016718499999999997,0.29582600000000003,0.7637919999999999,-0.0963865,-0.404134,0.961772,-0.1323765,0.33367600000000003,1.0184419999999998,-0.1592365,-0.07628299999999999,-0.0022600000000000016,-2.3500000000002685e-05,0.07628299999999999,0.002259999999999998,2.3499999999995747e-05,-0.10167999999999999,-0.495148,0.04212249999999999,0.13259600000000002,-0.503488,0.040966499999999996,-0.11962400000000001,-0.875568,0.07130349999999999,0.166056,-0.873028,0.05899549999999999
138,-0.026862499999999997,0.729126,0.007727000000000005,-0.1959285,0.513856,0.0006400000000000086,-0.3564885,0.724106,-0.067617,0.1650915,0.538896,-0.017054,0.29580150000000005,0.763966,-0.09686700000000001,-0.40379849999999995,0.9683160000000001,-0.132707,0.33341149999999997,1.018916,-0.159737,-0.0762805,-0.002294000000000001,-0.00012799999999999617,0.0762805,0.0022939999999999974,0.0001280000000000031,-0.1017225,-0.495244,0.04206800000000001,0.1326715,-0.503834,0.04086700000000001,-0.1197385,-0.875604,0.07105500000000001,0.1659615,-0.873004,0.05869200000000001
139,-0.0269375,0.7291475000000001,0.0073649999999999965,-0.19595049999999997,0.5137975,0.00026199999999999835,-0.3564305,0.7241975,-0.06798,0.16501949999999999,0.5387875,-0.017365000000000005,0.2957995,0.7641875,-0.0974,-0.4034605,0.9751875,-0.13296000000000002,0.3331595,1.0195874999999999,-0.16029,-0.0762795,-0.0023264999999999987,-0.00023000000000000104,0.0762795,0.002326500000000002,0.00023000000000000104,-0.1017685,-0.4953225,0.04202,0.1327395,-0.5041725,0.04076,-0.1198405,-0.8756525,0.070831,0.1658795,-0.8729724999999999,0.058449
140,-0.026988999999999996,0.7291584999999999,0.007012999999999998,-0.19596599999999997,0.5137484999999999,-9.40000000000038e-05,-0.35636599999999996,0.7242685,-0.06834000000000001,0.164954,0.5387084999999999,-0.017669999999999998,0.295794,0.7643685,-0.09789,-0.403086,0.9820585000000001,-0.13318,0.332934,1.0202585000000002,-0.16085,-0.07628,-0.0023564999999999975,-0.00033299999999999996,0.07628,0.0023565000000000044,0.00033299999999999996,-0.101807,-0.4954115,0.041994,0.13280400000000003,-0.5045215,0.040672,-0.119946,-0.8757815,0.070615,0.165804,-0.8730115,0.058191999999999994
141,-0.0269985,0.7290610000000001,0.0066345000000000015,-0.1959725,0.5137010000000001,-0.0004525000000000015,-0.3563025,0.7243310000000001,-0.0686965,0.1648975,0.538651,-0.0179685,0.2957675,0.764471,-0.09837649999999999,-0.4024425,0.989231,-0.13332650000000001,0.3327575,1.020831,-0.16142649999999997,-0.0762835,-0.0023839999999999972,-0.00043350000000000333,0.0762835,0.002384000000000004,0.0004334999999999964,-0.1018405,-0.49551900000000004,0.0419765,0.13285750000000002,-0.504919,0.0405855,-0.12003250000000001,-0.8759089999999999,0.0703795,0.1657775,-0.8730589999999999,0.057993499999999996
142,-0.0269905,0.7289734999999999,0.0062924999999999925,-0.19597050000000002,0.5136634999999999,-0.0007845000000000074,-0.3562205,0.7243735,-0.06901550000000001,0.1648895,0.5386434999999999,-0.018241500000000008,0.2957695,0.7645635,-0.0988355,-0.4021205,0.9940235000000001,-0.1333855,0.33263950000000003,1.0213235,-0.16195550000000003,-0.07629749999999999,-0.002415500000000001,-0.0005385000000000043,0.07629749999999999,0.002415500000000001,0.0005384999999999973,-0.10185549999999999,-0.4956165,0.04196849999999999,0.1329495,-0.5053065,0.04053849999999999,-0.1201005,-0.8760165,0.07018049999999999,0.1657595,-0.8730565,0.057817499999999994
143,-0.026978,0.728896,0.005949999999999997,-0.195955,0.5136259999999999,-0.0011040000000000008,-0.35616499999999995,0.724416,-0.069304,0.164895,0.5386259999999999,-0.018507000000000003,0.29576500000000006,0.7645959999999999,-0.099274,-0.40215500000000004,0.993916,-0.133644,0.33257499999999995,1.0217159999999998,-0.162464,-0.076312,-0.0024470000000000047,-0.0006460000000000007,0.076312,0.002446999999999998,0.0006460000000000007,-0.101868,-0.495704,0.041941,0.13303500000000001,-0.505684,0.040466999999999996,-0.120145,-0.876194,0.069978,0.165725,-0.873174,0.0576
144,-0.026965499999999996,0.728831,0.005643999999999996,-0.19593649999999999,0.513591,-0.0013730000000000062,-0.3561165,0.7244309999999999,-0.06954500000000001,0.16491350000000002,0.538611,-0.018737000000000004,0.2957635,0.764591,-0.09964500000000001,-0.4021865,0.9954009999999999,-0.133865,0.33253350000000004,1.0220010000000002,-0.162905,-0.0763285,-0.002471999999999995,-0.0007550000000000057,0.0763285,0.002472000000000002,0.0007549999999999987,-0.1018745,-0.49580899999999994,0.041901999999999995,0.13308350000000002,-0.506029,0.040423999999999995,-0.12017649999999999,-0.876389,0.069814,0.16566350000000002,-0.873389,0.057411
145,-0.026947999999999996,0.7287845000000001,0.005352499999999996,-0.19592500000000002,0.5135645,-0.001632500000000002,-0.356095,0.7244545,-0.0697895,0.164925,0.5385845,-0.018953499999999998,0.295765,0.7645745,-0.09997950000000001,-0.402225,0.9954045000000001,-0.13426949999999999,0.33249500000000004,1.0222045,-0.1633195,-0.07633999999999999,-0.0024804999999999966,-0.0007855000000000015,0.07633999999999999,0.0024805000000000035,0.0007855000000000015,-0.10188,-0.49589550000000004,0.0417865,0.133105,-0.5063055,0.0403605,-0.12021499999999999,-0.8765955,0.0696495,0.165595,-0.8735655,0.057249499999999995
146,-0.026924999999999998,0.7287905,0.0050855,-0.19592400000000001,0.5135805,-0.001848500000000003,-0.356064,0.7245205,-0.0699885,0.164946,0.5385905000000001,-0.019110500000000002,0.295756,0.7646005,-0.1002685,-0.401564,0.9981505,-0.13405850000000002,0.33246600000000004,1.0224505,-0.16369850000000002,-0.07634099999999999,-0.0024614999999999984,-0.0007544999999999982,0.07634099999999999,0.0024614999999999984,0.0007544999999999982,-0.101881,-0.49588950000000004,0.0417225,0.133136,-0.5065095,0.0403575,-0.12026400000000001,-0.8767195,0.0695295,0.165536,-0.8737094999999999,0.0571595
147,-0.026885,0.728783,0.004788000000000001,-0.195909,0.513603,-0.0020529999999999993,-0.356059,0.724553,-0.070137,0.164991,0.538583,-0.019260999999999993,0.295771,0.764653,-0.100547,-0.40165900000000004,0.998103,-0.134267,0.332451,1.022603,-0.163937,-0.07633100000000001,-0.0024370000000000017,-0.0007020000000000012,0.07633100000000001,0.0024370000000000017,0.0007020000000000012,-0.10186600000000001,-0.495877,0.041669,0.133141,-0.506707,0.040377,-0.120309,-0.8768469999999999,0.069411,0.165491,-0.8738570000000001,0.057073
148,-0.0268615,0.7288060000000001,0.004473999999999992,-0.19590549999999998,0.5136259999999999,-0.002243000000000009,-0.35605549999999997,0.7246060000000001,-0.070305,0.16502450000000002,0.5386059999999999,-0.019443000000000002,0.2957845,0.764686,-0.10079500000000001,-0.4017855,0.997976,-0.134465,0.33244450000000003,1.022676,-0.16414499999999999,-0.07632449999999999,-0.0024209999999999995,-0.0006620000000000029,0.07632449999999999,0.0024209999999999995,0.0006619999999999959,-0.10184950000000001,-0.495784,0.04160599999999999,0.1331245,-0.5068239999999999,0.040367999999999994,-0.1203255,-0.876944,0.069265,0.1654745,-0.8738840000000001,0.05694199999999999
149,-0.026877500000000002,0.7288414999999999,0.004138000000000003,-0.1959205,0.5136014999999999,-0.002472999999999996,-0.3560805,0.7246615,-0.070475,0.1650395,0.5386314999999999,-0.019621,0.2957795,0.7647115,-0.10104499999999998,-0.4020805,0.9978515,-0.134695,0.3324395,1.0227515,-0.16434500000000002,-0.0763235,-0.002405499999999998,-0.0006289999999999976,0.0763235,0.002405500000000005,0.0006290000000000046,-0.1018395,-0.4956885,0.04156000000000001,0.1330895,-0.5070785,0.04029300000000001,-0.1203505,-0.8770485,0.069123,0.1654495,-0.8739585000000001,0.056758
150,-0.026929,0.7288239999999999,0.003821000000000005,-0.19595,0.5135839999999999,-0.002703999999999998,-0.35611,0.724684,-0.07067699999999999,0.16502999999999998,0.5386639999999999,-0.019798999999999997,0.29573,0.764694,-0.101287,-0.40237,0.997834,-0.13493699999999997,0.33243,1.022734,-0.164487,-0.076324,-0.0023999999999999994,-0.0005889999999999992,0.076324,0.0023999999999999994,0.0005890000000000062,-0.10184499999999999,-0.49563599999999997,0.041428000000000006,0.13304,-0.507366,0.04018100000000001,-0.12040000000000001,-0.877136,0.068942,0.16541999999999998,-0.8740260000000001,0.056622000000000006
151,-0.026996499999999996,0.7289239999999999,0.003493999999999997,-0.19602450000000002,0.5135839999999999,-0.0029750000000000054,-0.3561645,0.724684,-0.07091599999999999,0.16501549999999998,0.5386639999999999,-0.019990000000000008,0.29566549999999997,0.764674,-0.10154600000000001,-0.4026645,0.997734,-0.13523600000000002,0.3324155,1.022734,-0.16465600000000002,-0.0763315,-0.0023999999999999994,-0.0005430000000000018,0.0763315,0.0023999999999999994,0.0005429999999999949,-0.1018645,-0.49563599999999997,0.041271999999999996,0.13293549999999998,-0.507506,0.040062,-0.12045449999999999,-0.8772460000000001,0.068754,0.1653555,-0.874156,0.056471999999999994
152,-0.027030000000000005,0.7289239999999999,0.0031274999999999983,-0.19602400000000003,0.513574,-0.0033515000000000003,-0.356184,0.724684,-0.07120449999999999,0.16498599999999997,0.5386639999999999,-0.020226499999999994,0.29563599999999995,0.764664,-0.10186450000000001,-0.40285400000000005,0.9946339999999999,-0.13601449999999998,0.332406,1.022734,-0.16485450000000001,-0.076377,-0.0023999999999999994,-0.0005114999999999981,0.076377,0.0023999999999999994,0.0005114999999999981,-0.101895,-0.49563599999999997,0.041070499999999996,0.13285599999999997,-0.507506,0.0398955,-0.12048400000000001,-0.8773460000000001,0.0685345,0.165306,-0.874326,0.0562665
153,-0.027068500000000002,0.7289275,0.0027275000000000008,-0.1960345,0.5135675,-0.0038205000000000044,-0.3562145,0.7246875,-0.07160350000000001,0.16495549999999998,0.5386675,-0.0205165,0.2955955,0.7646475,-0.10224350000000001,-0.4025645,0.9945375,-0.1362035,0.3323755,1.0226375,-0.1650935,-0.07642750000000001,-0.002396499999999996,-0.0004844999999999988,0.07642750000000001,0.002396500000000003,0.0004844999999999988,-0.1019255,-0.4956325,0.0408815,0.1327255,-0.5075025,0.0395175,-0.1205245,-0.8777625,0.0682065,0.1652455,-0.8745825,0.056077499999999995
154,-0.027161999999999995,0.7289545,0.0022020000000000026,-0.1961,0.5134345,-0.004577999999999999,-0.35625,0.7246645,-0.07220099999999999,0.16487000000000002,0.5386945,-0.020931000000000005,0.2955,0.7645245,-0.10275100000000001,-0.40265,0.9921645,-0.137031,0.3323,1.0223645,-0.165361,-0.07643900000000001,-0.0024145,-0.00046299999999999814,0.07643900000000001,0.0024145,0.00046299999999999814,-0.10200799999999999,-0.4954955,0.040223,0.13233,-0.5074655,0.0378,-0.12061,-0.8781755,0.067837,0.16514,-0.8748155,0.055851
155,-0.027329500000000003,0.7286760000000001,0.0008099999999999982,-0.1961895,0.512436,-0.006906000000000002,-0.35618950000000005,0.7242660000000001,-0.073942,0.1645605,0.538466,-0.022594000000000003,0.29528049999999995,0.763966,-0.10426200000000001,-0.40212950000000003,0.9859660000000001,-0.138332,0.33216049999999997,1.0220660000000001,-0.166242,-0.0764785,-0.002509000000000001,-0.00034,0.0764785,0.0025089999999999973,0.00034,-0.1023625,-0.494904,0.036247,0.13177049999999998,-0.507134,0.032493,-0.1208195,-0.878134,0.066717,0.1648605,-0.874844,0.055062
156,-0.027657500000000005,0.7282105,-0.001506500000000001,-0.1963685,0.5111005,-0.010166500000000002,-0.3560885,0.7237505,-0.07689950000000001,0.1638015,0.5367405,-0.026069499999999995,0.29496150000000004,0.7632005,-0.1067795,-0.4023785,0.9790005,-0.1408995,0.3318915,1.0224005,-0.1677595,-0.07662150000000001,-0.0025855000000000045,-0.00013049999999999867,0.07662150000000001,0.0025854999999999975,0.00013049999999999867,-0.1031125,-0.4936095,0.030317499999999997,0.13132149999999998,-0.5056795000000001,0.024943499999999997,-0.1211585,-0.8774195,0.0647625,0.16440149999999998,-0.8741095000000001,0.0535695
157,-0.028095,0.726779,-0.0046115000000000045,-0.196599,0.509719,-0.013883500000000007,-0.355969,0.722509,-0.0806825,0.16320099999999998,0.535329,-0.029822500000000002,0.294591,0.760539,-0.1100425,-0.40169900000000003,0.973499,-0.1438025,0.331351,1.0228989999999998,-0.16959249999999998,-0.076818,-0.0026699999999999988,8.44999999999943e-05,0.076818,0.0026699999999999988,-8.450000000000124e-05,-0.10486899999999999,-0.491971,0.021991499999999997,0.130851,-0.503851,0.015415499999999999,-0.12159899999999998,-0.876511,0.062286499999999995,0.16392099999999998,-0.873121,0.051607499999999994
158,-0.028711,0.7237395,-0.008994999999999996,-0.19694299999999998,0.5071794999999999,-0.019020999999999996,-0.35601299999999997,0.7213695,-0.08571599999999999,0.16236699999999998,0.5320395,-0.035656999999999994,0.29396700000000003,0.7581294999999999,-0.11482600000000001,-0.400733,0.9734695,-0.147536,0.33021700000000004,1.0246695000000001,-0.172256,-0.077066,-0.002836500000000002,0.00032300000000000384,0.077066,0.0028364999999999987,-0.0003229999999999969,-0.107403,-0.4887905,0.011803000000000001,0.13010699999999997,-0.5003005,0.003462,-0.12230300000000001,-0.8740105,0.058962,0.16323700000000002,-0.8706105,0.048713
159,-0.029572,0.7203245,-0.014346000000000005,-0.19738,0.5046245,-0.024818000000000007,-0.35623,0.7190045,-0.091936,0.16118,0.5289845,-0.04210800000000001,0.2931,0.7540145,-0.120686,-0.39991,0.9682345,-0.15160600000000002,0.32828,1.0252045,-0.175276,-0.077347,-0.0029975,0.0006559999999999969,0.077347,0.0029974999999999967,-0.0006560000000000038,-0.11061,-0.4843355,0.00028199999999999753,0.12914,-0.4957155,-0.010264000000000002,-0.1234,-0.8702555,0.055041999999999994,0.16243,-0.8669755,0.045297
160,-0.030508999999999994,0.7163395,-0.020711,-0.197832,0.5021095,-0.031619999999999995,-0.356272,0.7158495,-0.099415,0.160018,0.5253495,-0.04954499999999999,0.292198,0.7487295,-0.127745,-0.398832,0.9642295,-0.156895,0.325668,1.0247095,-0.179225,-0.077654,-0.0030945,0.0011019999999999988,0.077654,0.0030945,-0.0011019999999999988,-0.11436199999999999,-0.4782405,-0.012648,0.128498,-0.4896205,-0.025721999999999995,-0.124652,-0.8647905,0.050437,0.161488,-0.8621005,0.040916
161,-0.031582,0.7125055,-0.028426500000000007,-0.198328,0.4991855,-0.0396465,-0.356468,0.7135755,-0.10830350000000001,0.158602,0.5207355,-0.0586675,0.29115199999999997,0.7439455,-0.13648349999999998,-0.398088,0.9611955,-0.16455350000000002,0.322662,1.0220055000000001,-0.18660349999999998,-0.077906,-0.0031415,0.0017084999999999947,0.077906,0.0031415,-0.0017085000000000017,-0.11862800000000001,-0.46966450000000004,-0.027258500000000005,0.128002,-0.48098450000000004,-0.042911500000000005,-0.126128,-0.8570745,0.0444755,0.160352,-0.8549145,0.0353235
162,-0.032668,0.7078685,-0.03852099999999999,-0.198829,0.4953185,-0.04892799999999999,-0.356489,0.7096585,-0.11915199999999998,0.157021,0.5148385,-0.06970199999999999,0.289701,0.7368385,-0.147862,-0.395509,0.9594485,-0.175182,0.319051,1.0197385,-0.19547199999999998,-0.078076,-0.0031465,0.002432,0.078076,0.0031464999999999996,-0.0024319999999999967,-0.12409900000000001,-0.45792150000000004,-0.044295999999999995,0.127981,-0.4681015,-0.062492,-0.128389,-0.8455415000000001,0.03688,0.159161,-0.8442515,0.027903
163,-0.033673,0.7007869999999999,-0.049406500000000006,-0.19923000000000002,0.491087,-0.058396500000000004,-0.35653,0.705407,-0.1308365,0.15532,0.509187,-0.0812165,0.28813,0.729267,-0.1603265,-0.39251,0.9578669999999999,-0.1872365,0.31495999999999996,1.017097,-0.2056265,-0.07822,-0.0031819999999999973,0.0030775000000000004,0.07822,0.003182000000000001,-0.0030775000000000004,-0.13006,-0.445793,-0.0623355,0.12834,-0.45364299999999996,-0.0823065,-0.13069999999999998,-0.832543,0.0285235,0.15788000000000002,-0.831893,0.0198215
164,-0.0347345,0.6948000000000001,-0.060475,-0.19962349999999998,0.48744,-0.066764,-0.35629350000000004,0.69994,-0.142368,0.15358650000000001,0.50348,-0.092278,0.2867365,0.72092,-0.173178,-0.3896935,0.9511200000000001,-0.200068,0.3105365,1.01351,-0.215918,-0.0782525,-0.0029860000000000025,0.003613999999999999,0.0782525,0.0029859999999999956,-0.003613999999999999,-0.1367835,-0.43324,-0.078678,0.1293565,-0.43942000000000003,-0.099998,-0.1330735,-0.81723,0.020654,0.15655650000000002,-0.81694,0.011734
165,-0.035644999999999996,0.6880955000000001,-0.0726285,-0.19979999999999998,0.48366549999999997,-0.0761145,-0.35583000000000004,0.6951555,-0.15568949999999998,0.15177000000000002,0.4986555,-0.1035095,0.28541,0.7126655000000001,-0.18759949999999997,-0.3865,0.9512855,-0.2141595,0.30587,1.0080355,-0.2298695,-0.078194,-0.0028964999999999963,0.003942499999999998,0.078194,0.0028965000000000032,-0.0039425000000000016,-0.14454,-0.4159745,-0.0976895,0.13158000000000003,-0.4204345,-0.11965949999999999,-0.13551999999999997,-0.7963545,0.0122875,0.1552,-0.7961944999999999,0.0026715000000000003
166,-0.036697499999999994,0.6816695,-0.086729,-0.2001325,0.4797195,-0.087979,-0.3555125,0.6908395,-0.171409,0.14986750000000001,0.4928095,-0.11759899999999998,0.2839475,0.7058995,-0.204519,-0.3833525,0.9507795,-0.231459,0.3012175,0.9982695,-0.24708899999999998,-0.07793749999999999,-0.0029035000000000033,0.0046429999999999996,0.07793749999999999,0.0029035000000000033,-0.004643000000000001,-0.1517125,-0.3979505,-0.117789,0.1339475,-0.4012905,-0.140569,-0.1380825,-0.7744705,0.0012080000000000007,0.1537975,-0.7743605,-0.009189
167,-0.03833,0.6797150000000001,-0.10341499999999999,-0.200072,0.47655499999999995,-0.103105,-0.355022,0.6861550000000001,-0.189685,0.146848,0.48885500000000004,-0.133475,0.282038,0.698675,-0.223905,-0.379952,0.948585,-0.25267500000000004,0.296408,0.986095,-0.267515,-0.077745,-0.0029950000000000115,0.00501,0.077745,0.0029949999999999977,-0.0050100000000000006,-0.160632,-0.376765,-0.146285,0.136478,-0.37887499999999996,-0.170035,-0.141102,-0.749335,-0.013382999999999999,0.152218,-0.749175,-0.024647
168,-0.040053500000000006,0.67636,-0.11983550000000001,-0.19995949999999998,0.47336,-0.1177155,-0.3545895,0.6821,-0.20725549999999998,0.1441705,0.48466,-0.1488855,0.2802205,0.69328,-0.24250549999999998,-0.3764495,0.94547,-0.2738555,0.2921305,0.9756199999999999,-0.2879355,-0.07764950000000001,-0.0031300000000000217,0.0052595,0.07764950000000001,0.003129999999999994,-0.0052595,-0.1691795,-0.35642,-0.17400549999999998,0.1388205,-0.35786000000000007,-0.1979755,-0.1440895,-0.72457,-0.0276825,0.1507905,-0.72451,-0.0397485
169,-0.041926,0.674945,-0.1363495,-0.199867,0.47064500000000004,-0.1325895,-0.354527,0.680275,-0.2253595,0.14103300000000002,0.48002500000000003,-0.1646095,0.27864300000000003,0.689945,-0.2619695,-0.372837,0.944375,-0.2958695,0.287943,0.969935,-0.3089695,-0.077522,-0.00301499999999999,0.0053565,0.077522,0.0030150000000000177,-0.005356499999999999,-0.17784699999999998,-0.33347499999999997,-0.2027295,0.141543,-0.33425499999999997,-0.2268895,-0.147227,-0.697065,-0.0423535,0.14944300000000002,-0.696655,-0.05497149999999999
170,-0.043755,0.669755,-0.1517775,-0.199705,0.468005,-0.1466675,-0.35440499999999997,0.676365,-0.2433675,0.138045,0.476295,-0.1790475,0.27682500000000004,0.686125,-0.2803975,-0.369135,0.941485,-0.3171075,0.283455,0.965955,-0.3276575,-0.077036,-0.003175000000000011,0.0054494999999999995,0.077036,0.003175000000000011,-0.0054494999999999995,-0.186145,-0.31211500000000003,-0.2301375,0.144285,-0.31167500000000004,-0.2543375,-0.15021500000000002,-0.670605,-0.055738499999999996,0.148605,-0.669825,-0.0694795
171,-0.045663499999999996,0.667535,-0.1658805,-0.2000325,0.464905,-0.1602605,-0.35469249999999997,0.674275,-0.2600705,0.1347775,0.473775,-0.1920105,0.2748775,0.684195,-0.2969605,-0.3666425,0.938285,-0.3365305,0.2790075,0.962075,-0.3454205,-0.0768075,-0.003365000000000007,0.005428500000000003,0.0768075,0.003365000000000007,-0.005428499999999999,-0.1940225,-0.291405,-0.2560705,0.1468775,-0.290975,-0.28032050000000003,-0.1527325,-0.6453749999999999,-0.0675475,0.1476675,-0.6439349999999999,-0.0822565
172,-0.047573500000000005,0.667255,-0.1794455,-0.2005365,0.46271500000000004,-0.1734055,-0.35517649999999995,0.672235,-0.2763355,0.1313135,0.47093500000000005,-0.2046655,0.2726235,0.683635,-0.3127555,-0.3647565,0.9347650000000001,-0.3555455,0.2747135,0.9571350000000001,-0.3622355,-0.0765835,-0.0036049999999999693,0.005407500000000003,0.0765835,0.003605000000000025,-0.005407499999999996,-0.2022565,-0.26863499999999996,-0.2813155,0.1499335,-0.268775,-0.3057455,-0.1552565,-0.6189049999999999,-0.0787025,0.1467435,-0.616935,-0.0943335
173,-0.049425000000000004,0.66655,-0.192379,-0.20111099999999998,0.46125,-0.186639,-0.355991,0.67125,-0.292409,0.127889,0.46926,-0.21665900000000002,0.270219,0.68394,-0.327389,-0.363391,0.93144,-0.374259,0.27001899999999995,0.95294,-0.378599,-0.07635900000000001,-0.0037900000000000156,0.005395999999999998,0.07635900000000001,0.0037900000000000156,-0.005395999999999998,-0.210081,-0.24402000000000001,-0.305769,0.153029,-0.24451,-0.330689,-0.157681,-0.59253,-0.089827,0.145839,-0.58999,-0.10603699999999999
174,-0.051458000000000004,0.665825,-0.2034065,-0.201542,0.460225,-0.1978765,-0.35731199999999996,0.669065,-0.3059465,0.12466799999999999,0.467515,-0.2265565,0.267998,0.683855,-0.3399665,-0.362772,0.929365,-0.3908565,0.265438,0.949485,-0.39105650000000003,-0.076058,-0.003975000000000006,0.005306499999999999,0.076058,0.003975000000000006,-0.005306500000000006,-0.217532,-0.22097500000000003,-0.3261565,0.155928,-0.221955,-0.3523865,-0.160022,-0.567685,-0.0995015,0.14490799999999998,-0.564875,-0.11601550000000001
175,-0.0536545,0.66631,-0.2118765,-0.20192249999999998,0.45916,-0.20628649999999998,-0.35863249999999997,0.66749,-0.3168765,0.12148749999999998,0.46693,-0.2330465,0.2658575,0.68424,-0.3496765,-0.3625025,0.92869,-0.4046865,0.2610075,0.95143,-0.40016650000000004,-0.0758475,-0.0041300000000000225,0.004998499999999996,0.0758475,0.0041300000000000225,-0.004998499999999996,-0.22496249999999998,-0.19709,-0.34377650000000004,0.1592575,-0.19887999999999995,-0.37135650000000003,-0.1625125,-0.54155,-0.1063655,0.14415750000000002,-0.5387,-0.12291350000000001
