sb224sc-HT22-VT27/4dt907/src/data/kinect_good_preprocessed_not_cut_A11_mediapipe/A16_kinect_mirrored.csv
FrameNo,nose_3d_x,nose_3d_y,nose_3d_z,left_shoulder_3d_x,left_shoulder_3d_y,left_shoulder_3d_z,left_elbow_3d_x,left_elbow_3d_y,left_elbow_3d_z,right_shoulder_3d_x,right_shoulder_3d_y,right_shoulder_3d_z,right_elbow_3d_x,right_elbow_3d_y,right_elbow_3d_z,left_wrist_3d_x,left_wrist_3d_y,left_wrist_3d_z,right_wrist_3d_x,right_wrist_3d_y,right_wrist_3d_z,left_hip_3d_x,left_hip_3d_y,left_hip_3d_z,right_hip_3d_x,right_hip_3d_y,right_hip_3d_z,left_knee_3d_x,left_knee_3d_y,left_knee_3d_z,right_knee_3d_x,right_knee_3d_y,right_knee_3d_z,left_ankle_3d_x,left_ankle_3d_y,left_ankle_3d_z,right_ankle_3d_x,right_ankle_3d_y,right_ankle_3d_z
0,0.986764,0.7641990000000001,0.069222,0.835186,0.478429,0.063332,0.812276,0.242949,0.03451,1.152626,0.476179,0.056691,1.176216,0.2410489999999999,0.0555849999999999,0.811936,0.023772,-0.055291,1.200836,0.049414,-0.015261,0.92667,-0.00348,-0.000529,1.07333,0.00348,0.000529,0.8823360000000001,-0.403761,0.0071329999999999,1.124926,-0.354601,-0.008841,0.879566,-0.7066809999999999,-0.01869,1.1318359999999998,-0.657731,-0.0101559999999999
1,0.9842875,0.7654660000000001,0.07236,0.8343155,0.479386,0.0555579999999999,0.7664555,0.300506,-0.01783,1.1483855,0.4784259999999999,0.060003,1.2122755,0.288916,-0.0056819999999999,0.7535355000000001,0.1586959999999999,-0.12606,1.2450355,0.1523959999999999,-0.11608,0.9265135,-0.003366,-0.0010609999999999,1.0734865,0.003366,0.0010609999999999,0.8830155,-0.394024,0.0091179999999999,1.1249955,-0.351954,-0.0058899999999999,0.8803955,-0.6970139999999999,-0.016328,1.1296154999999999,-0.6550739999999999,-0.005582
2,0.9842685,0.765346,0.0730145,0.8352865,0.480146,0.0569525,0.7657865,0.306446,-0.0219154999999999,1.1474165,0.479956,0.0599745,1.2152765,0.297386,-0.0119134999999999,0.7457665,0.177316,-0.1703385,1.2526964999999999,0.1781559999999999,-0.1590784999999999,0.9263555,-0.003283,-0.0012814999999999,1.0736445,0.003283,0.0012815,0.8833365,-0.393654,0.0092145,1.1254465,-0.351134,-0.0055124999999999,0.8800065,-0.696654,-0.0162344999999999,1.1295565,-0.654284,-0.0055264999999999
3,0.9841335,0.764772,0.073637,0.8359925,0.480602,0.0579379999999999,0.7621025,0.3386019999999999,-0.02908,1.1449025,0.4823619999999999,0.059711,1.2251925,0.332682,-0.026534,0.7368025,0.222482,-0.175252,1.2631625,0.220662,-0.161702,0.9262325,-0.003363,-0.001327,1.0737675,0.003363,0.0013269999999999,0.8837425,-0.393308,0.0093989999999999,1.1260225,-0.349118,-0.004951,0.8795025,-0.696308,-0.015713,1.1299525,-0.652238,-0.004031
4,0.9844265000000001,0.764018,0.075408,0.8370615,0.481138,0.0586799999999999,0.7567815,0.349638,-0.0445669999999999,1.1436515,0.483548,0.05902,1.2314015,0.353518,-0.038249,0.7140715,0.272288,-0.201948,1.2785315,0.266698,-0.188718,0.9260645,-0.0032259999999999,-0.001562,1.0739355,0.003226,0.001562,0.8843715,-0.392542,0.0095249999999999,1.1261615,-0.3485419999999999,-0.0043349999999999,0.8817415,-0.695732,-0.009938,1.1297515,-0.6516620000000001,-0.0031699999999999
5,0.988215,0.7613305,0.076122,0.846261,0.4885704999999999,0.047566,0.726291,0.4510805,-0.085927,1.141551,0.4863805,0.054104,1.264321,0.4692404999999999,-0.079217,0.6886209999999999,0.4389504999999999,-0.311127,1.322031,0.4501205,-0.264137,0.925323,-0.0028795,-0.004289,1.0746769999999999,0.0028795,0.004289,0.884571,-0.3958695,0.008775,1.124561,-0.3462195,-0.0053959999999999,0.878201,-0.6988395,-0.016118,1.125881,-0.6492395,-0.0013689999999999
6,0.988773,0.760207,0.076521,0.8477100000000001,0.493037,0.045349,0.7188,0.5118069999999999,-0.104753,1.14142,0.488987,0.052343,1.2830499999999998,0.527427,-0.112243,0.68808,0.559067,-0.337633,1.33677,0.5715669999999999,-0.319763,0.92525,-0.002457,-0.004341,1.07475,0.002457,0.0043409999999999,0.8857200000000001,-0.394673,0.0088559999999999,1.1244,-0.3459129999999999,-0.005816,0.8780600000000001,-0.697643,-0.015571,1.12549,-0.6489130000000001,-0.001231
7,0.9881735,0.7557285,0.0736215,0.8443655,0.4929185,0.0477635,0.7382055000000001,0.5231385,-0.0650735,1.1474355,0.4932585,0.0512685,1.2591155,0.5363085,-0.0565194999999999,0.7163955,0.5847985,-0.2194535,1.2974055,0.5950084999999999,-0.2021835,0.9258785,-0.0024955,-0.0018255,1.0741215,0.0024954999999999,0.0018255,0.8843955,-0.4001814999999999,0.0091935,1.1237155,-0.3540815,-0.0055084999999999,0.8784355000000001,-0.7032315,-0.0138135,1.1256055,-0.6570715,-0.0012374999999999
8,0.9888255000000001,0.7532375,0.073604,0.8453505,0.4949975,0.046837,0.7370505,0.5610275,-0.065883,1.1476505,0.4966975,0.050325,1.2628504999999999,0.5765475,-0.0566649999999999,0.7150605,0.6570475,-0.2194229999999999,1.3001205,0.6689675,-0.202253,0.9259925,-0.0023604999999999,-0.0017809999999999,1.0740075,0.0023604999999999,0.001781,0.8842105,-0.4026324999999999,0.009626,1.1232805,-0.3565625,-0.0052129999999999,0.8780405,-0.7057025,-0.0130889999999999,1.1247405,-0.6595424999999999,-0.0002689999999999
9,0.989645,0.750635,0.0734015,0.846321,0.497195,0.0458135,0.736631,0.598515,-0.0660535,1.148221,0.5001450000000001,0.0493065,1.265561,0.6149950000000001,-0.0569154999999999,0.7146410000000001,0.724805,-0.2195935,1.300711,0.7393850000000001,-0.2024435,0.926096,-0.002236,-0.0016154999999999,1.073904,0.002236,0.0016154999999999,0.883981,-0.405495,0.0098465,1.122801,-0.359645,-0.0052024999999999,0.877521,-0.708585,-0.0128165,1.1238409999999999,-0.6625949999999999,0.0004185
10,0.990063,0.748267,0.073225,0.8462810000000001,0.498747,0.045346,0.736221,0.625357,-0.066139,1.148841,0.503237,0.048664,1.265151,0.640887,-0.0570009999999999,0.7142809999999999,0.775377,-0.217969,1.300581,0.789727,-0.200879,0.926249,-0.002155,-0.001523,1.073751,0.002155,0.0015229999999999,0.8837510000000001,-0.408403,0.009897,1.122311,-0.363123,-0.0052859999999999,0.877041,-0.711473,-0.012739,1.123301,-0.666063,0.0006829999999999
11,0.99036,0.746076,0.0728505,0.846062,0.499946,0.0450795,0.735762,0.646196,-0.0661715,1.149582,0.506136,0.0482335,1.264692,0.660736,-0.0570334999999999,0.713912,0.813586,-0.2145014999999999,1.300212,0.8273860000000001,-0.1974614999999999,0.926432,-0.0021499999999999,-0.0014834999999999,1.073568,0.00215,0.0014834999999999,0.883372,-0.411474,0.0099215,1.121752,-0.3667439999999999,-0.0053155,0.876612,-0.714564,-0.0126744999999999,1.122712,-0.669684,0.0009484999999999
12,0.9905425,0.744064,0.0721665,0.8458615,0.500854,0.0448655,0.7354015,0.6650539999999999,-0.0641185,1.1503215,0.5092439999999999,0.0480295,1.2642414999999998,0.6793239999999999,-0.0546645,0.7157115000000001,0.8470639999999999,-0.2046185,1.2999414999999999,0.859904,-0.1881185,0.9266345,-0.002189,-0.0014884999999999,1.0733655,0.002189,0.0014884999999999,0.8829215,-0.4144759999999999,0.0099325,1.1211715,-0.370286,-0.0053005,0.8761015,-0.7175860000000001,-0.0125665,1.1220715,-0.673216,0.0012254999999999
13,0.9905795,0.742023,0.071279,0.8457005,0.501053,0.04497,0.7389205,0.678503,-0.056863,1.1506805,0.511543,0.048349,1.2622605,0.691283,-0.046937,0.7194705,0.870593,-0.182021,1.2961105,0.882513,-0.169281,0.9268755,-0.002259,-0.00116,1.0731245,0.0022589999999999,0.00116,0.8824805,-0.417537,0.010279,1.1206505,-0.373537,-0.0050639999999999,0.8758005000000001,-0.720647,-0.0120709999999999,1.1214505,-0.6764370000000001,0.001784
14,0.9906230000000001,0.7404689999999999,0.070293,0.845689,0.500779,0.0451159999999999,0.743599,0.687839,-0.047364,1.150739,0.513679,0.048699,1.2586789999999999,0.699719,-0.037958,0.722449,0.886319,-0.161752,1.292699,0.897929,-0.1493419999999999,0.927051,-0.002342,-0.000796,1.072949,0.0023419999999999,0.0007959999999999,0.882139,-0.420051,0.0106559999999999,1.120249,-0.376051,-0.004769,0.8754790000000001,-0.723171,-0.011694,1.120999,-0.6789310000000001,0.0023679999999999
15,0.9905465,0.7392435,0.0693159999999999,0.8456805000000001,0.5008635,0.045203,0.7475505,0.6934335,-0.039376,1.1503805,0.5148635,0.04902,1.2558905,0.7052335000000001,-0.030609,0.7247205,0.8966435,-0.144295,1.2903105,0.9078335,-0.1332249999999999,0.9271975,-0.0024234999999999,-0.000578,1.0728025,0.0024235,0.000578,0.8817505,-0.4217665,0.010955,1.1198505,-0.3780065,-0.0045509999999999,0.8750705,-0.7248964999999999,-0.01117,1.1205505,-0.6808664999999999,0.002888
16,0.9904775000000001,0.738173,0.0684444999999999,0.8457195,0.500943,0.0452754999999999,0.7513894999999999,0.698163,-0.0318395,1.1500195,0.515663,0.0495305,1.2531295,0.709783,-0.0237205,0.7264295000000001,0.905253,-0.1280005,1.2883195,0.916113,-0.1178505,0.9273285,-0.00247,-0.0004745,1.0726715,0.00247,0.0004744999999999,0.8813695,-0.423207,0.0112754999999999,1.1194795,-0.379737,-0.0042435,0.8746395000000001,-0.726347,-0.0106425,1.1200995,-0.682577,0.0034094999999999
17,0.9904625,0.737457,0.0678265,0.8458705,0.501087,0.0453235,0.7545405000000001,0.701127,-0.0257835,1.1497205,0.516187,0.0499385,1.2506205000000001,0.712517,-0.0184685,0.7277105000000001,0.911117,-0.1140325,1.2870005,0.921547,-0.1050825,0.9273825,-0.0025239999999999,-0.0005075,1.0726175,0.0025239999999999,0.0005075,0.8810905,-0.424253,0.0116825,1.1192004999999998,-0.380833,-0.0038364999999999,0.8742805000000001,-0.727383,-0.0101385,1.1198104999999998,-0.683643,0.0039545
18,0.9903475,0.736811,0.067454,0.8461015000000001,0.501071,0.045361,0.7571115000000002,0.703531,-0.0204029999999999,1.1494315,0.5164810000000001,0.050283,1.2481915,0.7146910000000001,-0.013394,0.7286615000000001,0.916291,-0.100488,1.2865215,0.925411,-0.094028,0.9274315,-0.002574,-0.0005879999999999,1.0725685,0.002574,0.0005879999999999,0.8808015000000001,-0.424909,0.0120369999999999,1.1189215,-0.381389,-0.003491,0.8739115,-0.728049,-0.009631,1.1195215,-0.6841689999999999,0.0042989999999999
19,0.9903005,0.7362029999999999,0.0670979999999999,0.8463305,0.500883,0.0453859999999999,0.7593805,0.705353,-0.015546,1.1491605,0.5169929999999999,0.050588,1.2459205,0.716583,-0.0088309999999999,0.7292305,0.920153,-0.088513,1.2861605,0.929003,-0.083293,0.9274655,-0.0026219999999999,-0.000669,1.0725345,0.0026219999999999,0.0006689999999999,0.8805305,-0.425407,0.01236,1.1186505,-0.381817,-0.003165,0.8735305,-0.728557,-0.009239,1.1192505,-0.684577,0.0046999999999999
20,0.9902845000000001,0.735347,0.0664445,0.8465475,0.500237,0.0450715,0.7608475,0.706207,-0.0112834999999999,1.1486675,0.516957,0.0508505,1.2437575,0.718077,-0.0049104999999999,0.7296875,0.922867,-0.0773985,1.2860075,0.931767,-0.0740485,0.9274665,-0.0026569999999999,-0.0007934999999999,1.0725335,0.0026569999999999,0.0007935,0.8803175,-0.425793,0.0127385,1.1184675,-0.382173,-0.0027564999999999,0.8732875,-0.728953,-0.0087674999999999,1.1190875,-0.684953,0.0051595
21,0.990351,0.7346659999999999,0.065775,0.846793,0.4998559999999999,0.044711,0.7620830000000001,0.7066859999999999,-0.0082689999999999,1.148113,0.516546,0.05104,1.241903,0.7188559999999999,-0.002227,0.729843,0.924206,-0.069967,1.285993,0.933076,-0.067747,0.927455,-0.002674,-0.0009419999999999,1.072545,0.002674,0.0009419999999999,0.880243,-0.425954,0.0129519999999999,1.1184429999999999,-0.3823339999999999,-0.0024949999999999,0.873183,-0.729124,-0.008598,1.119113,-0.685134,0.005363
22,0.990513,0.734318,0.0651005,0.847018,0.4996279999999999,0.0442525,0.762888,0.707018,-0.0058555,1.1476579999999998,0.516208,0.0510825,1.241088,0.719028,-0.0004674999999999,0.729958,0.925378,-0.0635165,1.286008,0.933928,-0.0626465,0.9274350000000001,-0.00268,-0.0009894999999999,1.072565,0.00268,0.0009895,0.880218,-0.425772,0.0130555,1.1184479999999999,-0.382312,-0.0023214999999999,0.8731679999999999,-0.728952,-0.0082845,1.119208,-0.685142,0.0054075
23,0.9907035,0.7340705000000001,0.0643885,0.8472105,0.4994905,0.0437755,0.7634805,0.7072405,-0.0038034999999999,1.1473205,0.5159205,0.0510495,1.2402905,0.7191305,0.0013045,0.7300105,0.9263105,-0.0584095,1.2860405,0.9344805,-0.0581104999999999,0.9274065,-0.0026964999999999,-0.0009884999999999,1.0725935,0.0026964999999999,0.0009885,0.8802004999999999,-0.4255494999999999,0.0131175,1.1184805,-0.3821894999999999,-0.0021214999999999,0.8732005,-0.7287494999999999,-0.0081734999999999,1.1193305,-0.6850395,0.0054045
24,0.991081,0.7339205,0.0635585,0.847478,0.4993305,0.0433305,0.763918,0.7074705,-0.0021994999999999,1.147118,0.5156504999999999,0.0508955,1.239498,0.7191605,0.0031165,0.729978,0.9270505,-0.0547265,1.2862179999999999,0.9346705,-0.0546305,0.927384,-0.0026965,-0.0009874999999999,1.072616,0.0026964999999999,0.0009875,0.880218,-0.4254894999999999,0.0131935,1.118558,-0.3820294999999999,-0.0018984999999999,0.873318,-0.7286795,-0.0081614999999999,1.119498,-0.6849095000000001,0.0052995
25,0.991488,0.7336465,0.062721,0.847741,0.4993364999999999,0.042881,0.7641709999999999,0.7078465,-0.0013639999999999,1.146971,0.5154465,0.050822,1.2389809999999999,0.7192065,0.004301,0.729771,0.9278065,-0.052649,1.286271,0.9349665,-0.052783,0.927377,-0.0026955,-0.0010289999999999,1.072623,0.0026954999999999,0.001029,0.880211,-0.4255735,0.013247,1.118561,-0.3822535,-0.0016179999999999,0.873371,-0.7287635,-0.0081129999999999,1.1196609999999998,-0.6851835000000001,0.005173
26,0.9918830000000001,0.7334965,0.062395,0.848058,0.4995564999999999,0.042772,0.7642580000000001,0.7083665,-0.000952,1.146858,0.5153165,0.050725,1.238568,0.7192065,0.005107,0.7294080000000001,0.9278765,-0.0527399999999999,1.286388,0.9349665,-0.052387,0.9273750000000001,-0.0026955,-0.0011089999999999,1.072625,0.0026954999999999,0.0011089999999999,0.880208,-0.4255735,0.013129,1.118558,-0.3822535,-0.001591,0.873348,-0.7287635,-0.0082129999999999,1.1196679999999999,-0.6851835000000001,0.004965
27,0.9923215000000001,0.7333565,0.0617604999999999,0.8483335000000001,0.4999765,0.0423135,0.7643735,0.7085865,-0.0010174999999999,1.1467835,0.5149665,0.0502745,1.2382635,0.7192065,0.0051355,0.7290835,0.9278865,-0.0531835,1.2864735,0.9349665,-0.0528405,0.9273295,-0.0026955,-0.0010814999999999,1.0726705,0.0026954999999999,0.0010814999999999,0.8802435,-0.4255735,0.0126765,1.1185935,-0.3822535,-0.0019705,0.8732735,-0.7287635,-0.0087665,1.1197335,-0.6851835000000001,0.0043295
28,0.9927945000000001,0.7332165,0.060309,0.8487575,0.5003665,0.041009,0.7644575,0.7087865,-0.002082,1.1466275,0.5147765,0.048986,1.2380175,0.7192065,0.0039889999999999,0.7288574999999999,0.9278865,-0.0544709999999999,1.2864975,0.9349665,-0.054135,0.9272495000000001,-0.0026955,-0.0011469999999999,1.0727505,0.0026954999999999,0.001147,0.8802875,-0.4256335,0.011382,1.1186075,-0.3822535,-0.0032639999999999,0.8732075,-0.7288235,-0.0103539999999999,1.1197975,-0.6851835000000001,0.002834
29,0.9934625,0.7330415,0.058061,0.8493975,0.5008414999999999,0.039151,0.7646375,0.7091615,-0.004165,1.1467075,0.5146615,0.047239,1.2380575,0.7192715,0.00191,0.7281175,0.9281715,-0.056816,1.2867275,0.9348015,-0.056218,0.9271024999999999,-0.0027024999999999,-0.0011419999999999,1.0728975,0.0027025,0.001142,0.8803475000000001,-0.4261184999999999,0.009303,1.1186675,-0.3830785,-0.005344,0.8733675000000001,-0.7293085,-0.0124359999999999,1.1200074999999998,-0.6860385,0.000236
30,0.9941925,0.7329695,0.0553414999999999,0.8500855,0.5013595000000001,0.0369155,0.7649155,0.7095595,-0.0066825,1.1468455,0.5149795,0.0450755,1.2381855,0.7195695,-0.0006035,0.7273655,0.9280995,-0.0605315,1.2871055,0.9345495,-0.0591575,0.9269625,-0.0026974999999999,-0.0011765,1.0730375,0.0026974999999999,0.0011764999999999,0.8804355,-0.4265905,0.0067904999999999,1.1187655,-0.3839305,-0.0078565,0.8736355,-0.7297804999999999,-0.0152265,1.1202854999999998,-0.6869405,-0.0029625
31,0.994996,0.732916,0.0522205,0.850903,0.5017959999999999,0.0343155,0.765263,0.709876,-0.0096785,1.1471230000000001,0.5155259999999999,0.0425215,1.238563,0.719816,-0.0035745,0.7267430000000001,0.928046,-0.0654245,1.287563,0.934206,-0.0633455,0.926807,-0.002678,-0.0012394999999999,1.073193,0.002678,0.0012395,0.880563,-0.427454,0.0038265,1.118903,-0.3847939999999999,-0.0107864999999999,0.873973,-0.730624,-0.0185125,1.120683,-0.687844,-0.0065375
32,0.9959180000000001,0.7327825,0.0488985,0.851672,0.5027425,0.0317035,0.765712,0.7105325,-0.0131534999999999,1.147542,0.5154825,0.0398914999999999,1.239042,0.7197325,-0.0068925,0.726202,0.9280325,-0.0713485,1.288002,0.9338125,-0.0682795,0.926668,-0.0026655,-0.0013004999999999,1.073332,0.0026655,0.0013004999999999,0.880682,-0.4282575,0.0003594999999999,1.1190120000000001,-0.3856675,-0.0142554999999999,0.874322,-0.7314075,-0.0223375,1.121002,-0.6887375,-0.0104865
33,0.9967435,0.7326509999999999,0.045142,0.8522815000000001,0.503451,0.028823,0.7661915000000001,0.711021,-0.017089,1.1480214999999998,0.515481,0.037194,1.2395215,0.719611,-0.010805,0.7257515,0.927881,-0.077729,1.2884215,0.933321,-0.074307,0.9265175,-0.002659,-0.001298,1.0734825,0.002659,0.001298,0.8808015,-0.427999,-0.003502,1.1190715,-0.386739,-0.018014,0.8746815,-0.731149,-0.026448,1.1213415,-0.689829,-0.01469
34,0.9976415,0.7325524999999999,0.040353,0.8529055,0.5043225,0.024988,0.7666055,0.7116925000000001,-0.022386,1.1485155,0.5154924999999999,0.033481,1.2400855,0.7195225000000001,-0.016002,0.7253255000000001,0.9277425,-0.085776,1.2888855000000001,0.9328525,-0.081916,0.9263675000000001,-0.0026335,-0.0012959999999999,1.0736325,0.0026334999999999,0.0012959999999999,0.8809655000000001,-0.4276475,-0.008354,1.1191655,-0.3877875,-0.0227409999999999,0.8751055000000001,-0.7308075,-0.031446,1.1217454999999998,-0.6909075,-0.020154
35,0.998621,0.7326005,0.034404,0.853472,0.5050305,0.020048,0.766972,0.7119205000000001,-0.02932,1.148982,0.5156505,0.028678,1.240682,0.7194105000000001,-0.022677,0.724772,0.9270405,-0.095466,1.289282,0.9320305,-0.091676,0.926205,-0.0025845,-0.001379,1.073795,0.0025844999999999,0.001379,0.881082,-0.4269294999999999,-0.014496,1.119312,-0.3888095,-0.028582,0.875492,-0.7300895,-0.037677,1.122232,-0.6919595,-0.026774
36,0.9995285,0.7324895,0.0280419999999999,0.8539585000000001,0.5054895,0.014588,0.7672185,0.7118695,-0.037015,1.1493585,0.5159195,0.023397,1.2411085,0.7192795000000001,-0.03016,0.7241085,0.9261695,-0.105585,1.2894785,0.9311195,-0.102185,0.9260785,-0.0025874999999999,-0.001518,1.0739215,0.0025874999999999,0.001518,0.8810485000000001,-0.4260604999999999,-0.02147,1.1194985,-0.3896905,-0.0350689999999999,0.8757185000000001,-0.7292105,-0.0444279999999999,1.1226785,-0.6928605,-0.033835
37,1.0003555,0.7322485,0.021263,0.8544055,0.5059285,0.008725,0.7666655,0.7113585,-0.045589,1.1497255,0.5161985,0.017814,1.2414055,0.7190785,-0.038333,0.7235055,0.9248985,-0.116296,1.2895055,0.9300185,-0.113326,0.9259625,-0.0026075,-0.001461,1.0740375,0.0026074999999999,0.001461,0.8809755,-0.4244715,-0.028699,1.1197655,-0.3895215,-0.0418599999999999,0.8758855,-0.7276315,-0.05153,1.1229655,-0.6927215,-0.0412569999999999
38,1.001011,0.7316545,0.0134274999999999,0.854648,0.5053245000000001,0.0014955,0.765858,0.7100945000000001,-0.0550584999999999,1.149958,0.5158145000000001,0.0110955,1.2415180000000001,0.7184345,-0.0478144999999999,0.722998,0.9222345,-0.1295535,1.289328,0.9287045,-0.1262635,0.925916,-0.0025664999999999,-0.0014124999999999,1.074084,0.0025664999999999,0.0014125,0.8807780000000001,-0.4232255,-0.0366535,1.119988,-0.3886954999999999,-0.0493065,0.875878,-0.7263955,-0.0594745,1.123118,-0.6919155,-0.0492365
39,1.0017425,0.7302584999999999,0.004291,0.8548915,0.5049184999999999,-0.006706,0.7648915000000001,0.7085585,-0.0663499999999999,1.1500715,0.5153485,0.0034889999999999,1.2416814999999999,0.7172084999999999,-0.058716,0.7225615000000001,0.9184485,-0.144198,1.2890215,0.9265985,-0.1410779999999999,0.9258455,-0.0024654999999999,-0.001296,1.0741545,0.0024655,0.0012959999999999,0.8805815,-0.4215815,-0.045721,1.1203615,-0.3874015,-0.057649,0.8759015,-0.7247515,-0.068499,1.1233415,-0.6906315000000001,-0.057995
40,1.002264,0.728815,-0.0066314999999999,0.854854,0.504265,-0.0158915,0.763744,0.706535,-0.0793875,1.150124,0.514985,-0.0050644999999999,1.241574,0.715755,-0.0715825,0.7220040000000001,0.914005,-0.1609014999999999,1.288474,0.923885,-0.1578815,0.925704,-0.0022859999999999,-0.0011555,1.074296,0.002286,0.0011555,0.879954,-0.418895,-0.0562605,1.120604,-0.385235,-0.0671615,0.875684,-0.722075,-0.0784965,1.123564,-0.688455,-0.0679955
41,1.0026165,0.7270045,-0.018369,0.8546455,0.5035345,-0.025395,0.7625155,0.7042545,-0.0931599999999999,1.1499755,0.5147645000000001,-0.0138949999999999,1.2414155,0.7142545,-0.085135,0.7212455,0.9094445,-0.178143,1.2876254999999999,0.9211545,-0.1752129999999999,0.9255135,-0.0020785,-0.0011709999999999,1.0744865,0.0020784999999999,0.0011709999999999,0.8791155000000002,-0.4143954999999999,-0.067367,1.1206955,-0.3822755,-0.077248,0.8753355,-0.7175954999999999,-0.089009,1.1237955,-0.6855255,-0.078637
42,1.002908,0.72518,-0.0303175,0.854347,0.50263,-0.0351454999999999,0.761347,0.70177,-0.1074185,1.149707,0.51451,-0.0232145,1.241147,0.71269,-0.0990315,0.720457,0.90555,-0.1965385,1.2866769999999998,0.91831,-0.1926885,0.925307,-0.001832,-0.0012385,1.074693,0.001832,0.0012384999999999,0.878167,-0.40884,-0.0793075,1.120847,-0.37847,-0.0880455,0.874957,-0.71205,-0.0997595,1.123897,-0.68169,-0.0895615
43,1.0031455,0.722278,-0.0423679999999999,0.8539905,0.501298,-0.044919,0.7600605,0.698548,-0.122206,1.1492205,0.513988,-0.0324739999999999,1.2406805,0.710558,-0.1133089999999999,0.7196205,0.899428,-0.215222,1.2852605,0.914808,-0.210622,0.9251055,-0.001647,-0.0011729999999999,1.0748945,0.0016469999999999,0.001173,0.8769705000000001,-0.401272,-0.091923,1.1210305,-0.373902,-0.099758,0.8745805,-0.704502,-0.110686,1.1238805,-0.677122,-0.10049
44,1.003225,0.719149,-0.0537625,0.8537939999999999,0.500159,-0.0540134999999999,0.758844,0.695589,-0.1360775,1.148574,0.5130189999999999,-0.0410534999999999,1.240054,0.7081489999999999,-0.1266515,0.718924,0.894639,-0.2324695,1.283644,0.911299,-0.2270995,0.9249350000000001,-0.0014249999999999,-0.0010364999999999,1.075065,0.001425,0.0010365,0.875694,-0.392901,-0.1040685,1.121534,-0.369571,-0.1114894999999999,0.874244,-0.696151,-0.1209045,1.123854,-0.6726909999999999,-0.1106814999999999
45,1.0031824999999999,0.7156155,-0.0646725,0.8537155,0.4989154999999999,-0.0628415,0.7577255,0.6925155,-0.1494695,1.1478755,0.5117055,-0.0491925,1.2390655,0.7054255,-0.1397145,0.7183655,0.8903055,-0.2494255,1.2818455,0.9075955,-0.2430155,0.9247865,-0.0011374999999999,-0.0009544999999999,1.0752135,0.0011375,0.0009544999999999,0.8743655000000001,-0.3850945,-0.1158985,1.1221255,-0.3642445,-0.1231825,0.8739755000000001,-0.6883445,-0.1307395,1.1237555,-0.6672745,-0.1202835
46,1.0029295,0.7120814999999999,-0.074364,0.8535045,0.4976915,-0.070865,0.7574045,0.6897215,-0.16174,1.1469845,0.5099315,-0.056756,1.2376545,0.7022014999999999,-0.151261,0.7179645,0.8861215,-0.265195,1.2800145,0.9032315,-0.257465,0.9247825000000001,-0.0008565,-0.000979,1.0752175,0.0008565,0.0009789999999999,0.8728745,-0.3763984999999999,-0.127282,1.1227444999999998,-0.3555885,-0.134737,0.8736145,-0.6796085000000001,-0.13964,1.1236245,-0.6586285000000001,-0.129398
47,1.002694,0.708368,-0.0826595,0.853306,0.495938,-0.0777085,0.756876,0.686548,-0.1725955,1.146086,0.508028,-0.0631065,1.2361360000000001,0.699118,-0.1612485,0.717526,0.882768,-0.2775875,1.278106,0.899288,-0.2699275,0.924758,-0.0006239999999999,-0.0010965,1.075242,0.0006239999999999,0.0010965,0.8714459999999999,-0.366902,-0.1380795,1.1233659999999999,-0.3464819999999999,-0.1455705,0.873326,-0.670122,-0.1474385,1.123556,-0.649532,-0.1374015
48,1.002331,0.706475,-0.0950965,0.853002,0.494705,-0.0890105,0.756462,0.684345,-0.1870175,1.1452719999999998,0.507045,-0.0740075,1.2344119999999998,0.697355,-0.1753385,0.717062,0.881235,-0.2938715,1.276182,0.896285,-0.2858215,0.9247180000000002,-0.0005129999999999,-0.0010335,1.0752819999999998,0.0005129999999999,0.0010334999999999,0.869922,-0.355385,-0.1540085,1.123792,-0.335505,-0.1612705,0.872962,-0.6585650000000001,-0.1596645,1.123322,-0.638565,-0.1502685
49,1.0013975,0.7034835,-0.106183,0.8525745,0.4926135,-0.099627,0.7558145000000001,0.6816035,-0.199929,1.1430545,0.5045235,-0.084364,1.2325345,0.6941134999999999,-0.188132,0.7161345,0.8793635,-0.3083,1.2738844999999999,0.8893035,-0.29982,0.9245915,-0.0004235,-0.0009699999999999,1.0754085,0.0004235,0.0009699999999999,0.8683645,-0.3386165,-0.171751,1.1244145,-0.3212765,-0.1794649999999999,0.8723445000000001,-0.6411565,-0.171393,1.1228345,-0.6235865,-0.162976
50,1.000273,0.7007455,-0.116777,0.852171,0.4909255,-0.109719,0.754981,0.6788455,-0.212642,1.140741,0.5021455,-0.094256,1.230451,0.6911455,-0.199968,0.7156910000000001,0.8771755,-0.322695,1.271441,0.8836255000000001,-0.3134949999999999,0.924431,-0.0002995,-0.000645,1.075569,0.0002995,0.0006449999999999,0.866831,-0.3219444999999999,-0.189172,1.124971,-0.3066345,-0.197044,0.871651,-0.6237845,-0.182519,1.1221809999999999,-0.6081745,-0.175093
51,0.9987500000000001,0.697944,-0.127468,0.851365,0.488334,-0.119892,0.754185,0.675604,-0.225068,1.1377950000000001,0.499644,-0.104616,1.2278850000000001,0.687994,-0.211746,0.714615,0.873434,-0.336195,1.268685,0.8794040000000001,-0.327365,0.924222,-0.0003659999999999,-0.0003849999999999,1.075778,0.000366,0.0003849999999999,0.8651650000000001,-0.305386,-0.20662,1.125085,-0.2915259999999999,-0.214812,0.870565,-0.606306,-0.193739,1.121155,-0.592156,-0.187377
52,0.9967425,0.6956669999999999,-0.1374719999999999,0.8503885,0.485997,-0.129356,0.7532585,0.672777,-0.2359149999999999,1.1345984999999998,0.497287,-0.1141209999999999,1.2255885,0.684867,-0.222526,0.7133385,0.871867,-0.347955,1.2660485,0.875737,-0.339565,0.9241045,-0.000487,-0.0002449999999999,1.0758955000000001,0.000487,0.000245,0.8634585,-0.288383,-0.223125,1.1251785,-0.2761929999999999,-0.231369,0.8699185,-0.588333,-0.2043309999999999,1.1203984999999999,-0.575863,-0.199073
53,0.994762,0.693651,-0.147295,0.8494540000000002,0.483371,-0.138975,0.752434,0.669491,-0.246745,1.131574,0.495471,-0.123556,1.223094,0.682461,-0.233321,0.7120139999999999,0.869011,-0.359685,1.263574,0.8725809999999999,-0.351815,0.924018,-0.0007309999999999,-6.50000000000095e-05,1.075982,0.0007309999999999,6.499999999998174e-05,0.8618940000000002,-0.270699,-0.239614,1.125024,-0.260409,-0.247435,0.869314,-0.569669,-0.214937,1.119644,-0.559059,-0.210916
54,0.9926815,0.6911349999999999,-0.157869,0.8487175,0.480345,-0.149347,0.7515375,0.6658149999999999,-0.258335,1.1287075,0.493135,-0.134059,1.2206775,0.679705,-0.245222,0.7107375,0.864545,-0.372885,1.2606775,0.8689749999999999,-0.365175,0.9239315,-0.0010049999999999,0.000235,1.0760685,0.001005,-0.000235,0.8602675000000001,-0.248575,-0.257395,1.1248974999999999,-0.2398749999999999,-0.264805,0.8686675,-0.546525,-0.226264,1.1188675,-0.537465,-0.223942
55,0.9906485000000002,0.68792,-0.168285,0.8480585,0.47691,-0.159619,0.7506885,0.66207,-0.26959,1.1260185,0.49101,-0.14468,1.2185385,0.67655,-0.256947,0.7095585,0.86014,-0.38562,1.2583085,0.86573,-0.37824,0.9238685000000001,-0.0012899999999999,0.0004899999999999,1.0761314999999998,0.00129,-0.00049,0.8587085,-0.22624,-0.2748,1.1246785,-0.21826,-0.28156,0.8680384999999999,-0.52316,-0.237452,1.1179185,-0.5148199999999999,-0.235904
56,0.988673,0.68524,-0.178459,0.84737,0.47407,-0.169701,0.7498199999999999,0.65872,-0.280755,1.12333,0.4880799999999999,-0.155165,1.2163599999999999,0.67218,-0.268857,0.7081999999999999,0.85614,-0.398105,1.25611,0.8609899999999999,-0.390915,0.923791,-0.0015199999999999,0.000805,1.076209,0.0015199999999999,-0.000805,0.85716,-0.20403,-0.291395,1.12442,-0.19605,-0.297965,0.86732,-0.49996,-0.248014,1.11706,-0.4916400000000001,-0.248322
57,0.9870260000000001,0.68062,-0.183209,0.8469180000000001,0.47056,-0.174397,0.749108,0.65451,-0.287,1.120968,0.4849,-0.160392,1.214558,0.66834,-0.275163,0.707118,0.8511599999999999,-0.40585,1.254468,0.85668,-0.39901,0.923731,-0.0016899999999999,0.0010599999999999,1.076269,0.0016899999999999,-0.00106,0.855828,-0.18122,-0.30211,1.124378,-0.17334,-0.30917,0.866708,-0.47655,-0.253288,1.116588,-0.4680000000000001,-0.255661
58,0.986189,0.677175,-0.187345,0.846988,0.468145,-0.178511,0.748838,0.651345,-0.292645,1.120318,0.483535,-0.165036,1.213288,0.666445,-0.280707,0.706418,0.8470650000000001,-0.413205,1.2535479999999999,0.853685,-0.406545,0.923635,-0.001865,0.0012749999999999,1.076365,0.001865,-0.001275,0.855108,-0.160365,-0.309465,1.124388,-0.152435,-0.316475,0.866618,-0.4556449999999999,-0.257873,1.116588,-0.447095,-0.26138
59,0.9853845,0.67405,-0.191441,0.8470055,0.46538,-0.182449,0.7486755,0.64805,-0.297805,1.1196055,0.48157,-0.1697209999999999,1.2125455,0.66412,-0.286305,0.7060955,0.84276,-0.420025,1.2527255,0.85083,-0.413585,0.9235595,-0.00215,0.001385,1.0764405,0.0021499999999999,-0.0013849999999999,0.8543755,-0.13988,-0.316515,1.1243955,-0.13151,-0.3235749999999999,0.8664755,-0.43472,-0.262406,1.1165255,-0.42617,-0.266741
60,0.98486,0.671,-0.1948879999999999,0.847252,0.4637,-0.186016,0.748642,0.64559,-0.302385,1.1190719999999998,0.47961,-0.173562,1.211672,0.66197,-0.291275,0.705812,0.8395999999999999,-0.425965,1.251812,0.8481000000000001,-0.419695,0.923533,-0.00223,0.0015249999999999,1.076467,0.00223,-0.0015249999999999,0.853912,-0.12023,-0.322455,1.124622,-0.11186,-0.329555,0.866532,-0.41507,-0.266333,1.116642,-0.40652,-0.2714379999999999
61,0.9845760000000001,0.66832,-0.198259,0.8476540000000001,0.46276,-0.189398,0.748604,0.64383,-0.30668,1.118794,0.4774,-0.177398,1.211004,0.65987,-0.29619,0.705464,0.83689,-0.43162,1.251074,0.84525,-0.42577,0.923508,-0.0019399999999999,0.0016199999999999,1.076492,0.0019399999999999,-0.00162,0.8537939999999999,-0.10632,-0.32783,1.124864,-0.09847,-0.33508,0.866414,-0.40068,-0.269785,1.116574,-0.3928,-0.275749
62,0.9843035,0.6655,-0.201184,0.8481865,0.46057,-0.192374,0.7487565,0.64175,-0.31072,1.1187465,0.47565,-0.180864,1.2105165,0.65751,-0.30085,0.7051565,0.83389,-0.43719,1.2505065,0.8428,-0.43128,0.9234694999999999,-0.0019399999999999,0.0017099999999999,1.0765305,0.00194,-0.00171,0.8536865,-0.0917399999999999,-0.33233,1.1251465,-0.0845499999999999,-0.3399,0.8663565,-0.38566,-0.272066,1.1164465,-0.3785699999999999,-0.279316
63,0.9839835,0.6634800000000001,-0.202948,0.8484175,0.4599,-0.194313,0.7487874999999999,0.64097,-0.313415,1.1190875,0.47445,-0.183276,1.2100775,0.65621,-0.304045,0.7046875,0.83273,-0.440675,1.2497275,0.8412999999999999,-0.435035,0.9233995,-0.0018199999999999,0.001725,1.0766005,0.0018199999999999,-0.001725,0.8533075,-0.07885,-0.334665,1.1251075,-0.07257,-0.342825,0.8662775,-0.37254,-0.273103,1.1160275,-0.36646,-0.281199
64,0.983895,0.661955,-0.20487,0.848728,0.460225,-0.1963909999999999,0.748638,0.640315,-0.3163499999999999,1.119678,0.4730449999999999,-0.185608,1.209558,0.655675,-0.30711,0.7042980000000001,0.832175,-0.44393,1.249148,0.840235,-0.43855,0.923353,-0.001645,0.00181,1.076647,0.0016449999999999,-0.0018099999999999,0.852828,-0.064325,-0.33689,1.124858,-0.059195,-0.34538,0.866158,-0.357745,-0.274369,1.115488,-0.352895,-0.2820939999999999
65,0.9840445,0.6604,-0.2068399999999999,0.8493135,0.46002,-0.1984649999999999,0.7487334999999999,0.6395299999999999,-0.3189499999999999,1.1203235,0.47275,-0.1879259999999999,1.2090235,0.65654,-0.30993,0.7040535,0.83135,-0.4472,1.2485534999999999,0.8402400000000001,-0.4428799999999999,0.9233805,-0.0015499999999999,0.00198,1.0766195,0.0015499999999999,-0.0019799999999999,0.8525335,-0.0497799999999999,-0.3388899999999999,1.1245935,-0.04568,-0.34753,0.8661235,-0.34295,-0.2754999999999999,1.1149935,-0.3391599999999999,-0.283034
66,0.9842815,0.65946,-0.2083069999999999,0.8497385,0.45984,-0.200144,0.7484885,0.63899,-0.3207649999999999,1.1206385,0.47229,-0.1898089999999999,1.2083884999999999,0.6561600000000001,-0.312685,0.7039785000000001,0.8305400000000001,-0.4496549999999999,1.2484585,0.83999,-0.445855,0.9233565,-0.0014899999999999,0.002065,1.0766435,0.00149,-0.0020649999999999,0.8522085,-0.0370699999999999,-0.3400649999999999,1.1241885,-0.0341299999999999,-0.3486049999999999,0.8658685,-0.3299799999999999,-0.276034,1.1143785,-0.32721,-0.283558
67,0.9846245,0.658445,-0.209267,0.8501385000000001,0.459493,-0.201188,0.7480785,0.638205,-0.322055,1.1208985,0.471645,-0.191191,1.2074984999999998,0.655115,-0.315615,0.7039584999999999,0.829375,-0.451505,1.2482085,0.8423149999999999,-0.449125,0.9234125,-0.001545,0.0022149999999999,1.0765875,0.001545,-0.0022149999999999,0.8520385,-0.024175,-0.340565,1.1238685,-0.022565,-0.349435,0.8657085,-0.3169149999999999,-0.276881,1.1135285,-0.315095,-0.283572
68,0.984923,0.657245,-0.210076,0.8505130000000001,0.45938,-0.202162,0.7475430000000001,0.638235,-0.323115,1.1211129999999998,0.4709339999999999,-0.192371,1.207123,0.6542349999999999,-0.318425,0.703873,0.829225,-0.452775,1.2479230000000001,0.843035,-0.452055,0.923434,-0.001485,0.002255,1.076566,0.0014849999999999,-0.002255,0.851963,-0.009165,-0.340645,1.123483,-0.0090649999999999,-0.350025,0.8656630000000001,-0.301805,-0.277504,1.112663,-0.300935,-0.283464
69,0.985088,0.6558299999999999,-0.2108209999999999,0.8507410000000001,0.4593219999999999,-0.202929,0.747401,0.63776,-0.3241699999999999,1.121071,0.470503,-0.193459,1.206691,0.6535899999999999,-0.32099,0.703781,0.82873,-0.4542799999999999,1.247631,0.8426,-0.45463,0.923442,-0.00146,0.00225,1.076558,0.0014599999999999,-0.0022499999999999,0.851871,0.0055999999999999,-0.34064,1.122941,0.0043799999999999,-0.3501599999999999,0.865641,-0.2870400000000001,-0.27793,1.111621,-0.28679,-0.283043
70,0.985241,0.654775,-0.211682,0.850991,0.4589879999999999,-0.204064,0.7468710000000001,0.637295,-0.325615,1.120911,0.4704609999999999,-0.194722,1.206471,0.652605,-0.323675,0.703801,0.828255,-0.456295,1.247301,0.842125,-0.4574549999999999,0.923465,-0.001495,0.0023249999999999,1.076535,0.0014949999999999,-0.0023249999999999,0.851781,0.0204949999999999,-0.340995,1.122361,0.0179149999999999,-0.3505049999999999,0.865671,-0.272185,-0.278674,1.110671,-0.272785,-0.282613
71,0.9854245,0.653725,-0.212272,0.8511645,0.460871,-0.204681,0.7465545,0.638095,-0.326485,1.1206045,0.469865,-0.19572,1.2067345,0.6506649999999999,-0.3259149999999999,0.7035945,0.828775,-0.457675,1.2478645,0.838065,-0.460045,0.9234755,-0.0012449999999999,0.002375,1.0765245,0.0012449999999999,-0.0023749999999999,0.8517945,0.0344249999999999,-0.341095,1.1218245,0.0303149999999999,-0.350585,0.8658045,-0.2580950000000001,-0.278281,1.1099145,-0.259995,-0.28209
72,0.9856615000000001,0.65285,-0.2126179999999999,0.8513355,0.460665,-0.205724,0.7462655,0.63776,-0.32763,1.1202955,0.469394,-0.197034,1.2071955,0.6492100000000001,-0.32833,0.7033155,0.82822,-0.4592799999999999,1.2483555,0.83504,-0.46291,0.9235365,-0.0012699999999999,0.00245,1.0764635,0.0012699999999999,-0.0024499999999999,0.8520155,0.04743,-0.34121,1.1214755,0.04167,-0.35083,0.8658555,-0.2449999999999999,-0.2778549999999999,1.1093355,-0.2483,-0.281738
73,0.9860005000000001,0.65193,-0.2133439999999999,0.8513685,0.459671,-0.2067899999999999,0.7463785000000001,0.63698,-0.32881,1.1202285,0.469141,-0.1984939999999999,1.2072985,0.64786,-0.3308799999999999,0.7035285,0.82687,-0.4610999999999999,1.2489085,0.8325199999999999,-0.4661999999999999,0.9235715,-0.00134,0.00247,1.0764285,0.00134,-0.00247,0.8524285,0.05851,-0.34136,1.1213185,0.0518,-0.35087,0.8661685,-0.2339199999999999,-0.2775689999999999,1.1087785,-0.2379899999999999,-0.280593
74,0.986217,0.65107,-0.2140409999999999,0.851559,0.459091,-0.207702,0.746219,0.63629,-0.32987,1.1201889999999999,0.468587,-0.199766,1.2070489999999998,0.64623,-0.33343,0.703789,0.82565,-0.46305,1.249439,0.83046,-0.46882,0.923574,-0.0013799999999999,0.0025499999999999,1.076426,0.0013799999999999,-0.0025499999999999,0.8526590000000001,0.06913,-0.3414,1.121149,0.06168,-0.35074,0.8666389999999999,-0.2232999999999999,-0.276899,1.108319,-0.22799,-0.279352
75,0.986332,0.64978,-0.214755,0.851629,0.458415,-0.208608,0.746189,0.63548,-0.33097,1.120159,0.468026,-0.201183,1.207009,0.64482,-0.3358799999999999,0.7039489999999999,0.82443,-0.46495,1.250089,0.82858,-0.47161,0.9235750000000001,-0.00142,0.00262,1.076425,0.0014199999999999,-0.00262,0.852759,0.07982,-0.34137,1.120919,0.0719699999999999,-0.35042,0.867149,-0.21257,-0.2762259999999999,1.108309,-0.2182699999999999,-0.279742
76,0.986477,0.64821,-0.215689,0.851805,0.457478,-0.209782,0.746585,0.63453,-0.33211,1.1199649999999999,0.466895,-0.2028609999999999,1.207155,0.64254,-0.33898,0.7042649999999999,0.82343,-0.46693,1.250905,0.8266199999999999,-0.47414,0.923695,-0.0013799999999999,0.00264,1.076305,0.0013799999999999,-0.00264,0.852875,0.08987,-0.34119,1.1206450000000001,0.08132,-0.35001,0.868335,-0.20239,-0.275491,1.108405,-0.20966,-0.280352
77,0.9867355,0.6459,-0.216728,0.8520305,0.456221,-0.211313,0.7468405,0.63272,-0.334005,1.1197805,0.465583,-0.2048269999999999,1.2072505,0.6398,-0.3421349999999999,0.7046505000000001,0.82152,-0.469495,1.2515905,0.82409,-0.477175,0.9238725,-0.0013599999999999,0.002625,1.0761275,0.00136,-0.0026249999999999,0.8530805,0.09752,-0.341005,1.1204905,0.08823,-0.349775,0.8695405,-0.1944399999999999,-0.275468,1.1085905,-0.2033699999999999,-0.281097
78,0.9869065000000001,0.64381,-0.217911,0.8521875000000001,0.454469,-0.213001,0.7472675,0.63107,-0.33612,1.1195975,0.463833,-0.2070239999999999,1.2078875,0.63685,-0.3456,0.7052775,0.81938,-0.47213,1.2522775,0.82107,-0.4805,0.9240735,-0.00136,0.00261,1.0759265,0.0013599999999999,-0.0026099999999999,0.8532875,0.1046999999999999,-0.34087,1.1203275,0.09464,-0.34974,0.8707875,-0.1878499999999999,-0.2771139999999999,1.1093775,-0.1975799999999999,-0.282147
79,0.9869645000000001,0.6412899999999999,-0.219115,0.8523535000000001,0.451881,-0.214921,0.7473434999999999,0.62856,-0.338385,1.1193735,0.462165,-0.209415,1.2083435,0.63467,-0.349055,0.7058035,0.81646,-0.475025,1.2529635,0.8182,-0.484215,0.9243175,-0.0015899999999999,0.0027149999999999,1.0756825,0.0015899999999999,-0.0027149999999999,0.8532935,0.1114,-0.340635,1.1200634999999999,0.1004399999999999,-0.349835,0.8719135,-0.1813,-0.27679,1.1105435,-0.1918499999999999,-0.283674
80,0.9870655,0.638065,-0.221128,0.8524575,0.448279,-0.217645,0.7474375000000001,0.625285,-0.34156,1.1192775,0.459777,-0.212613,1.2086275,0.632705,-0.35336,0.7062575000000001,0.812695,-0.4790299999999999,1.2533175,0.817785,-0.48884,0.9245455,-0.001805,0.0027099999999999,1.0754545,0.0018049999999999,-0.0027099999999999,0.8530375,0.1183349999999999,-0.34095,1.1198975,0.1067449999999999,-0.3504,0.8730975,-0.174525,-0.276713,1.1119775,-0.185775,-0.285729
81,0.9873120000000001,0.632955,-0.223792,0.852584,0.445383,-0.220694,0.7479640000000001,0.621735,-0.345265,1.119444,0.45708,-0.216338,1.208964,0.6294150000000001,-0.358295,0.706834,0.808935,-0.483515,1.2536939999999999,0.815315,-0.4945549999999999,0.9246840000000001,-0.001905,0.002665,1.075316,0.001905,-0.002665,0.852504,0.124715,-0.341645,1.1198139999999999,0.112655,-0.351325,0.874674,-0.168385,-0.276332,1.113564,-0.180215,-0.288229
82,0.987351,0.6276849999999999,-0.227091,0.852399,0.4431059999999999,-0.2242559999999999,0.7484390000000001,0.6185539999999999,-0.34964,1.119419,0.4544789999999999,-0.22067,1.209419,0.625845,-0.3635,0.707279,0.8053349999999999,-0.48843,1.253829,0.811765,-0.5014799999999999,0.9248190000000001,-0.001945,0.0026899999999999,1.075181,0.0019449999999999,-0.0026899999999999,0.850199,0.1261849999999999,-0.3415,1.119639,0.1131849999999999,-0.3513199999999999,0.876119,-0.165835,-0.274227,1.115039,-0.180395,-0.291043
83,0.9874085000000001,0.620945,-0.231279,0.8522075,0.4369889999999999,-0.228969,0.7488975,0.612516,-0.355305,1.1194675,0.450368,-0.226178,1.2094174999999998,0.6208899999999999,-0.370865,0.7079475,0.798875,-0.494885,1.2538175,0.806615,-0.509285,0.9250805,-0.002125,0.0025649999999999,1.0749195,0.002125,-0.002565,0.8478775000000001,0.128125,-0.342245,1.1195375,0.1143949999999999,-0.352275,0.8773975,-0.162825,-0.272948,1.1165975,-0.179985,-0.294636
84,0.987662,0.614864,-0.236095,0.8521179999999999,0.4310049999999999,-0.234223,0.749208,0.606679,-0.361485,1.119698,0.445627,-0.2320559999999999,1.209498,0.614684,-0.379105,0.7086780000000001,0.792805,-0.501625,1.253898,0.800135,-0.518015,0.925432,-0.0022849999999999,0.002475,1.074568,0.0022849999999999,-0.002475,0.845348,0.129265,-0.343395,1.119448,0.115005,-0.353765,0.878688,-0.160595,-0.272857,1.118168,-0.180085,-0.29868
85,0.987828,0.608595,-0.240717,0.8519,0.42583,-0.23918,0.74958,0.6013010000000001,-0.36734,1.12,0.441762,-0.237615,1.20954,0.609793,-0.38573,0.7093,0.78693,-0.5082599999999999,1.25392,0.7941800000000001,-0.52623,0.925621,-0.0024399999999999,0.0024099999999999,1.074379,0.0024399999999999,-0.0024099999999999,0.84272,0.13068,-0.34471,1.11949,0.11612,-0.35533,0.87931,-0.1580199999999999,-0.272583,1.11951,-0.1796099999999999,-0.302587
86,0.988145,0.603202,-0.241683,0.8517319999999999,0.420945,-0.2403549999999999,0.750132,0.596379,-0.369415,1.120472,0.438555,-0.2393819999999999,1.209792,0.605569,-0.388825,0.709992,0.781465,-0.511145,1.254032,0.788805,-0.531105,0.9257569999999999,-0.002665,0.003115,1.074243,0.002665,-0.003115,0.8402620000000001,0.131195,-0.342715,1.119682,0.116255,-0.353385,0.880382,-0.156665,-0.272642,1.1209419999999999,-0.1800549999999999,-0.30281
87,0.9885405,0.5976710000000001,-0.243206,0.8517915,0.41641,-0.242011,0.7505014999999999,0.5916070000000001,-0.371915,1.1209815,0.43568,-0.2416019999999999,1.2102514999999998,0.6012010000000001,-0.392355,0.7105215,0.7762600000000001,-0.514505,1.2543815,0.78334,-0.536705,0.9258645,-0.0028899999999999,0.003955,1.0741355,0.00289,-0.0039549999999999,0.8379415,0.13112,-0.341505,1.1200315,0.1208800000000001,-0.352025,0.8814655,-0.1558799999999999,-0.273316,1.1218415,-0.1759699999999999,-0.303222
88,0.9889085,0.592285,-0.244421,0.8519435,0.4124049999999999,-0.243308,0.7507535,0.5872769999999999,-0.374105,1.1214935,0.4324849999999999,-0.243492,1.2113635,0.5968419999999999,-0.395545,0.7109135000000001,0.771555,-0.517385,1.2550535,0.7777649999999999,-0.541895,0.9260705,-0.003075,0.0047549999999999,1.0739295,0.0030749999999999,-0.004755,0.8355935000000001,0.1298849999999999,-0.340445,1.1202835,0.1241249999999999,-0.350485,0.8823515,-0.156525,-0.275245,1.1226135,-0.173035,-0.304025
89,0.9902925000000001,0.5901689999999999,-0.2451749999999999,0.8529545000000001,0.41207,-0.2440459999999999,0.7519945,0.586506,-0.375545,1.1232045,0.4328499999999999,-0.244743,1.2134345,0.595894,-0.397935,0.7123645000000001,0.77051,-0.519345,1.2570645,0.7754,-0.546135,0.9263245,-0.0025399999999999,0.005165,1.0736755,0.0025399999999999,-0.005165,0.8346645,0.13056,-0.339145,1.1215544999999998,0.12945,-0.348635,0.8844275,-0.1556999999999999,-0.275712,1.1241945,-0.16783,-0.304474
90,0.9917055000000001,0.5901700000000001,-0.245596,0.8539625,0.412495,-0.244419,0.7532825000000001,0.586824,-0.37656,1.1248524999999998,0.433925,-0.245485,1.2157525,0.5957770000000001,-0.39981,0.7137525,0.7703550000000001,-0.52095,1.2592425,0.7741450000000001,-0.54944,0.9265415,-0.0020449999999999,0.0052599999999999,1.0734585,0.002045,-0.00526,0.8341625000000001,0.130245,-0.33801,1.1226525,0.128635,-0.34793,0.8862655,-0.1552249999999999,-0.277656,1.1254425000000001,-0.1686849999999999,-0.304321
91,0.9922495,0.591427,-0.24562,0.8541585,0.4132099999999999,-0.244486,0.7536785,0.588079,-0.37704,1.1255485,0.43531,-0.245746,1.2170885,0.596314,-0.40096,0.7142485000000001,0.77138,-0.5219199999999999,1.2605485,0.774,-0.5512600000000001,0.9267225,-0.00151,0.00544,1.0732775,0.00151,-0.00544,0.8344485,0.1351299999999999,-0.33784,1.1231485,0.1293099999999999,-0.34777,0.8872865,-0.15034,-0.279872,1.1261285,-0.168,-0.304161
92,0.9926020000000001,0.5947399999999999,-0.245256,0.854251,0.4169549999999999,-0.24397,0.753771,0.591824,-0.376555,1.126041,0.4388149999999999,-0.245398,1.218031,0.5989519999999999,-0.4011949999999999,0.714541,0.775125,-0.5217849999999999,1.261771,0.776065,-0.552145,0.926828,-0.000875,0.005975,1.073172,0.0008749999999999,-0.005975,0.834541,0.1388749999999999,-0.337305,1.123621,0.1288949999999999,-0.347245,0.887451,-0.146595,-0.283461,1.126821,-0.168385,-0.303641
93,0.993647,0.5978799999999999,-0.243719,0.854931,0.4200949999999999,-0.242396,0.754631,0.5949639999999999,-0.374965,1.126931,0.4419549999999999,-0.243947,1.2190509999999999,0.6020919999999998,-0.399615,0.715581,0.7782649999999999,-0.520205,1.2637209999999999,0.7792049999999999,-0.5505850000000001,0.92683,-0.000415,0.0073949999999999,1.07317,0.0004149999999999,-0.007395,0.8352210000000001,0.1420149999999999,-0.335715,1.124191,0.1319949999999999,-0.345655,0.888153,-0.1434550000000001,-0.281009,1.127501,-0.165295,-0.302051
94,0.9949195,0.5982299999999999,-0.237812,0.8559555,0.4204449999999999,-0.236453,0.7559755,0.595314,-0.368975,1.1279555,0.4423049999999999,-0.238096,1.2205055,0.6024419999999999,-0.393665,0.7168455,0.778615,-0.5149349999999999,1.2660155,0.779555,-0.544825,0.9268365,-6.499999999998174e-05,0.007355,1.0731635,6.499999999998174e-05,-0.007355,0.8367055,0.1477049999999999,-0.332005,1.1250755,0.1374349999999999,-0.3417949999999999,0.8886065000000001,-0.139475,-0.279134,1.1283455,-0.159885,-0.298145
95,0.99523,0.5982299999999999,-0.230786,0.85659,0.421855,-0.229314,0.7561599999999999,0.596202,-0.361815,1.12819,0.4423049999999999,-0.231043,1.22082,0.6024419999999999,-0.386505,0.7170100000000001,0.779295,-0.507925,1.26739,0.779555,-0.537695,0.926838,-6.499999999998174e-05,0.0074249999999999,1.073162,6.499999999998174e-05,-0.007425,0.83767,0.1531949999999999,-0.327225,1.1250099999999998,0.1424949999999999,-0.3373049999999999,0.8881950000000001,-0.135075,-0.277757,1.12834,-0.154855,-0.293621
96,0.9954205,0.599846,-0.2231479999999999,0.8571385000000001,0.4244449999999999,-0.221734,0.7564885,0.599127,-0.3541849999999999,1.1284285,0.443955,-0.223406,1.2212985,0.604314,-0.3788249999999999,0.7173685000000001,0.781955,-0.500295,1.2685285,0.780905,-0.530145,0.9268675,-6.499999999998174e-05,0.0074349999999999,1.0731325,6.499999999998174e-05,-0.0074349999999999,0.8388985,0.1586949999999999,-0.322295,1.1249985,0.147675,-0.3324249999999999,0.8878075,-0.130785,-0.276205,1.1282685,-0.149715,-0.288734
97,0.99554,0.60812,-0.215246,0.8576130000000001,0.431965,-0.213999,0.756923,0.606623,-0.34595,1.128553,0.449685,-0.21528,1.221873,0.610067,-0.3706,0.717893,0.789095,-0.4921999999999999,1.269273,0.786065,-0.52206,0.926883,0.0001349999999999,0.0074899999999999,1.073117,-0.0001349999999999,-0.0074899999999999,0.840553,0.164035,-0.31717,1.125303,0.153305,-0.32731,0.887396,-0.1265049999999999,-0.274206,1.128113,-0.1441249999999999,-0.283313
98,0.9955350000000001,0.6153730000000001,-0.209971,0.857909,0.4371,-0.208706,0.757449,0.612067,-0.339835,1.1285589999999999,0.45239,-0.209583,1.222269,0.613546,-0.364425,0.7184189999999999,0.7943600000000001,-0.486265,1.2699690000000001,0.78971,-0.515595,0.926789,0.00065,0.0065049999999999,1.073211,-0.0006499999999999,-0.006505,0.8421390000000001,0.16638,-0.314825,1.125569,0.15662,-0.325585,0.886218,-0.1252599999999999,-0.27299,1.127819,-0.1408699999999999,-0.280628
99,0.996139,0.622453,-0.205001,0.858553,0.442395,-0.203563,0.758653,0.617955,-0.33386,1.129143,0.459585,-0.2040979999999999,1.223253,0.6208940000000001,-0.3581299999999999,0.719633,0.8000750000000001,-0.48025,1.270913,0.7971050000000001,-0.50825,0.926211,0.000815,0.00586,1.073789,-0.000815,-0.0058599999999999,0.844403,0.168015,-0.31267,1.126513,0.159345,-0.32419,0.885493,-0.1246649999999999,-0.271984,1.128023,-0.1380049999999999,-0.278351
100,0.9967920000000001,0.6290959999999999,-0.200276,0.8592960000000001,0.4481349999999999,-0.198607,0.759986,0.6244399999999999,-0.32803,1.129766,0.4663119999999999,-0.198788,1.224366,0.6292399999999999,-0.3507599999999999,0.720986,0.8072149999999999,-0.47338,1.271606,0.8052649999999999,-0.50055,0.925705,0.0011949999999999,0.0054599999999999,1.074295,-0.001195,-0.0054599999999999,0.846696,0.1667549999999998,-0.3126,1.127446,0.1580749999999999,-0.32467,0.884286,-0.126945,-0.269683,1.127766,-0.138465,-0.276305
101,0.996852,0.635297,-0.1965589999999999,0.859708,0.45034,-0.1941459999999999,0.760678,0.62812,-0.322825,1.1298679999999999,0.470508,-0.194245,1.224768,0.634553,-0.344075,0.721408,0.81124,-0.467435,1.272338,0.8109200000000001,-0.493525,0.925647,0.0008799999999999,0.004395,1.074353,-0.0008799999999999,-0.004395,0.8480179999999999,0.16107,-0.313915,1.128288,0.15233,-0.326785,0.881448,-0.1326699999999999,-0.268021,1.1271179999999998,-0.1433299999999999,-0.275615
102,0.9960195,0.64204,-0.195376,0.8592645,0.4508770000000001,-0.192239,0.7607045,0.629723,-0.320055,1.1291245,0.472267,-0.192189,1.2242345000000001,0.6371300000000001,-0.340025,0.7210544999999999,0.8133600000000001,-0.463725,1.2719945,0.8123100000000001,-0.488095,0.9251735,0.00037,0.0036049999999999,1.0748265,-0.0003699999999999,-0.0036049999999999,0.8486745,0.15122,-0.315835,1.1264845,0.13859,-0.328185,0.8783145,-0.1425699999999999,-0.266029,1.1247445,-0.15613,-0.273645
103,0.9952185000000001,0.64873,-0.196154,0.8587295,0.451598,-0.192061,0.7601995,0.63199,-0.31913,1.1283395,0.474903,-0.191845,1.2236895,0.64068,-0.33692,0.7203495,0.8162,-0.46178,1.2712595,0.81357,-0.48465,0.9247145,-0.0002199999999999,0.0036299999999999,1.0752855000000001,0.0002199999999999,-0.0036299999999999,0.8486695,0.13581,-0.31747,1.1251495,0.12486,-0.33032,0.8753595,-0.1574799999999999,-0.265369,1.1224895,-0.1691,-0.27364
104,0.9943635000000001,0.657125,-0.1956439999999999,0.8581395,0.4566199999999999,-0.1911339999999999,0.7599895,0.637405,-0.3171549999999999,1.1275695,0.4786289999999999,-0.190299,1.2232395,0.6457849999999999,-0.332975,0.7199694999999999,0.821755,-0.459335,1.2704594999999999,0.818645,-0.480595,0.9244635000000001,-0.000395,0.003595,1.0755365,0.0003949999999999,-0.0035949999999999,0.8484695000000001,0.1140449999999999,-0.317795,1.1240595,0.1042349999999999,-0.330775,0.8720395,-0.179275,-0.263731,1.1204195,-0.1889549999999999,-0.272795
105,0.9935625,0.659385,-0.195898,0.8575295000000001,0.455488,-0.190865,0.7598295000000002,0.636615,-0.31584,1.1268894999999999,0.476529,-0.189349,1.2223495,0.644715,-0.32969,0.7196795,0.821195,-0.45743,1.2693695,0.817315,-0.47629,0.9242565000000001,-0.0004549999999999,0.0035599999999999,1.0757435,0.0004549999999999,-0.00356,0.8481495,0.087295,-0.31852,1.1235795,0.078865,-0.33166,0.8694895,-0.206055,-0.262636,1.1184595,-0.2135049999999999,-0.27249
106,0.9932790000000001,0.6600900000000001,-0.197747,0.857463,0.454214,-0.191946,0.760213,0.6352599999999999,-0.31603,1.127003,0.475437,-0.189778,1.221773,0.64371,-0.32754,0.719883,0.82053,-0.45647,1.268703,0.81705,-0.47364,0.9239110000000001,-0.00057,0.0035199999999999,1.0760889999999999,0.00057,-0.0035199999999999,0.848163,0.06213,-0.32047,1.123223,0.05474,-0.33375,0.867633,-0.2310299999999999,-0.261128,1.117153,-0.23672,-0.27239
107,0.993051,0.66312,-0.199154,0.857239,0.45523,-0.192825,0.760599,0.63666,-0.316245,1.127109,0.477723,-0.1895949999999999,1.221559,0.64503,-0.324565,0.720039,0.8226100000000001,-0.455405,1.268499,0.8148500000000001,-0.470275,0.923665,-0.0007099999999999,0.003405,1.076335,0.00071,-0.0034049999999999,0.8480390000000001,0.0327999999999999,-0.321715,1.1227289999999999,0.02692,-0.334985,0.866479,-0.26015,-0.259393,1.1159489999999999,-0.26413,-0.271815
108,0.9924645,0.667065,-0.199651,0.8564725000000001,0.457012,-0.192904,0.7602725000000001,0.638765,-0.31553,1.1268524999999998,0.4756249999999999,-0.188772,1.2215825,0.642075,-0.32124,0.7198025,0.825145,-0.45345,1.2672625,0.8126549999999999,-0.46587,0.9237195,-0.000505,0.0033199999999999,1.0762805,0.0005049999999999,-0.00332,0.8475125,0.0023149999999999,-0.32221,1.1222625,-0.002275,-0.33548,0.8649725,-0.290575,-0.259815,1.1144124999999998,-0.292895,-0.271199
109,0.992101,0.672185,-0.199263,0.8558930000000001,0.458135,-0.191906,0.7600629999999999,0.639895,-0.31397,1.126863,0.474585,-0.187239,1.221523,0.6379250000000001,-0.31838,0.7199730000000001,0.826595,-0.4513,1.266773,0.8090649999999999,-0.46126,0.92376,-0.0005749999999999,0.0035299999999999,1.07624,0.0005749999999999,-0.00353,0.8471029999999999,-0.0264849999999999,-0.322,1.121693,-0.0298749999999999,-0.33526,0.8639330000000001,-0.319565,-0.259583,1.113273,-0.320525,-0.269081
110,0.9924680000000001,0.67534,-0.197974,0.855873,0.45999,-0.190364,0.760623,0.64162,-0.31177,1.127503,0.4730499999999999,-0.185106,1.222103,0.6376,-0.31438,0.720763,0.82868,-0.4485,1.2665229999999998,0.80802,-0.45587,0.923764,-0.00063,0.00367,1.076236,0.0006299999999999,-0.00367,0.847313,-0.05554,-0.32123,1.121723,-0.05788,-0.33413,0.863533,-0.34846,-0.257767,1.1129229999999999,-0.34874,-0.265475
111,0.992811,0.6780550000000001,-0.1966409999999999,0.8558670000000002,0.4633550000000001,-0.1884429999999999,0.761207,0.645065,-0.30916,1.127907,0.473725,-0.182633,1.222767,0.639325,-0.3096799999999999,0.721407,0.832495,-0.44514,1.266257,0.812575,-0.4510699999999999,0.92371,-0.0004549999999999,0.0037,1.07629,0.000455,-0.0036999999999999,0.847357,-0.0816749999999999,-0.31977,1.1217169999999999,-0.0828849999999999,-0.3321999999999999,0.863097,-0.374645,-0.255546,1.112647,-0.3741249999999999,-0.2618939999999999
112,0.993137,0.6821349999999999,-0.1950239999999999,0.8557950000000001,0.468635,-0.186087,0.761075,0.649825,-0.30595,1.128495,0.4745049999999999,-0.180058,1.223215,0.641385,-0.30547,0.721765,0.837885,-0.4402399999999999,1.266435,0.817255,-0.44604,0.923544,-8.500000000000174e-05,0.004,1.076456,8.500000000000174e-05,-0.0039999999999999,0.847545,-0.111315,-0.31504,1.1213149999999998,-0.112015,-0.32814,0.8626150000000001,-0.404445,-0.25128,1.112235,-0.403595,-0.258882
113,0.9934805000000001,0.684935,-0.192002,0.8557095,0.469545,-0.183281,0.7607495000000001,0.651685,-0.301665,1.1290795,0.474255,-0.176875,1.2232495,0.642125,-0.300285,0.7223395,0.8413849999999999,-0.433105,1.2659894999999999,0.819715,-0.438455,0.9232785,-1.4999999999987246e-05,0.0037849999999999,1.0767215,1.4999999999987246e-05,-0.003785,0.8477295000000001,-0.136275,-0.308035,1.1206395,-0.1361349999999999,-0.321825,0.8622295,-0.429675,-0.246073,1.1117295,-0.4282750000000001,-0.254367
114,0.9933060000000001,0.692505,-0.1868739999999999,0.8550409999999999,0.475145,-0.1791549999999999,0.760271,0.6580250000000001,-0.296155,1.1292309999999999,0.479205,-0.172429,1.222641,0.648375,-0.2934949999999999,0.722421,0.8496049999999999,-0.424105,1.265381,0.8276049999999999,-0.430905,0.923489,4.500000000001725e-05,0.0029949999999999,1.076511,-4.499999999998949e-05,-0.0029949999999999,0.847341,-0.1566849999999999,-0.300975,1.119341,-0.1563649999999999,-0.3158649999999999,0.8611409999999999,-0.4507849999999999,-0.241597,1.110661,-0.4491449999999999,-0.250467
115,0.9928775000000001,0.6986249999999999,-0.181468,0.8543415,0.479715,-0.1747999999999999,0.7594515,0.663755,-0.290145,1.1290715,0.482375,-0.167736,1.2226015000000001,0.653545,-0.286795,0.7221115,0.857165,-0.415315,1.2654515,0.833495,-0.422705,0.9237455,0.0001449999999999,0.002105,1.0762545000000001,-0.000145,-0.0021049999999999,0.8470115,-0.177645,-0.292995,1.1180015,-0.1773549999999999,-0.309185,0.8599915,-0.472535,-0.23685,1.1095215,-0.470925,-0.246037
116,0.992408,0.70428,-0.174347,0.853765,0.48413,-0.169321,0.759165,0.66933,-0.28195,1.129245,0.48575,-0.16226,1.222435,0.66038,-0.27898,0.722275,0.86416,-0.40443,1.264775,0.84545,-0.41242,0.924202,0.00012,0.0008199999999999,1.075798,-0.00012,-0.0008199999999999,0.8476049999999999,-0.19445,-0.28167,1.116695,-0.1945199999999999,-0.29862,0.859275,-0.49041,-0.230524,1.108605,-0.4890799999999999,-0.239736
117,0.9919505,0.71023,-0.164307,0.8532245,0.48768,-0.160991,0.7588045,0.6739499999999999,-0.27078,1.1294745,0.4892999999999999,-0.153919,1.2226745,0.66809,-0.26822,0.7224444999999999,0.8705499999999999,-0.39069,1.2643245,0.85413,-0.39995,0.9248255,9.999999999996125e-06,0.0005,1.0751745,-9.999999999996125e-06,-0.0005,0.8482645,-0.2102699999999999,-0.26686,1.1157845,-0.21035,-0.28468,0.8583645,-0.50737,-0.221368,1.1081044999999998,-0.5059,-0.230601
118,0.9914110000000002,0.716419,-0.1535049999999999,0.852583,0.491959,-0.152248,0.758553,0.679779,-0.25875,1.129653,0.493139,-0.1451539999999999,1.222273,0.6771090000000001,-0.25666,0.722613,0.877819,-0.37539,1.264233,0.864819,-0.38682,0.925592,-0.0001469999999999,0.00023,1.074408,0.0001469999999999,-0.0002299999999999,0.849183,-0.226291,-0.25077,1.1147529999999999,-0.225741,-0.2692299999999999,0.857423,-0.5246109999999999,-0.2117839999999999,1.107433,-0.522431,-0.220403
119,0.990952,0.722809,-0.1427439999999999,0.8519559999999999,0.495779,-0.1436869999999999,0.758446,0.6847890000000001,-0.2468199999999999,1.1298659999999998,0.497199,-0.1366359999999999,1.221846,0.682539,-0.24545,0.722926,0.8846689999999999,-0.35997,1.264176,0.8730089999999999,-0.37375,0.926307,-0.000272,6.0000000000004494e-05,1.073693,0.0002719999999999,-5.999999999997674e-05,0.850396,-0.241231,-0.234491,1.113576,-0.239531,-0.25359,0.856776,-0.540721,-0.202009,1.106636,-0.537461,-0.210497
120,0.9905030000000001,0.728662,-0.132168,0.8514120000000001,0.499892,-0.135121,0.758082,0.690392,-0.234835,1.1299219999999999,0.501852,-0.127969,1.221722,0.688902,-0.234465,0.723302,0.891972,-0.3445749999999999,1.2640120000000001,0.880212,-0.359975,0.926965,-0.0004739999999999,-0.000175,1.073035,0.000474,0.000175,0.851912,-0.255528,-0.217808,1.112432,-0.252828,-0.238605,0.856262,-0.556138,-0.192081,1.106172,-0.551868,-0.202818
121,0.99022,0.7328075,-0.1235059999999999,0.850989,0.5015875000000001,-0.128802,0.7583489999999999,0.6938275,-0.224575,1.129979,0.5055175000000001,-0.1212579999999999,1.221489,0.6941375,-0.225215,0.723699,0.8964975,-0.331845,1.2638690000000001,0.8875975,-0.347245,0.927432,-0.0008295,-0.0002649999999999,1.072568,0.0008294999999999,0.000265,0.853529,-0.2674025,-0.2036359999999999,1.112059,-0.2628025,-0.225075,0.855859,-0.5688425,-0.184076,1.105939,-0.5629225,-0.196067
122,0.9904265,0.7360015,-0.116279,0.8511855,0.5031215,-0.123751,0.7584455,0.6969015000000001,-0.21616,1.1307255,0.5084815,-0.116169,1.2218755,0.6986315,-0.217315,0.7242455,0.9004015,-0.321335,1.2639155,0.8928515,-0.337505,0.9276095,-0.0011854999999999,-0.000395,1.0723905,0.0011854999999999,0.0003949999999999,0.8557355,-0.2794284999999999,-0.191127,1.1120355,-0.2748285,-0.213684,0.8561955,-0.5808685,-0.177906,1.1058555,-0.5749485,-0.189323
123,0.9905860000000001,0.738979,-0.10969,0.85156,0.504529,-0.119009,0.75883,0.699769,-0.207928,1.13144,0.511789,-0.111238,1.22232,0.703029,-0.209761,0.7250100000000002,0.903889,-0.311425,1.26441,0.898159,-0.327895,0.927861,-0.001615,-0.000515,1.072139,0.001615,0.000515,0.85799,-0.290531,-0.179001,1.11204,-0.285931,-0.202562,0.85661,-0.591971,-0.171849,1.10584,-0.586051,-0.182772
124,0.99081,0.7412625,-0.09821,0.852121,0.5044725,-0.109498,0.7595810000000001,0.7020025000000001,-0.195242,1.132491,0.5142725,-0.10161,1.222731,0.7071925,-0.197027,0.726081,0.9061625,-0.296885,1.2649309999999998,0.9032025,-0.312975,0.928339,-0.0021015,-0.000445,1.071661,0.0021014999999999,0.000445,0.860571,-0.3005275,-0.161951,1.112311,-0.2959275,-0.186776,0.857381,-0.6019675,-0.160467,1.106281,-0.5960475,-0.171402
125,0.990837,0.7415985,-0.085924,0.852178,0.5058685,-0.098413,0.760138,0.7042085,-0.182087,1.1336680000000001,0.5156685,-0.090212,1.223068,0.7093585,-0.183365,0.726958,0.9092585,-0.281514,1.265488,0.9063185,-0.297764,0.928739,-0.0024265,-0.000357,1.071261,0.0024265,0.0003569999999999,0.862508,-0.3148915,-0.143414,1.112028,-0.3057715,-0.168791,0.858548,-0.6169715,-0.148053,1.106908,-0.6067914999999999,-0.157004
126,0.990849,0.7411225,-0.073347,0.852283,0.5070525,-0.086927,0.760773,0.7063225,-0.168601,1.1349129999999998,0.5168825,-0.078415,1.223573,0.7116425,-0.169185,0.728073,0.9125925,-0.265122,1.266163,0.9102125,-0.279842,0.929054,-0.0027084999999999,-0.0002619999999999,1.070946,0.0027085,0.0002619999999999,0.864513,-0.3287075,-0.124955,1.112043,-0.3148975,-0.151158,0.859973,-0.6312975,-0.135234,1.107763,-0.6167475,-0.14243
127,0.9908835000000001,0.7394885,-0.060583,0.8524065000000001,0.5075185,-0.075183,0.7618265,0.7076385000000001,-0.155057,1.1360365,0.5172585000000001,-0.066304,1.2240965,0.7131085,-0.15459,0.7290065,0.9148285,-0.249217,1.2667365,0.9127285,-0.261587,0.9292775,-0.0028975,-0.000227,1.0707225,0.0028974999999999,0.000227,0.8663865,-0.3418215,-0.107188,1.1121965,-0.3229015,-0.134467,0.8614265,-0.6448115,-0.12216,1.1087265,-0.6255115,-0.12753
128,0.991253,0.73704,-0.0476505,0.852816,0.5079300000000001,-0.0631075,0.763046,0.7088300000000001,-0.1412705,1.137476,0.51759,-0.0538245,1.224996,0.71445,-0.1399975,0.7304459999999999,0.91691,-0.2331754999999999,1.267856,0.91488,-0.2434755,0.929236,-0.003084,-0.0002264999999999,1.070764,0.003084,0.0002265,0.868456,-0.35691,-0.0896555,1.112786,-0.33352,-0.1175064999999999,0.863036,-0.6599499999999999,-0.1091795,1.1101159999999999,-0.6364799999999999,-0.1125835
129,0.9917205000000001,0.734641,-0.0347354999999999,0.8532315,0.5079509999999999,-0.0509844999999999,0.7642115,0.709441,-0.1274735,1.1389215,0.517141,-0.0415124999999999,1.2262515,0.715061,-0.1254695,0.7319415,0.918401,-0.2170455,1.2688415,0.916181,-0.2253155,0.9289985000000001,-0.003205,-0.0002184999999999,1.0710015,0.0032049999999999,0.0002185,0.8703115,-0.371379,-0.0727275,1.1134614999999999,-0.344089,-0.1005975,0.8647315000000001,-0.674399,-0.0962755,1.1115615,-0.647329,-0.0979675
130,0.992333,0.7323225,-0.0219795,0.853803,0.5078425000000001,-0.0386465,0.765523,0.7098525,-0.1139295,1.140453,0.5167525000000001,-0.0289555,1.227683,0.7156025,-0.1106125,0.733573,0.9198425,-0.2008625,1.269633,0.9172525,-0.2071724999999999,0.928536,-0.0032664999999999,-0.0002944999999999,1.071464,0.0032665,0.0002945,0.872213,-0.3855975,-0.0561165,1.114353,-0.3552775,-0.0837565,0.866603,-0.6884675,-0.0832205,1.113143,-0.6586274999999999,-0.0830355
131,0.9929410000000001,0.7302109999999999,-0.0093055,0.854347,0.5077309999999999,-0.0263205,0.766567,0.710081,-0.1002395,1.141917,0.516621,-0.0163475,1.229057,0.7162109999999999,-0.0959875,0.7349570000000001,0.920891,-0.1849605,1.270487,0.919221,-0.1891305,0.928004,-0.003357,-0.0002004999999999,1.071996,0.0033569999999999,0.0002004999999999,0.8739870000000001,-0.3993589999999999,-0.0399535,1.115227,-0.365979,-0.0667524999999999,0.868407,-0.7020590000000001,-0.0703725,1.1146669999999999,-0.6694490000000001,-0.0682905
132,0.9934830000000001,0.728183,0.0034014999999999,0.854816,0.5078630000000001,-0.0140025,0.767616,0.710493,-0.0862764999999999,1.143346,0.5156930000000001,-0.0038515,1.230526,0.716093,-0.0805005,0.736186,0.922103,-0.1689705,1.271376,0.920263,-0.1709405,0.927422,-0.003379,-0.0001505,1.072578,0.003379,0.0001504999999999,0.875666,-0.412807,-0.0241495,1.116146,-0.376507,-0.0500155,0.870116,-0.715357,-0.0576295,1.116136,-0.680017,-0.0536435
133,0.9936385000000001,0.72643,0.011083,0.8547635,0.50839,-0.0064349999999999,0.7675635000000001,0.71079,-0.077027,1.1442935,0.5152800000000001,0.003636,1.2315335,0.71628,-0.070486,0.7365535000000001,0.92365,-0.157545,1.2720135,0.92155,-0.158405,0.9267015,-0.003417,-0.0002249999999999,1.0732985,0.0034169999999999,0.000225,0.8767335,-0.4246,-0.0141249999999999,1.1166835,-0.38549,-0.038629,0.8711135,-0.7270099999999999,-0.0504489999999999,1.1171035,-0.6889799999999999,-0.0440669999999999
134,0.993286,0.7258105,0.0158024999999999,0.85455,0.5079605,-0.0015214999999999,0.76727,0.7109705000000001,-0.0701535,1.14448,0.5152705,0.0077305,1.2319099999999998,0.7170505,-0.0635775,0.73604,0.9246005,-0.1484734999999999,1.27237,0.9227605,-0.1491835,0.926504,-0.0034254999999999,-0.0003524999999999,1.073496,0.0034254999999999,0.0003525,0.8771,-0.4254795,-0.0098515,1.117,-0.3863695,-0.0339825,0.87141,-0.7278895,-0.0463425,1.11742,-0.6898595,-0.0391785
135,0.9929715000000001,0.7251245000000001,0.020271,0.8543054999999999,0.5075945000000001,0.003082,0.7666755000000001,0.7110345,-0.063345,1.1447455,0.5151845,0.011392,1.2322355,0.7175045,-0.057218,0.7351755,0.9250745,-0.140112,1.2726355,0.9232045,-0.142572,0.9263375000000001,-0.0034205,-0.0004779999999999,1.0736625,0.0034205,0.000478,0.8773655,-0.4261655,-0.0063859999999999,1.1172655,-0.3870555,-0.0298149999999999,0.8716655,-0.7285754999999999,-0.042799,1.1176454999999998,-0.6905454999999999,-0.034904
136,0.9927,0.725106,0.0240044999999999,0.854067,0.5073259999999999,0.0069125,0.765997,0.711076,-0.0574244999999999,1.144947,0.515136,0.0146885,1.232817,0.717706,-0.0516234999999999,0.7341869999999999,0.925586,-0.1324715,1.2728169999999999,0.923916,-0.1366115,0.926175,-0.003402,-0.0004864999999999,1.073825,0.0034019999999999,0.0004865,0.877567,-0.426584,-0.0037855,1.117467,-0.387474,-0.0265145,0.871857,-0.7289939999999999,-0.0400385,1.117827,-0.6909639999999999,-0.0316805
137,0.9923925,0.7252974999999999,0.0275115,0.8537635,0.5071175,0.0104835,0.7653635,0.7111675,-0.0518995,1.1449135,0.5151275,0.0176395,1.2330735,0.7179074999999999,-0.0464145,0.7332335,0.9260975,-0.1252135,1.2731835,0.9247775,-0.1310135,0.9260525,-0.0033884999999999,-0.0004715,1.0739475,0.0033885,0.0004714999999999,0.8777035,-0.4258424999999999,-0.0015675,1.1178834999999998,-0.3867825,-0.0237595,0.8717735,-0.7282525000000001,-0.0376235,1.1181235,-0.6902725000000001,-0.0287725
138,0.9920340000000001,0.7252875,0.0306909999999999,0.853443,0.5069675,0.013581,0.764623,0.7112475,-0.046738,1.144813,0.5151875,0.020238,1.233353,0.7182075,-0.041505,0.731943,0.9264875,-0.118438,1.2731029999999999,0.9257575,-0.125818,0.925993,-0.0033984999999999,-0.00041,1.074007,0.0033984999999999,0.0004099999999999,0.877703,-0.4251325,0.0003499999999999,1.118173,-0.3860825,-0.021419,0.871543,-0.7275525,-0.035701,1.118263,-0.6895725,-0.026226
139,0.991592,0.7255415,0.0335665,0.853078,0.5068515,0.0165005,0.763828,0.7112615,-0.0419294999999999,1.144688,0.5152715,0.0226134999999999,1.2337179999999999,0.7184515,-0.0371904999999999,0.730218,0.9267315,-0.1118405,1.272948,0.9266715,-0.1211204999999999,0.9259620000000001,-0.0034415,-0.0002585,1.0740379999999998,0.0034415,0.0002585,0.877538,-0.4244084999999999,0.0020415,1.118358,-0.3855984999999999,-0.0195885,0.871258,-0.7268385,-0.0340054999999999,1.118358,-0.6890885,-0.0240635
140,0.9911700000000001,0.7260455,0.036194,0.8526460000000001,0.5067355,0.019263,0.763046,0.7111955,-0.03736,1.144626,0.5153355,0.024774,1.234136,0.7186755,-0.033043,0.728456,0.9268555,-0.105633,1.272866,0.9268455,-0.116773,0.925979,-0.0034925,-0.000242,1.0740210000000001,0.0034924999999999,0.0002419999999999,0.877476,-0.4238045,0.0034939999999999,1.118516,-0.3852445,-0.018123,0.871066,-0.7262545,-0.032531,1.118516,-0.6887145,-0.022179
141,0.9907870000000001,0.7267985,0.0387335,0.8522190000000001,0.5065585,0.0219745,0.762259,0.7110785000000001,-0.0330565,1.144569,0.5153785000000001,0.0269145,1.234249,0.7188485,-0.0298875,0.726599,0.9268885,-0.0998725,1.272759,0.9269385,-0.1125825,0.925979,-0.0035414999999999,-0.0002885,1.0740210000000001,0.0035415,0.0002885,0.877449,-0.4233115,0.0047885,1.118629,-0.3849415,-0.0166835,0.8708290000000001,-0.7257515,-0.0313424999999999,1.118639,-0.6884015,-0.0203545
142,0.990386,0.727612,0.0410325,0.851881,0.5063420000000001,0.0242005,0.7615609999999999,0.710972,-0.0291295,1.144491,0.515432,0.0289304999999999,1.234351,0.719032,-0.0268065,0.7248210000000002,0.926892,-0.0946015,1.272611,0.927012,-0.1085915,0.925967,-0.003589,-0.0003355,1.074033,0.0035889999999999,0.0003354999999999,0.8774109999999999,-0.422948,0.0059204999999999,1.1186909999999999,-0.384618,-0.0153625,0.870591,-0.7253879999999999,-0.0302915,1.118721,-0.688068,-0.0187015
143,0.9900095,0.7283245,0.04307,0.8517025,0.5060945,0.025723,0.7611025,0.7108645,-0.026022,1.1444125,0.5154945,0.0308,1.2344325,0.7192245,-0.023941,0.7231725,0.9267845,-0.090314,1.2727125,0.9268645,-0.104924,0.9259565,-0.0036134999999999,-0.0004719999999999,1.0740435,0.0036134999999999,0.000472,0.8773325,-0.4227155,0.006739,1.1187325,-0.3844055,-0.0142209999999999,0.8703625,-0.7251855,-0.0293689999999999,1.1187425,-0.6878355,-0.017324
144,0.989653,0.7287845,0.0447059999999999,0.85154,0.5058745,0.0269459999999999,0.7608699999999999,0.7107644999999999,-0.023629,1.1443299999999998,0.5155445,0.032467,1.23443,0.7194045,-0.021397,0.7217800000000001,0.9266945,-0.086966,1.2728,0.9267745,-0.101736,0.9259640000000001,-0.0036245,-0.0006119999999999,1.074036,0.0036245,0.0006119999999999,0.87727,-0.4224755,0.007327,1.1187699999999998,-0.3842055,-0.0132939999999999,0.87014,-0.7249755,-0.028591,1.11875,-0.6876455,-0.016221
145,0.9892865,0.72961,0.045612,0.8514095,0.50583,0.027795,0.7606295,0.71077,-0.021659,1.1443794999999999,0.5155000000000001,0.033353,1.2343994999999999,0.71958,-0.01977,0.7204295000000001,0.92679,-0.084529,1.2728495,0.92672,-0.099571,0.9259915,-0.0036339999999999,-0.000824,1.0740085,0.0036339999999999,0.000824,0.8773295000000001,-0.42224,0.00769,1.1188295,-0.38416,-0.012602,0.8701995,-0.7247399999999999,-0.027977,1.1188195,-0.6875899999999999,-0.015352
146,0.9889355,0.7301124999999999,0.046403,0.8513335000000001,0.5057625,0.0287639999999999,0.7603934999999999,0.7107224999999999,-0.0199869999999999,1.1444435,0.5154624999999999,0.03416,1.2343535,0.7197525,-0.0189859999999999,0.7191635000000001,0.9268925,-0.082588,1.2728035,0.9267125,-0.098111,0.9260285,-0.0036425,-0.001039,1.0739715,0.0036425,0.001039,0.8774135,-0.4220575,0.007953,1.1189035,-0.3841575,-0.011986,0.8702735,-0.7245575000000001,-0.027412,1.1189235,-0.6875775000000001,-0.014493
147,0.988605,0.7309315000000001,0.047194,0.851299,0.5057015,0.02969,0.759999,0.7107115,-0.0186389999999999,1.144589,0.5154315,0.034938,1.234349,0.7198815000000001,-0.0182039999999999,0.7180489999999999,0.9269915,-0.081298,1.2727490000000001,0.9266415,-0.097334,0.926057,-0.0036585,-0.0012799999999999,1.073943,0.0036584999999999,0.00128,0.877529,-0.4218485,0.008153,1.119029,-0.3841585,-0.0113829999999999,0.870369,-0.7243585,-0.026845,1.119119,-0.6875785,-0.013737
148,0.988231,0.7315035,0.0480115,0.851296,0.5054435,0.0304984999999999,0.759556,0.7104535000000001,-0.0178185,1.144726,0.5154535,0.0357435,1.234216,0.7199235,-0.0173924999999999,0.717266,0.9267035,-0.0804695,1.272486,0.9262935,-0.0965115,0.926096,-0.0036904999999999,-0.0014835,1.073904,0.0036904999999999,0.0014834999999999,0.877706,-0.4220064999999999,0.0083624999999999,1.119196,-0.3841164999999999,-0.0107905,0.8705160000000001,-0.7245865,-0.0263335,1.119406,-0.6875264999999999,-0.0129355
149,0.9879425000000001,0.731857,0.048657,0.8510725,0.505297,0.0313979999999999,0.7590325,0.710067,-0.016851,1.1450425,0.515487,0.03669,1.2336725,0.7198370000000001,-0.016922,0.7165524999999999,0.926217,-0.079497,1.2723125,0.926127,-0.095559,0.9261604999999999,-0.0037319999999999,-0.001566,1.0738395,0.0037319999999999,0.0015659999999999,0.8781025,-0.4223329999999999,0.0085019999999999,1.1195525,-0.384073,-0.010143,0.8709225,-0.724913,-0.025704,1.1199225,-0.687473,-0.011994
150,0.9875475000000001,0.7319875,0.0486865,0.8505765000000001,0.5053975,0.0322975,0.7583865000000001,0.7097175,-0.0159185,1.1451465,0.5156575,0.0374755,1.2332865,0.7195875,-0.0170225,0.7159265,0.9257775,-0.0785655,1.2721065,0.9261175,-0.0948914999999999,0.9262405,-0.0037885,-0.0015504999999999,1.0737595,0.0037885,0.0015504999999999,0.8786665,-0.4225824999999999,0.0083415,1.1200765,-0.3840125,-0.0095694999999999,0.8715364999999999,-0.7251625,-0.0249555,1.1206165,-0.6873925,-0.0111355
151,0.9869100000000001,0.7321075,0.047903,0.849784,0.5058875,0.033565,0.757244,0.7095975,-0.0146249999999999,1.145014,0.5156575,0.0380029999999999,1.234514,0.7195875,-0.017917,0.714994,0.9255375,-0.078305,1.272054,0.9261175,-0.095121,0.926391,-0.0037885,-0.001469,1.073609,0.0037885,0.0014689999999999,0.879554,-0.4225824999999999,0.0079179999999999,1.120974,-0.3840425,-0.008817,0.872674,-0.7251625,-0.024133,1.121894,-0.6874225,-0.010245
152,0.9864625,0.7321075,0.0468745,0.8489955000000001,0.5064775,0.0347255,0.7550855000000001,0.7094375,-0.0134685,1.1450755,0.5156575,0.0384425,1.2361855,0.7195875,-0.0190175,0.7141055000000001,0.9253075,-0.0781325,1.2716455,0.9260075,-0.0967675,0.9264855,-0.0037885,-0.0013585,1.0735145,0.0037885,0.0013584999999999,0.8806855000000001,-0.4227325,0.0074194999999999,1.1221755,-0.3840625,-0.0080685,0.8740555,-0.7253725,-0.0235505,1.1235855,-0.6874425,-0.0092925
153,0.9859920000000001,0.7321095,0.0455425,0.847751,0.5069794999999999,0.0358654999999999,0.7511810000000001,0.7087695,-0.0122204999999999,1.145031,0.5156594999999999,0.0386715,1.238231,0.7192795000000001,-0.0202625,0.712851,0.9247595,-0.0779295,1.2714509999999999,0.9254995,-0.0985795,0.9265450000000001,-0.0037904999999999,-0.0013325,1.0734549999999998,0.0037905,0.0013325,0.882051,-0.4229505,0.0069224999999999,1.123631,-0.3840604999999999,-0.0071925,0.875801,-0.7256905,-0.0226995,1.125691,-0.6874404999999999,-0.0082405
154,0.9853625,0.7322040000000001,0.0435964999999999,0.8456224999999999,0.5070539999999999,0.0368195,0.7429625,0.705864,-0.0105735,1.1451624999999999,0.515614,0.0382545,1.2419825,0.7168540000000001,-0.0221885,0.7083225,0.921214,-0.0778205,1.2718225,0.923924,-0.1008804999999999,0.9267045,-0.0038269999999999,-0.0013825,1.0732955,0.003827,0.0013824999999999,0.8836425,-0.424346,0.0060024999999999,1.1256925,-0.384016,-0.0063155,0.8784525,-0.7271859999999999,-0.0218815,1.1285725,-0.687376,-0.0072525
155,0.984497,0.7324695,0.0410755,0.843511,0.5074795,0.0378735,0.734011,0.7026695000000001,-0.0085034999999999,1.1458409999999999,0.5158195,0.0380314999999999,1.247361,0.7135895,-0.0248535,0.704431,0.9180195,-0.0775425,1.272341,0.9208695,-0.1057525,0.926955,-0.0038445,-0.0014205,1.073045,0.0038444999999999,0.0014205,0.885501,-0.4259205,0.0047385,1.128171,-0.3838905,-0.0053855,0.881701,-0.7288505,-0.0208305,1.132091,-0.6872305,-0.0065285
156,0.9837390000000001,0.73283,0.0383695,0.8406660000000001,0.50833,0.0389805,0.7224360000000001,0.69684,-0.0061825,1.146446,0.51588,0.0372595,1.254416,0.70801,-0.0283685,0.7000760000000001,0.91203,-0.0772075,1.273446,0.91584,-0.1104875,0.927256,-0.0038699999999999,-0.0013675,1.072744,0.0038699999999999,0.0013674999999999,0.887866,-0.42709,0.0034864999999999,1.131196,-0.38369,-0.0043885,0.885726,-0.7301,-0.0197185,1.136456,-0.68701,-0.0058235
157,0.982621,0.7331995,0.0355095,0.837526,0.5095194999999999,0.0400615,0.7103360000000001,0.6894895000000001,-0.0035225,1.146536,0.5156795000000001,0.0361835,1.259376,0.7005195,-0.0324485,0.693886,0.8997895,-0.0763495,1.2749959999999998,0.9055895,-0.1157195,0.92755,-0.0039545,-0.0013045,1.07245,0.0039545,0.0013045,0.890456,-0.4278705,0.0021025,1.1343059999999998,-0.3836005,-0.0036125,0.890296,-0.7309505000000001,-0.0185475,1.141386,-0.6868405,-0.0049205
158,0.9817275,0.7342585,0.03288,0.8350565,0.5106585,0.041705,0.6969065,0.6761485,0.0008,1.1454465,0.5143685,0.034657,1.2659265,0.6829385,-0.033938,0.6885065,0.8830485,-0.073943,1.2787065,0.8855885,-0.120543,0.9278935,-0.0040304999999999,-0.0013109999999999,1.0721065,0.0040304999999999,0.0013109999999999,0.8938265,-0.4274415,0.0009429999999999,1.1377265,-0.3838415,-0.0035509999999999,0.8966465,-0.7305015,-0.016173,1.1478165,-0.6868315,-0.0036479999999999
159,0.9808525000000001,0.735751,0.0303864999999999,0.8332415000000001,0.5117510000000001,0.0444824999999999,0.6835315,0.656381,0.0067044999999999,1.1438915,0.512151,0.0324774999999999,1.2753315,0.659231,-0.0311705,0.6857515000000001,0.8597410000000001,-0.0716875,1.2839114999999999,0.8537910000000001,-0.1251475,0.9282215,-0.0040999999999999,-0.0014285,1.0717785,0.0041,0.0014284999999999,0.8988715,-0.425869,0.0008414999999999,1.1408915,-0.384929,-0.0068355,0.9064115,-0.7287089999999999,-0.0122425,1.1562615,-0.6867789999999999,-0.0025275
160,0.9802905,0.737459,0.0285475,0.8319685,0.5127390000000001,0.0471265,0.6702285,0.6343690000000001,0.0122885,1.1434315,0.510219,0.0307745,1.2852985000000001,0.630359,-0.0272675,0.6828285000000001,0.830999,-0.0702505,1.2888985,0.815319,-0.1297405,0.9285785,-0.0041019999999999,-0.0014144999999999,1.0714215,0.004102,0.0014144999999999,0.9036385,-0.424791,0.0008524999999999,1.1431565,-0.3857509999999999,-0.0119035,0.9168985000000001,-0.727191,-0.0078515,1.1643385,-0.6864709999999999,-0.0024915
161,0.979536,0.739371,0.026335,0.831217,0.513291,0.049771,0.6594169999999999,0.6093310000000001,0.018109,1.143771,0.508551,0.029412,1.296567,0.598681,-0.0220549999999999,0.680847,0.7971710000000001,-0.068719,1.2933469999999998,0.772301,-0.134869,0.9289270000000001,-0.0040639999999999,-0.0012709999999999,1.071073,0.004064,0.001271,0.9092169999999999,-0.423439,0.001533,1.14349,-0.386089,-0.0201459999999999,0.9288270000000001,-0.7253189999999999,-0.0027409999999999,1.170057,-0.685819,-0.0064479999999999
162,0.9784645,0.7414255000000001,0.0240804999999999,0.8309575,0.5133655,0.0529155,0.6534975000000001,0.5814955,0.0243274999999999,1.1434745,0.5062855,0.0274815,1.3043274999999999,0.5622955000000001,-0.0166385,0.6797475,0.7583655,-0.0685554999999999,1.2984974999999999,0.7204155,-0.1401355,0.9293675000000001,-0.0039784999999999,-0.0008255,1.0706325,0.0039785,0.0008254999999999,0.9149675,-0.4231445,0.0028704999999999,1.1422915,-0.3825745,-0.0304075,0.9405275,-0.7231645,0.0025464999999999,1.1734175,-0.6817044999999999,-0.0113505
163,0.9772630000000001,0.743317,0.0220935,0.832113,0.5125770000000001,0.0563405,0.6536930000000001,0.551207,0.0307525,1.142303,0.5035270000000001,0.0256125,1.310273,0.525477,-0.0125954999999999,0.682013,0.7174470000000001,-0.0700994999999999,1.302043,0.662857,-0.1399895,0.929563,-0.003855,-0.0003944999999999,1.070437,0.003855,0.0003945,0.921743,-0.417753,0.0053595,1.137527,-0.377183,-0.0421794999999999,0.9525230000000001,-0.717773,0.0066745,1.172736,-0.6763129999999999,-0.0198204999999999
164,0.9759700000000001,0.7450165,0.019966,0.83348,0.5111165,0.059552,0.65554,0.5185765,0.037387,1.1405210000000001,0.5003465,0.02317,1.3131599999999999,0.4861865000000001,-0.007493,0.68469,0.6705265,-0.0723729999999999,1.30456,0.5997865,-0.135243,0.9296400000000001,-0.0037964999999999,1.3000000000013e-05,1.07036,0.0037965,-1.2999999999999123e-05,0.92925,-0.4124535,0.008681,1.130741,-0.3718835,-0.059063,0.96488,-0.7124735,0.01114,1.167171,-0.6710134999999999,-0.0313529999999999
165,0.974583,0.745768,0.017284,0.836113,0.507868,0.062674,0.662343,0.482128,0.045895,1.1395549999999999,0.4964379999999999,0.020485,1.311343,0.447328,-0.0011069999999999,0.6907030000000001,0.625508,-0.075245,1.301733,0.534968,-0.128945,0.929703,-0.003729,0.000926,1.070297,0.0037289999999999,-0.0009259999999999,0.934293,-0.407372,0.010303,1.1187719999999999,-0.366802,-0.081315,0.977593,-0.707392,0.0124739999999999,1.154815,-0.665932,-0.0436749999999999
166,0.972961,0.7462920000000001,0.0141499999999999,0.838841,0.504112,0.065172,0.668901,0.445532,0.0543279999999999,1.138659,0.4924719999999999,0.01747,1.303941,0.4041119999999999,0.0065109999999999,0.696581,0.5706420000000001,-0.08229,1.299631,0.455302,-0.1234099999999999,0.929611,-0.003642,0.0017299999999999,1.070389,0.0036419999999999,-0.00173,0.9390910000000001,-0.397918,0.0006999999999999,1.103525,-0.356538,-0.10632,0.990091,-0.692318,0.015306,1.137839,-0.6548379999999999,-0.05452
167,0.9710050000000001,0.745628,0.009945,0.841615,0.499668,0.066393,0.678725,0.413978,0.059928,1.139446,0.489598,0.013805,1.2922449999999999,0.371498,0.014555,0.7017450000000001,0.515578,-0.0938149999999999,1.292055,0.3851279999999999,-0.117035,0.929395,-0.003817,0.002905,1.070605,0.003817,-0.0029049999999999,0.943765,-0.388212,-0.0082549999999999,1.088559,-0.346822,-0.1295349999999999,1.0017349999999998,-0.677472,0.018884,1.118948,-0.639082,-0.0671749999999999
168,0.9693845,0.744071,0.005275,0.8443545,0.495041,0.065659,0.6889545,0.388331,0.06322,1.1415745,0.4877309999999999,0.010435,1.2766145,0.345031,0.022015,0.7043845,0.464511,-0.105435,1.2829845,0.324841,-0.1118649999999999,0.9292345,-0.003904,0.004395,1.0707654999999998,0.003904,-0.0043949999999999,0.9466345,-0.380219,-0.0179349999999999,1.0733374999999998,-0.338109,-0.149345,1.0115945,-0.6638890000000001,0.017855,1.0973335,-0.624749,-0.078705
169,0.96693,0.7425514999999999,-0.00087,0.8461799999999999,0.4905315,0.063495,0.70209,0.3633915,0.0665559999999999,1.142636,0.4859615,0.00522,1.2617939999999999,0.3251715,0.0289399999999999,0.7055899999999999,0.4151815,-0.10987,1.273641,0.2675915,-0.09898,0.9288,-0.0044085,0.0055999999999999,1.0712,0.0044085,-0.0056,0.94818,-0.3750084999999999,-0.02691,1.0573,-0.3298784999999999,-0.16672,1.02201,-0.6492085000000001,0.0211399999999999,1.080249,-0.6093085,-0.0864
170,0.9647050000000001,0.7404955,-0.0077949999999999,0.847695,0.4856955,0.060145,0.709565,0.3400455,0.0609649999999999,1.142617,0.4844955,-0.0011349999999999,1.247396,0.3084855,0.034895,0.7045050000000002,0.3705055,-0.121835,1.266388,0.2175455,-0.083805,0.928445,-0.0051725,0.0066249999999999,1.071555,0.0051725,-0.0066249999999999,0.951005,-0.3705245,-0.036555,1.0435649999999999,-0.3209045,-0.180265,1.033035,-0.6334344999999999,0.026895,1.067645,-0.5928145,-0.0873249999999999
171,0.9619550000000001,0.738346,-0.01526,0.848435,0.481356,0.0549399999999999,0.716375,0.320226,0.0546299999999999,1.1431149999999999,0.484816,-0.0069099999999999,1.235821,0.299126,0.0417599999999999,0.699495,0.330566,-0.13867,1.257938,0.178326,-0.06739,0.9278150000000001,-0.0059629999999999,0.0071299999999999,1.072185,0.0059629999999999,-0.0071299999999999,0.954155,-0.366054,-0.04682,1.0306849999999999,-0.3101939999999999,-0.19189,1.043855,-0.616654,0.0327299999999999,1.058285,-0.573804,-0.08577
172,0.9586600000000001,0.7359115,-0.02447,0.84802,0.4772415,0.0477199999999999,0.7237300000000001,0.3068415,0.0437199999999999,1.14336,0.4855915,-0.01365,1.225746,0.2928615,0.0460499999999999,0.69545,0.2955115,-0.15099,1.252015,0.1458815,-0.05051,0.92749,-0.0067385,0.0075699999999999,1.0725099999999999,0.0067385,-0.00757,0.95896,-0.3591685,-0.06905,1.0221099999999999,-0.2999385,-0.20106,1.0558599999999998,-0.5972485,0.0348099999999999,1.0544,-0.5524785,-0.0763099999999999
173,0.953285,0.7335565,-0.03539,0.8460250000000001,0.4730265,0.0380999999999999,0.728845,0.2968965,0.02785,1.1434549999999999,0.4862265,-0.0202099999999999,1.217684,0.2909965,0.04877,0.687305,0.2650065,-0.16551,1.247234,0.1216265,-0.0319399999999999,0.9272250000000001,-0.0074815,0.00808,1.072775,0.0074815,-0.00808,0.965055,-0.3520235,-0.0887499999999999,1.015795,-0.2917135,-0.2037,1.067065,-0.5795035000000001,0.03965,1.055555,-0.5448935,-0.0614999999999999
174,0.944555,0.7328635,-0.04715,0.841575,0.4708935,0.02682,0.728405,0.2920935,0.0062599999999999,1.139485,0.4874335,-0.0282999999999999,1.211134,0.2915135,0.0445,0.672955,0.2353635,-0.18116,1.246392,0.1015534999999999,-0.0179799999999999,0.926855,-0.0074804999999999,0.00824,1.0731449999999998,0.0074804999999999,-0.00824,0.974085,-0.3440665,-0.1035599999999999,1.014265,-0.2894664999999999,-0.19805,1.075485,-0.5606065,0.0502199999999999,1.0628149999999998,-0.5429765000000001,-0.04292
175,0.935425,0.7321989999999999,-0.0589649999999999,0.8369650000000001,0.469449,0.015495,0.725545,0.289879,-0.0143949999999999,1.134795,0.488949,-0.0365749999999999,1.207155,0.292689,0.042055,0.6609850000000002,0.221819,-0.1922349999999999,1.244588,0.102729,-0.0037949999999999,0.9265950000000001,-0.007341,0.008425,1.073405,0.007341,-0.0084249999999999,0.980425,-0.342891,-0.1058849999999999,1.0162149999999999,-0.2882909999999999,-0.1881649999999999,1.081805,-0.5532410000000001,0.060205,1.0746149999999999,-0.5418010000000001,-0.0246149999999999
176,0.925175,0.7317475,-0.07106,0.8317550000000001,0.4682075,0.0034599999999999,0.7213350000000001,0.2891975,-0.03444,1.129025,0.4911075,-0.0444,1.2046949999999998,0.2937975,0.0372399999999999,0.6487649999999999,0.2125575,-0.20161,1.2471009999999998,0.1038375,0.0091899999999999,0.926435,-0.0074565,0.0081699999999999,1.0735649999999999,0.0074565,-0.00817,0.984075,-0.3410025,-0.1072,1.0170249999999998,-0.2871825,-0.17837,1.083375,-0.5521325,0.0699799999999999,1.0718649999999998,-0.5406925,-0.0248
177,0.9130150000000001,0.7290329999999999,-0.0823349999999999,0.825635,0.464673,-0.008085,0.7141550000000001,0.2887429999999999,-0.053875,1.121265,0.4941029999999999,-0.0519449999999999,1.201775,0.294593,0.032145,0.637815,0.204883,-0.2091049999999999,1.250005,0.104633,0.017035,0.926255,-0.0079739999999999,0.007665,1.073745,0.007974,-0.0076649999999999,0.9873850000000001,-0.338177,-0.1067249999999999,1.0187849999999998,-0.286387,-0.1676449999999999,1.083545,-0.5513370000000001,0.086535,1.070915,-0.539787,-0.0240749999999999
178,0.90067,0.7262155,-0.092775,0.8203,0.4611955,-0.0190049999999999,0.70711,0.2880455,-0.072255,1.11406,0.4976655,-0.0570749999999999,1.2005599999999998,0.3016055,0.0291949999999999,0.62993,0.1999255,-0.220275,1.2542799999999998,0.1052355,0.0176749999999999,0.92631,-0.0087095,0.0071249999999999,1.0736899999999998,0.0087095,-0.0071249999999999,0.98674,-0.3384145,-0.107195,1.02416,-0.2940545,-0.155455,1.07854,-0.5508645000000001,0.094385,1.0666099999999998,-0.5459545,-0.021565
179,0.8879500000000001,0.723164,-0.1020649999999999,0.81488,0.457444,-0.028855,0.70446,0.287644,-0.082405,1.10634,0.501654,-0.061915,1.19853,0.308794,0.0264449999999999,0.62332,0.195184,-0.224215,1.25711,0.107344,0.0166049999999999,0.92634,-0.009438,0.006705,1.07366,0.009438,-0.006705,0.98062,-0.338856,-0.107515,1.02943,-0.302066,-0.1434849999999999,1.06181,-0.555296,0.081855,1.06018,-0.557796,-0.0253349999999999
180,0.875695,0.720115,-0.11085,0.809975,0.453545,-0.0376199999999999,0.702455,0.286905,-0.0923799999999999,1.098685,0.505095,-0.06687,1.197055,0.316155,0.02387,0.620525,0.190775,-0.22183,1.260575,0.111765,0.0165099999999999,0.9265550000000001,-0.010331,0.0065399999999999,1.073445,0.010331,-0.0065399999999999,0.971105,-0.339285,-0.10847,1.036495,-0.310485,-0.13049,1.0389249999999999,-0.560855,0.0659799999999999,1.053905,-0.569975,-0.02781
181,0.8640950000000001,0.717411,-0.11803,0.8055550000000001,0.450301,-0.04469,0.701185,0.285601,-0.09848,1.0914849999999998,0.507731,-0.07063,1.195215,0.322081,0.0214999999999999,0.617105,0.186221,-0.2221,1.263005,0.119881,0.0167699999999999,0.9266050000000001,-0.011028,0.0064899999999999,1.0733949999999999,0.011028,-0.0064899999999999,0.958645,-0.340179,-0.09734,1.042995,-0.318749,-0.11757,1.011795,-0.5685589999999999,0.0536599999999999,1.046665,-0.584179,-0.03332
182,0.8547850000000001,0.7148715,-0.123015,0.802415,0.4468815,-0.049375,0.7018950000000002,0.2857015,-0.100135,1.084195,0.5101114999999999,-0.074455,1.193475,0.3279515,0.019795,0.6168750000000001,0.1831215,-0.2193449999999999,1.265225,0.1262615,0.018015,0.926665,-0.0121145,0.0063449999999999,1.073335,0.0121145,-0.0063449999999999,0.9437650000000001,-0.3408385,-0.088525,1.049385,-0.3266385,-0.1059349999999999,0.9839150000000001,-0.5772785,0.0375949999999999,1.039115,-0.5979485,-0.0401849999999999
183,0.8486500000000001,0.7128715,-0.12661,0.80099,0.4454214999999999,-0.0525499999999999,0.70442,0.2861515,-0.09844,1.08014,0.5108415,-0.0761,1.19346,0.3313815,0.0195799999999999,0.61997,0.1800115,-0.2141,1.26802,0.1305515,0.0199899999999999,0.92682,-0.0128445,0.0059299999999999,1.07318,0.0128445,-0.00593,0.9279000000000001,-0.3415685,-0.08247,1.05516,-0.3332085,-0.0971199999999999,0.9577800000000001,-0.5860685,0.0188199999999999,1.03184,-0.6125685,-0.04947
184,0.84389,0.7117065,-0.129,0.8003300000000001,0.4447465,-0.0543299999999999,0.70678,0.2865065,-0.09584,1.07773,0.5119365,-0.0762,1.194,0.3345565,0.0204499999999999,0.6250500000000001,0.1795965,-0.20555,1.27058,0.1349965,0.0229599999999999,0.9272400000000001,-0.0132595,0.0054699999999999,1.07276,0.0132595,-0.00547,0.9162300000000001,-0.3408935,-0.0757499999999999,1.06245,-0.3388135,-0.08847,0.9352800000000001,-0.5962234999999999,0.0009399999999999,1.02611,-0.6294635,-0.05835
185,0.840265,0.7114280000000001,-0.130235,0.799425,0.444508,-0.054655,0.708125,0.286818,-0.090885,1.075885,0.5130480000000001,-0.0756149999999999,1.193425,0.337268,0.021905,0.6305149999999999,0.175928,-0.1954249999999999,1.2715649999999998,0.138968,0.026405,0.927615,-0.013498,0.005035,1.072385,0.013498,-0.005035,0.906825,-0.339672,-0.0701049999999999,1.0708849999999999,-0.342292,-0.081045,0.916615,-0.605762,-0.0180249999999999,1.035945,-0.632342,-0.0467349999999999
186,0.8391649999999999,0.711079,-0.13172,0.799275,0.444159,-0.05452,0.710975,0.287139,-0.08353,1.076065,0.515289,-0.07446,1.1932450000000001,0.339509,0.0238099999999999,0.635545,0.172159,-0.18859,1.271445,0.142499,0.0294199999999999,0.927925,-0.01347,0.0046399999999999,1.072075,0.01347,-0.00464,0.898245,-0.3380809999999999,-0.06562,1.079285,-0.342641,-0.07406,0.898555,-0.614481,-0.0378,1.044835,-0.632691,-0.03628
187,0.8393349999999999,0.7105465000000001,-0.132085,0.7989450000000001,0.4436265,-0.053035,0.714005,0.2864565,-0.074515,1.075755,0.5173465,-0.074075,1.1921249999999999,0.3412165,0.0248549999999999,0.6435449999999999,0.1685365,-0.179705,1.270165,0.1440665,0.0315149999999999,0.928195,-0.0134485,0.0044349999999999,1.071805,0.0134485,-0.004435,0.895335,-0.3371035,-0.060195,1.086015,-0.3431735,-0.068995,0.884625,-0.6231234999999999,-0.057485,1.052995,-0.6332234999999999,-0.027685
188,0.83996,0.7094995000000001,-0.1320800000000001,0.7981200000000002,0.4430095,-0.05107,0.71816,0.2850595,-0.0658,1.07622,0.5187895,-0.07289,1.1913,0.3413895,0.0263199999999999,0.6532100000000001,0.1639195,-0.17113,1.26908,0.1438795,0.0337699999999999,0.92848,-0.0134865,0.0041799999999999,1.07152,0.0134865,-0.00418,0.8959000000000001,-0.3364505,-0.05439,1.09269,-0.3442205,-0.06395,0.88154,-0.6244705,-0.0571100000000001,1.06128,-0.6342705,-0.01915
189,0.841315,0.709669,-0.13155,0.797385,0.443729,-0.0484000000000001,0.722995,0.282709,-0.0582800000000001,1.077065,0.518859,-0.07105,1.190255,0.339089,0.0279599999999999,0.6620349999999999,0.156969,-0.16371,1.267225,0.141529,0.0352199999999999,0.928835,-0.013672,0.0040099999999999,1.071165,0.013672,-0.00401,0.8991750000000001,-0.336911,-0.0477400000000001,1.0989149999999999,-0.346481,-0.0595500000000001,0.884355,-0.626911,-0.0534000000000001,1.068795,-0.635841,-0.01169
190,0.84322,0.7100025,-0.1299749999999999,0.7965,0.4442325,-0.0440249999999999,0.72887,0.2795225,-0.0511549999999999,1.0789199999999999,0.5185225,-0.0682449999999998,1.1889699999999999,0.3365125,0.030075,0.67035,0.1492725,-0.1546649999999999,1.26432,0.1389525,0.035895,0.9292000000000001,-0.0136815,0.0040150000000001,1.0708,0.0136815,-0.0040149999999999,0.9022600000000001,-0.3371675,-0.0417949999999999,1.10576,-0.3472475,-0.0553849999999999,0.88962,-0.6294875,-0.0476849999999999,1.0757899999999998,-0.6374475000000001,-0.0048949999999999
191,0.845935,0.7108295,-0.1300549999999999,0.797255,0.4466295,-0.0448049999999999,0.725785,0.2731895,-0.0548849999999999,1.080545,0.5198795,-0.0665449999999999,1.186245,0.3366595,0.032155,0.6750850000000002,0.1865695,-0.1340249999999999,1.2606950000000001,0.1442494999999999,0.035865,0.929465,-0.0143355,0.003755,1.070535,0.0143355,-0.0037549999999999,0.909815,-0.3404905,-0.0303649999999999,1.111745,-0.3472805,-0.0518449999999999,0.8966850000000001,-0.6281705,-0.0386849999999999,1.083485,-0.6414405,0.005425
192,0.848575,0.7110195,-0.1270099999999999,0.793685,0.4473695,-0.0399499999999999,0.733425,0.2712295,-0.0405999999999999,1.082465,0.5193295,-0.0632499999999999,1.186325,0.3345194999999999,0.0347,0.673895,0.1325495,-0.1330699999999999,1.259915,0.1389995,0.03698,0.9297950000000001,-0.0141115,0.00369,1.070205,0.0141114999999999,-0.0036899999999999,0.9130550000000001,-0.3419105,-0.0267499999999999,1.116085,-0.3479805,-0.0477999999999999,0.902445,-0.6306605,-0.0339699999999999,1.089665,-0.6423805,0.00974
193,0.85138,0.7116414999999999,-0.1250299999999999,0.7933399999999999,0.4468115,-0.03556,0.7418999999999999,0.2707315,-0.0251,1.08459,0.5185915,-0.06037,1.18559,0.3316115,0.0367199999999999,0.6724899999999999,0.1156015,-0.167,1.2561399999999998,0.1347815,0.03702,0.93026,-0.0139135,0.0041299999999999,1.06974,0.0139135,-0.0041299999999999,0.91353,-0.3410185,-0.0250799999999999,1.1198899999999998,-0.3480184999999999,-0.04415,0.90758,-0.6323685,-0.03017,1.09517,-0.6426485000000001,0.01321
194,0.85449,0.7123560000000001,-0.119635,0.79062,0.446396,-0.025845,0.75315,0.269136,0.0018349999999999,1.0856899999999998,0.516236,-0.055225,1.18362,0.326646,0.0404149999999999,0.7142300000000001,0.1184059999999999,-0.0941050000000001,1.24983,0.121836,0.0360149999999999,0.93039,-0.0132509999999999,0.0051449999999999,1.06961,0.0132509999999999,-0.005145,0.9115600000000001,-0.339284,-0.022915,1.12438,-0.348944,-0.0367750000000001,0.9135900000000001,-0.6380239999999999,-0.022645,1.1019999999999999,-0.644034,0.0196649999999999
195,0.8545250000000001,0.713367,-0.116875,0.7929250000000001,0.445757,-0.0229949999999999,0.7586550000000001,0.266377,0.014135,1.090215,0.5151469999999999,-0.050985,1.1832449999999999,0.322167,0.0430349999999999,0.727765,0.086747,-0.085165,1.245775,0.1198169999999999,0.0362749999999999,0.9302350000000001,-0.01286,0.006005,1.069765,0.01286,-0.006005,0.910825,-0.338823,-0.0212449999999999,1.124995,-0.348313,-0.033625,0.9152750000000001,-0.638363,-0.019845,1.103735,-0.643613,0.0224149999999999
196,0.8552500000000001,0.7136285,-0.11324,0.79526,0.4449685,-0.0189799999999999,0.76406,0.2609985,0.0235499999999999,1.09372,0.5139785,-0.04624,1.18127,0.3177985,0.0466399999999999,0.7428400000000002,0.0741115,-0.0690400000000001,1.2414,0.1156784999999999,0.0368899999999999,0.9305400000000001,-0.0126664999999999,0.0079399999999999,1.06946,0.0126665,-0.00794,0.90977,-0.3384915,-0.01869,1.12605,-0.3482915,-0.0298,0.9168800000000001,-0.6374314999999999,-0.01575,1.10601,-0.6435215,0.0269599999999999
197,0.856665,0.7133015,-0.1089,0.785495,0.4463715,-0.00794,0.7706850000000001,0.2529815,0.03312,1.0920349999999999,0.5126415,-0.04298,1.178565,0.3156115,0.04922,0.7666450000000001,0.0732945,-0.0345999999999999,1.238455,0.1119215,0.0378199999999999,0.930715,-0.0128065,0.0090999999999999,1.0692849999999998,0.0128064999999999,-0.0090999999999999,0.910585,-0.3386385,-0.0153699999999999,1.127535,-0.3489885,-0.0264299999999999,0.918635,-0.6380184999999999,-0.01226,1.108425,-0.6442285,0.03061
