sb224sc-HT22-VT27/4dt907/src/data/kinect_good_preprocessed_not_cut_A11_mediapipe/A19_kinect_mirrored.csv
FrameNo,nose_3d_x,nose_3d_y,nose_3d_z,left_shoulder_3d_x,left_shoulder_3d_y,left_shoulder_3d_z,left_elbow_3d_x,left_elbow_3d_y,left_elbow_3d_z,right_shoulder_3d_x,right_shoulder_3d_y,right_shoulder_3d_z,right_elbow_3d_x,right_elbow_3d_y,right_elbow_3d_z,left_wrist_3d_x,left_wrist_3d_y,left_wrist_3d_z,right_wrist_3d_x,right_wrist_3d_y,right_wrist_3d_z,left_hip_3d_x,left_hip_3d_y,left_hip_3d_z,right_hip_3d_x,right_hip_3d_y,right_hip_3d_z,left_knee_3d_x,left_knee_3d_y,left_knee_3d_z,right_knee_3d_x,right_knee_3d_y,right_knee_3d_z,left_ankle_3d_x,left_ankle_3d_y,left_ankle_3d_z,right_ankle_3d_x,right_ankle_3d_y,right_ankle_3d_z
0,0.9961105,0.7597865,0.065262,0.8445595,0.4595365,0.063979,0.7946394999999999,0.2482965,0.037546,1.1639095,0.4618165,0.066842,1.2042294999999998,0.2385765,0.019865,0.7722795,0.0581615,-0.0675909999999999,1.2435695,0.0632885,-0.105081,0.9271845,-0.0021625,-0.0006099999999999,1.0728155,0.0021625,0.0006099999999999,0.8815795,-0.4151235,0.007083,1.1268495,-0.3699435,-0.024609,0.8719095,-0.7423435,-0.0262829999999999,1.1309894999999999,-0.7308135,-0.0356599999999999
1,0.9957135,0.76008,0.0682815,0.8465585,0.46113,0.0628505,0.7762285,0.25764,0.0196254999999999,1.1628684999999999,0.46332,0.0657205,1.2256385,0.26585,-0.0116495,0.7470185,0.0857489999999999,-0.1134575,1.2752185,0.10973,-0.1577075,0.9270915,-0.0021839999999999,-0.0005975,1.0729085,0.002184,0.0005975,0.8827285,-0.4119899999999999,0.0080165,1.1275285,-0.3686399999999999,-0.0228985,0.8730385,-0.7448100000000001,-0.0254795,1.1308085,-0.72957,-0.0335974999999999
2,0.9956085000000001,0.760097,0.0695335,0.8498574999999999,0.462437,0.0618404999999999,0.7658775,0.269127,-0.0040615,1.1618775000000001,0.464407,0.0648245,1.2336975,0.276317,-0.0284835,0.7319475000000001,0.115377,-0.1576604999999999,1.2896375,0.134407,-0.1866904999999999,0.9270355,-0.002195,-0.0005575,1.0729645,0.002195,0.0005574999999999,0.8833075000000001,-0.411793,0.0087794999999999,1.1278175,-0.366523,-0.0222405,0.8725475,-0.7443329999999999,-0.0285215,1.1311574999999998,-0.711723,-0.0216545
3,0.9957975,0.7601075,0.070922,0.8527815,0.4631775,0.0600329999999999,0.7589915,0.2793675,-0.020577,1.1613315,0.4649475,0.064028,1.2527715,0.2937675,-0.044523,0.7142815,0.1428775,-0.187583,1.3037614999999998,0.1703175,-0.2196129999999999,0.9269065,-0.0022095,-0.0004229999999999,1.0730935,0.0022094999999999,0.0004229999999999,0.8841815000000001,-0.4088025,0.0089499999999999,1.1284515,-0.3624425,-0.021905,0.8727914999999999,-0.7444025,-0.028429,1.1309915,-0.7118625,-0.020949
4,0.9959615,0.7601705,0.074367,0.8553875,0.4653704999999999,0.058936,0.7369475,0.3152304999999999,-0.055578,1.1569975000000001,0.4686504999999999,0.061619,1.2670675,0.3364105,-0.081039,0.6753675,0.2343605,-0.2515489999999999,1.3435475000000001,0.2527105,-0.2698589999999999,0.9265395,-0.0020755,-0.0003239999999999,1.0734605,0.0020755,0.000324,0.8855275,-0.4025095,0.009914,1.1289175,-0.3593195,-0.0212659999999999,0.8747075,-0.7447895,-0.0240289999999999,1.1306275000000001,-0.7078895000000001,-0.0182039999999999
5,0.9957210000000001,0.7596335,0.0752434999999999,0.854892,0.4654135,0.0580335,0.729562,0.3261334999999999,-0.0630205,1.156082,0.4688235,0.0603105,1.296622,0.3956334999999999,-0.0968435,0.6439520000000001,0.3764234999999999,-0.2590135,1.352922,0.3475735,-0.3046735,0.926132,-0.0020755,-0.0008985,1.073868,0.0020755,0.0008985,0.885552,-0.4016865,0.0094145,1.128712,-0.3603265,-0.0215735,0.875842,-0.7457065,-0.0237334999999999,1.129992,-0.7095665,-0.0184345
6,0.9970675000000001,0.7573585,0.0755595,0.8537715000000001,0.4681185,0.0568125,0.6980615,0.4089685,-0.1035165,1.1536215,0.4707085,0.0564045,1.3052915,0.4332785,-0.1022064999999999,0.6442114999999999,0.4247185,-0.3314865,1.3690514999999999,0.4434685,-0.3126365,0.9254755,-0.0022505,-0.0014544999999999,1.0745244999999999,0.0022505,0.0014545,0.8850815,-0.3916115,0.0090395,1.1274915,-0.3584215,-0.0220334999999999,0.8735415,-0.7466514999999999,-0.0257214999999999,1.1266515,-0.7162615,-0.0223094999999999
7,0.9964965,0.7556495,0.0756475,0.8505135,0.4714395,0.0581735,0.7120535,0.4177195,-0.0717365,1.1566435,0.4714695,0.0565785,1.2947335,0.4440295,-0.0837865,0.6595934999999999,0.4469295,-0.2613065,1.3576335,0.4584795,-0.2768265,0.9258785,-0.0019775,-0.0009555,1.0741215,0.0019775,0.0009555,0.8845535,-0.4003905,0.0087245,1.1271135,-0.3609704999999999,-0.0220725,0.8727035,-0.7478905,-0.0257904999999999,1.1268235,-0.7191905,-0.0227815
8,0.9965655,0.753746,0.076448,0.8503215,0.473406,0.057767,0.7076215,0.4505659999999999,-0.072683,1.1563215,0.473056,0.05531,1.2984115,0.476356,-0.084363,0.6565115,0.511836,-0.261573,1.3620714999999999,0.519716,-0.277433,0.9258035,-0.001913,-0.000868,1.0741965,0.0019129999999999,0.000868,0.8845115,-0.400344,0.008649,1.1269515,-0.362464,-0.021981,0.8725215,-0.749824,-0.025897,1.1263415,-0.721094,-0.023168
9,0.996709,0.751335,0.0767579999999999,0.8506130000000001,0.475415,0.0575559999999999,0.7063429999999999,0.486815,-0.0728129999999999,1.156113,0.474245,0.054439,1.2997029999999998,0.506765,-0.084613,0.656333,0.575095,-0.261753,1.361893,0.578645,-0.277613,0.925747,-0.00188,-0.0007859999999999,1.074253,0.0018799999999999,0.0007859999999999,0.884333,-0.401545,0.008469,1.126783,-0.364805,-0.0218319999999999,0.872313,-0.752095,-0.02591,1.125923,-0.723545,-0.023212
10,0.996911,0.748513,0.0768755,0.850778,0.477953,0.0574145,0.706178,0.522553,-0.0729134999999999,1.155918,0.475753,0.0536865,1.2995379999999999,0.533253,-0.0847135,0.656168,0.624063,-0.2618535,1.361728,0.632323,-0.2777135,0.925744,-0.0018539999999999,-0.0006775,1.074256,0.0018539999999999,0.0006775,0.884168,-0.403207,0.0083685,1.126628,-0.367677,-0.0216795,0.872158,-0.754727,-0.0258394999999999,1.125688,-0.727007,-0.0233085
11,0.9970465000000001,0.745508,0.0768685,0.8507205,0.480228,0.0574915,0.7060605,0.553148,-0.0729084999999999,1.1557805,0.477518,0.0532305,1.2994605,0.560118,-0.0839485,0.6562905,0.6728379999999999,-0.2563785,1.3618204999999999,0.681878,-0.2730085,0.9258145,-0.0017839999999999,-0.0006804999999999,1.0741855,0.001784,0.0006805,0.8840505,-0.405972,0.0083735,1.1264905,-0.370902,-0.0215804999999999,0.8720605000000001,-0.757592,-0.0256665,1.1255405,-0.730842,-0.0233745
12,0.9972435000000001,0.742701,0.07686,0.8506295,0.481881,0.057593,0.7061595,0.582991,-0.06853,1.1560394999999999,0.479991,0.0527539999999999,1.2995995,0.587781,-0.078734,0.6590195,0.720311,-0.240534,1.3611495,0.728091,-0.259494,0.9259055,-0.001719,-0.000685,1.0740945,0.001719,0.0006849999999999,0.8839395,-0.408879,0.008378,1.1263595,-0.374239,-0.021574,0.8718195,-0.760559,-0.025655,1.1254295,-0.734539,-0.023772
13,0.9974475000000002,0.7401829999999999,0.0768875,0.8505595,0.4833729999999999,0.0578155,0.7064295,0.6098129999999999,-0.0626135,1.1563195,0.482633,0.0523285,1.2976995,0.613003,-0.0714335,0.6654195,0.7632329999999999,-0.2230335,1.3591395,0.769923,-0.2407135,0.9259885,-0.001679,-0.0006515,1.0740115,0.001679,0.0006514999999999,0.8837895,-0.411657,0.0083784999999999,1.1262095,-0.377417,-0.0215305,0.8716995,-0.7635770000000001,-0.0255845,1.1253195,-0.7388870000000001,-0.0243115
14,0.9976425,0.7379034999999999,0.0769654999999999,0.8504975000000001,0.4844035,0.0581615,0.7104575,0.6354034999999999,-0.0524844999999999,1.1566175,0.4852135,0.0521905,1.2944675,0.6334434999999999,-0.0630135,0.6720174999999999,0.8022735,-0.1981545,1.3549475,0.8073235,-0.2198545,0.9260794999999999,-0.0016245,-0.0004514999999999,1.0739205,0.0016245,0.0004515,0.8836275,-0.4147465,0.0083245,1.1260775,-0.3808964999999999,-0.0213085,0.8716275,-0.7667265000000001,-0.0254025,1.1254575,-0.7430165000000001,-0.0246375
15,0.9979015,0.7358169999999999,0.076953,0.8505365,0.4852869999999999,0.058551,0.7147665000000001,0.657747,-0.041932,1.1566165,0.487807,0.052315,1.2904365,0.653057,-0.054533,0.6794365,0.836237,-0.17234,1.3494665000000001,0.8409169999999999,-0.19674,0.9261665,-0.00156,-0.0002299999999999,1.0738335,0.0015599999999999,0.00023,0.8835265,-0.417713,0.008382,1.1259465,-0.384603,-0.0209309999999999,0.8716865,-0.7698130000000001,-0.0249459999999999,1.1257164999999998,-0.747133,-0.0248299999999999
16,0.998239,0.733956,0.076756,0.850823,0.486256,0.059058,0.7203729999999999,0.678076,-0.03086,1.1567029999999998,0.490236,0.052578,1.286503,0.670436,-0.04535,0.687263,0.867356,-0.145124,1.343413,0.870446,-0.172974,0.926277,-0.001506,4.000000000000531e-06,1.073723,0.001506,-4.000000000000531e-06,0.8835030000000001,-0.420524,0.008501,1.125843,-0.3882839999999999,-0.020576,0.871883,-0.772834,-0.024369,1.126183,-0.751244,-0.025012
17,0.9986155000000001,0.7326280000000001,0.0765375,0.8513325,0.486998,0.0596945,0.7264025000000001,0.693868,-0.0193925,1.1568325,0.492308,0.0530005,1.2822625,0.6850080000000001,-0.0360725,0.6944125,0.890868,-0.1207105,1.3376125,0.893758,-0.1512005,0.9264255,-0.001492,0.0002085,1.0735745,0.001492,-0.0002085,0.8834925,-0.422872,0.0087294999999999,1.1257625,-0.391522,-0.0201345,0.8721125000000001,-0.7754519999999999,-0.0235885,1.1266725,-0.7550319999999999,-0.0250865
18,0.9990045,0.7319025,0.076178,0.8520435,0.4875125,0.06035,0.7324535,0.7057525,-0.008645,1.1570035,0.4944624999999999,0.053412,1.2777835,0.6969225,-0.0280829999999999,0.7007535,0.9066925,-0.097161,1.3320635,0.9105725,-0.1310009999999999,0.9266085,-0.0014335,0.00034,1.0733915,0.0014334999999999,-0.00034,0.8835135000000001,-0.4247674999999999,0.008953,1.1256735,-0.3944574999999999,-0.019707,0.8723835,-0.7778175,-0.0228169999999999,1.1272335,-0.7584475,-0.0249889999999999
19,0.9993990000000001,0.7315175,0.0756205,0.852842,0.4874275,0.0610275,0.7370019999999999,0.7169975,0.0001064999999999,1.156892,0.4966175,0.0538515,1.273032,0.7065875,-0.0212095,0.705552,0.9213975,-0.0791915,1.327202,0.9226075,-0.1134314999999999,0.926798,-0.0013934999999999,0.0004184999999999,1.073202,0.0013934999999999,-0.0004185,0.883582,-0.4262225,0.0091794999999999,1.125572,-0.3963125,-0.0193575,0.872762,-0.7798525,-0.0220305,1.1276220000000001,-0.7614625,-0.0248665
20,0.9997215000000002,0.7315309999999999,0.074885,0.8538555,0.4871710000000001,0.061498,0.7405455000000001,0.724101,0.006312,1.1564555,0.4984409999999999,0.054399,1.2696655,0.712271,-0.015384,0.7091855,0.931211,-0.065102,1.3228855,0.928701,-0.0984749999999999,0.9269035,-0.001409,0.000446,1.0730965,0.001409,-0.000446,0.8836455,-0.4273889999999999,0.0094139999999999,1.1254055,-0.397829,-0.019103,0.8732255,-0.781629,-0.021289,1.1278955,-0.7642690000000001,-0.0246619999999999
21,1.000043,0.7314875000000001,0.0742255,0.8546670000000001,0.4871574999999999,0.0618905,0.7433970000000001,0.7294675,0.0115035,1.156107,0.4995475,0.0548185,1.267067,0.7156175,-0.0104724999999999,0.711797,0.9371075,-0.0538435,1.319337,0.9327075,-0.0865264999999999,0.926983,-0.0014454999999999,0.0004735,1.073017,0.0014455,-0.0004735,0.8837470000000001,-0.4284825,0.0096835,1.125287,-0.3991525,-0.0189355,0.873367,-0.7827225,-0.0206675,1.128107,-0.7655925,-0.0241655
22,1.0003845,0.7314715,0.073512,0.8553335,0.4871315,0.0622969999999999,0.7459935,0.7342815,0.0159789999999999,1.1556735,0.5003815,0.055281,1.2647435,0.7192215000000001,-0.006002,0.7142835000000001,0.9419515,-0.043075,1.3159135,0.9361315,-0.075687,0.9270605,-0.0014715,0.0004989999999999,1.0729395,0.0014715,-0.000499,0.8838535,-0.4295285,0.0099039999999999,1.1251735,-0.4004285,-0.01877,0.8736135,-0.7838685,-0.019934,1.1283335,-0.7668785,-0.023546
23,1.0007229999999998,0.7314265,0.0727734999999999,0.855903,0.4873665,0.0626095,0.748283,0.7383765,0.0201315,1.155013,0.5013065,0.0558005,1.262813,0.7227365,-0.0020354999999999,0.716493,0.9463065,-0.0334295,1.3125930000000001,0.9391165,-0.0659595,0.927121,-0.0015444999999999,0.0005365,1.072879,0.0015444999999999,-0.0005365,0.883953,-0.4305235,0.0101585,1.1250129999999998,-0.4014735,-0.0186245,0.873833,-0.7850135,-0.0190745,1.1285129999999999,-0.7680935000000001,-0.0229575
24,1.001182,0.731107,0.0716525,0.856295,0.487217,0.0625795,0.7504850000000001,0.742297,0.0237485,1.154355,0.501257,0.0559345,1.261175,0.7262069999999999,0.0016505,0.718785,0.950297,-0.0247104999999999,1.3097050000000001,0.941547,-0.0575954999999999,0.927163,-0.0015919999999999,0.0005565,1.072837,0.001592,-0.0005564999999999,0.883875,-0.431233,0.0105395,1.124715,-0.402133,-0.0183524999999999,0.8739950000000001,-0.786683,-0.0179884999999999,1.128465,-0.770453,-0.0222664999999999
25,1.0016209999999999,0.731187,0.070525,0.856513,0.486847,0.062572,0.752363,0.745897,0.02682,1.153833,0.501337,0.056024,1.259693,0.729997,0.004833,0.720703,0.952907,-0.0179609999999999,1.306983,0.944167,-0.0505839999999999,0.927169,-0.0016159999999999,0.00055,1.072831,0.0016159999999999,-0.0005499999999999,0.883743,-0.431613,0.010915,1.1244029999999998,-0.403213,-0.0179629999999999,0.874093,-0.788013,-0.0170779999999999,1.128373,-0.772233,-0.02184
26,1.0020064999999998,0.73141,0.0692369999999999,0.8565745,0.4865899999999999,0.062415,0.7536245,0.7496200000000001,0.029073,1.1534144999999998,0.50147,0.0559599999999999,1.2586545,0.73344,0.0072489999999999,0.7223445,0.95544,-0.011936,1.3047245,0.94654,-0.044833,0.9271435000000001,-0.001632,0.000419,1.0728564999999999,0.001632,-0.000419,0.8835745,-0.43182,0.0111479999999999,1.1240645,-0.40413,-0.017717,0.8741145,-0.78908,-0.01637,1.1282645,-0.77377,-0.0215759999999999
27,1.0024355,0.7315255,0.067617,0.8565665,0.4861755,0.062014,0.7547465000000001,0.7497655000000001,0.030616,1.1531965,0.5014555,0.055768,1.2580865,0.7369255,0.008967,0.7237165,0.9569655,-0.0072369999999999,1.3029165,0.9486055,-0.0403709999999999,0.9271275,-0.0016584999999999,0.000231,1.0728725,0.0016585,-0.0002309999999999,0.8833865000000001,-0.4319245,0.011164,1.1237365,-0.4050045,-0.0176169999999999,0.8739865,-0.7899645,-0.0157659999999999,1.1280865,-0.7753945,-0.0216289999999999
28,1.002921,0.731676,0.0659625,0.8565659999999999,0.4858059999999999,0.0614885,0.755806,0.7498360000000001,0.0318175,1.153146,0.501336,0.0554115,1.257866,0.740106,0.0100635,0.724776,0.958136,-0.0039404999999999,1.301526,0.950136,-0.0368894999999999,0.927101,-0.0016499999999999,9.35000000000033e-05,1.072899,0.00165,-9.349999999999636e-05,0.883186,-0.432034,0.0110175,1.123376,-0.405894,-0.0175955,0.873756,-0.790654,-0.0153714999999999,1.127906,-0.776844,-0.0218034999999999
29,1.003411,0.731797,0.064333,0.856558,0.485517,0.060852,0.756658,0.749897,0.032478,1.153108,0.501267,0.055079,1.257888,0.742687,0.010105,0.725268,0.959037,-0.002555,1.3009279999999999,0.951137,-0.035236,0.9270740000000001,-0.0016229999999999,9.50000000000048e-05,1.0729259999999998,0.0016229999999999,-9.499999999999786e-05,0.8829480000000001,-0.432173,0.01075,1.1230179999999998,-0.406843,-0.01765,0.873398,-0.791003,-0.015355,1.127708,-0.778133,-0.022092
30,1.0038734999999999,0.7317994999999999,0.062491,0.8564165,0.4850894999999999,0.060222,0.7572965,0.7498595,0.032858,1.1530865,0.5013495,0.054758,1.2578764999999998,0.7449795,0.010105,0.7255265,0.9594695,-0.0017259999999999,1.3005865,0.9516695,-0.034291,0.9270225,-0.0015715,9.699999999999986e-05,1.0729775,0.0015714999999999,-9.699999999999986e-05,0.8825465,-0.4328505,0.010125,1.1225865,-0.4079305,-0.017705,0.8729565,-0.7914005000000001,-0.0153359999999999,1.1273965,-0.7785505,-0.021556
31,1.004337,0.731746,0.060537,0.8563419999999999,0.484706,0.059456,0.7573719999999999,0.7497959999999999,0.033014,1.153042,0.501276,0.054291,1.257832,0.7467459999999999,0.009953,0.7255020000000001,0.959586,-0.0016159999999999,1.3004419999999999,0.951986,-0.034042,0.926952,-0.0015379999999999,-5.3999999999998494e-05,1.073048,0.001538,5.400000000000543e-05,0.882072,-0.433724,0.009297,1.122112,-0.409284,-0.017908,0.872482,-0.7918639999999999,-0.0154679999999999,1.127052,-0.7790539999999999,-0.021237
32,1.0048535,0.7317205,0.058296,0.8563175000000001,0.4841705,0.058477,0.7574275,0.7494505,0.032581,1.1531975,0.5015805,0.053546,1.2582575,0.7484805,0.009304,0.7254775,0.9593605,-0.0020449999999999,1.3004175,0.9523605,-0.034468,0.9268495,-0.0014774999999999,-0.0002389999999999,1.0731505,0.0014774999999999,0.000239,0.8815875,-0.4345994999999999,0.007991,1.1216175,-0.4108294999999999,-0.018414,0.8718775,-0.7923195,-0.0160739999999999,1.1267075,-0.7796394999999999,-0.0214579999999999
33,1.005274,0.7317684999999999,0.0560835,0.856388,0.4840185000000001,0.0575405,0.757418,0.7491685,0.0317085,1.153388,0.5027185,0.0526645,1.258568,0.7492285,0.0080965,0.725468,0.9589685,-0.0029174999999999,1.300408,0.9519685,-0.0353405,0.926735,-0.0014534999999999,-0.0004204999999999,1.073265,0.0014535,0.0004205,0.881228,-0.4349915,0.0060675,1.121278,-0.4112214999999999,-0.0193614999999999,0.871478,-0.7927115,-0.0171654999999999,1.126498,-0.7791915,-0.0220224999999999
34,1.0057284999999998,0.7317684999999999,0.053276,0.8566805,0.4844485,0.0558909999999999,0.7574205,0.7492084999999999,0.030176,1.1535305,0.5038984999999999,0.051224,1.2586005,0.7492285,0.006269,0.7254505,0.9589685,-0.004371,1.3004105,0.9519685,-0.036775,0.9265695,-0.0014534999999999,-0.0007139999999999,1.0734305,0.0014535,0.0007139999999999,0.8808705,-0.4349915,0.0033839999999999,1.1209205,-0.4112214999999999,-0.0208749999999999,0.8711305,-0.7927115,-0.019352,1.1262905,-0.7790015,-0.023487
35,1.0062675,0.7317684999999999,0.049795,0.8567184999999999,0.4844485,0.0537809999999999,0.7574285000000001,0.7492084999999999,0.027926,1.1536485,0.5044784999999999,0.049315,1.2586085,0.7492285,0.0038809999999999,0.7252185,0.9589685,-0.006623,1.3005784999999999,0.9519685,-0.03915,0.9264265,-0.0014534999999999,-0.0009429999999999,1.0735735,0.0014535,0.0009429999999999,0.8805385,-0.4349915,0.000169,1.1205785,-0.4112214999999999,-0.022848,0.8707885,-0.7926815,-0.022079,1.1262385,-0.7790015,-0.02547
36,1.006788,0.7317754999999999,0.044861,0.856954,0.4842255,0.050293,0.757064,0.7491055,0.024658,1.153704,0.5044655,0.046147,1.258554,0.7492354999999999,-3.399999999999931e-05,0.7243040000000001,0.9587755,-0.0103229999999999,1.300764,0.9519755,-0.042865,0.926293,-0.0014465,-0.001166,1.073707,0.0014464999999999,0.001166,0.8800340000000001,-0.4356845,-0.004584,1.120314,-0.4128645,-0.0264359999999999,0.870534,-0.7926745,-0.0263519999999999,1.126304,-0.7797945,-0.029407
37,1.007312,0.7312295,0.037493,0.8572919999999999,0.4841895,0.045221,0.756382,0.7491095,0.01906,1.153702,0.5045495,0.041397,1.258392,0.7476895,-0.0057949999999999,0.7229220000000001,0.9580595,-0.0167029999999999,1.301192,0.9510595,-0.049543,0.926161,-0.0014474999999999,-0.0012749999999999,1.073839,0.0014474999999999,0.001275,0.879402,-0.4364905,-0.01106,1.120112,-0.4138205,-0.031654,0.870392,-0.7927204999999999,-0.032248,1.126302,-0.7805905,-0.035626
38,1.007734,0.730344,0.0268725,0.857625,0.4847939999999999,0.0381385,0.755135,0.748174,0.0104745,1.153645,0.504904,0.0344945,1.258065,0.744934,-0.0144584999999999,0.720835,0.956664,-0.0266254999999999,1.301665,0.949864,-0.0597444999999999,0.926006,-0.0013769999999999,-0.0011634999999999,1.073994,0.001377,0.0011635,0.878435,-0.436496,-0.0200074999999999,1.119935,-0.414026,-0.0390125,0.870205,-0.7920159999999999,-0.0399915,1.126195,-0.780806,-0.0442855
39,1.008279,0.72691,0.0150099999999999,0.8581380000000001,0.48509,0.029377,0.753718,0.74608,4.0000000000000105e-05,1.153778,0.50561,0.0264,1.2578479999999999,0.74132,-0.0249549999999999,0.718448,0.95492,-0.039143,1.302278,0.94852,-0.072409,0.9259100000000001,-0.001228,-0.0011099999999999,1.07409,0.001228,0.0011099999999999,0.8774379999999999,-0.4357299999999999,-0.0304479999999999,1.119888,-0.41346,-0.0484039999999999,0.870178,-0.7905,-0.0489039999999999,1.126358,-0.78012,-0.0540839999999999
40,1.0088514999999998,0.723807,0.002478,0.8589445,0.4856969999999999,0.019888,0.7521045,0.743817,-0.0113529999999999,1.1538945,0.506177,0.0177009999999999,1.2577445,0.738507,-0.036218,0.7158945,0.953477,-0.052934,1.3028445,0.947307,-0.08632,0.9257745,-0.001113,-0.000832,1.0742255,0.0011129999999999,0.000832,0.8764445,-0.434063,-0.041697,1.1198545,-0.412153,-0.058788,0.8702645,-0.7884530000000001,-0.058412,1.1262545,-0.778253,-0.0642529999999999
41,1.0093064999999999,0.7202394999999999,-0.010658,0.8596675,0.4864995,0.0099959999999999,0.7502875,0.7415795,-0.023449,1.1539475,0.5063194999999999,0.0087029999999999,1.2574874999999999,0.7351894999999999,-0.048123,0.7130475000000001,0.9520995,-0.067757,1.3032975,0.9464195,-0.101075,0.9256685,-0.0009305,-0.000571,1.0743315,0.0009305,0.000571,0.8753975,-0.4315805,-0.053316,1.1197975,-0.4110505,-0.070561,0.8705775,-0.7856805,-0.068056,1.1260375,-0.7758205,-0.07453
42,1.009253,0.7167385,-0.0242235,0.860209,0.4868285,-0.0002475,0.747979,0.7397484999999999,-0.0362515,1.153639,0.5058984999999999,-0.0005235,1.256789,0.7317785,-0.0605565,0.7095390000000001,0.9511185,-0.0837465,1.303359,0.9463185,-0.1164505,0.925565,-0.0007285,-0.0003145,1.074435,0.0007285,0.0003144999999999,0.874009,-0.4277015,-0.0653385,1.119499,-0.4092415,-0.0830065,0.870629,-0.7817815,-0.0780385,1.125729,-0.7720215,-0.0850655
43,1.009101,0.7129285,-0.0376335,0.860591,0.4874485,-0.0102705,0.7457309999999999,0.7368684999999999,-0.0493865,1.153331,0.5057284999999999,-0.0096475,1.256001,0.7272985,-0.0729755,0.7059409999999999,0.9498285,-0.1000385,1.303321,0.9460385,-0.1320285,0.925473,-0.0005635,3.449999999999981e-05,1.074527,0.0005635,-3.449999999999981e-05,0.872611,-0.4234115,-0.0774335,1.119241,-0.4075515,-0.0956555,0.870721,-0.7774515000000001,-0.0876035,1.125431,-0.7679115000000001,-0.0955035
44,1.00878,0.7089715000000001,-0.0510635,0.860853,0.4886514999999999,-0.0204954999999999,0.7433730000000001,0.7334215000000001,-0.0626775,1.152963,0.5055115,-0.0189844999999999,1.2551029999999999,0.7223315,-0.0854615,0.702243,0.9482415,-0.1166125,1.3031329999999999,0.9454615,-0.1480564999999999,0.925413,-0.0003265,0.0002615,1.074587,0.0003265,-0.0002614999999999,0.871113,-0.4189485,-0.0897864999999999,1.118983,-0.4052385,-0.1084995,0.871243,-0.7725485,-0.0973825,1.125153,-0.7636385,-0.1059755
45,1.008376,0.70491,-0.0645105,0.861138,0.4882299999999999,-0.0304615,0.7408680000000001,0.73088,-0.0755405,1.152488,0.50406,-0.0281935,1.254178,0.71848,-0.0973875,0.698558,0.94839,-0.1324715,1.302818,0.94702,-0.1632405,0.925426,-8.200000000000221e-05,0.0005574999999999,1.074574,8.199999999999874e-05,-0.0005575,0.869648,-0.41203,-0.1022245,1.118818,-0.40059,-0.1212685,0.871708,-0.76536,-0.1068435,1.124978,-0.75784,-0.1171695
46,1.0078049999999998,0.699761,-0.0761505,0.861369,0.4880909999999999,-0.0395175,0.738919,0.726061,-0.0877475,1.151889,0.502521,-0.0367195,1.253449,0.715261,-0.1087595,0.6950890000000001,0.948181,-0.1479775,1.302369,0.943431,-0.1776055,0.925387,0.000269,0.0006945,1.074613,-0.000269,-0.0006945,0.868249,-0.401849,-0.1142155,1.118879,-0.390409,-0.1345245,0.872279,-0.755879,-0.1157215,1.1248589999999998,-0.749389,-0.1267825
47,1.0072394999999998,0.6948125,-0.0857505,0.8614945,0.4864425,-0.0481585,0.7372845,0.7232225,-0.0984685,1.1510844999999998,0.4996825,-0.0447695,1.2528645,0.7137425000000001,-0.1187435,0.6923945,0.9437225,-0.1613235,1.3016745,0.9426725,-0.1898635,0.9252595,0.0005625,0.0008275,1.0747405,-0.0005625,-0.0008275,0.8670445,-0.3890275,-0.1256615,1.1192245,-0.3775875,-0.1476765,0.8729545,-0.7433974999999999,-0.1230064999999999,1.1246245,-0.7385174999999999,-0.1350005
48,1.006261,0.6927245000000001,-0.0991445,0.861291,0.4854144999999999,-0.0601375,0.735301,0.7214845000000001,-0.1127075,1.149601,0.4986744999999999,-0.0563195,1.251891,0.7130645,-0.1319645,0.689691,0.9399445,-0.1770905,1.300621,0.9432545,-0.2050005,0.925129,0.0006065,0.0010734999999999,1.074871,-0.0006064999999999,-0.0010735,0.865721,-0.3741155,-0.1404035,1.119141,-0.3634755,-0.1638905,0.873131,-0.7292354999999999,-0.1338565,1.1237709999999999,-0.7262055,-0.1467465
49,1.00467,0.6917075,-0.112248,0.860989,0.4836275,-0.072379,0.733179,0.7207375,-0.126616,1.146949,0.4958674999999999,-0.067937,1.250429,0.7097775000000001,-0.145113,0.686749,0.9391075,-0.192329,1.2992789999999999,0.9443075,-0.219849,0.924851,0.0005124999999999,0.0009709999999999,1.075149,-0.0005125,-0.000971,0.863299,-0.3554525,-0.158637,1.119249,-0.3474225,-0.182699,0.872839,-0.7125425,-0.144408,1.122589,-0.7113824999999999,-0.158252
50,1.0027685,0.68885,-0.126157,0.8607715000000001,0.48029,-0.085685,0.7312215,0.71803,-0.142147,1.1442915,0.49373,-0.080767,1.2491615,0.71068,-0.159509,0.6841915000000001,0.93544,-0.208656,1.2975415,0.94176,-0.235006,0.9245445,0.0004079999999999,0.000847,1.0754555,-0.000408,-0.000847,0.8602015000000001,-0.3327799999999999,-0.178931,1.1197215,-0.32676,-0.201976,0.8724315,-0.69066,-0.155185,1.1215515,-0.6911700000000001,-0.170242
51,1.0007359999999998,0.6855745,-0.139273,0.860244,0.4782445,-0.098387,0.729174,0.7144045,-0.157124,1.141424,0.4919945,-0.093046,1.247204,0.7116145,-0.17372,0.681844,0.9316445,-0.223941,1.295474,0.9386545,-0.249761,0.924226,0.0003205,0.0007089999999999,1.075774,-0.0003205,-0.000709,0.856904,-0.3109355,-0.198589,1.1198839999999999,-0.3060655,-0.2206509999999999,0.871794,-0.6688655,-0.1653,1.120164,-0.6710855,-0.181678
52,0.998634,0.6827475000000001,-0.152279,0.859482,0.4750175,-0.111035,0.7271719999999999,0.7116475,-0.17174,1.138342,0.4890375,-0.10537,1.245472,0.7095275000000001,-0.1875939999999999,0.679562,0.9292375,-0.239165,1.293382,0.9363775,-0.264405,0.923976,0.0002365,0.0007149999999999,1.076024,-0.0002365,-0.000715,0.853622,-0.2878525,-0.218405,1.119942,-0.2836725,-0.239665,0.871142,-0.6447825,-0.175541,1.118612,-0.6490724999999999,-0.193093
53,0.9965695,0.6794950000000001,-0.16496,0.8587805,0.470955,-0.123305,0.7253905,0.709495,-0.18599,1.1354005,0.486025,-0.117602,1.2436305,0.7082550000000001,-0.201115,0.6772905,0.924165,-0.254465,1.2913005,0.929545,-0.278965,0.9236005,0.0001349999999999,0.0008449999999999,1.0763995,-0.0001349999999999,-0.0008449999999999,0.8503505,-0.2642649999999999,-0.238095,1.1202005,-0.259675,-0.258515,0.8702105,-0.619695,-0.185696,1.1174405,-0.625715,-0.204253
54,0.9946085,0.67613,-0.176487,0.8578675,0.46896,-0.134901,0.7235975,0.70534,-0.199994,1.1326375,0.48451,-0.12909,1.2417775,0.70444,-0.213945,0.6750674999999999,0.91786,-0.26935,1.2901175,0.92205,-0.29353,0.9232655,-3.0000000000002247e-05,0.0008199999999999,1.0767345,2.999999999997449e-05,-0.00082,0.8471075,-0.24315,-0.25673,1.1203975,-0.23786,-0.27644,0.8693275,-0.5969800000000001,-0.194976,1.1162475,-0.60481,-0.214054
55,0.9926545,0.6735,-0.188874,0.8570435000000001,0.46428,-0.146754,0.7216035000000001,0.70313,-0.213856,1.1300035,0.48072,-0.140812,1.2403235,0.70424,-0.227444,0.6726835,0.91221,-0.2839049999999999,1.2879735,0.91976,-0.308085,0.9229625,-0.0002599999999999,0.0007649999999999,1.0770375,0.00026,-0.0007649999999999,0.8439135,-0.2208,-0.275265,1.1205335,-0.2143499999999999,-0.293385,0.8685035,-0.57306,-0.204405,1.1152735,-0.5817599999999999,-0.223794
56,0.9906570000000001,0.669315,-0.201679,0.856225,0.4614549999999999,-0.157686,0.719685,0.699855,-0.2276929999999999,1.127565,0.477535,-0.151956,1.239085,0.7036049999999999,-0.24155,0.669905,0.910075,-0.29868,1.286175,0.915275,-0.32299,0.9226870000000001,-0.000395,0.00053,1.077313,0.000395,-0.00053,0.840905,-0.198155,-0.29312,1.120485,-0.1908049999999999,-0.30928,0.867775,-0.548815,-0.213156,1.114355,-0.558355,-0.233068
57,0.9889315,0.664595,-0.210118,0.8558295,0.457315,-0.164424,0.7178295,0.6959850000000001,-0.236946,1.1256595,0.473295,-0.159119,1.2378095,0.702815,-0.25223,0.6672994999999999,0.905365,-0.30934,1.2849495,0.908355,-0.33478,0.9225065000000001,-0.000585,0.00042,1.0774934999999999,0.000585,-0.00042,0.8382495,-0.174215,-0.30635,1.1205295,-0.166495,-0.3206299999999999,0.8673595000000001,-0.523355,-0.217467,1.1134695,-0.534435,-0.237971
58,0.9876410000000001,0.6585099999999999,-0.218471,0.855521,0.45386,-0.170135,0.716251,0.68937,-0.245972,1.124781,0.47094,-0.165598,1.236721,0.70072,-0.2626,0.665381,0.8970199999999999,-0.31952,1.284041,0.8984700000000001,-0.3467099999999999,0.9223129999999999,-0.00057,0.0004099999999999,1.077687,0.0005699999999999,-0.0004099999999999,0.836721,-0.15225,-0.31525,1.120171,-0.14445,-0.32835,0.867181,-0.5013099999999999,-0.2210039999999999,1.112801,-0.5126,-0.241387
59,0.986708,0.653465,-0.225628,0.855329,0.452325,-0.174204,0.714819,0.685375,-0.2525509999999999,1.124229,0.4683849999999999,-0.170468,1.235819,0.695685,-0.27092,0.663639,0.8913449999999999,-0.32797,1.283159,0.892625,-0.35784,0.922117,-0.000485,0.0004,1.077883,0.0004849999999999,-0.0004,0.836159,-0.134905,-0.32142,1.119689,-0.127125,-0.33415,0.866959,-0.483985,-0.223142,1.112109,-0.495275,-0.24384
60,0.9857835,0.6476,-0.234694,0.8552265,0.44897,-0.179037,0.7133265000000001,0.68087,-0.26023,1.1238165,0.4643899999999999,-0.176225,1.2352764999999999,0.68853,-0.28024,0.6613165000000001,0.8856999999999999,-0.33928,1.2824465,0.8871399999999999,-0.37107,0.9219685,-0.00042,0.0004399999999999,1.0780315,0.0004199999999999,-0.0004399999999999,0.8357465,-0.11217,-0.32787,1.1193065,-0.10467,-0.34007,0.8668465,-0.46153,-0.225486,1.1116465,-0.47294,-0.246516
61,0.985116,0.640325,-0.243964,0.8552649999999999,0.446535,-0.183486,0.712045,0.675755,-0.267625,1.1237149999999998,0.461495,-0.181602,1.235805,0.684815,-0.289575,0.659285,0.878635,-0.349935,1.2820049999999998,0.8766750000000001,-0.384425,0.9218230000000001,-0.0003549999999999,0.0003949999999999,1.078177,0.0003549999999999,-0.000395,0.835665,-0.094015,-0.333435,1.1192549999999999,-0.087355,-0.344875,0.867085,-0.440885,-0.227954,1.111525,-0.452565,-0.248113
62,0.9843525,0.634375,-0.252973,0.8549575,0.444555,-0.187805,0.7106475,0.670785,-0.274775,1.1233475,0.458365,-0.186643,1.2352675,0.6817850000000001,-0.299135,0.6571175,0.874615,-0.359915,1.2822675000000001,0.872355,-0.396875,0.9217744999999999,-0.0002349999999999,0.000285,1.0782255,0.000235,-0.000285,0.8354075,-0.0749149999999999,-0.338065,1.1187775,-0.0688049999999999,-0.349195,0.8671975000000001,-0.4199149999999999,-0.230907,1.1113975,-0.431705,-0.250112
63,0.9835760000000001,0.628055,-0.262059,0.854663,0.4415949999999999,-0.1919179999999999,0.709193,0.666695,-0.281705,1.122903,0.455005,-0.1916469999999999,1.234693,0.680955,-0.309355,0.6550830000000001,0.869625,-0.369805,1.282423,0.8671949999999999,-0.409945,0.921671,-0.000165,0.0004149999999999,1.078329,0.0001649999999999,-0.0004149999999999,0.835183,-0.055205,-0.342045,1.118303,-0.050045,-0.3531649999999999,0.867463,-0.399115,-0.233534,1.111193,-0.410765,-0.252108
64,0.9828455,0.62172,-0.269565,0.8545015,0.4407189999999999,-0.19479,0.7082215000000001,0.6616299999999999,-0.287215,1.1224915,0.4541989999999999,-0.195217,1.2349515,0.6769499999999999,-0.318145,0.6538515,0.8635999999999999,-0.378115,1.2827115,0.86182,-0.421635,0.9215755,-4.000000000004e-05,0.000695,1.0784245,3.999999999998449e-05,-0.000695,0.8352315,-0.03697,-0.344685,1.1178815,-0.03349,-0.355695,0.8672815,-0.38069,-0.235264,1.1111015,-0.39218,-0.25322
65,0.9821815000000002,0.617145,-0.276015,0.8541275,0.438204,-0.197708,0.7073275,0.6577649999999999,-0.291945,1.1218675,0.452046,-0.198801,1.2350475,0.673095,-0.325695,0.6530875,0.859845,-0.385735,1.2830375,0.8565050000000001,-0.432255,0.9212935,4.999999999977245e-06,0.000975,1.0787065,-4.999999999977245e-06,-0.000975,0.8352775,-0.0199349999999999,-0.345985,1.1172875,-0.018025,-0.357165,0.8668775000000001,-0.363805,-0.237016,1.1108575,-0.375245,-0.25527
66,0.9815795,0.613245,-0.281695,0.8538345,0.437231,-0.199843,0.7067645,0.654705,-0.296545,1.1213745,0.450222,-0.201808,1.2353045,0.669385,-0.332515,0.6522545,0.857675,-0.392965,1.2836445,0.8520449999999999,-0.442535,0.9211395,0.0003049999999999,0.0010449999999999,1.0788605,-0.0003049999999999,-0.001045,0.8354945,-0.0037149999999999,-0.346815,1.1167445,-0.0033949999999999,-0.357965,0.8665145000000001,-0.3477749999999999,-0.238456,1.1107545,-0.359365,-0.256824
67,0.9809745,0.609965,-0.28708,0.8537065,0.436197,-0.202058,0.7062165,0.651575,-0.30077,1.1207865,0.448755,-0.20493,1.2351765000000001,0.668095,-0.34046,0.6513765,0.855845,-0.40044,1.2840965,0.849235,-0.45242,0.9210075,0.000615,0.00105,1.0789925,-0.0006149999999999,-0.0010499999999999,0.8355865,0.012025,-0.34763,1.1161165,0.010765,-0.3587399999999999,0.8660065,-0.3324049999999999,-0.240006,1.1106565,-0.343535,-0.257789
68,0.980243,0.60671,-0.29261,0.853507,0.4342109999999999,-0.204915,0.705567,0.64747,-0.30521,1.1201569999999998,0.446938,-0.208308,1.234737,0.66577,-0.3484,0.6503570000000001,0.8531599999999999,-0.40803,1.283897,0.84552,-0.46226,0.92111,0.0005999999999999,0.0013499999999999,1.07889,-0.0006,-0.0013499999999999,0.836177,0.02803,-0.34767,1.115177,0.0252399999999999,-0.3595399999999999,0.865837,-0.31587,-0.240842,1.110937,-0.3271,-0.258203
69,0.9796975,0.603805,-0.296775,0.8533225,0.433096,-0.20758,0.7050325,0.6441250000000001,-0.308705,1.1196425,0.445722,-0.211335,1.2341925,0.665115,-0.3555549999999999,0.6497525,0.850445,-0.413095,1.2830425,0.840805,-0.470455,0.9212994999999999,0.0005249999999999,0.0017149999999999,1.0787005,-0.0005249999999999,-0.0017149999999999,0.8370925000000001,0.038845,-0.3473549999999999,1.1144825,0.035195,-0.360025,0.8658625,-0.3046549999999999,-0.2417969999999999,1.1112725,-0.315885,-0.2586199999999999
70,0.9792355,0.60082,-0.30094,0.8533395,0.431489,-0.211034,0.7045494999999999,0.64088,-0.31292,1.1191795,0.444065,-0.215059,1.2334595,0.6644100000000001,-0.36357,0.6487295,0.84667,-0.41896,1.2825895,0.83982,-0.47907,0.9215555,0.00032,0.0021599999999999,1.0784445,-0.0003199999999999,-0.0021599999999999,0.8383795,0.04981,-0.34638,1.1139394999999999,0.04543,-0.3603699999999999,0.8659395,-0.29384,-0.242878,1.1116295,-0.30457,-0.259278
71,0.9788425,0.59687,-0.305535,0.8531195,0.429719,-0.2150439999999999,0.7040295,0.63714,-0.317825,1.1185995,0.441473,-0.219556,1.2327595,0.66198,-0.371695,0.6476195,0.84321,-0.425375,1.2821095,0.83679,-0.488205,0.9217995,2.000000000002e-05,0.0028249999999999,1.0782005,-1.999999999996449e-05,-0.0028249999999999,0.8398895,0.05959,-0.344885,1.1133695,0.05461,-0.360375,0.8659895,-0.2844599999999999,-0.243064,1.1121095,-0.2941499999999999,-0.260367
72,0.978924,0.5926049999999999,-0.310415,0.853031,0.427898,-0.219878,0.7040310000000001,0.631095,-0.322955,1.118331,0.438021,-0.2245339999999999,1.232571,0.658005,-0.380375,0.646531,0.8360449999999999,-0.432685,1.281691,0.832425,-0.497465,0.9221330000000001,-0.000215,0.003685,1.077867,0.0002149999999999,-0.0036849999999999,0.841761,0.0694449999999999,-0.342685,1.1131609999999998,0.0635449999999999,-0.359925,0.866921,-0.274555,-0.242833,1.112561,-0.285485,-0.2611839999999999
73,0.9786375,0.58891,-0.315365,0.8528035,0.424966,-0.2251459999999999,0.7039934999999999,0.62592,-0.328185,1.1179635,0.433636,-0.2298859999999999,1.2323235,0.6540900000000001,-0.388885,0.6453535,0.8294600000000001,-0.439835,1.2812234999999998,0.8281700000000001,-0.506485,0.9225925000000001,-0.0004899999999999,0.0044949999999999,1.0774074999999999,0.00049,-0.0044949999999999,0.8434135,0.07934,-0.340615,1.1128335,0.07261,-0.359545,0.8676135,-0.2642899999999999,-0.2425649999999999,1.1132935,-0.27688,-0.265258
74,0.9782830000000001,0.584973,-0.319855,0.8526199999999999,0.4232709999999999,-0.229992,0.70392,0.618845,-0.332935,1.11744,0.4311899999999999,-0.234631,1.23202,0.649365,-0.396955,0.6442,0.821285,-0.445715,1.28065,0.822975,-0.515925,0.922948,-0.000775,0.005315,1.077052,0.0007749999999999,-0.0053149999999999,0.84422,0.086945,-0.338485,1.11243,0.0796249999999999,-0.359075,0.86832,-0.256115,-0.242689,1.1137299999999999,-0.270205,-0.269908
75,0.9779774999999999,0.580109,-0.324905,0.8525345,0.420804,-0.235363,0.7039845,0.611155,-0.337685,1.1171645,0.427302,-0.240016,1.2313345,0.641565,-0.404145,0.6429845000000001,0.813705,-0.451695,1.2798445,0.817305,-0.524405,0.9230985,-0.0010949999999999,0.0062349999999999,1.0769015,0.001095,-0.006235,0.8443345,0.093335,-0.337005,1.1121945,0.0855549999999999,-0.359165,0.8692645,-0.2496249999999999,-0.243284,1.1142545,-0.265185,-0.274861
76,0.977747,0.572916,-0.3302049999999999,0.852552,0.417393,-0.241231,0.703992,0.6052500000000001,-0.343015,1.116892,0.4233,-0.245954,1.230482,0.63544,-0.411125,0.641772,0.80583,-0.457785,1.278872,0.81237,-0.533135,0.923139,-0.0015999999999999,0.0071249999999999,1.076861,0.0016,-0.007125,0.844372,0.09944,-0.336195,1.111942,0.08729,-0.359275,0.870172,-0.2433199999999999,-0.244087,1.1166019999999999,-0.2615999999999999,-0.282968
77,0.9775435,0.566901,-0.335325,0.8526685,0.4138969999999999,-0.246673,0.7040985,0.599127,-0.348195,1.1167185,0.4193879999999999,-0.251629,1.2298485000000001,0.629505,-0.418205,0.6406285,0.7970249999999999,-0.463365,1.2780885,0.8073549999999999,-0.541885,0.9232425,-0.001945,0.0077049999999999,1.0767575,0.0019449999999999,-0.0077049999999999,0.8444785,0.0993349999999999,-0.335615,1.1117085,0.0875049999999999,-0.359765,0.8707785,-0.238115,-0.2446829999999999,1.1187585,-0.2636250000000001,-0.291101
78,0.9773845,0.5621680000000001,-0.340825,0.8530504999999999,0.4087050000000001,-0.252506,0.7042205,0.5934740000000001,-0.353655,1.1166405,0.4119750000000001,-0.257732,1.2291005,0.6221650000000001,-0.425495,0.6397305,0.788705,-0.4689649999999999,1.2769705,0.802605,-0.550965,0.9234235,-0.0022349999999999,0.0081749999999999,1.0765765,0.002235,-0.0081749999999999,0.8446505,0.099665,-0.335455,1.1113605,0.087975,-0.360525,0.8709205,-0.2351449999999999,-0.245527,1.1207205,-0.2648849999999999,-0.299605
79,0.9776515,0.557373,-0.346405,0.8537305,0.403975,-0.258233,0.7046805,0.588285,-0.358865,1.1169705,0.405165,-0.263879,1.2292705,0.615444,-0.432465,0.6394605,0.781765,-0.474145,1.2760805,0.794505,-0.5598650000000001,0.9238235,-0.002445,0.0085249999999999,1.0761765,0.002445,-0.008525,0.8446605,0.0994549999999999,-0.336385,1.1111105000000001,0.0878249999999999,-0.361935,0.8718805000000001,-0.2331849999999999,-0.246295,1.1229505,-0.266645,-0.308355
80,0.978283,0.552907,-0.3488,0.8544780000000001,0.399395,-0.260841,0.7053780000000001,0.5830280000000001,-0.36119,1.117578,0.399175,-0.266855,1.229048,0.609083,-0.43474,0.639668,0.774425,-0.47644,1.275788,0.7870950000000001,-0.56492,0.924051,-0.0025549999999999,0.00916,1.075949,0.002555,-0.00916,0.844338,0.098305,-0.33525,1.111218,0.087005,-0.36123,0.872488,-0.2322749999999999,-0.2461479999999999,1.125298,-0.2688549999999999,-0.31338
81,0.9789565,0.549373,-0.350785,0.8551255,0.3954,-0.262802,0.7059355,0.580006,-0.363145,1.1182055,0.3940899999999999,-0.269324,1.2287755,0.6033839999999999,-0.4366649999999999,0.6401654999999999,0.77081,-0.478395,1.2758155,0.78095,-0.568535,0.9241645,-0.00262,0.0095949999999999,1.0758355,0.0026199999999999,-0.009595,0.8433655000000001,0.09641,-0.334565,1.1112754999999999,0.0853999999999999,-0.360725,0.8730655,-0.2324899999999999,-0.246476,1.1276755,-0.27195,-0.317965
82,0.9796255,0.5456700000000001,-0.35261,0.8555715,0.39199,-0.2646159999999999,0.7065015,0.5767310000000001,-0.36487,1.1188315,0.3892400000000001,-0.271694,1.2285515,0.5980200000000001,-0.43845,0.6406315,0.7671800000000001,-0.4801799999999999,1.2760015,0.7751700000000001,-0.57177,0.9242414999999999,-0.0027199999999999,0.0099899999999999,1.0757585,0.00272,-0.0099899999999999,0.8418915000000001,0.09404,-0.33404,1.1113315,0.0834,-0.36032,0.8735915,-0.2331899999999999,-0.246945,1.1300715000000001,-0.2766399999999999,-0.32278
83,0.9804955000000001,0.5452170000000001,-0.35448,0.8562655,0.3926100000000001,-0.266486,0.7073054999999999,0.5778650000000001,-0.36617,1.1197454999999998,0.3846500000000001,-0.274529,1.2288155,0.5914540000000001,-0.43848,0.6413655,0.7678800000000001,-0.48137,1.2765654999999998,0.7720600000000001,-0.57423,0.9242665,-0.0022799999999999,0.0104199999999999,1.0757335,0.00228,-0.01042,0.8399955,0.0956500000000001,-0.3336,1.1116455,0.0854200000000001,-0.36005,0.8740755,-0.2306799999999998,-0.247534,1.1327155,-0.2777099999999999,-0.32773
84,0.981115,0.544859,-0.35563,0.857005,0.39297,-0.267631,0.708045,0.5794,-0.36682,1.1205749999999999,0.38063,-0.276526,1.229305,0.587616,-0.43695,0.642045,0.76847,-0.4812,1.277165,0.76953,-0.57586,0.924165,-0.00189,0.01075,1.075835,0.0018899999999999,-0.0107499999999999,0.837695,0.0965999999999999,-0.3327,1.111885,0.0871799999999999,-0.35938,0.873625,-0.22874,-0.247732,1.135285,-0.27671,-0.33229
85,0.9817565,0.5459080000000001,-0.356145,0.8577555,0.393765,-0.268208,0.7088255,0.580809,-0.367015,1.1214754999999998,0.376445,-0.278108,1.2299855,0.582792,-0.434585,0.6428455,0.769085,-0.480675,1.2777855,0.7662150000000001,-0.576835,0.9240455,-0.001375,0.0107849999999999,1.0759545,0.001375,-0.0107849999999999,0.8353155,0.096885,-0.331455,1.1121355,0.092405,-0.358875,0.8726355,-0.227375,-0.247615,1.1359255,-0.2752249999999999,-0.333265
86,0.982347,0.547996,-0.356165,0.8584499999999999,0.3947,-0.268326,0.70957,0.5831700000000001,-0.366925,1.12236,0.37346,-0.278777,1.2307,0.5780000000000001,-0.431345,0.64376,0.77239,-0.480485,1.27835,0.76341,-0.577425,0.923979,-0.0008499999999999,0.0107949999999999,1.076021,0.00085,-0.0107949999999999,0.83402,0.10187,-0.330745,1.11239,0.09739,-0.358145,0.87209,-0.22592,-0.247379,1.1364999999999998,-0.2702399999999999,-0.333855
87,0.983138,0.552761,-0.3551499999999999,0.859012,0.3994649999999999,-0.267916,0.7102320000000001,0.587935,-0.36628,1.123142,0.3782249999999999,-0.27871,1.231462,0.5788719999999999,-0.42769,0.6449020000000001,0.7771549999999999,-0.4797099999999999,1.279142,0.765145,-0.57746,0.9239040000000001,-0.000255,0.0108,1.076096,0.000255,-0.0108,0.834382,0.1066349999999999,-0.33076,1.112932,0.1021549999999999,-0.35817,0.872822,-0.2211550000000001,-0.247413,1.137032,-0.265475,-0.33405
88,0.9837195000000001,0.556376,-0.354075,0.8590645,0.40308,-0.267502,0.7104145,0.59155,-0.3655549999999999,1.1234244999999998,0.3818399999999999,-0.27852,1.2317145,0.579651,-0.423745,0.6457245,0.78077,-0.478835,1.2795045,0.76876,-0.577115,0.9239364999999999,-0.0003499999999999,0.010825,1.0760635,0.0003499999999999,-0.010825,0.8344145000000001,0.11025,-0.330735,1.1127245000000001,0.1057699999999999,-0.358135,0.8726945,-0.21754,-0.247381,1.1370545,-0.26186,-0.334025
89,0.9844605000000001,0.558886,-0.352125,0.8592635,0.40559,-0.266508,0.7108235,0.59406,-0.364025,1.1239234999999999,0.3843499999999999,-0.27773,1.2319935,0.582161,-0.420855,0.6468735000000001,0.78328,-0.477255,1.2802635,0.77127,-0.575295,0.9240345000000001,-0.00014,0.0112549999999999,1.0759655,0.00014,-0.011255,0.8345035000000001,0.11303,-0.330225,1.1128335,0.1084499999999999,-0.357625,0.8728635000000001,-0.21503,-0.246871,1.1372035,-0.25888,-0.333515
90,0.9852675000000001,0.559506,-0.34572,0.8593014999999999,0.40718,-0.260604,0.7113615,0.594759,-0.35841,1.1245115,0.38567,-0.27195,1.2332315,0.582161,-0.4126499999999999,0.6481615000000001,0.78521,-0.47161,1.2817315,0.77127,-0.56776,0.9240035,-0.00014,0.01056,1.0759965,0.00014,-0.0105599999999999,0.8346015,0.1200399999999999,-0.32814,1.1129215,0.11073,-0.3552499999999999,0.8730715,-0.2108799999999999,-0.242278,1.1373315,-0.2583499999999999,-0.32913
91,0.986064,0.563442,-0.338765,0.8593950000000001,0.4105,-0.253799,0.711855,0.597747,-0.352235,1.125585,0.39081,-0.265197,1.234275,0.582161,-0.404795,0.6494949999999999,0.78927,-0.465195,1.283575,0.77323,-0.558555,0.923952,-0.00014,0.0097249999999999,1.0760480000000001,0.00014,-0.009725,0.835005,0.12677,-0.325535,1.1129749999999998,0.1166099999999999,-0.352385,0.8718049999999999,-0.20774,-0.237748,1.137315,-0.2522799999999999,-0.323755
92,0.98661,0.56928,-0.3329999999999999,0.859379,0.41539,-0.248435,0.712329,0.602486,-0.34755,1.126479,0.39738,-0.259966,1.235469,0.584692,-0.39865,0.650779,0.79593,-0.46047,1.286329,0.78071,-0.55164,0.9239100000000001,-0.00014,0.0087,1.07609,0.00014,-0.0086999999999999,0.835589,0.13334,-0.3249499999999999,1.112709,0.1224199999999999,-0.35218,0.871019,-0.20467,-0.235779,1.137179,-0.24611,-0.31996
93,0.9868125000000001,0.575813,-0.3270699999999999,0.8592955000000001,0.419695,-0.2431279999999999,0.7122955,0.609607,-0.34343,1.1270555,0.402525,-0.254666,1.2367855,0.590466,-0.39295,0.6518554999999999,0.8031349999999999,-0.45563,1.2888555,0.786615,-0.5441400000000001,0.9238085,9.499999999995624e-05,0.0077699999999999,1.0761915,-9.499999999995624e-05,-0.0077699999999999,0.8366955,0.1381649999999999,-0.32547,1.1121955,0.1265649999999999,-0.35209,0.8709855,-0.203025,-0.2363819999999999,1.1368255,-0.241565,-0.31596
94,0.9871170000000001,0.582597,-0.32108,0.859274,0.4241150000000001,-0.237733,0.712344,0.6163290000000001,-0.3390499999999999,1.127654,0.4079750000000001,-0.2487039999999999,1.236214,0.596971,-0.38707,0.6528240000000001,0.8119750000000001,-0.45083,1.291634,0.793255,-0.536,0.923788,0.000315,0.00697,1.076212,-0.0003149999999999,-0.00697,0.8382240000000001,0.137985,-0.32672,1.111674,0.125655,-0.35197,0.870664,-0.2057849999999998,-0.237083,1.1348639999999999,-0.2412549999999999,-0.31059
95,0.9875640000000001,0.5877549999999999,-0.31517,0.8594809999999999,0.4251399999999999,-0.232565,0.712701,0.6213179999999999,-0.33464,1.128441,0.4142099999999999,-0.2425,1.237911,0.605865,-0.38171,0.654001,0.81882,-0.44614,1.294651,0.7982199999999999,-0.52731,0.923774,-4.999999999999449e-05,0.00617,1.076226,4.999999999999449e-05,-0.00617,0.840491,0.1330499999999999,-0.32827,1.111331,0.1201699999999999,-0.3519,0.8709410000000001,-0.2130699999999999,-0.238074,1.132971,-0.24547,-0.30523
96,0.987439,0.5937779999999999,-0.309265,0.858908,0.4289649999999999,-0.227046,0.712348,0.6284179999999999,-0.329955,1.128638,0.4233449999999999,-0.235921,1.2390780000000001,0.613239,-0.376075,0.654648,0.826865,-0.441205,1.2970679999999999,0.8031849999999999,-0.5178750000000001,0.923722,-0.000495,0.0049449999999999,1.076278,0.0004949999999999,-0.004945,0.8422080000000001,0.1255549999999999,-0.329945,1.110378,0.1124649999999999,-0.352385,0.870818,-0.222215,-0.239031,1.129418,-0.2516750000000001,-0.298455
97,0.9874035,0.601772,-0.3028,0.8587435,0.433155,-0.220981,0.7123035,0.63611,-0.32474,1.1290735,0.433456,-0.228839,1.2405435,0.62065,-0.36998,0.6555035,0.83785,-0.43581,1.2992135,0.80938,-0.50763,0.9234745,-0.0008599999999999,0.00358,1.0765255,0.0008599999999999,-0.00358,0.8441635000000001,0.11675,-0.33149,1.1096135,0.10366,-0.35267,0.8705835,-0.23199,-0.239565,1.1258335,-0.2592,-0.29085
98,0.9873585000000001,0.6088100000000001,-0.2955799999999999,0.8586715,0.436645,-0.21377,0.7126115,0.64369,-0.3185599999999999,1.1294315,0.441275,-0.221076,1.2412615,0.63303,-0.3618099999999999,0.6563114999999999,0.84716,-0.42945,1.3009715,0.81917,-0.49683,0.9231925,-0.0009399999999999,0.00221,1.0768075,0.00094,-0.0022099999999999,0.8455415,0.10592,-0.3327,1.1092915,0.09269,-0.3515399999999999,0.8708015,-0.2445399999999999,-0.2389609999999999,1.1227115,-0.26781,-0.28239
99,0.987359,0.61093,-0.2913,0.8584550000000001,0.4370059999999999,-0.210484,0.712635,0.64604,-0.31532,1.129635,0.4441879999999999,-0.217382,1.242105,0.63789,-0.35672,0.657215,0.85355,-0.42633,1.302575,0.82046,-0.49,0.923024,-0.00073,0.00195,1.076976,0.0007299999999999,-0.00195,0.8461250000000001,0.0850599999999999,-0.3335,1.109135,0.0743599999999999,-0.3507599999999999,0.8708549999999999,-0.2653,-0.2406579999999999,1.1197549999999998,-0.282,-0.27686
100,0.9874155,0.61307,-0.2864799999999999,0.8582795,0.438573,-0.2071269999999999,0.7130395,0.64937,-0.3119699999999999,1.1297895,0.444165,-0.2135089999999999,1.2432995,0.64349,-0.352,0.6582995,0.85622,-0.42261,1.3042795,0.82378,-0.48283,0.9228915,-0.0004199999999999,0.00178,1.0771085,0.00042,-0.0017799999999999,0.8468795,0.06098,-0.33324,1.1091095,0.04981,-0.34973,0.8707695,-0.2893199999999999,-0.241301,1.1170695,-0.30484,-0.27103
101,0.987455,0.615985,-0.280325,0.858028,0.437667,-0.202792,0.713238,0.653285,-0.307335,1.1300080000000001,0.444121,-0.208645,1.244548,0.644995,-0.344995,0.659868,0.861855,-0.416685,1.305058,0.821215,-0.472725,0.922841,-0.0002949999999999,0.0015149999999999,1.077159,0.0002949999999999,-0.001515,0.847538,0.0321549999999999,-0.331135,1.109358,0.0206549999999999,-0.346335,0.8705780000000001,-0.317645,-0.239739,1.114188,-0.332335,-0.264318
102,0.987412,0.62306,-0.276975,0.857662,0.4411679999999999,-0.201726,0.713302,0.6591499999999999,-0.305505,1.130052,0.448179,-0.2069,1.245412,0.6486799999999999,-0.341345,0.6615519999999999,0.86991,-0.413155,1.305552,0.82588,-0.466735,0.9230970000000001,-0.00016,0.001505,1.076903,0.0001599999999999,-0.001505,0.847772,0.0030199999999999,-0.331145,1.1091119999999999,-0.00654,-0.346095,0.8691720000000001,-0.3472200000000001,-0.238781,1.111192,-0.35911,-0.260441
103,0.987733,0.6312150000000001,-0.27093,0.8575320000000001,0.445716,-0.197773,0.713722,0.667475,-0.3004,1.1301619999999999,0.452902,-0.203036,1.246472,0.652335,-0.33518,0.6639619999999999,0.877265,-0.40518,1.306252,0.832095,-0.45842,0.923123,-5.499999999997174e-05,0.0019599999999999,1.076877,5.500000000002725e-05,-0.0019599999999999,0.848032,-0.027955,-0.32932,1.109902,-0.035445,-0.3443,0.868452,-0.379615,-0.237363,1.110072,-0.389235,-0.2562149999999999
104,0.9878110000000001,0.639575,-0.264325,0.857025,0.450335,-0.1939179999999999,0.7138450000000001,0.6749050000000001,-0.294855,1.130085,0.457855,-0.1991679999999999,1.246995,0.655825,-0.328655,0.666115,0.882995,-0.3964649999999999,1.306835,0.8371250000000001,-0.449845,0.923391,0.0001349999999999,0.002305,1.076609,-0.0001349999999999,-0.002305,0.8481650000000001,-0.0605549999999999,-0.326705,1.110285,-0.065465,-0.341945,0.867755,-0.413915,-0.23568,1.108705,-0.421635,-0.252275
105,0.988718,0.64866,-0.2496949999999999,0.85684,0.4548,-0.1830129999999999,0.71506,0.68177,-0.28078,1.13111,0.46074,-0.188875,1.2487599999999999,0.66015,-0.3148499999999999,0.6692400000000001,0.89101,-0.3795699999999999,1.30766,0.84697,-0.4346399999999999,0.923515,0.0003999999999999,0.00212,1.076485,-0.0004,-0.0021199999999999,0.84903,-0.09456,-0.31869,1.11145,-0.09836,-0.33394,0.86774,-0.45228,-0.2277999999999999,1.10897,-0.4583399999999999,-0.2427149999999999
106,0.9896435000000001,0.65837,-0.234306,0.8565525,0.46101,-0.171293,0.7161325000000001,0.68852,-0.26508,1.1320625,0.46321,-0.177754,1.2494825,0.66664,-0.29879,0.6717325000000001,0.89652,-0.36095,1.3079425,0.85595,-0.4183,0.9238945000000001,0.0006599999999999,0.00186,1.0761055,-0.0006599999999999,-0.00186,0.8496825,-0.1281199999999999,-0.30765,1.1125225,-0.1306599999999999,-0.32353,0.8680125,-0.49032,-0.218725,1.1092925,-0.4947199999999999,-0.232579
107,0.9908135000000001,0.6670400000000001,-0.217752,0.8563435,0.46712,-0.15909,0.7173235,0.69398,-0.248605,1.1334135,0.46709,-0.166149,1.2511135,0.6672,-0.282265,0.6742334999999999,0.90229,-0.341105,1.3083535,0.86324,-0.401375,0.9243045,0.00051,0.0017849999999999,1.0756955,-0.00051,-0.001785,0.8502735,-0.1616099999999999,-0.295535,1.1137535,-0.16246,-0.311965,0.8680035,-0.5281,-0.209432,1.1097735,-0.5317700000000001,-0.221976
108,0.9922035000000001,0.6798949999999999,-0.1998359999999999,0.8562855,0.474325,-0.1455779999999999,0.7189855,0.704315,-0.2299299999999999,1.1349955,0.472265,-0.153304,1.2528055,0.674585,-0.2645999999999999,0.6768655,0.909765,-0.31914,1.3087855,0.8771249999999999,-0.38242,0.9245865,0.0003349999999999,0.0019,1.0754135,-0.000335,-0.0018999999999999,0.8511455,-0.189465,-0.28119,1.1152055,-0.189445,-0.2976799999999999,0.8678955000000002,-0.561345,-0.1995719999999999,1.1107555,-0.5643150000000001,-0.2118759999999999
109,0.993521,0.6920700000000001,-0.181452,0.855853,0.48021,-0.131817,0.720553,0.71236,-0.210912,1.136473,0.47714,-0.140401,1.2543229999999999,0.68237,-0.24666,0.679493,0.91948,-0.29674,1.309183,0.8881600000000001,-0.36304,0.924892,0.00014,0.00193,1.075108,-0.00014,-0.00193,0.852043,-0.21461,-0.26645,1.116513,-0.21289,-0.28285,0.867573,-0.59205,-0.189184,1.1116629999999998,-0.59348,-0.20181
110,0.994034,0.70322,-0.163353,0.854873,0.48702,-0.1180819999999999,0.7214430000000001,0.72012,-0.191919,1.137163,0.48245,-0.127467,1.254813,0.69045,-0.230045,0.681003,0.92614,-0.2747549999999999,1.308703,0.9019,-0.3444049999999999,0.925554,-0.00014,0.002095,1.074446,0.00014,-0.0020949999999999,0.852743,-0.2349799999999999,-0.249895,1.116553,-0.23245,-0.267345,0.8665430000000001,-0.61865,-0.178833,1.111923,-0.61816,-0.190759
111,0.994805,0.7127315,-0.146113,0.85428,0.4932915,-0.104874,0.72246,0.7261715,-0.173823,1.13825,0.4876215,-0.115203,1.25536,0.6958415,-0.213614,0.68269,0.9326115,-0.254004,1.3086,0.9119615,-0.325614,0.926124,-0.0004515,0.0018789999999999,1.073876,0.0004514999999999,-0.001879,0.85412,-0.2535085,-0.233444,1.11701,-0.2505385,-0.251514,0.8659,-0.6425685,-0.168758,1.11274,-0.6404085,-0.180276
112,0.99523,0.7215435,-0.1310325,0.853453,0.4979135,-0.0942674999999999,0.723053,0.7306235,-0.1583055,1.138963,0.4913935,-0.1049155,1.255913,0.7036435,-0.1996065,0.683663,0.9386035,-0.2369865,1.3083529999999999,0.9198535,-0.3087965,0.9269060000000001,-0.0008104999999999,0.0013015,1.073094,0.0008105,-0.0013014999999999,0.855213,-0.2657064999999999,-0.2189865,1.117213,-0.2623765,-0.2368065,0.8653029999999999,-0.6593865,-0.1598865,1.113213,-0.6554665000000001,-0.1709675
113,0.995968,0.727773,-0.1172545,0.853056,0.500553,-0.0847025,0.7240059999999999,0.7339330000000001,-0.1442195,1.140026,0.494353,-0.0957385,1.2567059999999999,0.709523,-0.1864105,0.684896,0.944063,-0.2212205,1.308516,0.928103,-0.2935805,0.927279,-0.001653,0.0007054999999999,1.072721,0.001653,-0.0007054999999999,0.856926,-0.282617,-0.2052605,1.117586,-0.279287,-0.2223905,0.865546,-0.6762969999999999,-0.1517755,1.113686,-0.672377,-0.1629335
114,0.9964750000000001,0.733358,-0.1075725,0.852981,0.501048,-0.0785894999999999,0.724971,0.7361179999999999,-0.1343275,1.140601,0.497298,-0.0894964999999999,1.257161,0.7162379999999999,-0.1775945,0.686051,0.946518,-0.2094444999999999,1.308111,0.932738,-0.2810945,0.927444,-0.002505,0.0004895,1.072556,0.002505,-0.0004895,0.858671,-0.2928119999999999,-0.1950645,1.117581,-0.289482,-0.2111445,0.8655809999999999,-0.686492,-0.1463815,1.114191,-0.6825720000000001,-0.1575635
115,0.997047,0.7357935,-0.094942,0.853019,0.4995035,-0.069651,0.7259790000000002,0.7383535,-0.121809,1.141329,0.4995535,-0.080501,1.2576889999999998,0.7205435,-0.165988,0.687359,0.9481735,-0.195008,1.307439,0.9364035,-0.266218,0.927554,-0.0035894999999999,0.0007349999999999,1.072446,0.0035894999999999,-0.0007349999999999,0.860729,-0.3027265,-0.181548,1.1174389999999998,-0.2993965,-0.197408,0.865799,-0.6964064999999999,-0.138368,1.114849,-0.6924865,-0.149561
116,0.9977570000000001,0.736671,-0.0787785,0.8531480000000001,0.498851,-0.0564005,0.727348,0.739911,-0.1057154999999999,1.142488,0.500431,-0.0672865,1.258368,0.7247009999999999,-0.1505445,0.688778,0.948381,-0.1770535,1.306628,0.935301,-0.2466435,0.927594,-0.003779,0.0004165,1.072406,0.0037789999999999,-0.0004165,0.8631480000000001,-0.316879,-0.1611834999999999,1.117198,-0.310849,-0.1770535,0.8660880000000001,-0.709099,-0.1267915,1.115808,-0.703869,-0.1368655
117,0.9983050000000001,0.7362865000000001,-0.064277,0.8531490000000002,0.4980265,-0.044603,0.7286590000000002,0.7404765,-0.091285,1.143549,0.5017765,-0.055677,1.258859,0.7277065,-0.137388,0.689909,0.9476065,-0.1602319999999999,1.305609,0.9340765,-0.228732,0.927564,-0.0038965,0.000182,1.072436,0.0038965,-0.000182,0.865299,-0.3325134999999999,-0.142197,1.116789,-0.3222035,-0.158852,0.8663190000000001,-0.7213435,-0.116482,1.116639,-0.7145235,-0.125305
118,0.9988675,0.735771,-0.0517295,0.8534485,0.496651,-0.0343054999999999,0.7299585,0.741541,-0.0786075,1.1446085,0.502871,-0.0452485,1.2590885,0.7295809999999999,-0.1251594999999999,0.6911085,0.947681,-0.1454575,1.3048685,0.933881,-0.2120975,0.9275945,-0.004114,5.8500000000002994e-05,1.0724055,0.004114,-5.8499999999996055e-05,0.8672185,-0.346039,-0.1233274999999999,1.1164485,-0.331619,-0.1411375,0.8662685,-0.731449,-0.1058984999999999,1.1171085,-0.7227990000000001,-0.1140325
119,0.9993590000000001,0.734497,-0.0401375,0.853691,0.495827,-0.0246505,0.731391,0.742307,-0.0670365,1.145631,0.502967,-0.0354595,1.259261,0.731057,-0.1137065,0.6923710000000001,0.946767,-0.1320975,1.3040910000000001,0.932407,-0.1972675,0.927564,-0.0041499999999999,3.349999999999881e-05,1.072436,0.00415,-3.349999999999881e-05,0.8688910000000001,-0.359313,-0.1059245,1.116101,-0.340533,-0.1247625,0.866491,-0.741053,-0.0957655,1.117591,-0.730033,-0.1033255
120,0.9997850000000001,0.7328969999999999,-0.0289035,0.853915,0.494187,-0.0149975,0.732945,0.743107,-0.0557755,1.1465049999999999,0.5029269999999999,-0.0257425,1.259435,0.732837,-0.1025845,0.6940550000000001,0.945927,-0.1189835,1.303395,0.931287,-0.1828635,0.927404,-0.004214,0.0001864999999999,1.0725959999999999,0.0042139999999999,-0.0001865,0.870485,-0.372233,-0.0889705,1.115745,-0.3497429999999999,-0.1089165,0.866815,-0.749753,-0.0854845,1.118065,-0.7375430000000001,-0.0928075
121,1.000394,0.731002,-0.0174605,0.8543160000000001,0.493132,-0.0049165,0.734486,0.743912,-0.0444385,1.147616,0.503132,-0.0154835,1.259806,0.731522,-0.0909015,0.696396,0.945172,-0.1058035,1.303016,0.929772,-0.1684485,0.927224,-0.0041519999999999,0.0003844999999999,1.072776,0.004152,-0.0003845,0.872216,-0.385428,-0.0714404999999999,1.115646,-0.359818,-0.0924885,0.867066,-0.759608,-0.0739615,1.118716,-0.745748,-0.0806605
122,1.0009935,0.7298465,-0.0063865,0.8547645,0.4934864999999999,0.0053395,0.7359745,0.7449365,-0.0332455,1.1488045,0.5031865,-0.0049725,1.2603345,0.7313965,-0.0795625,0.6986145,0.9450265,-0.0929575,1.3028145,0.9286565,-0.1544165,0.9268555,-0.0035934999999999,0.0005485,1.0731445,0.0035934999999999,-0.0005484999999999,0.8737145,-0.3977335,-0.0543025,1.1159945,-0.3697035,-0.0767175,0.8676445,-0.7685835,-0.0622864999999999,1.1192345,-0.7533435,-0.0677905
123,1.0015135,0.728013,0.004254,0.8551115,0.494333,0.015569,0.7371814999999999,0.745583,-0.0223589999999999,1.1499115,0.502713,0.005521,1.2608215,0.731363,-0.068694,0.7006315000000001,0.944553,-0.080645,1.3026515,0.926673,-0.141108,0.9263655000000001,-0.003049,0.000681,1.0736344999999998,0.0030489999999999,-0.0006809999999999,0.8749815,-0.410097,-0.037721,1.1163414999999999,-0.379577,-0.061179,0.8682715,-0.777597,-0.0506939999999999,1.1195614999999999,-0.760937,-0.05476
124,1.001788,0.7273075,0.011203,0.8552919999999999,0.4954375,0.022303,0.737932,0.7460075,-0.0153129999999999,1.150852,0.5027275,0.012633,1.261102,0.7320775,-0.0615629999999999,0.702302,0.9448075,-0.072409,1.302502,0.9260375,-0.131824,0.925874,-0.0023224999999999,0.000265,1.074126,0.0023224999999999,-0.000265,0.8758120000000001,-0.4208024999999999,-0.0255469999999999,1.116582,-0.3878625,-0.049481,0.868682,-0.7849324999999999,-0.0428749999999999,1.119742,-0.7668925,-0.0454779999999999
125,1.0015254999999998,0.7280800000000001,0.0138434999999999,0.8549765,0.49589,0.0246134999999999,0.7380964999999999,0.74736,-0.0124795,1.1508065,0.50339,0.0153014999999999,1.2609765,0.7329,-0.0588305,0.7033765000000001,0.94633,-0.0688455,1.3022464999999999,0.92735,-0.1277315,0.9256345,-0.0023779999999999,0.0003414999999999,1.0743655,0.002378,-0.0003415,0.8759165,-0.4239199999999999,-0.0213625,1.1165265,-0.39098,-0.0452415,0.8684565000000001,-0.78818,-0.0400495,1.1194565,-0.77004,-0.0411095
126,1.0013085,0.7281035,0.0165804999999999,0.8547685,0.4960934999999999,0.0268484999999999,0.7381585000000002,0.7480335,-0.0095435,1.1507685,0.5035635,0.0178585,1.2609085,0.7329235,-0.0561625,0.7040585000000001,0.9473435,-0.0655465,1.3021985,0.9276335,-0.1242995,0.9254355,-0.0023935,0.0002535,1.0745645,0.0023935,-0.0002535,0.8760185,-0.4270965,-0.0177284999999999,1.1165285,-0.3941565,-0.0409205,0.8684285,-0.7914165,-0.0373295,1.1192585,-0.7735565,-0.0368934999999999
127,1.0011664999999998,0.7280065,0.0193585,0.8546275,0.4961865,0.0290205,0.7381675,0.7483865000000001,-0.0065705,1.1507775,0.5036165,0.0203695,1.2608675,0.7328865,-0.0533204999999999,0.7047375,0.9480165,-0.0623515,1.3021975000000001,0.9278665,-0.1206344999999999,0.9252625,-0.0023834999999999,0.0001145,1.0747375,0.0023835,-0.0001145,0.8761275,-0.4302235,-0.0143575,1.1165675,-0.3972835,-0.0364245,0.8684075,-0.7945435,-0.0346705,1.1191475,-0.7772935,-0.0330035
128,1.0009579999999998,0.7276655000000001,0.021938,0.854456,0.4959554999999999,0.030667,0.7380460000000001,0.7479655000000001,-0.003698,1.1506759999999998,0.5036555,0.022613,1.260646,0.7306755,-0.050289,0.705306,0.9479255,-0.058923,1.3019859999999999,0.9264255,-0.116755,0.925202,-0.0023665,-5.499999999999949e-05,1.074798,0.0023665,5.499999999999949e-05,0.876136,-0.4301845,-0.011134,1.116576,-0.3972945,-0.031978,0.8677460000000001,-0.7957445,-0.0321059999999999,1.119036,-0.7773945,-0.028828
129,1.0008175,0.7271615,0.0240789999999999,0.8542965,0.4959614999999999,0.032198,0.7378265000000002,0.7476115,-0.001457,1.1506165,0.5037015,0.024619,1.2605265,0.7294815,-0.0472039999999999,0.7056565,0.9478815,-0.0556549999999999,1.3017865,0.9253315,-0.112678,0.9251515,-0.0023654999999999,-0.0001629999999999,1.0748485,0.0023654999999999,0.0001629999999999,0.8761665,-0.4296285,-0.008284,1.1167165,-0.3972085,-0.027779,0.8673065,-0.7963585,-0.029663,1.1189665,-0.7773885,-0.024765
130,1.0007165,0.7271615,0.025594,0.8541715,0.4959614999999999,0.033649,0.7377615,0.7476115,0.000384,1.1505015,0.5037015,0.026069,1.2604215,0.7303514999999999,-0.044619,0.7056415,0.9478815,-0.052715,1.3016215,0.9257915,-0.109019,0.9251765,-0.0023654999999999,-0.000278,1.0748235,0.0023654999999999,0.000278,0.8762115,-0.4292785,-0.0062889999999999,1.1169315,-0.3968585,-0.024588,0.8672215,-0.7963585,-0.028078,1.1189115,-0.7773885,-0.0224919999999999
131,1.0006015,0.7271615,0.0269235,0.8540145,0.4959614999999999,0.0349415,0.7376745,0.7476115,0.0023794999999999,1.1503445,0.5037015,0.0273615,1.2601944999999999,0.7305915,-0.0406245,0.7055945,0.9478815,-0.0497125,1.3015045,0.9261915,-0.1047984999999999,0.9252035000000001,-0.0023654999999999,-0.0003195,1.0747965,0.0023654999999999,0.0003195,0.8761845,-0.4289285,-0.0044405,1.1171645,-0.3966685,-0.0217064999999999,0.8671145,-0.7963585,-0.0265375,1.1188045,-0.7773885,-0.0210725
132,1.0004484999999999,0.7271615,0.0284195,0.8538495,0.4959614999999999,0.0361835,0.7372595,0.7476115,0.0043505,1.1501495,0.5037015,0.0286044999999999,1.2600894999999999,0.7309515,-0.0366765,0.7055595,0.9478815,-0.0465175,1.3013895,0.9267615,-0.1003485,0.9252445,-0.0023654999999999,-0.0004465,1.0747555,0.0023654999999999,0.0004464999999999,0.8761295,-0.4286085,-0.0022035,1.1174095,-0.3966485,-0.0190425,0.8669995,-0.7963585,-0.0251475,1.1186795,-0.7773885,-0.0198325
133,0.999802,0.726671,0.031478,0.853473,0.495301,0.038024,0.7367630000000001,0.746841,0.008183,1.149883,0.503691,0.030607,1.2598530000000001,0.7313109999999999,-0.0318959999999999,0.705213,0.947761,-0.0410269999999999,1.301093,0.927571,-0.0945729999999999,0.925323,-0.0024479999999999,-0.000549,1.0746769999999999,0.0024479999999999,0.000549,0.876283,-0.4282289999999999,5.6000000000000494e-05,1.117953,-0.396239,-0.0165579999999999,0.867073,-0.796609,-0.023881,1.1193529999999998,-0.777749,-0.0184239999999999
134,0.9991485000000001,0.7262175000000001,0.0346295,0.8531155,0.4943675,0.0399065,0.7363155,0.7453375,0.0126695,1.1496155,0.5036575000000001,0.0325745,1.2596555,0.7318575,-0.0271695,0.7047654999999999,0.9476375,-0.0353715,1.3008155,0.9286075,-0.0886695,0.9254085,-0.0025745,-0.0006564999999999,1.0745915,0.0025745,0.0006564999999999,0.8763755,-0.4275525,0.0023914999999999,1.1184855,-0.3955625,-0.0142414999999999,0.8670755,-0.7965825,-0.0226675,1.1200555,-0.7785025,-0.0170924999999999
135,0.9985255000000001,0.7258175,0.0378215,0.8528155,0.4930775,0.0416545,0.7358755,0.7437875,0.0170325,1.1494155,0.5037075000000001,0.0343965,1.2595255,0.7325675,-0.0224875,0.7043055,0.9476675,-0.0297724999999999,1.3006055,0.9297875,-0.0828305,0.9254845,-0.0026684999999999,-0.0006604999999999,1.0745155,0.0026685,0.0006605,0.8765055,-0.4267225,0.0046595,1.1190155,-0.3947225,-0.0122204999999999,0.8673255000000001,-0.7965025,-0.0214084999999999,1.1207955,-0.7791125,-0.0159204999999999
136,0.997967,0.7254164999999999,0.040978,0.852555,0.4917665,0.043344,0.7354849999999999,0.7420564999999999,0.021296,1.149275,0.5036664999999999,0.036063,1.2594750000000001,0.7332865,-0.0180279999999999,0.7038150000000001,0.9476565,-0.0245719999999999,1.300435,0.9309865,-0.0772559999999999,0.925557,-0.0027405,-0.0006859999999999,1.074443,0.0027405,0.000686,0.8766750000000001,-0.4260035,0.006804,1.119535,-0.3938835,-0.0105719999999999,0.867555,-0.7962735000000001,-0.0202959999999999,1.121565,-0.7798935,-0.0149679999999999
137,0.9974725000000001,0.725156,0.0440055,0.8523465,0.4905659999999999,0.0449325,0.7351565,0.7403259999999999,0.0253445,1.1491565,0.503566,0.0376325,1.2592265,0.733266,-0.0137685,0.7033765000000001,0.947686,-0.0196635,1.3002465,0.931226,-0.0717565,0.9256075,-0.0028069999999999,-0.0007515,1.0743925,0.0028069999999999,0.0007515,0.8768565,-0.425574,0.0087975,1.1200465,-0.393154,-0.0092075,0.8678764999999999,-0.796204,-0.0192175,1.1222765,-0.7808240000000001,-0.0144504999999999
138,0.9970125000000001,0.7250970000000001,0.0469045,0.8521485,0.489597,0.0464705,0.7349085,0.7386170000000001,0.0293375,1.1490785,0.503467,0.0391835,1.2589285000000001,0.733187,-0.0096734999999999,0.7028485000000001,0.947927,-0.0149375,1.2999885,0.931537,-0.0665545,0.9256335,-0.002868,-0.0008714999999999,1.0743665,0.002868,0.0008715,0.8770585,-0.424843,0.0107125,1.1205285,-0.392443,-0.0080034999999999,0.8681485,-0.7958529999999999,-0.0182634999999999,1.1229885,-0.7813629999999999,-0.0139954999999999
139,0.9965860000000001,0.7252390000000001,0.0496755,0.851977,0.488759,0.0478825,0.7347370000000001,0.736979,0.0330275,1.1490070000000001,0.503349,0.0406365,1.258477,0.732099,-0.0058574999999999,0.702257,0.948169,-0.0103814999999999,1.299737,0.931699,-0.0615384999999999,0.925628,-0.002928,-0.0009994999999999,1.0743719999999999,0.002928,0.0009995,0.877267,-0.424181,0.0122975,1.120967,-0.391741,-0.0071134999999999,0.8684470000000001,-0.7955409999999999,-0.0173134999999999,1.123757,-0.7814709999999999,-0.0134194999999999
140,0.9961995,0.725252,0.0523465,0.8518155000000001,0.487992,0.0492665,0.7345355,0.735942,0.0363895,1.1489455,0.503232,0.0421095,1.2586154999999999,0.732672,-0.0031824999999999,0.7016555,0.948582,-0.0061755,1.2999254999999998,0.932282,-0.0570704999999999,0.9256415,-0.002978,-0.0011735,1.0743585,0.002978,0.0011735,0.8774855,-0.423668,0.0137154999999999,1.1213454999999999,-0.3912179999999999,-0.0062885,0.8687255,-0.7952480000000001,-0.0163924999999999,1.1244855,-0.781648,-0.0128124999999999
141,0.9958505000000001,0.7251515,0.054728,0.8516605000000002,0.4873514999999999,0.05063,0.7343105,0.7350215,0.039476,1.1488905,0.5030815,0.043551,1.2587804999999999,0.7334415,-0.0007429999999999,0.7010105,0.9489615,-0.0024209999999999,1.3001605,0.9331115,-0.0530589999999999,0.9256875,-0.0029914999999999,-0.0012739999999999,1.0743125,0.0029915,0.001274,0.8776905,-0.4230685,0.014539,1.1216805,-0.3907085,-0.0055169999999999,0.8688905,-0.7947985,-0.0154269999999999,1.1251805,-0.7817485,-0.0120779999999999
142,0.995893,0.7249255,0.056214,0.851611,0.4869954999999999,0.051736,0.734221,0.7342854999999999,0.041665,1.149051,0.5029155,0.044554,1.259001,0.7335155,0.001012,0.700821,0.9490455,4.500000000000337e-05,1.300421,0.9331955,-0.050267,0.925772,-0.0029614999999999,-0.001402,1.074228,0.0029615,0.001402,0.877861,-0.4231244999999999,0.015211,1.121851,-0.3906845,-0.0048469999999999,0.869081,-0.7947345,-0.014758,1.125361,-0.7816645,-0.0113199999999999
143,0.9960265,0.724828,0.057466,0.8516735,0.4867279999999999,0.052703,0.7340435000000001,0.7343379999999999,0.043049,1.1493034999999998,0.502768,0.045409,1.2599135,0.735108,0.0024749999999999,0.7007235,0.949098,0.0021569999999999,1.3008435,0.933988,-0.047965,0.9258625,-0.0029529999999999,-0.001528,1.0741375,0.0029529999999999,0.001528,0.8781235000000001,-0.423232,0.01575,1.1221135,-0.390702,-0.0043079999999999,0.8693535,-0.794682,-0.0141229999999999,1.1256235,-0.781852,-0.0107809999999999
144,0.9962395,0.72477,0.0584995,0.8517945,0.48656,0.0536485,0.7339545000000001,0.73439,0.0442315,1.1496245,0.5026200000000001,0.0462395,1.2607344999999999,0.7357400000000001,0.0036595,0.7006945,0.94915,0.0040185,1.3012945,0.9348,-0.0459685,0.9259455,-0.002947,-0.0016585,1.0740545,0.0029469999999999,0.0016585,0.8784545,-0.42318,0.0162775,1.1224444999999998,-0.39069,-0.0038115,0.8696745,-0.79463,-0.0136415,1.1259545,-0.7820699999999999,-0.0102534999999999
145,0.9965015000000002,0.7247229999999999,0.05943,0.8519815,0.486463,0.054521,0.7340915,0.7338429999999999,0.045297,1.1499915,0.5024529999999999,0.0469599999999999,1.2610215,0.7348629999999999,0.0049369999999999,0.7007315000000001,0.949213,0.0056089999999999,1.3019715,0.934863,-0.044239,0.9259835,-0.002942,-0.001754,1.0740165,0.002942,0.0017539999999999,0.8788015,-0.423147,0.0167399999999999,1.1227815,-0.390647,-0.0033779999999999,0.8699115,-0.794567,-0.01316,1.1262915,-0.7821370000000001,-0.009646
146,0.9967980000000001,0.7245385,0.0599079999999999,0.8522290000000001,0.4865085,0.055367,0.734059,0.7331885,0.04579,1.1503189999999999,0.5022584999999999,0.0476609999999999,1.261479,0.7336685,0.0054079999999999,0.7008289999999999,0.9492585,0.0060959999999999,1.3027289999999998,0.9347885,-0.043781,0.926027,-0.0029225,-0.001784,1.073973,0.0029225,0.0017839999999999,0.879209,-0.4232615,0.0171379999999999,1.123169,-0.3906315,-0.002963,0.870309,-0.7945215,-0.012846,1.126609,-0.7820915,-0.009169
147,0.9971150000000001,0.724214,0.0603395,0.852538,0.486534,0.0561445,0.7339980000000002,0.732804,0.0462375,1.150698,0.502074,0.0480895,1.261628,0.732174,0.0058475,0.701058,0.949284,0.0065315,1.303548,0.934394,-0.0433724999999999,0.926058,-0.0028969999999999,-0.0017534999999999,1.073942,0.002897,0.0017535,0.879658,-0.423506,0.0174115,1.123588,-0.390636,-0.0026174999999999,0.870648,-0.794496,-0.0124774999999999,1.126968,-0.782106,-0.0087394999999999
148,0.997412,0.7242160000000001,0.0607655,0.8529249999999999,0.487246,0.0569595,0.734005,0.732946,0.0466775,1.151135,0.501886,0.0485095,1.261805,0.731186,0.0062795,0.701355,0.949496,0.0069574999999999,1.304095,0.933876,-0.0429564999999999,0.9260750000000001,-0.002895,-0.0017155,1.0739249999999998,0.0028949999999999,0.0017155,0.8801450000000001,-0.423084,0.0175185,1.124015,-0.390674,-0.0024334999999999,0.871085,-0.794064,-0.0121775,1.127435,-0.781924,-0.0085065
149,0.9972085,0.7241709999999999,0.0599769999999999,0.8520115,0.488231,0.057862,0.7315115000000001,0.7313510000000001,0.0469059999999999,1.1514715,0.501541,0.049037,1.2625315,0.7292609999999999,0.0041999999999999,0.7001715,0.948261,0.0067209999999999,1.3050614999999999,0.932131,-0.047422,0.9260865,-0.002867,-0.001733,1.0739135,0.002867,0.0017329999999999,0.8808815000000001,-0.423049,0.0166339999999999,1.1250015,-0.390659,-0.002501,0.8721915,-0.793979,-0.012201,1.1283215,-0.782519,-0.008243
150,0.9969395000000001,0.7240885,0.0583994999999999,0.8505695,0.4896085,0.0587985,0.7267695000000001,0.7283784999999999,0.0467345,1.1519795,0.5011285,0.0491864999999999,1.2640395,0.7270485,-0.0005295,0.6976395,0.9457585,0.0048124999999999,1.3067695,0.9288085,-0.0554675,0.9262135,-0.0028485,-0.0016395,1.0737865,0.0028484999999999,0.0016394999999999,0.8820595,-0.4231215,0.0149214999999999,1.1266595,-0.3907515,-0.0026195,0.8741995000000001,-0.7938015,-0.0122715,1.1302595,-0.7831515,-0.0081065
151,0.9962370000000002,0.723887,0.056297,0.848886,0.490587,0.059711,0.7209560000000002,0.7235269999999999,0.047069,1.152446,0.500637,0.048856,1.265986,0.721437,-0.006207,0.6945760000000001,0.942407,0.0020729999999999,1.308846,0.923887,-0.066076,0.926349,-0.002831,-0.001575,1.073651,0.002831,0.001575,0.883466,-0.423443,0.012802,1.128616,-0.390743,-0.0027729999999999,0.876746,-0.793663,-0.0121469999999999,1.133006,-0.783753,-0.0079559999999999
152,0.9955485000000001,0.7239675,0.053966,0.8476085000000001,0.4918474999999999,0.06086,0.7138385,0.7169575,0.048189,1.1531785,0.5001275000000001,0.048232,1.2699384999999999,0.7161675000000001,-0.012961,0.6906985,0.9366275,-0.0011099999999999,1.3113685,0.9183675,-0.079145,0.9264875,-0.0028084999999999,-0.00146,1.0735125,0.0028084999999999,0.00146,0.8852485000000001,-0.4238625,0.0104479999999999,1.1310285,-0.3904625,-0.0028899999999999,0.8800085,-0.7929725,-0.011983,1.1365585,-0.7841925,-0.0076909999999999
153,0.994538,0.723978,0.051454,0.8466629999999999,0.493158,0.062329,0.7056030000000001,0.708238,0.049676,1.154553,0.499818,0.04785,1.2745630000000001,0.7090179999999999,-0.0209189999999999,0.6849530000000001,0.925378,-0.0044259999999999,1.313923,0.910618,-0.09425,0.92662,-0.002796,-0.0013709999999999,1.07338,0.002796,0.0013709999999999,0.887223,-0.424552,0.0078169999999999,1.133763,-0.390312,-0.0029479999999999,0.883893,-0.792462,-0.011547,1.140613,-0.784652,-0.0073739999999999
154,0.9935375000000001,0.7244545,0.048935,0.8446065,0.4945645,0.063684,0.6968565,0.6969645,0.051058,1.1533665,0.4980644999999999,0.045861,1.2804065,0.6989445000000001,-0.029225,0.6796565,0.9129345,-0.0073189999999999,1.3169265,0.8998444999999999,-0.112362,0.9268105,-0.0028545,-0.0012179999999999,1.0731895,0.0028544999999999,0.001218,0.8899065,-0.4248655,0.005157,1.1372565,-0.3899455,-0.0028339999999999,0.8888865,-0.7912755,-0.010979,1.1456665,-0.7852755,-0.0079909999999999
155,0.992167,0.7259105,0.046219,0.8426100000000001,0.4966205,0.065503,0.68655,0.6799805,0.053404,1.1525699999999999,0.4963605,0.044124,1.28681,0.6839005,-0.039096,0.67347,0.8939605,-0.0098119999999999,1.31991,0.8817805000000001,-0.134306,0.927082,-0.0029444999999999,-0.0009769999999999,1.072918,0.0029445,0.0009769999999999,0.89346,-0.4243995,0.002299,1.14066,-0.3893195,-0.003913,0.89613,-0.7889495,-0.0094669999999999,1.15302,-0.7846495,-0.0077619999999999
156,0.9908555,0.727505,0.0435645,0.8403085,0.498675,0.0676585,0.6758284999999999,0.662315,0.0563175,1.1522185,0.4947549999999999,0.0426955,1.2936585,0.6674749999999999,-0.0514345,0.6676985,0.873265,-0.0130474999999999,1.3225785,0.859615,-0.1594145,0.9274185,-0.0030189999999999,-0.0007904999999999,1.0725815,0.003019,0.0007904999999999,0.8975385000000001,-0.423515,-0.0004424999999999,1.1441885,-0.390665,-0.0058984999999999,0.9046485000000001,-0.786235,-0.0075534999999999,1.1616685,-0.783325,-0.0070074999999999
157,0.9894385,0.7293445000000001,0.0408955,0.8380585,0.5002045,0.0704125,0.6645785,0.6435245,0.0599465,1.1514484999999999,0.4928945,0.0410375,1.3017585,0.6437945,-0.0625405,0.6623785,0.8506045,-0.0172365,1.3258885,0.8311345,-0.1843405,0.9277885,-0.0030774999999999,-0.0006444999999999,1.0722115,0.0030775,0.0006444999999999,0.9021185,-0.4229155,-0.0026935,1.1471784999999999,-0.3918855,-0.0092455,0.9144685,-0.7837054999999999,-0.0048345,1.1713185,-0.7819455,-0.0055334999999999
158,0.9875735000000001,0.7317685,0.039069,0.8374735,0.5018085000000001,0.073762,0.6553335,0.6226685000000001,0.0633,1.1491355,0.4905885,0.03816,1.3083935,0.6166784999999999,-0.068117,0.6598235,0.8247685,-0.023566,1.3284635,0.7928185000000001,-0.205417,0.9284435,-0.0032114999999999,1.6000000000002124e-05,1.0715565,0.0032114999999999,-1.6000000000002124e-05,0.9103435,-0.4204815,-0.003264,1.1470595000000001,-0.3897615,-0.017678,0.9262135,-0.7791014999999999,-0.0004519999999999,1.1784835,-0.7768014999999999,-0.007454
159,0.9860710000000001,0.734259,0.0375555,0.83826,0.502699,0.0766355,0.64647,0.599599,0.0649545,1.14807,0.488259,0.0362075,1.31381,0.5824389999999999,-0.0683675,0.66023,0.794989,-0.0328575,1.32974,0.744759,-0.2244475,0.92888,-0.003168,0.0004965,1.07112,0.003168,-0.0004964999999999,0.92022,-0.415101,-0.0017214999999999,1.143705,-0.385161,-0.0313074999999999,0.93962,-0.773721,0.0024725,1.17858,-0.771421,-0.0139694999999999
160,0.9850615,0.736823,0.0359445,0.8397615,0.503983,0.0791345,0.6401015,0.573823,0.0671445,1.1477725,0.4860029999999999,0.0345435,1.3196615,0.548523,-0.0678435,0.6596314999999999,0.759073,-0.0414834999999999,1.3312015,0.691643,-0.2326835,0.9292315,-0.003237,0.0011265,1.0707685,0.003237,-0.0011264999999999,0.9300415,-0.409717,0.0008975,1.1381285,-0.380077,-0.0485035,0.9540415,-0.7683369999999999,0.0058445,1.1754995,-0.766037,-0.0252234999999999
161,0.9838685,0.7390424999999999,0.033144,0.8415185000000001,0.5029224999999999,0.080848,0.6372884999999999,0.5446225,0.067594,1.1467475,0.4831824999999999,0.031445,1.3220585,0.5070825,-0.0665069999999999,0.6603285,0.7179424999999999,-0.0527969999999999,1.3309085,0.6279724999999999,-0.2353969999999999,0.9292385,-0.0032224999999999,0.001593,1.0707615,0.0032225,-0.0015929999999999,0.9406085,-0.4044075,-0.0132069999999999,1.1275935,-0.3765975,-0.071607,0.9696385,-0.7628575000000001,0.005086,1.1640205,-0.7600575,-0.044347
162,0.9819465,0.7400705000000001,0.028646,0.8425465000000001,0.4997305,0.081379,0.6373865000000001,0.5120105,0.069589,1.1453655,0.4796304999999999,0.027846,1.3200465000000001,0.4661905,-0.0606049999999999,0.6634865,0.6736005,-0.065075,1.3251965,0.5657905000000001,-0.2320749999999999,0.9292965,-0.0033865,0.002255,1.0707035,0.0033865,-0.0022549999999999,0.9542365000000002,-0.4055695,-0.0070949999999999,1.1170455,-0.3733695,-0.0934249999999999,0.9844765000000001,-0.7518094999999999,0.005379,1.1524045,-0.7518695,-0.061945
163,0.9800230000000001,0.74081,0.0243499999999999,0.844883,0.49652,0.0819119999999999,0.638633,0.47903,0.0680669999999999,1.146374,0.47748,0.0254009999999999,1.316873,0.42776,-0.05346,0.6661630000000001,0.62847,-0.08165,1.319113,0.48964,-0.22575,0.9292730000000001,-0.0035529999999999,0.0029099999999999,1.070727,0.003553,-0.00291,0.967553,-0.40629,-0.00679,1.105319,-0.3693099999999999,-0.11558,0.9849230000000001,-0.73956,-0.02558,1.125335,-0.73954,-0.09152
164,0.977905,0.7403915,0.01952,0.847225,0.4912915,0.081539,0.643955,0.4472215,0.067599,1.146725,0.4739515,0.02158,1.3090950000000001,0.3892315,-0.0411399999999999,0.669855,0.5810115,-0.09863,1.312895,0.4132015,-0.21344,0.929245,-0.0038174999999999,0.00403,1.070755,0.0038175,-0.00403,0.980035,-0.4074385,-0.0092899999999999,1.0945019999999999,-0.3655785,-0.13656,0.979985,-0.7233885,-0.0561799999999999,1.092374,-0.7272284999999999,-0.12531
165,0.9753700000000001,0.739923,0.013725,0.84983,0.486373,0.080573,0.65054,0.414133,0.06701,1.146522,0.470493,0.017095,1.29737,0.350283,-0.028175,0.67301,0.5323230000000001,-0.1155749999999999,1.30469,0.337603,-0.1999949999999999,0.92898,-0.003993,0.005145,1.07102,0.0039929999999999,-0.0051449999999999,0.9910300000000001,-0.407517,-0.011135,1.084147,-0.363197,-0.156395,0.9742300000000002,-0.703437,-0.088395,1.05314,-0.7138869999999999,-0.160565
166,0.97254,0.7389355,0.007635,0.85224,0.4809155,0.078896,0.66064,0.3798055,0.0651849999999999,1.14694,0.4674255,0.0120849999999999,1.283073,0.3178555,-0.014645,0.67416,0.4751855,-0.132155,1.295828,0.2641355,-0.183835,0.92848,-0.0043355,0.006665,1.07152,0.0043355,-0.006665,1.0042399999999998,-0.4085145,-0.010185,1.07116,-0.3623245,-0.1734149999999999,0.96752,-0.6945045000000001,-0.115145,1.01759,-0.7014545000000001,-0.194185
167,0.9713100000000001,0.739288,0.0018099999999999,0.85513,0.476738,0.0764499999999999,0.6747200000000001,0.349798,0.0633099999999999,1.150103,0.467798,0.0077899999999999,1.270998,0.293318,-0.00073,0.67709,0.421748,-0.14176,1.288078,0.206778,-0.16315,0.9278000000000001,-0.004346,0.0076099999999999,1.0722,0.004346,-0.00761,1.01506,-0.411222,-0.01407,1.0619399999999999,-0.3618019999999999,-0.18431,0.9599500000000001,-0.678552,-0.14244,0.9870700000000001,-0.6904220000000001,-0.21625
168,0.9695150000000001,0.7389355000000001,-0.003945,0.857185,0.4730855,0.073915,0.692435,0.3237055,0.0654049999999999,1.151875,0.4679954999999999,0.0034649999999999,1.259188,0.2798755,0.0123749999999999,0.6798649999999999,0.3729955,-0.144175,1.281117,0.1659655,-0.139845,0.927115,-0.0043285,0.007965,1.072885,0.0043285,-0.007965,1.025445,-0.4089945,-0.017335,1.0551849999999998,-0.3590945,-0.189605,0.951345,-0.6645544999999999,-0.1663349999999999,0.963375,-0.6790045,-0.231045
169,0.9665850000000001,0.738491,-0.0090799999999999,0.8580350000000001,0.469151,0.07207,0.709945,0.302181,0.06713,1.152175,0.468031,-0.0007099999999999,1.246776,0.270561,0.02263,0.684565,0.329121,-0.1461199999999999,1.273747,0.133081,-0.1117599999999999,0.926655,-0.004363,0.0088099999999999,1.073345,0.004363,-0.0088099999999999,1.034985,-0.405819,-0.0170699999999999,1.050455,-0.355709,-0.1898099999999999,0.9434950000000001,-0.649799,-0.1859799999999999,0.945185,-0.667159,-0.23647
170,0.9617550000000001,0.7377685,-0.013585,0.858525,0.4659885,0.070045,0.7247150000000001,0.2853885,0.0663449999999999,1.152925,0.4681385,-0.0027949999999999,1.237813,0.2704785,0.0313649999999999,0.6882250000000001,0.2894185,-0.147575,1.268999,0.1136485,-0.090575,0.9268950000000001,-0.0045394999999999,0.0102849999999999,1.073105,0.0045395,-0.0102849999999999,1.040935,-0.3978414999999999,-0.0118849999999999,1.050005,-0.3547415,-0.176675,0.935905,-0.6477515,-0.196305,0.940615,-0.6579615,-0.226365
171,0.955225,0.7364075,-0.01755,0.858155,0.4640875,0.0670799999999999,0.739355,0.2734074999999999,0.0681999999999999,1.1512850000000001,0.4689075,-0.0052599999999999,1.232535,0.2700875,0.0355099999999999,0.691215,0.2578475,-0.14401,1.268839,0.0961475,-0.07473,0.927135,-0.0048284999999999,0.01151,1.072865,0.0048285,-0.01151,1.0262749999999998,-0.3872225,-0.02205,1.0517349999999999,-0.3546325,-0.1644999999999999,0.917315,-0.6481425000000001,-0.2048299999999999,0.938105,-0.6509925,-0.21369
172,0.9478800000000001,0.7352700000000001,-0.0218749999999999,0.85711,0.46262,0.063995,0.7498400000000001,0.26449,0.068685,1.14932,0.46998,-0.0071749999999999,1.2278499999999999,0.26952,0.0379849999999999,0.6913,0.22809,-0.141285,1.26851,0.09558,-0.0594549999999999,0.92734,-0.005123,0.0125049999999999,1.07266,0.005123,-0.0125049999999999,1.0110299999999999,-0.37733,-0.0264849999999999,1.0547199999999999,-0.35479,-0.1511249999999999,0.90942,-0.64871,-0.185465,0.95001,-0.6481899999999999,-0.186795
173,0.94046,0.7335125,-0.025475,0.85556,0.4608625,0.0610249999999999,0.75877,0.2603924999999999,0.0675049999999999,1.14716,0.4717825,-0.007645,1.2255699999999998,0.2689425,0.0383549999999999,0.69221,0.2102425,-0.137285,1.2676599999999998,0.0948524999999999,-0.048835,0.92742,-0.0057345,0.0127549999999999,1.0725799999999999,0.0057345,-0.012755,0.99546,-0.3704875,-0.031715,1.0576899999999998,-0.3555175,-0.136515,0.90329,-0.6494375,-0.166345,0.96618,-0.6474375,-0.154905
174,0.93267,0.732446,-0.0282399999999999,0.8538399999999999,0.4585959999999999,0.05835,0.76619,0.2567759999999999,0.06602,1.14513,0.4739159999999999,-0.0070799999999999,1.22559,0.269756,0.03858,0.69302,0.194896,-0.12922,1.26817,0.093626,-0.0425299999999999,0.9276400000000001,-0.00601,0.0129199999999999,1.07236,0.00601,-0.0129199999999999,0.98121,-0.366904,-0.0240199999999999,1.06033,-0.358074,-0.1209799999999999,0.89662,-0.654694,-0.1458,0.98813,-0.648664,-0.1202999999999999
175,0.9253750000000001,0.73103,-0.03059,0.8521750000000001,0.45591,0.05567,0.771215,0.2540099999999999,0.06588,1.142635,0.4767599999999999,-0.00552,1.226615,0.2718399999999999,0.03886,0.695875,0.18441,-0.1205499999999999,1.268535,0.09215,-0.0506099999999999,0.928055,-0.006246,0.0126299999999999,1.071945,0.006246,-0.0126299999999999,0.963335,-0.36366,-0.02252,1.065455,-0.36141,-0.1060399999999999,0.8900750000000001,-0.66179,-0.12949,1.006325,-0.65147,-0.08812
176,0.9164,0.729719,-0.03332,0.84878,0.4550389999999999,0.05247,0.77062,0.251469,0.06378,1.13837,0.481089,-0.00334,1.2271299999999998,0.278159,0.03967,0.69763,0.175709,-0.1138299999999999,1.26911,0.097831,-0.06142,0.9284200000000001,-0.006403,0.0123199999999999,1.07158,0.006403,-0.0123199999999999,0.9461100000000001,-0.361961,-0.0225299999999999,1.0708,-0.363151,-0.09148,0.88394,-0.674101,-0.1111999999999999,1.02345,-0.6542509999999999,-0.05928
177,0.9072100000000001,0.7288804999999999,-0.0362350000000001,0.84512,0.4542005,0.0493249999999999,0.7688200000000001,0.2490504999999999,0.0600349999999999,1.13349,0.4856105,-0.001785,1.22733,0.2866405,0.0405649999999999,0.6989500000000002,0.1676204999999999,-0.109245,1.26951,0.1064105,-0.072405,0.929,-0.0067075,0.0128149999999999,1.071,0.0067075,-0.012815,0.9263600000000001,-0.3538495,-0.045695,1.07668,-0.3639894999999999,-0.077305,0.8777400000000001,-0.6909195,-0.093285,1.04068,-0.6550895,-0.032105
178,0.898815,0.7287319999999999,-0.039545,0.842405,0.454052,0.0454149999999999,0.766235,0.247362,0.0564249999999999,1.129155,0.489572,-0.000375,1.2276449999999999,0.296222,0.0420549999999999,0.696245,0.159112,-0.107355,1.270675,0.1176619999999999,-0.081455,0.9294350000000001,-0.00685,0.0126349999999999,1.070565,0.00685,-0.012635,0.907325,-0.346618,-0.068765,1.0832849999999998,-0.365048,-0.064585,0.870775,-0.7056180000000001,-0.078985,1.058465,-0.655228,-0.008205
179,0.8923000000000001,0.7286269999999999,-0.0426299999999999,0.83969,0.453947,0.04255,0.76449,0.245887,0.05657,1.12525,0.491657,0.00091,1.22698,0.302867,0.04453,0.6942200000000001,0.149987,-0.1023199999999999,1.2686899999999999,0.1242369999999999,-0.08209,0.92961,-0.006946,0.01207,1.07039,0.006946,-0.0120699999999999,0.8907400000000001,-0.340203,-0.0892899999999999,1.0907499999999999,-0.365863,-0.0593499999999999,0.8629200000000001,-0.7180730000000001,-0.06921,1.07156,-0.656583,0.0088799999999999
180,0.887815,0.7276,-0.04498,0.836365,0.45341,0.0407199999999999,0.761055,0.24486,0.0528899999999999,1.121865,0.4935799999999999,0.0016099999999998,1.2257349999999998,0.3058,0.0481799999999998,0.6932449999999999,0.1429099999999999,-0.10444,1.2682449999999998,0.1252899999999999,-0.07629,0.929685,-0.0069749999999999,0.0115199999999999,1.070315,0.0069749999999999,-0.01152,0.892935,-0.34024,-0.08418,1.096245,-0.36689,-0.05405,0.867775,-0.73046,-0.06082,1.083235,-0.65757,0.0233699999999998
181,0.8835450000000001,0.7255429999999999,-0.0473099999999999,0.8332550000000001,0.452543,0.03934,0.7608050000000001,0.244213,0.05338,1.118635,0.495523,0.00218,1.224355,0.307783,0.05175,0.6961350000000002,0.138383,-0.1026299999999998,1.267685,0.125583,-0.0689999999999999,0.929805,-0.00702,0.01104,1.070195,0.00702,-0.0110399999999999,0.895555,-0.339947,-0.0782699999999999,1.101595,-0.367567,-0.0493299999999998,0.8763750000000001,-0.7376670000000001,-0.0480499999999999,1.092975,-0.658157,0.03655
182,0.879515,0.7235645,-0.04971,0.8303950000000001,0.4518745,0.03836,0.7595450000000001,0.2443644999999999,0.05335,1.115645,0.4973745,0.0023699999999999,1.222735,0.3089945,0.05495,0.697975,0.1340045,-0.10119,1.2676450000000001,0.1258645,-0.0600999999999999,0.9299650000000002,-0.0070814999999999,0.0107099999999999,1.070035,0.0070814999999999,-0.0107099999999999,0.8983650000000001,-0.3396654999999999,-0.0722499999999999,1.110525,-0.3682054999999999,-0.0458999999999999,0.886905,-0.7381354999999999,-0.03561,1.102065,-0.6580655,0.0477699999999999
183,0.8761900000000001,0.7216695,-0.05222,0.8278800000000001,0.4511695,0.0376499999999998,0.75901,0.2436495,0.0531399999999998,1.11296,0.4987695,0.0023499999999998,1.22066,0.3095195,0.0577299999999999,0.6990800000000001,0.1290295,-0.10181,1.26826,0.1259895,-0.0493700000000001,0.93017,-0.0071845,0.0104999999999999,1.06983,0.0071845,-0.0105,0.90118,-0.3405805,-0.0664000000000001,1.1143299999999998,-0.3687605,-0.04338,0.89715,-0.7387405,-0.02377,1.1106099999999999,-0.6585005,0.0577099999999999
184,0.8726649999999999,0.720072,-0.05484,0.8255849999999999,0.450772,0.03736,0.7577749999999999,0.243832,0.05196,1.110715,0.499632,0.0024899999999999,1.2185249999999999,0.309702,0.05993,0.7001649999999999,0.124702,-0.10343,1.2684449999999998,0.125632,-0.03951,0.930395,-0.0072879999999999,0.01036,1.069605,0.0072879999999999,-0.01036,0.9042749999999999,-0.341498,-0.0609499999999999,1.1182349999999999,-0.369448,-0.0413299999999999,0.906745,-0.7391479999999999,-0.0130599999999999,1.119165,-0.659188,0.0662899999999999
185,0.87033,0.7186085000000001,-0.05661,0.82433,0.4504285,0.0378099999999999,0.7588500000000001,0.2436185,0.0542299999999998,1.1093,0.5003385,0.0025999999999999,1.21657,0.3098585,0.0612299999999998,0.6998600000000001,0.1207685,-0.10613,1.26743,0.1234485,-0.03193,0.9305700000000001,-0.0073445,0.0104099999999999,1.0694299999999999,0.0073445,-0.01041,0.90663,-0.3423415,-0.05646,1.12178,-0.3699815,-0.03955,0.9143400000000002,-0.7395115,-0.00465,1.12614,-0.6596814999999999,0.0725399999999999
186,0.8682350000000001,0.717302,-0.0582,0.8226150000000001,0.4497819999999999,0.03791,0.7597650000000001,0.243732,0.05662,1.107075,0.500722,0.00182,1.215215,0.3099719999999999,0.0623799999999999,0.7008450000000002,0.116482,-0.10421,1.266635,0.119512,-0.0249099999999999,0.9307150000000001,-0.007436,0.0104199999999999,1.069285,0.007436,-0.0104199999999999,0.9090850000000001,-0.343468,-0.05203,1.125575,-0.370658,-0.0374299999999999,0.9226450000000002,-0.739938,0.00412,1.132985,-0.6596879999999999,0.0784399999999999
187,0.866255,0.7166364999999999,-0.0595599999999999,0.820375,0.4494265,0.03826,0.761405,0.2430665,0.0588,1.104935,0.5011764999999999,0.00118,1.2140049999999998,0.3100465,0.06307,0.704765,0.1151665,-0.10102,1.2657349999999998,0.1160565,-0.0187699999999999,0.9308750000000001,-0.0074775,0.01057,1.0691249999999999,0.0074775,-0.0105699999999999,0.911165,-0.3440535,-0.0479199999999999,1.128825,-0.3709235,-0.03525,0.930545,-0.7398335,0.01205,1.139025,-0.6592335,0.08374
188,0.864455,0.716203,-0.0605049999999999,0.8175050000000001,0.448833,0.038595,0.7632750000000001,0.241813,0.061395,1.102315,0.501633,0.0001850000000001,1.212555,0.3095329999999999,0.063435,0.709175,0.113703,-0.0975349999999999,1.266995,0.112593,-0.0127049999999999,0.930965,-0.00753,0.010635,1.069035,0.00753,-0.0106349999999999,0.912935,-0.344577,-0.0440249999999999,1.131855,-0.371197,-0.0329849999999999,0.938035,-0.7396269999999999,0.019325,1.144365,-0.658777,0.088605
189,0.86328,0.716024,-0.0610349999999999,0.81627,0.448114,0.040015,0.7649500000000001,0.240884,0.0639849999999999,1.1012499999999998,0.5020439999999999,0.0003849999999999,1.21195,0.308454,0.0637849999999999,0.71107,0.107804,-0.0965249999999999,1.26739,0.109314,-0.0086049999999999,0.93116,-0.007519,0.010835,1.06884,0.007519,-0.010835,0.9146100000000001,-0.344896,-0.040625,1.13445,-0.371206,-0.0311249999999999,0.94375,-0.739406,0.0246349999999999,1.14855,-0.658366,0.092225
190,0.86241,0.7160725,-0.061625,0.8161499999999999,0.4490225,0.0385449999999999,0.76422,0.2419625,0.0685349999999999,1.09649,0.5021725,-0.002125,1.2125299999999999,0.3053424999999999,0.0650149999999999,0.70965,0.1160325,-0.1028350000000001,1.2699099999999999,0.1042225,0.0008249999999999,0.93121,-0.0073455,0.0108049999999999,1.06879,0.0073455,-0.010805,0.91766,-0.3452275,-0.037175,1.1383999999999999,-0.3710075,-0.028245,0.95227,-0.7388075000000001,0.0319049999999999,1.1556899999999999,-0.6580175,0.0988849999999998
191,0.8618750000000002,0.7161789999999999,-0.061795,0.8131850000000003,0.447309,0.0395349999999999,0.7657550000000001,0.239659,0.0723249999999999,1.0965950000000002,0.5023489999999999,-0.001485,1.2122650000000001,0.305379,0.0650349999999999,0.7133550000000001,0.1183689999999999,-0.103165,1.2697150000000001,0.104069,0.0015549999999999,0.9316450000000001,-0.007404,0.0116049999999999,1.068355,0.007404,-0.011605,0.9185750000000001,-0.345351,-0.0354350000000001,1.1396650000000002,-0.371261,-0.026715,0.9557050000000002,-0.7383810000000001,0.0353649999999999,1.1579450000000002,-0.6577810000000001,0.1014349999999999
192,0.861885,0.71672,-0.0621349999999999,0.810535,0.4450199999999999,0.0401449999999999,0.767665,0.237,0.076125,1.096195,0.5028100000000001,-0.0018749999999999,1.211355,0.3052499999999999,0.064315,0.716675,0.1207,-0.103225,1.269255,0.10395,0.0011849999999999,0.932055,-0.0075099999999999,0.0122349999999999,1.067945,0.0075099999999999,-0.0122349999999999,0.9196950000000002,-0.34554,-0.0337849999999999,1.140865,-0.37124,-0.0257049999999999,0.958325,-0.73829,0.0377349999999999,1.160015,-0.6566299999999999,0.102315
193,0.86133,0.716587,-0.0632199999999999,0.8088299999999999,0.442677,0.04136,0.7702100000000001,0.234217,0.0794300000000001,1.09652,0.503037,-0.0014299999999999,1.2103799999999998,0.305697,0.0637,0.7330099999999999,0.065158,-0.0547399999999999,1.26776,0.104737,-0.0011399999999999,0.93254,-0.007605,0.01292,1.0674599999999999,0.007605,-0.0129199999999999,0.92083,-0.345703,-0.0323999999999999,1.1421,-0.371343,-0.0248799999999999,0.96026,-0.738443,0.03881,1.16174,-0.655803,0.10255
194,0.864905,0.717777,-0.06166,0.8054349999999999,0.441087,0.0480199999999999,0.783875,0.2279169999999999,0.07899,1.0971149999999998,0.501537,-0.00077,1.2090949999999998,0.305567,0.0617599999999999,0.730985,0.067897,-0.06064,1.264095,0.105497,-0.00826,0.933415,-0.007608,0.0141599999999999,1.066585,0.007608,-0.01416,0.924475,-0.3459629999999999,-0.0273000000000001,1.145015,-0.3716629999999999,-0.0244199999999999,0.966415,-0.738603,0.0433699999999999,1.167635,-0.654793,0.1054999999999999
195,0.86646,0.718148,-0.0612099999999998,0.80601,0.441758,0.0499100000000001,0.78782,0.227188,0.07605,1.09778,0.501308,-0.0006599999999998,1.20825,0.304728,0.06082,0.73698,0.058517,-0.0534599999999999,1.26205,0.104918,-0.0110499999999998,0.93371,-0.007507,0.0145,1.06629,0.007507,-0.0144999999999999,0.92546,-0.345922,-0.0251999999999998,1.14638,-0.3715719999999999,-0.0244299999999999,0.96869,-0.738652,0.04448,1.16994,-0.6539119999999999,0.10591
196,0.8680850000000001,0.718573,-0.06044,0.806535,0.442303,0.0520399999999999,0.7849150000000001,0.176673,0.0545499999999999,1.099525,0.501453,0.0004099999999999,1.206675,0.3026629999999999,0.0586299999999999,0.7200650000000002,0.02226,-0.08578,1.259905,0.103026,-0.01413,0.9338550000000001,-0.007401,0.0146999999999999,1.066145,0.007401,-0.0147,0.9261750000000001,-0.345857,-0.02117,1.147255,-0.372167,-0.02481,0.9706750000000001,-0.7390869999999999,0.0455599999999999,1.172125,-0.653697,0.1072099999999999
