sb224sc-HT22-VT27/4dt907/src/data/kinect_good_preprocessed_not_cut_A11_mediapipe/A26_kinect_mirrored.csv
FrameNo,nose_3d_x,nose_3d_y,nose_3d_z,left_shoulder_3d_x,left_shoulder_3d_y,left_shoulder_3d_z,left_elbow_3d_x,left_elbow_3d_y,left_elbow_3d_z,right_shoulder_3d_x,right_shoulder_3d_y,right_shoulder_3d_z,right_elbow_3d_x,right_elbow_3d_y,right_elbow_3d_z,left_wrist_3d_x,left_wrist_3d_y,left_wrist_3d_z,right_wrist_3d_x,right_wrist_3d_y,right_wrist_3d_z,left_hip_3d_x,left_hip_3d_y,left_hip_3d_z,right_hip_3d_x,right_hip_3d_y,right_hip_3d_z,left_knee_3d_x,left_knee_3d_y,left_knee_3d_z,right_knee_3d_x,right_knee_3d_y,right_knee_3d_z,left_ankle_3d_x,left_ankle_3d_y,left_ankle_3d_z,right_ankle_3d_x,right_ankle_3d_y,right_ankle_3d_z
0,0.9915410000000001,0.7614075,0.056205,0.8438320000000001,0.4631175,0.065559,0.8182320000000001,0.2134575,0.069229,1.152022,0.4675375,0.061787,1.177482,0.2125475,0.060849,0.8040920000000001,0.0087575,-0.0084889999999999,1.196962,0.0113894999999999,-0.015639,0.926897,-0.0021315,-0.000376,1.073103,0.0021314999999999,0.000376,0.8889120000000001,-0.4137025,0.008937,1.124282,-0.3845125,-0.016166,0.8834420000000001,-0.7344025,-0.0212899999999999,1.127172,-0.7365725,-0.0202919999999999
1,0.9915735,0.7612880000000001,0.0563754999999999,0.8438365,0.463128,0.0657365,0.8183365,0.213238,0.0689495,1.1519165,0.4676079999999999,0.0616634999999999,1.1776065,0.212568,0.0604915,0.8033165,0.011433,-0.0070645,1.1956265,0.011535,-0.0167985,0.9269035,-0.002159,-0.0003415,1.0730965,0.002159,0.0003415,0.8888965,-0.413622,0.0088434999999999,1.1242264999999998,-0.385262,-0.0161045,0.8824465,-0.7337119999999999,-0.0234295,1.1274365,-0.738352,-0.0200475
2,0.991512,0.7611555,0.056594,0.843808,0.4629455,0.065844,0.818298,0.2132254999999999,0.068754,1.153088,0.4675755,0.063087,1.177798,0.2124055,0.059888,0.804608,0.0121565,-0.0097009999999999,1.1948079999999999,0.0116684999999999,-0.0185299999999999,0.9269090000000001,-0.0021605,-0.0003419999999999,1.0730909999999998,0.0021605,0.000342,0.888898,-0.4133644999999999,0.008736,1.1242379999999998,-0.3857144999999999,-0.0160449999999999,0.8832280000000001,-0.7347445,-0.0241809999999999,1.127478,-0.7368345,-0.0201179999999999
3,0.9871550000000001,0.7604955,0.06212,0.8410880000000001,0.4616555,0.069067,0.8167980000000001,0.2120054999999999,0.069147,1.150448,0.4679555,0.065888,1.176788,0.2132655,0.060385,0.8049780000000001,0.0083875,-0.0139309999999999,1.193438,0.0134315,-0.0205469999999999,0.92693,-0.0025915,-0.0002349999999999,1.07307,0.0025915,0.0002349999999999,0.8911180000000001,-0.4140445,0.006149,1.126348,-0.3849045,-0.0187359999999999,0.887138,-0.7352945000000001,-0.028821,1.131448,-0.7350345,-0.025229
4,0.986978,0.7605350000000001,0.0624624999999999,0.841413,0.461735,0.0690065,0.8155330000000001,0.213835,0.0668594999999999,1.149893,0.468365,0.0655435,1.177333,0.213935,0.0590174999999999,0.803953,0.010283,-0.0197185,1.197773,0.01553,-0.0247645,0.927008,-0.0026869999999999,-5.8500000000002994e-05,1.072992,0.002687,5.8499999999996055e-05,0.890973,-0.4131249999999999,0.0060224999999999,1.126153,-0.384515,-0.0187695,0.887183,-0.735445,-0.0277005,1.1311930000000001,-0.734915,-0.0254695
5,0.9873980000000001,0.760684,0.063363,0.8427169999999999,0.463604,0.070181,0.7897270000000001,0.251654,0.038562,1.151577,0.468364,0.06663,1.205947,0.249544,0.026471,0.762497,0.073709,-0.084288,1.254767,0.074221,-0.092758,0.926913,-0.0026659999999999,0.000294,1.073087,0.002666,-0.000294,0.891927,-0.408646,0.005988,1.126987,-0.380606,-0.017224,0.889057,-0.739836,-0.030714,1.129857,-0.734106,-0.025119
6,0.988137,0.7607254999999999,0.0646555,0.8439719999999999,0.4642955,0.0695155,0.7782519999999999,0.2605455,0.0256545,1.151882,0.4686055,0.0665295,1.224892,0.2692555,0.0142145,0.749952,0.0966055,-0.1160765,1.276502,0.1022715,-0.1159764999999999,0.926785,-0.0026524999999999,0.0004714999999999,1.073215,0.0026525,-0.0004714999999999,0.892382,-0.4075944999999999,0.0064405,1.127592,-0.3721744999999999,-0.0160724999999999,0.889082,-0.7399145,-0.0309935,1.129682,-0.7330045000000001,-0.0257164999999999
7,0.9920975,0.7590345,0.0646745,0.8474635,0.4673445,0.0614225,0.7498835000000001,0.3165945,-0.0170845,1.1517635,0.4715145,0.0612864999999999,1.2532635,0.3296145,-0.0214684999999999,0.7100235000000001,0.2269845,-0.1778395,1.3152035,0.2373545,-0.1771495,0.9262885,-0.0022164999999999,-0.0007705,1.0737115,0.0022164999999999,0.0007705,0.8927435,-0.4092055,0.0048255,1.1260234999999998,-0.3732555,-0.0180045,0.8877435,-0.7416155000000001,-0.0298045,1.1290435,-0.7306455000000001,-0.0227125
8,0.992914,0.7582025,0.0647865,0.8477870000000001,0.4697325,0.0598975,0.736407,0.3500025,-0.0327135,1.1521569999999999,0.4728225,0.0600165,1.269067,0.3645125,-0.0365205,0.6920569999999999,0.2957025,-0.2057645,1.338647,0.3077725,-0.2047045,0.926153,-0.0020785,-0.0008914999999999,1.073847,0.0020785,0.0008914999999999,0.892927,-0.4089175,0.0041155,1.126097,-0.3719175,-0.0183464999999999,0.887797,-0.7424475,-0.0310595,1.129117,-0.7304075,-0.0229845
9,0.9937225,0.7571,0.0648215,0.8478505000000001,0.4721,0.0582245,0.7230905000000001,0.38531,-0.0479895,1.1528905,0.4744,0.0587385,1.2845105,0.40243,-0.0513315,0.6749205,0.36834,-0.2300825,1.3606605,0.38254,-0.2290525,0.9260595000000001,-0.0019069999999999,-0.0010395,1.0739405,0.0019069999999999,0.0010394999999999,0.8930605000000001,-0.40891,0.0034264999999999,1.1261605000000001,-0.37063,-0.0186845,0.8878005,-0.74355,-0.0321925,1.1292005,-0.73018,-0.0232335
10,0.9945595000000002,0.7556655,0.0647095,0.8478175,0.4745155,0.0566065,0.7118175,0.4203854999999999,-0.0597655,1.1535775,0.4761355,0.0574075,1.2961775,0.4405855,-0.0620565,0.6625775,0.4393955,-0.2450645,1.3757875,0.4566755,-0.2447045,0.9259835,-0.0017584999999999,-0.0011974999999999,1.0740165,0.0017585,0.0011975,0.8931475,-0.4092245,0.0028435,1.1262075,-0.3694445,-0.0190754999999999,0.8877975,-0.7449845,-0.0331905,1.1292275,-0.7304345,-0.0233945
11,0.9957515,0.7536999999999999,0.0643924999999999,0.8478765,0.47689,0.0545495,0.7028065,0.4566,-0.0691755,1.1546365,0.4778,0.0555644999999999,1.3056065000000001,0.47683,-0.0702565,0.6521865,0.50942,-0.2547965,1.3878265,0.5285599999999999,-0.2550964999999999,0.9258925000000001,-0.0015769999999999,-0.0013505,1.0741075,0.001577,0.0013504999999999,0.8933065,-0.41046,0.0022834999999999,1.1260765,-0.37044,-0.0195455,0.8875765,-0.7471500000000001,-0.0338975,1.1289164999999999,-0.73148,-0.0231335
12,0.9967765,0.751498,0.0637544999999999,0.8478795,0.479248,0.0528855,0.6986695,0.488908,-0.0704035,1.1558095,0.479338,0.0539085,1.3075695,0.508768,-0.0718195,0.6494195,0.569498,-0.2556445,1.3920395,0.592978,-0.2562244999999999,0.9258575,-0.001413,-0.0014835,1.0741425,0.001413,0.0014834999999999,0.8933895000000001,-0.411982,0.0018454999999999,1.1258495,-0.372382,-0.0199735,0.8873495,-0.749712,-0.0344975,1.1285494999999999,-0.7330720000000001,-0.0223935
13,0.9976,0.7492030000000001,0.063222,0.84779,0.481463,0.051808,0.6980500000000001,0.5167430000000001,-0.070877,1.1568,0.480673,0.0525189999999999,1.30825,0.5370130000000001,-0.072347,0.64943,0.622853,-0.256144,1.3920499999999998,0.647163,-0.2567239999999999,0.925891,-0.00129,-0.001416,1.074109,0.0012899999999999,0.001416,0.89337,-0.413917,0.001688,1.12557,-0.374967,-0.0200579999999999,0.88688,-0.751887,-0.0347139999999999,1.1283,-0.7351869999999999,-0.021909
14,0.998419,0.7467794999999999,0.062931,0.847842,0.4837995,0.051002,0.698072,0.5462095,-0.071135,1.157842,0.4821895,0.0512819999999999,1.308272,0.5640695,-0.072605,0.6494519999999999,0.6730395,-0.256402,1.392072,0.6962895,-0.256982,0.9259340000000001,-0.0012154999999999,-0.0011859999999999,1.074066,0.0012154999999999,0.0011859999999999,0.893322,-0.4160805,0.0017429999999999,1.125252,-0.3778805,-0.019895,0.886592,-0.7542905,-0.0345629999999999,1.128072,-0.7383205,-0.021532
15,0.999239,0.7443365000000001,0.0628565,0.847592,0.4860065,0.0505025,0.6981120000000001,0.5724565,-0.0711775,1.158782,0.4840365,0.0499405,1.308312,0.5903865,-0.0726475,0.649722,0.7170565,-0.2508645,1.392332,0.7402465,-0.2515945,0.925977,-0.0011874999999999,-0.0011474999999999,1.074023,0.0011874999999999,0.0011475,0.893262,-0.4184135,0.0018235,1.124972,-0.3811835,-0.0197245,0.886352,-0.7568134999999999,-0.0341174999999999,1.127932,-0.7414135,-0.0207154999999999
16,0.9996965,0.7418955,0.062371,0.8469915,0.4876155,0.050274,0.6984215,0.6004255000000001,-0.064114,1.1596415,0.4862455,0.04885,1.3085415,0.6190955,-0.067697,0.6536715,0.7601455,-0.232685,1.3902215,0.7824555,-0.2347649999999999,0.9260085000000001,-0.0012455,-0.0011489999999999,1.0739915,0.0012455,0.001149,0.8932115,-0.4208345,0.001826,1.1249215,-0.3839645,-0.0197219999999999,0.8862915000000001,-0.7592544999999999,-0.03377,1.1277415,-0.7437245,-0.0207979999999999
17,1.000116,0.7395575000000001,0.061303,0.846728,0.4888775,0.050089,0.699558,0.6229075000000001,-0.056018,1.160078,0.4889174999999999,0.048098,1.3077779999999999,0.6430675,-0.0615769999999999,0.657548,0.7926675000000001,-0.209846,1.386658,0.8139575,-0.214646,0.926055,-0.0013664999999999,-0.0011509999999999,1.073945,0.0013664999999999,0.0011509999999999,0.893108,-0.4232825,0.0018309999999999,1.124868,-0.3866925,-0.01972,0.886328,-0.7620325,-0.033575,1.127588,-0.7464525,-0.0209499999999999
18,1.0005054999999998,0.7374165,0.060055,0.8467085,0.4902665,0.0502709999999999,0.7032785000000001,0.6447565000000001,-0.045737,1.1600685,0.4917165,0.047762,1.3046685,0.6636665,-0.053939,0.6631685,0.8228065,-0.184573,1.3795485,0.8416765,-0.1907329999999999,0.9261245,-0.0015314999999999,-0.0009,1.0738755,0.0015315,0.0008999999999999,0.8929585,-0.4258235,0.0020899999999999,1.1248185,-0.3896635,-0.019464,0.8863585,-0.7650135,-0.033069,1.1275385,-0.7494335,-0.020694
19,1.000786,0.735567,0.0588575,0.846671,0.491687,0.0505495,0.7082809999999999,0.663907,-0.0359625,1.160011,0.494367,0.0475665,1.300821,0.681867,-0.0463385,0.669501,0.849917,-0.1591385,1.3718309999999998,0.864927,-0.1671585,0.926241,-0.001621,-0.0006735,1.073759,0.001621,0.0006735,0.8928110000000001,-0.428173,0.0023145,1.124701,-0.392763,-0.0191575,0.8862410000000001,-0.767843,-0.0328185,1.1273909999999998,-0.752263,-0.0204434999999999
20,1.001017,0.7341125,0.0576605,0.846614,0.4930925,0.0510305,0.712894,0.6804525,-0.0261155,1.159944,0.4970225,0.0477105,1.296444,0.6992425,-0.0384405,0.675924,0.8743825,-0.1344425,1.364034,0.8867324999999999,-0.1436625,0.926338,-0.0016875,-0.0005474999999999,1.0736620000000001,0.0016875,0.0005474999999999,0.892584,-0.4301574999999999,0.0025645,1.124514,-0.3956975,-0.0187915,0.886124,-0.7703475000000001,-0.0325185,1.1272339999999998,-0.7547875000000001,-0.0198635
21,1.001292,0.7328705,0.056155,0.846615,0.4945805,0.051484,0.716885,0.6971605,-0.016005,1.159875,0.4995404999999999,0.047922,1.292055,0.7150505,-0.030393,0.681875,0.8963605,-0.111525,1.356785,0.9042505,-0.121685,0.926364,-0.0017215,-0.000573,1.073636,0.0017215,0.000573,0.8923449999999999,-0.4320695,0.0025689999999999,1.124315,-0.3988095,-0.018657,0.886185,-0.7729595,-0.032151,1.1271849999999999,-0.7577495,-0.0193129999999999
22,1.0016005,0.73183,0.0543885,0.8467905,0.4957699999999999,0.0518335,0.7209305000000001,0.71185,-0.0061774999999999,1.1597505,0.50162,0.0479944999999999,1.2881005,0.7288,-0.0228275,0.6873705,0.91606,-0.0903664999999999,1.3499204999999999,0.92021,-0.1005965,0.9263905,-0.001732,-0.0006395,1.0736094999999999,0.0017319999999999,0.0006395,0.8921205,-0.4339,0.0022945,1.1241005,-0.402,-0.0188255,0.8864905,-0.77551,-0.0320305,1.1272605,-0.76086,-0.0191075
23,1.0019004999999999,0.7311369999999999,0.0521515,0.8471895,0.4966669999999999,0.0517965,0.7252894999999999,0.723167,0.0027545,1.1596195,0.503347,0.0478045,1.2842495,0.740157,-0.0165424999999999,0.6925595,0.931977,-0.0707095,1.3436595,0.934557,-0.0820584999999999,0.9264395,-0.0016639999999999,-0.0006414999999999,1.0735605,0.001664,0.0006414999999999,0.8918795,-0.4358729999999999,0.0015685,1.1238295,-0.404853,-0.0194775,0.8868695,-0.778053,-0.0321994999999999,1.1273294999999999,-0.763663,-0.0196994999999999
24,1.0021045,0.7309235000000001,0.0500025,0.8476345000000001,0.4973335,0.0517615,0.7292345,0.7311835,0.0103045,1.1592245,0.5048335,0.0478045,1.2817645,0.7447035000000001,-0.0110275,0.6964945,0.9414535,-0.0527295,1.3382445,0.9428735,-0.0665545,0.9265165,-0.0016334999999999,-0.0006285,1.0734835,0.0016335,0.0006285,0.8915845,-0.4366065,0.0007554999999999,1.1233745,-0.4063765,-0.0205985,0.8872645000000001,-0.7792064999999999,-0.0324495,1.1273745,-0.7657465,-0.0205284999999999
25,1.002452,0.730835,0.048038,0.848198,0.4980749999999999,0.051771,0.731488,0.733665,0.0152039999999999,1.158808,0.505725,0.0478119999999999,1.279228,0.744765,-0.006688,0.698548,0.946605,-0.041997,1.334798,0.946795,-0.057271,0.926571,-0.0015449999999999,-0.000622,1.073429,0.0015449999999999,0.0006219999999999,0.891268,-0.436755,-0.000377,1.122828,-0.407445,-0.022218,0.887878,-0.780015,-0.032723,1.127508,-0.767335,-0.021805
26,1.0027455,0.730835,0.0457435,0.8484775,0.4980749999999999,0.0509955,0.7332575,0.734425,0.0182555,1.1583775,0.505725,0.0470825,1.2759975,0.744765,-0.0043104999999999,0.6997975000000001,0.949485,-0.0350865,1.3316275,0.948955,-0.0519075,0.9264665,-0.0015449999999999,-0.0009184999999999,1.0735335,0.0015449999999999,0.0009185,0.8909875,-0.436825,-0.0031944999999999,1.1225575,-0.409335,-0.0254905,0.8886674999999999,-0.781185,-0.0337784999999999,1.1277674999999998,-0.769575,-0.0250535
27,1.0029249999999998,0.730835,0.04317,0.848892,0.4980749999999999,0.0494509999999999,0.7338720000000001,0.734425,0.018632,1.157972,0.505725,0.045744,1.273282,0.744765,-0.004459,0.7002820000000001,0.949715,-0.031666,1.328512,0.949595,-0.050316,0.926398,-0.0015449999999999,-0.00109,1.073602,0.0015449999999999,0.00109,0.890452,-0.436925,-0.007022,1.122392,-0.410415,-0.029735,0.889552,-0.782775,-0.035544,1.128302,-0.7722450000000001,-0.029125
28,1.0030735,0.730727,0.039789,0.8492345,0.4981369999999999,0.04714,0.7340045,0.734487,0.016818,1.1575745,0.505787,0.043544,1.2704045,0.744827,-0.006532,0.7003445000000001,0.949777,-0.031956,1.3252945,0.949657,-0.052033,0.9263715,-0.0014829999999999,-0.0014349999999999,1.0736285,0.0014829999999999,0.001435,0.8897245,-0.437023,-0.0122909999999999,1.1221845,-0.412703,-0.035093,0.8901545,-0.784323,-0.038269,1.1287445,-0.774713,-0.034197
29,1.003034,0.7303815,0.0355749999999999,0.8496520000000001,0.4982215,0.044185,0.734082,0.7352115,0.013994,1.157322,0.5060615,0.040672,1.267642,0.7439115000000001,-0.009238,0.7003619999999999,0.9505015,-0.034777,1.322082,0.9503815,-0.0547209999999999,0.926221,-0.0013265,-0.0018449999999999,1.073779,0.0013265,0.0018449999999999,0.889062,-0.4371184999999999,-0.019001,1.122042,-0.4144385,-0.0418319999999999,0.890922,-0.7851785,-0.042211,1.129412,-0.7765185,-0.039964
30,1.0028935,0.7298305,0.0309055,0.8499675000000001,0.4977605,0.0402475,0.7341175,0.7350905,0.0104335,1.1569275,0.5062205000000001,0.0370814999999999,1.2649875,0.7430005000000001,-0.0126865,0.7003075000000001,0.9521505,-0.0383335,1.3192475,0.9520305,-0.0581634999999999,0.9260455,-0.0012115,-0.0022255,1.0739545,0.0012114999999999,0.0022255,0.8882975,-0.4363495,-0.0267475,1.1217375,-0.4153894999999999,-0.0503585,0.8915475,-0.7853295,-0.0468154999999999,1.1299975,-0.7763995,-0.0460325
31,1.0027225,0.72806,0.025126,0.8503535,0.4972999999999999,0.035252,0.7340035,0.73437,0.006037,1.1565435,0.50663,0.032694,1.2621935,0.74064,-0.017026,0.7000535,0.9528,-0.042724,1.3163235,0.95423,-0.062444,0.9258135000000001,-0.0011809999999999,-0.0024349999999999,1.0741865,0.001181,0.002435,0.8871335,-0.43443,-0.037356,1.1216735,-0.4147699999999999,-0.0614409999999999,0.8923135000000001,-0.78396,-0.052897,1.1306335,-0.7749699999999999,-0.0531409999999999
32,1.0025199999999999,0.726307,0.017599,0.851062,0.4959369999999999,0.027964,0.7338220000000001,0.732847,-0.00108,1.1554820000000001,0.506297,0.02621,1.259072,0.736857,-0.024391,0.699612,0.949827,-0.049502,1.312872,0.958157,-0.071133,0.925551,-0.0009919999999999,-0.002515,1.074449,0.0009919999999999,0.002515,0.885192,-0.426953,-0.052419,1.122122,-0.410163,-0.076362,0.893192,-0.776223,-0.059438,1.1315520000000001,-0.767063,-0.061563
33,1.0020455,0.7237075000000001,0.009526,0.8517905,0.4933774999999999,0.019674,0.7336605,0.7299175,-0.010156,1.1542605,0.5057775,0.018738,1.2559005,0.7334375000000001,-0.033811,0.6987905,0.9461575,-0.058436,1.3089905,0.9580575,-0.082869,0.9252335,-0.0008964999999999,-0.002547,1.0747665,0.0008964999999999,0.002547,0.8830905,-0.4164025,-0.069329,1.1227505,-0.4032025,-0.092607,0.8938505,-0.7650825,-0.066699,1.1324605,-0.7551224999999999,-0.070264
34,1.00117,0.7210565,8.650000000000064e-05,0.852332,0.4905365,0.0099365,0.7335320000000001,0.7276564999999999,-0.0209965,1.1527919999999998,0.5047865,0.0101155,1.252662,0.7292164999999999,-0.0449114999999999,0.697632,0.9440365,-0.0693505,1.304882,0.9582365,-0.0969864999999999,0.925084,-0.0007384999999999,-0.0025534999999999,1.074916,0.0007384999999999,0.0025535,0.880652,-0.4016834999999999,-0.0880215,1.123362,-0.3909835,-0.1103685,0.894212,-0.7495835000000001,-0.0745115,1.132892,-0.7396735000000001,-0.0791385
35,1.0002449999999998,0.717808,-0.0084345,0.852752,0.488488,0.0007645,0.7329019999999999,0.7258079999999999,-0.0321275,1.151272,0.504068,0.0021365,1.250862,0.727398,-0.0562015,0.696272,0.943088,-0.0810265,1.300962,0.957228,-0.1117624999999999,0.924899,-0.000618,-0.0023324999999999,1.075101,0.000618,0.0023325,0.878132,-0.384522,-0.1057875,1.124032,-0.376472,-0.1270625,0.894372,-0.731472,-0.0815845,1.133132,-0.722102,-0.0865765
36,0.9990315,0.715373,-0.0201,0.8528215,0.487073,-0.01159,0.7317815,0.722783,-0.046602,1.1494515,0.503413,-0.009225,1.2492615,0.722953,-0.070989,0.6951315,0.938633,-0.096597,1.2975415,0.958103,-0.130822,0.9247365,-0.0006,-0.002073,1.0752635,0.0005999999999999,0.002073,0.8752515,-0.363487,-0.126862,1.1247315,-0.357587,-0.146262,0.8943115000000001,-0.708637,-0.0907829999999999,1.1326114999999999,-0.699707,-0.095576
37,0.997051,0.7128495,-0.031096,0.85278,0.4859495,-0.023274,0.73014,0.7197695,-0.060984,1.14625,0.5017495000000001,-0.020167,1.24698,0.7237695,-0.085546,0.6936100000000001,0.9364295,-0.113383,1.29441,0.9554895,-0.150009,0.9243669999999999,-0.0004045,-0.001631,1.075633,0.0004045,0.0016309999999999,0.87003,-0.3375205,-0.152499,1.12695,-0.3345005,-0.170389,0.89362,-0.6808405,-0.097738,1.1317,-0.6725005,-0.102277
38,0.995039,0.71067,-0.0411715,0.852885,0.48468,-0.0340214999999999,0.728565,0.71694,-0.0743695,1.142985,0.50016,-0.0301485,1.244635,0.72463,-0.0999724999999999,0.6919649999999999,0.93412,-0.1292465,1.291205,0.95317,-0.1676265,0.924161,-0.00021,-0.0011625,1.075839,0.00021,0.0011625,0.864735,-0.31201,-0.1762665,1.128885,-0.3117999999999999,-0.1927465,0.8929050000000001,-0.65318,-0.1032984999999999,1.131125,-0.64546,-0.1078415
39,0.993416,0.7078450000000001,-0.050485,0.852962,0.4836749999999999,-0.043862,0.727052,0.714445,-0.087359,1.1400519999999998,0.4982749999999999,-0.03978,1.242432,0.725795,-0.113834,0.690382,0.932575,-0.144832,1.2882419999999999,0.951845,-0.1847319999999999,0.9240889999999999,-0.000115,-0.000694,1.075911,0.000115,0.000694,0.859112,-0.285465,-0.199812,1.130982,-0.287675,-0.2139019999999999,0.8917220000000001,-0.623745,-0.108155,1.130642,-0.617415,-0.112558
40,0.9914945,0.70712,-0.059355,0.8526145,0.48238,-0.053505,0.7253845,0.71332,-0.099677,1.1371045,0.49566,-0.049259,1.2394845,0.72767,-0.126508,0.6884844999999999,0.92975,-0.1603979999999999,1.2852945,0.95161,-0.201508,0.9239245000000001,-1.000000000001e-05,-0.000545,1.0760755,9.999999999982244e-06,0.000545,0.8524445,-0.25716,-0.222268,1.1330945,-0.26116,-0.234728,0.8905945000000001,-0.59165,-0.111156,1.1302345,-0.58687,-0.115674
41,0.9897430000000002,0.7061900000000001,-0.0670945,0.8520080000000001,0.48156,-0.0618795,0.723638,0.7129000000000001,-0.1103625,1.134788,0.49412,-0.0576485,1.236678,0.72539,-0.1371995,0.686678,0.93202,-0.1730495,1.282408,0.94288,-0.2149094999999999,0.923641,-0.00014,-0.0005334999999999,1.076359,0.00014,0.0005334999999999,0.846088,-0.23262,-0.2417194999999999,1.134898,-0.23679,-0.2532895,0.889548,-0.56402,-0.1139065,1.129828,-0.5604800000000001,-0.1184935
42,0.98849,0.705905,-0.0748264999999999,0.851396,0.4814049999999999,-0.0696985,0.722256,0.712755,-0.1204585,1.132716,0.4930249999999999,-0.0655854999999999,1.233916,0.720055,-0.1464575,0.6852659999999999,0.934445,-0.1854175,1.280116,0.939115,-0.2267974999999999,0.923195,-0.0001649999999999,-0.0005144999999999,1.076805,0.0001649999999999,0.0005145,0.839846,-0.209485,-0.2602575,1.1368260000000001,-0.214145,-0.2712475,0.889016,-0.538235,-0.1160745,1.129546,-0.535645,-0.1211725
43,0.987438,0.7054,-0.081532,0.850928,0.48236,-0.076248,0.7213980000000001,0.71292,-0.129455,1.130798,0.49229,-0.072882,1.2317479999999998,0.71662,-0.154355,0.684018,0.93478,-0.1968049999999999,1.278098,0.93614,-0.2371049999999999,0.9227750000000001,-0.0001599999999999,-0.0003239999999999,1.0772249999999999,0.0001599999999999,0.000324,0.833628,-0.1887499999999999,-0.277635,1.138788,-0.19357,-0.288235,0.888568,-0.51458,-0.11762,1.1292579999999999,-0.51302,-0.123725
44,0.9862095000000001,0.7054450000000001,-0.087527,0.8502445000000001,0.483395,-0.081256,0.7206945,0.7128650000000001,-0.136837,1.1289145,0.492095,-0.0788669999999999,1.2299445,0.713365,-0.160227,0.6828045,0.934165,-0.205977,1.2756845,0.932645,-0.245507,0.9224505000000001,-0.0001349999999999,-3.099999999999978e-05,1.0775495,0.000135,3.099999999999978e-05,0.8272545,-0.1692349999999999,-0.293567,1.1407745,-0.1734649999999999,-0.304017,0.8880145000000002,-0.4913949999999999,-0.117566,1.1282645,-0.4908549999999999,-0.124997
45,0.985211,0.703905,-0.0914675,0.850033,0.482415,-0.0849415,0.7202729999999999,0.714495,-0.1426055,1.127343,0.491535,-0.0833474999999999,1.227803,0.7150650000000001,-0.1651155,0.6819230000000001,0.937805,-0.2131455,1.273273,0.925705,-0.2512455,0.922172,-0.0001149999999999,0.0001204999999999,1.077828,0.000115,-0.0001204999999999,0.821163,-0.151065,-0.3084755,1.1433529999999998,-0.154275,-0.3195055,0.887573,-0.4691149999999999,-0.1181045,1.127913,-0.470175,-0.1254055
46,0.984847,0.70235,-0.094041,0.850217,0.48128,-0.087372,0.720547,0.71285,-0.146255,1.126827,0.49156,-0.086389,1.2263169999999999,0.71286,-0.168635,0.681487,0.93927,-0.217385,1.271257,0.92387,-0.254365,0.921923,-0.00039,0.0003589999999999,1.078077,0.00039,-0.000359,0.817487,-0.13689,-0.316555,1.144647,-0.13777,-0.328275,0.887567,-0.4506799999999999,-0.119725,1.127097,-0.4535,-0.124875
47,0.9845315000000001,0.7010000000000001,-0.0964495,0.8503965,0.48115,-0.0895965,0.7209665000000001,0.71231,-0.1495834999999999,1.1263865,0.49148,-0.0895245,1.2249965,0.7115400000000001,-0.1715535,0.6812865,0.94036,-0.2212535,1.2694665,0.92263,-0.2576535,0.9217135,-0.0004899999999999,0.0005074999999999,1.0782865,0.00049,-0.0005075,0.8140065,-0.1211699999999999,-0.3248635,1.1460065,-0.1208199999999999,-0.3371435,0.8875565,-0.43164,-0.1216435,1.1262265,-0.4361399999999999,-0.1236435
48,0.9843875000000001,0.70119,-0.0962799999999999,0.8507455000000002,0.4818199999999999,-0.0884129999999999,0.7213155,0.7117499999999999,-0.149197,1.1261755,0.4919,-0.089099,1.2252855,0.7064999999999999,-0.171147,0.6813355,0.93845,-0.221287,1.2684255,0.91915,-0.256987,0.9215635000000001,-0.00042,0.000536,1.0784364999999998,0.0004199999999999,-0.000536,0.8110755000000001,-0.1054,-0.329277,1.1474055,-0.10467,-0.342207,0.8880055,-0.4139,-0.121167,1.1254555,-0.42013,-0.1186369999999999
49,0.9848185,0.69954,-0.095914,0.8513845,0.48033,-0.087905,0.7216045,0.71236,-0.148381,1.1263945,0.49154,-0.08891,1.2238045,0.70471,-0.169941,0.6816345000000001,0.942,-0.219651,1.2669945,0.91854,-0.255011,0.9215155,-0.0006099999999999,0.0005799999999999,1.0784845,0.0006099999999999,-0.00058,0.8095045,-0.08915,-0.333371,1.1486545,-0.08868,-0.346171,0.8885244999999999,-0.39525,-0.121511,1.1248345,-0.40352,-0.114021
50,0.985257,0.69675,-0.095786,0.8518700000000001,0.480116,-0.087381,0.72202,0.71089,-0.147742,1.1266399999999999,0.49168,-0.08868,1.2226599999999999,0.70748,-0.168982,0.68214,0.94228,-0.218422,1.26614,0.92417,-0.2537419999999999,0.921429,-0.00058,0.000543,1.078571,0.00058,-0.000543,0.80838,-0.07457,-0.336682,1.14981,-0.0735799999999999,-0.349162,0.8891,-0.3774599999999999,-0.122492,1.12553,-0.38752,-0.1126419999999999
51,0.985843,0.69419,-0.09577,0.852412,0.4796319999999999,-0.08766,0.7225820000000001,0.71005,-0.147389,1.126972,0.49029,-0.089268,1.221842,0.7135,-0.168699,0.682842,0.94286,-0.217329,1.265402,0.92702,-0.253099,0.921059,-0.00056,0.000439,1.078941,0.0005599999999999,-0.0004389999999999,0.807462,-0.0589,-0.339559,1.151492,-0.05738,-0.351499,0.889872,-0.35865,-0.124029,1.126582,-0.36996,-0.111559
52,0.9865035,0.691365,-0.0964535,0.8530675,0.478984,-0.0887035,0.7230975,0.7081850000000001,-0.1477935,1.1273975,0.48932,-0.0903925,1.2216575,0.7108450000000001,-0.1694435,0.6836075000000001,0.943165,-0.2168635,1.2654975,0.920855,-0.2532135,0.9205055,-0.0004549999999999,0.0003915,1.0794945,0.000455,-0.0003914999999999,0.8064575,-0.0440949999999999,-0.3419735,1.1534275,-0.0419249999999999,-0.3532435,0.8908175,-0.343595,-0.1237135,1.1261475,-0.3536349999999999,-0.1097835
53,0.9872635000000001,0.6884399999999999,-0.0972755,0.8537535,0.476705,-0.0903735,0.7241635,0.7068,-0.1486655,1.1278934999999999,0.4874469999999999,-0.0920795,1.2216835,0.70809,-0.1711855,0.6843135,0.94312,-0.2171655,1.2659135,0.91679,-0.2539455,0.9200875,-0.00052,0.0003994999999999,1.0799125,0.0005199999999999,-0.0003994999999999,0.8055635,-0.02905,-0.3440355,1.1556335,-0.0266,-0.3545055,0.8909735,-0.32899,-0.1255255,1.1250935,-0.33741,-0.1084354999999999
54,0.9878405,0.685905,-0.0990615,0.8541395,0.475595,-0.0922605,0.7245595,0.7053149999999999,-0.1502915,1.1282495,0.4855779999999999,-0.0940614999999999,1.2225595,0.703355,-0.1728015,0.6845895,0.941795,-0.2183515,1.2661495,0.913995,-0.2562115,0.9197135,-0.000465,0.0004485,1.0802865,0.0004649999999999,-0.0004485,0.8050895,-0.016945,-0.3448815,1.1577295,-0.014505,-0.3546215,0.8912695,-0.317825,-0.1265515,1.1240595,-0.324485,-0.1093215
55,0.9885200000000001,0.6836599999999999,-0.101085,0.854697,0.474248,-0.0943249999999999,0.725027,0.70756,-0.152385,1.128697,0.4838909999999999,-0.096105,1.223857,0.69825,-0.174535,0.6850970000000001,0.93942,-0.219785,1.266597,0.91059,-0.258885,0.919404,-0.00038,0.0004609999999999,1.080596,0.0003799999999999,-0.0004609999999999,0.804567,-0.00407,-0.344865,1.160347,-0.00196,-0.3547249999999999,0.891707,-0.30648,-0.128665,1.1236869999999999,-0.31107,-0.1087549999999999
56,0.98899,0.68067,-0.1028714999999999,0.855112,0.471794,-0.0963315,0.725352,0.7082,-0.1545515,1.128982,0.482037,-0.0979115,1.2249519999999998,0.6923600000000001,-0.1762115,0.685442,0.93741,-0.2211115,1.267112,0.90595,-0.2614415,0.9191320000000001,-0.0005599999999999,0.0004724999999999,1.080868,0.00056,-0.0004724999999999,0.8039620000000001,0.00773,-0.3448315,1.163222,0.01009,-0.3548515,0.8920220000000001,-0.2962899999999999,-0.1292815,1.1232820000000001,-0.29889,-0.1082915
57,0.9892275,0.6761349999999999,-0.1040685,0.8553085,0.4675479999999999,-0.0981985,0.7254285,0.7080649999999999,-0.1566884999999999,1.1290685,0.4792789999999999,-0.0995685,1.2252585,0.689245,-0.1776684999999999,0.6854985,0.936245,-0.2222684999999999,1.2679485,0.901165,-0.2645484999999999,0.9189655,-0.000835,0.0004794999999999,1.0810345,0.0008349999999999,-0.0004794999999999,0.8030585,0.0176649999999999,-0.3447985,1.1656285,0.0206949999999999,-0.3549485,0.8916985,-0.287715,-0.1292885,1.1229885,-0.288105,-0.1075985
58,0.9896245000000001,0.6729149999999999,-0.1061585,0.8556775,0.466373,-0.0991385,0.7250575,0.7048949999999999,-0.1595285,1.1292475,0.476788,-0.1009685,1.2248475,0.680025,-0.1805284999999999,0.6855775,0.930215,-0.2249685,1.2688774999999999,0.8947449999999999,-0.2690285,0.9188965,-0.000645,0.0005475,1.0811035,0.0006449999999999,-0.0005474999999999,0.8023475,0.0182649999999999,-0.3450384999999999,1.1668475,0.0223549999999999,-0.3545485,0.8917875000000001,-0.286055,-0.1302185,1.1228575,-0.286475,-0.1069785
59,0.9897475,0.6729149999999999,-0.1092745,0.8559335,0.466373,-0.1013045,0.7249335,0.7045049999999999,-0.1628145,1.1291735,0.4759609999999999,-0.1031245,1.2244135,0.672725,-0.1838945,0.6852435,0.930215,-0.2290545,1.2695735,0.887805,-0.2746845,0.9189805,-0.000645,0.0006264999999999,1.0810195,0.0006449999999999,-0.0006265,0.8020835,0.0182649999999999,-0.3449445,1.1670235,0.0223549999999999,-0.3541944999999999,0.8916035000000001,-0.285815,-0.1322245,1.1218035,-0.286225,-0.1071645
60,0.9895950000000001,0.6729149999999999,-0.113019,0.8558669999999999,0.466373,-0.104929,0.724317,0.7045049999999999,-0.166799,1.128917,0.4759609999999999,-0.106739,1.224377,0.672725,-0.189279,0.684407,0.930215,-0.234699,1.2703669999999998,0.887805,-0.281939,0.918876,-0.000645,0.000696,1.081124,0.0006449999999999,-0.000696,0.801987,0.0182649999999999,-0.344819,1.166917,0.0224049999999999,-0.354149,0.8908570000000001,-0.285805,-0.1333389999999999,1.1203269999999999,-0.286225,-0.1086589999999999
61,0.9894885000000001,0.6729149999999999,-0.1195769999999999,0.8555755,0.466373,-0.1109469999999999,0.7238655,0.7045049999999999,-0.173337,1.1287455,0.4759609999999999,-0.113287,1.2241955,0.672725,-0.1977269999999999,0.6826455,0.930215,-0.243677,1.2719055,0.887805,-0.294647,0.9188365000000001,-0.000645,0.000752,1.0811635,0.0006449999999999,-0.000752,0.8019555,0.0182649999999999,-0.344577,1.1668755,0.0224349999999999,-0.354207,0.8898855,-0.2852950000000001,-0.135757,1.1197555,-0.285005,-0.113607
62,0.9893455,0.67107,-0.1273365,0.8552715,0.464632,-0.1174765,0.7232815,0.702,-0.1810865,1.1284715,0.473456,-0.1208865,1.2237615,0.67022,-0.2048865,0.6807515,0.92864,-0.2513765,1.2731815,0.8853,-0.3035965,0.9187695,-0.00042,0.0009484999999999,1.0812305,0.0004199999999999,-0.0009484999999999,0.8018915,0.01683,-0.3442865,1.1667815,0.0213399999999999,-0.3546765,0.8885415,-0.28712,-0.1390965,1.1198715,-0.2859,-0.1200165
63,0.9890025000000001,0.669785,-0.1367239999999999,0.8548695,0.4633049999999999,-0.124114,0.7223795,0.6998449999999999,-0.190444,1.1278995,0.4711999999999999,-0.128724,1.2229195,0.667095,-0.2128239999999999,0.6784095,0.922505,-0.260674,1.2735995,0.878085,-0.314804,0.9190115000000001,-0.000275,0.0011619999999999,1.0809885,0.0002749999999999,-0.0011619999999999,0.8021795,0.008855,-0.343624,1.1643495,0.0131149999999999,-0.355034,0.8867495,-0.296265,-0.142984,1.1193895,-0.295215,-0.128144
64,0.988469,0.66999,-0.1460245,0.854231,0.4593779999999999,-0.1311695,0.7212510000000001,0.6976199999999999,-0.1995845,1.127211,0.4706869999999999,-0.1363045,1.223291,0.67077,-0.2226645,0.6766110000000001,0.91634,-0.2704245,1.275191,0.87931,-0.3246945,0.9193580000000001,-0.0007,0.0013094999999999,1.0806419999999999,0.0006999999999999,-0.0013094999999999,0.8031010000000001,0.0002599999999999,-0.3430245,1.160881,0.0030699999999999,-0.3551945,0.884811,-0.30552,-0.1474445,1.118471,-0.307,-0.1379245
65,0.98806,0.67046,-0.1528585,0.8536000000000001,0.4590789999999999,-0.1353115,0.72026,0.6954199999999999,-0.2057784999999999,1.12673,0.469887,-0.1409834999999999,1.22433,0.6681699999999999,-0.2308684999999999,0.67552,0.91496,-0.2791785,1.27674,0.87287,-0.3336584999999999,0.919858,-0.00056,0.0012565,1.080142,0.00056,-0.0012565,0.80601,-0.01632,-0.3384185,1.1561199999999998,-0.0143,-0.3519385,0.8829,-0.3250699999999999,-0.1509085,1.11657,-0.32806,-0.1438585
66,0.987819,0.67247,-0.1580785,0.8531230000000001,0.460504,-0.1370545,0.719733,0.69312,-0.2087685,1.126663,0.470863,-0.1432345,1.225493,0.6710100000000001,-0.2377685,0.674393,0.91299,-0.2855885,1.278913,0.8747400000000001,-0.3416985,0.920645,-0.0005699999999999,0.0012104999999999,1.079355,0.00057,-0.0012105,0.809763,-0.0380699999999999,-0.3313485,1.150863,-0.0357299999999999,-0.3464985,0.880983,-0.35053,-0.1532385,1.115193,-0.3547599999999999,-0.1481414999999999
67,0.987764,0.6769050000000001,-0.1578625,0.852403,0.463062,-0.1343234999999999,0.719803,0.6944650000000001,-0.2059725,1.126853,0.472365,-0.1414165,1.226493,0.6711750000000001,-0.2380725,0.673663,0.911475,-0.2842225,1.281293,0.877055,-0.3443724999999999,0.921681,-0.0004749999999999,0.0008925,1.078319,0.000475,-0.0008924999999999,0.814423,-0.0694849999999999,-0.3194425,1.144843,-0.0672049999999999,-0.3358425,0.879243,-0.389085,-0.1550475,1.114573,-0.3941749999999999,-0.1506515
68,0.9878935000000001,0.682585,-0.155251,0.8517905,0.467655,-0.129577,0.7194805,0.696035,-0.200497,1.1271105,0.4754549999999999,-0.137792,1.2270805,0.675045,-0.235077,0.6731005,0.912655,-0.2793569999999999,1.2840705,0.882825,-0.342997,0.9226855,-0.0003449999999999,0.0006569999999999,1.0773145,0.0003449999999999,-0.000657,0.8194405000000001,-0.1039749999999999,-0.3049969999999999,1.1383705,-0.1010949999999999,-0.3225869999999999,0.8779205,-0.431905,-0.153672,1.1141005,-0.436955,-0.151968
69,0.9887080000000001,0.690675,-0.146773,0.8517660000000001,0.472965,-0.11953,0.7196359999999999,0.699395,-0.188661,1.127986,0.478625,-0.128657,1.229006,0.679435,-0.225761,0.6729160000000001,0.918605,-0.268291,1.2878560000000001,0.891655,-0.334931,0.923485,-5.499999999997174e-05,0.0006239999999999,1.076515,5.500000000002725e-05,-0.0006239999999999,0.825306,-0.1470249999999999,-0.284421,1.132506,-0.1401049999999999,-0.303381,0.8773160000000001,-0.4773849999999999,-0.147083,1.114016,-0.483885,-0.148004
70,0.989515,0.69904,-0.137006,0.851616,0.47839,-0.11008,0.7204560000000001,0.70399,-0.176176,1.129006,0.483,-0.119475,1.230936,0.6854100000000001,-0.214696,0.672736,0.92376,-0.256306,1.290926,0.89759,-0.324766,0.9241080000000002,6.999999999998674e-05,0.000598,1.0758919999999998,-7.00000000000145e-05,-0.000598,0.831916,-0.18867,-0.2640059999999999,1.127576,-0.1777,-0.283966,0.876586,-0.52433,-0.142958,1.1134959999999998,-0.52938,-0.144059
71,0.9905425,0.7079500000000001,-0.1270395,0.8516935,0.48302,-0.1012144999999999,0.7213735,0.7117,-0.1639425,1.1302935,0.48854,-0.1105974999999999,1.2333934999999998,0.6920700000000001,-0.2027824999999999,0.6728735,0.92583,-0.2434825,1.2942535,0.90662,-0.3128424999999999,0.9248445,-0.00017,0.0005675,1.0751555,0.00017,-0.0005674999999999,0.8384535000000001,-0.22871,-0.2432424999999999,1.1236135,-0.21457,-0.2637825,0.8768835,-0.57022,-0.1385865,1.1134134999999998,-0.57335,-0.1413575
72,0.9916735000000001,0.7148450000000001,-0.114254,0.8521325000000001,0.486295,-0.090406,0.7225925,0.716915,-0.148707,1.1328325,0.4951149999999999,-0.098524,1.2377825,0.6970350000000001,-0.188448,0.6735525,0.930435,-0.2267279999999999,1.2981325,0.913045,-0.296098,0.9254395,-0.000585,0.000382,1.0745605,0.0005849999999999,-0.000382,0.8461025,-0.268955,-0.216028,1.1205125,-0.250405,-0.237358,0.8776825,-0.6161449999999999,-0.132143,1.1139025,-0.616015,-0.134839
73,0.9927500000000001,0.7211470000000001,-0.0990669999999999,0.852382,0.491487,-0.077025,0.723652,0.722797,-0.1312829999999999,1.135262,0.500017,-0.0844399999999999,1.241262,0.7026370000000001,-0.171672,0.675012,0.935797,-0.206452,1.3009119999999998,0.919837,-0.2736119999999999,0.9257150000000001,-0.000614,0.000186,1.074285,0.000614,-0.0001859999999999,0.853342,-0.308493,-0.186772,1.118032,-0.284483,-0.209252,0.877572,-0.6603629999999999,-0.123639,1.114442,-0.6570229999999999,-0.126015
74,0.9938055000000001,0.7270775,-0.0836625,0.8526855,0.4939875,-0.0638644999999999,0.7246055,0.7281775,-0.1139405,1.1376355,0.5051775000000001,-0.0706335,1.2447255,0.7135575,-0.1554515,0.6764055,0.9365075,-0.1866615,1.3036855,0.9323675,-0.2519215,0.9259375,-0.0010154999999999,-0.0001654999999999,1.0740625,0.0010155,0.0001654999999999,0.8590955,-0.3413725,-0.1590315,1.1168355,-0.3127425,-0.1820815,0.8777655,-0.6952725,-0.1136095,1.1152855,-0.6893025,-0.1160815
75,0.994958,0.7317135,-0.066752,0.852893,0.4949435,-0.050128,0.725713,0.7336635,-0.096638,1.139923,0.5087735,-0.056053,1.247603,0.7186335,-0.136984,0.677913,0.9380635,-0.165903,1.306083,0.9363535,-0.229133,0.926319,-0.0013104999999999,-0.000452,1.073681,0.0013105,0.0004519999999999,0.864463,-0.3698665,-0.130901,1.116173,-0.3374965,-0.154463,0.878013,-0.7244265,-0.102577,1.1163329999999998,-0.7166064999999999,-0.10487
76,0.9960585000000001,0.7340025,-0.0519185,0.8530875,0.4948324999999999,-0.0378255,0.7267475,0.7352325000000001,-0.0817255,1.1420175,0.5118925000000001,-0.0425535,1.2503175,0.7259425,-0.1211495,0.6790674999999999,0.9400525,-0.1492905,1.3085675,0.9391025,-0.2079905,0.9267885,-0.0017144999999999,-0.0006954999999999,1.0732115,0.0017145,0.0006955,0.8691275,-0.3860075,-0.1053295,1.1160475,-0.3534575,-0.1297905,0.8783974999999999,-0.7415674999999999,-0.0904965,1.1174775,-0.7327174999999999,-0.0926335
77,0.9970975000000001,0.7356645,-0.037884,0.8533165,0.4930045,-0.0264049999999999,0.7276465000000001,0.7373845,-0.0683179999999999,1.1440665,0.5134045,-0.02955,1.2537965,0.7297945,-0.106432,0.6801465,0.9396745,-0.134484,1.3108765,0.9391745,-0.188694,0.9271115,-0.0020785,-0.0007469999999999,1.0728885,0.0020785,0.000747,0.8734965,-0.3971755,-0.0820589999999999,1.1160965,-0.3647055,-0.1067819999999999,0.8788365,-0.7542955,-0.078833,1.1188665,-0.7443854999999999,-0.079982
78,0.9980890000000001,0.7357775000000001,-0.0245355,0.8534900000000001,0.4915974999999999,-0.0153785,0.72786,0.7384675,-0.0557535,1.14605,0.5151075,-0.0171945,1.25714,0.7341175,-0.0925265,0.68116,0.9360375,-0.1203935,1.31273,0.9380775,-0.1703135,0.927094,-0.0024805,-0.0009145,1.072906,0.0024805,0.0009145,0.87739,-0.4054425,-0.0609725,1.1163,-0.3732525,-0.0854315,0.87939,-0.7641724999999999,-0.0674785,1.12021,-0.7531125,-0.0677685
79,0.9991340000000001,0.735109,-0.0124929999999999,0.8540670000000001,0.489999,-0.004756,0.7281070000000001,0.7392890000000001,-0.04375,1.148187,0.5163789999999999,-0.005719,1.260637,0.7399990000000001,-0.0797549999999999,0.6819569999999999,0.934719,-0.106776,1.314977,0.937289,-0.153096,0.926775,-0.00289,-0.0008049999999999,1.073225,0.0028899999999999,0.0008049999999999,0.881077,-0.415471,-0.04189,1.116887,-0.379881,-0.066368,0.8805870000000001,-0.770991,-0.05674,1.1217869999999999,-0.759841,-0.056079
80,1.000154,0.7339469999999999,-0.0006535,0.854553,0.488787,0.0058124999999999,0.728253,0.7376069999999999,-0.0316935,1.150203,0.5164369999999999,0.0055014999999999,1.2639529999999999,0.745867,-0.0674945,0.6821630000000001,0.933757,-0.0932705,1.317193,0.936067,-0.1369405,0.926321,-0.003082,-0.0008185,1.073679,0.003082,0.0008184999999999,0.884403,-0.4263429999999999,-0.0244015,1.117483,-0.387753,-0.0486385,0.881293,-0.7778830000000001,-0.0463455,1.123233,-0.7670130000000001,-0.0443605
81,1.0004944999999998,0.7342445,0.003988,0.8544355000000001,0.4889145,0.009661,0.7275955000000001,0.7377345,-0.02546,1.1505855,0.5155645,0.009027,1.2651655,0.7463645,-0.0614209999999999,0.6820455000000001,0.9350645,-0.086734,1.3189454999999999,0.9370345,-0.128476,0.9261825,-0.0030605,-0.00083,1.0738175,0.0030605,0.0008299999999999,0.8854255,-0.4281054999999999,-0.019097,1.1179655,-0.3894154999999999,-0.04255,0.8816255,-0.7795855,-0.04316,1.1239855,-0.7687655,-0.040528
82,1.0006895,0.7341405,0.008406,0.8542985,0.4891504999999999,0.013391,0.7269185,0.7376604999999999,-0.019544,1.1509385,0.5147105,0.01241,1.2664785,0.7468205,-0.055263,0.6819985,0.9361205,-0.08028,1.3208484999999999,0.9379005,-0.1199359999999999,0.9260465,-0.0030135,-0.0009389999999999,1.0739535,0.0030134999999999,0.000939,0.8864485,-0.4296395,-0.013987,1.1184185,-0.3908095,-0.036697,0.8819985,-0.7808395,-0.040257,1.1248084999999999,-0.7702895000000001,-0.036669
83,1.000837,0.734107,0.0125395,0.8541470000000001,0.4893869999999999,0.0168115,0.7262470000000001,0.7376069999999999,-0.0137855,1.151247,0.5140469999999999,0.0155695,1.267877,0.747477,-0.0491305,0.681927,0.937117,-0.0740464999999999,1.322907,0.938787,-0.1121885,0.92595,-0.003018,-0.0010054999999999,1.07405,0.003018,0.0010054999999999,0.8874170000000001,-0.430833,-0.0092035,1.118817,-0.391843,-0.0314025,0.882287,-0.781773,-0.0376885,1.125507,-0.7716230000000001,-0.0330395
84,1.000768,0.7339870000000001,0.0169355,0.854053,0.489547,0.0202425,0.725893,0.737557,-0.0077545,1.151503,0.513347,0.0186305,1.269463,0.748247,-0.0426145,0.6816530000000001,0.938107,-0.0672235,1.325283,0.939787,-0.1039705,0.925836,-0.002945,-0.0012835,1.074164,0.0029449999999999,0.0012835,0.888513,-0.4305029999999999,-0.0049594999999999,1.119943,-0.391883,-0.0265544999999999,0.882233,-0.782473,-0.0352075,1.126463,-0.771353,-0.0295035
85,1.0006864999999998,0.733737,0.0208509999999999,0.8539255,0.489797,0.02333,0.7251055,0.7376769999999999,-0.002169,1.1517655,0.5129469999999999,0.0213539999999999,1.2709855,0.748987,-0.0367959999999999,0.6813655000000001,0.939147,-0.06086,1.3275855,0.940627,-0.096778,0.9257385,-0.002853,-0.0015539999999999,1.0742615,0.002853,0.0015539999999999,0.8893455,-0.430243,-0.001563,1.1209555,-0.391953,-0.022432,0.8821655,-0.782873,-0.033048,1.1273755,-0.770803,-0.0262559999999999
86,1.000577,0.7336564999999999,0.024116,0.853793,0.4900865,0.025964,0.7243729999999999,0.7380165,0.0028,1.151993,0.5128564999999999,0.023485,1.272423,0.7497265,-0.031791,0.681083,0.9403465,-0.055034,1.3297729999999999,0.9414865,-0.090431,0.9256800000000001,-0.0027625,-0.0017999999999999,1.07432,0.0027625,0.0017999999999999,0.8898830000000001,-0.4298935,0.0010429999999999,1.121823,-0.3917035,-0.019363,0.882063,-0.7824435000000001,-0.031805,1.127933,-0.7708935,-0.024226
87,1.000455,0.733433,0.0272654999999999,0.8536270000000001,0.490783,0.0284855,0.723687,0.738063,0.0076414999999999,1.152217,0.512583,0.0255505,1.273887,0.750263,-0.0268575,0.680797,0.941473,-0.0492545,1.332017,0.942123,-0.0841485,0.9256800000000001,-0.002713,-0.0019435,1.07432,0.002713,0.0019435,0.890337,-0.429687,0.0032685,1.122657,-0.391777,-0.0167075,0.8819870000000001,-0.782117,-0.0305555,1.128497,-0.7711169999999999,-0.0223405
88,1.000251,0.733212,0.0299635,0.853647,0.491232,0.0301514999999999,0.7233970000000001,0.738822,0.0118205,1.152387,0.512142,0.0273645,1.275097,0.750682,-0.0224765,0.680577,0.941952,-0.0438365,1.333837,0.942582,-0.0789255,0.925716,-0.0026759999999999,-0.0021154999999999,1.074284,0.0026759999999999,0.0021154999999999,0.890657,-0.429748,0.0050235,1.123377,-0.391888,-0.0146155,0.881977,-0.781998,-0.0290985,1.129037,-0.771338,-0.0208194999999999
89,1.0000255,0.7327859999999999,0.03208,0.8536785,0.491716,0.031703,0.7230685,0.7394860000000001,0.015251,1.1525785,0.511636,0.029081,1.2757785,0.7508859999999999,-0.019024,0.6803485,0.941906,-0.039647,1.3347685,0.942806,-0.0751199999999999,0.9257605,-0.0026419999999999,-0.0022489999999999,1.0742395,0.002642,0.002249,0.8908885,-0.429974,0.006319,1.1239485,-0.391994,-0.0131329999999999,0.8819885,-0.782224,-0.0277639999999999,1.1296685,-0.7720640000000001,-0.019468
90,0.9997835,0.7326365,0.0334445,0.8529985,0.4922565,0.0333355,0.7226285,0.7400265,0.0166235,1.1527885,0.5114165,0.0307215,1.2760885,0.7506665,-0.0171574999999999,0.6798584999999999,0.9420265,-0.0371635,1.3350585,0.9425865,-0.0737775,0.9258005,-0.0026074999999999,-0.0024805,1.0741995,0.0026074999999999,0.0024805,0.8911785,-0.4298734999999999,0.0076615,1.1242984999999999,-0.3920835,-0.0117925,0.8820985,-0.7821835,-0.0258835,1.1302085,-0.7722835,-0.0180054999999999
91,0.9994855,0.732597,0.0347525,0.8522635000000001,0.492327,0.0346565,0.7221535,0.7390070000000001,0.0179385,1.1529935,0.5113770000000001,0.0320085,1.2764034999999998,0.750627,-0.0158754999999999,0.6791834999999999,0.941927,-0.0358405,1.3353735,0.942547,-0.0724954999999999,0.9258405000000001,-0.0025859999999999,-0.0026494999999999,1.0741595,0.0025859999999999,0.0026495,0.8914934999999999,-0.429603,0.0089435,1.1246135,-0.392023,-0.0105104999999999,0.8822635,-0.7819729999999999,-0.0245955,1.1305735,-0.772713,-0.0163704999999999
92,0.998919,0.732597,0.0361654999999999,0.85149,0.492687,0.0360795,0.72109,0.738037,0.0193724999999999,1.15319,0.5113770000000001,0.0333905,1.27697,0.750627,-0.0145085,0.67742,0.941807,-0.0343775,1.33594,0.942547,-0.0711285,0.9259080000000001,-0.0025859999999999,-0.0028175,1.0740919999999998,0.0025859999999999,0.0028174999999999,0.89196,-0.429553,0.0103144999999999,1.1251799999999998,-0.392023,-0.0091435,0.88266,-0.781813,-0.0238175,1.13116,-0.773203,-0.0146475
93,0.9979695,0.732232,0.037368,0.8500675,0.493712,0.038052,0.7180875,0.737092,0.021362,1.1535475,0.510532,0.0353,1.2772475,0.7489319999999999,-0.0125969999999999,0.6748375,0.941302,-0.032347,1.3381775,0.941432,-0.06938,0.9260415,-0.0026139999999999,-0.0028209999999999,1.0739585,0.002614,0.002821,0.8923675000000001,-0.429568,0.011367,1.1262675,-0.392148,-0.0074219999999999,0.8834675,-0.7819780000000001,-0.022459,1.1322575,-0.774448,-0.0127649999999999
94,0.9964915,0.731951,0.0380815,0.8491394999999999,0.495681,0.0403715,0.7136395,0.734851,0.0235505,1.1541895,0.510151,0.0374045,1.2780295,0.7450910000000001,-0.0115825,0.6687395,0.937541,-0.0306215,1.3408495,0.939241,-0.0711995,0.9261675,-0.0026839999999999,-0.0026844999999999,1.0738325,0.0026839999999999,0.0026844999999999,0.8928995000000001,-0.429159,0.0118025,1.1277694999999999,-0.391969,-0.0058305,0.8845195,-0.7816489999999999,-0.0208525,1.1340795,-0.775369,-0.0107235
95,0.994807,0.731858,0.0384524999999999,0.846944,0.497568,0.0427945,0.707974,0.7320479999999999,0.0255854999999999,1.1547640000000001,0.510048,0.0392854999999999,1.279704,0.7402679999999999,-0.0116845,0.662084,0.932978,-0.0293355,1.343814,0.936088,-0.0753945,0.926315,-0.0026889999999999,-0.0025415,1.073685,0.002689,0.0025414999999999,0.893654,-0.4284719999999999,0.0117854999999999,1.1296439999999999,-0.3918319999999999,-0.0042115,0.886194,-0.781072,-0.0190655,1.136344,-0.775992,-0.0085565
96,0.9931155000000002,0.7318585,0.0384025,0.8441005,0.4981785,0.0457635,0.7007305000000001,0.7245885,0.0279055,1.1539105,0.5092285,0.0398585,1.2822705,0.7307984999999999,-0.0150375,0.6527705000000001,0.9232385,-0.0297535,1.3472105,0.9278985,-0.0856815,0.9264495000000001,-0.0026684999999999,-0.0022775,1.0735504999999999,0.0026684999999999,0.0022775,0.8950605000000001,-0.4284314999999999,0.0113245,1.1322005,-0.3917914999999999,-0.0027304999999999,0.8898805,-0.7810315,-0.0163784999999999,1.1401005,-0.7770415,-0.0057795
97,0.991228,0.731787,0.038006,0.841458,0.498267,0.049035,0.692268,0.714247,0.030288,1.1531779999999998,0.507857,0.040415,1.285568,0.717577,-0.019677,0.6406879999999999,0.909587,-0.0317449999999999,1.350968,0.913087,-0.0983269999999999,0.926624,-0.0026539999999999,-0.0019789999999999,1.073376,0.002654,0.001979,0.896888,-0.428463,0.010702,1.134968,-0.391773,-0.0015009999999999,0.894558,-0.781223,-0.0132809999999999,1.1447079999999998,-0.778183,-0.0026699999999999
98,0.9891545,0.731747,0.037355,0.8387335,0.498347,0.052475,0.6824835,0.700247,0.032791,1.1528635,0.506317,0.040923,1.2895035,0.700407,-0.0256269999999999,0.6286635,0.892547,-0.034108,1.3550735,0.895377,-0.113978,0.9268525,-0.0027259999999999,-0.001612,1.0731475,0.0027259999999999,0.001612,0.8987935,-0.428473,0.0096829999999999,1.1377135,-0.392133,-0.000869,0.8997135,-0.781393,-0.0102939999999999,1.1501235,-0.779433,0.000314
99,0.987217,0.732483,0.0364455,0.837364,0.5001329999999999,0.0561785,0.670984,0.6807329999999999,0.0351555,1.1514339999999998,0.503543,0.0403204999999999,1.295324,0.677203,-0.0325485,0.615444,0.869803,-0.0395065,1.360774,0.867733,-0.1342875,0.927204,-0.002811,-0.0010804999999999,1.072796,0.002811,0.0010804999999999,0.902104,-0.427027,0.0087814999999999,1.140194,-0.393517,-0.0029005,0.907554,-0.779957,-0.0064525,1.158014,-0.7795270000000001,0.0031085
100,0.985238,0.733716,0.035497,0.836099,0.5025860000000001,0.059949,0.659599,0.659726,0.037661,1.149589,0.5005160000000001,0.039393,1.301749,0.650916,-0.0402649999999999,0.601639,0.8428760000000001,-0.04706,1.367259,0.835246,-0.15648,0.927549,-0.0029229999999999,-0.0006719999999999,1.0724509999999998,0.002923,0.0006719999999999,0.905509,-0.4260239999999999,0.008362,1.141969,-0.394834,-0.00648,0.917169,-0.778064,-0.0023309999999999,1.166229,-0.778534,0.00545
101,0.9833665000000001,0.7353345,0.034538,0.8351165,0.5051845,0.063638,0.6489265,0.6350445,0.040282,1.1476865,0.4974745,0.03822,1.3090165,0.6215245,-0.046249,0.5884365,0.8115045,-0.055789,1.3746365,0.7959745,-0.175539,0.9278165,-0.0030854999999999,-0.000287,1.0721835,0.0030855,0.000287,0.9112665000000001,-0.4269555,0.0082339999999999,1.1419775,-0.3959855,-0.012387,0.9266265,-0.7756455,0.002033,1.1737065,-0.7753655,0.0055199999999999
102,0.9822905,0.737444,0.033952,0.8354755,0.506624,0.066738,0.6423955,0.606934,0.043238,1.1461305,0.494654,0.036543,1.3155554999999999,0.588954,-0.0500319999999999,0.5780855,0.775444,-0.064692,1.3819155,0.750844,-0.190682,0.9281555,-0.0032139999999999,0.000175,1.0718444999999999,0.003214,-0.0001749999999999,0.9183155000000001,-0.427706,0.009051,1.1406265,-0.396726,-0.0207399999999999,0.9369555,-0.771086,0.005944,1.1793954999999998,-0.771346,0.003353
103,0.9817030000000001,0.7396915000000001,0.0333615,0.8356129999999999,0.5079715,0.0694645,0.642583,0.5780515,0.0474065,1.144711,0.4918515,0.0348885,1.3217430000000001,0.5563915,-0.0523055,0.5745830000000001,0.7372815,-0.0736855,1.3886129999999999,0.6996115,-0.1969155,0.928513,-0.0033415,0.0005015,1.071487,0.0033414999999999,-0.0005015,0.925243,-0.4284185,0.0104715,1.137387,-0.3954785,-0.0311955,0.947753,-0.7660085,0.0094725,1.181303,-0.7662585,-0.0030034999999999
104,0.981691,0.7417875,0.0313569999999999,0.838591,0.5068575,0.071884,0.6489210000000001,0.5356975,0.0531149999999999,1.144075,0.4881175,0.0324049999999999,1.322981,0.5107075,-0.052066,0.578891,0.6771575,-0.0850959999999999,1.393931,0.6217175,-0.1909659999999999,0.928521,-0.0031435,0.0009849999999999,1.071479,0.0031435,-0.0009849999999999,0.936581,-0.4279025,0.015211,1.1268989999999999,-0.3920425,-0.053326,0.963881,-0.7587125,0.014016,1.1691449999999999,-0.7577125,-0.024986
105,0.981503,0.7434805,0.0282714999999999,0.842303,0.5039405,0.0729835,0.657123,0.4954905,0.0575675,1.144818,0.4853905,0.0301654999999999,1.321663,0.4689905,-0.0485284999999999,0.586573,0.6172305,-0.0948285,1.3953229999999999,0.5441305000000001,-0.1839885,0.928633,-0.0031955,0.0016614999999999,1.071367,0.0031955,-0.0016614999999999,0.9480230000000001,-0.4229195,0.0186525,1.113873,-0.3884594999999999,-0.0767585,0.979363,-0.7534295,0.0183664999999999,1.15065,-0.7473695,-0.0486485
106,0.98004,0.745122,0.0243209999999999,0.84534,0.499402,0.073543,0.66606,0.453752,0.0647399999999999,1.145079,0.482092,0.027628,1.31429,0.427872,-0.041529,0.59792,0.552462,-0.100109,1.38923,0.464292,-0.173189,0.92853,-0.0035699999999999,0.002459,1.07147,0.00357,-0.002459,0.96041,-0.4191379999999999,0.018109,1.101233,-0.384798,-0.099049,0.99558,-0.7485080000000001,0.025324,1.124795,-0.7366980000000001,-0.0804989999999999
107,0.978843,0.747091,0.0197699999999999,0.849803,0.4947009999999999,0.07363,0.682353,0.4134009999999999,0.075544,1.145178,0.477811,0.0235949999999999,1.3015729999999999,0.3866309999999999,-0.0268999999999999,0.615993,0.4795109999999999,-0.09855,1.3704429999999999,0.3789909999999999,-0.1549999999999999,0.928443,-0.004051,0.00293,1.071557,0.004051,-0.00293,0.9760630000000001,-0.418239,0.0255689999999999,1.08885,-0.380719,-0.12003,1.015563,-0.741769,0.0380579999999999,1.093309,-0.726689,-0.113
108,0.9786035,0.7483234999999999,0.01691,0.8546235,0.4898034999999999,0.075086,0.7009135,0.3782235,0.087211,1.1467985,0.4749235,0.0213799999999999,1.2867635,0.3509535,-0.01055,0.6379035,0.4099934999999999,-0.09197,1.3490134999999999,0.3020735,-0.13519,0.9286535,-0.0045825,0.0039399999999999,1.0713465,0.0045825,-0.0039399999999999,0.9933035000000001,-0.4172765,0.0382599999999999,1.0762714999999998,-0.3773465,-0.13919,1.0363235,-0.7334865,0.054257,1.0636035,-0.7239665000000001,-0.13355
109,0.9785350000000002,0.749693,0.0143149999999999,0.859485,0.485423,0.0761549999999999,0.7205350000000001,0.343813,0.0942549999999999,1.147225,0.472783,0.0182249999999999,1.271698,0.3190429999999999,0.0064449999999999,0.6587050000000001,0.341613,-0.084975,1.326265,0.231403,-0.115535,0.9287750000000001,-0.00511,0.0050949999999999,1.071225,0.00511,-0.005095,1.010715,-0.415137,0.0524149999999999,1.064575,-0.375207,-0.156345,1.056795,-0.726267,0.0707949999999999,1.034775,-0.716517,-0.155925
110,0.97848,0.7503350000000001,0.01172,0.86433,0.4802749999999999,0.07702,0.7406900000000001,0.312635,0.10236,1.147808,0.470545,0.01551,1.255502,0.292245,0.02269,0.67965,0.276115,-0.0760599999999999,1.303458,0.169855,-0.09164,0.92893,-0.005493,0.00622,1.07107,0.005493,-0.0062199999999999,1.0252299999999999,-0.414265,0.06648,1.0534199999999998,-0.375295,-0.1704899999999999,1.07392,-0.7196549999999999,0.07859,1.00752,-0.709765,-0.1735999999999999
111,0.978045,0.750456,0.009665,0.8682449999999999,0.475386,0.078755,0.762015,0.284676,0.109785,1.14815,0.468466,0.013195,1.240214,0.271586,0.038495,0.700565,0.217536,-0.0657349999999999,1.281039,0.120986,-0.0610249999999999,0.928855,-0.0055949999999999,0.006945,1.071145,0.0055949999999999,-0.0069449999999999,1.039415,-0.414144,0.080955,1.042635,-0.375174,-0.1806649999999999,1.086855,-0.712894,0.087375,0.9827850000000001,-0.7026340000000001,-0.1876549999999999
112,0.97794,0.750456,0.00733,0.8731800000000001,0.471366,0.07986,0.7852399999999999,0.262436,0.11595,1.1497,0.467446,0.01042,1.227423,0.255566,0.05181,0.7259500000000001,0.165356,-0.05567,1.2621,0.081854,-0.0298899999999999,0.92904,-0.0055949999999999,0.00783,1.07096,0.0055949999999999,-0.0078299999999999,1.04693,-0.4138239999999999,0.06618,1.03718,-0.3750739999999999,-0.1854499999999999,1.0991399999999998,-0.7058040000000001,0.09469,0.96529,-0.6943440000000001,-0.1935299999999999
113,0.9767450000000001,0.750456,0.00691,0.875955,0.471046,0.0814,0.8048649999999999,0.256916,0.11929,1.150325,0.467446,0.00947,1.21921,0.255566,0.06135,0.748175,0.139146,-0.04292,1.2456260000000001,0.0740789999999999,-0.01072,0.9297850000000001,-0.0055949999999999,0.0102099999999999,1.070215,0.0055949999999999,-0.0102099999999999,1.046735,-0.409984,0.05137,1.038835,-0.372374,-0.1754799999999999,1.091265,-0.695374,0.08715,0.9629150000000001,-0.6859240000000001,-0.1808199999999999
114,0.9737600000000001,0.750643,0.0068699999999999,0.8777699999999999,0.470553,0.08415,0.82077,0.254013,0.1225,1.15145,0.467443,0.01077,1.21219,0.255563,0.0667099999999999,0.76624,0.1200929999999999,-0.0332,1.233225,0.0729549999999999,0.0023699999999999,0.9302400000000001,-0.005658,0.0121499999999999,1.0697599999999998,0.005658,-0.0121499999999999,1.0396699999999999,-0.403957,0.0380999999999999,1.04152,-0.369977,-0.1620999999999999,1.07809,-0.682917,0.07716,0.9662100000000001,-0.680587,-0.16424
115,0.97186,0.750631,0.007965,0.8786700000000001,0.469901,0.0859349999999999,0.83312,0.253681,0.1228449999999999,1.15086,0.467301,0.009995,1.21056,0.255421,0.067435,0.78281,0.110451,-0.025525,1.22783,0.072813,0.0103349999999999,0.9306800000000001,-0.005908,0.013595,1.0693199999999998,0.005908,-0.0135949999999999,1.02443,-0.392249,0.027345,1.04443,-0.3680589999999999,-0.1497849999999999,1.0614299999999999,-0.669389,0.064275,0.97668,-0.676719,-0.138355
116,0.96937,0.750466,0.0093099999999999,0.87822,0.467646,0.08755,0.83969,0.251506,0.11831,1.15069,0.467286,0.01145,1.21455,0.253706,0.06267,0.79045,0.108276,-0.02609,1.2339399999999998,0.0706379999999999,0.00191,0.93112,-0.006482,0.01538,1.06888,0.006482,-0.01538,1.00559,-0.383384,0.01001,1.0479299999999998,-0.3683039999999999,-0.13797,1.03613,-0.671564,0.0466,0.99284,-0.675424,-0.1157
117,0.96486,0.7510425,0.008355,0.87581,0.4660725,0.0862149999999999,0.83802,0.2490025,0.1114349999999999,1.14939,0.4677925,0.0113049999999999,1.2193699999999998,0.2536825,0.0546649999999999,0.78938,0.1053525,-0.032185,1.2403799999999998,0.0681345,-0.017405,0.93098,-0.0066615,0.0160449999999999,1.0690199999999999,0.0066615,-0.016045,0.98212,-0.3754675,-0.016895,1.05328,-0.3688375,-0.1233549999999999,1.01121,-0.6849375,0.0370049999999999,1.00732,-0.6745375,-0.092515
118,0.959765,0.7514325,0.00701,0.8732850000000001,0.4660924999999999,0.08502,0.835725,0.2473625,0.11005,1.1501549999999998,0.4689824999999999,0.01318,1.224125,0.2562525,0.04631,0.784475,0.1028625,-0.0355599999999999,1.247025,0.0731615,-0.0448999999999999,0.930905,-0.0065015,0.01664,1.069095,0.0065014999999999,-0.0166399999999999,0.9576850000000001,-0.3681975,-0.0436199999999999,1.058705,-0.3694075,-0.1084399999999999,0.976915,-0.6907175,0.01946,1.0213349999999999,-0.6732675,-0.07045
119,0.953675,0.751209,0.0057749999999999,0.8694850000000001,0.466079,0.0836249999999999,0.830875,0.2481189999999999,0.1074349999999999,1.149605,0.471159,0.0148449999999999,1.229285,0.2630989999999999,0.0398049999999999,0.775875,0.101959,-0.0399149999999999,1.253425,0.087311,-0.0724549999999999,0.930755,-0.006215,0.0167649999999999,1.069245,0.006215,-0.0167649999999999,0.935845,-0.361161,-0.069445,1.0664349999999998,-0.368981,-0.0925849999999999,0.937985,-0.6927209999999999,-0.014945,1.036255,-0.6712809999999999,-0.047945
120,0.9473950000000001,0.7503945,0.00364,0.8657350000000001,0.4657145,0.08035,0.825325,0.2494444999999999,0.10501,1.1486049999999999,0.4733245,0.01616,1.234355,0.2704244999999999,0.03357,0.7626650000000001,0.1032744999999999,-0.0507699999999999,1.260595,0.0996545,-0.0946499999999999,0.9306450000000001,-0.0059034999999999,0.01692,1.069355,0.0059035,-0.0169199999999999,0.913995,-0.3552255,-0.0957599999999999,1.075145,-0.3685255,-0.0778899999999999,0.9031350000000001,-0.6947755,-0.0461899999999999,1.051065,-0.6703655000000001,-0.0260299999999999
121,0.940025,0.748958,0.0014699999999999,0.8603450000000001,0.465298,0.0771199999999999,0.814345,0.2515179999999999,0.09814,1.145595,0.4751579999999999,0.0176999999999999,1.2363849999999998,0.2773179999999999,0.0315299999999999,0.748015,0.107668,-0.0608199999999999,1.263925,0.1107779999999999,-0.1097099999999999,0.9303350000000001,-0.005603,0.0169099999999999,1.0696649999999999,0.005603,-0.0169099999999999,0.898315,-0.349092,-0.0932,1.080865,-0.367722,-0.06637,0.873015,-0.696372,-0.0703599999999999,1.062905,-0.670552,-0.0077099999999999
122,0.933075,0.747944,-0.0011499999999999,0.854765,0.465394,0.07335,0.804365,0.254284,0.09149,1.142625,0.477264,0.0185,1.237775,0.282434,0.03171,0.734545,0.1111439999999999,-0.0706799999999999,1.266835,0.118984,-0.1120599999999999,0.9298450000000001,-0.005548,0.01519,1.070155,0.005548,-0.0151899999999999,0.8858850000000001,-0.343626,-0.0932199999999999,1.087285,-0.3669659999999999,-0.0576999999999999,0.859525,-0.702066,-0.0720099999999999,1.074405,-0.670246,0.00858
123,0.9273900000000002,0.7470565,-0.0037449999999999,0.8498,0.4654465,0.068475,0.79557,0.2566865,0.084805,1.1384699999999999,0.4792765,0.017415,1.23832,0.2855565,0.0335849999999999,0.72465,0.1136364999999999,-0.0783249999999999,1.26956,0.1191364999999999,-0.106275,0.9293500000000001,-0.0056495,0.0132849999999999,1.0706499999999999,0.0056495,-0.0132849999999999,0.87954,-0.3395635,-0.092955,1.0948399999999998,-0.3662435,-0.0507549999999999,0.8516700000000001,-0.7067735,-0.070635,1.08581,-0.6700435,0.022675
124,0.9220150000000001,0.7459665000000001,-0.0067049999999999,0.8467950000000001,0.4653764999999999,0.0649649999999999,0.7873650000000001,0.2577665,0.0772349999999999,1.136975,0.4805864999999999,0.019185,1.237735,0.2863465,0.037385,0.715025,0.1177965,-0.0873249999999999,1.269295,0.1183665,-0.0972049999999999,0.9291650000000001,-0.0057824999999999,0.011795,1.070835,0.0057824999999999,-0.011795,0.8803550000000002,-0.3402635,-0.090825,1.101875,-0.3664135,-0.0433949999999999,0.8472550000000001,-0.7159435,-0.068335,1.097555,-0.6706335,0.036035
125,0.9160350000000002,0.74473,-0.0106950000000001,0.8421950000000001,0.46537,0.0593549999999999,0.779725,0.25823,0.0694049999999999,1.132435,0.48259,0.0186349999999999,1.234945,0.28672,0.0426649999999999,0.708485,0.12113,-0.096245,1.2689750000000002,0.1178,-0.0820750000000001,0.928755,-0.005921,0.0099049999999999,1.071245,0.0059209999999999,-0.009905,0.8823750000000001,-0.3408299999999999,-0.0874650000000001,1.111945,-0.3653099999999999,-0.036145,0.8494650000000001,-0.72122,-0.062725,1.109815,-0.6705099999999999,0.0493349999999999
126,0.9108850000000001,0.743283,-0.0146999999999999,0.838745,0.465263,0.05476,0.774275,0.258643,0.06285,1.1296249999999999,0.484453,0.0193999999999999,1.230835,0.286183,0.0498399999999999,0.705465,0.122273,-0.1024399999999999,1.266405,0.117263,-0.06786,0.9286250000000001,-0.0060949999999999,0.00844,1.071375,0.006095,-0.00844,0.885755,-0.341367,-0.0827099999999999,1.120205,-0.364877,-0.03154,0.8586150000000001,-0.727047,-0.0512,1.119595,-0.669817,0.0595799999999999
127,0.9060649999999999,0.7418925,-0.0189450000000001,0.835835,0.4649125,0.0506949999999999,0.7679149999999999,0.2590925,0.0549749999999998,1.126655,0.4863825,0.0196149999999999,1.226105,0.2858325,0.0566949999999999,0.7009249999999999,0.1226025,-0.110785,1.263645,0.1148225,-0.054505,0.928515,-0.0062675,0.0070049999999999,1.0714849999999998,0.0062674999999999,-0.007005,0.8895150000000001,-0.3417975,-0.077975,1.123635,-0.3647674999999999,-0.027745,0.868845,-0.7377675,-0.039405,1.1283249999999998,-0.6690475,0.0682749999999999
128,0.901725,0.740602,-0.0247049999999998,0.8328949999999999,0.464762,0.0454350000000001,0.7635950000000001,0.259042,0.047475,1.123135,0.4888119999999999,0.0179650000000001,1.2214749999999999,0.285782,0.0628250000000001,0.700045,0.122552,-0.1177049999999999,1.260625,0.110032,-0.0428849999999999,0.9285550000000001,-0.006438,0.006075,1.071445,0.0064379999999999,-0.0060749999999999,0.894025,-0.342858,-0.0735049999999999,1.1252749999999998,-0.364608,-0.0263049999999999,0.8814750000000001,-0.7387779999999999,-0.0288349999999999,1.1324349999999999,-0.667878,0.070745
129,0.898065,0.739327,-0.02982,0.830505,0.464767,0.0412299999999999,0.760005,0.2590469999999999,0.0409999999999999,1.1202249999999998,0.490557,0.0163899999999999,1.217085,0.2857869999999999,0.0688699999999999,0.703705,0.122557,-0.11891,1.257205,0.103777,-0.02818,0.9286550000000001,-0.006443,0.0053799999999999,1.071345,0.006443,-0.00538,0.898375,-0.344213,-0.06915,1.1266649999999998,-0.364603,-0.02582,0.893495,-0.739753,-0.01944,1.136005,-0.666573,0.07182
130,0.895235,0.738047,-0.0348549999999999,0.8287450000000001,0.464767,0.037955,0.761145,0.2590469999999999,0.040965,1.1181249999999998,0.4920669999999999,0.0152349999999999,1.2132049999999999,0.2856769999999999,0.074025,0.7089449999999999,0.121647,-0.1140549999999999,1.255005,0.097027,-0.0130949999999999,0.928685,-0.006443,0.004635,1.0713149999999998,0.006443,-0.0046349999999999,0.902615,-0.345573,-0.0642749999999999,1.127565,-0.364603,-0.0257349999999999,0.905215,-0.740723,-0.0105649999999999,1.137985,-0.664493,0.071155
131,0.8926550000000001,0.736687,-0.0397349999999999,0.827385,0.464767,0.0349049999999999,0.7622950000000002,0.2589869999999999,0.040715,1.116045,0.493287,0.013935,1.209715,0.284757,0.0785249999999999,0.7145750000000002,0.119767,-0.111765,1.252815,0.089997,0.0016549999999999,0.928705,-0.006443,0.0039449999999999,1.071295,0.006443,-0.0039449999999999,0.9065350000000001,-0.346813,-0.0596449999999999,1.128175,-0.364603,-0.026155,0.9170650000000001,-0.741603,-0.0026349999999999,1.138715,-0.662383,0.0691049999999999
132,0.8908000000000001,0.735373,-0.044155,0.82614,0.464263,0.0323949999999999,0.76458,0.258113,0.0403649999999999,1.1142599999999998,0.4948830000000001,0.0126149999999999,1.20682,0.283533,0.0822549999999999,0.72054,0.119453,-0.1130850000000001,1.25024,0.08385,0.0137049999999999,0.9289600000000001,-0.006627,0.0037249999999999,1.07104,0.0066269999999999,-0.003725,0.9104,-0.3479069999999999,-0.054935,1.12849,-0.364567,-0.026685,0.9283500000000001,-0.7423069999999999,0.0041349999999998,1.1384,-0.6599769999999999,0.0665249999999999
133,0.8890800000000001,0.7342725,-0.04841,0.8240200000000001,0.4630925,0.0301099999999999,0.7676100000000001,0.2562825,0.04081,1.112,0.4964424999999999,0.0107999999999999,1.20483,0.2820425,0.0848099999999999,0.72592,0.1141024999999999,-0.11429,1.24998,0.0786414999999999,0.0208399999999999,0.9291300000000001,-0.0068015,0.0035499999999999,1.0708700000000002,0.0068015,-0.00355,0.9140600000000001,-0.3488075,-0.05027,1.12855,-0.3646975,-0.0272499999999999,0.9386900000000001,-0.7428875,0.01,1.1372,-0.6572975000000001,0.0633399999999999
134,0.8884,0.733227,-0.0513999999999998,0.8233000000000001,0.461667,0.03044,0.77268,0.254067,0.04231,1.11194,0.497317,0.0103,1.2039099999999998,0.280377,0.08598,0.73249,0.107557,-0.1126899999999999,1.24891,0.074251,0.02602,0.9294900000000001,-0.006884,0.00379,1.0705099999999999,0.0068839999999999,-0.0037899999999999,0.91692,-0.349363,-0.0459299999999999,1.1280199999999998,-0.364653,-0.0276699999999999,0.94639,-0.743323,0.01428,1.1344599999999998,-0.654943,0.05922
135,0.88771,0.732237,-0.0540399999999999,0.8222200000000001,0.4601869999999999,0.03078,0.7775800000000002,0.245607,0.0429899999999999,1.11087,0.4980169999999999,0.009,1.20313,0.279337,0.0858499999999999,0.7377200000000002,0.099017,-0.10967,1.24834,0.072057,0.03003,0.9297600000000001,-0.006951,0.00414,1.07024,0.0069509999999999,-0.00414,0.9194800000000001,-0.349803,-0.04205,1.12766,-0.364453,-0.0273099999999999,0.9522400000000001,-0.743743,0.0176399999999999,1.13201,-0.653093,0.0556499999999999
136,0.887705,0.7317825,-0.056095,0.821715,0.4600725,0.028715,0.774145,0.2512525,0.050745,1.1083349999999998,0.5004425,0.007105,1.203795,0.2799925,0.0896949999999999,0.732845,0.1171025,-0.116865,1.252175,0.0714185,0.059085,0.930155,-0.0069475,0.004255,1.069845,0.0069474999999999,-0.004255,0.922255,-0.3501475,-0.039235,1.1258249999999999,-0.3649374999999999,-0.0298849999999999,0.961285,-0.7438875,0.020785,1.127535,-0.6469775,0.048605
137,0.887925,0.7314430000000001,-0.0570549999999999,0.8190850000000001,0.455913,0.030155,0.7779050000000001,0.246193,0.055675,1.109715,0.5010030000000001,0.007725,1.203495,0.280273,0.0875650000000001,0.7476850000000002,0.068424,-0.0664149999999998,1.251015,0.0718449999999999,0.053865,0.930585,-0.006959,0.005445,1.069415,0.006959,-0.0054449999999999,0.9237750000000001,-0.350247,-0.0366749999999999,1.126515,-0.365487,-0.0281149999999998,0.9641950000000001,-0.744127,0.021905,1.128755,-0.6475869999999999,0.050205
138,0.887515,0.7307965,-0.057935,0.817445,0.4530765,0.031965,0.781635,0.2424865,0.058895,1.1086349999999998,0.5003165,0.006525,1.202805,0.2798565,0.0847249999999999,0.755055,0.0797995,-0.0842749999999999,1.248855,0.0717185,0.046385,0.9308750000000001,-0.0070605,0.0064549999999999,1.0691249999999999,0.0070604999999999,-0.0064549999999999,0.924355,-0.3503735,-0.034785,1.1273749999999998,-0.3654335,-0.0266549999999999,0.966575,-0.7442535,0.0229249999999999,1.129635,-0.6475835,0.0514749999999999
139,0.8869150000000001,0.7295824999999999,-0.059575,0.8158450000000002,0.4522425,0.0329849999999999,0.7848250000000001,0.1867325,0.0231649999999999,1.108875,0.5002424999999999,0.0059449999999999,1.199505,0.2786825,0.0774049999999999,0.7539650000000001,0.0444435,-0.139915,1.245605,0.0708605,0.036845,0.9310350000000001,-0.0071625,0.0069249999999999,1.068965,0.0071624999999999,-0.006925,0.925035,-0.3505175,-0.033425,1.1281349999999999,-0.3659274999999999,-0.025635,0.9676350000000001,-0.7445575,0.0232249999999999,1.130175,-0.6480375,0.0526149999999999
140,0.886025,0.729367,-0.061095,0.811105,0.452057,0.0362949999999999,0.7866249999999999,0.185957,0.0239949999999999,1.1076849999999998,0.499877,0.0045049999999999,1.196715,0.277967,0.0710049999999999,0.7520249999999999,0.046355,-0.140615,1.2359249999999997,0.06113,0.0039449999999999,0.9310350000000001,-0.007225,0.0071449999999999,1.068965,0.007225,-0.0071449999999999,0.925325,-0.350613,-0.0322449999999999,1.128695,-0.366003,-0.0246549999999999,0.9677349999999999,-0.744833,0.023545,1.130545,-0.648113,0.0535849999999999
141,0.884145,0.7280800000000001,-0.0630899999999999,0.810555,0.4522,0.0373999999999999,0.802635,0.17181,0.03787,1.1053149999999998,0.49951,0.00176,1.1902249999999999,0.27633,0.05896,0.776795,0.0002769999999999,-0.0941099999999999,1.224075,0.0717469999999999,-0.0068399999999999,0.930965,-0.007306,0.0073,1.069035,0.007306,-0.0072999999999999,0.925525,-0.35074,-0.0294499999999999,1.129915,-0.36365,-0.0209199999999999,0.967365,-0.7453299999999999,0.0245,1.1311449999999998,-0.64659,0.05484
142,0.8831199999999999,0.727838,-0.06422,0.81071,0.452238,0.0373999999999999,0.8028500000000001,0.172148,0.03803,1.10353,0.499198,4.999999999999449e-05,1.1867299999999998,0.2732279999999999,0.0518799999999999,0.7826,-0.008746,-0.08144,1.21975,0.070745,-0.0211999999999999,0.93093,-0.007315,0.00734,1.06907,0.007315,-0.00734,0.92551,-0.350732,-0.02667,1.13028,-0.361972,-0.0189099999999999,0.9658699999999999,-0.7457119999999999,0.0257699999999999,1.1311399999999998,-0.645542,0.0549199999999999
