sb224sc-HT22-VT27/4dt907/src/data/kinect_good_preprocessed_not_cut_A11_mediapipe/A34_kinect.csv
FrameNo,nose_3d_x,nose_3d_y,nose_3d_z,left_shoulder_3d_x,left_shoulder_3d_y,left_shoulder_3d_z,left_elbow_3d_x,left_elbow_3d_y,left_elbow_3d_z,right_shoulder_3d_x,right_shoulder_3d_y,right_shoulder_3d_z,right_elbow_3d_x,right_elbow_3d_y,right_elbow_3d_z,left_wrist_3d_x,left_wrist_3d_y,left_wrist_3d_z,right_wrist_3d_x,right_wrist_3d_y,right_wrist_3d_z,left_hip_3d_x,left_hip_3d_y,left_hip_3d_z,right_hip_3d_x,right_hip_3d_y,right_hip_3d_z,left_knee_3d_x,left_knee_3d_y,left_knee_3d_z,right_knee_3d_x,right_knee_3d_y,right_knee_3d_z,left_ankle_3d_x,left_ankle_3d_y,left_ankle_3d_z,right_ankle_3d_x,right_ankle_3d_y,right_ankle_3d_z
0,0.017994,0.7617575,0.068916,-0.14647,0.4616075,0.057785,-0.17503000000000002,0.2108875,0.07180800000000001,0.16597,0.4617675,0.052751000000000006,0.18896999999999997,0.20892750000000002,0.063521,-0.18977,0.0081585,2.4000000000003185e-05,0.19707000000000002,0.004170500000000001,-0.020011999999999995,-0.072334,0.0034105000000000003,0.00012300000000000505,0.072334,-0.0034105,-0.0001229999999999981,-0.12653999999999999,-0.3847025,-0.026475,0.11519,-0.4198825,-0.005925,-0.1281,-0.7311725,-0.025737999999999997,0.12287,-0.7377625000000001,-0.043676999999999994
1,0.017401500000000004,0.7611775,0.068142,-0.1474155,0.4613175,0.058155,-0.1754055,0.2105075,0.071587,0.1653145,0.4617675,0.052468999999999995,0.1894145,0.2083475,0.062154999999999995,-0.1904455,0.0080695,-0.0010530000000000053,0.20232450000000002,0.0089405,-0.019979000000000004,-0.0723815,0.0034145000000000004,0.00025799999999999434,0.0723815,-0.0034145,-0.0002580000000000013,-0.1265755,-0.3846425,-0.026438000000000003,0.11443450000000001,-0.42002249999999997,-0.005701000000000005,-0.1292255,-0.7336925000000001,-0.025865000000000006,0.1217845,-0.7369525,-0.04224700000000001
2,0.017500999999999996,0.7608779999999999,0.0673725,-0.147607,0.461268,0.0583235,-0.175207,0.210368,0.07162450000000001,0.16518299999999997,0.461858,0.0524485,0.190083,0.20840799999999998,0.061810500000000004,-0.190537,0.008014,-0.0012155000000000013,0.20177299999999998,0.009024,-0.0206125,-0.072448,0.003378,0.000394499999999999,0.072448,-0.003378,-0.000394499999999999,-0.126507,-0.384932,-0.0265235,0.114353,-0.419872,-0.0056264999999999996,-0.129477,-0.733972,-0.0259155,0.12152299999999999,-0.736412,-0.0424845
3,0.0172975,0.7606805,0.06730050000000001,-0.1480175,0.46114049999999995,0.058501500000000005,-0.1752675,0.21018050000000002,0.07165850000000001,0.1648725,0.4618005,0.052437500000000005,0.1899325,0.2083505,0.061866500000000005,-0.1911075,0.0078425,-0.0010994999999999963,0.2014625,0.009020499999999999,-0.020722499999999998,-0.0724105,0.0034365,0.0004075000000000051,0.0724105,-0.0034365,-0.00040749999999999814,-0.1266575,-0.3849195,-0.0264615,0.1140925,-0.41978950000000004,-0.005420499999999995,-0.1296875,-0.7327295,-0.025296499999999993,0.12141249999999999,-0.7366395,-0.04252249999999999
4,0.017286499999999993,0.7604,0.067387,-0.1482725,0.4611,0.058863,-0.1751125,0.20971,0.07133,0.1646675,0.4618,0.052346000000000004,0.1898175,0.20827,0.061936000000000005,-0.1915025,0.007275,-0.0009839999999999988,0.2012075,0.008944,-0.020698,-0.07246949999999999,0.0034289999999999998,0.0007370000000000015,0.07246949999999999,-0.0034289999999999998,-0.0007370000000000015,-0.1267325,-0.38502000000000003,-0.026222000000000002,0.11406749999999999,-0.41948,-0.0048839999999999995,-0.1302025,-0.73538,-0.025195999999999996,0.1212675,-0.73692,-0.041844
5,0.017273499999999997,0.760166,0.067195,-0.1487655,0.461156,0.059327000000000005,-0.1751955,0.209456,0.070915,0.1644545,0.46182599999999996,0.052469,0.1899445,0.20824600000000001,0.061801,-0.1921455,0.006899000000000001,-0.0008459999999999995,0.20076449999999998,0.008789,-0.020564,-0.0724905,0.0034289999999999998,0.0008550000000000016,0.0724905,-0.003429,-0.0008550000000000016,-0.12688549999999998,-0.384774,-0.026048,0.1137045,-0.419304,-0.004512999999999996,-0.1306655,-0.734414,-0.024473999999999996,0.1210045,-0.7363339999999999,-0.04106699999999999
6,0.017069500000000005,0.759882,0.0674375,-0.1492775,0.461182,0.0597735,-0.1750775,0.209072,0.0704135,0.1641725,0.461892,0.052471500000000004,0.19030249999999999,0.208192,0.0615775,-0.1928375,0.006528,-0.0011395000000000016,0.2025125,0.008816000000000001,-0.020776499999999996,-0.07248550000000001,0.003451,0.0008775000000000033,0.07248550000000001,-0.003451,-0.0008774999999999963,-0.1259375,-0.37996800000000003,-0.0265405,0.11367250000000001,-0.419338,-0.0042664999999999995,-0.1315675,-0.736698,-0.0252815,0.1206225,-0.735998,-0.041038500000000006
7,0.016637,0.7601669999999999,0.068045,-0.149927,0.461007,0.060184,-0.177347,0.209787,0.069238,0.163503,0.46190699999999996,0.052806000000000006,0.189923,0.208907,0.060147000000000006,-0.198837,0.010124,-0.007954999999999997,0.201673,0.0095,-0.022279,-0.07246,0.003385,0.0008529999999999996,0.07246,-0.003385,-0.0008529999999999996,-0.126187,-0.38161300000000004,-0.025655999999999998,0.114003,-0.41918300000000003,-0.0035649999999999987,-0.131147,-0.735803,-0.02452,0.12121299999999999,-0.737193,-0.04054699999999999
8,0.016399000000000004,0.7598265000000001,0.0684705,-0.150235,0.4612065,0.0606935,-0.181935,0.2152665,0.0639325,0.162835,0.46200650000000004,0.05284850000000001,0.192045,0.21280649999999998,0.0546015,-0.207915,0.0186805,-0.0180875,0.205435,0.0158675,-0.03235249999999999,-0.07247,0.0033755,0.0008965000000000015,0.07247,-0.0033755,-0.0008964999999999945,-0.12623499999999999,-0.3811135,-0.025243499999999995,0.11388500000000001,-0.4189835,-0.003085499999999998,-0.131555,-0.7364134999999999,-0.0240955,0.120895,-0.7378035,-0.0401315
9,0.0161755,0.7595195,0.0688635,-0.1505655,0.4614095,0.061165500000000005,-0.18805550000000001,0.2218295,0.056003500000000005,0.1621545,0.4621395,0.052866500000000004,0.1961045,0.21869950000000002,0.0476805,-0.2198755,0.0300265,-0.03262949999999999,0.2096045,0.0247525,-0.04485549999999999,-0.0724925,0.0033594999999999996,0.000952500000000002,0.0724925,-0.0033594999999999996,-0.000952499999999995,-0.1262455,-0.37991050000000004,-0.024850499999999998,0.11372449999999999,-0.41882050000000004,-0.002623499999999994,-0.1321255,-0.7369505,-0.023676499999999996,0.12058450000000001,-0.7384204999999999,-0.0398805
10,0.0158265,0.7593475000000001,0.069249,-0.1508565,0.46163750000000003,0.061553000000000004,-0.1956165,0.2296575,0.046227000000000004,0.1614835,0.4622875,0.0528,0.2008335,0.2256175,0.038093,-0.2336165,0.0437685,-0.050209000000000004,0.2149835,0.036623499999999996,-0.06236799999999999,-0.0725375,0.0033334999999999997,0.0010450000000000043,0.0725375,-0.0033334999999999997,-0.0010449999999999973,-0.1261965,-0.3781425,-0.024542999999999995,0.1135735,-0.4183925,-0.0021889999999999965,-0.1324765,-0.7374225,-0.023309999999999997,0.1204935,-0.7387825,-0.039492
11,0.015487499999999994,0.7591825,0.069966,-0.1505125,0.4622025,0.06189,-0.20634249999999998,0.2424825,0.032856,0.1607775,0.4625925,0.052545,0.2066875,0.2355225,0.023705000000000004,-0.2510925,0.0658995,-0.07796299999999999,0.2238775,0.0571795,-0.08865300000000001,-0.07262350000000001,0.0032935,0.0012120000000000047,0.07262350000000001,-0.0032935000000000004,-0.0012119999999999978,-0.1263125,-0.3768875,-0.024329999999999997,0.11339749999999998,-0.41765749999999996,-0.0018389999999999934,-0.1328425,-0.7378574999999999,-0.022444,0.1204075,-0.7391675,-0.03913899999999999
12,0.015128999999999997,0.759034,0.0708475,-0.15012,0.462744,0.06220049999999999,-0.21806,0.257954,0.017511499999999996,0.15997,0.462914,0.0522375,0.21323,0.248894,0.005749499999999998,-0.26983,0.093985,-0.1066695,0.23335,0.079333,-0.1171895,-0.072737,0.003241,0.001388499999999994,0.072737,-0.003241,-0.0013885000000000008,-0.12645,-0.375606,-0.024129500000000005,0.11318,-0.416976,-0.0015415000000000012,-0.13313,-0.737626,-0.021317500000000003,0.12032999999999999,-0.7394959999999999,-0.0388405
13,0.014680999999999993,0.758758,0.07182849999999999,-0.14965099999999998,0.46342799999999995,0.06240949999999999,-0.23067100000000001,0.27603799999999995,0.0012624999999999928,0.15885899999999997,0.463408,0.0516055,0.22006900000000001,0.263138,-0.012820500000000006,-0.28865100000000005,0.127368,-0.1367855,0.24348899999999996,0.110158,-0.15002549999999998,-0.072879,0.003146,0.001515499999999996,0.072879,-0.0031460000000000004,-0.001515500000000003,-0.126351,-0.374512,-0.023885500000000004,0.11309899999999999,-0.416212,-0.0012335000000000054,-0.133111,-0.737182,-0.019984500000000002,0.120349,-0.7401019999999999,-0.038608500000000004
14,0.014430499999999999,0.7585565,0.07295,-0.1489665,0.4643565,0.062492,-0.24322649999999998,0.30263650000000003,-0.016664000000000005,0.1578735,0.4639665,0.050953,0.2284435,0.2820565,-0.033342000000000004,-0.30829650000000003,0.1711065,-0.16822700000000002,0.2549535,0.1508265,-0.187057,-0.0730305,0.0030745,0.0015960000000000002,0.0730305,-0.0030745,-0.0015960000000000002,-0.1263365,-0.37326349999999997,-0.023568,0.1128535,-0.41550349999999997,-0.0009740000000000026,-0.1329565,-0.7362835,-0.018553,0.1203535,-0.7402335,-0.038203999999999995
15,0.014209500000000003,0.7581245000000001,0.074324,-0.14777549999999998,0.4658545,0.062436,-0.2552155,0.3325945,-0.034581,0.1568445,0.4648545,0.050184,0.2378645,0.3105745,-0.054458000000000006,-0.3272555,0.2245845,-0.19901999999999997,0.2669345,0.2025045,-0.22451000000000004,-0.0732055,0.0029915000000000002,0.0017739999999999978,0.0732055,-0.0029915000000000002,-0.0017740000000000047,-0.1262655,-0.3720955,-0.023205000000000003,0.11262450000000002,-0.4148855,-0.0008440000000000045,-0.1327255,-0.7354155,-0.017169000000000004,0.12036450000000001,-0.7406054999999999,-0.037943000000000005
16,0.0140185,0.7575035,0.075751,-0.1464025,0.46750349999999996,0.06232,-0.2668725,0.3657835,-0.051458,0.15583750000000002,0.46595349999999996,0.049356,0.2472975,0.3403235,-0.07427600000000001,-0.3419425,0.28250349999999996,-0.22879599999999997,0.2788875,0.25991349999999996,-0.260496,-0.0733985,0.0028865,0.0019959999999999978,0.0733985,-0.0028864999999999993,-0.0019959999999999978,-0.1261425,-0.3711565,-0.022917,0.1124375,-0.4144565,-0.0007500000000000007,-0.1324125,-0.7348265,-0.015863000000000002,0.12032749999999999,-0.7410265,-0.037730999999999994
17,0.013857500000000002,0.7567010000000001,0.077351,-0.1451955,0.469081,0.06195,-0.2736355,0.395071,-0.062523,0.1549645,0.467291,0.048492,0.25458450000000005,0.368921,-0.08826300000000001,-0.35044549999999997,0.337551,-0.251083,0.2863645,0.315881,-0.28441299999999997,-0.07357649999999999,0.002746,0.0022020000000000026,0.07357649999999999,-0.002746,-0.0022020000000000026,-0.1259255,-0.370299,-0.02266,0.11231450000000001,-0.414219,-0.0007100000000000023,-0.1320955,-0.734539,-0.014577,0.12020449999999999,-0.7419990000000001,-0.037551999999999995
18,0.013748499999999997,0.755716,0.07885400000000001,-0.14393750000000002,0.47078600000000004,0.061527,-0.2786475,0.42588600000000004,-0.07127,0.15419249999999998,0.468706,0.047577,0.2600825,0.398926,-0.10057,-0.3552575,0.39424600000000004,-0.26805999999999996,0.2931125,0.374106,-0.30404,-0.0737205,0.002575000000000001,0.002354000000000002,0.0737205,-0.002574999999999999,-0.002353999999999995,-0.1257075,-0.370324,-0.022494,0.1122525,-0.41414399999999996,-0.000673999999999994,-0.1317875,-0.734644,-0.013540999999999997,0.12017249999999999,-0.743204,-0.037275
19,0.013699,0.754606,0.0802185,-0.14263299999999998,0.472576,0.061066499999999996,-0.281633,0.456336,-0.0778715,0.15360700000000002,0.470266,0.0466875,0.26497699999999996,0.42971600000000004,-0.1098515,-0.356783,0.452676,-0.28078149999999996,0.298307,0.433056,-0.3168715,-0.073827,0.0024189999999999993,0.0024935000000000027,0.073827,-0.002419000000000001,-0.0024935000000000027,-0.125493,-0.371064,-0.022447500000000002,0.11224700000000001,-0.41448399999999996,-0.0007235000000000019,-0.131433,-0.734844,-0.012562499999999997,0.12015700000000001,-0.744564,-0.037054500000000004
20,0.013692499999999996,0.7531705,0.081258,-0.14193550000000002,0.4739905,0.060274,-0.2816455,0.4852605,-0.080015,0.1532645,0.4717705,0.045948,0.26799449999999997,0.46076049999999996,-0.114275,-0.3568055,0.5085105,-0.281725,0.2998645,0.4897205,-0.321445,-0.0738605,0.002309499999999999,0.0026359999999999995,0.0738605,-0.002309500000000001,-0.0026359999999999995,-0.12519550000000002,-0.3724995,-0.022357999999999996,0.11228450000000001,-0.4152795,-0.0007360000000000005,-0.1309355,-0.7357195,-0.012123999999999996,0.12031449999999999,-0.7461595,-0.036326
21,0.013733000000000002,0.75164,0.08215800000000001,-0.141282,0.47588,0.059578000000000006,-0.28165199999999996,0.51346,-0.080359,0.153218,0.47315,0.045526000000000004,0.27029800000000004,0.48984000000000005,-0.11417899999999999,-0.35681199999999996,0.56206,-0.28163900000000003,0.300458,0.5468000000000001,-0.321359,-0.073855,0.0022500000000000003,0.002722000000000002,0.073855,-0.0022500000000000003,-0.0027219999999999953,-0.12490199999999999,-0.37431,-0.022239999999999996,0.112338,-0.41624,-0.0006499999999999978,-0.130382,-0.73682,-0.011907999999999995,0.120558,-0.74786,-0.03539099999999999
22,0.013729500000000002,0.7498845,0.08307900000000001,-0.1406625,0.4777845,0.058924000000000004,-0.2816525,0.5401645,-0.080408,0.1532175,0.4742745,0.045586,0.27174750000000003,0.5201545,-0.114058,-0.3568125,0.6127445,-0.281528,0.3009175,0.5979345,-0.32123799999999997,-0.07385549999999999,0.0022555000000000006,0.002833000000000002,0.07385549999999999,-0.0022555000000000006,-0.0028329999999999952,-0.1249025,-0.3760655,-0.022128999999999996,0.1123375,-0.4179955,-0.0005509999999999959,-0.13038249999999998,-0.7385755,-0.011796999999999995,0.12055750000000001,-0.7496155,-0.034747
23,0.013740500000000003,0.748111,0.0838315,-0.1400475,0.479981,0.0582255,-0.2808175,0.5592609999999999,-0.0803055,0.1532325,0.475311,0.0456885,0.2717625,0.548461,-0.11395550000000002,-0.3535375,0.6544009999999999,-0.28044549999999996,0.3009325,0.644511,-0.32113549999999996,-0.0738715,0.0023630000000000005,0.0029355000000000006,0.0738715,-0.0023630000000000005,-0.0029355000000000006,-0.12488749999999998,-0.377849,-0.022026499999999997,0.1123525,-0.419779,-0.0004554999999999976,-0.1303675,-0.7403590000000001,-0.011694499999999997,0.12056249999999999,-0.751399,-0.03423149999999999
24,0.013798500000000002,0.7466975,0.084247,-0.1397275,0.48229750000000005,0.057564000000000004,-0.27823749999999997,0.5794175,-0.080182,0.1532925,0.4760275,0.045792,0.2718225,0.5689775,-0.113402,-0.3475275,0.6927575,-0.280182,0.3009825,0.6842775,-0.320432,-0.0738975,0.002419499999999998,0.003030999999999999,0.0738975,-0.0024195000000000015,-0.003030999999999999,-0.1248275,-0.3794625,-0.021922999999999998,0.1124125,-0.4213925,-0.0004269999999999968,-0.1303075,-0.7419725,-0.011590999999999997,0.1206225,-0.7530125,-0.033946000000000004
25,0.014514499999999996,0.7452570000000001,0.0844655,-0.13925550000000003,0.48447700000000005,0.05688449999999999,-0.2738855,0.596477,-0.0792245,0.1538945,0.477157,0.04599349999999999,0.2720045,0.589357,-0.11091450000000001,-0.3402855,0.725487,-0.2763845,0.3011545,0.718187,-0.3139445,-0.0738075,0.00255,0.0030344999999999955,0.0738075,-0.00255,-0.0030345000000000025,-0.1249455,-0.382193,-0.021873500000000004,0.11201449999999999,-0.423093,-0.00045250000000000845,-0.13063550000000002,-0.743673,-0.011517500000000007,0.12004449999999998,-0.755023,-0.0335975
26,0.015248999999999995,0.7436695,0.08479249999999999,-0.138822,0.48625949999999996,0.0566855,-0.268652,0.6123595,-0.0754405,0.154408,0.4780795,0.0464005,0.271928,0.6074395,-0.1055305,-0.330852,0.7559495,-0.2686505,0.299888,0.7493395,-0.3007505,-0.073671,0.0026885,0.002978500000000002,0.073671,-0.0026885,-0.002978500000000002,-0.124932,-0.3847505,-0.0217085,0.111638,-0.4244205,-0.0003615000000000007,-0.131042,-0.7461705,-0.011754500000000001,0.119448,-0.7572305,-0.033086500000000005
27,0.016007499999999997,0.742336,0.08529400000000001,-0.13840049999999998,0.48831600000000003,0.056712,-0.2632705,0.627146,-0.071282,0.1549995,0.478756,0.047008999999999995,0.27057950000000003,0.623116,-0.098872,-0.3209805,0.783036,-0.259432,0.2979595,0.776956,-0.286482,-0.0735065,0.0027930000000000003,0.002825000000000001,0.0735065,-0.0027930000000000003,-0.002825000000000001,-0.1249005,-0.387144,-0.021541000000000005,0.1112795,-0.425804,-0.00017800000000000454,-0.1316405,-0.748824,-0.011917999999999998,0.1188195,-0.7595040000000001,-0.032549999999999996
28,0.016777,0.7406480000000001,0.0859225,-0.138033,0.49097799999999997,0.0569245,-0.256923,0.6428680000000001,-0.0667565,0.155527,0.479558,0.0476865,0.268447,0.6387980000000001,-0.09112650000000001,-0.31033299999999997,0.808778,-0.24440649999999997,0.29499699999999995,0.805118,-0.2674565,-0.073354,0.002995000000000001,0.0027005000000000015,0.073354,-0.002995000000000001,-0.0027005000000000015,-0.124883,-0.389632,-0.021233500000000002,0.110897,-0.427602,7.549999999999918e-05,-0.13228299999999998,-0.7520619999999999,-0.011953499999999999,0.118257,-0.7622519999999999,-0.0319285
29,0.017653,0.7394545,0.08630850000000001,-0.137708,0.49374450000000003,0.05737950000000001,-0.251268,0.6555445,-0.06311149999999999,0.155762,0.48036449999999997,0.048261500000000006,0.266392,0.6533845,-0.08458149999999999,-0.300858,0.8314145,-0.2301315,0.292792,0.8278645,-0.2512715,-0.073185,0.0031885000000000004,0.002535500000000003,0.073185,-0.0031885000000000004,-0.002535499999999996,-0.124708,-0.3912755,-0.02113149999999999,0.110612,-0.4290755,0.00023350000000000454,-0.132858,-0.7551355,-0.012204499999999993,0.11783199999999999,-0.7647855,-0.031286499999999995
30,0.018541,0.7381695,0.0865155,-0.13727,0.4960895,0.057824499999999994,-0.24582,0.6696195,-0.059661500000000006,0.15601,0.48099949999999997,0.048922499999999994,0.26444999999999996,0.6667995000000001,-0.0782115,-0.29189,0.8509595000000001,-0.2164315,0.29077,0.8494895,-0.23604150000000002,-0.073043,0.0033114999999999985,0.002431499999999996,0.073043,-0.0033114999999999985,-0.002431500000000003,-0.12468,-0.3932405,-0.020995500000000007,0.11026999999999999,-0.4306605,0.00036149999999999377,-0.13346,-0.7572804999999999,-0.011568500000000002,0.11725,-0.7676405,-0.03041350000000001
31,0.019445,0.7369450000000001,0.08642050000000001,-0.136827,0.498195,0.0583635,-0.240747,0.6838350000000001,-0.055960499999999996,0.15618300000000002,0.481685,0.049697500000000006,0.262313,0.6800550000000001,-0.0718825,-0.283457,0.869745,-0.2022525,0.288573,0.8682150000000001,-0.21924249999999998,-0.07286200000000001,0.0034549999999999997,0.0023105,0.07286200000000001,-0.0034549999999999997,-0.0023105,-0.12470700000000001,-0.395285,-0.0207715,0.109853,-0.43224500000000005,0.0005925000000000027,-0.134127,-0.759775,-0.011373500000000002,0.116653,-0.7707649999999999,-0.029603500000000005
32,0.020243,0.735422,0.08581,-0.135959,0.500612,0.058905000000000006,-0.23562899999999998,0.698292,-0.05122299999999999,0.156231,0.482472,0.05056600000000001,0.259791,0.691732,-0.063499,-0.274039,0.888432,-0.185519,0.28519100000000003,0.8837119999999999,-0.198569,-0.072735,0.0035530000000000006,0.002250000000000002,0.072735,-0.0035530000000000006,-0.002249999999999995,-0.124789,-0.397978,-0.020738999999999994,0.109371,-0.434578,0.0007680000000000048,-0.134849,-0.763538,-0.011294999999999993,0.11592100000000001,-0.774568,-0.028865000000000002
33,0.0208325,0.7336345000000001,0.085013,-0.13473549999999998,0.5020145,0.059325,-0.23095549999999998,0.7083845,-0.046279,0.1562045,0.4832445000000001,0.051378,0.2572245,0.7016845,-0.05627599999999999,-0.2655055,0.9007145,-0.169432,0.2816745,0.8951545000000001,-0.179782,-0.07263449999999999,0.0036894999999999983,0.002230000000000003,0.07263449999999999,-0.0036895000000000053,-0.002229999999999996,-0.1249255,-0.40084549999999997,-0.020814,0.1087545,-0.43670549999999997,0.0007769999999999999,-0.1358355,-0.7673654999999999,-0.011242000000000002,0.1150245,-0.7784854999999999,-0.028327000000000005
34,0.020759000000000003,0.7317180000000001,0.08404700000000001,-0.133812,0.502988,0.059733,-0.227122,0.7181280000000001,-0.04146299999999999,0.156088,0.48329799999999995,0.052092,0.254978,0.710418,-0.050290999999999995,-0.258032,0.912718,-0.154398,0.278178,0.906568,-0.162558,-0.072522,0.0037660000000000055,0.002265999999999997,0.072522,-0.0037659999999999985,-0.002265999999999997,-0.12515199999999999,-0.403582,-0.020859999999999997,0.108498,-0.438742,0.000794000000000003,-0.13634200000000002,-0.771102,-0.010952999999999997,0.11455800000000001,-0.7818919999999999,-0.028111000000000004
35,0.020610999999999997,0.7301810000000001,0.082898,-0.132889,0.504251,0.059918,-0.224119,0.727391,-0.037482,0.155931,0.48329099999999997,0.052594999999999996,0.252931,0.7189610000000001,-0.04512100000000001,-0.251419,0.923131,-0.140875,0.274701,0.9161210000000001,-0.147445,-0.072368,0.003846000000000002,0.002257999999999996,0.072368,-0.003846000000000002,-0.002258000000000003,-0.125299,-0.405889,-0.021121,0.108241,-0.440619,0.0005739999999999981,-0.136889,-0.774589,-0.010794000000000005,0.114081,-0.785099,-0.028055999999999998
36,0.020493499999999998,0.728395,0.08164550000000001,-0.13202550000000002,0.504825,0.0599965,-0.2215955,0.7351650000000001,-0.0339085,0.1556245,0.483445,0.0528145,0.2511245,0.7266050000000001,-0.0406945,-0.2452955,0.932455,-0.1288105,0.2711945,0.924485,-0.1340305,-0.0722425,0.003985000000000002,0.0021585000000000007,0.0722425,-0.003985000000000002,-0.0021585000000000007,-0.12542550000000002,-0.408485,-0.021383499999999993,0.1080145,-0.44243499999999997,0.0002144999999999994,-0.1372255,-0.777335,-0.010451499999999996,0.1136245,-0.788265,-0.0280915
37,0.0203,0.727024,0.0802595,-0.131278,0.504534,0.059830499999999995,-0.220258,0.741144,-0.0313495,0.155012,0.48335400000000006,0.052664499999999996,0.24970199999999998,0.732464,-0.0381305,-0.24115799999999998,0.939024,-0.1215775,0.268632,0.928594,-0.1259075,-0.072131,0.004018000000000001,0.0020154999999999965,0.072131,-0.004018000000000001,-0.0020155000000000034,-0.125408,-0.409946,-0.021810499999999997,0.107752,-0.443126,-0.0003254999999999994,-0.137578,-0.779506,-0.010031499999999999,0.113162,-0.790776,-0.028312500000000004
38,0.020048999999999997,0.725441,0.078915,-0.130578,0.503981,0.059517999999999995,-0.218938,0.746801,-0.029110999999999998,0.154482,0.48317099999999996,0.052224999999999994,0.24821200000000002,0.7362010000000001,-0.0359,-0.237398,0.9428209999999999,-0.115129,0.266022,0.931681,-0.118439,-0.072051,0.0039900000000000005,0.002015999999999997,0.072051,-0.0039900000000000005,-0.002016000000000004,-0.12551800000000002,-0.411739,-0.022073999999999996,0.107492,-0.444239,-0.0008490000000000025,-0.138128,-0.7819290000000001,-0.010364000000000005,0.112722,-0.793159,-0.02865100000000001
39,0.019522499999999998,0.7240385,0.077602,-0.1301135,0.5033285,0.05922499999999999,-0.2177735,0.7492685,-0.026964000000000002,0.1538665,0.4833185,0.051786,0.2465365,0.7396885,-0.033947000000000005,-0.2340235,0.9461485,-0.10921100000000002,0.2633465,0.9337685,-0.112411,-0.07204050000000001,0.0039755,0.002015999999999997,0.07204050000000001,-0.0039755,-0.002016000000000004,-0.1257335,-0.41329150000000003,-0.022302000000000002,0.1071365,-0.4452415,-0.001349000000000003,-0.1387335,-0.7837115,-0.010388000000000008,0.1121365,-0.7951415000000001,-0.02877500000000001
40,0.018896500000000004,0.7225885,0.0766385,-0.1297345,0.5027385,0.0589705,-0.21682449999999998,0.7505685,-0.025139499999999995,0.1533055,0.48359850000000004,0.0514255,0.24487550000000002,0.7412685,-0.0324725,-0.2315545,0.9479085,-0.1051285,0.2611055,0.9359685,-0.10957850000000001,-0.0720975,0.0039034999999999972,0.0020095000000000043,0.0720975,-0.003903500000000004,-0.0020094999999999974,-0.1259545,-0.4147115,-0.022421499999999997,0.1068455,-0.4460915,-0.0017864999999999964,-0.1393245,-0.7859115,-0.010931499999999997,0.1116455,-0.7968815,-0.028898499999999994
41,0.018002999999999995,0.7225415000000001,0.075969,-0.130077,0.5022215,0.058637,-0.216607,0.7508415,-0.025103000000000007,0.152793,0.4839015,0.051141,0.243973,0.7417315,-0.03267900000000001,-0.23107699999999998,0.9482915,-0.10533200000000001,0.25993299999999997,0.9360515,-0.109792,-0.072202,0.0037425000000000028,0.0018190000000000012,0.072202,-0.003742499999999996,-0.0018190000000000012,-0.12621700000000002,-0.4152285,-0.022625,0.106503,-0.4464785,-0.0020939999999999986,-0.13986700000000002,-0.7864785,-0.010962,0.11103299999999999,-0.7976685,-0.029103999999999998
42,0.0169235,0.7225785,0.074984,-0.1304835,0.5020685,0.058066999999999994,-0.2167935,0.7511285000000001,-0.025609000000000007,0.1522065,0.48433849999999995,0.050539999999999995,0.24297649999999998,0.7421085000000001,-0.033191,-0.2311635,0.9484385,-0.10584,0.2587765,0.9359185000000001,-0.1103,-0.0723375,0.0035895000000000024,0.001564999999999997,0.0723375,-0.0035894999999999955,-0.0015650000000000039,-0.1265435,-0.4153815,-0.023132,0.1061065,-0.4466315,-0.002602,-0.1404735,-0.7866314999999999,-0.011471000000000002,0.1105265,-0.7980415000000001,-0.029761999999999997
43,0.015678499999999998,0.7225495,0.0733585,-0.1308805,0.5020395,0.0568695,-0.2170605,0.7514695,-0.026738500000000005,0.1516195,0.4848595,0.049312499999999995,0.2419895,0.7423895,-0.0343235,-0.2313805,0.9484094999999999,-0.10695949999999999,0.25779949999999996,0.9358895,-0.11142949999999999,-0.0725365,0.003560500000000001,0.0012764999999999999,0.0725365,-0.0035604999999999942,-0.0012764999999999999,-0.1268605,-0.4154705,-0.0242615,0.1057395,-0.4466605,-0.003749500000000003,-0.1410305,-0.7868805,-0.012698500000000001,0.1101395,-0.7982505,-0.031203500000000002
44,0.014518,0.7223435,0.07087299999999999,-0.131208,0.5017935,0.055089,-0.217388,0.7514635000000001,-0.028446000000000006,0.151162,0.4849835,0.047453999999999996,0.241072,0.7424035,-0.036844999999999996,-0.231708,0.9481934999999999,-0.10896700000000001,0.256982,0.9360235,-0.115067,-0.0728,0.0036144999999999997,0.001013,0.0728,-0.0036144999999999997,-0.001013,-0.127198,-0.4158465,-0.025660999999999996,0.105482,-0.4466465,-0.005595000000000003,-0.141358,-0.7867265,-0.014511000000000003,0.109812,-0.7983865,-0.032911
45,0.0134605,0.722174,0.06777949999999999,-0.1317545,0.5015040000000001,0.0528335,-0.21766449999999998,0.7515240000000001,-0.0310265,0.1506855,0.48518400000000006,0.045074499999999997,0.24023550000000002,0.742444,-0.04054150000000001,-0.23198449999999998,0.9479639999999999,-0.1122425,0.25629549999999995,0.936054,-0.12023249999999999,-0.0730885,0.0036319999999999963,0.0008484999999999951,0.0730885,-0.0036320000000000033,-0.000848500000000002,-0.1274045,-0.41647599999999996,-0.027426500000000006,0.1054955,-0.44702600000000003,-0.007908499999999999,-0.1415445,-0.786956,-0.017321500000000004,0.10953550000000001,-0.798366,-0.0353555
46,0.012509999999999997,0.72179,0.06397549999999999,-0.132301,0.50119,0.0499805,-0.217911,0.7513700000000001,-0.0346415,0.150229,0.48545,0.0421025,0.23950899999999997,0.74236,-0.0452585,-0.232221,0.9478099999999999,-0.11659149999999999,0.255729,0.93589,-0.1264715,-0.073349,0.003585999999999999,0.0006525000000000003,0.073349,-0.003586000000000006,-0.0006525000000000003,-0.127571,-0.41708,-0.029663500000000002,0.10557899999999999,-0.44727,-0.0108095,-0.141591,-0.78748,-0.020603500000000004,0.109319,-0.7983,-0.0384285
47,0.011127999999999996,0.7213040000000001,0.0587475,-0.133071,0.500864,0.0461785,-0.218011,0.7512840000000001,-0.0401775,0.149529,0.48691399999999996,0.0380845,0.23841900000000002,0.742274,-0.052021500000000005,-0.232701,0.9477239999999999,-0.12330550000000001,0.254689,0.935514,-0.1353355,-0.07360900000000001,0.003381000000000002,0.0007474999999999982,0.07360900000000001,-0.003381000000000002,-0.0007474999999999982,-0.127501,-0.417286,-0.032291499999999994,0.10616899999999999,-0.447466,-0.014303499999999997,-0.141411,-0.787696,-0.024426499999999997,0.10954900000000001,-0.798256,-0.0418155
48,0.009892999999999999,0.7210815,0.05266,-0.133782,0.5005115,0.041803,-0.218052,0.7513515000000001,-0.046573,0.14892799999999998,0.4883815,0.033456,0.23750799999999997,0.7423415,-0.059727,-0.233182,0.9476914999999999,-0.13147599999999998,0.253788,0.9351015,-0.145246,-0.07383,0.0032855000000000037,0.0009860000000000008,0.07383,-0.0032854999999999968,-0.0009860000000000008,-0.127382,-0.4172885,-0.035612000000000005,0.10686799999999999,-0.4474385,-0.018543,-0.14114200000000002,-0.7875385,-0.028546,0.10999799999999998,-0.7980185,-0.04598100000000001
49,0.008842000000000003,0.7209985,0.04469,-0.134368,0.5001085,0.036189,-0.217978,0.7512685,-0.05433600000000001,0.148462,0.4885385,0.027601,0.236782,0.7424985,-0.068717,-0.233368,0.9460485000000001,-0.142366,0.252862,0.9341585,-0.157546,-0.074152,0.0031284999999999993,0.0012509999999999986,0.074152,-0.0031285000000000063,-0.0012509999999999986,-0.12706800000000001,-0.41719150000000005,-0.04023800000000001,0.107702,-0.4473515,-0.023979999999999998,-0.140778,-0.7873215,-0.0345,0.110652,-0.7975515000000001,-0.05150400000000001
50,0.007928500000000002,0.720801,0.0362655,-0.1348445,0.49964099999999995,0.0303255,-0.21760449999999998,0.7474510000000001,-0.062426499999999996,0.14803550000000001,0.488871,0.0214305,0.2360955,0.7402110000000001,-0.0784425,-0.23345449999999998,0.943131,-0.15336650000000002,0.2518055,0.931281,-0.16997649999999997,-0.0743875,0.003023999999999999,0.0016635000000000018,0.0743875,-0.003024000000000006,-0.0016634999999999983,-0.1267545,-0.416899,-0.045228500000000005,0.1085955,-0.44711900000000004,-0.029734499999999997,-0.1403545,-0.7867989999999999,-0.0405215,0.1113355,-0.797129,-0.0574055
51,0.007190999999999996,0.7203695,0.027053999999999998,-0.135241,0.4994295,0.023908,-0.217151,0.7433595,-0.071392,0.147709,0.48927950000000003,0.014686999999999999,0.234669,0.7346995,-0.088747,-0.233401,0.9401495,-0.165647,0.250859,0.9282895,-0.183467,-0.074634,0.002860500000000002,0.002227999999999999,0.074634,-0.002860499999999995,-0.002228000000000001,-0.126401,-0.4163305,-0.050868,0.109579,-0.4468005,-0.036275,-0.139911,-0.7863905,-0.047029,0.112039,-0.7966105,-0.063912
52,0.006499999999999999,0.7196739999999999,0.0166,-0.13564400000000001,0.4997539999999999,0.016508000000000002,-0.216654,0.7388739999999999,-0.08127,0.147006,0.4895339999999999,0.006134,0.23329599999999998,0.7288239999999999,-0.099864,-0.23320400000000002,0.935484,-0.179454,0.249706,0.925504,-0.198874,-0.074785,0.0027239999999999973,0.0027040000000000002,0.074785,-0.002724000000000004,-0.002704,-0.12615400000000002,-0.41481599999999996,-0.057539999999999994,0.110526,-0.44575600000000004,-0.044141,-0.13951400000000003,-0.785046,-0.054255,0.11270599999999999,-0.795346,-0.07161
53,0.005903999999999996,0.718852,0.0057955,-0.135827,0.499902,0.0085655,-0.21607700000000002,0.734352,-0.09156950000000001,0.14635299999999998,0.48952199999999996,-0.0029245,0.232033,0.722832,-0.11142650000000001,-0.232967,0.9304720000000001,-0.19368649999999998,0.248583,0.923112,-0.2149565,-0.07501000000000001,0.002569000000000002,0.0031674999999999997,0.07501000000000001,-0.002568999999999995,-0.0031674999999999997,-0.12590700000000002,-0.412698,-0.0646825,0.111463,-0.444258,-0.052546499999999996,-0.138827,-0.782708,-0.0618525,0.11342300000000001,-0.7935279999999999,-0.0801505
54,0.005417499999999999,0.7177005,-0.005211499999999999,-0.1359885,0.5002505,0.0004994999999999999,-0.21541849999999998,0.7289905,-0.1019785,0.1457515,0.4895505,-0.0120635,0.2308015,0.7160105,-0.1231695,-0.2326985,0.9255905,-0.20814950000000002,0.24747149999999998,0.9205905,-0.2314495,-0.0752825,0.0023714999999999986,0.0035125,0.0752825,-0.0023714999999999986,-0.003512499999999999,-0.1257185,-0.4108495,-0.0719155,0.1124415,-0.44258949999999997,-0.061451500000000006,-0.1381385,-0.7807395,-0.0694375,0.11418150000000002,-0.7913295,-0.08898149999999999
55,0.0048940000000000025,0.7160329999999999,-0.016738500000000003,-0.136199,0.501023,-0.007873500000000002,-0.214749,0.722873,-0.11270350000000001,0.145041,0.489913,-0.0215645,0.229501,0.7095629999999999,-0.1353395,-0.23268899999999998,0.921103,-0.2247995,0.24643099999999998,0.918153,-0.2484095,-0.075484,0.002144,0.003832499999999999,0.075484,-0.002144,-0.003832500000000001,-0.125589,-0.408477,-0.07943549999999999,0.113431,-0.439947,-0.0711125,-0.13768899999999998,-0.7782570000000001,-0.07737350000000001,0.114791,-0.788227,-0.0978955
56,0.004791500000000001,0.7137505000000001,-0.027849500000000003,-0.1362245,0.5010005000000001,-0.0167575,-0.2141245,0.7175505,-0.1229795,0.1441855,0.4891205,-0.031629500000000005,0.22854549999999998,0.7038905000000001,-0.1465165,-0.23318450000000002,0.9184705000000001,-0.2406465,0.24610549999999998,0.9166305,-0.2644565,-0.07560349999999999,0.001955499999999999,0.0037164999999999976,0.07560349999999999,-0.001955499999999999,-0.003716500000000001,-0.1255345,-0.4042095,-0.08773550000000001,0.1140255,-0.4352595,-0.08139650000000001,-0.1375845,-0.7739395,-0.08575150000000001,0.1149655,-0.7833295,-0.1072775
57,0.0046720000000000025,0.711758,-0.038568000000000005,-0.136346,0.501278,-0.025355000000000003,-0.21356599999999998,0.711248,-0.133238,0.14313399999999998,0.48777800000000004,-0.041511000000000006,0.22749399999999997,0.6976180000000001,-0.15754800000000002,-0.23359600000000003,0.915398,-0.256198,0.24535399999999996,0.914548,-0.280328,-0.075667,0.0018159999999999982,0.0035169999999999993,0.075667,-0.0018159999999999982,-0.0035170000000000028,-0.125616,-0.39999199999999996,-0.09622700000000001,0.11470400000000001,-0.430212,-0.091496,-0.137606,-0.769112,-0.093776,0.11495400000000001,-0.778052,-0.116143
58,0.004346499999999996,0.7088990000000001,-0.049284,-0.1365665,0.500329,-0.034562,-0.2130265,0.7047490000000001,-0.144646,0.1419435,0.486459,-0.051946000000000006,0.2263335,0.6911390000000001,-0.170136,-0.2340265,0.9101790000000001,-0.271626,0.2446835,0.910239,-0.296226,-0.0759395,0.001525000000000002,0.003354999999999997,0.0759395,-0.001525000000000002,-0.003355000000000004,-0.1258965,-0.394101,-0.105463,0.11536349999999998,-0.423631,-0.102132,-0.13774650000000002,-0.762641,-0.102066,0.11481349999999999,-0.771071,-0.125303
59,0.004235999999999997,0.704627,-0.0612785,-0.13641,0.49951700000000004,-0.0448975,-0.21250000000000002,0.700757,-0.1577515,0.14095000000000002,0.48441700000000004,-0.0635145,0.22543000000000002,0.686537,-0.18431150000000002,-0.23364000000000001,0.908287,-0.2898715,0.24453999999999998,0.907717,-0.31521150000000003,-0.076046,0.0012819999999999984,0.002960500000000005,0.076046,-0.0012820000000000019,-0.002960499999999998,-0.12623,-0.384953,-0.1168915,0.11649,-0.414483,-0.1143245,-0.13768999999999998,-0.753553,-0.1118245,0.11485,-0.761923,-0.1349505
60,0.004374000000000003,0.7006955,-0.07354,-0.13625700000000002,0.4988255,-0.055591,-0.211907,0.6953855,-0.171599,0.13983299999999999,0.4824555,-0.075227,0.22531299999999999,0.6844555,-0.199829,-0.233437,0.9011355000000001,-0.308439,0.24440299999999998,0.9006855,-0.333419,-0.076125,0.0011795,0.002456,0.076125,-0.0011795,-0.002456,-0.126857,-0.37452450000000004,-0.129663,0.117773,-0.4040945,-0.127095,-0.137617,-0.7434744999999999,-0.122005,0.114993,-0.7514244999999999,-0.144502
61,0.004255500000000002,0.69759,-0.0900155,-0.1360985,0.49734,-0.0710755,-0.2114585,0.69091,-0.1902845,0.13897150000000003,0.47996,-0.0909375,0.2249715,0.6798700000000001,-0.2197145,-0.23331849999999998,0.89739,-0.3310345,0.2441915,0.89131,-0.35505450000000005,-0.0761415,0.001067,0.002189499999999997,0.0761415,-0.001067,-0.002189499999999997,-0.12755850000000002,-0.36246,-0.1469635,0.1190115,-0.39131,-0.1439185,-0.13744849999999997,-0.7313799999999999,-0.1358335,0.11497149999999999,-0.7391,-0.1578345
62,0.004168499999999999,0.694376,-0.10657250000000001,-0.1354225,0.492836,-0.08657550000000001,-0.2108325,0.685076,-0.2088065,0.1376775,0.478436,-0.1067275,0.2246075,0.677626,-0.23951650000000002,-0.2332225,0.894966,-0.3544565,0.24393749999999997,0.884626,-0.3767865,-0.0762875,0.000732,0.0019364999999999938,0.0762875,-0.000732,-0.0019365000000000077,-0.1284325,-0.346154,-0.1665345,0.12127750000000001,-0.371134,-0.1633155,-0.1372625,-0.717264,-0.14981650000000002,0.11439750000000001,-0.723684,-0.17114050000000003
63,0.0037704999999999995,0.6910105,-0.1232765,-0.1350285,0.4888905,-0.1023125,-0.2103785,0.6778905,-0.22733750000000003,0.1360615,0.4776005,-0.1226015,0.22372150000000002,0.6731405,-0.2589575,-0.2335785,0.8881305,-0.3775775,0.2434215,0.8766705,-0.3989375,-0.07640949999999999,0.00041949999999999973,0.0016125000000000028,0.07640949999999999,-0.00041949999999999973,-0.0016125000000000028,-0.1296385,-0.3296695,-0.1862145,0.1232315,-0.3507295,-0.1824575,-0.1374685,-0.7020895,-0.1636265,0.11345150000000001,-0.7074095,-0.18455549999999998
64,0.0034434999999999986,0.687015,-0.139869,-0.13440950000000002,0.48334499999999997,-0.11838199999999999,-0.2098895,0.672155,-0.245975,0.1341805,0.473515,-0.13906,0.22286050000000002,0.668875,-0.279275,-0.23400949999999998,0.8766849999999999,-0.39863499999999996,0.2430105,0.866275,-0.420365,-0.0764505,0.00010900000000000493,0.0012250000000000039,0.0764505,-0.00010899999999999799,-0.00122499999999999,-0.1306795,-0.312415,-0.205635,0.1252705,-0.329645,-0.201309,-0.1373795,-0.685835,-0.176784,0.11251049999999999,-0.689825,-0.197848
65,0.0031050000000000036,0.6834105,-0.155822,-0.133938,0.47849050000000004,-0.133432,-0.209548,0.6653005,-0.264085,0.132632,0.47121050000000003,-0.154329,0.22187199999999999,0.6630505,-0.298735,-0.234328,0.8644105,-0.419865,0.242572,0.8554005,-0.440655,-0.07655300000000001,-0.00027850000000000097,0.0010550000000000004,0.07655300000000001,0.00027850000000000097,-0.0010550000000000004,-0.13183799999999998,-0.2973395,-0.224225,0.127322,-0.3105795,-0.219509,-0.137258,-0.6711095,-0.190026,0.111732,-0.6730794999999999,-0.209778
66,0.0028505000000000023,0.6767249999999999,-0.173264,-0.1333695,0.472055,-0.150169,-0.2093795,0.656785,-0.28369500000000003,0.1310805,0.467295,-0.170866,0.2210205,0.657175,-0.319565,-0.23470950000000002,0.8537349999999999,-0.444095,0.2423205,0.844745,-0.464135,-0.0765885,-0.0005860000000000032,0.0007850000000000079,0.0765885,0.0005859999999999893,-0.0007850000000000079,-0.1329195,-0.27983500000000006,-0.243555,0.12952049999999998,-0.289115,-0.238785,-0.1370095,-0.653965,-0.203843,0.11113050000000001,-0.6535650000000001,-0.22236699999999998
67,0.0027000000000000027,0.6713610000000001,-0.18992599999999998,-0.132991,0.46713099999999996,-0.16600499999999999,-0.209231,0.6481910000000001,-0.30208999999999997,0.129949,0.46342099999999997,-0.186743,0.219859,0.6502410000000001,-0.33863,-0.23463099999999998,0.846341,-0.46768,0.24210900000000002,0.8347910000000001,-0.48709,-0.076657,-0.0007790000000000019,0.0005000000000000004,0.076657,0.0007790000000000019,-0.0005000000000000004,-0.134041,-0.262309,-0.26178999999999997,0.131659,-0.267389,-0.25707,-0.136721,-0.636679,-0.216636,0.11057900000000001,-0.634199,-0.234456
68,0.0024975000000000015,0.668005,-0.204992,-0.1330625,0.461545,-0.180757,-0.2093125,0.641035,-0.31898000000000004,0.1286775,0.458735,-0.20152,0.21849749999999998,0.644265,-0.35591,-0.2347625,0.835755,-0.48747,0.24162749999999997,0.824855,-0.50715,-0.07668549999999999,-0.0008549999999999947,0.00031999999999998696,0.07668549999999999,0.0008550000000000085,-0.00031999999999998696,-0.1354025,-0.244835,-0.27807,0.1333675,-0.24576499999999998,-0.2738,-0.1365625,-0.6191650000000001,-0.228405,0.1098075,-0.614695,-0.24557099999999998
69,0.002275499999999998,0.663825,-0.219115,-0.1330915,0.45547499999999996,-0.195154,-0.2095215,0.634965,-0.33552000000000004,0.12716850000000002,0.453945,-0.215927,0.21683850000000002,0.636495,-0.37242,-0.2353015,0.831035,-0.50641,0.24076850000000002,0.818465,-0.5271399999999999,-0.07676949999999999,-0.0010450000000000181,6.0000000000004494e-05,0.07676949999999999,0.0010449999999999904,-6.0000000000004494e-05,-0.1366715,-0.22686500000000004,-0.29268,0.1348085,-0.224895,-0.28923,-0.1365315,-0.601875,-0.239503,0.10892850000000001,-0.595755,-0.255947
70,0.002231500000000001,0.65751,-0.22782200000000002,-0.1330725,0.44874,-0.204013,-0.2096725,0.62788,-0.347015,0.1257875,0.44974000000000003,-0.22459,0.2155375,0.6315,-0.38365499999999997,-0.23565250000000001,0.81657,-0.520335,0.2400175,0.81293,-0.542645,-0.0767295,-0.0013299999999999979,-0.0002550000000000052,0.0767295,0.0013299999999999979,0.0002550000000000052,-0.1377725,-0.21021,-0.301955,0.1364375,-0.20617999999999997,-0.299365,-0.1360025,-0.58536,-0.244996,0.10829749999999999,-0.57812,-0.260764
71,0.0025649999999999996,0.6517000000000001,-0.236185,-0.13292199999999998,0.44469000000000003,-0.212351,-0.209692,0.62091,-0.358325,0.125008,0.44462,-0.232658,0.214388,0.62323,-0.39437500000000003,-0.235502,0.80108,-0.532975,0.23944800000000002,0.80325,-0.557795,-0.076756,-0.0014099999999999946,-0.0005050000000000054,0.076756,0.0014099999999999946,0.0005050000000000054,-0.138632,-0.19448000000000001,-0.308535,0.137148,-0.19044999999999998,-0.306685,-0.135372,-0.57018,-0.249636,0.108278,-0.56239,-0.265345
72,0.0025640000000000038,0.64595,-0.244141,-0.132805,0.44032000000000004,-0.22025799999999998,-0.209815,0.61634,-0.369505,0.12420500000000001,0.4384,-0.240595,0.213125,0.61769,-0.404455,-0.235855,0.7896500000000001,-0.5452250000000001,0.238475,0.79481,-0.571805,-0.07678499999999999,-0.0013900000000000023,-0.0006749999999999812,0.07678499999999999,0.0013900000000000023,0.0006750000000000089,-0.139635,-0.17833000000000002,-0.314775,0.137715,-0.17429999999999998,-0.31388499999999997,-0.135035,-0.5543899999999999,-0.254455,0.10828499999999999,-0.54621,-0.269547
73,0.002570000000000001,0.6409849999999999,-0.251385,-0.132656,0.43666499999999997,-0.227497,-0.21001599999999998,0.6110249999999999,-0.38060499999999997,0.123794,0.434685,-0.247422,0.211814,0.609765,-0.413995,-0.236336,0.782205,-0.5581849999999999,0.237294,0.787615,-0.5857950000000001,-0.076818,-0.0013450000000000129,-0.0006750000000000089,0.076818,0.001344999999999985,0.0006749999999999812,-0.14073599999999997,-0.16279500000000002,-0.320615,0.13817400000000002,-0.158765,-0.320595,-0.134726,-0.539115,-0.258745,0.108304,-0.530665,-0.27362
74,0.0024370000000000034,0.634975,-0.258729,-0.13353399999999999,0.432985,-0.23475700000000002,-0.210744,0.604205,-0.39117500000000005,0.122936,0.429885,-0.254235,0.210256,0.602455,-0.42318500000000003,-0.23660399999999998,0.773995,-0.569985,0.235786,0.779165,-0.6001449999999999,-0.076888,-0.0011950000000000016,-0.0007350000000000134,0.076888,0.0011950000000000016,0.0007349999999999857,-0.141984,-0.15188500000000002,-0.326185,0.138266,-0.147105,-0.326875,-0.134714,-0.525535,-0.26302400000000004,0.108076,-0.515705,-0.27781900000000004
75,0.002084999999999995,0.6305149999999999,-0.264894,-0.134269,0.429535,-0.241346,-0.211609,0.599565,-0.40104,0.12218100000000001,0.426205,-0.260457,0.208821,0.595765,-0.43138,-0.23671899999999998,0.764905,-0.58098,0.234201,0.769565,-0.61207,-0.076925,-0.0011549999999999894,-0.0006200000000000094,0.076925,0.0011550000000000171,0.0006200000000000094,-0.143119,-0.14081499999999997,-0.33094999999999997,0.138261,-0.13520500000000002,-0.33213000000000004,-0.134679,-0.5123249999999999,-0.266899,0.10794099999999998,-0.500985,-0.281612
76,0.0017649999999999992,0.62574,-0.270416,-0.13506100000000001,0.42549000000000003,-0.24718199999999999,-0.21291100000000002,0.59429,-0.41022000000000003,0.12142899999999998,0.42239000000000004,-0.26581299999999997,0.20762899999999998,0.58928,-0.43889999999999996,-0.236591,0.75491,-0.59197,0.232519,0.7603,-0.62295,-0.076926,-0.0011400000000000021,-0.0005399999999999849,0.076926,0.0011400000000000021,0.0005400000000000127,-0.144191,-0.13024999999999998,-0.33491,0.138289,-0.12359999999999999,-0.33665,-0.134661,-0.49978,-0.27076999999999996,0.107959,-0.48714999999999997,-0.284591
77,0.0014200000000000029,0.620225,-0.275797,-0.135904,0.42127500000000007,-0.252838,-0.21398399999999998,0.5884750000000001,-0.41991500000000004,0.11927600000000002,0.41964500000000005,-0.271345,0.20638600000000001,0.581195,-0.445805,-0.236764,0.7451450000000001,-0.6026050000000001,0.230666,0.7509250000000001,-0.633685,-0.076927,-0.0014949999999999686,-0.00033500000000000196,0.076927,0.001495000000000024,0.00033500000000000196,-0.145314,-0.11968499999999999,-0.33860500000000004,0.13831600000000002,-0.11234499999999997,-0.34091499999999997,-0.13464399999999999,-0.487835,-0.274527,0.10791600000000001,-0.47443499999999994,-0.287307
78,0.0016810000000000002,0.61502,-0.281122,-0.136273,0.41795,-0.25781299999999996,-0.214853,0.58197,-0.42884999999999995,0.11723700000000001,0.41708999999999996,-0.27643799999999996,0.205647,0.5746100000000001,-0.45172,-0.236483,0.73309,-0.6144099999999999,0.22892700000000002,0.74163,-0.64398,-0.07694599999999999,-0.0015800000000000258,-6.999999999998674e-05,0.07694599999999999,0.0015799999999999703,7.00000000000145e-05,-0.14610299999999998,-0.10938999999999999,-0.34199,0.138637,-0.10208,-0.34502,-0.134303,-0.47621,-0.27853399999999995,0.10824700000000001,-0.46215000000000006,-0.290162
79,0.0020225,0.609715,-0.286428,-0.1360945,0.414605,-0.262813,-0.21526450000000003,0.5735049999999999,-0.43709,0.1154755,0.413415,-0.280952,0.20502550000000003,0.565635,-0.45731,-0.23590450000000002,0.724375,-0.62618,0.2269355,0.7307049999999999,-0.6543100000000001,-0.0772475,-0.001375000000000015,0.0002600000000000102,0.0772475,0.001375000000000015,-0.0002600000000000102,-0.1465845,-0.09701500000000002,-0.34472,0.1392755,-0.090565,-0.34845000000000004,-0.1334845,-0.46272500000000005,-0.280551,0.1090455,-0.44796500000000006,-0.292072
80,0.0027590000000000028,0.60556,-0.291039,-0.13561099999999998,0.41237,-0.267269,-0.21569100000000002,0.56646,-0.445055,0.113889,0.41035,-0.284745,0.20458900000000002,0.55826,-0.46208499999999997,-0.235151,0.71374,-0.637945,0.22506900000000002,0.72029,-0.6633450000000001,-0.077558,-0.0010999999999999899,0.0004750000000000032,0.077558,0.0010999999999999899,-0.0004750000000000032,-0.14699099999999998,-0.08444000000000002,-0.346735,0.139969,-0.07855000000000001,-0.350935,-0.132961,-0.44881000000000004,-0.28237999999999996,0.10950900000000001,-0.43344000000000005,-0.292583
81,0.0032359999999999976,0.5999000000000001,-0.294691,-0.135298,0.40877,-0.271465,-0.216418,0.5581900000000001,-0.45254,0.11141199999999998,0.40654900000000005,-0.288209,0.20435199999999998,0.5504500000000001,-0.46752000000000005,-0.234078,0.70391,-0.64735,0.223332,0.70888,-0.67134,-0.077953,-0.0010099999999999554,0.0007699999999999929,0.077953,0.0010100000000000109,-0.0007699999999999929,-0.147658,-0.07134999999999997,-0.34834,0.140622,-0.06577999999999995,-0.3528,-0.132598,-0.43428999999999995,-0.284177,0.109872,-0.41835999999999995,-0.29354199999999997
82,0.0034045000000000047,0.5946100000000001,-0.29776400000000003,-0.1347075,0.40600600000000003,-0.274999,-0.2170775,0.54944,-0.45854,0.1091125,0.403388,-0.291142,0.2044125,0.5448,-0.47215,-0.2332475,0.69489,-0.65828,0.2219625,0.69949,-0.6781699999999999,-0.0783555,-0.0008499999999999619,0.0010499999999999954,0.0783555,0.0008500000000000174,-0.0010500000000000231,-0.1481675,-0.05793999999999999,-0.34965,0.1414525,-0.052639999999999965,-0.35406000000000004,-0.13229749999999998,-0.41964,-0.285908,0.1104225,-0.40317000000000003,-0.293819
83,0.0033799999999999976,0.59048,-0.30022699999999997,-0.13376,0.40302,-0.27802699999999997,-0.21733999999999998,0.54248,-0.46429499999999996,0.10708,0.40094799999999997,-0.293697,0.20493,0.5395099999999999,-0.476255,-0.23210999999999998,0.68577,-0.667685,0.22092,0.69143,-0.684105,-0.078607,-0.0008199999999999874,0.0010450000000000181,0.078607,0.0008199999999999874,-0.0010449999999999904,-0.14850000000000002,-0.04460000000000003,-0.35096499999999997,0.14248,-0.039470000000000005,-0.35529499999999997,-0.13174,-0.40502,-0.287512,0.11117,-0.38828999999999997,-0.29382699999999995
84,0.0031805000000000028,0.58762,-0.302632,-0.1327665,0.40111600000000003,-0.280339,-0.21752649999999998,0.53619,-0.46897500000000003,0.1050035,0.39945600000000003,-0.29601299999999997,0.2055635,0.5345300000000001,-0.479865,-0.2309565,0.67669,-0.674235,0.2200435,0.6853500000000001,-0.689015,-0.0788315,-0.0007599999999999829,0.0010449999999999904,0.0788315,0.0007600000000000384,-0.0010449999999999904,-0.14872649999999998,-0.03254999999999997,-0.352535,0.1435935,-0.02773999999999993,-0.356915,-0.1309465,-0.39193,-0.28916,0.1118235,-0.3752399999999999,-0.293904
85,0.002986000000000001,0.5851000000000001,-0.30462,-0.131628,0.39971700000000004,-0.282537,-0.21745799999999998,0.53066,-0.47319500000000003,0.103492,0.39829100000000006,-0.298114,0.20653200000000002,0.53074,-0.482545,-0.229628,0.66879,-0.679895,0.219112,0.68089,-0.692775,-0.07905300000000001,-0.0005999999999999894,0.0010550000000000004,0.07905300000000001,0.0006000000000000449,-0.0010550000000000004,-0.148938,-0.020459999999999978,-0.354265,0.14472200000000002,-0.016609999999999958,-0.35890500000000003,-0.130278,-0.37942,-0.290334,0.112402,-0.36319,-0.294018
86,0.0027154999999999983,0.583155,-0.306201,-0.1305215,0.39864299999999997,-0.284779,-0.21714150000000002,0.5264949999999999,-0.47619,0.1035485,0.39743799999999996,-0.299583,0.2076185,0.5284249999999999,-0.48482,-0.2285215,0.663075,-0.6836599999999999,0.2181885,0.677565,-0.69465,-0.0792735,-0.0003250000000000197,0.0014100000000000223,0.0792735,0.0003249999999999642,-0.0014099999999999946,-0.1490615,-0.007895000000000041,-0.35553999999999997,0.1457385,-0.004515000000000047,-0.36039999999999994,-0.1296115,-0.36656500000000003,-0.29120999999999997,0.1129785,-0.35031500000000004,-0.29268099999999997
87,0.002555,0.5815600000000001,-0.306709,-0.12933,0.39773200000000003,-0.286383,-0.21636,0.52332,-0.47798,0.10397,0.39616,-0.300316,0.20881,0.5268900000000001,-0.486,-0.22733,0.65891,-0.68518,0.21781,0.67516,-0.6954100000000001,-0.079423,-0.00015999999999999348,0.0018099999999999783,0.079423,0.00015999999999999348,-0.001810000000000006,-0.14906,0.005060000000000009,-0.35592,0.14694,0.008599999999999997,-0.36107,-0.12886,-0.35421,-0.291259,0.11371,-0.33716999999999997,-0.29066000000000003
88,0.0018185000000000041,0.58103,-0.306425,-0.12849549999999998,0.39831,-0.287154,-0.21612549999999997,0.52185,-0.4796,0.1040345,0.397602,-0.30080799999999996,0.20950449999999998,0.52717,-0.48658999999999997,-0.2267055,0.65883,-0.6853,0.21754450000000003,0.67515,-0.69464,-0.0794445,-0.00039000000000000146,0.002239999999999992,0.0794445,0.00039000000000000146,-0.002239999999999992,-0.14940549999999997,0.015300000000000036,-0.35597999999999996,0.1475645,0.018990000000000007,-0.36148,-0.12871549999999998,-0.34471,-0.291323,0.11375450000000001,-0.32720999999999995,-0.28865399999999997
89,0.0010625000000000044,0.57904,-0.30541799999999997,-0.1271785,0.397204,-0.287372,-0.21577849999999998,0.52019,-0.48014500000000004,0.1039515,0.39769000000000004,-0.300904,0.2101015,0.52712,-0.486665,-0.2263285,0.6587000000000001,-0.684165,0.21742150000000002,0.6755,-0.693505,-0.0793865,-0.0005600000000000049,0.002585000000000004,0.0793865,0.0005600000000000049,-0.002585000000000004,-0.1497885,0.02509,-0.35589499999999996,0.1480715,0.02865000000000001,-0.361585,-0.1288485,-0.33584,-0.29098,0.1139415,-0.31740999999999997,-0.286064
90,0.0003400000000000059,0.57883,-0.30417,-0.12595,0.396731,-0.286791,-0.21545999999999998,0.519323,-0.47948,0.10436000000000001,0.39847299999999997,-0.300152,0.21073000000000003,0.52755,-0.48536999999999997,-0.22608,0.65886,-0.68296,0.21733000000000002,0.67706,-0.6922200000000001,-0.079276,-0.0006400000000000294,0.002920000000000006,0.079276,0.0006399999999999739,-0.002920000000000006,-0.14997,0.03282999999999997,-0.35529,0.14854,0.03637000000000001,-0.36118,-0.12904,-0.32904,-0.29064,0.11427000000000001,-0.31008,-0.28500000000000003
91,0.00015949999999999992,0.5791200000000001,-0.302943,-0.1250005,0.39663000000000004,-0.285836,-0.21533049999999998,0.520198,-0.47824999999999995,0.1047495,0.39948300000000003,-0.29906699999999997,0.2116595,0.528784,-0.48414,-0.2260005,0.6604800000000001,-0.68138,0.21733950000000002,0.67917,-0.69035,-0.0791685,-0.0005199999999999649,0.0031200000000000117,0.0791685,0.0005200000000000204,-0.0031200000000000117,-0.1501205,0.03914000000000001,-0.35450000000000004,0.1490195,0.04303000000000001,-0.36065,-0.1285705,-0.3230799999999999,-0.288528,0.1141895,-0.30408,-0.283729
92,0.000590499999999999,0.58,-0.302033,-0.1240765,0.397059,-0.285018,-0.2151565,0.521873,-0.47735,0.1052135,0.400103,-0.298157,0.2126635,0.5305139999999999,-0.48323,-0.2256565,0.663,-0.68047,0.2177935,0.68174,-0.68867,-0.0790675,-0.00023000000000000798,0.0033299999999999996,0.0790675,0.00022999999999995246,-0.0033299999999999996,-0.1501465,0.04415999999999998,-0.35412,0.1495535,0.048329999999999984,-0.36017,-0.1289265,-0.31795000000000007,-0.288095,0.1141835,-0.29968000000000006,-0.283547
93,0.0010039999999999962,0.5816250000000001,-0.301548,-0.12337300000000001,0.397517,-0.284531,-0.21503300000000003,0.524086,-0.475815,0.105847,0.400653,-0.297671,0.21353699999999998,0.53273,-0.482255,-0.225503,0.6658649999999999,-0.679485,0.21820699999999998,0.684895,-0.6878249999999999,-0.078901,1.4999999999987246e-05,0.003405000000000019,0.078901,-1.4999999999987246e-05,-0.0034049999999999914,-0.15013300000000002,0.04763499999999998,-0.354095,0.150007,0.05190499999999998,-0.359915,-0.12977300000000003,-0.31444500000000003,-0.28847,0.114207,-0.29706499999999997,-0.283973
94,0.0011409999999999975,0.582995,-0.30047,-0.123263,0.39888700000000005,-0.283943,-0.21507300000000001,0.525456,-0.47414,0.106297,0.402023,-0.29709399999999997,0.214237,0.5341,-0.48083,-0.225723,0.667235,-0.67808,0.218337,0.686265,-0.68599,-0.078708,0.00016500000000002624,0.003170000000000006,0.078708,-0.00016499999999997073,-0.003170000000000006,-0.15042300000000003,0.048975000000000046,-0.35448,0.15019700000000002,0.05327500000000002,-0.3599,-0.13087300000000002,-0.313075,-0.287902,0.113957,-0.29639499999999996,-0.284623
95,0.0011729999999999998,0.582995,-0.299306,-0.12343599999999999,0.39888700000000005,-0.283505,-0.21521600000000002,0.525456,-0.47214,0.10686399999999999,0.402023,-0.296631,0.215084,0.5341,-0.47928000000000004,-0.226216,0.667235,-0.67619,0.218464,0.686265,-0.68373,-0.07866100000000001,0.00016500000000002624,0.002950000000000008,0.07866100000000001,-0.00016499999999997073,-0.002950000000000008,-0.150756,0.048975000000000046,-0.3549,0.150334,0.05327500000000002,-0.36012,-0.131976,-0.312925,-0.287568,0.113924,-0.29700499999999996,-0.284947
96,0.0015104999999999982,0.582995,-0.29808599999999996,-0.1234375,0.39888700000000005,-0.283262,-0.2149675,0.525456,-0.470195,0.10748250000000001,0.402023,-0.29592,0.21600250000000001,0.5341,-0.477305,-0.2268975,0.667235,-0.673665,0.21900250000000002,0.686265,-0.6810350000000001,-0.0786595,0.00016500000000002624,0.002725000000000005,0.0786595,-0.00016499999999997073,-0.002725000000000005,-0.1509775,0.048975000000000046,-0.355175,0.1504625,0.05327500000000002,-0.36038499999999996,-0.1330775,-0.312605,-0.28734899999999997,0.1135225,-0.29737499999999994,-0.28416600000000003
97,0.0017694999999999963,0.5837950000000001,-0.296913,-0.12352250000000001,0.39894900000000005,-0.28241499999999997,-0.2147625,0.5280790000000001,-0.468015,0.10831749999999998,0.402984,-0.294855,0.2167175,0.535181,-0.475745,-0.2277225,0.668765,-0.670355,0.2198475,0.687435,-0.677805,-0.07857449999999999,0.00016500000000002624,0.0025550000000000017,0.07857449999999999,-0.00016499999999997073,-0.0025550000000000017,-0.1510525,0.04938500000000001,-0.355295,0.1507075,0.05297500000000005,-0.360315,-0.1340925,-0.31225499999999995,-0.286638,0.11311750000000001,-0.297265,-0.283184
98,0.0023265000000000013,0.587185,-0.29591,-0.12358250000000001,0.401103,-0.281047,-0.2151325,0.531347,-0.465575,0.1092275,0.404833,-0.293697,0.21785749999999998,0.538391,-0.473525,-0.2284625,0.671115,-0.667395,0.2210675,0.691805,-0.675845,-0.07845450000000001,0.0005749999999999922,0.002595000000000014,0.07845450000000001,-0.0005749999999999922,-0.002594999999999986,-0.1510425,0.04799500000000001,-0.355255,0.1509975,0.05060500000000001,-0.360175,-0.13513250000000002,-0.313345,-0.286383,0.11272750000000001,-0.29859500000000005,-0.282601
99,0.0026299999999999974,0.59003,-0.29435,-0.124108,0.401197,-0.279484,-0.215408,0.535949,-0.462435,0.11024199999999999,0.40452400000000005,-0.292218,0.218642,0.5414300000000001,-0.471055,-0.22943799999999998,0.6733,-0.664435,0.222132,0.69603,-0.673155,-0.078337,0.0005600000000000049,0.002595000000000014,0.078337,-0.0005599999999999494,-0.002594999999999986,-0.151188,0.04387000000000002,-0.355045,0.150602,0.04535000000000006,-0.359565,-0.13589800000000002,-0.31689999999999996,-0.285832,0.112262,-0.3028799999999999,-0.282392
100,0.0028604999999999976,0.59477,-0.292902,-0.1245895,0.402725,-0.277441,-0.2158395,0.54044,-0.45892999999999995,0.1113605,0.404669,-0.290723,0.2198005,0.5465099999999999,-0.46853,-0.2306395,0.6799299999999999,-0.66048,0.2236505,0.70201,-0.67029,-0.0782085,0.0007499999999999729,0.002590000000000009,0.0782085,-0.0007500000000000284,-0.002590000000000009,-0.1513295,0.03695999999999999,-0.35479,0.1500505,0.03839999999999999,-0.35894000000000004,-0.1367095,-0.32275,-0.285206,0.1119605,-0.30937000000000003,-0.282235
101,0.0032210000000000025,0.601495,-0.290909,-0.125444,0.405887,-0.27487,-0.216154,0.547295,-0.454495,0.11291600000000002,0.40642,-0.288565,0.220986,0.551365,-0.46540499999999996,-0.231814,0.6875249999999999,-0.655685,0.225416,0.709085,-0.666185,-0.07803099999999999,0.0009549999999999836,0.002354999999999996,0.07803099999999999,-0.0009550000000000392,-0.002354999999999996,-0.151524,0.026874999999999982,-0.35480500000000004,0.149606,0.028044999999999987,-0.358345,-0.137204,-0.331785,-0.283988,0.111566,-0.31972500000000004,-0.282828
102,0.004174499999999993,0.60985,-0.288427,-0.1261025,0.40949800000000003,-0.271497,-0.2160025,0.55598,-0.44912,0.11606749999999999,0.40972800000000004,-0.28545600000000004,0.2224175,0.55822,-0.46123000000000003,-0.23242250000000003,0.69823,-0.6508400000000001,0.2291475,0.7181,-0.6607700000000001,-0.0778055,0.0010200000000000209,0.0019899999999999918,0.0778055,-0.0010199999999999654,-0.0019900000000000195,-0.15109250000000002,0.012330000000000008,-0.3547,0.1492575,0.013190000000000035,-0.35759,-0.1374225,-0.34526,-0.282844,0.1113975,-0.33458,-0.28274
103,0.005394,0.616665,-0.28504300000000005,-0.126144,0.41312,-0.26777,-0.215434,0.564175,-0.444415,0.119586,0.41198999999999997,-0.281934,0.224346,0.564245,-0.45637500000000003,-0.232724,0.707185,-0.6432249999999999,0.233226,0.7254149999999999,-0.654325,-0.07761,0.0009449999999999736,0.0016049999999999953,0.07761,-0.0009450000000000292,-0.001605000000000023,-0.150364,-0.004605000000000026,-0.353815,0.149156,-0.004205000000000014,-0.356625,-0.137204,-0.3618950000000001,-0.281158,0.111636,-0.351785,-0.282227
104,0.005896500000000004,0.623675,-0.281103,-0.1265455,0.416848,-0.26339999999999997,-0.21532549999999998,0.572005,-0.439115,0.1225745,0.415441,-0.277537,0.2255345,0.570785,-0.45108499999999996,-0.2337955,0.714615,-0.633685,0.2372745,0.7339450000000001,-0.646945,-0.07723250000000001,0.0006749999999999812,0.0011550000000000171,0.07723250000000001,-0.0006749999999999812,-0.0011549999999999894,-0.1498255,-0.023494999999999988,-0.352325,0.14848450000000002,-0.023104999999999987,-0.355005,-0.1371155,-0.38113499999999995,-0.27890299999999996,0.1114745,-0.371245,-0.281211
105,0.006312000000000005,0.630565,-0.276408,-0.127026,0.421335,-0.25817100000000004,-0.21499600000000002,0.5787450000000001,-0.43185,0.125554,0.418578,-0.272227,0.22659400000000002,0.577975,-0.44514,-0.23482599999999998,0.7229350000000001,-0.62317,0.240894,0.7426550000000001,-0.63888,-0.077015,0.0007150000000000212,0.0006999999999999784,0.077015,-0.0007149999999999657,-0.0007000000000000062,-0.149356,-0.043934999999999946,-0.35017,0.147534,-0.043574999999999975,-0.35262000000000004,-0.13722600000000001,-0.402045,-0.276393,0.11102400000000001,-0.39224499999999995,-0.279056
106,0.0067265,0.63693,-0.27072399999999996,-0.1275495,0.42602000000000007,-0.25310499999999997,-0.2143495,0.5869,-0.42449000000000003,0.1277505,0.418036,-0.267097,0.22788049999999999,0.58721,-0.43871,-0.2358095,0.7371800000000001,-0.61189,0.24411049999999998,0.75305,-0.63074,-0.07695450000000001,0.0011200000000000099,0.0002500000000000002,0.07695450000000001,-0.0011199999999999544,-0.0002500000000000002,-0.1488795,-0.06393999999999994,-0.34778,0.1462905,-0.06365999999999994,-0.34979,-0.1377095,-0.42289999999999994,-0.274013,0.1107205,-0.41308,-0.277112
107,0.007353,0.64457,-0.263158,-0.12783,0.43183,-0.24582600000000002,-0.21349,0.59724,-0.41547,0.13027,0.42253,-0.259687,0.22948000000000002,0.59658,-0.42939,-0.23612,0.7524500000000001,-0.59955,0.24763000000000002,0.7654799999999999,-0.61885,-0.076998,0.0007300000000000084,7.999999999999674e-05,0.076998,-0.0007300000000000084,-7.999999999999674e-05,-0.14801999999999998,-0.08594000000000002,-0.34333,0.14487,-0.08627000000000001,-0.34471,-0.13766,-0.44731,-0.269531,0.11076,-0.43694,-0.273421
108,0.008038000000000002,0.651695,-0.255133,-0.127954,0.437685,-0.237932,-0.212564,0.605375,-0.40556000000000003,0.13258599999999998,0.427675,-0.25180800000000003,0.231296,0.6052649999999999,-0.41936,-0.236394,0.7664150000000001,-0.5857399999999999,0.251136,0.776555,-0.60622,-0.07691600000000001,0.0009750000000000036,-0.00015000000000001124,0.07691600000000001,-0.0009750000000000036,0.00014999999999998348,-0.147034,-0.10735499999999998,-0.33751,0.143426,-0.10827500000000001,-0.33868,-0.137474,-0.471855,-0.26435200000000003,0.11083599999999999,-0.46126500000000004,-0.268974
109,0.008836999999999998,0.659535,-0.244784,-0.127916,0.443175,-0.228739,-0.21196600000000002,0.616645,-0.39285000000000003,0.134674,0.432615,-0.242532,0.23258399999999999,0.614255,-0.4077,-0.237266,0.776535,-0.5679,0.254224,0.7903249999999999,-0.58975,-0.07691500000000001,0.0011250000000000149,-0.00026999999999999247,0.07691500000000001,-0.0011249999999999871,0.00026999999999999247,-0.14602600000000002,-0.12899499999999997,-0.32989999999999997,0.141544,-0.13055499999999998,-0.33057000000000003,-0.137496,-0.49713499999999994,-0.257612,0.11077400000000001,-0.486945,-0.263185
110,0.010264499999999998,0.666385,-0.23227899999999999,-0.1273385,0.449805,-0.217131,-0.2120585,0.624665,-0.37604499999999996,0.13701149999999998,0.438315,-0.231067,0.2342215,0.624775,-0.393395,-0.23798850000000002,0.7941250000000001,-0.548805,0.25748150000000003,0.803875,-0.571555,-0.0769135,0.0011750000000000094,-0.00026499999999998747,0.0769135,-0.0011750000000000094,0.0002650000000000152,-0.14434850000000002,-0.15140499999999998,-0.320215,0.1400315,-0.152705,-0.320575,-0.1371385,-0.523405,-0.248637,0.11109150000000001,-0.5137849999999999,-0.25569
111,0.011411000000000003,0.67353,-0.219192,-0.126937,0.45613,-0.205101,-0.211597,0.63104,-0.35828000000000004,0.138003,0.44232,-0.21952000000000002,0.235843,0.63455,-0.37911,-0.23816700000000002,0.8069200000000001,-0.52711,0.259073,0.81654,-0.5528500000000001,-0.076814,0.0014200000000000046,-0.000130000000000019,0.076814,-0.0014200000000000046,0.00012999999999999123,-0.142707,-0.17043999999999998,-0.3099,0.138863,-0.17149999999999999,-0.31045,-0.136827,-0.5457700000000001,-0.239047,0.11135300000000001,-0.5373399999999999,-0.24782600000000002
112,0.012413500000000001,0.6817500000000001,-0.203817,-0.1263945,0.46421,-0.190612,-0.2110545,0.63859,-0.337515,0.1395655,0.44984,-0.205441,0.2380155,0.64514,-0.361475,-0.2389345,0.8225199999999999,-0.5051650000000001,0.2606955,0.8325800000000001,-0.532815,-0.0764355,0.0014300000000000146,0.00022500000000000298,0.0764355,-0.0014299999999999868,-0.00022500000000000298,-0.1409345,-0.19088,-0.297825,0.1377655,-0.19112,-0.298025,-0.1366845,-0.5694699999999999,-0.22792,0.1114555,-0.5620099999999999,-0.23873
113,0.013291500000000005,0.68906,-0.18846200000000002,-0.1259295,0.47121,-0.17626000000000003,-0.2108295,0.64669,-0.31624,0.1410505,0.45558000000000004,-0.19170900000000002,0.23998049999999999,0.6542000000000001,-0.34344,-0.2396695,0.83917,-0.4847,0.26151050000000003,0.84582,-0.51278,-0.07595350000000001,0.0016800000000000148,0.0005299999999999749,0.07595350000000001,-0.001679999999999987,-0.0005300000000000027,-0.1390295,-0.20916999999999997,-0.28556000000000004,0.1367905,-0.20932,-0.28547,-0.1365595,-0.591,-0.216756,0.11154050000000001,-0.5848199999999999,-0.229622
114,0.0142725,0.6977,-0.17325000000000002,-0.12541750000000002,0.47696,-0.162314,-0.21050750000000001,0.65627,-0.29669,0.1424825,0.46108,-0.17839300000000002,0.2416025,0.66227,-0.3254,-0.24043750000000003,0.8535699999999999,-0.46283,0.2623925,0.85771,-0.49191,-0.0753785,0.0016000000000000042,0.0009199999999999764,0.0753785,-0.0016000000000000042,-0.0009200000000000041,-0.1369975,-0.22557,-0.27308,0.1359625,-0.22594000000000003,-0.27302000000000004,-0.13640750000000001,-0.61042,-0.20586000000000002,0.1118525,-0.60597,-0.22021400000000002
115,0.015258500000000001,0.705784,-0.15670699999999999,-0.1248055,0.482074,-0.14643899999999999,-0.21025549999999998,0.664554,-0.275055,0.1439345,0.46843399999999996,-0.163066,0.2435645,0.668944,-0.30483499999999997,-0.2409755,0.8633339999999999,-0.43916499999999997,0.26349449999999996,0.869524,-0.468055,-0.0747415,0.0013159999999999977,0.0013050000000000006,0.0747415,-0.0013159999999999977,-0.0013050000000000006,-0.1345555,-0.242186,-0.258905,0.1351845,-0.243106,-0.258985,-0.1358255,-0.630146,-0.19355,0.1125545,-0.627736,-0.209223
116,0.015864,0.7120165,-0.141147,-0.12522,0.4851865,-0.132163,-0.21078000000000002,0.6711065,-0.25319,0.14484999999999998,0.4719665,-0.148924,0.24461,0.6754765,-0.28668,-0.24131999999999998,0.8718465,-0.41529,0.26435000000000003,0.8778465,-0.44571,-0.074128,0.001760500000000012,0.0014399999999999968,0.074128,-0.0017604999999999982,-0.0014399999999999968,-0.1325,-0.2623735,-0.24534999999999998,0.13428,-0.26341349999999997,-0.24602,-0.13579999999999998,-0.6497234999999999,-0.182465,0.11288,-0.6480535000000001,-0.199153
117,0.016316999999999998,0.7204005,-0.124639,-0.125813,0.4888705,-0.11737500000000001,-0.211413,0.6798005,-0.231225,0.14555700000000002,0.47670049999999997,-0.13389299999999998,0.245457,0.6843005,-0.266725,-0.242273,0.8828005000000001,-0.389015,0.265007,0.8887105,-0.42018500000000003,-0.07366600000000001,0.0017784999999999954,0.0019649999999999945,0.07366600000000001,-0.0017785000000000023,-0.0019649999999999945,-0.130823,-0.2809795,-0.23130499999999998,0.13325700000000001,-0.2820195,-0.232565,-0.136023,-0.6676795,-0.17092200000000002,0.11324699999999999,-0.6666595,-0.188456
118,0.016236000000000004,0.725717,-0.10457649999999999,-0.12673299999999998,0.49171699999999996,-0.09841449999999999,-0.212443,0.684927,-0.20687250000000001,0.145877,0.478657,-0.11505549999999999,0.245917,0.690257,-0.24242249999999999,-0.243283,0.8924869999999999,-0.3613425,0.265127,0.8942669999999999,-0.3921225,-0.073216,0.002002999999999998,0.002315500000000012,0.073216,-0.0020030000000000048,-0.002315499999999998,-0.12989299999999998,-0.297783,-0.2127525,0.13192700000000002,-0.29882299999999995,-0.2146325,-0.136543,-0.6844830000000001,-0.1562465,0.11333700000000001,-0.6836030000000001,-0.1736585
119,0.016020999999999997,0.7296145,-0.08501049999999999,-0.12756800000000001,0.4951845,-0.0801035,-0.213298,0.6923845000000001,-0.1848125,0.146522,0.4823945,-0.0967195,0.24669200000000002,0.6969345,-0.21871249999999998,-0.243558,0.8997845,-0.3335025,0.265532,0.8992445,-0.3625625,-0.072848,0.0022024999999999996,0.002426499999999998,0.072848,-0.0022024999999999996,-0.002426499999999998,-0.128688,-0.31270549999999997,-0.1922225,0.129632,-0.3166555,-0.1935225,-0.136868,-0.6994055,-0.1422435,0.113732,-0.6991755,-0.1592545
120,0.015559499999999997,0.7319225,-0.06590649999999999,-0.12852550000000001,0.49792250000000005,-0.0625265,-0.2143055,0.6999125,-0.1639855,0.1469345,0.48548250000000004,-0.07895849999999999,0.2474645,0.7031225,-0.19546249999999998,-0.2439855,0.9078725,-0.3075925,0.26586449999999995,0.9041825,-0.3336525,-0.0723235,0.002323500000000001,0.002543500000000004,0.0723235,-0.002323499999999999,-0.00254349999999999,-0.1279855,-0.3268875,-0.1720625,0.12738449999999998,-0.33429749999999997,-0.1725525,-0.1373855,-0.7134475,-0.1285265,0.1139245,-0.7140175,-0.1449535
121,0.0153125,0.73383,-0.049568999999999995,-0.1291045,0.49851999999999996,-0.047423999999999994,-0.21544449999999998,0.70619,-0.146034,0.14695550000000002,0.48564,-0.06382199999999999,0.24772550000000002,0.7083,-0.175567,-0.24405449999999998,0.91306,-0.283437,0.26634549999999996,0.9063,-0.306637,-0.0720875,0.0026040000000000004,0.002461000000000005,0.0720875,-0.0026039999999999995,-0.002460999999999998,-0.1271145,-0.33875,-0.153357,0.12547550000000002,-0.34907,-0.15348699999999998,-0.1375745,-0.72367,-0.11637,0.1143655,-0.72534,-0.13192199999999998
122,0.015090000000000003,0.7353175,-0.033349,-0.129872,0.5008575,-0.031903999999999995,-0.21710200000000002,0.7138074999999999,-0.12934600000000002,0.147078,0.48762750000000005,-0.048250999999999995,0.24801800000000002,0.7149975,-0.156179,-0.24474200000000002,0.9177274999999999,-0.258759,0.266908,0.9101374999999999,-0.280099,-0.071966,0.0027875,0.002385000000000005,0.071966,-0.0027875000000000005,-0.0023849999999999982,-0.126362,-0.3504025,-0.13475700000000002,0.123318,-0.3644325,-0.1341,-0.13767200000000002,-0.7339625000000001,-0.10413,0.11483800000000001,-0.7368525,-0.119197
123,0.014914499999999997,0.735013,-0.017329999999999998,-0.1306495,0.503553,-0.016633999999999996,-0.2185695,0.7201930000000001,-0.11294299999999999,0.1473205,0.490033,-0.032949,0.2483905,0.7213430000000001,-0.137378,-0.24530949999999999,0.9230630000000001,-0.23602800000000002,0.26754049999999996,0.914373,-0.254538,-0.07195850000000001,0.0030380000000000008,0.002169000000000001,0.07195850000000001,-0.0030380000000000008,-0.0021689999999999973,-0.1256395,-0.361437,-0.11654600000000001,0.1211005,-0.379517,-0.11461299999999999,-0.1376595,-0.744707,-0.09232699999999999,0.1151905,-0.747347,-0.10625899999999999
124,0.014839999999999999,0.734712,-0.003714499999999999,-0.131562,0.505442,-0.0038464999999999992,-0.21987199999999998,0.7252419999999999,-0.0984215,0.147638,0.49185199999999996,-0.0201455,0.248328,0.726712,-0.1210535,-0.245642,0.927392,-0.2156135,0.268228,0.917962,-0.23177350000000002,-0.071984,0.0031680000000000007,0.0020605,0.071984,-0.0031680000000000007,-0.0020605,-0.125062,-0.368778,-0.1000815,0.119118,-0.391808,-0.0963515,-0.137582,-0.750838,-0.0814925,0.11548800000000001,-0.755198,-0.0949785
125,0.0147585,0.7333495000000001,0.009774999999999999,-0.1326085,0.5069295,0.00881,-0.2200785,0.7295495000000001,-0.084592,0.1479015,0.49251949999999994,-0.007826,0.2480415,0.7313095000000001,-0.104673,-0.2458785,0.9314294999999999,-0.19536399999999998,0.26886150000000003,0.9209594999999999,-0.20893399999999998,-0.07210849999999999,0.0033305,0.0018519999999999995,0.07210849999999999,-0.0033305,-0.0018520000000000003,-0.1246285,-0.3765405,-0.08357200000000001,0.11703150000000001,-0.4041905,-0.077865,-0.1375085,-0.7573205000000001,-0.0703,0.11587149999999999,-0.7629805000000001,-0.082983
126,0.014737500000000004,0.7310055,0.0217995,-0.1336515,0.5091855,0.0207615,-0.2213215,0.7326155,-0.0717505,0.1481185,0.4927955,0.0034905,0.24773849999999997,0.7344354999999999,-0.08978549999999999,-0.24656150000000002,0.9346555,-0.1774815,0.2699685,0.9227654999999999,-0.18877149999999998,-0.07216149999999999,0.003563500000000004,0.0016745000000000002,0.07216149999999999,-0.0035634999999999972,-0.0016744999999999998,-0.12414149999999999,-0.38427449999999996,-0.0674015,0.11497849999999998,-0.4162145,-0.05993250000000001,-0.1372815,-0.7638245,-0.059935499999999996,0.11614849999999999,-0.7704045,-0.07155049999999999
127,0.0146985,0.729744,0.028834,-0.1348135,0.510554,0.027726,-0.22274349999999998,0.7360439999999999,-0.063004,0.14831650000000002,0.493444,0.010398,0.2482665,0.738144,-0.079949,-0.2467035,0.9395939999999999,-0.164965,0.2710965,0.9255439999999999,-0.17399499999999998,-0.0722275,0.0036389999999999964,0.0014940000000000005,0.0722275,-0.0036390000000000033,-0.0014940000000000005,-0.1237035,-0.392416,-0.05543,0.1130665,-0.428366,-0.046429,-0.1368535,-0.770646,-0.052027,0.11661650000000001,-0.777996,-0.064388
128,0.014753000000000002,0.7291445,0.034545000000000006,-0.135287,0.5100345,0.033434000000000005,-0.224047,0.7379545,-0.055306999999999995,0.148343,0.49195449999999996,0.016109000000000002,0.248583,0.7394645,-0.07185799999999999,-0.246707,0.9403644999999999,-0.153564,0.272503,0.9281845,-0.162464,-0.072433,0.003762500000000002,0.0013270000000000018,0.072433,-0.003762499999999995,-0.0013269999999999983,-0.123637,-0.3970155,-0.046725,0.112583,-0.4329655,-0.037475999999999995,-0.136317,-0.7752455,-0.0443,0.116993,-0.7825955,-0.057928999999999994
129,0.014915500000000002,0.7284435,0.040136000000000005,-0.1355825,0.5096935,0.039022,-0.2251425,0.7398235,-0.047876,0.14853750000000002,0.4908635,0.0217,0.2489275,0.7403735,-0.06402,-0.2466525,0.9411835000000001,-0.142833,0.2740775,0.9298835,-0.151713,-0.0726575,0.003902500000000003,0.0011130000000000029,0.0726575,-0.0039024999999999962,-0.0011129999999999994,-0.1234325,-0.4011265,-0.038414,0.1122775,-0.4370765,-0.028877,-0.1355225,-0.7793565,-0.036299,0.1172475,-0.7867065,-0.051751000000000005
130,0.0151505,0.7281775,0.0453885,-0.1357055,0.5093775,0.0442735,-0.2260255,0.7407575,-0.041219500000000006,0.1488645,0.49004749999999997,0.0269535,0.24939450000000002,0.7410375,-0.056898500000000005,-0.2464955,0.9417675,-0.1335795,0.2757345,0.9311575,-0.1419295,-0.0730135,0.004018500000000001,0.0009855000000000003,0.0730135,-0.004018500000000001,-0.0009855000000000003,-0.1231155,-0.4048025,-0.0308715,0.1121745,-0.4407525,-0.021125500000000002,-0.1346655,-0.7830325,-0.028750500000000002,0.11762449999999999,-0.7903825,-0.04593950000000001
131,0.015462000000000004,0.7280725,0.050328,-0.135604,0.5082425,0.049186999999999995,-0.22639399999999998,0.7394825,-0.035693,0.14910600000000002,0.48818249999999996,0.031659,0.24991600000000003,0.7406925,-0.050558000000000006,-0.246894,0.9418325,-0.125952,0.27718600000000004,0.9316825,-0.133192,-0.073353,0.004095499999999995,0.000897999999999996,0.073353,-0.004095500000000002,-0.000898000000000003,-0.12281399999999999,-0.4032975,-0.024114000000000003,0.112176,-0.4404375,-0.014340000000000006,-0.133574,-0.7829375,-0.021601000000000002,0.118296,-0.7914875,-0.040482000000000004
132,0.015833,0.7277605,0.0547295,-0.135382,0.5071505000000001,0.0538125,-0.226652,0.7367805000000001,-0.030052499999999996,0.149448,0.4865505,0.0361925,0.250508,0.7379905,-0.0441695,-0.247352,0.9411805000000001,-0.1199685,0.278758,0.9293405,-0.12457850000000001,-0.07361,0.004136500000000001,0.0008725000000000052,0.07361,-0.004136500000000001,-0.0008724999999999983,-0.122452,-0.4016295,-0.017937499999999995,0.112358,-0.4397295,-0.008250500000000001,-0.132482,-0.7825394999999999,-0.014533499999999998,0.119008,-0.7921294999999999,-0.035131499999999996
133,0.016082,0.7275535,0.058084,-0.13519599999999998,0.5062234999999999,0.057983,-0.227016,0.7344535000000001,-0.025006999999999995,0.149874,0.4854435,0.040388,0.251194,0.7356635,-0.03825699999999999,-0.248016,0.9391535,-0.11531,0.28044399999999997,0.9277035,-0.11789,-0.07372699999999999,0.0041624999999999995,0.0008270000000000013,0.07372699999999999,-0.004162499999999993,-0.0008270000000000013,-0.12218599999999999,-0.39965649999999997,-0.012376999999999999,0.11258399999999999,-0.43878649999999997,-0.002935,-0.131436,-0.7818065000000001,-0.0078049999999999994,0.119584,-0.7922265,-0.029969000000000003
134,0.016113500000000003,0.72789,0.0598695,-0.1353985,0.50573,0.0601415,-0.2281285,0.73314,-0.021168500000000007,0.15011149999999998,0.48519999999999996,0.042867499999999996,0.2518015,0.73435,-0.03440850000000001,-0.2490685,0.93784,-0.1114635,0.2819815,0.9263899999999999,-0.1139135,-0.0737755,0.0041009999999999935,0.000844499999999998,0.0737755,-0.0041010000000000005,-0.000844500000000005,-0.1220685,-0.39879000000000003,-0.008531500000000004,0.1127515,-0.43759000000000003,0.0010214999999999946,-0.1305885,-0.7799900000000001,-0.002063500000000003,0.12022149999999998,-0.7910900000000001,-0.025844500000000006
135,0.016023499999999996,0.72789,0.0606065,-0.1359185,0.50573,0.0612815,-0.23010850000000002,0.73207,-0.017868500000000002,0.15042149999999999,0.48519999999999996,0.0447075,0.2526915,0.73246,-0.030740499999999997,-0.2506585,0.93784,-0.1081705,0.2832615,0.9263899999999999,-0.10998049999999998,-0.0737585,0.0041009999999999935,0.0005594999999999975,0.0737585,-0.0041010000000000005,-0.0005594999999999975,-0.1219385,-0.39879000000000003,-0.005219500000000002,0.1129115,-0.43759000000000003,0.004333500000000004,-0.1302285,-0.77878,0.0024515000000000023,0.1205415,-0.79069,-0.022530500000000002
136,0.015855000000000005,0.72789,0.060345499999999996,-0.136706,0.50573,0.0615575,-0.233386,0.72873,-0.015571499999999995,0.150674,0.48519999999999996,0.0461025,0.254444,0.73012,-0.027958500000000004,-0.25274599999999997,0.93784,-0.10665350000000001,0.284914,0.92623,-0.10713350000000002,-0.07366700000000001,0.0041009999999999935,0.0002715000000000009,0.07366700000000001,-0.0041010000000000005,-0.0002715000000000009,-0.12187599999999998,-0.39879000000000003,-0.0029034999999999964,0.113044,-0.43759000000000003,0.006649500000000003,-0.129986,-0.77878,0.004768500000000002,0.120784,-0.79069,-0.020149499999999994
137,0.015413499999999997,0.72789,0.059916500000000004,-0.1377555,0.50556,0.0617765,-0.2393855,0.72312,-0.013798499999999991,0.1508845,0.48471,0.0473835,0.2581845,0.72547,-0.025564500000000004,-0.2559355,0.9338,-0.1069615,0.2870145,0.92459,-0.1049915,-0.0735765,0.0041009999999999935,8.750000000000424e-05,0.0735765,-0.0041010000000000005,-8.74999999999973e-05,-0.1219755,-0.39879000000000003,-0.0009434999999999999,0.1132045,-0.43759000000000003,0.008781500000000005,-0.1297255,-0.77878,0.006901500000000005,0.1209845,-0.79069,-0.017740499999999992
138,0.014908999999999999,0.7279935000000001,0.0591335,-0.139016,0.5047635,0.061531499999999996,-0.247616,0.7135935,-0.013010500000000001,0.151314,0.4852135,0.048529499999999996,0.264004,0.7176835,-0.023426499999999996,-0.259266,0.9269735,-0.1088875,0.290564,0.9168735,-0.10376749999999998,-0.07347400000000001,0.004062499999999997,2.9500000000001747e-05,0.07347400000000001,-0.004062499999999997,-2.9500000000001747e-05,-0.12218599999999999,-0.3987565,-0.0002735000000000029,0.11321400000000001,-0.4366965,0.010243499999999996,-0.129496,-0.7777065,0.0088055,0.12121399999999999,-0.7896164999999999,-0.015654499999999995
139,0.014158,0.7282385,0.058521000000000004,-0.140373,0.5032584999999999,0.061012000000000004,-0.258353,0.7023885,-0.012047000000000002,0.151417,0.4861185,0.049664,0.271177,0.7059384999999999,-0.021554000000000004,-0.264453,0.9126685,-0.11075299999999999,0.29277699999999995,0.9059885,-0.102543,-0.07341400000000001,0.003953499999999999,-6.899999999999962e-05,0.07341400000000001,-0.003953500000000006,6.899999999999962e-05,-0.12246299999999999,-0.39919150000000003,-0.00021899999999999697,0.112927,-0.4366415,0.011106999999999999,-0.129673,-0.7766715000000001,0.010186,0.12085700000000002,-0.7885415,-0.013691999999999996
140,0.013147500000000003,0.7284214999999999,0.057982500000000006,-0.1419505,0.5015915,0.0605455,-0.2709605,0.6859514999999999,-0.0109625,0.1515695,0.48740149999999993,0.05108950000000001,0.2793195,0.6915414999999999,-0.019201499999999996,-0.2707405,0.8926815,-0.1130905,0.2937495,0.8911915,-0.1016305,-0.07332649999999999,0.0038064999999999974,-2.5499999999997747e-05,0.07332649999999999,-0.0038064999999999974,2.5500000000004686e-05,-0.1227605,-0.3993485,-0.0002484999999999918,0.1125795,-0.43653850000000005,0.012010500000000007,-0.1298305,-0.7757085,0.011635500000000007,0.1204595,-0.7875785000000001,-0.011276499999999995
141,0.011959000000000001,0.7286735,0.057358,-0.14369,0.49939350000000005,0.059844,-0.28359,0.6646635,-0.008446999999999996,0.15166,0.48883350000000003,0.052502999999999994,0.29015,0.6721835,-0.01648000000000001,-0.27764,0.8678335,-0.11614300000000001,0.29461,0.8713235,-0.10108299999999999,-0.07322799999999999,0.0035864999999999994,-3.700000000000231e-05,0.07322799999999999,-0.0035864999999999994,3.699999999999537e-05,-0.1232,-0.39888650000000003,-0.00028000000000000247,0.11204,-0.4361365,0.012849,-0.13015,-0.7747565,0.012752,0.11998999999999999,-0.7861965,-0.008693000000000006
142,0.010782,0.7293385,0.056342,-0.145316,0.4968185,0.058945000000000004,-0.292696,0.6337484999999999,-0.005236999999999992,0.151914,0.48982850000000006,0.053444000000000005,0.299364,0.6449284999999999,-0.012785999999999992,-0.284076,0.8417485,-0.118948,0.295754,0.8415785,-0.10263800000000001,-0.07322999999999999,0.003214500000000002,-0.0002349999999999991,0.07322999999999999,-0.003214500000000002,0.0002349999999999991,-0.123396,-0.3983815,-0.00010799999999999699,0.11177400000000001,-0.43503149999999996,0.013847000000000005,-0.130036,-0.7730215,0.014531000000000002,0.11974400000000002,-0.7839115000000001,-0.005630999999999997
143,0.009885000000000001,0.7303265,0.055178,-0.146585,0.4942464999999999,0.058469999999999994,-0.297515,0.5976265,-0.0017520000000000036,0.152135,0.4906665,0.054423,0.304005,0.6142065,-0.008836999999999998,-0.290105,0.7981165,-0.12413000000000002,0.296805,0.8064264999999999,-0.10475999999999999,-0.073299,0.0028074999999999975,-0.00045100000000000695,0.073299,-0.0028075000000000044,0.0004509999999999931,-0.123675,-0.3976235,-0.0004940000000000083,0.111675,-0.43357350000000006,0.014553999999999997,-0.12965500000000002,-0.7709635,0.016555999999999994,0.119915,-0.7815635000000001,-0.0027410000000000073
144,0.009272500000000005,0.7317175,0.0537445,-0.1474175,0.49113749999999995,0.057345499999999994,-0.2986675,0.5585074999999999,0.0030204999999999954,0.1521425,0.4909275,0.055182499999999995,0.3068025,0.5786975000000001,-0.0025855000000000045,-0.2948775,0.7449475000000001,-0.1264585,0.2983525,0.7643175,-0.10637850000000001,-0.0733925,0.0024285,-0.0006535000000000013,0.0733925,-0.0024285,0.0006535000000000013,-0.1236375,-0.3965825,-0.0008235000000000048,0.11181250000000001,-0.4316725,0.014760499999999996,-0.1289175,-0.7685825,0.018506499999999995,0.1202925,-0.7789425000000001,0.0004735000000000017
145,0.009245499999999999,0.7334510000000001,0.051912,-0.1474525,0.48754099999999995,0.055476,-0.2965225,0.517321,0.009814000000000003,0.1521875,0.49115099999999995,0.055924,0.3089375,0.5387810000000001,0.006712999999999997,-0.29659250000000004,0.6843410000000001,-0.12236000000000001,0.3005575,0.7150610000000001,-0.10833,-0.0735335,0.002042999999999996,-0.0008409999999999945,0.0735335,-0.002043000000000003,0.0008409999999999945,-0.12341250000000001,-0.395139,-0.0010340000000000071,0.1123875,-0.429259,0.014286,-0.1276225,-0.7657189999999999,0.020398,0.1212075,-0.775659,0.003733
146,0.010472500000000001,0.7353965,0.0491755,-0.14681349999999999,0.48350650000000006,0.052858499999999996,-0.29390350000000004,0.4748865,0.018018499999999993,0.15247650000000001,0.49062649999999997,0.056472499999999995,0.3115465,0.49970650000000005,0.017064499999999996,-0.29395350000000003,0.6180165,-0.11820150000000001,0.3029265,0.6602965000000001,-0.1093915,-0.07366049999999999,0.0017754999999999993,-0.0011115000000000014,0.07366049999999999,-0.0017755000000000028,0.0011114999999999875,-0.1229335,-0.39218349999999996,-0.0012655000000000027,0.11450650000000001,-0.4244235,0.012310499999999988,-0.1260335,-0.7629435,0.021932499999999994,0.12385650000000001,-0.7717235,0.006237499999999993
147,0.012826500000000003,0.737643,0.045739,-0.1454885,0.47986300000000004,0.050176,-0.29084849999999995,0.433353,0.025934,0.1532415,0.48966299999999996,0.056992,0.31458149999999996,0.460993,0.028222999999999998,-0.29087850000000004,0.544013,-0.11378400000000001,0.3058415,0.602813,-0.10818399999999999,-0.0737115,0.0015930000000000007,-0.0015130000000000005,0.0737115,-0.0015930000000000007,0.0015130000000000005,-0.1218785,-0.389287,-0.0012660000000000032,0.1176315,-0.420117,0.008828000000000003,-0.1236885,-0.760277,0.024253999999999998,0.12694149999999998,-0.768187,0.008388999999999994
148,0.015575,0.7397615000000001,0.041315,-0.144131,0.4773415,0.047274,-0.284541,0.3896315,0.033942,0.154009,0.48828150000000003,0.057562999999999996,0.314879,0.4252315,0.04165,-0.288181,0.47088149999999995,-0.10916300000000001,0.307119,0.5435715,-0.103573,-0.07378499999999999,0.0014294999999999967,-0.0021069999999999978,0.07378499999999999,-0.0014295000000000002,0.0021069999999999978,-0.12116100000000002,-0.3862485,-0.0013070000000000026,0.12037900000000001,-0.41577850000000005,0.0030789999999999984,-0.12176100000000001,-0.7577085,0.026523000000000005,0.129679,-0.7645284999999999,0.010100999999999999
149,0.017562,0.7415750000000001,0.035661500000000006,-0.142699,0.474615,0.04323250000000001,-0.27505900000000005,0.350085,0.0427985,0.154751,0.486355,0.0579165,0.30967100000000003,0.390835,0.055984500000000006,-0.286249,0.393025,-0.0998665,0.30708100000000005,0.484875,-0.10038649999999999,-0.073898,0.001285999999999999,-0.002950499999999995,0.073898,-0.0012860000000000007,0.0029505000000000087,-0.120779,-0.382915,-0.0012534999999999907,0.122401,-0.411355,-0.007056499999999993,-0.12062899999999999,-0.755185,0.029165499999999997,0.133391,-0.760795,0.005664500000000003
150,0.018571000000000004,0.7431035,0.029441999999999996,-0.141701,0.4723035,0.039208999999999994,-0.26404099999999997,0.3149235,0.050178999999999994,0.155159,0.4838035,0.05769899999999999,0.301039,0.3609935,0.069632,-0.281771,0.3176535,-0.08917800000000001,0.30551900000000004,0.4251835,-0.097548,-0.073904,0.0011754999999999995,-0.0037780000000000036,0.073904,-0.0011755000000000012,0.0037779999999999897,-0.120831,-0.3800865,-0.001588000000000006,0.12475900000000001,-0.4049765,-0.01893800000000001,-0.12049100000000001,-0.7529265,0.032345,0.139769,-0.7567565,-0.0009480000000000044
151,0.018937500000000006,0.743883,0.023674000000000014,-0.1416795,0.470193,0.035447000000000006,-0.25118949999999995,0.28897300000000004,0.05704000000000001,0.1551605,0.48130300000000004,0.058163000000000006,0.2941205,0.338683,0.07907600000000001,-0.27616949999999996,0.242563,-0.07676,0.3055005,0.374323,-0.09358999999999998,-0.07390050000000001,0.001254,-0.004419999999999993,0.07390050000000001,-0.001254,0.004420000000000007,-0.1208295,-0.37726699999999996,-0.001449999999999993,0.1280105,-0.398207,-0.032179999999999986,-0.12119949999999999,-0.750387,0.03611700000000001,0.1493705,-0.753337,-0.01197999999999999
152,0.020635500000000005,0.7440500000000001,0.017966999999999997,-0.1416625,0.46796,0.031355999999999995,-0.2357225,0.26794999999999997,0.064772,0.1551575,0.4788,0.05860799999999999,0.2934675,0.31969,0.08671799999999999,-0.2673725,0.17998999999999998,-0.062255000000000005,0.3054775,0.32767999999999997,-0.08874500000000002,-0.0738975,0.001395,-0.004925000000000013,0.0738975,-0.001395,0.004924999999999999,-0.12084249999999999,-0.37521,-0.0003550000000000081,0.1332775,-0.39147,-0.046174999999999994,-0.1218525,-0.7481599999999999,0.040863,0.16316750000000002,-0.7500699999999999,-0.027115
153,0.023707500000000006,0.743644,0.012439999999999993,-0.14122049999999997,0.466104,0.027916999999999983,-0.2196705,0.251244,0.07268599999999999,0.1551495,0.476784,0.05914299999999999,0.2933595,0.308864,0.09484399999999998,-0.2572105,0.128834,-0.04716000000000001,0.30544950000000004,0.286354,-0.08433000000000002,-0.0738935,0.0014629999999999999,-0.005640000000000006,0.0738935,-0.0014629999999999999,0.005639999999999992,-0.12085049999999999,-0.372736,0.001329999999999984,0.1411095,-0.384816,-0.06081,-0.1223905,-0.746026,0.046872999999999984,0.1796195,-0.745786,-0.04549
154,0.028923500000000005,0.742147,0.006969999999999976,-0.1409115,0.464937,0.02615999999999999,-0.2067515,0.24030700000000002,0.08396399999999998,0.1567785,0.474477,0.05927499999999998,0.2910085,0.302867,0.10680399999999998,-0.2487615,0.089846,-0.03249000000000002,0.30481850000000005,0.257407,-0.07598000000000002,-0.0737475,0.001701,-0.006670000000000009,0.0737475,-0.0017010000000000003,0.0066699999999999815,-0.1226015,-0.369243,0.0044299999999999895,0.1515385,-0.37723300000000004,-0.07534000000000002,-0.1251615,-0.742973,0.05670899999999998,0.2006285,-0.737733,-0.06737000000000001
155,0.034642,0.739734,0.0015249999999999986,-0.138923,0.46516399999999997,0.02440500000000001,-0.197353,0.23454399999999997,0.09486,0.15959700000000002,0.471464,0.05870800000000001,0.28540699999999997,0.297114,0.12025,-0.241693,0.06288,-0.017664999999999986,0.311137,0.232904,-0.06828499999999998,-0.073651,0.0024620000000000006,-0.0072349999999999914,0.073651,-0.0024619999999999998,0.0072349999999999914,-0.12609299999999998,-0.367436,0.009865000000000013,0.161107,-0.370716,-0.08777499999999999,-0.130763,-0.741166,0.06968400000000001,0.222777,-0.730056,-0.09065499999999999
156,0.0406025,0.7367005,-0.0036800000000000166,-0.1366805,0.4659405,0.022549999999999987,-0.1907905,0.2306705,0.10301999999999997,0.1631095,0.4673805,0.05787999999999997,0.2773295,0.2917105,0.12777799999999997,-0.2355505,0.0456265,-0.0015400000000000136,0.31856949999999995,0.2136405,-0.062220000000000025,-0.0735725,0.0032385,-0.007590000000000013,0.0735725,-0.0032385,0.007589999999999986,-0.1305305,-0.36665949999999997,0.015749999999999986,0.1708895,-0.3646695,-0.09896000000000005,-0.1388805,-0.7403895,0.08389499999999998,0.24411950000000002,-0.7234295000000001,-0.11336000000000002
157,0.0475695,0.7340035,-0.010355000000000003,-0.1346935,0.46622349999999996,0.020595000000000002,-0.1889835,0.2309535,0.108199,0.1681765,0.4637735,0.05443499999999998,0.2751065,0.28727349999999996,0.126757,-0.2331835,0.0351935,0.017744999999999983,0.32926649999999996,0.2007035,-0.06454500000000002,-0.0734285,0.0035215000000000003,-0.007225000000000009,0.0734285,-0.0035215000000000003,0.007225000000000009,-0.1373435,-0.3653265,0.022724999999999995,0.17801650000000002,-0.35875650000000003,-0.107375,-0.15269349999999998,-0.7392665,0.100477,0.2617965,-0.7170765,-0.134565
158,0.05715200000000001,0.731311,-0.01991499999999999,-0.12962400000000002,0.46625099999999997,0.016735,-0.187228,0.230981,0.10899500000000001,0.175462,0.460821,0.045985,0.279202,0.284081,0.114607,-0.23342800000000002,0.035221,0.039935,0.343512,0.19048099999999998,-0.07343499999999997,-0.073272,0.003549,-0.006755000000000011,0.073272,-0.003549,0.006755000000000011,-0.14590799999999998,-0.362549,0.029585,0.18148199999999998,-0.354649,-0.11101499999999997,-0.173228,-0.7334689999999999,0.119149,0.269022,-0.7106089999999999,-0.145555
159,0.0689495,0.7278175,-0.032335,-0.1219065,0.4661875,0.009655000000000025,-0.18458049999999998,0.2308475,0.10759500000000002,0.18390949999999998,0.4575375,0.03420500000000001,0.28624950000000005,0.2822375,0.09546500000000002,-0.2370105,0.0350875,0.05900500000000003,0.3588095,0.1866275,-0.08738499999999999,-0.0733195,0.0037595000000000003,-0.0062249999999999805,0.07331950000000001,-0.0037595000000000007,0.006225000000000008,-0.1550725,-0.35798250000000004,0.03612500000000002,0.18050950000000002,-0.35204250000000004,-0.11189499999999997,-0.1960705,-0.7265824999999999,0.13566500000000004,0.26958950000000004,-0.7044825,-0.15263499999999997
160,0.08114649999999998,0.7240095000000001,-0.04650500000000002,-0.1130985,0.4667195,0.0009750000000000036,-0.18125449999999999,0.2319595,0.10460499999999998,0.19282649999999998,0.4541095,0.019994999999999985,0.29859650000000004,0.2793095,0.067935,-0.2393635,0.0342695,0.07064499999999999,0.37741650000000004,0.1817295,-0.110595,-0.0733365,0.0045825,-0.00577500000000003,0.0733365,-0.004582500000000001,0.005774999999999975,-0.1643175,-0.3530305,0.04206499999999999,0.17772649999999998,-0.3505605,-0.11144500000000002,-0.2188135,-0.7203704999999999,0.150665,0.2651365,-0.6991704999999999,-0.155625
161,0.09451699999999999,0.7201275,-0.06195499999999998,-0.10337199999999999,0.4680475,-0.008584999999999954,-0.176593,0.23550749999999998,0.10024500000000003,0.202167,0.4505475,0.004385000000000028,0.314937,0.2758275,0.03779500000000002,-0.242423,0.0338025,0.07825500000000002,0.396787,0.1775175,-0.13760499999999998,-0.073237,0.0058145,-0.005434999999999968,0.073237,-0.0058145,0.005435000000000023,-0.17330099999999998,-0.3487425,0.04763500000000004,0.172947,-0.3495625,-0.10972499999999996,-0.240193,-0.7147924999999999,0.16355500000000003,0.25574699999999995,-0.6949025,-0.15424499999999997
162,0.11039000000000002,0.7163395,-0.08038499999999998,-0.09083000000000001,0.4696895,-0.02054499999999998,-0.169898,0.24003950000000002,0.09484500000000001,0.21312,0.4468195,-0.014724999999999988,0.33314999999999995,0.2736395,0.0011650000000000271,-0.24312,0.0374515,0.083095,0.41824000000000006,0.17315950000000002,-0.17190499999999997,-0.07323,0.0074045,-0.00461499999999998,0.07322999999999999,-0.0074045,0.00461499999999998,-0.180542,-0.34483050000000004,0.052364999999999995,0.16535999999999998,-0.34888050000000004,-0.10602499999999998,-0.25876699999999997,-0.7093705,0.173655,0.24201999999999999,-0.6923005,-0.147455
163,0.125475,0.7127035,-0.09886499999999998,-0.077765,0.47157350000000003,-0.032995,-0.162612,0.2450735,0.08869500000000002,0.223105,0.4434035,-0.033995,0.352705,0.2708935,-0.038144999999999984,-0.241515,0.0421735,0.08326500000000003,0.441775,0.1715635,-0.21396499999999996,-0.073225,0.0091515,-0.003434999999999966,0.07322499999999998,-0.0091515,0.0034350000000000214,-0.18651,-0.3411165,0.055855000000000044,0.155775,-0.34914649999999997,-0.10196499999999997,-0.27464,-0.7048565,0.17980500000000002,0.22390500000000002,-0.6935765,-0.13715499999999997
164,0.14097,0.709055,-0.11801500000000004,-0.06361999999999998,0.473735,-0.046825000000000006,-0.154687,0.25133500000000003,0.08142499999999997,0.23254,0.439255,-0.053705,0.36712,0.267915,-0.075965,-0.237987,0.053203,0.08005499999999999,0.45835000000000004,0.166185,-0.24921499999999996,-0.07313,0.010984,-0.0024250000000000105,0.07313,-0.010984,0.0024250000000000105,-0.19074,-0.337545,0.057784999999999975,0.14637000000000003,-0.35001499999999997,-0.09842500000000004,-0.28729899999999997,-0.700615,0.182965,0.20334,-0.695605,-0.124305
165,0.156785,0.7048475000000001,-0.13722500000000004,-0.04997499999999999,0.47605749999999997,-0.06022500000000003,-0.144029,0.26129749999999996,0.07246499999999995,0.24172500000000002,0.4342275,-0.07402500000000006,0.37985500000000005,0.2648775,-0.11117500000000002,-0.23395999999999997,0.0635255,0.07700499999999993,0.47192500000000004,0.16374750000000002,-0.28112500000000007,-0.07297499999999998,0.0129115,-0.0014450000000000296,0.07297500000000001,-0.0129115,0.001444999999999974,-0.194045,-0.3343725,0.05944499999999997,0.13603500000000002,-0.3515825,-0.09397500000000003,-0.297792,-0.6959424999999999,0.18445499999999995,0.18268500000000004,-0.6980425,-0.11098500000000006
166,0.17170000000000002,0.69986,-0.15466000000000002,-0.037370000000000014,0.47813,-0.07283,-0.13466,0.26954,0.06520999999999999,0.24927,0.42795,-0.0923,0.38836000000000004,0.26099,-0.14122,-0.229072,0.070443,0.07567999999999997,0.481,0.16381,-0.30408,-0.07285,0.014594,-0.0007099999999999884,0.07284999999999997,-0.014594,0.0007099999999999884,-0.195397,-0.33282,0.06059999999999999,0.12728,-0.35463,-0.08960000000000001,-0.302129,-0.69312,0.18417,0.16416999999999998,-0.70133,-0.09813
167,0.18368,0.6957565,-0.16920999999999997,-0.026100000000000012,0.4790565,-0.08432,-0.12611,0.2771765,0.05957000000000001,0.25406,0.4229165,-0.10665000000000002,0.39471000000000006,0.2584265,-0.16324000000000005,-0.224815,0.0747855,0.07579000000000002,0.48471000000000003,0.16484649999999998,-0.31801999999999997,-0.07266999999999998,0.0157755,0.00035000000000001696,0.07267000000000001,-0.0157755,-0.00035000000000001696,-0.19544299999999998,-0.3329335,0.06224999999999997,0.11919000000000002,-0.3573035,-0.08505000000000001,-0.30097199999999996,-0.6938835,0.18264,0.15082,-0.7045235,-0.08842
168,0.19265,0.6924159999999999,-0.18078500000000008,-0.018000000000000016,0.479466,-0.09242500000000003,-0.11970999999999998,0.28478600000000004,0.055764999999999953,0.25694000000000006,0.418576,-0.11758500000000005,0.39949,0.25574600000000003,-0.18067500000000003,-0.22164799999999998,0.078643,0.07688499999999998,0.48617,0.167756,-0.327025,-0.07235,0.016718,0.001464999999999994,0.07235000000000003,-0.016718,-0.0014650000000000496,-0.195797,-0.333574,0.06482499999999997,0.11271999999999999,-0.35909399999999997,-0.08136500000000002,-0.29697599999999996,-0.693744,0.18304499999999996,0.1395,-0.7069040000000001,-0.07984500000000005
169,0.200805,0.689735,-0.19110500000000008,-0.010425000000000018,0.479775,-0.09929500000000002,-0.11427500000000002,0.291985,0.052864999999999995,0.25956499999999993,0.415415,-0.12698500000000001,0.401745,0.25326499999999996,-0.19270500000000002,-0.21955600000000003,0.083497,0.07986499999999996,0.48423499999999997,0.16851500000000003,-0.328105,-0.07197500000000001,0.017484,0.002754999999999952,0.07197499999999996,-0.017484,-0.0027550000000000074,-0.19629500000000003,-0.333855,0.06774499999999994,0.105375,-0.359985,-0.07720500000000002,-0.29125300000000004,-0.689735,0.18447499999999997,0.128085,-0.708475,-0.07119500000000001
170,0.20748,0.6861685,-0.20006500000000005,-0.0037000000000000366,0.4798285,-0.10503499999999999,-0.11003000000000004,0.2979985,0.05102499999999999,0.26176,0.4120085,-0.135065,0.4031199999999999,0.2510585,-0.20287500000000003,-0.21838000000000002,0.0879485,0.08333499999999999,0.48175,0.16970849999999998,-0.326055,-0.07165000000000005,0.0180605,0.004074999999999995,0.07164999999999999,-0.0180605,-0.004074999999999995,-0.19037000000000004,-0.3339115,0.06742500000000001,0.09837999999999997,-0.3609015,-0.07314500000000002,-0.28580800000000006,-0.6817015,0.187055,0.11773999999999996,-0.7098415,-0.06309500000000001
171,0.21137,0.6831815,-0.20592999999999995,0.00040000000000001146,0.4797415,-0.10819000000000001,-0.10755999999999999,0.3035615,0.050570000000000004,0.26250999999999997,0.4097615,-0.13968999999999998,0.40386000000000005,0.24898149999999997,-0.20602999999999994,-0.21953,0.0908315,0.08711000000000002,0.47663000000000005,0.1711315,-0.31913,-0.07127,0.018319500000000002,0.005140000000000033,0.07127,-0.018319500000000002,-0.005139999999999978,-0.18588,-0.3336585,0.06745000000000001,0.09231,-0.3613285,-0.06966999999999995,-0.282252,-0.6737584999999999,0.19133000000000003,0.10953000000000002,-0.7108085,-0.05668999999999996
172,0.21438000000000001,0.680631,-0.21155000000000007,0.0045700000000000185,0.479761,-0.11125999999999997,-0.10516,0.309011,0.05023,0.26299000000000006,0.408031,-0.14349000000000006,0.40117,0.24694100000000002,-0.20403,-0.22044999999999998,0.093731,0.09064,0.46843999999999997,0.168391,-0.31601000000000007,-0.07090000000000002,0.01855,0.006220000000000003,0.07090000000000002,-0.018550000000000004,-0.006220000000000003,-0.18182,-0.333189,0.06724999999999998,0.08545999999999998,-0.362909,-0.06536000000000003,-0.280247,-0.665779,0.19644999999999999,0.10020000000000001,-0.711859,-0.049500000000000044
173,0.21621,0.679307,-0.21582999999999997,0.006440000000000001,0.479957,-0.11224999999999996,-0.10325999999999999,0.312757,0.05020000000000002,0.26291,0.407757,-0.14563000000000004,0.39754999999999996,0.24545699999999998,-0.1986,-0.21933,0.09345699999999998,0.09306999999999999,0.46075,0.166137,-0.31094,-0.07047999999999999,0.018824,0.007029999999999981,0.07047999999999999,-0.018824,-0.007029999999999981,-0.17551,-0.332653,0.0645,0.07912999999999998,-0.364503,-0.06117,-0.278324,-0.6613730000000001,0.20037,0.09161000000000002,-0.712783,-0.04282999999999998
174,0.22063999999999995,0.6740459999999999,-0.22346000000000005,0.011819999999999997,0.478416,-0.11735999999999996,-0.10448000000000002,0.321236,0.051649999999999974,0.26319000000000004,0.403436,-0.15309,0.39932999999999996,0.24475600000000003,-0.20970000000000005,-0.22588000000000003,0.10086600000000001,0.09964,0.44448999999999994,0.190616,-0.29489000000000004,-0.06997000000000003,0.019733,0.008489999999999998,0.06996999999999998,-0.019733,-0.008489999999999998,-0.14903000000000002,-0.334474,0.05536000000000002,0.06871,-0.36542399999999997,-0.05626000000000003,-0.273721,-0.6608440000000001,0.21238,0.08123999999999998,-0.715044,-0.03556999999999999
