sb224sc-HT22-VT27/4dt907/src/data/kinect_good_preprocessed_not_cut_A11_mediapipe/A35_kinect_mirrored.csv
FrameNo,nose_3d_x,nose_3d_y,nose_3d_z,left_shoulder_3d_x,left_shoulder_3d_y,left_shoulder_3d_z,left_elbow_3d_x,left_elbow_3d_y,left_elbow_3d_z,right_shoulder_3d_x,right_shoulder_3d_y,right_shoulder_3d_z,right_elbow_3d_x,right_elbow_3d_y,right_elbow_3d_z,left_wrist_3d_x,left_wrist_3d_y,left_wrist_3d_z,right_wrist_3d_x,right_wrist_3d_y,right_wrist_3d_z,left_hip_3d_x,left_hip_3d_y,left_hip_3d_z,right_hip_3d_x,right_hip_3d_y,right_hip_3d_z,left_knee_3d_x,left_knee_3d_y,left_knee_3d_z,right_knee_3d_x,right_knee_3d_y,right_knee_3d_z,left_ankle_3d_x,left_ankle_3d_y,left_ankle_3d_z,right_ankle_3d_x,right_ankle_3d_y,right_ankle_3d_z
0,0.984351,0.7604545,0.0645735,0.8361190000000001,0.4595045,0.0532695,0.809569,0.2133645,0.0628965,1.149759,0.4607845,0.0755474999999999,1.173249,0.2118445,0.0768055,0.795539,0.0123965,-0.0145725,1.209099,-0.0269015,-0.0190285,0.9274249999999999,-0.0033665,-6.450000000000206e-05,1.072575,0.0033665,6.450000000000206e-05,0.881989,-0.4118155,-0.0072325,1.124309,-0.3731055,-0.0199565,0.8705490000000001,-0.7398355,-0.0349965,1.1317490000000001,-0.7345355,-0.0190285
1,0.984082,0.7604935,0.064781,0.836054,0.4595035,0.0529899999999999,0.809424,0.2133735,0.062929,1.149734,0.4608935,0.075476,1.173094,0.2119835,0.07667,0.795634,0.0124345,-0.014677,1.2089940000000001,-0.0269105,-0.019687,0.927451,-0.0033535,-4.099999999999937e-05,1.072549,0.0033534999999999,4.099999999999937e-05,0.882054,-0.4117065,-0.007178,1.124304,-0.3721065,-0.02035,0.870434,-0.7405965,-0.03572,1.131844,-0.7355765,-0.018881
2,0.983458,0.760492,0.0650235,0.835942,0.459552,0.0531245,0.808512,0.213892,0.0635645,1.149742,0.460992,0.0757145,1.172552,0.212432,0.0764015,0.795622,0.013178,-0.0148774999999999,1.208912,-0.027021,-0.0199924999999999,0.927485,-0.003338,5.8500000000002994e-05,1.072515,0.003338,-5.8499999999996055e-05,0.881882,-0.411568,-0.0068854999999999,1.123922,-0.375328,-0.0203794999999999,0.870862,-0.740958,-0.0352284999999999,1.132422,-0.7380580000000001,-0.0183394999999999
3,0.9830255,0.760482,0.0652145,0.8358185000000001,0.459522,0.0533035,0.8076085,0.213752,0.0631575,1.1498185,0.461002,0.0760165,1.1719985,0.212252,0.0761835,0.7956084999999999,0.013021,-0.0154014999999999,1.2084885,-0.027196,-0.0210974999999999,0.9274735000000001,-0.003327,-5.1499999999995993e-05,1.0725265,0.0033269999999999,5.150000000000293e-05,0.8818785,-0.411428,-0.0065644999999999,1.1239985,-0.374008,-0.0201244999999999,0.8701885,-0.737008,-0.0340115,1.1326185,-0.737288,-0.0169344999999999
4,0.9800860000000001,0.760336,0.066885,0.8343870000000001,0.458686,0.054625,0.8068870000000001,0.212806,0.063983,1.148617,0.4613359999999999,0.077358,1.171127,0.212966,0.076672,0.7956970000000001,0.012375,-0.015514,1.209087,-0.026838,-0.0214779999999999,0.927332,-0.003489,-0.000549,1.072668,0.003489,0.000549,0.883647,-0.412444,-0.0061289999999999,1.125597,-0.374484,-0.0197719999999999,0.873537,-0.7389239999999999,-0.0341789999999999,1.136387,-0.7378739999999999,-0.017451
5,0.9796965,0.760432,0.0671085,0.8342155,0.458622,0.0545545,0.8064955,0.212852,0.0633595,1.1486954999999999,0.461322,0.0775145,1.1706154999999998,0.213472,0.0763985,0.7955255,0.012643,-0.0168084999999999,1.1910555,0.012764,7.550000000000612e-05,0.9273855,-0.003451,-0.0005714999999999,1.0726145,0.003451,0.0005715,0.8836355,-0.412518,-0.0062154999999999,1.1256755,-0.374798,-0.0193944999999999,0.8733355,-0.739488,-0.0344145,1.1364854999999998,-0.737778,-0.0180054999999999
6,0.9795520000000001,0.7603305,0.0672395,0.8341130000000001,0.4585805,0.0545765,0.8063330000000001,0.2128905,0.0630044999999999,1.1486830000000001,0.4613104999999999,0.0776004999999999,1.170543,0.2135205,0.0761574999999999,0.795833,0.0126055,-0.0170365,1.207773,-0.0267505,-0.0210775,0.9274080000000001,-0.0034565,-0.0005725,1.072592,0.0034565,0.0005724999999999,0.883513,-0.4126595,-0.0061495,1.125563,-0.3747195,-0.0193675,0.872973,-0.7387794999999999,-0.0346635,1.136303,-0.7373295,-0.0176815
7,0.9797665,0.760401,0.066645,0.8343085,0.458391,0.055081,0.8066585,0.212791,0.062936,1.1487985,0.461321,0.07734,1.1708385,0.213271,0.076057,0.7960585,0.012448,-0.0170109999999999,1.2044285,-0.013169,-0.0121759999999999,0.9274465000000001,-0.003453,-0.0004679999999999,1.0725535,0.003453,0.000468,0.8831885,-0.412649,-0.0062739999999999,1.1253585,-0.373709,-0.0193509999999999,0.8726685000000001,-0.738609,-0.033982,1.1354985,-0.737549,-0.0175539999999999
8,0.9792985000000001,0.7603925,0.066832,0.8341415,0.4582125,0.055401,0.8066115,0.2126925,0.062851,1.1486815,0.4613625,0.077516,1.1707215,0.2133925,0.0758969999999999,0.7964115,0.0115825,-0.018047,1.2032015,-0.0089675,-0.0097529999999999,0.9274575,-0.0034655,-0.000487,1.0725425,0.0034655,0.000487,0.8833115,-0.4128275,-0.0062359999999999,1.1255215,-0.3738475,-0.019169,0.8729315,-0.7385075,-0.0340039999999999,1.1358515,-0.7377975,-0.017573
9,0.9791265,0.7603934999999999,0.066929,0.8340685000000001,0.4580835,0.055673,0.8066385,0.2126434999999999,0.062716,1.1486885,0.4613735,0.077638,1.1706685000000001,0.2133235,0.075662,0.7967685000000001,0.0105925,-0.019086,1.2019785,-0.0050755,-0.0073419999999999,0.9274645,-0.0034625,-0.0004539999999999,1.0725355,0.0034624999999999,0.000454,0.8833385,-0.4129465,-0.0062569999999999,1.1255985,-0.3744365,-0.0190479999999999,0.8730085000000001,-0.7387165,-0.034009,1.1358885,-0.7382765,-0.0176829999999999
10,0.979148,0.7603934999999999,0.0670225,0.83409,0.4580835,0.0558105,0.8066599999999999,0.2126434999999999,0.0626454999999999,1.14871,0.4613735,0.0777715,1.17068,0.2133235,0.0754245,0.79705,0.0105925,-0.0199734999999999,1.20077,-0.0010955,-0.0050095,0.927464,-0.0034625,-0.0004235,1.072536,0.0034624999999999,0.0004235,0.88336,-0.4129465,-0.0061195,1.12562,-0.3743965,-0.0189104999999999,0.8730300000000001,-0.7386465,-0.0337814999999999,1.13591,-0.7382765,-0.0175455
11,0.9791555,0.7603934999999999,0.0671325,0.8340985000000001,0.4580835,0.0559485,0.8066685,0.2126434999999999,0.0626035,1.1487185,0.4613735,0.0779094999999999,1.1706885,0.2133235,0.0751745,0.7973285,0.0105925,-0.0208614999999999,1.1995385,0.0029684999999999,-0.0026325,0.9274645,-0.0034625,-0.0003895,1.0725355,0.0034624999999999,0.0003895,0.8833685,-0.4129465,-0.0059815,1.1256285,-0.3743965,-0.0187724999999999,0.8730385,-0.7386465,-0.0336434999999999,1.1359185,-0.7382765,-0.0174075
12,0.9791585,0.7603985,0.067149,0.8341415,0.4580785,0.056075,0.8067215,0.2126585,0.062613,1.1487615,0.4613685,0.0780059999999999,1.1707315,0.2133785,0.074931,0.7976715,0.0106174999999999,-0.021719,1.1984015000000001,0.0072594999999999,-0.0005339999999999,0.9274765,-0.0034605,-0.000347,1.0725235,0.0034604999999999,0.000347,0.8833615,-0.4129215,-0.00581,1.1256215,-0.3740914999999999,-0.018575,0.8730315,-0.7385015,-0.033383,1.1358515,-0.7381715000000001,-0.017217
13,0.979216,0.7604765,0.0666409999999999,0.834224,0.4580165,0.056267,0.8068839999999999,0.2128065,0.062459,1.1489340000000001,0.4613965,0.077799,1.170844,0.2133065,0.074541,0.7980840000000001,0.0095855,-0.022538,1.199604,0.0069955,-0.002375,0.9274890000000001,-0.0034114999999999,-0.000293,1.072511,0.0034115,0.0002929999999999,0.883184,-0.4129535,-0.005477,1.125574,-0.3742835,-0.01826,0.872824,-0.7386535,-0.032892,1.135584,-0.7385535,-0.016589
14,0.9793005,0.7605705,0.066147,0.8343295,0.4580105,0.056382,0.8069495,0.2129505,0.0623,1.1491095,0.4614205,0.077606,1.1709695,0.2132405,0.074157,0.7981895,0.0085655,-0.0232609999999999,1.1997095,0.0110394999999999,-0.0020949999999999,0.9274995,-0.0033645,-0.0002279999999999,1.0725005,0.0033645,0.000228,0.8830295,-0.4129695,-0.0051379999999999,1.1255595,-0.3743095,-0.017921,0.8726495000000001,-0.7389395,-0.032346,1.1353395,-0.7389895,-0.0159809999999999
15,0.979401,0.760627,0.065714,0.834488,0.4580369999999999,0.056415,0.807038,0.213117,0.06196,1.149308,0.461447,0.077431,1.171168,0.213197,0.0736219999999999,0.7983080000000001,0.0076619999999999,-0.023998,1.199838,0.011075,-0.001759,0.927495,-0.003313,-0.0001859999999999,1.072505,0.003313,0.0001859999999999,0.882968,-0.412933,-0.004757,1.125618,-0.374433,-0.017511,0.8725180000000001,-0.7392829999999999,-0.031797,1.135108,-0.739393,-0.015158
16,0.9795245,0.7606585,0.0654505,0.8347045000000001,0.4581584999999999,0.0562465,0.8071345,0.2134885,0.0611965,1.1495245,0.4614985,0.0772635,1.1715745,0.2133085,0.0726515,0.7984445,0.0069045,-0.0256374999999999,1.2011345,0.0116805,-0.0041844999999999,0.9274835,-0.0032595,-0.0001514999999999,1.0725165,0.0032595,0.0001515,0.8829545,-0.4129615,-0.0043534999999999,1.1257845,-0.3745415,-0.0171004999999999,0.8723645,-0.7399215,-0.0313905,1.1348345,-0.7397914999999999,-0.0142184999999999
17,0.979641,0.7606935,0.0653695,0.8349110000000001,0.4582735,0.0560465,0.806181,0.2167235,0.0575015,1.149711,0.4615335,0.0770885,1.174391,0.2160935,0.0683185,0.7963709999999999,0.0115155,-0.0315344999999999,1.204981,0.0165855,-0.0097244999999999,0.927472,-0.0031975,-0.0001294999999999,1.072528,0.0031975,0.0001295,0.882961,-0.4128465,-0.0039275,1.125981,-0.3747865,-0.0166855,0.872221,-0.7405865,-0.0309814999999999,1.134571,-0.7400765,-0.0133084999999999
18,0.979782,0.7606890000000001,0.0656005,0.835193,0.458459,0.0557374999999999,0.803293,0.2213089999999999,0.0514825,1.149853,0.461559,0.0768224999999999,1.179233,0.221329,0.0618315,0.792163,0.020161,-0.0437145,1.211923,0.02558,-0.0196245,0.9274630000000001,-0.003154,-0.0001765,1.0725369999999999,0.003154,0.0001764999999999,0.882993,-0.412481,-0.0035654999999999,1.126133,-0.3749909999999999,-0.0163095,0.872113,-0.741231,-0.0306055,1.134323,-0.740211,-0.0125065
19,0.9799985,0.760757,0.0657305,0.8356055,0.4586869999999999,0.0553065,0.7988655,0.226927,0.0429855,1.1500055,0.4615869999999999,0.0764615,1.1851755,0.227417,0.0537465,0.7862155,0.031176,-0.0598174999999999,1.2228955,0.0385499999999999,-0.0366954999999999,0.9274545,-0.003118,-0.0003084999999999,1.0725455,0.003118,0.0003085,0.8829055,-0.412093,-0.0032704999999999,1.1261355,-0.374203,-0.0159614999999999,0.8719555,-0.741573,-0.0302324999999999,1.1340855,-0.740303,-0.0117284999999999
20,0.9803410000000001,0.760818,0.0658614999999999,0.836174,0.458978,0.0547985,0.793234,0.2340279999999999,0.0319345,1.1501839999999999,0.461648,0.0760925,1.193594,0.235448,0.0438654999999999,0.778494,0.046664,-0.0803145,1.235264,0.054081,-0.0566275,0.927416,-0.003083,-0.0004415,1.072584,0.003083,0.0004414999999999,0.882854,-0.411692,-0.0029274999999999,1.126134,-0.373102,-0.0156135,0.8718239999999999,-0.741792,-0.0297035,1.133874,-0.740082,-0.0106065
21,0.9807530000000001,0.76083,0.0661015,0.8371770000000001,0.45973,0.0541564999999999,0.7846770000000001,0.2453499999999999,0.0177655,1.149867,0.46219,0.0756594999999999,1.205987,0.2493999999999999,0.0309055,0.766077,0.072952,-0.1072235,1.252577,0.080388,-0.0824935,0.9273480000000001,-0.00301,-0.0005625,1.072652,0.00301,0.0005625,0.8828370000000001,-0.41124,-0.0025405,1.126147,-0.37131,-0.0152095,0.871757,-0.74212,-0.0291314999999999,1.133667,-0.73983,-0.0094505
22,0.9813345000000001,0.7606075,0.0666075,0.8384405,0.4606975,0.0538644999999999,0.7737404999999999,0.2620875,-0.0019765,1.1493605,0.4630475,0.0755924999999999,1.2199605,0.2676075,0.0174034999999999,0.7502805,0.1072875,-0.1426545,1.2723704999999998,0.1192474999999999,-0.1111245,0.9272135,-0.0029404999999999,-0.0007025,1.0727865,0.0029405,0.0007024999999999,0.8830005000000001,-0.4105525,-0.0022355,1.1261205,-0.3695125,-0.0147965,0.8717305,-0.7422825,-0.0288155,1.1334705,-0.7396925,-0.0085635
23,0.981939,0.760255,0.067311,0.839661,0.461695,0.05355,0.762461,0.280495,-0.020994,1.148761,0.463905,0.075427,1.235171,0.289075,0.003173,0.734351,0.149135,-0.176808,1.2937509999999999,0.164185,-0.1401379999999999,0.927065,-0.0028519999999999,-0.0009349999999999,1.072935,0.002852,0.0009349999999999,0.883211,-0.409945,-0.0019949999999999,1.126081,-0.367855,-0.014468,0.871721,-0.7425149999999999,-0.028565,1.133281,-0.739615,-0.0077459999999999
24,0.982568,0.7597925,0.068061,0.840711,0.4629125,0.053248,0.7504310000000001,0.3030625,-0.039406,1.148161,0.4646525,0.075184,1.250931,0.3157325,-0.0115479999999999,0.7177009999999999,0.1972225,-0.21186,1.315961,0.2147125,-0.1698,0.926894,-0.0027065,-0.0012249999999999,1.0731060000000001,0.0027064999999999,0.001225,0.883471,-0.4094175,-0.0018489999999999,1.126121,-0.3662975,-0.0142379999999999,0.871711,-0.7428375,-0.0282319999999999,1.133141,-0.7396275,-0.0071739999999999
25,0.983111,0.7590955,0.069511,0.841631,0.4642055,0.052917,0.7381410000000002,0.3289255,-0.058164,1.147431,0.4658555,0.074779,1.266611,0.3440055,-0.025398,0.701031,0.2519254999999999,-0.244457,1.336701,0.2700855,-0.197977,0.92672,-0.0025265,-0.0016019999999999,1.07328,0.0025264999999999,0.0016019999999999,0.883811,-0.4090345,-0.001818,1.1262809999999999,-0.3648745,-0.014134,0.871691,-0.7436244999999999,-0.0279709999999999,1.133051,-0.7397944999999999,-0.006803
26,0.9837075000000001,0.758337,0.0710095,0.8422965,0.465867,0.0526685,0.7270665000000001,0.356097,-0.0718735,1.1467965,0.4674169999999999,0.0742875,1.2799565,0.373907,-0.0362525,0.6874765,0.3066569999999999,-0.2684134999999999,1.3531965000000001,0.3283669999999999,-0.2188135,0.9265395,-0.002352,-0.0019725,1.0734605,0.002352,0.0019725,0.8841665000000001,-0.408773,-0.0018335,1.1264365,-0.363613,-0.0140964999999999,0.8717365000000001,-0.7444529999999999,-0.0277215,1.1329665,-0.740193,-0.0064794999999999
27,0.9843585,0.757449,0.072579,0.8426835,0.467479,0.0524489999999999,0.7182735,0.383629,-0.082493,1.1461535,0.469049,0.073796,1.2911335,0.402599,-0.04484,0.6762735,0.362679,-0.285583,1.3660235,0.388019,-0.233373,0.9263655000000001,-0.002201,-0.002396,1.0736344999999998,0.002201,0.0023959999999999,0.8845335,-0.408881,-0.001846,1.1265635,-0.362491,-0.014145,0.8717635,-0.745251,-0.0273059999999999,1.1328435,-0.740761,-0.006108
28,0.985042,0.7562,0.0740475,0.843082,0.46942,0.0521785,0.711542,0.4135,-0.0898935,1.145602,0.47083,0.0732415,1.300622,0.43351,-0.0506235,0.667512,0.4226,-0.2947634999999999,1.374802,0.44834,-0.2414334999999999,0.926201,-0.00206,-0.0028364999999999,1.073799,0.0020599999999999,0.0028365,0.884902,-0.4093299999999999,-0.0019164999999999,1.126652,-0.36262,-0.0143254999999999,0.871822,-0.74631,-0.0269144999999999,1.132722,-0.74174,-0.0059254999999999
29,0.9856925000000001,0.7545084999999999,0.0753969999999999,0.8434465,0.4713885,0.051938,0.7064865,0.4477885,-0.093214,1.1453465,0.4725485,0.072556,1.3072465,0.4688385,-0.052922,0.6613264999999999,0.4871385,-0.294974,1.3809965,0.5151485,-0.242964,0.9261035,-0.0019494999999999,-0.0032529999999999,1.0738965,0.0019494999999999,0.0032529999999999,0.8852065000000001,-0.4102615,-0.0019679999999999,1.1266865,-0.3632415,-0.014483,0.8718165,-0.7476815,-0.0265299999999999,1.1325465000000001,-0.7431715,-0.0057989999999999
30,0.9863235,0.7526525,0.0762745,0.8437465,0.4731925,0.0518515,0.7032864999999999,0.4793624999999999,-0.0934085,1.1456065,0.4737925,0.0718045,1.3093465,0.4987625,-0.0531465,0.6599265000000001,0.5464125,-0.2951785,1.3816964999999999,0.5732825,-0.2431785,0.9260365,-0.0018565,-0.0035574999999999,1.0739635,0.0018565,0.0035574999999999,0.8854265,-0.4114975,-0.0020915,1.1266364999999998,-0.3646175,-0.0146815,0.8717865,-0.7490975,-0.0261734999999999,1.1323565,-0.7446875000000001,-0.0055175
31,0.9865970000000001,0.7507039999999999,0.0768595,0.8436250000000001,0.474954,0.0520475,0.702285,0.5066039999999999,-0.0935395,1.145765,0.474994,0.0710335,1.309545,0.526104,-0.0532875,0.6601250000000001,0.597644,-0.2953195,1.381895,0.6216039999999999,-0.2433195,0.926049,-0.0018059999999999,-0.0036974999999999,1.073951,0.001806,0.0036974999999999,0.885615,-0.413276,-0.0022285,1.126705,-0.366406,-0.0148025,0.871905,-0.750766,-0.0259065,1.132415,-0.746366,-0.0053285
32,0.9868435000000001,0.7482315,0.077028,0.8432225,0.4767815,0.052254,0.7023825,0.5351715,-0.093613,1.1459425,0.4771114999999999,0.0701249999999999,1.3097325,0.5523715,-0.053361,0.6603224999999999,0.6450915,-0.2948429999999999,1.3820825,0.6683615,-0.243393,0.9260715,-0.0017964999999999,-0.00377,1.0739285,0.0017964999999999,0.00377,0.8857925000000001,-0.4154685,-0.0022999999999999,1.1267825,-0.3689385,-0.014792,0.8719925,-0.7528484999999999,-0.0255009999999999,1.1324525,-0.7485685,-0.0050489999999999
33,0.9870010000000001,0.7456475,0.076999,0.842456,0.4783375,0.052401,0.702496,0.5619175000000001,-0.092952,1.1460460000000001,0.4796075,0.069223,1.3098459999999998,0.5745075000000001,-0.052066,0.6604760000000001,0.6881875000000001,-0.286162,1.382226,0.7113575000000001,-0.237052,0.926159,-0.0018224999999999,-0.0038279999999999,1.073841,0.0018225,0.0038279999999999,0.8858460000000001,-0.4175125,-0.002328,1.126756,-0.3716025,-0.014744,0.872036,-0.7551125,-0.025259,1.132416,-0.7508825,-0.004676
34,0.987158,0.7430125,0.0769425,0.841586,0.4797725,0.0526445,0.702666,0.5864125,-0.0857985,1.146536,0.4819925,0.0683985,1.3097159999999999,0.5960125000000001,-0.0487535,0.662676,0.7301625,-0.2681985,1.379696,0.7507725000000001,-0.2246285,0.9262630000000001,-0.0018754999999999,-0.0038595,1.073737,0.0018755,0.0038594999999999,0.8859160000000001,-0.4196275,-0.0023775,1.126786,-0.3743775,-0.0147475,0.872106,-0.7574175,-0.0250875,1.132406,-0.7531375,-0.0044625
35,0.9873885000000001,0.7402735,0.0768665,0.8410115,0.4808035,0.0528555,0.7031615,0.6089335,-0.0783634999999999,1.1468615,0.4842435,0.0674295,1.3063015,0.6167135,-0.0454484999999999,0.6652914999999999,0.7680535000000001,-0.2469234999999999,1.3748814999999999,0.7855135000000001,-0.2122235,0.9263985,-0.0018944999999999,-0.0039024999999999,1.0736015,0.0018945,0.0039025,0.8858215,-0.4216265,-0.0024394999999999,1.1266315,-0.3775665,-0.0147704999999999,0.8721915,-0.7600965,-0.0249534999999999,1.1322615,-0.7557364999999999,-0.0043584999999999
36,0.9876180000000001,0.7373985,0.076658,0.8408540000000001,0.4820485,0.053046,0.705094,0.6314085,-0.069088,1.146814,0.4867185,0.066408,1.302724,0.6404185,-0.0404869999999999,0.6696139999999999,0.8021985,-0.223178,1.368164,0.8179185,-0.193988,0.926551,-0.0019444999999999,-0.0039449999999999,1.073449,0.0019445,0.003945,0.885714,-0.4240415,-0.002491,1.126494,-0.3810515,-0.0148389999999999,0.872294,-0.7633615,-0.0249469999999999,1.132184,-0.7588915,-0.0043479999999999
37,0.987848,0.7349925,0.076072,0.840934,0.4830525,0.053256,0.707974,0.6505725,-0.05932,1.146964,0.4891125,0.06548,1.298734,0.6614125000000001,-0.034814,0.674024,0.8307625000000001,-0.19913,1.361574,0.8455925000000001,-0.17587,0.926693,-0.0019925,-0.003997,1.073307,0.0019925,0.003997,0.885574,-0.4259275,-0.002523,1.126364,-0.3843375,-0.014889,0.872364,-0.7665075,-0.024958,1.132174,-0.7617975,-0.004039
38,0.9880715000000001,0.733249,0.0751055,0.8410785000000001,0.484049,0.0533495,0.7123185000000001,0.665319,-0.0482694999999999,1.1470985,0.491759,0.0646625,1.2945385,0.6773290000000001,-0.0274085,0.6790784999999999,0.855319,-0.1723724999999999,1.3533585,0.866979,-0.1514625,0.9268315,-0.0020069999999999,-0.0040394999999999,1.0731685,0.002007,0.0040395,0.8853885000000001,-0.427581,-0.0025424999999999,1.1261985,-0.3875309999999999,-0.0149184999999999,0.8724285,-0.7695409999999999,-0.0249864999999999,1.1321185,-0.764501,-0.0037454999999999
39,0.988298,0.7317545000000001,0.0737815,0.8412109999999999,0.4851245,0.0534425,0.716641,0.6806745000000001,-0.0374425,1.1472310000000001,0.4947044999999999,0.0640705,1.289541,0.6931745,-0.0197834999999999,0.683881,0.8744745,-0.1456325,1.345661,0.8866445000000001,-0.1286425,0.926964,-0.0020524999999999,-0.0040774999999999,1.073036,0.0020525,0.0040775,0.885171,-0.4290955,-0.0025304999999999,1.125971,-0.3905255,-0.0148905,0.872541,-0.7725654999999999,-0.0250475,1.132041,-0.7672255,-0.0034155
40,0.9885360000000001,0.73044,0.0722595,0.8413539999999999,0.48605,0.0535465,0.7210840000000001,0.69595,-0.0265475,1.147144,0.4974699999999999,0.0637095,1.284814,0.70758,-0.0125454999999999,0.688234,0.89429,-0.1210794999999999,1.3385639999999999,0.90399,-0.1065495,0.927107,-0.0021149999999999,-0.0040984999999999,1.072893,0.0021149999999999,0.0040985,0.884974,-0.43045,-0.0025064999999999,1.1257139999999999,-0.39323,-0.0148184999999999,0.872764,-0.7755,-0.0250455,1.132004,-0.76978,-0.0031924999999999
41,0.988808,0.7296545,0.0702829999999999,0.841879,0.4869044999999999,0.0536409999999999,0.725679,0.7085545,-0.016909,1.146789,0.4994445,0.063661,1.279749,0.7201745,-0.005684,0.691959,0.9109845,-0.099816,1.331709,0.9176945,-0.085736,0.927263,-0.0021484999999999,-0.004228,1.072737,0.0021485,0.0042279999999999,0.884759,-0.4312955,-0.00245,1.125439,-0.3954855,-0.014713,0.872899,-0.7780855,-0.025093,1.131939,-0.7719355,-0.002832
42,0.9889230000000001,0.7287805,0.0686185,0.842462,0.4873605,0.0535675,0.7294419999999999,0.7183805000000001,-0.0075694999999999,1.146202,0.5014205,0.0635085,1.274712,0.7320805,0.0019255,0.695492,0.9261005,-0.0789825,1.324582,0.9309705,-0.0649725,0.927403,-0.0023024999999999,-0.0042704999999999,1.072597,0.0023024999999999,0.0042705,0.884882,-0.4325595,-0.0026424999999999,1.125382,-0.3970295,-0.0148514999999999,0.8730220000000001,-0.7795095,-0.0253134999999999,1.132072,-0.7735394999999999,-0.0029494999999999
43,0.9890220000000001,0.7279875,0.067107,0.8433490000000001,0.4879475,0.053516,0.732819,0.7268175,0.001318,1.145449,0.5032575,0.063375,1.270019,0.7416775,0.009383,0.699039,0.9354475,-0.0581369999999999,1.317909,0.9421775,-0.045503,0.927532,-0.0024524999999999,-0.0043099999999999,1.072468,0.0024525,0.00431,0.884989,-0.4337124999999999,-0.0028219999999999,1.125289,-0.3985925,-0.0149889999999999,0.873129,-0.7809024999999999,-0.0255459999999999,1.132209,-0.7749024999999999,-0.0028969999999999
44,0.9891435000000001,0.7274915,0.0659765,0.8444754999999999,0.4886515,0.0534125,0.7361455,0.7329415,0.0094594999999999,1.1443855,0.5047715,0.0632215,1.2665155000000001,0.7475515,0.0164324999999999,0.7021055,0.9434515,-0.0407185,1.3118154999999998,0.9509015,-0.0270025,0.9276205,-0.0026124999999999,-0.0043705,1.0723795,0.0026125,0.0043704999999999,0.8851255000000001,-0.4345485,-0.0030135,1.1253655,-0.3997085,-0.0151485,0.8732755,-0.7819385,-0.0258315,1.1323455,-0.7758185,-0.0030575
45,0.9893335000000001,0.7274959999999999,0.0652295,0.8455185000000001,0.489106,0.0538035,0.7387785,0.7373959999999999,0.0163625,1.1431085,0.506026,0.0635905,1.2627685,0.7495259999999999,0.0240005,0.7044585,0.949866,-0.0255574999999999,1.3062485,0.956566,-0.0117894999999999,0.9276885,-0.0027,-0.0044364999999999,1.0723115,0.0027,0.0044365,0.8852685,-0.434834,-0.0031664999999999,1.1254285,-0.400514,-0.0152674999999999,0.8738785,-0.783624,-0.0261465,1.1327385,-0.776854,-0.0034345
46,0.9895700000000001,0.7274745,0.06477,0.846491,0.4892945,0.054318,0.740741,0.7416145000000001,0.022553,1.141811,0.5073345,0.064263,1.258821,0.7498745,0.031587,0.7067209999999999,0.9554345,-0.0114809999999999,1.300841,0.9620345,0.002656,0.927746,-0.0027335,-0.0045609999999999,1.072254,0.0027335,0.004561,0.885381,-0.4351455,-0.0033349999999999,1.125461,-0.4012755,-0.0153869999999999,0.874591,-0.7852055,-0.026367,1.133091,-0.7779754999999999,-0.0038849999999999
47,0.9896805,0.7274525000000001,0.064526,0.8472315,0.4894925,0.0547879999999999,0.7411615,0.7440425,0.0259979999999999,1.1406615,0.5082025,0.065111,1.2556115,0.7495925,0.0373969999999999,0.7077115,0.9564525,-0.003983,1.2975715,0.9645525,0.0105749999999999,0.9278105000000001,-0.0027874999999999,-0.004706,1.0721895,0.0027874999999999,0.0047059999999999,0.8856415,-0.4357575,-0.003623,1.1254415,-0.4018175,-0.015704,0.8752615,-0.7870174999999999,-0.026839,1.1336715,-0.7797974999999999,-0.004414
48,0.98988,0.7274715,0.0641575,0.847825,0.4895615,0.0551475,0.741445,0.7442015000000001,0.0287465,1.139815,0.5087515,0.0659685,1.2526950000000001,0.7498915,0.0424815,0.708755,0.9572215,0.0025934999999999,1.294525,0.9665215,0.0180025,0.927827,-0.0027644999999999,-0.0047564999999999,1.072173,0.0027645,0.0047565,0.885955,-0.4363985,-0.0040364999999999,1.125465,-0.4023285,-0.0161344999999999,0.876015,-0.7887584999999999,-0.0274195,1.134295,-0.7814585,-0.0050175
49,0.990111,0.7274505,0.063689,0.848306,0.4897205,0.055436,0.741646,0.7440805,0.030486,1.139146,0.5092605,0.066979,1.250596,0.7508805,0.0465639999999999,0.709456,0.9571805,0.0068439999999999,1.2919859999999999,0.9680805,0.0238409999999999,0.927832,-0.0027475,-0.0048349999999999,1.072168,0.0027475,0.0048349999999999,0.886266,-0.4373095,-0.00457,1.125446,-0.4028495,-0.016667,0.876726,-0.7904195,-0.02814,1.134906,-0.7831595,-0.005638
50,0.9904615,0.727245,0.0631095,0.8488725,0.4901349999999999,0.0555595,0.7419125,0.744125,0.0317775,1.1387725,0.5097050000000001,0.0680205,1.2494425,0.7518950000000001,0.0491265,0.7098424999999999,0.957315,0.0088894999999999,1.2906525,0.968715,0.0271024999999999,0.9278455,-0.002841,-0.0049335,1.0721545,0.0028409999999999,0.0049334999999999,0.8865725,-0.438185,-0.0052924999999999,1.1255025,-0.403275,-0.0173305,0.8775025000000001,-0.791955,-0.0290545,1.1355625,-0.784565,-0.0063655
51,0.9908935000000001,0.7273055,0.0626545,0.8491555,0.4900555,0.0554665,0.7421955,0.7436755,0.0320965,1.1386055,0.5105055,0.0688045,1.2489455,0.7528755,0.0501725,0.7101255,0.9577055,0.0087095,1.2902955,0.9692055,0.0280645,0.9278515,-0.0029344999999999,-0.0050064999999999,1.0721485,0.0029344999999999,0.0050065,0.8868055,-0.4387745,-0.0062585,1.1256455,-0.4035745,-0.0182125,0.8780654999999999,-0.7931645,-0.0303015,1.1362155,-0.7856445,-0.0072744999999999
52,0.9914370000000001,0.727393,0.0621785,0.849499,0.4897629999999999,0.0551355,0.742259,0.744303,0.0318175,1.138569,0.511433,0.0693034999999999,1.248809,0.753723,0.0505515,0.710459,0.958333,0.0076745,1.290349,0.969833,0.0281065,0.9278220000000001,-0.003035,-0.0049975,1.0721779999999999,0.003035,0.0049975,0.8870890000000001,-0.439247,-0.0074595,1.125829,-0.403847,-0.0192934999999999,0.878609,-0.794197,-0.0317275,1.136909,-0.786837,-0.0088605
53,0.9920645,0.72742,0.0618245,0.8498575000000002,0.48924,0.0544455,0.7425375000000001,0.74369,0.0309605,1.1386375,0.5122599999999999,0.0693495,1.2490175,0.75427,0.0501485,0.7108675,0.95847,0.0062895,1.2907475,0.97077,0.0271605,0.9277925,-0.0031199999999999,-0.0050484999999999,1.0722075,0.0031199999999999,0.0050485,0.8874775,-0.4397399999999999,-0.0089994999999999,1.1261174999999999,-0.4040399999999999,-0.0207534999999999,0.8792075,-0.79493,-0.0334664999999999,1.1377575,-0.78766,-0.0108084999999999
54,0.992892,0.727435,0.0605015,0.850174,0.488845,0.0527254999999999,0.743004,0.743965,0.0290344999999999,1.1391040000000001,0.5125350000000001,0.0683624999999999,1.249594,0.7546350000000001,0.0482225,0.7112240000000001,0.958585,0.0043645,1.291324,0.970985,0.0252345,0.927729,-0.0031539999999999,-0.0049615,1.072271,0.003154,0.0049615,0.887994,-0.4396549999999999,-0.0110905,1.126414,-0.404205,-0.0227495,0.879784,-0.794935,-0.0360055,1.138364,-0.7879349999999999,-0.0132844999999999
55,0.993689,0.72751,0.0588695,0.850475,0.48843,0.0506694999999999,0.743495,0.74437,0.0267924999999999,1.139625,0.5126,0.0668285,1.249505,0.75346,0.0459835,0.711565,0.95857,0.0017454999999999,1.291845,0.97117,0.0229925,0.927652,-0.003144,-0.0048445,1.072348,0.003144,0.0048444999999999,0.8884950000000001,-0.43962,-0.0135875,1.126685,-0.40503,-0.0250715,0.880675,-0.79489,-0.0388705,1.139065,-0.7885,-0.0165435
56,0.9944695000000001,0.7276415,0.0569029999999999,0.8507175000000001,0.4882115,0.048325,0.7438775,0.7448115000000001,0.024345,1.1401375,0.5128515,0.064909,1.2494275,0.7519815,0.043539,0.7118074999999999,0.9585415,-0.0018369999999999,1.2924275,0.9713415,0.020544,0.9275385,-0.0030735,-0.004725,1.0724615,0.0030735,0.004725,0.8888175,-0.4401085,-0.016543,1.1269775,-0.4059585,-0.027599,0.8815175000000001,-0.7949085,-0.0420519999999999,1.1397075,-0.7888284999999999,-0.0200439999999999
57,0.995275,0.7281315,0.0545855,0.851099,0.4881815,0.0456735,0.744159,0.7449315,0.0211965,1.140559,0.5133415,0.0625894999999999,1.249369,0.7502415,0.0407625,0.712079,0.9583315,-0.0071414999999999,1.293489,0.9713315,0.0170015,0.927455,-0.0029174999999999,-0.0047864999999999,1.072545,0.0029175,0.0047864999999999,0.888679,-0.4410185,-0.0200155,1.126929,-0.4069784999999999,-0.0303785,0.881899,-0.7951185,-0.0453195,1.140199,-0.7893585,-0.0238605
58,0.9957205,0.729119,0.0520125,0.8508884999999999,0.488099,0.0427675,0.7439285,0.7451990000000001,0.0174575,1.1405985,0.514459,0.0597874999999999,1.2495885,0.749859,0.0369064999999999,0.7116184999999999,0.958249,-0.0127095,1.2942885,0.971349,0.0127285,0.9273095000000001,-0.0028089999999999,-0.0047405,1.0726905,0.0028089999999999,0.0047405,0.8882185,-0.441471,-0.0240105,1.1266985,-0.407671,-0.0334295,0.8821385,-0.795091,-0.0492365,1.1404985,-0.789501,-0.0280905
59,0.9960205,0.7301635000000001,0.0490344999999999,0.8507335,0.4880735,0.0395635,0.7435235,0.7456235,0.0130335,1.1405335,0.5158735,0.0565974999999999,1.2496435,0.7496335000000001,0.0323694999999999,0.7108835,0.9583035,-0.0189315,1.2948735,0.9713035,0.0073414999999999,0.9272255,-0.0026585,-0.0047715,1.0727745,0.0026585,0.0047715,0.8876735,-0.4416665,-0.0285724999999999,1.1265035,-0.4092065,-0.0371195,0.8821935,-0.7950465,-0.0537195,1.1407435,-0.7893665,-0.0327495
60,0.99627,0.7312345,0.045806,0.8508169999999999,0.4880445,0.03611,0.743277,0.7452544999999999,0.007979,1.140457,0.5172844999999999,0.053134,1.249527,0.7482945,0.027648,0.710037,0.9582845,-0.025458,1.2952569999999999,0.9710845,0.00122,0.927172,-0.0025444999999999,-0.004727,1.072828,0.0025444999999999,0.0047269999999999,0.887077,-0.4414054999999999,-0.033669,1.126507,-0.4100654999999999,-0.041192,0.8822270000000001,-0.7948055,-0.0584909999999999,1.140967,-0.7890355,-0.037676
61,0.9964815000000001,0.731985,0.0418805,0.8508635,0.487995,0.0319955,0.7428435,0.7438450000000001,0.0020785,1.1403035,0.5185350000000001,0.0490095,1.2495034999999999,0.747565,0.0221355,0.7088935000000001,0.957755,-0.0340385,1.2954435,0.970555,-0.0066734999999999,0.9271615,-0.0024339999999999,-0.0047665,1.0728385,0.0024339999999999,0.0047665,0.8864635000000001,-0.440965,-0.0402115,1.1264835,-0.410275,-0.0466465,0.8822035,-0.794175,-0.0638934999999999,1.1411735,-0.788445,-0.0434844999999999
62,0.9966105,0.732489,0.037966,0.8507095,0.487679,0.027881,0.7423394999999999,0.7421789999999999,-0.0039939999999999,1.1401195,0.519629,0.044885,1.2495095,0.7465989999999999,0.016469,0.7077595,0.957119,-0.043059,1.2953595,0.969719,-0.015202,0.9271125,-0.002382,-0.00458,1.0728875,0.002382,0.00458,0.8857795,-0.440251,-0.047511,1.1263995,-0.410611,-0.052731,0.8822095,-0.793231,-0.06931,1.1413195,-0.787451,-0.049196
63,0.9966685,0.7323900000000001,0.034286,0.8506104999999999,0.48774,0.024153,0.7416905,0.73994,-0.0097419999999999,1.1399905,0.5188400000000001,0.0415479999999999,1.2493504999999998,0.7444000000000001,0.0109,0.7067005,0.95663,-0.051717,1.2952005,0.96903,-0.023829,0.9269955,-0.002165,-0.0046479999999999,1.0730045,0.002165,0.0046479999999999,0.8851405000000001,-0.43901,-0.055228,1.1262505,-0.41009,-0.059453,0.8822005,-0.7914899999999999,-0.0742729999999999,1.1415004999999998,-0.7858099999999999,-0.054706
64,0.9966555000000001,0.731358,0.030607,0.8504484999999999,0.4877279999999999,0.020577,0.7410185,0.7375079999999999,-0.015503,1.1398185,0.518038,0.038204,1.2490885,0.740988,0.005227,0.7060584999999999,0.956058,-0.060657,1.2952985,0.968148,-0.032895,0.9268455,-0.0019139999999999,-0.0047789999999999,1.0731545,0.0019139999999999,0.004779,0.8844085000000002,-0.4372819999999999,-0.063708,1.1261985,-0.408452,-0.06666,0.8825385,-0.7891320000000001,-0.079351,1.1418785,-0.783402,-0.060305
65,0.9964940000000001,0.729966,0.026698,0.850141,0.487876,0.016953,0.7402410000000001,0.734846,-0.021577,1.139511,0.517336,0.03491,1.2487009999999998,0.7367859999999999,-0.0007539999999999,0.705361,0.954966,-0.069996,1.2952110000000001,0.967116,-0.042391,0.926666,-0.001786,-0.0046929999999999,1.073334,0.001786,0.004693,0.883611,-0.435014,-0.072731,1.126301,-0.406334,-0.074484,0.8827710000000001,-0.786384,-0.084595,1.142161,-0.7805340000000001,-0.06576
66,0.996059,0.728714,0.02269,0.849954,0.487374,0.013273,0.739234,0.7329640000000001,-0.027826,1.1390539999999998,0.515924,0.031474,1.247804,0.731664,-0.006901,0.704604,0.954514,-0.079607,1.2947440000000001,0.966454,-0.052589,0.926467,-0.0017119999999999,-0.004487,1.073533,0.001712,0.004487,0.882564,-0.431536,-0.082043,1.126384,-0.4033759999999999,-0.083147,0.8829740000000001,-0.782506,-0.090001,1.142164,-0.776706,-0.071611
67,0.9956170000000001,0.7268515,0.017482,0.850074,0.4864914999999999,0.008062,0.738634,0.7293315,-0.036647,1.138804,0.5138715,0.026347,1.247214,0.7289115,-0.01543,0.703994,0.9497515,-0.0928109999999999,1.294194,0.9625115,-0.0667,0.926117,-0.0015275,-0.0044969999999999,1.073883,0.0015274999999999,0.004497,0.881494,-0.4235885,-0.09393,1.1265640000000001,-0.3984884999999999,-0.0950749999999999,0.8823940000000001,-0.7745585,-0.096667,1.141574,-0.7687585,-0.078712
68,0.9951435,0.7245965,0.012317,0.8502305,0.4859365,0.002894,0.7380105,0.7256165,-0.045354,1.1385805,0.5118265,0.021261,1.2465804999999999,0.7264065,-0.0241009999999999,0.7033305000000001,0.9458065,-0.1056619999999999,1.2935405,0.9594765,-0.08023,0.9258265,-0.0013924999999999,-0.0043149999999999,1.0741735000000001,0.0013924999999999,0.004315,0.8803805,-0.4147935,-0.10615,1.1267505,-0.3923435,-0.107001,0.8817805,-0.7657635,-0.103087,1.1409505,-0.7599635,-0.085891
69,0.9949165000000001,0.721866,0.0072109999999999,0.8507534999999999,0.485056,-0.002217,0.7376335,0.722186,-0.054105,1.1386235,0.509246,0.0161529999999999,1.2462135,0.723526,-0.032969,0.7029434999999999,0.939946,-0.118513,1.2931534999999998,0.955546,-0.0936999999999999,0.9255095000000001,-0.0012209999999999,-0.004106,1.0744905,0.0012209999999999,0.004106,0.8794535,-0.406874,-0.118892,1.1273235,-0.387144,-0.118922,0.8814235,-0.7572040000000001,-0.109578,1.1406335,-0.7514040000000001,-0.093067
70,0.9950845,0.7191585,0.0017525,0.8516715,0.4847785,-0.0068774999999999,0.7376915,0.7198385,-0.0631415,1.1391015,0.5071785,0.0115845,1.2466315,0.7212485,-0.0420544999999999,0.7035515,0.9346885,-0.1300725,1.2934714999999999,0.9506485,-0.1070555,0.9252435,-0.0010705,-0.0038674999999999,1.0747565,0.0010704999999999,0.0038675,0.8780015,-0.3985715,-0.1305485,1.1279015000000001,-0.3817915,-0.1296215,0.8810815,-0.7466915,-0.1154284999999999,1.1405414999999999,-0.7419215,-0.0996155
71,0.995145,0.7167655,-0.0037179999999999,0.852245,0.4839755,-0.0115699999999999,0.737765,0.7174755,-0.072159,1.138805,0.5048555,0.00702,1.246955,0.7191655,-0.051215,0.704215,0.9298855,-0.141355,1.293775,0.9462655,-0.1201899999999999,0.9251030000000001,-0.0008964999999999,-0.0037209999999999,1.074897,0.0008964999999999,0.003721,0.876505,-0.3889844999999999,-0.141875,1.128445,-0.3728245,-0.140315,0.8809250000000001,-0.7357144999999999,-0.1210919999999999,1.140085,-0.7319844999999999,-0.106238
72,0.995456,0.7139325,-0.0099484999999999,0.8530110000000001,0.4826525,-0.0177545,0.737921,0.7163025,-0.0833395,1.138521,0.5031225,0.0010485,1.247461,0.7175524999999999,-0.0625915,0.705141,0.9285725,-0.1552474999999999,1.294171,0.9438425,-0.1353825,0.924929,-0.0007495,-0.0037565,1.0750709999999999,0.0007495,0.0037564999999999,0.874781,-0.3721975,-0.1556775,1.128921,-0.3571875,-0.1524475,0.880931,-0.7182575,-0.1273805,1.139621,-0.7156275,-0.1132745
73,0.9958885,0.7124064999999999,-0.0195754999999999,0.8537455,0.4822765,-0.0273114999999999,0.7382155,0.7141865,-0.0978195,1.1383154999999998,0.5021865,-0.0082464999999999,1.2481354999999998,0.7150465,-0.0771534999999999,0.7065555,0.9225165,-0.1721815,1.2949354999999998,0.9363265,-0.1539215,0.9246705,-0.0008404999999999,-0.0032364999999999,1.0753295,0.0008405,0.0032365,0.8732555,-0.3554334999999999,-0.1723015,1.1294055,-0.3412535,-0.1679815,0.8809655,-0.7000835,-0.1369544999999999,1.1391455,-0.6983435,-0.1230585
74,0.996249,0.712413,-0.0305904999999999,0.85468,0.481203,-0.0379705,0.73874,0.712663,-0.1130515,1.13811,0.498963,-0.0189794999999999,1.24896,0.711083,-0.0919885,0.70791,0.919143,-0.1895385,1.29576,0.931713,-0.1731685,0.924335,-0.00064,-0.0029844999999999,1.075665,0.00064,0.0029845,0.8710100000000001,-0.3325869999999999,-0.1927984999999999,1.13031,-0.322027,-0.1879685,0.88082,-0.677767,-0.1470455,1.13848,-0.677377,-0.1335355
75,0.9967290000000001,0.7130955,-0.0414644999999999,0.855494,0.4811655,-0.0485514999999999,0.739224,0.7099854999999999,-0.1278294999999999,1.138044,0.4970655,-0.0300244999999999,1.249834,0.7083655,-0.1064074999999999,0.709194,0.9157555,-0.2063265,1.296824,0.9269355,-0.1914965,0.924034,-0.0004714999999999,-0.0027384999999999,1.075966,0.0004714999999999,0.0027385,0.8686440000000001,-0.3105445,-0.2129464999999999,1.131254,-0.3037645,-0.2072864999999999,0.880734,-0.6555345,-0.1568235,1.137554,-0.6566445000000001,-0.1434015
76,0.9972305,0.7132425,-0.0511805,0.8561605,0.4810124999999999,-0.0579885,0.7398305000000001,0.7091625,-0.1396405,1.1380305,0.4949125,-0.0398405,1.2504805,0.7066625000000001,-0.1181224999999999,0.7100204999999999,0.9179525,-0.2197104999999999,1.2978405,0.9260725,-0.2058005,0.9237375,-0.0002374999999999,-0.0024094999999999,1.0762625,0.0002375,0.0024094999999999,0.8661105,-0.2901074999999999,-0.2304705,1.1323905,-0.2873274999999999,-0.2237205,0.8802505,-0.6351374999999999,-0.1647355,1.1363305,-0.6376974999999999,-0.1514444999999999
77,0.997929,0.7136899999999999,-0.060203,0.8568990000000001,0.48042,-0.06693,0.7403490000000001,0.70838,-0.150863,1.1382889999999999,0.49257,-0.048683,1.2512889999999999,0.70273,-0.129001,0.710859,0.91965,-0.233151,1.2990789999999999,0.92468,-0.219791,0.92343,-7.000000000000062e-05,-0.0021619999999999,1.07657,7.000000000000062e-05,0.0021619999999999,0.863829,-0.27085,-0.247231,1.133599,-0.27218,-0.239631,0.8799890000000001,-0.6157600000000001,-0.172136,1.135309,-0.6200100000000001,-0.158856
78,0.9986295000000001,0.71438,-0.0687464999999999,0.8574615000000001,0.47994,-0.0753455,0.7406715000000001,0.70793,-0.1613405,1.1383715,0.4907399999999999,-0.0570994999999999,1.2519415,0.70099,-0.1390745,0.7114015,0.92369,-0.2462835,1.3003715,0.9248,-0.2329735,0.9231125,1.000000000001e-05,-0.0019784999999999,1.0768875,-1.000000000001e-05,0.0019785,0.8615915000000001,-0.25051,-0.2630635,1.1346015,-0.2561,-0.2553735,0.8796315000000001,-0.59521,-0.1789715,1.1341515,-0.6011000000000001,-0.1658784999999999
79,0.9989155,0.7142600000000001,-0.0760124999999999,0.8577975,0.47926,-0.0827784999999999,0.7404075,0.70705,-0.1705205,1.1383575,0.48841,-0.0646634999999999,1.2522075,0.69848,-0.1475284999999999,0.7111075,0.92756,-0.2581035,1.3013975,0.9255,-0.2443934999999999,0.9228525,0.00022,-0.0017544999999999,1.0771475,-0.0002199999999999,0.0017545,0.8599175,-0.2307799999999999,-0.2784135,1.1353674999999999,-0.23768,-0.2709335,0.8791175,-0.5769299999999999,-0.1853524999999999,1.1330775,-0.5830200000000001,-0.1724784999999999
80,0.999106,0.7146350000000001,-0.082855,0.858042,0.478795,-0.089727,0.7399819999999999,0.7072050000000001,-0.179084,1.138192,0.486445,-0.071807,1.252482,0.696755,-0.155198,0.710672,0.929235,-0.269065,1.3026119999999999,0.925195,-0.254805,0.9226340000000001,0.000295,-0.0015849999999999,1.0773659999999998,-0.0002949999999999,0.001585,0.858202,-0.2088049999999999,-0.293745,1.135902,-0.2163649999999999,-0.286235,0.8786520000000001,-0.5560849999999999,-0.191506,1.132092,-0.562405,-0.1784279999999999
81,0.9991780000000001,0.716015,-0.088443,0.857987,0.479725,-0.0947229999999999,0.739587,0.706525,-0.1850109999999999,1.138057,0.485755,-0.076954,1.252857,0.694665,-0.159968,0.710237,0.927245,-0.27585,1.303897,0.923035,-0.2617899999999999,0.92243,0.000285,-0.0011799999999999,1.07757,-0.000285,0.00118,0.8568169999999999,-0.194665,-0.30554,1.136447,-0.202295,-0.29891,0.878157,-0.541925,-0.196274,1.131227,-0.548335,-0.183483
82,0.9992710000000001,0.71684,-0.089868,0.857916,0.47966,-0.095687,0.739296,0.7073400000000001,-0.186717,1.137706,0.4837599999999999,-0.078078,1.253266,0.69356,-0.16048,0.7096260000000001,0.93364,-0.278655,1.305336,0.92829,-0.264395,0.9222180000000001,0.00062,-0.001375,1.077782,-0.00062,0.001375,0.855456,-0.18271,-0.313095,1.1371959999999999,-0.1908299999999999,-0.307195,0.878356,-0.5297999999999999,-0.197355,1.130426,-0.5368299999999999,-0.184503
83,0.999725,0.71624,-0.09034,0.857926,0.47987,-0.096043,0.739576,0.7093,-0.187853,1.137726,0.48339,-0.078411,1.253986,0.6973199999999999,-0.160747,0.709426,0.93706,-0.280765,1.307336,0.93083,-0.266205,0.922154,0.00079,-0.001375,1.077846,-0.0007899999999999,0.001375,0.855156,-0.17534,-0.316515,1.137216,-0.18328,-0.3110549999999999,0.878656,-0.52248,-0.198233,1.130106,-0.5302,-0.185103
84,1.0002265,0.716005,-0.090739,0.8580685,0.479635,-0.096343,0.7397885,0.711565,-0.188755,1.1378085,0.482745,-0.078749,1.2544585,0.699505,-0.160788,0.7094085,0.938665,-0.282375,1.3093285,0.932475,-0.267715,0.9221215,0.000975,-0.001375,1.0778785,-0.000975,0.001375,0.8550985,-0.169795,-0.3191049999999999,1.1371585,-0.177345,-0.314055,0.8789985,-0.5176449999999999,-0.198914,1.1299685,-0.5262150000000001,-0.185102
85,1.000713,0.71615,-0.09112,0.858083,0.47978,-0.096623,0.739643,0.7117100000000001,-0.189543,1.137813,0.48289,-0.078926,1.255333,0.69965,-0.161148,0.7094130000000001,0.93753,-0.282555,1.311513,0.93262,-0.268055,0.9221040000000001,0.0009599999999999,-0.001375,1.077896,-0.0009599999999999,0.001375,0.854983,-0.16804,-0.320195,1.137043,-0.17534,-0.315475,0.8792530000000001,-0.51747,-0.199544,1.129823,-0.52719,-0.185102
86,1.0008309999999998,0.71615,-0.090492,0.8578330000000001,0.47978,-0.095776,0.739383,0.7117100000000001,-0.188732,1.138303,0.48289,-0.078123,1.256613,0.69965,-0.160776,0.7090730000000001,0.93753,-0.281505,1.313363,0.93262,-0.267015,0.922045,0.0009599999999999,-0.001525,1.077955,-0.0009599999999999,0.0015249999999999,0.854643,-0.16848,-0.319825,1.136703,-0.1755999999999999,-0.315335,0.879243,-0.51775,-0.199102,1.129453,-0.52822,-0.184507
87,1.000754,0.71615,-0.089472,0.8575610000000001,0.47978,-0.0948459999999999,0.738971,0.7117100000000001,-0.187357,1.138601,0.48289,-0.077402,1.257771,0.69965,-0.160059,0.708661,0.93753,-0.28013,1.314891,0.93262,-0.26565,0.922065,0.0009599999999999,-0.0016199999999999,1.077935,-0.0009599999999999,0.00162,0.8543410000000001,-0.16848,-0.31845,1.136291,-0.1755999999999999,-0.31396,0.879161,-0.51815,-0.19783,1.129071,-0.52925,-0.183522
88,1.0007285,0.71648,-0.088126,0.8574025000000001,0.47999,-0.09356,0.7383925,0.71313,-0.185616,1.1388525,0.48364,-0.0764519999999999,1.2588225,0.70238,-0.158819,0.7083025000000001,0.93753,-0.27839,1.3163125,0.9336,-0.26392,0.9221465,0.0009599999999999,-0.00153,1.0778535,-0.0009599999999999,0.00153,0.8542925,-0.16848,-0.31671,1.1356225,-0.1755999999999999,-0.31222,0.8791225,-0.51866,-0.196134,1.1287625000000001,-0.53019,-0.182206
89,1.0005765,0.716855,-0.0867135,0.8572405,0.479575,-0.0922775,0.7375705,0.7145349999999999,-0.1838005,1.1389005,0.484195,-0.0754635,1.2594705,0.706825,-0.1573005,0.7082405,0.939525,-0.2755674999999999,1.3174005,0.934685,-0.2619275,0.9221955,0.0008249999999999,-0.0013925,1.0778045,-0.0008249999999999,0.0013924999999999,0.8541005,-0.170145,-0.3148975,1.1348004999999999,-0.1772649999999999,-0.3103975,0.8788205,-0.520325,-0.1943225,1.1284405,-0.5318550000000001,-0.1803935
90,1.0004555,0.718035,-0.0851939999999999,0.8572625,0.481055,-0.0909,0.7369225000000001,0.718005,-0.181778,1.1389525,0.485245,-0.074279,1.2599725,0.708915,-0.155313,0.7083925000000001,0.939645,-0.271676,1.3185425,0.933985,-0.258896,0.9222015000000001,0.000965,-0.0013439999999999,1.0777984999999999,-0.0009649999999999,0.0013439999999999,0.8541125,-0.174415,-0.312286,1.1339425,-0.181475,-0.308106,0.8786925000000001,-0.525285,-0.192331,1.1282925,-0.536815,-0.178402
91,1.0002689999999999,0.72055,-0.0834165,0.8573370000000001,0.4813699999999999,-0.0893185,0.736497,0.72126,-0.1792564999999999,1.138897,0.48627,-0.0729385,1.260107,0.71131,-0.1529565,0.7085969999999999,0.93983,-0.2672685,1.3193069999999998,0.93614,-0.2555985,0.922203,0.0009799999999999,-0.0013335,1.077797,-0.00098,0.0013335,0.8541170000000001,-0.18014,-0.3086985,1.132947,-0.18708,-0.3047685,0.878467,-0.53235,-0.1902815,1.128147,-0.5437500000000001,-0.1762155
92,1.0001835,0.72236,-0.081212,0.8575524999999999,0.48217,-0.087648,0.7366524999999999,0.72342,-0.176583,1.1389825,0.48726,-0.071671,1.2607925,0.71253,-0.150588,0.7086825,0.94163,-0.262424,1.3199225,0.93956,-0.252174,0.9222885,0.00112,-0.0013159999999999,1.0777115,-0.00112,0.0013159999999999,0.8542825000000001,-0.18811,-0.303504,1.1320825,-0.1950599999999999,-0.299844,0.8783825000000001,-0.54383,-0.188241,1.1281425,-0.55491,-0.173651
93,1.0002015,0.7242299999999999,-0.0787715,0.8575705,0.48197,-0.0857405,0.7370205000000001,0.72546,-0.1734804999999999,1.1390805,0.48785,-0.0703324999999999,1.2614905,0.7135400000000001,-0.1480435,0.7088205000000001,0.94323,-0.2570835,1.3205705,0.94299,-0.2488335,0.9225365000000001,0.00114,-0.0014225,1.0774635,-0.00114,0.0014224999999999,0.8546405,-0.19727,-0.2974835,1.1313005,-0.2041899999999999,-0.2943234999999999,0.8784005,-0.55684,-0.1858425,1.1281805,-0.56766,-0.1708485
94,1.000249,0.7265699999999999,-0.0763639999999999,0.857608,0.4817,-0.0838739999999999,0.737468,0.7266,-0.169979,1.139218,0.48889,-0.068965,1.262068,0.71428,-0.1452939999999999,0.708868,0.94129,-0.251356,1.3208280000000001,0.94429,-0.2450159999999999,0.922785,0.001,-0.0013689999999999,1.077215,-0.001,0.001369,0.855008,-0.20628,-0.290756,1.130568,-0.21255,-0.288006,0.878398,-0.5701,-0.183508,1.128238,-0.58004,-0.167959
95,1.000095,0.729015,-0.073952,0.857612,0.481475,-0.082097,0.737512,0.726445,-0.166094,1.1392120000000001,0.490605,-0.067522,1.262602,0.715205,-0.142343,0.708882,0.942665,-0.245959,1.321082,0.945805,-0.240919,0.923081,0.000795,-0.001353,1.076919,-0.0007949999999999,0.0013529999999999,0.8553720000000001,-0.2152949999999999,-0.283639,1.129862,-0.2216449999999999,-0.281319,0.877982,-0.583805,-0.180778,1.1282320000000001,-0.592675,-0.164968
96,0.999737,0.729885,-0.071194,0.85747,0.4836749999999999,-0.079851,0.73752,0.725785,-0.161717,1.1391499999999999,0.491345,-0.065428,1.26276,0.7155849999999999,-0.139,0.70869,0.944075,-0.240394,1.32128,0.948065,-0.236344,0.923455,0.0006849999999999,-0.001475,1.076545,-0.0006849999999999,0.0014749999999999,0.85553,-0.224315,-0.276034,1.1291399999999998,-0.230825,-0.274244,0.87749,-0.597465,-0.177729,1.12818,-0.605055,-0.1610889999999999
97,0.9989895,0.7321949999999999,-0.0686094999999999,0.8571775,0.485205,-0.0778155,0.7370975,0.726165,-0.1571435,1.1389475,0.490715,-0.0631045,1.2625975,0.7159249999999999,-0.1358575,0.7082174999999999,0.951545,-0.2354405,1.3211975,0.951695,-0.2320005,0.9239125,0.0006749999999999,-0.0017534999999999,1.0760875,-0.000675,0.0017535,0.8556075,-0.231925,-0.2691805,1.1283675,-0.238205,-0.2675005,0.8768175,-0.6089249999999999,-0.1746964999999999,1.1280075,-0.6150150000000001,-0.1574654999999999
98,0.9980645,0.73335,-0.065482,0.8567195,0.4869799999999999,-0.074997,0.7365295000000001,0.7272,-0.1518709999999999,1.1387595,0.4915,-0.0602879999999999,1.2620795,0.71524,-0.131161,0.7075294999999999,0.95388,-0.230394,1.3211095,0.95546,-0.226554,0.9243215,0.0007899999999999,-0.0019669999999999,1.0756785,-0.0007899999999999,0.0019669999999999,0.8556495,-0.24088,-0.260434,1.1276495,-0.24714,-0.259194,0.8760195,-0.6215,-0.171128,1.1276895,-0.6265000000000001,-0.153365
99,0.9971155000000002,0.736074,-0.062016,0.8562375,0.486934,-0.072266,0.7361275,0.726384,-0.146469,1.1384175,0.4912539999999999,-0.057557,1.2615875,0.716434,-0.126213,0.7067475,0.957694,-0.225235,1.3211475,0.960594,-0.221185,0.9246485,0.0006329999999999,-0.002179,1.0753515,-0.000633,0.002179,0.8557275,-0.248906,-0.252195,1.1270875,-0.254846,-0.251025,0.8751075,-0.6325459999999999,-0.167483,1.1274475,-0.636146,-0.149463
100,0.996073,0.738163,-0.0584994999999999,0.855551,0.487643,-0.0693234999999999,0.736001,0.7257830000000001,-0.1410285,1.137761,0.492543,-0.0546714999999999,1.261151,0.717213,-0.1213104999999999,0.705581,0.960983,-0.2200444999999999,1.321091,0.963083,-0.2155844999999999,0.925162,0.000351,-0.0023514999999999,1.074838,-0.000351,0.0023515,0.855721,-0.256587,-0.2437444999999999,1.1266209999999999,-0.261837,-0.2423445,0.874071,-0.642987,-0.1639195,1.127321,-0.645107,-0.1456064999999999
101,0.9955165,0.7402605,-0.055102,0.8549125,0.4896605,-0.066373,0.7356525,0.7265805,-0.135498,1.1379925,0.4933805,-0.051831,1.2612725,0.7209804999999999,-0.116641,0.7045125,0.9642605,-0.214675,1.3214125,0.9647305,-0.209685,0.9255605000000001,8.450000000000124e-05,-0.002557,1.0744395,-8.450000000000124e-05,0.002557,0.8562825000000001,-0.2688695,-0.235155,1.1266625,-0.2731095,-0.233495,0.8738625,-0.6552695000000001,-0.160381,1.1275525,-0.6563595000000001,-0.1420259999999999
102,0.9950205,0.7424759999999999,-0.0516435,0.8544345,0.491296,-0.0637385,0.7353845,0.7273559999999999,-0.1299555,1.1383145,0.494496,-0.0490475,1.2614745,0.7251460000000001,-0.1123355,0.7034345,0.967456,-0.2095274999999999,1.3219045,0.966216,-0.2035874999999999,0.9260174999999999,-0.000149,-0.0025975,1.0739825,0.0001489999999999,0.0025975,0.8569045,-0.280474,-0.2264175,1.1268145,-0.284324,-0.2243875,0.8734744999999999,-0.666874,-0.1572425,1.1278645,-0.6671640000000001,-0.1385515
103,0.9945560000000001,0.7425765,-0.043312,0.854098,0.4910065,-0.056186,0.735268,0.7266165,-0.119666,1.138728,0.4941065,-0.041497,1.2618179999999999,0.7277264999999999,-0.103272,0.702348,0.9686765,-0.199569,1.322408,0.9658065,-0.192549,0.92661,-0.0004465,-0.0026389999999999,1.07339,0.0004465,0.002639,0.857698,-0.2932435,-0.2120889999999999,1.127158,-0.2970935,-0.209799,0.873318,-0.6796935000000001,-0.14892,1.128388,-0.6799335000000001,-0.130177
104,0.9941095,0.7424575,-0.0344835,0.8534435000000001,0.4925275,-0.0479415,0.7351535,0.7266975,-0.1090985,1.1391035,0.4954675,-0.0327275,1.2622035,0.7273575,-0.0937665,0.7012635,0.9666675,-0.1887805,1.3229834999999999,0.9645075,-0.1808105,0.9272305,-0.0005585,-0.0028784999999999,1.0727695,0.0005585,0.0028784999999999,0.8593335000000001,-0.3094125,-0.1932505,1.1265135,-0.3099425,-0.1915405,0.8735634999999999,-0.6930425,-0.1399285,1.1288335,-0.6927825000000001,-0.1205055
105,0.9936955,0.7427769999999999,-0.02576,0.8530835,0.491627,-0.039804,0.7350835,0.727247,-0.098942,1.1391835,0.497037,-0.024027,1.2628335,0.7291869999999999,-0.084508,0.7001235,0.965677,-0.1780479999999999,1.3233835,0.963007,-0.169298,0.9275675,-0.0008389999999999,-0.00295,1.0724325,0.000839,0.0029499999999999,0.8611735,-0.3245829999999999,-0.174978,1.1259935,-0.321353,-0.173648,0.8737735,-0.705383,-0.1312849999999999,1.1294235,-0.7041930000000001,-0.111537
106,0.9933365000000001,0.7421685,-0.0171795,0.8527065,0.4911385,-0.0316545,0.7347965000000001,0.7275285,-0.0890775,1.1392465,0.4989885,-0.0153085,1.2635565,0.7294285,-0.0753195,0.6993564999999999,0.9599585,-0.1673494999999999,1.3236665,0.9599885,-0.1577195,0.9277915,-0.0012034999999999,-0.0030374999999999,1.0722085,0.0012035,0.0030374999999999,0.8630665000000001,-0.3400415,-0.1566195,1.1254765,-0.3331815,-0.1561295,0.8740565000000001,-0.7169615,-0.1219075,1.1300865,-0.7153615,-0.1025975
107,0.9929060000000001,0.743055,-0.008944,0.8522959999999999,0.491175,-0.023706,0.734626,0.726805,-0.079837,1.139386,0.499475,-0.006953,1.263766,0.731455,-0.066367,0.698626,0.955875,-0.156528,1.323566,0.956725,-0.145998,0.927834,-0.0015409999999999,-0.003329,1.072166,0.0015409999999999,0.0033289999999999,0.865346,-0.354305,-0.139108,1.124976,-0.343105,-0.139208,0.874386,-0.7271449999999999,-0.112695,1.130806,-0.724965,-0.094002
108,0.9922690000000001,0.7412679999999999,-0.0005079999999999,0.851367,0.491938,-0.0150849999999999,0.734227,0.7256279999999999,-0.0705109999999999,1.139457,0.501728,0.002141,1.263837,0.732368,-0.057212,0.6978869999999999,0.951088,-0.1458809999999999,1.3233769999999998,0.952948,-0.133851,0.927888,-0.0019039999999999,-0.0035159999999999,1.072112,0.001904,0.003516,0.8677170000000001,-0.369722,-0.121413,1.124487,-0.353502,-0.122526,0.8747170000000001,-0.738212,-0.1034979999999999,1.131327,-0.735352,-0.085327
109,0.9917035000000001,0.739926,0.0076085,0.8502725000000001,0.492796,-0.0062825,0.7338025,0.724866,-0.0614305,1.1395125,0.502526,0.0108365,1.2639025,0.734206,-0.0481365,0.6973625,0.946796,-0.1357085,1.3232725,0.949716,-0.1219784999999999,0.9279435,-0.002162,-0.0037214999999999,1.0720565,0.0021619999999999,0.0037214999999999,0.8701125000000001,-0.383984,-0.1044175,1.1240125,-0.363204,-0.1069435,0.8752025000000001,-0.746494,-0.0947175,1.1318625,-0.744854,-0.0768555
110,0.99132,0.73877,0.015488,0.849709,0.49261,0.002285,0.7337290000000001,0.72325,-0.0524979999999999,1.139729,0.50376,0.019472,1.264149,0.73382,-0.038938,0.697199,0.94291,-0.126137,1.323289,0.94709,-0.110287,0.927915,-0.002411,-0.003887,1.072085,0.002411,0.003887,0.872619,-0.39805,-0.08824,1.123699,-0.37254,-0.092103,0.8758090000000001,-0.75556,-0.086158,1.132679,-0.75379,-0.068446
111,0.9910705000000001,0.7370415,0.0237585,0.8493025,0.4927015,0.0108195,0.7337724999999999,0.7218515,-0.0434075,1.1401025,0.5049115000000001,0.0282215,1.2645825,0.7332515000000001,-0.0296045,0.6972725,0.9392315,-0.1162205,1.3235625,0.9438515,-0.0984775,0.9277495,-0.0026314999999999,-0.0040705,1.0722505,0.0026315,0.0040704999999999,0.8753225,-0.4118385,-0.0722315,1.1235025,-0.3821084999999999,-0.0773165,0.8765825,-0.7646685,-0.0778095,1.1337424999999999,-0.7630684999999999,-0.0599185
112,0.990919,0.7368345,0.026767,0.848886,0.4948344999999999,0.014303,0.733746,0.7231245,-0.039608,1.140756,0.5074744999999999,0.031962,1.265106,0.7344045,-0.02527,0.697496,0.9377045,-0.11147,1.3238159999999999,0.9424945,-0.091746,0.927284,-0.0027755,-0.004338,1.072716,0.0027755,0.004338,0.878056,-0.4238355,-0.062471,1.123276,-0.3902354999999999,-0.06851,0.877316,-0.7719355,-0.074263,1.134716,-0.7705855,-0.0559459999999999
113,0.9909325000000001,0.736788,0.0292565,0.8485545,0.495178,0.0173655,0.7341145,0.723338,-0.0364844999999999,1.1416945,0.508078,0.0350375,1.2655445,0.7345079999999999,-0.0210535,0.6982045,0.937178,-0.1068145,1.3243545,0.941988,-0.0853855,0.9270295,-0.0030869999999999,-0.0043465,1.0729705,0.0030869999999999,0.0043465,0.8798045,-0.427362,-0.0573425,1.1238145,-0.393762,-0.0634305,0.8779045,-0.776642,-0.0715925,1.1353545,-0.774112,-0.0533245
114,0.9910155,0.7364025,0.031521,0.8483495,0.4951725,0.02047,0.7345295000000001,0.7233425,-0.033311,1.1427195,0.5088625,0.0381289999999999,1.2659995,0.7337024999999999,-0.016847,0.6988295000000001,0.9368425,-0.10231,1.3249595,0.9415725,-0.079285,0.9268835,-0.0032984999999999,-0.004444,1.0731165,0.0032985,0.004444,0.8812895000000001,-0.4306575,-0.052426,1.1242295,-0.3970574999999999,-0.058567,0.8783795,-0.7803375,-0.06892,1.1359695,-0.7774075,-0.050726
115,0.9910595,0.7356644999999999,0.0338735,0.8480995,0.4946345,0.0236145,0.7348494999999999,0.7227045,-0.0301395,1.1435695,0.5096645,0.0413445,1.2662894999999998,0.7324845,-0.0124995,0.6991995,0.9365145,-0.0977995,1.3253795,0.9410645,-0.0732155,0.9267735,-0.0034415,-0.0045035,1.0732265,0.0034415,0.0045035,0.8824695000000001,-0.4338155,-0.0477485,1.1244995,-0.4002155,-0.0535925,0.8785195000000001,-0.7838655,-0.0663275,1.1361395,-0.7805655,-0.0480165
116,0.991219,0.7344285,0.0367435,0.847884,0.4937885000000001,0.0266884999999999,0.735024,0.7222785,-0.0261145,1.143754,0.5105385,0.0450025,1.266484,0.7308685,-0.0075355,0.699344,0.9364685,-0.0933435,1.325584,0.9405785,-0.0670875,0.926777,-0.0035184999999999,-0.0044825,1.073223,0.0035185,0.0044824999999999,0.883154,-0.4358915,-0.0437095,1.124734,-0.4020614999999999,-0.0481835,0.8781140000000001,-0.7867615,-0.0637305,1.1361139999999998,-0.7825615,-0.0444795
117,0.9912355,0.733541,0.0395655,0.8478924999999999,0.4922809999999999,0.0289905,0.7350425,0.722081,-0.0221415,1.1437725,0.510181,0.0481925,1.2665125,0.729781,-0.0028384999999999,0.6992225000000001,0.937211,-0.0890685,1.3256125,0.940471,-0.0614764999999999,0.9267765,-0.003506,-0.0045565,1.0732235,0.0035059999999999,0.0045565,0.8835425,-0.436899,-0.0401515,1.1248025,-0.402469,-0.0432325,0.8777025,-0.788249,-0.0611984999999999,1.1357125,-0.7834990000000001,-0.0408624999999999
118,0.991253,0.7326945,0.042883,0.847912,0.4910345,0.031169,0.735072,0.7219145,-0.017901,1.143792,0.5097845000000001,0.051527,1.266542,0.7287045000000001,0.00208,0.699112,0.9382745,-0.084358,1.325752,0.9405445,-0.055537,0.926776,-0.0034565,-0.004607,1.073224,0.0034564999999999,0.004607,0.883942,-0.4372555,-0.036499,1.124862,-0.4023255,-0.038249,0.8774120000000001,-0.7893055,-0.058379,1.135252,-0.7834555000000001,-0.036712
119,0.991273,0.7316980000000001,0.046217,0.847923,0.4900579999999999,0.033413,0.735093,0.721338,-0.01353,1.143813,0.5092880000000001,0.054992,1.266713,0.7275780000000001,0.0071489999999999,0.698993,0.939358,-0.079237,1.326333,0.940508,-0.049583,0.926776,-0.0033699999999999,-0.004666,1.073224,0.0033699999999999,0.0046659999999999,0.884383,-0.437092,-0.032738,1.124903,-0.401982,-0.033446,0.8771329999999999,-0.7898419999999999,-0.055449,1.134743,-0.7828419999999999,-0.03245
120,0.9913225000000001,0.7311425,0.0495435,0.8478425,0.4895024999999999,0.0358125,0.7349224999999999,0.7207825,-0.0091994999999999,1.1440425,0.5087325,0.0583015,1.2669625,0.7270225,0.0121065,0.6987825,0.9400025,-0.0742705,1.3268525,0.9406925,-0.0438944999999999,0.9268185,-0.0032565,-0.0047855,1.0731815,0.0032565,0.0047855,0.8845825,-0.4366474999999999,-0.0293914999999999,1.1248225,-0.4014175,-0.0292624999999999,0.8769625,-0.7901675,-0.0527065,1.1344225,-0.7819175,-0.0288464999999999
121,0.991254,0.7306425,0.052887,0.847759,0.4885725,0.038237,0.734229,0.7202824999999999,-0.004758,1.144229,0.5082325,0.061515,1.267089,0.7266125,0.016558,0.6984589999999999,0.9402225,-0.06944,1.3272089999999999,0.9408225,-0.038838,0.926844,-0.0031754999999999,-0.004871,1.073156,0.0031754999999999,0.004871,0.884559,-0.4362375,-0.026264,1.124689,-0.4009875,-0.025415,0.876619,-0.7906575,-0.050639,1.133979,-0.7811175,-0.02563
122,0.9910465,0.730307,0.055921,0.8474895,0.487637,0.040721,0.7334695,0.719947,-0.000466,1.1444095,0.508017,0.064307,1.2670095,0.726337,0.020198,0.6979395000000002,0.939887,-0.065647,1.3272095,0.940737,-0.034999,0.9268735,-0.0031159999999999,-0.005006,1.0731265,0.003116,0.005006,0.8842695,-0.435983,-0.023599,1.1244595,-0.400543,-0.022099,0.8760895,-0.790993,-0.048691,1.1334294999999999,-0.780183,-0.022597
123,0.990619,0.7294415000000001,0.058614,0.8468789999999999,0.4866514999999999,0.042989,0.732479,0.7196914999999999,0.0034289999999999,1.144299,0.5077615,0.066606,1.266709,0.7259015,0.023366,0.6966490000000001,0.9396315,-0.0624409999999999,1.326949,0.9404915,-0.031997,0.926941,-0.0030635,-0.005148,1.073059,0.0030634999999999,0.005148,0.883869,-0.4357685,-0.021408,1.124319,-0.4000085,-0.019128,0.875299,-0.7912285000000001,-0.04682,1.132649,-0.7794085,-0.019915
124,0.990003,0.7285834999999999,0.0607185,0.8461190000000001,0.4856334999999999,0.0452324999999999,0.731529,0.7185235,0.0069035,1.144069,0.5074735,0.0683075,1.266559,0.7254935,0.0257245,0.694789,0.9394435,-0.0597705,1.326769,0.9403035,-0.0298734999999999,0.927009,-0.0030744999999999,-0.0052955,1.072991,0.0030745,0.0052955,0.883399,-0.4354964999999999,-0.0196464999999999,1.124219,-0.3995164999999999,-0.0166155,0.8748290000000001,-0.7919265,-0.0451465,1.131909,-0.7788565000000001,-0.0176694999999999
125,0.989527,0.7277265,0.0618855,0.845623,0.4849364999999999,0.0464235,0.730843,0.7171565000000001,0.0080715,1.143593,0.5069765,0.0694745,1.266313,0.7253065000000001,0.0268905,0.693033,0.9394165,-0.0585964999999999,1.326293,0.9402865,-0.0287064999999999,0.927062,-0.0030774999999999,-0.0053805,1.072938,0.0030775,0.0053805,0.8831730000000001,-0.4352135,-0.0184814999999999,1.124473,-0.3990335,-0.0154525,0.874313,-0.7923435,-0.0440615,1.131513,-0.7788735,-0.0165034999999999
126,0.9895325,0.7269565,0.062926,0.8456285,0.4848364999999999,0.047464,0.7304185000000001,0.7159765,0.009115,1.1435985,0.5064565000000001,0.070515,1.2663484999999999,0.7250865000000001,0.027931,0.6914485,0.9391465,-0.057547,1.3262985,0.9402865,-0.0276659999999999,0.9270615,-0.0030774999999999,-0.0054059999999999,1.0729385,0.0030775,0.005406,0.8831785,-0.4350335,-0.0174409999999999,1.1249785,-0.3986735,-0.0144149999999999,0.8742084999999999,-0.7926835,-0.04302,1.1315485,-0.7788735,-0.0154629999999999
127,0.989537,0.726254,0.063678,0.845633,0.4848639999999999,0.048208,0.7297629999999999,0.714964,0.00987,1.143603,0.505874,0.071267,1.2669329999999999,0.724954,0.02868,0.6896230000000001,0.938604,-0.056785,1.326303,0.940294,-0.0269139999999999,0.927061,-0.0030499999999999,-0.0055119999999999,1.072939,0.0030499999999999,0.0055119999999999,0.883123,-0.435006,-0.0166879999999999,1.124983,-0.398646,-0.0136629999999999,0.8740829999999999,-0.793006,-0.042309,1.131643,-0.778846,-0.0147109999999999
128,0.9890645000000001,0.7256095,0.0635455,0.8451285,0.4843895,0.0486614999999999,0.7268785,0.7135295,0.0104735,1.1434585,0.5055595,0.0709355,1.2674984999999999,0.7248495,0.0275545,0.6860085,0.9369595,-0.0565135,1.3256185,0.9391795,-0.0284785,0.9270605000000001,-0.0030385,-0.0055965,1.0729395,0.0030384999999999,0.0055965,0.8831185,-0.4347605,-0.0164285,1.1249784999999999,-0.3984005,-0.0131824999999999,0.8743985000000001,-0.7931405,-0.0415855,1.1321785,-0.7787904999999999,-0.0140835
129,0.988146,0.725065,0.0622145,0.843785,0.4842849999999999,0.0488475,0.721495,0.711365,0.0097625,1.143065,0.504915,0.0696915,1.268525,0.723305,0.0245525,0.679635,0.931625,-0.0581205,1.324165,0.937035,-0.0329755,0.927095,-0.00306,-0.0055494999999999,1.072905,0.00306,0.0055495,0.883545,-0.434335,-0.0165504999999999,1.125515,-0.397975,-0.0124974999999999,0.8749350000000001,-0.7927150000000001,-0.0405705,1.132765,-0.778805,-0.0132754999999999
130,0.9876105000000001,0.7249755,0.060197,0.8421365000000001,0.4848955,0.049359,0.7125365,0.7047755,0.0080679999999999,1.1432465,0.5039155000000001,0.067749,1.2706665,0.7163755,0.019634,0.6696065,0.9205255,-0.06204,1.3233964999999999,0.9280855,-0.041613,0.9272055,-0.0030965,-0.005497,1.0727945,0.0030964999999999,0.0054969999999999,0.8847865,-0.4339245,-0.016861,1.1275265,-0.3970845,-0.011625,0.8771165000000001,-0.7919145,-0.038951,1.1349365,-0.7792644999999999,-0.01251
131,0.987133,0.7255455,0.057449,0.840414,0.4866655,0.049977,0.701634,0.6917755,0.0066009999999999,1.144134,0.5026455,0.065728,1.274804,0.7010755,0.013942,0.657334,0.9022755,-0.066807,1.324404,0.9094355,-0.052632,0.927273,-0.0031265,-0.0052579999999999,1.072727,0.0031264999999999,0.005258,0.886854,-0.4329345,-0.017001,1.130234,-0.3963345,-0.0107,0.8813140000000002,-0.7903145,-0.036501,1.139014,-0.7787445000000001,-0.010902
132,0.987122,0.727017,0.053556,0.83939,0.488777,0.05044,0.69048,0.671017,0.0052779999999999,1.14503,0.500887,0.063456,1.2814899999999998,0.676717,0.0096339999999999,0.64418,0.875277,-0.073902,1.3265099999999999,0.880817,-0.068192,0.927392,-0.0030439999999999,-0.0052239999999999,1.072608,0.0030439999999999,0.0052239999999999,0.88988,-0.431473,-0.016982,1.1334,-0.395863,-0.010541,0.88791,-0.788103,-0.033278,1.14596,-0.777763,-0.0079359999999999
133,0.9872345,0.729628,0.0491335,0.8388015,0.491088,0.0512674999999999,0.6796415,0.6419480000000001,0.0055414999999999,1.1455315,0.498758,0.0605695,1.2899215,0.641738,0.0090214999999999,0.6327214999999999,0.8389380000000001,-0.0823085,1.3291815,0.837098,-0.0854485,0.9277515000000001,-0.002817,-0.0050465,1.0722485,0.002817,0.0050464999999999,0.8935315,-0.430302,-0.0162635,1.1359115,-0.395832,-0.0122505,0.8967015,-0.7845019999999999,-0.0289284999999999,1.1544515,-0.775972,-0.0051835
134,0.9871375000000001,0.732538,0.044335,0.8384025000000002,0.493088,0.051906,0.6763125,0.6070880000000001,0.0091909999999999,1.1455425,0.496608,0.057359,1.2958925,0.6017180000000001,0.0094819999999999,0.6275725,0.796918,-0.092032,1.3319625,0.785078,-0.095982,0.9280125,-0.002729,-0.004887,1.0719875,0.002729,0.004887,0.8973425000000002,-0.431042,-0.014927,1.1373795,-0.396212,-0.015569,0.9064825,-0.7803819999999999,-0.024806,1.1639825,-0.773342,-0.0036489999999999
135,0.9870130000000001,0.7355115,0.0391829999999999,0.8380790000000001,0.4945314999999999,0.052083,0.675779,0.5678915,0.013047,1.145419,0.4939415,0.054051,1.300099,0.5590115,0.01016,0.626969,0.7483814999999999,-0.0996379999999999,1.334649,0.7251614999999999,-0.101818,0.928149,-0.0027165,-0.004628,1.071851,0.0027164999999999,0.004628,0.9019690000000001,-0.4256785,-0.012619,1.137559,-0.3938885,-0.020805,0.9172490000000001,-0.7752685,-0.020329,1.172639,-0.7682585000000001,-0.002847
136,0.986872,0.738825,0.033817,0.838247,0.495465,0.052143,0.6778569999999999,0.523945,0.017322,1.145184,0.491385,0.050504,1.300047,0.512655,0.010452,0.6278170000000001,0.6923549999999999,-0.108908,1.3352870000000001,0.6567649999999999,-0.104718,0.928307,-0.002645,-0.004333,1.0716929999999998,0.0026449999999999,0.004333,0.907377,-0.4200149999999999,-0.0095399999999999,1.136126,-0.391725,-0.029861,0.929067,-0.769785,-0.015476,1.177337,-0.7628050000000001,-0.0049209999999999
137,0.9872045,0.742289,0.027603,0.8399095,0.495089,0.05224,0.6845195,0.478399,0.023149,1.1454335,0.488309,0.046625,1.2944795,0.462259,0.014483,0.6353495,0.619579,-0.1144329999999999,1.3333895,0.5693590000000001,-0.1019429999999999,0.9284895,-0.0025579999999999,-0.0034869999999999,1.0715104999999998,0.002558,0.003487,0.9159595000000001,-0.414081,-0.0050119999999999,1.1286284999999998,-0.389641,-0.0441929999999999,0.9446795000000001,-0.763411,-0.0078829999999999,1.1725495,-0.757181,-0.0177419999999999
138,0.986917,0.7451145,0.02098,0.8418670000000001,0.4935144999999999,0.052434,0.6937770000000001,0.4321045,0.031059,1.145155,0.4851345,0.041967,1.285857,0.4114044999999999,0.020846,0.647887,0.5372144999999999,-0.116766,1.3273570000000001,0.4759945,-0.093176,0.928447,-0.0024465,-0.002753,1.071553,0.0024465,0.002753,0.9189170000000001,-0.4057155,-0.000945,1.118338,-0.3856055,-0.064966,0.9609670000000001,-0.7551855000000001,0.001473,1.1589369999999999,-0.7497955000000001,-0.037396
139,0.9858030000000001,0.747181,0.014387,0.844033,0.490761,0.052331,0.706323,0.386611,0.039783,1.143963,0.482171,0.037406,1.274883,0.364731,0.028965,0.664593,0.459631,-0.115736,1.3172629999999999,0.385671,-0.080296,0.9283129999999999,-0.0023859999999999,-0.0018989999999999,1.071687,0.0023859999999999,0.001899,0.920973,-0.398119,-0.0003519999999999,1.10587,-0.382069,-0.0873559999999999,0.9764730000000001,-0.747399,0.011871,1.139307,-0.739769,-0.0624859999999999
140,0.983651,0.7484885,0.008135,0.845951,0.4867685,0.05258,0.717171,0.3475585,0.051203,1.141967,0.4794985,0.032679,1.262141,0.3252585,0.039562,0.6787910000000001,0.3869285,-0.1113649999999999,1.3041209999999999,0.3024485,-0.066075,0.9282810000000001,-0.0025225,-0.0012549999999999,1.071719,0.0025224999999999,0.001255,0.9225610000000001,-0.3913215,0.000975,1.092832,-0.3787015,-0.1088949999999999,0.9914310000000001,-0.7392215000000001,0.024755,1.108677,-0.7298715,-0.0951549999999999
141,0.981338,0.7489375,0.002515,0.847558,0.4822674999999999,0.052393,0.726828,0.3167675,0.060488,1.140754,0.4771574999999999,0.02767,1.24739,0.2945175,0.049183,0.6908380000000001,0.3211274999999999,-0.1053849999999999,1.288418,0.2276275,-0.052845,0.9279580000000001,-0.0028795,-0.000585,1.072042,0.0028795,0.000585,0.923168,-0.3842625,0.001945,1.078655,-0.3750525,-0.1296149999999999,1.005358,-0.7305524999999999,0.037643,1.075414,-0.7203225,-0.1296149999999999
142,0.979047,0.7476075000000001,-0.003415,0.849207,0.4770275,0.0516359999999999,0.734537,0.2940775,0.0681079999999999,1.140431,0.4748275,0.0224949999999999,1.231676,0.2737875,0.0575299999999999,0.700507,0.2640475,-0.097775,1.272407,0.1681075,-0.043955,0.927667,-0.0032974999999999,0.0002349999999999,1.072333,0.0032975,-0.000235,0.921247,-0.3777825,0.0015149999999999,1.065767,-0.3725925,-0.147695,1.017567,-0.7225324999999999,0.0491799999999999,1.040547,-0.7116724999999999,-0.163865
143,0.9773100000000001,0.7458485,-0.0082649999999999,0.8515,0.4716984999999999,0.051925,0.74567,0.2769385,0.076648,1.141737,0.4719485,0.018625,1.219558,0.2577185,0.0685269999999999,0.71721,0.2115185,-0.088185,1.258394,0.1167985,-0.031885,0.92759,-0.0038014999999999,0.0017149999999999,1.07241,0.0038015,-0.0017149999999999,0.92285,-0.3721315,0.0020249999999999,1.05437,-0.3714015,-0.165545,1.03185,-0.7147015,0.065428,1.00552,-0.7030415,-0.193765
144,0.97557,0.7441675,-0.0135399999999999,0.85358,0.4685275,0.0516399999999999,0.7600800000000001,0.2643375,0.084742,1.143305,0.4701174999999999,0.0143099999999999,1.209105,0.2462774999999999,0.07951,0.7366100000000001,0.1653174999999999,-0.07957,1.245581,0.0753485,-0.0136699999999999,0.9270700000000001,-0.0039405,0.0022699999999999,1.07293,0.0039404999999999,-0.0022699999999999,0.9284200000000001,-0.3689825,0.0003299999999999,1.04422,-0.3704925,-0.18103,1.04556,-0.7087925,0.08242,0.9727300000000001,-0.6956525,-0.2211999999999999
145,0.9743050000000001,0.7427594999999999,-0.018085,0.8557950000000001,0.4662895,0.051285,0.7764850000000001,0.2566295,0.0916149999999999,1.145565,0.4690095,0.010855,1.203022,0.2389995,0.089195,0.756635,0.1267095,-0.070465,1.235953,0.0438835,0.0088449999999999,0.9267250000000001,-0.0039625,0.0031149999999999,1.073275,0.0039625,-0.003115,0.934245,-0.3641205,-0.0023849999999999,1.035275,-0.3668205,-0.192855,1.059175,-0.7017805,0.0977049999999999,0.9451950000000001,-0.6873605,-0.2439049999999999
146,0.972415,0.742294,-0.021285,0.8566050000000001,0.465604,0.051185,0.793155,0.252784,0.096175,1.147138,0.469064,0.008105,1.202196,0.2382739999999999,0.0944049999999999,0.773315,0.1084239999999999,-0.0642049999999999,1.230318,0.0363859999999999,0.0312349999999999,0.926395,-0.004017,0.0035749999999999,1.073605,0.004017,-0.0035749999999999,0.935715,-0.3579259999999999,-0.006695,1.032985,-0.3616359999999999,-0.196875,1.068835,-0.698826,0.110335,0.928265,-0.679076,-0.253615
147,0.971215,0.7419525,-0.023705,0.8575750000000001,0.4652624999999999,0.0519349999999999,0.810245,0.2502925,0.0976849999999999,1.150015,0.4687225,0.0066749999999999,1.204493,0.2379325,0.0944249999999999,0.791145,0.1021325,-0.060185,1.230351,0.0360444999999999,0.0499749999999999,0.926465,-0.0043584999999999,0.0040649999999999,1.073535,0.0043584999999999,-0.004065,0.944245,-0.3582675,-0.025695,1.031855,-0.3581875,-0.190695,1.077065,-0.6939675,0.1191949999999999,0.920265,-0.6725774999999999,-0.252365
148,0.9705500000000001,0.7413379999999999,-0.0254099999999999,0.8583800000000001,0.464648,0.0536099999999999,0.82471,0.249678,0.09636,1.15347,0.468108,0.00612,1.2078470000000001,0.2373179999999999,0.09269,0.8097400000000001,0.098528,-0.0606599999999999,1.234369,0.0354299999999999,0.0635599999999999,0.92662,-0.004827,0.0044399999999999,1.07338,0.004827,-0.0044399999999999,0.9522200000000001,-0.357722,-0.03887,1.0316,-0.355952,-0.18331,1.08201,-0.689582,0.1266,0.9200200000000001,-0.668722,-0.24332
149,0.9701100000000001,0.7405065,-0.0266599999999999,0.8591700000000001,0.4638164999999999,0.05521,0.8295100000000001,0.2488465,0.09212,1.1562000000000001,0.4675164999999999,0.00542,1.21152,0.2364865,0.0885,0.8187800000000001,0.0976965,-0.0616999999999999,1.239388,0.0345985,0.05996,0.92701,-0.0053525,0.00573,1.0729899999999999,0.0053525,-0.0057299999999999,0.9613200000000001,-0.3564935,-0.0492999999999999,1.03089,-0.3540235,-0.17401,1.08019,-0.6826735,0.12927,0.9315400000000001,-0.6650935,-0.22382
150,0.96864,0.739816,-0.028,0.8592299999999999,0.463126,0.0572599999999999,0.8314699999999999,0.247866,0.0887499999999999,1.15822,0.467736,0.0052399999999999,1.21417,0.238506,0.0837199999999999,0.82317,0.096716,-0.06288,1.245204,0.035169,0.0500999999999999,0.92742,-0.0059219999999999,0.0067699999999999,1.07258,0.005922,-0.0067699999999999,0.97824,-0.357474,-0.05849,1.0334699999999999,-0.352084,-0.16493,1.08181,-0.677014,0.1114199999999999,0.94441,-0.6615639999999999,-0.20227
151,0.965215,0.738549,-0.02959,0.8582650000000001,0.462139,0.0571799999999999,0.830485,0.249339,0.0851099999999999,1.1582649999999999,0.468579,0.0049899999999999,1.215425,0.2424289999999999,0.07798,0.820465,0.095229,-0.06687,1.248487,0.040455,0.0328499999999999,0.927445,-0.006058,0.00755,1.072555,0.0060579999999999,-0.00755,0.978625,-0.358961,-0.06877,1.0372949999999999,-0.351601,-0.15504,1.0650549999999999,-0.669411,0.0898799999999999,0.959095,-0.6587609999999999,-0.17833
152,0.9609250000000001,0.7371645,-0.0320699999999999,0.856595,0.4612845,0.0549399999999999,0.8288950000000002,0.2499545,0.0819099999999999,1.156955,0.4696345,0.0037599999999999,1.215025,0.2472645,0.07028,0.813535,0.0954445,-0.07244,1.249705,0.0483144999999999,0.0087599999999999,0.9273450000000001,-0.0060255,0.00773,1.072655,0.0060255,-0.00773,0.9705750000000001,-0.3579555,-0.0824099999999999,1.041205,-0.3521654999999999,-0.1429699999999999,1.0420449999999999,-0.6623255,0.0627,0.9736650000000001,-0.6577355,-0.1562499999999999
153,0.9559850000000001,0.7361045,-0.0343099999999999,0.8550850000000001,0.4607745,0.05255,0.826675,0.2504245,0.07861,1.155075,0.4711545,0.00296,1.214685,0.2525545,0.06364,0.804285,0.0987045,-0.0779999999999999,1.248815,0.0582064999999999,-0.0173999999999999,0.9278150000000001,-0.0059164999999999,0.00867,1.072185,0.0059165,-0.0086699999999999,0.9614250000000001,-0.3569354999999999,-0.0952299999999999,1.045135,-0.3530855,-0.13068,1.014565,-0.6569055,0.03448,0.9874350000000001,-0.6571755,-0.1348199999999999
154,0.9491300000000001,0.7354385,-0.037235,0.8521600000000001,0.4608685,0.049205,0.82085,0.2507685,0.072075,1.15104,0.4732085,0.001765,1.21336,0.2584285,0.058325,0.7903200000000001,0.1005585,-0.0865549999999999,1.24598,0.0676645,-0.038405,0.9280300000000001,-0.0059465,0.0088449999999999,1.07197,0.0059465,-0.0088449999999999,0.9519400000000001,-0.3557515,-0.106765,1.05038,-0.3545115,-0.1157849999999999,0.9826000000000001,-0.6519815,0.004635,1.00152,-0.6564315000000001,-0.1122449999999999
155,0.940505,0.734827,-0.0400399999999999,0.848035,0.461017,0.04503,0.8104849999999999,0.251937,0.06277,1.147025,0.476177,0.00291,1.211735,0.264697,0.05605,0.7721849999999999,0.104217,-0.0978499999999999,1.2433349999999999,0.076973,-0.0519299999999999,0.928175,-0.0058189999999999,0.00845,1.0718249999999998,0.005819,-0.0084499999999999,0.940685,-0.353693,-0.1159399999999999,1.056555,-0.3552929999999999,-0.1003999999999999,0.950425,-0.647073,-0.0229099999999999,1.0162149999999999,-0.655723,-0.0883699999999999
156,0.931585,0.734104,-0.0424699999999999,0.843985,0.460214,0.0408299999999999,0.799275,0.253304,0.0545899999999999,1.141705,0.4788239999999999,0.0041299999999999,1.207815,0.269624,0.05647,0.751915,0.110764,-0.10725,1.238365,0.083984,-0.05899,0.928145,-0.005585,0.0080899999999999,1.071855,0.005585,-0.0080899999999999,0.9261750000000001,-0.351466,-0.10963,1.063775,-0.355286,-0.08932,0.916435,-0.642096,-0.04838,1.0284849999999999,-0.656546,-0.0681499999999999
157,0.9219,0.7332965,-0.046095,0.8384200000000002,0.4594065,0.033975,0.78543,0.2549964999999999,0.042705,1.13448,0.4812765,0.003995,1.20327,0.2739965,0.057765,0.73078,0.1176365,-0.1130449999999999,1.23359,0.0890265,-0.060315,0.9279600000000001,-0.0054414999999999,0.007465,1.0720399999999999,0.0054415,-0.0074649999999999,0.91209,-0.3496335,-0.1050149999999999,1.07179,-0.3549535,-0.077585,0.8851,-0.6373734999999999,-0.0728349999999999,1.04172,-0.6573534999999999,-0.0483249999999999
158,0.9123699999999999,0.7324189999999999,-0.0505149999999999,0.83339,0.458529,0.026535,0.7724399999999999,0.255549,0.031265,1.1280299999999999,0.483299,0.0042349999999999,1.1978799999999998,0.276079,0.061145,0.7142999999999999,0.123429,-0.120175,1.2291999999999998,0.090419,-0.0541049999999999,0.92755,-0.0052979999999999,0.005935,1.07245,0.005298,-0.005935,0.8983,-0.348321,-0.103685,1.07791,-0.354171,-0.0683549999999999,0.86449,-0.634711,-0.0915949999999999,1.05266,-0.658231,-0.0314649999999999
159,0.9031500000000001,0.7316199999999999,-0.055085,0.8284400000000001,0.45757,0.0185549999999999,0.76031,0.25577,0.0201249999999999,1.121,0.48506,0.0040749999999999,1.1926999999999999,0.27682,0.0660249999999999,0.69782,0.1249499999999999,-0.1262850000000001,1.2258099999999998,0.0896899999999999,-0.045255,0.92726,-0.005384,0.0046949999999998,1.0727399999999998,0.005384,-0.004695,0.88735,-0.3450999999999999,-0.102875,1.08412,-0.3533199999999999,-0.058345,0.85317,-0.63307,-0.093865,1.06266,-0.6601800000000001,-0.015815
160,0.894885,0.730343,-0.0598900000000001,0.823445,0.456063,0.0119699999999999,0.749915,0.255483,0.0093099999999999,1.114555,0.486423,0.0040299999999999,1.187255,0.276833,0.0723099999999999,0.688005,0.124893,-0.13089,1.224465,0.088873,-0.03065,0.927105,-0.005862,0.0033299999999999,1.072895,0.0058619999999999,-0.00333,0.883025,-0.341927,-0.09956,1.090115,-0.351797,-0.0491,0.847335,-0.633257,-0.09156,1.0728550000000001,-0.662347,-0.0012700000000001
161,0.8868050000000001,0.7282120000000001,-0.065035,0.818635,0.4544519999999999,0.006305,0.7388950000000001,0.254862,-0.0030649999999999,1.108315,0.487562,0.0039649999999999,1.181745,0.276782,0.0789849999999999,0.680655,0.125492,-0.135915,1.223075,0.0880519999999999,-0.016865,0.9269950000000001,-0.006335,0.001865,1.073005,0.006335,-0.001865,0.8838450000000001,-0.342708,-0.094225,1.101315,-0.352618,-0.040395,0.8458450000000001,-0.632408,-0.087195,1.084075,-0.663928,0.012475
162,0.87932,0.725744,-0.06996,0.81326,0.452964,0.0006999999999999,0.72824,0.254044,-0.01518,1.1019199999999998,0.4887339999999999,0.0036699999999999,1.17634,0.276734,0.0855699999999999,0.67189,0.125544,-0.14589,1.22267,0.0872339999999999,-0.00434,0.9268500000000001,-0.006822,0.0003799999999999,1.0731499999999998,0.0068219999999999,-0.00038,0.88556,-0.343456,-0.08812,1.11255,-0.353436,-0.03207,0.8488100000000001,-0.632406,-0.08123,1.09534,-0.665896,0.0260799999999999
163,0.873385,0.723638,-0.0748550000000001,0.8088249999999999,0.451928,-0.0041550000000001,0.720615,0.253218,-0.023785,1.0969149999999999,0.489898,0.0031849999999998,1.171325,0.276558,0.0910749999999999,0.667755,0.126108,-0.1525050000000001,1.2225949999999999,0.084508,0.0046149999999999,0.926755,-0.00728,-0.000705,1.073245,0.0072799999999999,0.0007049999999999,0.888315,-0.344222,-0.0827050000000001,1.118725,-0.351592,-0.025985,0.855925,-0.632422,-0.0718050000000001,1.1042349999999999,-0.667482,0.0369349999999999
164,0.8693900000000001,0.7218825,-0.080095,0.8053100000000001,0.4510524999999999,-0.008515,0.7174,0.2524324999999999,-0.0292949999999999,1.09191,0.4908925,0.000545,1.16587,0.2763525,0.093265,0.6666000000000001,0.1252525,-0.158485,1.22096,0.0821425,0.0094349999999999,0.9267500000000001,-0.0077664999999999,-0.001445,1.0732499999999998,0.0077665,0.001445,0.8917900000000001,-0.3455074999999999,-0.0785949999999999,1.12246,-0.3499575,-0.0226549999999999,0.8638,-0.6324675,-0.0641549999999999,1.11141,-0.6686375,0.0445449999999999
165,0.86568,0.7202999999999999,-0.0854,0.80135,0.45021,-0.0134499999999999,0.7142200000000001,0.25142,-0.03498,1.08727,0.49195,-0.00216,1.1615,0.27583,0.09528,0.66587,0.12089,-0.1629399999999999,1.22017,0.07974,0.0176199999999999,0.92675,-0.008347,-0.0022799999999999,1.07325,0.008347,0.0022799999999999,0.8953600000000002,-0.34668,-0.0745,1.12486,-0.34858,-0.0188399999999999,0.87191,-0.63334,-0.05659,1.1184,-0.66964,0.05181
166,0.8627549999999999,0.718818,-0.0900199999999999,0.799095,0.449258,-0.01661,0.713895,0.250468,-0.0365699999999999,1.0844049999999998,0.492738,-0.00392,1.1574149999999999,0.275138,0.09626,0.666755,0.116538,-0.16736,1.218195,0.077378,0.02481,0.9268250000000001,-0.008719,-0.0029,1.073175,0.0087189999999999,0.0029,0.8984449999999999,-0.347662,-0.0708699999999999,1.126965,-0.347492,-0.0153499999999999,0.879455,-0.634372,-0.04998,1.124315,-0.670672,0.05796
167,0.86067,0.7172565000000001,-0.0941550000000001,0.79672,0.4486165,-0.0196250000000001,0.71568,0.2491664999999999,-0.0355950000000001,1.08185,0.4933965,-0.005705,1.1539599999999999,0.2741665,0.0964149999999999,0.67201,0.1129064999999999,-0.1673650000000001,1.21577,0.0752964999999999,0.0312649999999998,0.92687,-0.0089424999999999,-0.003465,1.07313,0.0089424999999999,0.0034649999999999,0.9009799999999999,-0.3487734999999999,-0.0675650000000001,1.1288099999999999,-0.3471335,-0.011945,0.8862,-0.6353535,-0.044025,1.12906,-0.6717735,0.0631549999999998
168,0.8570450000000001,0.7125845,-0.1011949999999999,0.792945,0.4461545,-0.0249349999999999,0.712805,0.2461745,-0.045555,1.0760049999999999,0.4944345,-0.0099949999999999,1.149285,0.2740845,0.097175,0.655635,0.1132745,-0.208415,1.213295,0.0717245,0.055655,0.9269350000000001,-0.0094365,-0.0041749999999999,1.073065,0.0094365,0.004175,0.905375,-0.3510455,-0.0636249999999999,1.132795,-0.3425955,-0.0078949999999999,0.897285,-0.6360855,-0.035845,1.139745,-0.6771855,0.072145
169,0.85802,0.7119205,-0.10231,0.79174,0.4470305,-0.02556,0.71629,0.2449705,-0.0437899999999999,1.07764,0.4945505,-0.0083999999999999,1.14786,0.2735805,0.09699,0.66033,0.1109805,-0.2061899999999999,1.21037,0.0713105,0.05215,0.92712,-0.0094494999999999,-0.00446,1.07288,0.0094495,0.00446,0.90716,-0.3514195,-0.0611199999999999,1.13376,-0.3447694999999999,-0.0051299999999999,0.90172,-0.6373695,-0.0324499999999999,1.1403699999999999,-0.6762395,0.0740199999999999
170,0.85829,0.7118304999999999,-0.10358,0.79096,0.4471505,-0.0256,0.7185499999999999,0.2438405,-0.0421,1.0768099999999998,0.4953105,-0.0091999999999999,1.1459,0.2721105,0.0949899999999999,0.66187,0.1160205,-0.20925,1.20559,0.0704705,0.0428099999999999,0.92723,-0.0094104999999999,-0.00491,1.07277,0.0094105,0.0049099999999999,0.90857,-0.3516595,-0.0591599999999999,1.1334399999999998,-0.3449495,-0.00384,0.90522,-0.6378495000000001,-0.03006,1.1396499999999998,-0.6745795,0.0747099999999999
171,0.85973,0.711971,-0.1043499999999999,0.7910400000000001,0.447611,-0.02593,0.72069,0.243441,-0.0400199999999999,1.07919,0.495261,-0.0081499999999999,1.14351,0.271471,0.09215,0.66474,0.1141609999999999,-0.2062899999999999,1.20206,0.070591,0.0352299999999999,0.9274700000000001,-0.009318,-0.0050099999999999,1.07253,0.009318,0.00501,0.9090100000000001,-0.351759,-0.05698,1.13263,-0.3461889999999999,-0.00163,0.9068500000000002,-0.638289,-0.0270899999999999,1.1369,-0.671609,0.07516
172,0.8619550000000001,0.712698,-0.1034749999999998,0.790785,0.448788,-0.0236949999999999,0.725465,0.242808,-0.0327649999999999,1.0827749999999998,0.495388,-0.0052049999999999,1.1425949999999998,0.269498,0.0893950000000001,0.673685,0.094618,-0.1835749999999999,1.1979449999999998,0.064626,0.0123550000000001,0.927715,-0.008989,-0.0051949999999999,1.072285,0.0089889999999999,0.005195,0.910925,-0.351722,-0.0542049999999999,1.130005,-0.3491019999999999,0.0028150000000001,0.911295,-0.638012,-0.0229849999999999,1.134915,-0.672132,0.079675
173,0.8626400000000001,0.7130044999999999,-0.10309,0.7927100000000001,0.4489645,-0.0217199999999999,0.72802,0.2428745,-0.02705,1.08392,0.4955244999999999,-0.0040399999999999,1.14197,0.2691745,0.08748,0.68018,0.0893045,-0.17369,1.19776,0.0621904999999999,0.00383,0.92794,-0.0089524999999999,-0.0048699999999999,1.07206,0.0089525,0.00487,0.9114800000000001,-0.3517355,-0.0532799999999999,1.12953,-0.3496455,0.0044699999999999,0.9129,-0.6385555,-0.0212399999999999,1.13357,-0.6718355,0.0803099999999999
174,0.865175,0.713085,-0.100155,0.795135,0.448655,-0.017815,0.7486149999999999,0.238955,-0.0020149999999999,1.086495,0.495435,-0.0010749999999999,1.1423649999999999,0.269385,0.0856949999999999,0.7280949999999999,0.0602449999999999,-0.124445,1.182775,0.073585,-0.0005049999999999,0.928715,-0.008806,-0.0030949999999999,1.0712849999999998,0.008806,0.003095,0.913225,-0.351705,-0.0507549999999999,1.128275,-0.3512349999999999,0.0081849999999999,0.9155049999999999,-0.638355,-0.0183449999999999,1.131335,-0.670555,0.0834949999999999
