sb224sc-HT22-VT27/4dt907/src/data/kinect_good_preprocessed_not_cut_A11_mediapipe/A40_kinect_mirrored.csv
FrameNo,nose_3d_x,nose_3d_y,nose_3d_z,left_shoulder_3d_x,left_shoulder_3d_y,left_shoulder_3d_z,left_elbow_3d_x,left_elbow_3d_y,left_elbow_3d_z,right_shoulder_3d_x,right_shoulder_3d_y,right_shoulder_3d_z,right_elbow_3d_x,right_elbow_3d_y,right_elbow_3d_z,left_wrist_3d_x,left_wrist_3d_y,left_wrist_3d_z,right_wrist_3d_x,right_wrist_3d_y,right_wrist_3d_z,left_hip_3d_x,left_hip_3d_y,left_hip_3d_z,right_hip_3d_x,right_hip_3d_y,right_hip_3d_z,left_knee_3d_x,left_knee_3d_y,left_knee_3d_z,right_knee_3d_x,right_knee_3d_y,right_knee_3d_z,left_ankle_3d_x,left_ankle_3d_y,left_ankle_3d_z,right_ankle_3d_x,right_ankle_3d_y,right_ankle_3d_z
0,0.9835725,0.7556984999999999,0.058425,0.8342134999999999,0.4531084999999999,0.074282,0.8128435,0.2047185,0.066216,1.1472735,0.4560785,0.057586,1.1774135000000001,0.2086885,0.058642,0.8039835,0.0008084999999999,-0.01947,1.1986035,0.0065694999999999,-0.012479,0.9281585,-0.0037635,-0.0001939999999999,1.0718415000000001,0.0037634999999999,0.0001939999999999,0.8917035000000001,-0.4192315,0.0167669999999999,1.1309434999999999,-0.3786015,-0.013472,0.8870335,-0.7438315,-0.01183,1.1409235,-0.7400115,-0.020766
1,0.983751,0.7555499999999999,0.0582985,0.834365,0.4531,0.0741624999999999,0.812955,0.20494,0.0664335,1.147605,0.4561099999999999,0.0576275,1.177445,0.20866,0.0585755,0.8038550000000001,0.000845,-0.0193295,1.197215,0.006624,-0.0133165,0.928164,-0.003744,-0.0001984999999999,1.071836,0.003744,0.0001984999999999,0.891715,-0.41943,0.0167895,1.130985,-0.37867,-0.0134934999999999,0.887085,-0.74407,-0.0118824999999999,1.141125,-0.7362000000000001,-0.0201655
2,0.983896,0.7556475,0.0581494999999999,0.834482,0.4532275,0.0740715,0.813092,0.2049975,0.0662825,1.1475419999999998,0.4561175,0.0573024999999999,1.177552,0.2087875,0.0584585,0.803822,0.0009805,-0.0193895,1.197102,0.0065915,-0.0129955,0.928195,-0.0036635,-0.0002985,1.071805,0.0036635,0.0002984999999999,0.891792,-0.4194025,0.0166834999999999,1.131182,-0.3819225,-0.0130925,0.8869420000000001,-0.7438224999999999,-0.0118475,1.141262,-0.7387825,-0.0200455
3,0.9840480000000001,0.7556555,0.0580485,0.8343389999999999,0.4530555,0.0742005,0.813239,0.2051055,0.0666935,1.147379,0.4562055,0.0571425,1.177579,0.2088455,0.0584915,0.8038290000000001,0.0010784999999999,-0.0194064999999999,1.197369,0.0065065,-0.0124184999999999,0.928177,-0.0037415,-0.0001504999999999,1.071823,0.0037415,0.0001505,0.8917990000000001,-0.4194145,0.0167075,1.131129,-0.3793645,-0.0131554999999999,0.886869,-0.7438645,-0.0122734999999999,1.1409989999999999,-0.7355145,-0.0192654999999999
4,0.9841700000000001,0.755548,0.057987,0.8344150000000001,0.452978,0.074205,0.8133250000000001,0.204978,0.066726,1.147855,0.456078,0.057356,1.177635,0.208738,0.058513,0.804005,0.0013169999999999,-0.019288,1.199025,0.0069759999999999,-0.0136989999999999,0.9281699999999999,-0.003737,-0.0002009999999999,1.07183,0.003737,0.0002009999999999,0.8919450000000001,-0.419292,0.016542,1.131195,-0.379392,-0.013175,0.886965,-0.743862,-0.0122709999999999,1.141115,-0.734912,-0.0190089999999999
5,0.9842130000000001,0.7555464999999999,0.0576515,0.834422,0.4529865,0.0739165,0.813302,0.2051765,0.0668225,1.147762,0.4560565,0.0570015,1.177642,0.2087665,0.0583205,0.803782,0.0014014999999999,-0.0194734999999999,1.198332,0.0060035,-0.0108564999999999,0.928193,-0.0037025,-0.0005244999999999,1.071807,0.0037024999999999,0.0005245,0.891962,-0.4193835,0.0163735,1.131122,-0.3792735,-0.0134224999999999,0.8866720000000001,-0.7433335000000001,-0.0119644999999999,1.141112,-0.7344635,-0.0184914999999999
6,0.9841845000000001,0.7554645,0.0575885,0.8343865,0.4529844999999999,0.0738945,0.8132665,0.2051445,0.0668625,1.1482765,0.4561645,0.0572535,1.1775765,0.2087045,0.0582765,0.8037065,0.0012795,-0.0194904999999999,1.1984265,0.0060165,-0.0111054999999999,0.9281855,-0.0036995,-0.0005584999999999,1.0718145,0.0036995,0.0005585,0.8919265,-0.4194355,0.0163185,1.1309165,-0.3787855,-0.0133984999999999,0.8866365,-0.7438355,-0.0118925,1.1403964999999998,-0.7321455,-0.0170524999999999
7,0.9844795,0.7554605000000001,0.057165,0.8345435,0.4530605,0.073546,0.8132635,0.2051404999999999,0.066217,1.1486035,0.4561405,0.056891,1.1777035,0.2085705,0.058126,0.8038035,0.0012564999999999,-0.0196559999999999,1.1989735,0.0057085,-0.0122109999999999,0.9281675,-0.0036655,-0.0004749999999999,1.0718325,0.0036655,0.000475,0.8918835,-0.4193195,0.016691,1.1310035,-0.3788895,-0.0130089999999999,0.8867935000000001,-0.7434095,-0.0114179999999999,1.1405335,-0.7344894999999999,-0.0174889999999999
8,0.9846295,0.755423,0.0568185,0.8345644999999999,0.453083,0.0733085,0.8133245,0.205173,0.0661175,1.1487945,0.456163,0.0567575,1.1777345,0.208533,0.0579965,0.8038244999999999,0.0012619999999999,-0.0197345,1.1990245,0.0055879999999999,-0.0120574999999999,0.9281675,-0.003639,-0.0005075,1.0718325,0.003639,0.0005075,0.8918545,-0.419437,0.0167355,1.1309845,-0.3790469999999999,-0.0129145,0.8868545,-0.7432770000000001,-0.0111815,1.1404045,-0.734437,-0.0170115
9,0.984773,0.7554029999999999,0.0564739999999999,0.834592,0.453103,0.073077,0.813392,0.2052129999999999,0.065977,1.148942,0.456173,0.0566469999999999,1.177762,0.208513,0.057849,0.803862,0.001208,-0.019845,1.1993719999999999,0.00517,-0.012101,0.928166,-0.003613,-0.000551,1.071834,0.003613,0.0005509999999999,0.8918020000000001,-0.419817,0.0166609999999999,1.130952,-0.379277,-0.012867,0.886892,-0.743097,-0.010946,1.140272,-0.734287,-0.016546
10,0.9849315,0.7553829999999999,0.0561375,0.8346315,0.453113,0.0728665,0.8134615000000001,0.205203,0.0658385,1.1490815,0.456183,0.0565424999999999,1.1777915,0.208463,0.0576785,0.8039315,0.001137,-0.0199755,1.1996715,0.004477,-0.0121975,0.9281655,-0.0035859999999999,-0.0005995,1.0718345,0.0035859999999999,0.0005995,0.8917515,-0.420327,0.0165795,1.1309215,-0.3796069999999999,-0.0128505,0.8869215,-0.7429370000000001,-0.0106955,1.1401415,-0.734257,-0.0162505
11,0.9851115000000001,0.755361,0.0558459999999999,0.8346565,0.453121,0.072629,0.8135265,0.205211,0.0656279999999999,1.1492465,0.456171,0.0565149999999999,1.1778165,0.208391,0.0575069999999999,0.8039965,0.001102,-0.020043,1.1997265,0.004344,-0.012408,0.9281575,-0.003562,-0.000682,1.0718425,0.003562,0.0006819999999999,0.8916765,-0.421029,0.0164599999999999,1.1308865,-0.380079,-0.012907,0.8869265,-0.742799,-0.010366,1.1401765,-0.734889,-0.016357
12,0.9853145,0.7553405000000001,0.0555299999999999,0.8346815000000001,0.4531305,0.072369,0.8136114999999999,0.2052305,0.06536,1.1494114999999998,0.4561805,0.056426,1.1778215,0.2083405,0.057284,0.8040615,0.0010515,-0.020171,1.1997015,0.0033134999999999,-0.012559,0.9281355,-0.0035275,-0.0007279999999999,1.0718645,0.0035275,0.0007279999999999,0.8915515,-0.4217195,0.016225,1.1308215,-0.3806695,-0.0130499999999999,0.8869115,-0.7428695,-0.010285,1.1402215,-0.7357695,-0.0165109999999999
13,0.9854705,0.7553165,0.055182,0.8346145,0.4531465,0.072147,0.8136845,0.2052565,0.065042,1.1495245,0.4561765,0.056313,1.1777445,0.2083165,0.056985,0.8040944999999999,0.0009875,-0.0203439999999999,1.1996445,0.0023695,-0.0133319999999999,0.9281215,-0.0034944999999999,-0.0007729999999999,1.0718785,0.0034945,0.000773,0.8913445,-0.4223634999999999,0.015856,1.1306844999999999,-0.3816135,-0.0132429999999999,0.8869345,-0.7431735,-0.0103529999999999,1.1402045,-0.7367135,-0.0167089999999999
14,0.9856735000000001,0.7553000000000001,0.0545885,0.8345245,0.4531199999999999,0.0716935,0.8137445,0.2052899999999999,0.0644505,1.1499445,0.45652,0.0564305,1.1775745,0.20855,0.0564335,0.8041445,0.0009249999999999,-0.0207644999999999,1.1992545,0.001339,-0.0146014999999999,0.9281225,-0.003432,-0.0007544999999999,1.0718775,0.0034319999999999,0.0007545,0.8911045,-0.42306,0.0150815,1.1305045,-0.38264,-0.0137294999999999,0.8869045000000001,-0.74368,-0.0108044999999999,1.1401745,-0.73795,-0.0173524999999999
15,0.98584,0.7552635000000001,0.0539845,0.834409,0.4530535,0.0711054999999999,0.8138190000000001,0.2053134999999999,0.0638455,1.150369,0.4568635,0.0563945,1.1773989999999999,0.2087935,0.0558265,0.804469,0.0012995,-0.0209695,1.198599,0.0006684999999999,-0.0166255,0.928122,-0.0033705,-0.0007655,1.0718779999999999,0.0033705,0.0007654999999999,0.890919,-0.4232165,0.0140894999999999,1.130359,-0.3830165,-0.0143205,0.886869,-0.7438465,-0.0113995,1.140149,-0.7381565,-0.0180725
16,0.9860000000000001,0.7552635000000001,0.052974,0.834233,0.4530535,0.07011,0.813893,0.2053134999999999,0.062839,1.150703,0.4569634999999999,0.055966,1.177133,0.2087935,0.054834,0.804773,0.0012995,-0.021562,1.197653,0.0014995,-0.018149,0.92807,-0.0033705,-0.000747,1.07193,0.0033705,0.000747,0.890593,-0.4232165,0.012328,1.130173,-0.3831965,-0.0153289999999999,0.886773,-0.7438465,-0.0123979999999999,1.140033,-0.7385164999999999,-0.0193919999999999
17,0.9861085,0.7552635000000001,0.0517425,0.8339905,0.4530535,0.0688925,0.8138905,0.2053134999999999,0.0616115,1.1510805,0.4570134999999999,0.0556274999999999,1.1767805,0.2087935,0.0536215,0.8053805,0.0012995,-0.0223254999999999,1.1966805,0.0023695,-0.0200335,0.9279985,-0.0033705,-0.0007225,1.0720015,0.0033705,0.0007225,0.8901405,-0.4232165,0.0101305,1.1299505,-0.3834765,-0.0167365,0.8865905000000001,-0.7438465,-0.0136174999999999,1.1398705,-0.7390565,-0.0209285
18,0.9861315,0.7552645,0.050455,0.8336635,0.4530445,0.067645,0.8137835,0.2052745,0.060139,1.1513335,0.4570145,0.055275,1.1763335,0.2087945,0.052163,0.8059035,0.0012545,-0.023282,1.1955535,0.0024684999999999,-0.022377,0.9278235,-0.0033695,-0.000636,1.0721765,0.0033695,0.0006359999999999,0.8895535,-0.4238055,0.0072779999999999,1.1296435,-0.3847055,-0.018557,0.8863835,-0.7442155,-0.01539,1.1397035,-0.7406055,-0.023131
19,0.9861135,0.7554584999999999,0.0489605,0.8332595,0.4532185,0.0662445,0.8136295,0.2054585,0.0584605,1.1515795,0.4575085,0.0545795,1.1758695000000001,0.2092785,0.0504745,0.8063795,0.0016844999999999,-0.0244445,1.1939795,0.0031685,-0.0249275,0.9275915,-0.0032755,-0.0005254999999999,1.0724085,0.0032754999999999,0.0005255,0.8888595,-0.4245115,0.0038095,1.1292594999999999,-0.3863415,-0.0209175,0.8861295,-0.7446015,-0.0176745,1.1394895,-0.7422615,-0.0258315
20,0.9860735,0.7557585,0.0469809999999999,0.8328234999999999,0.4535885,0.064412,0.8134635,0.2058185,0.056334,1.1517335,0.4581685,0.053452,1.1753835,0.2098985,0.048326,0.8068335,0.0022754999999999,-0.026062,1.1921835,0.0033165,-0.028205,0.9273515,-0.0031915,-0.000313,1.0726485000000001,0.0031915,0.000313,0.8881135,-0.4252815,-0.000344,1.1288535,-0.3885515,-0.024031,0.8857935,-0.7448414999999999,-0.020463,1.1393235,-0.7437015,-0.029432
21,0.986019,0.7562854999999999,0.044043,0.832349,0.4541155,0.0618019999999999,0.813269,0.2065855,0.0532809999999999,1.151679,0.4591555,0.051475,1.174889,0.2108755,0.045085,0.807329,0.0032864999999999,-0.0285179999999999,1.189979,0.0035045,-0.032543,0.927083,-0.0031405,-6.099999999999856e-05,1.072917,0.0031405,6.099999999999856e-05,0.887319,-0.4243545,-0.005513,1.1284589999999999,-0.3910545,-0.028417,0.885369,-0.7448845000000001,-0.024477,1.139199,-0.7451145,-0.0344769999999999
22,0.985922,0.756572,0.0403904999999999,0.8318340000000001,0.454412,0.0587655,0.8130140000000001,0.2076019999999999,0.0495555,1.1518439999999999,0.460142,0.0489205,1.174334,0.2119319999999999,0.0411055,0.807724,0.004594,-0.0318925,1.187924,0.003882,-0.0376055,0.926791,-0.003102,0.0002465,1.073209,0.0031019999999999,-0.0002465,0.886334,-0.422918,-0.0115985,1.128064,-0.393458,-0.0337515,0.884904,-0.744618,-0.0295625,1.1390239999999998,-0.746158,-0.0401794999999999
23,0.9857565000000001,0.7567229999999999,0.0365859999999999,0.8313165,0.454463,0.055865,0.8127665,0.208703,0.045619,1.1516465,0.461103,0.045756,1.1738065,0.2130629999999999,0.037013,0.8080765000000001,0.006076,-0.035792,1.1860765,0.003971,-0.042895,0.9264415,-0.003069,0.0004899999999999,1.0735585,0.003069,-0.00049,0.8853365000000001,-0.421257,-0.017816,1.1277765,-0.3956969999999999,-0.0394,0.8843465000000001,-0.7441270000000001,-0.034967,1.1387565,-0.746537,-0.045584
24,0.9855325,0.75671,0.0326925,0.8308435000000001,0.45438,0.0530085,0.8124835000000001,0.20985,0.0414505,1.1512935,0.46195,0.0426255,1.1732635,0.21379,0.0327835,0.8080935000000001,0.007789,-0.0399734999999999,1.1845835,0.004591,-0.0482645,0.9260925,-0.003018,0.0007895,1.0739075,0.003018,-0.0007895,0.8841435,-0.41933,-0.0248625,1.1275135,-0.3973199999999999,-0.0453635,0.8837635,-0.74329,-0.0404255,1.1384635,-0.74646,-0.0511375
25,0.9853260000000001,0.756429,0.0287,0.8304440000000001,0.453989,0.049997,0.8123040000000001,0.211109,0.0369899999999999,1.1511339999999999,0.462559,0.039602,1.1727940000000001,0.215059,0.028207,0.808154,0.009696,-0.044444,1.183454,0.006262,-0.05386,0.9258379999999999,-0.002907,0.0010739999999999,1.074162,0.002907,-0.001074,0.8829940000000001,-0.416611,-0.032388,1.127514,-0.397381,-0.0524339999999999,0.883244,-0.741711,-0.0462449999999999,1.138264,-0.745181,-0.056841
26,0.9851575000000001,0.755978,0.0247945,0.8301075,0.453628,0.0469075,0.8121975000000001,0.212398,0.0323795,1.1509475,0.462888,0.0361195,1.1723875,0.215188,0.0230895,0.8079375,0.011642,-0.0490435,1.1825975,0.006391,-0.0612805,0.9256305,-0.002806,0.0014245,1.0743695,0.002806,-0.0014245,0.8818175,-0.413292,-0.0403445,1.1276875,-0.396472,-0.0600355,0.8828775000000001,-0.739512,-0.0522115,1.1381375,-0.743352,-0.0629545
27,0.9850395000000001,0.755415,0.020979,0.8298795,0.453275,0.043293,0.8118595,0.2140449999999999,0.0277599999999999,1.1507795,0.463035,0.0323009999999999,1.1720395,0.2154849999999999,0.017752,0.8076795,0.01364,-0.054347,1.1821595,0.008144,-0.068302,0.9254275,-0.0026239999999999,0.0016879999999999,1.0745725,0.0026239999999999,-0.001688,0.8806695000000001,-0.409705,-0.048737,1.1280295,-0.395165,-0.06826,0.8825695,-0.7366550000000001,-0.058144,1.1380995,-0.740645,-0.068932
28,0.9850735,0.7542765,0.0170455,0.8299265,0.4526565,0.0386455,0.8116565,0.2153865,0.0224705,1.1507465,0.4625865,0.0275345,1.1723165,0.2155365,0.0116535,0.8074265,0.0155325,-0.0609824999999999,1.1818665,0.0109334999999999,-0.0757905,0.9251825,-0.0025695,0.0020525,1.0748175,0.0025694999999999,-0.0020524999999999,0.8796765,-0.4065935,-0.0582645,1.1285965,-0.3928835,-0.0777535,0.8823865,-0.7329035,-0.0642385,1.1381765,-0.7371535,-0.0753795
29,0.9851245,0.753089,0.0133925,0.8300985000000001,0.451229,0.0339815,0.8114785000000001,0.215969,0.0166045,1.1507385,0.462219,0.0228785,1.1729185,0.215199,0.0051535,0.8071985,0.017587,-0.0680385,1.1816185,0.01438,-0.0832115,0.9248505,-0.0024829999999999,0.0023645,1.0751495,0.0024829999999999,-0.0023645,0.8787285,-0.402981,-0.0678155,1.1291585,-0.389391,-0.0872865,0.8823385,-0.728671,-0.0701975,1.1380485,-0.7328509999999999,-0.0814545
30,0.9851280000000001,0.7513504999999999,0.0099435,0.8305580000000001,0.4494205,0.0294294999999999,0.8111280000000001,0.2167905,0.0091845,1.150548,0.4611705,0.0183555,1.173748,0.2156805,-0.0024094999999999,0.8068580000000001,0.0206125,-0.0769675,1.181468,0.0205205,-0.0920314999999999,0.924542,-0.0022524999999999,0.0024344999999999,1.075458,0.0022525,-0.0024344999999999,0.877738,-0.3975194999999999,-0.0781004999999999,1.129628,-0.3837195,-0.0976684999999999,0.882388,-0.7226695000000001,-0.0759425,1.137968,-0.7266295,-0.0869765
31,0.9850945,0.7492125000000001,0.0057914999999999,0.8315555,0.4482825,0.0242765,0.8096655,0.2197325,-0.0019965,1.1503255000000001,0.4599525,0.0132544999999999,1.1753555,0.2184325,-0.0152335,0.8049155,0.0298395,-0.0958055,1.1830055,0.0298825,-0.1132125,0.9243085,-0.0019855,0.0024894999999999,1.0756915,0.0019855,-0.0024895,0.8767555,-0.3880975,-0.0905925,1.1299355,-0.3753775,-0.1101965,0.8826555000000001,-0.7134675,-0.0822395,1.1377955,-0.7180275,-0.0933535
32,0.984986,0.746741,0.0014314999999999,0.8328600000000002,0.447201,0.0185154999999999,0.80707,0.222761,-0.0188395,1.1497,0.459071,0.0074704999999999,1.17863,0.222161,-0.0330735,0.8022,0.041148,-0.1200084999999999,1.18509,0.041191,-0.1390905,0.9240079999999999,-0.0018089999999999,0.0025784999999999,1.075992,0.0018089999999999,-0.0025785,0.87564,-0.377419,-0.1037984999999999,1.13009,-0.365679,-0.1229835,0.8829200000000001,-0.7030590000000001,-0.0888305,1.1374900000000001,-0.707349,-0.0999945
33,0.9848970000000001,0.7439675,-0.0035955,0.83448,0.4460975,0.0116995,0.80402,0.2281475,-0.0388835,1.1491799999999999,0.4583875,0.0011245,1.18216,0.2292374999999999,-0.0535505,0.79897,0.0536045,-0.1489415,1.18822,0.0536475,-0.1699014999999999,0.923564,-0.0016665,0.0025934999999999,1.076436,0.0016665,-0.0025934999999999,0.8746700000000001,-0.3654725,-0.1170655,1.13024,-0.3549025,-0.1363214999999999,0.88337,-0.6910425,-0.0957145,1.13717,-0.6948924999999999,-0.1067365
34,0.9849265,0.7412525,-0.0085645,0.8363905,0.4451625,0.0046494999999999,0.8009605,0.2337525,-0.0593645,1.1485305,0.4580725,-0.0051935,1.1859605,0.2364525,-0.0752415,0.7954705,0.0659695,-0.1803865,1.1918104999999999,0.0660125,-0.2015365,0.9232025000000001,-0.0015714999999999,0.0026414999999999,1.0767974999999999,0.0015715,-0.0026415,0.8738805000000001,-0.3536075,-0.1294855,1.1301005,-0.3440075,-0.1484565,0.8840005,-0.6788575,-0.1020975,1.1368805,-0.6825275,-0.1131115
35,0.9849475,0.7387159999999999,-0.0139635,0.8386305000000001,0.445036,-0.0032654999999999,0.7974905,0.241206,-0.0802895,1.1474605,0.4576759999999999,-0.0121614999999999,1.1897704999999998,0.246116,-0.0981325,0.7909305,0.0806139999999999,-0.2152545,1.1955205,0.0806559999999999,-0.2362645,0.9227305000000001,-0.001347,0.0024954999999999,1.0772694999999999,0.0013469999999999,-0.0024954999999999,0.8730005000000001,-0.338634,-0.1422035,1.1299805,-0.330084,-0.1607645,0.8846505,-0.665394,-0.1076565,1.1365305,-0.669064,-0.1194655
36,0.9851200000000001,0.735691,-0.0195909999999999,0.840812,0.4450409999999999,-0.0117549999999999,0.7937820000000001,0.250231,-0.102029,1.146462,0.4575309999999999,-0.0197819999999999,1.193622,0.256521,-0.122027,0.785942,0.096298,-0.2512729999999999,1.199562,0.097727,-0.272933,0.922235,-0.0010389999999999,0.0022,1.077765,0.0010389999999999,-0.0021999999999999,0.871992,-0.324799,-0.154853,1.129832,-0.315679,-0.172673,0.8853219999999999,-0.651969,-0.113328,1.136122,-0.655469,-0.126074
37,0.9851155,0.7342550000000001,-0.0301615,0.8430235,0.446545,-0.0257275,0.7896535,0.261695,-0.1300575,1.1447135,0.458895,-0.0329535,1.1968035,0.269865,-0.1516695,0.7825835,0.118507,-0.2939435,1.2040435,0.120343,-0.3170735,0.9218385,-0.0006949999999999,0.0018935,1.0781615,0.000695,-0.0018934999999999,0.8707935,-0.309925,-0.1713035,1.1294035,-0.300255,-0.1886335,0.8858035000000001,-0.6372850000000001,-0.1239205,1.1355635,-0.6403650000000001,-0.1371815
38,0.9851940000000001,0.7316750000000001,-0.040879,0.845684,0.448135,-0.0399379999999999,0.7845340000000001,0.275165,-0.158332,1.142884,0.459185,-0.0463349999999999,1.1997239999999998,0.284965,-0.182948,0.7792939999999999,0.143182,-0.336678,1.208094,0.147114,-0.364168,0.921391,-0.0004549999999999,0.001716,1.078609,0.000455,-0.0017159999999999,0.868474,-0.291595,-0.192458,1.129304,-0.281685,-0.208508,0.886244,-0.621135,-0.134593,1.134894,-0.624355,-0.148416
39,0.9853515,0.7289049999999999,-0.0510095,0.8481785,0.450075,-0.0529905,0.7796285000000001,0.288875,-0.1857155,1.1413585,0.459985,-0.0588145,1.2024085,0.298675,-0.2130555,0.7761885,0.167893,-0.3768755,1.2117585,0.172526,-0.4092655,0.9209565,-0.0002849999999999,0.0017215,1.0790435,0.000285,-0.0017215,0.8661885,-0.274735,-0.2120155,1.1292885,-0.265025,-0.2266155,0.8865485,-0.606225,-0.1445465,1.1341985,-0.6097349999999999,-0.1588945
40,0.9855805,0.7267750000000001,-0.0606135,0.8507735,0.450545,-0.0652585,0.7734835,0.301205,-0.2094655,1.1397235000000001,0.460835,-0.0700045,1.2045035,0.311005,-0.2382055,0.7747135,0.192098,-0.4070755,1.2139235,0.197342,-0.4432755,0.9205465,-0.0001849999999999,0.0017614999999999,1.0794535,0.000185,-0.0017614999999999,0.8638535,-0.259285,-0.2294755,1.1293435,-0.2504349999999999,-0.2427754999999999,0.8865935,-0.592595,-0.1535834999999999,1.1334235,-0.596065,-0.1683605
41,0.985996,0.72482,-0.069964,0.853077,0.45144,-0.0766739999999999,0.768137,0.31298,-0.2275859999999999,1.138317,0.4611,-0.0805739999999999,1.205487,0.3237799999999999,-0.2583959999999999,0.771317,0.214088,-0.431706,1.216007,0.224798,-0.472406,0.920288,6.999999999998674e-05,0.001704,1.079712,-7.00000000000145e-05,-0.0017039999999999,0.8615269999999999,-0.2443199999999999,-0.245996,1.1295169999999999,-0.23673,-0.258476,0.886607,-0.5793200000000001,-0.162162,1.132777,-0.58294,-0.177354
42,0.9863675,0.72296,-0.079149,0.8549225,0.45264,-0.087359,0.7654725,0.32413,-0.243105,1.1372525,0.46089,-0.090474,1.2060724999999999,0.33726,-0.275895,0.7678125,0.2381329999999999,-0.4563649999999999,1.2174325,0.25095,-0.497225,0.9201545,0.00039,0.0016649999999999,1.0798455,-0.00039,-0.0016649999999999,0.8591425,-0.22993,-0.261895,1.1296425,-0.22366,-0.273595,0.8862825,-0.5663,-0.170263,1.1320425,-0.57,-0.186115
43,0.9867850000000001,0.720925,-0.088215,0.856585,0.453765,-0.09766,0.763225,0.336005,-0.25803,1.136245,0.460705,-0.100172,1.206445,0.352285,-0.29196,0.764205,0.260544,-0.4803,1.218465,0.277052,-0.52296,0.920179,0.000625,0.0015499999999999,1.079821,-0.0006249999999999,-0.0015499999999999,0.8566750000000001,-0.2144649999999999,-0.27769,1.129665,-0.2095949999999999,-0.2886,0.885935,-0.553015,-0.178011,1.131375,-0.555905,-0.194739
44,0.987304,0.7182649999999999,-0.097144,0.857959,0.454355,-0.107316,0.760099,0.348535,-0.273065,1.135599,0.460125,-0.109242,1.206839,0.366885,-0.306435,0.761289,0.2803799999999999,-0.497665,1.219839,0.30178,-0.546935,0.920146,0.0007149999999999,0.0015949999999999,1.079854,-0.000715,-0.001595,0.854409,-0.199815,-0.292665,1.129829,-0.196395,-0.302905,0.885689,-0.540475,-0.18531,1.130839,-0.5433250000000001,-0.203088
45,0.9878225,0.71605,-0.105942,0.8596135,0.45496,-0.116974,0.7581735000000001,0.36213,-0.28871,1.1349035,0.45926,-0.117931,1.2073935,0.3821,-0.31969,0.7581635,0.306469,-0.51678,1.2208535,0.32771,-0.56897,0.9200285,0.0007999999999999,0.0018999999999999,1.0799715,-0.0007999999999999,-0.0019,0.8522935,-0.1827099999999999,-0.30762,1.1300634999999999,-0.18058,-0.31776,0.8854735,-0.526,-0.192537,1.1303035,-0.52912,-0.211233
46,0.9885120000000001,0.712565,-0.109566,0.861054,0.454025,-0.121212,0.7565940000000001,0.374125,-0.29759,1.134334,0.457375,-0.121249,1.208304,0.395455,-0.3263,0.757244,0.328165,-0.5291399999999999,1.221394,0.348985,-0.58265,0.919911,0.000865,0.0021799999999999,1.080089,-0.000865,-0.0021799999999999,0.8504240000000001,-0.1672149999999999,-0.31728,1.130534,-0.166565,-0.32702,0.885434,-0.513065,-0.194632,1.129974,-0.516735,-0.2141529999999999
47,0.989015,0.70975,-0.113063,0.861917,0.4540999999999999,-0.125079,0.7555769999999999,0.38565,-0.30931,1.133807,0.4565,-0.124245,1.2093269999999998,0.40811,-0.33039,0.755777,0.34942,-0.54121,1.2220369999999998,0.36934,-0.59277,0.919839,0.0010299999999999,0.0023099999999999,1.080161,-0.00103,-0.00231,0.849657,-0.15569,-0.32158,1.130597,-0.15504,-0.33162,0.885107,-0.50149,-0.197205,1.129667,-0.50521,-0.21709
48,0.9887385000000001,0.70705,-0.116837,0.8621545000000002,0.45336,-0.12923,0.7539945,0.39767,-0.320405,1.1328445,0.45537,-0.127362,1.2096345,0.42054,-0.334055,0.7526945,0.37109,-0.549215,1.2219945,0.39094,-0.6022350000000001,0.9197715,0.001,0.0023949999999999,1.0802285,-0.001,-0.002395,0.8482245000000002,-0.1436099999999999,-0.325895,1.1300045,-0.1429599999999999,-0.336295,0.8840345000000001,-0.4893399999999999,-0.2,1.1288545,-0.49313,-0.220327
49,0.9882525000000001,0.70407,-0.120227,0.8616755,0.4533,-0.132315,0.7524655,0.40863,-0.33029,1.1319755,0.4543199999999999,-0.130002,1.2096255,0.43138,-0.3373,0.7512655,0.39209,-0.56168,1.2215055,0.4115799999999999,-0.60991,0.9197615,0.00101,0.00248,1.0802385,-0.00101,-0.0024799999999999,0.8468955,-0.13277,-0.32919,1.1293755,-0.13212,-0.33998,0.8829155,-0.47845,-0.202345,1.1279555,-0.48229,-0.223217
50,0.9877580000000001,0.700655,-0.1239869999999999,0.861155,0.4532449999999999,-0.1356949999999999,0.750775,0.4208349999999999,-0.340105,1.131235,0.4529449999999999,-0.1333029999999999,1.209065,0.4435349999999999,-0.340645,0.7492650000000001,0.4155549999999999,-0.574235,1.2211750000000001,0.4321549999999999,-0.616295,0.919758,0.0009949999999999,0.002585,1.080242,-0.000995,-0.0025849999999999,0.845565,-0.122745,-0.332775,1.128725,-0.122865,-0.343755,0.8817050000000001,-0.4665250000000001,-0.206486,1.126965,-0.470545,-0.227094
51,0.9871385000000001,0.696895,-0.128047,0.8604215,0.453035,-0.1391039999999999,0.7491215,0.432995,-0.3483699999999999,1.1302915,0.451625,-0.1370019999999999,1.2085314999999999,0.456765,-0.34401,0.7475815,0.442115,-0.57867,1.2209515,0.455415,-0.61903,0.9197795,0.000995,0.00266,1.0802205,-0.0009949999999999,-0.0026599999999999,0.8443515,-0.111535,-0.33629,1.1281215,-0.1123649999999999,-0.34747,0.8808715,-0.4536449999999999,-0.2098259999999999,1.1260415,-0.4579249999999999,-0.230791
52,0.9864090000000001,0.6930350000000001,-0.132078,0.8597310000000001,0.453485,-0.142373,0.749741,0.444945,-0.356255,1.129341,0.450625,-0.1404999999999999,1.208371,0.469355,-0.346585,0.7434510000000001,0.468575,-0.589785,1.220141,0.478435,-0.620015,0.919809,0.001035,0.002755,1.080191,-0.001035,-0.002755,0.843171,-0.1004249999999999,-0.339725,1.127611,-0.102105,-0.350985,0.8802110000000001,-0.441245,-0.213183,1.124881,-0.445905,-0.2336659999999999
53,0.985477,0.6898299999999999,-0.135873,0.858885,0.45285,-0.145472,0.7506349999999999,0.45685,-0.36206,1.128325,0.44974,-0.143914,1.208075,0.48097,-0.35073,0.741525,0.49628,-0.5955699999999999,1.218895,0.5015700000000001,-0.62306,0.9196960000000001,0.00096,0.00275,1.080304,-0.00096,-0.00275,0.841885,-0.08909,-0.34281,1.126975,-0.09116,-0.3543199999999999,0.8794150000000001,-0.42845,-0.217145,1.123575,-0.4336,-0.235967
54,0.9842585,0.6860550000000001,-0.139685,0.8575135,0.451395,-0.1483239999999999,0.7495835,0.467815,-0.366055,1.1272434999999998,0.449095,-0.147248,1.2076635,0.491455,-0.354385,0.7395735,0.520575,-0.597595,1.2175435000000001,0.5238050000000001,-0.625105,0.9195445,0.000665,0.0027149999999999,1.0804555,-0.0006649999999999,-0.0027149999999999,0.8404834999999999,-0.0781449999999999,-0.345085,1.1259535,-0.080575,-0.3566749999999999,0.8781135,-0.416945,-0.2210909999999999,1.1220835,-0.4224249999999999,-0.237951
55,0.9831385,0.68171,-0.143225,0.8562685,0.45051,-0.150835,0.7481785000000001,0.47926,-0.369355,1.1262285,0.44837,-0.150551,1.2073684999999998,0.50153,-0.357485,0.7375085,0.54415,-0.5993850000000001,1.2162085,0.5476800000000001,-0.626925,0.9193614999999999,0.00053,0.0026149999999999,1.0806385,-0.0005299999999999,-0.002615,0.8392785,-0.0674299999999999,-0.347125,1.1250985,-0.0696399999999999,-0.358735,0.8774585,-0.40569,-0.224,1.1207485,-0.41171,-0.239767
56,0.9820255,0.6773,-0.1465609999999999,0.8550295,0.447972,-0.1534419999999999,0.7468195,0.4923,-0.3715199999999999,1.1253495,0.446487,-0.1537589999999999,1.2070495,0.5127900000000001,-0.35992,0.7354895,0.57053,-0.59904,1.2150195,0.5726800000000001,-0.62232,0.9190605000000001,0.00029,0.00254,1.0809395,-0.0002899999999999,-0.0025399999999999,0.8382395,-0.0548699999999999,-0.34923,1.1241195,-0.0569399999999999,-0.36083,0.8760195,-0.39264,-0.226232,1.1190295,-0.39979,-0.241309
57,0.981363,0.6729499999999999,-0.149524,0.854268,0.4462859999999999,-0.15538,0.745468,0.50666,-0.372585,1.124798,0.4447149999999999,-0.156402,1.207228,0.52494,-0.361485,0.734368,0.5967,-0.597385,1.214408,0.59836,-0.616235,0.918802,0.0003199999999999,0.002555,1.081198,-0.0003199999999999,-0.002555,0.837898,-0.04108,-0.350685,1.123428,-0.04304,-0.362225,0.875828,-0.37851,-0.227346,1.117428,-0.38704,-0.240122
58,0.980829,0.668725,-0.152019,0.853545,0.445057,-0.1568679999999999,0.7438750000000001,0.5212650000000001,-0.37051,1.124385,0.443151,-0.158625,1.207405,0.537435,-0.3621,0.732965,0.622835,-0.59241,1.213965,0.6243350000000001,-0.60911,0.918645,0.000285,0.0025499999999999,1.081355,-0.0002849999999999,-0.0025499999999999,0.837925,-0.0268549999999999,-0.3518099999999999,1.122675,-0.0286249999999999,-0.36318,0.875865,-0.3638049999999999,-0.2280559999999999,1.116265,-0.3741449999999999,-0.239437
59,0.980285,0.664965,-0.153964,0.852984,0.444402,-0.157652,0.743134,0.535135,-0.370505,1.124094,0.442623,-0.159683,1.207264,0.5492250000000001,-0.361805,0.731284,0.647815,-0.591765,1.213604,0.648395,-0.601155,0.9184559999999999,0.0004149999999999,0.002585,1.081544,-0.0004149999999999,-0.0025849999999999,0.838144,-0.013085,-0.352005,1.121924,-0.0145049999999999,-0.363415,0.875834,-0.350795,-0.2284399999999999,1.115654,-0.360535,-0.2402379999999999
60,0.9797185,0.662005,-0.155657,0.8522375,0.443586,-0.15829,0.7415575,0.548125,-0.3666999999999999,1.1237975,0.442986,-0.1602859999999999,1.2068775,0.5606249999999999,-0.36172,0.7298074999999999,0.670045,-0.58561,1.2132075,0.6704049999999999,-0.59341,0.9182825,0.0003749999999999,0.00259,1.0817174999999999,-0.000375,-0.0025899999999999,0.8384475,-0.000135,-0.35201,1.1211975,-0.001075,-0.36356,0.8759985,-0.339045,-0.2284429999999999,1.1150375,-0.345925,-0.238589
61,0.9792290000000001,0.65925,-0.157238,0.851608,0.442566,-0.1589269999999999,0.7402580000000001,0.5612900000000001,-0.3631449999999999,1.123408,0.443241,-0.160875,1.206228,0.57225,-0.361625,0.727968,0.6927000000000001,-0.577855,1.212838,0.69254,-0.585725,0.9181920000000001,0.00038,0.002595,1.0818079999999999,-0.0003799999999999,-0.0025949999999999,0.838868,0.01347,-0.352035,1.120548,0.01331,-0.3635349999999999,0.87625,-0.32674,-0.2281969999999999,1.114498,-0.3308,-0.2368139999999999
62,0.9788185,0.656175,-0.158736,0.8510595,0.442111,-0.159451,0.7392095000000001,0.5744750000000001,-0.35904,1.1230194999999998,0.444067,-0.161289,1.2055995,0.582935,-0.35991,0.7257595,0.7155050000000001,-0.56829,1.2126195,0.714375,-0.57694,0.9181905,0.000435,0.0026199999999999,1.0818095,-0.0004349999999999,-0.00262,0.8395195,0.028115,-0.35203,1.1196594999999998,0.028155,-0.36346,0.8776905,-0.3150149999999999,-0.225873,1.1140695,-0.3175249999999999,-0.236764
63,0.9787750000000001,0.65385,-0.158895,0.850672,0.443032,-0.158945,0.738422,0.5869599999999999,-0.351605,1.122832,0.445008,-0.160604,1.205552,0.59348,-0.355865,0.723372,0.7378,-0.555375,1.2128619999999999,0.7368,-0.566225,0.9182980000000001,0.0005499999999999,0.0027049999999999,1.081702,-0.0005499999999999,-0.002705,0.840462,0.0431699999999999,-0.351015,1.118792,0.0435599999999999,-0.362495,0.879981,-0.30237,-0.222367,1.114082,-0.30417,-0.235918
64,0.9788030000000001,0.651575,-0.158888,0.850366,0.444079,-0.158274,0.738086,0.598955,-0.34343,1.122736,0.445564,-0.1596729999999999,1.205626,0.604025,-0.35055,0.721076,0.760475,-0.5398,1.213256,0.757485,-0.55347,0.918464,0.000665,0.0029099999999999,1.081536,-0.0006649999999999,-0.0029099999999999,0.841436,0.058275,-0.34961,1.117766,0.058905,-0.36141,0.882126,-0.2896949999999999,-0.218578,1.114976,-0.2913049999999999,-0.235066
65,0.9787965000000001,0.649915,-0.158515,0.8502455,0.4467129999999999,-0.157319,0.7378255,0.608575,-0.33599,1.1226955,0.447049,-0.158596,1.2054655,0.613485,-0.34362,0.7190255,0.7806249999999999,-0.5234,1.2136255,0.776435,-0.54024,0.9186445,0.0009249999999999,0.00321,1.0813555,-0.000925,-0.0032099999999999,0.8423555,0.0717849999999999,-0.34794,1.1167354999999999,0.072125,-0.3600799999999999,0.8838295,-0.278845,-0.214764,1.1164654999999999,-0.281145,-0.238141
66,0.9788455,0.6480549999999999,-0.157663,0.8502975,0.4486729999999999,-0.156164,0.7378075,0.6161749999999999,-0.3280849999999999,1.1226975,0.4488469999999999,-0.15737,1.2050675,0.621575,-0.336285,0.7172375000000001,0.799155,-0.507155,1.2142775000000001,0.793565,-0.527225,0.9188125,0.0009049999999999,0.0034849999999999,1.0811875,-0.000905,-0.0034849999999999,0.8431075,0.0837949999999999,-0.3458449999999999,1.1157175,0.0834649999999999,-0.3583349999999999,0.8855284999999999,-0.269935,-0.211089,1.1178975,-0.272495,-0.2412139999999999
67,0.978899,0.64609,-0.156904,0.8504300000000001,0.450231,-0.155106,0.73796,0.62311,-0.3189849999999999,1.12263,0.450651,-0.156232,1.20445,0.62916,-0.328895,0.71541,0.8169900000000001,-0.491465,1.21505,0.8092900000000001,-0.512395,0.91899,0.00091,0.003755,1.08101,-0.0009099999999999,-0.003755,0.84363,0.09425,-0.343615,1.11482,0.09342,-0.356585,0.886905,-0.26234,-0.2079389999999999,1.11958,-0.26527,-0.244935
68,0.9790495000000001,0.6439549999999999,-0.1560389999999999,0.8507565,0.4510609999999999,-0.1541169999999999,0.7382664999999999,0.628825,-0.308855,1.1225565,0.4522549999999999,-0.1550619999999999,1.2037865,0.6358149999999999,-0.320995,0.7140765,0.8340049999999999,-0.472705,1.2158765,0.824325,-0.496565,0.9192835,0.0006349999999999,0.003985,1.0807165,-0.000635,-0.0039849999999999,0.8442665,0.1035249999999999,-0.341095,1.1142165,0.1021549999999999,-0.354765,0.8883845,-0.2546950000000001,-0.2050799999999999,1.1218065,-0.2589150000000001,-0.249104
69,0.9791890000000001,0.64158,-0.155398,0.851112,0.451982,-0.153333,0.738612,0.6336,-0.298015,1.122402,0.453309,-0.154167,1.203152,0.64142,-0.312755,0.712912,0.84995,-0.453765,1.216722,0.8383,-0.480435,0.919578,0.00041,0.0041749999999999,1.080422,-0.00041,-0.004175,0.844892,0.11169,-0.338615,1.1137519999999999,0.10986,-0.353205,0.8896620000000001,-0.2477399999999999,-0.202171,1.124392,-0.2533299999999999,-0.255325
70,0.979344,0.639205,-0.155307,0.851464,0.453098,-0.153058,0.739004,0.637875,-0.28724,1.122364,0.453757,-0.153693,1.202734,0.646765,-0.30479,0.7120839999999999,0.8646050000000001,-0.43329,1.217714,0.851765,-0.4634,0.9198459999999999,0.0001849999999999,0.00422,1.080154,-0.0001849999999999,-0.00422,0.845564,0.1196349999999999,-0.33631,1.113404,0.117405,-0.35184,0.89051,-0.2414349999999999,-0.201832,1.126644,-0.247665,-0.26103
71,0.979477,0.636485,-0.155713,0.851835,0.454499,-0.153017,0.7395149999999999,0.640854,-0.27692,1.122275,0.453947,-0.1535,1.202745,0.65181,-0.29807,0.711685,0.87706,-0.41307,1.218855,0.8639600000000001,-0.44751,0.920115,0.0,0.0042399999999999,1.079885,0.0,-0.0042399999999999,0.846115,0.12624,-0.3342,1.113435,0.12326,-0.35067,0.891245,-0.23592,-0.201616,1.128085,-0.2434999999999999,-0.26667
72,0.9796860000000001,0.6335390000000001,-0.156168,0.8522350000000001,0.455098,-0.153015,0.740075,0.642395,-0.26873,1.122315,0.453846,-0.153382,1.203025,0.655335,-0.29252,0.711835,0.885525,-0.39559,1.220055,0.872965,-0.43389,0.920295,-0.0002149999999999,0.00423,1.079705,0.0002149999999999,-0.00423,0.846695,0.130385,-0.33227,1.1135249999999999,0.126715,-0.34943,0.8920669999999999,-0.2328949999999999,-0.20158,1.129585,-0.241125,-0.27224
73,0.980048,0.6311180000000001,-0.156742,0.852636,0.453852,-0.153034,0.740486,0.644288,-0.262065,1.122396,0.454735,-0.153272,1.203326,0.65907,-0.2872949999999999,0.712086,0.89246,-0.3802149999999999,1.221426,0.88129,-0.421465,0.920374,-0.0007199999999999,0.004225,1.079626,0.00072,-0.004225,0.847406,0.13447,-0.329945,1.113656,0.13003,-0.348035,0.893012,-0.23009,-0.201575,1.130516,-0.2391099999999999,-0.275495
74,0.980602,0.628577,-0.157339,0.852991,0.452295,-0.153012,0.740901,0.646476,-0.255,1.122511,0.4550580000000001,-0.152978,1.203651,0.6628850000000001,-0.28204,0.712391,0.898545,-0.36586,1.223031,0.8890850000000001,-0.40954,0.920489,-0.001255,0.00422,1.079511,0.001255,-0.00422,0.8481010000000001,0.138285,-0.32754,1.113781,0.133025,-0.34761,0.894165,-0.227885,-0.200001,1.130901,-0.2361449999999999,-0.27551
75,0.9813015,0.626391,-0.158514,0.8535825,0.451055,-0.15339,0.7413624999999999,0.648335,-0.248657,1.1227425,0.455305,-0.153194,1.2043025,0.666305,-0.277345,0.7125925,0.903705,-0.352005,1.2250025,0.8952150000000001,-0.398255,0.9205875,-0.001615,0.0042349999999999,1.0794125,0.001615,-0.004235,0.8488025,0.141705,-0.325805,1.1142725,0.135395,-0.347945,0.8946605,-0.226205,-0.20054,1.1313825,-0.233465,-0.276045
76,0.982083,0.6241450000000001,-0.15995,0.854042,0.45072,-0.153815,0.7416119999999999,0.650394,-0.243146,1.123142,0.45562,-0.15348,1.205732,0.66918,-0.27269,0.712442,0.90732,-0.33847,1.228082,0.9006500000000001,-0.3864499999999999,0.920778,-0.0018099999999999,0.00423,1.079222,0.00181,-0.00423,0.849182,0.1447,-0.32427,1.115222,0.1347,-0.34841,0.894699,-0.2236099999999999,-0.201241,1.131542,-0.2332999999999999,-0.27676
77,0.9829315,0.62239,-0.1614809999999999,0.8543305,0.45029,-0.154175,0.7415605000000001,0.652282,-0.238426,1.1235105,0.4558,-0.153811,1.2091705,0.67365,-0.26848,0.7117605,0.9093,-0.32762,1.2326005,0.90463,-0.37536,0.9209695,-0.00192,0.0042399999999999,1.0790305,0.00192,-0.0042399999999999,0.8494905,0.14695,-0.32296,1.1161705,0.13155,-0.34901,0.8946965,-0.22163,-0.2019979999999999,1.1317705,-0.23624,-0.27505
78,0.9837670000000001,0.6207889999999999,-0.163049,0.85461,0.4499249999999999,-0.154468,0.74163,0.654017,-0.233912,1.12388,0.4560349999999999,-0.154106,1.21284,0.6780349999999999,-0.264705,0.71094,0.911035,-0.317415,1.23796,0.907955,-0.364185,0.92114,-0.001985,0.0042349999999999,1.07886,0.0019849999999999,-0.004235,0.84975,0.1491249999999999,-0.321915,1.11706,0.1282149999999999,-0.349585,0.895885,-0.220405,-0.203448,1.13198,-0.2394050000000001,-0.273255
79,0.9850315,0.6194430000000001,-0.1646399999999999,0.8553725,0.44912,-0.154854,0.7417525,0.655302,-0.2303569999999999,1.1247325,0.45656,-0.1544839999999999,1.2171524999999999,0.6828000000000001,-0.26171,0.7105225,0.91232,-0.3101,1.2444125,0.91043,-0.35462,0.9212775,-0.00207,0.00423,1.0787225,0.00207,-0.0042299999999999,0.8505024999999999,0.15161,-0.32101,1.1184425,0.12455,-0.35029,0.8975385,-0.2196199999999999,-0.2052479999999999,1.1325025,-0.2430099999999999,-0.2713899999999999
80,0.986252,0.6187429999999999,-0.166076,0.856097,0.4483099999999999,-0.155063,0.741777,0.6565219999999999,-0.227072,1.125547,0.4570299999999999,-0.1548729999999999,1.221697,0.6874199999999999,-0.259405,0.710197,0.91139,-0.302825,1.2510970000000001,0.91262,-0.346035,0.921383,-0.00213,0.004225,1.078617,0.0021299999999999,-0.004225,0.851257,0.1538299999999999,-0.320105,1.119637,0.1209699999999999,-0.351055,0.899441,-0.21842,-0.2064969999999999,1.133047,-0.24664,-0.269705
81,0.987398,0.6181540000000001,-0.167537,0.856877,0.44758,-0.155226,0.741827,0.6576230000000001,-0.223958,1.1263969999999999,0.45774,-0.155221,1.226427,0.6919500000000001,-0.257162,0.710027,0.90961,-0.2955649999999999,1.257997,0.91446,-0.337685,0.921443,-0.00217,0.0042149999999999,1.078557,0.00217,-0.0042149999999999,0.852067,0.15549,-0.3193249999999999,1.121097,0.11797,-0.351525,0.899721,-0.2188899999999999,-0.2087629999999999,1.134067,-0.2493599999999999,-0.269355
82,0.988423,0.6175710000000001,-0.16879,0.8576159999999999,0.44779,-0.155187,0.741846,0.65802,-0.22081,1.127246,0.45782,-0.155404,1.231276,0.69564,-0.254597,0.709816,0.90655,-0.28794,1.265126,0.91529,-0.3295599999999999,0.921504,-0.002,0.00428,1.078496,0.002,-0.00428,0.852766,0.15635,-0.31888,1.122346,0.11398,-0.35223,0.90004,-0.2203999999999999,-0.210355,1.134876,-0.25327,-0.26875
83,0.9894420000000002,0.617162,-0.170091,0.858313,0.44777,-0.1551229999999999,0.741843,0.658096,-0.217642,1.128053,0.45775,-0.1556459999999999,1.236283,0.69554,-0.251805,0.7096530000000001,0.90291,-0.27992,1.272403,0.9156,-0.32145,0.921517,-0.00199,0.00437,1.078483,0.00199,-0.0043699999999999,0.8534030000000001,0.15698,-0.3186,1.123433,0.1099999999999999,-0.35284,0.9007910000000001,-0.2219799999999999,-0.2104559999999999,1.135533,-0.2572,-0.26836
84,0.9905125,0.616923,-0.171466,0.8589735000000001,0.4477799999999999,-0.155139,0.7418335,0.658146,-0.214297,1.1288135,0.4577,-0.155858,1.2412334999999999,0.69557,-0.248919,0.7095035000000001,0.89866,-0.27187,1.2795835,0.91563,-0.3138,0.9215075,-0.00197,0.0044299999999999,1.0784925,0.00197,-0.00443,0.8540035,0.1576499999999999,-0.31842,1.1243735,0.1060899999999999,-0.35348,0.8997185,-0.2226,-0.212306,1.1360935,-0.26107,-0.26801
85,0.9914765,0.616632,-0.172858,0.8595335,0.4480399999999999,-0.155237,0.7418435,0.658225,-0.211195,1.1294534999999999,0.4577299999999999,-0.15613,1.2457735,0.6956,-0.246292,0.7095535,0.89389,-0.264505,1.2858035,0.91566,-0.307535,0.9214865,-0.00195,0.0044549999999999,1.0785135,0.00195,-0.004455,0.8544035,0.1584599999999999,-0.318425,1.1250035,0.1044099999999999,-0.354285,0.9003245,-0.22293,-0.212507,1.1366735000000001,-0.2626200000000001,-0.268245
86,0.9924430000000001,0.616102,-0.17419,0.860039,0.448435,-0.155438,0.741939,0.657851,-0.208612,1.130049,0.458385,-0.156381,1.248599,0.6942550000000001,-0.242116,0.709959,0.8888750000000001,-0.257728,1.290759,0.915725,-0.302525,0.921468,-0.001815,0.0044349999999999,1.078532,0.001815,-0.0044349999999999,0.854739,0.159055,-0.318555,1.125499,0.103945,-0.354595,0.899799,-0.2226549999999999,-0.212754,1.137039,-0.262935,-0.268435
87,0.9934645000000001,0.6154520000000001,-0.1756289999999999,0.8604265,0.449015,-0.155611,0.7418365,0.65737,-0.205936,1.1305965,0.4589150000000001,-0.156597,1.2512265,0.6925450000000001,-0.238083,0.7101365,0.883515,-0.251326,1.2953965,0.915565,-0.2983449999999999,0.9214525000000001,-0.0016949999999998,0.004425,1.0785475,0.001695,-0.0044249999999999,0.8550565,0.159415,-0.318705,1.1258965,0.103495,-0.354875,0.8992475,-0.2225549999999999,-0.212998,1.1372365,-0.2634149999999999,-0.268695
88,0.99412,0.6154520000000001,-0.176831,0.860434,0.449015,-0.155607,0.741314,0.65737,-0.2030799999999999,1.130774,0.459135,-0.156625,1.253414,0.6909850000000001,-0.233948,0.709804,0.878685,-0.244908,1.299474,0.915815,-0.29451,0.92145,-0.0016949999999998,0.0044,1.07855,0.001695,-0.0043999999999999,0.855054,0.159415,-0.31879,1.125624,0.103455,-0.35495,0.8988929999999999,-0.2227249999999999,-0.211788,1.1370339999999999,-0.2634449999999999,-0.26876
89,0.9948695,0.6154520000000001,-0.178057,0.8604295,0.449015,-0.155601,0.7407195000000001,0.65737,-0.200322,1.1309695,0.459135,-0.1566359999999999,1.2553395,0.6861250000000001,-0.2302789999999999,0.7091695,0.875205,-0.240718,1.3039995,0.915785,-0.29296,0.9214485,-0.0016949999999998,0.00437,1.0785515,0.001695,-0.0043699999999999,0.8550495,0.159415,-0.31887,1.1254395,0.103865,-0.35478,0.8982215,-0.2227249999999999,-0.2125659999999999,1.1368194999999999,-0.262555,-0.2701599999999999
90,0.9956885000000001,0.6154520000000001,-0.179384,0.8604355000000001,0.449015,-0.155631,0.7400755,0.65737,-0.197946,1.1311755,0.459135,-0.156657,1.2570755,0.6808350000000001,-0.227039,0.7080655,0.871745,-0.237297,1.3085755,0.915785,-0.291915,0.9214465000000001,-0.0016949999999998,0.0043449999999999,1.0785535,0.001695,-0.004345,0.8550555,0.159415,-0.318945,1.1252754999999999,0.103865,-0.354715,0.8969175,-0.2211249999999999,-0.212635,1.1365755,-0.262235,-0.271415
91,0.9964425,0.615138,-0.18065,0.8604324999999999,0.4490349999999999,-0.155627,0.7393825,0.656272,-0.19632,1.1314425,0.4591849999999999,-0.156622,1.2585525,0.6747749999999999,-0.2251159999999999,0.7068525,0.8689149999999999,-0.235493,1.3128725,0.915335,-0.29175,0.9214385,-0.001675,0.00433,1.0785615,0.0016749999999999,-0.00433,0.8550725,0.1590449999999999,-0.31915,1.1251525,0.1043149999999999,-0.3545399999999999,0.8966215,-0.221075,-0.2127109999999999,1.1368225,-0.261255,-0.27307
92,0.997127,0.614862,-0.181845,0.8604430000000001,0.4490699999999999,-0.155624,0.738803,0.65518,-0.195723,1.1319029999999999,0.4592199999999999,-0.156494,1.2596129999999999,0.67221,-0.225256,0.7060230000000001,0.86687,-0.235552,1.316753,0.91473,-0.29202,0.921431,-0.0016399999999999,0.00433,1.0785689999999999,0.0016399999999999,-0.00433,0.855093,0.15868,-0.31936,1.124983,0.1043799999999999,-0.35435,0.896331,-0.2209999999999999,-0.212792,1.136793,-0.26076,-0.2748
93,0.9977505000000001,0.61468,-0.182818,0.8604555,0.44914,-0.155573,0.7384554999999999,0.65423,-0.195761,1.1324455,0.45863,-0.156264,1.2595755,0.665863,-0.2241739999999999,0.7055755,0.86625,-0.235586,1.3184355,0.91422,-0.29214,0.9214275000000001,-0.0015899999999999,0.0043199999999999,1.0785725,0.0015899999999999,-0.0043199999999999,0.8550955,0.15841,-0.31948,1.1248055,0.1044499999999999,-0.35426,0.8955595000000001,-0.21891,-0.210393,1.1366955,-0.26063,-0.27544
94,0.9982905,0.614573,-0.183584,0.8604705,0.44926,-0.155495,0.7382205,0.654336,-0.195814,1.1330405,0.45766,-0.156051,1.2594405,0.6601380000000001,-0.223483,0.7054405,0.8670900000000001,-0.235642,1.3195605,0.91425,-0.292255,0.9213955,-0.0015199999999999,0.0043249999999999,1.0786045,0.00152,-0.0043249999999999,0.8551605,0.15829,-0.319605,1.1243205,0.10524,-0.354175,0.8950205,-0.2187199999999999,-0.209139,1.1365305,-0.2597899999999999,-0.276085
95,0.9987555000000001,0.614536,-0.184189,0.8604995,0.44941,-0.155402,0.7380495,0.654485,-0.195849,1.1336295,0.45669,-0.155833,1.2592695,0.6569130000000001,-0.223508,0.7052594999999999,0.86795,-0.235718,1.3196895,0.91061,-0.29307,0.9213635,-0.0014399999999999,0.00433,1.0786365,0.0014399999999999,-0.00433,0.8552495,0.15819,-0.31969,1.1238295,0.1061,-0.35408,0.8943975,-0.2182499999999999,-0.208774,1.1363395,-0.25893,-0.27669
96,0.999188,0.6145700000000001,-0.1846399999999999,0.8605309999999999,0.449555,-0.155322,0.7378709999999999,0.654772,-0.1962159999999999,1.134221,0.455635,-0.1557209999999999,1.258701,0.6518170000000001,-0.2235149999999999,0.7049909999999999,0.8688150000000001,-0.238469,1.319421,0.906965,-0.2956649999999999,0.921331,-0.0013349999999999,0.004345,1.078669,0.001335,-0.0043449999999999,0.855361,0.158135,-0.3198149999999999,1.123261,0.106425,-0.354135,0.894431,-0.215785,-0.2069069999999999,1.135951,-0.258675,-0.277115
97,0.9995955,0.614707,-0.184989,0.8605835,0.44969,-0.1552569999999999,0.7376635,0.655216,-0.1976139999999999,1.1348035,0.45455,-0.155656,1.2578034999999999,0.646742,-0.223518,0.7046535,0.8726100000000001,-0.244442,1.3191235,0.90332,-0.29927,0.9212975,-0.0012199999999999,0.00438,1.0787025,0.0012199999999999,-0.0043799999999999,0.8555135,0.1581,-0.31996,1.1227035,0.1069,-0.3541299999999999,0.8943695,-0.2130699999999999,-0.204951,1.1356135,-0.25808,-0.27729
98,0.9999965,0.6149349999999999,-0.185215,0.8606765000000001,0.4498299999999999,-0.155205,0.7377865,0.65596,-0.200129,1.1353265,0.4534499999999999,-0.155641,1.2564265,0.642631,-0.225869,0.7045665,0.8775999999999999,-0.252292,1.3187565,0.89982,-0.30509,0.9212615,-0.00109,0.0044099999999999,1.0787385,0.0010899999999999,-0.0044099999999999,0.8557265000000001,0.1580199999999999,-0.32011,1.1221965,0.1073899999999999,-0.35414,0.8937875,-0.21098,-0.204105,1.1353165,-0.2574900000000001,-0.27734
99,1.000361,0.615429,-0.185275,0.8607940000000001,0.449955,-0.155187,0.7382340000000001,0.656602,-0.2036039999999999,1.135794,0.4523149999999999,-0.1557009999999999,1.254774,0.638609,-0.228507,0.704814,0.882495,-0.260887,1.317684,0.8961049999999999,-0.31213,0.9212160000000001,-0.000935,0.00446,1.078784,0.000935,-0.0044599999999999,0.855994,0.157935,-0.32028,1.121764,0.108485,-0.35407,0.89385,-0.210345,-0.2018029999999999,1.135154,-0.256185,-0.27748
100,1.0006415,0.616159,-0.1853209999999999,0.8609035,0.450015,-0.155194,0.7388635,0.657135,-0.207668,1.1362435,0.4509849999999999,-0.155754,1.2528435,0.634579,-0.231566,0.7054535,0.887535,-0.27041,1.3156135,0.8921349999999999,-0.31988,0.9211665,-0.000735,0.0045,1.0788335,0.0007349999999999,-0.0045,0.8562735,0.157725,-0.32043,1.1213235,0.109425,-0.35397,0.8941995,-0.210455,-0.2009099999999999,1.1348735,-0.255175,-0.2777
101,1.000847,0.616809,-0.185358,0.8609789999999999,0.450025,-0.15522,0.7395690000000001,0.657652,-0.212483,1.136509,0.449775,-0.155793,1.250499,0.6305580000000001,-0.235846,0.706469,0.890225,-0.280645,1.312349,0.8880650000000001,-0.327935,0.921121,-0.0005549999999999,0.0045649999999999,1.078879,0.0005549999999999,-0.004565,0.856599,0.157395,-0.320635,1.120969,0.113005,-0.352755,0.8945470000000001,-0.2108149999999999,-0.200953,1.134569,-0.2510049999999999,-0.278355
102,1.0009675,0.617109,-0.1852259999999999,0.8609945,0.4496449999999999,-0.155219,0.7404545,0.657523,-0.218242,1.1366245,0.448955,-0.155796,1.2475245,0.626098,-0.2399599999999999,0.7083045,0.890435,-0.2934799999999999,1.3075744999999999,0.8826849999999999,-0.33784,0.9210655,-0.000395,0.00464,1.0789345,0.000395,-0.0046399999999999,0.8569745,0.1565349999999999,-0.32091,1.1203245,0.116475,-0.3515,0.8951355,-0.211015,-0.199948,1.1342444999999999,-0.2469449999999999,-0.2796599999999999
103,1.0009884999999998,0.617263,-0.184873,0.8609775,0.449625,-0.155234,0.7412675,0.657193,-0.225231,1.1365975,0.448755,-0.155872,1.2443175,0.6213580000000001,-0.244161,0.7105875000000001,0.890405,-0.308905,1.3014475,0.875845,-0.350645,0.9210525,-0.000375,0.0047049999999999,1.0789475,0.000375,-0.004705,0.8571575000000001,0.155925,-0.321345,1.1197875,0.115945,-0.351555,0.8954415,-0.210975,-0.199262,1.1340474999999999,-0.2469749999999999,-0.281135
104,1.0009865,0.6176950000000001,-0.184218,0.8609465000000001,0.44959,-0.155254,0.7418965,0.655915,-0.233785,1.1365665,0.4485100000000001,-0.1560879999999999,1.2409465,0.616588,-0.249577,0.7125265000000001,0.89041,-0.329115,1.2938665,0.87028,-0.367545,0.9210235,-0.0003799999999999,0.0047449999999999,1.0789765,0.00038,-0.0047449999999999,0.8572565,0.15521,-0.321895,1.1191065,0.11509,-0.351735,0.8961655,-0.2113099999999999,-0.1986129999999999,1.1338265,-0.2474199999999999,-0.282555
105,1.0009919999999999,0.618623,-0.18327,0.8609,0.44947,-0.155526,0.7424,0.653186,-0.2437689999999999,1.13651,0.44825,-0.156442,1.2387,0.614379,-0.258638,0.7138100000000001,0.8880300000000001,-0.35218,1.28772,0.8640300000000001,-0.38851,0.92099,-0.0003799999999999,0.00478,1.07901,0.00038,-0.0047799999999999,0.85727,0.15446,-0.32245,1.11825,0.1189,-0.3516399999999999,0.896875,-0.2151699999999999,-0.199785,1.13346,-0.2430699999999999,-0.2843799999999999
106,1.001098,0.6201939999999999,-0.1819279999999999,0.860804,0.4488549999999999,-0.1560929999999999,0.742764,0.6458769999999999,-0.25736,1.136434,0.4472849999999999,-0.157166,1.2363439999999999,0.6104499999999999,-0.271615,0.7143740000000001,0.875915,-0.380865,1.2804039999999999,0.8495649999999999,-0.416005,0.920946,-0.000215,0.004865,1.079054,0.0002149999999999,-0.0048649999999999,0.8574740000000001,0.1533149999999999,-0.323175,1.117434,0.1185049999999999,-0.3528949999999999,0.897616,-0.2172550000000001,-0.201122,1.133044,-0.243165,-0.2857349999999999
107,1.0010785,0.6218480000000001,-0.180613,0.8606445,0.44843,-0.156958,0.7428445,0.637416,-0.270545,1.1362445,0.44686,-0.157858,1.2340745,0.605765,-0.284405,0.7147945,0.8615200000000001,-0.409645,1.2735745,0.83384,-0.442265,0.9209455,-7.00000000000145e-05,0.0048749999999999,1.0790545,7.00000000000145e-05,-0.004875,0.8574444999999999,0.15249,-0.323755,1.1166245,0.12213,-0.352855,0.8981385,-0.21943,-0.202574,1.1326445,-0.23861,-0.287575
108,1.0008605,0.6236879999999999,-0.179798,0.8605595,0.4479749999999999,-0.157867,0.7428395,0.627208,-0.283125,1.1359695,0.4464549999999999,-0.158547,1.2319095,0.6019019999999999,-0.298795,0.7148995,0.8452249999999999,-0.438725,1.2668895,0.816175,-0.468205,0.9209105,4.499999999996174e-05,0.004915,1.0790895,-4.500000000007276e-05,-0.004915,0.8573795,0.1516949999999999,-0.324365,1.1156295,0.1262249999999999,-0.352875,0.8979835,-0.220095,-0.205309,1.1325495,-0.233595,-0.290005
109,1.0003885,0.626145,-0.179535,0.8603645,0.4474549999999999,-0.159161,0.7422645,0.6174909999999999,-0.29528,1.1354445,0.4458849999999999,-0.160013,1.2297745,0.6001129999999999,-0.31387,0.7149245,0.8235349999999999,-0.46734,1.2603745,0.798005,-0.49389,0.9208655,0.0001749999999999,0.00497,1.0791344999999999,-0.000175,-0.00497,0.8572945,0.1506649999999999,-0.32517,1.1146544999999999,0.1302449999999999,-0.35307,0.8973765,-0.219695,-0.208121,1.1324144999999999,-0.2287150000000001,-0.29223
110,0.9992675,0.6294329999999999,-0.1787889999999999,0.8597515,0.4465249999999999,-0.1598299999999999,0.7419515,0.6097319999999999,-0.3062749999999999,1.1345414999999999,0.4447549999999999,-0.1608059999999999,1.2276814999999999,0.5989829999999999,-0.327025,0.7143315,0.7999449999999999,-0.4947249999999999,1.2535615,0.7827949999999999,-0.518065,0.9205885,0.0003049999999999,0.004625,1.0794115,-0.0003049999999999,-0.0046249999999999,0.8567415,0.1489049999999999,-0.326155,1.1134915,0.1334449999999999,-0.352615,0.8966285,-0.220185,-0.210578,1.1320715,-0.223845,-0.2915149999999999
111,0.9978500000000001,0.634666,-0.1776539999999999,0.858899,0.4454499999999999,-0.1607309999999999,0.7409589999999999,0.6025189999999999,-0.31594,1.133239,0.4436699999999999,-0.1620569999999999,1.225499,0.5957779999999999,-0.3399,0.7132090000000001,0.7734599999999999,-0.52102,1.247509,0.76672,-0.54075,0.920191,0.0004699999999999,0.00446,1.079809,-0.00047,-0.0044599999999999,0.855789,0.1450999999999999,-0.32765,1.112669,0.1344099999999999,-0.3520999999999999,0.894787,-0.2231200000000001,-0.214547,1.131759,-0.22133,-0.2903799999999999
112,0.996405,0.638397,-0.176326,0.857969,0.44378,-0.162379,0.7399789999999999,0.593996,-0.325275,1.131679,0.4422,-0.164517,1.223409,0.588555,-0.354275,0.711889,0.74317,-0.546065,1.242379,0.7479100000000001,-0.5604750000000001,0.919851,0.0006099999999999,0.004285,1.080149,-0.0006099999999999,-0.004285,0.854469,0.13676,-0.330455,1.112019,0.13014,-0.352445,0.8931830000000001,-0.2309099999999999,-0.216837,1.130799,-0.2233499999999999,-0.289245
113,0.995205,0.643143,-0.1748719999999999,0.85739,0.440465,-0.1639179999999999,0.73941,0.5826610000000001,-0.33267,1.13042,0.441895,-0.1668569999999999,1.2216699999999998,0.5772200000000001,-0.3668599999999999,0.71103,0.712195,-0.56628,1.23847,0.7286950000000001,-0.58094,0.91954,0.000165,0.00398,1.08046,-0.0001649999999999,-0.0039799999999999,0.85319,0.125425,-0.3338799999999999,1.11158,0.119045,-0.3535899999999999,0.891788,-0.2405349999999999,-0.2184999999999999,1.13,-0.2316349999999999,-0.2875299999999999
114,0.9941290000000002,0.6472600000000001,-0.1731789999999999,0.856899,0.440856,-0.1653559999999999,0.738719,0.568576,-0.3394999999999999,1.129189,0.441082,-0.1689829999999999,1.220159,0.5657300000000001,-0.3762999999999999,0.710459,0.68311,-0.5822,1.235129,0.70742,-0.5959399999999999,0.919291,0.0003199999999999,0.00365,1.080709,-0.0003199999999999,-0.0036499999999999,0.851769,0.11132,-0.3371499999999999,1.111189,0.10513,-0.3557,0.888436,-0.2506899999999999,-0.221188,1.1292589999999998,-0.24283,-0.28412
115,0.9929225000000002,0.6525399999999999,-0.171298,0.8563505000000001,0.439878,-0.166398,0.7378804999999999,0.549806,-0.342075,1.1279305,0.440472,-0.170616,1.2187805,0.5534049999999999,-0.381175,0.7101805,0.65961,-0.593205,1.2329405,0.68865,-0.602495,0.9190595,0.0002799999999999,0.0032949999999999,1.0809405,-0.00028,-0.0032949999999999,0.8500205000000001,0.0926899999999999,-0.339825,1.1108005,0.0867299999999999,-0.356415,0.8850085,-0.26499,-0.22293,1.1275305,-0.25888,-0.278395
116,0.9919705000000001,0.658515,-0.1690019999999999,0.8560355,0.439682,-0.166897,0.7370755,0.530945,-0.342345,1.1268354999999999,0.441221,-0.1719119999999999,1.2180255,0.540792,-0.383765,0.7097355000000001,0.636215,-0.601405,1.2310455,0.667405,-0.608295,0.9188945,0.000205,0.0028849999999999,1.0811055,-0.000205,-0.0028849999999999,0.8485255,0.071745,-0.341535,1.1108655,0.066525,-0.356355,0.8824345,-0.281625,-0.223155,1.1260755,-0.2778049999999999,-0.2723649999999999
117,0.9911335,0.665205,-0.1666379999999999,0.8556325,0.439427,-0.166819,0.7361825,0.5120629999999999,-0.343275,1.1258925,0.441508,-0.172644,1.2170325,0.52622,-0.384105,0.7092925,0.611445,-0.6079049999999999,1.2293725,0.643635,-0.613185,0.9187675,3.500000000000725e-05,0.002485,1.0812325,-3.500000000000725e-05,-0.0024849999999999,0.8470925,0.0483049999999999,-0.3425749999999999,1.1112525,0.0436449999999999,-0.356175,0.8803925000000001,-0.3008949999999999,-0.221586,1.1247525,-0.299565,-0.265845
118,0.9905645,0.6712400000000001,-0.16436,0.8553315,0.439539,-0.165611,0.7364915000000001,0.496381,-0.34461,1.1252315,0.442733,-0.171838,1.2162315,0.5134350000000001,-0.38304,0.7094115,0.5843100000000001,-0.61294,1.2278915,0.61804,-0.61695,0.9187085,-8.999999999997899e-05,0.0022399999999999,1.0812915,9.00000000000345e-05,-0.00224,0.8458315000000001,0.02228,-0.343,1.1119515,0.01863,-0.35531,0.8786565000000001,-0.3227899999999999,-0.219469,1.1238615,-0.32409,-0.2587
119,0.9901395000000001,0.6773150000000001,-0.162314,0.8550185000000001,0.439411,-0.164182,0.7360585,0.479153,-0.34425,1.1244985,0.445096,-0.170809,1.2154185,0.49804,-0.38197,0.7101885,0.5522450000000001,-0.61102,1.2264884999999999,0.5894550000000001,-0.6196200000000001,0.9187015000000001,-0.0003549999999999,0.0023499999999999,1.0812985,0.000355,-0.0023499999999999,0.8446385,-0.0082549999999999,-0.3423,1.1125684999999998,-0.0106249999999999,-0.35414,0.8769855,-0.3500249999999999,-0.217441,1.1225584999999998,-0.3534149999999999,-0.25109
120,0.990068,0.682515,-0.159673,0.854749,0.44033,-0.162002,0.735839,0.46675,-0.343315,1.124219,0.446682,-0.168628,1.215209,0.483365,-0.379795,0.710719,0.520065,-0.615745,1.225919,0.560605,-0.618895,0.918701,-0.0005249999999999,0.0024049999999999,1.081299,0.0005249999999999,-0.0024049999999999,0.843889,-0.038325,-0.340095,1.113539,-0.040725,-0.352415,0.876522,-0.3789349999999999,-0.21669,1.121609,-0.383045,-0.243632
121,0.9899425000000001,0.689215,-0.1561519999999999,0.8543185,0.44235,-0.159247,0.7344685,0.456515,-0.34052,1.1238785,0.448618,-0.165877,1.2150685,0.470085,-0.37705,0.7107384999999999,0.491025,-0.61346,1.2251485,0.530565,-0.61612,0.9187915,-0.000605,0.00238,1.0812085,0.000605,-0.0023799999999999,0.8433185,-0.0648849999999999,-0.33733,1.1143685,-0.0668949999999999,-0.3497099999999999,0.8758455,-0.405445,-0.213829,1.1205885,-0.4096749999999999,-0.235836
122,0.9902405000000001,0.695235,-0.1515,0.8541355000000002,0.445985,-0.156063,0.7336754999999999,0.447295,-0.33731,1.1239255,0.449745,-0.162703,1.2153155,0.456755,-0.37376,0.7110055,0.462315,-0.6103000000000001,1.2247655,0.505215,-0.61662,0.9189645,-0.0002249999999999,0.00247,1.0810355,0.000225,-0.00247,0.8432255000000001,-0.0899849999999999,-0.33415,1.1154155,-0.0913049999999999,-0.34658,0.8753255,-0.4326949999999999,-0.21104,1.1198155,-0.4363349999999999,-0.23076
123,0.990861,0.703165,-0.144553,0.854122,0.446005,-0.1510129999999999,0.734272,0.436655,-0.33298,1.124092,0.450975,-0.1582299999999999,1.2158120000000001,0.443945,-0.3689,0.712712,0.435365,-0.60602,1.224712,0.475675,-0.61227,0.919378,-0.0001449999999999,0.00257,1.080622,0.000145,-0.0025699999999999,0.843522,-0.1144149999999999,-0.32972,1.116432,-0.1147849999999999,-0.3422699999999999,0.875982,-0.460935,-0.2052109999999999,1.118522,-0.463325,-0.224041
124,0.9916635000000001,0.710465,-0.1347929999999999,0.8541805,0.448315,-0.1434349999999999,0.7358205,0.423495,-0.32372,1.1244505,0.453825,-0.150409,1.2164705,0.429975,-0.35719,0.7157005000000001,0.408625,-0.598,1.2233105,0.446255,-0.6064499999999999,0.9198795,-0.0001549999999999,0.0027,1.0801205,0.000155,-0.0026999999999999,0.8440705,-0.137505,-0.3210199999999999,1.1171305,-0.136795,-0.3348299999999999,0.8757405,-0.488845,-0.1989419999999999,1.1186904999999998,-0.490055,-0.2174419999999999
125,0.9924425,0.71741,-0.124497,0.8542005,0.4498499999999999,-0.135274,0.7366005,0.4098,-0.313185,1.1247305,0.45425,-0.142065,1.2164205,0.41619,-0.345015,0.7171704999999999,0.38238,-0.584695,1.2234505,0.4180399999999999,-0.594535,0.9202195,-3.0000000000002247e-05,0.0028549999999999,1.0797805,3.0000000000002247e-05,-0.002855,0.8446605,-0.1591199999999999,-0.310635,1.1178605,-0.1568899999999999,-0.325745,0.8763505,-0.51556,-0.192686,1.1188405,-0.51546,-0.210513
126,0.9930865000000001,0.723145,-0.113295,0.8539505000000001,0.452715,-0.126037,0.7383905,0.395695,-0.2988,1.1250905,0.456455,-0.132579,1.2159105000000001,0.401555,-0.32944,0.7181605,0.3554049999999999,-0.56557,1.2237405,0.389345,-0.57967,0.9206894999999999,0.0001249999999999,0.0028399999999999,1.0793105,-0.000125,-0.00284,0.8451005,-0.180195,-0.29859,1.1185904999999998,-0.176175,-0.31506,0.8766705,-0.542385,-0.185339,1.1188905,-0.540635,-0.202544
127,0.9938585000000001,0.72923,-0.102174,0.8536585,0.45497,-0.116716,0.7401785000000001,0.3818899999999999,-0.28391,1.1254985,0.45838,-0.123003,1.2150485,0.38698,-0.3131899999999999,0.7189585000000001,0.32796,-0.54251,1.2223285,0.3585199999999999,-0.5657099999999999,0.9210715,0.0001099999999999,0.00279,1.0789285,-0.0001099999999999,-0.00279,0.8454185000000001,-0.19927,-0.2861599999999999,1.1194084999999998,-0.19385,-0.3036,0.8755085,-0.5675699999999999,-0.178801,1.1191285,-0.5643199999999999,-0.195402
128,0.9943770000000001,0.735055,-0.0917465,0.852954,0.457605,-0.1074804999999999,0.741824,0.370465,-0.2688485,1.1258439999999998,0.458445,-0.1135294999999999,1.213964,0.375435,-0.2980985,0.719274,0.305525,-0.5185985,1.221124,0.332415,-0.5460285,0.9216060000000001,0.000395,0.0026614999999999,1.0783939999999999,-0.0003949999999999,-0.0026614999999999,0.845674,-0.214185,-0.2742485,1.120104,-0.2088749999999999,-0.2920585,0.874024,-0.5877749999999999,-0.1727955,1.119334,-0.5842050000000001,-0.1884405
129,0.9949045,0.7398450000000001,-0.081523,0.8525675,0.459855,-0.098248,0.7439275000000001,0.357945,-0.25414,1.1261775,0.460765,-0.103941,1.2128074999999998,0.363925,-0.28183,0.7202675000000001,0.283525,-0.49332,1.2199674999999999,0.306035,-0.52384,0.9221705,0.000375,0.002498,1.0778295,-0.0003749999999999,-0.002498,0.8458575,-0.229825,-0.26169,1.1207375,-0.2248549999999999,-0.27946,0.8733175,-0.6088549999999999,-0.164449,1.1195875,-0.6050249999999999,-0.180675
130,0.9954870000000001,0.74477,-0.071649,0.85237,0.4609999999999999,-0.089439,0.74588,0.34694,-0.240069,1.12683,0.46357,-0.094639,1.21157,0.35303,-0.2647089999999999,0.72109,0.26216,-0.467419,1.21878,0.28027,-0.498899,0.922669,0.0001199999999999,0.002612,1.077331,-0.0001199999999999,-0.002612,0.84646,-0.24809,-0.248589,1.12113,-0.24377,-0.266449,0.8726300000000001,-0.62712,-0.156633,1.11954,-0.62322,-0.172401
131,0.99601,0.7496849999999999,-0.062265,0.852441,0.4636249999999999,-0.081044,0.748741,0.335215,-0.225544,1.127361,0.466105,-0.085386,1.210431,0.342435,-0.245384,0.7223010000000001,0.240125,-0.439154,1.217561,0.254405,-0.472994,0.92304,9.499999999999786e-05,0.0025529999999999,1.07696,-9.500000000001174e-05,-0.0025529999999999,0.847101,-0.266175,-0.234804,1.121341,-0.261855,-0.252924,0.8718710000000001,-0.644055,-0.148743,1.1197709999999998,-0.640255,-0.164702
132,0.99686,0.7521639999999999,-0.048883,0.853131,0.464784,-0.068329,0.7518010000000002,0.323804,-0.20527,1.128331,0.467814,-0.071422,1.2097310000000001,0.330574,-0.22196,0.7254510000000001,0.219604,-0.40837,1.216871,0.231454,-0.44076,0.92342,-0.0003179999999999,0.0027979999999999,1.07658,0.0003179999999999,-0.002798,0.848331,-0.282876,-0.2148,1.122181,-0.277476,-0.23336,0.8717509999999999,-0.659656,-0.136058,1.120601,-0.656296,-0.151907
133,0.9977145000000001,0.7538895,-0.037816,0.8537135,0.4655895,-0.057287,0.7529035,0.3158594999999999,-0.1888159999999999,1.1298135,0.4680295,-0.05905,1.2088934999999998,0.3203695,-0.2014659999999999,0.7271935,0.2010995,-0.376426,1.2163535,0.2117794999999999,-0.407416,0.9238325000000001,-0.0003464999999999,0.0029259999999999,1.0761675,0.0003464999999999,-0.002926,0.8510735,-0.2958005,-0.1921959999999999,1.1224235,-0.2895105,-0.2115159999999999,0.8715435,-0.6718005,-0.123901,1.1212235,-0.6692205,-0.139266
134,0.9986370000000001,0.755461,-0.0271555,0.8542460000000001,0.466721,-0.0465965,0.755226,0.308521,-0.1724775,1.131576,0.469351,-0.0470355,1.2088160000000001,0.310591,-0.1791275,0.728936,0.181891,-0.3473975,1.216006,0.192141,-0.3749175,0.924225,-0.000442,0.0029304999999999,1.075775,0.0004419999999999,-0.0029305,0.853946,-0.308049,-0.1700075,1.122796,-0.301759,-0.1901975,0.8715660000000001,-0.683309,-0.1123075,1.121826,-0.681469,-0.1272495
135,0.999378,0.7575375,-0.0161604999999999,0.8549300000000001,0.4670275,-0.0354575,0.75752,0.3015275,-0.1523725,1.1341700000000001,0.4691475,-0.0347105,1.20824,0.3004575,-0.1541725,0.73244,0.1619275,-0.3142225,1.21632,0.1704075,-0.3361525,0.924731,-0.0003625,0.0026284999999999,1.075269,0.0003625,-0.0026284999999999,0.85716,-0.3209625,-0.1470425,1.12291,-0.3131124999999999,-0.1687325,0.87172,-0.6946225,-0.0988064999999999,1.12218,-0.6927825,-0.1134445
136,1.000323,0.759356,-0.0049799999999999,0.855965,0.467536,-0.024142,0.760045,0.295916,-0.127498,1.137195,0.468796,-0.022121,1.207275,0.291046,-0.127028,0.736785,0.144276,-0.278728,1.216955,0.155556,-0.293468,0.925206,-0.0003559999999999,0.002364,1.074794,0.000356,-0.0023639999999999,0.8609450000000001,-0.3333939999999999,-0.123552,1.1231149999999999,-0.324314,-0.1469079999999999,0.872555,-0.704034,-0.085605,1.122665,-0.702574,-0.0995709999999999
137,1.0011855,0.760444,0.0058385,0.8569325,0.468034,-0.0130475,0.7625525,0.289404,-0.1029095,1.1402425,0.469154,-0.0098535,1.2060624999999998,0.282394,-0.0985665,0.7410425,0.1247149999999999,-0.2448255,1.2169825,0.137814,-0.2544455,0.9256915,-0.000498,0.0021185,1.0743084999999999,0.0004979999999999,-0.0021185,0.8648125,-0.345406,-0.1003925,1.1232125,-0.334926,-0.1258455,0.8734325000000001,-0.712646,-0.0722925,1.1232625,-0.711716,-0.0858945
138,1.0021645,0.7612805,0.015643,0.8579345,0.4681404999999999,-0.002735,0.7652545,0.2822504999999999,-0.0784349999999999,1.1426744999999998,0.4682004999999999,0.0014239999999999,1.2048644999999998,0.2752405,-0.071616,0.7436944999999999,0.1042414999999999,-0.212059,1.2171745,0.1214305,-0.216939,0.9259485,-0.0005085,0.001709,1.0740515,0.0005084999999999,-0.001709,0.8687345,-0.3572195,-0.078274,1.1235545,-0.3447295,-0.106099,0.8745545,-0.7200195,-0.0596359999999999,1.1240744999999999,-0.7203195,-0.072864
139,1.0027545,0.761575,0.0250209999999999,0.8588725,0.468755,0.007462,0.7681925000000001,0.2756349999999999,-0.053912,1.1450524999999998,0.466875,0.012384,1.2036725,0.268165,-0.045368,0.7467125,0.085461,-0.179109,1.2175925,0.104024,-0.181029,0.9262235,-0.0004519999999999,0.001007,1.0737765,0.000452,-0.001007,0.8728825,-0.369975,-0.056533,1.1239625,-0.355225,-0.087009,0.8757225,-0.727845,-0.047201,1.1252125,-0.729005,-0.060142
140,1.0031614999999998,0.7613145,0.033925,0.8597305,0.4680245,0.017507,0.7715105000000001,0.2700845,-0.028963,1.1470405,0.4647445,0.022767,1.2018705,0.2611545,-0.0204159999999999,0.7519905,0.0690804999999999,-0.146405,1.2180505,0.0873864999999999,-0.144035,0.9265145,-0.0005535,0.000458,1.0734855,0.0005534999999999,-0.000458,0.8770105,-0.3818955,-0.035459,1.1242605,-0.3640655,-0.068303,0.8770505000000001,-0.7345155,-0.034796,1.1263205,-0.7361055000000001,-0.0474399999999999
141,1.0030675,0.761948,0.036351,0.8602835,0.468968,0.021461,0.7743535,0.266048,-0.01059,1.1485435,0.463798,0.026932,1.1996535,0.254838,-0.0013619999999999,0.7570635,0.054663,-0.120496,1.2179834999999999,0.0727169999999999,-0.113376,0.9264375,-0.0005679999999999,-0.0004399999999999,1.0735625,0.000568,0.0004399999999999,0.8806535,-0.391172,-0.0219769999999999,1.1240535,-0.370052,-0.056318,0.8780535,-0.739252,-0.028949,1.1269835,-0.741202,-0.0410189999999999
142,1.002738,0.7624035,0.0385895,0.860653,0.4690034999999999,0.0253615,0.777483,0.2602934999999999,0.0078254999999999,1.149523,0.4626935,0.0309785,1.197253,0.2489635,0.0168455,0.7620830000000001,0.0427785,-0.0966585,1.2172029999999998,0.0607865,-0.0856985,0.926333,-0.0006865,-0.0012905,1.073667,0.0006865,0.0012905,0.882343,-0.3965365,-0.0136325,1.124433,-0.3729965,-0.0486645,0.879033,-0.7430465,-0.0245385,1.1278329999999999,-0.7452965,-0.0364195
143,1.0022655,0.762533,0.04068,0.8614035,0.468653,0.02929,0.7808135,0.254263,0.025912,1.1504635,0.462193,0.03507,1.1946335,0.243553,0.03313,0.7665035,0.030993,-0.072627,1.2163635,0.050066,-0.058737,0.9263375000000001,-0.0008259999999999,-0.00195,1.0736625,0.000826,0.00195,0.8838935,-0.401037,-0.0054929999999999,1.1248135,-0.3754969999999999,-0.040686,0.8799835,-0.7458670000000001,-0.020071,1.1287035,-0.748457,-0.03143
144,1.0017695,0.7623924999999999,0.041636,0.8619485,0.4678425,0.032161,0.7841585,0.2491525,0.038145,1.1512985,0.4623925,0.0381009999999999,1.1924985,0.2396325,0.044154,0.7694685,0.0229925,-0.0581849999999999,1.2157785,0.0437675,-0.0407839999999999,0.9264615,-0.0010905,-0.0021849999999999,1.0735385,0.0010904999999999,0.0021849999999999,0.8848885,-0.4032975,0.0002839999999999,1.1252885,-0.3763875,-0.034422,0.8808385,-0.7464475,-0.0166499999999999,1.1295185,-0.7494475,-0.027509
145,1.0009754999999998,0.761995,0.041759,0.8609694999999999,0.4674149999999999,0.034315,0.7872195,0.244175,0.045014,1.1519795,0.462875,0.04018,1.1908895,0.235635,0.051588,0.7716495,0.015817,-0.0456319999999999,1.2150095,0.037459,-0.0274869999999999,0.9266035,-0.0011909999999999,-0.00252,1.0733965,0.001191,0.00252,0.8856495,-0.404715,0.004275,1.1258594999999998,-0.375915,-0.029447,0.8813295,-0.746875,-0.014259,1.1302595,-0.749965,-0.0241219999999999
146,1.0001669999999998,0.761751,0.0414625,0.859664,0.467171,0.0362895,0.789954,0.238961,0.0513645,1.151894,0.463451,0.0413455,1.189594,0.231871,0.0564805,0.773064,0.0125629999999999,-0.0330914999999999,1.214594,0.031527,-0.0179944999999999,0.9267700000000001,-0.001323,-0.0026225,1.07323,0.0013229999999999,0.0026225,0.886634,-0.4059089999999999,0.0071305,1.126744,-0.3753289999999999,-0.0246404999999999,0.882154,-0.747119,-0.0121464999999999,1.131264,-0.750209,-0.0208205
147,0.9993390000000001,0.7616075,0.0408285,0.857755,0.4670275,0.0379135,0.791995,0.2337874999999999,0.0569205,1.151295,0.4642975,0.0417805,1.188575,0.2287575,0.0599355,0.7747550000000001,0.0100705,-0.0210614999999999,1.214205,0.0263875,-0.0109234999999999,0.9269270000000001,-0.0014465,-0.0026244999999999,1.073073,0.0014464999999999,0.0026245,0.887895,-0.4066525,0.0092955,1.127925,-0.3753125,-0.0200614999999999,0.8832949999999999,-0.7472624999999999,-0.0100724999999999,1.132575,-0.7503525,-0.0175764999999999
148,0.9985,0.7614875000000001,0.0395234999999999,0.8558140000000001,0.4667374999999999,0.0394034999999999,0.793894,0.2272575,0.0616844999999999,1.150374,0.4644075,0.0413814999999999,1.187904,0.2267475,0.0620854999999999,0.7768340000000001,0.0077345,-0.0119975,1.213784,0.0219465,-0.0067945,0.927065,-0.0014465,-0.0024595,1.072935,0.0014464999999999,0.0024594999999999,0.889254,-0.4072125,0.0113574999999999,1.129524,-0.3755625,-0.0160525,0.884784,-0.7472624999999999,-0.0080805,1.134534,-0.7502724999999999,-0.0144855
149,0.997718,0.761348,0.0373649999999999,0.8543990000000001,0.466458,0.040471,0.797129,0.221798,0.064931,1.150139,0.4644979999999999,0.040358,1.188049,0.226038,0.064178,0.7794490000000001,0.005912,-0.0054529999999999,1.213899,0.018432,-0.004701,0.927298,-0.0014059999999999,-0.002092,1.072702,0.001406,0.0020919999999999,0.891199,-0.407452,0.0133719999999999,1.1321189999999999,-0.375822,-0.013283,0.887489,-0.747162,-0.006124,1.137909,-0.749972,-0.011602
150,0.997118,0.761178,0.035299,0.853295,0.466308,0.041546,0.801075,0.217008,0.067153,1.150855,0.4641079999999999,0.039645,1.188545,0.224618,0.066549,0.782335,0.004114,3.799999999999637e-05,1.2143950000000001,0.017051,-0.0023299999999999,0.9275180000000001,-0.0014059999999999,-0.001544,1.072482,0.001406,0.0015439999999999,0.893445,-0.407952,0.0156229999999999,1.134995,-0.375822,-0.011015,0.891055,-0.747162,-0.0038849999999999,1.1418549999999998,-0.749972,-0.00938
151,0.996367,0.7608545,0.032942,0.851074,0.4660645,0.042688,0.805354,0.2144145,0.069669,1.150094,0.4635545,0.037508,1.1893939999999998,0.2235845,0.068747,0.784694,0.0005265,0.00475,1.2151239999999999,0.0162675,0.00034,0.927702,-0.0015124999999999,-0.0008569999999999,1.072298,0.0015125,0.000857,0.896004,-0.4082755,0.01716,1.138144,-0.3758155,-0.0084499999999999,0.895424,-0.7470555,-0.0013729999999999,1.1467139999999998,-0.7498655,-0.0068889999999999
152,0.9952135000000001,0.760542,0.030544,0.8486545,0.466012,0.043681,0.8087145,0.212172,0.072452,1.1491745,0.463022,0.035292,1.1901445,0.222792,0.069356,0.7867445,-0.001459,0.008253,1.2152345,0.014961,0.001127,0.9277775,-0.001606,-0.0002469999999999,1.0722225,0.0016059999999999,0.000247,0.8986645,-0.4083779999999999,0.018145,1.1411845,-0.3758479999999999,-0.0056519999999999,0.9003845,-0.746618,0.001341,1.1522145,-0.749258,-0.0041979999999999
153,0.9943665000000002,0.7605615,0.028062,0.8471095000000001,0.4661615,0.045558,0.8122895,0.2103715,0.076412,1.1491395,0.4629215,0.032792,1.1914895,0.2231415,0.06858,0.7891395000000001,-0.0023905,0.01285,1.2149795,0.0151224999999999,-0.0003799999999999,0.9278535,-0.0017765,0.000465,1.0721465000000001,0.0017765,-0.000465,0.9029995,-0.4075284999999999,0.020691,1.1437595,-0.3757085,-0.007036,0.9100795,-0.7460585000000001,0.0059149999999999,1.1617595,-0.7476185000000001,-0.0001859999999999
154,0.992928,0.7603755,0.0253065,0.84585,0.4665555,0.0479185,0.81553,0.2094255,0.0799895,1.1485999999999998,0.4633055,0.0296005,1.19255,0.2237154999999999,0.0670555,0.79138,-0.0020105,0.0183255,1.2149299999999998,0.0156084999999999,-0.0047654999999999,0.92803,-0.0020445,0.0013335,1.07197,0.0020445,-0.0013334999999999,0.90772,-0.4118145,0.0239765,1.14461,-0.3738245,-0.0145474999999999,0.92131,-0.7455745,0.0104095,1.16999,-0.7455145000000001,0.0005635
155,0.9913500000000001,0.7599874999999999,0.02233,0.84482,0.4667475,0.050204,0.81829,0.2091275,0.083183,1.148454,0.4644675,0.026416,1.19355,0.2240575,0.064673,0.79281,-0.0012634999999999,0.024063,1.21487,0.0165155,-0.0104269999999999,0.92818,-0.0023785,0.002332,1.07182,0.0023785,-0.0023319999999999,0.91331,-0.4163325,0.027367,1.142929,-0.3726725,-0.026463,0.93314,-0.7452325000000001,0.014475,1.17615,-0.7434925,-0.0041519999999999
156,0.989024,0.7592625,0.0193459999999999,0.844074,0.4667025,0.0526539999999999,0.820144,0.2093225,0.0863,1.147857,0.4659625,0.0233429999999999,1.194264,0.2251425,0.0620779999999999,0.792874,-7.249999999999965e-05,0.0294649999999999,1.213924,0.0172205,-0.015974,0.928294,-0.0025485,0.0032679999999999,1.0717059999999998,0.0025485,-0.003268,0.919394,-0.4208475,0.0307889999999999,1.139424,-0.3707775,-0.040286,0.945314,-0.7458575,0.018872,1.176944,-0.7416975,-0.0112929999999999
157,0.986948,0.7585995,0.0166525,0.843951,0.4667295,0.0552155,0.821711,0.2102895,0.0894155,1.148104,0.4671895,0.0208825,1.195291,0.2263995,0.0595745,0.792791,0.0016345,0.0334875,1.213561,0.0174385,-0.0221345,0.9284610000000001,-0.0026065,0.0041535,1.0715389999999998,0.0026065,-0.0041534999999999,0.9263510000000001,-0.4252304999999999,0.0346275,1.133349,-0.3689205,-0.0595735,0.958331,-0.7437905,0.0216635,1.174045,-0.7397405,-0.0220444999999999
158,0.9852085000000002,0.7579645,0.0140999999999999,0.8440585,0.4667945,0.0575409999999999,0.8230585,0.2121045,0.0922499999999999,1.1477235000000001,0.4676745,0.0177799999999999,1.1968785,0.2279845,0.0571289999999999,0.7936185000000001,0.0034495,0.0360029999999999,1.2140785,0.0180075,-0.026905,0.9285785,-0.0028825,0.0050439999999999,1.0714215,0.0028825,-0.005044,0.9339085,-0.4291155,0.0370149999999999,1.1252635,-0.3668655,-0.080945,0.9722285,-0.7447254999999999,0.0282439999999999,1.1659925,-0.7370455,-0.037325
159,0.9835105,0.7573285000000001,0.011078,0.8444605000000001,0.4669085,0.059572,0.8242705,0.2139885,0.094701,1.1477185,0.4680885,0.014486,1.1991065,0.2298085,0.054961,0.7943305,0.0053335,0.037309,1.2155505,0.0187545,-0.0309529999999999,0.9286605,-0.0032305,0.005978,1.0713395000000001,0.0032305,-0.0059779999999999,0.9423605,-0.4322014999999999,0.038409,1.1139145,-0.3648214999999999,-0.104803,0.9868405,-0.7460715,0.03212,1.1532365,-0.7325015,-0.0575229999999999
160,0.9822655000000001,0.7563770000000001,0.008392,0.8461855,0.466747,0.061319,0.8251455,0.215697,0.09667,1.1495315,0.468217,0.012257,1.2017735,0.230947,0.053211,0.7947355,0.007396,0.038159,1.2177285,0.019541,-0.033717,0.9287755,-0.0035259999999999,0.006907,1.0712245,0.003526,-0.0069069999999999,0.9506455000000001,-0.434733,0.039879,1.1017905,-0.362413,-0.129937,1.0026355,-0.746413,0.037603,1.1357135,-0.724743,-0.083817
161,0.9803795000000001,0.7550195,0.0052385,0.8474895,0.4661295,0.0630095,0.8255494999999999,0.2175295,0.0980365,1.1509835,0.4680795,0.0098165,1.2041305,0.2313695,0.0516075,0.7943395000000001,0.0100615,0.0379555,1.2205135,0.0202905,-0.0347914999999999,0.9289195000000001,-0.0038575,0.0078715,1.0710805,0.0038575,-0.0078715,0.9573095000000001,-0.4365805,0.0308415,1.0885105,-0.3540305,-0.1563815,1.0184995,-0.7448105,0.0457875,1.1122175,-0.7102605000000001,-0.1124414999999999
162,0.9772025,0.75296,0.00201,0.8476925000000001,0.46527,0.063704,0.8251125,0.2190099999999999,0.098997,1.1512685,0.46761,0.00754,1.2057195,0.23103,0.050956,0.7931525,0.0123939999999999,0.035452,1.2239034999999998,0.0202159999999999,-0.0336599999999999,0.9290225,-0.004094,0.00868,1.0709775,0.0040939999999999,-0.0086799999999999,0.9623325,-0.43886,0.020862,1.0761755,-0.3459899999999999,-0.1771999999999999,1.0305024999999999,-0.7440599999999999,0.0541,1.0853175,-0.69644,-0.14037
163,0.974317,0.7498900000000001,-0.0013299999999999,0.848627,0.46308,0.06425,0.8249070000000001,0.2204499999999999,0.0990149999999999,1.1512879999999999,0.46649,0.00454,1.20827,0.23003,0.050091,0.791397,0.017957,0.030499,1.2280929999999999,0.018798,-0.02999,0.929167,-0.004094,0.00973,1.070833,0.0040939999999999,-0.00973,0.968607,-0.43886,0.0107099999999999,1.065381,-0.3380599999999999,-0.19265,1.041977,-0.7440599999999999,0.0602139999999999,1.0527469999999999,-0.6789499999999999,-0.17339
164,0.9725550000000001,0.747591,-0.00483,0.8512650000000002,0.461571,0.063964,0.825475,0.222171,0.098216,1.152619,0.4654709999999999,0.00117,1.212559,0.229901,0.048975,0.791085,0.0234419999999999,0.02302,1.234419,0.017277,-0.0234999999999999,0.929095,-0.004095,0.01073,1.070905,0.004095,-0.0107299999999999,0.9754450000000001,-0.438859,0.00035,1.056195,-0.329309,-0.20444,1.056265,-0.7416889999999999,0.069954,1.022435,-0.6606989999999999,-0.20106
165,0.970915,0.746156,-0.0082499999999999,0.854075,0.460426,0.064025,0.825835,0.224846,0.096986,1.154539,0.464816,-0.0017399999999999,1.216789,0.229916,0.04814,0.791165,0.029228,0.01508,1.241161,0.017071,-0.0174199999999999,0.9290450000000001,-0.0041099999999999,0.01177,1.0709549999999999,0.00411,-0.01177,0.981495,-0.438844,-0.0096799999999999,1.048875,-0.3195139999999999,-0.2148199999999999,1.0696649999999999,-0.737584,0.079526,0.997265,-0.641934,-0.22534
166,0.96896,0.7457105,-0.0116199999999999,0.85667,0.4599804999999999,0.06354,0.8264199999999999,0.2276504999999999,0.094639,1.1559359999999999,0.4644304999999999,-0.00553,1.220843,0.2298104999999999,0.04674,0.79122,0.0350484999999999,0.0058499999999999,1.2483559999999998,0.0166255,-0.01045,0.9289000000000001,-0.0042175,0.0124799999999999,1.0711,0.0042175,-0.0124799999999999,0.98833,-0.4386295,-0.0221099999999999,1.04388,-0.3104995,-0.22102,1.08473,-0.7303695,0.093178,0.97678,-0.6328094999999999,-0.24395
167,0.9668050000000001,0.744921,-0.013955,0.859055,0.4591909999999999,0.0629849999999999,0.826965,0.2304709999999999,0.0933249999999999,1.155578,0.463991,-0.009945,1.224396,0.229881,0.0459349999999999,0.791165,0.041044,-0.002385,1.254635,0.015836,-0.003525,0.9289350000000001,-0.004338,0.0133349999999999,1.071065,0.004338,-0.013335,0.9946750000000001,-0.436199,-0.033285,1.040085,-0.302179,-0.225385,1.098605,-0.723159,0.1090599999999999,0.960385,-0.6237389999999999,-0.256745
168,0.96421,0.7440315,-0.015245,0.86083,0.4583015,0.0622249999999999,0.82654,0.2332315,0.0921049999999999,1.154602,0.4633915,-0.012905,1.226756,0.2303015,0.0452049999999999,0.7901400000000001,0.0470915,-0.010495,1.258765,0.0149465,0.0017549999999999,0.92887,-0.0043475,0.0134649999999999,1.07113,0.0043475,-0.013465,1.00037,-0.4333285,-0.043225,1.0391,-0.2955585,-0.227025,1.10659,-0.7152385000000001,0.1239729999999999,0.94778,-0.6163285000000001,-0.262125
169,0.9611000000000001,0.7423635000000001,-0.0158949999999999,0.8618399999999999,0.4571734999999999,0.0629549999999999,0.8265899999999999,0.2360635,0.0909349999999999,1.15316,0.4623635,-0.015475,1.2284410000000001,0.2318735,0.0439949999999999,0.7896,0.0532544999999999,-0.017525,1.26292,0.0139255,0.0051249999999999,0.9291,-0.0049195,0.0134149999999999,1.0709,0.0049194999999999,-0.013415,1.0048599999999999,-0.4305665,-0.052245,1.03792,-0.2911065,-0.223825,1.11821,-0.7084465,0.1441549999999999,0.9420600000000001,-0.6121464999999999,-0.2557149999999999
170,0.959005,0.7410165000000001,-0.015975,0.8632750000000001,0.4563965,0.063895,0.8273349999999999,0.2385265,0.089615,1.152255,0.4615665,-0.017735,1.2303879999999998,0.2336565,0.042025,0.7888450000000001,0.0589735,-0.0245949999999999,1.266605,0.0134875,0.005805,0.9296050000000001,-0.0054235,0.0138249999999999,1.070395,0.0054235,-0.0138249999999999,1.0101749999999998,-0.4246235,-0.060915,1.038095,-0.2928134999999999,-0.219275,1.125335,-0.7042335,0.156435,0.9423150000000001,-0.6112535,-0.246315
171,0.9583550000000001,0.740275,-0.01545,0.8654550000000001,0.455805,0.0637399999999999,0.828945,0.240665,0.0878899999999999,1.152095,0.461205,-0.0194,1.232991,0.2354149999999999,0.0387699999999999,0.787645,0.065433,-0.03277,1.269935,0.014064,0.0027099999999999,0.9300550000000001,-0.006059,0.0144099999999999,1.069945,0.006059,-0.01441,1.015595,-0.416885,-0.06822,1.038255,-0.294415,-0.21425,1.137715,-0.696295,0.1692199999999999,0.9441050000000001,-0.612855,-0.23546
172,0.9575450000000001,0.7400805,-0.0142249999999999,0.867425,0.4553105,0.063815,0.829395,0.2422105,0.085885,1.152385,0.4612704999999999,-0.0194849999999999,1.234816,0.2377004999999999,0.036345,0.786645,0.0704315,-0.0396749999999999,1.271223,0.0181975,-0.0036749999999999,0.9303250000000001,-0.0068395,0.0147349999999999,1.069675,0.0068395,-0.0147349999999999,1.017155,-0.4092495,-0.074455,1.037385,-0.2961195,-0.2074649999999999,1.132335,-0.6865295,0.171785,0.953515,-0.6145595,-0.214475
173,0.9534100000000001,0.7404115,-0.0124949999999999,0.86639,0.4553515,0.064145,0.82602,0.2443415,0.083485,1.15044,0.4622915,-0.0176449999999999,1.23414,0.2413114999999999,0.033555,0.7805300000000002,0.0772115,-0.0469149999999999,1.268205,0.0261575,-0.0165449999999999,0.9306800000000001,-0.0069455,0.0145549999999999,1.0693199999999998,0.0069455,-0.0145549999999999,1.01107,-0.4011484999999999,-0.0776549999999999,1.0400699999999998,-0.3027185,-0.194605,1.1159,-0.6878585,0.170315,0.96542,-0.6181985,-0.1878349999999999
174,0.949755,0.7411025,-0.0107749999999999,0.865395,0.4554025,0.063645,0.8226249999999999,0.2461625,0.0803849999999999,1.148305,0.4638725,-0.016265,1.2337449999999999,0.2449625,0.030455,0.774205,0.0840225,-0.054545,1.264967,0.0345035,-0.0306049999999999,0.930995,-0.0070104999999999,0.0143449999999999,1.069005,0.0070104999999999,-0.0143449999999999,0.998845,-0.3916075,-0.0842649999999999,1.042795,-0.3109875,-0.181305,1.091305,-0.6900475,0.149055,0.977465,-0.6219475000000001,-0.1619049999999999
175,0.9456600000000001,0.74316,-0.0094049999999999,0.8637600000000001,0.45719,0.0625649999999999,0.81906,0.24791,0.077355,1.14563,0.4668,-0.014405,1.23295,0.25023,0.0274849999999999,0.7665600000000001,0.0911869999999999,-0.0617249999999999,1.2604000000000002,0.045083,-0.046485,0.9312500000000001,-0.006915,0.0142749999999999,1.06875,0.0069149999999999,-0.0142749999999999,0.9841900000000001,-0.38173,-0.090665,1.046,-0.31845,-0.166355,1.06047,-0.69221,0.119215,0.9888300000000001,-0.62959,-0.137055
176,0.940335,0.7443715,-0.0090399999999999,0.8617950000000001,0.4585515,0.06197,0.813875,0.2490914999999999,0.07267,1.143835,0.4699915,-0.0112599999999999,1.231485,0.2553215,0.02394,0.7564350000000001,0.0964715,-0.0707699999999999,1.256065,0.0559405,-0.0623699999999999,0.9312250000000001,-0.0067884999999999,0.0135899999999999,1.0687749999999998,0.0067884999999999,-0.0135899999999999,0.967875,-0.3727785,-0.0967999999999999,1.049615,-0.3257085,-0.14955,1.021805,-0.6944785,0.08456,1.001545,-0.6385685,-0.11142
177,0.9347400000000001,0.744645,-0.0090549999999999,0.85825,0.459755,0.059945,0.8095600000000001,0.249955,0.068965,1.1417899999999999,0.473075,-0.0089249999999999,1.23018,0.260485,0.021145,0.74622,0.101495,-0.0791349999999999,1.25314,0.064232,-0.075415,0.93129,-0.0067309999999999,0.013195,1.06871,0.006731,-0.0131949999999999,0.9508300000000001,-0.3642149999999999,-0.102665,1.05401,-0.3325749999999999,-0.1319049999999999,0.98182,-0.696705,0.049125,1.01516,-0.647945,-0.0873249999999999
178,0.928795,0.7442525,-0.0096699999999999,0.855315,0.4601925,0.05702,0.8023750000000001,0.2513025,0.06349,1.1391049999999998,0.4757625,-0.0065699999999999,1.2289349999999999,0.2645725,0.02004,0.735215,0.1051325,-0.0882699999999999,1.249965,0.0707645,-0.0847399999999999,0.931015,-0.0062695,0.01278,1.0689849999999999,0.0062694999999999,-0.01278,0.934665,-0.3553475,-0.1088599999999999,1.0590549999999999,-0.3393275,-0.1179299999999999,0.941885,-0.7017575,0.01025,1.0264149999999999,-0.6503775,-0.06799
179,0.9215050000000001,0.7434895,-0.0101949999999999,0.8513850000000001,0.4604695,0.0536949999999999,0.7937450000000001,0.2524094999999999,0.058195,1.135805,0.4783995,-0.002955,1.227855,0.2684995,0.022425,0.725155,0.1082295,-0.095955,1.249145,0.0770655,-0.086705,0.930415,-0.0058715,0.011575,1.069585,0.0058715,-0.011575,0.920315,-0.3499805,-0.1026049999999999,1.066075,-0.3461105,-0.101515,0.909985,-0.7085705,-0.014225,1.039415,-0.6527205,-0.044575
180,0.91356,0.7424465,-0.0116749999999999,0.84646,0.4604764999999999,0.050595,0.78459,0.2529665,0.0533249999999999,1.13117,0.4808665,-0.0001649999999999,1.22549,0.2715065,0.0264349999999999,0.71573,0.1102665,-0.102115,1.24777,0.0812965,-0.083505,0.9300300000000001,-0.0056955,0.0103149999999999,1.0699699999999999,0.0056954999999999,-0.010315,0.9057800000000001,-0.3471335,-0.0991849999999999,1.07388,-0.3529434999999999,-0.0861049999999999,0.88152,-0.7141435,-0.038995,1.05148,-0.6548335000000001,-0.022065
181,0.9060600000000001,0.7414455000000001,-0.0138,0.8414,0.4603255,0.0468499999999999,0.77624,0.2532555,0.0488499999999999,1.12643,0.4831654999999999,0.00221,1.22322,0.2737755,0.03073,0.7072700000000001,0.1117855,-0.1078599999999999,1.24739,0.0821124999999999,-0.0768799999999999,0.92964,-0.0054525,0.0089,1.07036,0.0054525,-0.0089,0.8937900000000001,-0.3444845,-0.09753,1.08304,-0.3593045,-0.07152,0.8621500000000001,-0.7192945,-0.05759,1.06394,-0.6551245,-0.00136
182,0.90076,0.740743,-0.01648,0.8378,0.460333,0.0436099999999999,0.77124,0.253283,0.04557,1.12316,0.484393,0.0038899999999999,1.2217,0.274933,0.0366599999999999,0.7037599999999999,0.111333,-0.11048,1.24904,0.08141,-0.06694,0.92934,-0.005557,0.0077599999999999,1.07066,0.0055569999999999,-0.0077599999999999,0.8882800000000001,-0.342257,-0.09878,1.0898999999999999,-0.360337,-0.06243,0.8497300000000001,-0.729027,-0.07789,1.07426,-0.654757,0.0141
183,0.8955649999999999,0.7400235,-0.019795,0.833805,0.4595734999999999,0.0403149999999999,0.767425,0.2525234999999999,0.043385,1.118995,0.4856034999999999,0.004855,1.219515,0.2757435,0.0431449999999999,0.7020150000000001,0.1105735,-0.112425,1.251595,0.0806504999999999,-0.0548549999999999,0.9291050000000001,-0.0057065,0.0065549999999999,1.070895,0.0057065,-0.0065549999999999,0.889835,-0.3420065,-0.0963849999999999,1.0970550000000001,-0.3610965,-0.0539749999999999,0.847635,-0.7322965,-0.0770849999999999,1.0860949999999998,-0.6545965,0.029935
184,0.890455,0.7390985,-0.0235949999999999,0.830085,0.4589685,0.0377050000000001,0.763835,0.2519185,0.042205,1.115505,0.4864485,0.006375,1.216185,0.2751385,0.050445,0.703355,0.1099685,-0.1134749999999998,1.253175,0.0800454999999999,-0.0404649999999999,0.9290849999999999,-0.0059685,0.005535,1.070915,0.0059685,-0.0055349999999999,0.892505,-0.3420415,-0.0923249999999998,1.103975,-0.3617015,-0.0458649999999999,0.851235,-0.7339015,-0.0711849999999999,1.097555,-0.6551715,0.043645
185,0.883535,0.7362875000000001,-0.0243599999999999,0.8236550000000001,0.4603575,0.03404,0.7514950000000001,0.2575375,0.03623,1.107645,0.4856675,0.00853,1.214095,0.2793075,0.06279,0.7002149999999999,0.1078475,-0.1132499999999999,1.2556949999999998,0.0731495,-0.0214599999999999,0.929195,-0.0066595,0.00465,1.070805,0.0066594999999999,-0.0046499999999999,0.895225,-0.3440625,-0.0874599999999999,1.114615,-0.3589825,-0.0317799999999999,0.849595,-0.7397625,-0.0596799999999999,1.1103649999999998,-0.6625424999999999,0.06644
186,0.8818000000000001,0.7341605,-0.028915,0.82499,0.4601305,0.0331249999999999,0.7553,0.2566205,0.038165,1.11064,0.4870305,0.0117249999999999,1.2147999999999999,0.2783204999999999,0.069165,0.70688,0.1046805,-0.1099949999999999,1.25747,0.0775865,-0.0016249999999999,0.9289300000000001,-0.0067704999999999,0.0042849999999999,1.07107,0.0067705,-0.0042849999999999,0.90011,-0.3441995,-0.0847949999999999,1.1204399999999999,-0.3591895,-0.0283649999999999,0.8659200000000001,-0.7401495,-0.048095,1.12137,-0.6619095,0.075845
187,0.88116,0.734721,-0.0360100000000001,0.82006,0.458331,0.0296199999999999,0.7603,0.252021,0.0407299999999999,1.1032,0.4907810000000001,0.0060499999999998,1.20914,0.274511,0.0744099999999999,0.7144700000000002,0.104791,-0.11308,1.26124,0.06691,0.0235499999999999,0.92907,-0.007202,0.0034999999999999,1.07093,0.007202,-0.0035,0.9062200000000001,-0.3459589999999999,-0.0812100000000001,1.12621,-0.364259,-0.0306,0.89084,-0.7417090000000001,-0.03322,1.13602,-0.659599,0.0842799999999999
188,0.8766799999999999,0.729251,-0.04486,0.8195699999999999,0.4567009999999999,0.02761,0.7653699999999999,0.249381,0.0438899999999999,1.1064399999999999,0.4927409999999999,0.0093299999999999,1.1988599999999998,0.2737509999999999,0.0786399999999999,0.7255099999999999,0.102141,-0.11173,1.25158,0.0620439999999999,0.04298,0.92999,-0.006812,0.00363,1.07001,0.006812,-0.00363,0.91262,-0.347079,-0.07404,1.12991,-0.366949,-0.03544,0.91177,-0.7417889999999999,-0.0169799999999999,1.1402899999999998,-0.654099,0.0774
189,0.877065,0.72262,-0.05527,0.8238450000000002,0.45275,0.0294799999999999,0.7734250000000001,0.2443699999999999,0.0465299999999999,1.111005,0.4931899999999999,0.0133999999999999,1.184495,0.26818,0.0789699999999999,0.7384350000000002,0.09398,-0.10729,1.228475,0.04063,0.0412799999999999,0.930795,-0.0065799999999999,0.0049299999999999,1.069205,0.0065799999999999,-0.0049299999999999,0.9150050000000001,-0.34851,-0.0613799999999999,1.128055,-0.36552,-0.04793,0.9358950000000001,-0.7414099999999999,0.0046599999999999,1.127535,-0.6457499999999999,0.0545099999999999
190,0.8738500000000001,0.7244010000000001,-0.059095,0.80983,0.4434909999999999,0.021755,0.77504,0.233151,0.048675,1.10048,0.496681,0.006675,1.18078,0.266111,0.077685,0.73734,0.0919109999999999,-0.1131049999999999,1.2227000000000001,0.0356299999999999,0.033975,0.9309499999999999,-0.007047,0.005475,1.0690499999999998,0.007047,-0.005475,0.91582,-0.349239,-0.0586949999999999,1.12686,-0.364669,-0.0488949999999999,0.9396,-0.741949,0.007735,1.12441,-0.645909,0.048045
191,0.876275,0.7229665000000001,-0.0575749999999999,0.814575,0.4419265,0.033665,0.800795,0.1721265,0.032615,1.0953549999999999,0.4940565,0.004805,1.176715,0.2585665,0.0554449999999999,0.771025,-0.0140925,-0.074145,1.211555,0.0305915,-0.0490349999999999,0.931685,-0.0073725,0.0081149999999999,1.068315,0.0073724999999999,-0.0081149999999999,0.927875,-0.3515735,-0.0330049999999999,1.133165,-0.3647935,-0.040285,0.9530750000000001,-0.7457435,0.025525,1.1282549999999998,-0.6442734999999999,0.0436849999999999
