sb224sc-HT22-VT27/4dt907/src/data/kinect_good_preprocessed_not_cut_A11_mediapipe/A42_kinect_mirrored.csv
FrameNo,nose_3d_x,nose_3d_y,nose_3d_z,left_shoulder_3d_x,left_shoulder_3d_y,left_shoulder_3d_z,left_elbow_3d_x,left_elbow_3d_y,left_elbow_3d_z,right_shoulder_3d_x,right_shoulder_3d_y,right_shoulder_3d_z,right_elbow_3d_x,right_elbow_3d_y,right_elbow_3d_z,left_wrist_3d_x,left_wrist_3d_y,left_wrist_3d_z,right_wrist_3d_x,right_wrist_3d_y,right_wrist_3d_z,left_hip_3d_x,left_hip_3d_y,left_hip_3d_z,right_hip_3d_x,right_hip_3d_y,right_hip_3d_z,left_knee_3d_x,left_knee_3d_y,left_knee_3d_z,right_knee_3d_x,right_knee_3d_y,right_knee_3d_z,left_ankle_3d_x,left_ankle_3d_y,left_ankle_3d_z,right_ankle_3d_x,right_ankle_3d_y,right_ankle_3d_z
0,0.998308,0.752545,0.057118,0.848779,0.448585,0.06159,0.8111889999999999,0.200965,0.064853,1.160799,0.451705,0.04985,1.1829489999999998,0.201645,0.054337,0.799679,-0.000374,-0.0146779999999999,1.2037689999999999,-0.02664,-0.0324089999999999,0.92741,-0.002173,-0.000993,1.07259,0.0021729999999999,0.000993,0.875839,-0.411495,0.013907,1.131219,-0.377295,-0.0190609999999999,0.8621690000000001,-0.748505,-0.0117019999999999,1.1334089999999999,-0.743005,-0.0251349999999999
1,0.9979745000000001,0.7528655,0.0581905,0.8491055000000001,0.4485155,0.0622695,0.8119355,0.2001755,0.0640255,1.1616655,0.4505955,0.0515835,1.1822455,0.2014755,0.0535845,0.7994255,-0.0008054999999999,-0.0133454999999999,1.1968455,0.0010815,-0.0246095,0.9274655,-0.0021215,-0.0008955,1.0725345,0.0021215,0.0008955,0.8762455,-0.4139245,0.0134384999999999,1.1311755,-0.3789245,-0.0189785,0.8621555000000001,-0.7479245,-0.0119125,1.1332054999999999,-0.7441945,-0.0254795
2,0.9978385,0.7526945,0.059031,0.8475735,0.4484945,0.062965,0.8121535,0.2004445,0.064052,1.1615135,0.4507245,0.0513219999999999,1.1819335,0.2013145,0.0528099999999999,0.7993035,-0.0005395,-0.013233,1.1961635,0.0006004999999999,-0.024553,0.9275255,-0.0021574999999999,-0.000929,1.0724745,0.0021575,0.0009289999999999,0.8761435,-0.4140355,0.0133129999999999,1.1310935,-0.3783755,-0.019149,0.8623435,-0.7469155,-0.011557,1.1330235,-0.7458755,-0.026626
3,0.997687,0.7526940000000001,0.059786,0.8475970000000002,0.448214,0.063312,0.812297,0.200394,0.063887,1.161357,0.450794,0.051143,1.181807,0.2017139999999999,0.052501,0.799157,-0.000632,-0.0132139999999999,1.199197,-0.004512,-0.026864,0.9276000000000001,-0.00216,-0.0008799999999999,1.0723999999999998,0.00216,0.00088,0.8762370000000002,-0.414516,0.013108,1.130937,-0.378316,-0.019261,0.862197,-0.746336,-0.01106,1.1330770000000001,-0.743686,-0.0259329999999999
4,0.9974610000000002,0.7528969999999999,0.061196,0.848077,0.447987,0.0634079999999999,0.812497,0.200617,0.0637129999999999,1.161167,0.451007,0.050862,1.181617,0.202017,0.052082,0.799327,-0.000799,-0.013308,1.199607,-0.005489,-0.027588,0.927679,-0.002176,-0.000794,1.072321,0.002176,0.000794,0.876297,-0.414333,0.01304,1.130967,-0.377293,-0.01954,0.862267,-0.746603,-0.010943,1.132897,-0.7434130000000001,-0.026164
5,0.9935675,0.7532475,0.063556,0.8444775,0.4472575,0.064568,0.8115175,0.1997575,0.0636579999999999,1.1589574999999999,0.4518875,0.050888,1.1808375,0.2028275,0.051323,0.7992875,-0.0030425,-0.01397,1.2062875,-0.0465625,-0.0563539999999999,0.9277205,-0.0025085,-0.0006989999999999,1.0722795,0.0025085,0.0006989999999999,0.8785375,-0.4136925,0.01258,1.1326975,-0.3765525,-0.019953,0.8659175,-0.7470525,-0.0111889999999999,1.1363675,-0.7426225000000001,-0.026762
6,0.992744,0.7538900000000001,0.065339,0.8446400000000001,0.44725,0.065242,0.81055,0.20512,0.058603,1.15876,0.45228,0.050795,1.18173,0.20438,0.045778,0.79992,-0.005507,-0.0243349999999999,1.19989,-0.014258,-0.053533,0.9277120000000001,-0.002632,-0.000272,1.072288,0.002632,0.000272,0.87886,-0.4143699999999999,0.013106,1.13283,-0.37566,-0.019941,0.8661099999999999,-0.74749,-0.0114609999999999,1.13651,-0.74566,-0.0282979999999999
7,0.993236,0.753676,0.0661455,0.846258,0.448356,0.0643185,0.798908,0.218546,0.0458955,1.1590079999999998,0.452636,0.0520035,1.190238,0.217936,0.0269975,0.784338,0.025539,-0.0603634999999999,1.214688,0.028251,-0.0883055,0.927385,-0.002479,-0.0001524999999999,1.072615,0.002479,0.0001524999999999,0.878248,-0.413164,0.0130895,1.1325779999999999,-0.3736239999999999,-0.0188865,0.8654580000000001,-0.748524,-0.0119495,1.134878,-0.743974,-0.0262384999999999
8,0.9924255,0.7537245,0.0676525,0.8461715,0.4483645,0.0641675,0.7930215,0.2250945,0.0381005,1.1585815,0.4532445,0.0524395,1.1950615,0.2259945,0.0162475,0.7773715,0.0404604999999999,-0.0791534999999999,1.2207615,0.0439445,-0.1080035,0.9272485,-0.0024825,-5.499999999998562e-06,1.0727515,0.0024824999999999,5.499999999998562e-06,0.8785715000000001,-0.4131555,0.0130455,1.1327915,-0.3721955,-0.0184674999999999,0.8660015,-0.7489455,-0.0121584999999999,1.1352115,-0.7439655000000001,-0.0262755
9,0.991621,0.7537645,0.0692595,0.8464309999999999,0.4484545,0.0638895,0.786291,0.2331345,0.0284175,1.157271,0.4542245,0.0527595,1.201101,0.2364345,0.0034005,0.7693909999999999,0.0596425,-0.1017235,1.228001,0.0634025,-0.1321235,0.927134,-0.0024825,0.0001415,1.072866,0.0024824999999999,-0.0001414999999999,0.878901,-0.4128655,0.0130135,1.132931,-0.3705955,-0.0180404999999999,0.866671,-0.7496055,-0.0124554999999999,1.135681,-0.7436455,-0.0258144999999999
10,0.9911945000000001,0.7538245,0.070868,0.8470175,0.4487744999999999,0.063539,0.7765475,0.2469945,0.013715,1.1553775,0.4554145,0.053166,1.2096775,0.2532845,-0.013421,0.7593575000000001,0.0886415,-0.131073,1.2368575,0.0945455,-0.160553,0.9270915,-0.0024825,0.000299,1.0729085,0.0024824999999999,-0.000299,0.8789775,-0.4116655,0.0131569999999999,1.1329274999999999,-0.3688355,-0.017458,0.8668975,-0.7500955,-0.012627,1.1358975,-0.7428855,-0.024875
11,0.990894,0.7538945,0.072473,0.847589,0.4494444999999999,0.0630749999999999,0.766429,0.2623344999999999,-0.0007279999999999,1.153339,0.4567445,0.0533919999999999,1.218949,0.2718845,-0.030142,0.748719,0.1239545,-0.160462,1.2467389999999998,0.1325245,-0.189772,0.927022,-0.0024825,0.000424,1.072978,0.0024824999999999,-0.000424,0.879119,-0.4102355,0.013249,1.1329989999999999,-0.3669655,-0.016873,0.867139,-0.7504755,-0.01301,1.136159,-0.7423255,-0.024078
12,0.9907055,0.7539060000000001,0.0739985,0.8481175,0.450436,0.0626444999999999,0.7560074999999999,0.281246,-0.0168205,1.1513375,0.4581159999999999,0.0536245,1.2279075,0.294496,-0.0482065,0.7357475,0.162966,-0.1946805,1.2580375,0.174276,-0.2203504999999999,0.9269265,-0.0024419999999999,0.0005034999999999,1.0730735,0.0024419999999999,-0.0005035,0.8793175,-0.409244,0.0132794999999999,1.1331575,-0.365534,-0.0163195,0.8672875,-0.751064,-0.0135905,1.1364575000000001,-0.741784,-0.0233045
13,0.9906235000000001,0.753762,0.0752955,0.8489465,0.451682,0.0618085,0.7457865,0.301922,-0.0337955,1.1492865,0.459522,0.0532345,1.2367165,0.317282,-0.0650564999999999,0.7238065,0.205092,-0.2262965,1.2695764999999999,0.219882,-0.2469265,0.9267315,-0.002395,0.0004804999999999,1.0732685,0.002395,-0.0004805,0.8795865,-0.408458,0.0131584999999999,1.1332564999999999,-0.364428,-0.0159685,0.8674865,-0.751758,-0.0144015,1.1367265,-0.741468,-0.0222635
14,0.9906,0.7534355,0.076526,0.849642,0.4530255,0.060841,0.736112,0.3235455,-0.0499849999999999,1.147222,0.4608655,0.05275,1.244802,0.3422555,-0.080316,0.712782,0.2517955,-0.254196,1.280262,0.2672055,-0.274446,0.926512,-0.0022955,0.000471,1.073488,0.0022955,-0.0004709999999999,0.879902,-0.4075944999999999,0.013031,1.133302,-0.3635545,-0.0157099999999999,0.867652,-0.7524945,-0.015008,1.136892,-0.7408545,-0.0212429999999999
15,0.9907215000000001,0.7525430000000001,0.0780135,0.8501815,0.454593,0.0599095,0.7286915,0.346703,-0.0648864999999999,1.1452315,0.462203,0.0522995,1.2524315,0.367753,-0.0943485,0.7029615,0.300353,-0.2794485,1.2899715,0.317703,-0.2990185,0.9262625,-0.0022459999999999,0.0005565,1.0737375,0.002246,-0.0005564999999999,0.8802715,-0.406867,0.0129235,1.1332915,-0.3632069999999999,-0.0155744999999999,0.8679015,-0.7532369999999999,-0.0153685,1.1372214999999999,-0.7412369999999999,-0.0208864999999999
16,0.9909815,0.7514645,0.0792435,0.8505915,0.4564445,0.0588884999999999,0.7218715,0.3717944999999999,-0.0785775,1.1433715,0.4632845,0.0517264999999999,1.2587915,0.3951145,-0.1049175,0.6953115000000001,0.3510445,-0.2993175,1.2966015,0.3700745,-0.3165975,0.9260275,-0.0021915,0.0006014999999999,1.0739725,0.0021915,-0.0006015,0.8807215,-0.4065855,0.0127054999999999,1.1332915,-0.3633555,-0.0156635,0.8681915,-0.7540855,-0.0160675,1.1376615,-0.7417254999999999,-0.0205885
17,0.9912595,0.75018,0.080523,0.8508535,0.45842,0.058089,0.7164335,0.40189,-0.089621,1.1417135,0.46449,0.050978,1.2635135,0.42584,-0.1127109999999999,0.6891235,0.4097,-0.313671,1.3016635,0.42797,-0.3293709999999999,0.9258115000000001,-0.002184,0.000685,1.0741885,0.0021839999999999,-0.0006849999999999,0.8811435,-0.40656,0.012681,1.1331935,-0.36404,-0.0157199999999999,0.8684535,-0.7551800000000001,-0.0165279999999999,1.1380335,-0.7416100000000001,-0.0198239999999999
18,0.9915805000000001,0.7484985,0.081603,0.8511415,0.4603885,0.057499,0.7117315,0.4333485,-0.097685,1.1410015,0.4654385,0.050222,1.2653515,0.4570585,-0.116215,0.6847215,0.4678385,-0.319015,1.3049015,0.4889685,-0.3350349999999999,0.9256495,-0.0022175,0.000712,1.0743505,0.0022175,-0.000712,0.8815715000000001,-0.4069815,0.012734,1.1331315,-0.3651614999999999,-0.015753,0.8687515,-0.7565915000000001,-0.0165059999999999,1.1383915,-0.7422015000000001,-0.0196299999999999
19,0.9918105000000002,0.746676,0.0823925,0.8513395,0.462156,0.0570925,0.7111795000000001,0.461026,-0.0981004999999999,1.1411295,0.466246,0.0490125,1.2655695,0.483326,-0.1164405,0.6823395,0.520236,-0.3190005,1.3051195,0.540896,-0.3352605,0.9255705,-0.002235,0.0007335,1.0744295,0.002235,-0.0007334999999999,0.8818895,-0.408174,0.0127525,1.1329795,-0.366574,-0.0158174999999999,0.8689695,-0.758224,-0.0163364999999999,1.1386995,-0.743294,-0.0198645
20,0.9919310000000001,0.7449675,0.08273,0.851308,0.4636675,0.057015,0.711318,0.4889975,-0.0981129999999999,1.1411879999999999,0.4669375,0.048058,1.265708,0.5099975,-0.116453,0.680828,0.5691474999999999,-0.318863,1.305258,0.5883174999999999,-0.335273,0.925592,-0.0022895,0.000732,1.074408,0.0022895,-0.000732,0.8820479999999999,-0.4094824999999999,0.012843,1.132768,-0.3682425,-0.015797,0.869258,-0.7600725,-0.0159119999999999,1.138858,-0.7446525,-0.019636
21,0.991883,0.7428595,0.082734,0.8505980000000001,0.4651094999999999,0.056997,0.711318,0.5181295,-0.0981129999999999,1.141098,0.4681495,0.047128,1.265708,0.5380595,-0.116453,0.6807380000000001,0.6227395,-0.318853,1.305258,0.6400994999999999,-0.335273,0.925592,-0.0023545,0.000732,1.074408,0.0023545,-0.000732,0.8820479999999999,-0.4112205,0.012873,1.1324480000000001,-0.3703705,-0.0157679999999999,0.869238,-0.7622705000000001,-0.01546,1.138898,-0.7466005,-0.0192859999999999
22,0.991817,0.7405185,0.08274,0.849778,0.4662885,0.057003,0.711318,0.5450985,-0.0981129999999999,1.141118,0.4698085,0.046211,1.264628,0.5647985,-0.1153229999999999,0.6808780000000001,0.6723685,-0.315793,1.305408,0.6879985,-0.329403,0.925592,-0.0024175,0.000732,1.074408,0.0024174999999999,-0.000732,0.8820479999999999,-0.4133415,0.012873,1.132188,-0.3728714999999999,-0.015743,0.869218,-0.7647214999999999,-0.0150259999999999,1.1387479999999999,-0.7489715,-0.0189179999999999
23,0.9917335,0.7377290000000001,0.0828415,0.8490065,0.467549,0.0570984999999999,0.7125765,0.571609,-0.0965695,1.1415165,0.471989,0.0453265,1.2623965,0.5900690000000001,-0.1124695,0.6817465,0.7186990000000001,-0.3062795,1.3033865,0.734379,-0.3205195,0.9255915,-0.0025169999999999,0.0007244999999999,1.0744085,0.002517,-0.0007245,0.8820365,-0.416161,0.0129674999999999,1.1318865,-0.375981,-0.0157285,0.8692065,-0.7676609999999999,-0.0145685,1.1385565,-0.751651,-0.0184535
24,0.9915805000000001,0.7349285,0.083097,0.8483125000000001,0.4684485,0.057402,0.7145524999999999,0.5964985,-0.0919339999999999,1.1419425,0.4743185,0.044674,1.2599025,0.6140485,-0.1062439999999999,0.6835525,0.7600785,-0.287364,1.2996125,0.7764485,-0.306804,0.9256195,-0.0026165,0.000799,1.0743805,0.0026164999999999,-0.0007989999999999,0.8820025000000001,-0.4191515,0.013267,1.1316725,-0.3789715,-0.0155779999999999,0.8692325000000001,-0.7707815,-0.0139779999999999,1.1384225,-0.7545014999999999,-0.017795
25,0.991283,0.7322175,0.083343,0.847437,0.4692275,0.058005,0.715627,0.6192975000000001,-0.08392,1.142127,0.4766575,0.04448,1.256917,0.6349275,-0.09913,0.685377,0.7975575,-0.26658,1.294667,0.8147775,-0.29076,0.9257070000000001,-0.0027365,0.000987,1.074293,0.0027364999999999,-0.0009869999999999,0.881927,-0.4225125,0.013798,1.131517,-0.3821925,-0.0152669999999999,0.8691869999999999,-0.7740225,-0.013108,1.138337,-0.7576725,-0.0173369999999999
26,0.990887,0.729554,0.0833175,0.8465590000000001,0.470004,0.0587465,0.716969,0.636474,-0.0749235,1.142299,0.4788639999999999,0.0447965,1.253849,0.651574,-0.0909935,0.687759,0.825234,-0.2442134999999999,1.289139,0.845704,-0.2716535,0.9257970000000001,-0.002795,0.0011154999999999,1.0742029999999998,0.0027949999999999,-0.0011154999999999,0.881799,-0.425726,0.0142925,1.131339,-0.385346,-0.0149465,0.869069,-0.777176,-0.0124915,1.138229,-0.760556,-0.0166585
27,0.9902385000000001,0.7278905,0.082843,0.8459235,0.4707705,0.059413,0.7193535,0.6524605000000001,-0.065323,1.1420635,0.4814405,0.045378,1.2501735,0.6661204999999999,-0.082388,0.6900634999999999,0.8512605,-0.2207179999999999,1.2834935,0.8699705,-0.250538,0.9258915,-0.0028404999999999,0.001135,1.0741085,0.0028405,-0.001135,0.8816135,-0.4280795,0.014849,1.1310335,-0.3879595,-0.0146199999999999,0.8689635,-0.7798995,-0.0118659999999999,1.1380135,-0.7631195,-0.0159859999999999
28,0.989271,0.726407,0.082385,0.845427,0.471527,0.060064,0.721527,0.666487,-0.0546389999999999,1.141627,0.484087,0.046055,1.246277,0.681117,-0.073995,0.692007,0.873897,-0.197585,1.277837,0.892807,-0.230395,0.926032,-0.002927,0.0010889999999999,1.073968,0.0029269999999999,-0.0010889999999999,0.881427,-0.4301629999999999,0.015372,1.130537,-0.390353,-0.014244,0.868887,-0.7826029999999999,-0.011207,1.137767,-0.7655529999999999,-0.015312
29,0.9882610000000001,0.7253255000000001,0.081672,0.845117,0.4722455,0.060654,0.723897,0.6808355,-0.043944,1.141317,0.4868855000000001,0.046687,1.242987,0.6942755,-0.066398,0.694267,0.8942455,-0.174323,1.2731569999999999,0.9146955,-0.210613,0.926208,-0.0029964999999999,0.001071,1.073792,0.0029964999999999,-0.001071,0.881247,-0.4318845,0.015815,1.130077,-0.3924645,-0.013959,0.868877,-0.7851545,-0.010615,1.137667,-0.7677145,-0.0146989999999999
30,0.9872165,0.7244355,0.080422,0.8448245,0.4729655,0.0613229999999999,0.7270544999999999,0.6911155,-0.030827,1.1410345,0.4898655,0.0474509999999999,1.2411545,0.7015655000000001,-0.056455,0.6967445,0.9061255,-0.147059,1.2693245,0.9318255,-0.185309,0.9263965,-0.0031545,0.0010009999999999,1.0736035,0.0031544999999999,-0.001001,0.8811445,-0.4336845,0.0163489999999999,1.1296244999999998,-0.3946245,-0.013766,0.8688945000000001,-0.7877645,-0.009879,1.1375544999999998,-0.7699644999999999,-0.01395
31,0.9862415,0.723623,0.078957,0.8445955,0.4740229999999999,0.061958,0.7293555,0.701083,-0.01872,1.1406155,0.492453,0.04822,1.2395155,0.712113,-0.046541,0.6992055000000001,0.916343,-0.1205929999999999,1.2666955,0.947403,-0.1629129999999999,0.9265545,-0.0033219999999999,0.0008509999999999,1.0734455,0.0033219999999999,-0.0008509999999999,0.8811255,-0.435457,0.016832,1.1292555,-0.3967969999999999,-0.013664,0.8690055,-0.790447,-0.009183,1.1374555,-0.772257,-0.0132359999999999
32,0.9854380000000001,0.72292,0.0775165,0.8444929999999999,0.47477,0.0624015,0.7311529999999999,0.70936,-0.0080135,1.140153,0.4946400000000001,0.0489055,1.238343,0.72047,-0.0379474999999999,0.701423,0.93175,-0.0976474999999999,1.264783,0.95956,-0.1418375,0.9266840000000001,-0.0035029999999999,0.0007095,1.073316,0.0035029999999999,-0.0007094999999999,0.881183,-0.43682,0.0171305,1.1289529999999999,-0.3984299999999999,-0.0136484999999999,0.869093,-0.7926799999999999,-0.0086594999999999,1.137573,-0.77416,-0.0126104999999999
33,0.9848195,0.7221845,0.076112,0.8445985,0.4756245,0.062704,0.7329885,0.7158445,0.002168,1.1395685,0.4966745,0.049426,1.2376185,0.7279245,-0.030324,0.7035085,0.9459645,-0.076377,1.2634884999999998,0.9706545,-0.1219669999999999,0.9267885,-0.0036164999999999,0.000486,1.0732115,0.0036165,-0.000486,0.8813085,-0.4380655,0.017364,1.1286685,-0.3998355,-0.0137349999999999,0.8692485,-0.7947955,-0.0084209999999999,1.1377485,-0.7764755,-0.012129
34,0.984256,0.721505,0.0748065,0.8447560000000001,0.476275,0.0629845,0.7347360000000001,0.722075,0.0117564999999999,1.138696,0.498645,0.0500414999999999,1.237136,0.734865,-0.0231675,0.705396,0.959055,-0.0567795,1.262556,0.980135,-0.1034114999999999,0.926845,-0.0037139999999999,0.0002584999999999,1.073155,0.003714,-0.0002585,0.8814760000000001,-0.439185,0.0175905,1.128456,-0.401035,-0.0138195,0.8694459999999999,-0.796355,-0.0081715,1.137936,-0.777625,-0.0111995
35,0.9838085000000001,0.720978,0.073628,0.8449405,0.476748,0.063102,0.7363405000000001,0.727668,0.020451,1.1376804999999999,0.500448,0.050699,1.2366504999999999,0.7406280000000001,-0.016227,0.7070605000000001,0.970358,-0.038035,1.2619405000000001,0.988758,-0.085608,0.9268875,-0.0038489999999999,4.300000000000137e-05,1.0731125,0.0038489999999999,-4.299999999999443e-05,0.8817205,-0.439772,0.017748,1.1283105,-0.4021019999999999,-0.0139239999999999,0.8697505,-0.797832,-0.007888,1.1382405,-0.779002,-0.0106199999999999
36,0.9835005,0.720485,0.0725109999999999,0.8451135,0.477025,0.06321,0.7378935000000001,0.7316750000000001,0.028428,1.1367435,0.5018950000000001,0.051414,1.2364635,0.745495,-0.0093169999999999,0.7086535,0.979765,-0.020275,1.2617235,0.996765,-0.068879,0.9269505000000001,-0.003963,-0.000167,1.0730495,0.003963,0.000167,0.8820135,-0.440445,0.017863,1.1282135,-0.403195,-0.0140349999999999,0.8700734999999999,-0.7992849999999999,-0.007612,1.1386135,-0.7803249999999999,-0.0100649999999999
37,0.9834445,0.7201675,0.071211,0.8454165,0.4767875,0.063251,0.7393965,0.7352175,0.035676,1.1361965,0.5031975,0.0521699999999999,1.2364065,0.7479775,-0.002506,0.7102965,0.9880675,-0.00407,1.2620765,1.0038675,-0.053768,0.9270065,-0.0040805,-0.000349,1.0729935,0.0040805,0.0003489999999999,0.8822465,-0.4411125,0.0179709999999999,1.1282165,-0.4041425,-0.01415,0.8702965,-0.8008824999999999,-0.007372,1.1388065,-0.7818425,-0.009513
38,0.983387,0.719865,0.06999,0.8458510000000001,0.4767049999999999,0.063286,0.740801,0.736345,0.042459,1.135731,0.504375,0.052874,1.236561,0.750435,0.00435,0.711731,0.995905,0.010827,1.262631,1.010305,-0.039976,0.9270450000000001,-0.0042239999999999,-0.000557,1.0729549999999999,0.0042239999999999,0.000557,0.882431,-0.441715,0.017983,1.128191,-0.405085,-0.0143,0.870511,-0.802445,-0.007181,1.138861,-0.784025,-0.009471
39,0.983376,0.7198220000000001,0.0692815,0.8461000000000001,0.4764919999999999,0.0631495,0.7413000000000001,0.736152,0.0459765,1.13555,0.5048520000000001,0.0532865,1.23653,0.750672,0.0068924999999999,0.71229,1.003872,0.0166064999999999,1.26298,1.011172,-0.0347365,0.927092,-0.00426,-0.0006255,1.072908,0.00426,0.0006254999999999,0.88252,-0.441628,0.0178784999999999,1.12818,-0.405498,-0.0143845,0.87067,-0.8034479999999999,-0.0072295,1.13889,-0.785878,-0.0097355
40,0.9834525,0.7198865,0.068825,0.8462455,0.4760565,0.0629619999999999,0.7416655,0.7356065,0.048011,1.1356655,0.5051265,0.0536099999999999,1.2366555,0.7504165,0.0092769999999999,0.7128955,1.0118665,0.0217859999999999,1.2634055,1.0119665,-0.030533,0.9271765,-0.0042805,-0.000641,1.0728235,0.0042805,0.0006409999999999,0.8825955,-0.4414435,0.0177309999999999,1.1281855,-0.4056035,-0.014467,0.8708555,-0.8039335,-0.007296,1.1389455,-0.7870435,-0.01003
41,0.9836165,0.720036,0.0684965,0.8463965,0.475766,0.0628335,0.7419765,0.735116,0.0498495,1.1357765,0.505256,0.0540515,1.2367865,0.7498360000000001,0.0117665,0.7132864999999999,1.012086,0.0252635,1.2637764999999999,1.011986,-0.0270004999999999,0.9272085,-0.004289,-0.0006434999999999,1.0727915,0.0042889999999999,0.0006435,0.8826565,-0.4410739999999999,0.0175955,1.1282165,-0.405674,-0.0145404999999999,0.8710665000000001,-0.804354,-0.0072925,1.1389565,-0.788604,-0.0106505
42,0.98383,0.7202405,0.068248,0.846575,0.4755704999999999,0.062767,0.742205,0.7346505,0.051499,1.135895,0.5053905,0.054426,1.237315,0.7500304999999999,0.014742,0.7136750000000001,1.0122105,0.028612,1.264295,1.0129105,-0.02402,0.9272320000000001,-0.0043144999999999,-0.000696,1.072768,0.0043144999999999,0.000696,0.882725,-0.4406895,0.01742,1.128265,-0.4057995,-0.0146509999999999,0.871305,-0.8046295,-0.0073609999999999,1.139015,-0.7899695000000001,-0.011492
43,0.9840625,0.7204315,0.068117,0.8466935,0.4754015,0.062696,0.7424235,0.7342015000000001,0.053051,1.1360134999999998,0.5054615,0.054865,1.2376335,0.7483615,0.017579,0.7140234999999999,1.0118615,0.031567,1.2648435,1.0136615,-0.0215829999999999,0.9272435,-0.0043284999999999,-0.0007579999999999,1.0727565000000001,0.0043284999999999,0.000758,0.8827735,-0.4404585,0.017261,1.1282935,-0.4059684999999999,-0.0147259999999999,0.8714735,-0.8049485,-0.0074369999999999,1.1390935,-0.7912785,-0.0124099999999999
44,0.9843215,0.7206325,0.067958,0.8467445,0.4750524999999999,0.062556,0.7426345000000001,0.7337925000000001,0.054313,1.1362344999999998,0.5054725,0.055285,1.2379444999999998,0.7470825,0.020167,0.7142145000000001,1.0114525,0.033866,1.2653444999999999,1.0147525,-0.019629,0.9272375,-0.0043175,-0.000847,1.0727625,0.0043174999999999,0.000847,0.8827445,-0.4406775,0.016988,1.1283045,-0.4061175,-0.0148729999999999,0.8715745,-0.8052674999999999,-0.0075809999999999,1.1391645,-0.7925875,-0.0133729999999999
45,0.9846585,0.720762,0.0676364999999999,0.8468015,0.4748219999999999,0.0622895,0.7427714999999999,0.733302,0.0552485,1.1365915,0.505432,0.0558884999999999,1.2380515,0.744972,0.0219424999999999,0.7143014999999999,1.0110519999999998,0.0352395,1.2658315,1.0150519999999998,-0.0180415,0.9272245000000001,-0.0043009999999999,-0.0009525,1.0727754999999999,0.0043009999999999,0.0009524999999999,0.8826115,-0.440888,0.0165675,1.1283315,-0.406308,-0.0151965,0.8716215,-0.805588,-0.0079715,1.1392915,-0.7930079999999999,-0.0142145
46,0.9850225000000001,0.7208985,0.067174,0.8468375000000001,0.4749585,0.062269,0.7428775000000001,0.7331485,0.0561,1.1369975,0.5053785000000001,0.056318,1.2381875,0.7437185000000001,0.023815,0.7143075,1.0110385,0.036489,1.2663475,1.0158385,-0.0162529999999999,0.9272215,-0.0042755,-0.0010119999999999,1.0727785,0.0042755,0.0010119999999999,0.8824175,-0.4410015,0.015977,1.1283575,-0.4064215,-0.0156639999999999,0.8715775,-0.8056515,-0.008527,1.1393175,-0.7930415,-0.0148239999999999
47,0.98538,0.720987,0.0666935,0.846923,0.475057,0.0622725,0.7430129999999999,0.733027,0.0567345,1.137423,0.505327,0.0566935,1.238443,0.743067,0.0253905,0.7143930000000001,1.0109169999999998,0.0374855,1.266883,1.016817,-0.0142665,0.927227,-0.004241,-0.0010464999999999,1.072773,0.0042409999999999,0.0010464999999999,0.882163,-0.4407729999999999,0.0153035,1.128383,-0.406543,-0.0161704999999999,0.871533,-0.805773,-0.0092425,1.139253,-0.7934829999999999,-0.0160345
48,0.985753,0.7210595,0.0662175,0.847004,0.4752495,0.0623095,0.743134,0.7329695,0.0571905,1.137874,0.5053695,0.0574195,1.238854,0.7429695000000001,0.0272615,0.714514,1.0108795,0.0382405,1.267424,1.0174795,-0.0121394999999999,0.927225,-0.0042115,-0.0010685,1.072775,0.0042115,0.0010685,0.881854,-0.4405604999999999,0.0144615,1.128404,-0.4066805,-0.0167254999999999,0.871544,-0.8059105,-0.0100014999999999,1.1391040000000001,-0.7938705,-0.0173714999999999
49,0.9861510000000001,0.721081,0.065867,0.84712,0.475051,0.062369,0.74324,0.7327710000000001,0.057452,1.13835,0.5054310000000001,0.058334,1.23924,0.7427710000000001,0.028965,0.7146300000000001,1.010681,0.038728,1.26796,1.017581,-0.0100169999999999,0.927207,-0.0041899999999999,-0.0011819999999999,1.0727929999999999,0.0041899999999999,0.001182,0.8814500000000001,-0.440399,0.01337,1.12833,-0.407089,-0.0174179999999999,0.87146,-0.8062889999999999,-0.0109579999999999,1.13891,-0.795379,-0.0188069999999999
50,0.986658,0.7210595,0.0654319999999999,0.847278,0.4748095,0.06243,0.7433780000000001,0.7325695,0.057565,1.138758,0.5054595000000001,0.0592769999999999,1.239588,0.7425295000000001,0.030611,0.714728,1.0104395,0.039046,1.268488,1.0176395,-0.007411,0.9271830000000001,-0.0041634999999999,-0.0013639999999999,1.072817,0.0041635,0.001364,0.880908,-0.4403205,0.01143,1.128118,-0.4077105,-0.018325,0.871348,-0.8068005,-0.012121,1.138788,-0.7959805,-0.019752
51,0.987163,0.7209935000000001,0.0649535,0.8474820000000001,0.4749435,0.0624895,0.7435419999999999,0.7323335000000001,0.0576185,1.139182,0.5055835000000001,0.0603445,1.239792,0.7422435000000001,0.0314305,0.7148019999999999,1.0102235,0.0392725,1.268782,1.0162235,-0.0048274999999999,0.9271590000000001,-0.0041215,-0.0015434999999999,1.072841,0.0041215,0.0015434999999999,0.8803420000000001,-0.4408965,0.0093555,1.127872,-0.4084965,-0.0193495,0.871182,-0.8074064999999999,-0.0134045,1.138632,-0.7968365,-0.0210915
52,0.987674,0.7209129999999999,0.06446,0.847697,0.475213,0.062616,0.7437670000000001,0.7321529999999999,0.057587,1.1395170000000001,0.5057429999999999,0.061383,1.239937,0.742203,0.032391,0.714877,1.010083,0.039471,1.269027,1.014283,-0.0020039999999999,0.927137,-0.004082,-0.001729,1.072863,0.004082,0.001729,0.879807,-0.441247,0.0071039999999999,1.127597,-0.409927,-0.020488,0.8709970000000001,-0.808037,-0.0146869999999999,1.138437,-0.797567,-0.0228239999999999
53,0.9881615,0.7208345,0.064057,0.8479085,0.4754045,0.062793,0.7440185,0.7320045000000001,0.0575549999999999,1.1397285,0.5058845000000001,0.062366,1.2400385,0.7418445,0.033476,0.7149985,1.0099245,0.039599,1.2691584999999999,1.0121245,0.000872,0.9271095,-0.0040614999999999,-0.001946,1.0728905,0.0040615,0.0019459999999999,0.8792985000000001,-0.4418355,0.0048559999999999,1.1273185,-0.4114255,-0.021613,0.8707585000000001,-0.8086955,-0.016047,1.1382885,-0.7983055,-0.024474
54,0.9886100000000001,0.7206755,0.063682,0.848137,0.4756355,0.063014,0.744317,0.7319955,0.057633,1.139827,0.5061255,0.063291,1.240277,0.7433455,0.034612,0.715157,1.0098455,0.039887,1.269457,1.0087455,0.004083,0.927085,-0.0040455,-0.0020479999999999,1.072915,0.0040455,0.002048,0.8788370000000001,-0.4421545,0.002377,1.127027,-0.4129244999999999,-0.0228449999999999,0.870457,-0.8093745,-0.0175969999999999,1.138077,-0.7989944999999999,-0.026213
55,0.989038,0.7204394999999999,0.063395,0.848327,0.4758995,0.063028,0.744637,0.7320895000000001,0.057746,1.139907,0.5064095,0.064152,1.240487,0.7445795,0.035603,0.7153970000000001,1.0099995,0.040233,1.269597,1.0048994999999998,0.0067119999999999,0.927075,-0.0040255,-0.00211,1.072925,0.0040255,0.00211,0.8784070000000002,-0.4425305,-0.0001329999999999,1.126717,-0.4143105,-0.0240999999999999,0.870077,-0.8099405,-0.019212,1.1378869999999999,-0.7996205000000001,-0.02745
56,0.9894860000000001,0.720206,0.0631444999999999,0.848546,0.476216,0.0630815,0.744936,0.732206,0.0577535,1.140006,0.5066459999999999,0.0649975,1.240576,0.745826,0.0364235,0.715766,1.010086,0.0405325,1.269726,1.001486,0.0087805,0.927056,-0.0040089999999999,-0.0021424999999999,1.072944,0.004009,0.0021425,0.878016,-0.4432439999999999,-0.0026774999999999,1.126426,-0.415664,-0.0254184999999999,0.8697360000000001,-0.810484,-0.0208034999999999,1.137616,-0.799934,-0.0287424999999999
57,0.9899015,0.7199804999999999,0.0628765,0.8486755,0.4764905,0.0630245,0.7451755,0.7323605,0.0577155,1.1399955,0.5067704999999999,0.0654105,1.2405255,0.7469405,0.0367605,0.7162055,1.0102704999999998,0.0407735,1.2696055,0.9969705,0.0104515,0.9270255000000001,-0.0039975,-0.0021904999999999,1.0729745,0.0039975,0.0021905,0.8776155,-0.4437495,-0.0051004999999999,1.1261455,-0.4170195,-0.0267894999999999,0.8692955,-0.8110295000000001,-0.0225154999999999,1.1372555,-0.8004995,-0.0299865
58,0.9902765,0.719818,0.0625225,0.8488325000000001,0.476898,0.0628695,0.7453525,0.732618,0.0575985,1.1399725,0.5069779999999999,0.0655085,1.2404725,0.7480279999999999,0.0369195,0.7166425000000001,1.010568,0.0408975,1.2694125,0.992468,0.0117855,0.9270005,-0.0039949999999999,-0.0022305,1.0729994999999999,0.0039949999999999,0.0022305,0.8772225,-0.444002,-0.0074065,1.1258525,-0.418242,-0.0282764999999999,0.8688925000000001,-0.811492,-0.0241585,1.1370525,-0.800732,-0.0313224999999999
59,0.9904605000000001,0.719697,0.062276,0.8489055,0.4771769999999999,0.062676,0.7453855,0.732797,0.057483,1.1399455,0.5071869999999999,0.065427,1.2403555,0.748827,0.036819,0.7165655,1.010357,0.039728,1.2691055,0.987957,0.0122369999999999,0.9269875,-0.003979,-0.002183,1.0730125,0.0039789999999999,0.0021829999999999,0.8769955,-0.444213,-0.008808,1.1257155,-0.419413,-0.029685,0.8684955,-0.8117530000000001,-0.02583,1.1369155,-0.801113,-0.03275
60,0.9905530000000001,0.719627,0.061956,0.848969,0.477457,0.0623569999999999,0.7453890000000001,0.733057,0.057183,1.139819,0.507277,0.065084,1.240359,0.748687,0.0365879999999999,0.716469,1.010217,0.038306,1.268899,0.984317,0.0122149999999999,0.926985,-0.003965,-0.002101,1.073015,0.0039649999999999,0.0021009999999999,0.876769,-0.444443,-0.010281,1.125579,-0.420613,-0.031109,0.868099,-0.8118930000000001,-0.027552,1.136779,-0.8014030000000001,-0.03438
61,0.9905365000000002,0.7196064999999999,0.061417,0.8489395,0.4776465,0.061662,0.7453595,0.7333765,0.056485,1.1396595,0.5073664999999999,0.0644889999999999,1.2403195,0.7485965,0.035812,0.7163395,1.0101265,0.036545,1.2685195,0.9799265,0.011286,0.9269745,-0.0039765,-0.0020839999999999,1.0730255,0.0039765,0.0020839999999999,0.8764895,-0.4447835,-0.012027,1.1254395,-0.4211735,-0.032668,0.8676195,-0.8119835000000001,-0.029648,1.1365095,-0.8018135000000001,-0.036978
62,0.9905100000000001,0.7198264999999999,0.060513,0.848895,0.4781065,0.060599,0.745315,0.7339065,0.055373,1.139425,0.5075664999999999,0.0635469999999999,1.240125,0.7485965,0.034439,0.7162050000000001,1.0057265000000002,0.034466,1.268075,0.9751265,0.0095729999999999,0.926942,-0.0039765,-0.002093,1.073058,0.0039765,0.0020929999999999,0.876095,-0.4455135,-0.014038,1.125245,-0.4216035,-0.03447,0.867185,-0.8119735,-0.032238,1.136265,-0.8021335,-0.03962
63,0.9905185,0.7198665,0.0595895,0.8488735000000001,0.4781065,0.0593944999999999,0.7452535,0.7341664999999999,0.0538555,1.1391935,0.5075664999999999,0.0622375,1.2394635,0.7484065,0.0328585,0.7160934999999999,1.0014265,0.0324524999999999,1.2679435,0.9747265,0.0075614999999999,0.9268905000000001,-0.0039765,-0.0021305,1.0731095,0.0039765,0.0021304999999999,0.8757435000000001,-0.4462035,-0.0160425,1.1251035,-0.4222135,-0.0362845,0.8668035000000001,-0.8119735,-0.0346985,1.1361335,-0.8024635,-0.0420875
64,0.9905235,0.7198665,0.058395,0.8488355,0.4781065,0.058066,0.7450755,0.7342465,0.051951,1.1389155,0.5075664999999999,0.060778,1.2388055,0.7480165,0.030957,0.7158755,0.9968265,0.029995,1.2678155,0.9744265,0.005426,0.9268265,-0.0039765,-0.002207,1.0731735,0.0039765,0.002207,0.8753755,-0.4469435,-0.018186,1.1248954999999998,-0.4226135,-0.038413,0.8663955,-0.8118135000000001,-0.037328,1.1360255,-0.8024635,-0.0443869999999999
65,0.9904535,0.7199145,0.056927,0.8487645,0.4781845,0.056522,0.7448445,0.7343245,0.049884,1.1385445,0.5076444999999999,0.059161,1.2380844999999998,0.7472545,0.028843,0.7155945,0.9923045,0.027218,1.2676845,0.9743045,0.003104,0.9267305,-0.0039695,-0.002403,1.0732695,0.0039694999999999,0.0024029999999999,0.8749945,-0.4473755,-0.020599,1.1246745,-0.4231355,-0.040727,0.8660245,-0.8115455,-0.040155,1.1359345,-0.8029455,-0.047605
66,0.9902050000000001,0.7202584999999999,0.0550444999999999,0.848594,0.4785085,0.0545255,0.744414,0.7347285,0.0470905,1.138044,0.5079285,0.0571715,1.237344,0.7466185,0.0261045,0.714974,0.9878085,0.0230915,1.267404,0.9747085,-0.0008384999999999,0.926654,-0.0039725,-0.0026095,1.073346,0.0039724999999999,0.0026095,0.874614,-0.4475515,-0.0235384999999999,1.124564,-0.4234615,-0.0436635,0.865674,-0.8110915000000001,-0.0436805,1.135744,-0.8031715,-0.0513485
67,0.9899120000000001,0.7204115,0.0531685,0.848398,0.4786614999999999,0.0524725,0.743908,0.7351314999999999,0.0441714999999999,1.137488,0.5079015,0.0551985,1.236438,0.7452415,0.0233615,0.714108,0.9830615,0.0183155,1.267088,0.9751615,-0.0049345,0.926567,-0.0039625,-0.0027624999999999,1.073433,0.0039625,0.0027625,0.874258,-0.4477085,-0.0265544999999999,1.124478,-0.4236985,-0.0466285,0.865328,-0.8107585,-0.0472445,1.135708,-0.8034085,-0.0551695
68,0.989606,0.7207979999999999,0.0508575,0.848201,0.478228,0.0498555,0.7435510000000001,0.734078,0.0406225,1.136851,0.507788,0.0529665,1.235211,0.7433379999999999,0.0198935,0.7130910000000001,0.978598,0.0122465,1.266561,0.975898,-0.0099355,0.926426,-0.0039089999999999,-0.0027645,1.073574,0.003909,0.0027645,0.873631,-0.446642,-0.0307344999999999,1.1240709999999998,-0.422662,-0.0509905,0.864911,-0.809512,-0.0515235,1.135481,-0.802762,-0.0594795
69,0.9892575,0.7205555,0.048645,0.8479775,0.4773755,0.046983,0.7430375,0.7327855000000001,0.036875,1.1361275,0.5074855,0.050758,1.2339375,0.7414055,0.016215,0.7118074999999999,0.9740255,0.0054889999999999,1.2657175,0.9767255,-0.015494,0.9262945,-0.0037114999999999,-0.002854,1.0737055,0.0037114999999999,0.002854,0.8726375,-0.4454145,-0.035862,1.1235675,-0.4214045,-0.0565709999999999,0.8644875000000001,-0.8079445,-0.0558349999999999,1.1351575,-0.8017044999999999,-0.063992
70,0.988926,0.720537,0.046573,0.8477790000000001,0.476447,0.04464,0.7424390000000001,0.731447,0.033314,1.135369,0.5068269999999999,0.048671,1.232629,0.7391869999999999,0.012724,0.710539,0.969307,-0.001364,1.264769,0.977507,-0.0211039999999999,0.926201,-0.003624,-0.002831,1.073799,0.003624,0.002831,0.871619,-0.4439329999999999,-0.041067,1.123029,-0.419913,-0.062382,0.8643290000000001,-0.8060130000000001,-0.059473,1.134739,-0.8007230000000001,-0.068841
71,0.988877,0.7203725000000001,0.0445135,0.8476500000000001,0.4755124999999999,0.0425375,0.7419,0.7302825,0.0293315,1.13471,0.5065925,0.0467105,1.23132,0.7370224999999999,0.0089944999999999,0.70964,0.9694425,-0.0078035,1.26371,0.9784425,-0.0273125,0.926111,-0.0035195,-0.0028055,1.073889,0.0035194999999999,0.0028054999999999,0.8703000000000001,-0.4423575,-0.0467845,1.1226,-0.4185075,-0.0685435,0.8641300000000001,-0.8036775,-0.0631485,1.1342999999999999,-0.7991975,-0.0734945
72,0.9885915,0.720092,0.0421075,0.8474155,0.474282,0.0402555,0.7412255,0.729212,0.0246025,1.1339555,0.505502,0.0442995,1.2302355,0.736182,0.0044475,0.7085855,0.970062,-0.0155194999999999,1.2621955,0.979862,-0.0345464999999999,0.9260295000000001,-0.003234,-0.0028654999999999,1.0739705,0.003234,0.0028655,0.8687555,-0.440118,-0.0542845,1.1219455,-0.416448,-0.0764415,0.8637055,-0.8008580000000001,-0.0675355,1.1336955,-0.797108,-0.0785395
73,0.988332,0.7199209999999999,0.0398375,0.847301,0.473141,0.0380485,0.740621,0.728281,0.0198285,1.1332209999999998,0.504451,0.0419654999999999,1.229091,0.734941,-5.6500000000000994e-05,0.707681,0.971131,-0.0231575,1.260631,0.981731,-0.0416705,0.925941,-0.0030029999999999,-0.0028275,1.074059,0.0030029999999999,0.0028275,0.8672210000000001,-0.437369,-0.0621825,1.121281,-0.4135689999999999,-0.0846345,0.863241,-0.797489,-0.0716235,1.133091,-0.794429,-0.0834165
74,0.9880425,0.7203035000000001,0.037651,0.8471365000000001,0.4722734999999999,0.035793,0.7399665,0.7266535000000001,0.0148489999999999,1.1326465,0.5024035,0.039496,1.2279965,0.7336535000000001,-0.004601,0.7067765000000001,0.9725935,-0.031166,1.2589665,0.9842935,-0.04893,0.9258505,-0.0027844999999999,-0.0025629999999999,1.0741495,0.0027845,0.0025629999999999,0.8655965000000001,-0.4337065,-0.070925,1.1205765,-0.4099965,-0.0939479999999999,0.8627265,-0.7932465,-0.075931,1.1324465,-0.7904764999999999,-0.0881629999999999
75,0.9879245000000001,0.718885,0.0357605,0.8470545,0.471445,0.0338755,0.7394345000000001,0.725255,0.0102705,1.1323745,0.5008349999999999,0.0372665,1.2271045,0.7325149999999999,-0.0089755,0.7061845000000001,0.974595,-0.0384605,1.2574745,0.987295,-0.0556745,0.9258075,-0.002559,-0.0022224999999999,1.0741925,0.0025589999999999,0.0022224999999999,0.8640045000000001,-0.4292749999999999,-0.0796715,1.1199745,-0.4058049999999999,-0.1033264999999999,0.8624645,-0.7883450000000001,-0.0797445,1.1318945,-0.785775,-0.0924275
76,0.9878320000000002,0.718089,0.0337965,0.846983,0.4705189999999999,0.0318855,0.738903,0.723859,0.0053775,1.132233,0.4997589999999999,0.0348454999999999,1.226493,0.731379,-0.0136534999999999,0.705533,0.977389,-0.0460075,1.256053,0.989989,-0.0628104999999999,0.9257710000000001,-0.002378,-0.0018204999999999,1.0742289999999999,0.0023779999999999,0.0018205,0.862313,-0.423271,-0.0896245,1.119413,-0.401611,-0.1139745,0.862223,-0.782011,-0.0835745,1.131383,-0.779491,-0.0965844999999999
77,0.9877500000000001,0.716992,0.0319519999999999,0.8469990000000001,0.470362,0.030389,0.738409,0.7242919999999999,0.0009979999999999,1.1321089999999998,0.498612,0.0326,1.226169,0.730772,-0.017984,0.704769,0.977612,-0.05289,1.255029,0.992332,-0.0694,0.925722,-0.002245,-0.0015469999999999,1.074278,0.002245,0.0015469999999999,0.860879,-0.417228,-0.098635,1.118949,-0.397198,-0.123606,0.861849,-0.775598,-0.087058,1.1311689999999999,-0.772968,-0.100616
78,0.9875045,0.7160715,0.030177,0.8469005000000001,0.4706115,0.029143,0.7379105,0.7242515,-0.0030639999999999,1.1318605,0.4976815,0.0303599999999999,1.2256705,0.7306915,-0.0221649999999999,0.7038705000000001,0.9780015,-0.0589529999999999,1.2537605,0.9951315,-0.07565,0.9257155,-0.0022424999999999,-0.0011609999999999,1.0742845,0.0022424999999999,0.001161,0.8599405,-0.4108084999999999,-0.1069919999999999,1.1185005,-0.3927684999999999,-0.132502,0.8616305000000001,-0.7688285,-0.0903519999999999,1.1307805,-0.7664585,-0.104359
79,0.987266,0.7148145,0.0284829999999999,0.846778,0.4706045,0.0275569999999999,0.737448,0.7241145,-0.007108,1.1315979999999999,0.4970545,0.028061,1.225188,0.7308645,-0.0266329999999999,0.702948,0.9785945,-0.064798,1.252468,0.9979645,-0.08208,0.925675,-0.0021705,-0.0007249999999999,1.074325,0.0021705,0.000725,0.858948,-0.4041655,-0.115734,1.117958,-0.3885655,-0.141317,0.861388,-0.7616355,-0.093504,1.130528,-0.7596655,-0.108088
80,0.9871715,0.7135785,0.0267484999999999,0.8466345,0.4699185,0.0258395,0.7368844999999999,0.7234484999999999,-0.0107485,1.1314345000000001,0.4960485,0.0256865,1.2247745,0.7309985,-0.0306735,0.7022345,0.9752185,-0.0698445,1.2518345,1.0005085,-0.0880855,0.9256555,-0.0020875,-0.0002015,1.0743445,0.0020875,0.0002015,0.8580145,-0.3968215,-0.1249875,1.1174545,-0.3834815,-0.1506225,0.8610245,-0.7533215000000001,-0.0971015,1.1300545,-0.7512015000000001,-0.1124925
81,0.9870775,0.7121385,0.0255784999999999,0.8465155,0.4690685,0.0245165,0.7360555000000001,0.7225385000000001,-0.0137595,1.1313754999999999,0.4962585,0.0239185,1.2245955,0.7311885,-0.0341975,0.7013655000000001,0.9723385,-0.0738055,1.2512254999999999,1.0030485,-0.0932825,0.9256695,-0.0022084999999999,0.0003275,1.0743305,0.0022085,-0.0003275,0.8571655,-0.3887515,-0.1328785,1.1174255,-0.3783315,-0.1587815,0.8612555,-0.7443814999999999,-0.1005025,1.1301854999999998,-0.7405514999999999,-0.1167334999999999
82,0.9869515,0.7105104999999999,0.0243735,0.8463955,0.4680805,0.0230385,0.7351755,0.7213005,-0.0169924999999999,1.1313255,0.4964205,0.0220415,1.2245754999999998,0.7317205,-0.0379465,0.7004855,0.9697905,-0.0779205,1.2506955,1.0050705,-0.0986265,0.9256985000000001,-0.0022774999999999,0.0007105,1.0743014999999998,0.0022775,-0.0007104999999999,0.8562855,-0.3807195,-0.1406244999999999,1.1173855,-0.3734995,-0.1668795,0.8616555,-0.7355195,-0.1039805,1.1303055,-0.7295395,-0.1210395
83,0.9868615,0.707836,0.022951,0.8463255000000001,0.466836,0.021521,0.7343755000000001,0.720736,-0.0201129999999999,1.1313255,0.496396,0.02017,1.2244955,0.732706,-0.041634,0.6990655,0.965976,-0.0819949999999999,1.2500755,1.002086,-0.1040799999999999,0.9256875,-0.002287,0.000934,1.0743125,0.0022869999999999,-0.0009339999999999,0.8557355,-0.372514,-0.148313,1.1175955,-0.368704,-0.174643,0.8622354999999999,-0.726414,-0.1078969999999999,1.1312855,-0.718574,-0.12579
84,0.9868120000000001,0.706834,0.021668,0.846282,0.4655539999999999,0.019887,0.733932,0.719604,-0.023204,1.131452,0.495924,0.018552,1.224622,0.7335539999999999,-0.0451299999999999,0.697692,0.961924,-0.085973,1.249922,0.997274,-0.109096,0.925663,-0.002287,0.0011029999999999,1.074337,0.0022869999999999,-0.0011029999999999,0.8551219999999999,-0.364396,-0.155695,1.117842,-0.364136,-0.181965,0.862892,-0.717406,-0.111426,1.132392,-0.707726,-0.130899
85,0.986745,0.70496,0.0202144999999999,0.846309,0.46448,0.0181884999999999,0.733179,0.7183700000000001,-0.0261745,1.131519,0.49572,0.0168574999999999,1.224969,0.73467,-0.0485495,0.696319,0.95712,-0.0896435,1.2499189999999998,0.99275,-0.1137295,0.925615,-0.0023489999999999,0.0013314999999999,1.074385,0.0023489999999999,-0.0013314999999999,0.854519,-0.35708,-0.1620415,1.118149,-0.35892,-0.1879715,0.863409,-0.70948,-0.1150045,1.133619,-0.6978599999999999,-0.1359345
86,0.9864045,0.7038314999999999,0.0186595,0.8462625,0.4633514999999999,0.0162855,0.7326825,0.7171215,-0.0294405,1.1316424999999999,0.4945615,0.0148924999999999,1.2253425,0.7359815000000001,-0.0522445,0.6951725,0.9556715,-0.0933705,1.2498624999999999,0.9890915,-0.1183565,0.9255745,-0.0023525,0.0015555,1.0744255,0.0023524999999999,-0.0015555,0.8537725,-0.3496085,-0.1683705,1.1183825,-0.3530285,-0.1939005,0.8638925,-0.7005984999999999,-0.1185725,1.1348525,-0.6871484999999999,-0.1406125
87,0.9862790000000001,0.702755,0.017232,0.846548,0.4619649999999999,0.0143679999999999,0.732208,0.716315,-0.032741,1.131708,0.4937249999999999,0.012995,1.225388,0.737025,-0.056019,0.694098,0.954155,-0.097391,1.2498879999999999,0.984485,-0.123169,0.925513,-0.002333,0.001701,1.074487,0.002333,-0.001701,0.853018,-0.342005,-0.174881,1.118688,-0.3464049999999999,-0.199531,0.864518,-0.691545,-0.122144,1.136288,-0.676215,-0.145323
88,0.986179,0.7017075,0.0158525,0.846778,0.4610575,0.0124815,0.7316480000000001,0.7155875,-0.0364435,1.131728,0.4929975,0.0111275,1.225568,0.7355675,-0.0597425,0.693058,0.9531175,-0.1017365,1.2498879999999999,0.9798675,-0.1277194999999999,0.925457,-0.0022684999999999,0.0018335,1.074543,0.0022685,-0.0018335,0.852208,-0.3309425,-0.1812005,1.119018,-0.3353425,-0.2049805,0.865058,-0.6812225,-0.1246885,1.137448,-0.6654925,-0.1496115
89,0.9859900000000001,0.700565,0.0142359999999999,0.8469530000000001,0.460495,0.0108319999999999,0.730943,0.712435,-0.039832,1.131553,0.492125,0.0095109999999999,1.225523,0.734585,-0.06331,0.692123,0.953805,-0.106652,1.249613,0.975395,-0.132032,0.925374,-0.0022049999999999,0.0018849999999999,1.074626,0.0022049999999999,-0.001885,0.8512630000000001,-0.320455,-0.1864009999999999,1.119163,-0.324855,-0.209511,0.8655030000000001,-0.671205,-0.126363,1.137873,-0.655505,-0.152337
90,0.9859485,0.69954,0.012714,0.8473335,0.46029,0.0090029999999999,0.7304634999999999,0.71008,-0.043147,1.1313735,0.49055,0.0076699999999999,1.2254035,0.73145,-0.06659,0.6912635,0.94959,-0.111849,1.2495135,0.97065,-0.136301,0.9252665,-0.0020899999999999,0.001905,1.0747335,0.0020899999999999,-0.0019049999999999,0.8502635000000001,-0.31137,-0.1913989999999999,1.1189935,-0.31577,-0.214379,0.8654235,-0.66212,-0.127881,1.1373335,-0.64642,-0.154021
91,0.9854435,0.7000550000000001,0.006399,0.8474765,0.460775,0.0019609999999999,0.7294665,0.710115,-0.051636,1.1305565,0.488575,0.000612,1.2240765,0.732035,-0.074852,0.6897765,0.948665,-0.121816,1.2486365,0.965385,-0.145902,0.9250435,-0.001975,0.0021779999999999,1.0749565,0.001975,-0.002178,0.8479665000000001,-0.298835,-0.203897,1.1182765,-0.303665,-0.226987,0.8650165,-0.649265,-0.134187,1.1361565,-0.6339049999999999,-0.1606759999999999
92,0.9848295,0.701865,-1.6500000000002624e-05,0.8477775000000001,0.461885,-0.0054555,0.7285575,0.710135,-0.0607545,1.1296475,0.4886049999999999,-0.0066875,1.2226375,0.733305,-0.0834615,0.6882075000000001,0.950755,-0.1320595,1.2475075,0.965825,-0.1554135,0.9248705000000002,-0.001835,0.0027154999999999,1.0751294999999998,0.001835,-0.0027155,0.8456175,-0.286505,-0.2163965,1.1175175,-0.290995,-0.2394265,0.8645475,-0.6359250000000001,-0.1406135,1.1349075,-0.620855,-0.1674165
93,0.9846455000000001,0.7018900000000001,-0.008149,0.8481915,0.46264,-0.014447,0.7280314999999999,0.7097800000000001,-0.071414,1.1285415,0.48785,-0.015576,1.2209915,0.7335499999999999,-0.094097,0.6878915000000001,0.95354,-0.144999,1.2464315,0.96923,-0.167454,0.9246555,-0.0017099999999999,0.003109,1.0753445,0.00171,-0.003109,0.8418615,-0.26885,-0.230359,1.1165915,-0.27336,-0.2534389999999999,0.8638315,-0.61687,-0.14686,1.1333915,-0.60381,-0.174355
94,0.984596,0.701885,-0.0165169999999999,0.848627,0.462155,-0.0237709999999999,0.727927,0.709085,-0.0824679999999999,1.127467,0.486075,-0.0246559999999999,1.2197069999999999,0.733585,-0.1054449999999999,0.687637,0.954185,-0.158165,1.244747,0.973435,-0.1809879999999999,0.924371,-0.001615,0.003424,1.075629,0.001615,-0.0034239999999999,0.838097,-0.249905,-0.244696,1.1156069999999998,-0.253965,-0.267826,0.8631670000000001,-0.595335,-0.153661,1.131747,-0.584925,-0.181485
95,0.9845950000000001,0.7012,-0.024888,0.8489550000000001,0.46264,-0.033138,0.727805,0.7090700000000001,-0.093933,1.126225,0.48529,-0.033816,1.218245,0.73333,-0.116907,0.6873750000000001,0.95449,-0.171678,1.242815,0.97736,-0.194988,0.923992,-0.0013999999999999,0.003558,1.076008,0.0014,-0.003558,0.834335,-0.23103,-0.259198,1.114445,-0.2346599999999999,-0.282238,0.862075,-0.57365,-0.161142,1.129635,-0.56575,-0.189055
96,0.9846445,0.701475,-0.0336159999999999,0.8490985,0.4640149999999999,-0.04219,0.7274685000000001,0.709165,-0.105833,1.1250885,0.484215,-0.042935,1.2167885,0.7327250000000001,-0.128654,0.6871985,0.954375,-0.185329,1.2411685000000001,0.981465,-0.209609,0.9236645,-0.001055,0.003721,1.0763355,0.001055,-0.003721,0.8308985,-0.212535,-0.273119,1.1133085,-0.2153949999999999,-0.2964489999999999,0.8612085,-0.5521349999999999,-0.1678839999999999,1.1274285,-0.546875,-0.196048
97,0.9847494999999999,0.70018,-0.043114,0.8491585,0.46363,-0.052258,0.7262985,0.70832,-0.118611,1.1238085,0.48262,-0.053183,1.2149485,0.73378,-0.141216,0.6868084999999999,0.95113,-0.200162,1.2396284999999998,0.98069,-0.224875,0.9233175,-0.0009,0.0038149999999999,1.0766825,0.0009,-0.0038149999999999,0.8276085,-0.19068,-0.287785,1.1120485,-0.19268,-0.311525,0.8606685000000001,-0.52789,-0.17505,1.1250985,-0.52478,-0.203481
98,0.9847525000000001,0.69937,-0.052897,0.8491855,0.4633899999999999,-0.06269,0.7254655,0.70995,-0.132231,1.1225855,0.48073,-0.063735,1.2130355,0.73119,-0.154127,0.6861254999999999,0.95068,-0.2150949999999999,1.2383555,0.97306,-0.240225,0.9229525000000001,-0.00078,0.0039949999999999,1.0770475,0.00078,-0.0039949999999999,0.8246055,-0.16705,-0.302655,1.1107055,-0.16906,-0.326725,0.8602355000000002,-0.5027699999999999,-0.182223,1.1227455,-0.5013700000000001,-0.211067
99,0.9846325,0.69782,-0.0626009999999999,0.8489885,0.46362,-0.072848,0.7243085,0.71098,-0.146172,1.1213885,0.47888,-0.0742029999999999,1.2109385,0.7316100000000001,-0.166998,0.6853885,0.95358,-0.230065,1.2370585,0.96636,-0.256025,0.9225645000000001,-0.0006399999999999,0.0042549999999999,1.0774355,0.00064,-0.0042549999999999,0.8216885,-0.14349,-0.317385,1.1092285,-0.14544,-0.341175,0.8597385,-0.4788,-0.189719,1.1202885,-0.47819,-0.217928
100,0.9849070000000001,0.6944999999999999,-0.067532,0.848855,0.46387,-0.077611,0.723875,0.7085899999999999,-0.154881,1.120755,0.4768699999999999,-0.079462,1.209895,0.72693,-0.175058,0.685345,0.94976,-0.24012,1.236055,0.96074,-0.2660099999999999,0.922279,-0.00023,0.0042099999999999,1.077721,0.0002299999999999,-0.0042099999999999,0.820515,-0.12354,-0.3243,1.108275,-0.12542,-0.34751,0.859885,-0.45864,-0.1924779999999999,1.118415,-0.45938,-0.219439
101,0.985156,0.69038,-0.072666,0.848607,0.46247,-0.082289,0.723527,0.70504,-0.162522,1.120177,0.47379,-0.084515,1.208917,0.7213,-0.182534,0.685237,0.94512,-0.249775,1.234997,0.95498,-0.276845,0.9219539999999999,2.999999999997449e-05,0.003925,1.078046,-2.999999999997449e-05,-0.0039249999999999,0.819667,-0.1033,-0.330315,1.107467,-0.10587,-0.353045,0.860587,-0.4384,-0.193081,1.116777,-0.4405599999999999,-0.220393
102,0.985149,0.6873,-0.0764739999999999,0.848301,0.46083,-0.085704,0.7234510000000001,0.70326,-0.168652,1.119881,0.47163,-0.088004,1.208661,0.71592,-0.187633,0.684841,0.93972,-0.2566049999999999,1.2340309999999999,0.94844,-0.285175,0.921754,0.0001499999999999,0.0039249999999999,1.078246,-0.0001499999999999,-0.0039249999999999,0.819111,-0.08532,-0.334185,1.106941,-0.08804,-0.356565,0.861731,-0.42042,-0.19323,1.115451,-0.42516,-0.220301
103,0.985256,0.684355,-0.080416,0.8481650000000001,0.460202,-0.08926,0.723155,0.700825,-0.174916,1.120035,0.469295,-0.091719,1.207675,0.7124250000000001,-0.192467,0.684445,0.936375,-0.26393,1.232945,0.943145,-0.29336,0.9215,0.000345,0.00384,1.0785,-0.0003449999999999,-0.0038399999999999,0.8185950000000001,-0.0688149999999999,-0.33765,1.106045,-0.073015,-0.3596399999999999,0.8634450000000001,-0.403145,-0.194999,1.112615,-0.409185,-0.217908
104,0.9854935,0.682,-0.084153,0.8480335,0.458805,-0.0926579999999999,0.7231835,0.69742,-0.180652,1.1203135,0.466513,-0.095183,1.2065835,0.70912,-0.196413,0.6841735,0.93272,-0.270715,1.2325835,0.93781,-0.300725,0.9212385,0.00046,0.003835,1.0787615,-0.0004599999999999,-0.003835,0.8182935,-0.0527799999999999,-0.340275,1.1051535,-0.0581899999999999,-0.362145,0.8650735,-0.3869199999999999,-0.197214,1.1100435,-0.39386,-0.216222
105,0.9860105,0.67834,-0.0874489999999999,0.8480375,0.456217,-0.0963149999999999,0.7229975,0.6952100000000001,-0.185807,1.1207475,0.464523,-0.0989419999999999,1.2060475,0.7042900000000001,-0.200006,0.6837575,0.93204,-0.2771949999999999,1.2322275,0.93232,-0.305525,0.9207595000000001,0.00043,0.003805,1.0792404999999998,-0.0004299999999999,-0.0038049999999999,0.8191675,-0.0332499999999999,-0.342865,1.1043375,-0.0397799999999999,-0.364415,0.8674675000000001,-0.3684299999999999,-0.199704,1.1081575,-0.37542,-0.215909
106,0.9863710000000001,0.675675,-0.090085,0.847906,0.455326,-0.099028,0.722836,0.694075,-0.189152,1.121116,0.462673,-0.101553,1.206056,0.697435,-0.202918,0.683716,0.932385,-0.282035,1.231846,0.928985,-0.309385,0.920366,0.0005649999999999,0.0037549999999999,1.079634,-0.0005649999999999,-0.003755,0.8202960000000001,-0.0166449999999999,-0.343905,1.103486,-0.024505,-0.365255,0.871766,-0.3564849999999999,-0.201947,1.106916,-0.3603849999999999,-0.215895
107,0.9868095000000001,0.6723,-0.092719,0.8476825,0.4546989999999999,-0.1014089999999999,0.7230825000000001,0.69323,-0.191796,1.1216925,0.461358,-0.1038019999999999,1.2059125,0.69347,-0.20478,0.6842225,0.93144,-0.28619,1.2318025,0.93017,-0.31288,0.9200875,0.00067,0.00378,1.0799125,-0.00067,-0.0037799999999999,0.8216725,-0.00029,-0.34446,1.1026025,-0.00904,-0.36587,0.8761725,-0.34508,-0.202355,1.1057424999999999,-0.34598,-0.2158399999999999
108,0.9872795,0.6701050000000001,-0.09545,0.8475415,0.454052,-0.103725,0.7233315,0.692415,-0.1945629999999999,1.1223115,0.459705,-0.105945,1.2063914999999998,0.688555,-0.207425,0.6850015,0.930635,-0.28979,1.2320015,0.924795,-0.31579,0.9198185,0.000865,0.0037999999999999,1.0801815,-0.000865,-0.0037999999999999,0.8231215000000001,0.015495,-0.3449,1.1016415,0.005645,-0.36624,0.8792314999999999,-0.332015,-0.2026339999999999,1.1057615,-0.3314449999999999,-0.216811
109,0.987746,0.6679600000000001,-0.097705,0.847397,0.452736,-0.105878,0.7231069999999999,0.69028,-0.197078,1.122877,0.458801,-0.107796,1.206687,0.6863600000000001,-0.209461,0.685937,0.93249,-0.293065,1.232637,0.92027,-0.318905,0.919643,0.00075,0.0037849999999999,1.080357,-0.0007499999999999,-0.003785,0.824567,0.03229,-0.344955,1.100547,0.02115,-0.366315,0.88225,-0.3177599999999999,-0.202081,1.105807,-0.31572,-0.217462
110,0.988274,0.6657150000000001,-0.098933,0.8473450000000001,0.45231,-0.107152,0.723465,0.689855,-0.19871,1.123545,0.458385,-0.1088889999999999,1.207085,0.684665,-0.211235,0.687145,0.933815,-0.295235,1.233415,0.915195,-0.320215,0.919505,0.000725,0.003775,1.080495,-0.0007249999999999,-0.003775,0.825885,0.048375,-0.344635,1.099565,0.0366549999999999,-0.365785,0.8849400000000001,-0.304535,-0.199633,1.1058849999999998,-0.3012049999999999,-0.217324
111,0.9889795,0.6642649999999999,-0.0988339999999999,0.8478145,0.4526319999999999,-0.107259,0.7243845,0.6869649999999999,-0.1982479999999999,1.1241945,0.4572069999999999,-0.1093309999999999,1.2072245,0.683055,-0.2112939999999999,0.6885945,0.934735,-0.295525,1.2343045,0.909065,-0.320515,0.9193755,0.0009049999999999,0.003755,1.0806245,-0.000905,-0.0037549999999999,0.8272145000000001,0.0624449999999999,-0.344215,1.0986345,0.0507249999999999,-0.365155,0.8874895,-0.2930450000000001,-0.198371,1.1064645,-0.2886250000000001,-0.2181239999999999
112,0.9894895,0.663035,-0.0981599999999999,0.8483615,0.453194,-0.1065879999999999,0.7254715,0.6863450000000001,-0.197627,1.1246915,0.457608,-0.1088809999999999,1.2076615,0.6809850000000001,-0.210613,0.6899115,0.936625,-0.2949299999999999,1.2352115,0.901775,-0.32009,0.9192685,0.000975,0.00384,1.0807315,-0.0009749999999999,-0.0038399999999999,0.8282515,0.073515,-0.34335,1.0979314999999998,0.061795,-0.3643699999999999,0.8890565,-0.283145,-0.1966409999999999,1.1077115,-0.2787449999999999,-0.2192019999999999
113,0.9899525,0.6611500000000001,-0.097484,0.8487855,0.453327,-0.105909,0.7265055,0.68544,-0.197004,1.1252455,0.458268,-0.108214,1.2083755,0.6781100000000001,-0.211303,0.6911855,0.938,-0.29433,1.2359955,0.90153,-0.31944,0.9191845,0.00094,0.00392,1.0808155,-0.0009399999999999,-0.00392,0.8293055,0.08382,-0.34236,1.0971454999999999,0.0721,-0.36356,0.8903055,-0.27374,-0.195045,1.1092155,-0.2696399999999999,-0.220542
114,0.9905710000000001,0.66022,-0.096477,0.849273,0.454217,-0.10489,0.7290230000000001,0.68034,-0.1950009999999999,1.125953,0.458151,-0.107215,1.209363,0.68034,-0.211468,0.692693,0.93333,-0.2934049999999999,1.236803,0.89769,-0.318445,0.919251,0.0008899999999999,0.004125,1.080749,-0.00089,-0.004125,0.830313,0.0946599999999999,-0.339525,1.096273,0.0824699999999999,-0.361415,0.89131,-0.26436,-0.1914759999999999,1.112553,-0.26127,-0.223775
115,0.991327,0.660055,-0.0949769999999999,0.849525,0.455441,-0.1036339999999999,0.7314849999999999,0.6757249999999999,-0.191933,1.126675,0.4588989999999999,-0.106177,1.210055,0.685975,-0.2106549999999999,0.6940850000000001,0.930795,-0.29184,1.237925,0.904645,-0.31616,0.919313,0.0008949999999999,0.0043699999999999,1.080687,-0.0008949999999999,-0.0043699999999999,0.831215,0.1056749999999999,-0.33596,1.0955849999999998,0.0933049999999999,-0.35879,0.891781,-0.254915,-0.188211,1.117595,-0.2528250000000001,-0.22998
116,0.9921760000000001,0.6600900000000001,-0.0929339999999999,0.849763,0.456569,-0.102239,0.733853,0.671,-0.1885109999999999,1.127303,0.459579,-0.105169,1.211093,0.69067,-0.209127,0.6951130000000001,0.92898,-0.28972,1.238663,0.91152,-0.3124,0.9194,0.00092,0.0046599999999999,1.0806,-0.00092,-0.0046599999999999,0.8319430000000001,0.11525,-0.33245,1.094953,0.10289,-0.35617,0.891932,-0.24714,-0.187356,1.122423,-0.2460099999999999,-0.23573
117,0.9928200000000001,0.6600000000000001,-0.091663,0.849912,0.4575300000000001,-0.100548,0.735722,0.6663600000000001,-0.184861,1.1278419999999998,0.4611480000000001,-0.1038409999999999,1.211892,0.6952500000000001,-0.207888,0.695952,0.92775,-0.287025,1.239492,0.91791,-0.309245,0.9194680000000001,0.00084,0.004915,1.0805319999999998,-0.0008399999999999,-0.0049149999999999,0.832572,0.1247100000000001,-0.3289149999999999,1.094312,0.1127800000000001,-0.353415,0.892062,-0.2394399999999998,-0.18541,1.126652,-0.2390999999999998,-0.240365
118,0.993465,0.660155,-0.090209,0.850078,0.4584050000000001,-0.09866,0.7376480000000001,0.6641890000000001,-0.180824,1.128368,0.4622350000000001,-0.102395,1.213408,0.6982750000000001,-0.20733,0.696618,0.926695,-0.28391,1.240508,0.9238350000000002,-0.30593,0.919567,0.000805,0.00526,1.080433,-0.0008049999999999,-0.00526,0.8331580000000001,0.1331350000000001,-0.32548,1.0938080000000001,0.1216250000000001,-0.35072,0.8907590000000001,-0.2303149999999999,-0.182058,1.130228,-0.2330749999999999,-0.24367
119,0.994145,0.659863,-0.088145,0.850475,0.4586949999999999,-0.096034,0.739625,0.662121,-0.176466,1.129075,0.4628849999999999,-0.100484,1.214815,0.701635,-0.20672,0.697335,0.925635,-0.280775,1.241525,0.924355,-0.302995,0.919666,0.0005949999999999,0.005495,1.080334,-0.000595,-0.005495,0.833905,0.1416249999999999,-0.321745,1.093385,0.1306949999999999,-0.347695,0.889436,-0.221075,-0.179362,1.133835,-0.226955,-0.246505
120,0.9949075000000001,0.659554,-0.085618,0.8509234999999999,0.45896,-0.09325,0.7414535,0.661621,-0.1726349999999999,1.1297535,0.46398,-0.098339,1.2162134999999998,0.70584,-0.205927,0.6980135000000001,0.92488,-0.27764,1.2424935,0.93064,-0.30035,0.9197615,0.00031,0.00575,1.0802385,-0.00031,-0.0057499999999999,0.8346735000000001,0.1503499999999999,-0.31781,1.0929035,0.13792,-0.34614,0.8888935,-0.21333,-0.176836,1.1357935,-0.22067,-0.2457899999999999
121,0.995582,0.6593169999999999,-0.083115,0.851422,0.4592449999999999,-0.090473,0.742822,0.660123,-0.169033,1.1303320000000001,0.4644549999999999,-0.096164,1.217532,0.709075,-0.2046879999999999,0.698602,0.923505,-0.27471,1.243532,0.935645,-0.2977999999999999,0.919838,0.000155,0.00595,1.080162,-0.000155,-0.0059499999999999,0.835352,0.1580749999999999,-0.3142,1.0924919999999998,0.1442549999999999,-0.34475,0.888217,-0.206585,-0.174543,1.137712,-0.215525,-0.24514
122,0.9963175000000001,0.659341,-0.0806699999999999,0.8521045,0.459705,-0.087699,0.7441545,0.659085,-0.16535,1.1308845,0.465215,-0.094022,1.2184945,0.714255,-0.203974,0.6991845,0.922405,-0.27156,1.2452444999999999,0.940345,-0.2953,0.9199095,1.4999999999987246e-05,0.0061699999999999,1.0800905,-1.4999999999987246e-05,-0.0061699999999999,0.8359645,0.165505,-0.31051,1.0922945,0.1505449999999999,-0.3436,0.8875335,-0.1996449999999999,-0.172404,1.1391245,-0.210385,-0.24447
123,0.9965905,0.659052,-0.079456,0.8522505,0.45985,-0.086132,0.7441605,0.661172,-0.164462,1.1311205,0.46567,-0.092803,1.2192605,0.7146,-0.202807,0.6992105,0.92468,-0.27031,1.2468605,0.94181,-0.29318,0.9199755000000001,-0.00014,0.0061699999999999,1.0800245,0.00014,-0.0061699999999999,0.8364005,0.16908,-0.3086,1.0921005,0.15182,-0.34329,0.8869335,-0.1968299999999999,-0.172145,1.1391905,-0.2128099999999999,-0.24427
124,0.9966955,0.6587979999999999,-0.078365,0.8523125,0.4596749999999999,-0.084675,0.7441625000000001,0.662809,-0.163618,1.1313125,0.4656449999999999,-0.091543,1.2198525,0.7141949999999999,-0.201661,0.6992425,0.926525,-0.269135,1.2484624999999998,0.9432049999999998,-0.291185,0.9200365000000001,-0.000315,0.006135,1.0799634999999999,0.0003149999999999,-0.006135,0.8368225,0.1722749999999999,-0.3068849999999999,1.0919025,0.1525249999999999,-0.343045,0.8862975,-0.194405,-0.171917,1.1392225,-0.2154250000000001,-0.243965
125,0.9967190000000001,0.658642,-0.077203,0.852363,0.459545,-0.083239,0.744143,0.6646259999999999,-0.162893,1.131373,0.4656049999999999,-0.090331,1.220003,0.7138749999999999,-0.200538,0.6992430000000001,0.928455,-0.26826,1.249803,0.944575,-0.29095,0.920102,-0.000495,0.0060899999999999,1.079898,0.000495,-0.0060899999999999,0.837173,0.1756749999999999,-0.30494,1.091593,0.1523649999999999,-0.34285,0.88588,-0.192485,-0.171567,1.139243,-0.2182049999999999,-0.24283
126,0.9966425000000001,0.658264,-0.076093,0.8523195,0.4593199999999999,-0.081847,0.7435195,0.666485,-0.162171,1.1313095,0.46523,-0.089087,1.2198995,0.7164499999999999,-0.2004619999999999,0.6990795000000001,0.93034,-0.26773,1.2507895,0.94634,-0.29081,0.9201645,-0.0007099999999999,0.00606,1.0798355,0.0007099999999999,-0.0060599999999999,0.8372795,0.1788599999999999,-0.30298,1.0911994999999999,0.1517199999999999,-0.34294,0.8849475,-0.18938,-0.170062,1.1392695,-0.22098,-0.24059
127,0.9965335,0.658263,-0.075284,0.8522385,0.459155,-0.080701,0.7428585,0.668245,-0.161586,1.1312285,0.465465,-0.087967,1.2198685,0.719195,-0.200669,0.6987885,0.932135,-0.26742,1.2515584999999998,0.948015,-0.29076,0.9202195,-0.000935,0.0060299999999999,1.0797805,0.000935,-0.00603,0.8373885,0.181925,-0.30103,1.0908985,0.155285,-0.34167,0.8846215,-0.1869149999999999,-0.168607,1.1389385,-0.218465,-0.2398799999999999
128,0.9963245000000001,0.658165,-0.074899,0.8520295,0.459385,-0.080413,0.7421395,0.669123,-0.161315,1.1310995,0.465635,-0.087458,1.2196595000000001,0.719125,-0.200424,0.6984794999999999,0.933075,-0.267385,1.2522795,0.942575,-0.290835,0.9202805000000001,-0.0010149999999999,0.006025,1.0797195,0.0010149999999999,-0.006025,0.8373995000000001,0.183845,-0.299675,1.0903895,0.153265,-0.342215,0.8843225,-0.1854549999999999,-0.16761,1.1386395,-0.2219749999999999,-0.238495
129,0.9959470000000001,0.658159,-0.07486,0.851793,0.459565,-0.0803869999999999,0.7413730000000001,0.669517,-0.16124,1.1309230000000001,0.465735,-0.087294,1.219443,0.718935,-0.200398,0.698183,0.933465,-0.267355,1.252963,0.943125,-0.290885,0.92031,-0.0011249999999999,0.006025,1.07969,0.001125,-0.0060249999999999,0.837333,0.185175,-0.2984949999999999,1.089923,0.150345,-0.343025,0.884315,-0.1860649999999999,-0.16404,1.138303,-0.2262149999999999,-0.236875
130,0.9955785000000001,0.658143,-0.074795,0.8515515000000001,0.459685,-0.080334,0.7406515,0.669813,-0.161143,1.1307615,0.465535,-0.087248,1.2192015,0.718655,-0.200345,0.6979015,0.933745,-0.2673,1.2533615,0.937255,-0.2912099999999999,0.9203175,-0.0011849999999999,0.0060599999999999,1.0796825,0.0011849999999999,-0.00606,0.8373215,0.186075,-0.29758,1.0898315,0.148875,-0.3428299999999999,0.8844515,-0.1869149999999999,-0.160866,1.1382115,-0.2284649999999999,-0.23615
131,0.9950905,0.657901,-0.074752,0.8511675000000001,0.45964,-0.080301,0.7398675,0.669992,-0.161073,1.1303174999999999,0.46528,-0.087209,1.2190375,0.71822,-0.200332,0.6975075,0.93388,-0.26732,1.2530875,0.93765,-0.29155,0.9203475,-0.0012499999999999,0.0060999999999999,1.0796525,0.0012499999999999,-0.0060999999999999,0.8371875,0.18678,-0.29691,1.0894375,0.14783,-0.3427,0.8844705,-0.1879699999999999,-0.1579809999999999,1.1379675,-0.2297599999999999,-0.23613
132,0.9944035,0.657768,-0.0748949999999999,0.8507835,0.45968,-0.080534,0.7388835,0.670079,-0.161354,1.1298335,0.46524,-0.087228,1.2187535,0.71804,-0.200772,0.6969035,0.93379,-0.26812,1.2527235,0.93777,-0.29289,0.9203605,-0.00131,0.00615,1.0796395,0.00131,-0.00615,0.8370635,0.18751,-0.2964,1.0891435,0.1469099999999999,-0.34268,0.8843875000000001,-0.18913,-0.156577,1.1377234999999999,-0.23056,-0.23617
133,0.9933565,0.6579820000000001,-0.0752449999999999,0.8500375,0.459695,-0.080956,0.7375175,0.669625,-0.1617799999999999,1.1289574999999998,0.464885,-0.087349,1.2182275,0.717385,-0.2013809999999999,0.6957475,0.933155,-0.26914,1.2520075,0.937195,-0.29434,0.9203425,-0.001325,0.0062,1.0796575,0.001325,-0.0061999999999999,0.8365975,0.187715,-0.29635,1.0885675,0.147895,-0.34279,0.8843115,-0.1910149999999999,-0.155779,1.1374675,-0.2295749999999999,-0.23625
134,0.9922110000000001,0.6583950000000001,-0.076012,0.84935,0.45965,-0.081644,0.7361,0.6700400000000001,-0.1625909999999999,1.12819,0.46493,-0.087813,1.2176799999999999,0.7170200000000001,-0.202281,0.6944699999999999,0.93357,-0.270385,1.25114,0.93598,-0.296255,0.92031,-0.0012899999999999,0.0062649999999999,1.07969,0.00129,-0.006265,0.8361600000000001,0.18708,-0.296425,1.0881,0.14831,-0.343085,0.884324,-0.1935999999999998,-0.155882,1.1373,-0.2291599999999999,-0.236835
135,0.991064,0.6583950000000001,-0.076834,0.848716,0.45965,-0.082301,0.734826,0.6700400000000001,-0.163515,1.127546,0.46493,-0.088289,1.217076,0.71689,-0.203157,0.693216,0.93357,-0.271695,1.250316,0.93453,-0.298355,0.920254,-0.0012899999999999,0.0063749999999999,1.079746,0.00129,-0.006375,0.835786,0.18586,-0.296505,1.0876359999999998,0.15019,-0.342325,0.884879,-0.1968999999999999,-0.154587,1.137256,-0.2260499999999999,-0.238775
136,0.9898125,0.6583950000000001,-0.078064,0.8480595,0.45965,-0.083121,0.7335195,0.670135,-0.164605,1.1268995,0.46493,-0.0890769999999999,1.2164095,0.71689,-0.204476,0.6918394999999999,0.93371,-0.273235,1.2496395,0.93453,-0.300095,0.9202605,-0.0012899999999999,0.006465,1.0797395,0.00129,-0.0064649999999999,0.8352495,0.18455,-0.296575,1.0870795,0.15169,-0.3424049999999999,0.8846715,-0.1970599999999999,-0.153933,1.1362995,-0.2224799999999999,-0.239985
137,0.9885070000000001,0.6583950000000001,-0.079731,0.847378,0.45965,-0.0841089999999999,0.7303580000000001,0.6728290000000001,-0.167544,1.126078,0.4649400000000001,-0.0899939999999999,1.215718,0.71689,-0.2045469999999999,0.690048,0.93456,-0.275755,1.2489279999999998,0.93453,-0.302115,0.920262,-0.0012899999999999,0.006555,1.079738,0.00129,-0.0065549999999999,0.8345279999999999,0.1827100000000001,-0.297195,1.086488,0.152,-0.342485,0.8850540000000001,-0.1978199999999998,-0.154103,1.135378,-0.2185099999999999,-0.240035
138,0.987291,0.658884,-0.081465,0.846708,0.4593899999999999,-0.085148,0.727188,0.6752859999999999,-0.170903,1.1253980000000001,0.46503,-0.091041,1.215398,0.71662,-0.205034,0.688248,0.93523,-0.278375,1.248218,0.93406,-0.304265,0.920262,-0.00117,0.006635,1.079738,0.00117,-0.006635,0.834008,0.1804299999999999,-0.298475,1.086048,0.15192,-0.342825,0.884464,-0.1982899999999999,-0.154213,1.134478,-0.2133,-0.240115
139,0.986011,0.660977,-0.083288,0.84604,0.458295,-0.0861229999999999,0.72468,0.677192,-0.174449,1.12465,0.4644150000000001,-0.092096,1.21476,0.7156750000000001,-0.2051589999999999,0.68657,0.936995,-0.281715,1.2476,0.930895,-0.306425,0.92027,-0.0010149999999999,0.006675,1.07973,0.001015,-0.006675,0.83308,0.175235,-0.301255,1.08573,0.150895,-0.343325,0.883856,-0.2015149999999999,-0.1545619999999999,1.1334,-0.2106149999999998,-0.2401849999999999
140,0.984606,0.6618519999999999,-0.0855239999999999,0.845241,0.4568099999999999,-0.088363,0.722431,0.6776369999999999,-0.178771,1.123651,0.4637999999999999,-0.0940319999999999,1.214491,0.70678,-0.2057379999999999,0.685191,0.93543,-0.28675,1.247511,0.9255799999999998,-0.3084599999999999,0.920229,-0.00092,0.00657,1.079771,0.0009199999999999,-0.0065699999999999,0.831961,0.1582399999999999,-0.3057999999999999,1.0857709999999998,0.1377599999999999,-0.34481,0.882098,-0.2155100000000001,-0.158621,1.129331,-0.22022,-0.23743
141,0.983405,0.663708,-0.087291,0.844552,0.4561449999999999,-0.089876,0.7199720000000001,0.678815,-0.182631,1.122892,0.464265,-0.095446,1.214302,0.7052849999999999,-0.20582,0.684152,0.934045,-0.29097,1.247992,0.927275,-0.30959,0.920268,-0.000855,0.0064699999999999,1.079732,0.0008549999999999,-0.00647,0.830552,0.1404049999999999,-0.3101,1.085962,0.1232549999999999,-0.34579,0.88072,-0.232415,-0.160981,1.125532,-0.232755,-0.23479
142,0.9825625,0.665965,-0.088458,0.8441715,0.4555930000000001,-0.0913529999999999,0.7188315000000001,0.6816650000000001,-0.185802,1.1225014999999998,0.4639160000000001,-0.0962099999999999,1.2138214999999999,0.7003450000000001,-0.205629,0.6834215,0.935515,-0.29507,1.2488514999999998,0.925355,-0.31033,0.9203485,-0.0006849999999999,0.00647,1.0796515,0.000685,-0.0064699999999999,0.8289515000000001,0.116865,-0.31377,1.0865715,0.099715,-0.3477099999999999,0.8775375,-0.2504049999999999,-0.165548,1.1224115000000001,-0.2539549999999999,-0.23084
143,0.9819310000000001,0.66972,-0.089294,0.8438680000000001,0.453752,-0.092744,0.717238,0.68329,-0.188865,1.122278,0.464545,-0.096678,1.213408,0.6999500000000001,-0.205155,0.682688,0.93662,-0.299465,1.2490379999999999,0.92135,-0.310265,0.920532,-0.0008099999999999,0.0064449999999999,1.079468,0.0008099999999999,-0.006445,0.827338,0.0889099999999999,-0.3169349999999999,1.087288,0.07416,-0.348135,0.8744320000000001,-0.2721899999999999,-0.169858,1.119468,-0.2761399999999999,-0.227655
144,0.9813970000000001,0.67343,-0.089392,0.843596,0.454501,-0.093534,0.7159260000000001,0.68697,-0.190984,1.122266,0.466399,-0.096804,1.2136559999999998,0.69708,-0.203019,0.682056,0.93566,-0.30339,1.250116,0.92302,-0.31102,0.9208040000000001,-0.00075,0.00636,1.0791959999999998,0.0007499999999999,-0.00636,0.825806,0.0580299999999999,-0.31978,1.087976,0.0450499999999999,-0.34781,0.871336,-0.29671,-0.172932,1.1163059999999998,-0.30133,-0.2245599999999999
145,0.9811155,0.677905,-0.088761,0.8433795,0.4532299999999999,-0.093549,0.7148695,0.6899249999999999,-0.191611,1.1223094999999998,0.468869,-0.096467,1.2135695,0.692755,-0.200458,0.6820495,0.938125,-0.30573,1.2509195,0.922715,-0.31049,0.9209905,-0.001005,0.0060599999999999,1.0790095,0.0010049999999999,-0.00606,0.8242195,0.0234449999999999,-0.32144,1.0881494999999999,0.0126449999999999,-0.3479,0.8678595,-0.324605,-0.175096,1.1124995,-0.330025,-0.22021
146,0.9810020000000002,0.6822950000000001,-0.0873009999999999,0.843236,0.452912,-0.0924579999999999,0.714156,0.6893750000000001,-0.190436,1.122496,0.471533,-0.0953359999999999,1.213396,0.687045,-0.1966669999999999,0.682296,0.938455,-0.3058999999999999,1.252396,0.922385,-0.3090199999999999,0.921224,-0.0011349999999999,0.00585,1.078776,0.0011349999999999,-0.0058499999999999,0.822936,-0.0128949999999999,-0.32159,1.088676,-0.021955,-0.3470999999999999,0.864506,-0.3548349999999999,-0.1760129999999999,1.108916,-0.361235,-0.2141199999999999
147,0.980831,0.6867650000000001,-0.0856379999999999,0.843065,0.4533359999999999,-0.0911289999999999,0.7137549999999999,0.689545,-0.1887519999999999,1.122505,0.473939,-0.0939869999999999,1.213915,0.685255,-0.19313,0.682555,0.939035,-0.30496,1.253895,0.925475,-0.30679,0.921515,-0.0012949999999999,0.00556,1.078485,0.0012949999999999,-0.0055599999999999,0.821705,-0.0490849999999999,-0.32105,1.089165,-0.057035,-0.34572,0.860855,-0.385235,-0.176449,1.105335,-0.393095,-0.2071299999999999
148,0.980887,0.69075,-0.082838,0.843073,0.45568,-0.088405,0.713123,0.6902699999999999,-0.185969,1.1225729999999998,0.47656,-0.09139,1.2147329999999998,0.68145,-0.187629,0.682993,0.93852,-0.30228,1.255453,0.92716,-0.30289,0.9218570000000001,-0.00135,0.00536,1.0781429999999999,0.0013499999999999,-0.0053599999999999,0.820913,-0.08512,-0.31825,1.0894929999999998,-0.09247,-0.34302,0.857503,-0.41911,-0.174426,1.102623,-0.42763,-0.199597
149,0.9813880000000001,0.6959500000000001,-0.079045,0.843375,0.45857,-0.085244,0.7137450000000001,0.69455,-0.181892,1.122985,0.47909,-0.088341,1.2147949999999998,0.68786,-0.182413,0.683845,0.94106,-0.29917,1.256905,0.93219,-0.29815,0.921965,-0.0012999999999999,0.0050999999999999,1.078035,0.0013,-0.0051,0.820885,-0.1099099999999999,-0.31506,1.089985,-0.1165199999999999,-0.33988,0.855075,-0.4429499999999999,-0.172027,1.1028850000000001,-0.45216,-0.196071
150,0.9818950000000001,0.700875,-0.07461,0.8436560000000001,0.460035,-0.0815869999999999,0.714446,0.6975150000000001,-0.177066,1.1233360000000001,0.480545,-0.08469,1.214726,0.691235,-0.175925,0.6846760000000001,0.944375,-0.295558,1.2579259999999999,0.931905,-0.292748,0.922094,-0.0012349999999999,0.004802,1.077906,0.001235,-0.004802,0.821126,-0.1344649999999999,-0.311398,1.090476,-0.139675,-0.336238,0.8538060000000001,-0.466905,-0.169453,1.103166,-0.4766849999999999,-0.191824
151,0.9827060000000001,0.704785,-0.068283,0.843788,0.462415,-0.076576,0.715258,0.7003250000000001,-0.170974,1.123628,0.482615,-0.079699,1.214698,0.695615,-0.1673649999999999,0.685378,0.947755,-0.289616,1.2590080000000001,0.936565,-0.285666,0.922302,-0.001255,0.0044739999999999,1.077698,0.001255,-0.004474,0.821808,-0.1545949999999999,-0.305586,1.091208,-0.158455,-0.329886,0.853628,-0.491735,-0.164866,1.103628,-0.499825,-0.18629
152,0.9841985,0.708105,-0.0595169999999999,0.8443335,0.467685,-0.0686069999999999,0.7171135,0.7045250000000001,-0.1598899999999999,1.1249035,0.483625,-0.0722959999999999,1.2163235000000001,0.691495,-0.157708,0.6871235,0.952095,-0.278674,1.2609435,0.938665,-0.2730439999999999,0.9229565,-0.0008249999999999,0.004088,1.0770435,0.000825,-0.0040879999999999,0.8236034999999999,-0.175155,-0.294114,1.0928135,-0.1769449999999999,-0.318874,0.8541935,-0.518925,-0.158127,1.1050835,-0.524425,-0.179537
153,0.9856830000000001,0.71193,-0.0505065,0.844916,0.46959,-0.0605875,0.719446,0.70605,-0.1486015,1.125856,0.48569,-0.0649215,1.217626,0.69029,-0.1461105,0.6889959999999999,0.95829,-0.2663005,1.263226,0.93787,-0.2593904999999999,0.923665,-0.00076,0.0038305,1.076335,0.0007599999999999,-0.0038305,0.825276,-0.19379,-0.2818805,1.094316,-0.19439,-0.3072905,0.8554660000000001,-0.5445300000000001,-0.1522015,1.106556,-0.54773,-0.1733295
154,0.9870515,0.71466,-0.042378,0.8453945,0.47324,-0.053292,0.7207745,0.70872,-0.137422,1.1269745,0.48682,-0.0583469999999999,1.2193145,0.69054,-0.135568,0.6907845,0.96138,-0.253517,1.2651845,0.93899,-0.246437,0.9243955000000001,-0.0005,0.0037689999999999,1.0756044999999999,0.0005,-0.0037689999999999,0.8275545,-0.21003,-0.269727,1.0959345,-0.21027,-0.295837,0.8560245,-0.5672,-0.145597,1.1080045,-0.56931,-0.166932
155,0.9887955,0.71716,-0.0345905,0.8460215,0.47596,-0.0464485,0.7220215000000001,0.71108,-0.1265975,1.1290514999999999,0.48673,-0.0519785,1.2210515,0.69188,-0.1261654999999999,0.6922915000000001,0.96454,-0.2407615,1.2679115,0.94043,-0.2334915,0.9251985,-0.0002699999999999,0.0035624999999999,1.0748015,0.00027,-0.0035624999999999,0.8302915,-0.22945,-0.2574115,1.0977415,-0.2298,-0.2841215,0.8571715,-0.59123,-0.1383625,1.1096515,-0.59284,-0.1603785
156,0.990457,0.721985,-0.0268664999999999,0.846708,0.477255,-0.0395574999999999,0.723718,0.714535,-0.1156455,1.1309779999999998,0.486765,-0.0452105,1.2228979999999998,0.695635,-0.1166184999999999,0.693378,0.968505,-0.2276935,1.2706979999999999,0.944845,-0.2206535,0.925887,-0.000335,0.0035835,1.074113,0.000335,-0.0035834999999999,0.833208,-0.248765,-0.2440935,1.099808,-0.249165,-0.2703935,0.858148,-0.6148250000000001,-0.1311525,1.111408,-0.616225,-0.1529705
157,0.99256,0.723615,-0.015106,0.847739,0.478045,-0.028696,0.7251190000000001,0.7172550000000001,-0.100956,1.133389,0.486125,-0.034305,1.225909,0.698415,-0.103207,0.694499,0.969325,-0.210837,1.274009,0.948745,-0.204147,0.926476,-0.0003449999999999,0.003193,1.073524,0.0003449999999999,-0.003193,0.836719,-0.269465,-0.225457,1.102349,-0.268895,-0.251887,0.859449,-0.638305,-0.1193009999999999,1.113569,-0.639705,-0.141434
158,0.994458,0.7248209999999999,-0.0034949999999999,0.8486819999999999,0.477951,-0.017802,0.726452,0.717231,-0.086432,1.135422,0.488521,-0.023341,1.228592,0.7011109999999999,-0.089783,0.695262,0.971881,-0.1932809999999999,1.277002,0.950451,-0.187811,0.927025,-0.00035,0.0027169999999999,1.072975,0.00035,-0.0027169999999999,0.840972,-0.290239,-0.202691,1.104542,-0.288689,-0.230101,0.860652,-0.6613490000000001,-0.107445,1.115782,-0.662749,-0.129089
159,0.9961955,0.726118,0.007921,0.8495075,0.478418,-0.0070519999999999,0.7277575000000001,0.718688,-0.072329,1.1372574999999998,0.490058,-0.0126279999999999,1.2306275,0.698978,-0.077165,0.6958675000000001,0.973878,-0.176097,1.2796475,0.950378,-0.171177,0.9274915,-0.000306,0.002104,1.0725085,0.000306,-0.0021039999999999,0.8452775000000001,-0.311822,-0.179587,1.1067375,-0.308832,-0.208237,0.8618975,-0.684842,-0.095752,1.1180375,-0.685592,-0.116817
160,0.9974400000000001,0.727799,0.0177155,0.8503740000000001,0.477479,0.0024705,0.728754,0.718739,-0.0599295,1.139094,0.491209,-0.0031004999999999,1.233314,0.6998190000000001,-0.0667385,0.6961940000000001,0.973219,-0.1607025,1.282514,0.949019,-0.1563325,0.927914,-0.000341,0.0015415,1.072086,0.000341,-0.0015415,0.849294,-0.331111,-0.1575125,1.108644,-0.325801,-0.1870325,0.862894,-0.7046709999999999,-0.0852395,1.120044,-0.7043309999999999,-0.1056535
161,0.9980030000000001,0.7286725000000001,0.0258575,0.8507920000000001,0.4757424999999999,0.0103205,0.729452,0.7193925,-0.0504555,1.1401620000000001,0.4932025,0.0050275,1.235372,0.7040425,-0.0585865,0.6959919999999999,0.9723825,-0.1483075,1.284322,0.9562325,-0.1457875,0.927998,-0.0006204999999999,0.0010844999999999,1.072002,0.0006204999999999,-0.0010845,0.852492,-0.3446675,-0.1386975,1.109802,-0.3374475,-0.1685775,0.863592,-0.7190175,-0.0763325,1.121482,-0.7180375,-0.0961095
162,0.9984605000000001,0.729044,0.033772,0.8509755,0.475214,0.017935,0.7299855,0.7210340000000001,-0.041649,1.1411855,0.493204,0.0128899999999999,1.2365855,0.707704,-0.050678,0.6956655,0.972244,-0.137373,1.2859955,0.960524,-0.135533,0.9280125,-0.000856,0.0005979999999999,1.0719875,0.0008559999999999,-0.000598,0.8556055000000001,-0.356886,-0.1198029999999999,1.1109155,-0.346596,-0.150463,0.8641655,-0.731866,-0.067589,1.1228155,-0.729706,-0.086878
163,0.998895,0.729308,0.0416035,0.85112,0.474568,0.0252155,0.73049,0.722328,-0.0330485,1.1422899999999998,0.494208,0.0205805,1.23776,0.711338,-0.0429005,0.69556,0.971978,-0.1264885,1.2873199999999998,0.964838,-0.1254185,0.927992,-0.001084,3.500000000000031e-06,1.072008,0.001084,-3.500000000000031e-06,0.85869,-0.368232,-0.1005785,1.11209,-0.355842,-0.1324885,0.86461,-0.744652,-0.0594905,1.12416,-0.741172,-0.0777175
164,0.9990155,0.72979,0.049027,0.8509195,0.474,0.032388,0.7305395,0.72394,-0.024693,1.1433895,0.49538,0.02821,1.2395595,0.7178300000000001,-0.035314,0.6949095000000001,0.97141,-0.11571,1.2887895,0.96966,-0.11567,0.9278245,-0.0015299999999999,-0.000462,1.0721755,0.00153,0.0004619999999999,0.8620395,-0.38165,-0.079222,1.1134594999999998,-0.36656,-0.11223,0.8649995,-0.7571599999999999,-0.050348,1.1253795,-0.7537499999999999,-0.068062
165,0.9992595,0.727959,0.0560515,0.8506885000000001,0.4741689999999999,0.0392035,0.7304785,0.7239289999999999,-0.0168175,1.1444185,0.496699,0.0353145,1.2407185,0.716129,-0.0279444999999999,0.6945985,0.964789,-0.1053195,1.2902185,0.968409,-0.1062595,0.9275625,-0.0017169999999999,-0.0011094999999999,1.0724375,0.0017169999999999,0.0011094999999999,0.8655385,-0.396051,-0.0581854999999999,1.1150085,-0.377341,-0.0934494999999999,0.8654785,-0.769771,-0.0411525,1.1268585,-0.7662610000000001,-0.0572655
166,0.9989525,0.7282550000000001,0.057984,0.8502095000000001,0.4736849999999999,0.041311,0.7302995,0.7245950000000001,-0.014227,1.1447295,0.4990349999999999,0.037249,1.2412695,0.7180650000000001,-0.025906,0.6938694999999999,0.961885,-0.100506,1.2909695,0.970375,-0.101976,0.9273355000000001,-0.0021289999999999,-0.001371,1.0726645,0.002129,0.001371,0.8683295,-0.406675,-0.043492,1.1163694999999998,-0.384955,-0.080824,0.8656695,-0.7792549999999999,-0.037242,1.1277994999999998,-0.775195,-0.051667
167,0.998538,0.72899,0.059522,0.8496900000000001,0.4740899999999999,0.04303,0.73001,0.72604,-0.012043,1.14504,0.4984099999999999,0.038862,1.24162,0.7179200000000001,-0.024267,0.69294,0.9575,-0.096094,1.29154,0.97332,-0.098034,0.9271580000000001,-0.0025719999999999,-0.0014669999999999,1.0728419999999999,0.002572,0.0014669999999999,0.87009,-0.41247,-0.033194,1.11742,-0.39073,-0.071286,0.8657,-0.7843500000000001,-0.034814,1.1286100000000001,-0.78075,-0.046801
168,0.9982085,0.728896,0.060671,0.8492425,0.4745859999999999,0.044407,0.7296625,0.7266859999999999,-0.010431,1.1452725,0.4986359999999999,0.040195,1.2419025,0.718376,-0.0228859999999999,0.6918325000000001,0.956916,-0.0916879999999999,1.2916425,0.972176,-0.0949079999999999,0.9270535,-0.0030379999999999,-0.0013839999999999,1.0729465,0.003038,0.001384,0.8717325000000001,-0.416974,-0.023103,1.1183925,-0.395074,-0.061841,0.8657125,-0.788334,-0.032635,1.1294125,-0.784694,-0.042051
169,0.997728,0.72854,0.061658,0.848629,0.47523,0.045629,0.729179,0.72743,-0.008093,1.145389,0.49893,0.04135,1.242099,0.7179800000000001,-0.021815,0.6906289999999999,0.95555,-0.087123,1.2919589999999999,0.97435,-0.091513,0.926866,-0.0034789999999999,-0.001246,1.073134,0.003479,0.0012459999999999,0.873089,-0.42096,-0.013409,1.119419,-0.39862,-0.052608,0.865759,-0.79202,-0.03058,1.130109,-0.7886899999999999,-0.037926
170,0.9972425,0.728302,0.0623895,0.8481925000000001,0.475152,0.0467685,0.7286725000000001,0.727342,-0.0058255,1.1450524999999998,0.498522,0.0421555,1.2419525,0.717892,-0.0202255,0.6893825,0.955642,-0.0824415,1.2921125,0.975022,-0.0888515,0.9267155,-0.003821,-0.0010394999999999,1.0732845,0.0038209999999999,0.0010394999999999,0.8743525,-0.423828,-0.0041785,1.1209725,-0.399118,-0.0442534999999999,0.8654425,-0.794768,-0.0292575,1.1308225,-0.790778,-0.0335325
171,0.9967605,0.727986,0.062962,0.8478985,0.4747959999999999,0.047813,0.7282285,0.727056,-0.0036199999999999,1.1447485,0.497986,0.042786,1.2421785,0.719346,-0.019274,0.6881185000000001,0.956846,-0.077913,1.2922485,0.974146,-0.086733,0.9265775,-0.0040369999999999,-0.000878,1.0734225,0.0040369999999999,0.000878,0.8754885,-0.426554,0.003831,1.1224885,-0.399334,-0.0366999999999999,0.8652085,-0.796674,-0.027197,1.1314885000000001,-0.7922239999999999,-0.0296569999999999
172,0.9962320000000001,0.7276954999999999,0.063439,0.847562,0.4747755,0.048817,0.727742,0.7270555,-0.001444,1.144422,0.4971555,0.043329,1.242362,0.7213155,-0.0184779999999999,0.6867620000000001,0.9593655,-0.073684,1.292342,0.9744655,-0.0848049999999999,0.926493,-0.0042024999999999,-0.000614,1.073507,0.0042025,0.000614,0.876402,-0.4277345,0.010552,1.124042,-0.3991645,-0.029859,0.865062,-0.7974945,-0.025427,1.1321620000000001,-0.7923045,-0.025663
173,0.9957410000000001,0.7275849999999999,0.063451,0.8472310000000001,0.474835,0.049556,0.727221,0.727055,0.000883,1.144081,0.4970449999999999,0.043535,1.242601,0.7227549999999999,-0.018224,0.6856610000000001,0.961755,-0.070213,1.2924609999999999,0.974955,-0.083469,0.926439,-0.0042449999999999,-0.000414,1.073561,0.004245,0.000414,0.876651,-0.427875,0.013796,1.125411,-0.398275,-0.02637,0.864901,-0.797605,-0.024197,1.132751,-0.7917350000000001,-0.022297
174,0.9952635000000001,0.7274379999999999,0.063334,0.8469635,0.474928,0.050153,0.7267435,0.726908,0.003106,1.1438035,0.496908,0.043659,1.2427435,0.723298,-0.0181049999999999,0.6845235000000001,0.958708,-0.06692,1.2925235,0.975208,-0.08284,0.9264405,-0.004277,-0.000191,1.0735595,0.0042769999999999,0.000191,0.8768335,-0.427852,0.015689,1.1266734999999999,-0.398232,-0.023999,0.8648235,-0.797682,-0.023187,1.1332535,-0.791192,-0.0202709999999999
175,0.9947215,0.7274379999999999,0.0631569999999999,0.8466645000000002,0.4751379999999999,0.050809,0.7261845,0.726908,0.0053059999999999,1.1435145,0.496908,0.0438,1.2432745,0.723298,-0.017889,0.6831745,0.954548,-0.063696,1.2925745,0.975208,-0.082453,0.9264485000000001,-0.004277,5.9000000000000025e-05,1.0735515,0.0042769999999999,-5.9000000000000025e-05,0.8769145,-0.427622,0.016377,1.1277945,-0.398232,-0.0219439999999999,0.8647644999999999,-0.797902,-0.022406,1.1335845,-0.791192,-0.0195849999999999
176,0.994114,0.7271255,0.0629165,0.846295,0.4758354999999999,0.0514605,0.7255750000000001,0.7268455,0.0073644999999999,1.143155,0.4965855,0.0438905,1.2433049999999999,0.7213655,-0.0175185,0.682045,0.9498555,-0.0614115,1.2925550000000001,0.9740355,-0.0820154999999999,0.926468,-0.0043134999999999,0.0002725,1.073532,0.0043134999999999,-0.0002724999999999,0.876835,-0.4273945,0.0168245,1.128515,-0.3978045,-0.0207035,0.864675,-0.7976445,-0.0217925,1.133845,-0.7907645,-0.0191674999999999
177,0.9931075,0.7267115,0.06226,0.8456715,0.4757915,0.052109,0.7239915,0.7262815,0.009746,1.1427015,0.4963715,0.043844,1.2434815,0.7206014999999999,-0.0177109999999999,0.6799014999999999,0.9452815,-0.0597279999999999,1.2925315,0.9700215,-0.081408,0.9264455,-0.0043435,0.000486,1.0735545,0.0043435,-0.000486,0.8766915,-0.4268685,0.017444,1.1286114999999999,-0.3971085,-0.020106,0.8646915,-0.7973984999999999,-0.0211869999999999,1.1341915,-0.7904385,-0.018593
178,0.9918655,0.7259494999999999,0.0609815,0.8444415000000001,0.4752595,0.0530655,0.7196315,0.7225794999999999,0.0120725,1.1425315,0.4962295,0.0437255,1.2444915,0.7187195,-0.0183424999999999,0.6775915,0.9395395,-0.0581364999999999,1.2911315,0.9625695,-0.0830695,0.9264625,-0.0043494999999999,0.0007824999999999,1.0735375,0.0043495,-0.0007824999999999,0.8768115,-0.4269405,0.0183135,1.1290615,-0.3969405,-0.0192675,0.8650915,-0.7976905000000001,-0.0203445,1.1347715,-0.7910005,-0.0177664999999999
179,0.990554,0.724885,0.0595715,0.842318,0.475345,0.0544225,0.713908,0.716575,0.0138565,1.141608,0.4953349999999999,0.0428785,1.246838,0.713235,-0.0193295,0.674168,0.930035,-0.0566574999999999,1.289928,0.954895,-0.0848375,0.926476,-0.0043399999999999,0.0010285,1.073524,0.00434,-0.0010284999999999,0.877148,-0.427215,0.0187345,1.129858,-0.396795,-0.0181754999999999,0.865758,-0.797995,-0.0192395,1.135678,-0.791695,-0.0171064999999999
180,0.9878985,0.7238515,0.056356,0.8402795000000001,0.4766114999999999,0.056438,0.7045195,0.7005915,0.017865,1.1404095,0.4936615,0.040849,1.2510295,0.6991815,-0.0241899999999999,0.6687695,0.9132615,-0.054015,1.2879295,0.9345115,-0.089777,0.9265575,-0.0043614999999999,0.001541,1.0734425,0.0043614999999999,-0.001541,0.8784395,-0.4267285,0.017873,1.1324895,-0.3953785,-0.016408,0.8681695,-0.7969985,-0.0174609999999999,1.1383695,-0.7912785,-0.0162859999999999
181,0.9856680000000001,0.7230305,0.0530975,0.838536,0.4781104999999999,0.0582555,0.693856,0.6808405000000001,0.0224954999999999,1.140026,0.4921304999999999,0.0389415,1.254246,0.6824205,-0.0268365,0.6640159999999999,0.8937505,-0.0514035,1.285016,0.9097705,-0.0969145,0.9266560000000001,-0.0044524999999999,0.0020214999999999,1.0733439999999999,0.0044524999999999,-0.0020215,0.880136,-0.4259495,0.0160774999999999,1.135146,-0.3934795,-0.0152285,0.8714459999999999,-0.7955395,-0.0158165,1.141946,-0.7900294999999999,-0.0153275
182,0.9827230000000001,0.72253,0.0485695,0.837011,0.47931,0.0600625,0.684211,0.65457,0.0279924999999999,1.137301,0.4888599999999999,0.0354224999999999,1.260021,0.65274,-0.0267475,0.6610910000000001,0.86664,-0.0497885,1.282451,0.87053,-0.1076315,0.9267380000000001,-0.0045319999999999,0.0024894999999999,1.073262,0.004532,-0.0024894999999999,0.883201,-0.4247999999999999,0.0139574999999999,1.138781,-0.39034,-0.0143495,0.877031,-0.79338,-0.0137065,1.1478410000000001,-0.7874300000000001,-0.0139805
183,0.9799995000000001,0.7225335,0.0441344999999999,0.8358735000000002,0.4802435,0.0617794999999999,0.6777535,0.6235535,0.0337475,1.1350935,0.4858134999999999,0.0319604999999999,1.2668435,0.6177035000000001,-0.0257595,0.6565835,0.8295235000000001,-0.0487795,1.2806134999999998,0.8273235,-0.1169015,0.9268605,-0.0045874999999999,0.0029194999999999,1.0731395,0.0045875,-0.0029195,0.8864635000000001,-0.4235065,0.0115474999999999,1.1424435,-0.3868565,-0.0138305,0.8833535000000001,-0.7906664999999999,-0.0114365,1.1546735,-0.7846365,-0.0133375
184,0.9766060000000001,0.72348,0.0388075,0.835101,0.4801199999999999,0.0632745,0.6749610000000001,0.5812,0.0429705,1.132791,0.48296,0.0280255,1.270461,0.57333,-0.0232744999999999,0.654791,0.77868,-0.0485004999999999,1.278341,0.76317,-0.1235215,0.9270309999999999,-0.004669,0.0034765,1.072969,0.0046689999999999,-0.0034765,0.8909810000000001,-0.42123,0.0096525,1.145541,-0.38379,-0.0156195,0.8929810000000001,-0.78665,-0.0080264999999999,1.164171,-0.78105,-0.0112514999999999
185,0.9727320000000002,0.7253029999999999,0.032627,0.834646,0.480403,0.065484,0.678226,0.536113,0.056094,1.130963,0.479593,0.023402,1.269736,0.525633,-0.0201739999999999,0.6569060000000001,0.726583,-0.0480439999999999,1.271976,0.6916629999999999,-0.1233339999999999,0.927496,-0.004674,0.004248,1.072504,0.0046739999999999,-0.0042479999999999,0.9017060000000001,-0.420707,0.007615,1.146916,-0.3812069999999999,-0.0224909999999999,0.905096,-0.781057,-0.0032109999999999,1.174266,-0.7761370000000001,-0.0106009999999999
186,0.9680935,0.7274545,0.0258544999999999,0.8337725,0.4799145,0.0672955,0.6824825,0.4896745,0.0644735,1.1287265,0.4764945,0.0183575,1.2649424999999999,0.4757045,-0.0167775,0.6627325,0.6537345,-0.0488015,1.2674625,0.5980445,-0.1176715,0.9280125,-0.0048015,0.0051985,1.0719875,0.0048015,-0.0051985,0.9085624999999999,-0.4132555,0.0074735,1.1445575,-0.3771355,-0.0339825,0.9181925,-0.7752555,0.0006894999999999,1.1769325,-0.7682455,-0.0161485
187,0.9631915000000001,0.7299525,0.0194165,0.8335615000000001,0.4786125,0.0686905,0.6875015000000001,0.4453525,0.0735105,1.1262165,0.4737424999999999,0.0135155,1.2584715,0.4255825,-0.0125264999999999,0.6679015000000001,0.5751725,-0.0493555,1.2641815,0.5086325,-0.1078455,0.9285915,-0.0048725,0.0063425,1.0714085,0.0048725,-0.0063425,0.9162115,-0.4116575,0.0086055,1.1404935,-0.3698375,-0.0483055,0.9326215,-0.7679575,0.0029335,1.1758015,-0.7609475,-0.0257535
188,0.9586345000000001,0.7325940000000001,0.012161,0.8351745000000002,0.477124,0.069032,0.6939945000000001,0.398754,0.0840559999999999,1.1243355,0.471414,0.008259,1.2520145,0.377084,-0.0056309999999999,0.6771945000000001,0.4944139999999999,-0.049755,1.2592845,0.4130339999999999,-0.0998049999999999,0.9289045,-0.004989,0.007275,1.0710955,0.004989,-0.007275,0.9254945,-0.404146,0.002596,1.1325515,-0.362326,-0.069325,0.9489045000000002,-0.760446,0.007207,1.1655775,-0.753336,-0.042295
189,0.9555485000000001,0.7341005,0.0058249999999999,0.8372585,0.4735105,0.068501,0.7053985,0.3617505,0.095578,1.1243085,0.4692005,0.0042559999999999,1.2449785,0.3360805,0.003184,0.6908585,0.4204305,-0.0499449999999999,1.2533185,0.3267505,-0.098505,0.9291485,-0.0052785,0.007904,1.0708515,0.0052785,-0.0079039999999999,0.9305885,-0.3981895,-0.004678,1.1205255,-0.3564395,-0.093165,0.9656985,-0.7545594999999999,0.013032,1.1460625,-0.7419895,-0.068995
190,0.952661,0.7353085,-0.001298,0.8398410000000001,0.4693684999999999,0.068712,0.721681,0.3279785,0.1058699999999999,1.123543,0.4657584999999999,-0.001398,1.237771,0.2977984999999999,0.015153,0.708561,0.3452885,-0.0543879999999999,1.250401,0.2450685,-0.091588,0.929691,-0.0058215,0.009048,1.070309,0.0058214999999999,-0.009048,0.9403910000000001,-0.3947215,-0.013008,1.107251,-0.3507115,-0.115088,0.9864310000000001,-0.7494314999999999,0.0233989999999999,1.118754,-0.7238114999999999,-0.102038
191,0.9507635000000001,0.736275,-0.00694,0.8422635,0.466145,0.070355,0.7371135000000001,0.301875,0.1152459999999999,1.1268095,0.466145,-0.00443,1.2275955,0.277495,0.02685,0.7259435000000001,0.284165,-0.0569999999999999,1.2491125,0.186795,-0.07844,0.9300335000000001,-0.005533,0.0104099999999999,1.0699665,0.005533,-0.01041,0.9463935000000001,-0.392995,-0.01871,1.0931815,-0.351355,-0.13652,1.0079335,-0.741885,0.0368939999999999,1.0889575,-0.712895,-0.13401
192,0.9496200000000001,0.7363425,-0.0115699999999999,0.8453900000000001,0.4630225,0.07065,0.75517,0.2801225,0.123666,1.129353,0.4662125,-0.0079099999999999,1.217857,0.2630025,0.04031,0.7439100000000001,0.2295424999999999,-0.0536299999999999,1.249337,0.1377125,-0.0601299999999999,0.93023,-0.0054655,0.0114,1.06977,0.0054655,-0.0113999999999999,0.9547700000000001,-0.3912075,-0.0244699999999999,1.07903,-0.3528675,-0.1565499999999999,1.03039,-0.7331774999999999,0.05009,1.06187,-0.7022674999999999,-0.1601099999999999
193,0.949075,0.7363425,-0.0148149999999999,0.848245,0.4621425,0.070865,0.772295,0.2710325,0.1299179999999999,1.132397,0.4662125,-0.010035,1.213496,0.2598425,0.050675,0.759545,0.1926525,-0.050275,1.250352,0.1067355,-0.0439549999999999,0.9304350000000001,-0.0054655,0.0120049999999999,1.0695649999999999,0.0054655,-0.012005,0.961035,-0.3885475,-0.029935,1.065385,-0.3539075,-0.173565,1.0516349999999999,-0.7235675,0.067695,1.034445,-0.6910775,-0.181285
194,0.9462100000000001,0.7371525,-0.017745,0.85016,0.4621425,0.069255,0.78627,0.2663625,0.133225,1.13377,0.4662125,-0.0119249999999999,1.212442,0.2598425,0.0519749999999999,0.76419,0.1541924999999999,-0.050495,1.252531,0.0847314999999999,-0.0439649999999999,0.93065,-0.0054655,0.0132849999999999,1.06935,0.0054655,-0.0132849999999999,0.9547000000000001,-0.3816675,-0.0314949999999999,1.05635,-0.3539175,-0.175715,1.04782,-0.7133975,0.062295,1.01288,-0.6788575,-0.189915
195,0.9434300000000001,0.7381035,-0.01977,0.8520500000000001,0.4620835,0.06725,0.7976400000000001,0.2644035,0.13156,1.13491,0.4667135,-0.0129599999999999,1.215863,0.2597835,0.05068,0.7654800000000002,0.1435735,-0.0518099999999999,1.2522389999999999,0.0844395,-0.04397,0.93072,-0.0054065,0.01427,1.06928,0.0054065,-0.01427,0.9481900000000001,-0.3724365,-0.04474,1.05297,-0.3529665,-0.17248,1.03767,-0.6983165,0.05456,0.9998000000000001,-0.6664365,-0.18923
196,0.940535,0.7379560000000001,-0.021755,0.853865,0.4606159999999999,0.064935,0.810635,0.2627759999999999,0.126475,1.1359949999999999,0.467186,-0.014015,1.220824,0.258316,0.0437549999999999,0.765535,0.135016,-0.054105,1.253336,0.082852,-0.0415749999999999,0.930615,-0.005325,0.014765,1.0693849999999998,0.005325,-0.0147649999999999,0.939865,-0.364464,-0.059425,1.051925,-0.351554,-0.165955,1.023315,-0.683134,0.0459149999999999,0.991365,-0.654384,-0.183165
197,0.9365900000000001,0.736739,-0.0226399999999999,0.8542600000000001,0.457819,0.06314,0.81316,0.2593189999999999,0.1147099999999999,1.1367099999999999,0.4681889999999999,-0.0136399999999999,1.22583,0.257479,0.03555,0.75665,0.129319,-0.06261,1.2556370000000001,0.079725,-0.0405599999999999,0.9307600000000001,-0.005377,0.0153699999999999,1.06924,0.005377,-0.0153699999999999,0.9292600000000001,-0.355241,-0.0665899999999999,1.05471,-0.349721,-0.15225,1.00581,-0.670041,0.0357299999999999,0.99272,-0.6441509999999999,-0.16885
198,0.931095,0.73481,-0.0222399999999999,0.8527850000000001,0.45545,0.0616599999999999,0.809315,0.25532,0.10669,1.134865,0.46874,-0.01235,1.2295749999999999,0.25808,0.02966,0.747035,0.12539,-0.06835,1.257995,0.076017,-0.0438299999999999,0.9307650000000001,-0.005384,0.0156899999999999,1.069235,0.005384,-0.0156899999999999,0.922245,-0.34751,-0.0700799999999999,1.061405,-0.34968,-0.13446,0.985015,-0.65758,0.0245199999999999,1.0031349999999999,-0.64276,-0.1420599999999999
199,0.92418,0.7322665,-0.02148,0.84996,0.4534364999999999,0.0588399999999999,0.7982400000000001,0.2508364999999999,0.0950899999999999,1.13172,0.4689465,-0.00964,1.2306300000000001,0.2602064999999999,0.0231399999999999,0.73167,0.1164865,-0.0719699999999999,1.25796,0.0727875,-0.0508,0.93026,-0.0053145,0.0149499999999999,1.06974,0.0053145,-0.01495,0.91046,-0.3452435,-0.07122,1.069,-0.3516535,-0.11806,0.9600600000000001,-0.6475934999999999,0.0100599999999999,1.0211999999999999,-0.6456135,-0.10801
200,0.916405,0.7292115,-0.02114,0.846805,0.4512215,0.0539399999999999,0.787415,0.2496314999999999,0.0841299999999999,1.1266349999999998,0.4700715,-0.00772,1.2296449999999999,0.2632915,0.0176399999999999,0.7158049999999999,0.1124415,-0.07566,1.2559049999999998,0.0742305,-0.0632099999999999,0.930025,-0.0057355,0.0140299999999999,1.069975,0.0057355,-0.0140299999999999,0.900895,-0.3447185,-0.07388,1.0767449999999998,-0.3540685,-0.10153,0.933055,-0.6443285000000001,-0.00735,1.0404149999999999,-0.6498785,-0.07457
201,0.90725,0.7269575,-0.02226,0.84202,0.4500274999999999,0.0499599999999999,0.7753099999999999,0.2485875,0.0729199999999999,1.12129,0.4721275,-0.00553,1.22775,0.2673075,0.0140299999999999,0.69651,0.1120975,-0.08312,1.25207,0.0790305,-0.07118,0.9299,-0.0059485,0.0133699999999999,1.0701,0.0059485,-0.0133700000000001,0.88978,-0.3443925,-0.07542,1.0851,-0.3564725,-0.08578,0.90509,-0.6426124999999999,-0.02382,1.0569899999999999,-0.6536824999999999,-0.04568
202,0.896875,0.724521,-0.025615,0.8361150000000002,0.449161,0.0451849999999999,0.762915,0.247811,0.0611149999999999,1.114605,0.475401,-0.004665,1.223815,0.271871,0.0146149999999999,0.6793550000000002,0.113511,-0.093075,1.247925,0.083559,-0.070305,0.929645,-0.005866,0.0127249999999999,1.070355,0.005866,-0.012725,0.8802050000000001,-0.343849,-0.076245,1.0949849999999999,-0.360219,-0.0702450000000001,0.877475,-0.6408290000000001,-0.044295,1.073125,-0.6596890000000001,-0.020985
203,0.8888550000000001,0.7236645,-0.0289099999999999,0.8301050000000001,0.4483045,0.0408699999999999,0.7540950000000001,0.2469545,0.0513699999999999,1.109925,0.4767245,-0.0027599999999999,1.220015,0.2713145,0.0236399999999999,0.6701350000000001,0.1126544999999999,-0.10052,1.246555,0.0828875,-0.05401,0.9290650000000001,-0.0066395,0.01105,1.070935,0.0066395,-0.01105,0.881515,-0.3444454999999999,-0.08065,1.102335,-0.3615954999999999,-0.06444,0.873745,-0.6367955,-0.04197,1.084285,-0.6621655,-0.00702
204,0.8815600000000001,0.7230935000000001,-0.0331149999999998,0.82451,0.4477335,0.036725,0.74697,0.2463835,0.044485,1.10459,0.4776235,-0.0022449999999999,1.21442,0.2709335,0.034505,0.66463,0.1120834999999999,-0.1021649999999999,1.2453299999999998,0.0824755,-0.0413349999999999,0.92857,-0.0071835,0.0094550000000001,1.0714299999999999,0.0071835,-0.0094549999999999,0.88411,-0.3450165,-0.0744949999999999,1.10774,-0.3626265,-0.0594349999999999,0.87635,-0.6371064999999999,-0.0360249999999999,1.09469,-0.6640665,0.003905
205,0.874575,0.7225965,-0.0378999999999999,0.818715,0.4472365,0.0327899999999999,0.7404850000000001,0.2458865,0.03859,1.0988749999999998,0.4785265,-0.0021999999999999,1.2075749999999998,0.2706465,0.04661,0.6619349999999999,0.1115864999999999,-0.1029099999999999,1.242665,0.0821075,-0.0300799999999999,0.9282150000000001,-0.0076165,0.00806,1.071785,0.0076165,-0.0080599999999999,0.888055,-0.3454735,-0.0672499999999999,1.112255,-0.3634835,-0.05469,0.8833750000000001,-0.6374235,-0.0273499999999999,1.104005,-0.6658035,0.0138099999999999
206,0.8684449999999999,0.7196435,-0.04278,0.813335,0.4459935,0.0296199999999999,0.7378849999999999,0.2442235,0.03681,1.0936649999999999,0.4793834999999999,-0.00236,1.200265,0.2704835,0.0580199999999999,0.6692349999999999,0.1069435,-0.0965599999999999,1.2396349999999998,0.0789634999999999,-0.02078,0.927905,-0.0079075,0.0068,1.0720949999999998,0.0079075,-0.0068,0.892605,-0.3458065,-0.0596999999999999,1.1192149999999998,-0.3632665,-0.0501599999999999,0.8907849999999999,-0.6377065,-0.0186399999999999,1.112185,-0.6660665,0.02241
207,0.8637600000000001,0.7168285,-0.048045,0.8095000000000001,0.4448284999999999,0.026875,0.73855,0.2427984999999999,0.036035,1.08952,0.4803885,-0.0033149999999999,1.19318,0.2700484999999999,0.066155,0.6764400000000002,0.0999285,-0.0903549999999999,1.23689,0.0746875,-0.009525,0.9277500000000001,-0.0080725,0.005885,1.07225,0.0080725,-0.0058849999999999,0.8968800000000001,-0.3477615,-0.0536249999999999,1.1217,-0.3631715,-0.0466749999999999,0.8993300000000001,-0.6379415,-0.0106849999999999,1.11856,-0.6660815,0.0283849999999999
208,0.85999,0.7141255,-0.05296,0.80633,0.4436355,0.0247499999999999,0.7426000000000001,0.2411354999999999,0.0393399999999999,1.08679,0.4812755,-0.00417,1.18701,0.2688555,0.0727399999999999,0.68601,0.0934754999999999,-0.08356,1.23427,0.0710055,-0.00041,0.92782,-0.0083105,0.0054199999999999,1.07218,0.0083105,-0.0054199999999999,0.90101,-0.3496545,-0.048,1.12396,-0.3631445,-0.0434499999999999,0.90741,-0.6398645,-0.00375,1.12406,-0.6667445,0.03332
209,0.850975,0.709689,-0.0661,0.7981649999999999,0.442629,0.01483,0.7340450000000001,0.2380489999999999,0.02915,1.0780349999999999,0.485049,-0.00962,1.173805,0.262649,0.0862899999999999,0.6588350000000001,0.090459,-0.1112199999999999,1.2318449999999999,0.0564939999999999,0.06679,0.927685,-0.009101,0.0038099999999999,1.072315,0.009101,-0.0038099999999999,0.907155,-0.352041,-0.04139,1.127815,-0.362811,-0.04281,0.924025,-0.642501,0.0064299999999999,1.1356249999999999,-0.6710809999999999,0.0400699999999999
210,0.85161,0.709188,-0.066755,0.7957000000000001,0.441788,0.015695,0.73637,0.236228,0.034015,1.07795,0.485468,-0.0093649999999999,1.17318,0.263098,0.087235,0.66625,0.089048,-0.1096449999999999,1.23148,0.057066,0.066605,0.9279100000000001,-0.009337,0.003775,1.07209,0.009337,-0.0037749999999999,0.9088800000000001,-0.352472,-0.0389149999999999,1.1277,-0.362932,-0.0408649999999999,0.92694,-0.640582,0.008545,1.13475,-0.669582,0.040915
211,0.85163,0.7085905,-0.066725,0.79908,0.4414504999999999,0.019475,0.73809,0.2366504999999999,0.0390549999999999,1.0787,0.4855204999999999,-0.008265,1.17195,0.2635905,0.0864349999999999,0.6775100000000001,0.0638195,-0.0768349999999999,1.22747,0.0572875,0.0589149999999999,0.92805,-0.0094885,0.0041249999999999,1.07195,0.0094885,-0.004125,0.9099400000000001,-0.3527395,-0.036985,1.12747,-0.3632195,-0.038985,0.9286400000000001,-0.6407595,0.0103349999999999,1.13345,-0.6681595,0.0416149999999999
