sb224sc-HT22-VT27/4dt907/src/data/kinect_good_preprocessed_not_cut_A11_mediapipe/A44_kinect_mirrored.csv
FrameNo,nose_3d_x,nose_3d_y,nose_3d_z,left_shoulder_3d_x,left_shoulder_3d_y,left_shoulder_3d_z,left_elbow_3d_x,left_elbow_3d_y,left_elbow_3d_z,right_shoulder_3d_x,right_shoulder_3d_y,right_shoulder_3d_z,right_elbow_3d_x,right_elbow_3d_y,right_elbow_3d_z,left_wrist_3d_x,left_wrist_3d_y,left_wrist_3d_z,right_wrist_3d_x,right_wrist_3d_y,right_wrist_3d_z,left_hip_3d_x,left_hip_3d_y,left_hip_3d_z,right_hip_3d_x,right_hip_3d_y,right_hip_3d_z,left_knee_3d_x,left_knee_3d_y,left_knee_3d_z,right_knee_3d_x,right_knee_3d_y,right_knee_3d_z,left_ankle_3d_x,left_ankle_3d_y,left_ankle_3d_z,right_ankle_3d_x,right_ankle_3d_y,right_ankle_3d_z
0,1.0182555,0.697001,0.0400149999999999,0.8570265,0.419321,0.008617,0.8043365,0.175991,0.0311289999999999,1.1534564999999999,0.421491,0.0209689999999999,1.2101164999999998,0.171041,0.023055,0.7837665,-0.036493,-0.047158,1.2230365,-0.042145,-0.054581,0.9338975,0.0010409999999999,-0.000665,1.0661025,-0.001041,0.0006649999999999,0.8622164999999999,-0.331399,-0.017316,1.1359065,-0.328919,-0.033553,0.7997164999999999,-0.687119,0.0042309999999999,1.2028965,-0.698609,-0.024475
1,1.018317,0.6969799999999999,0.0400235,0.857039,0.41929,0.0085965,0.8044290000000001,0.17625,0.0312215,1.153289,0.42139,0.0207715,1.210389,0.16969,0.0226305,0.783809,-0.0362199999999999,-0.0470914999999999,1.223189,-0.043461,-0.0551025,0.9339020000000001,0.001055,-0.0006005,1.066098,-0.001055,0.0006005,0.862429,-0.33808,-0.0161825,1.136219,-0.34278,-0.0327415,0.798469,-0.69109,0.0036605,1.203749,-0.70241,-0.0236084999999999
2,1.0182645,0.6969854999999999,0.0400605,0.8570425,0.4192455,0.0085875,0.8044525000000001,0.1762155,0.0313035,1.1532025,0.4214555,0.0207865,1.2105625,0.1694555,0.0224795,0.7838425,-0.0362135,-0.0471505,1.2232725,-0.0437535,-0.0550974999999999,0.9338975,0.0010335,-0.0005714999999999,1.0661025,-0.0010335,0.0005715,0.8624725,-0.3394745,-0.0158174999999999,1.1359825,-0.3444445,-0.0329244999999999,0.7979325000000002,-0.6939945000000001,0.0048115,1.2037625,-0.7022645000000001,-0.0234404999999999
3,1.0182545,0.6969915,0.04008,0.8570295,0.4192315,0.008565,0.8044895,0.1765315,0.031382,1.1531395,0.4215015,0.020768,1.2106495,0.1691815,0.02248,0.7839495000000001,-0.0358885,-0.047107,1.2233295,-0.0439905,-0.0552179999999999,0.9338935,0.0010185,-0.0005579999999999,1.0661065,-0.0010185,0.0005579999999999,0.8625895,-0.3403985,-0.015598,1.1365095,-0.3473285,-0.032701,0.7993395,-0.6861685000000001,0.0043979999999999,1.2037595,-0.7023885,-0.023432
4,1.0182365,0.697048,0.040036,0.8570215,0.4192079999999999,0.008589,0.8045315,0.176608,0.031335,1.1528815,0.4213179999999999,0.020559,1.2105314999999999,0.169948,0.022465,0.7839515000000001,-0.035821,-0.047136,1.2232414999999999,-0.043283,-0.055055,0.9338925,0.00102,-0.000562,1.0661075,-0.00102,0.000562,0.8621415,-0.336152,-0.016392,1.1364415,-0.347482,-0.032657,0.8002815,-0.681962,0.0036199999999999,1.2028415,-0.6928519999999999,-0.024335
5,1.0182095,0.6970345,0.0401055,0.8570085000000001,0.4191944999999999,0.0086065,0.8045385,0.1765445,0.0313035,1.1527685,0.4212745,0.0204275,1.2106385,0.1692644999999999,0.0222335,0.7839185000000001,-0.0358915,-0.0471365,1.2229585,-0.0440185,-0.0551935,0.9338935,0.0010205,-0.0005684999999999,1.0661065,-0.0010205,0.0005684999999999,0.8624685,-0.3383255,-0.0159395,1.1359385,-0.3328055,-0.0324765,0.7999385,-0.6838055,0.0037025,1.2022985,-0.6908455,-0.0241575
6,1.018113,0.6970025,0.0400215,0.856986,0.4191525,0.0089165,0.804546,0.1763625,0.0311815,1.152556,0.4212325,0.0200855,1.210796,0.1688025,0.0219885,0.783886,-0.0360355,-0.0473405,1.222846,-0.0443985,-0.0557374999999999,0.9339040000000001,0.0010305,-0.0003995,1.066096,-0.0010305,0.0003995,0.862676,-0.3373575,-0.0161704999999999,1.136056,-0.3292275,-0.0325365,0.7989160000000001,-0.6883275,0.0032654999999999,1.202726,-0.6960375000000001,-0.0247335
7,1.0182035,0.697025,0.040124,0.8569105000000001,0.419185,0.0086609999999999,0.8044205,0.176165,0.0312199999999999,1.1525205,0.421235,0.0199649999999999,1.2108805,0.1687149999999999,0.0220919999999999,0.7837805,-0.036146,-0.047425,1.2229205,-0.044473,-0.055741,0.9339215,0.001032,-0.000417,1.0660785,-0.001032,0.0004169999999999,0.8625005,-0.338495,-0.015972,1.1359305,-0.328835,-0.032955,0.7991705,-0.686875,0.0033769999999999,1.2028305,-0.697605,-0.024186
8,1.0181805,0.6970265,0.040181,0.8568815000000001,0.4191765,0.008667,0.8044115000000001,0.1761665,0.031212,1.1524215,0.4212165,0.01983,1.2109915,0.1685565,0.02207,0.7837615,-0.0361445,-0.047486,1.2228815,-0.0446215,-0.055825,0.9339265,0.0010305,-0.0003909999999999,1.0660735,-0.0010305,0.0003909999999999,0.8625415000000001,-0.3388135,-0.0159279999999999,1.1359515,-0.3283635,-0.0329739999999999,0.7991815000000001,-0.6870635,0.003289,1.2029115,-0.6975335,-0.024207
9,1.0181515,0.6970295000000001,0.0402535,0.8568495,0.4191695,0.0086845,0.8043994999999999,0.1761495,0.0312035,1.1523295,0.4211995,0.0198145,1.2110995,0.1683895,0.0220385,0.7837295,-0.0361445,-0.0475505,1.2228195,-0.0447705,-0.0558954999999999,0.9339315,0.0010275,-0.0003664999999999,1.0660685,-0.0010275,0.0003665,0.8625695,-0.3390705,-0.0158745,1.1359594999999998,-0.3285505,-0.0330025,0.7992995,-0.6870605,0.0031795,1.2028995,-0.6975304999999999,-0.0242425
10,1.018126,0.69703,0.040343,0.856827,0.41916,0.00871,0.804377,0.17612,0.031189,1.152247,0.42119,0.019781,1.211217,0.16823,0.022007,0.783717,-0.036159,-0.047623,1.222747,-0.044929,-0.055977,0.933936,0.001027,-0.0003419999999999,1.066064,-0.001027,0.000342,0.862607,-0.33926,-0.0158439999999999,1.136007,-0.32771,-0.033012,0.799437,-0.68706,0.003057,1.2028869999999998,-0.69753,-0.024306
11,1.017998,0.6970735,0.040574,0.856641,0.4191335,0.008773,0.804281,0.1759635,0.0311849999999999,1.152131,0.4213334999999999,0.0197629999999999,1.211301,0.1683335,0.0219769999999999,0.783671,-0.0362965,-0.047684,1.222651,-0.0448185,-0.056025,0.933942,0.0010015,-0.000331,1.066058,-0.0010014999999999,0.0003309999999999,0.8627009999999999,-0.3392965,-0.015898,1.136031,-0.3268365,-0.033036,0.799621,-0.6874265,0.0028919999999999,1.202941,-0.6964865,-0.024377
12,1.017872,0.6971040000000001,0.0407965,0.856454,0.419104,0.0088374999999999,0.804184,0.175794,0.0311825,1.152024,0.421464,0.0197335,1.211364,0.168424,0.0219445,0.783624,-0.036445,-0.0477465,1.222594,-0.044727,-0.0560704999999999,0.933949,0.000977,-0.0003114999999999,1.066051,-0.000977,0.0003114999999999,0.8628040000000001,-0.3397759999999999,-0.0158875,1.1360739999999998,-0.326606,-0.0330565,0.7997040000000001,-0.6878759999999999,0.0027205,1.203104,-0.6965359999999999,-0.0244325
13,1.017765,0.697136,0.0410235,0.856279,0.419076,0.0088945,0.804079,0.175656,0.0311835,1.151909,0.421596,0.0197115,1.211429,0.168476,0.0219215,0.783579,-0.0365939999999999,-0.0477765,1.222539,-0.04468,-0.0561315,0.9339550000000001,0.00095,-0.0002925,1.066045,-0.00095,0.0002925,0.8629290000000001,-0.3401639999999999,-0.0158794999999999,1.136169,-0.326464,-0.0330845,0.799829,-0.688464,0.0025684999999999,1.203289,-0.696834,-0.0245135
14,1.0176905,0.697177,0.0412785,0.8561145,0.419047,0.0089265,0.8039845,0.175507,0.0311775,1.1518045,0.421717,0.0196965,1.2114745,0.168477,0.0219015,0.7835544999999999,-0.036742,-0.0478105,1.2224845,-0.044666,-0.0561894999999999,0.9339615,0.00092,-0.0002714999999999,1.0660384999999999,-0.00092,0.0002715,0.8630545000000001,-0.340613,-0.0158805,1.1362645,-0.327093,-0.0331464999999999,0.8000545,-0.688493,0.0023985,1.2034945,-0.696893,-0.0246214999999999
15,1.0176155,0.6972045,0.0415375,0.8559485,0.4190145,0.0089515,0.8038784999999999,0.1753545,0.0311715,1.1517585,0.4219345,0.0197335,1.2115084999999999,0.1684945,0.0218635,0.7834485,-0.0368864999999999,-0.0478445,1.2224285,-0.0446455,-0.0562555,0.9339675000000001,0.0008864999999999,-0.0002514999999999,1.0660325,-0.0008864999999999,0.0002515,0.8631785000000001,-0.3410255,-0.0159025,1.1363785,-0.3272255,-0.0332094999999999,0.8002885,-0.6883054999999999,0.0022115,1.2036885,-0.6971255,-0.0248235
16,1.01755,0.6972315,0.0417925,0.855783,0.4189715,0.0089865,0.803783,0.1752115,0.0311555,1.151723,0.4221514999999999,0.0197875,1.211523,0.1685215,0.0218245,0.783363,-0.0370355,-0.0478955,1.222363,-0.0446005,-0.0562925,0.933975,0.0008545,-0.0002274999999999,1.066025,-0.0008545,0.0002275,0.863233,-0.3406385,-0.0159705,1.136473,-0.3286085,-0.0332424999999999,0.800523,-0.6878385,0.0020955,1.203883,-0.6972385,-0.0250504999999999
17,1.017504,0.6972689999999999,0.0420215,0.855634,0.418929,0.0090254999999999,0.803704,0.175059,0.0311435,1.151664,0.422319,0.0198595,1.211544,0.168559,0.0218015,0.783284,-0.037182,-0.0479534999999999,1.222294,-0.044566,-0.0563265,0.933982,0.000823,-0.0002055,1.066018,-0.000823,0.0002055,0.863334,-0.3403609999999999,-0.0160925,1.136594,-0.330271,-0.0332485,0.800774,-0.6881710000000001,0.0020804999999999,1.204064,-0.697111,-0.0252965
18,1.017445,0.6972775,0.0422375,0.855495,0.4188874999999999,0.0090765,0.803615,0.1748975,0.0311305,1.151595,0.4224675,0.0199635,1.211555,0.1685775,0.0217765,0.783285,-0.0373155,-0.0480275,1.222235,-0.0445405,-0.0563535,0.933989,0.0007945,-0.0001834999999999,1.066011,-0.0007945,0.0001835,0.863425,-0.3406425,-0.0161095,1.136715,-0.3319925,-0.0332415,0.800995,-0.6878624999999999,0.0020475,1.204235,-0.6968825,-0.0255345
19,1.0174,0.6972755,0.0424325,0.855357,0.4188455,0.0091185,0.803527,0.1747554999999999,0.0311155,1.151517,0.4225955,0.0200555,1.211547,0.1686055,0.0217505,0.7832870000000001,-0.0374445,-0.0481024999999999,1.2221769999999998,-0.0445045,-0.0563785,0.933996,0.0007685,-0.0001624999999999,1.066004,-0.0007685,0.0001624999999999,0.863467,-0.3403645,-0.0162074999999999,1.136847,-0.3341045,-0.0332345,0.801277,-0.6876344999999999,0.0020135,1.204407,-0.6964444999999999,-0.0258044999999999
20,1.017396,0.6972655000000001,0.042524,0.8553490000000001,0.4188455,0.009103,0.803509,0.1747155,0.0311,1.151509,0.4225655,0.020178,1.211559,0.1683955,0.021708,0.783309,-0.0374715,-0.0481799999999999,1.222159,-0.0447105,-0.0564389999999999,0.934003,0.0007685,-0.0001439999999999,1.065997,-0.0007685,0.000144,0.863479,-0.3407145,-0.016215,1.136839,-0.3348445,-0.033218,0.801269,-0.6880244999999999,0.001915,1.204429,-0.6960044999999999,-0.026033
21,1.0173919999999999,0.6972555,0.0426395,0.855342,0.4188354999999999,0.0091035,0.803492,0.1746754999999999,0.0311005,1.151542,0.4225055,0.0202895,1.211572,0.1682255,0.0216934999999999,0.783392,-0.0374885,-0.0482485,1.222142,-0.0448795,-0.0564755,0.934006,0.0007685,-0.0001384999999999,1.0659939999999999,-0.0007685,0.0001384999999999,0.863492,-0.3407145,-0.0163315,1.136832,-0.3348545,-0.0331705,0.801262,-0.6881345,0.0018854999999999,1.204452,-0.6958145,-0.0261795
22,1.0173955,0.6972655,0.0427525,0.8553415,0.4188455,0.0091105,0.8034915,0.1746555,0.0311054999999999,1.1515814999999998,0.4224555,0.0203945,1.2115715,0.1681255,0.0216755,0.7834515,-0.0374885,-0.0482835,1.2221415,-0.0449845,-0.0565344999999999,0.9340055,0.0007715,-0.0001345,1.0659945,-0.0007715,0.0001344999999999,0.8634815,-0.3406444999999999,-0.0164875,1.1368315,-0.3365145,-0.0331075,0.8012615,-0.6886245000000001,0.0018355,1.2044415,-0.6957945000000001,-0.0263774999999999
23,1.017484,0.6972655,0.042831,0.8553729999999999,0.4188455,0.009118,0.803493,0.1746155,0.031108,1.151663,0.4224555,0.02052,1.211593,0.1680355,0.021631,0.7835130000000001,-0.0375105,-0.048318,1.222123,-0.0450805,-0.056598,0.934007,0.0007715,-0.000143,1.065993,-0.0007715,0.000143,0.863433,-0.3400944999999999,-0.016644,1.136823,-0.3373645,-0.033074,0.801203,-0.6887945000000001,0.0018869999999999,1.204423,-0.6959345,-0.026502
24,1.017585,0.697266,0.042917,0.855408,0.418826,0.009103,0.803498,0.174576,0.031107,1.151758,0.422426,0.020618,1.2116179999999999,0.167876,0.021575,0.783558,-0.037529,-0.048333,1.2221179999999998,-0.045234,-0.056662,0.934008,0.000772,-0.0001559999999999,1.065992,-0.0007719999999999,0.0001559999999999,0.8633680000000001,-0.3393239999999999,-0.016837,1.136768,-0.336304,-0.033072,0.8010880000000001,-0.689114,0.0019139999999999,1.204378,-0.6959339999999999,-0.0266159999999999
25,1.018025,0.697184,0.0430605,0.855638,0.418844,0.0091165,0.8035680000000001,0.174634,0.0311194999999999,1.152048,0.422434,0.0208245,1.211708,0.167494,0.0215255,0.783598,-0.037452,-0.0483455,1.222108,-0.045618,-0.0567145,0.934019,0.000812,-0.0001685,1.065981,-0.000812,0.0001684999999999,0.863148,-0.338656,-0.0170345,1.136608,-0.335516,-0.0330845,0.800648,-0.689066,0.0020754999999999,1.204018,-0.695676,-0.0266165
26,1.0184464999999998,0.6971075,0.043199,0.8558595,0.4188675,0.009134,0.8036395000000001,0.1747075,0.031131,1.1523395,0.4223874999999999,0.021029,1.2117995,0.1671375,0.0214989999999999,0.7836595,-0.0373795,-0.048342,1.2220595,-0.0459825,-0.056765,0.9340285,0.0008504999999999,-0.000184,1.0659715,-0.0008504999999999,0.000184,0.8629595,-0.3385225,-0.017089,1.1364695,-0.3368725,-0.033129,0.8002895,-0.6888725,0.0021869999999999,1.2037195,-0.6958725,-0.0266229999999999
27,1.018863,0.6970245,0.0433329999999999,0.856092,0.4188845,0.0091659999999999,0.803722,0.1747845,0.031138,1.152592,0.4223345,0.0211629999999999,1.211872,0.1668145,0.0214789999999999,0.783702,-0.0373005,-0.048367,1.2220119999999999,-0.0463074999999999,-0.056818,0.9340380000000001,0.0008885,-0.000202,1.0659619999999999,-0.0008885,0.0002019999999999,0.862752,-0.3379255,-0.017248,1.136372,-0.3361255,-0.033197,0.799922,-0.6890255,0.0022739999999999,1.203422,-0.6963655,-0.026599
28,1.0192655,0.6969605,0.043459,0.8563275,0.4189104999999999,0.0091949999999999,0.8037974999999999,0.1748605,0.0311359999999999,1.1528275,0.4222105,0.021262,1.2119575,0.1664905,0.021448,0.7837775,-0.0372165,-0.0484219999999999,1.2219775,-0.0466355,-0.0568869999999999,0.9340435,0.0009315,-0.000236,1.0659565,-0.0009315,0.000236,0.8625775,-0.3375995,-0.0173889999999999,1.1362675,-0.3358795,-0.033277,0.8000975,-0.6883695,0.002373,1.2031075,-0.6970095000000001,-0.026571
29,1.019644,0.696885,0.0435684999999999,0.8565510000000001,0.418925,0.0092115,0.8038609999999999,0.174945,0.0311365,1.153041,0.422085,0.0213315,1.212041,0.166165,0.0214155,0.7837910000000001,-0.037111,-0.0485185,1.221951,-0.046956,-0.0569594999999999,0.934048,0.000976,-0.0002704999999999,1.065952,-0.0009759999999999,0.0002704999999999,0.862411,-0.337335,-0.0174135,1.136141,-0.334865,-0.0333025,0.799821,-0.688095,0.0025125,1.202751,-0.697105,-0.0264975
30,1.020001,0.696813,0.043668,0.856773,0.4189529999999999,0.0092189999999999,0.803933,0.175033,0.031135,1.153223,0.421863,0.021369,1.212113,0.165843,0.0213919999999999,0.783853,-0.037009,-0.0485779999999999,1.221933,-0.0472719999999999,-0.056997,0.934051,0.001025,-0.000304,1.065949,-0.0010249999999999,0.0003039999999999,0.862263,-0.337067,-0.017436,1.1360229999999998,-0.334697,-0.033387,0.799453,-0.688477,0.0025459999999999,1.202323,-0.696797,-0.026409
31,1.0203095,0.6967555000000001,0.0437445,0.8569884999999999,0.4189755,0.0092135,0.8039985000000001,0.1751255,0.0311305,1.1534085,0.4216654999999999,0.0214024999999999,1.2121885,0.1654955,0.0213685,0.7838885,-0.0369085,-0.0486025,1.2219185,-0.0476095,-0.0570105,0.9340595,0.0010704999999999,-0.0003355,1.0659405,-0.0010705,0.0003354999999999,0.8621385,-0.3374745,-0.0173235,1.1358985,-0.3333945,-0.0334975,0.7989285,-0.6889645,0.0025474999999999,1.2018685,-0.6966545,-0.0263935
32,1.0205354999999998,0.6967,0.0438305,0.8572235,0.419,0.0092115,0.8040635,0.17529,0.0311265,1.1535635,0.42147,0.0214075,1.2122534999999999,0.16516,0.0213475,0.7839335000000001,-0.0367329999999999,-0.0486044999999999,1.2219535,-0.0479399999999999,-0.0570335,0.9340675,0.001115,-0.0003604999999999,1.0659325,-0.001115,0.0003604999999999,0.8620235,-0.33775,-0.0172555,1.1358135,-0.33159,-0.0336105,0.7984435,-0.68936,0.0023975,1.2014235,-0.69657,-0.0263995
33,1.020704,0.6966665,0.0438905,0.857467,0.4190165,0.0092025,0.8041370000000001,0.1754565,0.0311295,1.153697,0.4212965,0.0214075,1.212317,0.1648865,0.0213345,0.7839570000000001,-0.0365565,-0.0485735,1.221987,-0.0482025,-0.0570525,0.934077,0.0011575,-0.0003784999999999,1.065923,-0.0011574999999999,0.0003785,0.861937,-0.3378735,-0.0172714999999999,1.135827,-0.3313135,-0.0337265,0.7982270000000001,-0.6891235,0.0022495,1.201117,-0.6972735,-0.0263515
34,1.0207035,0.6966694999999999,0.0438719999999999,0.8575565,0.4189894999999999,0.0091849999999999,0.8041465,0.1754495,0.0311179999999999,1.1536965,0.4210494999999999,0.021389,1.2123165,0.1648895,0.0213309999999999,0.7839665,-0.0365715,-0.048523,1.2219865,-0.0481995,-0.057071,0.9340765,0.0011565,-0.000397,1.0659235,-0.0011565,0.0003969999999999,0.8619465,-0.3388305,-0.017144,1.1358165,-0.3313105,-0.033823,0.7979365,-0.6896605,0.0022389999999999,1.2009665,-0.6972705,-0.026304
35,1.0207025,0.6966694999999999,0.043849,0.8576455000000001,0.4189595,0.009159,0.8041555,0.1754495,0.031135,1.1536955,0.4208595,0.021366,1.2123154999999999,0.1648895,0.021321,0.7839754999999999,-0.0366125,-0.048479,1.2220155,-0.0481995,-0.0570769999999999,0.9340765,0.0011565,-0.0003959999999999,1.0659235,-0.0011565,0.000396,0.8619255,-0.3391405,-0.0171079999999999,1.1358155,-0.3329605,-0.033904,0.7977955,-0.6896505,0.002292,1.2009655,-0.6982805,-0.0262919999999999
36,1.020702,0.6966694999999999,0.043824,0.857735,0.4189195,0.009131,0.8041650000000001,0.1754395,0.031151,1.153695,0.4206895,0.021341,1.212315,0.1648895,0.021312,0.783975,-0.0366685,-0.048466,1.222045,-0.0481995,-0.057059,0.934077,0.0011565,-0.0003849999999999,1.065923,-0.0011565,0.0003849999999999,0.861925,-0.3391905,-0.0171729999999999,1.135815,-0.3334505,-0.0340489999999999,0.797795,-0.6898905,0.0022439999999999,1.200965,-0.6992605000000001,-0.026313
37,1.02047,0.6967125,0.0438055,0.857823,0.4188825,0.0090835,0.804153,0.1754625,0.0311675,1.153633,0.4205725,0.0212415,1.212253,0.1649125,0.0212915,0.784003,-0.0366895,-0.0484545,1.222143,-0.0481785,-0.0570335,0.934083,0.0011594999999999,-0.0003624999999999,1.065917,-0.0011595,0.0003625,0.862013,-0.3395174999999999,-0.0170984999999999,1.135923,-0.3319775,-0.0341505,0.797953,-0.6897575,0.0022165,1.200993,-0.6991975,-0.0262494999999999
38,1.020144,0.696769,0.0437755,0.8578940000000002,0.418829,0.0090195,0.8041240000000001,0.175459,0.0311675,1.153534,0.420449,0.0210965,1.212174,0.164899,0.0212565,0.7840140000000001,-0.036706,-0.0483655,1.222254,-0.048204,-0.0570285,0.934092,0.001166,-0.0003264999999999,1.065908,-0.001166,0.0003265,0.862094,-0.340041,-0.0170325,1.136034,-0.331361,-0.0342844999999999,0.7980240000000001,-0.6896909999999999,0.0021775,1.2010939999999999,-0.699541,-0.0262485
39,1.019698,0.696829,0.0437349999999999,0.857965,0.418759,0.008933,0.804095,0.175449,0.03116,1.153425,0.4203389999999999,0.020987,1.212075,0.164879,0.021219,0.784075,-0.036726,-0.048288,1.222445,-0.048252,-0.057049,0.934103,0.001163,-0.000288,1.065897,-0.001163,0.000288,0.862175,-0.340131,-0.017064,1.136165,-0.332291,-0.034423,0.798125,-0.689401,0.002137,1.201135,-0.699571,-0.026288
40,1.019225,0.696902,0.0437055,0.858021,0.418672,0.0088554999999999,0.804061,0.175432,0.0311635,1.153281,0.420242,0.0208045,1.211961,0.164832,0.0211805,0.7841810000000001,-0.0367469999999999,-0.0481814999999999,1.222661,-0.0483199999999999,-0.0570445,0.934111,0.0011579999999999,-0.0002305,1.065889,-0.0011579999999999,0.0002305,0.8622510000000001,-0.340578,-0.0169674999999999,1.136301,-0.333788,-0.0345545,0.798181,-0.689248,0.0019705,1.201141,-0.698658,-0.0263365
41,1.018736,0.6969845,0.0437165,0.858068,0.4185945,0.0088044999999999,0.804038,0.1754145,0.0311814999999999,1.153148,0.4201545,0.0206335,1.2118579999999999,0.1647745,0.0210754999999999,0.784258,-0.0367995,-0.0480725,1.222868,-0.0483905,-0.0570605,0.9341200000000001,0.0011545,-0.0001605,1.06588,-0.0011545,0.0001604999999999,0.8623080000000001,-0.3403155,-0.0170515,1.136468,-0.3338855,-0.0346495,0.798158,-0.6894155,0.0019414999999999,1.201128,-0.6977654999999999,-0.0264175
42,1.018195,0.6970719999999999,0.043736,0.858101,0.418522,0.0087819999999999,0.8040010000000001,0.175402,0.03119,1.153011,0.420052,0.020448,1.211811,0.1647219999999999,0.020939,0.784331,-0.036847,-0.048001,1.223001,-0.048451,-0.057074,0.934132,0.0011419999999999,-7.300000000000015e-05,1.065868,-0.0011419999999999,7.300000000000015e-05,0.862351,-0.3403279999999999,-0.0170489999999999,1.1366209999999999,-0.335188,-0.034633,0.7982009999999999,-0.689308,0.0019059999999999,1.201131,-0.6969080000000001,-0.026469
43,1.0176675,0.697149,0.0437469999999999,0.8581105,0.418439,0.0087619999999999,0.8039805000000001,0.175379,0.031186,1.1528805,0.419969,0.0202569999999999,1.2117705,0.164689,0.020746,0.7843805,-0.036915,-0.04802,1.2229805,-0.048502,-0.057078,0.9341495,0.001137,8.999999999998592e-06,1.0658505,-0.001137,-9.000000000002062e-06,0.8624005000000001,-0.3402409999999999,-0.017032,1.1367805,-0.336941,-0.034639,0.7981505,-0.689451,0.0018569999999999,1.2011905,-0.696611,-0.026539
44,1.0171915,0.6972325,0.0437455,0.8581145,0.4183825,0.0087315,0.8039345,0.1753325,0.0311725,1.1527845,0.4198825,0.0200554999999999,1.2117244999999999,0.1646525,0.0204714999999999,0.7843545000000001,-0.0370174999999999,-0.0480345,1.2229645,-0.0485925,-0.0571215,0.9341675,0.0011265,8.149999999999824e-05,1.0658325,-0.0011265,-8.150000000000171e-05,0.8624745,-0.3400675,-0.0170775,1.1369445,-0.3389375,-0.0346505,0.7981145000000001,-0.6896275000000001,0.0017864999999999,1.2014045,-0.6969075,-0.0266445
45,1.0167485,0.6973085,0.043725,0.8581175,0.4183285,0.008674,0.8038475,0.1751885,0.031131,1.1527075,0.4198085,0.019821,1.2116175,0.1643785,0.019933,0.7843275000000001,-0.0371275,-0.048077,1.2231975,-0.0485415,-0.057447,0.9341745,0.0011085,0.0001239999999999,1.0658255,-0.0011085,-0.0001239999999999,0.8625575,-0.3399915,-0.017067,1.1370475,-0.3410715,-0.034647,0.7981675,-0.6894115,0.0016879999999999,1.2016575,-0.6978015,-0.026808
46,1.016315,0.697393,0.0437145,0.858136,0.418263,0.0085975,0.803696,0.175223,0.0310005,1.152656,0.419723,0.0195725,1.211516,0.164483,0.0190925,0.784326,-0.037103,-0.0481635,1.223346,-0.048447,-0.0586045,0.934176,0.0010979999999999,0.0001805,1.065824,-0.001098,-0.0001805,0.862656,-0.340087,-0.0171165,1.137146,-0.343257,-0.0346645,0.798266,-0.6892269999999999,0.0016024999999999,1.201886,-0.698237,-0.0269135
47,1.015961,0.697443,0.0436745,0.85816,0.418213,0.0084974999999999,0.80339,0.175193,0.0302274999999999,1.15263,0.4196229999999999,0.0193175,1.2114099999999999,0.164583,0.0175125,0.78411,-0.037133,-0.0493765,1.22346,-0.048346,-0.0610685,0.934184,0.001084,0.0002575,1.065816,-0.001084,-0.0002575,0.8627,-0.340117,-0.0171815,1.13721,-0.343737,-0.0347005,0.79832,-0.6892569999999999,0.0015615,1.202,-0.698727,-0.0270665
48,1.0157095,0.6975065,0.0435824999999999,0.8581845,0.4181765,0.0083034999999999,0.8027445,0.1751665,0.0283775,1.1526445,0.4195865,0.0189635,1.2111844999999999,0.1647765,0.0148485,0.7833445,-0.0371595,-0.0515944999999999,1.2241245,-0.0481655,-0.0651745,0.9342075,0.0010795,0.0003974999999999,1.0657925,-0.0010795,-0.0003974999999999,0.8628045,-0.3392635,-0.0173145,1.1372445,-0.3426435,-0.0348615,0.7983345,-0.6893335,0.0014605,1.2020045,-0.6978635,-0.0273105
49,1.0154975,0.697561,0.043342,0.8582215,0.418151,0.0079389999999999,0.8020015,0.175381,0.024967,1.1526715,0.419561,0.018511,1.2111314999999998,0.166021,0.010137,0.7815715,-0.036358,-0.056272,1.2257215,-0.045741,-0.072257,0.9342545,0.001074,0.000531,1.0657455,-0.001074,-0.000531,0.8629115,-0.338679,-0.017655,1.1373114999999998,-0.340899,-0.0351859999999999,0.7984215,-0.689109,0.0010699999999999,1.2021315,-0.698519,-0.027707
50,1.0152695,0.697588,0.042904,0.8582175000000001,0.4180979999999999,0.007338,0.8011675,0.176818,0.020147,1.1526775,0.419508,0.01781,1.2109975,0.169718,0.003367,0.7782875000000001,-0.033197,-0.064338,1.2282575,-0.039834,-0.083047,0.9342795,0.0010669999999999,0.000656,1.0657205,-0.001067,-0.000656,0.8630075,-0.338032,-0.017903,1.1373674999999999,-0.339472,-0.0353119999999999,0.7984875000000001,-0.6891619999999999,0.000439,1.2022575,-0.698572,-0.028313
51,1.0150605,0.6975075000000001,0.042154,0.8582105,0.4179375,0.006397,0.8001405,0.1794575,0.013669,1.1526905,0.4193475,0.01677,1.2108305,0.1740675,-0.004968,0.7735305,-0.0272315,-0.076287,1.2331105,-0.0306784999999999,-0.098527,0.9342835,0.0010175,0.000812,1.0657165,-0.0010175,-0.000812,0.8632905000000001,-0.3378425,-0.0182,1.1373805,-0.3390525,-0.03542,0.7985105,-0.6893225,-0.0004559999999999,1.2022305,-0.6980525,-0.029253
52,1.0148455,0.6973195000000001,0.0412334999999999,0.8581925,0.4177395,0.0052954999999999,0.7980225,0.1827595,0.0043704999999999,1.1527525,0.4191295,0.0154874999999999,1.2115624999999999,0.1795095,-0.0158805,0.7660525,-0.0184575,-0.0931625,1.2399225,-0.0181445,-0.1188125,0.9342885,0.0009505,0.0010034999999999,1.0657115,-0.0009505,-0.0010035,0.8636225000000001,-0.3363805,-0.0185935,1.1374625,-0.3384905,-0.0356185,0.7985625000000001,-0.6894405,-0.0015265,1.2023425,-0.6983105,-0.0304125
53,1.0146415,0.6970645,0.0401075,0.8581795,0.4177645,0.0042234999999999,0.7947995,0.1873845,-0.0075065,1.1527795,0.4188945,0.0139104999999999,1.2131394999999998,0.1861445,-0.0290985,0.7566995000000001,-0.0056844999999999,-0.1149425,1.2484895,-0.0004445,-0.1441225,0.9342935,0.0008634999999999,0.0011224999999999,1.0657065000000001,-0.0008635,-0.0011225,0.8639395000000001,-0.3341055,-0.0191495,1.1376195,-0.3376555,-0.0359455,0.7986295,-0.6894455,-0.0028365,1.2023895,-0.6980355,-0.0317335
54,1.014423,0.6965065,0.038431,0.858203,0.4180165,0.00272,0.788033,0.1968365,-0.025093,1.152763,0.4188865,0.011687,1.217553,0.1981665,-0.0479929999999999,0.743343,0.0169925,-0.145545,1.259833,0.0275735,-0.177495,0.934293,0.0007605,0.001215,1.065707,-0.0007605,-0.001215,0.864293,-0.3316935,-0.019895,1.137873,-0.3355734999999999,-0.036554,0.7986530000000001,-0.6905034999999999,-0.004619,1.202363,-0.6985835,-0.033394
55,1.014221,0.6957775,0.036631,0.858128,0.4183075,0.00109,0.780668,0.2071275,-0.0430939999999999,1.152788,0.4188975,0.009218,1.222938,0.2133574999999999,-0.068857,0.728738,0.0479715,-0.178505,1.272338,0.0617835,-0.213065,0.9342890000000001,0.0006575,0.001278,1.0657109999999999,-0.0006575,-0.001278,0.864598,-0.3289725,-0.020929,1.1381379999999999,-0.3330525,-0.037318,0.798718,-0.6915025,-0.0066519999999999,1.2024679999999999,-0.6999425,-0.035235
56,1.014031,0.6949575,0.0348065,0.858042,0.4186175,-0.0006794999999999,0.771392,0.2209075,-0.0622545,1.152772,0.4190875,0.0066505,1.229382,0.2322775,-0.0905175,0.714002,0.0847894999999999,-0.2128775,1.285012,0.1019075,-0.2495575,0.934285,0.0005704999999999,0.0013474999999999,1.065715,-0.0005705,-0.0013475,0.864872,-0.3268824999999999,-0.0219315,1.138412,-0.3303525,-0.0381315,0.798762,-0.6925325,-0.0087654999999999,1.202462,-0.7011125,-0.0371985
57,1.0138894999999999,0.694028,0.032996,0.8579515,0.418938,-0.002474,0.7625014999999999,0.238608,-0.082175,1.1527615,0.419308,0.003952,1.2362615,0.253508,-0.111858,0.6997715,0.127968,-0.2480179999999999,1.2973015,0.148538,-0.284808,0.9342775,0.000495,0.001403,1.0657225,-0.0004949999999999,-0.0014029999999999,0.8651415,-0.325252,-0.023044,1.1387014999999998,-0.3275119999999999,-0.038958,0.7987915,-0.693802,-0.010907,1.2024615,-0.7022320000000001,-0.039105
58,1.0137455,0.692914,0.0311945,0.8578095,0.419304,-0.0042385,0.7533795,0.261314,-0.1022695,1.1526995,0.419714,0.0012034999999999,1.2435595,0.275864,-0.1316895,0.6864695000000001,0.176444,-0.2811795,1.3087995000000001,0.1988539999999999,-0.3176895,0.9342685,0.000381,0.0013994999999999,1.0657315,-0.0003809999999999,-0.0013994999999999,0.8653595000000001,-0.323216,-0.0241765,1.1389495,-0.324796,-0.0397455,0.7987795,-0.695296,-0.0130815,1.2023895,-0.703016,-0.0409955
59,1.0135844999999999,0.69174,0.0294475,0.8575925,0.4199199999999999,-0.0059905,0.7440625000000001,0.2828199999999999,-0.1215405,1.1526525,0.42038,-0.0014935,1.2509725,0.29928,-0.1503904999999999,0.6749525000000001,0.22932,-0.3107605,1.3183725,0.25245,-0.3450005,0.9342585,0.0002609999999999,0.0013984999999999,1.0657415,-0.0002609999999999,-0.0013985,0.8655525,-0.32112,-0.0253725,1.1391625,-0.32354,-0.0408335,0.7987325000000001,-0.6968,-0.0151175,1.2023225,-0.70395,-0.0427505
60,1.0133805,0.6905115,0.027675,0.8572695000000001,0.4210115,-0.007722,0.7351894999999999,0.3109515,-0.140835,1.1524295,0.4212615,-0.003965,1.2583995,0.3248915,-0.168205,0.6651895,0.2889415,-0.336485,1.3240794999999999,0.3118415,-0.364965,0.9342515,0.0001885,0.001337,1.0657485,-0.0001884999999999,-0.0013369999999999,0.8654995,-0.3197785,-0.026439,1.1393194999999998,-0.3233785,-0.041865,0.7985795,-0.6984885,-0.016909,1.2021994999999999,-0.7049885,-0.044322
61,1.013096,0.6890895,0.025849,0.8568560000000001,0.4225095,-0.0094849999999999,0.727576,0.3406295,-0.158241,1.152126,0.4225095,-0.0062469999999999,1.263846,0.3511395,-0.183271,0.659396,0.3504994999999999,-0.354421,1.326336,0.3733395,-0.378741,0.934236,0.0001245,0.001194,1.065764,-0.0001244999999999,-0.0011939999999999,0.8652960000000001,-0.3197305,-0.0274169999999999,1.139336,-0.3240505,-0.0427559999999999,0.7983560000000001,-0.7002605000000001,-0.018505,1.202006,-0.7063205,-0.045738
62,1.012862,0.6875659999999999,0.024383,0.856594,0.424206,-0.01095,0.722024,0.371166,-0.173695,1.151854,0.423756,-0.008264,1.267824,0.381316,-0.195385,0.6569140000000001,0.413826,-0.365555,1.326134,0.435176,-0.385195,0.934259,0.000127,0.0010799999999999,1.065741,-0.000127,-0.00108,0.865064,-0.3204639999999999,-0.0281569999999999,1.139254,-0.325184,-0.043438,0.798114,-0.7024440000000001,-0.019796,1.201804,-0.7082740000000001,-0.046952
63,1.0127484999999998,0.6859295,0.0235254999999999,0.8564275,0.4260195,-0.0118055,0.7210575,0.4007395,-0.1833085,1.1515975,0.4248895,-0.0096445,1.2683275,0.4076795,-0.2002885,0.6566775,0.4742395,-0.3664085,1.3258975,0.4896195,-0.3860485,0.9343095,0.0001504999999999,0.0010195,1.0656905,-0.0001505,-0.0010195,0.8648775,-0.3220705,-0.0285775,1.1390275,-0.3266705,-0.0438645,0.7978775,-0.7041405000000001,-0.0205615,1.2015675,-0.7097705000000001,-0.0477745
64,1.0127359999999999,0.6839575,0.022757,0.856294,0.4279975,-0.012357,0.720704,0.4317674999999999,-0.188432,1.151304,0.4260675,-0.010897,1.2681040000000001,0.4337074999999999,-0.200852,0.6564540000000001,0.5302375,-0.366962,1.325674,0.5452575,-0.386602,0.934365,0.0002065,0.0009639999999999,1.0656349999999999,-0.0002064999999999,-0.000964,0.8646940000000001,-0.3240425,-0.028921,1.138884,-0.3286425,-0.04442,0.797654,-0.7061125,-0.021115,1.201404,-0.7117425000000001,-0.04833
65,1.0126635,0.681654,0.0212295,0.8561565,0.4300739999999999,-0.0130394999999999,0.7204365000000001,0.461904,-0.1901305,1.1509165,0.427404,-0.0120605,1.2678765,0.458464,-0.2012905,0.6562265,0.585974,-0.3674005,1.3254465,0.5960639999999999,-0.3870405,0.9344265,0.000262,0.0008575,1.0655735,-0.0002619999999999,-0.0008575,0.8645065000000001,-0.326346,-0.0292445,1.1387064999999998,-0.330926,-0.0448595,0.7974665,-0.708416,-0.0215545,1.2012265,-0.714026,-0.0487704999999999
66,1.012553,0.6793845000000001,0.0187695,0.856197,0.4327045,-0.0138275,0.720217,0.4927045,-0.1904585,1.150497,0.4290745,-0.0130935,1.267657,0.4826545,-0.2016185,0.6590469999999999,0.6373145,-0.3666685,1.3211469999999998,0.6450244999999999,-0.3816985,0.9344870000000001,0.0003564999999999,0.0006875,1.065513,-0.0003564999999999,-0.0006875,0.8643270000000001,-0.3286155,-0.0295724999999999,1.138517,-0.3330555,-0.0451885,0.797277,-0.7107555000000001,-0.0218865,1.201067,-0.7161455000000001,-0.0491005
67,1.0124265,0.675711,0.014836,0.8570505000000002,0.435081,-0.0146419999999999,0.7214705,0.518451,-0.1907029999999999,1.1501204999999999,0.430451,-0.014084,1.2667505000000001,0.510241,-0.2018029999999999,0.6655905,0.684711,-0.358043,1.3129505,0.690061,-0.368153,0.9345525000000001,0.000372,0.0006529999999999,1.0654474999999999,-0.000372,-0.000653,0.8643105,-0.330909,-0.029783,1.1383505,-0.335179,-0.045405,0.7974605000000001,-0.7131890000000001,-0.022521,1.2009805,-0.718279,-0.049816
68,1.012212,0.671756,0.010005,0.858047,0.437726,-0.0155159999999999,0.725247,0.545896,-0.191021,1.149787,0.431556,-0.0149949999999999,1.264417,0.5349360000000001,-0.199571,0.674227,0.725766,-0.345871,1.3038669999999999,0.728866,-0.3518309999999999,0.934635,0.0005859999999999,0.000663,1.065365,-0.0005859999999999,-0.000663,0.864227,-0.333284,-0.029995,1.138167,-0.337554,-0.045774,0.797717,-0.7156239999999999,-0.0233069999999999,1.200877,-0.7206739999999999,-0.050587
69,1.0120175,0.667238,0.0038025,0.8590555,0.439718,-0.0164585,0.7297055,0.566098,-0.1903275,1.1494955,0.4323479999999999,-0.0159065,1.2613855,0.5591079999999999,-0.1958575,0.6830755,0.757958,-0.3316874999999999,1.2945255,0.760578,-0.3348175,0.9347195000000001,0.000781,0.0006814999999999,1.0652804999999999,-0.000781,-0.0006815,0.8640555,-0.3357719999999999,-0.0302035,1.1379755,-0.339812,-0.0462595,0.7980555,-0.718132,-0.0241275,1.2007755,-0.7229220000000001,-0.0515005
70,1.011814,0.6622135,-0.003548,0.860136,0.4412135,-0.017614,0.734576,0.5845235000000001,-0.187163,1.1491859999999998,0.4325934999999999,-0.016857,1.2574459999999998,0.5817535,-0.191353,0.691946,0.7855735,-0.3169929999999999,1.284446,0.7873935000000001,-0.316943,0.93481,0.0009955,0.000609,1.06519,-0.0009954999999999,-0.000609,0.863846,-0.3383765,-0.030589,1.1378059999999999,-0.3421765,-0.046934,0.798416,-0.7207564999999999,-0.025113,1.200706,-0.7252964999999999,-0.052535
71,1.011632,0.6566255,-0.0119654999999999,0.8612840000000002,0.4422755,-0.0187775,0.739574,0.6010955,-0.1842794999999999,1.148884,0.4326155,-0.0177985,1.253454,0.6003455,-0.1858294999999999,0.700604,0.8078255,-0.3022495,1.274924,0.8108155,-0.2975595,0.934882,0.0012075,0.0004355,1.065118,-0.0012075,-0.0004355,0.863654,-0.3410045,-0.0311565,1.137694,-0.3445245,-0.0477245,0.7987240000000001,-0.7234245,-0.0262675,1.200654,-0.7276545,-0.0536775
72,1.0113525,0.6504300000000001,-0.0214205,0.8623784999999999,0.44272,-0.0202105,0.7446085,0.61385,-0.1796154999999999,1.1485685,0.43238,-0.0191705,1.2492885,0.6173700000000001,-0.1800155,0.7089285000000001,0.82311,-0.2875455,1.2666285,0.8316600000000001,-0.2808954999999999,0.9349545,0.00141,0.0002395,1.0650455,-0.00141,-0.0002395,0.8633685,-0.34363,-0.0321815,1.1375685,-0.34699,-0.0489655,0.7988485,-0.7261799999999999,-0.0278864999999999,1.2005284999999999,-0.73012,-0.0552675
73,1.011109,0.6435805,-0.0314475,0.8633919999999999,0.4428605,-0.0218475,0.7495620000000001,0.6246805,-0.1745034999999999,1.148272,0.4320005,-0.0207755,1.245792,0.6315505,-0.1746135,0.715992,0.8429005,-0.2746135,1.259272,0.8450405,-0.2651435,0.935046,0.0016144999999999,4.65000000000001e-05,1.064954,-0.0016144999999999,-4.65000000000001e-05,0.863032,-0.3459895,-0.0335545,1.137532,-0.3492995,-0.0505235,0.7987220000000002,-0.7286795,-0.0300455,1.200482,-0.7324495,-0.0574475
74,1.0109555,0.6367160000000001,-0.041888,0.8641975,0.442836,-0.023906,0.7534575,0.633146,-0.169256,1.1479975,0.431486,-0.022789,1.2428875,0.643526,-0.170046,0.7216875,0.8572960000000001,-0.263746,1.2525975,0.857676,-0.251866,0.9351635000000001,0.0018139999999999,-0.000203,1.0648365,-0.001814,0.000203,0.8626675,-0.347794,-0.035286,1.1376275,-0.351324,-0.052442,0.7984375000000001,-0.7306739999999999,-0.032741,1.2007175,-0.7345539999999999,-0.060198
75,1.0109375,0.629495,-0.0525189999999999,0.8645905,0.4422149999999999,-0.02654,0.7561305,0.637035,-0.164957,1.1477605,0.430825,-0.025323,1.2406005,0.654325,-0.167337,0.7262505,0.870025,-0.255687,1.2471805,0.865835,-0.241967,0.9352955000000001,0.0019759999999999,-0.000407,1.0647045,-0.0019759999999999,0.0004069999999999,0.8620805,-0.349495,-0.0375729999999999,1.1378504999999999,-0.353165,-0.054854,0.7981305,-0.732645,-0.036024,1.2009805,-0.736505,-0.063432
76,1.0109625,0.623517,-0.0629975,0.8643355,0.441737,-0.0298725,0.7572755,0.640487,-0.1653675,1.1476155000000001,0.430587,-0.0283455,1.2387955,0.658877,-0.1674875,0.7285955,0.880857,-0.2536675,1.2450055,0.872137,-0.2384375,0.9354415,0.002187,-0.0005834999999999,1.0645585,-0.002187,0.0005834999999999,0.8611555,-0.350663,-0.0402675,1.1383855,-0.354303,-0.0575115,0.7978755,-0.734103,-0.0395285,1.2013755,-0.737753,-0.0669265
77,1.0108549999999998,0.617498,-0.0739835,0.864054,0.4411879999999999,-0.0340255,0.757664,0.641608,-0.1684834999999999,1.147144,0.430768,-0.0321275,1.237254,0.662368,-0.1697835,0.729264,0.891568,-0.2537435,1.2435640000000001,0.878368,-0.2363935,0.935599,0.002153,-0.0007325,1.064401,-0.002153,0.0007324999999999,0.859844,-0.351652,-0.0436255,1.139384,-0.354802,-0.0608805,0.7974740000000001,-0.735162,-0.0439415,1.201874,-0.738352,-0.0712735
78,1.0105055,0.611938,-0.0857325,0.8637585,0.4411879999999999,-0.0387235,0.7575985000000001,0.641608,-0.1719715,1.1467585,0.430768,-0.0363925,1.2358684999999998,0.662368,-0.1732315,0.7301085,0.896148,-0.2542415,1.2420085,0.886308,-0.2358315,0.9357495,0.002153,-0.0008605,1.0642505,-0.002153,0.0008605,0.8578485,-0.352382,-0.0473844999999999,1.1407285,-0.355412,-0.0646805,0.7968985,-0.735952,-0.0488265,1.2024985,-0.738942,-0.0761095
79,1.010633,0.605498,-0.097634,0.863456,0.4411879999999999,-0.04423,0.7577659999999999,0.641608,-0.175975,1.1467559999999999,0.430768,-0.041374,1.234906,0.662368,-0.177195,0.7309760000000001,0.897008,-0.256695,1.241276,0.892918,-0.239025,0.935809,0.002153,-0.0008979999999999,1.064191,-0.002153,0.0008979999999999,0.855446,-0.352382,-0.051628,1.142306,-0.355412,-0.069006,0.795836,-0.735392,-0.054263,1.203276,-0.7384620000000001,-0.081586
80,1.0106345,0.596028,-0.1096265,0.8628745,0.438938,-0.0521295,0.7578545000000001,0.641608,-0.1804194999999999,1.1467245,0.430768,-0.0487775,1.2341045,0.662368,-0.1813895,0.7321245000000001,0.897008,-0.2605395,1.2404545,0.892918,-0.2432195,0.9358665,0.002153,-0.0010075,1.0641335,-0.002153,0.0010074999999999,0.8521345,-0.352422,-0.0563675,1.1440445,-0.355412,-0.0735965,0.7939645,-0.735062,-0.0603395,1.2042345,-0.738432,-0.0875325
81,1.010468,0.587695,-0.122158,0.862222,0.436355,-0.061638,0.7578320000000001,0.639045,-0.186635,1.146602,0.430395,-0.058116,1.2333319999999999,0.6623249999999999,-0.188025,0.734332,0.899555,-0.265695,1.239382,0.895465,-0.248275,0.935942,0.0021499999999999,-0.001045,1.064058,-0.0021499999999999,0.0010449999999999,0.848122,-0.350455,-0.062082,1.148312,-0.355755,-0.081955,0.7916719999999999,-0.732515,-0.067551,1.205592,-0.7353350000000001,-0.09479
82,1.0101989999999998,0.5803640000000001,-0.132924,0.861627,0.433884,-0.071188,0.7576970000000001,0.6342939999999999,-0.193404,1.146367,0.430174,-0.067492,1.232937,0.6621239999999999,-0.195694,0.736437,0.902624,-0.270844,1.238417,0.8985339999999999,-0.253344,0.935983,0.0020729999999999,-0.0010849999999999,1.064017,-0.002073,0.001085,0.842627,-0.348846,-0.068239,1.152597,-0.353666,-0.090386,0.788787,-0.729716,-0.07461,1.206917,-0.732056,-0.102181
83,1.0099874999999998,0.5717694999999999,-0.1435795,0.8611025,0.4304395,-0.0809485,0.7572825,0.6298794999999999,-0.2007995,1.1460425,0.4276195,-0.0770764999999999,1.2326625,0.6568594999999999,-0.2037695,0.7383625,0.9001195,-0.2761395,1.2374524999999998,0.8992694999999999,-0.2620895,0.9360805,0.0019104999999999,-0.0010655,1.0639195,-0.0019105,0.0010654999999999,0.8356725,-0.3453305,-0.0764275,1.1570224999999998,-0.3491605,-0.0992155,0.7858025,-0.7251305,-0.0818725,1.2082825,-0.7268905,-0.1097465
84,1.009788,0.5650965,-0.1562825,0.860519,0.4272265,-0.0931174999999999,0.756579,0.6251365000000001,-0.2112325,1.1456089999999999,0.4262765,-0.0893005,1.232439,0.6516465,-0.2147025,0.7401490000000002,0.8992965,-0.2840425,1.236489,0.8899265000000001,-0.2729725,0.9362509999999999,0.0016164999999999,-0.0009154999999999,1.063749,-0.0016164999999999,0.0009154999999999,0.828749,-0.3396335,-0.0873134999999999,1.161329,-0.3429835,-0.1105085,0.782709,-0.7185035,-0.0917294999999999,1.209709,-0.7192835,-0.1205755
85,1.0089199999999998,0.5615065,-0.1706455,0.859699,0.4237665,-0.1079725,0.755829,0.6215165,-0.2240555,1.145019,0.4254064999999999,-0.1045755,1.231919,0.6514464999999999,-0.2287455,0.7419990000000001,0.8913765,-0.2965755,1.236279,0.8896864999999999,-0.2877655,0.936397,0.0014264999999999,-0.0010345,1.063603,-0.0014265,0.0010345,0.821789,-0.3280635,-0.1019585,1.166529,-0.3318635,-0.1270065,0.779679,-0.7063535,-0.1038435,1.2110189999999998,-0.7058235,-0.1337415
86,1.0077045,0.5583975,-0.184106,0.8588445,0.4198175,-0.122339,0.7551245,0.6172475000000001,-0.236746,1.1441045,0.4248975,-0.119389,1.2313844999999999,0.6452075,-0.242666,0.7436445,0.8818175,-0.309076,1.2359445,0.8891475000000001,-0.303526,0.9366265,0.0010264999999999,-0.0012209999999999,1.0633735,-0.0010265,0.0012209999999999,0.8150745,-0.3163325,-0.116576,1.1712145,-0.3198825,-0.143148,0.7768345,-0.6936724999999999,-0.11541,1.2121245,-0.6915825,-0.146619
87,1.0060275,0.5576295,-0.196805,0.8578355000000001,0.4165395,-0.137081,0.7546155,0.6131595,-0.249935,1.1430354999999999,0.4242694999999999,-0.134794,1.2307755,0.6417094999999999,-0.257355,0.7450255,0.8755995,-0.323185,1.2354955,0.8914795,-0.320675,0.9368645,0.0004065,-0.001408,1.0631355,-0.0004065,0.0014079999999999,0.8088855,-0.3017405,-0.132278,1.1756955,-0.3044005,-0.160798,0.7740255,-0.6771605,-0.127702,1.2130955,-0.6740005,-0.160074
88,1.0040425,0.5559145,-0.2084565,0.8565355,0.4130645,-0.1512885,0.7541555,0.6070045,-0.2626165,1.1416754999999998,0.4219045,-0.1496775,1.2305154999999999,0.6348645,-0.2721165,0.7461255,0.8609545,-0.3370765,1.2345054999999998,0.8852845,-0.3374165,0.9371495,0.0002044999999999,-0.0013205,1.0628505,-0.0002045,0.0013204999999999,0.8026755,-0.2854355,-0.1488085,1.1803355,-0.2870655,-0.1793435,0.7713455,-0.6595855,-0.1395425,1.2139255,-0.6546255,-0.1731885
89,1.0014085,0.5591755,-0.2192085,0.8553014999999999,0.4123155,-0.1624995,0.7537214999999999,0.6021855,-0.2739485,1.1404715,0.4204255,-0.1616825,1.2302815,0.6302755,-0.2859085,0.7469215,0.8468755,-0.3501285,1.2338715,0.8783855,-0.3536285,0.9373665,5.049999999999499e-05,-0.0011884999999999,1.0626335,-5.050000000000887e-05,0.0011884999999999,0.7970915000000001,-0.2669145,-0.1654034999999999,1.1850615,-0.2679745,-0.1978985,0.7693715,-0.6412345,-0.1501704999999999,1.2146615,-0.6333345,-0.1855655
90,0.998884,0.5596975,-0.22778,0.853993,0.4102475,-0.171304,0.753433,0.6007375,-0.28336,1.139393,0.4177275,-0.170912,1.2301630000000001,0.6294675000000001,-0.29721,0.746953,0.8385575000000001,-0.3621,1.233623,0.8717475,-0.36768,0.937622,-8.149999999999824e-05,-0.00103,1.062378,8.149999999999824e-05,0.00103,0.791903,-0.2482425,-0.181116,1.187463,-0.2479225,-0.21221,0.767783,-0.6220424999999999,-0.158756,1.215053,-0.6115925,-0.1956959999999999
91,0.997929,0.562385,-0.234565,0.852658,0.409545,-0.178756,0.753178,0.601545,-0.291555,1.138318,0.416575,-0.1786559999999999,1.230328,0.625785,-0.306675,0.7474080000000001,0.8341850000000001,-0.372175,1.233498,0.8593850000000001,-0.378295,0.937844,-0.0001649999999999,-0.0008549999999999,1.062156,0.0001649999999999,0.000855,0.788108,-0.227475,-0.19584,1.190428,-0.2268949999999999,-0.226665,0.766918,-0.599955,-0.1663339999999999,1.215488,-0.5878249999999999,-0.204023
92,0.9970450000000001,0.56478,-0.23982,0.8512620000000001,0.40861,-0.185929,0.7529920000000001,0.60099,-0.29947,1.137392,0.41793,-0.186275,1.230632,0.6265499999999999,-0.31552,0.747892,0.83914,-0.3815,1.233352,0.8555999999999999,-0.38789,0.937978,-0.00031,-0.00072,1.062022,0.00031,0.0007199999999999,0.7854320000000001,-0.2073799999999999,-0.209159,1.193552,-0.20631,-0.24134,0.766212,-0.5772400000000001,-0.173347,1.215632,-0.56486,-0.211447
93,0.9961160000000001,0.566485,-0.2416299999999999,0.849972,0.408845,-0.190022,0.7529320000000002,0.601565,-0.30413,1.136512,0.4177349999999999,-0.190977,1.231252,0.624355,-0.32071,0.747522,0.844515,-0.3876,1.233282,0.860415,-0.39419,0.9381720000000001,-0.0001749999999999,-0.0007999999999999,1.061828,0.000175,0.0008,0.782612,-0.187245,-0.2201699999999999,1.197002,-0.184025,-0.25328,0.7657020000000001,-0.553385,-0.177203,1.215632,-0.540605,-0.21449
94,0.9957785000000001,0.567035,-0.2411599999999999,0.8488375,0.408505,-0.192908,0.7523475,0.598295,-0.3073599999999999,1.1356675,0.415485,-0.193466,1.2316975000000001,0.617435,-0.32355,0.7466975,0.847165,-0.3915,1.2330675,0.861955,-0.39851,0.9385025,-0.0001349999999999,-0.0008099999999999,1.0614975,0.0001349999999999,0.00081,0.7790275,-0.170335,-0.23081,1.2001274999999998,-0.1654149999999999,-0.26286,0.7652275,-0.5321450000000001,-0.179387,1.2155175,-0.520635,-0.2155699999999999
95,0.9950415,0.56804,-0.241255,0.8478355,0.4085,-0.196188,0.7517055,0.59677,-0.310335,1.1351155,0.41334,-0.196195,1.2324055,0.61574,-0.326215,0.7460154999999999,0.85258,-0.3951949999999999,1.2333255,0.86317,-0.401575,0.9386975,-4.999999999999449e-05,-0.0008149999999999,1.0613025,4.999999999999449e-05,0.0008149999999999,0.7752355,-0.14985,-0.242125,1.2035355,-0.14464,-0.272795,0.7649155,-0.50822,-0.1814899999999999,1.2154955,-0.4986899999999999,-0.2164849999999999
96,0.9944165000000001,0.566835,-0.2420999999999999,0.8469795,0.4083449999999999,-0.1995179999999999,0.7510395,0.594025,-0.3135099999999999,1.1346195,0.4123249999999999,-0.1988059999999999,1.2332395,0.610835,-0.3287299999999999,0.7448395,0.845625,-0.39805,1.2346495,0.8519549999999999,-0.40425,0.9389115,0.0001149999999999,-0.0008199999999999,1.0610885,-0.000115,0.00082,0.7713995000000001,-0.132115,-0.25332,1.2070595,-0.127185,-0.28253,0.7647995000000001,-0.4866750000000001,-0.18328,1.2154895,-0.479935,-0.21692
97,0.9941210000000001,0.566505,-0.24077,0.8464150000000001,0.406665,-0.20166,0.7503250000000001,0.594165,-0.31498,1.1344949999999998,0.409795,-0.200296,1.233865,0.609595,-0.32894,0.743995,0.850295,-0.39901,1.235785,0.8497950000000001,-0.40461,0.939221,0.0002349999999999,-0.00057,1.060779,-0.0002349999999999,0.0005699999999999,0.7678050000000001,-0.1148549999999999,-0.26169,1.210355,-0.1095849999999999,-0.28947,0.764715,-0.4634149999999999,-0.183119,1.2153450000000001,-0.4596849999999999,-0.21502
98,0.993938,0.5635,-0.239365,0.846286,0.406393,-0.203376,0.749636,0.59505,-0.316275,1.134456,0.407004,-0.20161,1.234656,0.608,-0.328635,0.743286,0.8573999999999999,-0.3996849999999999,1.236786,0.85119,-0.404505,0.939475,0.0003499999999999,-0.000175,1.060525,-0.00035,0.0001749999999999,0.764716,-0.0958499999999999,-0.269015,1.213606,-0.09022,-0.295595,0.764736,-0.43761,-0.182479,1.215056,-0.43882,-0.212705
99,0.993819,0.5625249999999999,-0.236445,0.84612,0.408161,-0.2034,0.74866,0.594725,-0.316385,1.1343,0.407103,-0.201267,1.23549,0.6013850000000001,-0.326495,0.74256,0.862155,-0.398105,1.23785,0.8506549999999999,-0.4026349999999999,0.93965,0.0003049999999999,0.000195,1.06035,-0.0003049999999999,-0.000195,0.76204,-0.0791549999999999,-0.274735,1.21655,-0.073535,-0.300375,0.76463,-0.414935,-0.180381,1.21465,-0.420355,-0.208965
100,0.9951250000000001,0.559845,-0.232475,0.846116,0.406794,-0.202675,0.747316,0.591565,-0.315365,1.1341459999999999,0.403861,-0.20043,1.236586,0.599955,-0.323695,0.742056,0.864355,-0.395965,1.239516,0.8573850000000001,-0.400305,0.9398299999999999,0.0005149999999999,0.0003949999999999,1.06017,-0.0005149999999999,-0.000395,0.7600560000000001,-0.060165,-0.278995,1.219136,-0.0535849999999999,-0.303025,0.764716,-0.393825,-0.176399,1.214116,-0.400385,-0.204605
101,0.9958305,0.5597799999999999,-0.2291865,0.8461205,0.406612,-0.2017965,0.7459804999999999,0.5890299999999999,-0.3142165,1.1339805,0.4011679999999999,-0.1992965,1.2377304999999998,0.59693,-0.3221665,0.7414905,0.86484,-0.3938564999999999,1.2409005,0.86145,-0.3994765,0.9400094999999999,0.0007199999999999,0.0005985,1.0599905,-0.0007199999999999,-0.0005985,0.7586305,-0.0421199999999999,-0.2824465,1.2214405,-0.03387,-0.3044565,0.7647905,-0.3747,-0.1723835,1.2134204999999998,-0.38198,-0.2001764999999999
102,0.997028,0.559885,-0.225598,0.846378,0.403995,-0.199758,0.7447779999999999,0.584185,-0.312368,1.134468,0.399734,-0.196978,1.238528,0.5973849999999999,-0.320698,0.740618,0.8615649999999999,-0.391538,1.241868,0.8560049999999999,-0.398968,0.940024,0.0003149999999999,0.000487,1.059976,-0.000315,-0.000487,0.757848,-0.024805,-0.284168,1.223028,-0.014895,-0.304238,0.764848,-0.357715,-0.168648,1.212688,-0.364475,-0.195228
103,0.9977235,0.558975,-0.2222605,0.8468235,0.40396,-0.1977304999999999,0.7439235,0.583575,-0.3109005,1.1349434999999999,0.396386,-0.1952704999999999,1.2394335,0.595295,-0.3201305,0.7397235,0.860935,-0.3904505,1.2424235,0.844875,-0.3994605,0.9401185,0.001085,0.0006885,1.0598815,-0.001085,-0.0006884999999999,0.7577135,-0.006495,-0.2839905,1.2234734999999999,0.004695,-0.3026005,0.7648535,-0.3396249999999999,-0.1659995,1.2117735,-0.346905,-0.1907805
104,0.9982955,0.5576559999999999,-0.2191484999999999,0.8470835,0.4046189999999999,-0.1950585,0.7434035,0.5811149999999999,-0.3089385,1.1353135,0.3928999999999999,-0.1930985,1.2400635,0.5933149999999999,-0.3194685,0.7378635,0.8552249999999999,-0.3900185,1.2430535,0.833715,-0.3999485,0.9401845,0.0019049999999999,0.0009694999999999,1.0598155,-0.001905,-0.0009694999999999,0.7575735,0.0095249999999999,-0.2826185,1.2235735,0.0203949999999999,-0.3002785,0.7653435,-0.325115,-0.1632255,1.2106235,-0.333465,-0.1872185
105,0.998691,0.558092,-0.2157545,0.848172,0.403384,-0.1922145,0.742902,0.580565,-0.3062945,1.135622,0.388755,-0.1908945,1.240602,0.592965,-0.3190645,0.7365120000000001,0.861335,-0.3890445,1.243302,0.8349150000000001,-0.4010844999999999,0.940152,0.002345,0.0012135,1.059848,-0.0023449999999999,-0.0012135,0.757322,0.027225,-0.2805145,1.223362,0.037555,-0.2970445,0.765942,-0.309925,-0.1607305,1.209262,-0.3183549999999999,-0.1836545
106,0.9986050000000001,0.55868,-0.2122625,0.849407,0.4046099999999999,-0.1890925,0.742327,0.5791629999999999,-0.3036125,1.136217,0.3876199999999999,-0.1881625,1.2412670000000001,0.591425,-0.3181025,0.735357,0.8639999999999999,-0.3863625,1.243527,0.8366199999999999,-0.4008024999999999,0.940026,0.0026399999999999,0.0013594999999999,1.059974,-0.00264,-0.0013594999999999,0.757827,0.0425399999999999,-0.2783025,1.223137,0.0524299999999999,-0.2938825,0.766497,-0.29629,-0.1575115,1.207917,-0.30544,-0.1804625
107,0.998581,0.560634,-0.2090045,0.8505980000000001,0.4038449999999999,-0.1858645,0.741198,0.576324,-0.3003145,1.136768,0.3859849999999999,-0.1849145,1.241938,0.5877069999999999,-0.3166145,0.734278,0.8637349999999999,-0.3832145,1.243508,0.8295249999999998,-0.4012745,0.939708,0.0029249999999999,0.0014654999999999,1.060292,-0.002925,-0.0014655,0.758908,0.0560249999999999,-0.2754345,1.222918,0.0652749999999999,-0.2906145,0.7671380000000001,-0.2861150000000001,-0.1538405,1.206658,-0.2957050000000001,-0.1792745
108,0.9988170000000001,0.5625960000000001,-0.2049155,0.8518450000000001,0.4037900000000001,-0.1829454999999999,0.740035,0.575038,-0.2973255,1.137355,0.3844900000000001,-0.1819855,1.242525,0.5872090000000001,-0.3146354999999999,0.7334849999999999,0.8637300000000001,-0.3804455,1.243185,0.8224200000000002,-0.4020555,0.939167,0.0034,0.0014465,1.060833,-0.0033999999999999,-0.0014464999999999,0.760495,0.0713,-0.2725455,1.222445,0.0794400000000001,-0.2876554999999999,0.767845,-0.2757899999999998,-0.1502795,1.2046350000000001,-0.2848699999999999,-0.1793954999999999
109,0.9992510000000001,0.561746,-0.202307,0.852782,0.405655,-0.180407,0.7388319999999999,0.576071,-0.295117,1.137502,0.385525,-0.179817,1.242692,0.581237,-0.312917,0.732262,0.855545,-0.378567,1.242752,0.809615,-0.403277,0.9383920000000001,0.003705,0.0012999999999999,1.0616079999999999,-0.0037049999999999,-0.0013,0.762082,0.083925,-0.270417,1.221142,0.090385,-0.285077,0.768462,-0.265135,-0.1497,1.202552,-0.2751549999999999,-0.176377
110,0.9998685,0.560903,-0.2002135,0.8534055,0.405835,-0.1775135,0.7374055000000002,0.574074,-0.2927134999999999,1.1378355,0.3860949999999999,-0.1776835,1.2427454999999998,0.576784,-0.3108835,0.7304855,0.847665,-0.3768235,1.2421655,0.798385,-0.4034735,0.9377025,0.003935,0.0011815,1.0622975,-0.003935,-0.0011815,0.7636054999999999,0.0969749999999999,-0.2684335,1.2195155,0.1009649999999999,-0.2821135,0.7689155,-0.254155,-0.1492095,1.1999955,-0.2655149999999999,-0.1729534999999999
111,1.00038,0.559862,-0.1975994999999999,0.8537110000000001,0.4072899999999999,-0.1751395,0.735731,0.573641,-0.2903295,1.137401,0.3845499999999999,-0.1760495,1.242701,0.5705659999999999,-0.3095495,0.728351,0.84136,-0.3756295,1.241571,0.7943499999999999,-0.4038095,0.936923,0.0045799999999999,0.0013095,1.063077,-0.00458,-0.0013094999999999,0.764911,0.1091699999999999,-0.2665895,1.2174909999999999,0.1104299999999999,-0.2791694999999999,0.7695010000000001,-0.24542,-0.1481405,1.197241,-0.25704,-0.1720295
112,1.000622,0.56007,-0.1959105,0.8540920000000001,0.4069799999999999,-0.1721504999999999,0.7348520000000001,0.5717829999999999,-0.2878805,1.136922,0.3859799999999999,-0.1740205,1.242642,0.5671489999999999,-0.3086505,0.726262,0.8344099999999999,-0.3750705,1.241022,0.7954999999999999,-0.4045705,0.936017,0.0041099999999999,0.0011494999999999,1.063983,-0.00411,-0.0011494999999999,0.766212,0.1186299999999999,-0.2643705,1.2149320000000001,0.1176599999999999,-0.2759605,0.768872,-0.23721,-0.1456865,1.194102,-0.2506100000000001,-0.1719205
113,1.001035,0.560564,-0.1934529999999999,0.854583,0.40664,-0.1694129999999999,0.733993,0.571037,-0.2855729999999999,1.136553,0.3871599999999999,-0.172183,1.242763,0.56429,-0.307573,0.724523,0.8274,-0.374243,1.240623,0.7970999999999999,-0.405273,0.935304,0.0037399999999999,0.0009519999999999,1.064696,-0.0037399999999999,-0.0009519999999999,0.7676229999999999,0.1275899999999999,-0.261993,1.212273,0.12571,-0.273333,0.769433,-0.23024,-0.1429099999999999,1.191293,-0.24339,-0.175273
114,1.001537,0.560193,-0.191515,0.854483,0.40804,-0.167645,0.733813,0.570559,-0.283435,1.1361629999999998,0.38797,-0.171005,1.2430430000000001,0.562292,-0.306875,0.723033,0.81803,-0.373545,1.2403629999999999,0.79518,-0.406325,0.934567,0.0039,0.000861,1.065433,-0.0038999999999999,-0.000861,0.768823,0.1338,-0.260065,1.2099929999999999,0.1314400000000001,-0.2718049999999999,0.7697430000000001,-0.2254099999999999,-0.1407169999999999,1.187633,-0.2384999999999999,-0.177435
115,1.0022654999999998,0.560472,-0.1900955,0.8546315000000001,0.40825,-0.1661455,0.7338015,0.571317,-0.2815055,1.1361715000000001,0.38818,-0.1701855,1.2435415,0.560764,-0.3063955,0.7219915,0.81945,-0.3719055,1.2404015,0.79099,-0.4068655,0.9342845,0.00395,0.0008454999999999,1.0657155,-0.00395,-0.0008454999999999,0.7698515000000001,0.13787,-0.2585655,1.2083015,0.13512,-0.2707455,0.7711015,-0.22196,-0.1393265,1.1839215,-0.2362499999999999,-0.1804555
116,1.0031469999999998,0.5601149999999999,-0.1884425,0.854905,0.4077199999999999,-0.1648775,0.734475,0.572661,-0.2797225,1.1363050000000001,0.38732,-0.1695625,1.244175,0.560643,-0.3055825,0.721635,0.82095,-0.3694825,1.241125,0.7921499999999999,-0.4068825,0.934128,0.0040999999999999,0.0008564999999999,1.065872,-0.0040999999999999,-0.0008564999999999,0.770795,0.1398599999999999,-0.2572325,1.206935,0.1366399999999999,-0.2698825,0.773065,-0.21992,-0.1384185,1.181155,-0.23443,-0.1804025
117,1.003906,0.5601149999999999,-0.1867445,0.8550900000000001,0.4077199999999999,-0.1637275,0.73424,0.572661,-0.2781145,1.13638,0.38732,-0.1689345,1.2448199999999998,0.560643,-0.3045045,0.7211000000000001,0.82095,-0.3674145,1.24184,0.7920499999999999,-0.4056545,0.934073,0.0040999999999999,0.0008584999999999,1.065927,-0.0040999999999999,-0.0008584999999999,0.77119,0.13898,-0.2561744999999999,1.20585,0.1355799999999999,-0.2693244999999999,0.77351,-0.22054,-0.1369334999999999,1.17883,-0.23457,-0.1802145
118,1.0040325,0.5601149999999999,-0.1860029999999999,0.8553235000000001,0.4077199999999999,-0.1628649999999999,0.7339135,0.572661,-0.276483,1.1364535,0.38732,-0.168373,1.2453335,0.560643,-0.303803,0.7204135,0.82095,-0.366743,1.2428735,0.7920499999999999,-0.404323,0.9339655,0.0040999999999999,0.000806,1.0660345,-0.0040999999999999,-0.0008059999999999,0.7713035,0.13898,-0.255703,1.2056335,0.1355799999999999,-0.269363,0.7737935000000001,-0.22099,-0.134872,1.1788835,-0.23457,-0.1819529999999999
119,1.004095,0.5601149999999999,-0.1859475,0.85538,0.4077199999999999,-0.1628635,0.7336,0.572661,-0.2756475,1.1365299999999998,0.38732,-0.1683275,1.24576,0.560643,-0.3035474999999999,0.71931,0.82095,-0.3662975,1.2438699999999998,0.7920499999999999,-0.4034475,0.933906,0.0040999999999999,0.0008335,1.066094,-0.0040999999999999,-0.0008335,0.77137,0.13898,-0.2557875,1.20568,0.1355799999999999,-0.2698575,0.77393,-0.22099,-0.1323715,1.1790699999999998,-0.23457,-0.1778175
120,1.0042075,0.560387,-0.1861924999999999,0.8555755,0.40728,-0.1633675,0.7331555000000001,0.572215,-0.2750425,1.1367055,0.38673,-0.1686025,1.2463555,0.559558,-0.3034425,0.7180255000000001,0.82055,-0.3662625,1.2449955,0.7909200000000001,-0.4030924999999999,0.9339495,0.0040099999999999,0.0009735,1.0660505,-0.0040099999999999,-0.0009735,0.7714655000000001,0.13785,-0.2564525,1.2057755000000001,0.1344499999999999,-0.2707025,0.7736955,-0.22004,-0.1317335,1.1794655,-0.2354199999999999,-0.1727525
121,1.0045529999999998,0.562586,-0.1864569999999999,0.856036,0.4053299999999999,-0.164254,0.733026,0.571607,-0.274787,1.1371660000000001,0.38444,-0.169037,1.247046,0.562485,-0.303247,0.716626,0.8287,-0.365877,1.246576,0.79196,-0.402437,0.934368,0.00385,0.001031,1.065632,-0.00385,-0.001031,0.771446,0.13285,-0.257327,1.206166,0.12944,-0.271587,0.7723860000000001,-0.22501,-0.133473,1.182296,-0.23901,-0.169207
122,1.004696,0.5651470000000001,-0.1872855,0.8566740000000002,0.405375,-0.1652305,0.733514,0.574113,-0.2747355,1.137624,0.383005,-0.1699055,1.247764,0.56475,-0.3033655,0.716164,0.834505,-0.3656455,1.248104,0.791975,-0.4016455,0.934858,0.0038749999999999,0.0011585,1.065142,-0.0038749999999999,-0.0011584999999999,0.771124,0.125105,-0.2586255,1.207014,0.122635,-0.2735555,0.771324,-0.227125,-0.1357105,1.186244,-0.2439249999999999,-0.1671905
123,1.0049435,0.567739,-0.1885975,0.8574995,0.4060749999999999,-0.1667975,0.7341595000000001,0.576523,-0.2751875,1.1381195,0.3830449999999999,-0.1713585,1.2486995,0.5692999999999999,-0.3039275,0.7157495,0.8381649999999999,-0.3652375,1.2492895,0.793415,-0.4006075,0.9355255,0.004035,0.0013934999999999,1.0644745,-0.004035,-0.0013935,0.7705595000000001,0.1151349999999999,-0.2605175,1.2085495,0.1143049999999999,-0.2766575,0.7712495,-0.231785,-0.1389805,1.1874995,-0.249485,-0.1662575
124,1.0049365,0.569202,-0.19029,0.8580865,0.406925,-0.169167,0.7338765,0.578236,-0.27617,1.1385365,0.383745,-0.173145,1.2493665,0.575718,-0.30493,0.7149165,0.837995,-0.36441,1.2504165,0.795285,-0.3982799999999999,0.9362925,0.0039449999999999,0.00153,1.0637075,-0.0039449999999999,-0.0015299999999999,0.7691665,0.1020849999999999,-0.26347,1.2105165,0.103545,-0.28081,0.7704465,-0.238255,-0.141309,1.1891565,-0.2606549999999999,-0.170732
125,1.0048149999999998,0.571208,-0.192519,0.858453,0.40702,-0.172578,0.733403,0.57979,-0.277809,1.138873,0.38469,-0.175736,1.2500529999999999,0.579611,-0.305909,0.713313,0.84931,-0.363329,1.251383,0.80067,-0.3948889999999999,0.9370350000000001,0.00373,0.001517,1.062965,-0.00373,-0.0015169999999999,0.767383,0.08588,-0.2680289999999999,1.212413,0.08861,-0.285949,0.770073,-0.2501099999999999,-0.144699,1.191423,-0.27203,-0.175493
126,1.0046694999999999,0.573457,-0.194749,0.8587535,0.4072249999999999,-0.176049,0.7330335,0.581016,-0.279459,1.1390435,0.385225,-0.178724,1.2507234999999999,0.584545,-0.306779,0.7116835,0.857955,-0.362409,1.2525135,0.805765,-0.391189,0.9377825,0.003715,0.0016189999999999,1.0622175,-0.003715,-0.0016189999999999,0.7656735,0.068795,-0.2730889999999999,1.2143635,0.072575,-0.291349,0.7695635000000001,-0.263825,-0.148556,1.1942835,-0.283665,-0.179121
127,1.004298,0.5749029999999999,-0.197008,0.858704,0.407365,-0.17952,0.732434,0.581075,-0.281188,1.1388340000000001,0.3883449999999999,-0.181758,1.251004,0.5874729999999999,-0.307658,0.709544,0.851985,-0.362128,1.253384,0.807955,-0.387818,0.938319,0.0031849999999999,0.0014949999999999,1.061681,-0.0031849999999999,-0.0014949999999999,0.763794,0.0501249999999999,-0.278478,1.215674,0.0549049999999999,-0.296228,0.769784,-0.279505,-0.154444,1.197024,-0.297145,-0.184294
128,1.003941,0.5775589999999999,-0.1987925,0.8590720000000001,0.4083399999999999,-0.1826925,0.7317720000000001,0.5812769999999999,-0.2825725,1.138682,0.3919099999999999,-0.1846765,1.2513619999999999,0.590644,-0.3074225,0.707542,0.8502,-0.3607925,1.254122,0.8107899999999999,-0.3852125,0.938719,0.0026499999999999,0.0013754999999999,1.061281,-0.00265,-0.0013755,0.7622720000000001,0.0311299999999999,-0.2830924999999999,1.216912,0.0367599999999999,-0.3008425,0.768662,-0.29539,-0.1600675,1.2009619999999999,-0.3121100000000001,-0.1888835
129,1.003899,0.578115,-0.199767,0.8594820000000001,0.407979,-0.185151,0.7309220000000001,0.581516,-0.283457,1.138672,0.392758,-0.187097,1.251822,0.5931150000000001,-0.307017,0.705762,0.8457250000000001,-0.359047,1.255072,0.8141750000000001,-0.381967,0.939012,0.002605,0.001305,1.060988,-0.0026049999999999,-0.001305,0.761552,0.0109049999999999,-0.287377,1.218122,0.0171749999999999,-0.305187,0.767942,-0.313075,-0.16581,1.204882,-0.329245,-0.193307
130,1.003919,0.581785,-0.199951,0.859649,0.409255,-0.1870109999999999,0.730259,0.583685,-0.283931,1.138619,0.396088,-0.188805,1.2521689999999999,0.597505,-0.306251,0.704609,0.8404449999999999,-0.357431,1.2557589999999998,0.819055,-0.379501,0.939176,0.0023949999999999,0.0013139999999999,1.060824,-0.002395,-0.0013139999999999,0.761279,-0.008545,-0.291401,1.218609,-0.000825,-0.309231,0.7672289999999999,-0.329555,-0.171557,1.206989,-0.342635,-0.197401
131,1.0039365,0.585215,-0.1993539999999999,0.8597715,0.411668,-0.1879509999999999,0.7299315,0.587215,-0.28354,1.1385815,0.398546,-0.189776,1.2523415,0.603035,-0.30511,0.7037915,0.837375,-0.35538,1.2563815,0.824875,-0.37693,0.9391715,0.002265,0.0011499999999999,1.0608285,-0.0022649999999999,-0.0011499999999999,0.7611715,-0.0268449999999999,-0.2951,1.2185015,-0.0192449999999999,-0.31293,0.7667815,-0.350855,-0.176611,1.2083715,-0.3586249999999999,-0.20239
132,1.0041615,0.589335,-0.196853,0.8598115,0.41385,-0.187341,0.7301314999999999,0.591755,-0.281865,1.1390315,0.403029,-0.188962,1.2528615,0.607095,-0.302475,0.7030415,0.837365,-0.352365,1.2571615,0.836145,-0.372125,0.9390145,0.001975,0.0009949999999999,1.0609855,-0.001975,-0.000995,0.7612715000000001,-0.044485,-0.296755,1.2185815,-0.0384849999999999,-0.315385,0.7664915000000001,-0.3723749999999999,-0.180587,1.2097715,-0.3758149999999999,-0.207575
133,1.004417,0.5949249999999999,-0.193068,0.8599680000000001,0.416539,-0.185657,0.730368,0.597105,-0.278705,1.139458,0.407275,-0.1872059999999999,1.2535180000000001,0.611075,-0.298325,0.702738,0.8451649999999999,-0.347365,1.257948,0.847075,-0.367205,0.9388660000000001,0.0019049999999999,0.000935,1.0611339999999998,-0.0019049999999999,-0.0009349999999999,0.761418,-0.061495,-0.296855,1.218708,-0.057275,-0.3162049999999999,0.766308,-0.394175,-0.183536,1.211078,-0.3925849999999999,-0.2103249999999999
134,1.0049445,0.6006,-0.187861,0.8604715000000001,0.419145,-0.1827019999999999,0.7306315,0.60331,-0.27392,1.1397215,0.411368,-0.1839859999999999,1.2542315,0.61716,-0.29327,0.7030514999999999,0.84724,-0.3407,1.2591215,0.85185,-0.36232,0.9385775,0.00169,0.00106,1.0614225,-0.0016899999999999,-0.0010599999999999,0.7618615,-0.0765399999999999,-0.29477,1.2185215,-0.0733199999999999,-0.31466,0.7661415,-0.4133599999999999,-0.185367,1.2118715,-0.41072,-0.2132099999999999
135,1.0055129999999999,0.6040350000000001,-0.181613,0.860839,0.422391,-0.17792,0.731079,0.606725,-0.26809,1.139959,0.415272,-0.179431,1.254759,0.619495,-0.28732,0.7032290000000001,0.850245,-0.33292,1.259819,0.853865,-0.35599,0.9382270000000001,0.001735,0.0010699999999999,1.0617729999999999,-0.0017349999999999,-0.00107,0.762839,-0.0933049999999999,-0.2907,1.2175989999999999,-0.0910549999999999,-0.3113,0.765939,-0.435295,-0.185993,1.212599,-0.429705,-0.21537
136,1.0062915,0.609885,-0.174856,0.8611735,0.4257849999999999,-0.173238,0.7320435000000001,0.6121749999999999,-0.261835,1.1402435,0.4177049999999999,-0.174838,1.2554635,0.6243049999999999,-0.280945,0.7034834999999999,0.855155,-0.3251549999999999,1.2602435,0.8584649999999999,-0.349265,0.9377525,0.0019449999999999,0.001085,1.0622475,-0.001945,-0.001085,0.7648135,-0.108055,-0.285195,1.2162535,-0.106985,-0.306945,0.7660035000000001,-0.456175,-0.186358,1.2131635,-0.447685,-0.217235
137,1.007013,0.614325,-0.168097,0.861482,0.4280549999999999,-0.1687759999999999,0.733682,0.6152949999999999,-0.255385,1.140342,0.4204249999999999,-0.170181,1.255882,0.630215,-0.274825,0.7041120000000001,0.8528249999999999,-0.318015,1.261232,0.8648049999999999,-0.340915,0.937267,0.0020549999999999,0.0010949999999999,1.062733,-0.002055,-0.0010949999999999,0.767132,-0.123165,-0.278975,1.214622,-0.123115,-0.302225,0.765962,-0.477155,-0.186516,1.213582,-0.466055,-0.218955
138,1.00778,0.620975,-0.1608109999999999,0.861653,0.4335449999999999,-0.163693,0.735313,0.622285,-0.2480949999999999,1.140723,0.424685,-0.165212,1.256103,0.637695,-0.268215,0.704853,0.855715,-0.310535,1.261823,0.8769849999999999,-0.331705,0.936711,0.0019049999999999,0.001015,1.063289,-0.0019049999999999,-0.0010149999999999,0.769923,-0.134575,-0.271395,1.212433,-0.136585,-0.296695,0.765833,-0.494475,-0.186344,1.213973,-0.480595,-0.220135
139,1.0087754999999998,0.625735,-0.152708,0.8622785,0.437625,-0.157949,0.7371285000000001,0.628125,-0.240115,1.1408985,0.427545,-0.159695,1.2565685,0.641305,-0.260335,0.7063585,0.8640650000000001,-0.300085,1.2624385,0.889795,-0.320965,0.9360364999999999,0.001755,0.0011649999999999,1.0639635,-0.001755,-0.0011649999999999,0.7729785,-0.146835,-0.262815,1.2104085,-0.1513949999999999,-0.290955,0.7658185,-0.512405,-0.185437,1.2142385,-0.499135,-0.219285
140,1.0097805,0.6295,-0.143609,0.8629285,0.44109,-0.151374,0.7388985,0.63301,-0.23107,1.1410585,0.4310299999999999,-0.153029,1.2567884999999999,0.6410899999999999,-0.2505699999999999,0.7082585,0.8709,-0.28862,1.2628685,0.89917,-0.3090699999999999,0.9355595,0.0015699999999999,0.00123,1.0644405,-0.00157,-0.0012299999999999,0.7758484999999999,-0.16078,-0.2539599999999999,1.2079385,-0.1665,-0.28384,0.7656785,-0.53169,-0.183377,1.2143585,-0.51847,-0.2173
141,1.0106994999999999,0.63374,-0.134182,0.8627675,0.44432,-0.144581,0.7404474999999999,0.63679,-0.2215599999999999,1.1413975,0.43221,-0.146583,1.2568774999999999,0.64742,-0.24069,0.7102175,0.88214,-0.27637,1.2628375,0.9009,-0.29784,0.9349945,0.00134,0.0011,1.0650055,-0.00134,-0.0011,0.7783175,-0.17456,-0.24586,1.2052275,-0.18032,-0.27622,0.7653875,-0.54963,-0.181037,1.2141575,-0.53701,-0.2149599999999999
142,1.0115475,0.636435,-0.123931,0.8625495000000001,0.449895,-0.136132,0.7420595000000001,0.6410750000000001,-0.211853,1.1416795,0.434135,-0.1391,1.2564695000000001,0.651295,-0.230333,0.7116295,0.886595,-0.264783,1.2626995,0.900395,-0.285363,0.9344925,0.0010249999999999,0.0009039999999999,1.0655075,-0.001025,-0.000904,0.7808695000000001,-0.188565,-0.237353,1.2024495,-0.194515,-0.2679829999999999,0.7649795,-0.567285,-0.17798,1.2136595,-0.555485,-0.211863
143,1.0124075,0.63954,-0.1136689999999999,0.8625125,0.45519,-0.127658,0.7419825,0.64437,-0.201614,1.1419525,0.43455,-0.131803,1.2563225,0.65601,-0.219854,0.7132025,0.8886,-0.254054,1.2622725,0.90235,-0.2722139999999999,0.9340375,0.0010799999999999,0.000813,1.0659625,-0.0010799999999999,-0.0008129999999999,0.7850825,-0.19757,-0.226934,1.1995125,-0.20657,-0.2585739999999999,0.7653325,-0.57901,-0.174319,1.2131925,-0.57177,-0.208394
144,1.0131165,0.64301,-0.102785,0.8627374999999999,0.46048,-0.118916,0.7428575,0.6504599999999999,-0.19128,1.1423675,0.43765,-0.123128,1.2559974999999999,0.65945,-0.208479,0.7146575,0.88911,-0.242619,1.2620875,0.9049,-0.259129,0.9336865,0.00052,0.000669,1.0663135,-0.0005199999999999,-0.000669,0.7891575,-0.20651,-0.2166489999999999,1.1964475,-0.21721,-0.247979,0.7658375,-0.58944,-0.169852,1.2126175,-0.58726,-0.203799
145,1.01354,0.6459855000000001,-0.092377,0.8629980000000002,0.4658355,-0.110364,0.7435579999999999,0.6541254999999999,-0.1817889999999999,1.142778,0.4404055,-0.114937,1.255598,0.6654655,-0.1973579999999999,0.715928,0.8908555,-0.231238,1.261768,0.9110455,-0.247028,0.933467,0.0002365,0.000517,1.066533,-0.0002365,-0.000517,0.793328,-0.2142145,-0.206918,1.193088,-0.2259845,-0.2368779999999999,0.766688,-0.5977745000000001,-0.1651719999999999,1.211828,-0.5997245,-0.198758
146,1.0140075,0.648157,-0.082018,0.8630335,0.474067,-0.10107,0.7441135,0.659747,-0.1722489999999999,1.1432335,0.442127,-0.106562,1.2551535,0.667517,-0.18637,0.7161735,0.895817,-0.22138,1.2612635,0.913067,-0.23574,0.9333045000000001,0.000311,0.000392,1.0666954999999998,-0.0003109999999999,-0.000392,0.7978035,-0.2267429999999999,-0.19711,1.1899335,-0.238493,-0.2255,0.7679835,-0.610533,-0.16014,1.2110334999999999,-0.614933,-0.19312
147,1.0142935,0.6490305000000001,-0.0723169999999999,0.8629495,0.4771605,-0.092557,0.7443295000000001,0.6620005,-0.1632239999999999,1.1438795,0.4434305,-0.098309,1.2547195,0.6677505,-0.175601,0.7166995,0.8985305,-0.210879,1.2604294999999999,0.9089505,-0.225189,0.9333295,0.0002655,0.000363,1.0666705,-0.0002654999999999,-0.000363,0.8024295,-0.2410995,-0.187659,1.1868395,-0.2520795,-0.213729,0.7694495,-0.6248594999999999,-0.154777,1.2102195,-0.6318094999999999,-0.186469
148,1.0143315,0.6489475,-0.0595605,0.8626395,0.4799175,-0.0809275,0.7444495,0.6625475000000001,-0.1509655,1.1444895,0.4440975,-0.0869195,1.2539295,0.6683075,-0.1618325,0.7163795,0.8955675000000001,-0.1996365,1.2595695,0.9007075,-0.2114565,0.9334995000000001,0.0004175,0.0001894999999999,1.0665004999999999,-0.0004174999999999,-0.0001894999999999,0.8071995000000001,-0.2546625,-0.1745364999999999,1.1834995,-0.2652725,-0.1981764999999999,0.7710195000000001,-0.6384025,-0.1461164999999999,1.2093595,-0.6477125,-0.1762965
149,1.0138635,0.6464985,-0.0464,0.8618895,0.4790185,-0.068471,0.7441895000000001,0.6655384999999999,-0.138595,1.1452495,0.4471685,-0.073455,1.2520495,0.6728084999999999,-0.147695,0.7157295,0.8965185,-0.187825,1.2582295000000001,0.8960385,-0.197015,0.9339865,0.0007074999999999,-3.0000000000002247e-05,1.0660135,-0.0007074999999999,2.9999999999995308e-05,0.8126095,-0.2700615,-0.160052,1.1781595,-0.2809115,-0.180525,0.7723995,-0.6537615,-0.1352519999999999,1.2080695,-0.6648915000000001,-0.164215
150,1.0132554999999999,0.6435675000000001,-0.0342125,0.8610495000000001,0.4785875,-0.0566215,0.7438994999999999,0.6683175,-0.1273645,1.1458995,0.4502075,-0.0607505,1.2502195,0.6710075000000001,-0.1343425,0.7150695,0.8920475,-0.1771545,1.2566894999999998,0.8918475,-0.1825545,0.9345035,0.0010914999999999,-0.0003015,1.0654965,-0.0010915,0.0003014999999999,0.8178695,-0.2847425,-0.1459895,1.1729195,-0.2960225,-0.1637045,0.7739195,-0.6683525,-0.1243665,1.2064995,-0.6807924999999999,-0.1519565
151,1.0126685,0.6407795000000001,-0.0230335,0.8601805,0.4751295,-0.0462465,0.7435305000000001,0.6697195,-0.1166975,1.1465605,0.4525194999999999,-0.0487235,1.2483305,0.6692895,-0.1217605,0.7143405,0.8964495,-0.1648775,1.2550605,0.8885095000000001,-0.1687075,0.9350225,0.0014664999999999,-0.0004854999999999,1.0649775,-0.0014665,0.0004854999999999,0.8231505,-0.2981105,-0.1319825,1.1675705,-0.3101205,-0.1473775,0.7754405,-0.6816305,-0.1135245,1.2048305,-0.6951705,-0.1398745
152,1.0121515,0.6369675,-0.012313,0.8591645000000001,0.4723375000000001,-0.035749,0.7428144999999999,0.6706875,-0.106711,1.1473545,0.4557475,-0.036555,1.2463845,0.6672075000000001,-0.109385,0.7132745,0.9011375,-0.1527919999999999,1.2526145,0.8882475,-0.153202,0.9355605,0.0017824999999999,-0.0007389999999999,1.0644395,-0.0017824999999999,0.000739,0.8270745000000002,-0.3131124999999999,-0.119809,1.1623945,-0.3250125,-0.132066,0.7766745000000002,-0.6965525,-0.102057,1.2028745,-0.7098424999999999,-0.127222
153,1.0117425,0.6341095,-0.0028845,0.8581015000000001,0.4687095,-0.0268425,0.7421415,0.6710595,-0.0975805,1.1479314999999999,0.4566395,-0.0262665,1.2444515,0.6672795,-0.0981475,0.7119715000000001,0.9079995,-0.1416355,1.2503015,0.8907995000000001,-0.1387855,0.9360805,0.0022324999999999,-0.0009674999999999,1.0639195,-0.0022325,0.0009674999999999,0.8311415,-0.3249705,-0.1080054999999999,1.1573115,-0.3369505,-0.1180295,0.7778615,-0.7083205,-0.0913175,1.2010215,-0.7217005,-0.1153825
154,1.0113634999999999,0.6302215,0.00602,0.8573365,0.4653715,-0.0178249999999999,0.7419465000000001,0.6718715000000001,-0.08842,1.1485265,0.4571015,-0.015964,1.2426564999999998,0.6646215,-0.087338,0.7107265,0.9150315,-0.13092,1.2480965,0.8909715,-0.12423,0.9364855,0.0027264999999999,-0.0011989999999999,1.0635145,-0.0027264999999999,0.001199,0.8349965,-0.3369085,-0.096303,1.1526065,-0.3485385,-0.104795,0.7790064999999999,-0.7201584999999999,-0.080655,1.1994565,-0.7331985,-0.1038449999999999
155,1.010996,0.6272785,0.0145005,0.856592,0.4599385,-0.0094015,0.741482,0.6721685,-0.0798685,1.149192,0.4582585,-0.0060185,1.240962,0.6639385,-0.0767535,0.709292,0.9214885,-0.1206405,1.2459419999999999,0.8928185,-0.1101845,0.936885,0.0028814999999999,-0.0015285,1.063115,-0.0028814999999999,0.0015284999999999,0.8388720000000001,-0.3477515,-0.0847475,1.147962,-0.3577515,-0.0918645,0.7800320000000001,-0.7306215,-0.0700254999999999,1.197932,-0.7423115,-0.0926935
156,1.0104259999999998,0.6244505,0.0226514999999999,0.856372,0.4561305,-0.0009674999999999,0.741322,0.6730805,-0.0718915,1.149732,0.4601805,0.0039845,1.239012,0.6643505,-0.0663825,0.707612,0.9284205,-0.1103975,1.243382,0.8961304999999999,-0.0962465,0.937261,0.0030624999999999,-0.0019125,1.062739,-0.0030624999999999,0.0019124999999999,0.842352,-0.3574595,-0.0735774999999999,1.143412,-0.3660895,-0.0795645,0.781182,-0.7399595,-0.0592715,1.196332,-0.7503395,-0.0818255
157,1.0099925,0.6220185,0.027063,0.8562485,0.4536884999999999,0.0041829999999999,0.7408485,0.6751085,-0.06749,1.1503585,0.4630284999999999,0.010724,1.2371485,0.6657285,-0.059661,0.7059385,0.9363385,-0.103389,1.2407484999999998,0.9000085,-0.086225,0.9374965,0.0032114999999999,-0.002238,1.0625035,-0.0032115,0.002238,0.8457185,-0.3670915,-0.066242,1.1392084999999998,-0.3747715,-0.071252,0.7823884999999999,-0.7492215,-0.051887,1.1947984999999999,-0.7586715,-0.074507
158,1.009646,0.6224594999999999,0.030084,0.85576,0.4540694999999999,0.008028,0.74108,0.6739195,-0.064272,1.1506,0.4627294999999999,0.0144889999999999,1.23603,0.6660895,-0.054789,0.70487,0.9415495,-0.09759,1.23833,0.9034095,-0.077346,0.937622,0.0031405,-0.002384,1.062378,-0.0031404999999999,0.002384,0.8482000000000001,-0.3698805,-0.060608,1.13704,-0.3775605,-0.065955,0.78369,-0.7520104999999999,-0.046919,1.19352,-0.7614605000000001,-0.0691779999999999
159,1.009267,0.6221140000000001,0.0330815,0.8553930000000001,0.4535339999999999,0.0117165,0.741023,0.6728540000000001,-0.0608365,1.150853,0.462634,0.0184445,1.234693,0.6665840000000001,-0.0497795,0.704033,0.947014,-0.0921065,1.235893,0.905124,-0.0692525,0.9377489999999999,0.0030749999999999,-0.0025094999999999,1.062251,-0.003075,0.0025095,0.850633,-0.372516,-0.0549544999999999,1.134783,-0.380196,-0.0605205,0.784883,-0.7546459999999999,-0.0422095,1.192163,-0.7640960000000001,-0.0642165
160,1.0087754999999998,0.6218095,0.0358755,0.8548825,0.4533195,0.0151455,0.7404725,0.6722195,-0.0574905,1.1511425,0.4627995,0.0219725,1.2332125,0.6672994999999999,-0.0450095,0.7031025,0.9455595,-0.0889055,1.2331925,0.9076695,-0.0620725,0.9378015,0.0030395,-0.0026595,1.0621985,-0.0030395,0.0026595,0.8527025,-0.3744705,-0.0496615,1.1325725,-0.3821505,-0.0554315,0.7859025,-0.7566005,-0.0378425,1.1907225,-0.7660505000000001,-0.0594325
161,1.008389,0.6214040000000001,0.0385875,0.854574,0.453124,0.0185035,0.740024,0.6718040000000001,-0.0540115,1.151394,0.463184,0.0252895,1.232124,0.667894,-0.0406674999999999,0.702264,0.944524,-0.0856675,1.230674,0.907524,-0.0567685,0.9376460000000001,0.002971,-0.0027885,1.0623539999999998,-0.002971,0.0027885,0.854514,-0.375206,-0.0450585,1.130824,-0.382736,-0.0508944999999999,0.786904,-0.7572760000000001,-0.0342225,1.189814,-0.766546,-0.0555585
162,1.0079645,0.6208335,0.041221,0.8543115,0.4527334999999999,0.021675,0.7394815,0.6713435000000001,-0.050616,1.1517315,0.4637235,0.028339,1.2311515,0.6680535000000001,-0.036851,0.7013415000000001,0.9434935,-0.08237,1.2282115,0.9076935,-0.051838,0.9375315000000001,0.0029034999999999,-0.002838,1.0624684999999998,-0.0029035,0.002838,0.8561215,-0.3758565,-0.040927,1.1294215,-0.3832565,-0.046951,0.7879015,-0.7578564999999999,-0.030697,1.1890515,-0.7669665000000001,-0.052139
163,1.0076285,0.6201795,0.043656,0.8540145,0.4521695,0.024749,0.7388844999999999,0.6707295,-0.047403,1.1522345,0.4658595,0.031082,1.2302945,0.6696895,-0.033457,0.7004845,0.9429295,-0.079152,1.2259145,0.9079295,-0.04732,0.9375115,0.0027785,-0.002864,1.0624885,-0.0027784999999999,0.002864,0.8574845,-0.3764004999999999,-0.037381,1.1283645,-0.3835305,-0.043614,0.7888745,-0.7583505,-0.027555,1.1884445,-0.7671905,-0.049017
164,1.007269,0.6195634999999999,0.0458164999999999,0.853583,0.4515334999999999,0.0275485,0.738143,0.6702135,-0.0443745,1.152703,0.4685334999999999,0.0334345,1.229563,0.6715535,-0.0307535,0.699613,0.9427935,-0.0760835,1.223773,0.9079935,-0.0434635,0.937543,0.0026014999999999,-0.0027745,1.062457,-0.0026015,0.0027745,0.858453,-0.3768565,-0.0345855,1.127453,-0.3836665,-0.0410195,0.789733,-0.7587965,-0.0250045,1.187983,-0.7672465,-0.0463915
165,1.006972,0.6190464999999999,0.0475515,0.853128,0.4511165,0.0298494999999999,0.737338,0.6698365,-0.0415575,1.153038,0.4707665,0.0346695,1.229098,0.6737365,-0.0289735,0.6987380000000001,0.9430065,-0.0732705,1.222108,0.9086065,-0.0406454999999999,0.9375730000000001,0.0024565,-0.0026175,1.062427,-0.0024565,0.0026175,0.859008,-0.3771035,-0.0327555,1.126778,-0.3836834999999999,-0.0394734999999999,0.790408,-0.7590635,-0.0234315,1.187778,-0.7672135,-0.0445575
166,1.0064855,0.61851,0.049315,0.8525075,0.45075,0.032152,0.7364275,0.66949,-0.038583,1.1532075,0.4728,0.035475,1.2286774999999999,0.67578,-0.027511,0.6976875,0.94343,-0.070195,1.2204774999999999,0.90893,-0.038325,0.9376615,0.00231,-0.002453,1.0623385,-0.0023099999999999,0.002453,0.8593975,-0.37738,-0.031259,1.1261675,-0.38371,-0.038362,0.7909875,-0.75936,-0.022194,1.1875375,-0.76716,-0.043103
167,1.006063,0.617912,0.0510365,0.852034,0.450482,0.0343645,0.735654,0.669222,-0.0356304999999999,1.153434,0.474912,0.0360905,1.228354,0.677932,-0.0263215,0.6966939999999999,0.944132,-0.0668084999999999,1.218924,0.909132,-0.0362595,0.937727,0.0022119999999999,-0.0023644999999999,1.062273,-0.002212,0.0023645,0.859794,-0.377548,-0.0300024999999999,1.1257139999999999,-0.383718,-0.0375584999999999,0.7915340000000001,-0.759568,-0.0210365,1.187374,-0.767118,-0.0420045
168,1.0057025,0.6173949999999999,0.0527664999999999,0.8515765000000001,0.4500749999999999,0.0366825,0.7349465,0.6688149999999999,-0.0326665,1.1535565,0.4770749999999999,0.0365035,1.2282465,0.6800949999999999,-0.0253395,0.6957565,0.944985,-0.0629615,1.2175665,0.909385,-0.0346225,0.9377765,0.002125,-0.0023334999999999,1.0622235,-0.002125,0.0023335,0.8602265,-0.377675,-0.0289754999999999,1.1253465,-0.383695,-0.0369955,0.7921165,-0.759735,-0.0201045,1.1873165,-0.7670349999999999,-0.0411435
169,1.005339,0.616766,0.0544614999999999,0.85103,0.449956,0.0393935,0.73429,0.668316,-0.0296995,1.15369,0.479166,0.0368094999999999,1.22824,0.682266,-0.0245885,0.69489,0.946046,-0.0586195,1.21649,0.909446,-0.0329465,0.9378660000000001,0.0020359999999999,-0.0022575,1.062134,-0.0020359999999999,0.0022575,0.86065,-0.377814,-0.0282324999999999,1.12503,-0.383684,-0.0366715,0.79271,-0.759934,-0.0194225,1.18733,-0.766974,-0.0407245
170,1.005,0.6163005,0.0560265,0.8503419999999999,0.4496405,0.0419285,0.733692,0.6676105,-0.0268885,1.153902,0.4815305,0.0370725,1.228162,0.6848305,-0.0238345,0.694122,0.9470805,-0.0543985,1.216272,0.9096805,-0.0318585,0.937964,0.0019304999999999,-0.0021065,1.062036,-0.0019305,0.0021065,0.860962,-0.3779595,-0.0276054999999999,1.124722,-0.3836295,-0.0364125,0.793302,-0.7601595,-0.0189475,1.187302,-0.7668695,-0.0404325
171,1.0047525,0.6158175,0.0575055,0.8496535000000001,0.4491575,0.0445065,0.7332635000000001,0.6669075,-0.0240355,1.1541935,0.4838274999999999,0.0374235,1.2280735,0.6872975,-0.0230135,0.6936035,0.9475175,-0.0499955,1.2161335,0.9149175,-0.0304455,0.9380855,0.0018275,-0.0019175,1.0619145,-0.0018274999999999,0.0019175,0.8612235,-0.3780925,-0.0271545,1.1244235,-0.3835725,-0.0361895,0.7938935,-0.7603925,-0.0186565,1.1873235,-0.7667525,-0.0402164999999999
172,1.0045565,0.6153965,0.0588415,0.8490695,0.4489265,0.0466145,0.7329995,0.6663365,-0.0213695,1.1545595,0.4847264999999999,0.0378035,1.2279995,0.6883665,-0.0221535,0.6933095,0.9473465,-0.0455775,1.2156395,0.9215465,-0.0271215,0.9381915,0.0017664999999999,-0.0017035,1.0618085,-0.0017665,0.0017034999999999,0.8614695,-0.3781835,-0.0268764999999999,1.1241695,-0.3835535,-0.0360705,0.7944694999999999,-0.7605635000000001,-0.0185434999999999,1.1873295,-0.7666835,-0.0401684999999999
173,1.0044149999999998,0.614774,0.060119,0.848618,0.448724,0.048388,0.733058,0.666034,-0.018727,1.155108,0.485324,0.038185,1.228158,0.689284,-0.02113,0.693228,0.947144,-0.041005,1.215228,0.921744,-0.02367,0.938287,0.0017339999999999,-0.001486,1.061713,-0.0017339999999999,0.001486,0.861688,-0.378226,-0.026744,1.124008,-0.383536,-0.036097,0.795018,-0.760696,-0.0185649999999999,1.187368,-0.7666459999999999,-0.040355
174,1.004314,0.6141445000000001,0.0614215,0.84829,0.4485444999999999,0.0500325,0.7332799999999999,0.6657945000000001,-0.0163755,1.15551,0.4857745,0.0388155,1.22847,0.6899445,-0.0198835,0.69331,0.9469045,-0.0364515,1.21492,0.9282045,-0.0202345,0.938362,0.0017145,-0.0013224999999999,1.061638,-0.0017144999999999,0.0013225,0.86187,-0.3782755,-0.0266195,1.12391,-0.3835155,-0.0362005,0.79556,-0.7608254999999999,-0.0186255,1.18739,-0.7665955,-0.0405725
175,1.0043565,0.61348,0.0624264999999999,0.8479785,0.44831,0.0514565,0.7335385,0.66553,-0.0144155,1.1558685,0.48611,0.0393984999999999,1.2285485,0.69061,-0.0185675,0.6936085000000001,0.94664,-0.0324095,1.2147985000000001,0.93474,-0.0167585,0.9384345,0.0017,-0.0011845,1.0615655,-0.0016999999999999,0.0011845,0.8620385,-0.37831,-0.0266415,1.1238385,-0.38351,-0.0364155,0.7960985,-0.76095,-0.0187765,1.1874485,-0.76657,-0.0409185
176,1.0044735,0.612875,0.06335,0.8477034999999999,0.448125,0.052672,0.7338435,0.6651549999999999,-0.012436,1.1562935,0.486475,0.040043,1.2286534999999998,0.691245,-0.017107,0.6939635,0.946455,-0.028748,1.2148535,0.941255,-0.012807,0.9385255,0.001685,-0.00114,1.0614745,-0.001685,0.00114,0.8621535,-0.3783249999999999,-0.026693,1.1237435,-0.383495,-0.036612,0.7965335,-0.7609750000000001,-0.018988,1.1874335,-0.766545,-0.0412299999999999
177,1.004698,0.61225,0.064117,0.847416,0.44779,0.053704,0.7341059999999999,0.66471,-0.01066,1.156536,0.48675,0.040727,1.2288459999999999,0.69182,-0.015526,0.694276,0.94607,-0.025643,1.215066,0.94797,-0.008509,0.9386280000000001,0.0016899999999999,-0.001133,1.061372,-0.00169,0.001133,0.862266,-0.37832,-0.026791,1.123636,-0.3834999999999999,-0.036869,0.796936,-0.761,-0.0192299999999999,1.187416,-0.76654,-0.041617
178,1.004913,0.6116050000000001,0.064842,0.847245,0.4475950000000001,0.054389,0.734345,0.6643450000000001,-0.009066,1.156775,0.486935,0.041531,1.229085,0.692285,-0.013731,0.694535,0.945375,-0.023311,1.215385,0.948375,-0.004243,0.9386990000000001,0.0016949999999999,-0.001132,1.0613009999999998,-0.001695,0.0011319999999999,0.862375,-0.378335,-0.02693,1.123535,-0.383505,-0.037143,0.797295,-0.761035,-0.0194909999999999,1.187425,-0.766535,-0.042004
179,1.005078,0.6109549999999999,0.0655375,0.847166,0.447385,0.0548915,0.7345360000000001,0.663915,-0.0077245,1.157186,0.487085,0.0424075,1.2292759999999998,0.692615,-0.0119275,0.694786,0.944395,-0.0210484999999999,1.215656,0.9486949999999998,8.449999999999994e-05,0.938773,0.001685,-0.0011605,1.061227,-0.0016849999999999,0.0011605,0.862456,-0.378335,-0.0270905,1.123426,-0.383495,-0.0374395,0.797606,-0.7610950000000001,-0.0197094999999999,1.187446,-0.766535,-0.0424355
180,1.0052165,0.6103050000000001,0.06625,0.8470895,0.447015,0.055317,0.7347794999999999,0.6633850000000001,-0.006618,1.1576095,0.4872249999999999,0.043252,1.2294495,0.692955,-0.010055,0.6951395,0.943625,-0.01932,1.2158894999999998,0.949025,0.004272,0.9388355,0.001675,-0.001161,1.0611645,-0.0016749999999999,0.001161,0.8625295,-0.378355,-0.027265,1.1233295,-0.383495,-0.0377879999999999,0.7978695,-0.761155,-0.01999,1.1874695,-0.7665150000000001,-0.042925
181,1.0054159999999999,0.60972,0.0670294999999999,0.847044,0.44652,0.0557855,0.735074,0.66286,-0.0055654999999999,1.157884,0.48738,0.0441395,1.229594,0.69333,-0.0081765,0.695584,0.94302,-0.0179515,1.216714,0.94902,0.0063065,0.938882,0.0016499999999999,-0.0011845,1.061118,-0.0016499999999999,0.0011845,0.862584,-0.37839,-0.0275125,1.123214,-0.38347,-0.0381325,0.7980840000000001,-0.7612099999999999,-0.0203175,1.187494,-0.76647,-0.0434675
182,1.0057795,0.60939,0.0677089999999999,0.8470005,0.44633,0.056262,0.7354605000000001,0.6625800000000001,-0.004774,1.1582205,0.48752,0.044943,1.2298305,0.69369,-0.006393,0.6963905,0.94275,-0.016356,1.2175205,0.94895,0.00814,0.9389305,0.0016199999999999,-0.0012209999999999,1.0610694999999999,-0.0016199999999999,0.0012209999999999,0.8626305000000001,-0.37842,-0.0277339999999999,1.1231004999999998,-0.38344,-0.038453,0.7982905000000001,-0.76127,-0.0206529999999999,1.1875205,-0.76643,-0.044041
183,1.0062585,0.6091150000000001,0.068226,0.8469234999999999,0.446235,0.056756,0.7359135,0.6622950000000001,-0.003955,1.1585735,0.4876649999999999,0.04578,1.2301535,0.694005,-0.004659,0.6975035,0.942685,-0.014609,1.2183435,0.948985,0.009861,0.9389925,0.0016149999999999,-0.001263,1.0610075,-0.001615,0.001263,0.8626935,-0.378435,-0.028047,1.1229735,-0.383435,-0.038825,0.7984535,-0.7613350000000001,-0.021053,1.1875335,-0.766405,-0.0446639999999999
184,1.006761,0.609135,0.068727,0.8468910000000001,0.446385,0.0573339999999999,0.736371,0.662315,-0.0030809999999999,1.158851,0.487845,0.046749,1.230521,0.694245,-0.0029449999999999,0.6985510000000001,0.942325,-0.012988,1.219591,0.943625,0.011381,0.939046,0.001615,-0.0013119999999999,1.060954,-0.0016149999999999,0.001312,0.862741,-0.378425,-0.028354,1.122841,-0.3834349999999999,-0.039218,0.798591,-0.7613049999999999,-0.021521,1.187571,-0.7663949999999999,-0.045289
185,1.0072765,0.608895,0.0691374999999999,0.8468445,0.446285,0.0579205,0.7367745,0.662005,-0.0022905,1.1590945,0.487845,0.0477805,1.2308744999999999,0.694245,-0.0013594999999999,0.6995145,0.941925,-0.0115855,1.2207345,0.938125,0.0123625,0.9390925,0.001615,-0.0013494999999999,1.0609075,-0.0016149999999999,0.0013495,0.8627644999999999,-0.378425,-0.0286895,1.1226945,-0.3834349999999999,-0.0396155,0.7986945,-0.7613049999999999,-0.0220635,1.1875845,-0.7663949999999999,-0.0458985
186,1.0079145,0.6086149999999999,0.0695745,0.8468255,0.446185,0.0584434999999999,0.7372355000000002,0.661665,-0.0014104999999999,1.1591655,0.487845,0.0488715,1.2309554999999999,0.694245,9.500000000000394e-06,0.7004255000000001,0.941325,-0.0102385,1.2218555,0.932625,0.0130715,0.9390905,0.001615,-0.0014044999999999,1.0609095,-0.0016149999999999,0.0014045,0.8627955,-0.378425,-0.0290295,1.1225955,-0.3834349999999999,-0.0399825,0.7988055000000001,-0.7613049999999999,-0.0226134999999999,1.1876155,-0.7663949999999999,-0.0464695
187,1.0086125,0.607995,0.0701365,0.8468645,0.4458449999999999,0.0585185,0.7381345,0.659845,0.0004105,1.1592444999999998,0.4878549999999999,0.0500015,1.2310444999999999,0.694335,0.0014134999999999,0.7014045000000001,0.941335,-0.0082815,1.2229145,0.926935,0.0138005,0.9390935,0.001605,-0.0014615,1.0609065,-0.0016049999999999,0.0014615,0.8628145,-0.378425,-0.0293655,1.1225445,-0.383425,-0.0403525,0.7988845,-0.761335,-0.0231565,1.1876345,-0.766355,-0.0471765
188,1.0092994999999998,0.60741,0.0706195,0.8469315,0.44555,0.0589075,0.7389915,0.65809,0.0021584999999999,1.1593315,0.48784,0.0510775,1.2311315,0.69435,0.0026544999999999,0.7023115,0.94156,-0.0064335,1.2238615,0.92116,0.0142834999999999,0.9390935,0.0016,-0.0015235,1.0609065,-0.0016,0.0015235,0.8628415,-0.37843,-0.0297445,1.1225615,-0.38342,-0.0407255,0.7989815,-0.76136,-0.0235955,1.1876915000000001,-0.76632,-0.0478875
189,1.0099225,0.60703,0.070943,0.8470235,0.44543,0.0587889999999999,0.7398635,0.65617,0.0040349999999999,1.1576835,0.48304,0.054084,1.2303335,0.6909,0.004297,0.7032134999999999,0.9417,-0.004506,1.2245035,0.9153,0.0144859999999999,0.9391055,0.00161,-0.0016349999999999,1.0608945,-0.00161,0.001635,0.8628435,-0.37842,-0.030197,1.1225835,-0.38342,-0.041154,0.7990735,-0.76137,-0.024037,1.1877434999999998,-0.76629,-0.048636
190,1.010692,0.606877,0.0712325,0.84733,0.4454369999999999,0.0585715,0.74085,0.654447,0.0058744999999999,1.15598,0.4781769999999999,0.0569405,1.2296099999999999,0.687597,0.0058635,0.7041999999999999,0.942107,-0.0024224999999999,1.22486,0.915507,0.0147885,0.939054,0.0016369999999999,-0.0017244999999999,1.060946,-0.0016369999999999,0.0017245,0.86293,-0.378403,-0.0305954999999999,1.12271,-0.383413,-0.0415945,0.79924,-0.761383,-0.0244334999999999,1.1879199999999999,-0.766273,-0.0493235
191,1.0114495,0.6069875,0.0714969999999999,0.8476435,0.4456775,0.058648,0.7418735000000001,0.6524775,0.007615,1.1539835,0.4725675,0.059583,1.2289035,0.6844075000000001,0.007254,0.7049435,0.9423175,-0.0008619999999999,1.2251635,0.9159175,0.0152019999999999,0.9389925,0.0017375,-0.001858,1.0610075,-0.0017375,0.001858,0.8630535,-0.3783424999999999,-0.031013,1.1228635,-0.3834625,-0.042038,0.7993935,-0.7613325,-0.024828,1.1881435,-0.7662924999999999,-0.0500139999999999
192,1.0121954999999998,0.607225,0.071857,0.8479675,0.446095,0.0587119999999999,0.7427775,0.650575,0.009486,1.1519575,0.467105,0.062054,1.2282475,0.681335,0.008496,0.7054575000000001,0.942785,0.000275,1.2255174999999998,0.916485,0.015757,0.9389255,0.001835,-0.001996,1.0610745,-0.001835,0.0019959999999999,0.8631975000000001,-0.378265,-0.031375,1.1230375,-0.383495,-0.042407,0.7995675,-0.761265,-0.025195,1.1883774999999999,-0.766315,-0.050661
193,1.0129409999999999,0.6074785,0.0722795,0.848309,0.4465885,0.0587245,0.7435790000000001,0.6487185,0.0112354999999999,1.149889,0.4617185,0.0643435,1.227599,0.6783485,0.0096034999999999,0.7059390000000001,0.9431385,0.0018474999999999,1.225929,0.9173385,0.0164575,0.938868,0.0019574999999999,-0.0021505,1.061132,-0.0019575,0.0021505,0.863329,-0.3781615,-0.0316995,1.1232389999999999,-0.3835515,-0.0427704999999999,0.799729,-0.7611815,-0.0255335,1.1886189999999999,-0.7663615,-0.0512834999999999
194,1.013658,0.6078435000000001,0.0727225,0.848705,0.4471734999999999,0.0587305,0.744205,0.6470935,0.0129964999999999,1.147695,0.4562835,0.0664915,1.226995,0.6753735000000001,0.0106414999999999,0.706385,0.9433635,0.0035384999999999,1.226345,0.9182635,0.0175894999999999,0.938822,0.0020904999999999,-0.0023095,1.061178,-0.0020904999999999,0.0023095,0.8634750000000001,-0.3780465,-0.0319875,1.123465,-0.3836065,-0.0431094999999999,0.799885,-0.7610564999999999,-0.0258585,1.188845,-0.7664165,-0.0518755
195,1.0143039999999999,0.60831,0.073131,0.849131,0.44783,0.0587589999999999,0.744891,0.64587,0.0147209999999999,1.145521,0.45092,0.068502,1.226401,0.67249,0.011708,0.7068310000000001,0.94367,0.0054059999999999,1.226781,0.91967,0.018557,0.938751,0.0022109999999999,-0.002423,1.061249,-0.002211,0.002423,0.863651,-0.3779599999999999,-0.032271,1.123751,-0.38365,-0.043422,0.8000309999999999,-0.76095,-0.02616,1.189101,-0.76645,-0.05244
196,1.014872,0.6089285,0.0733855,0.849566,0.4485384999999999,0.0586924999999999,0.745146,0.6456985,0.0154885,1.143456,0.4455685,0.0703085,1.225806,0.6696185,0.0125805,0.7071959999999999,0.9434785,0.0067155,1.227266,0.9200785,0.0186375,0.938693,0.0023244999999999,-0.0025285,1.061307,-0.0023245,0.0025285,0.863836,-0.3778815,-0.0325465,1.124036,-0.3836915,-0.0437375,0.800146,-0.7608615,-0.0265165,1.189286,-0.7665015,-0.0528864999999999
197,1.015388,0.6095715,0.073641,0.8500090000000001,0.4492815,0.058607,0.745359,0.6465515000000001,0.016339,1.141279,0.4403015,0.072037,1.225269,0.6668315,0.0134889999999999,0.707429,0.9443215,0.008198,1.227839,0.9171215,0.018726,0.938624,0.0024455,-0.002653,1.061376,-0.0024455,0.0026529999999999,0.8640290000000002,-0.3777985,-0.0327859999999999,1.124349,-0.3837385,-0.0440249999999999,0.8002490000000001,-0.7607585,-0.026948,1.1894689999999999,-0.7665584999999999,-0.053273
198,1.015896,0.6100559999999999,0.074022,0.850441,0.4499059999999999,0.058507,0.7455610000000001,0.647366,0.017013,1.140981,0.439866,0.071818,1.225471,0.667466,0.013893,0.7076709999999999,0.945136,0.0097929999999999,1.228661,0.914236,0.018915,0.938579,0.0025569999999999,-0.002754,1.061421,-0.002557,0.0027539999999999,0.8642110000000001,-0.377724,-0.032973,1.1246509999999998,-0.383774,-0.044219,0.800331,-0.7606740000000001,-0.027238,1.189681,-0.7666040000000001,-0.053567
199,1.016227,0.6103065000000001,0.0744345,0.850602,0.4502664999999999,0.0582664999999999,0.745602,0.6485765000000001,0.0176204999999999,1.140682,0.4395965,0.0716205,1.225572,0.6674865000000001,0.0144515,0.707702,0.9463965,0.0113635,1.2294019999999999,0.9105965,0.0192145,0.9385860000000001,0.0026295,-0.0028504999999999,1.0614139999999999,-0.0026294999999999,0.0028505,0.8642820000000001,-0.3776735,-0.0330735,1.1248319999999998,-0.3838035,-0.0443355,0.800292,-0.7605735,-0.0272535,1.1897820000000001,-0.7666535000000001,-0.0537495
200,1.016461,0.6103725,0.074955,0.850677,0.4504324999999999,0.058008,0.745727,0.6481025,0.018382,1.140697,0.4397625,0.071571,1.2256070000000001,0.6673125,0.015185,0.7078870000000002,0.9458625,0.0130239999999999,1.230087,0.9067025,0.0195389999999999,0.9386020000000002,0.0026345,-0.002924,1.0613979999999998,-0.0026344999999999,0.0029239999999999,0.864297,-0.3776775,-0.033149,1.1249069999999999,-0.3837775,-0.044402,0.800197,-0.7605474999999999,-0.027295,1.189857,-0.7666375000000001,-0.05385
201,1.0166244999999998,0.610382,0.0754099999999999,0.8507165,0.4504619999999999,0.057822,0.7457564999999999,0.648562,0.018829,1.1407064999999998,0.4397919999999999,0.071505,1.2260464999999998,0.6670119999999999,0.015922,0.7079664999999999,0.946292,0.0146619999999999,1.2307265,0.902722,0.019871,0.9386115,0.0026299999999999,-0.002988,1.0613885,-0.00263,0.0029879999999999,0.8643164999999999,-0.377698,-0.033215,1.1249665,-0.383758,-0.044421,0.8000965,-0.760518,-0.027315,1.1898965,-0.7666280000000001,-0.053874
202,1.0167245,0.6103875,0.07581,0.8507555,0.4507575,0.0578,0.7457955000000001,0.6482374999999999,0.019273,1.1407055,0.4397975,0.071484,1.2264855,0.6666974999999999,0.0166639999999999,0.7081055,0.9459975,0.015903,1.2313255,0.8987375,0.020176,0.9386105,0.0026245,-0.0030089999999999,1.0613895,-0.0026245,0.0030089999999999,0.8644155,-0.3777025,-0.033239,1.1250155,-0.3837525,-0.044437,0.7999855,-0.7605125,-0.027332,1.1899255,-0.7666225000000001,-0.053826
203,1.016804,0.6104040000000001,0.0761735,0.850769,0.451024,0.0577795,0.7459490000000001,0.6479940000000001,0.0194085,1.140749,0.440444,0.0716595,1.226909,0.666444,0.0174095,0.708249,0.945714,0.0169615,1.231909,0.894814,0.0204415,0.938627,0.002613,-0.0030094999999999,1.061373,-0.002613,0.0030095,0.8644990000000001,-0.377706,-0.0332415,1.125049,-0.383746,-0.0444375,0.7998689999999999,-0.760496,-0.0273285,1.189919,-0.766616,-0.0537615
204,1.0168385,0.6104135,0.076475,0.8507275000000001,0.4513235,0.057781,0.7459075,0.6488235,0.01941,1.1408375,0.4412835,0.071976,1.2273075,0.6661935,0.018104,0.7082975,0.9465235,0.017853,1.2323675,0.8945335000000001,0.020793,0.9386685,0.0026035,-0.0030109999999999,1.0613315,-0.0026034999999999,0.003011,0.8645775,-0.3777064999999999,-0.033245,1.1250475,-0.3837465,-0.044438,0.7997275,-0.7604865,-0.0273519999999999,1.1898775,-0.7666164999999999,-0.053707
205,1.0168594999999998,0.6104685000000001,0.076661,0.8506595,0.4515885,0.0577979999999999,0.7459395,0.6491085000000001,0.019424,1.1409395,0.4421385,0.072338,1.2276295,0.6659785,0.01871,0.7084095,0.9469085,0.018539,1.2324995,0.8945384999999999,0.02084,0.9387145,0.0025734999999999,-0.0030279999999999,1.0612855,-0.0025735,0.0030279999999999,0.8646395,-0.3777315,-0.033305,1.1250295,-0.3837115,-0.044422,0.7995595,-0.7604614999999999,-0.027381,1.1898095,-0.7665815,-0.053694
206,1.0168395,0.610487,0.076821,0.8505865000000001,0.451767,0.0577219999999999,0.7458865,0.649937,0.0194839999999999,1.1410965,0.443107,0.0728579999999999,1.2278565,0.665877,0.0192829999999999,0.7084165,0.9477369999999998,0.019129,1.2324964999999999,0.894657,0.0211139999999999,0.9387595,0.0025419999999999,-0.003085,1.0612405,-0.002542,0.0030849999999999,0.8646665,-0.377763,-0.033365,1.1249865,-0.383673,-0.044397,0.7994065000000001,-0.7604630000000001,-0.027391,1.1897365,-0.766553,-0.053634
207,1.016807,0.6104805,0.07696,0.850519,0.4519105,0.057706,0.745939,0.6508005,0.01961,1.141269,0.4440604999999999,0.073464,1.2280389999999999,0.6657505,0.019894,0.7084889999999999,0.9485105,0.019692,1.232429,0.8954805,0.022458,0.93881,0.0025284999999999,-0.0031589999999999,1.06119,-0.0025285,0.003159,0.864689,-0.3777795,-0.03336,1.124929,-0.3836495,-0.0442969999999999,0.7992490000000001,-0.7604495,-0.0272929999999999,1.189649,-0.7665394999999999,-0.053493
208,1.01677,0.6104485,0.077166,0.850476,0.4520185,0.057729,0.746046,0.6507584999999999,0.0196529999999999,1.141466,0.4449984999999999,0.074092,1.228166,0.6655785,0.020419,0.708646,0.9485385,0.0202979999999999,1.2324060000000001,0.8995785,0.0250449999999999,0.9388650000000001,0.0025184999999999,-0.003209,1.061135,-0.0025185,0.003209,0.864716,-0.3778015,-0.033335,1.124876,-0.3836414999999999,-0.04415,0.7991160000000002,-0.7604315,-0.027178,1.189606,-0.7665415,-0.053294
209,1.016721,0.610416,0.0774105,0.850405,0.452086,0.0577774999999999,0.7461450000000001,0.650586,0.0196225,1.141645,0.445886,0.0747635,1.228155,0.665366,0.0208565,0.7087750000000002,0.948326,0.0205375,1.232135,0.8996460000000001,0.0270655,0.938928,0.0024969999999999,-0.0032264999999999,1.061072,-0.0024969999999999,0.0032265,0.864715,-0.377824,-0.0332945,1.124785,-0.383634,-0.0439835,0.798915,-0.760414,-0.0270105,1.189555,-0.766524,-0.0529945
210,1.016678,0.6104585,0.0776704999999999,0.850328,0.4521585,0.0578265,0.7461880000000001,0.6503785,0.0195855,1.141818,0.4467584999999999,0.0754455,1.228118,0.6651785,0.0213165,0.709408,0.9480985,0.0207895,1.232008,0.8989885,0.0280944999999999,0.938978,0.0024744999999999,-0.0032395,1.061022,-0.0024745,0.0032394999999999,0.864708,-0.3778415,-0.0332765,1.124688,-0.3836315,-0.0438235,0.7986980000000001,-0.7603815,-0.0268585,1.189508,-0.7665115,-0.0526625
211,1.016672,0.6105499999999999,0.0778915,0.8502660000000001,0.45216,0.0579724999999999,0.746256,0.65035,0.0195424999999999,1.142006,0.4475399999999999,0.0761615,1.228086,0.66554,0.0218225,0.710196,0.94807,0.0210885,1.231786,0.90348,0.0308155,0.939016,0.002478,-0.0032334999999999,1.060984,-0.0024779999999999,0.0032335,0.864676,-0.37785,-0.0332835,1.1245859999999999,-0.38364,-0.0436215,0.7985059999999999,-0.76037,-0.0266404999999999,1.189496,-0.76652,-0.0522735
212,1.0166985,0.6106535,0.0779845,0.8502365000000001,0.4521535,0.0581155,0.7462265,0.6497335,0.0195154999999999,1.1420865,0.4479435,0.0766665,1.2280665,0.6658634999999999,0.0223645,0.7109965,0.9421435,0.0207835,1.2315265,0.9080435,0.0334524999999999,0.9390335000000001,0.0024814999999999,-0.0032105,1.0609665,-0.0024815,0.0032105,0.8646565000000002,-0.3778465,-0.0332685,1.1245165,-0.3836565,-0.0434495,0.7983565000000001,-0.7603565000000001,-0.0264465,1.1895065,-0.7665265000000001,-0.0519645
213,1.0167365,0.6107480000000001,0.078075,0.8502265,0.452128,0.0582779999999999,0.7462165000000001,0.649678,0.019508,1.1421265,0.448158,0.077013,1.2280465,0.6662380000000001,0.0227969999999999,0.7118264999999999,0.942188,0.021287,1.2313565,0.912888,0.036074,0.9390315,0.002504,-0.003219,1.0609685,-0.0025039999999999,0.0032189999999999,0.8645965000000001,-0.377832,-0.033232,1.1244265,-0.383692,-0.04328,0.7982365000000001,-0.7603219999999999,-0.0263,1.1894365,-0.7665420000000001,-0.051562
