sb224sc-HT22-VT27/4dt907/src/data/kinect_good_preprocessed_not_cut_A11_mediapipe/A44_kinect.csv
FrameNo,nose_3d_x,nose_3d_y,nose_3d_z,left_shoulder_3d_x,left_shoulder_3d_y,left_shoulder_3d_z,left_elbow_3d_x,left_elbow_3d_y,left_elbow_3d_z,right_shoulder_3d_x,right_shoulder_3d_y,right_shoulder_3d_z,right_elbow_3d_x,right_elbow_3d_y,right_elbow_3d_z,left_wrist_3d_x,left_wrist_3d_y,left_wrist_3d_z,right_wrist_3d_x,right_wrist_3d_y,right_wrist_3d_z,left_hip_3d_x,left_hip_3d_y,left_hip_3d_z,right_hip_3d_x,right_hip_3d_y,right_hip_3d_z,left_knee_3d_x,left_knee_3d_y,left_knee_3d_z,right_knee_3d_x,right_knee_3d_y,right_knee_3d_z,left_ankle_3d_x,left_ankle_3d_y,left_ankle_3d_z,right_ankle_3d_x,right_ankle_3d_y,right_ankle_3d_z
0,-0.0182555,0.697001,0.040014999999999995,-0.1534565,0.421491,0.020968999999999998,-0.21011649999999998,0.171041,0.023055,0.1429735,0.419321,0.008617,0.19566350000000002,0.175991,0.031128999999999997,-0.2230365,-0.042145,-0.054581000000000005,0.2162335,-0.036493000000000005,-0.047158000000000005,-0.06610250000000001,-0.001041,0.0006649999999999989,0.06610250000000001,0.0010409999999999998,-0.0006650000000000024,-0.13590649999999999,-0.328919,-0.033553,0.1377835,-0.331399,-0.017316000000000005,-0.2028965,-0.698609,-0.024475000000000004,0.2002835,-0.687119,0.004230999999999999
1,-0.018316999999999996,0.6969799999999999,0.040023500000000004,-0.153289,0.42139000000000004,0.020771500000000002,-0.210389,0.16969,0.0226305,0.142961,0.41929,0.0085965,0.195571,0.17625,0.0312215,-0.223189,-0.043461,-0.0551025,0.216191,-0.036219999999999995,-0.047091499999999994,-0.06609799999999999,-0.0010550000000000002,0.0006005000000000003,0.06609799999999999,0.001055,-0.0006005000000000003,-0.136219,-0.34278,-0.0327415,0.137571,-0.33808,-0.016182500000000002,-0.203749,-0.70241,-0.023608499999999998,0.201531,-0.69109,0.0036605000000000006
2,-0.018264500000000003,0.6969854999999999,0.0400605,-0.15320250000000002,0.4214555,0.0207865,-0.2105625,0.1694555,0.0224795,0.1429575,0.4192455,0.008587500000000001,0.19554749999999999,0.1762155,0.0313035,-0.2232725,-0.0437535,-0.055097499999999994,0.2161575,-0.0362135,-0.0471505,-0.06610250000000001,-0.0010335,0.0005715000000000026,0.06610250000000001,0.0010335000000000001,-0.0005714999999999991,-0.1359825,-0.34444450000000004,-0.032924499999999995,0.1375275,-0.3394745,-0.015817499999999998,-0.2037625,-0.7022645000000001,-0.023440499999999996,0.20206749999999998,-0.6939945000000001,0.0048115
3,-0.0182545,0.6969915,0.04008,-0.1531395,0.4215015,0.020768000000000002,-0.21064950000000002,0.1691815,0.02248,0.1429705,0.4192315,0.008565,0.1955105,0.1765315,0.031382,-0.22332950000000001,-0.0439905,-0.055217999999999996,0.21605049999999998,-0.035888500000000004,-0.047107,-0.06610650000000001,-0.0010185,0.0005579999999999995,0.06610650000000001,0.0010185,-0.0005579999999999995,-0.1365095,-0.34732850000000004,-0.032701,0.1374105,-0.34039850000000005,-0.015598,-0.2037595,-0.7023885,-0.023432,0.2006605,-0.6861685000000001,0.004397999999999999
4,-0.018236499999999996,0.697048,0.040036,-0.1528815,0.42131799999999997,0.020559,-0.21053149999999998,0.169948,0.022465,0.1429785,0.41920799999999997,0.008589,0.1954685,0.176608,0.031335,-0.22324149999999998,-0.043283,-0.05505500000000001,0.21604849999999998,-0.035821,-0.047136,-0.0661075,-0.00102,0.000562,0.0661075,0.00102,-0.000562,-0.1364415,-0.347482,-0.032657000000000005,0.1378585,-0.336152,-0.016392,-0.2028415,-0.6928519999999999,-0.024335,0.19971850000000002,-0.681962,0.0036199999999999982
5,-0.0182095,0.6970345,0.0401055,-0.1527685,0.4212745,0.0204275,-0.2106385,0.16926449999999998,0.0222335,0.1429915,0.41919449999999997,0.0086065,0.19546149999999998,0.1765445,0.0313035,-0.2229585,-0.0440185,-0.055193500000000006,0.21608149999999998,-0.0358915,-0.0471365,-0.06610650000000001,-0.0010205,0.0005684999999999996,0.06610650000000001,0.0010205000000000001,-0.0005684999999999996,-0.13593850000000002,-0.33280550000000003,-0.0324765,0.1375315,-0.3383255,-0.015939500000000002,-0.20229850000000002,-0.6908455,-0.0241575,0.2000615,-0.6838055,0.003702500000000001
6,-0.018113,0.6970025,0.0400215,-0.152556,0.4212325,0.0200855,-0.210796,0.1688025,0.0219885,0.143014,0.41915250000000004,0.0089165,0.195454,0.1763625,0.0311815,-0.22284600000000002,-0.0443985,-0.055737499999999995,0.216114,-0.0360355,-0.04734050000000001,-0.06609599999999999,-0.0010305000000000002,0.00039950000000000055,0.06609599999999999,0.0010305000000000002,-0.00039950000000000055,-0.136056,-0.3292275,-0.0325365,0.137324,-0.3373575,-0.016170499999999997,-0.20272600000000002,-0.6960375000000001,-0.0247335,0.20108399999999998,-0.6883275,0.0032654999999999976
7,-0.0182035,0.697025,0.040124,-0.1525205,0.421235,0.019964999999999997,-0.21088050000000003,0.16871499999999998,0.022091999999999997,0.14308949999999998,0.41918500000000003,0.008660999999999999,0.19557950000000002,0.176165,0.031219999999999998,-0.22292050000000002,-0.044473,-0.055741000000000006,0.2162195,-0.036146,-0.047425,-0.0660785,-0.001032,0.00041699999999999723,0.0660785,0.001032,-0.0004170000000000007,-0.1359305,-0.328835,-0.032955000000000005,0.1374995,-0.338495,-0.015972,-0.20283050000000002,-0.697605,-0.024186,0.2008295,-0.686875,0.003376999999999998
8,-0.0181805,0.6970265,0.040181,-0.15242150000000002,0.4212165,0.01983,-0.2109915,0.1685565,0.02207,0.14311849999999998,0.4191765,0.008667000000000001,0.1955885,0.1761665,0.031212,-0.2228815,-0.0446215,-0.055825,0.2162385,-0.0361445,-0.047486,-0.06607350000000001,-0.0010305,0.000390999999999999,0.06607350000000001,0.0010305000000000002,-0.000390999999999999,-0.1359515,-0.3283635,-0.032973999999999996,0.13745849999999998,-0.3388135,-0.015927999999999998,-0.2029115,-0.6975335,-0.024207,0.20081849999999998,-0.6870635,0.0032890000000000003
9,-0.0181515,0.6970295000000001,0.040253500000000005,-0.1523295,0.4211995,0.019814500000000002,-0.2110995,0.1683895,0.022038500000000003,0.1431505,0.4191695,0.008684500000000001,0.1956005,0.17614950000000001,0.031203500000000002,-0.2228195,-0.0447705,-0.055895499999999994,0.2162705,-0.0361445,-0.0475505,-0.0660685,-0.0010275,0.00036650000000000224,0.0660685,0.0010275000000000002,-0.00036649999999999877,-0.13595949999999998,-0.3285505,-0.0330025,0.1374305,-0.3390705,-0.0158745,-0.20289949999999998,-0.6975304999999999,-0.0242425,0.2007005,-0.6870605,0.0031795000000000018
10,-0.018126000000000003,0.69703,0.040343000000000004,-0.152247,0.42119,0.019781,-0.211217,0.16823,0.022007000000000002,0.143173,0.41916,0.008710000000000002,0.195623,0.17612,0.031189,-0.222747,-0.044929,-0.055977,0.216283,-0.036159,-0.047623,-0.06606400000000001,-0.001027,0.000342000000000002,0.06606400000000001,0.0010270000000000001,-0.00034199999999999856,-0.136007,-0.32771,-0.033012,0.13739300000000002,-0.33926,-0.015843999999999997,-0.20288699999999998,-0.69753,-0.024306,0.200563,-0.68706,0.0030570000000000007
11,-0.017997999999999997,0.6970735,0.040574,-0.15213100000000002,0.42133349999999997,0.019762999999999996,-0.21130100000000002,0.1683335,0.021976999999999997,0.143359,0.4191335,0.008773,0.195719,0.1759635,0.031184999999999997,-0.22265100000000002,-0.044818500000000004,-0.056025,0.216329,-0.0362965,-0.047684,-0.066058,-0.0010014999999999998,0.00033099999999999796,0.066058,0.0010015,-0.00033100000000000143,-0.136031,-0.32683650000000003,-0.033036,0.137299,-0.3392965,-0.015898000000000002,-0.202941,-0.6964865,-0.024377000000000003,0.200379,-0.6874265,0.0028919999999999987
12,-0.017872,0.6971040000000001,0.0407965,-0.152024,0.421464,0.0197335,-0.211364,0.16842400000000002,0.0219445,0.143546,0.41910400000000003,0.008837499999999998,0.195816,0.175794,0.0311825,-0.22259400000000001,-0.044727,-0.056070499999999995,0.216376,-0.036445,-0.0477465,-0.066051,-0.000977,0.0003114999999999993,0.066051,0.000977,-0.0003114999999999993,-0.13607399999999997,-0.326606,-0.0330565,0.13719599999999998,-0.33977599999999997,-0.015887500000000002,-0.203104,-0.6965359999999999,-0.0244325,0.20029599999999997,-0.6878759999999999,0.0027205000000000007
13,-0.017765000000000003,0.697136,0.0410235,-0.151909,0.421596,0.0197115,-0.211429,0.168476,0.0219215,0.14372100000000002,0.419076,0.0088945,0.195921,0.175656,0.0311835,-0.222539,-0.04468,-0.0561315,0.216421,-0.036593999999999995,-0.0477765,-0.06604499999999999,-0.00095,0.0002925000000000011,0.06604499999999999,0.00095,-0.0002925000000000011,-0.13616899999999998,-0.326464,-0.0330845,0.137071,-0.34016399999999997,-0.015879499999999998,-0.203289,-0.696834,-0.0245135,0.20017100000000002,-0.688464,0.002568499999999998
14,-0.01769050000000001,0.697177,0.0412785,-0.1518045,0.421717,0.019696500000000002,-0.2114745,0.16847700000000002,0.021901500000000004,0.1438855,0.419047,0.008926500000000004,0.1960155,0.175507,0.031177500000000004,-0.22248450000000003,-0.044666000000000004,-0.056189499999999996,0.2164455,-0.036742000000000004,-0.0478105,-0.0660385,-0.00092,0.0002715000000000009,0.0660385,0.00092,-0.00027149999999999744,-0.1362645,-0.327093,-0.033146499999999995,0.1369455,-0.340613,-0.0158805,-0.20349450000000002,-0.696893,-0.024621499999999998,0.1999455,-0.688493,0.0023985000000000013
15,-0.017615499999999996,0.6972045,0.041537500000000005,-0.1517585,0.4219345,0.0197335,-0.21150850000000002,0.1684945,0.0218635,0.1440515,0.4190145,0.008951500000000005,0.1961215,0.1753545,0.031171500000000005,-0.2224285,-0.0446455,-0.0562555,0.2165515,-0.036886499999999996,-0.0478445,-0.0660325,-0.0008864999999999999,0.0002515000000000017,0.0660325,0.0008864999999999999,-0.00025149999999999825,-0.1363785,-0.3272255,-0.033209499999999996,0.13682149999999998,-0.3410255,-0.0159025,-0.2036885,-0.6971255,-0.0248235,0.1997115,-0.6883054999999999,0.0022115000000000017
16,-0.01755,0.6972315,0.0417925,-0.151723,0.42215149999999996,0.019787500000000003,-0.211523,0.1685215,0.021824500000000004,0.144217,0.4189715,0.008986500000000001,0.196217,0.1752115,0.031155500000000003,-0.222363,-0.0446005,-0.0562925,0.216637,-0.0370355,-0.0478955,-0.066025,-0.0008545,0.000227500000000002,0.066025,0.0008545,-0.00022749999999999854,-0.136473,-0.3286085,-0.033242499999999994,0.136767,-0.3406385,-0.0159705,-0.203883,-0.6972385,-0.025050499999999996,0.199477,-0.6878385,0.0020955000000000036
17,-0.017503999999999995,0.6972689999999999,0.0420215,-0.151664,0.422319,0.019859500000000002,-0.21154399999999998,0.168559,0.0218015,0.14436600000000002,0.418929,0.009025499999999999,0.19629600000000003,0.175059,0.0311435,-0.222294,-0.044566,-0.0563265,0.21671600000000002,-0.037182,-0.047953499999999996,-0.066018,-0.0008230000000000001,0.00020550000000000082,0.066018,0.000823,-0.00020550000000000082,-0.136594,-0.330271,-0.0332485,0.136666,-0.34036099999999997,-0.016092500000000003,-0.204064,-0.697111,-0.0252965,0.19922600000000001,-0.6881710000000001,0.002080499999999999
18,-0.017445000000000002,0.6972775,0.0422375,-0.151595,0.4224675,0.019963500000000002,-0.211555,0.16857750000000002,0.0217765,0.144505,0.41888749999999997,0.009076500000000001,0.196385,0.1748975,0.031130500000000002,-0.22223500000000002,-0.044540500000000004,-0.0563535,0.216715,-0.0373155,-0.0480275,-0.066011,-0.0007945,0.0001835000000000031,0.066011,0.0007945,-0.00018349999999999964,-0.136715,-0.3319925,-0.0332415,0.136575,-0.3406425,-0.0161095,-0.204235,-0.6968825,-0.0255345,0.199005,-0.6878624999999999,0.0020475000000000007
19,-0.017400000000000002,0.6972755,0.0424325,-0.15151699999999999,0.4225955,0.0200555,-0.21154699999999999,0.1686055,0.0217505,0.144643,0.4188455,0.009118500000000002,0.196473,0.17475549999999998,0.0311155,-0.22217699999999999,-0.0445045,-0.0563785,0.21671300000000002,-0.0374445,-0.04810249999999999,-0.06600400000000001,-0.0007685000000000001,0.00016249999999999945,0.06600400000000001,0.0007685,-0.00016249999999999945,-0.136847,-0.3341045,-0.0332345,0.13653300000000002,-0.3403645,-0.016207499999999996,-0.204407,-0.6964444999999999,-0.025804499999999998,0.198723,-0.6876344999999999,0.0020135000000000014
20,-0.017396,0.6972655000000001,0.042524,-0.151509,0.4225655,0.020178,-0.211559,0.1683955,0.021708,0.14465099999999997,0.4188455,0.009103,0.19649100000000003,0.1747155,0.0311,-0.222159,-0.0447105,-0.056438999999999996,0.21669100000000002,-0.037471500000000005,-0.048179999999999994,-0.065997,-0.0007685000000000001,0.00014400000000000177,0.065997,0.0007685,-0.0001439999999999983,-0.136839,-0.3348445,-0.033218,0.136521,-0.34071450000000003,-0.016215,-0.20442899999999997,-0.6960044999999999,-0.026033,0.198731,-0.6880244999999999,0.001915
21,-0.017391999999999998,0.6972555,0.0426395,-0.151542,0.4225055,0.0202895,-0.211572,0.1682255,0.021693499999999998,0.14465799999999998,0.41883549999999997,0.0091035,0.196508,0.17467549999999998,0.0311005,-0.222142,-0.0448795,-0.0564755,0.216608,-0.0374885,-0.0482485,-0.065994,-0.0007685000000000001,0.00013849999999999973,0.065994,0.0007685,-0.00013849999999999973,-0.136832,-0.3348545,-0.0331705,0.136508,-0.34071450000000003,-0.0163315,-0.204452,-0.6958145,-0.0261795,0.198738,-0.6881345,0.0018854999999999983
22,-0.017395499999999998,0.6972655,0.0427525,-0.15158149999999998,0.4224555,0.0203945,-0.2115715,0.1681255,0.0216755,0.1446585,0.41884550000000004,0.0091105,0.1965085,0.17465550000000002,0.031105499999999998,-0.2221415,-0.044984500000000004,-0.056534499999999994,0.2165485,-0.0374885,-0.0482835,-0.06599450000000001,-0.0007715,0.0001344999999999992,0.06599450000000001,0.0007715,-0.00013450000000000267,-0.1368315,-0.3365145,-0.0331075,0.13651850000000001,-0.34064449999999996,-0.016487500000000002,-0.2044415,-0.6957945000000001,-0.026377499999999998,0.1987385,-0.6886245000000001,0.0018355000000000003
23,-0.017484,0.6972655,0.042831,-0.15166300000000002,0.4224555,0.02052,-0.211593,0.1680355,0.021631,0.144627,0.41884550000000004,0.009118000000000001,0.196507,0.1746155,0.031108,-0.22212300000000001,-0.0450805,-0.05659800000000001,0.21648699999999999,-0.0375105,-0.048318,-0.065993,-0.0007715,0.00014300000000000077,0.065993,0.0007715,-0.00014300000000000077,-0.136823,-0.3373645,-0.033074000000000006,0.136567,-0.34009449999999997,-0.016644000000000003,-0.204423,-0.6959345,-0.026502,0.198797,-0.6887945000000001,0.0018869999999999998
24,-0.017585,0.697266,0.042917,-0.151758,0.422426,0.020618,-0.21161799999999997,0.167876,0.021575,0.144592,0.41882600000000003,0.009103,0.196502,0.174576,0.031107,-0.22211799999999998,-0.045234,-0.056662000000000004,0.21644200000000002,-0.037529,-0.048333,-0.065992,-0.0007719999999999999,0.0001559999999999999,0.065992,0.0007720000000000001,-0.0001559999999999999,-0.136768,-0.336304,-0.033072000000000004,0.13663199999999998,-0.33932399999999996,-0.016837,-0.204378,-0.6959339999999999,-0.026615999999999997,0.19891199999999998,-0.689114,0.001913999999999999
25,-0.018024999999999996,0.697184,0.0430605,-0.152048,0.42243400000000003,0.0208245,-0.211708,0.167494,0.0215255,0.144362,0.418844,0.0091165,0.196432,0.174634,0.031119499999999998,-0.222108,-0.045618,-0.0567145,0.216402,-0.037452,-0.0483455,-0.065981,-0.000812,0.0001684999999999985,0.065981,0.000812,-0.00016850000000000198,-0.136608,-0.335516,-0.0330845,0.136852,-0.338656,-0.0170345,-0.204018,-0.695676,-0.0266165,0.199352,-0.689066,0.0020754999999999975
26,-0.018446499999999998,0.6971075,0.043199,-0.1523395,0.42238749999999997,0.021029,-0.2117995,0.1671375,0.021498999999999997,0.1441405,0.4188675,0.009134,0.1963605,0.17470750000000002,0.031131,-0.2220595,-0.0459825,-0.05676500000000001,0.2163405,-0.0373795,-0.04834200000000001,-0.0659715,-0.0008504999999999999,0.00018400000000000014,0.0659715,0.0008504999999999999,-0.00018400000000000014,-0.1364695,-0.3368725,-0.033129000000000006,0.1370405,-0.3385225,-0.017089000000000003,-0.2037195,-0.6958725,-0.026622999999999997,0.1997105,-0.6888725,0.002186999999999998
27,-0.018863000000000005,0.6970245,0.043332999999999997,-0.152592,0.4223345,0.021162999999999998,-0.211872,0.1668145,0.021478999999999998,0.143908,0.4188845,0.009165999999999997,0.196278,0.1747845,0.031138,-0.222012,-0.046307499999999994,-0.056818,0.216298,-0.0373005,-0.048367,-0.06596199999999999,-0.0008885,0.00020199999999999732,0.06596199999999999,0.0008885,-0.0002020000000000008,-0.136372,-0.3361255,-0.033197000000000004,0.137248,-0.3379255,-0.017248,-0.203422,-0.6963655,-0.026599000000000005,0.200078,-0.6890255,0.0022739999999999982
28,-0.0192655,0.6969605,0.043459,-0.1528275,0.4222105,0.021262,-0.2119575,0.1664905,0.021448,0.1436725,0.41891049999999996,0.009194999999999998,0.1962025,0.1748605,0.031135999999999997,-0.2219775,-0.0466355,-0.05688699999999999,0.2162225,-0.0372165,-0.04842199999999999,-0.0659565,-0.0009315,0.0002360000000000001,0.0659565,0.0009315000000000003,-0.0002360000000000001,-0.1362675,-0.3358795,-0.033277,0.1374225,-0.3375995,-0.017388999999999998,-0.2031075,-0.6970095000000001,-0.026571,0.1999025,-0.6883695,0.002373
29,-0.019644000000000002,0.696885,0.043568499999999996,-0.153041,0.422085,0.0213315,-0.212041,0.166165,0.0214155,0.143449,0.418925,0.009211500000000001,0.196139,0.17494500000000002,0.0311365,-0.221951,-0.046956,-0.056959499999999996,0.21620899999999998,-0.037111,-0.048518500000000006,-0.065952,-0.0009759999999999999,0.0002704999999999999,0.065952,0.0009760000000000001,-0.0002704999999999999,-0.136141,-0.334865,-0.0333025,0.137589,-0.337335,-0.0174135,-0.20275100000000001,-0.697105,-0.0264975,0.200179,-0.688095,0.002512500000000001
30,-0.020000999999999998,0.696813,0.043668,-0.153223,0.421863,0.021369,-0.212113,0.165843,0.021391999999999998,0.14322700000000002,0.41895299999999996,0.009218999999999998,0.19606700000000002,0.175033,0.031135,-0.221933,-0.047271999999999995,-0.056997000000000006,0.216147,-0.037009,-0.048577999999999996,-0.06594900000000001,-0.0010249999999999999,0.0003039999999999987,0.06594900000000001,0.001025,-0.0003040000000000022,-0.13602299999999998,-0.334697,-0.033387,0.137737,-0.337067,-0.017436,-0.202323,-0.696797,-0.026409000000000002,0.200547,-0.688477,0.0025459999999999997
31,-0.020309499999999998,0.6967555000000001,0.0437445,-0.1534085,0.42166549999999997,0.021402499999999998,-0.2121885,0.16549550000000002,0.0213685,0.1430115,0.4189755,0.0092135,0.1960015,0.17512550000000002,0.0311305,-0.22191850000000002,-0.0476095,-0.057010500000000006,0.2161115,-0.036908500000000004,-0.04860250000000001,-0.0659405,-0.0010705000000000003,0.000335499999999999,0.0659405,0.0010704999999999998,-0.00033550000000000246,-0.13589849999999998,-0.33339450000000004,-0.0334975,0.13786150000000003,-0.3374745,-0.0173235,-0.2018685,-0.6966545,-0.0263935,0.20107150000000001,-0.6889645,0.0025474999999999977
32,-0.020535499999999998,0.6967,0.0438305,-0.1535635,0.42147,0.0214075,-0.21225349999999998,0.16516,0.0213475,0.1427765,0.419,0.009211500000000001,0.1959365,0.17529,0.0311265,-0.2219535,-0.047939999999999997,-0.0570335,0.21606650000000002,-0.036732999999999995,-0.048604499999999995,-0.0659325,-0.001115,0.0003604999999999997,0.0659325,0.001115,-0.0003604999999999997,-0.1358135,-0.33159,-0.0336105,0.1379765,-0.33775,-0.0172555,-0.20142349999999998,-0.69657,-0.0263995,0.2015565,-0.68936,0.0023975000000000003
33,-0.020704000000000004,0.6966665,0.0438905,-0.153697,0.4212965,0.021407500000000003,-0.212317,0.16488650000000002,0.021334500000000003,0.142533,0.4190165,0.009202500000000002,0.19586299999999998,0.17545650000000002,0.0311295,-0.22198700000000002,-0.0482025,-0.0570525,0.21604299999999999,-0.0365565,-0.0485735,-0.06592300000000001,-0.0011574999999999997,0.00037850000000000036,0.06592300000000001,0.0011575000000000001,-0.0003784999999999969,-0.135827,-0.3313135,-0.0337265,0.138063,-0.3378735,-0.017271499999999995,-0.20111700000000002,-0.6972735,-0.0263515,0.20177299999999998,-0.6891235,0.0022495000000000015
34,-0.020703500000000003,0.6966694999999999,0.043871999999999994,-0.15369649999999999,0.42104949999999997,0.021389,-0.2123165,0.16488950000000002,0.021330999999999996,0.1424435,0.41898949999999996,0.009184999999999999,0.1958535,0.1754495,0.031117999999999996,-0.2219865,-0.048199500000000006,-0.057071000000000004,0.21603350000000002,-0.0365715,-0.048523000000000004,-0.0659235,-0.0011565,0.00039699999999999805,0.0659235,0.0011565,-0.0003970000000000015,-0.1358165,-0.3313105,-0.033823000000000006,0.1380535,-0.33883050000000003,-0.017144,-0.2009665,-0.6972705,-0.026304,0.2020635,-0.6896605,0.002238999999999998
35,-0.020702500000000002,0.6966694999999999,0.043849,-0.15369549999999998,0.4208595,0.021366000000000003,-0.2123155,0.16488950000000002,0.021321000000000003,0.1423545,0.4189595,0.009159,0.1958445,0.1754495,0.031135000000000003,-0.2220155,-0.048199500000000006,-0.057076999999999996,0.2160245,-0.036612500000000006,-0.048479,-0.0659235,-0.0011565,0.0003960000000000005,0.0659235,0.0011565,-0.00039599999999999705,-0.1358155,-0.3329605,-0.033904,0.13807450000000002,-0.3391405,-0.017107999999999998,-0.2009655,-0.6982805,-0.026291999999999996,0.2022045,-0.6896505,0.0022920000000000024
36,-0.020702,0.6966694999999999,0.043824,-0.153695,0.4206895,0.021341000000000002,-0.212315,0.16488950000000002,0.021312,0.142265,0.4189195,0.009131,0.19583499999999998,0.1754395,0.031151,-0.22204500000000002,-0.048199500000000006,-0.057059,0.216025,-0.0366685,-0.04846600000000001,-0.06592300000000001,-0.0011565,0.0003849999999999999,0.06592300000000001,0.0011565,-0.0003849999999999999,-0.13581500000000002,-0.33345050000000004,-0.034048999999999996,0.138075,-0.3391905,-0.017172999999999997,-0.200965,-0.6992605000000001,-0.026313,0.202205,-0.6898905,0.0022439999999999995
37,-0.020469999999999995,0.6967125,0.043805500000000004,-0.153633,0.4205725,0.021241500000000003,-0.212253,0.16491250000000002,0.021291500000000005,0.142177,0.4188825,0.009083500000000001,0.195847,0.1754625,0.031167500000000004,-0.222143,-0.048178500000000006,-0.0570335,0.215997,-0.0366895,-0.0484545,-0.065917,-0.0011595,0.0003625000000000017,0.065917,0.0011594999999999995,-0.00036249999999999824,-0.135923,-0.3319775,-0.0341505,0.137987,-0.33951749999999997,-0.017098499999999996,-0.200993,-0.6991975,-0.026249499999999995,0.202047,-0.6897575,0.002216500000000003
38,-0.020144,0.696769,0.0437755,-0.153534,0.420449,0.0210965,-0.212174,0.16489900000000002,0.0212565,0.14210599999999998,0.418829,0.009019500000000003,0.195876,0.175459,0.0311675,-0.222254,-0.048204000000000004,-0.0570285,0.21598599999999998,-0.036706,-0.0483655,-0.065908,-0.0011660000000000004,0.0003265000000000004,0.065908,0.001166,-0.00032649999999999693,-0.13603400000000002,-0.331361,-0.034284499999999996,0.137906,-0.340041,-0.0170325,-0.201094,-0.699541,-0.0262485,0.201976,-0.6896909999999999,0.0021775000000000024
39,-0.019698000000000004,0.696829,0.043734999999999996,-0.153425,0.42033899999999996,0.020987,-0.212075,0.16487900000000003,0.021219,0.142035,0.418759,0.008933,0.195905,0.17544900000000002,0.03116,-0.222445,-0.048252,-0.057049,0.215925,-0.036726,-0.048288,-0.065897,-0.001163,0.00028800000000000006,0.065897,0.001163,-0.00028800000000000006,-0.136165,-0.332291,-0.034423,0.137825,-0.340131,-0.017064000000000003,-0.201135,-0.699571,-0.026288,0.201875,-0.689401,0.002137
40,-0.019225000000000003,0.696902,0.0437055,-0.153281,0.420242,0.0208045,-0.211961,0.164832,0.0211805,0.141979,0.418672,0.008855499999999999,0.195939,0.175432,0.0311635,-0.222661,-0.048319999999999995,-0.057044500000000005,0.21581899999999998,-0.036746999999999995,-0.048181499999999995,-0.065889,-0.0011579999999999997,0.00023050000000000154,0.065889,0.0011579999999999997,-0.00023050000000000154,-0.136301,-0.33378800000000003,-0.0345545,0.13774899999999998,-0.340578,-0.016967499999999996,-0.20114100000000001,-0.698658,-0.0263365,0.201819,-0.689248,0.0019705
41,-0.018736000000000006,0.6969845,0.0437165,-0.153148,0.4201545,0.0206335,-0.21185800000000002,0.1647745,0.021075499999999997,0.14193199999999997,0.4185945,0.008804499999999996,0.195962,0.1754145,0.031181499999999997,-0.222868,-0.0483905,-0.0570605,0.215742,-0.0367995,-0.048072500000000004,-0.06588,-0.0011545000000000001,0.00016049999999999745,0.06588,0.0011545000000000001,-0.00016050000000000092,-0.136468,-0.3338855,-0.0346495,0.13769199999999998,-0.3403155,-0.017051500000000004,-0.201128,-0.6977654999999999,-0.026417500000000003,0.201842,-0.6894155,0.0019414999999999988
42,-0.018195,0.6970719999999999,0.043736,-0.153011,0.42005200000000004,0.020448,-0.21181100000000003,0.16472199999999998,0.020939,0.141899,0.418522,0.008781999999999998,0.19599899999999998,0.175402,0.03119,-0.223001,-0.048451,-0.057074,0.215669,-0.036847,-0.048001,-0.065868,-0.0011419999999999998,7.300000000000015e-05,0.065868,0.0011419999999999998,-7.300000000000015e-05,-0.136621,-0.335188,-0.034633,0.13764900000000002,-0.34032799999999996,-0.017048999999999998,-0.201131,-0.6969080000000001,-0.026469000000000003,0.201799,-0.689308,0.001905999999999998
43,-0.0176675,0.697149,0.043746999999999994,-0.1528805,0.41996900000000004,0.020256999999999997,-0.2117705,0.164689,0.020746,0.1418895,0.418439,0.008761999999999999,0.19601949999999999,0.175379,0.031186,-0.2229805,-0.048502,-0.057078000000000004,0.2156195,-0.036915,-0.04802000000000001,-0.0658505,-0.001137,-9.000000000002062e-06,0.0658505,0.0011370000000000004,8.999999999998592e-06,-0.1367805,-0.336941,-0.034639,0.13759949999999999,-0.34024099999999996,-0.017032,-0.2011905,-0.696611,-0.026539,0.2018495,-0.689451,0.0018569999999999975
44,-0.017191500000000005,0.6972325,0.0437455,-0.1527845,0.4198825,0.020055499999999997,-0.21172449999999998,0.1646525,0.020471499999999997,0.1418855,0.4183825,0.0087315,0.1960655,0.1753325,0.0311725,-0.2229645,-0.0485925,-0.057121500000000006,0.2156455,-0.037017499999999995,-0.04803450000000001,-0.0658325,-0.0011265,-8.150000000000171e-05,0.0658325,0.0011265000000000003,8.149999999999824e-05,-0.13694450000000002,-0.3389375,-0.0346505,0.13752550000000002,-0.3400675,-0.017077500000000002,-0.2014045,-0.6969075,-0.0266445,0.2018855,-0.6896275000000001,0.0017864999999999964
45,-0.016748500000000006,0.6973085,0.043725,-0.15270750000000002,0.4198085,0.019821,-0.21161750000000001,0.1643785,0.019933,0.1418825,0.4183285,0.008674000000000001,0.19615249999999998,0.1751885,0.031131,-0.22319750000000002,-0.0485415,-0.057447,0.2156725,-0.0371275,-0.04807700000000001,-0.06582550000000001,-0.0011085000000000001,-0.0001239999999999991,0.06582550000000001,0.0011085000000000001,0.0001239999999999991,-0.13704750000000002,-0.3410715,-0.034647,0.1374425,-0.3399915,-0.017067000000000002,-0.20165750000000002,-0.6978015,-0.026808000000000002,0.2018325,-0.6894115,0.0016879999999999985
46,-0.016315000000000003,0.697393,0.0437145,-0.152656,0.419723,0.0195725,-0.211516,0.164483,0.019092500000000002,0.141864,0.41826300000000005,0.008597500000000001,0.196304,0.175223,0.0310005,-0.223346,-0.048447000000000004,-0.0586045,0.215674,-0.037103000000000004,-0.048163500000000005,-0.065824,-0.001098,-0.0001805000000000001,0.065824,0.0010979999999999996,0.0001805000000000001,-0.137146,-0.343257,-0.0346645,0.137344,-0.340087,-0.0171165,-0.201886,-0.698237,-0.0269135,0.201734,-0.6892269999999999,0.0016024999999999998
47,-0.015961,0.697443,0.0436745,-0.15263,0.41962299999999997,0.0193175,-0.21141,0.164583,0.0175125,0.14184,0.418213,0.008497499999999998,0.19661,0.175193,0.030227499999999997,-0.22346,-0.048346,-0.0610685,0.21589,-0.037133,-0.049376500000000004,-0.065816,-0.001084,-0.0002575000000000008,0.065816,0.001084,0.0002575000000000008,-0.13721,-0.343737,-0.0347005,0.1373,-0.340117,-0.017181500000000002,-0.202,-0.698727,-0.0270665,0.20168,-0.6892569999999999,0.0015615000000000004
48,-0.0157095,0.6975065,0.043582499999999996,-0.1526445,0.41958650000000003,0.0189635,-0.2111845,0.16477650000000002,0.0148485,0.1418155,0.4181765,0.008303499999999998,0.1972555,0.1751665,0.0283775,-0.2241245,-0.0481655,-0.0651745,0.2166555,-0.0371595,-0.051594499999999995,-0.0657925,-0.0010795000000000002,-0.00039749999999999855,0.0657925,0.0010795000000000002,0.00039749999999999855,-0.1372445,-0.3426435,-0.034861500000000004,0.1371955,-0.3392635,-0.017314500000000003,-0.2020045,-0.6978635,-0.0273105,0.2016655,-0.6893335,0.0014605
49,-0.015497499999999996,0.697561,0.043342,-0.15267150000000002,0.419561,0.018511,-0.21113149999999997,0.166021,0.010137,0.14177850000000003,0.418151,0.007938999999999998,0.19799850000000002,0.175381,0.024967,-0.22572150000000002,-0.045741000000000004,-0.072257,0.21842850000000003,-0.036358,-0.056272,-0.0657455,-0.0010740000000000003,-0.0005310000000000002,0.0657455,0.0010740000000000003,0.0005310000000000002,-0.13731149999999998,-0.340899,-0.035185999999999995,0.1370885,-0.338679,-0.017655,-0.20213150000000002,-0.698519,-0.027707,0.2015785,-0.689109,0.001069999999999998
50,-0.015269500000000002,0.697588,0.042904,-0.15267750000000002,0.419508,0.01781,-0.2109975,0.169718,0.003367000000000002,0.14178249999999998,0.41809799999999997,0.007338000000000001,0.19883250000000002,0.176818,0.020147,-0.2282575,-0.039834,-0.083047,0.22171249999999998,-0.033197,-0.064338,-0.0657205,-0.0010670000000000002,-0.0006560000000000003,0.0657205,0.0010669999999999998,0.0006560000000000003,-0.13736749999999998,-0.33947200000000005,-0.035311999999999996,0.13699250000000002,-0.338032,-0.017903,-0.20225749999999998,-0.698572,-0.028313,0.20151249999999998,-0.6891619999999999,0.0004390000000000019
51,-0.015060500000000003,0.6975075000000001,0.042154,-0.1526905,0.41934750000000004,0.01677,-0.21083049999999998,0.1740675,-0.004968,0.1417895,0.4179375,0.006397,0.19985950000000002,0.1794575,0.013669,-0.2331105,-0.030678499999999997,-0.098527,0.2264695,-0.0272315,-0.076287,-0.0657165,-0.0010175000000000002,-0.0008120000000000002,0.0657165,0.0010175000000000002,0.0008120000000000002,-0.13738050000000002,-0.3390525,-0.03542,0.13670949999999998,-0.3378425,-0.0182,-0.20223049999999998,-0.6980525,-0.029253,0.2014895,-0.6893225,-0.0004559999999999981
52,-0.0148455,0.6973195000000001,0.04123349999999999,-0.1527525,0.4191295,0.015487499999999998,-0.21156250000000001,0.17950950000000002,-0.015880500000000006,0.1418075,0.4177395,0.005295499999999998,0.2019775,0.18275950000000002,0.004370499999999996,-0.2399225,-0.0181445,-0.1188125,0.2339475,-0.0184575,-0.09316250000000001,-0.0657115,-0.0009505,-0.001003500000000001,0.0657115,0.0009505,0.0010034999999999974,-0.13746250000000002,-0.3384905,-0.035618500000000004,0.13637749999999998,-0.3363805,-0.018593500000000006,-0.2023425,-0.6983105,-0.030412500000000002,0.2014375,-0.6894405,-0.0015265000000000035
53,-0.014641500000000005,0.6970645,0.0401075,-0.1527795,0.4188945,0.013910499999999998,-0.21313949999999998,0.1861445,-0.029098500000000006,0.14182050000000002,0.4177645,0.004223499999999998,0.2052005,0.1873845,-0.007506500000000003,-0.24848950000000003,-0.00044450000000000045,-0.14412250000000001,0.24330049999999998,-0.0056844999999999994,-0.1149425,-0.0657065,-0.0008635000000000001,-0.001122500000000002,0.0657065,0.0008634999999999997,0.0011224999999999985,-0.1376195,-0.3376555,-0.035945500000000005,0.13606049999999997,-0.3341055,-0.0191495,-0.2023895,-0.6980355,-0.031733500000000005,0.2013705,-0.6894455,-0.002836500000000002
54,-0.014423000000000002,0.6965065,0.038431,-0.15276299999999998,0.4188865,0.011687,-0.217553,0.19816650000000002,-0.047992999999999994,0.141797,0.4180165,0.00272,0.21196700000000002,0.19683650000000003,-0.025093,-0.259833,0.0275735,-0.177495,0.256657,0.0169925,-0.145545,-0.06570699999999999,-0.0007605000000000001,-0.0012150000000000008,0.06570699999999999,0.0007605000000000001,0.0012150000000000008,-0.137873,-0.33557349999999997,-0.036554,0.135707,-0.3316935,-0.019895,-0.202363,-0.6985835,-0.03339400000000001,0.201347,-0.6905034999999999,-0.004619000000000002
55,-0.014221,0.6957775,0.036631,-0.15278799999999998,0.41889750000000003,0.009218,-0.222938,0.21335749999999998,-0.068857,0.141872,0.4183075,0.0010900000000000007,0.219332,0.2071275,-0.04309399999999999,-0.27233799999999997,0.0617835,-0.213065,0.271262,0.0479715,-0.178505,-0.06571099999999999,-0.0006575,-0.0012780000000000014,0.06571099999999999,0.0006575,0.0012780000000000014,-0.13813799999999998,-0.3330525,-0.037318000000000004,0.135402,-0.3289725,-0.020929,-0.20246799999999998,-0.6999425,-0.035235,0.20128200000000002,-0.6915025,-0.006651999999999998
56,-0.014031000000000004,0.6949575,0.034806500000000004,-0.152772,0.4190875,0.0066505,-0.229382,0.2322775,-0.0905175,0.141958,0.41861750000000003,-0.0006794999999999995,0.228608,0.2209075,-0.0622545,-0.285012,0.1019075,-0.2495575,0.28599800000000003,0.08478949999999999,-0.2128775,-0.065715,-0.0005705,-0.0013475000000000015,0.065715,0.0005704999999999998,0.0013474999999999997,-0.138412,-0.3303525,-0.0381315,0.135128,-0.32688249999999996,-0.0219315,-0.202462,-0.7011125,-0.0371985,0.201238,-0.6925325,-0.008765499999999999
57,-0.013889499999999997,0.694028,0.032996,-0.1527615,0.419308,0.003952000000000001,-0.2362615,0.253508,-0.111858,0.14204850000000002,0.41893800000000003,-0.0024740000000000005,0.2374985,0.23860800000000001,-0.082175,-0.2973015,0.148538,-0.284808,0.3002285,0.127968,-0.24801799999999996,-0.0657225,-0.0004949999999999998,-0.0014029999999999997,0.0657225,0.0004950000000000002,0.0014030000000000015,-0.13870149999999998,-0.32751199999999997,-0.038958,0.1348585,-0.325252,-0.023044000000000002,-0.20246150000000002,-0.7022320000000001,-0.039105,0.2012085,-0.693802,-0.010907
58,-0.013745500000000003,0.692914,0.0311945,-0.1526995,0.419714,0.0012034999999999997,-0.24355949999999998,0.275864,-0.1316895,0.1421905,0.419304,-0.004238500000000001,0.24662050000000002,0.261314,-0.1022695,-0.3087995,0.19885399999999998,-0.3176895,0.3135305,0.176444,-0.2811795,-0.0657315,-0.0003809999999999994,-0.0013994999999999997,0.0657315,0.00038100000000000026,0.0013994999999999997,-0.1389495,-0.32479600000000003,-0.0397455,0.1346405,-0.323216,-0.024176500000000004,-0.2023895,-0.703016,-0.040995500000000004,0.20122050000000002,-0.695296,-0.013081500000000001
59,-0.0135845,0.69174,0.0294475,-0.1526525,0.42038,-0.0014935,-0.2509725,0.29928,-0.15039049999999998,0.1424075,0.41991999999999996,-0.005990500000000001,0.2559375,0.28281999999999996,-0.1215405,-0.3183725,0.25245,-0.34500050000000004,0.3250475,0.22932,-0.31076050000000005,-0.06574150000000001,-0.00026099999999999995,-0.0013985000000000004,0.06574150000000001,0.00026099999999999995,0.0013984999999999996,-0.1391625,-0.32354,-0.0408335,0.1344475,-0.32112,-0.0253725,-0.20232250000000002,-0.70395,-0.042750500000000004,0.2012675,-0.6968,-0.0151175
60,-0.013380500000000002,0.6905115,0.027675,-0.1524295,0.4212615,-0.003965,-0.2583995,0.3248915,-0.16820500000000002,0.14273049999999998,0.4210115,-0.007722,0.2648105,0.3109515,-0.14083500000000002,-0.32407949999999996,0.3118415,-0.364965,0.3348105,0.2889415,-0.336485,-0.0657485,-0.00018849999999999943,-0.0013369999999999996,0.0657485,0.00018850000000000117,0.0013370000000000005,-0.13931949999999999,-0.3233785,-0.041865,0.13450050000000002,-0.3197785,-0.026439,-0.20219949999999998,-0.7049885,-0.044322,0.2014205,-0.6984885,-0.016909
61,-0.013095999999999998,0.6890895,0.025849000000000004,-0.15212599999999998,0.4225095,-0.006246999999999999,-0.26384599999999997,0.3511395,-0.18327100000000002,0.143144,0.4225095,-0.009484999999999999,0.272424,0.3406295,-0.158241,-0.32633599999999996,0.3733395,-0.378741,0.340604,0.35049949999999996,-0.354421,-0.065764,-0.0001244999999999996,-0.0011939999999999997,0.065764,0.00012450000000000135,0.0011940000000000006,-0.13933600000000002,-0.3240505,-0.042755999999999995,0.134704,-0.31973050000000003,-0.027416999999999997,-0.20200600000000002,-0.7063205,-0.045738,0.201644,-0.7002605000000001,-0.018505
62,-0.012862000000000005,0.6875659999999999,0.024383,-0.151854,0.423756,-0.008264,-0.267824,0.381316,-0.195385,0.143406,0.424206,-0.010950000000000001,0.277976,0.371166,-0.173695,-0.32613400000000003,0.435176,-0.385195,0.34308599999999995,0.413826,-0.365555,-0.065741,-0.00012700000000000038,-0.0010800000000000002,0.065741,0.00012700000000000038,0.0010799999999999998,-0.139254,-0.325184,-0.043438,0.134936,-0.32046399999999997,-0.028156999999999998,-0.201804,-0.7082740000000001,-0.046952,0.201886,-0.7024440000000001,-0.019796
63,-0.012748499999999998,0.6859295,0.023525499999999998,-0.1515975,0.42488950000000003,-0.0096445,-0.2683275,0.40767950000000003,-0.2002885,0.1435725,0.42601950000000005,-0.0118055,0.2789425,0.4007395,-0.1833085,-0.3258975,0.48961950000000004,-0.3860485,0.3433225,0.47423950000000004,-0.3664085,-0.0656905,-0.00015050000000000133,-0.0010195,0.0656905,0.0001504999999999996,0.0010195000000000002,-0.1390275,-0.3266705,-0.0438645,0.1351225,-0.3220705,-0.028577500000000002,-0.2015675,-0.7097705000000001,-0.0477745,0.2021225,-0.7041405000000001,-0.0205615
64,-0.012735999999999996,0.6839575,0.022757,-0.151304,0.4260675,-0.010897,-0.268104,0.43370749999999997,-0.200852,0.143706,0.4279975,-0.012357,0.279296,0.43176749999999997,-0.188432,-0.325674,0.5452575,-0.386602,0.34354599999999996,0.5302375,-0.366962,-0.065635,-0.00020649999999999835,-0.000964,0.065635,0.00020650000000000182,0.0009639999999999999,-0.138884,-0.3286425,-0.04442,0.13530599999999998,-0.3240425,-0.028921,-0.20140399999999997,-0.7117425000000001,-0.048330000000000005,0.20234600000000003,-0.7061125,-0.021115
65,-0.012663499999999998,0.681654,0.0212295,-0.15091649999999998,0.427404,-0.0120605,-0.2678765,0.458464,-0.2012905,0.1438435,0.43007399999999996,-0.013039499999999999,0.27956349999999996,0.461904,-0.1901305,-0.3254465,0.5960639999999999,-0.3870405,0.34377349999999995,0.585974,-0.3674005,-0.0655735,-0.00026199999999999835,-0.0008575,0.0655735,0.0002620000000000018,0.0008575000000000001,-0.13870649999999998,-0.330926,-0.0448595,0.13549350000000002,-0.326346,-0.0292445,-0.2012265,-0.714026,-0.048770499999999994,0.2025335,-0.708416,-0.0215545
66,-0.012553,0.6793845000000001,0.0187695,-0.15049700000000002,0.4290745,-0.0130935,-0.267657,0.48265450000000004,-0.2016185,0.143803,0.4327045,-0.0138275,0.279783,0.49270450000000005,-0.1904585,-0.32114699999999996,0.6450244999999999,-0.3816985,0.340953,0.6373145,-0.3666685,-0.06551299999999999,-0.0003564999999999992,-0.0006875,0.06551299999999999,0.0003564999999999992,0.0006875000000000002,-0.138517,-0.3330555,-0.0451885,0.135673,-0.3286155,-0.029572499999999998,-0.201067,-0.7161455000000001,-0.0491005,0.202723,-0.7107555000000001,-0.0218865
67,-0.012426500000000002,0.675711,0.014836,-0.15012050000000002,0.430451,-0.014084,-0.2667505,0.510241,-0.20180299999999998,0.14294949999999998,0.435081,-0.014641999999999999,0.27852950000000004,0.518451,-0.19070299999999998,-0.31295049999999996,0.690061,-0.368153,0.3344095,0.684711,-0.358043,-0.06544749999999999,-0.0003720000000000008,-0.000653,0.06544749999999999,0.0003720000000000008,0.0006529999999999999,-0.13835050000000002,-0.335179,-0.045405,0.1356895,-0.330909,-0.029783,-0.2009805,-0.718279,-0.049816000000000006,0.20253949999999998,-0.7131890000000001,-0.022521
68,-0.012212,0.671756,0.010005,-0.149787,0.431556,-0.014994999999999998,-0.264417,0.5349360000000001,-0.199571,0.141953,0.437726,-0.015515999999999999,0.274753,0.545896,-0.191021,-0.303867,0.728866,-0.35183099999999995,0.325773,0.725766,-0.345871,-0.065365,-0.0005859999999999997,-0.000663,0.065365,0.0005859999999999997,0.0006630000000000001,-0.13816699999999998,-0.337554,-0.045774,0.135773,-0.333284,-0.029995,-0.200877,-0.7206739999999999,-0.050587,0.20228300000000002,-0.7156239999999999,-0.023306999999999998
69,-0.012017500000000006,0.667238,0.0038025,-0.1494955,0.43234799999999995,-0.0159065,-0.2613855,0.5591079999999999,-0.1958575,0.1409445,0.43971800000000005,-0.0164585,0.2702945,0.566098,-0.1903275,-0.2945255,0.760578,-0.3348175,0.3169245,0.757958,-0.33168749999999997,-0.06528049999999999,-0.0007810000000000004,-0.0006815,0.06528049999999999,0.0007810000000000004,0.0006814999999999999,-0.1379755,-0.339812,-0.0462595,0.1359445,-0.33577199999999996,-0.0302035,-0.2007755,-0.7229220000000001,-0.0515005,0.2019445,-0.718132,-0.0241275
70,-0.011813999999999996,0.6622135,-0.003548,-0.14918599999999999,0.43259349999999996,-0.016857,-0.25744599999999995,0.5817535,-0.191353,0.13986400000000002,0.4412135,-0.017614,0.265424,0.5845235000000001,-0.187163,-0.284446,0.7873935000000001,-0.316943,0.30805400000000005,0.7855735,-0.31699299999999997,-0.06519,-0.0009954999999999964,-0.000609,0.06519,0.0009955000000000033,0.000609,-0.13780599999999998,-0.3421765,-0.046934,0.136154,-0.3383765,-0.030589,-0.200706,-0.7252964999999999,-0.052535,0.201584,-0.7207564999999999,-0.025113
71,-0.011632000000000002,0.6566255,-0.011965499999999999,-0.14888400000000002,0.4326155,-0.0177985,-0.253454,0.6003455,-0.18582949999999998,0.13871599999999998,0.4422755,-0.0187775,0.260426,0.6010955,-0.18427949999999998,-0.274924,0.8108155,-0.2975595,0.299396,0.8078255,-0.3022495,-0.06511800000000001,-0.0012075000000000002,-0.0004355,0.06511800000000001,0.0012075000000000002,0.0004355,-0.137694,-0.3445245,-0.0477245,0.136346,-0.3410045,-0.0311565,-0.200654,-0.7276545,-0.0536775,0.20127599999999998,-0.7234245,-0.0262675
72,-0.011352500000000003,0.6504300000000001,-0.0214205,-0.1485685,0.43238,-0.0191705,-0.2492885,0.6173700000000001,-0.1800155,0.1376215,0.44272,-0.0202105,0.2553915,0.61385,-0.17961549999999998,-0.26662850000000005,0.8316600000000001,-0.28089549999999996,0.2910715,0.82311,-0.2875455,-0.0650455,-0.0014100000000000015,-0.00023950000000000002,0.0650455,0.0014100000000000015,0.00023950000000000002,-0.1375685,-0.34699,-0.0489655,0.13663150000000002,-0.34363000000000005,-0.0321815,-0.2005285,-0.73012,-0.055267500000000004,0.2011515,-0.7261799999999999,-0.027886499999999998
73,-0.011109000000000003,0.6435805,-0.0314475,-0.14827200000000001,0.4320005,-0.020775500000000002,-0.245792,0.6315505,-0.1746135,0.136608,0.4428605,-0.0218475,0.250438,0.6246805,-0.17450349999999998,-0.259272,0.8450405,-0.2651435,0.284008,0.8429005,-0.2746135,-0.064954,-0.0016144999999999979,-4.65000000000001e-05,0.064954,0.0016144999999999979,4.65000000000001e-05,-0.13753200000000002,-0.3492995,-0.0505235,0.136968,-0.3459895,-0.0335545,-0.200482,-0.7324495,-0.0574475,0.20127799999999998,-0.7286795,-0.030045500000000003
74,-0.010955500000000003,0.6367160000000001,-0.041888,-0.1479975,0.431486,-0.022789,-0.2428875,0.643526,-0.170046,0.1358025,0.442836,-0.023906,0.2465425,0.633146,-0.16925600000000002,-0.25259750000000003,0.857676,-0.251866,0.27831249999999996,0.8572960000000001,-0.26374600000000004,-0.06483649999999999,-0.0018140000000000031,0.00020300000000000006,0.06483649999999999,0.0018139999999999962,-0.00020300000000000006,-0.1376275,-0.351324,-0.052442,0.1373325,-0.347794,-0.035286000000000005,-0.20071750000000002,-0.7345539999999999,-0.060198,0.20156249999999998,-0.7306739999999999,-0.032741
75,-0.010937500000000005,0.629495,-0.052518999999999996,-0.14776050000000002,0.430825,-0.025323000000000002,-0.2406005,0.654325,-0.167337,0.1354095,0.44221499999999997,-0.02654,0.2438695,0.637035,-0.164957,-0.24718050000000003,0.865835,-0.24196700000000002,0.2737495,0.870025,-0.255687,-0.0647045,-0.0019759999999999986,0.0004069999999999994,0.0647045,0.0019759999999999986,-0.00040700000000000024,-0.13785050000000001,-0.353165,-0.054854,0.1379195,-0.349495,-0.037572999999999995,-0.2009805,-0.736505,-0.063432,0.2018695,-0.732645,-0.036024
76,-0.010962499999999997,0.623517,-0.0629975,-0.1476155,0.430587,-0.0283455,-0.2387955,0.658877,-0.1674875,0.1356645,0.441737,-0.0298725,0.2427245,0.640487,-0.1653675,-0.2450055,0.872137,-0.2384375,0.27140450000000005,0.880857,-0.2536675,-0.0645585,-0.0021870000000000014,0.0005834999999999998,0.0645585,0.0021870000000000014,-0.0005834999999999998,-0.1383855,-0.354303,-0.0575115,0.1388445,-0.350663,-0.0402675,-0.2013755,-0.737753,-0.0669265,0.2021245,-0.734103,-0.0395285
77,-0.010854999999999998,0.617498,-0.07398350000000001,-0.147144,0.430768,-0.0321275,-0.23725400000000002,0.662368,-0.1697835,0.135946,0.44118799999999997,-0.0340255,0.242336,0.641608,-0.16848349999999998,-0.243564,0.878368,-0.2363935,0.270736,0.891568,-0.2537435,-0.064401,-0.002153000000000002,0.0007324999999999988,0.064401,0.002153000000000002,-0.0007325000000000005,-0.139384,-0.354802,-0.060880500000000004,0.140156,-0.351652,-0.0436255,-0.201874,-0.738352,-0.0712735,0.20252599999999998,-0.735162,-0.0439415
78,-0.010505500000000004,0.611938,-0.0857325,-0.1467585,0.430768,-0.0363925,-0.23586849999999998,0.662368,-0.1732315,0.13624150000000002,0.44118799999999997,-0.0387235,0.24240150000000002,0.641608,-0.1719715,-0.2420085,0.886308,-0.2358315,0.2698915,0.896148,-0.2542415,-0.0642505,-0.002153000000000002,0.0008605000000000002,0.0642505,0.002153000000000002,-0.0008605000000000002,-0.1407285,-0.355412,-0.0646805,0.14215150000000001,-0.35238200000000003,-0.047384499999999996,-0.2024985,-0.738942,-0.0761095,0.20310150000000002,-0.735952,-0.0488265
79,-0.010633000000000002,0.605498,-0.097634,-0.146756,0.430768,-0.041374,-0.234906,0.662368,-0.177195,0.136544,0.44118799999999997,-0.04423,0.242234,0.641608,-0.175975,-0.241276,0.892918,-0.239025,0.26902400000000004,0.897008,-0.256695,-0.064191,-0.002153000000000002,0.0008979999999999995,0.064191,0.002153000000000002,-0.0008979999999999995,-0.142306,-0.355412,-0.069006,0.144554,-0.35238200000000003,-0.051628,-0.203276,-0.7384620000000001,-0.081586,0.204164,-0.735392,-0.054263
80,-0.010634500000000002,0.596028,-0.10962650000000002,-0.1467245,0.430768,-0.0487775,-0.2341045,0.662368,-0.1813895,0.1371255,0.438938,-0.0521295,0.24214549999999999,0.641608,-0.18041949999999998,-0.24045450000000002,0.892918,-0.2432195,0.2678755,0.897008,-0.26053950000000003,-0.0641335,-0.002153000000000002,0.001007499999999998,0.0641335,0.002153000000000002,-0.0010075000000000014,-0.1440445,-0.355412,-0.07359650000000001,0.1478655,-0.352422,-0.0563675,-0.2042345,-0.738432,-0.08753250000000001,0.2060355,-0.735062,-0.060339500000000004
81,-0.010468000000000003,0.587695,-0.122158,-0.14660199999999998,0.430395,-0.058116,-0.23333199999999998,0.6623249999999999,-0.188025,0.137778,0.436355,-0.061638000000000005,0.242168,0.639045,-0.186635,-0.23938199999999998,0.895465,-0.24827500000000002,0.265668,0.899555,-0.265695,-0.064058,-0.002149999999999999,0.0010449999999999973,0.064058,0.002149999999999999,-0.0010450000000000008,-0.148312,-0.355755,-0.081955,0.151878,-0.350455,-0.062082000000000005,-0.205592,-0.7353350000000001,-0.09479,0.208328,-0.732515,-0.067551
82,-0.010198999999999998,0.5803640000000001,-0.132924,-0.146367,0.430174,-0.067492,-0.232937,0.6621239999999999,-0.195694,0.138373,0.433884,-0.071188,0.242303,0.6342939999999999,-0.193404,-0.238417,0.8985339999999999,-0.253344,0.263563,0.9026240000000001,-0.270844,-0.064017,-0.0020730000000000054,0.0010850000000000026,0.064017,0.0020729999999999985,-0.0010849999999999957,-0.152597,-0.353666,-0.090386,0.157373,-0.348846,-0.068239,-0.206917,-0.732056,-0.102181,0.211213,-0.729716,-0.07461
83,-0.009987499999999996,0.5717694999999999,-0.1435795,-0.1460425,0.4276195,-0.07707649999999999,-0.2326625,0.6568594999999999,-0.2037695,0.1388975,0.4304395,-0.0809485,0.2427175,0.6298794999999999,-0.2007995,-0.23745249999999998,0.8992694999999999,-0.2620895,0.26163749999999997,0.9001195,-0.2761395,-0.0639195,-0.0019105000000000025,0.001065499999999997,0.0639195,0.0019104999999999955,-0.001065500000000004,-0.15702249999999998,-0.34916050000000004,-0.09921550000000001,0.16432750000000002,-0.34533050000000004,-0.07642750000000001,-0.20828249999999998,-0.7268905,-0.1097465,0.2141975,-0.7251305,-0.0818725
84,-0.009788000000000002,0.5650965,-0.1562825,-0.145609,0.4262765,-0.0893005,-0.232439,0.6516465,-0.2147025,0.139481,0.4272265,-0.09311749999999999,0.243421,0.6251365000000001,-0.2112325,-0.236489,0.8899265000000001,-0.2729725,0.25985099999999994,0.8992965,-0.2840425,-0.063749,-0.0016164999999999999,0.0009154999999999996,0.063749,0.0016164999999999999,-0.0009154999999999996,-0.161329,-0.3429835,-0.1105085,0.171251,-0.33963350000000003,-0.08731349999999999,-0.209709,-0.7192835,-0.1205755,0.217291,-0.7185035,-0.09172949999999999
85,-0.008919999999999997,0.5615065,-0.1706455,-0.14501899999999998,0.42540649999999997,-0.1045755,-0.231919,0.6514464999999999,-0.2287455,0.140301,0.4237665,-0.1079725,0.244171,0.6215165,-0.2240555,-0.236279,0.8896864999999999,-0.2877655,0.258001,0.8913765,-0.2965755,-0.063603,-0.0014265000000000007,0.0010345000000000007,0.063603,0.001426499999999999,-0.0010345000000000007,-0.16652899999999998,-0.33186350000000003,-0.1270065,0.178211,-0.3280635,-0.10195850000000001,-0.21101899999999998,-0.7058235,-0.1337415,0.22032100000000002,-0.7063535,-0.1038435
86,-0.007704499999999998,0.5583975,-0.184106,-0.1441045,0.4248975,-0.11938900000000001,-0.23138450000000002,0.6452075,-0.242666,0.1411555,0.4198175,-0.122339,0.2448755,0.6172475000000001,-0.236746,-0.2359445,0.8891475000000001,-0.303526,0.2563555,0.8818175,-0.309076,-0.0633735,-0.0010265,0.0012209999999999999,0.0633735,0.0010264999999999996,-0.0012209999999999999,-0.17121450000000002,-0.3198825,-0.143148,0.1849255,-0.3163325,-0.11657600000000001,-0.2121245,-0.6915825,-0.146619,0.2231655,-0.6936724999999999,-0.11541000000000001
87,-0.006027500000000003,0.5576295,-0.196805,-0.14303549999999998,0.42426949999999997,-0.134794,-0.23077550000000002,0.6417094999999999,-0.257355,0.14216449999999997,0.4165395,-0.137081,0.2453845,0.6131595,-0.24993500000000002,-0.23549550000000002,0.8914795,-0.32067500000000004,0.2549745,0.8755995,-0.323185,-0.0631355,-0.0004065000000000006,0.0014079999999999926,0.0631355,0.0004065000000000006,-0.0014080000000000065,-0.1756955,-0.3044005,-0.160798,0.19111450000000002,-0.3017405,-0.132278,-0.2130955,-0.6740005,-0.160074,0.22597450000000002,-0.6771605,-0.127702
88,-0.004042500000000001,0.5559145,-0.2084565,-0.14167549999999998,0.4219045,-0.14967750000000002,-0.23051549999999998,0.6348645,-0.2721165,0.14346450000000002,0.4130645,-0.1512885,0.24584450000000002,0.6070045,-0.26261650000000003,-0.23450549999999998,0.8852845,-0.3374165,0.2538745,0.8609545,-0.3370765,-0.0628505,-0.0002045000000000033,0.0013204999999999883,0.0628505,0.00020449999999999635,-0.0013205000000000022,-0.18033549999999998,-0.2870655,-0.1793435,0.1973245,-0.2854355,-0.1488085,-0.2139255,-0.6546255,-0.17318850000000002,0.2286545,-0.6595855,-0.1395425
89,-0.001408500000000001,0.5591755,-0.2192085,-0.1404715,0.4204255,-0.1616825,-0.2302815,0.6302755,-0.2859085,0.1446985,0.4123155,-0.16249950000000002,0.2462785,0.6021855,-0.2739485,-0.2338715,0.8783855,-0.3536285,0.2530785,0.8468755,-0.3501285,-0.0626335,-5.050000000000887e-05,0.0011884999999999951,0.0626335,5.049999999999499e-05,-0.0011884999999999951,-0.1850615,-0.2679745,-0.1978985,0.2029085,-0.2669145,-0.16540349999999998,-0.2146615,-0.6333345,-0.1855655,0.23062850000000001,-0.6412345,-0.15017049999999998
90,0.0011160000000000033,0.5596975,-0.22778,-0.139393,0.41772750000000003,-0.170912,-0.230163,0.6294675000000001,-0.29721,0.146007,0.4102475,-0.171304,0.246567,0.6007375,-0.28336,-0.233623,0.8717475,-0.36768,0.253047,0.8385575000000001,-0.3621,-0.062378,8.149999999999824e-05,0.0010300000000000031,0.062378,-8.149999999999824e-05,-0.0010300000000000031,-0.187463,-0.24792250000000002,-0.21221,0.208097,-0.2482425,-0.181116,-0.215053,-0.6115925,-0.19569599999999998,0.232217,-0.6220424999999999,-0.158756
91,0.002071000000000002,0.562385,-0.234565,-0.138318,0.41657500000000003,-0.17865599999999998,-0.230328,0.625785,-0.30667500000000003,0.147342,0.40954500000000005,-0.178756,0.246822,0.601545,-0.291555,-0.233498,0.8593850000000001,-0.378295,0.25259200000000004,0.8341850000000001,-0.372175,-0.062156,0.00016499999999999848,0.0008550000000000085,0.062156,-0.00016499999999999848,-0.0008549999999999947,-0.190428,-0.22689499999999999,-0.226665,0.211892,-0.227475,-0.19584000000000001,-0.21548799999999999,-0.5878249999999999,-0.204023,0.233082,-0.599955,-0.16633399999999998
92,0.0029549999999999976,0.56478,-0.23982,-0.13739200000000001,0.41793,-0.18627500000000002,-0.230632,0.6265499999999999,-0.31552,0.14873799999999998,0.40861000000000003,-0.185929,0.24700799999999998,0.60099,-0.29947,-0.233352,0.8555999999999999,-0.38789,0.252108,0.83914,-0.3815,-0.062022,0.0003100000000000047,0.0007199999999999984,0.062022,-0.0003100000000000047,-0.0007200000000000123,-0.193552,-0.20631000000000002,-0.24134,0.21456799999999998,-0.20737999999999998,-0.209159,-0.21563200000000002,-0.56486,-0.211447,0.233788,-0.5772400000000001,-0.173347
93,0.0038839999999999986,0.566485,-0.24162999999999998,-0.13651200000000002,0.41773499999999997,-0.190977,-0.231252,0.624355,-0.32071,0.150028,0.408845,-0.190022,0.24706799999999998,0.601565,-0.30413,-0.23328200000000002,0.860415,-0.39419,0.252478,0.844515,-0.3876,-0.061827999999999994,0.00017500000000000848,0.000800000000000009,0.061827999999999994,-0.00017499999999998073,-0.0007999999999999952,-0.197002,-0.184025,-0.25328,0.217388,-0.187245,-0.22016999999999998,-0.21563200000000002,-0.540605,-0.21449,0.23429799999999998,-0.553385,-0.177203
94,0.0042214999999999996,0.567035,-0.24115999999999999,-0.1356675,0.415485,-0.193466,-0.2316975,0.617435,-0.32355,0.1511625,0.408505,-0.192908,0.2476525,0.598295,-0.30735999999999997,-0.23306749999999998,0.861955,-0.39851,0.2533025,0.847165,-0.3915,-0.0614975,0.00013499999999999623,0.0008100000000000052,0.0614975,-0.00013499999999999623,-0.0008099999999999913,-0.20012749999999999,-0.16541499999999998,-0.26286,0.22097250000000002,-0.17033500000000001,-0.23081,-0.2155175,-0.520635,-0.21556999999999998,0.2347725,-0.5321450000000001,-0.179387
95,0.004958500000000002,0.56804,-0.241255,-0.1351155,0.41334000000000004,-0.196195,-0.23240550000000001,0.61574,-0.32621500000000003,0.1521645,0.4085,-0.196188,0.2482945,0.59677,-0.310335,-0.2333255,0.86317,-0.401575,0.2539845,0.85258,-0.39519499999999996,-0.0613025,4.999999999999449e-05,0.0008149999999999963,0.0613025,-4.999999999999449e-05,-0.0008149999999999963,-0.2035355,-0.14464000000000002,-0.272795,0.2247645,-0.14985,-0.242125,-0.2154955,-0.49868999999999997,-0.21648499999999998,0.2350845,-0.50822,-0.18148999999999998
96,0.005583499999999998,0.566835,-0.24209999999999998,-0.1346195,0.41232499999999994,-0.19880599999999998,-0.23323950000000002,0.610835,-0.32872999999999997,0.1530205,0.40834499999999996,-0.19951799999999997,0.2489605,0.594025,-0.31350999999999996,-0.2346495,0.8519549999999999,-0.40425,0.2551605,0.845625,-0.39805,-0.0610885,-0.00011500000000003174,0.0008200000000000013,0.0610885,0.00011499999999997623,-0.0008199999999999874,-0.2070595,-0.12718500000000005,-0.28253,0.22860049999999998,-0.13211500000000004,-0.25332,-0.2154895,-0.479935,-0.21692,0.23520049999999998,-0.4866750000000001,-0.18328
97,0.005878999999999998,0.566505,-0.24077,-0.13449499999999998,0.409795,-0.200296,-0.233865,0.609595,-0.32894,0.15358499999999997,0.406665,-0.20166,0.24967499999999998,0.594165,-0.31498000000000004,-0.23578500000000002,0.8497950000000001,-0.40461,0.256005,0.850295,-0.39901,-0.060779,-0.00023499999999998522,0.0005699999999999872,0.060779,0.00023499999999998522,-0.0005700000000000011,-0.21035500000000001,-0.10958499999999999,-0.28947,0.23219499999999998,-0.11485499999999998,-0.26169,-0.215345,-0.45968499999999995,-0.21502,0.23528500000000002,-0.46341499999999997,-0.183119
98,0.006062000000000003,0.5635,-0.239365,-0.134456,0.407004,-0.20161,-0.234656,0.608,-0.328635,0.153714,0.406393,-0.203376,0.25036400000000003,0.59505,-0.316275,-0.236786,0.85119,-0.404505,0.256714,0.8573999999999999,-0.39968499999999996,-0.060525,-0.00035000000000001696,0.0001749999999999946,0.060525,0.00034999999999996145,-0.00017500000000000848,-0.213606,-0.09022000000000002,-0.295595,0.235284,-0.09584999999999999,-0.269015,-0.215056,-0.43882,-0.212705,0.235264,-0.43761000000000005,-0.182479
99,0.006181000000000001,0.5625249999999999,-0.236445,-0.1343,0.407103,-0.201267,-0.23549,0.6013850000000001,-0.326495,0.15388,0.408161,-0.2034,0.25134,0.594725,-0.316385,-0.23785,0.8506549999999999,-0.40263499999999997,0.25744,0.862155,-0.39810500000000004,-0.06035,-0.0003049999999999997,-0.00019500000000000073,0.06035,0.0003049999999999997,0.00019500000000000073,-0.21655,-0.07353500000000002,-0.300375,0.23796,-0.07915499999999998,-0.274735,-0.21465,-0.420355,-0.208965,0.23537,-0.414935,-0.180381
100,0.004874999999999998,0.559845,-0.23247500000000001,-0.134146,0.403861,-0.20043,-0.23658600000000002,0.599955,-0.323695,0.15388400000000002,0.406794,-0.202675,0.252684,0.591565,-0.315365,-0.239516,0.8573850000000001,-0.400305,0.257944,0.864355,-0.395965,-0.06017,-0.0005149999999999877,-0.00039500000000000646,0.06017,0.0005149999999999877,0.0003949999999999926,-0.219136,-0.053584999999999994,-0.303025,0.239944,-0.060165000000000024,-0.278995,-0.21411600000000003,-0.400385,-0.204605,0.235284,-0.393825,-0.17639900000000003
101,0.004169500000000005,0.5597799999999999,-0.2291865,-0.1339805,0.40116799999999997,-0.1992965,-0.23773049999999998,0.59693,-0.3221665,0.1538795,0.406612,-0.2017965,0.2540195,0.5890299999999999,-0.3142165,-0.2409005,0.86145,-0.3994765,0.2585095,0.86484,-0.39385649999999994,-0.0599905,-0.0007199999999999984,-0.0005985000000000018,0.0599905,0.0007199999999999984,0.0005985000000000018,-0.22144049999999998,-0.03387000000000001,-0.3044565,0.24136950000000001,-0.04211999999999999,-0.2824465,-0.21342049999999999,-0.38198,-0.20017649999999998,0.23520950000000002,-0.37470000000000003,-0.1723835
102,0.002972000000000001,0.559885,-0.225598,-0.134468,0.399734,-0.196978,-0.238528,0.5973849999999999,-0.32069800000000004,0.153622,0.403995,-0.199758,0.255222,0.584185,-0.312368,-0.241868,0.8560049999999999,-0.398968,0.259382,0.8615649999999999,-0.39153800000000005,-0.059976,-0.0003150000000000097,-0.0004870000000000013,0.059976,0.0003149999999999542,0.0004870000000000013,-0.223028,-0.014895000000000047,-0.304238,0.242152,-0.02480500000000002,-0.284168,-0.21268800000000002,-0.364475,-0.195228,0.235152,-0.357715,-0.168648
103,0.002276500000000004,0.558975,-0.2222605,-0.1349435,0.396386,-0.19527049999999999,-0.2394335,0.595295,-0.3201305,0.1531765,0.40396,-0.19773049999999998,0.25607650000000004,0.583575,-0.3109005,-0.2424235,0.844875,-0.3994605,0.2602765,0.860935,-0.3904505,-0.059881500000000004,-0.0010850000000000026,-0.0006884999999999947,0.059881500000000004,0.0010850000000000026,0.0006885000000000085,-0.2234735,0.004695000000000005,-0.3026005,0.2422865,-0.0064950000000000285,-0.2839905,-0.2117735,-0.346905,-0.1907805,0.2351465,-0.33962499999999995,-0.1659995
104,0.0017045000000000007,0.5576559999999999,-0.21914849999999997,-0.1353135,0.39289999999999997,-0.1930985,-0.2400635,0.5933149999999999,-0.3194685,0.1529165,0.40461899999999995,-0.1950585,0.2565965,0.5811149999999999,-0.3089385,-0.2430535,0.833715,-0.3999485,0.2621365,0.8552249999999999,-0.3900185,-0.05981550000000001,-0.0019050000000000455,-0.0009694999999999981,0.05981550000000001,0.00190499999999999,0.0009694999999999981,-0.2235735,0.02039499999999994,-0.3002785,0.2424265,0.00952499999999995,-0.2826185,-0.2106235,-0.333465,-0.1872185,0.2346565,-0.32511500000000004,-0.1632255
105,0.0013090000000000011,0.558092,-0.2157545,-0.13562200000000002,0.388755,-0.1908945,-0.240602,0.592965,-0.3190645,0.151828,0.403384,-0.1922145,0.257098,0.580565,-0.3062945,-0.24330200000000002,0.8349150000000001,-0.40108449999999995,0.263488,0.861335,-0.3890445,-0.059848,-0.002344999999999986,-0.0012135000000000062,0.059848,0.0023450000000000415,0.0012135000000000062,-0.223362,0.037555000000000005,-0.2970445,0.24267799999999998,0.027225,-0.2805145,-0.209262,-0.31835499999999994,-0.1836545,0.234058,-0.309925,-0.1607305
106,0.001394999999999997,0.55868,-0.2122625,-0.136217,0.38761999999999996,-0.1881625,-0.241267,0.591425,-0.3181025,0.150593,0.4046099999999999,-0.1890925,0.257673,0.5791629999999999,-0.3036125,-0.243527,0.8366199999999999,-0.40080249999999995,0.264643,0.8639999999999999,-0.38636250000000005,-0.059974,-0.0026400000000000867,-0.0013594999999999996,0.059974,0.0026399999999999757,0.0013594999999999996,-0.223137,0.05242999999999992,-0.2938825,0.242173,0.04253999999999991,-0.2783025,-0.20791700000000002,-0.30544000000000004,-0.1804625,0.233503,-0.29629000000000005,-0.1575115
107,0.001419000000000001,0.560634,-0.2090045,-0.136768,0.3859849999999999,-0.1849145,-0.24193800000000001,0.5877069999999999,-0.3166145,0.14940199999999998,0.4038449999999999,-0.1858645,0.25880200000000003,0.576324,-0.30031450000000004,-0.243508,0.8295249999999998,-0.4012745,0.265722,0.8637349999999999,-0.3832145,-0.060292,-0.0029250000000000664,-0.0014655000000000085,0.060292,0.0029249999999999554,0.0014654999999999946,-0.222918,0.06527499999999992,-0.2906145,0.241092,0.056024999999999936,-0.2754345,-0.206658,-0.2957050000000001,-0.1792745,0.23286199999999999,-0.2861150000000001,-0.1538405
108,0.0011829999999999974,0.5625960000000001,-0.2049155,-0.137355,0.3844900000000001,-0.1819855,-0.242525,0.5872090000000001,-0.31463549999999996,0.14815499999999998,0.4037900000000001,-0.18294549999999998,0.259965,0.575038,-0.2973255,-0.24318499999999998,0.8224200000000002,-0.4020555,0.266515,0.8637300000000001,-0.3804455,-0.060833,-0.0033999999999999586,-0.0014464999999999895,0.060833,0.0034000000000000696,0.0014465000000000033,-0.222445,0.07944000000000012,-0.28765549999999995,0.23950500000000002,0.07130000000000009,-0.2725455,-0.204635,-0.28486999999999996,-0.17939549999999999,0.232155,-0.27578999999999987,-0.1502795
109,0.0007489999999999979,0.561746,-0.20230700000000001,-0.13750199999999999,0.385525,-0.179817,-0.242692,0.581237,-0.312917,0.14721800000000002,0.405655,-0.180407,0.261168,0.576071,-0.295117,-0.242752,0.809615,-0.403277,0.267738,0.855545,-0.378567,-0.061607999999999996,-0.0037049999999999583,-0.0013000000000000095,0.061607999999999996,0.0037050000000000693,0.0012999999999999956,-0.221142,0.090385,-0.285077,0.237918,0.08392500000000003,-0.270417,-0.202552,-0.2751549999999999,-0.176377,0.231538,-0.265135,-0.1497
110,0.00013149999999999707,0.560903,-0.2002135,-0.1378355,0.38609499999999997,-0.1776835,-0.24274549999999998,0.576784,-0.3108835,0.14659450000000002,0.405835,-0.1775135,0.26259449999999995,0.574074,-0.29271349999999996,-0.2421655,0.798385,-0.40347350000000004,0.2695145,0.847665,-0.3768235,-0.0622975,-0.003935000000000022,-0.001181500000000002,0.0622975,0.003935000000000022,0.001181500000000002,-0.2195155,0.10096499999999997,-0.2821135,0.2363945,0.09697499999999998,-0.2684335,-0.1999955,-0.26551499999999995,-0.17295349999999998,0.2310845,-0.254155,-0.1492095
111,-0.00038000000000000533,0.559862,-0.19759949999999998,-0.13740100000000002,0.38454999999999995,-0.1760495,-0.24270100000000003,0.5705659999999999,-0.30954950000000003,0.14628899999999997,0.40728999999999993,-0.1751395,0.26426900000000003,0.573641,-0.2903295,-0.241571,0.7943499999999999,-0.4038095,0.27164900000000003,0.84136,-0.3756295,-0.063077,-0.0045800000000000285,-0.0013094999999999912,0.063077,0.0045799999999999175,0.001309500000000005,-0.21749100000000002,0.11042999999999997,-0.27916949999999996,0.235089,0.10916999999999993,-0.2665895,-0.19724100000000003,-0.25704000000000005,-0.1720295,0.23049899999999998,-0.24542000000000008,-0.1481405
112,-0.0006219999999999993,0.56007,-0.1959105,-0.13692200000000002,0.38597999999999993,-0.1740205,-0.242642,0.5671489999999999,-0.3086505,0.14590799999999998,0.40697999999999995,-0.17215049999999998,0.265148,0.5717829999999999,-0.2878805,-0.24102200000000001,0.7954999999999999,-0.4045705,0.27373800000000004,0.8344099999999999,-0.3750705,-0.063983,-0.004110000000000058,-0.0011494999999999977,0.063983,0.004109999999999947,0.0011494999999999977,-0.214932,0.11765999999999993,-0.2759605,0.233788,0.11862999999999996,-0.2643705,-0.194102,-0.2506100000000001,-0.1719205,0.231128,-0.23721000000000003,-0.1456865
113,-0.001035000000000003,0.560564,-0.19345299999999999,-0.136553,0.38715999999999995,-0.172183,-0.242763,0.56429,-0.307573,0.145417,0.40664,-0.16941299999999998,0.266007,0.571037,-0.28557299999999997,-0.240623,0.7970999999999999,-0.405273,0.275477,0.8274,-0.374243,-0.064696,-0.0037399999999999656,-0.0009519999999999945,0.064696,0.0037399999999999656,0.0009519999999999945,-0.212273,0.12571,-0.273333,0.232377,0.12758999999999998,-0.26199300000000003,-0.191293,-0.24339,-0.175273,0.230567,-0.23024,-0.14290999999999998
114,-0.0015369999999999984,0.560193,-0.191515,-0.13616299999999998,0.38797000000000004,-0.17100500000000002,-0.243043,0.562292,-0.306875,0.145517,0.40804000000000007,-0.167645,0.266187,0.570559,-0.283435,-0.240363,0.79518,-0.40632500000000005,0.276967,0.81803,-0.373545,-0.065433,-0.0038999999999999035,-0.0008610000000000007,0.065433,0.0039000000000000146,0.0008610000000000007,-0.20999299999999999,0.1314400000000001,-0.27180499999999996,0.23117700000000002,0.13380000000000003,-0.260065,-0.187633,-0.23849999999999993,-0.177435,0.23025700000000002,-0.2254099999999999,-0.14071699999999998
115,-0.0022654999999999984,0.560472,-0.1900955,-0.1361715,0.38818,-0.1701855,-0.2435415,0.560764,-0.30639550000000004,0.14536849999999998,0.40825,-0.1661455,0.2661985,0.571317,-0.2815055,-0.24040150000000002,0.79099,-0.4068655,0.2780085,0.81945,-0.3719055,-0.0657155,-0.003950000000000009,-0.000845499999999999,0.0657155,0.003950000000000009,0.000845499999999999,-0.2083015,0.13512000000000002,-0.2707455,0.23014849999999998,0.13787000000000005,-0.2585655,-0.18392150000000002,-0.23624999999999996,-0.1804555,0.2288985,-0.22196000000000005,-0.13932650000000002
116,-0.003146999999999997,0.5601149999999999,-0.1884425,-0.136305,0.38732,-0.1695625,-0.244175,0.560643,-0.3055825,0.145095,0.40771999999999997,-0.1648775,0.265525,0.572661,-0.2797225,-0.241125,0.7921499999999999,-0.40688250000000004,0.27836500000000003,0.82095,-0.36948250000000005,-0.065872,-0.0040999999999999925,-0.0008564999999999962,0.065872,0.0040999999999999925,0.0008564999999999962,-0.206935,0.13663999999999998,-0.2698825,0.229205,0.13985999999999998,-0.2572325,-0.181155,-0.23443000000000003,-0.18040250000000002,0.226935,-0.21992,-0.1384185
117,-0.0039059999999999963,0.5601149999999999,-0.1867445,-0.13638,0.38732,-0.1689345,-0.24481999999999998,0.560643,-0.3045045,0.14490999999999998,0.40771999999999997,-0.1637275,0.26576,0.572661,-0.27811450000000004,-0.24184,0.7920499999999999,-0.40565450000000003,0.2789,0.82095,-0.3674145,-0.065927,-0.0040999999999999925,-0.0008584999999999982,0.065927,0.0040999999999999925,0.0008584999999999982,-0.20585,0.13557999999999992,-0.26932449999999997,0.22880999999999999,0.13898,-0.25617449999999997,-0.17883000000000002,-0.23457000000000006,-0.1802145,0.22649,-0.22054000000000007,-0.13693349999999999
118,-0.004032500000000003,0.5601149999999999,-0.18600299999999997,-0.1364535,0.38732,-0.168373,-0.2453335,0.560643,-0.303803,0.14467649999999999,0.40771999999999997,-0.16286499999999998,0.2660865,0.572661,-0.27648300000000003,-0.2428735,0.7920499999999999,-0.404323,0.2795865,0.82095,-0.366743,-0.0660345,-0.0040999999999999925,-0.0008059999999999873,0.0660345,0.0040999999999999925,0.0008060000000000012,-0.20563350000000002,0.13557999999999992,-0.269363,0.2286965,0.13898,-0.255703,-0.1788835,-0.23457000000000006,-0.18195299999999998,0.22620649999999998,-0.22099000000000002,-0.134872
119,-0.004095000000000001,0.5601149999999999,-0.1859475,-0.13652999999999998,0.38732,-0.16832750000000002,-0.24575999999999998,0.560643,-0.30354749999999997,0.14462,0.40771999999999997,-0.1628635,0.2664,0.572661,-0.2756475,-0.24386999999999998,0.7920499999999999,-0.4034475,0.28069,0.82095,-0.3662975,-0.066094,-0.0040999999999999925,-0.0008335000000000009,0.066094,0.0040999999999999925,0.0008335000000000009,-0.20568,0.13557999999999992,-0.2698575,0.22863,0.13898,-0.2557875,-0.17906999999999998,-0.23457000000000006,-0.17781750000000002,0.22607000000000002,-0.22099000000000002,-0.1323715
120,-0.004207500000000003,0.560387,-0.18619249999999998,-0.13670549999999998,0.38673,-0.1686025,-0.2463555,0.559558,-0.3034425,0.1444245,0.40728,-0.1633675,0.2668445,0.572215,-0.2750425,-0.24499550000000003,0.7909200000000001,-0.40309249999999996,0.28197449999999996,0.82055,-0.3662625,-0.0660505,-0.004009999999999958,-0.0009735000000000021,0.0660505,0.004009999999999958,0.0009735000000000021,-0.2057755,0.13444999999999996,-0.2707025,0.22853449999999997,0.13785000000000003,-0.2564525,-0.1794655,-0.23541999999999996,-0.1727525,0.22630450000000002,-0.22004,-0.1317335
121,-0.004552999999999998,0.562586,-0.18645699999999998,-0.137166,0.38444,-0.169037,-0.24704600000000002,0.562485,-0.303247,0.143964,0.40532999999999997,-0.164254,0.26697400000000004,0.571607,-0.274787,-0.246576,0.79196,-0.402437,0.283374,0.8287,-0.365877,-0.065632,-0.00385000000000002,-0.0010310000000000041,0.065632,0.00385000000000002,0.0010310000000000041,-0.20616600000000002,0.12944,-0.271587,0.228554,0.13285000000000002,-0.257327,-0.182296,-0.23901000000000006,-0.169207,0.22761399999999998,-0.22501000000000004,-0.133473
122,-0.004696000000000002,0.5651470000000001,-0.1872855,-0.137624,0.38300500000000004,-0.1699055,-0.247764,0.56475,-0.3033655,0.14332599999999998,0.40537500000000004,-0.1652305,0.266486,0.574113,-0.2747355,-0.24810400000000002,0.791975,-0.4016455,0.28383600000000003,0.834505,-0.3656455,-0.065142,-0.003874999999999962,-0.0011584999999999929,0.065142,0.003874999999999962,0.0011585000000000067,-0.207014,0.12263500000000005,-0.2735555,0.228876,0.12510500000000002,-0.2586255,-0.18624400000000002,-0.24392499999999995,-0.1671905,0.228676,-0.22712500000000002,-0.1357105
123,-0.0049435,0.567739,-0.1885975,-0.13811949999999998,0.38304499999999997,-0.17135850000000002,-0.2486995,0.5692999999999999,-0.3039275,0.1425005,0.40607499999999996,-0.1667975,0.2658405,0.576523,-0.27518750000000003,-0.24928949999999997,0.793415,-0.4006075,0.28425049999999996,0.8381649999999999,-0.3652375,-0.0644745,-0.004035000000000011,-0.0013935000000000058,0.0644745,0.004035000000000011,0.001393499999999992,-0.2085495,0.11430499999999999,-0.2766575,0.22944050000000002,0.11513499999999999,-0.2605175,-0.18749949999999999,-0.24948500000000007,-0.1662575,0.22875050000000002,-0.23178500000000002,-0.1389805
124,-0.0049365,0.569202,-0.19029000000000001,-0.1385365,0.383745,-0.173145,-0.24936650000000002,0.575718,-0.30493000000000003,0.1419135,0.406925,-0.169167,0.26612349999999996,0.578236,-0.27617,-0.25041650000000004,0.795285,-0.39827999999999997,0.2850835,0.837995,-0.36441,-0.0637075,-0.003944999999999976,-0.0015299999999999897,0.0637075,0.003944999999999976,0.0015300000000000036,-0.2105165,0.103545,-0.28081,0.2308335,0.10208499999999998,-0.26347,-0.1891565,-0.26065499999999997,-0.170732,0.2295535,-0.238255,-0.141309
125,-0.004814999999999998,0.571208,-0.192519,-0.138873,0.38469,-0.175736,-0.25005299999999997,0.579611,-0.305909,0.141547,0.40702000000000005,-0.172578,0.26659700000000003,0.57979,-0.277809,-0.25138299999999997,0.80067,-0.39488899999999993,0.286687,0.84931,-0.363329,-0.062965,-0.003730000000000011,-0.0015169999999999906,0.062965,0.003730000000000011,0.0015170000000000045,-0.212413,0.08861000000000002,-0.285949,0.23261700000000002,0.08588000000000001,-0.26802899999999996,-0.19142299999999998,-0.27203,-0.175493,0.22992700000000002,-0.25010999999999994,-0.144699
126,-0.004669499999999997,0.573457,-0.194749,-0.1390435,0.385225,-0.178724,-0.25072350000000004,0.584545,-0.306779,0.1412465,0.40722499999999995,-0.176049,0.2669665,0.581016,-0.279459,-0.2525135,0.805765,-0.391189,0.2883165,0.857955,-0.36240900000000004,-0.0622175,-0.003715000000000024,-0.0016189999999999954,0.0622175,0.003715000000000024,0.0016189999999999954,-0.21436349999999998,0.072575,-0.291349,0.23432650000000002,0.068795,-0.27308899999999997,-0.1942835,-0.28366500000000006,-0.179121,0.23043650000000002,-0.263825,-0.148556
127,-0.004297999999999998,0.5749029999999999,-0.19700800000000002,-0.138834,0.38834499999999994,-0.181758,-0.251004,0.5874729999999999,-0.307658,0.141296,0.407365,-0.17952,0.26756599999999997,0.581075,-0.281188,-0.253384,0.807955,-0.387818,0.290456,0.851985,-0.362128,-0.061681,-0.0031849999999999934,-0.0014949999999999963,0.061681,0.0031849999999999934,0.0014949999999999963,-0.215674,0.05490499999999998,-0.296228,0.236206,0.050124999999999975,-0.278478,-0.197024,-0.297145,-0.184294,0.230216,-0.279505,-0.154444
128,-0.003940999999999997,0.5775589999999999,-0.1987925,-0.13868199999999997,0.3919099999999999,-0.18467650000000002,-0.25136200000000003,0.590644,-0.30742250000000004,0.140928,0.4083399999999999,-0.1826925,0.26822799999999997,0.5812769999999999,-0.2825725,-0.254122,0.8107899999999999,-0.3852125,0.292458,0.8502,-0.3607925,-0.061281,-0.002650000000000041,-0.0013755000000000017,0.061281,0.00264999999999993,0.0013754999999999878,-0.216912,0.03675999999999996,-0.3008425,0.237728,0.031129999999999936,-0.28309249999999997,-0.20096199999999997,-0.3121100000000001,-0.1888835,0.231338,-0.29539000000000004,-0.1600675
129,-0.0038990000000000014,0.578115,-0.199767,-0.13867200000000002,0.392758,-0.187097,-0.251822,0.5931150000000001,-0.307017,0.14051799999999998,0.407979,-0.185151,0.269078,0.581516,-0.283457,-0.255072,0.8141750000000001,-0.381967,0.294238,0.8457250000000001,-0.359047,-0.060988,-0.0026049999999999685,-0.0013050000000000006,0.060988,0.002605000000000024,0.0013050000000000006,-0.21812199999999998,0.017174999999999996,-0.305187,0.238448,0.010904999999999998,-0.287377,-0.204882,-0.329245,-0.193307,0.232058,-0.313075,-0.16581
130,-0.003919000000000002,0.581785,-0.199951,-0.13861900000000002,0.396088,-0.188805,-0.252169,0.597505,-0.306251,0.140351,0.409255,-0.18701099999999998,0.269741,0.583685,-0.283931,-0.25575899999999996,0.819055,-0.379501,0.295391,0.8404449999999999,-0.357431,-0.060824,-0.002395000000000036,-0.0013139999999999957,0.060824,0.0023949999999999805,0.0013139999999999957,-0.218609,-0.0008250000000000202,-0.309231,0.238721,-0.008545000000000025,-0.291401,-0.206989,-0.342635,-0.197401,0.232771,-0.32955500000000004,-0.17155700000000002
131,-0.0039365000000000025,0.585215,-0.19935399999999998,-0.1385815,0.398546,-0.189776,-0.2523415,0.603035,-0.30511,0.1402285,0.41166800000000003,-0.18795099999999998,0.2700685,0.587215,-0.28354,-0.2563815,0.824875,-0.37693,0.2962085,0.837375,-0.35538,-0.0608285,-0.0022649999999999615,-0.0011499999999999982,0.0608285,0.002265000000000017,0.0011499999999999982,-0.2185015,-0.019244999999999957,-0.31293,0.2388285,-0.026844999999999952,-0.29510000000000003,-0.2083715,-0.35862499999999997,-0.20239000000000001,0.2332185,-0.35085500000000003,-0.176611
132,-0.0041615,0.589335,-0.196853,-0.1390315,0.403029,-0.18896200000000002,-0.2528615,0.607095,-0.30247500000000005,0.1401885,0.41385,-0.187341,0.2698685,0.591755,-0.28186500000000003,-0.2571615,0.836145,-0.37212500000000004,0.2969585,0.837365,-0.35236500000000004,-0.0609855,-0.0019750000000000045,-0.0009950000000000098,0.0609855,0.0019750000000000045,0.0009949999999999959,-0.2185815,-0.03848499999999999,-0.315385,0.23872849999999998,-0.044485,-0.296755,-0.2097715,-0.37581499999999995,-0.207575,0.23350849999999998,-0.37237499999999996,-0.180587
133,-0.0044170000000000025,0.5949249999999999,-0.19306800000000002,-0.139458,0.407275,-0.18720599999999998,-0.253518,0.611075,-0.298325,0.140032,0.416539,-0.18565700000000002,0.269632,0.597105,-0.278705,-0.257948,0.847075,-0.367205,0.297262,0.8451649999999999,-0.34736500000000003,-0.061133999999999994,-0.00190499999999999,-0.0009349999999999914,0.061133999999999994,0.00190499999999999,0.0009350000000000053,-0.218708,-0.05727500000000002,-0.31620499999999996,0.238582,-0.06149500000000002,-0.296855,-0.211078,-0.39258499999999996,-0.21032499999999998,0.233692,-0.39417500000000005,-0.183536
134,-0.004944499999999999,0.6006,-0.187861,-0.1397215,0.41136800000000007,-0.18398599999999998,-0.2542315,0.61716,-0.29327,0.1395285,0.41914500000000005,-0.18270199999999998,0.2693685,0.60331,-0.27392,-0.2591215,0.85185,-0.36232,0.2969485,0.84724,-0.3407,-0.0614225,-0.0016899999999999693,-0.0010599999999999915,0.0614225,0.0016900000000000248,0.0010600000000000054,-0.2185215,-0.07331999999999994,-0.31466,0.2381385,-0.07653999999999994,-0.29477,-0.21187150000000002,-0.41072,-0.21320999999999998,0.2338585,-0.41335999999999995,-0.185367
135,-0.005512999999999999,0.6040350000000001,-0.18161300000000002,-0.139959,0.41527200000000003,-0.179431,-0.254759,0.619495,-0.28732,0.139161,0.42239100000000007,-0.17792000000000002,0.26892099999999997,0.606725,-0.26809,-0.259819,0.853865,-0.35599000000000003,0.29677099999999995,0.850245,-0.33292,-0.061772999999999995,-0.0017349999999999866,-0.0010700000000000015,0.061772999999999995,0.001735000000000042,0.0010699999999999876,-0.217599,-0.09105499999999994,-0.3113,0.237161,-0.09330499999999997,-0.2907,-0.21259899999999998,-0.429705,-0.21537,0.234061,-0.435295,-0.18599300000000002
136,-0.0062914999999999985,0.609885,-0.174856,-0.1402435,0.41770499999999994,-0.174838,-0.2554635,0.6243049999999999,-0.280945,0.1388265,0.42578499999999997,-0.173238,0.2679565,0.6121749999999999,-0.261835,-0.2602435,0.8584649999999999,-0.349265,0.2965165,0.855155,-0.32515499999999997,-0.062247500000000004,-0.00194500000000003,-0.0010850000000000026,0.062247500000000004,0.0019449999999999745,0.0010850000000000026,-0.21625350000000002,-0.10698500000000005,-0.306945,0.2351865,-0.10805500000000007,-0.285195,-0.2131635,-0.447685,-0.217235,0.2339965,-0.456175,-0.186358
137,-0.007012999999999998,0.614325,-0.168097,-0.140342,0.42042499999999994,-0.170181,-0.255882,0.630215,-0.274825,0.138518,0.42805499999999996,-0.16877599999999998,0.266318,0.6152949999999999,-0.255385,-0.26123199999999996,0.8648049999999999,-0.340915,0.29588800000000004,0.8528249999999999,-0.318015,-0.06273300000000001,-0.002055000000000029,-0.0010949999999999988,0.06273300000000001,0.0020549999999999735,0.0010949999999999988,-0.214622,-0.12311500000000003,-0.302225,0.232868,-0.12316500000000002,-0.278975,-0.213582,-0.466055,-0.218955,0.234038,-0.477155,-0.18651600000000002
138,-0.0077800000000000005,0.620975,-0.16081099999999998,-0.14072300000000001,0.424685,-0.165212,-0.25610299999999997,0.637695,-0.268215,0.138347,0.43354499999999996,-0.163693,0.264687,0.622285,-0.24809499999999998,-0.26182300000000003,0.8769849999999999,-0.331705,0.29514700000000005,0.855715,-0.310535,-0.063289,-0.00190499999999999,-0.0010149999999999881,0.063289,0.00190499999999999,0.001015000000000002,-0.212433,-0.136585,-0.296695,0.230077,-0.134575,-0.271395,-0.213973,-0.48059500000000005,-0.220135,0.234167,-0.49447500000000005,-0.186344
139,-0.008775499999999999,0.625735,-0.152708,-0.1408985,0.427545,-0.159695,-0.2565685,0.641305,-0.260335,0.1377215,0.43762500000000004,-0.157949,0.2628715,0.628125,-0.24011500000000002,-0.2624385,0.889795,-0.320965,0.2936415,0.8640650000000001,-0.300085,-0.0639635,-0.0017550000000000066,-0.0011649999999999994,0.0639635,0.0017550000000000066,0.0011649999999999994,-0.2104085,-0.15139499999999997,-0.290955,0.2270215,-0.14683500000000002,-0.262815,-0.2142385,-0.499135,-0.219285,0.2341815,-0.512405,-0.18543700000000002
140,-0.009780500000000004,0.6295,-0.143609,-0.14105849999999998,0.43102999999999997,-0.153029,-0.25678850000000003,0.6410899999999999,-0.25056999999999996,0.1370715,0.44109,-0.151374,0.2611015,0.63301,-0.23107,-0.2628685,0.89917,-0.30906999999999996,0.2917415,0.8709,-0.28862,-0.0644405,-0.0015700000000000158,-0.001229999999999995,0.0644405,0.001569999999999988,0.0012300000000000089,-0.20793850000000003,-0.16650000000000004,-0.28384,0.2241515,-0.16078000000000003,-0.25395999999999996,-0.2143585,-0.51847,-0.2173,0.23432150000000002,-0.53169,-0.183377
141,-0.010699499999999997,0.63374,-0.134182,-0.1413975,0.43221,-0.146583,-0.2568775,0.64742,-0.24069000000000002,0.1372325,0.44432000000000005,-0.14458100000000002,0.2595525,0.63679,-0.22155999999999998,-0.2628375,0.9009,-0.29784,0.2897825,0.88214,-0.27637,-0.0650055,-0.0013400000000000079,-0.0011000000000000038,0.0650055,0.0013400000000000079,0.0011000000000000038,-0.2052275,-0.18032,-0.27622,0.2216825,-0.17456000000000002,-0.24586000000000002,-0.2141575,-0.53701,-0.21495999999999998,0.2346125,-0.54963,-0.181037
142,-0.011547500000000002,0.636435,-0.12393100000000001,-0.1416795,0.434135,-0.1391,-0.2564695,0.651295,-0.230333,0.13745049999999998,0.449895,-0.136132,0.25794049999999996,0.6410750000000001,-0.211853,-0.26269950000000003,0.900395,-0.28536300000000003,0.2883705,0.886595,-0.264783,-0.0655075,-0.0010250000000000259,-0.000904000000000002,0.0655075,0.0010249999999999981,0.0009039999999999881,-0.2024495,-0.194515,-0.26798299999999997,0.21913049999999998,-0.18856500000000004,-0.237353,-0.2136595,-0.555485,-0.21186300000000002,0.2350205,-0.567285,-0.17798000000000003
143,-0.012407499999999998,0.63954,-0.11366899999999999,-0.14195249999999998,0.43455,-0.131803,-0.2563225,0.65601,-0.219854,0.1374875,0.45519,-0.127658,0.2580175,0.64437,-0.201614,-0.2622725,0.90235,-0.27221399999999996,0.2867975,0.8886,-0.254054,-0.06596250000000001,-0.0010799999999999976,-0.0008129999999999943,0.06596250000000001,0.0010799999999999976,0.0008130000000000082,-0.19951249999999998,-0.20657,-0.25857399999999997,0.2149175,-0.19757,-0.226934,-0.21319249999999998,-0.57177,-0.208394,0.2346675,-0.57901,-0.174319
144,-0.0131165,0.64301,-0.102785,-0.14236749999999998,0.43765,-0.123128,-0.2559975,0.65945,-0.208479,0.1372625,0.46048,-0.118916,0.2571425,0.6504599999999999,-0.19128,-0.2620875,0.9048999999999999,-0.259129,0.2853425,0.88911,-0.24261900000000003,-0.0663135,-0.0005199999999999927,-0.0006690000000000029,0.0663135,0.0005200000000000066,0.0006690000000000029,-0.1964475,-0.21721,-0.247979,0.2108425,-0.20651,-0.21664899999999998,-0.21261750000000001,-0.58726,-0.203799,0.2341625,-0.58944,-0.169852
145,-0.01354,0.6459855000000001,-0.092377,-0.14277800000000002,0.4404055,-0.114937,-0.255598,0.6654655,-0.19735799999999998,0.13700199999999998,0.4658355,-0.110364,0.256442,0.6541254999999999,-0.18178899999999998,-0.261768,0.9110455,-0.24702800000000003,0.284072,0.8908555,-0.231238,-0.06653300000000001,-0.0002365000000000006,-0.0005170000000000036,0.06653300000000001,0.0002365000000000006,0.0005170000000000036,-0.193088,-0.22598450000000003,-0.23687799999999998,0.206672,-0.21421450000000003,-0.206918,-0.21182800000000002,-0.5997245,-0.198758,0.233312,-0.5977745000000001,-0.16517199999999999
146,-0.014007499999999999,0.648157,-0.08201800000000001,-0.14323349999999999,0.442127,-0.106562,-0.2551535,0.667517,-0.18637,0.13696650000000002,0.474067,-0.10107,0.2558865,0.659747,-0.17224899999999999,-0.2612635,0.913067,-0.23574,0.2838265,0.895817,-0.22138,-0.06669549999999999,-0.00031099999999999184,-0.00039200000000000346,0.06669549999999999,0.0003110000000000057,0.00039200000000000346,-0.1899335,-0.238493,-0.2255,0.2021965,-0.22674299999999997,-0.19711,-0.21103349999999998,-0.614933,-0.19312,0.23201650000000001,-0.610533,-0.16014
147,-0.0142935,0.6490305000000001,-0.07231699999999999,-0.1438795,0.4434305,-0.09830900000000001,-0.2547195,0.6677505,-0.175601,0.1370505,0.4771605,-0.092557,0.25567049999999997,0.6620005,-0.16322399999999998,-0.2604295,0.9089505,-0.225189,0.2833005,0.8985305,-0.210879,-0.0666705,-0.0002654999999999949,-0.0003630000000000022,0.0666705,0.00026550000000000185,0.0003630000000000022,-0.1868395,-0.2520795,-0.213729,0.1975705,-0.24109950000000002,-0.187659,-0.2102195,-0.6318094999999999,-0.186469,0.2305505,-0.6248594999999999,-0.154777
148,-0.014331500000000004,0.6489475,-0.0595605,-0.14448950000000002,0.44409750000000003,-0.0869195,-0.25392950000000003,0.6683075,-0.1618325,0.1373605,0.4799175,-0.0809275,0.2555505,0.6625475000000001,-0.1509655,-0.2595695,0.9007075,-0.2114565,0.2836205,0.8955675000000001,-0.1996365,-0.06650049999999999,-0.00041749999999999426,-0.00018949999999999523,0.06650049999999999,0.0004175000000000012,0.00018949999999999523,-0.1834995,-0.2652725,-0.19817649999999998,0.19280049999999999,-0.2546625,-0.17453649999999998,-0.2093595,-0.6477125,-0.1762965,0.22898049999999998,-0.6384025,-0.14611649999999998
149,-0.013863500000000004,0.6464985,-0.046400000000000004,-0.1452495,0.4471685,-0.073455,-0.2520495,0.6728084999999999,-0.14769500000000002,0.1381105,0.4790185,-0.068471,0.2558105,0.6655384999999999,-0.138595,-0.2582295,0.8960385,-0.197015,0.2842705,0.8965185,-0.18782500000000002,-0.0660135,-0.0007074999999999998,2.9999999999995308e-05,0.0660135,0.0007074999999999998,-3.0000000000002247e-05,-0.1781595,-0.2809115,-0.180525,0.18739050000000002,-0.2700615,-0.160052,-0.2080695,-0.6648915000000001,-0.164215,0.2276005,-0.6537615,-0.13525199999999998
150,-0.013255499999999996,0.6435675000000001,-0.0342125,-0.14589950000000002,0.4502075,-0.0607505,-0.2502195,0.6710075000000001,-0.1343425,0.13895049999999998,0.4785875,-0.0566215,0.2561005,0.6683175,-0.1273645,-0.25668949999999996,0.8918475,-0.1825545,0.28493050000000003,0.8920475,-0.1771545,-0.0654965,-0.0010915,0.0003014999999999962,0.0654965,0.0010914999999999998,-0.00030150000000000315,-0.1729195,-0.2960225,-0.1637045,0.18213050000000003,-0.2847425,-0.1459895,-0.2064995,-0.6807924999999999,-0.1519565,0.22608050000000002,-0.6683525,-0.1243665
151,-0.012668500000000003,0.6407795000000001,-0.023033500000000002,-0.1465605,0.45251949999999996,-0.0487235,-0.2483305,0.6692895,-0.12176050000000001,0.1398195,0.4751295,-0.0462465,0.25646949999999996,0.6697195,-0.1166975,-0.2550605,0.8885095000000001,-0.1687075,0.2856595,0.8964495,-0.1648775,-0.0649775,-0.0014665000000000008,0.0004854999999999998,0.0649775,0.001466499999999999,-0.0004854999999999998,-0.1675705,-0.3101205,-0.1473775,0.1768495,-0.29811050000000006,-0.1319825,-0.2048305,-0.6951705,-0.1398745,0.2245595,-0.6816305,-0.1135245
152,-0.012151500000000003,0.6369675,-0.012313000000000001,-0.14735450000000003,0.4557475,-0.036555,-0.2463845,0.6672075000000001,-0.109385,0.14083549999999997,0.4723375000000001,-0.035749,0.2571855,0.6706875,-0.106711,-0.2526145,0.8882475,-0.153202,0.28672549999999997,0.9011375,-0.15279199999999998,-0.0644395,-0.0017824999999999994,0.0007390000000000035,0.0644395,0.0017824999999999994,-0.0007389999999999966,-0.16239450000000002,-0.3250125,-0.13206600000000002,0.17292549999999998,-0.31311249999999996,-0.119809,-0.2028745,-0.7098424999999999,-0.127222,0.22332549999999998,-0.6965525,-0.102057
153,-0.0117425,0.6341095,-0.0028845000000000016,-0.1479315,0.4566395,-0.0262665,-0.2444515,0.6672795,-0.0981475,0.14189849999999998,0.4687095,-0.0268425,0.2578585,0.6710595,-0.0975805,-0.2503015,0.8907995000000001,-0.1387855,0.28802849999999997,0.9079995000000001,-0.1416355,-0.0639195,-0.0022325000000000053,0.0009674999999999996,0.0639195,0.0022324999999999984,-0.0009674999999999996,-0.1573115,-0.33695050000000004,-0.1180295,0.16885850000000002,-0.32497050000000005,-0.10800549999999999,-0.20102150000000002,-0.7217005,-0.1153825,0.22213850000000002,-0.7083205,-0.0913175
154,-0.011363499999999999,0.6302215,0.006020000000000001,-0.1485265,0.45710150000000005,-0.015964,-0.24265649999999997,0.6646215,-0.087338,0.1426635,0.46537150000000005,-0.017824999999999997,0.2580535,0.6718715000000001,-0.08842,-0.24809649999999997,0.8909715,-0.12423000000000001,0.28927349999999996,0.9150315,-0.13092,-0.0635145,-0.0027264999999999998,0.0011990000000000021,0.0635145,0.0027264999999999998,-0.0011989999999999987,-0.1526065,-0.3485385,-0.104795,0.1650035,-0.3369085,-0.096303,-0.19945649999999998,-0.7331985,-0.10384499999999999,0.2209935,-0.7201584999999999,-0.080655
155,-0.010995999999999999,0.6272785,0.0145005,-0.149192,0.4582585,-0.006018500000000001,-0.24096199999999998,0.6639385,-0.0767535,0.143408,0.45993850000000003,-0.0094015,0.258518,0.6721685,-0.0798685,-0.24594200000000002,0.8928185,-0.1101845,0.29070799999999997,0.9214885,-0.1206405,-0.063115,-0.002881499999999995,0.0015284999999999986,0.063115,0.002881499999999995,-0.0015285000000000003,-0.147962,-0.3577515,-0.0918645,0.161128,-0.3477515,-0.0847475,-0.197932,-0.7423115,-0.0926935,0.219968,-0.7306215,-0.07002549999999999
156,-0.010425999999999998,0.6244505,0.022651499999999998,-0.149732,0.4601805,0.0039845,-0.239012,0.6643505,-0.0663825,0.143628,0.4561305,-0.0009674999999999996,0.258678,0.6730805,-0.0718915,-0.243382,0.8961304999999999,-0.09624650000000001,0.292388,0.9284205000000001,-0.11039750000000001,-0.062739,-0.0030624999999999958,0.0019124999999999993,0.062739,0.0030624999999999958,-0.001912500000000001,-0.143412,-0.3660895,-0.07956450000000001,0.157648,-0.3574595,-0.07357749999999999,-0.196332,-0.7503395,-0.0818255,0.21881799999999998,-0.7399595,-0.0592715
157,-0.009992500000000005,0.6220185,0.027063,-0.1503585,0.46302849999999995,0.010724000000000001,-0.23714849999999998,0.6657285,-0.059661000000000006,0.1437515,0.45368849999999994,0.004182999999999999,0.2591515,0.6751085,-0.06749,-0.24074849999999998,0.9000085,-0.08622500000000001,0.29406150000000003,0.9363385,-0.10338900000000001,-0.0625035,-0.003211500000000006,0.0022380000000000004,0.0625035,0.003211499999999992,-0.0022380000000000004,-0.13920849999999999,-0.37477150000000004,-0.07125200000000001,0.15428150000000002,-0.3670915,-0.066242,-0.19479849999999999,-0.7586715,-0.074507,0.2176115,-0.7492215,-0.051887
158,-0.009646000000000002,0.6224594999999999,0.030084,-0.1506,0.46272949999999996,0.014488999999999998,-0.23603000000000002,0.6660895,-0.054789,0.14424,0.45406949999999996,0.008028,0.25892,0.6739195,-0.064272,-0.23833,0.9034095,-0.077346,0.29513,0.9415495,-0.09759,-0.062378,-0.0031404999999999905,0.002384,0.062378,0.0031405000000000044,-0.002384,-0.13704,-0.3775605,-0.065955,0.1518,-0.3698805,-0.060608,-0.19352,-0.7614605000000001,-0.06917799999999999,0.21631,-0.7520104999999999,-0.046919
159,-0.009267000000000001,0.6221140000000001,0.0330815,-0.15085300000000001,0.46263400000000005,0.0184445,-0.234693,0.6665840000000001,-0.0497795,0.14460699999999999,0.45353399999999994,0.011716500000000001,0.258977,0.6728540000000001,-0.0608365,-0.235893,0.905124,-0.0692525,0.295967,0.947014,-0.0921065,-0.062251,-0.0030750000000000083,0.0025095,0.062251,0.0030749999999999944,-0.0025094999999999996,-0.13478300000000001,-0.38019600000000003,-0.0605205,0.149367,-0.372516,-0.054954499999999996,-0.192163,-0.7640960000000001,-0.06421650000000001,0.215117,-0.7546459999999999,-0.0422095
160,-0.008775499999999999,0.6218095,0.0358755,-0.15114249999999999,0.4627995,0.021972500000000002,-0.2332125,0.6672994999999999,-0.0450095,0.1451175,0.45331950000000004,0.0151455,0.2595275,0.6722195,-0.0574905,-0.2331925,0.9076695,-0.0620725,0.29689750000000004,0.9455594999999999,-0.0889055,-0.062198500000000004,-0.0030395000000000005,0.0026595,0.062198500000000004,0.0030395000000000005,-0.0026595,-0.13257249999999998,-0.3821505,-0.0554315,0.14729750000000003,-0.3744705,-0.049661500000000004,-0.1907225,-0.7660505000000001,-0.0594325,0.21409750000000002,-0.7566005,-0.0378425
161,-0.008389,0.6214040000000001,0.0385875,-0.151394,0.463184,0.0252895,-0.232124,0.667894,-0.040667499999999995,0.145426,0.453124,0.0185035,0.259976,0.6718040000000001,-0.054011500000000004,-0.230674,0.907524,-0.0567685,0.297736,0.9445240000000001,-0.0856675,-0.06235399999999999,-0.0029710000000000014,0.0027885,0.06235399999999999,0.0029710000000000014,-0.0027885,-0.130824,-0.382736,-0.050894499999999995,0.145486,-0.375206,-0.0450585,-0.189814,-0.766546,-0.0555585,0.213096,-0.7572760000000001,-0.0342225
162,-0.007964500000000003,0.6208335,0.041221,-0.1517315,0.4637235,0.028339,-0.2311515,0.6680535000000001,-0.036851,0.1456885,0.45273349999999996,0.021675,0.2605185,0.6713435000000001,-0.050616,-0.2282115,0.9076934999999999,-0.051838,0.2986585,0.9434935,-0.08237,-0.062468499999999996,-0.0029035000000000033,0.0028380000000000002,0.062468499999999996,0.0029034999999999894,-0.002838,-0.1294215,-0.3832565,-0.046951,0.1438785,-0.3758565,-0.040927,-0.1890515,-0.7669665000000001,-0.052139,0.2120985,-0.7578564999999999,-0.030697000000000002
163,-0.0076285,0.6201795,0.043656,-0.1522345,0.4658595,0.031082,-0.2302945,0.6696895,-0.033457,0.1459855,0.4521695,0.024749,0.2611155,0.6707295,-0.047403,-0.22591450000000002,0.9079295000000001,-0.04732,0.2995155,0.9429295,-0.079152,-0.0624885,-0.0027784999999999893,0.002864,0.0624885,0.002778500000000003,-0.0028640000000000002,-0.1283645,-0.3835305,-0.043614,0.1425155,-0.37640049999999997,-0.037381000000000005,-0.18844450000000001,-0.7671905,-0.049017,0.2111255,-0.7583505,-0.027555000000000003
164,-0.007269000000000005,0.6195634999999999,0.045816499999999996,-0.152703,0.46853349999999994,0.0334345,-0.229563,0.6715535,-0.0307535,0.146417,0.4515334999999999,0.0275485,0.261857,0.6702135,-0.044374500000000004,-0.223773,0.9079934999999999,-0.0434635,0.300387,0.9427935000000001,-0.0760835,-0.062457,-0.0026015000000000066,0.0027745,0.062457,0.0026014999999999927,-0.0027745,-0.127453,-0.3836665,-0.0410195,0.141547,-0.37685650000000004,-0.034585500000000005,-0.187983,-0.7672465,-0.0463915,0.210267,-0.7587965,-0.0250045
165,-0.006971999999999999,0.6190464999999999,0.047551500000000003,-0.153038,0.4707665,0.0346695,-0.229098,0.6737365,-0.028973500000000003,0.146872,0.45111650000000003,0.029849499999999998,0.26266199999999995,0.6698365,-0.0415575,-0.222108,0.9086065,-0.040645499999999994,0.301262,0.9430065,-0.0732705,-0.062426999999999996,-0.0024565000000000003,0.0026175,0.062426999999999996,0.0024565000000000003,-0.0026175,-0.126778,-0.38368349999999996,-0.039473499999999995,0.140992,-0.37710350000000004,-0.0327555,-0.187778,-0.7672135,-0.0445575,0.209592,-0.7590635,-0.0234315
166,-0.006485499999999998,0.61851,0.049315,-0.1532075,0.4728,0.035475,-0.22867749999999998,0.67578,-0.027511,0.14749250000000003,0.45075,0.032152,0.2635725,0.66949,-0.038583,-0.2204775,0.9089299999999999,-0.038325,0.3023125,0.9434300000000001,-0.07019500000000001,-0.062338500000000005,-0.0023099999999999926,0.002453,0.062338500000000005,0.0023100000000000065,-0.0024530000000000003,-0.1261675,-0.38371,-0.038362,0.14060250000000002,-0.37738,-0.031259,-0.1875375,-0.76716,-0.043103,0.20901250000000002,-0.75936,-0.022194
167,-0.006062999999999999,0.617912,0.0510365,-0.15343400000000001,0.474912,0.0360905,-0.228354,0.677932,-0.0263215,0.147966,0.45048200000000005,0.0343645,0.26434599999999997,0.669222,-0.035630499999999996,-0.218924,0.909132,-0.0362595,0.303306,0.944132,-0.06680849999999999,-0.062273,-0.0022120000000000056,0.0023645000000000003,0.062273,0.0022119999999999918,-0.0023644999999999994,-0.125714,-0.383718,-0.037558499999999995,0.140206,-0.377548,-0.030002499999999998,-0.187374,-0.767118,-0.0420045,0.20846599999999998,-0.759568,-0.0210365
168,-0.005702500000000003,0.6173949999999999,0.052766499999999994,-0.1535565,0.47707499999999997,0.0365035,-0.22824650000000002,0.6800949999999999,-0.0253395,0.14842349999999999,0.45007499999999995,0.03668250000000001,0.2650535,0.6688149999999999,-0.0326665,-0.2175665,0.9093849999999999,-0.0346225,0.3042435,0.944985,-0.0629615,-0.0622235,-0.002125000000000002,0.0023335000000000005,0.0622235,0.002125000000000002,-0.0023334999999999996,-0.1253465,-0.383695,-0.0369955,0.1397735,-0.377675,-0.028975499999999998,-0.1873165,-0.7670349999999999,-0.0411435,0.2078835,-0.759735,-0.0201045
169,-0.005339,0.616766,0.054461499999999996,-0.15369,0.479166,0.036809499999999995,-0.22824,0.682266,-0.0245885,0.14897,0.449956,0.0393935,0.26571,0.668316,-0.0296995,-0.21649,0.9094460000000001,-0.032946500000000004,0.30511,0.946046,-0.0586195,-0.062133999999999995,-0.002035999999999996,0.0022575,0.062133999999999995,0.002035999999999996,-0.0022575,-0.12503,-0.383684,-0.0366715,0.13935,-0.377814,-0.028232499999999997,-0.18733,-0.766974,-0.040724500000000004,0.20729,-0.759934,-0.0194225
170,-0.0049999999999999975,0.6163005,0.0560265,-0.15390199999999998,0.4815305,0.0370725,-0.228162,0.6848305,-0.0238345,0.149658,0.4496405,0.0419285,0.266308,0.6676105,-0.026888500000000003,-0.216272,0.9096805,-0.0318585,0.305878,0.9470805000000001,-0.0543985,-0.062036,-0.0019305000000000017,0.0021065000000000003,0.062036,0.0019304999999999878,-0.0021065,-0.124722,-0.3836295,-0.0364125,0.13903800000000002,-0.3779595,-0.027605499999999998,-0.187302,-0.7668695,-0.0404325,0.20669800000000002,-0.7601595,-0.0189475
171,-0.004752499999999998,0.6158175,0.0575055,-0.1541935,0.48382749999999997,0.037423500000000005,-0.2280735,0.6872975,-0.0230135,0.1503465,0.4491575,0.044506500000000004,0.2667365,0.6669075,-0.0240355,-0.2161335,0.9149175,-0.030445500000000004,0.3063965,0.9475175,-0.0499955,-0.0619145,-0.0018274999999999958,0.0019175000000000004,0.0619145,0.0018275000000000097,-0.0019175,-0.1244235,-0.3835725,-0.0361895,0.1387765,-0.3780925,-0.0271545,-0.1873235,-0.7667525,-0.040216499999999995,0.2061065,-0.7603925,-0.0186565
172,-0.0045565000000000015,0.6153965,0.0588415,-0.15455950000000002,0.48472649999999995,0.037803500000000004,-0.2279995,0.6883665,-0.0221535,0.1509305,0.4489265,0.0466145,0.2670005,0.6663365,-0.0213695,-0.2156395,0.9215464999999999,-0.0271215,0.3066905,0.9473465,-0.0455775,-0.0618085,-0.0017665000000000042,0.0017034999999999997,0.0618085,0.0017664999999999903,-0.0017035000000000002,-0.12416950000000002,-0.3835535,-0.0360705,0.1385305,-0.3781835,-0.026876499999999998,-0.1873295,-0.7666835,-0.040168499999999996,0.2055305,-0.7605635000000001,-0.018543499999999997
173,-0.004414999999999999,0.614774,0.060119,-0.155108,0.485324,0.038185,-0.228158,0.689284,-0.02113,0.151382,0.448724,0.048388,0.266942,0.666034,-0.018727,-0.215228,0.9217440000000001,-0.02367,0.306772,0.947144,-0.041005,-0.061713000000000004,-0.0017339999999999994,0.001486,0.061713000000000004,0.0017339999999999994,-0.0014860000000000003,-0.12400800000000001,-0.383536,-0.036097000000000004,0.138312,-0.378226,-0.026744,-0.187368,-0.7666459999999999,-0.040355,0.204982,-0.760696,-0.018564999999999998
174,-0.004314000000000002,0.6141445000000001,0.0614215,-0.15551,0.48577450000000005,0.0388155,-0.22847,0.6899445,-0.0198835,0.15171,0.44854449999999996,0.0500325,0.26672,0.6657945000000001,-0.0163755,-0.21492,0.9282045000000001,-0.0202345,0.30669,0.9469045,-0.0364515,-0.061638,-0.0017144999999999938,0.0013225000000000003,0.061638,0.0017145000000000077,-0.0013224999999999999,-0.12390999999999999,-0.3835155,-0.0362005,0.13813,-0.3782755,-0.0266195,-0.18739,-0.7665955,-0.0405725,0.20444,-0.7608254999999999,-0.0186255
175,-0.004356500000000001,0.61348,0.062426499999999996,-0.15586850000000002,0.48611,0.039398499999999996,-0.22854850000000002,0.69061,-0.0185675,0.1520215,0.44831000000000004,0.0514565,0.2664615,0.66553,-0.0144155,-0.2147985,0.9347399999999999,-0.016758500000000003,0.3063915,0.9466399999999999,-0.0324095,-0.0615655,-0.0016999999999999932,0.0011845000000000002,0.0615655,0.001700000000000007,-0.0011845000000000002,-0.12383850000000002,-0.38351,-0.0364155,0.1379615,-0.37831,-0.026641500000000002,-0.18744850000000002,-0.76657,-0.040918500000000003,0.20390149999999999,-0.76095,-0.0187765
176,-0.0044735000000000035,0.612875,0.06335,-0.1562935,0.48647500000000005,0.040043,-0.22865349999999998,0.691245,-0.017107,0.1522965,0.44812500000000005,0.052672000000000004,0.2661565,0.6651549999999999,-0.012436,-0.2148535,0.9412550000000001,-0.012807,0.3060365,0.9464549999999999,-0.028748,-0.0614745,-0.001685000000000006,0.0011400000000000002,0.0614745,0.001685000000000006,-0.00114,-0.12374350000000002,-0.383495,-0.036612,0.1378465,-0.37832499999999997,-0.026693,-0.1874335,-0.766545,-0.041229999999999996,0.2034665,-0.7609750000000001,-0.018988
177,-0.004698000000000001,0.61225,0.064117,-0.156536,0.48675,0.040727,-0.228846,0.69182,-0.015526,0.152584,0.44779,0.053704,0.265894,0.66471,-0.01066,-0.21506599999999998,0.94797,-0.008509,0.305724,0.94607,-0.025643,-0.061371999999999996,-0.001690000000000011,0.0011330000000000001,0.061371999999999996,0.001689999999999997,-0.001133,-0.12363600000000001,-0.38349999999999995,-0.036869,0.13773400000000002,-0.37832,-0.026791000000000002,-0.18741600000000003,-0.76654,-0.041617,0.20306400000000002,-0.761,-0.019229999999999997
178,-0.0049130000000000024,0.6116050000000001,0.064842,-0.156775,0.486935,0.041531,-0.229085,0.692285,-0.013731,0.152755,0.4475950000000001,0.054389,0.265655,0.6643450000000001,-0.009066,-0.215385,0.948375,-0.004243,0.305465,0.9453750000000001,-0.023311,-0.061300999999999994,-0.001695000000000002,0.0011319999999999998,0.061300999999999994,0.0016949999999999882,-0.001132,-0.123535,-0.383505,-0.037143,0.137625,-0.378335,-0.02693,-0.187425,-0.766535,-0.042004,0.202705,-0.761035,-0.019490999999999998
