sb224sc-HT22-VT27/4dt907/src/data/kinect_good_preprocessed_not_cut_A11_mediapipe/A47_kinect.csv
FrameNo,nose_3d_x,nose_3d_y,nose_3d_z,left_shoulder_3d_x,left_shoulder_3d_y,left_shoulder_3d_z,left_elbow_3d_x,left_elbow_3d_y,left_elbow_3d_z,right_shoulder_3d_x,right_shoulder_3d_y,right_shoulder_3d_z,right_elbow_3d_x,right_elbow_3d_y,right_elbow_3d_z,left_wrist_3d_x,left_wrist_3d_y,left_wrist_3d_z,right_wrist_3d_x,right_wrist_3d_y,right_wrist_3d_z,left_hip_3d_x,left_hip_3d_y,left_hip_3d_z,right_hip_3d_x,right_hip_3d_y,right_hip_3d_z,left_knee_3d_x,left_knee_3d_y,left_knee_3d_z,right_knee_3d_x,right_knee_3d_y,right_knee_3d_z,left_ankle_3d_x,left_ankle_3d_y,left_ankle_3d_z,right_ankle_3d_x,right_ankle_3d_y,right_ankle_3d_z
0,-0.015261000000000002,0.6920655,0.07763899999999999,-0.14375100000000002,0.4163855,0.028116999999999996,-0.209721,0.1699055,0.022717999999999995,0.140849,0.4342055,0.019718999999999993,0.192399,0.2026055,0.009776999999999994,-0.219011,-0.0383195,-0.04879900000000001,0.20387899999999998,-0.00039349999999999986,-0.07741200000000001,-0.069435,-0.0012024999999999998,0.0002459999999999962,0.069435,0.0012025,-0.00024600000000000316,-0.14144099999999998,-0.3414545,-0.027417000000000004,0.134019,-0.3299145,-0.027787000000000006,-0.208571,-0.7054245,-0.015136000000000004,0.19798899999999997,-0.7095345,-0.013288000000000008
1,-0.015409499999999998,0.6919730000000001,0.0777555,-0.1435065,0.415783,0.028156500000000004,-0.2097665,0.16974299999999998,0.022840500000000003,0.1412535,0.434683,0.019356500000000006,0.1922935,0.20313299999999998,0.010335500000000004,-0.21897650000000002,-0.038473,-0.0485805,0.2036835,0.00011500000000000008,-0.07668549999999999,-0.06943250000000001,-0.001204,0.00024550000000000266,0.06943250000000001,0.001204,-0.0002454999999999957,-0.1413465,-0.347897,-0.026814499999999998,0.1337635,-0.328787,-0.0282675,-0.2088665,-0.703857,-0.015442499999999998,0.1980035,-0.709587,-0.013315499999999994
2,-0.015367999999999995,0.692233,0.07769999999999999,-0.144351,0.41518299999999997,0.028652,-0.210411,0.171063,0.023818,0.142219,0.43277299999999996,0.023368,0.19228900000000002,0.204863,0.011369,-0.218811,-0.037076,-0.047813999999999995,0.20388900000000001,0.0019110000000000002,-0.075681,-0.069397,-0.001126,-5.7000000000001494e-05,0.069397,0.001126,5.7000000000001494e-05,-0.141101,-0.353447,-0.02565,0.13375900000000002,-0.328077,-0.028669,-0.209361,-0.710537,-0.015093000000000002,0.198209,-0.708657,-0.01364
3,-0.015332499999999999,0.692353,0.0775065,-0.1448325,0.415003,0.0291665,-0.2102525,0.171063,0.0239585,0.1408775,0.432523,0.0246975,0.1923875,0.205333,0.012043500000000002,-0.2186125,-0.037105,-0.0476105,0.2040475,0.0025069999999999997,-0.0753325,-0.0694295,-0.0011619999999999998,-3.249999999999781e-05,0.0694295,0.001162,3.249999999999781e-05,-0.1413525,-0.356587,-0.025021500000000002,0.1336975,-0.32632700000000003,-0.0286755,-0.2102925,-0.7152069999999999,-0.015336499999999996,0.1983675,-0.708687,-0.013928499999999996
4,-0.015288500000000003,0.6922545,0.07741,-0.1462005,0.4159745,0.031086999999999997,-0.21012050000000002,0.17082450000000002,0.024024999999999998,0.1418295,0.4335545,0.02309,0.1923095,0.2051945,0.012271999999999998,-0.2186005,-0.0373555,-0.047467999999999996,0.2040995,0.0024175,-0.07521800000000001,-0.0694185,-0.0011305,-2.2000000000001185e-05,0.0694185,0.0011305,2.2000000000001185e-05,-0.1412305,-0.3568955,-0.025197000000000004,0.1336895,-0.3254255,-0.028859000000000003,-0.2090305,-0.7095955,-0.015442000000000004,0.1982295,-0.7074755,-0.01432
5,-0.016111,0.6923865,0.074633,-0.146582,0.4155165,0.029312,-0.210232,0.1704865,0.023438,0.140958,0.4350065,0.019145000000000002,0.191998,0.20551650000000002,0.011868000000000004,-0.218522,-0.037817500000000004,-0.047592999999999996,0.20466800000000002,0.0023344999999999998,-0.074354,-0.069413,-0.0012335000000000002,-0.0003209999999999949,0.069413,0.0012335000000000002,0.00032100000000000184,-0.14008199999999998,-0.35028349999999997,-0.024544999999999997,0.134128,-0.3241735,-0.028291999999999998,-0.207702,-0.7110535,-0.013038999999999995,0.19747800000000001,-0.6988935,-0.012332999999999997
6,-0.015656,0.6923855,0.0745615,-0.14655700000000002,0.4152055,0.029493500000000002,-0.210017,0.1703955,0.023174500000000004,0.140033,0.4334755,0.021172500000000004,0.192153,0.2052155,0.012029500000000002,-0.218327,-0.0380365,-0.0474295,0.204933,0.0020925000000000006,-0.07432749999999999,-0.069417,-0.0012454999999999992,-0.0002674999999999969,0.069417,0.0012455,0.00026750000000000385,-0.139497,-0.3430945,-0.024660499999999995,0.13444299999999998,-0.3239345,-0.0286955,-0.207227,-0.7078645,-0.012531499999999994,0.198273,-0.7013145000000001,-0.0126065
7,-0.015035500000000004,0.6922295,0.075207,-0.1454405,0.4152995,0.029321,-0.2097805,0.17044949999999998,0.023563,0.1416595,0.4321395,0.021981,0.1923395,0.20547949999999998,0.01226,-0.21833049999999998,-0.0378455,-0.047405,0.2048395,0.0024944999999999993,-0.074406,-0.06941449999999999,-0.0011685000000000003,-0.0002160000000000009,0.06941449999999999,0.0011685000000000003,0.0002160000000000009,-0.14004049999999998,-0.3465105,-0.025078000000000003,0.1342795,-0.3232005,-0.029081000000000003,-0.2079305,-0.7099905,-0.013705000000000002,0.1981695,-0.7024505,-0.013319999999999999
8,-0.014985500000000002,0.6922849999999999,0.0748305,-0.14545349999999999,0.41519500000000004,0.0292475,-0.2097235,0.170385,0.0235015,0.1418565,0.431595,0.0223485,0.19238650000000002,0.205585,0.0123285,-0.2182535,-0.037926,-0.0474125,0.2049465,0.0025649999999999996,-0.0742495,-0.0694175,-0.001144,-0.00026149999999999785,0.0694175,0.001144000000000001,0.00026149999999999785,-0.1398335,-0.346315,-0.0251085,0.1343365,-0.32258499999999996,-0.029276499999999997,-0.2078535,-0.710615,-0.013533499999999997,0.1982365,-0.702315,-0.013268500000000003
9,-0.014935499999999996,0.692333,0.0744065,-0.14550849999999999,0.415153,0.029053499999999996,-0.2096685,0.170333,0.0234015,0.1420215,0.43097300000000005,0.022790499999999998,0.1924515,0.205703,0.012367499999999997,-0.2181685,-0.037998000000000004,-0.04742450000000001,0.20507150000000002,0.002659,-0.0741145,-0.0694225,-0.0011190000000000002,-0.00032050000000000134,0.0694225,0.0011190000000000002,0.0003204999999999944,-0.1396385,-0.345267,-0.0251715,0.1343915,-0.32205700000000004,-0.029471500000000005,-0.2077385,-0.711217,-0.013385500000000002,0.1983015,-0.7022470000000001,-0.013236500000000005
10,-0.014874999999999998,0.692332,0.074129,-0.14552500000000002,0.415162,0.028887,-0.209565,0.170332,0.023371,0.14210499999999998,0.430972,0.023204,0.19250499999999998,0.205712,0.012476000000000001,-0.21809499999999998,-0.037999000000000005,-0.047428,0.205125,0.002658999999999998,-0.074022,-0.069426,-0.0011200000000000012,-0.0003490000000000021,0.069426,0.0011199999999999995,0.0003490000000000021,-0.13942500000000002,-0.344558,-0.025265000000000003,0.13444499999999998,-0.321788,-0.029685999999999997,-0.20754499999999998,-0.7104680000000001,-0.013471999999999998,0.198395,-0.7021980000000001,-0.013238
11,-0.014817999999999998,0.692332,0.073903,-0.14552,0.415162,0.028731999999999994,-0.20948,0.170332,0.023349999999999996,0.14239,0.430972,0.023537999999999996,0.19255,0.205712,0.012609999999999996,-0.21804,-0.037999000000000005,-0.047461,0.20517,0.002658999999999998,-0.073898,-0.06942899999999999,-0.0011200000000000012,-0.0003990000000000035,0.06942899999999999,0.0011199999999999995,0.0003989999999999966,-0.13939000000000001,-0.344558,-0.025353000000000007,0.13448,-0.321788,-0.029912,-0.20744,-0.710188,-0.013699000000000003,0.19841999999999999,-0.7021980000000001,-0.013464000000000004
12,-0.014757499999999996,0.692332,0.07368,-0.1454245,0.415162,0.028555999999999998,-0.20939449999999998,0.170332,0.023328,0.1425055,0.430972,0.024063,0.19259550000000003,0.205712,0.012732999999999998,-0.21797450000000002,-0.037999000000000005,-0.047490000000000004,0.20520549999999999,0.002658999999999998,-0.07377,-0.0694395,-0.0011200000000000012,-0.0004599999999999986,0.0694395,0.0011199999999999995,0.0004599999999999986,-0.13934449999999998,-0.344558,-0.025435000000000003,0.1345155,-0.321788,-0.030133999999999998,-0.2074045,-0.710188,-0.013921,0.1983455,-0.701268,-0.013685
13,-0.0146775,0.692387,0.0734745,-0.1452025,0.415157,0.0283865,-0.2093225,0.17031700000000002,0.0232735,0.14275749999999998,0.430497,0.0247055,0.1926775,0.205787,0.012850499999999997,-0.2179125,-0.037999,-0.0475625,0.2052375,0.0027229999999999997,-0.0736495,-0.06944449999999999,-0.0010889999999999997,-0.0005165000000000031,0.06944449999999999,0.0010889999999999997,0.0005164999999999996,-0.1392325,-0.344453,-0.025625500000000002,0.1345475,-0.321693,-0.030406500000000003,-0.2073625,-0.709933,-0.0141605,0.1983275,-0.701933,-0.014055499999999999
14,-0.014538,0.6924224999999999,0.0733165,-0.144926,0.41525249999999997,0.0282265,-0.20926599999999998,0.1703125,0.023221500000000003,0.142964,0.4302025,0.025515500000000003,0.192784,0.2058325,0.013004500000000002,-0.217856,-0.037990499999999996,-0.04765749999999999,0.205274,0.002793499999999999,-0.07352249999999999,-0.06945599999999999,-0.0010525000000000005,-0.0005464999999999984,0.06945599999999999,0.0010524999999999996,0.0005465000000000018,-0.139146,-0.3442975,-0.025856499999999998,0.134554,-0.32136750000000003,-0.030704499999999996,-0.20729599999999998,-0.7093175,-0.014545499999999996,0.198404,-0.7019975,-0.014333499999999999
15,-0.014365499999999996,0.6924674999999999,0.073158,-0.1447645,0.4152775,0.028075,-0.2092245,0.17026750000000002,0.023114,0.1431555,0.4299175,0.026277000000000002,0.1928855,0.20585750000000003,0.013135,-0.2178145,-0.0380205,-0.047778,0.2053055,0.0028404999999999993,-0.073391,-0.06946050000000001,-0.0010215000000000007,-0.000560999999999999,0.06946050000000001,0.0010214999999999998,0.000560999999999999,-0.1390145,-0.34386249999999996,-0.026058,0.1345555,-0.3212325,-0.030972000000000003,-0.2071945,-0.7086625000000001,-0.014916999999999996,0.1984655,-0.7020925,-0.014639000000000003
16,-0.0141935,0.692524,0.0729545,-0.1447395,0.41528400000000004,0.0279555,-0.2091995,0.170154,0.022984499999999998,0.1431905,0.42970400000000003,0.0267965,0.1929805,0.205874,0.013080499999999998,-0.21777950000000001,-0.03811200000000001,-0.047934500000000005,0.2053305,0.002862,-0.0734465,-0.06946949999999999,-0.0009960000000000004,-0.0005695000000000006,0.06946949999999999,0.0009959999999999995,0.0005695000000000006,-0.1388895,-0.343586,-0.0262845,0.1345505,-0.321106,-0.031253500000000004,-0.2072395,-0.708616,-0.015376499999999998,0.1982805,-0.7015859999999999,-0.014993500000000003
17,-0.014009500000000005,0.6925870000000001,0.0727795,-0.14473650000000002,0.41527699999999995,0.0278745,-0.20917650000000002,0.170027,0.0228805,0.14322349999999998,0.429527,0.0270565,0.1930635,0.205877,0.0129985,-0.21775650000000002,-0.038228000000000005,-0.0480655,0.2053535,0.002861999999999999,-0.0734955,-0.06947249999999999,-0.0009849999999999998,-0.0005735000000000011,0.06947249999999999,0.0009849999999999998,0.0005735000000000011,-0.13879650000000002,-0.34336300000000003,-0.0264365,0.1345335,-0.320983,-0.0315055,-0.2072165,-0.707963,-0.0157565,0.19806349999999998,-0.701283,-0.015365499999999997
18,-0.0138135,0.692647,0.0725875,-0.14470149999999998,0.415257,0.027759500000000003,-0.20919149999999997,0.16977699999999998,0.022801500000000002,0.1431985,0.429457,0.0270495,0.19312849999999998,0.20582699999999998,0.012792500000000002,-0.2177215,-0.038463,-0.0481705,0.20538849999999997,0.0028119999999999994,-0.0736445,-0.0694755,-0.0009820000000000002,-0.0005944999999999978,0.0694755,0.0009820000000000002,0.0005945000000000013,-0.13881149999999998,-0.342733,-0.026617499999999995,0.1345285,-0.320923,-0.0317635,-0.20731149999999998,-0.7076129999999999,-0.016202499999999995,0.19822849999999997,-0.7019829999999999,-0.015739499999999997
19,-0.013614500000000005,0.6928015,0.0723825,-0.14456950000000002,0.41530150000000005,0.027435499999999998,-0.2092295,0.1695715,0.0226735,0.1430905,0.4293215,0.0268545,0.1933105,0.2052515,0.0124985,-0.2176995,-0.0386665,-0.0482695,0.2054205,0.0022385,-0.07382849999999999,-0.0694795,-0.0009895,-0.0006285000000000006,0.0694795,0.0009895,0.0006285000000000006,-0.1388295,-0.3412285,-0.0268245,0.13451049999999998,-0.3208585,-0.0320215,-0.20728950000000002,-0.7067385,-0.016648500000000004,0.1983205,-0.7026185,-0.0160405
20,-0.013402000000000004,0.693074,0.072152,-0.144797,0.415274,0.027109,-0.209297,0.169324,0.022459,0.14304299999999998,0.429254,0.026527000000000002,0.193483,0.204654,0.01218,-0.21768700000000002,-0.038912999999999996,-0.048351000000000005,0.20546299999999998,0.0016490000000000003,-0.074017,-0.06950100000000001,-0.0010009999999999997,-0.0006490000000000003,0.06950100000000001,0.0010010000000000002,0.0006490000000000003,-0.138797,-0.340536,-0.027093999999999997,0.13453299999999999,-0.320886,-0.032242999999999994,-0.207327,-0.705756,-0.017015,0.19819299999999998,-0.701766,-0.016566
21,-0.013169000000000004,0.6933985,0.0719155,-0.14499499999999999,0.4152385,0.026871500000000003,-0.20936500000000002,0.1690685,0.022187500000000002,0.142855,0.4291585,0.0261795,0.193695,0.2037885,0.0118895,-0.217675,-0.039183499999999996,-0.048468500000000005,0.20553500000000002,0.0007725000000000002,-0.0741965,-0.069523,-0.0010125,-0.0006854999999999986,0.069523,0.0010125000000000004,0.0006855000000000021,-0.13876500000000003,-0.3389915,-0.0273565,0.134565,-0.3209915,-0.0324335,-0.207395,-0.7051014999999999,-0.0174275,0.19809500000000002,-0.7010815,-0.017079499999999997
22,-0.012894000000000001,0.6939,0.071563,-0.14521,0.41533000000000003,0.026511,-0.20948999999999998,0.16884000000000002,0.021732,0.14271,0.42896,0.025727,0.19398,0.20257,0.01143,-0.21772,-0.039425,-0.04892500000000001,0.2057,-0.0004550000000000001,-0.074523,-0.069524,-0.001018,-0.0007710000000000009,0.069524,0.0010179999999999998,0.0007710000000000009,-0.13874,-0.33818,-0.027677999999999998,0.13457,-0.32105,-0.032672999999999994,-0.2074,-0.70464,-0.017935000000000003,0.1979,-0.7002400000000001,-0.017667
23,-0.0125925,0.6941975,0.071105,-0.1454355,0.4153775,0.026165,-0.20967550000000001,0.16857750000000002,0.021241000000000003,0.1425945,0.4286575,0.025245000000000004,0.1942645,0.2014175,0.010883000000000004,-0.21779549999999998,-0.0392585,-0.049417,0.2059745,-0.0016585,-0.075016,-0.0695255,-0.0010235,-0.0009149999999999991,0.0695255,0.0010235,0.0009150000000000026,-0.1388355,-0.33932249999999997,-0.027811999999999996,0.13460450000000002,-0.3212725,-0.032896999999999996,-0.20735550000000003,-0.7042525,-0.018478999999999995,0.19772450000000003,-0.7004425,-0.018158
24,-0.0123405,0.6945265,0.0704915,-0.1458435,0.4155665,0.0256395,-0.2098735,0.1687865,0.0205925,0.1425365,0.42834649999999996,0.0245795,0.1948465,0.19993650000000002,0.010138499999999998,-0.21794349999999998,-0.0389295,-0.0500675,0.2065065,-0.0022175000000000003,-0.0757075,-0.06952649999999999,-0.0010415,-0.0010305000000000002,0.06952649999999999,0.0010414999999999999,0.0010305000000000002,-0.1389335,-0.34057350000000003,-0.027954500000000004,0.13471650000000002,-0.3217335,-0.0331215,-0.2073335,-0.7043235,-0.019171499999999998,0.19757650000000002,-0.7007835,-0.018808500000000002
25,-0.012207999999999998,0.6945265,0.069755,-0.146369,0.4155665,0.024997000000000002,-0.210179,0.1687865,0.019767,0.142511,0.42834649999999996,0.023787000000000003,0.195651,0.1993665,0.009241,-0.218319,-0.0389295,-0.05096199999999999,0.20774099999999998,-0.0022175000000000003,-0.07653199999999999,-0.069545,-0.0010415,-0.0011409999999999997,0.069545,0.0010414999999999999,0.0011409999999999997,-0.138909,-0.34075350000000004,-0.02827,0.134851,-0.32349350000000004,-0.033135,-0.207309,-0.7047435,-0.019906999999999998,0.197551,-0.7008635,-0.019543
26,-0.0122215,0.6948265,0.0687185,-0.1471935,0.4155965,0.0240105,-0.2107235,0.1687865,0.0185265,0.1423365,0.4284165,0.022444500000000003,0.1969665,0.1993665,0.0076475000000000015,-0.2195935,-0.0389295,-0.0534015,0.2096265,-0.0022175000000000003,-0.07817650000000001,-0.0695475,-0.0010415,-0.0012724999999999993,0.0695475,0.0010414999999999999,0.0012725000000000028,-0.1389735,-0.3391735,-0.0285445,0.1348665,-0.3246935,-0.0331095,-0.2073135,-0.7048935,-0.020838499999999996,0.1973865,-0.7005435,-0.0202735
27,-0.012263499999999998,0.6951395,0.0675705,-0.1480775,0.4157295,0.022909499999999996,-0.2120875,0.1687695,0.016316499999999998,0.1421925,0.4284695,0.020981499999999997,0.19871250000000001,0.19934949999999999,0.005524499999999998,-0.2229875,-0.037277500000000005,-0.059540499999999996,0.2138125,-0.0022345,-0.08196450000000001,-0.0695465,-0.0010385,-0.0013895000000000018,0.0695465,0.0010385000000000001,0.0013894999999999984,-0.1391075,-0.3377505,-0.0288775,0.1348125,-0.32512050000000003,-0.033106500000000004,-0.2073775,-0.7050405,-0.021857500000000002,0.1975125,-0.7018805,-0.021124500000000004
28,-0.012321999999999996,0.6958255,0.066121,-0.149199,0.4158755,0.021693,-0.214249,0.1702455,0.012936000000000001,0.141991,0.4282955,0.019399,0.201311,0.1990755,0.0019310000000000022,-0.22747900000000001,-0.032149500000000004,-0.06987,0.21940099999999998,-0.0009004999999999999,-0.08929,-0.069543,-0.0010595000000000001,-0.001457,0.069543,0.0010595,0.001457,-0.13941900000000002,-0.3369645,-0.029088999999999997,0.134741,-0.32539450000000003,-0.03303,-0.20760900000000002,-0.7059445,-0.023021,0.197551,-0.7028245,-0.022184999999999996
29,-0.0123825,0.696408,0.0645895,-0.1503475,0.416058,0.0203055,-0.2169775,0.172868,0.0078565,0.1418825,0.428028,0.017850500000000002,0.2052325,0.200318,-0.0039914999999999985,-0.2322175,-0.022251,-0.08572750000000001,0.2272825,0.004319,-0.1012075,-0.0695375,-0.001038,-0.0014984999999999998,0.0695375,0.0010379999999999999,0.0014984999999999998,-0.1397775,-0.336442,-0.029504499999999996,0.1347025,-0.325792,-0.0331395,-0.20800749999999998,-0.7071219999999999,-0.0243935,0.1974825,-0.7031919999999999,-0.0235195
30,-0.012474000000000002,0.6968970000000001,0.0629035,-0.151335,0.416297,0.0187315,-0.220175,0.178517,2.7500000000003216e-05,0.141745,0.427727,0.016123500000000002,0.209395,0.202947,-0.011350499999999996,-0.238225,-0.007476,-0.1057435,0.236415,0.014824,-0.11818350000000001,-0.069532,-0.0010010000000000002,-0.0014724999999999981,0.069532,0.0010009999999999997,0.0014725000000000016,-0.140165,-0.335943,-0.0301245,0.134655,-0.326263,-0.033423499999999995,-0.208435,-0.708213,-0.025922499999999994,0.197395,-0.702923,-0.025001499999999996
31,-0.012664499999999999,0.6972165,0.0609845,-0.15227749999999998,0.4165765,0.0169405,-0.2234175,0.1846265,-0.009732500000000002,0.14179250000000002,0.4275565,0.0141675,0.2138225,0.2075865,-0.021436499999999997,-0.24521749999999998,0.013304499999999999,-0.1310235,0.2468325,0.030523499999999995,-0.1396135,-0.06954550000000001,-0.0009594999999999998,-0.0014295000000000002,0.06954550000000001,0.0009595000000000003,0.0014295000000000002,-0.14061749999999998,-0.3351235,-0.030775499999999997,0.13458250000000002,-0.3267235,-0.0338425,-0.2086875,-0.7088234999999999,-0.027596500000000003,0.1975325,-0.7039735,-0.0266225
32,-0.012972000000000003,0.6972404999999999,0.0584415,-0.153365,0.4172805,0.0144965,-0.23070500000000002,0.1981405,-0.0272955,0.141765,0.42769050000000003,0.011650500000000001,0.222135,0.2176305,-0.0358345,-0.255575,0.0496665,-0.1655595,0.25866500000000003,0.062019500000000005,-0.1690295,-0.069556,-0.0009554999999999998,-0.0013004999999999996,0.069556,0.0009554999999999998,0.0013005000000000013,-0.141125,-0.3343895,-0.0319315,0.134375,-0.3270195,-0.0346565,-0.209035,-0.7102295000000001,-0.029802499999999996,0.197545,-0.7044195000000001,-0.0288915
33,-0.0132955,0.697125,0.055761500000000006,-0.15436850000000002,0.418365,0.0118955,-0.23940850000000002,0.21812499999999999,-0.051363500000000006,0.1418315,0.427925,0.0090425,0.23067149999999997,0.233315,-0.0560065,-0.2707385,0.098285,-0.1982215,0.27418149999999997,0.10506499999999999,-0.1968915,-0.0695565,-0.0009630000000000003,-0.0012685000000000005,0.0695565,0.0009630000000000003,0.0012685000000000005,-0.14160850000000003,-0.333825,-0.0331755,0.1341215,-0.327295,-0.035599500000000006,-0.20944849999999998,-0.712125,-0.032073500000000005,0.19753150000000003,-0.705635,-0.031158500000000002
34,-0.013486500000000002,0.6967405,0.052885,-0.1552185,0.4193305,0.009125,-0.2494585,0.24357050000000002,-0.07431900000000001,0.1419715,0.4284305,0.006264,0.24336149999999998,0.25417049999999997,-0.077297,-0.28697849999999997,0.1576305,-0.226399,0.2913015,0.1621205,-0.221329,-0.06955249999999999,-0.0009354999999999997,-0.0011590000000000003,0.06955249999999999,0.0009355000000000006,0.0011590000000000003,-0.1418985,-0.3335695,-0.034311,0.1340015,-0.32769950000000003,-0.036816999999999996,-0.2097285,-0.7143795000000001,-0.034459,0.1976415,-0.7069995,-0.033538
35,-0.013595499999999996,0.6962065000000001,0.05015,-0.15579749999999998,0.4206665,0.0065379999999999995,-0.2608175,0.2741665,-0.095572,0.14245249999999998,0.4290965,0.003665,0.25557250000000004,0.2817465,-0.095782,-0.3029475,0.2257165,-0.25129199999999996,0.3073425,0.22995649999999998,-0.241972,-0.0695515,-0.0009065000000000002,-0.001065,0.0695515,0.0009065000000000002,0.001065,-0.14201750000000002,-0.3321535,-0.035377000000000006,0.1340225,-0.3280235,-0.037997,-0.2099975,-0.7167735,-0.036688,0.1979725,-0.7092035,-0.035884
36,-0.013717,0.695463,0.047743999999999995,-0.156562,0.423023,0.0043,-0.27063200000000004,0.310403,-0.11061900000000001,0.143268,0.430143,0.001396,0.266138,0.313713,-0.109849,-0.31454200000000004,0.300553,-0.26357899999999995,0.31928799999999996,0.302413,-0.253289,-0.06955,-0.0008420000000000007,-0.0009480000000000001,0.06955,0.000841999999999999,0.0009480000000000001,-0.14202199999999998,-0.331917,-0.036118000000000004,0.13403800000000002,-0.328347,-0.038876,-0.210262,-0.7184569999999999,-0.038685000000000004,0.19839800000000002,-0.7115769999999999,-0.037761
37,-0.013806999999999998,0.6945205,0.0459945,-0.15742,0.4256305,0.0026975000000000002,-0.27862,0.3477905,-0.1225305,0.14425,0.4316405,-0.0002645,0.27490000000000003,0.34929049999999995,-0.12062049999999999,-0.32439999999999997,0.37749049999999995,-0.2691805,0.3285,0.3787505,-0.2566305,-0.069549,-0.0007255000000000005,-0.0008365,0.069549,0.0007254999999999987,0.0008365,-0.14201999999999998,-0.33134949999999996,-0.0366085,0.13402000000000003,-0.3273595,-0.0394035,-0.21054,-0.7198694999999999,-0.040148500000000004,0.1986,-0.7136695,-0.0391415
38,-0.013956499999999998,0.693629,0.044548000000000004,-0.1581535,0.42822899999999997,0.0014219999999999999,-0.2855435,0.39110900000000004,-0.131263,0.14501650000000002,0.433439,-0.0020690000000000005,0.2810165,0.387579,-0.127223,-0.3299035,0.458669,-0.270213,0.3341365,0.456349,-0.257783,-0.06952649999999999,-0.0006669999999999992,-0.000719,0.06952649999999999,0.0006670000000000009,0.0007189999999999998,-0.14184349999999998,-0.33106100000000005,-0.036768999999999996,0.1340065,-0.327071,-0.039546,-0.21078349999999998,-0.7213809999999999,-0.041101,0.19879650000000001,-0.715201,-0.040029999999999996
39,-0.014209000000000003,0.6922805,0.0430265,-0.15887700000000002,0.4310005,0.0005135000000000001,-0.290887,0.4371305,-0.1351375,0.14538299999999998,0.4351705,-0.0038415,0.285733,0.4330205,-0.1302175,-0.334357,0.5405505,-0.27067749999999996,0.337653,0.5384105,-0.2583375,-0.06943099999999999,-0.0005765000000000006,-0.0004884999999999998,0.06943099999999999,0.0005764999999999989,0.0004885,-0.14150700000000002,-0.3321295,-0.0366755,0.134073,-0.3293595,-0.0393525,-0.210987,-0.7246095,-0.0416125,0.198903,-0.7176095,-0.0405445
40,-0.014539,0.689863,0.041712,-0.159615,0.435043,-9.200000000000007e-05,-0.29505499999999996,0.48545299999999997,-0.13554300000000002,0.145515,0.439053,-0.005232,0.28874500000000003,0.47880300000000003,-0.130353,-0.336715,0.619263,-0.270753,0.337795,0.619023,-0.25844300000000003,-0.069295,-0.0004839999999999983,-0.00038600000000000006,0.069295,0.0004840000000000018,0.00038600000000000006,-0.14136500000000002,-0.334777,-0.036558,0.134175,-0.332517,-0.039075,-0.211195,-0.7290770000000001,-0.041714,0.199045,-0.722187,-0.04074
41,-0.014894999999999997,0.687032,0.0402345,-0.160362,0.43881200000000004,-0.0007255000000000002,-0.294892,0.527442,-0.1355445,0.145658,0.442602,-0.0065445,0.288908,0.520602,-0.1303545,-0.336492,0.684882,-0.26483450000000003,0.338008,0.6847719999999999,-0.2535145,-0.069148,-0.0004569999999999991,-0.00038750000000000004,0.069148,0.00045700000000000254,0.00038750000000000004,-0.141202,-0.338088,-0.0365595,0.134278,-0.33616799999999997,-0.0390765,-0.211212,-0.734178,-0.0417135,0.199208,-0.7272080000000001,-0.0407415
42,-0.015152999999999998,0.6842235,0.038684,-0.160922,0.44359350000000003,-0.001389,-0.294602,0.5640135,-0.135548,0.145888,0.4460235,-0.007888,0.289198,0.5577734999999999,-0.130358,-0.336042,0.7434934999999999,-0.251348,0.338428,0.7399534999999999,-0.241668,-0.068912,-0.0005014999999999985,-0.00038999999999999994,0.068912,0.0005015000000000019,0.00039000000000000016,-0.140792,-0.3415465,-0.036565,0.134428,-0.33987649999999997,-0.039077999999999995,-0.211232,-0.7393965,-0.041877,0.19947800000000002,-0.7322465,-0.040843
43,-0.015419500000000001,0.68094,0.036955,-0.1613635,0.44823,-0.0019520000000000002,-0.29422349999999997,0.59568,-0.135383,0.1460165,0.44930000000000003,-0.009212,0.2895965,0.5908100000000001,-0.12906299999999998,-0.3354235,0.7926300000000001,-0.228873,0.3382665,0.78269,-0.222113,-0.06862850000000001,-0.000616000000000002,-0.00022400000000000002,0.06862850000000001,0.0006159999999999985,0.00022400000000000002,-0.1401735,-0.3455,-0.036402,0.1345965,-0.3444,-0.038911,-0.2111735,-0.7451099999999999,-0.041948,0.1996365,-0.73783,-0.040845
44,-0.015641000000000002,0.6773365,0.0356165,-0.16179,0.4527465,-0.0017865000000000003,-0.29316000000000003,0.6227965,-0.1262915,0.14589000000000002,0.4523265,-0.0101465,0.28758,0.6176465,-0.1219615,-0.33195,0.8327965,-0.19479149999999998,0.3356,0.8151565000000001,-0.19260149999999998,-0.068357,-0.0007855000000000015,8.250000000000011e-05,0.068357,0.0007855000000000015,-8.250000000000011e-05,-0.13940000000000002,-0.3499135,-0.0357305,0.13478,-0.3493635,-0.037990499999999996,-0.21104,-0.7509135,-0.041362499999999996,0.19995000000000002,-0.7438235,-0.0401975
45,-0.0159845,0.6734345,0.034562,-0.1618805,0.4559445,-0.0011919999999999995,-0.29003049999999997,0.6449845000000001,-0.108956,0.1456295,0.4547645,-0.01065,0.2842595,0.6407345000000001,-0.107766,-0.32219050000000005,0.8653845,-0.16087600000000002,0.32868949999999997,0.8506945,-0.15748600000000001,-0.0680605,-0.0009984999999999994,0.0005750000000000004,0.0680605,0.0009984999999999994,-0.000575,-0.1386605,-0.35450550000000003,-0.034864,0.1347995,-0.3542655,-0.036892,-0.2109105,-0.7566554999999999,-0.04041,0.2003495,-0.7500855,-0.039245
46,-0.016358,0.669477,0.0337345,-0.16172,0.45848700000000003,-7.649999999999931e-05,-0.28469999999999995,0.664717,-0.0915645,0.14515999999999998,0.456497,-0.010554499999999998,0.27555,0.659897,-0.0910945,-0.31084,0.891037,-0.12758650000000002,0.31935,0.875547,-0.12495649999999998,-0.06776399999999999,-0.0013039999999999996,0.0010585000000000004,0.06776399999999999,0.0013039999999999996,-0.0010584999999999995,-0.13795000000000002,-0.35901299999999997,-0.0339865,0.13474,-0.359023,-0.035640500000000006,-0.21087,-0.762583,-0.0390345,0.20085,-0.756903,-0.03791749999999999
47,-0.016633000000000002,0.665382,0.0330775,-0.161538,0.460552,0.0013275000000000006,-0.277238,0.677382,-0.0745385,0.144342,0.45786199999999994,-0.009591500000000001,0.265692,0.673892,-0.0756565,-0.298508,0.9089820000000001,-0.0950665,0.309382,0.8949520000000001,-0.0940365,-0.067518,-0.0015930000000000041,0.0016325000000000003,0.067518,0.0015929999999999972,-0.0016325000000000003,-0.137328,-0.363528,-0.033084499999999996,0.134612,-0.36393800000000004,-0.034312499999999996,-0.210928,-0.768778,-0.0374255,0.201302,-0.764068,-0.036428499999999996
48,-0.016732499999999997,0.6613089999999999,0.032732,-0.1613735,0.46169899999999997,0.002717,-0.2698535,0.684779,-0.061677,0.14304650000000002,0.4589289999999999,-0.008280999999999998,0.2563065,0.680809,-0.063055,-0.2879435,0.920769,-0.07016900000000001,0.3005365,0.904129,-0.069442,-0.06735050000000001,-0.0019660000000000025,0.0019190000000000006,0.06735050000000001,0.0019660000000000025,-0.0019190000000000006,-0.1369935,-0.36763100000000004,-0.032501999999999996,0.13441650000000002,-0.368401,-0.033353,-0.2109535,-0.774201,-0.035955,0.2015865,-0.771271,-0.035309
49,-0.016893000000000005,0.6567609999999999,0.0323715,-0.161307,0.45988100000000004,0.0039245,-0.262627,0.6881609999999999,-0.0499055,0.14132299999999998,0.456471,-0.0072855,0.24701299999999998,0.6850109999999999,-0.0514905,-0.277647,0.9292809999999999,-0.0456105,0.289223,0.9085409999999999,-0.0491475,-0.06717200000000001,-0.0023110000000000006,0.002016500000000001,0.06717200000000001,0.0023109999999999936,-0.002016499999999999,-0.136937,-0.371629,-0.0323005,0.134233,-0.371929,-0.0329935,-0.211087,-0.7800090000000001,-0.0349205,0.20174299999999998,-0.778279,-0.0344705
50,-0.017080999999999995,0.652515,0.0317435,-0.16127799999999998,0.457585,0.0046415,-0.255528,0.6911149999999999,-0.0393385,0.13973200000000002,0.453885,-0.006818500000000002,0.238782,0.687735,-0.0417625,-0.271198,0.9358150000000001,-0.0233545,0.279102,0.911795,-0.0314545,-0.066927,-0.0025359999999999966,0.0019325000000000002,0.066927,0.0025359999999999966,-0.0019325000000000002,-0.136928,-0.37495500000000004,-0.0326255,0.13418200000000002,-0.374845,-0.0331955,-0.211318,-0.785455,-0.0344285,0.201882,-0.784355,-0.0341885
51,-0.017516499999999997,0.6480410000000001,0.030604,-0.1613175,0.45358099999999996,0.004791,-0.24943750000000003,0.6932510000000001,-0.03087,0.1384825,0.45129100000000005,-0.006911999999999998,0.23136250000000003,0.687881,-0.034288,-0.2651675,0.9405210000000002,-0.003532999999999998,0.2696125,0.912191,-0.016553,-0.0667175,-0.002716999999999997,0.001594,0.0667175,0.002717000000000011,-0.001594,-0.13703749999999998,-0.378259,-0.033384,0.13406250000000003,-0.377499,-0.033824,-0.21156750000000002,-0.790929,-0.034323,0.2019225,-0.7904690000000001,-0.03415
52,-0.0179215,0.6437904999999999,0.029346499999999998,-0.1611555,0.4492505,0.0047315,-0.2442755,0.6948405,-0.024003500000000004,0.1376445,0.44841049999999993,-0.0072855,0.22513450000000002,0.6872005,-0.028283500000000003,-0.2594855,0.9440205,0.0124295,0.2635845,0.9177704999999999,-0.004983500000000002,-0.0665115,-0.0028994999999999993,0.0013924999999999996,0.0665115,0.0028994999999999993,-0.0013925000000000014,-0.1372655,-0.3810295,-0.0347395,0.1339545,-0.3794195,-0.0348005,-0.2118455,-0.7959295000000001,-0.0347545,0.2018145,-0.7961395,-0.0346685
53,-0.018351499999999996,0.639413,0.0281095,-0.16141450000000002,0.44509299999999996,0.004734499999999999,-0.2395045,0.695673,-0.0186495,0.1371755,0.44543299999999997,-0.007838500000000002,0.2201455,0.6868029999999999,-0.0242075,-0.2557845,0.9472130000000001,0.0254415,0.2579355,0.9227129999999999,0.0045555000000000005,-0.0663125,-0.0031219999999999998,0.0013904999999999994,0.0663125,0.0031219999999999998,-0.0013904999999999994,-0.1377445,-0.383377,-0.0364525,0.1338455,-0.380717,-0.0361085,-0.2121845,-0.800537,-0.0358385,0.2018255,-0.800627,-0.0358135
54,-0.018819500000000003,0.635157,0.0268995,-0.16137250000000003,0.441297,0.0042185,-0.23531249999999998,0.695567,-0.015276499999999998,0.1367375,0.442587,-0.0084295,0.2153775,0.6859470000000001,-0.021248499999999997,-0.2532125,0.943757,0.0330155,0.25258749999999996,0.9265569999999999,0.008002500000000001,-0.0661385,-0.0033409999999999968,0.0013885000000000008,0.0661385,0.0033410000000000106,-0.0013884999999999991,-0.1384125,-0.38526299999999997,-0.0384805,0.1342775,-0.381763,-0.0376375,-0.2125225,-0.8047930000000001,-0.0372045,0.2023775,-0.8037829999999999,-0.0371735
55,-0.019277000000000002,0.63127,0.0256235,-0.161226,0.43772,0.0035005,-0.231706,0.69516,-0.013070499999999999,0.13638399999999998,0.43979999999999997,-0.0092835,0.211694,0.68252,-0.020582499999999997,-0.25078599999999995,0.93727,0.0369805,0.247224,0.9281699999999999,0.010575500000000002,-0.065966,-0.0035260000000000014,0.0011225000000000002,0.065966,0.0035260000000000014,-0.0011225000000000002,-0.139436,-0.38692000000000004,-0.0408945,0.13522399999999998,-0.38258000000000003,-0.0396615,-0.21288600000000002,-0.80859,-0.0390115,0.203314,-0.80767,-0.0389005
56,-0.020410500000000005,0.62936,0.023297,-0.1609035,0.43578000000000006,0.0023,-0.2283235,0.6956,-0.012295999999999998,0.1360065,0.43789,-0.010699,0.20939649999999999,0.68176,-0.021204999999999998,-0.24825350000000002,0.9353600000000001,0.03928,0.2429265,0.92626,0.009976,-0.0657945,-0.003602999999999995,0.0006200000000000008,0.0657945,0.003603000000000009,-0.000619999999999999,-0.1405135,-0.38705,-0.043613,0.1370465,-0.38197,-0.04223299999999999,-0.2131835,-0.80965,-0.041354,0.20492649999999998,-0.80912,-0.04105399999999999
57,-0.021436,0.62896,0.0200775,-0.16048,0.43549000000000004,0.0005035000000000005,-0.22521000000000002,0.69612,-0.013583499999999998,0.13577,0.43789,-0.0127185,0.20866,0.68176,-0.0224495,-0.24505,0.9354600000000001,0.0387165,0.23915999999999998,0.92176,0.008764500000000001,-0.065553,-0.003602999999999995,3.0500000000001012e-05,0.065553,0.003603000000000009,-3.0499999999999278e-05,-0.14179000000000003,-0.38605,-0.04697849999999999,0.13951000000000002,-0.38019,-0.045643500000000004,-0.21344000000000002,-0.80801,-0.04470349999999999,0.20667000000000002,-0.80865,-0.0438765
58,-0.021025000000000002,0.62779,0.0161885,-0.16,0.43504,-0.0017354999999999992,-0.22292,0.69612,-0.015386500000000001,0.13564,0.43789,-0.0152925,0.20862,0.68176,-0.024225499999999997,-0.24286,0.93786,0.036915500000000004,0.23812,0.9149600000000001,0.0069995000000000005,-0.065251,-0.003602999999999995,-0.0006234999999999991,0.065251,0.003603000000000009,0.0006235000000000008,-0.14346,-0.38605,-0.0510115,0.14251,-0.38019,-0.0495915,-0.21369,-0.80612,-0.0486355,0.20878,-0.80738,-0.0480565
59,-0.020781,0.62475,0.010228,-0.159099,0.43434000000000006,-0.004572000000000001,-0.220879,0.69612,-0.017784,0.13565100000000002,0.4336,-0.020573,0.208841,0.68176,-0.026825999999999996,-0.23983900000000002,0.93646,0.034506999999999996,0.237651,0.90826,0.002710999999999999,-0.0648,-0.003602999999999995,-0.0011870000000000006,0.0648,0.003603000000000009,0.0011869999999999997,-0.14553899999999997,-0.38605,-0.055748,0.14665099999999998,-0.38019,-0.05456,-0.213959,-0.80407,-0.053384,0.211111,-0.80548,-0.05289
60,-0.020891999999999997,0.622212,0.0025725,-0.157577,0.435752,-0.008168499999999999,-0.218527,0.6983219999999999,-0.0209485,0.136033,0.429702,-0.026665499999999998,0.209173,0.675832,-0.0334085,-0.236407,0.937602,0.0314495,0.237453,0.8954120000000001,-0.0065765,-0.06439800000000001,-0.0035110000000000002,-0.0009375,0.06439800000000001,0.0035110000000000002,0.0009375000000000004,-0.148567,-0.383508,-0.061846500000000006,0.151833,-0.377648,-0.0606615,-0.214627,-0.799118,-0.0600115,0.21457299999999999,-0.799928,-0.05961550000000001
61,-0.023737,0.6163155,-0.0053115,-0.155975,0.4388655,-0.0120335,-0.216265,0.7029154999999999,-0.0255015,0.136355,0.42521549999999997,-0.033079500000000005,0.209685,0.6711055,-0.0408185,-0.233595,0.9419954999999999,0.0261195,0.237335,0.8910555,-0.0153045,-0.06425,-0.003447500000000006,-0.0005124999999999999,0.06425,0.0034474999999999922,0.0005125,-0.153835,-0.38081450000000006,-0.07064050000000001,0.159125,-0.37474450000000004,-0.0688395,-0.215605,-0.7917645,-0.0671825,0.218205,-0.7916445000000001,-0.0667845
62,-0.026744,0.611364,-0.0133185,-0.155079,0.44374399999999997,-0.0159445,-0.214369,0.707714,-0.031140499999999998,0.13672099999999998,0.42265400000000003,-0.039511500000000005,0.210561,0.662634,-0.0497205,-0.230429,0.939664,0.0144665,0.237561,0.885664,-0.0248625,-0.06400600000000001,-0.0032229999999999898,9.15e-05,0.06400600000000001,0.0032230000000000036,-9.15e-05,-0.15917900000000001,-0.377666,-0.0794805,0.166961,-0.371446,-0.0783455,-0.216529,-0.7824359999999999,-0.0742895,0.222251,-0.781326,-0.0743455
63,-0.0291735,0.6057945,-0.0220605,-0.15392650000000002,0.44862450000000004,-0.0212965,-0.2131865,0.7070745,-0.0399735,0.1364735,0.4183845,-0.0466675,0.2109635,0.6545745000000001,-0.0595015,-0.22782650000000002,0.9319745000000002,-0.0007285,0.23803349999999998,0.8835645000000001,-0.0357585,-0.0641045,-0.0024565000000000003,0.0006874999999999997,0.0641045,0.0024565000000000003,-0.0006874999999999997,-0.16549650000000002,-0.3716355,-0.08851149999999999,0.1748235,-0.3663055,-0.08831249999999999,-0.21836650000000002,-0.7677754999999999,-0.0820235,0.2257235,-0.7672155,-0.08238949999999999
64,-0.030148,0.601758,-0.030889,-0.151972,0.44998799999999994,-0.02674,-0.21185199999999998,0.705358,-0.049227,0.13622800000000002,0.41537799999999997,-0.053832,0.21144800000000002,0.649058,-0.06945799999999999,-0.225192,0.925828,-0.015969,0.23853800000000003,0.879658,-0.049037000000000004,-0.064096,-0.002265000000000003,0.001202,0.064096,0.002264999999999996,-0.001202,-0.171952,-0.363162,-0.097413,0.18231799999999998,-0.358852,-0.098027,-0.22038200000000002,-0.751992,-0.090089,0.229398,-0.751002,-0.091049
65,-0.029630499999999997,0.5985575000000001,-0.038808499999999996,-0.14943649999999997,0.4519575,-0.032867499999999994,-0.21055649999999998,0.7036875,-0.0587185,0.13663350000000002,0.4116375,-0.0604345,0.21295350000000002,0.6448075,-0.0794345,-0.2222865,0.9232775,-0.0300795,0.23939349999999998,0.8759174999999999,-0.0624415,-0.0640585,-0.0018455,0.0017055000000000004,0.0640585,0.0018455,-0.0017054999999999987,-0.1776665,-0.3533525,-0.1060215,0.1897835,-0.3507225,-0.1073245,-0.2218465,-0.7360424999999999,-0.0979925,0.2329135,-0.7350524999999999,-0.0984265
66,-0.030050999999999998,0.59606,-0.046976500000000004,-0.146812,0.45353,-0.0398225,-0.209812,0.70716,-0.0685665,0.13684800000000003,0.4129,-0.0677675,0.21582800000000002,0.64224,-0.0916135,-0.219972,0.92378,-0.0443325,0.240678,0.88048,-0.0769165,-0.063908,-0.001572999999999998,0.0026014999999999996,0.063908,0.0015730000000000015,-0.0026015000000000014,-0.18393199999999998,-0.33784000000000003,-0.1158575,0.19697800000000001,-0.33666,-0.1173515,-0.22328199999999998,-0.7132499999999999,-0.1063475,0.236298,-0.7122599999999999,-0.10670149999999999
67,-0.030927,0.593885,-0.0573085,-0.144013,0.456035,-0.0492865,-0.209743,0.711445,-0.0811815,0.13630699999999998,0.412515,-0.0773555,0.218127,0.639535,-0.1054855,-0.218973,0.9283849999999999,-0.0614565,0.240607,0.877705,-0.0946615,-0.06402,-0.0012310000000000003,0.0036115,0.06402,0.0012310000000000003,-0.0036115,-0.19088300000000002,-0.321525,-0.1276985,0.203207,-0.322065,-0.12929849999999998,-0.22554300000000002,-0.689455,-0.1165565,0.23815699999999998,-0.688465,-0.1161205
68,-0.0311735,0.5868099999999999,-0.069241,-0.1410525,0.45221999999999996,-0.063188,-0.2100825,0.70977,-0.0978,0.1325575,0.41495,-0.089202,0.2202475,0.63374,-0.12232499999999999,-0.2177125,0.92674,-0.083382,0.2406775,0.87224,-0.11481799999999999,-0.0639455,-0.0010370000000000032,0.004393999999999999,0.0639455,0.0010369999999999963,-0.004393999999999999,-0.1991825,-0.30038000000000004,-0.145059,0.2095375,-0.3028,-0.145839,-0.2278525,-0.6616,-0.129294,0.2395875,-0.66274,-0.128024
69,-0.03193649999999999,0.5765115000000001,-0.07949049999999999,-0.1379585,0.4439515,-0.0764915,-0.2081585,0.7020815,-0.1142095,0.1306415,0.4158415,-0.1005335,0.2227615,0.6305015,-0.1366725,-0.2159785,0.9185015000000001,-0.1037585,0.2414715,0.8710315000000001,-0.1318115,-0.0638665,-0.0011364999999999986,0.0047154999999999975,0.0638665,0.0011364999999999986,-0.0047154999999999975,-0.2055585,-0.2817985,-0.1614255,0.2165115,-0.2859485,-0.16249550000000001,-0.2285185,-0.6385685,-0.1401055,0.2408415,-0.6400184999999999,-0.1381445
70,-0.03146399999999999,0.576913,-0.09153800000000001,-0.13526,0.438133,-0.091738,-0.20626,0.698423,-0.13167600000000002,0.12809,0.424983,-0.113207,0.2252,0.631373,-0.152941,-0.2146,0.914513,-0.126132,0.24269,0.876703,-0.15052100000000002,-0.063741,-0.001699000000000006,0.004207000000000002,0.063741,0.0016989999999999922,-0.004207000000000002,-0.21069,-0.25537699999999997,-0.178081,0.22141,-0.260097,-0.179161,-0.22873,-0.608407,-0.151611,0.24189,-0.6107670000000001,-0.14891100000000002
71,-0.028138500000000004,0.577035,-0.10317950000000001,-0.1332875,0.431245,-0.1064895,-0.20570750000000002,0.693385,-0.1498865,0.1249825,0.432595,-0.1255365,0.2273125,0.6341749999999999,-0.1678645,-0.2140775,0.909915,-0.1464935,0.2444825,0.883245,-0.16865449999999998,-0.0637865,-0.002625000000000016,0.0037195000000000006,0.0637865,0.0026249999999999885,-0.0037195000000000006,-0.2157775,-0.229935,-0.1947245,0.2260625,-0.235205,-0.1948845,-0.2287775,-0.581035,-0.1622345,0.2425325,-0.583525,-0.15827449999999998
72,-0.024558000000000003,0.5740149999999999,-0.1137685,-0.131643,0.42306499999999997,-0.1200965,-0.205783,0.692945,-0.16509849999999998,0.121307,0.436675,-0.1369645,0.227437,0.6352549999999999,-0.1827885,-0.213803,0.915225,-0.1638395,0.244707,0.886925,-0.1858985,-0.063753,-0.003405000000000019,0.0032475000000000004,0.063753,0.0034049999999999914,-0.0032474999999999934,-0.22123299999999999,-0.20286500000000002,-0.21194849999999998,0.229737,-0.207345,-0.2110385,-0.228663,-0.553365,-0.1711885,0.24285700000000002,-0.556095,-0.16664849999999998
73,-0.024075999999999997,0.57111,-0.1244055,-0.13102,0.41925999999999997,-0.1332725,-0.20622000000000001,0.69411,-0.1798255,0.11750000000000001,0.43979999999999997,-0.14863949999999998,0.22763999999999998,0.6323799999999999,-0.1970255,-0.21339000000000002,0.92039,-0.1808155,0.24511999999999998,0.8823799999999999,-0.2027255,-0.063526,-0.003610000000000002,0.0029355000000000075,0.063526,0.003610000000000002,-0.0029354999999999937,-0.22634,-0.17698999999999998,-0.22879549999999998,0.23354999999999998,-0.18081999999999998,-0.2271755,-0.22815000000000002,-0.52717,-0.1790155,0.24337,-0.53015,-0.1744755
74,-0.023671499999999995,0.56959,-0.13532100000000002,-0.1305405,0.41537999999999997,-0.145322,-0.20526049999999998,0.68896,-0.195116,0.1128595,0.4433,-0.160644,0.2277795,0.63106,-0.210866,-0.2127005,0.91581,-0.20028600000000002,0.2455495,0.87976,-0.21951600000000002,-0.0632915,-0.003939999999999999,0.0026289999999999925,0.0632915,0.003939999999999999,-0.0026290000000000063,-0.2317705,-0.15131,-0.246126,0.2372195,-0.15386,-0.243626,-0.2276205,-0.50052,-0.186786,0.2435295,-0.50601,-0.18224600000000002
75,-0.020890499999999996,0.56647,-0.145328,-0.1311185,0.41123000000000004,-0.15599000000000002,-0.2067485,0.6816500000000001,-0.208743,0.1079415,0.44457,-0.17122900000000002,0.2306615,0.62913,-0.221813,-0.2126185,0.90873,-0.217393,0.2476415,0.87261,-0.234443,-0.0631035,-0.004779999999999951,0.0018210000000000032,0.0631035,0.0047800000000000065,-0.0018210000000000032,-0.2365185,-0.12949999999999995,-0.26159299999999996,0.2406815,-0.13104999999999994,-0.25859299999999996,-0.2268785,-0.47956,-0.193023,0.2436215,-0.48514,-0.188363
76,-0.017865,0.56472,-0.152646,-0.130748,0.40749,-0.16362500000000002,-0.207728,0.6761900000000001,-0.21902899999999997,0.102357,0.44804,-0.179236,0.233402,0.6305700000000001,-0.229489,-0.212518,0.90336,-0.23095900000000003,0.250172,0.86841,-0.24639899999999998,-0.062579,-0.005259999999999987,0.0008419999999999955,0.062579,0.005259999999999987,-0.0008419999999999955,-0.241068,-0.10586000000000001,-0.274319,0.243742,-0.10647000000000001,-0.271359,-0.225798,-0.45628,-0.195909,0.243282,-0.46146999999999994,-0.19100899999999998
77,-0.0157065,0.567265,-0.15682649999999998,-0.1299565,0.40916600000000003,-0.1666125,-0.2090865,0.673405,-0.22578749999999997,0.1025205,0.452475,-0.1817565,0.2321035,0.6331150000000001,-0.23389749999999998,-0.2128465,0.900645,-0.24115750000000002,0.2512435,0.873445,-0.2524275,-0.0621815,-0.005804999999999949,0.00044950000000000545,0.0621815,0.005805000000000005,-0.00044950000000000545,-0.24414650000000002,-0.08713499999999996,-0.2811575,0.24525349999999999,-0.08616499999999999,-0.2792175,-0.2243265,-0.43674499999999994,-0.1953675,0.2427035,-0.43986499999999995,-0.19115749999999998
78,-0.012679499999999996,0.571215,-0.1599535,-0.1290345,0.412485,-0.1693055,-0.21135449999999997,0.673815,-0.2328705,0.1039015,0.456895,-0.1838685,0.2341155,0.630935,-0.2383805,-0.2129045,0.901165,-0.2514505,0.2531855,0.878175,-0.2598205,-0.061824500000000004,-0.0062550000000000106,0.00011850000000000749,0.061824500000000004,0.0062550000000000106,-0.00011849999999999361,-0.24649449999999998,-0.06772499999999998,-0.28726050000000003,0.24664550000000002,-0.06584499999999999,-0.2860205,-0.2219745,-0.41705499999999995,-0.1941605,0.2426955,-0.418285,-0.1906655
79,-0.010664,0.5678000000000001,-0.16269499999999998,-0.128859,0.414503,-0.171118,-0.214519,0.6680200000000001,-0.240371,0.104802,0.454338,-0.185222,0.235431,0.62543,-0.24279099999999998,-0.214439,0.8959,-0.260471,0.25477099999999997,0.87568,-0.266381,-0.061778,-0.005969999999999975,0.00011800000000000699,0.061778,0.005970000000000031,-0.00011799999999999311,-0.248369,-0.05015999999999998,-0.290991,0.247501,-0.04874999999999996,-0.291961,-0.219359,-0.40591999999999995,-0.192591,0.242281,-0.40003,-0.19047199999999997
80,-0.009417000000000002,0.565315,-0.16519999999999999,-0.129844,0.416513,-0.17207099999999997,-0.217094,0.663855,-0.24562699999999998,0.106432,0.447194,-0.18562099999999998,0.236676,0.623075,-0.246477,-0.216584,0.8918550000000001,-0.26948700000000003,0.257356,0.874865,-0.27213699999999996,-0.06177099999999999,-0.004794999999999994,-0.0004789999999999933,0.06177099999999999,0.004794999999999994,0.0004790000000000072,-0.249564,-0.03004499999999999,-0.292577,0.248636,-0.029554999999999998,-0.29612700000000003,-0.216384,-0.39153499999999997,-0.19039099999999998,0.24221600000000001,-0.380135,-0.18930199999999997
81,-0.007216,0.567455,-0.1673445,-0.130793,0.420314,-0.1725315,-0.218413,0.660255,-0.2513005,0.108943,0.446257,-0.18580449999999998,0.238467,0.619645,-0.24969049999999998,-0.219283,0.883555,-0.2789705,0.260187,0.8715550000000001,-0.2779105,-0.061759999999999995,-0.004325000000000023,-0.0010114999999999985,0.061759999999999995,0.004325000000000023,0.0010114999999999985,-0.24969299999999997,-0.014255000000000018,-0.2922005,0.24973700000000001,-0.014724999999999988,-0.2985305,-0.213803,-0.376355,-0.1882375,0.242567,-0.36634500000000003,-0.1879785
82,-0.005332,0.56892,-0.167165,-0.131264,0.42292,-0.171401,-0.221234,0.65434,-0.25626899999999997,0.111482,0.445824,-0.18453799999999998,0.24002600000000002,0.61807,-0.252079,-0.22222399999999998,0.8755200000000001,-0.287669,0.262836,0.86984,-0.282639,-0.062014,-0.003919999999999979,-0.0006639999999999979,0.062014,0.003919999999999979,0.0006639999999999979,-0.24846399999999996,0.0012099999999999889,-0.290919,0.250166,0.000130000000000019,-0.298899,-0.210654,-0.36672000000000005,-0.18697799999999998,0.24242599999999997,-0.35548,-0.185834
83,-0.0041315,0.567203,-0.166759,-0.1313895,0.42440900000000004,-0.170293,-0.2237295,0.6578550000000001,-0.260008,0.11708650000000001,0.444232,-0.18215399999999998,0.2415705,0.617235,-0.254468,-0.2256795,0.880125,-0.294258,0.26505049999999997,0.871075,-0.287108,-0.0622965,-0.0035149999999999904,-0.0004030000000000006,0.0622965,0.003515000000000046,0.0004030000000000006,-0.24728949999999997,0.018815000000000026,-0.289798,0.2496805,0.018025000000000013,-0.298768,-0.2075795,-0.354525,-0.185878,0.2422805,-0.33982499999999993,-0.183767
84,-0.002935,0.567689,-0.1657765,-0.131508,0.426966,-0.16898849999999999,-0.22515800000000002,0.65879,-0.2630665,0.11838699999999999,0.441003,-0.18086449999999998,0.243392,0.61476,-0.2563665,-0.230348,0.88066,-0.2997265,0.267362,0.87181,-0.2914165,-0.062678,-0.0024899999999999922,-0.00027249999999999497,0.062678,0.0024899999999999922,0.00027249999999999497,-0.24618799999999996,0.03487999999999997,-0.2885065,0.24825199999999997,0.034650000000000014,-0.2982765,-0.20472800000000002,-0.34291000000000005,-0.1846305,0.242392,-0.32120000000000004,-0.1809655
85,-0.0020434999999999967,0.569046,-0.16415849999999998,-0.1315985,0.427356,-0.1673595,-0.22709849999999998,0.65509,-0.2651675,0.1207865,0.439147,-0.1790765,0.24467150000000001,0.61078,-0.2573975,-0.2355485,0.8809800000000001,-0.3039775,0.2700815,0.87503,-0.2949575,-0.0630285,-0.0021599999999999397,-0.00011450000000000349,0.0630285,0.0021600000000000508,0.00011449999999998961,-0.2452185,0.05215000000000003,-0.2848275,0.24595150000000002,0.05403000000000002,-0.29662750000000004,-0.2006085,-0.33363,-0.18888749999999999,0.2420715,-0.30047,-0.17746050000000002
86,-0.0008780000000000038,0.57131,-0.162481,-0.131057,0.42732499999999995,-0.16567500000000002,-0.228777,0.6525449999999999,-0.265909,0.124603,0.4363949999999999,-0.176259,0.246833,0.6074039999999999,-0.257999,-0.240097,0.883575,-0.30588899999999997,0.273333,0.8769449999999999,-0.29784900000000003,-0.063327,-0.0016850000000000476,1.0999999999997123e-05,0.063327,0.0016849999999999365,-1.1000000000011001e-05,-0.243477,0.06821499999999991,-0.280389,0.243633,0.07223499999999994,-0.295349,-0.197537,-0.323975,-0.186859,0.242543,-0.2800450000000001,-0.173663
87,-0.0004185000000000022,0.5739169999999999,-0.160659,-0.1300735,0.42715999999999993,-0.164016,-0.2293035,0.6495329999999999,-0.265228,0.1296365,0.4331299999999999,-0.173089,0.2524165,0.6090779999999999,-0.258158,-0.2444635,0.8860199999999999,-0.307338,0.2779965,0.8783099999999999,-0.299008,-0.0637305,-0.001040000000000041,0.00021999999999999797,0.0637305,0.0010399999999999299,-0.00021999999999999797,-0.2407435,0.08283999999999991,-0.275598,0.2414365,0.09012999999999993,-0.294128,-0.1926235,-0.31515000000000004,-0.19007800000000002,0.2427665,-0.2645900000000001,-0.17012100000000002
88,0.00022200000000000344,0.57819,-0.159094,-0.12901,0.42663999999999996,-0.16224,-0.22965,0.648778,-0.263876,0.13521,0.43141999999999997,-0.169471,0.25544,0.608545,-0.257066,-0.24855000000000002,0.89138,-0.307986,0.28124000000000005,0.87872,-0.29987600000000003,-0.064011,-0.0007200000000000539,0.00043599999999999195,0.064011,0.0007199999999999429,-0.00043600000000000583,-0.23772000000000001,0.09452999999999995,-0.27057600000000004,0.23879999999999998,0.10508999999999996,-0.292746,-0.18954000000000001,-0.30951000000000006,-0.19146600000000003,0.24242,-0.25340000000000007,-0.168763
89,0.001181999999999999,0.581155,-0.1569635,-0.128086,0.426145,-0.1606065,-0.23000600000000002,0.6465069999999999,-0.26264750000000003,0.137784,0.43440499999999993,-0.1666765,0.257664,0.607298,-0.2558775,-0.252346,0.896295,-0.3075375,0.284444,0.8782449999999999,-0.3001375,-0.064476,-0.0010149999999999881,0.0006014999999999909,0.064476,0.0010149999999999881,-0.0006015000000000048,-0.23428600000000002,0.10459499999999994,-0.2654875,0.236184,0.11867499999999997,-0.2910275,-0.184056,-0.30271500000000007,-0.1978775,0.242294,-0.243135,-0.1647885
90,0.0016695000000000008,0.5835420000000001,-0.1548425,-0.1273005,0.42564000000000013,-0.1588595,-0.23030050000000002,0.644302,-0.2615245,0.1401595,0.4369700000000001,-0.1639545,0.2588195,0.6095990000000001,-0.2547645,-0.25535050000000004,0.9010900000000002,-0.3063745,0.2872995,0.88036,-0.2996045,-0.0648175,-0.0012799999999999478,0.0006234999999999991,0.0648175,0.0012800000000000589,-0.0006234999999999991,-0.2302905,0.11438000000000015,-0.2605045,0.2337195,0.1324300000000001,-0.2889745,-0.18001050000000002,-0.29499999999999993,-0.2055745,0.2423195,-0.23671999999999993,-0.1607915
91,0.0018749999999999982,0.585246,-0.152789,-0.126613,0.42613500000000004,-0.1569,-0.230483,0.6440480000000001,-0.260039,0.142217,0.439155,-0.161425,0.260427,0.612055,-0.25344900000000004,-0.258063,0.904945,-0.305389,0.289427,0.891375,-0.298669,-0.065177,-0.0014450000000000296,0.0006459999999999938,0.065177,0.0014450000000000296,-0.0006460000000000077,-0.22602299999999997,0.123695,-0.255739,0.23156700000000002,0.14522500000000005,-0.28669900000000004,-0.176033,-0.286675,-0.21035900000000002,0.24160700000000002,-0.23184499999999997,-0.159821
92,0.0022870000000000043,0.588506,-0.15089049999999998,-0.12572799999999998,0.42784,-0.1549845,-0.230588,0.640607,-0.2581625,0.143652,0.4426,-0.1588745,0.261692,0.612097,-0.25251250000000003,-0.26029800000000003,0.90706,-0.3044025,0.29143199999999997,0.89748,-0.2977325,-0.065584,-0.0015399999999999858,0.0007505000000000012,0.065584,0.0015399999999999858,-0.0007505000000000012,-0.221708,0.13012,-0.2518025,0.229852,0.15406999999999998,-0.2844525,-0.174558,-0.28496,-0.21860249999999998,0.24097200000000002,-0.23101000000000005,-0.1592665
93,0.0026415000000000015,0.59123,-0.1491065,-0.1248115,0.429475,-0.1531745,-0.2308115,0.637979,-0.25556650000000003,0.1448585,0.444885,-0.1563365,0.2626885,0.61296,-0.2503865,-0.26120150000000003,0.913095,-0.3031565,0.2929585,0.902335,-0.2968765,-0.0659525,-0.0015450000000000186,0.0008465,0.0659525,0.0015450000000000186,-0.0008465,-0.21757149999999997,0.13680499999999995,-0.2486665,0.2286785,0.16229499999999997,-0.28253649999999997,-0.17128149999999998,-0.284135,-0.2285165,0.2408885,-0.225205,-0.1565935
94,0.0028949999999999983,0.5919579999999999,-0.1478,-0.124439,0.4320049999999999,-0.152364,-0.230899,0.637805,-0.25292400000000004,0.145261,0.4451249999999999,-0.15516200000000002,0.26266100000000003,0.6129499999999999,-0.248344,-0.261939,0.9171149999999999,-0.301414,0.293941,0.9025749999999999,-0.294754,-0.06631100000000001,-0.0012150000000000771,0.0009769999999999918,0.06631100000000001,0.001214999999999966,-0.0009770000000000056,-0.21482900000000002,0.13977499999999987,-0.24796400000000002,0.228071,0.16497499999999993,-0.281324,-0.17077900000000001,-0.2792650000000001,-0.231884,0.23988099999999998,-0.22517500000000013,-0.15471400000000002
95,0.003197499999999999,0.5925400000000001,-0.146515,-0.12405249999999998,0.43464500000000006,-0.15153699999999998,-0.23088250000000002,0.639553,-0.25032699999999997,0.14564749999999999,0.4461050000000001,-0.154115,0.2630675,0.6131620000000001,-0.24645699999999998,-0.2625025,0.920895,-0.298547,0.2943475,0.9029450000000001,-0.292517,-0.0667145,-0.0009549999999999281,0.0010730000000000045,0.0667145,0.0009550000000000392,-0.0010729999999999906,-0.2120825,0.14264500000000002,-0.247617,0.2281675,0.16798500000000005,-0.280217,-0.1703925,-0.27456499999999995,-0.231537,0.2402675,-0.2254949999999999,-0.15384399999999998
96,0.0029864999999999996,0.591271,-0.1455895,-0.1241315,0.43466499999999997,-0.1511185,-0.23129149999999998,0.639883,-0.2488455,0.1456085,0.445095,-0.15344950000000002,0.2629685,0.613317,-0.2447455,-0.2635715,0.9208350000000001,-0.2959255,0.2942585,0.902795,-0.28985550000000004,-0.0668335,-0.0009249999999999536,0.0010744999999999921,0.0668335,0.0009249999999999536,-0.001074500000000006,-0.21037150000000002,0.14227500000000004,-0.2476355,0.2280585,0.16640500000000003,-0.27907550000000003,-0.1705115,-0.274235,-0.2315355,0.2401685,-0.22877499999999995,-0.15256550000000002
97,0.0028369999999999992,0.591271,-0.14479799999999998,-0.124242,0.43466499999999997,-0.15074099999999999,-0.231722,0.639883,-0.247962,0.145508,0.445095,-0.15287599999999998,0.262778,0.613317,-0.242942,-0.264312,0.921115,-0.29421200000000003,0.294178,0.902795,-0.287502,-0.066944,-0.0009249999999999536,0.0010480000000000073,0.066944,0.0009249999999999536,-0.0010479999999999934,-0.208982,0.142185,-0.24768199999999999,0.227968,0.164775,-0.277602,-0.17230199999999998,-0.27234499999999995,-0.22578199999999998,0.240288,-0.22289499999999995,-0.155864
98,0.0028374999999999963,0.591271,-0.1443145,-0.1243425,0.43466499999999997,-0.1504575,-0.23220249999999998,0.639883,-0.24805349999999998,0.1454275,0.445095,-0.1524605,0.2627075,0.613317,-0.24186349999999998,-0.26505249999999997,0.9221250000000001,-0.29288349999999996,0.2939675,0.902795,-0.2851635,-0.06707350000000001,-0.0009249999999999536,0.0010925000000000101,0.06707350000000001,0.0009249999999999536,-0.0010924999999999963,-0.2082225,0.142185,-0.2477935,0.22785750000000002,0.16435500000000003,-0.2760635,-0.1735425,-0.267525,-0.21755349999999998,0.2414575,-0.22618499999999997,-0.1573985
99,0.0014075000000000025,0.591271,-0.1442685,-0.12578850000000003,0.43466499999999997,-0.1505645,-0.23435850000000003,0.641607,-0.2483355,0.1439515,0.445095,-0.1524105,0.2612815,0.613317,-0.2411155,-0.2674785,0.923385,-0.2925255,0.2919015,0.902795,-0.2834955,-0.0669145,-0.0009249999999999536,0.0010094999999999965,0.0669145,0.0009249999999999536,-0.0010094999999999965,-0.2097385,0.142185,-0.2487855,0.22678150000000002,0.16435500000000003,-0.2763555,-0.17778850000000002,-0.26087499999999997,-0.2053755,0.2399715,-0.226665,-0.1558665
100,0.000737500000000002,0.590055,-0.1451265,-0.12652549999999999,0.43406999999999996,-0.1511445,-0.2357455,0.6440359999999999,-0.24919249999999998,0.1432245,0.44358,-0.1528995,0.2595545,0.615418,-0.24100249999999998,-0.2691455,0.92143,-0.2930025,0.29031450000000003,0.9032199999999999,-0.2826925,-0.0666715,-0.0009299999999999864,0.0008815000000000073,0.0666715,0.0009299999999999864,-0.0008814999999999934,-0.21047549999999998,0.14022999999999997,-0.2503025,0.22741450000000002,0.1624,-0.2772525,-0.1803755,-0.25454,-0.19695249999999997,0.2395645,-0.22977000000000003,-0.1563695
101,-0.00036099999999999674,0.588271,-0.146438,-0.12769,0.43195000000000006,-0.15229900000000002,-0.23761000000000002,0.647916,-0.250494,0.14206000000000002,0.44214000000000003,-0.15421,0.25811,0.6183000000000001,-0.241884,-0.27148999999999995,0.91672,-0.294294,0.28828000000000004,0.9008700000000001,-0.282974,-0.066294,-0.0012199999999999989,0.0006489999999999968,0.066294,0.0012199999999999989,-0.0006489999999999968,-0.21162,0.13623000000000007,-0.252624,0.22823,0.15714000000000006,-0.278394,-0.18183,-0.25205,-0.195604,0.23873,-0.23502999999999996,-0.15768
102,-0.0016424999999999981,0.5864640000000001,-0.148225,-0.12915949999999998,0.42822000000000005,-0.15397899999999998,-0.2398495,0.650464,-0.25222,0.1406205,0.4396500000000001,-0.155996,0.2559605,0.61999,-0.24279,-0.2743195,0.91107,-0.29594,0.2858805,0.8969800000000001,-0.2834,-0.0658835,-0.0016799999999999038,0.0003039999999999987,0.0658835,0.0016800000000000148,-0.0003039999999999987,-0.21352949999999998,0.13372000000000006,-0.25692000000000004,0.2302905,0.1512300000000001,-0.28003,-0.1858695,-0.24761999999999995,-0.19161,0.2391005,-0.23253999999999997,-0.159692
103,-0.0032765000000000016,0.583894,-0.150688,-0.1312035,0.427055,-0.156473,-0.2425135,0.650424,-0.25479799999999997,0.1388965,0.43589500000000003,-0.158492,0.2539165,0.6178060000000001,-0.244908,-0.2775635,0.902375,-0.298428,0.2832265,0.8886350000000001,-0.285548,-0.0652855,-0.001194999999999946,0.0002500000000000002,0.0652855,0.0011950000000000571,-0.0002500000000000002,-0.21600350000000001,0.12619500000000006,-0.261988,0.23203649999999998,0.14050500000000005,-0.282568,-0.18845350000000002,-0.2501749999999999,-0.191688,0.2387465,-0.23644500000000002,-0.160803
104,-0.004934000000000001,0.5809460000000001,-0.153202,-0.13334000000000001,0.42551000000000005,-0.159407,-0.24541000000000002,0.649128,-0.25808699999999996,0.13707,0.43237000000000003,-0.161434,0.25168,0.618446,-0.247727,-0.28105,0.8922800000000001,-0.301487,0.28074,0.88073,-0.28733699999999995,-0.064688,-0.0011799999999999589,7.100000000000162e-05,0.064688,0.0011800000000000699,-7.099999999998774e-05,-0.21906,0.1174900000000001,-0.267547,0.23368999999999998,0.12817000000000006,-0.285307,-0.19309,-0.25205,-0.18606699999999998,0.23795,-0.24139,-0.165377
105,-0.006325999999999998,0.578194,-0.1573265,-0.135175,0.422435,-0.1631165,-0.24810500000000002,0.645803,-0.2622215,0.135505,0.429805,-0.1653755,0.250055,0.619158,-0.2512615,-0.283325,0.880465,-0.30483150000000003,0.278985,0.8727849999999999,-0.2902215,-0.064194,-0.001375000000000015,-0.0001784999999999981,0.064194,0.001375000000000015,0.0001784999999999981,-0.222095,0.10618499999999997,-0.2736615,0.235485,0.113925,-0.2890815,-0.196485,-0.25378500000000004,-0.1842545,0.237265,-0.24856500000000004,-0.1695075
106,-0.0075910000000000005,0.572994,-0.16118749999999998,-0.136992,0.41918,-0.1671225,-0.250832,0.644216,-0.2661265,0.133998,0.42645,-0.1695815,0.248568,0.617702,-0.2545765,-0.286262,0.87046,-0.3086365,0.277348,0.86241,-0.2934665,-0.06377000000000001,-0.0015399999999999858,-0.00037650000000000183,0.06377000000000001,0.0015399999999999858,0.00037650000000000183,-0.22544199999999998,0.09190999999999999,-0.2796565,0.23736800000000002,0.09587000000000001,-0.2927165,-0.199812,-0.26122999999999996,-0.18314350000000001,0.23738800000000002,-0.25824,-0.1734185
107,-0.008868999999999995,0.567955,-0.165439,-0.138363,0.4165,-0.171026,-0.25360299999999997,0.644913,-0.27013600000000004,0.132687,0.42355,-0.173631,0.247367,0.618451,-0.25808600000000004,-0.28922299999999995,0.86308,-0.312746,0.27614700000000003,0.86322,-0.296866,-0.063205,-0.0017500000000000293,-0.000686000000000006,0.063205,0.0017499999999999183,0.0006859999999999922,-0.228873,0.07773999999999998,-0.285126,0.239087,0.07850999999999997,-0.29677600000000004,-0.202593,-0.27092000000000005,-0.185334,0.237387,-0.26841000000000004,-0.17755200000000002
108,-0.009311999999999997,0.567382,-0.16924899999999998,-0.138937,0.41762,-0.174722,-0.25516700000000003,0.64267,-0.274028,0.132253,0.42251,-0.177305,0.24696300000000002,0.618136,-0.26145799999999997,-0.29114700000000004,0.85668,-0.316168,0.275833,0.86314,-0.300088,-0.063194,-0.0014699999999999713,-0.0006619999999999959,0.063194,0.0014699999999999713,0.0006620000000000098,-0.231517,0.06339,-0.290068,0.241243,0.061340000000000006,-0.300848,-0.20449699999999998,-0.28174,-0.18863999999999997,0.23769300000000002,-0.27925,-0.18212099999999998
109,-0.009671000000000003,0.56624,-0.17327700000000001,-0.139565,0.41735300000000003,-0.178523,-0.256145,0.641325,-0.27809,0.131915,0.419654,-0.18112699999999998,0.24728499999999998,0.618795,-0.26495,-0.29190499999999997,0.855345,-0.31935,0.27570500000000003,0.862555,-0.30346,-0.063276,-0.0010449999999999626,-0.0006000000000000033,0.063276,0.0010449999999999626,0.0006000000000000033,-0.23390499999999997,0.048595,-0.29422,0.24267499999999997,0.044204999999999994,-0.30493,-0.205895,-0.293145,-0.19269799999999998,0.23800500000000002,-0.294045,-0.186664
110,-0.0099975,0.566696,-0.177009,-0.13994649999999997,0.417497,-0.181808,-0.25678650000000003,0.63803,-0.28169500000000003,0.1317635,0.417612,-0.18418800000000002,0.2478435,0.6153500000000001,-0.267845,-0.2919365,0.852,-0.322185,0.2758635,0.8592,-0.306695,-0.0632765,-0.0008799999999999919,-0.0006450000000000067,0.0632765,0.0008799999999999919,0.0006449999999999928,-0.23562650000000002,0.030600000000000016,-0.297935,0.2434535,0.024629999999999985,-0.30818500000000004,-0.2070265,-0.31105000000000005,-0.196421,0.2382935,-0.31438999999999995,-0.19132300000000002
111,-0.009388999999999998,0.56757,-0.179614,-0.139804,0.418902,-0.184797,-0.256884,0.63901,-0.283615,0.13228600000000001,0.41642599999999996,-0.187026,0.248856,0.61431,-0.270005,-0.292424,0.8523000000000001,-0.324345,0.277026,0.8568,-0.309055,-0.06319,-0.0006599999999999939,-0.0005050000000000054,0.06319,0.0006599999999999939,0.0005050000000000054,-0.235524,0.011390000000000011,-0.301185,0.244226,0.0049799999999999844,-0.311445,-0.207484,-0.32747,-0.20187,0.239376,-0.333,-0.195888
112,-0.009333000000000001,0.57269,-0.180475,-0.139885,0.418792,-0.186081,-0.257225,0.63743,-0.282575,0.132505,0.418347,-0.188055,0.24956499999999998,0.62,-0.270135,-0.293295,0.85145,-0.321855,0.278965,0.8643000000000001,-0.307745,-0.063268,-0.0013699999999999823,-0.0006450000000000067,0.063268,0.0013700000000000379,0.0006449999999999928,-0.235405,-0.007319999999999993,-0.303475,0.244615,-0.01317999999999997,-0.313415,-0.20888500000000002,-0.34463,-0.20653100000000002,0.239795,-0.35305999999999993,-0.198453
113,-0.009781500000000002,0.579995,-0.180276,-0.1402235,0.421427,-0.186334,-0.2580935,0.641695,-0.279295,0.1322465,0.423089,-0.188208,0.2497165,0.623305,-0.26876500000000003,-0.29362350000000004,0.856385,-0.317405,0.28036649999999996,0.875985,-0.30513500000000005,-0.0632475,-0.0015350000000000086,-0.000685000000000005,0.0632475,0.0015350000000000086,0.0006849999999999912,-0.2353235,-0.025805000000000022,-0.304705,0.2447065,-0.029805000000000026,-0.31394500000000003,-0.2101135,-0.36193500000000006,-0.210515,0.2403565,-0.37074500000000005,-0.20203500000000002
114,-0.010293,0.588755,-0.178302,-0.140281,0.42727600000000004,-0.18492399999999998,-0.258491,0.649295,-0.27436499999999997,0.132009,0.427798,-0.18661899999999998,0.249779,0.630245,-0.26532500000000003,-0.293661,0.863845,-0.310785,0.281609,0.887155,-0.301115,-0.063164,-0.0013949999999999796,-0.0006649999999999989,0.063164,0.001395000000000035,0.0006650000000000128,-0.235221,-0.043325,-0.303485,0.244039,-0.04574499999999998,-0.311615,-0.210771,-0.381575,-0.212858,0.240779,-0.38853499999999996,-0.20486
115,-0.011175000000000001,0.59998,-0.17411200000000002,-0.14072600000000002,0.43232899999999996,-0.182724,-0.259056,0.6586099999999999,-0.2682,0.131574,0.43265699999999996,-0.183631,0.24959399999999998,0.6383399999999999,-0.26046,-0.293266,0.87337,-0.30232000000000003,0.282424,0.89895,-0.29491,-0.063037,-0.0013600000000000279,-0.000800000000000009,0.063037,0.0013599999999999723,0.0007999999999999952,-0.235406,-0.06076999999999999,-0.30119,0.24268399999999998,-0.06119000000000002,-0.30752999999999997,-0.211736,-0.40127,-0.214488,0.240944,-0.40859999999999996,-0.207292
116,-0.012012499999999999,0.610025,-0.169504,-0.1410455,0.435975,-0.17941800000000002,-0.2599655,0.661805,-0.26131000000000004,0.1308645,0.435655,-0.179834,0.24896449999999998,0.642305,-0.25444,-0.29289550000000003,0.877005,-0.29144000000000003,0.2822645,0.8956949999999999,-0.28773000000000004,-0.0630255,-0.0013949999999999796,-0.0008599999999999997,0.0630255,0.0013949999999999796,0.0008599999999999997,-0.2347455,-0.080345,-0.29746,0.24075449999999998,-0.07919500000000002,-0.30206,-0.2126555,-0.42489499999999997,-0.215894,0.2410445,-0.43234500000000003,-0.20932
117,-0.012892999999999998,0.619675,-0.164107,-0.14150200000000002,0.438835,-0.175853,-0.26086200000000004,0.667505,-0.25317,0.13058799999999998,0.44031499999999996,-0.175464,0.248828,0.650785,-0.24841,-0.29338200000000003,0.882585,-0.28132999999999997,0.283198,0.8954949999999999,-0.28012000000000004,-0.06297,-0.001705000000000012,-0.0008599999999999997,0.06297,0.0017049999999999566,0.0008599999999999997,-0.23359200000000002,-0.09700500000000001,-0.29334,0.23837799999999998,-0.09384500000000001,-0.29578000000000004,-0.21368199999999998,-0.445875,-0.21692,0.241178,-0.45262500000000006,-0.21074700000000002
118,-0.013488999999999998,0.62599,-0.158076,-0.142057,0.44255,-0.170935,-0.261197,0.66764,-0.243705,0.130033,0.44587,-0.170074,0.248633,0.65222,-0.241035,-0.29272699999999996,0.8796999999999999,-0.27097499999999997,0.284083,0.8932,-0.26958499999999996,-0.06311,-0.0020499999999999963,-0.0008549999999999947,0.06311,0.0020499999999999963,0.0008550000000000085,-0.231397,-0.11725999999999998,-0.288545,0.235653,-0.11262,-0.288775,-0.214447,-0.47189,-0.217135,0.241543,-0.47752999999999995,-0.21176099999999998
119,-0.013697500000000005,0.6346499999999999,-0.151107,-0.1425345,0.44854,-0.166213,-0.2613145,0.67445,-0.233285,0.13021549999999998,0.45228,-0.165051,0.2487255,0.6608700000000001,-0.23180499999999998,-0.2917045,0.88663,-0.25831499999999996,0.2847355,0.89974,-0.256915,-0.0632305,-0.0020200000000000218,-0.0009649999999999936,0.0632305,0.0020200000000000218,0.0009650000000000075,-0.2283845,-0.13285999999999998,-0.283325,0.2326755,-0.1271,-0.28112499999999996,-0.2151945,-0.49299,-0.217495,0.2418155,-0.49855,-0.212362
120,-0.013921000000000003,0.63997,-0.142454,-0.14310599999999998,0.45342,-0.160358,-0.261206,0.67844,-0.221885,0.130384,0.46019,-0.158023,0.248364,0.67042,-0.222055,-0.29155600000000004,0.89259,-0.242995,0.284954,0.91229,-0.243715,-0.063512,-0.0018600000000000005,-0.0013750000000000012,0.063512,0.0018600000000000005,0.0013750000000000012,-0.22478599999999999,-0.15070000000000003,-0.276955,0.229294,-0.14432000000000003,-0.272445,-0.215796,-0.51612,-0.21679500000000002,0.241894,-0.52329,-0.211502
121,-0.014113499999999998,0.64585,-0.133602,-0.14369649999999998,0.45809,-0.153861,-0.26094649999999997,0.68874,-0.21112599999999998,0.13019350000000002,0.4659,-0.15087,0.24750350000000002,0.67579,-0.212494,-0.2906065,0.90218,-0.23035999999999998,0.2851635,0.9174599999999999,-0.23246,-0.06370050000000001,-0.001679999999999987,-0.0017399999999999916,0.06370050000000001,0.001679999999999987,0.0017400000000000054,-0.22087649999999998,-0.16558,-0.27047,0.2261835,-0.15899999999999997,-0.26393,-0.21569649999999999,-0.5359100000000001,-0.21522999999999998,0.2419935,-0.5448900000000001,-0.20993699999999998
122,-0.014279,0.64935,-0.12368399999999999,-0.1443,0.45921,-0.14665499999999998,-0.2602,0.6925,-0.200288,0.1299,0.46965,-0.14221599999999998,0.24644,0.67972,-0.201872,-0.28908,0.9053899999999999,-0.217935,0.28533,0.91597,-0.220515,-0.064032,-0.0015499999999999958,-0.0019349999999999923,0.064032,0.0015499999999999958,0.0019350000000000062,-0.21654,-0.18137,-0.26248499999999997,0.2223,-0.17382,-0.253635,-0.21562,-0.55771,-0.21281499999999998,0.24206999999999998,-0.56835,-0.20752199999999998
123,-0.014397999999999998,0.651265,-0.11322300000000002,-0.144757,0.458475,-0.13934200000000002,-0.259137,0.6940949999999999,-0.18924000000000002,0.129913,0.473565,-0.13342700000000002,0.24558300000000002,0.680625,-0.190994,-0.28780700000000004,0.907165,-0.205602,0.28545299999999996,0.914715,-0.207522,-0.06428,-0.0014249999999999818,-0.002130000000000007,0.06428,0.0014250000000000096,0.002129999999999993,-0.21173699999999998,-0.19682499999999997,-0.25337,0.218203,-0.18860499999999997,-0.24293,-0.21537699999999999,-0.5813649999999999,-0.20987,0.242233,-0.5915649999999999,-0.204549
124,-0.0144215,0.650185,-0.10089200000000001,-0.1459405,0.46189499999999994,-0.12801400000000002,-0.2589705,0.689165,-0.176105,0.1300395,0.474305,-0.12327600000000001,0.24453950000000002,0.680095,-0.178076,-0.2863405,0.902415,-0.190332,0.2842695,0.910465,-0.19357000000000002,-0.0645305,-0.0012150000000000077,-0.0021150000000000058,0.0645305,0.0012149999999999939,0.002114999999999992,-0.20617049999999998,-0.21361500000000003,-0.24124500000000001,0.2124895,-0.20351500000000003,-0.229615,-0.21500049999999998,-0.608355,-0.20444500000000002,0.2415495,-0.616125,-0.198528
125,-0.014121499999999999,0.6514745000000001,-0.08833550000000001,-0.14706750000000002,0.4660545,-0.1172585,-0.2587275,0.6878145,-0.1630965,0.13030250000000002,0.47875449999999997,-0.1130935,0.2434125,0.6816845,-0.1656845,-0.28538749999999996,0.9010345000000001,-0.1771925,0.28266250000000004,0.9104745000000001,-0.1799285,-0.0647515,-0.0009974999999999984,-0.0021354999999999985,0.0647515,0.0009974999999999984,0.0021354999999999985,-0.20065750000000002,-0.22695550000000003,-0.2290245,0.2069025,-0.2154455,-0.21714450000000002,-0.2141675,-0.6295955,-0.1983665,0.2404125,-0.6358554999999999,-0.1921445
126,-0.014077,0.6505985,-0.0762105,-0.14776199999999998,0.4687285,-0.1065825,-0.258052,0.6865985,-0.1505205,0.130418,0.4816385,-0.1031015,0.24224800000000002,0.6804385,-0.15386650000000002,-0.283262,0.8998685,-0.16385149999999998,0.280658,0.9128985,-0.16566350000000002,-0.065103,-0.0008135000000000017,-0.002214500000000008,0.065103,0.0008135000000000017,0.0022144999999999943,-0.195182,-0.24605149999999998,-0.21645350000000002,0.200548,-0.2345915,-0.2044135,-0.213252,-0.6511615000000001,-0.19083450000000002,0.239158,-0.6591715,-0.1855575
127,-0.0139145,0.653553,-0.06383799999999999,-0.14813549999999998,0.471113,-0.096619,-0.2563955,0.689143,-0.13866599999999998,0.1311545,0.484943,-0.09342199999999999,0.24145450000000002,0.687333,-0.140116,-0.28000549999999996,0.902503,-0.15024099999999999,0.2772945,0.918753,-0.15294,-0.0655315,-0.0005779999999999952,-0.0021909999999999985,0.0655315,0.0005780000000000021,0.0021910000000000124,-0.1890655,-0.261337,-0.203025,0.1942145,-0.24976700000000002,-0.191995,-0.21133549999999998,-0.669137,-0.18184099999999997,0.2373445,-0.677267,-0.17806699999999998
128,-0.013584499999999996,0.6511795,-0.0469725,-0.14836850000000001,0.4698595,-0.0814975,-0.25421849999999996,0.6864494999999999,-0.12161949999999999,0.1320715,0.4839295,-0.0788295,0.2407215,0.6888394999999999,-0.1233175,-0.2766285,0.8996895,-0.1313155,0.27409150000000004,0.9185595,-0.1369735,-0.0659675,-0.00032049999999999787,-0.002078499999999997,0.0659675,0.00032050000000000134,0.002078499999999997,-0.1826785,-0.2792005,-0.18386049999999998,0.1877315,-0.2670505,-0.1738005,-0.2092485,-0.6897105,-0.1671965,0.2351615,-0.6967105,-0.16457549999999999
129,-0.013530499999999997,0.6512165,-0.0311095,-0.1488105,0.4726165,-0.0650355,-0.2526505,0.6856665,-0.1050435,0.1327295,0.4809565,-0.0648515,0.2398295,0.6903865,-0.1063075,-0.2735005,0.8972265,-0.11375350000000001,0.27058950000000004,0.9152965,-0.1205845,-0.0663015,-0.0003914999999999999,-0.001626500000000003,0.0663015,0.0003914999999999999,0.001626500000000003,-0.1755905,-0.2966935,-0.16426849999999998,0.1798295,-0.28430350000000004,-0.1549315,-0.2074105,-0.7104435,-0.1518805,0.23275949999999998,-0.7155035000000001,-0.1502905
130,-0.013146499999999998,0.647779,-0.015578000000000002,-0.1490515,0.474059,-0.049486999999999996,-0.2508315,0.6834089999999999,-0.089149,0.1332585,0.47795899999999997,-0.05137,0.2394085,0.692749,-0.089615,-0.2707615,0.894999,-0.09645899999999999,0.2674585,0.9134789999999999,-0.104217,-0.0663095,-0.00045199999999999754,-0.0012570000000000012,0.0663095,0.000452000000000001,0.0012570000000000012,-0.1684615,-0.313031,-0.145053,0.17234850000000002,-0.300851,-0.136787,-0.20531149999999998,-0.728651,-0.13668999999999998,0.2304185,-0.732911,-0.136374
131,-0.012954499999999997,0.644621,-0.0011085000000000053,-0.1491295,0.47611099999999995,-0.034586500000000006,-0.24842949999999997,0.682501,-0.0740355,0.1340905,0.474271,-0.03897450000000001,0.2395905,0.695651,-0.0739085,-0.2674195,0.894121,-0.07975950000000001,0.2659505,0.913311,-0.08869750000000001,-0.0663045,-0.0005900000000000002,-0.000850500000000004,0.0663045,0.0005900000000000002,0.0008504999999999971,-0.1618895,-0.328099,-0.1270075,0.16594050000000002,-0.317049,-0.1207175,-0.2030795,-0.744379,-0.1218665,0.2280905,-0.748019,-0.1229245
132,-0.012712000000000001,0.6410755,0.012166999999999997,-0.149306,0.47777549999999996,-0.020235,-0.246356,0.6810955000000001,-0.059639,0.134454,0.46919549999999993,-0.027081,0.23899399999999998,0.6970855,-0.059362,-0.26399599999999995,0.8927555,-0.063655,0.262784,0.9126455,-0.07413900000000001,-0.0665,-0.0007035000000000027,-0.0007640000000000008,0.0665,0.0007034999999999958,0.0007640000000000008,-0.155556,-0.3421445,-0.109591,0.159934,-0.3319245,-0.105347,-0.20108600000000001,-0.7592445,-0.1075,0.225564,-0.7598644999999999,-0.109835
133,-0.012650499999999999,0.640319,0.0225605,-0.1495235,0.47589900000000007,-0.0103305,-0.24446350000000003,0.682079,-0.0478215,0.13504649999999999,0.46780900000000003,-0.0171925,0.2383565,0.700519,-0.0474835,-0.2616735,0.893679,-0.0511365,0.2596565,0.916319,-0.0619445,-0.0668295,-0.0008650000000000047,-0.001010500000000001,0.0668295,0.0008649999999999908,0.001010500000000001,-0.1503335,-0.34962099999999996,-0.0953215,0.15563649999999998,-0.34023099999999995,-0.09360149999999999,-0.19924350000000002,-0.767131,-0.0950155,0.2235065,-0.767241,-0.0987715
134,-0.012604500000000001,0.6381669999999999,0.032535,-0.14992650000000002,0.474017,-0.0002659999999999989,-0.2426565,0.682937,-0.036017,0.1351435,0.46424699999999997,-0.007525999999999998,0.2375735,0.7030069999999999,-0.035799,-0.25960649999999996,0.894477,-0.038243,0.2565735,0.9189269999999999,-0.049885,-0.0671195,-0.0009419999999999984,-0.0013109999999999997,0.0671195,0.0009420000000000123,0.0013110000000000031,-0.1457965,-0.35683299999999996,-0.081979,0.15158349999999998,-0.34863299999999997,-0.081868,-0.1978765,-0.775543,-0.08280799999999999,0.22155350000000001,-0.7749130000000001,-0.087452
135,-0.012558999999999997,0.63545,0.0423435,-0.15059,0.4728,0.009912500000000001,-0.24118,0.68423,-0.024667500000000002,0.13513,0.4609,0.0023264999999999987,0.23668,0.70532,-0.024459500000000002,-0.25806,0.89567,-0.0252645,0.25401,0.91775,-0.0389215,-0.067351,-0.0010290000000000021,-0.0012385,0.067351,0.0010290000000000021,0.0012385,-0.1417,-0.36422,-0.0689845,0.14836000000000002,-0.35734,-0.0709115,-0.19702999999999998,-0.78339,-0.0710685,0.21909,-0.7819200000000001,-0.07523350000000001
136,-0.012717,0.632733,0.050995,-0.15084799999999998,0.472163,0.019451000000000003,-0.240158,0.686183,-0.014598,0.13520200000000002,0.457673,0.011330999999999999,0.23559200000000002,0.704613,-0.015772,-0.25741800000000004,0.8974730000000001,-0.013181,0.253152,0.9159630000000001,-0.029088999999999997,-0.067427,-0.001227999999999993,-0.0010229999999999996,0.067427,0.0012280000000000069,0.0010230000000000005,-0.138758,-0.373687,-0.057783999999999995,0.145452,-0.369467,-0.060508,-0.19727799999999998,-0.791157,-0.060661,0.217092,-0.7911469999999999,-0.063606
137,-0.013054499999999997,0.6319049999999999,0.054186,-0.1511915,0.473565,0.023753,-0.2395315,0.6873549999999999,-0.010633,0.1351385,0.45662499999999995,0.015084,0.2343885,0.704645,-0.01219,-0.2568515,0.898685,-0.008382,0.25217849999999997,0.916275,-0.024627,-0.0673705,-0.0013109999999999927,-0.0010359999999999998,0.0673705,0.0013110000000000066,0.001036,-0.1365315,-0.382575,-0.052881000000000004,0.1430285,-0.38019499999999995,-0.056261000000000005,-0.19771149999999998,-0.797565,-0.055583,0.2153985,-0.7981050000000001,-0.057946000000000004
138,-0.013416499999999998,0.6317305,0.056791,-0.1520125,0.47244049999999993,0.02621,-0.2388225,0.6865705,-0.007102000000000001,0.13468750000000002,0.4558305,0.01804,0.2331575,0.7029405,-0.009158,-0.2561525,0.8978305,-0.004081,0.2511675,0.9145705,-0.020676999999999997,-0.0672895,-0.0010454999999999909,-0.0011279999999999999,0.0672895,0.0010455000000000048,0.001128,-0.1357025,-0.3846395,-0.049219,0.1420075,-0.3822295,-0.053251,-0.1981725,-0.8010195,-0.051352,0.2138275,-0.8017395,-0.053507
139,-0.0137725,0.630915,0.059309,-0.1528715,0.471325,0.028702,-0.23823149999999998,0.684955,-0.0034409999999999996,0.1342385,0.45504500000000003,0.021,0.2320885,0.701245,-0.006295,-0.2554615,0.896145,0.000258,0.2503485,0.912875,-0.017677,-0.0672385,-0.0008120000000000072,-0.001164,0.0672385,0.0008119999999999933,0.001164,-0.1349115,-0.38651500000000005,-0.045677,0.1409485,-0.38417500000000004,-0.050209,-0.1986615,-0.803505,-0.047491,0.21234850000000002,-0.804295,-0.049175
140,-0.014103500000000001,0.6303390000000001,0.0616475,-0.15364850000000002,0.470599,0.0310805,-0.2392985,0.683929,-0.0006804999999999997,0.1336515,0.45440900000000006,0.023633499999999998,0.2310215,0.700099,-0.0039165,-0.2553185,0.8950790000000001,0.0046905,0.24952149999999998,0.911729,-0.014849500000000002,-0.0671445,-0.0006319999999999937,-0.0012735000000000003,0.0671445,0.0006320000000000076,0.0012735,-0.1339785,-0.38788100000000003,-0.0424785,0.1398815,-0.385591,-0.0473595,-0.1991985,-0.805151,-0.0441055,0.21097149999999998,-0.806191,-0.0451895
141,-0.014327,0.6300125,0.0637235,-0.154225,0.4702425,0.0332345,-0.238705,0.6836325,0.0027644999999999996,0.133245,0.4541425,0.0258935,0.23002499999999998,0.6985825,-0.0010775000000000003,-0.254295,0.8947324999999999,0.0090595,0.24866500000000002,0.9101725,-0.010836499999999999,-0.067166,-0.0005674999999999986,-0.0010845000000000004,0.067166,0.0005674999999999986,0.0010844999999999995,-0.13320500000000002,-0.3879975,-0.0399945,0.13905499999999998,-0.38608750000000003,-0.0449145,-0.19943499999999997,-0.8063575000000001,-0.0410515,0.209955,-0.8069875000000001,-0.0418705
142,-0.0144255,0.6298739999999999,0.0654495,-0.15469449999999998,0.470224,0.035307500000000006,-0.23789449999999998,0.6835439999999999,0.006027500000000001,0.1328355,0.45408399999999993,0.0279255,0.2292355,0.697394,0.001481500000000001,-0.2533145,0.894554,0.0129325,0.2479455,0.908924,-0.0073095,-0.06716649999999999,-0.0004909999999999914,-0.0008614999999999994,0.06716649999999999,0.0004910000000000053,0.0008615000000000003,-0.1325245,-0.38805599999999996,-0.0380225,0.1383055,-0.386296,-0.0427935,-0.1998945,-0.806606,-0.0386045,0.2087755,-0.806556,-0.0388805
143,-0.014408000000000004,0.6297785,0.0668155,-0.155074,0.4702385,0.037151500000000004,-0.237114,0.6842385,0.0089285,0.132466,0.4539385,0.0296585,0.228556,0.6963285,0.003638500000000001,-0.252464,0.8951884999999999,0.0162535,0.247386,0.9078485000000001,-0.0043254999999999995,-0.067149,-0.0004585000000000006,-0.0005634999999999998,0.067149,0.0004585000000000006,0.0005635000000000006,-0.131874,-0.38803150000000003,-0.0364315,0.137676,-0.38643150000000004,-0.0411275,-0.200264,-0.8067515000000001,-0.0366775,0.207876,-0.8061315,-0.0363175
144,-0.014375499999999996,0.629754,0.067945,-0.15535749999999998,0.470394,0.038765,-0.2364675,0.6849740000000001,0.011361,0.1321425,0.453894,0.030979,0.2279525,0.695484,0.005396,-0.2516575,0.895884,0.019139999999999997,0.2469025,0.906994,-0.0018930000000000006,-0.0670365,-0.00043699999999999295,-0.0006890000000000004,0.0670365,0.00043700000000000683,0.0006889999999999986,-0.13126749999999998,-0.38800599999999996,-0.035308,0.1371225,-0.386466,-0.039858,-0.2005775,-0.806156,-0.035121,0.2069525,-0.805086,-0.034874
145,-0.014167000000000003,0.629714,0.06902749999999999,-0.155594,0.4705039999999999,0.0403545,-0.235894,0.685684,0.0136225,0.131886,0.453854,0.0322395,0.227416,0.694674,0.0070345,-0.251144,0.896474,0.0218225,0.246566,0.906134,0.0001694999999999995,-0.066926,-0.0004320000000000018,-0.0009324999999999993,0.066926,0.0004320000000000018,0.0009324999999999993,-0.130784,-0.388016,-0.034228499999999995,0.136576,-0.38651599999999997,-0.038767499999999996,-0.200874,-0.805936,-0.0338285,0.206256,-0.804156,-0.033666499999999995
146,-0.013925000000000003,0.629751,0.069967,-0.155721,0.47073099999999996,0.041735999999999995,-0.23525100000000002,0.6863710000000001,0.015557999999999999,0.131719,0.45393100000000003,0.033344,0.227049,0.6940710000000001,0.008418,-0.250691,0.897041,0.024301999999999997,0.246269,0.905491,0.0017579999999999991,-0.066879,-0.0004050000000000026,-0.0010299999999999997,0.066879,0.0004050000000000026,0.0010299999999999997,-0.130411,-0.388059,-0.033276,0.136159,-0.386689,-0.037806,-0.201041,-0.8059890000000001,-0.032711,0.20573899999999998,-0.803539,-0.032644
147,-0.013704000000000004,0.6297284999999999,0.0707645,-0.15575,0.4709385,0.0430385,-0.23476000000000002,0.6868084999999999,0.0172635,0.13155,0.4538785,0.034390500000000004,0.22675,0.6934985,0.009664500000000001,-0.25038,0.8973685,0.0264805,0.24602000000000002,0.9048585,0.0032095000000000005,-0.066773,-0.00032849999999999546,-0.0012835,0.066773,0.00032849999999999546,0.0012835000000000017,-0.13006,-0.3880615,-0.032377500000000003,0.13577,-0.3868215,-0.0368865,-0.20107000000000003,-0.8052515,-0.0316245,0.20538,-0.8034714999999999,-0.0317245
148,-0.013543499999999997,0.629599,0.071424,-0.1557125,0.47105899999999995,0.044254,-0.23437249999999998,0.6869989999999999,0.018734,0.1313975,0.453709,0.035374,0.2265075,0.6929590000000001,0.010757,-0.2502125,0.8975090000000001,0.028406999999999998,0.24572750000000002,0.9042889999999999,0.004156999999999999,-0.06661349999999999,-0.00026400000000000035,-0.0016140000000000009,0.06661349999999999,0.00026400000000000035,0.0016139999999999991,-0.1297625,-0.388031,-0.03168,0.13540750000000001,-0.386971,-0.036056000000000005,-0.2010525,-0.8052109999999999,-0.030607000000000002,0.2051475,-0.804351,-0.030717
149,-0.013336000000000004,0.6295055,0.07192,-0.15555,0.47118550000000003,0.045288,-0.2339,0.6871055,0.019917999999999998,0.13141999999999998,0.4535755,0.036257,0.2265,0.6925855,0.011664,-0.25011,0.8975355,0.029908999999999998,0.24561,0.9039155,0.004935999999999999,-0.066493,-0.0002324999999999966,-0.0017429999999999998,0.066493,0.00023250000000001048,0.0017429999999999998,-0.12954000000000002,-0.3880045,-0.03123,0.13521,-0.3870345,-0.035456,-0.20087,-0.8045045,-0.029693999999999998,0.20507,-0.8048645,-0.029792
150,-0.013101999999999996,0.6294755,0.072379,-0.155386,0.47130550000000004,0.046252,-0.233456,0.6871655,0.021015,0.131454,0.4535755,0.037101,0.226564,0.6925055,0.012466,-0.25008600000000003,0.8975355,0.031197000000000003,0.245524,0.9038355,0.005738999999999999,-0.066357,-0.0002324999999999966,-0.0019590000000000007,0.066357,0.00023250000000001048,0.0019590000000000007,-0.129356,-0.3880045,-0.030743,0.134984,-0.3870345,-0.034913,-0.20078600000000002,-0.8033345,-0.028887999999999997,0.205074,-0.8058244999999999,-0.028941
151,-0.012935999999999996,0.6294355,0.07274,-0.155207,0.47139549999999997,0.047127999999999996,-0.233227,0.6872155,0.021884,0.13153299999999998,0.4535755,0.03788,0.22667299999999999,0.6924355,0.013208999999999999,-0.250127,0.8975355,0.032401,0.24543299999999998,0.9037555,0.0064849999999999994,-0.06625400000000001,-0.0002324999999999966,-0.002117000000000001,0.06625400000000001,0.00023250000000001048,0.002116999999999999,-0.129237,-0.3880045,-0.030310999999999998,0.134783,-0.3870345,-0.034475,-0.20072700000000002,-0.8022245,-0.028229999999999998,0.20516299999999998,-0.8063545,-0.028289
152,-0.012785000000000001,0.6294175,0.0731575,-0.15504900000000002,0.47140750000000003,0.048058500000000004,-0.233039,0.6872174999999999,0.022801500000000002,0.13161099999999998,0.4535775,0.038734500000000005,0.226801,0.6923775,0.0140295,-0.25022900000000003,0.8975375,0.0336905,0.245361,0.9036974999999999,0.0071445000000000015,-0.06615599999999999,-0.0002344999999999986,-0.002342500000000001,0.06615599999999999,0.0002344999999999986,0.002342500000000001,-0.129119,-0.3880125,-0.0298175,0.13461099999999998,-0.3870325,-0.0340525,-0.200769,-0.8019425,-0.027447499999999996,0.205281,-0.8077425,-0.027580499999999997
153,-0.012632500000000001,0.629308,0.07350999999999999,-0.1542935,0.47178800000000004,0.049233,-0.2330635,0.687548,0.023688999999999998,0.13243649999999998,0.45421799999999996,0.039747,0.22690649999999998,0.692248,0.014772999999999998,-0.25038350000000004,0.8977679999999999,0.034867999999999996,0.2453165,0.9035679999999999,0.007729999999999997,-0.0661025,-0.00026599999999998847,-0.0024470000000000013,0.0661025,0.00026600000000000235,0.002446999999999998,-0.12903350000000002,-0.388042,-0.029360000000000004,0.13445649999999998,-0.387022,-0.033706,-0.20055350000000002,-0.800702,-0.026607000000000006,0.20528649999999998,-0.8080419999999999,-0.026807000000000004
154,-0.012701500000000004,0.62915,0.0738745,-0.1535235,0.4721000000000001,0.05026749999999999,-0.2331135,0.6881,0.0244915,0.1331965,0.45487,0.0406165,0.22695649999999998,0.6920700000000001,0.015352499999999998,-0.2505135,0.89818,0.035893499999999995,0.2452665,0.90339,0.0083685,-0.0660715,-0.0002920000000000006,-0.002578500000000001,0.0660715,0.0002920000000000006,0.002578499999999999,-0.12897350000000002,-0.38805999999999996,-0.028979500000000002,0.13431649999999998,-0.38703,-0.033530500000000005,-0.2003635,-0.80007,-0.0258485,0.20531649999999999,-0.8085899999999999,-0.026169500000000002
155,-0.012614499999999997,0.6289675,0.074354,-0.1527585,0.4723974999999999,0.05137,-0.2330685,0.6878875,0.025423,0.1338415,0.4556374999999999,0.041544,0.2270115,0.6918974999999999,0.015995000000000002,-0.2506385,0.8979674999999999,0.036969,0.2452415,0.9032175,0.009103000000000002,-0.0660155,-0.00032850000000000934,-0.0025559999999999992,0.0660155,0.00032849999999999546,0.0025560000000000027,-0.1289185,-0.38809249999999995,-0.028569999999999998,0.1342015,-0.38702250000000005,-0.033317,-0.2001485,-0.7991625,-0.024993999999999995,0.20540150000000001,-0.8091625,-0.025455
156,-0.012467499999999996,0.6290125000000001,0.0747545,-0.1520025,0.4729625,0.0524285,-0.23307250000000002,0.6877125000000001,0.026277500000000002,0.1344775,0.45638249999999997,0.042383500000000005,0.2271075,0.6919025000000001,0.0166465,-0.25095249999999997,0.8977925,0.0381445,0.24544749999999999,0.9031525,0.0097925,-0.0659525,-0.0004025000000000001,-0.0024945,0.0659525,0.0004025000000000001,0.0024945,-0.1287325,-0.3881775,-0.0281755,0.13420749999999998,-0.38692750000000004,-0.0331665,-0.1999325,-0.7983874999999999,-0.024251500000000002,0.20564749999999998,-0.8091974999999999,-0.024765499999999996
157,-0.012300999999999996,0.6289985,0.07520650000000001,-0.15133999999999997,0.47341849999999996,0.0534835,-0.23312,0.6875185,0.0272725,0.13510000000000003,0.45707850000000005,0.0432385,0.22722,0.6918085,0.0173745,-0.25131000000000003,0.8975985,0.0394075,0.24576,0.9029685000000001,0.010518500000000002,-0.065905,-0.0004745000000000027,-0.002353499999999998,0.065905,0.0004745000000000027,0.0023535000000000014,-0.12854,-0.3882615,-0.027768499999999995,0.13425,-0.3868415,-0.0329085,-0.19985999999999998,-0.7985315,-0.0234845,0.20611000000000002,-0.8106915,-0.024070499999999995
158,-0.012087500000000004,0.6290465000000001,0.0755975,-0.1508035,0.47395650000000006,0.054428500000000005,-0.2331735,0.6872965,0.0282965,0.1356465,0.45775649999999996,0.0440105,0.2273765,0.6918264999999999,0.0180325,-0.2516235,0.8972564999999999,0.040764499999999995,0.2463065,0.9028765000000001,0.0113775,-0.0658735,-0.0005394999999999983,-0.0022854999999999993,0.0658735,0.0005395000000000122,0.0022854999999999993,-0.1283335,-0.3883435,-0.0274315,0.1343465,-0.3867335,-0.0327105,-0.19976349999999998,-0.7986534999999999,-0.022688499999999997,0.20659650000000002,-0.8116734999999999,-0.0235095
159,-0.011858500000000001,0.6291565,0.075948,-0.1503555,0.47454650000000004,0.055275000000000005,-0.2332355,0.6871165,0.029285000000000002,0.1361745,0.4584065,0.044674000000000005,0.22757449999999999,0.6918565000000001,0.018605000000000003,-0.25196549999999995,0.8969365,0.042364,0.2470045,0.9027865,0.012258000000000002,-0.06585250000000001,-0.0006094999999999989,-0.002112999999999997,0.06585250000000001,0.0006094999999999989,0.0021130000000000003,-0.12816550000000002,-0.3884135,-0.027156,0.1344545,-0.3866235,-0.032586,-0.19971550000000002,-0.7990235,-0.022014,0.2069845,-0.8125635,-0.022968999999999996
160,-0.0116735,0.6292800000000001,0.07624700000000001,-0.1496615,0.47456000000000004,0.055787,-0.2332715,0.687,0.030240000000000003,0.13699850000000002,0.45912000000000003,0.045383,0.22782850000000002,0.69187,0.019123,-0.2520115,0.8972899999999999,0.044026,0.2477385,0.9027700000000001,0.013187,-0.0658595,-0.0006210000000000104,-0.001852999999999997,0.0658595,0.0006209999999999966,0.0018530000000000005,-0.12818149999999998,-0.38843,-0.026923999999999997,0.13452850000000002,-0.38661,-0.032532,-0.1997815,-0.79912,-0.021494,0.2071485,-0.81267,-0.022531999999999996
161,-0.011493000000000003,0.6292899999999999,0.0765155,-0.148927,0.47456000000000004,0.0562285,-0.23330700000000001,0.68668,0.0312615,0.13786299999999999,0.45952,0.0459755,0.228403,0.6918500000000001,0.0195245,-0.252067,0.89768,0.0455975,0.248773,0.90276,0.0144905,-0.065841,-0.0006210000000000104,-0.0014955000000000003,0.065841,0.0006209999999999966,0.0014955000000000003,-0.128257,-0.38843,-0.026735500000000002,0.13461299999999998,-0.38661,-0.032481499999999996,-0.19983700000000001,-0.79912,-0.0210505,0.207313,-0.8126899999999999,-0.022144499999999998
162,-0.011229499999999996,0.6292385,0.07697,-0.1481135,0.4767685,0.058609,-0.2332235,0.6843085,0.03263,0.1375265,0.46050850000000004,0.047177,0.2278665,0.6922984999999999,0.020266,-0.2538435,0.8936085,0.047076999999999994,0.2498365,0.9029384999999999,0.016168,-0.0658045,-0.0008304999999999979,-0.0010159999999999995,0.0658045,0.0008304999999999979,0.0010159999999999995,-0.1276335,-0.3887615,-0.026262,0.13482650000000002,-0.3863815,-0.031839,-0.1993035,-0.7975015000000001,-0.019594,0.2080965,-0.8133115,-0.020982
163,-0.010811499999999998,0.629813,0.077258,-0.14824549999999997,0.47646299999999997,0.058395,-0.2331555,0.685173,0.033576999999999996,0.1372945,0.46019299999999996,0.047096,0.2287645,0.692503,0.020819999999999998,-0.2536955,0.894133,0.050435,0.2514245,0.903053,0.016659,-0.0656835,-0.0008269999999999944,-0.0005819999999999992,0.0656835,0.0008270000000000083,0.0005819999999999992,-0.12746549999999998,-0.388757,-0.026016,0.13527450000000002,-0.38626699999999997,-0.031855999999999995,-0.1981655,-0.793907,-0.019711999999999997,0.2085245,-0.813367,-0.021022000000000002
164,-0.010696499999999998,0.62962,0.077436,-0.1486405,0.4757199999999999,0.058174000000000003,-0.2335605,0.68475,0.034331,0.1371095,0.45987,0.047138,0.2298395,0.69211,0.021062,-0.25427049999999995,0.89352,0.052218,0.2522795,0.9026299999999999,0.017606000000000004,-0.0655515,-0.0008249999999999924,-0.001010999999999998,0.0655515,0.0008250000000000063,0.0010110000000000015,-0.1274205,-0.38873,-0.025957,0.1352995,-0.38625,-0.032012,-0.1993305,-0.8005300000000001,-0.018545,0.2083095,-0.81332,-0.020913999999999995
165,-0.010144500000000004,0.630191,0.07779,-0.14922249999999998,0.476221,0.058217,-0.2334425,0.683701,0.036024,0.13696750000000002,0.45965100000000003,0.047261,0.23340750000000002,0.692881,0.022341,-0.2541525,0.892591,0.052891,0.2556875,0.903261,0.021738,-0.0654145,-0.0008090000000000042,-0.00042400000000000077,0.0654145,0.0008090000000000042,0.00042400000000000077,-0.12699249999999998,-0.388759,-0.025806000000000003,0.1359175,-0.38610900000000004,-0.031873,-0.1994425,-0.803069,-0.018675999999999998,0.20892750000000002,-0.812079,-0.021063
166,-0.0099885,0.630529,0.0770465,-0.1501345,0.47685900000000003,0.0579655,-0.23437449999999999,0.682089,0.0374625,0.1368955,0.459809,0.0469615,0.2356055,0.692929,0.022451500000000003,-0.25556450000000003,0.8907189999999999,0.0555905,0.25835549999999996,0.9031589999999999,0.022923500000000003,-0.0655165,-0.0010850000000000026,-2.6499999999998747e-05,0.0655165,0.0010850000000000026,2.6500000000002216e-05,-0.12713449999999998,-0.389041,-0.0260535,0.1360155,-0.38583100000000004,-0.0321945,-0.19945449999999998,-0.803511,-0.0191345,0.2085355,-0.810721,-0.0212575
167,-0.010909499999999999,0.6345385,0.077184,-0.14800449999999998,0.46385850000000006,0.048624,-0.2191545,0.6854485,0.061119,0.1402255,0.4642185,0.04829,0.2465155,0.6961885,0.023150999999999998,-0.2411845,0.9152684999999999,0.101938,0.2688255,0.9052385000000001,0.036655,-0.0655735,-0.0016795000000000004,0.0009349999999999983,0.0655735,0.0016795000000000004,-0.0009350000000000018,-0.12937449999999998,-0.3892215,-0.025943,0.1353455,-0.3845115,-0.032197,-0.2012145,-0.8035515,-0.019763000000000003,0.2073355,-0.8064915,-0.021016
168,-0.011611,0.6378465,0.0770895,-0.149088,0.4600165,0.0462875,-0.226128,0.6695264999999999,0.0618535,0.141962,0.4657265,0.0481795,0.263942,0.6902165,0.0208815,-0.230658,0.9376365,0.11239350000000001,0.27582199999999996,0.8984065000000001,0.046284500000000006,-0.065776,-0.0023474999999999885,0.001135500000000001,0.065776,0.0023475000000000024,-0.0011354999999999976,-0.13086799999999998,-0.38958349999999997,-0.025881499999999995,0.134712,-0.3815435,-0.0322735,-0.201928,-0.7992735,-0.0195525,0.206512,-0.8021335,-0.020768499999999995
