sb224sc-HT22-VT27/4dt907/src/data/kinect_good_preprocessed_not_cut_A11_mediapipe/A4_kinect.csv
FrameNo,nose_3d_x,nose_3d_y,nose_3d_z,left_shoulder_3d_x,left_shoulder_3d_y,left_shoulder_3d_z,left_elbow_3d_x,left_elbow_3d_y,left_elbow_3d_z,right_shoulder_3d_x,right_shoulder_3d_y,right_shoulder_3d_z,right_elbow_3d_x,right_elbow_3d_y,right_elbow_3d_z,left_wrist_3d_x,left_wrist_3d_y,left_wrist_3d_z,right_wrist_3d_x,right_wrist_3d_y,right_wrist_3d_z,left_hip_3d_x,left_hip_3d_y,left_hip_3d_z,right_hip_3d_x,right_hip_3d_y,right_hip_3d_z,left_knee_3d_x,left_knee_3d_y,left_knee_3d_z,right_knee_3d_x,right_knee_3d_y,right_knee_3d_z,left_ankle_3d_x,left_ankle_3d_y,left_ankle_3d_z,right_ankle_3d_x,right_ankle_3d_y,right_ankle_3d_z
0,0.0011219999999999993,0.770904,0.05054800000000001,-0.156257,0.467364,0.039948000000000004,-0.182367,0.21455400000000002,0.047610000000000006,0.151253,0.46677399999999997,0.054715,0.185963,0.21416400000000002,0.076043,-0.195777,0.012351,-0.024301999999999997,0.199483,0.013389,-0.005631999999999998,-0.07319400000000001,0.0009670000000000002,0.00027900000000000147,0.07319400000000001,-0.000967,-0.00027899999999999453,-0.12876700000000002,-0.380116,-0.015558999999999996,0.12116299999999999,-0.412326,0.022804000000000005,-0.132657,-0.731006,-0.030034999999999992,0.137093,-0.741156,4.700000000000537e-05
1,0.0011485000000000033,0.770785,0.050629499999999994,-0.1562905,0.46758500000000003,0.0401985,-0.1823305,0.214635,0.0474695,0.1517695,0.466895,0.05522149999999999,0.1858995,0.214215,0.0760515,-0.1941505,0.013542,-0.0282325,0.19925949999999998,0.013449000000000001,-0.004991500000000003,-0.0731955,0.0009010000000000001,0.0004264999999999963,0.0731955,-0.0009009999999999999,-0.00042650000000000327,-0.12872050000000002,-0.379005,-0.015553500000000005,0.1211695,-0.412635,0.022602499999999998,-0.1321005,-0.732435,-0.027883500000000006,0.13730950000000003,-0.740935,0.00015649999999999692
2,0.0010009999999999993,0.770803,0.050698,-0.155837,0.46741299999999997,0.039693,-0.182397,0.214673,0.047392,0.152643,0.466823,0.054959999999999995,0.185823,0.21416300000000002,0.075943,-0.196587,0.012776,-0.025343000000000004,0.199203,0.013409,-0.005060000000000002,-0.073206,0.0009099999999999998,0.0002510000000000012,0.073206,-0.0009100000000000002,-0.0002510000000000012,-0.12881700000000001,-0.37900700000000004,-0.015592000000000002,0.12096299999999999,-0.412847,0.022588999999999998,-0.13206700000000002,-0.732167,-0.028023,0.13711299999999998,-0.740517,-0.0002730000000000024
3,0.0009190000000000014,0.7706645,0.050577,-0.156765,0.4672645,0.039862,-0.18245499999999998,0.2145245,0.047437,0.151615,0.4666745,0.055470000000000005,0.18573499999999998,0.21399449999999998,0.07605,-0.194625,0.0075375,-0.030677000000000003,0.19903500000000002,0.013466500000000001,-0.004844999999999995,-0.073203,0.0008755000000000002,0.00017299999999999954,0.073203,-0.0008755,-0.00017299999999999954,-0.128905,-0.38025549999999997,-0.015310999999999998,0.120735,-0.4126855,0.022609000000000004,-0.13331500000000002,-0.7320655,-0.032153999999999995,0.13704500000000003,-0.7406455000000001,-0.0003429999999999961
4,0.000579000000000001,0.770717,0.05106599999999999,-0.15598099999999998,0.467127,0.03912999999999999,-0.18245099999999997,0.214447,0.047383999999999996,0.15136899999999998,0.466967,0.055365,0.185589,0.213977,0.076295,-0.194031,0.008468,-0.03157900000000001,0.199079,0.013641,-0.004259000000000006,-0.073176,0.0008550000000000001,0.00015599999999999642,0.073176,-0.0008549999999999999,-0.00015600000000000336,-0.12899100000000002,-0.379263,-0.015442000000000004,0.12060900000000001,-0.412653,0.022567999999999994,-0.13239099999999998,-0.730833,-0.03065000000000001,0.137019,-0.740613,-0.00016200000000000936
5,0.0005275000000000004,0.7706485,0.051003,-0.1568215,0.4668685,0.039240000000000004,-0.1824115,0.21480849999999999,0.04736,0.1506285,0.46655850000000004,0.055621000000000004,0.1855385,0.2138785,0.076308,-0.1928815,0.014003499999999999,-0.029455999999999996,0.1989085,0.0135825,-0.004143000000000001,-0.0731675,0.0008404999999999999,0.0001260000000000011,0.0731675,-0.0008405000000000001,-0.0001260000000000011,-0.1288315,-0.3808715,-0.015319,0.1206285,-0.4127415,0.022569,-0.1325015,-0.7301915,-0.031048999999999993,0.1370185,-0.7406415000000001,-0.0004289999999999988
6,0.00042649999999999784,0.7706645,0.0508305,-0.1565905,0.46693450000000003,0.0388385,-0.18250049999999998,0.21505449999999998,0.0471485,0.1492995,0.46600450000000004,0.0553625,0.1854395,0.21391449999999998,0.0761135,-0.1931205,0.0141855,-0.029773499999999994,0.1988295,0.0135815,-0.0039755,-0.07320950000000001,0.0008885,-7.249999999999618e-05,0.07320950000000001,-0.0008885,7.250000000000312e-05,-0.12891049999999998,-0.38064549999999997,-0.015606499999999995,0.1203795,-0.4120355,0.022511500000000004,-0.1325705,-0.7301354999999999,-0.031230499999999994,0.13662950000000001,-0.7407255,-0.0005094999999999961
7,0.0005515000000000006,0.7708755,0.050508,-0.1567405,0.4673255,0.039089,-0.1830805,0.2151355,0.044729,0.1500495,0.46640550000000003,0.054228,0.1861795,0.2141755,0.072134,-0.1942305,0.0145095,-0.033538,0.2000595,0.0135675,-0.007120000000000001,-0.0731755,0.0009235,4.199999999999343e-05,0.0731755,-0.0009235000000000001,-4.200000000000037e-05,-0.1290105,-0.3801245,-0.015151000000000005,0.12049950000000001,-0.41302449999999996,0.023054999999999996,-0.1325605,-0.7298445,-0.028591000000000005,0.13681949999999998,-0.7407745,0.00018799999999999373
8,0.0004885000000000028,0.770933,0.050612000000000004,-0.1568015,0.467383,0.039071,-0.18414149999999999,0.21621300000000002,0.041768,0.1497585,0.466383,0.054066,0.1871985,0.215303,0.068317,-0.19535149999999998,0.016045999999999998,-0.038533,0.2022985,0.014073,-0.011596999999999996,-0.0731715,0.0009419999999999999,2.9000000000001247e-05,0.0731715,-0.0009419999999999999,-2.9000000000001247e-05,-0.1290415,-0.379917,-0.015072999999999996,0.1204585,-0.413087,0.02318,-0.1325015,-0.729817,-0.028463999999999996,0.1367285,-0.7407870000000001,0.00035800000000000415
9,0.00046500000000000447,0.7709214999999999,0.05068450000000001,-0.15675899999999998,0.46738149999999995,0.039033500000000006,-0.185689,0.21900150000000002,0.036860500000000004,0.14944100000000002,0.4663215,0.053777500000000006,0.189121,0.21792150000000002,0.0628775,-0.197909,0.020668500000000003,-0.04728149999999999,0.206121,0.0158505,-0.0196205,-0.07316500000000001,0.0009555,-3.4999999999965614e-06,0.07316500000000001,-0.0009555000000000001,3.5000000000035003e-06,-0.12905899999999998,-0.3798685,-0.014992499999999999,0.12043100000000001,-0.41309850000000004,0.023400500000000005,-0.132489,-0.7295285,-0.028375499999999998,0.13665100000000002,-0.7408485,0.000509500000000003
10,0.0004525000000000013,0.7708645,0.051145499999999997,-0.1566265,0.4675645,0.0389935,-0.18827649999999999,0.22418449999999998,0.027685500000000002,0.1487435,0.4663145,0.053264500000000006,0.1937035,0.2244045,0.0537825,-0.2020465,0.0301065,-0.06519849999999999,0.2136735,0.0254405,-0.03555849999999999,-0.0731755,0.0009515000000000001,-8.84999999999983e-05,0.0731755,-0.0009515000000000001,8.84999999999983e-05,-0.1290165,-0.3795155,-0.014774499999999996,0.1205135,-0.4131155,0.0236785,-0.1323565,-0.7293355,-0.0283005,0.1366335,-0.7409155000000001,0.0006565000000000043
11,0.00039800000000000414,0.7708135,0.051884,-0.156387,0.4677635,0.038936,-0.191737,0.2313035,0.016132999999999998,0.147883,0.4663735,0.05244,0.19964300000000001,0.2324435,0.042218,-0.20742699999999997,0.044004499999999995,-0.08642,0.223113,0.0389665,-0.054856,-0.073198,0.0009545,-0.00017000000000000348,0.073198,-0.0009544999999999999,0.00016999999999999654,-0.129037,-0.3787165,-0.014328,0.12062300000000001,-0.41314649999999997,0.023958,-0.13211699999999998,-0.7291465,-0.027928,0.136633,-0.7409765,0.0008149999999999963
12,0.0002884999999999961,0.7707155,0.052749500000000005,-0.1562385,0.4682255,0.0388295,-0.1958985,0.2398255,0.002758500000000004,0.1469415,0.46651549999999997,0.0514915,0.2067415,0.2418555,0.0288195,-0.2141785,0.0623535,-0.11150750000000001,0.2343815,0.0568905,-0.0785075,-0.0732655,0.0009515000000000001,-0.00029249999999999415,0.0732655,-0.0009514999999999999,0.0002925000000000011,-0.1290885,-0.3777145,-0.013817499999999996,0.1207115,-0.4131045,0.0242355,-0.13185850000000002,-0.7287545,-0.0278085,0.1365115,-0.7410245,0.0009815000000000032
13,0.0001310000000000029,0.7706305,0.053802,-0.15592299999999998,0.4687405,0.038579,-0.20121299999999998,0.2511105,-0.013657999999999997,0.145947,0.46687049999999997,0.050594,0.214727,0.2528705,0.014474,-0.22175299999999998,0.08222850000000001,-0.139177,0.247647,0.08149350000000001,-0.10576699999999999,-0.073353,0.0009375,-0.0005039999999999975,0.073353,-0.0009375,0.0005039999999999975,-0.129123,-0.37609950000000003,-0.013333999999999999,0.12070700000000001,-0.41234950000000004,0.024397000000000002,-0.131793,-0.7284295000000001,-0.027424999999999998,0.13637700000000003,-0.7410595,0.0009890000000000038
14,-3.1500000000000996e-05,0.7705375,0.05502649999999999,-0.15553650000000002,0.4693775,0.038302499999999996,-0.20726650000000002,0.2639375,-0.031107499999999996,0.14469349999999997,0.4673175,0.049680499999999995,0.2243135,0.2665275,-0.0013734999999999997,-0.22903649999999998,0.10812749999999999,-0.17272749999999998,0.2621235,0.11144749999999999,-0.1357775,-0.0734655,0.0009074999999999999,-0.0006985000000000047,0.0734655,-0.0009075000000000001,0.0006984999999999977,-0.12911650000000002,-0.3744425,-0.012820500000000006,0.1207335,-0.41154250000000003,0.024557499999999996,-0.1315965,-0.7275925,-0.026617500000000002,0.1362935,-0.7410925,0.0009324999999999958
15,-7.549999999999926e-05,0.7705375,0.05645699999999999,-0.15498050000000002,0.4696375,0.037894,-0.2143405,0.2814375,-0.050654000000000005,0.14436949999999998,0.4679375,0.049094,0.23543950000000002,0.2849275,-0.018956,-0.23752050000000002,0.1384975,-0.20820699999999998,0.2784795,0.1426875,-0.16835699999999998,-0.0735795,0.0009074999999999999,-0.000907000000000005,0.0735795,-0.0009075000000000001,0.0009069999999999981,-0.1291505,-0.3729525,-0.012400000000000001,0.1207695,-0.4115025,0.024628999999999998,-0.13152049999999998,-0.7275925,-0.026100000000000005,0.1362295,-0.7410925,0.000678999999999999
16,-0.00017300000000000204,0.7705165,0.058116,-0.154319,0.4699865,0.037376000000000006,-0.221489,0.3005465,-0.070115,0.144091,0.46892649999999997,0.048455,0.246801,0.3050465,-0.035637,-0.247569,0.1753765,-0.24350500000000003,0.29435100000000003,0.1820665,-0.200005,-0.073673,0.0009234999999999998,-0.0010979999999999948,0.073673,-0.0009235000000000001,0.0010980000000000018,-0.129209,-0.37156350000000005,-0.011984999999999996,0.120791,-0.4115335,0.024581000000000002,-0.131459,-0.7277435,-0.025772999999999997,0.13614099999999998,-0.7410635,0.00036900000000000127
17,-0.00032499999999999684,0.7703565,0.059734499999999996,-0.153665,0.4706365,0.0367365,-0.22861499999999998,0.3202565,-0.0875405,0.14391500000000002,0.4699865,0.0477095,0.258015,0.3264265,-0.0508945,-0.257195,0.2189765,-0.2775205,0.309345,0.22637649999999998,-0.2296505,-0.073729,0.0008805000000000002,-0.0013345000000000024,0.073729,-0.0008804999999999998,0.0013344999999999989,-0.129325,-0.3701735,-0.011678500000000001,0.120755,-0.4116735,0.024406499999999998,-0.131485,-0.7277135,-0.0254225,0.136065,-0.7411535,-0.00013550000000000367
18,-0.0005364999999999983,0.7694500000000001,0.0615985,-0.1527025,0.47132999999999997,0.0358825,-0.2371525,0.34734,-0.1036845,0.14387750000000002,0.47117,0.046767500000000004,0.26874750000000003,0.35119,-0.0651015,-0.2657025,0.26966,-0.30846450000000003,0.3237875,0.27956,-0.25874450000000004,-0.0737485,0.0008060000000000003,-0.0015224999999999995,0.0737485,-0.0008059999999999999,0.0015224999999999995,-0.12943249999999998,-0.36888,-0.011560499999999998,0.1205675,-0.41154,0.0239815,-0.1316225,-0.72768,-0.025212500000000002,0.1355875,-0.74178,-0.0009025000000000005
19,-0.0007410000000000014,0.7684989999999999,0.06305949999999999,-0.15217,0.47176900000000005,0.0348715,-0.24515,0.37255900000000003,-0.1159635,0.14393,0.47275900000000004,0.0458895,0.27681,0.37616900000000003,-0.07502349999999999,-0.27213,0.321479,-0.3281035,0.3345,0.33020900000000003,-0.2777335,-0.07383999999999999,0.0007109999999999998,-0.0016715000000000028,0.07383999999999999,-0.000711,0.0016714999999999994,-0.12949000000000002,-0.368351,-0.011647500000000005,0.12034999999999998,-0.411311,0.023493499999999997,-0.1318,-0.727601,-0.0248595,0.13507999999999998,-0.742351,-0.001684500000000002
20,-0.0009760000000000033,0.767491,0.0641905,-0.151679,0.472311,0.0335455,-0.252879,0.397711,-0.1255215,0.143891,0.474831,0.045019500000000004,0.28352099999999997,0.402091,-0.08251149999999999,-0.277189,0.372981,-0.3432115,0.343341,0.382451,-0.29178149999999997,-0.073949,0.0006280000000000001,-0.0019284999999999997,0.073949,-0.0006280000000000001,0.0019284999999999997,-0.129579,-0.368249,-0.012040499999999996,0.120081,-0.411169,0.0229345,-0.132079,-0.7276189999999999,-0.024607499999999997,0.13455099999999998,-0.7430289999999999,-0.002590499999999999
21,-0.0011884999999999992,0.7662505,0.0650965,-0.1514395,0.47270049999999997,0.0322705,-0.2604495,0.4242705,-0.13319150000000002,0.1438305,0.47686049999999996,0.044220499999999996,0.2894405,0.4293105,-0.0886515,-0.2806995,0.4254905,-0.3509515,0.34948049999999997,0.43511049999999996,-0.2994615,-0.07407549999999999,0.0004965,-0.002215500000000002,0.07407549999999999,-0.0004965,0.0022154999999999987,-0.1296895,-0.3686495,-0.0124465,0.11978050000000001,-0.41129950000000004,0.0223335,-0.1323895,-0.7276695000000001,-0.0245285,0.1340905,-0.7439595,-0.003392500000000003
22,-0.0013925000000000033,0.7643225,0.06578300000000001,-0.15134450000000002,0.4734325,0.030854000000000003,-0.2655345,0.45244249999999997,-0.13691599999999998,0.14453549999999998,0.47901249999999995,0.04394000000000001,0.2939955,0.45926249999999996,-0.092086,-0.28342449999999997,0.48473249999999996,-0.354966,0.3527755,0.48935249999999997,-0.30210600000000004,-0.07420850000000001,0.0004115000000000004,-0.0024429999999999973,0.07420850000000001,-0.00041149999999999954,0.0024430000000000007,-0.1298445,-0.3697675,-0.012948999999999995,0.1195155,-0.4121475,0.021706000000000003,-0.1327345,-0.7290875,-0.025372,0.1335255,-0.7455775,-0.004172999999999996
23,-0.0015515000000000014,0.762203,0.066376,-0.1513145,0.474063,0.029580000000000002,-0.2694745,0.481273,-0.138906,0.1457755,0.481003,0.044051,0.2967855,0.48712300000000003,-0.093226,-0.2852645,0.540213,-0.357596,0.3546255,0.541513,-0.302726,-0.0742945,0.00035099999999999975,-0.0026429999999999995,0.0742945,-0.0003510000000000006,0.0026429999999999995,-0.1299345,-0.37110699999999996,-0.013439999999999997,0.1192455,-0.413257,0.021115000000000002,-0.1329745,-0.7300869999999999,-0.025817999999999997,0.1329555,-0.747367,-0.004876999999999999
24,-0.0015969999999999988,0.7598835,0.0667625,-0.151312,0.4747135,0.0284185,-0.271882,0.5072535,-0.14000250000000003,0.14691800000000002,0.48288349999999997,0.0443045,0.298168,0.5128135,-0.0938325,-0.285742,0.5928635000000001,-0.3584425,0.35453799999999996,0.5948035,-0.3035225,-0.07431299999999999,0.0003075000000000005,-0.002816500000000003,0.07431299999999999,-0.0003075000000000005,0.0028164999999999996,-0.129942,-0.37268650000000003,-0.013905500000000001,0.119038,-0.4147865,0.0205885,-0.133232,-0.7318965,-0.0265195,0.13245800000000002,-0.7493565,-0.005521500000000002
25,-0.0015774999999999967,0.7574409999999999,0.06705749999999999,-0.1512955,0.475321,0.0273295,-0.2737155,0.534551,-0.1409055,0.1484345,0.484641,0.044676499999999994,0.2988445,0.538991,-0.0944055,-0.2857955,0.640601,-0.35911550000000003,0.3544845,0.642581,-0.3041955,-0.0742745,0.0002500000000000002,-0.0030015000000000007,0.0742745,-0.0002499999999999985,0.0030014999999999972,-0.1298955,-0.37476899999999996,-0.0143975,0.11889450000000001,-0.41706899999999997,0.020177499999999998,-0.1334455,-0.7340690000000001,-0.0271775,0.13207449999999998,-0.7515390000000001,-0.006090500000000002
26,-0.0015440000000000007,0.7548435,0.067272,-0.151315,0.4760735,0.026439,-0.276095,0.5615935,-0.14177199999999998,0.150415,0.4863735,0.045148,0.298785,0.5653134999999999,-0.094972,-0.286825,0.6869934999999999,-0.352182,0.353955,0.6873735,-0.301122,-0.07419100000000001,0.00021250000000000088,-0.003140999999999998,0.07419100000000001,-0.00021249999999999915,0.0031410000000000014,-0.129885,-0.3770465,-0.014816000000000003,0.11877499999999999,-0.4195965,0.019836,-0.133515,-0.7360465,-0.027644000000000002,0.13167500000000001,-0.7538465000000001,-0.006547999999999998
27,-0.0015345,0.7527315000000001,0.067131,-0.1513775,0.4770215,0.025944000000000002,-0.2763575,0.5809915000000001,-0.139996,0.1517125,0.4880815,0.045579,0.2984625,0.5878414999999999,-0.09265599999999999,-0.2872275,0.7241115,-0.349246,0.3522125,0.7230215,-0.288346,-0.0741485,0.00022250000000000048,-0.003269000000000001,0.0741485,-0.00022249999999999874,0.003269000000000001,-0.1297875,-0.3793685,-0.014966,0.1187625,-0.4217885,0.019735,-0.1335475,-0.7381584999999999,-0.027649,0.1316725,-0.7559985,-0.006758
28,-0.0015120000000000036,0.7505065000000001,0.06692999999999999,-0.151487,0.4781865,0.025626,-0.276717,0.6012865000000001,-0.13731900000000002,0.153093,0.4893965,0.045962,0.29799299999999995,0.6071765,-0.08910900000000001,-0.285467,0.7577665,-0.341729,0.35046299999999997,0.7577765000000001,-0.277729,-0.074116,0.0002475000000000012,-0.003396000000000003,0.074116,-0.00024749999999999946,0.0033959999999999997,-0.129757,-0.3816035,-0.015074000000000004,0.118763,-0.4240135,0.019638999999999997,-0.133547,-0.7401435,-0.027516,0.131553,-0.7582234999999999,-0.006797000000000001
29,-0.0014870000000000024,0.7481905000000001,0.066827,-0.151716,0.47919049999999996,0.025458,-0.277136,0.6206005,-0.134185,0.154324,0.4901205,0.046332,0.296944,0.6253105,-0.084855,-0.284656,0.7884405,-0.331895,0.347834,0.7895305,-0.266135,-0.074101,0.0002554999999999988,-0.003411000000000001,0.074101,-0.00025550000000000225,0.003411000000000001,-0.129746,-0.3839195,-0.015085999999999999,0.118754,-0.42632950000000003,0.019596,-0.133666,-0.7424594999999999,-0.027571000000000002,0.13142399999999999,-0.7605394999999999,-0.006731999999999998
30,-0.0013874999999999985,0.745834,0.0667565,-0.1521035,0.48057400000000006,0.0253245,-0.2763535,0.638804,-0.1295315,0.1552665,0.49074400000000007,0.0467355,0.2949565,0.642054,-0.07859150000000001,-0.2829035,0.8171240000000001,-0.3170115,0.3437465,0.819114,-0.25138150000000004,-0.07406650000000001,0.00034500000000000156,-0.0033464999999999988,0.07406650000000001,-0.0003449999999999981,0.0033464999999999988,-0.1296935,-0.386296,-0.0150665,0.11889649999999999,-0.42862599999999995,0.0195795,-0.1336135,-0.744606,-0.0272975,0.13138650000000002,-0.762786,-0.006609500000000001
31,-0.001213999999999999,0.7440535,0.06662850000000001,-0.151996,0.48190349999999993,0.0252375,-0.274446,0.6540435,-0.12366849999999999,0.155734,0.49124349999999994,0.0469165,0.292684,0.6557835,-0.07129550000000001,-0.280986,0.8425435,-0.30086850000000004,0.338274,0.8435035,-0.23217849999999998,-0.073968,0.0004034999999999976,-0.0032835000000000017,0.073968,-0.0004035000000000011,0.0032834999999999982,-0.129586,-0.3881365,-0.015065500000000003,0.119184,-0.43024650000000003,0.0195585,-0.13350599999999999,-0.7463565,-0.027147499999999998,0.131504,-0.7646065,-0.006578500000000001
32,-0.0009034999999999976,0.7423865,0.0662555,-0.1517965,0.4834465,0.0252515,-0.27182649999999997,0.6675065,-0.1173045,0.1560735,0.49189649999999996,0.0470615,0.2909535,0.6692365,-0.0637135,-0.2792665,0.8658865,-0.2857345,0.3326335,0.8647065,-0.2143245,-0.0738505,0.0004475,-0.0032084999999999995,0.0738505,-0.0004475,0.0032084999999999995,-0.1293865,-0.3902635,-0.015086500000000003,0.1195635,-0.4318035,0.0195525,-0.13329649999999998,-0.7483835,-0.0271905,0.1317235,-0.7664135,-0.0065845
33,-0.0004289999999999975,0.740833,0.065692,-0.151528,0.485263,0.025294,-0.268418,0.6800229999999999,-0.10963099999999999,0.15632200000000002,0.492753,0.047299999999999995,0.288312,0.681373,-0.05516600000000001,-0.277748,0.888463,-0.270881,0.327032,0.8852329999999999,-0.196071,-0.073772,0.0005499999999999984,-0.0030880000000000005,0.073772,-0.0005500000000000019,0.0030880000000000005,-0.12908799999999998,-0.392017,-0.015205,0.120032,-0.433027,0.019554,-0.13299799999999998,-0.750557,-0.027521,0.13207200000000002,-0.768267,-0.006732000000000002
34,5.199999999999411e-05,0.739378,0.0650785,-0.15127500000000002,0.48717800000000006,0.025357499999999998,-0.266075,0.690048,-0.1023255,0.156555,0.493478,0.0476115,0.28568499999999997,0.6911579999999999,-0.0473305,-0.276585,0.909578,-0.25476550000000003,0.321905,0.903528,-0.1780755,-0.07369200000000001,0.0006679999999999985,-0.002916499999999999,0.07369200000000001,-0.0006679999999999985,0.002916499999999999,-0.12884500000000002,-0.393652,-0.015334499999999997,0.120505,-0.43425199999999997,0.0195705,-0.13270500000000002,-0.7527820000000001,-0.0277985,0.132435,-0.770042,-0.006888499999999999
35,0.0005904999999999974,0.7380945,0.0643645,-0.1510725,0.48919450000000003,0.0255365,-0.2640425,0.6993745,-0.0950465,0.1568175,0.4940545,0.0479325,0.28278749999999997,0.6997045,-0.0393405,-0.27594250000000003,0.9250745,-0.2380965,0.3174375,0.9201644999999999,-0.16187649999999998,-0.0736365,0.0008005000000000026,-0.0027545,0.0736365,-0.0008004999999999991,0.0027545,-0.12858250000000002,-0.39517549999999996,-0.015453499999999998,0.1210175,-0.4353455,0.0196025,-0.1325125,-0.7549555,-0.0279775,0.13281749999999998,-0.7717355,-0.007102500000000001
36,0.0011445000000000032,0.7369635,0.0636075,-0.1508175,0.4911535,0.025742499999999998,-0.2623775,0.7074435,-0.08752549999999999,0.15703250000000002,0.49444350000000004,0.0482645,0.2800025,0.7074735,-0.0315805,-0.2755975,0.9398435,-0.2207655,0.3136725,0.9365535,-0.1464555,-0.0736115,0.0009165000000000006,-0.0025775,0.0736115,-0.0009165000000000006,0.0025775,-0.12832749999999998,-0.3965765,-0.015577500000000005,0.12153250000000002,-0.4362965,0.0196355,-0.1323375,-0.7570265,-0.028023500000000003,0.13316250000000002,-0.7733465,-0.007338500000000001
37,0.0017149999999999986,0.7359805,0.0628215,-0.150679,0.4931805,0.0260645,-0.260829,0.7139105,-0.0795085,0.157071,0.49478049999999996,0.0485975,0.277441,0.7153105,-0.024122499999999998,-0.275659,0.9521205,-0.2044485,0.31024100000000004,0.9490305,-0.1312685,-0.073597,0.0010334999999999997,-0.002406499999999999,0.073597,-0.0010334999999999997,0.002406499999999999,-0.12809900000000002,-0.3978395,-0.015641500000000003,0.12202099999999999,-0.43709950000000003,0.0196845,-0.13203900000000002,-0.7587295000000001,-0.0281415,0.13347099999999998,-0.7748295,-0.007394499999999998
38,0.002338999999999996,0.735082,0.061995999999999996,-0.15050999999999998,0.49532200000000004,0.026462,-0.25924,0.7193620000000001,-0.07167799999999999,0.15694999999999998,0.495132,0.048857,0.27526,0.721472,-0.017456999999999997,-0.27589,0.962802,-0.187984,0.30712,0.958892,-0.11587399999999999,-0.073573,0.0011679999999999954,-0.002262,0.073573,-0.0011680000000000024,0.002262,-0.12780999999999998,-0.399078,-0.015712,0.12254,-0.437868,0.019721,-0.13191000000000003,-0.760478,-0.028392999999999998,0.13384999999999997,-0.776188,-0.007474999999999999
39,0.0028655000000000043,0.7344124999999999,0.061234500000000004,-0.1504535,0.4975825,0.027194500000000003,-0.2583935,0.7230125000000001,-0.06397049999999999,0.1564965,0.49549249999999995,0.04907450000000001,0.2733665,0.7260525,-0.011217499999999998,-0.27689349999999996,0.9696425,-0.1706435,0.3043465,0.9660425000000001,-0.0998435,-0.0735265,0.0012215000000000004,-0.002130499999999997,0.0735265,-0.0012215000000000004,0.0021305000000000004,-0.1276035,-0.4000975,-0.015746499999999997,0.1229665,-0.4383375,0.0197715,-0.1318235,-0.7619975000000001,-0.028541499999999997,0.13415649999999998,-0.7773475000000001,-0.007516499999999999
40,0.0034124999999999954,0.7337785,0.060521000000000005,-0.1503925,0.4996085,0.028006,-0.25795250000000003,0.7251285,-0.05673500000000001,0.1559375,0.49578849999999997,0.049255,0.2716975,0.7293785,-0.004376000000000001,-0.2783425,0.9715085,-0.155823,0.3026775,0.9702084999999999,-0.087183,-0.0734775,0.0012225000000000014,-0.002020000000000001,0.0734775,-0.0012225000000000014,0.002020000000000001,-0.1274025,-0.4012715,-0.015764999999999998,0.1233175,-0.4389815,0.019806,-0.1318425,-0.7639415,-0.028874,0.1344375,-0.7784415,-0.007470000000000001
41,0.0038915000000000048,0.7332085,0.059964,-0.1503815,0.5012285,0.028838000000000003,-0.25770150000000003,0.7268985,-0.04955899999999999,0.15530850000000002,0.4960685,0.049463,0.2701185,0.7322985,0.0020970000000000016,-0.2795415,0.9736585000000001,-0.140969,0.3008685,0.9742585,-0.074327,-0.0734365,0.0012365000000000015,-0.0018949999999999974,0.0734365,-0.0012365000000000015,0.0018950000000000009,-0.1272315,-0.4022215,-0.015807999999999996,0.1236385,-0.43949150000000003,0.019823,-0.1318915,-0.7654915,-0.029299,0.1347085,-0.7792815,-0.007403
42,0.004139000000000003,0.732683,0.059544,-0.150362,0.5024529999999999,0.029385,-0.257802,0.7278129999999999,-0.043241,0.154778,0.496263,0.049325,0.268808,0.7348129999999999,0.0077269999999999995,-0.280422,0.975353,-0.128573,0.299128,0.9767529999999999,-0.063468,-0.07341700000000001,0.0011970000000000036,-0.0018230000000000017,0.07341700000000001,-0.0011969999999999967,0.0018229999999999982,-0.127102,-0.40279699999999996,-0.015812,0.123868,-0.440207,0.019899,-0.13172199999999998,-0.766337,-0.029580000000000002,0.134878,-0.7800170000000001,-0.007256000000000002
43,0.004361500000000006,0.7321540000000001,0.059169,-0.1503255,0.503654,0.029933,-0.2579555,0.7282240000000001,-0.036799,0.1543145,0.49636399999999997,0.049223,0.2676045,0.737314,0.013054000000000001,-0.2812255,0.9764640000000001,-0.116982,0.2974145,0.979164,-0.05306,-0.0733925,0.0011569999999999983,-0.0017779999999999983,0.0733925,-0.0011569999999999983,0.0017780000000000018,-0.1269755,-0.403376,-0.015735,0.12406450000000001,-0.440886,0.019981000000000002,-0.1316255,-0.767126,-0.029609999999999997,0.1350945,-0.7807259999999999,-0.007126999999999998
44,0.004490499999999998,0.7317055,0.0588275,-0.15033649999999998,0.5045455,0.0303485,-0.2580865,0.7283455,-0.030135499999999996,0.15389350000000002,0.4966155,0.0491235,0.26624349999999997,0.7387155,0.0181745,-0.2823065,0.9780655,-0.1045465,0.2955635,0.9811654999999999,-0.0422925,-0.0733805,0.0011075000000000043,-0.0017304999999999994,0.0733805,-0.0011074999999999974,0.0017305000000000029,-0.12690649999999998,-0.4040145,-0.015663499999999997,0.1241635,-0.4414345,0.0200495,-0.1316465,-0.7678245,-0.0298745,0.13520349999999998,-0.7814045,-0.0070735
45,0.004554999999999995,0.731526,0.058161000000000004,-0.15056599999999998,0.504396,0.030706,-0.258276,0.727766,-0.023479,0.153474,0.496526,0.048922,0.26440400000000003,0.738866,0.023125,-0.283776,0.9793459999999999,-0.09201,0.293874,0.982946,-0.032515999999999996,-0.07338,0.0010249999999999981,-0.0016649999999999998,0.07338,-0.0010249999999999981,0.0016649999999999998,-0.12691600000000003,-0.404994,-0.015515999999999995,0.12421399999999999,-0.442004,0.020217000000000002,-0.131606,-0.769244,-0.030065,0.13519399999999998,-0.782134,-0.006924
46,0.0045785,0.7313965,0.0575575,-0.1508475,0.5040265,0.0309945,-0.2583975,0.7271765,-0.0172025,0.1531325,0.4964065,0.0486495,0.2630325,0.7387565,0.0276625,-0.2854575,0.9806865000000001,-0.0801805,0.2923625,0.9841865,-0.0236635,-0.0733915,0.0009465000000000029,-0.0015785,0.0733915,-0.0009465000000000029,0.0015785,-0.12694750000000002,-0.4057735,-0.015320499999999997,0.12425249999999999,-0.44243350000000004,0.0203905,-0.13160750000000002,-0.7705035,-0.030055500000000002,0.13518249999999998,-0.7827835,-0.0066844999999999995
47,0.0045825,0.7313775,0.057034,-0.15105449999999998,0.5035375000000001,0.031240999999999998,-0.2584445,0.7266975,-0.011318000000000002,0.1528755,0.4962975,0.048381,0.2616455,0.7388475,0.032091999999999996,-0.2871845,0.9824475,-0.06916,0.2909255,0.9855475000000001,-0.015774000000000003,-0.0734045,0.0008564999999999962,-0.0014760000000000016,0.0734045,-0.0008565000000000031,0.0014759999999999981,-0.1269745,-0.4064225,-0.015073000000000003,0.1243055,-0.44285250000000004,0.020551,-0.13161450000000002,-0.7714624999999999,-0.029998000000000004,0.13515549999999998,-0.7832925,-0.0063570000000000015
48,0.004549999999999995,0.731524,0.056646,-0.151103,0.502604,0.031386,-0.258483,0.726334,-0.006536,0.152717,0.49611400000000005,0.048102,0.26010700000000003,0.739174,0.035605,-0.288413,0.9840439999999999,-0.062346,0.289597,0.987244,-0.010438,-0.073419,0.000793000000000002,-0.0013319999999999999,0.073419,-0.0007929999999999951,0.0013319999999999999,-0.126963,-0.406946,-0.014765999999999998,0.12436699999999999,-0.443156,0.020756,-0.13144300000000003,-0.771856,-0.029534,0.135087,-0.783626,-0.005911
49,0.004439499999999998,0.731781,0.056369499999999996,-0.15119649999999998,0.501691,0.0315615,-0.2585965,0.7258209999999999,-0.0024445000000000022,0.1525535,0.495991,0.0477745,0.25881350000000003,0.738571,0.037253499999999995,-0.2897165,0.985631,-0.0556505,0.2881935,0.9889309999999999,-0.005650500000000003,-0.0734555,0.0007489999999999997,-0.0011605000000000018,0.0734555,-0.0007489999999999997,0.0011604999999999983,-0.12696649999999998,-0.407319,-0.014447500000000002,0.12439349999999999,-0.443529,0.020982499999999998,-0.1313365,-0.7719790000000001,-0.029110500000000004,0.1350035,-0.783849,-0.005701500000000002
50,0.004195000000000005,0.7321344999999999,0.056127,-0.151387,0.5007545,0.031734,-0.25881699999999996,0.7250945,0.001301,0.152333,0.49567449999999996,0.047433,0.25750300000000004,0.7378144999999999,0.038748000000000005,-0.29111699999999996,0.9865945,-0.049040999999999994,0.286733,0.9897944999999999,-0.0014429999999999998,-0.073489,0.0006824999999999956,-0.0010009999999999984,0.073489,-0.0006825000000000025,0.0010010000000000019,-0.127057,-0.4076455,-0.014131999999999999,0.124333,-0.44380549999999996,0.021159,-0.131317,-0.7716955000000001,-0.02858,0.13481300000000002,-0.7840255,-0.005503000000000001
51,0.003830999999999999,0.7326205,0.055961500000000004,-0.15164,0.4999405,0.031795500000000004,-0.25906999999999997,0.7247505,0.004650500000000002,0.15203999999999998,0.4952504999999999,0.0470445,0.25651,0.7374005,0.0402265,-0.29246,0.9866805,-0.0425335,0.28514,0.9915804999999999,0.0022065000000000036,-0.07356099999999999,0.0006135000000000029,-0.0008414999999999985,0.07356099999999999,-0.0006135000000000029,0.000841500000000002,-0.12719,-0.40797950000000005,-0.013811499999999997,0.12420999999999999,-0.44417949999999995,0.021311500000000004,-0.13133,-0.7710395,-0.028087499999999994,0.13457,-0.7841495,-0.005366499999999996
52,0.003366999999999998,0.7328405,0.056029,-0.15196600000000002,0.4999405,0.032034,-0.259406,0.7247505,0.0075,0.151674,0.4952504999999999,0.046819,0.255264,0.7375605,0.041537000000000004,-0.293636,0.9882805,-0.036574999999999996,0.283574,0.9929804999999999,0.005060000000000002,-0.07364499999999999,0.0006135000000000029,-0.0006659999999999999,0.07364499999999999,-0.0006135000000000029,0.0006659999999999999,-0.12729600000000002,-0.40797950000000005,-0.013698000000000002,0.124084,-0.44417949999999995,0.021423,-0.13126600000000002,-0.7710195000000001,-0.027826999999999998,0.134354,-0.7841495,-0.005267000000000001
53,0.002880999999999998,0.7330504999999999,0.0561035,-0.152335,0.4998405,0.0322775,-0.259815,0.7247505,0.0097165,0.151255,0.4952504999999999,0.046661499999999995,0.25465499999999996,0.7392004999999999,0.042493500000000003,-0.294505,0.9893804999999999,-0.0327895,0.282265,0.9936805000000001,0.0065865,-0.07373099999999999,0.0006135000000000029,-0.0004895000000000004,0.07373099999999999,-0.0006135000000000029,0.0004895000000000004,-0.127365,-0.40817950000000003,-0.0135705,0.123975,-0.44417949999999995,0.0215465,-0.131225,-0.7706095000000001,-0.027485500000000003,0.13414500000000001,-0.7841495,-0.005156500000000001
54,0.0024879999999999946,0.7331905,0.0561045,-0.15262,0.4995204999999999,0.0323345,-0.26024,0.7247405,0.011250499999999998,0.15084999999999998,0.4952305,0.0466555,0.25417,0.7404204999999999,0.043123499999999995,-0.29517,0.9894804999999999,-0.030171500000000004,0.28163,0.9938805000000001,0.0077564999999999995,-0.07378799999999999,0.0006135000000000029,-0.0004085000000000026,0.07378799999999999,-0.0006135000000000029,0.00040849999999999914,-0.12742,-0.40850949999999997,-0.013525500000000003,0.12389,-0.4441895,0.0214935,-0.13147,-0.7706095000000001,-0.027465500000000004,0.13399999999999998,-0.7841495,-0.0051715000000000025
55,0.002013999999999995,0.7336495000000001,0.0563505,-0.15290800000000002,0.4995095,0.032312499999999994,-0.26075800000000005,0.7246195000000001,0.013057499999999998,0.15046199999999998,0.49475949999999996,0.0466155,0.253602,0.7415295000000001,0.0443815,-0.29585799999999995,0.9897994999999999,-0.0271635,0.281042,0.9942995000000001,0.009640499999999998,-0.073837,0.0005194999999999991,-0.00040150000000000255,0.073837,-0.0005194999999999991,0.0004014999999999991,-0.127418,-0.4085205,-0.013582500000000004,0.123832,-0.4445905,0.021126499999999996,-0.131768,-0.7702905,-0.027494500000000005,0.133842,-0.7843205,-0.005687500000000002
56,0.001553499999999998,0.7339985,0.0566145,-0.15327249999999998,0.4995685,0.0329865,-0.2612525,0.7243085,0.0146845,0.15007749999999997,0.49431849999999994,0.0465555,0.2530575,0.7425385,0.045630500000000004,-0.2968325,0.9902084999999999,-0.0245885,0.2805375,0.9947085000000001,0.011407500000000001,-0.0738655,0.0004325000000000023,-0.000394499999999999,0.0738655,-0.0004324999999999954,0.000394499999999999,-0.1273625,-0.4085115,-0.013795500000000002,0.1238075,-0.4449715,0.0205885,-0.13200250000000002,-0.7699815,-0.027535499999999997,0.13370749999999998,-0.7844915,-0.006236499999999999
57,0.001108000000000004,0.734299,0.0571555,-0.153601,0.500519,0.0339435,-0.261601,0.724039,0.0158615,0.149729,0.49441900000000005,0.046547500000000006,0.252969,0.744619,0.0468345,-0.29778099999999996,0.990759,-0.022731499999999998,0.280119,0.9952590000000001,0.013012500000000001,-0.073868,0.0003919999999999965,-0.00027749999999999997,0.073868,-0.00039200000000000346,0.00027749999999999997,-0.127101,-0.40924099999999997,-0.0143035,0.123889,-0.44554099999999996,0.0195465,-0.132101,-0.770151,-0.028424500000000002,0.133739,-0.784741,-0.0070665
58,0.0006830000000000014,0.734511,0.057668000000000004,-0.15390299999999998,0.501391,0.034846,-0.26189300000000004,0.723721,0.016849000000000003,0.149397,0.494611,0.046526,0.252977,0.745991,0.047958,-0.29852300000000004,0.991131,-0.021279,0.279717,0.9957309999999999,0.014671000000000002,-0.07385900000000001,0.00035500000000000115,-9.99999999999994e-05,0.07385900000000001,-0.00035500000000000115,0.00010000000000000286,-0.126803,-0.409949,-0.014900999999999998,0.124007,-0.44621900000000003,0.018296,-0.131933,-0.770349,-0.029424,0.13378700000000002,-0.785079,-0.008027
59,0.0003310000000000036,0.7345404999999999,0.058075999999999996,-0.15415800000000002,0.5021105,0.035635,-0.26210799999999995,0.7232405,0.017599,0.149132,0.4950105,0.046437,0.253072,0.7467104999999999,0.048954,-0.299068,0.9911505,-0.020153000000000004,0.27950200000000003,0.9959505,0.016293,-0.07385900000000001,0.00036850000000000077,4.099999999999937e-05,0.07385900000000001,-0.00036850000000000077,-4.099999999999937e-05,-0.126418,-0.41062950000000004,-0.015647,0.124192,-0.4469595,0.016815999999999998,-0.131818,-0.7707895,-0.030391,0.13392199999999999,-0.7855895,-0.009027
60,3.1000000000001946e-05,0.734468,0.0582075,-0.15440500000000001,0.502998,0.036574499999999996,-0.262285,0.722738,0.0179375,0.148845,0.495398,0.0464375,0.253265,0.7473879999999999,0.0495725,-0.299425,0.9910279999999999,-0.0196135,0.27952499999999997,0.996028,0.017673499999999998,-0.07386100000000001,0.0003860000000000044,0.00018549999999999817,0.07386100000000001,-0.00038599999999999746,-0.00018550000000000164,-0.126005,-0.411772,-0.016641500000000004,0.12443499999999999,-0.44775200000000004,0.0150195,-0.131755,-0.771702,-0.0315835,0.134055,-0.786122,-0.0103685
61,-0.00021200000000000017,0.7343315,0.058063,-0.154608,0.5039315,0.037289,-0.262408,0.7223415,0.017956999999999997,0.148552,0.4958815,0.046386,0.253032,0.7466215,0.050414,-0.299688,0.9909715,-0.019441,0.279662,0.9959714999999999,0.018854999999999997,-0.073843,0.0004025000000000001,0.0003129999999999973,0.073843,-0.0004025000000000001,-0.0003130000000000008,-0.125528,-0.4129585,-0.017931000000000002,0.124712,-0.4484485,0.012862999999999998,-0.131648,-0.7726985,-0.033348,0.134132,-0.7866985,-0.011956000000000001
62,-0.0004325000000000008,0.7340895,0.057468,-0.1548355,0.5051395,0.037772,-0.2625055,0.7219595,0.017426999999999998,0.1483045,0.4964295,0.046112,0.25279450000000003,0.7471395,0.050999,-0.2998755,0.9908495,-0.019894000000000002,0.2800045,0.9959494999999999,0.019665,-0.0737765,0.0004215000000000052,0.0005590000000000005,0.0737765,-0.00042149999999999826,-0.0005590000000000005,-0.1250155,-0.4142805,-0.01976,0.1250445,-0.4491405,0.010124,-0.1315555,-0.7740705,-0.035503,0.13424450000000002,-0.7873705000000001,-0.014100000000000001
63,-0.000639500000000001,0.7338155,0.0565175,-0.15514050000000001,0.5065655,0.0381895,-0.2626105,0.7217155,0.0164675,0.1480395,0.4970255,0.045636499999999997,0.2529295,0.7466955,0.0511975,-0.3000005,0.9908454999999999,-0.0209275,0.2803795,0.9960455,0.0200825,-0.0736745,0.00044750000000000345,0.0007234999999999984,0.0736745,-0.0004474999999999965,-0.0007235000000000019,-0.12450050000000001,-0.4154445,-0.022017500000000002,0.1253395,-0.4496545,0.007058499999999999,-0.1314705,-0.7752945,-0.0385025,0.1343195,-0.7879945,-0.0165885
64,-0.0007799999999999973,0.7338155,0.054882,-0.155416,0.5074355,0.038187,-0.262746,0.7217155,0.014834,0.147814,0.4970255,0.044844,0.252954,0.7469555,0.050516,-0.300106,0.9908454999999999,-0.02286,0.280884,0.9960455,0.01947,-0.073585,0.00044750000000000345,0.0008890000000000009,0.073585,-0.0004474999999999965,-0.0008890000000000009,-0.12404599999999999,-0.4160845,-0.024355,0.125584,-0.4496545,0.004017,-0.131306,-0.7761745,-0.041497,0.134404,-0.7879945,-0.018874000000000002
65,-0.0008729999999999988,0.7337555,0.0530065,-0.155626,0.5083255,0.037559499999999996,-0.262826,0.7217155,0.013011499999999999,0.147604,0.4970255,0.0439395,0.253404,0.7476055,0.0496065,-0.300166,0.9908454999999999,-0.0250685,0.281494,0.9960455,0.0186225,-0.07348299999999999,0.00044750000000000345,0.0010565000000000001,0.07348299999999999,-0.0004474999999999965,-0.0010565000000000001,-0.123636,-0.4166745,-0.0268645,0.125894,-0.4496545,0.0007774999999999987,-0.131236,-0.7765745,-0.0446315,0.134504,-0.7879945,-0.0214395
66,-0.0010250000000000012,0.7339205,0.05106,-0.155909,0.5086805,0.036834000000000006,-0.262929,0.7219504999999999,0.010611,0.147311,0.4971405,0.043083,0.254011,0.7463505,0.048557,-0.300259,0.9910804999999999,-0.027468,0.282101,0.9962805,0.01747,-0.073391,0.0003635000000000027,0.001242,0.073391,-0.00036349999999999577,-0.001242,-0.123379,-0.4165195,-0.029495,0.126131,-0.4494195,-0.0023309999999999997,-0.131189,-0.7768295000000001,-0.047638,0.134511,-0.7877595000000001,-0.024203999999999996
67,-0.0012450000000000026,0.733823,0.048827999999999996,-0.156256,0.508713,0.03611,-0.263046,0.7218330000000001,0.008248,0.14693399999999998,0.497853,0.042062999999999996,0.254534,0.746253,0.047126999999999995,-0.300326,0.990983,-0.03039,0.282704,0.996483,0.015805,-0.073275,0.00030400000000000565,0.0014430000000000007,0.073275,-0.0003039999999999987,-0.0014429999999999998,-0.123196,-0.416797,-0.03259,0.126404,-0.449117,-0.005703,-0.131106,-0.777357,-0.051064,0.134514,-0.787627,-0.027344
68,-0.0015450000000000017,0.733823,0.046441500000000004,-0.156563,0.508563,0.0352815,-0.263253,0.722373,0.005003499999999999,0.146617,0.49811300000000003,0.0410265,0.25487699999999996,0.745073,0.0456415,-0.300443,0.9911829999999999,-0.033806499999999996,0.28334699999999996,0.996783,0.013797499999999999,-0.07317399999999999,0.00030400000000000565,0.0015954999999999997,0.07317399999999999,-0.0003039999999999987,-0.0015955000000000006,-0.12318300000000001,-0.416797,-0.0361555,0.126677,-0.448557,-0.0094885,-0.131113,-0.777757,-0.0548975,0.13450700000000002,-0.7874369999999999,-0.0310145
69,-0.001919499999999998,0.733213,0.0440915,-0.15688649999999998,0.508563,0.0341665,-0.2636365,0.7230530000000001,0.0014665,0.1461435,0.49811300000000003,0.0399465,0.2551135,0.743783,0.0441215,-0.30064650000000004,0.9911829999999999,-0.037524499999999995,0.2840735,0.996983,0.0116575,-0.0730925,0.00030400000000000565,0.0017035,0.0730925,-0.0003039999999999987,-0.0017035,-0.1232665,-0.416537,-0.0405055,0.1270635,-0.447407,-0.0145495,-0.1313565,-0.777757,-0.059143499999999995,0.1344535,-0.787337,-0.035324499999999995
70,-0.0023940000000000033,0.732243,0.04196950000000001,-0.157282,0.508563,0.0333055,-0.264042,0.722983,-0.0014835,0.145618,0.49811300000000003,0.0390615,0.255318,0.7424930000000001,0.0422245,-0.300912,0.9911829999999999,-0.0410745,0.28477800000000003,0.996983,0.0096545,-0.07303599999999999,0.00030400000000000565,0.0017805,0.07303599999999999,-0.0003039999999999987,-0.0017805,-0.12346200000000002,-0.416277,-0.0451105,0.127338,-0.445897,-0.0199715,-0.131732,-0.777927,-0.0630105,0.134418,-0.787177,-0.039441500000000004
71,-0.002870500000000003,0.730725,0.040389999999999995,-0.1576795,0.508475,0.032796000000000006,-0.2644495,0.723015,-0.003953,0.1451405,0.498235,0.038701,0.2555005,0.740915,0.040567000000000006,-0.3011795,0.9913049999999999,-0.044241,0.2853105,0.9971049999999999,0.007942000000000001,-0.07304050000000001,0.00022300000000000098,0.0017410000000000004,0.07304050000000001,-0.00022300000000000098,-0.0017409999999999995,-0.1235495,-0.415385,-0.050829,0.1275705,-0.444025,-0.025776,-0.13212949999999998,-0.7780750000000001,-0.066589,0.1343705,-0.786915,-0.043196
72,-0.0032919999999999968,0.7292015000000001,0.0391305,-0.158058,0.5076915000000001,0.032396499999999995,-0.264848,0.7221915,-0.005556500000000001,0.144752,0.49830150000000006,0.038787499999999996,0.255652,0.7392815,0.039271499999999994,-0.30136799999999997,0.9910415,-0.047218500000000004,0.285802,0.9976415,0.0063434999999999984,-0.073091,0.00011749999999999955,0.0017605,0.073091,-0.00011749999999999955,-0.0017605000000000008,-0.123588,-0.4138985,-0.0568485,0.127802,-0.44171849999999996,-0.0318405,-0.132408,-0.7780985,-0.0708835,0.134322,-0.7863585,-0.046684500000000004
73,-0.0037040000000000024,0.7276065,0.038044,-0.158321,0.5066865,0.031509999999999996,-0.265181,0.7205965000000001,-0.007026,0.144529,0.4981165,0.03822,0.255849,0.7377665,0.038135999999999996,-0.301241,0.9899765,-0.05002,0.286289,0.9985765,0.004853000000000001,-0.07313900000000001,-1.9499999999998685e-05,0.0017560000000000006,0.07313900000000001,1.9499999999998685e-05,-0.0017560000000000006,-0.123551,-0.4118835,-0.063299,0.128079,-0.4389435,-0.038405,-0.132541,-0.7782435,-0.074791,0.134299,-0.7853835,-0.050004
74,-0.0041465000000000035,0.726121,0.0370985,-0.15856150000000002,0.505531,0.0301115,-0.2656215,0.7193309999999999,-0.0084025,0.1443285,0.497541,0.0371635,0.2555985,0.737451,0.0371245,-0.30111150000000003,0.989251,-0.0526745,0.2866785,0.9998509999999999,0.0033795000000000006,-0.0732305,-0.00017299999999999954,0.0017145000000000007,0.0732305,0.00017300000000000648,-0.0017145000000000007,-0.1235215,-0.409219,-0.0699225,0.1282585,-0.43571899999999997,-0.0451095,-0.1326315,-0.777509,-0.0790275,0.1342185,-0.783859,-0.0531935
75,-0.004517999999999998,0.724487,0.036178,-0.15872799999999998,0.504287,0.028817,-0.266038,0.718387,-0.009672999999999998,0.144232,0.497027,0.035849000000000006,0.255202,0.737477,0.036285,-0.300848,0.9887670000000001,-0.055177000000000004,0.287082,1.0014669999999999,0.0019340000000000017,-0.07331599999999999,-0.0003480000000000011,0.0015960000000000002,0.07331599999999999,0.0003480000000000011,-0.0015959999999999985,-0.123478,-0.406253,-0.07672,0.128532,-0.432283,-0.05201599999999999,-0.132798,-0.776533,-0.082811,0.134132,-0.7820429999999999,-0.056314
76,-0.004818999999999999,0.722732,0.035571000000000005,-0.158926,0.503152,0.028280000000000003,-0.266316,0.7168420000000001,-0.010605,0.144094,0.49625199999999997,0.03612800000000001,0.254874,0.737352,0.035828,-0.30036599999999997,0.987822,-0.057228,0.287494,1.0025220000000001,0.0009230000000000002,-0.073391,-0.0004860000000000003,0.0014260000000000002,0.073391,0.0004860000000000003,-0.0014260000000000002,-0.12346599999999999,-0.40322800000000003,-0.083456,0.128724,-0.428968,-0.05884,-0.133276,-0.775488,-0.08641399999999999,0.13378400000000001,-0.779998,-0.059023000000000006
77,-0.005023499999999995,0.7207705,0.035178999999999995,-0.1591005,0.5022304999999999,0.027947,-0.2664705,0.7153404999999999,-0.011118000000000001,0.1440095,0.4955205,0.036516,0.2547095,0.7369005,0.035448,-0.2997505,0.9869805,-0.058731,0.2878495,1.0036805,0.00022599999999999704,-0.0734775,-0.0006255000000000011,0.0012899999999999995,0.0734775,0.0006255000000000011,-0.001290000000000003,-0.1234005,-0.4000995,-0.090117,0.12899950000000002,-0.4253395,-0.065409,-0.1336105,-0.7739295,-0.089389,0.1335095,-0.7775395,-0.061296
78,-0.0050885,0.7189435,0.034793000000000004,-0.1592665,0.5019534999999999,0.027798000000000003,-0.2664465,0.7135935,-0.011402999999999998,0.14404350000000002,0.49513350000000006,0.036987,0.2548635,0.7356834999999999,0.035174000000000004,-0.2989065,0.9860335,-0.059911,0.2882435,1.0042335,-0.00032699999999999743,-0.07351750000000001,-0.0006484999999999998,0.0011210000000000005,0.07351750000000001,0.0006485000000000032,-0.001120999999999997,-0.12324650000000001,-0.39709649999999996,-0.09671199999999999,0.12933350000000002,-0.4218865,-0.071247,-0.13362649999999998,-0.7719665,-0.09184999999999999,0.1333235,-0.7748165,-0.063098
79,-0.004895500000000001,0.7174455,0.034286500000000004,-0.1590185,0.5007955,0.027685500000000002,-0.2660585,0.7115055,-0.011666499999999998,0.1442315,0.4938755,0.0373675,0.2549315,0.7341555,0.0348155,-0.2976885,0.9852055000000001,-0.061087499999999996,0.2887915,1.0043055,-0.0009954999999999999,-0.0735595,-0.0006245000000000001,0.000959500000000002,0.0735595,0.0006245000000000001,-0.0009594999999999985,-0.1232385,-0.3935445,-0.1037015,0.1296115,-0.41825450000000003,-0.0769285,-0.1335685,-0.7693045000000001,-0.0939305,0.1330915,-0.7716745,-0.06493750000000001
80,-0.004603499999999999,0.7164855,0.033625,-0.1586855,0.5000255,0.027562,-0.2656655,0.7095855,-0.011978,0.1443745,0.4929255,0.037856,0.2551245,0.7330455,0.034331,-0.2963055,0.9843554999999999,-0.062169,0.2894945,1.0044555,-0.001968000000000001,-0.0735275,-0.000616499999999999,0.0008879999999999999,0.0735275,0.000616499999999999,-0.0008879999999999999,-0.1232755,-0.3882045,-0.109578,0.1302145,-0.4138945,-0.082269,-0.1337955,-0.7652545000000001,-0.096372,0.1332145,-0.7676245,-0.066629
81,-0.004371499999999999,0.715691,0.0329235,-0.1583805,0.499661,0.027463500000000002,-0.2653605,0.709691,-0.0129145,0.1444695,0.49228099999999997,0.0382585,0.2555595,0.732451,0.033778499999999996,-0.2956005,0.984591,-0.0632755,0.2902195,1.004891,-0.0029075000000000004,-0.07351150000000001,-0.0005890000000000027,0.0007425000000000001,0.07351150000000001,0.0005889999999999992,-0.0007425000000000001,-0.1234005,-0.38376899999999997,-0.11555850000000001,0.1302395,-0.40945899999999996,-0.08751149999999999,-0.1339205,-0.761439,-0.0976195,0.1328895,-0.763189,-0.06808449999999999
82,-0.004189499999999999,0.7161355,0.0314425,-0.1579885,0.5007355,0.0267565,-0.2654085,0.7118355000000001,-0.0146435,0.1447215,0.49295550000000005,0.0378285,0.2562515,0.7333555,0.032155500000000004,-0.2950085,0.9868555,-0.0650925,0.2910515,1.0063555,-0.004511499999999998,-0.0734725,-0.0006005000000000003,0.0007664999999999998,0.0734725,0.0006005000000000003,-0.0007664999999999998,-0.1234385,-0.3778045,-0.1220845,0.13035149999999998,-0.4034945,-0.0931375,-0.1339985,-0.7562144999999999,-0.0993415,0.1327215,-0.7575445,-0.0704405
83,-0.0038299999999999944,0.7165885000000001,0.029815,-0.157376,0.5006385000000001,0.025879,-0.265196,0.7134885000000001,-0.01629,0.145144,0.4942085,0.03729500000000001,0.257184,0.7318385000000001,0.030602000000000004,-0.294366,0.9886085,-0.066855,0.292274,1.0033984999999999,-0.0065149999999999965,-0.073456,-0.0007505000000000003,0.0006440000000000022,0.073456,0.0007504999999999994,-0.0006439999999999987,-0.123106,-0.3725015,-0.12995600000000002,0.130974,-0.3974015,-0.100318,-0.134036,-0.7504114999999999,-0.101826,0.132724,-0.7516714999999999,-0.072689
84,-0.0035764999999999963,0.7167015,0.028219,-0.1566995,0.5004215,0.024942000000000006,-0.2649895,0.7146715,-0.017891999999999998,0.1455805,0.49528150000000004,0.036487,0.25806049999999997,0.7302314999999999,0.029087000000000002,-0.2937695,0.9851515,-0.069721,0.2933905,0.9996915000000001,-0.008745999999999997,-0.0734425,-0.0008485000000000001,0.0005360000000000018,0.0734425,0.0008484999999999999,-0.0005359999999999983,-0.1230695,-0.3683785,-0.13816799999999999,0.1316905,-0.39209849999999996,-0.10752600000000001,-0.1337795,-0.7444185,-0.103351,0.1326905,-0.7460385,-0.075093
85,-0.003362999999999998,0.7149465,0.026567499999999997,-0.15659599999999999,0.49982649999999995,0.0236625,-0.26474600000000004,0.7149865000000001,-0.0198215,0.145754,0.4968165,0.03515249999999999,0.25896399999999997,0.7277865,0.0274915,-0.293366,0.9821265,-0.0728235,0.29465399999999997,0.9958665,-0.011578500000000002,-0.073448,-0.0009984999999999994,0.0005805000000000012,0.073448,0.0009985000000000003,-0.0005805000000000012,-0.123316,-0.36482349999999997,-0.1471295,0.132494,-0.3864835,-0.1153605,-0.13350599999999999,-0.7377334999999999,-0.1045235,0.132664,-0.7398334999999999,-0.07771650000000001
86,-0.003083499999999999,0.7130195,0.0247695,-0.1563765,0.49953949999999997,0.0220365,-0.2646765,0.7151695,-0.0227225,0.1460235,0.4962695,0.0334395,0.2593035,0.7258495,0.0252265,-0.2928465,0.9799995,-0.0765005,0.2955435,0.9928095,-0.015399500000000003,-0.07341349999999999,-0.0010745000000000008,0.0005565000000000014,0.07341349999999999,0.001074499999999999,-0.0005565000000000014,-0.1235665,-0.36026050000000004,-0.15572750000000002,0.1335335,-0.37947050000000004,-0.12319050000000001,-0.1332465,-0.7288205,-0.1061705,0.1328935,-0.7318605,-0.08036650000000001
87,-0.002748999999999996,0.71128,0.022764999999999994,-0.15609800000000001,0.49961,0.020116999999999996,-0.26473800000000003,0.7154600000000001,-0.025900000000000006,0.146352,0.49573,0.03148999999999999,0.259712,0.7249500000000001,0.022599999999999995,-0.292238,0.9781000000000001,-0.080564,0.296192,0.98877,-0.019781000000000007,-0.07339799999999999,-0.0011940000000000006,0.000446999999999996,0.07339799999999999,0.0011940000000000006,-0.00044700000000000295,-0.12389800000000001,-0.35613,-0.163966,0.134622,-0.37236,-0.131058,-0.132928,-0.71863,-0.10805300000000001,0.13317199999999998,-0.72383,-0.08344700000000001
88,-0.0023954999999999983,0.710215,0.020518500000000002,-0.1556355,0.498515,0.018322500000000005,-0.2649555,0.715425,-0.029402499999999998,0.1465445,0.494865,0.029660500000000006,0.2603445,0.725205,0.019512500000000002,-0.29160549999999996,0.977435,-0.08534249999999999,0.2971045,0.980285,-0.025065499999999998,-0.0734605,-0.0014940000000000023,0.0002075000000000063,0.0734605,0.0014939999999999953,-0.00020749999999999935,-0.1240155,-0.35074500000000003,-0.1720005,0.1359245,-0.364105,-0.1393705,-0.1327855,-0.706535,-0.11053249999999999,0.1338445,-0.714675,-0.0871525
89,-0.0024430000000000025,0.7090995,0.017953000000000004,-0.15551700000000002,0.4974695,0.016493,-0.26509699999999997,0.7137095,-0.033173999999999995,0.146443,0.4945595,0.027802,0.260873,0.7228794999999999,0.016234,-0.29201699999999997,0.9693395,-0.092095,0.298123,0.9723895,-0.030278,-0.073547,-0.001732499999999998,-0.00011900000000000105,0.073547,0.001732499999999998,0.00011900000000000105,-0.123997,-0.3439605,-0.180201,0.13737300000000002,-0.3546505,-0.147101,-0.13299699999999998,-0.6924904999999999,-0.113652,0.134683,-0.7033905,-0.090981
90,-0.002742000000000005,0.7074845,0.015053999999999998,-0.155491,0.4968345,0.014533999999999998,-0.26532100000000003,0.7118445,-0.037488,0.14619899999999997,0.4944445,0.025807999999999998,0.261159,0.7206245,0.012590999999999998,-0.29259100000000005,0.9620345,-0.099129,0.299259,0.9649145,-0.03658,-0.073655,-0.0019915,-0.00033099999999999796,0.073655,0.0019915,0.00033099999999999796,-0.124041,-0.3364755,-0.188432,0.13919900000000002,-0.3451355,-0.155362,-0.133071,-0.6779755,-0.117408,0.135619,-0.6913355,-0.095153
91,-0.0034819999999999973,0.7050974999999999,0.012514999999999998,-0.156,0.49424749999999995,0.012914999999999996,-0.26497000000000004,0.7096075,-0.041749,0.14537,0.4921875,0.024318999999999993,0.26107,0.7183775,0.008890999999999996,-0.29362,0.9555275,-0.10625,0.29984,0.9578875,-0.043148000000000006,-0.074006,-0.0021395000000000025,-0.000686000000000006,0.074006,0.0021395000000000025,0.0006859999999999991,-0.12444999999999999,-0.3251125,-0.196742,0.14126,-0.33223250000000004,-0.163682,-0.13316,-0.6628925,-0.120092,0.13668,-0.6788425,-0.098724
92,-0.004477999999999995,0.7021665,0.009488999999999997,-0.156461,0.4927665,0.010636,-0.264571,0.7075965,-0.046758,0.144379,0.4892965,0.022356,0.26071900000000003,0.7178165,0.004274999999999994,-0.294961,0.9505565,-0.114344,0.30001900000000004,0.9559265,-0.049901,-0.074316,-0.0022664999999999907,-0.001025000000000005,0.074316,0.0022665000000000046,0.0010249999999999981,-0.125131,-0.3126135,-0.20443299999999998,0.143209,-0.3184535,-0.170883,-0.133231,-0.6477735,-0.122768,0.13772900000000002,-0.6654935,-0.102674
93,-0.005511500000000001,0.699478,0.004961999999999994,-0.1567595,0.491678,0.006752999999999995,-0.2640095,0.705048,-0.053275,0.1432805,0.48709800000000003,0.01868299999999999,0.2603205,0.717518,-0.002016000000000004,-0.2957095,0.951608,-0.123298,0.2999605,0.955418,-0.05831700000000001,-0.0745995,-0.0024019999999999875,-0.0008570000000000036,0.0745995,0.0024020000000000014,0.0008569999999999967,-0.1255895,-0.297512,-0.213892,0.1458805,-0.302542,-0.179572,-0.1334195,-0.631722,-0.127158,0.1391505,-0.650432,-0.107615
94,-0.006211499999999999,0.70062,-0.0005289999999999948,-0.15699849999999999,0.49031,0.0012950000000000045,-0.2640785,0.70229,-0.060267,0.14246150000000002,0.48534999999999995,0.014226000000000003,0.2596715,0.7183,-0.009299999999999996,-0.29620850000000004,0.95147,-0.13300499999999998,0.2995315,0.95728,-0.067861,-0.0748295,-0.0025600000000000067,-0.0015879999999999991,0.0748295,0.002559999999999993,0.0015879999999999991,-0.1255585,-0.27961,-0.226809,0.1496315,-0.28417000000000003,-0.193189,-0.1330385,-0.61212,-0.132124,0.1398315,-0.63133,-0.11130999999999999
95,-0.0067805000000000035,0.7018899999999999,-0.0081255,-0.15715849999999998,0.48858999999999997,-0.006378500000000002,-0.26421849999999997,0.6999899999999999,-0.0686995,0.14185150000000002,0.48584,0.007630499999999998,0.2593415,0.7188699999999999,-0.018439500000000004,-0.2966585,0.9504999999999999,-0.1448465,0.2989315,0.9584699999999999,-0.0791365,-0.0750055,-0.0027800000000000047,-0.0019074999999999995,0.0750055,0.0027800000000000047,0.0019074999999999995,-0.12535849999999998,-0.26343,-0.2421775,0.15214149999999999,-0.26762,-0.2076575,-0.1325485,-0.5962400000000001,-0.1373475,0.1399315,-0.61392,-0.11539550000000001
96,-0.0074225,0.70298,-0.016229,-0.15724950000000001,0.48644,-0.014695,-0.2644395,0.69696,-0.077736,0.1411805,0.48636,0.0003840000000000024,0.2588605,0.71899,-0.028106,-0.2971995,0.94873,-0.157192,0.2979805,0.95864,-0.090792,-0.0751445,-0.003119999999999984,-0.0023889999999999953,0.0751445,0.0031200000000000117,0.0023890000000000022,-0.1251595,-0.24816,-0.257862,0.1561505,-0.25186,-0.224132,-0.1318095,-0.57928,-0.145036,0.14084049999999998,-0.59676,-0.1224
97,-0.008177500000000006,0.703025,-0.024873500000000007,-0.1568255,0.486745,-0.02350350000000001,-0.26458550000000003,0.6958249999999999,-0.08762450000000001,0.1406945,0.486405,-0.007569500000000007,0.25801450000000004,0.718955,-0.038541500000000006,-0.29875549999999995,0.944545,-0.1708705,0.29696449999999996,0.9644349999999999,-0.1024785,-0.0753225,-0.003145000000000009,-0.0030645000000000117,0.0753225,0.003144999999999981,0.0030644999999999978,-0.1250955,-0.232425,-0.27433050000000003,0.1605645,-0.235305,-0.2415805,-0.1305855,-0.561005,-0.1536635,0.14181449999999998,-0.5779050000000001,-0.13019750000000002
98,-0.008737500000000002,0.702885,-0.033020999999999995,-0.15612749999999997,0.487385,-0.031750999999999995,-0.2651475,0.6963950000000001,-0.09717699999999999,0.14032250000000002,0.486015,-0.015044999999999989,0.2577825,0.721325,-0.04867099999999999,-0.29943749999999997,0.948205,-0.182261,0.29592250000000003,0.968955,-0.114064,-0.0756165,-0.0030749999999999944,-0.003603999999999996,0.0756165,0.0030749999999999944,0.00360400000000001,-0.1252875,-0.218505,-0.29000099999999995,0.16458250000000002,-0.22053499999999998,-0.257961,-0.1295675,-0.5447850000000001,-0.161725,0.14266250000000003,-0.5606850000000001,-0.13749699999999998
99,-0.009027999999999998,0.70377,-0.0411895,-0.15530100000000002,0.48605,-0.04045749999999999,-0.266001,0.69554,-0.1065265,0.140179,0.48575,-0.022675499999999994,0.257609,0.72369,-0.058851499999999994,-0.300041,0.95179,-0.1935645,0.295089,0.97326,-0.12513049999999998,-0.075811,-0.003239999999999993,-0.003993499999999997,0.075811,0.0032400000000000206,0.003993500000000011,-0.125241,-0.20343,-0.3056145,0.168599,-0.20503,-0.2740845,-0.12839099999999998,-0.5282,-0.1694395,0.143689,-0.54245,-0.14497949999999998
100,-0.009120999999999997,0.7036100000000001,-0.0494105,-0.15431199999999998,0.48564,-0.049198500000000006,-0.266852,0.69506,-0.1160425,0.14003800000000002,0.48608,-0.0306895,0.257618,0.72556,-0.06876950000000001,-0.300902,0.95446,-0.2054225,0.294468,0.97663,-0.1352945,-0.07603399999999999,-0.003380000000000022,-0.004569500000000004,0.07603399999999999,0.003379999999999994,0.00456949999999999,-0.12499199999999999,-0.18774000000000002,-0.3205525,0.172298,-0.1891,-0.28949250000000004,-0.127182,-0.51221,-0.1771325,0.14472800000000002,-0.52366,-0.1520725
101,-0.0089955,0.7040200000000001,-0.057503,-0.1533625,0.48527000000000003,-0.057768,-0.26788249999999997,0.69489,-0.125256,0.1401075,0.48696000000000006,-0.03874,0.2578575,0.72806,-0.078188,-0.3016425,0.9561600000000001,-0.216688,0.2940875,0.9778,-0.145024,-0.0762255,-0.003479999999999983,-0.005191000000000001,0.0762255,0.003480000000000011,0.005191000000000001,-0.12464250000000002,-0.17251,-0.334598,0.1758575,-0.17356,-0.304198,-0.1254825,-0.49809,-0.184548,0.1453175,-0.5057099999999999,-0.158804
102,-0.008485000000000003,0.70479,-0.0656475,-0.152241,0.48417,-0.06641449999999999,-0.26927100000000004,0.6966,-0.1351615,0.140359,0.48654,-0.04695049999999999,0.25831899999999997,0.72953,-0.0877135,-0.30253100000000005,0.95291,-0.22784849999999998,0.293909,0.97787,-0.1544145,-0.076325,-0.003540000000000043,-0.005681499999999992,0.076325,0.0035399999999999876,0.005681500000000006,-0.12415099999999998,-0.15718000000000004,-0.3475385,0.179429,-0.15775,-0.3183785,-0.12371099999999999,-0.48394000000000004,-0.1917785,0.145979,-0.48836999999999997,-0.1654995
103,-0.008740000000000001,0.703705,-0.0690075,-0.151676,0.48341500000000004,-0.0700075,-0.27127599999999996,0.700385,-0.14079950000000002,0.139734,0.485815,-0.050639500000000004,0.25824400000000003,0.7314050000000001,-0.0921275,-0.304196,0.951295,-0.23439350000000003,0.29327400000000003,0.976235,-0.1585585,-0.076473,-0.0035949999999999593,-0.0059665,0.076473,0.003595000000000015,0.0059665,-0.124466,-0.143235,-0.3520535,0.180684,-0.14386499999999997,-0.32281350000000003,-0.12262600000000001,-0.47248499999999993,-0.1937705,0.145664,-0.47377499999999995,-0.1667075
104,-0.008893999999999996,0.702755,-0.0723305,-0.151038,0.48245499999999997,-0.0736335,-0.272848,0.7036849999999999,-0.1466915,0.139042,0.484965,-0.0543575,0.257832,0.730555,-0.09664350000000001,-0.305548,0.9496549999999999,-0.2407435,0.29277200000000003,0.9742449999999999,-0.1624865,-0.07656,-0.0036650000000000293,-0.006176500000000001,0.07656,0.003664999999999974,0.0061764999999999876,-0.12458799999999999,-0.12946500000000005,-0.3563835,0.18187199999999998,-0.13009500000000002,-0.32709350000000004,-0.12150799999999999,-0.460565,-0.1964205,0.14545200000000003,-0.46006500000000006,-0.16886050000000002
105,-0.008888499999999997,0.7014,-0.07594949999999999,-0.1501795,0.4816499999999999,-0.0774245,-0.2741595,0.70658,-0.15310649999999998,0.13841050000000002,0.48249,-0.058562499999999997,0.2572505,0.7293499999999999,-0.1011435,-0.3067595,0.9490099999999999,-0.2472065,0.2925105,0.97393,-0.16665549999999998,-0.07665849999999999,-0.0034700000000000286,-0.006493499999999999,0.07665849999999999,0.003469999999999973,0.006493500000000013,-0.12469949999999999,-0.11452000000000007,-0.3608065,0.1830405,-0.11515000000000003,-0.33125649999999995,-0.12074949999999998,-0.44713,-0.1974095,0.14507050000000002,-0.4452600000000001,-0.1718715
106,-0.008296999999999999,0.7005049999999999,-0.07930300000000001,-0.149438,0.48014499999999993,-0.081125,-0.275078,0.7081649999999999,-0.158826,0.138402,0.4822949999999999,-0.062356,0.257012,0.7275849999999999,-0.104835,-0.306548,0.949885,-0.252095,0.292532,0.972545,-0.170445,-0.07686799999999999,-0.003505000000000036,-0.0068050000000000055,0.07686799999999999,0.0035049999999999804,0.006804999999999992,-0.12414799999999998,-0.10544500000000007,-0.364215,0.18396200000000001,-0.10617500000000002,-0.334155,-0.120258,-0.43635500000000005,-0.198854,0.145292,-0.4329050000000001,-0.173742
107,-0.007633999999999998,0.699745,-0.082819,-0.148695,0.47867499999999996,-0.085011,-0.27573499999999995,0.709205,-0.164577,0.13836500000000002,0.482275,-0.066268,0.25666500000000003,0.7249749999999999,-0.10855,-0.306415,0.9498949999999999,-0.25732,0.292655,0.9717049999999999,-0.174341,-0.077102,-0.0036550000000000193,-0.007099999999999995,0.077102,0.003654999999999964,0.007100000000000009,-0.123585,-0.09567500000000001,-0.36761999999999995,0.184785,-0.09635500000000002,-0.33704,-0.119415,-0.424465,-0.20074399999999998,0.144605,-0.420675,-0.176097
108,-0.006937000000000002,0.69773,-0.086273,-0.14799600000000002,0.4774999999999999,-0.088573,-0.27495600000000003,0.71146,-0.169562,0.138464,0.48139,-0.070049,0.25630400000000003,0.72224,-0.111872,-0.305916,0.94973,-0.261985,0.292814,0.9711099999999999,-0.177934,-0.07733899999999999,-0.0035800000000000276,-0.007445000000000007,0.07733899999999999,0.003579999999999972,0.007444999999999993,-0.12295600000000001,-0.08605000000000002,-0.370425,0.185424,-0.08698000000000006,-0.339335,-0.118926,-0.41278000000000004,-0.20249899999999998,0.142154,-0.41369,-0.18469200000000002
109,-0.006380499999999997,0.6961550000000001,-0.08945600000000001,-0.14728349999999998,0.475835,-0.09192,-0.2742535,0.711795,-0.173712,0.1388365,0.480815,-0.073366,0.2557565,0.718575,-0.11518300000000001,-0.3053335,0.9490850000000001,-0.265345,0.2928565,0.969935,-0.181567,-0.07762949999999999,-0.0035949999999999593,-0.007585000000000008,0.07762949999999999,0.003595000000000015,0.0075849999999999945,-0.12250349999999999,-0.07637499999999997,-0.372645,0.1858765,-0.07809499999999997,-0.341445,-0.11800349999999998,-0.40215499999999993,-0.204413,0.1380965,-0.40756499999999996,-0.19054500000000002
110,-0.005985000000000001,0.694585,-0.092448,-0.14672600000000002,0.474385,-0.095205,-0.27368600000000004,0.710865,-0.177678,0.138974,0.479965,-0.07661899999999999,0.255074,0.714955,-0.11824899999999999,-0.305296,0.948165,-0.26885499999999996,0.29281399999999996,0.970465,-0.184883,-0.077933,-0.0035450000000000204,-0.007724999999999996,0.077933,0.003544999999999965,0.00772500000000001,-0.12219600000000001,-0.06576500000000002,-0.374595,0.18618400000000002,-0.06865500000000002,-0.343375,-0.11731599999999999,-0.39122500000000004,-0.205759,0.133764,-0.40112499999999995,-0.19573000000000002
111,-0.0055650000000000005,0.692245,-0.09498900000000002,-0.146085,0.473125,-0.098027,-0.27327500000000005,0.7067950000000001,-0.18082,0.139275,0.479995,-0.07933300000000001,0.254545,0.711545,-0.12072300000000001,-0.30523500000000003,0.949335,-0.271465,0.29290499999999997,0.971075,-0.187756,-0.078047,-0.0036049999999999693,-0.007805000000000006,0.078047,0.003605000000000025,0.0078049999999999925,-0.121865,-0.055684999999999985,-0.37604499999999996,0.186515,-0.05995499999999998,-0.344945,-0.116865,-0.380715,-0.208294,0.129445,-0.395505,-0.200517
112,-0.0050785,0.690105,-0.097463,-0.1455235,0.47151200000000004,-0.10065299999999999,-0.27272349999999995,0.702465,-0.183057,0.1395265,0.479335,-0.08188899999999999,0.2542665,0.708035,-0.123095,-0.3048835,0.9503550000000001,-0.273655,0.2930665,0.970235,-0.190329,-0.0781175,-0.0036149999999999793,-0.007834999999999995,0.0781175,0.003615000000000035,0.007834999999999995,-0.12144350000000001,-0.04525499999999999,-0.37709499999999996,0.1867565,-0.051035,-0.346255,-0.1173235,-0.37097499999999994,-0.210125,0.1241565,-0.391455,-0.20949099999999998
113,-0.004737499999999995,0.6880149999999999,-0.09991699999999999,-0.14518350000000002,0.46996999999999994,-0.10307799999999999,-0.2733435,0.698145,-0.18551099999999998,0.1396365,0.477834,-0.084507,0.25445650000000003,0.707135,-0.1253,-0.30505350000000003,0.947785,-0.27583,0.29319649999999997,0.969525,-0.192824,-0.0782095,-0.003615000000000035,-0.007889999999999994,0.0782095,0.0036149999999999793,0.007889999999999994,-0.1210535,-0.03448500000000004,-0.3782,0.1867565,-0.041525000000000034,-0.34758,-0.11816349999999999,-0.36085500000000004,-0.21239599999999997,0.1184765,-0.38702500000000006,-0.21848
114,-0.004590500000000001,0.686895,-0.10209199999999999,-0.1449785,0.468049,-0.10533899999999999,-0.2724085,0.6955549999999999,-0.18704199999999999,0.1395215,0.477126,-0.086595,0.2545515,0.706925,-0.127598,-0.30494849999999996,0.945585,-0.277775,0.2931615,0.968695,-0.195188,-0.0784095,-0.003705000000000014,-0.007925000000000001,0.0784095,0.0037049999999999583,0.007925000000000015,-0.1205685,-0.024465000000000015,-0.379285,0.18644149999999998,-0.032494999999999996,-0.34906499999999996,-0.11975850000000002,-0.352055,-0.214397,0.1128925,-0.38305500000000003,-0.227385
115,-0.004690000000000003,0.68468,-0.103963,-0.145098,0.466484,-0.107372,-0.271478,0.69165,-0.18845499999999998,0.13927199999999998,0.475584,-0.088514,0.253892,0.70697,-0.12959,-0.305098,0.94424,-0.27963,0.292862,0.96826,-0.197292,-0.07880000000000001,-0.0037599999999999856,-0.00784,0.07880000000000001,0.0037599999999999856,0.007840000000000014,-0.12015800000000001,-0.013380000000000003,-0.38007,0.185662,-0.022179999999999978,-0.35044,-0.121648,-0.34246,-0.21648699999999999,0.107131,-0.37816000000000005,-0.23603000000000002
116,-0.004905,0.6823049999999999,-0.105572,-0.145338,0.463949,-0.109184,-0.270748,0.6856450000000001,-0.189761,0.138962,0.47376399999999996,-0.090237,0.25369200000000003,0.708125,-0.131765,-0.305378,0.9415849999999999,-0.28135,0.292552,0.9674449999999999,-0.199357,-0.079222,-0.0038650000000000073,-0.007730000000000001,0.079222,0.0038650000000000073,0.007730000000000001,-0.11984800000000001,-0.002365000000000006,-0.38069000000000003,0.184672,-0.011945000000000039,-0.35152,-0.123498,-0.332995,-0.21915800000000002,0.101207,-0.37164500000000006,-0.2378
117,-0.005470999999999997,0.68076,-0.10682900000000001,-0.14593699999999998,0.46285099999999996,-0.11043,-0.271177,0.67999,-0.191066,0.13844299999999998,0.47271799999999997,-0.091683,0.253133,0.70924,-0.134076,-0.306197,0.93846,-0.28329499999999996,0.291873,0.9649399999999999,-0.201169,-0.079628,-0.003960000000000019,-0.007565000000000002,0.079628,0.0039599999999999635,0.007564999999999988,-0.11988700000000001,0.008399999999999963,-0.380795,0.183243,-0.0018400000000000638,-0.352495,-0.126477,-0.32289,-0.219321,0.100291,-0.3615400000000001,-0.238705
118,-0.005981499999999997,0.67896,-0.108006,-0.1466155,0.46164900000000003,-0.11124300000000001,-0.2717055,0.67557,-0.192353,0.1379445,0.471579,-0.09280200000000001,0.2527145,0.70804,-0.135966,-0.3071655,0.9348400000000001,-0.285445,0.29126450000000004,0.96157,-0.202944,-0.0799955,-0.004039999999999988,-0.007465000000000013,0.0799955,0.0040400000000000436,0.007464999999999999,-0.1199655,0.017800000000000038,-0.380495,0.1817345,0.007000000000000006,-0.353345,-0.1294055,-0.31453,-0.22174900000000003,0.0996725,-0.3527,-0.239435
119,-0.006467500000000001,0.6771,-0.10914,-0.1473485,0.460204,-0.112042,-0.2721785,0.67263,-0.194121,0.13753149999999997,0.470367,-0.093589,0.2526215,0.70391,-0.13792,-0.3086685,0.92753,-0.288225,0.2907515,0.95773,-0.205133,-0.0803005,-0.004170000000000007,-0.0072549999999999976,0.0803005,0.004170000000000007,0.0072549999999999976,-0.11998850000000001,0.02749999999999997,-0.37981499999999996,0.18010150000000003,0.015459999999999974,-0.354255,-0.1323185,-0.30656,-0.22344999999999998,0.09908549999999999,-0.34431000000000006,-0.240255
120,-0.006921500000000001,0.67575,-0.11012,-0.14818949999999997,0.459406,-0.11283499999999999,-0.2726095,0.67319,-0.19602399999999998,0.13707049999999998,0.469001,-0.094335,0.2526105,0.70126,-0.139779,-0.3102195,0.92338,-0.29113500000000003,0.29037050000000003,0.95434,-0.207675,-0.0805215,-0.0042099999999999915,-0.007044999999999996,0.0805215,0.0042099999999999915,0.007044999999999996,-0.1198995,0.03813,-0.378555,0.1784505,0.024749999999999994,-0.354825,-0.1356595,-0.29791,-0.226885,0.0975215,-0.33198000000000005,-0.233405
121,-0.007338999999999998,0.673535,-0.11091799999999999,-0.149026,0.45937,-0.11352599999999999,-0.27350599999999997,0.672885,-0.19805899999999999,0.136604,0.468131,-0.09497699999999999,0.252724,0.6988449999999999,-0.14132999999999998,-0.311676,0.919605,-0.293965,0.29010400000000003,0.951565,-0.21037099999999997,-0.080754,-0.004215000000000024,-0.006854999999999986,0.080754,0.004215000000000024,0.006855,-0.11978599999999999,0.048414999999999986,-0.377115,0.17669400000000002,0.034355000000000024,-0.35501499999999997,-0.13867600000000002,-0.290245,-0.229345,0.098564,-0.31979500000000005,-0.227175
122,-0.0075285000000000005,0.67162,-0.11124600000000003,-0.14970550000000002,0.459104,-0.11353600000000003,-0.2740855,0.673,-0.19989,0.1365045,0.468049,-0.09529400000000002,0.2529445,0.69701,-0.142465,-0.3127755,0.91994,-0.29692,0.2900145,0.9492700000000001,-0.21280300000000002,-0.0808005,-0.004259999999999986,-0.006620000000000015,0.0808005,0.004259999999999986,0.006619999999999987,-0.1193855,0.05936999999999998,-0.37495,0.1749445,0.045369999999999966,-0.35436,-0.1411155,-0.28195000000000003,-0.23219,0.1006455,-0.30673000000000006,-0.22054500000000002
123,-0.007563499999999997,0.6691199999999999,-0.111398,-0.1502675,0.45921599999999996,-0.113311,-0.2754375,0.67263,-0.20190799999999998,0.1364725,0.46860799999999997,-0.09540699999999999,0.2532225,0.69512,-0.14338,-0.3135775,0.91957,-0.299585,0.2900325,0.94696,-0.214857,-0.08078250000000001,-0.0043500000000000205,-0.006474999999999995,0.08078250000000001,0.004349999999999965,0.0064750000000000085,-0.1189375,0.07000999999999996,-0.372575,0.1733025,0.05649999999999994,-0.353345,-0.1434975,-0.2737200000000001,-0.23374499999999998,0.10276850000000001,-0.2938200000000001,-0.213743
124,-0.0073585000000000005,0.667545,-0.11139000000000002,-0.1505615,0.45942,-0.11269900000000001,-0.27653150000000004,0.673455,-0.20353700000000002,0.1365985,0.469395,-0.09526600000000002,0.2535985,0.6924049999999999,-0.144021,-0.31417150000000005,0.9183049999999999,-0.30192,0.2902085,0.944245,-0.21666000000000002,-0.0805785,-0.004384999999999972,-0.006430000000000005,0.0805785,0.004385000000000028,0.006429999999999991,-0.1184315,0.07955499999999999,-0.37014,0.1718985,0.06694500000000003,-0.35189000000000004,-0.1461215,-0.265505,-0.23545,0.1036875,-0.28342500000000004,-0.211059
125,-0.0070214999999999965,0.6663899999999999,-0.11110700000000001,-0.15082849999999998,0.46027399999999996,-0.111997,-0.2775185,0.6772,-0.205376,0.13691150000000002,0.47052299999999997,-0.09507,0.2538615,0.6896199999999999,-0.144354,-0.31462850000000003,0.9193199999999999,-0.30422,0.2903615,0.94296,-0.218107,-0.0804015,-0.004350000000000076,-0.006409999999999999,0.0804015,0.004349999999999965,0.006409999999999999,-0.11804849999999999,0.08970999999999996,-0.36732,0.17033150000000002,0.07867999999999997,-0.34985,-0.1488085,-0.25776,-0.23713,0.1045875,-0.27195,-0.208316
126,-0.0065745000000000005,0.6647850000000001,-0.11058299999999999,-0.1509565,0.46088400000000007,-0.11125499999999999,-0.2783965,0.6804250000000001,-0.207116,0.1374235,0.4709730000000001,-0.094623,0.2541535,0.6857850000000001,-0.144393,-0.31478649999999997,0.9199750000000001,-0.306025,0.29067350000000003,0.9423350000000001,-0.219526,-0.0803805,-0.004144999999999954,-0.006334999999999993,0.0803805,0.004145000000000065,0.006335000000000007,-0.11791650000000001,0.09796500000000008,-0.365635,0.1689535,0.0898750000000001,-0.347555,-0.1495765,-0.25104499999999996,-0.240985,0.10487450000000001,-0.2610649999999999,-0.205566
127,-0.006083000000000002,0.664085,-0.11009600000000001,-0.15097500000000003,0.46133199999999996,-0.11041100000000001,-0.279195,0.683675,-0.20862200000000003,0.138025,0.47213099999999997,-0.093978,0.254475,0.685325,-0.14442100000000002,-0.314745,0.921315,-0.30731,0.291055,0.942765,-0.22077400000000003,-0.080384,-0.004075000000000051,-0.006230000000000013,0.080384,0.00407499999999994,0.0062299999999999855,-0.11794500000000001,0.10679499999999997,-0.36395,0.16762500000000002,0.10196499999999997,-0.3447,-0.150885,-0.242745,-0.24462,0.106632,-0.24762499999999998,-0.19856300000000002
128,-0.005575499999999995,0.663395,-0.10938999999999999,-0.1509335,0.46230099999999996,-0.109509,-0.2787035,0.6866049999999999,-0.208645,0.13865650000000002,0.47306699999999996,-0.093216,0.2546965,0.6875749999999999,-0.144307,-0.31464349999999996,0.926385,-0.30784,0.29137650000000004,0.943395,-0.22157,-0.0803265,-0.003925000000000067,-0.006080000000000002,0.0803265,0.003924999999999956,0.006080000000000002,-0.1179035,0.11580499999999999,-0.36244,0.16641650000000002,0.11406499999999997,-0.34153999999999995,-0.15208349999999998,-0.23473500000000003,-0.24742999999999998,0.10942650000000001,-0.23443500000000006,-0.197525
129,-0.004987,0.66282,-0.10854699999999999,-0.150807,0.46264099999999997,-0.10846199999999999,-0.278847,0.68834,-0.209229,0.139373,0.47412999999999994,-0.09238199999999999,0.25499299999999997,0.68902,-0.144009,-0.314547,0.9303699999999999,-0.30825499999999995,0.291863,0.94357,-0.22192499999999998,-0.08012,-0.00385000000000002,-0.0059949999999999865,0.08012,0.003849999999999909,0.005995,-0.11768699999999999,0.12124999999999997,-0.361185,0.165353,0.12524999999999997,-0.338255,-0.153017,-0.22732000000000008,-0.24948499999999998,0.11028299999999999,-0.2246100000000001,-0.19683299999999998
130,-0.004463000000000005,0.663045,-0.107344,-0.150521,0.463314,-0.107304,-0.278631,0.691165,-0.20874399999999999,0.139969,0.47496800000000006,-0.09139,0.255529,0.6904250000000001,-0.143651,-0.314331,0.9339850000000001,-0.30777,0.29265899999999995,0.944455,-0.221863,-0.07996500000000001,-0.0037049999999999583,-0.006000000000000005,0.07996500000000001,0.0037050000000000693,0.006000000000000005,-0.11693100000000001,0.12651500000000004,-0.36063,0.164109,0.13661500000000004,-0.33426,-0.152411,-0.22011499999999995,-0.25209000000000004,0.110989,-0.21481499999999998,-0.19628400000000001
131,-0.004123000000000003,0.660795,-0.105991,-0.150146,0.462134,-0.10637,-0.278456,0.6912149999999999,-0.208109,0.14034399999999997,0.47357799999999994,-0.090425,0.255704,0.688815,-0.143016,-0.313846,0.934835,-0.307085,0.293464,0.942765,-0.221682,-0.080204,-0.003615000000000035,-0.0061350000000000016,0.080204,0.003614999999999924,0.0061350000000000016,-0.11617600000000002,0.12764499999999995,-0.359915,0.16400399999999998,0.14399499999999998,-0.333665,-0.151806,-0.21684500000000007,-0.254745,0.11186399999999999,-0.20877500000000004,-0.195559
132,-0.0034425000000000063,0.660495,-0.104492,-0.1495135,0.46199700000000005,-0.10533000000000001,-0.2780235,0.691965,-0.208131,0.1408565,0.47370300000000004,-0.089308,0.2566165,0.6886350000000001,-0.14233,-0.31321350000000003,0.937235,-0.30688000000000004,0.29490649999999996,0.9437650000000001,-0.221323,-0.0802205,-0.003434999999999966,-0.006320000000000006,0.0802205,0.003435000000000077,0.006319999999999992,-0.11506350000000001,0.12999500000000008,-0.35904,0.1645565,0.15308500000000008,-0.33286000000000004,-0.1506835,-0.212225,-0.25834,0.1123565,-0.20225499999999996,-0.194334
133,-0.003433999999999998,0.660537,-0.10142899999999999,-0.149467,0.462055,-0.102718,-0.278167,0.692235,-0.206716,0.140783,0.474236,-0.086618,0.256923,0.689325,-0.140031,-0.313197,0.939335,-0.304645,0.295813,0.945335,-0.219393,-0.079873,-0.003314999999999957,-0.0065749999999999975,0.079873,0.003315000000000068,0.0065749999999999975,-0.102117,0.11788500000000002,-0.37317500000000003,0.164523,0.15931500000000004,-0.330465,-0.13286699999999999,-0.210615,-0.279485,0.112923,-0.196025,-0.19117499999999998
134,-0.003565500000000001,0.6608499999999999,-0.09678199999999999,-0.1495295,0.46228,-0.09848499999999999,-0.27855949999999996,0.69257,-0.20396199999999998,0.14068049999999999,0.474821,-0.08227999999999999,0.2571905,0.6904,-0.135924,-0.3132195,0.94128,-0.300925,0.29674049999999996,0.94643,-0.215745,-0.0794325,-0.0030999999999999917,-0.0064649999999999985,0.0794325,0.0030999999999999917,0.0064649999999999985,-0.0892835,0.09869,-0.387225,0.1640305,0.16757,-0.323125,-0.11594950000000001,-0.20528000000000002,-0.299385,0.1128905,-0.19069000000000003,-0.187089
135,-0.0041039999999999965,0.661918,-0.09099199999999999,-0.149981,0.46289500000000006,-0.093011,-0.278571,0.693535,-0.198571,0.140149,0.47597500000000004,-0.07671499999999999,0.257029,0.6925950000000001,-0.130552,-0.31333099999999997,0.943565,-0.29551499999999997,0.297259,0.947995,-0.210787,-0.079194,-0.0026450000000000085,-0.006714999999999999,0.079194,0.0026450000000000085,0.006715000000000013,-0.076526,0.07613500000000006,-0.400265,0.163749,0.17554500000000006,-0.315305,-0.098591,-0.20564499999999997,-0.319305,0.112789,-0.18723499999999993,-0.182161
136,-0.004684500000000005,0.663069,-0.08414650000000001,-0.15053650000000002,0.46453500000000003,-0.0863705,-0.2782065,0.692005,-0.1922595,0.1394935,0.477075,-0.0699275,0.2568535,0.694445,-0.1241285,-0.3135565,0.9439150000000001,-0.2896395,0.2977235,0.949735,-0.2045865,-0.0788745,-0.0025049999999999795,-0.006840500000000013,0.0788745,0.0025049999999999795,0.006840499999999999,-0.06378850000000001,0.05195499999999997,-0.4125295,0.16422350000000002,0.182765,-0.3087295,-0.0815715,-0.215955,-0.3385395,0.1133035,-0.18482500000000002,-0.1801685
137,-0.005496500000000003,0.664942,-0.0773325,-0.1513235,0.46640500000000007,-0.0797595,-0.2781535,0.691095,-0.1856855,0.1384365,0.4791250000000001,-0.0632365,0.2564365,0.696945,-0.1177085,-0.3141035,0.9449750000000001,-0.2838475,0.29798650000000004,0.9520850000000001,-0.1983475,-0.07825850000000001,-0.002594999999999903,-0.006842500000000001,0.07825850000000001,0.002595000000000014,0.006842500000000001,-0.0513285,0.027425000000000033,-0.42531749999999996,0.1648565,0.18971500000000008,-0.3030075,-0.06449250000000001,-0.2324949999999999,-0.35777749999999997,0.11683650000000001,-0.18337499999999995,-0.1778905
138,-0.006305999999999999,0.667566,-0.07052149999999999,-0.1521,0.46923000000000004,-0.07318549999999999,-0.27807,0.6906760000000001,-0.17913649999999998,0.13735000000000003,0.48183000000000004,-0.0565505,0.25602,0.69989,-0.1112295,-0.31467,0.94647,-0.27803449999999996,0.29832000000000003,0.9552100000000001,-0.1921745,-0.077654,-0.00268999999999997,-0.006798499999999999,0.077654,0.002690000000000081,0.006798499999999999,-0.038995,0.006879999999999997,-0.43814450000000005,0.16560000000000002,0.19666000000000006,-0.2975545,-0.043054999999999996,-0.22768999999999995,-0.41179449999999995,0.12035,-0.1844699999999999,-0.1756665
139,-0.0071959999999999975,0.669957,-0.06378949999999999,-0.15336,0.471735,-0.0665345,-0.27852,0.6901889999999999,-0.17298349999999998,0.13594,0.484415,-0.049885499999999985,0.25542,0.702535,-0.1045845,-0.31559000000000004,0.948225,-0.2722335,0.29846,0.9586250000000001,-0.18582349999999997,-0.077027,-0.0027449999999999974,-0.006695499999999993,0.077027,0.0027449999999999974,0.006695500000000007,-0.026755999999999995,-0.014804999999999957,-0.4512135,0.16643000000000002,0.20225500000000002,-0.2926935,-0.022123999999999998,-0.223595,-0.4657035,0.12399,-0.186855,-0.1737675
140,-0.008109499999999995,0.6718310000000001,-0.0570735,-0.1546345,0.47338500000000006,-0.0598555,-0.2792645,0.689644,-0.16701549999999998,0.13460550000000002,0.48619500000000004,-0.0432905,0.2547855,0.704455,-0.0979185,-0.3166645,0.9496850000000001,-0.2664085,0.2985255,0.9612850000000001,-0.1793485,-0.0763355,-0.0029049999999999354,-0.006589499999999998,0.0763355,0.0029050000000000464,0.006589499999999998,-0.014653499999999996,-0.03730499999999992,-0.4642385,0.1674055,0.20667500000000005,-0.2880685,-0.001364499999999995,-0.21628499999999995,-0.5196985000000001,0.1277255,-0.190125,-0.1716835
141,-0.009246500000000001,0.6745669999999999,-0.050538000000000007,-0.1560925,0.47618999999999995,-0.053320000000000006,-0.2803425,0.690847,-0.16123,0.1330375,0.48854,-0.036812000000000004,0.2539075,0.70715,-0.09134900000000001,-0.3179325,0.952,-0.260855,0.2981875,0.96437,-0.172865,-0.07574449999999999,-0.0031600000000000517,-0.006416000000000005,0.07574449999999999,0.0031599999999999406,0.006415999999999991,-0.001552500000000001,-0.05893999999999999,-0.477165,0.16828749999999998,0.21114999999999995,-0.28407499999999997,0.0159465,-0.23736000000000002,-0.537925,0.1266575,-0.19097000000000008,-0.16514
142,-0.010631000000000005,0.6769290000000001,-0.0456655,-0.157777,0.47824500000000003,-0.0484675,-0.281327,0.691914,-0.15677950000000002,0.131163,0.4904450000000001,-0.032002499999999996,0.252783,0.7091350000000001,-0.0863375,-0.31949700000000003,0.9539550000000001,-0.25719349999999996,0.29750299999999996,0.9664750000000001,-0.1679835,-0.075087,-0.0033849999999999714,-0.006054499999999997,0.075087,0.0033850000000000824,0.006054500000000004,-0.0017770000000000043,-0.0669249999999999,-0.4747835,0.169013,0.21491500000000008,-0.28234349999999997,0.017127999999999997,-0.2594949999999999,-0.5382835,0.124693,-0.192125,-0.1552055
143,-0.011843999999999995,0.67886,-0.0426035,-0.159256,0.47974,-0.0454275,-0.282686,0.692286,-0.15351150000000002,0.129454,0.4919,-0.029004500000000003,0.251824,0.7108099999999999,-0.08308950000000001,-0.320816,0.9551799999999999,-0.2554205,0.296944,0.96795,-0.1648905,-0.074349,-0.003770000000000051,-0.006052500000000002,0.074349,0.00376999999999994,0.006052500000000002,-0.0022009999999999955,-0.06976000000000004,-0.4732305,0.169454,0.21749999999999997,-0.2826905,0.017962000000000006,-0.28244,-0.5400805,0.12284400000000001,-0.19413000000000002,-0.1472495
144,-0.0126995,0.680445,-0.040762999999999994,-0.1602645,0.48071499999999995,-0.043668,-0.2830645,0.6927989999999999,-0.152022,0.1283155,0.4930649999999999,-0.027410999999999998,0.2512155,0.7121949999999999,-0.08111399999999999,-0.3216345,0.956235,-0.25472300000000003,0.2967255,0.9690449999999999,-0.163063,-0.0738665,-0.004565000000000041,-0.005767000000000001,0.0738665,0.00456499999999993,0.005767000000000008,-0.0023115000000000015,-0.06963500000000011,-0.473083,0.1694955,0.21947499999999992,-0.283873,0.018509499999999998,-0.306045,-0.539133,0.1210155,-0.19377500000000003,-0.14051
145,-0.013055500000000006,0.68137,-0.040113499999999996,-0.1607655,0.48109999999999997,-0.0430225,-0.2839955,0.694987,-0.1522975,0.1276945,0.49371,-0.026917499999999997,0.2510945,0.7131,-0.08023749999999999,-0.3221355,0.9584,-0.2548845,0.2968845,0.96956,-0.1624145,-0.0733505,-0.00490999999999997,-0.005484499999999996,0.0733505,0.00490999999999997,0.005484499999999996,-0.002439500000000006,-0.06882999999999995,-0.4739545,0.1693445,0.22068,-0.2841145,0.018241499999999994,-0.30949000000000004,-0.5388845,0.11945449999999999,-0.19381000000000004,-0.13410249999999999
146,-0.013075499999999997,0.6817650000000001,-0.040175,-0.1609185,0.481125,-0.043058,-0.2845185,0.6966650000000001,-0.15323399999999998,0.1274615,0.49396500000000004,-0.02717,0.2513415,0.713515,-0.080044,-0.3222785,0.960105,-0.25570000000000004,0.2973515,0.9696150000000001,-0.16244999999999998,-0.0730615,-0.005085000000000006,-0.0054480000000000015,0.0730615,0.005085000000000006,0.0054479999999999945,-0.0016084999999999958,-0.06850499999999993,-0.47539,0.1694115,0.22107500000000002,-0.28392,0.019321500000000005,-0.31969499999999995,-0.53913,0.1169415,-0.19391499999999995,-0.124311
147,-0.013266500000000002,0.6818500000000001,-0.040123000000000006,-0.1611785,0.48077500000000006,-0.042976,-0.2842385,0.6966720000000001,-0.153072,0.1271415,0.4939950000000001,-0.027267,0.2514715,0.713535,-0.079731,-0.3222985,0.9601250000000001,-0.256346,0.2976415,0.9694450000000001,-0.162456,-0.0729725,-0.005104999999999915,-0.0053390000000000035,0.0729725,0.005105000000000026,0.0053390000000000035,-0.001346500000000003,-0.06761499999999998,-0.476066,0.1693615,0.22164500000000004,-0.283596,0.014609499999999997,-0.34016499999999994,-0.5039859999999999,0.11690149999999999,-0.19391499999999995,-0.123923
148,-0.013460499999999997,0.6821740000000001,-0.0401355,-0.1612185,0.4805250000000001,-0.0430005,-0.2838985,0.6966720000000001,-0.1530465,0.1271215,0.4939950000000001,-0.0274255,0.2516515,0.713535,-0.07972749999999999,-0.32239850000000003,0.9601250000000001,-0.25706049999999997,0.2979215,0.9694050000000001,-0.1625705,-0.0728975,-0.005104999999999915,-0.005257499999999998,0.0728975,0.005105000000000026,0.005257499999999998,-0.0014744999999999975,-0.06676499999999996,-0.4763305,0.1689715,0.22249500000000005,-0.2833005,0.009938500000000003,-0.36175499999999994,-0.46875049999999996,0.1155115,-0.19142499999999996,-0.1241225
149,-0.013590500000000002,0.6819320000000001,-0.0398505,-0.1611715,0.4798800000000001,-0.04275949999999999,-0.2837715,0.6960270000000001,-0.1527945,0.1272285,0.49335000000000007,-0.02728649999999999,0.2519185,0.7131400000000001,-0.07945749999999999,-0.3224515,0.9594800000000001,-0.2575685,0.29822849999999995,0.9687600000000001,-0.1624585,-0.07290350000000001,-0.005169999999999897,-0.0051634999999999945,0.07290350000000001,0.005170000000000008,0.005163500000000001,-0.0010405000000000024,-0.06677,-0.47603850000000003,0.1688285,0.22158000000000005,-0.2835685,0.006614499999999998,-0.3909799999999999,-0.4330085,0.10942849999999998,-0.19206999999999996,-0.1144615
150,-0.0137795,0.6824300000000001,-0.039806,-0.1611655,0.48002000000000006,-0.042715,-0.2845255,0.6973720000000001,-0.153694,0.12733450000000002,0.49335000000000007,-0.02735,0.25212450000000003,0.7138,-0.079387,-0.3228555,0.96082,-0.258274,0.2984445,0.9687600000000001,-0.162494,-0.07296849999999999,-0.005169999999999897,-0.005129000000000002,0.07296849999999999,0.005170000000000008,0.005129000000000002,-0.0009984999999999998,-0.06677,-0.475994,0.1689745,0.22068000000000004,-0.28394400000000003,0.006798500000000001,-0.3902899999999999,-0.432944,0.10327449999999999,-0.19206999999999996,-0.105005
151,-0.014052499999999999,0.683353,-0.039981499999999996,-0.16126649999999998,0.47970499999999994,-0.0427815,-0.2849565,0.6983189999999999,-0.1541615,0.12732349999999998,0.493625,-0.027445499999999998,0.25260350000000004,0.7153849999999999,-0.0794835,-0.3231365,0.961635,-0.2588065,0.2985435,0.968425,-0.1625865,-0.0730035,-0.005354999999999999,-0.005133499999999999,0.0730035,0.005354999999999999,0.005133499999999999,-0.0012144999999999999,-0.06710500000000008,-0.4760165,0.16871350000000002,0.21975499999999998,-0.2844365,0.0059085,-0.3683850000000001,-0.4330565,0.0970775,-0.19039499999999998,-0.0955655
152,-0.0143925,0.6840430000000001,-0.040190000000000003,-0.1614425,0.4788650000000001,-0.042938000000000004,-0.2853225,0.700007,-0.15537499999999999,0.1272175,0.49370500000000006,-0.027641,0.2531075,0.7168150000000001,-0.079817,-0.3232625,0.961555,-0.259553,0.2985875,0.9676150000000001,-0.16292299999999998,-0.0730305,-0.005484999999999962,-0.005137000000000003,0.0730305,0.005485000000000073,0.005137000000000003,-0.0009345000000000009,-0.06679499999999994,-0.475803,0.1665675,0.21754500000000004,-0.285583,0.006322499999999999,-0.36589499999999997,-0.432973,0.0907615,-0.18884499999999993,-0.08584800000000001
153,-0.014649499999999996,0.684592,-0.040463,-0.1616765,0.477865,-0.043204,-0.28580649999999996,0.701506,-0.156782,0.1271235,0.49353499999999995,-0.027971999999999997,0.2536735,0.718235,-0.080377,-0.32344649999999997,0.961165,-0.260625,0.29861350000000003,0.966495,-0.163435,-0.0730545,-0.005595000000000017,-0.005058,0.0730545,0.005595000000000017,0.005058,-0.0005364999999999953,-0.06613500000000005,-0.475375,0.1640735,0.21450499999999995,-0.285985,0.007491500000000004,-0.38612500000000005,-0.432245,0.0905105,-0.18989500000000004,-0.085962
154,-0.014702000000000003,0.683809,-0.041135500000000005,-0.162036,0.47799499999999995,-0.04427650000000001,-0.28621599999999997,0.7019329999999999,-0.15878750000000003,0.12713400000000002,0.49249499999999996,-0.02877450000000001,0.254354,0.718515,-0.0815275,-0.323546,0.959185,-0.26232750000000005,0.29876400000000003,0.964285,-0.16471750000000002,-0.073115,-0.005454999999999988,-0.005077500000000006,0.073115,0.005454999999999988,0.005077499999999999,-0.0005300000000000025,-0.06552500000000006,-0.4737475,0.16220400000000001,0.20965499999999998,-0.28883749999999997,0.007428999999999997,-0.38912500000000005,-0.4301775,0.090441,-0.192635,-0.08650450000000001
155,-0.014772500000000003,0.682999,-0.0437715,-0.1624085,0.477615,-0.047229499999999994,-0.28626850000000004,0.7023550000000001,-0.1627895,0.1271815,0.490935,-0.0313905,0.25509149999999997,0.717975,-0.0846875,-0.3234185,0.956725,-0.2661465,0.2989615,0.961625,-0.16807650000000002,-0.0733135,-0.00525500000000001,-0.0053995000000000015,0.0733135,0.00525500000000001,0.0053995000000000015,-0.0004625000000000026,-0.06654499999999997,-0.4743165,0.1602215,0.20387500000000003,-0.29351649999999996,0.007243499999999997,-0.393355,-0.4282665,0.0897335,-0.19608499999999995,-0.08795549999999999
156,-0.014974499999999996,0.681856,-0.0474315,-0.1631055,0.4771250000000001,-0.0513445,-0.2860355,0.702335,-0.1677565,0.1271645,0.48919500000000005,-0.0349895,0.2556545,0.7173250000000001,-0.08888750000000001,-0.3234355,0.9539250000000001,-0.2710765,0.2988845,0.958755,-0.1726765,-0.0738225,-0.00523499999999999,-0.004996500000000001,0.0738225,0.005235000000000101,0.004996500000000001,-0.0013364999999999968,-0.06666499999999997,-0.4749465,0.15783450000000002,0.19685500000000006,-0.2980565,0.006195500000000003,-0.3932549999999999,-0.4275065,0.0888265,-0.1994849999999999,-0.0907835
157,-0.014174499999999996,0.680906,-0.052600499999999994,-0.16249950000000002,0.47624500000000003,-0.0566975,-0.2851295,0.702175,-0.1741875,0.1281605,0.486725,-0.0398805,0.2571605,0.716105,-0.0945415,-0.3224595,0.950465,-0.27762749999999997,0.2998005,0.955495,-0.17877749999999998,-0.0738385,-0.005525000000000002,-0.005026500000000003,0.0738385,0.005525000000000002,0.005026500000000003,-0.0013474999999999963,-0.06765500000000002,-0.4765875,0.15626050000000002,0.18756500000000004,-0.3028775,0.0060095000000000036,-0.394015,-0.42770749999999996,0.0888905,-0.203685,-0.0946545
158,-0.013248,0.6798550000000001,-0.058429999999999996,-0.16163,0.4767450000000001,-0.06291999999999999,-0.28415999999999997,0.7012850000000002,-0.181004,0.12918,0.4849850000000001,-0.045311,0.25875000000000004,0.7148650000000001,-0.100905,-0.32133999999999996,0.9463250000000001,-0.285034,0.30074,0.9514450000000001,-0.185364,-0.073909,-0.00519499999999995,-0.005130999999999997,0.073909,0.005195000000000061,0.0051310000000000106,-0.013257,-0.04620499999999994,-0.465514,0.15485,0.1771350000000001,-0.307914,-0.00017199999999999898,-0.3784049999999999,-0.41904399999999997,0.08954200000000001,-0.2063449999999999,-0.099742
159,-0.0120835,0.6789689999999999,-0.0652345,-0.1606535,0.47638499999999995,-0.0697045,-0.2828135,0.699705,-0.1881555,0.1305565,0.483221,-0.0512555,0.26050650000000003,0.713075,-0.1080155,-0.31991349999999996,0.940655,-0.2932455,0.30174650000000003,0.948935,-0.19319550000000002,-0.0740825,-0.004815000000000014,-0.005408499999999997,0.0740825,0.004815000000000014,0.005408499999999997,-0.0256435,-0.026405000000000012,-0.4525755,0.1538365,0.164655,-0.3136955,-0.012906500000000001,-0.36299500000000007,-0.4086255,0.09056449999999999,-0.21077500000000005,-0.1069095
160,-0.010056499999999998,0.676735,-0.07432849999999999,-0.15888349999999998,0.47431500000000004,-0.0787235,-0.2808735,0.698095,-0.1975905,0.13269650000000002,0.47953500000000004,-0.0593775,0.2626365,0.708035,-0.1170025,-0.3175135,0.932645,-0.3035705,0.3034865,0.946075,-0.2034105,-0.07474449999999999,-0.003874999999999962,-0.0052315,0.07474449999999999,0.003874999999999962,0.0052315,-0.0376925,-0.009214999999999973,-0.4417005,0.1541565,0.149105,-0.3220105,-0.026484499999999998,-0.34870499999999993,-0.39378050000000003,0.0927355,-0.21729500000000002,-0.1173235
161,-0.007744499999999996,0.6762600000000001,-0.083167,-0.1568705,0.47294200000000003,-0.087479,-0.2786305,0.6944600000000001,-0.204877,0.1351295,0.476849,-0.06716000000000001,0.2648195,0.7071500000000001,-0.125864,-0.31496050000000003,0.93028,-0.31261700000000003,0.3053395,0.94352,-0.21268700000000001,-0.07554949999999999,-0.003349999999999964,-0.005223000000000005,0.07554949999999999,0.003350000000000075,0.0052229999999999915,-0.049478499999999995,0.006249999999999978,-0.431307,0.15608950000000002,0.13470000000000004,-0.33010700000000004,-0.039736499999999994,-0.33553,-0.378297,0.0948475,-0.22702,-0.13024200000000002
162,-0.005379500000000004,0.67456,-0.091948,-0.15452950000000001,0.47097000000000006,-0.096096,-0.2758495,0.6891,-0.21246,0.1375805,0.47403900000000004,-0.074738,0.2667305,0.7057,-0.134126,-0.3123995,0.92614,-0.32128,0.3071205,0.94072,-0.22178,-0.0763745,-0.0030799999999999716,-0.0052299999999999985,0.0763745,0.0030800000000000827,0.0052299999999999985,-0.061339500000000005,0.019360000000000044,-0.42091,0.1579605,0.11899000000000004,-0.33803,-0.053512500000000005,-0.32228,-0.35744,0.0967695,-0.23843999999999999,-0.14411000000000002
163,-0.003049500000000002,0.677,-0.100234,-0.1522275,0.468686,-0.103967,-0.2729575,0.68716,-0.21949000000000002,0.1399125,0.471758,-0.081986,0.2685225,0.70445,-0.141582,-0.30988750000000004,0.92264,-0.32915,0.30866249999999995,0.9402,-0.23014,-0.07715749999999999,-0.002850000000000019,-0.005110000000000003,0.07715749999999999,0.002850000000000019,0.0051099999999999896,-0.0731655,0.03090000000000004,-0.41134,0.1597725,0.10244000000000003,-0.34569,-0.06721350000000001,-0.31111999999999995,-0.33625,0.0984505,-0.25175000000000003,-0.158005
164,-0.0009934999999999979,0.6772,-0.106415,-0.1501655,0.467281,-0.109516,-0.2699655,0.68332,-0.224075,0.1419445,0.470912,-0.08718,0.2699745,0.70331,-0.146664,-0.3074855,0.91732,-0.334155,0.3097545,0.93909,-0.23591499999999999,-0.0779435,-0.0027199999999999447,-0.004824999999999996,0.0779435,0.0027200000000000557,0.004824999999999996,-0.0852055,0.03845000000000004,-0.400215,0.1617345,0.08340000000000003,-0.349005,-0.0800775,-0.30364,-0.314355,0.1012265,-0.26427999999999996,-0.168723
165,0.0006840000000000023,0.6779949999999999,-0.110854,-0.14831299999999997,0.46627099999999994,-0.11348799999999999,-0.267233,0.6834749999999999,-0.22741,0.143687,0.47045099999999995,-0.091039,0.271197,0.702135,-0.150214,-0.30532299999999996,0.918245,-0.33755999999999997,0.31051700000000004,0.941645,-0.23961,-0.078538,-0.002354999999999996,-0.005269999999999997,0.078538,0.002354999999999996,0.005269999999999997,-0.09754299999999999,0.04440499999999997,-0.38863,0.16397699999999998,0.06415499999999996,-0.35092,-0.093333,-0.2974150000000001,-0.29125999999999996,0.104072,-0.27800500000000006,-0.17843799999999999
166,0.0018644999999999998,0.679245,-0.113185,-0.1465025,0.465883,-0.11559699999999999,-0.2653325,0.682565,-0.229095,0.1449175,0.470671,-0.09333999999999999,0.2719775,0.701925,-0.152178,-0.30358250000000003,0.919035,-0.339395,0.3108575,0.943565,-0.24162499999999998,-0.07901449999999999,-0.0016349999999999976,-0.005144999999999997,0.07901449999999999,0.0016349999999999976,0.005144999999999997,-0.0969825,0.026005,-0.388355,0.16595749999999998,0.04558500000000004,-0.352265,-0.0935125,-0.31096499999999994,-0.277555,0.10875950000000001,-0.292685,-0.18645699999999998
167,0.003097499999999998,0.68045,-0.114448,-0.1446645,0.464067,-0.116782,-0.2636245,0.68263,-0.229595,0.14656550000000002,0.469773,-0.09463799999999999,0.2729455,0.70133,-0.153658,-0.3016145,0.91954,-0.340565,0.3115255,0.9453199999999999,-0.242965,-0.0793375,-0.0015600000000000058,-0.004894999999999997,0.0793375,0.0015600000000000058,0.004894999999999997,-0.1094945,0.030299999999999994,-0.37437499999999996,0.16868550000000002,0.026609999999999967,-0.352935,-0.10754450000000002,-0.30662000000000006,-0.25315499999999996,0.11403250000000001,-0.30798,-0.193448
168,0.004498000000000002,0.68192,-0.11481599999999999,-0.14271499999999998,0.463422,-0.11707999999999999,-0.261635,0.6829700000000001,-0.22887,0.148075,0.46947300000000003,-0.095024,0.274345,0.70277,-0.154129,-0.299695,0.92102,-0.34055,0.312485,0.94504,-0.24339,-0.07949400000000001,-0.0015999999999999903,-0.004519999999999996,0.07949400000000001,0.0015999999999999903,0.004519999999999996,-0.10905499999999999,0.012419999999999987,-0.37427,0.171635,0.00814999999999999,-0.35319999999999996,-0.114475,-0.31926,-0.23692,0.11835500000000002,-0.32550999999999997,-0.193253
169,0.004615000000000001,0.685055,-0.114799,-0.142264,0.46526500000000004,-0.117019,-0.260714,0.686315,-0.22748,0.148136,0.470939,-0.09501399999999999,0.274686,0.705425,-0.154084,-0.299404,0.924005,-0.33938,0.311876,0.947025,-0.24234,-0.079433,-0.002134999999999998,-0.00451,0.079433,0.002134999999999998,0.00451,-0.10962400000000001,-0.004384999999999972,-0.37367,0.173176,-0.009404999999999997,-0.35237,-0.116274,-0.33372499999999994,-0.2284,0.121136,-0.34306499999999995,-0.191361
170,0.0047145,0.6871400000000001,-0.11459799999999999,-0.14183050000000003,0.466573,-0.11660499999999999,-0.2598605,0.68962,-0.225995,0.1482595,0.472204,-0.094999,0.2745295,0.70715,-0.153691,-0.2991605,0.92048,-0.337075,0.3112895,0.94808,-0.240945,-0.0793095,-0.0022800000000000042,-0.004494999999999999,0.0793095,0.0022800000000000042,0.004494999999999999,-0.1097605,-0.022269999999999956,-0.372675,0.17476950000000002,-0.027739999999999987,-0.35140499999999997,-0.11727050000000001,-0.34893,-0.21972599999999998,0.1263795,-0.35647,-0.19425599999999998
171,0.004770999999999999,0.69045,-0.11384,-0.14167800000000003,0.46913699999999997,-0.115912,-0.259048,0.6939,-0.22384500000000002,0.14840199999999998,0.473703,-0.09495100000000001,0.274242,0.70914,-0.15293,-0.298898,0.9243,-0.33364499999999997,0.31058199999999997,0.95265,-0.238395,-0.079255,-0.0022600000000000398,-0.004485000000000003,0.079255,0.0022599999999999842,0.004484999999999989,-0.109448,-0.04061999999999999,-0.37173500000000004,0.17609200000000003,-0.04609000000000002,-0.349905,-0.116128,-0.36592,-0.216583,0.13112200000000002,-0.37270000000000003,-0.19597
172,0.004031999999999996,0.69128,-0.110766,-0.142387,0.471192,-0.113015,-0.259357,0.6944699999999999,-0.219123,0.147863,0.475531,-0.093071,0.273323,0.71208,-0.15024300000000002,-0.299767,0.9285599999999999,-0.32788,0.309173,0.95457,-0.23346,-0.079035,-0.0023299999999999987,-0.00451,0.079035,0.0023299999999999987,0.004509999999999986,-0.11002700000000001,-0.05734,-0.36988,0.17615299999999998,-0.06225999999999998,-0.34797,-0.11577700000000002,-0.38226000000000004,-0.21344600000000002,0.135173,-0.38494000000000006,-0.193517
173,0.003318500000000002,0.69419,-0.106561,-0.14283849999999998,0.47333,-0.10950800000000001,-0.25955849999999997,0.69781,-0.212769,0.14757150000000002,0.47606,-0.09033400000000001,0.2722215,0.71488,-0.145918,-0.3005285,0.93313,-0.321355,0.3079815,0.95792,-0.22756500000000002,-0.0789685,-0.0022000000000000353,-0.004315000000000013,0.0789685,0.0021999999999999797,0.004314999999999999,-0.1102985,-0.07349000000000006,-0.367745,0.1761115,-0.07839000000000002,-0.34580500000000003,-0.11647849999999998,-0.3991100000000001,-0.210219,0.1385915,-0.40015,-0.190905
