sb224sc-HT22-VT27/4dt907/src/data/kinect_good_preprocessed_not_cut_A11_mediapipe/A53_kinect.csv
FrameNo,nose_3d_x,nose_3d_y,nose_3d_z,left_shoulder_3d_x,left_shoulder_3d_y,left_shoulder_3d_z,left_elbow_3d_x,left_elbow_3d_y,left_elbow_3d_z,right_shoulder_3d_x,right_shoulder_3d_y,right_shoulder_3d_z,right_elbow_3d_x,right_elbow_3d_y,right_elbow_3d_z,left_wrist_3d_x,left_wrist_3d_y,left_wrist_3d_z,right_wrist_3d_x,right_wrist_3d_y,right_wrist_3d_z,left_hip_3d_x,left_hip_3d_y,left_hip_3d_z,right_hip_3d_x,right_hip_3d_y,right_hip_3d_z,left_knee_3d_x,left_knee_3d_y,left_knee_3d_z,right_knee_3d_x,right_knee_3d_y,right_knee_3d_z,left_ankle_3d_x,left_ankle_3d_y,left_ankle_3d_z,right_ankle_3d_x,right_ankle_3d_y,right_ankle_3d_z
0,-0.009766999999999998,0.634764,0.0647345,-0.149236,0.449864,0.0801175,-0.221606,0.646214,0.0307495,0.138454,0.449504,0.05089149999999999,0.207114,0.6566339999999999,0.005020499999999997,-0.261286,0.9052939999999999,0.004138499999999996,0.238004,0.875224,-0.022582500000000005,-0.061603000000000005,0.0006969999999999999,-0.0020815,0.061603000000000005,-0.0006969999999999999,0.0020814999999999965,-0.125656,-0.430946,-0.019571500000000006,0.113414,-0.446666,-0.0273845,-0.165806,-0.876496,-0.0674235,0.131084,-0.8881060000000001,-0.1171935
1,-0.0093505,0.6353255,0.06562899999999999,-0.1492985,0.4495155,0.079718,-0.22087849999999998,0.6464855,0.030688999999999998,0.13833150000000002,0.4491255,0.05058599999999999,0.2072515,0.6568855,0.004833999999999998,-0.2598585,0.9056855,0.004132999999999998,0.2350315,0.8611555,-0.023213000000000004,-0.0616425,0.0009034999999999999,-0.002464000000000001,0.0616425,-0.0009035,0.0024639999999999974,-0.12513849999999999,-0.4311145,-0.019461000000000006,0.1137315,-0.4454645,-0.027244000000000004,-0.16520849999999998,-0.8766345,-0.06767100000000001,0.13261150000000002,-0.8872245,-0.11491100000000001
2,-0.009076499999999996,0.6359389999999999,0.06648899999999999,-0.1489995,0.44954900000000003,0.079349,-0.2269095,0.698739,0.023563999999999998,0.1381505,0.448809,0.049936999999999995,0.20733050000000003,0.657459,0.004412999999999997,-0.2592295,0.914609,0.003655999999999996,0.23675050000000003,0.868889,-0.023316000000000003,-0.0615575,0.0008530000000000001,-0.00281,0.0615575,-0.000853,0.0028099999999999965,-0.12459949999999999,-0.43110099999999996,-0.019639000000000004,0.1141905,-0.44499099999999997,-0.027686000000000002,-0.16434949999999998,-0.876631,-0.06804,0.14634049999999998,-0.8889710000000001,-0.094304
3,-0.009028,0.6361375,0.0670935,-0.149144,0.4496275,0.07910149999999999,-0.226534,0.6989875,0.023358499999999997,0.138086,0.44887750000000004,0.0497995,0.207096,0.6575875,0.004465499999999997,-0.25807399999999997,0.9159775,0.003828499999999995,0.237146,0.8724175000000001,-0.024037500000000003,-0.061702,0.0007325000000000001,-0.0029975,0.061702,-0.0007325000000000001,0.0029974999999999967,-0.124274,-0.4309125,-0.019604500000000004,0.114126,-0.44337249999999995,-0.0278785,-0.16395400000000002,-0.8764725,-0.0676325,0.146336,-0.8874124999999999,-0.09401749999999999
4,-0.009110500000000002,0.6364195,0.067729,-0.1489105,0.4495095,0.07896700000000001,-0.2255805,0.6989595,0.022465,0.1377495,0.4487195,0.049280000000000004,0.2067395,0.6575095,0.004309,-0.2564005,0.9181695,0.004298,0.2373695,0.8726095,-0.024211999999999997,-0.0617145,0.0008385000000000003,-0.0030989999999999976,0.0617145,-0.0008384999999999998,0.0030989999999999976,-0.12400049999999999,-0.4307505,-0.019677,0.1141595,-0.4427405,-0.027859000000000002,-0.1635405,-0.8763305,-0.067598,0.1409395,-0.8857205,-0.10497799999999999
5,-0.009067500000000001,0.6369889999999999,0.068399,-0.1491535,0.448909,0.078739,-0.2244535,0.6987789999999999,0.022264,0.1374365,0.448729,0.049028,0.2064565,0.657839,0.004258999999999999,-0.2555635,0.918539,0.004203999999999999,0.2376865,0.873609,-0.024322999999999997,-0.0617815,0.000851,-0.0031160000000000007,0.0617815,-0.0008510000000000002,0.0031160000000000007,-0.1237035,-0.430581,-0.019532,0.1143865,-0.441941,-0.027860000000000003,-0.1635935,-0.8758910000000001,-0.07042000000000001,0.1429465,-0.8850910000000001,-0.10289999999999999
6,-0.008696500000000001,0.6377065,0.06877350000000002,-0.1488825,0.4493165,0.07853950000000001,-0.22338249999999998,0.6993665,0.021722500000000006,0.1373175,0.4487665,0.04850550000000001,0.2066875,0.6584065,0.004093500000000003,-0.2543225,0.9194565,0.003454500000000006,0.2381375,0.8748565,-0.024728499999999994,-0.061911499999999994,0.0008194999999999999,-0.0030144999999999963,0.061911499999999994,-0.0008194999999999999,0.0030145000000000033,-0.12330250000000001,-0.4302835,-0.0195365,0.1147975,-0.4413635,-0.028023499999999993,-0.16310249999999998,-0.8755635,-0.07070549999999999,0.14284750000000002,-0.8850035,-0.09972550000000001
7,-0.008224500000000004,0.6376005,0.0695455,-0.1480875,0.4501005,0.0789845,-0.2216475,0.6987105,0.0225505,0.1374425,0.4483705,0.0480105,0.2071325,0.6581605,0.0042285,-0.25281750000000003,0.9188605000000001,0.0037694999999999985,0.2431025,0.8948705,-0.0245755,-0.0618675,0.0006274999999999996,-0.002630500000000001,0.0618675,-0.0006275000000000005,0.0026304999999999974,-0.1229875,-0.4298895,-0.020090500000000004,0.1148825,-0.44203950000000003,-0.0285435,-0.16302750000000002,-0.8752894999999999,-0.06926650000000001,0.14106249999999998,-0.8850994999999999,-0.1017065
8,-0.007969999999999998,0.6379794999999999,0.07029250000000001,-0.147831,0.4503095,0.07901849999999999,-0.22137099999999998,0.6998194999999999,0.022434500000000003,0.137359,0.44807949999999996,0.0476125,0.207199,0.6581595,0.004271500000000001,-0.251511,0.9199795,0.004032500000000001,0.244069,0.8992095,-0.0248125,-0.061889,0.0005995000000000002,-0.002635499999999999,0.061889,-0.0005994999999999993,0.0026355000000000024,-0.12277099999999999,-0.42969050000000003,-0.0201825,0.114999,-0.44131050000000005,-0.028854499999999998,-0.16284099999999999,-0.8750505000000001,-0.0696325,0.14138900000000001,-0.8846805,-0.10125250000000001
9,-0.007676500000000003,0.6383745,0.0710655,-0.1475715,0.45066449999999997,0.07913049999999999,-0.2211115,0.7010244999999999,0.022335499999999994,0.1373085,0.44782449999999996,0.047285499999999994,0.2073385,0.6581845,0.004307499999999995,-0.2503415,0.9210944999999999,0.004309499999999994,0.2453185,0.9038845,-0.025039500000000006,-0.061912499999999995,0.0005504999999999998,-0.0025695000000000023,0.061912499999999995,-0.0005505000000000006,0.0025694999999999954,-0.1225715,-0.42949550000000003,-0.020241500000000003,0.1151485,-0.44066550000000004,-0.029169500000000008,-0.1626915,-0.8748155,-0.0699515,0.1416485,-0.8843055000000001,-0.10134150000000001
10,-0.007339499999999995,0.638681,0.071918,-0.1473025,0.451111,0.079294,-0.2204425,0.701501,0.022379999999999997,0.1373075,0.44753099999999996,0.047023999999999996,0.2075575,0.658131,0.004328999999999996,-0.24920250000000002,0.922191,0.004664999999999999,0.2465975,0.908421,-0.025316000000000005,-0.0619255,0.0005010000000000006,-0.002465000000000002,0.0619255,-0.0005009999999999997,0.0024649999999999984,-0.12239250000000002,-0.429319,-0.020294,0.11531750000000002,-0.440089,-0.029441000000000002,-0.1625025,-0.874589,-0.070274,0.1414375,-0.883759,-0.10264400000000001
11,-0.007048000000000004,0.6389435,0.072757,-0.14707800000000001,0.4514935,0.079499,-0.219868,0.7019035,0.02246,0.137312,0.4472235,0.046764,0.207752,0.6580435,0.004247000000000001,-0.24817799999999998,0.9232035,0.005031000000000001,0.24790199999999998,0.9126235,-0.025522999999999997,-0.061918,0.0004634999999999995,-0.0023229999999999987,0.061918,-0.00046350000000000037,0.002323000000000002,-0.122248,-0.4291965,-0.020353999999999997,0.11547199999999999,-0.4398265,-0.029717,-0.16234800000000002,-0.8744665,-0.070564,0.141372,-0.8834065,-0.103674
12,-0.006787499999999998,0.6393030000000001,0.0735885,-0.14686950000000001,0.451993,0.0797775,-0.2193595,0.702403,0.022655500000000002,0.1373305,0.447003,0.0465685,0.2079305,0.6579830000000001,0.0042045,-0.24725950000000002,0.924093,0.005362499999999999,0.2484605,0.9137730000000001,-0.025633500000000004,-0.0618905,0.0005079999999999998,-0.002078499999999997,0.0618905,-0.0005079999999999998,0.0020785000000000005,-0.12214950000000001,-0.428987,-0.020409499999999997,0.1155805,-0.439687,-0.0299935,-0.16224950000000002,-0.874257,-0.0707765,0.14151049999999998,-0.8832669999999999,-0.1034765
13,-0.006540999999999998,0.6396365,0.074418,-0.146586,0.45255650000000003,0.08015,-0.218886,0.7029865,0.022893999999999998,0.137384,0.4467665,0.046404,0.208094,0.6579565,0.004201,-0.24639599999999998,0.9250165,0.0057339999999999995,0.249104,0.9148665,-0.025815000000000005,-0.061865,0.0005444999999999998,-0.0018270000000000022,0.061865,-0.0005444999999999998,0.0018269999999999988,-0.122056,-0.4287835,-0.020457000000000003,0.115654,-0.4396535,-0.030264,-0.162106,-0.8740635,-0.070784,0.14158400000000002,-0.8832234999999999,-0.103354
14,-0.006261000000000001,0.639869,0.075301,-0.146227,0.453009,0.080583,-0.218417,0.703449,0.023180000000000003,0.13741299999999998,0.446369,0.046216,0.208293,0.6578390000000001,0.004198000000000004,-0.24569700000000003,0.925809,0.006140000000000003,0.25022300000000003,0.915849,-0.026880999999999995,-0.061866,0.0005540000000000007,-0.001565999999999998,0.061866,-0.0005539999999999989,0.0015660000000000014,-0.122027,-0.428761,-0.020501,0.11568300000000001,-0.439691,-0.030557999999999995,-0.161997,-0.8740209999999999,-0.070749,0.14160299999999998,-0.883271,-0.103679
15,-0.005927999999999999,0.640194,0.076104,-0.145817,0.453594,0.08095,-0.217987,0.704004,0.023381,0.137463,0.446114,0.045924,0.208583,0.657784,0.0040479999999999995,-0.24507700000000002,0.926604,0.006437000000000002,0.251343,0.915594,-0.028144000000000002,-0.061876,0.0005570000000000002,-0.0013149999999999967,0.061876,-0.0005569999999999985,0.0013150000000000002,-0.122007,-0.428676,-0.020644000000000003,0.115713,-0.439786,-0.030943,-0.161907,-0.873896,-0.07082,0.14183300000000001,-0.883336,-0.10357
16,-0.0055934999999999995,0.6405605000000001,0.076583,-0.1454615,0.4539605,0.081123,-0.2177215,0.7043705,0.023268999999999998,0.1375585,0.4464805,0.0458,0.2089485,0.6579705,0.0037909999999999992,-0.24470150000000002,0.9269705,0.006349999999999998,0.2523485,0.9155705000000001,-0.029464,-0.0618925,0.0005404999999999993,-0.000951999999999998,0.0618925,-0.000540500000000001,0.000951999999999998,-0.1219615,-0.4285195,-0.020745999999999997,0.1157585,-0.4398095,-0.031194000000000003,-0.1618315,-0.8737495,-0.071135,0.1419985,-0.8834295,-0.10367500000000002
17,-0.0052555000000000015,0.6409005000000001,0.0771165,-0.1451035,0.4543005,0.08135049999999999,-0.2174935,0.7047105,0.0232145,0.1376365,0.4468005,0.0457355,0.2093565,0.6581205,0.0035014999999999977,-0.2444335,0.9273105,0.006295499999999999,0.2533865,0.9155105,-0.0307635,-0.0619025,0.0005505000000000006,-0.0005785000000000026,0.0619025,-0.0005505000000000006,0.0005784999999999992,-0.1219335,-0.42838950000000003,-0.020789500000000002,0.1157665,-0.4399595,-0.0313555,-0.16183350000000002,-0.8736195,-0.07137450000000001,0.1417365,-0.8835194999999999,-0.1050845
18,-0.0049015,0.641181,0.0775815,-0.1446945,0.45442099999999996,0.0815935,-0.2172645,0.7049110000000001,0.0231935,0.13774550000000002,0.446851,0.0457745,0.2098255,0.658281,0.003140500000000001,-0.2442045,0.9274910000000001,0.0062615,0.2544555,0.915481,-0.0319875,-0.0619235,0.0005319999999999995,-0.00017249999999999904,0.0619235,-0.0005320000000000012,0.00017249999999999904,-0.12191449999999998,-0.428209,-0.020864499999999998,0.1157655,-0.44016900000000003,-0.0315445,-0.1618645,-0.8734689999999999,-0.07163449999999999,0.1416355,-0.883579,-0.10626449999999998
19,-0.004519500000000001,0.6415535,0.077999,-0.1442715,0.4548135,0.081792,-0.2170415,0.7052835000000001,0.023152,0.1379185,0.44689350000000005,0.045641999999999995,0.2102985,0.6584835,0.002489999999999999,-0.24402149999999997,0.9278635000000001,0.006207999999999998,0.2554885,0.9155135,-0.033449000000000007,-0.0619365,0.0005185000000000016,0.0002139999999999989,0.0619365,-0.0005184999999999999,-0.00021400000000000238,-0.1219115,-0.42800649999999996,-0.02092,0.1157985,-0.4404165,-0.031738,-0.16185149999999998,-0.8732464999999999,-0.071936,0.1416685,-0.8837364999999999,-0.10660599999999999
20,-0.004144,0.6419294999999999,0.078373,-0.143795,0.4552295,0.081972,-0.216835,0.7056595,0.023063000000000004,0.138065,0.4469595,0.045466000000000006,0.210835,0.6586894999999999,0.0018220000000000042,-0.243845,0.9282395,0.006151000000000004,0.255675,0.9155595,-0.034812,-0.061945,0.0005114999999999998,0.0005680000000000025,0.061945,-0.0005114999999999998,-0.0005679999999999991,-0.12193499999999999,-0.4278105,-0.020987,0.115795,-0.4406405,-0.031936,-0.161785,-0.8730305,-0.07222699999999999,0.141695,-0.8839005000000001,-0.10683700000000002
21,-0.003770499999999998,0.6422725,0.078734,-0.1433265,0.45583250000000003,0.08214199999999999,-0.2166565,0.7061025000000001,0.022919,0.1382035,0.4472125,0.045287,0.2113635,0.6587225,0.0011049999999999983,-0.2437465,0.9286425,0.006026,0.2557335,0.9154625000000001,-0.036103,-0.0619335,0.0005625000000000005,0.0006829999999999996,0.0619335,-0.0005625000000000005,-0.000683000000000003,-0.12200649999999999,-0.42781749999999996,-0.021115000000000002,0.11575350000000001,-0.4409375,-0.032137000000000006,-0.1617365,-0.8729775,-0.07259199999999999,0.1416735,-0.8842175,-0.10705200000000001
22,-0.003362000000000002,0.642588,0.07901,-0.142899,0.456378,0.08222399999999999,-0.216479,0.706478,0.02273,0.138371,0.447608,0.04514,0.211921,0.658718,0.0004040000000000016,-0.243649,0.9290080000000001,0.00587,0.255671,0.915358,-0.03733,-0.061921,0.0006249999999999988,0.0008130000000000012,0.061921,-0.0006250000000000006,-0.0008130000000000012,-0.122079,-0.427822,-0.021270999999999998,0.115701,-0.44101199999999996,-0.032322000000000004,-0.161689,-0.872972,-0.073012,0.141921,-0.884312,-0.10661200000000001
23,-0.0029645,0.642887,0.0791325,-0.1425175,0.456927,0.08222850000000001,-0.2163375,0.7068570000000001,0.022540500000000005,0.1385325,0.447907,0.0449205,0.2124225,0.658697,-0.00021849999999999647,-0.24356750000000002,0.929297,0.005719500000000002,0.2556225,0.9087770000000001,-0.0378735,-0.061913499999999996,0.0006879999999999994,0.0009435000000000034,0.061913499999999996,-0.0006880000000000011,-0.0009434999999999999,-0.1221275,-0.427683,-0.021414499999999996,0.1156325,-0.441053,-0.03246949999999999,-0.1616375,-0.872813,-0.07341149999999999,0.1421825,-0.8844029999999999,-0.1061115
24,-0.002623999999999998,0.6430579999999999,0.079223,-0.142134,0.45728800000000003,0.082191,-0.21626399999999998,0.707008,0.022364,0.138696,0.448238,0.044814,0.212856,0.6585979999999999,-0.0008330000000000004,-0.243504,0.9294479999999999,0.005589999999999998,0.256336,0.9084979999999999,-0.038440999999999996,-0.061932,0.0007539999999999977,0.0010089999999999995,0.061932,-0.0007540000000000012,-0.001009000000000003,-0.12221399999999999,-0.427632,-0.021554000000000004,0.11547600000000001,-0.441092,-0.032584999999999996,-0.161654,-0.8727520000000001,-0.07388700000000001,0.142366,-0.8844920000000001,-0.10563699999999998
25,-0.0023100000000000013,0.643245,0.07927999999999999,-0.141763,0.457625,0.08213899999999999,-0.216093,0.707195,0.022104999999999996,0.138907,0.448645,0.044795999999999996,0.213247,0.658485,-0.0013680000000000012,-0.243393,0.929555,0.0053919999999999975,0.256237,0.901735,-0.03885,-0.061953999999999995,0.0008319999999999994,0.0010219999999999986,0.061953999999999995,-0.0008319999999999994,-0.001022000000000002,-0.122323,-0.427555,-0.021637000000000003,0.115297,-0.441105,-0.032648,-0.16171300000000002,-0.872635,-0.073958,0.142647,-0.884585,-0.105078
26,-0.0020230000000000022,0.6434175000000001,0.07927100000000001,-0.14135999999999999,0.4580075,0.082038,-0.21594,0.7073775000000001,0.021828,0.13917000000000002,0.4491475,0.04478,0.2136,0.6583375,-0.0018570000000000045,-0.24322000000000002,0.9295975000000001,0.005055999999999998,0.25649,0.9014675000000001,-0.039302,-0.061974999999999995,0.0009475000000000004,0.0010369999999999997,0.061974999999999995,-0.0009475000000000004,-0.0010370000000000032,-0.12242,-0.4274825,-0.021695,0.11512,-0.4407325,-0.032706000000000006,-0.16178,-0.8725324999999999,-0.074162,0.14244,-0.8841625,-0.10533200000000001
27,-0.0017704999999999995,0.643506,0.07916,-0.1410205,0.458296,0.081898,-0.21581050000000002,0.707496,0.021418,0.1394095,0.44962599999999997,0.044789999999999996,0.2138795,0.6581260000000001,-0.002349000000000004,-0.24303049999999998,0.9295260000000001,0.004571999999999996,0.2567295,0.901116,-0.04011800000000001,-0.0619805,0.0010799999999999994,0.001004999999999999,0.0619805,-0.001080000000000001,-0.0010050000000000024,-0.1225405,-0.427454,-0.021785000000000006,0.11494950000000001,-0.440554,-0.032814,-0.1618705,-0.872494,-0.07436000000000001,0.1421095,-0.8839239999999999,-0.10586999999999999
28,-0.0015655000000000027,0.6435725,0.0789035,-0.14070749999999999,0.4585225,0.0816305,-0.2157075,0.7074825,0.0207635,0.13949250000000002,0.45010249999999996,0.044567499999999996,0.21409250000000002,0.6579125,-0.002994499999999997,-0.2427675,0.9293025,0.0036064999999999986,0.2574125,0.9007425,-0.041148500000000005,-0.0619715,0.0012115000000000008,0.001010500000000001,0.0619715,-0.0012115000000000008,-0.001010500000000001,-0.1226675,-0.42739750000000004,-0.0219875,0.11476249999999999,-0.4404175,-0.03303349999999999,-0.1619575,-0.8724375,-0.0746865,0.1419225,-0.8838374999999999,-0.10625649999999999
29,-0.0013074999999999996,0.6437225,0.07865849999999999,-0.1403905,0.4588625,0.0813625,-0.2155705,0.7075224999999999,0.0200255,0.1395895,0.4506225,0.0443375,0.2142995,0.6577824999999999,-0.0037005000000000024,-0.24241049999999997,0.9290625,0.0023124999999999986,0.2565795,0.8942025,-0.0425815,-0.0619875,0.001281499999999998,0.001010500000000001,0.0619875,-0.0012815000000000014,-0.001010500000000001,-0.1227505,-0.4272575,-0.022186499999999998,0.1146295,-0.4401875,-0.033219500000000006,-0.16207049999999998,-0.8722875,-0.0748915,0.14181950000000001,-0.8836075,-0.1065815
30,-0.0010669999999999968,0.6438415,0.078385,-0.14009,0.45903150000000004,0.08102799999999999,-0.21543,0.7074714999999999,0.019185999999999998,0.13972,0.4509715,0.044074999999999996,0.21447,0.6578115,-0.004400000000000001,-0.24201999999999999,0.9288314999999999,0.0007039999999999998,0.25681,0.8941515,-0.044114,-0.062,0.001237499999999999,0.0010069999999999975,0.062,-0.001237499999999999,-0.001007000000000001,-0.12281999999999998,-0.4271385,-0.022411,0.11449000000000001,-0.4400685,-0.033437999999999996,-0.16217,-0.8721885,-0.07513600000000001,0.14189000000000002,-0.8834885,-0.10643599999999999
31,-0.0008990000000000005,0.6439155,0.0780285,-0.139802,0.4591355,0.0806385,-0.215372,0.7074055,0.0180475,0.13982799999999998,0.4509455,0.0436985,0.21459799999999998,0.6578855,-0.005176500000000004,-0.24161200000000002,0.9284155,-0.0012055000000000017,0.257008,0.8941955,-0.0456525,-0.062009999999999996,0.001184499999999998,0.0009895000000000008,0.062009999999999996,-0.0011845000000000015,-0.0009895000000000008,-0.12289199999999999,-0.42708450000000003,-0.0226845,0.114368,-0.4398845,-0.03370250000000001,-0.16224200000000003,-0.8721345,-0.0753965,0.141848,-0.8833045,-0.10671649999999999
32,-0.0008345000000000036,0.6439595,0.0774735,-0.13960050000000002,0.45917949999999996,0.0800545,-0.21539049999999998,0.7072995000000001,0.016494500000000002,0.1398995,0.45090949999999996,0.0431505,0.21468949999999998,0.6578995000000001,-0.006135499999999999,-0.24120049999999998,0.9278995,-0.0035165000000000023,0.2571395,0.8941695000000001,-0.0472385,-0.0619985,0.0011404999999999992,0.0011644999999999989,0.0619985,-0.0011404999999999992,-0.0011644999999999989,-0.1229505,-0.42704050000000005,-0.0231505,0.1142395,-0.4395105,-0.034158499999999994,-0.16231050000000002,-0.8721304999999999,-0.0758205,0.1421095,-0.8831105,-0.10630049999999999
33,-0.0008294999999999986,0.643923,0.076822,-0.1395475,0.45921300000000004,0.07938100000000001,-0.2154975,0.7071930000000001,0.014765000000000002,0.1399425,0.451023,0.042556000000000004,0.2146825,0.6577230000000001,-0.0071279999999999955,-0.2409375,0.927183,-0.006163999999999996,0.25712250000000003,0.893993,-0.049030000000000004,-0.061977500000000005,0.0011800000000000005,0.0012680000000000018,0.061977500000000005,-0.0011800000000000005,-0.0012679999999999983,-0.12300749999999999,-0.42699699999999996,-0.02359,0.1140925,-0.439007,-0.034584000000000004,-0.1623175,-0.872127,-0.076144,0.1419825,-0.882977,-0.105924
34,-0.0009110000000000004,0.643884,0.0760655,-0.139555,0.45922399999999997,0.0785955,-0.215695,0.707224,0.012921499999999997,0.139885,0.451084,0.041868499999999996,0.214595,0.657614,-0.008324500000000006,-0.240855,0.926624,-0.0091445,0.255955,0.887914,-0.050877500000000006,-0.061958,0.0012209999999999999,0.0013444999999999985,0.061958,-0.0012209999999999999,-0.001344500000000002,-0.12307499999999999,-0.427006,-0.024107500000000004,0.11397499999999999,-0.438736,-0.035085500000000006,-0.162355,-0.872136,-0.0765735,0.141575,-0.882696,-0.1067735
35,-0.0010069999999999992,0.6438765,0.075162,-0.139654,0.4592465,0.077678,-0.21589399999999997,0.7072665,0.010942999999999998,0.13980599999999999,0.45111650000000003,0.041128,0.214466,0.6575464999999999,-0.009589,-0.24099399999999999,0.9259765,-0.012312000000000003,0.256536,0.8942665,-0.053041000000000005,-0.061947,0.0012605000000000012,0.0013849999999999973,0.061947,-0.0012604999999999977,-0.0013850000000000008,-0.12314399999999999,-0.4270235,-0.024697000000000004,0.113866,-0.43847349999999996,-0.035643999999999995,-0.16237400000000002,-0.8721735,-0.076657,0.14124599999999998,-0.8823535,-0.106347
36,-0.0010875000000000017,0.6438525,0.074085,-0.1397275,0.4592225,0.076624,-0.21607749999999998,0.7072125,0.008802,0.1397425,0.45113250000000005,0.040248,0.2143425,0.6574625000000001,-0.01106,-0.2412975,0.9251825,-0.015722,0.2571625,0.9007425,-0.05511,-0.0619575,0.001255499999999998,0.0013939999999999994,0.0619575,-0.0012554999999999997,-0.0013939999999999994,-0.12317750000000001,-0.4270475,-0.025374,0.1138325,-0.43826750000000003,-0.036297,-0.16238750000000002,-0.8722475,-0.077149,0.1408125,-0.8819775,-0.105989
37,-0.0011804999999999958,0.6439035,0.07270299999999999,-0.13981949999999999,0.4591735,0.075348,-0.2161595,0.7064535,0.0065679999999999975,0.13962049999999998,0.45082350000000004,0.039126999999999995,0.21422049999999998,0.6570035,-0.012746,-0.2416195,0.9239735,-0.019388000000000002,0.2577905,0.9065535,-0.05781700000000001,-0.0619875,0.0012264999999999984,0.0012709999999999978,0.0619875,-0.001226500000000002,-0.0012710000000000013,-0.12315949999999999,-0.42710650000000006,-0.025938000000000003,0.1138205,-0.4381165,-0.03680800000000001,-0.16240949999999998,-0.8722965,-0.07779,0.14067050000000003,-0.8820865,-0.10615999999999999
38,-0.0013539999999999976,0.6440235,0.0710915,-0.139976,0.4591635,0.0738645,-0.216226,0.7056835,0.004255500000000002,0.139484,0.45071350000000004,0.0377585,0.214054,0.6566135,-0.014682500000000001,-0.241926,0.9228235,-0.0230195,0.25839399999999996,0.9120634999999999,-0.0609825,-0.062002,0.0011745000000000002,0.0012025000000000022,0.062002,-0.0011745000000000002,-0.0012024999999999987,-0.123136,-0.4271465,-0.0266645,0.113814,-0.43806649999999997,-0.0374375,-0.162406,-0.8722865000000001,-0.07870350000000001,0.140194,-0.8819765,-0.10784349999999998
39,-0.001604000000000003,0.6442315,0.0693015,-0.140148,0.4592815,0.0722555,-0.216308,0.7049814999999999,0.0018544999999999985,0.139222,0.45064150000000003,0.0360455,0.213812,0.6562414999999999,-0.016898500000000004,-0.24231799999999998,0.9217814999999999,-0.026910500000000004,0.257542,0.9116415,-0.0641075,-0.061997,0.0011435000000000004,0.0011754999999999995,0.061997,-0.0011434999999999987,-0.0011754999999999995,-0.12310800000000001,-0.4270985,-0.0274765,0.11382199999999999,-0.4378885,-0.0381245,-0.16238799999999998,-0.8722285000000001,-0.0794545,0.139822,-0.8818885000000001,-0.10935450000000001
40,-0.0019829999999999987,0.64464,0.067217,-0.140435,0.45964000000000005,0.07034299999999999,-0.216275,0.69821,-0.00044800000000000395,0.13894499999999999,0.45078,0.034157,0.21348499999999998,0.65594,-0.019448,-0.242845,0.9196599999999999,-0.030860000000000005,0.25727500000000003,0.91137,-0.067621,-0.061994,0.0009370000000000003,0.0011769999999999975,0.061994,-0.0009370000000000003,-0.001177000000000001,-0.12306500000000001,-0.42682,-0.028401000000000003,0.113845,-0.43742,-0.038902000000000006,-0.162435,-0.87193,-0.080303,0.139535,-0.88137,-0.111733
41,-0.002514500000000001,0.644955,0.064846,-0.1411045,0.459965,0.067451,-0.2162245,0.6912849999999999,-0.0027609999999999996,0.1387055,0.450915,0.032164,0.2130455,0.655585,-0.022396,-0.2436645,0.9172849999999999,-0.035091,0.2566055,0.910885,-0.07144600000000001,-0.0620075,0.000699,0.0009650000000000006,0.0620075,-0.000699,-0.0009650000000000006,-0.12302449999999998,-0.426605,-0.029413,0.11389550000000001,-0.437005,-0.039760000000000004,-0.1624145,-0.8716750000000001,-0.081432,0.1397355,-0.8811150000000001,-0.11288199999999998
42,-0.003186999999999999,0.645261,0.0621325,-0.141928,0.460291,0.06410550000000001,-0.21616800000000003,0.684301,-0.005021500000000002,0.138442,0.450981,0.0301055,0.21250200000000002,0.655221,-0.0257465,-0.244618,0.914891,-0.0394215,0.255842,0.9102210000000001,-0.0756085,-0.062028,0.0004519999999999993,0.0007404999999999981,0.062028,-0.000452000000000001,-0.0007405000000000016,-0.12299800000000001,-0.426409,-0.030537500000000002,0.113942,-0.436559,-0.0407355,-0.16237800000000002,-0.8714189999999999,-0.0827235,0.139662,-0.880639,-0.11437349999999999
43,-0.003930000000000001,0.645676,0.058892,-0.14283400000000002,0.460796,0.060285,-0.216114,0.677536,-0.007664000000000001,0.138226,0.45124600000000004,0.02778,0.211806,0.6550360000000001,-0.029614,-0.24599400000000002,0.912506,-0.044840000000000005,0.255026,0.909746,-0.080499,-0.06204899999999999,0.00020599999999999959,0.0009069999999999981,0.06204899999999999,-0.00020600000000000132,-0.0009070000000000016,-0.122984,-0.42607399999999995,-0.031929,0.113996,-0.43590399999999996,-0.041975,-0.16232400000000002,-0.871004,-0.084601,0.13921599999999998,-0.879844,-0.11662099999999999
44,-0.0047525000000000015,0.6459565,0.055312,-0.1437935,0.4612265,0.056208999999999995,-0.21605349999999998,0.6707165,-0.010558000000000001,0.13804650000000002,0.4514665,0.025277,0.2110065,0.6546765,-0.034039,-0.2475335,0.9100365,-0.050331,0.2545965,0.9095965,-0.08607100000000001,-0.0620715,5.649999999999926e-05,0.0009820000000000002,0.0620715,-5.6500000000000994e-05,-0.0009820000000000002,-0.1230035,-0.4258535,-0.033486,0.1140465,-0.4352735,-0.043411000000000005,-0.1623135,-0.8707035,-0.08679100000000001,0.1390565,-0.8791335,-0.118251
45,-0.005689999999999997,0.6461220000000001,0.051261999999999995,-0.144801,0.461712,0.051932,-0.215981,0.663872,-0.013614,0.137859,0.451582,0.022597,0.210149,0.654362,-0.038981,-0.24920099999999998,0.907572,-0.056123,0.253579,0.908992,-0.09243799999999999,-0.062074000000000004,-4.799999999999943e-05,0.0010699999999999998,0.062074000000000004,4.799999999999943e-05,-0.0010699999999999998,-0.123061,-0.425638,-0.035157,0.114059,-0.434638,-0.045089000000000004,-0.162311,-0.8703879999999999,-0.089058,0.139029,-0.8783679999999999,-0.11966799999999998
46,-0.006641499999999998,0.6462295,0.046817,-0.1458585,0.46183949999999996,0.047256,-0.21591849999999999,0.6570695,-0.017376000000000003,0.1376515,0.45168949999999997,0.01967,0.2092015,0.6540495,-0.044556,-0.2509285,0.9051295,-0.062285,0.2526815,0.9083694999999999,-0.09895799999999999,-0.0620125,-0.0001554999999999994,0.0015989999999999997,0.0620125,0.0001554999999999994,-0.0015989999999999997,-0.12319849999999999,-0.4255205,-0.037359,0.11402150000000001,-0.4342305,-0.04743,-0.1623485,-0.8701905,-0.091958,0.1392215,-0.8775305,-0.12160800000000001
47,-0.007573500000000002,0.6463605,0.041914,-0.1468505,0.4619705,0.042427,-0.2159405,0.6500705,-0.021679999999999998,0.1372895,0.4518205,0.016777,0.2082395,0.6537005,-0.050631,-0.25268050000000003,0.9024805,-0.068995,0.2517695,0.9076105,-0.105311,-0.062009499999999995,-0.00028649999999999856,0.0019440000000000013,0.062009499999999995,0.0002865000000000003,-0.0019439999999999995,-0.12333050000000001,-0.4253895,-0.039736,0.1140495,-0.4338395,-0.049879,-0.16241049999999999,-0.8700595,-0.095281,0.1389695,-0.8768895,-0.125121
48,-0.008523499999999996,0.6465275,0.036634,-0.14788949999999998,0.4621375,0.037392,-0.2160695,0.6429375,-0.026562999999999996,0.1369205,0.4519875,0.013916999999999999,0.2071705,0.6532575,-0.05723299999999999,-0.2544095,0.8996675,-0.075959,0.2506005,0.9063675,-0.11259,-0.0620255,-0.00045349999999999904,0.0022129999999999997,0.0620255,0.0004535000000000008,-0.0022129999999999997,-0.1235495,-0.4252225,-0.042272,0.1140405,-0.4333325,-0.052435999999999997,-0.1626395,-0.8698925,-0.09862,0.1391805,-0.8761825,-0.12848
49,-0.009476500000000002,0.646572,0.031007999999999997,-0.1489215,0.46278199999999997,0.032278,-0.21656150000000002,0.6423420000000001,-0.031932999999999996,0.1364385,0.452312,0.0108,0.2059885,0.6524420000000001,-0.064192,-0.2563215,0.898572,-0.083397,0.2498485,0.907012,-0.120431,-0.062024499999999996,-0.0007269999999999985,0.0024779999999999997,0.062024499999999996,0.0007270000000000002,-0.002478,-0.12384150000000001,-0.424778,-0.044959,0.1140285,-0.432078,-0.055228,-0.16294150000000002,-0.869408,-0.101961,0.1389385,-0.874938,-0.131521
50,-0.010406499999999999,0.646856,0.0248725,-0.1495405,0.463776,0.0275725,-0.2171105,0.6421859999999999,-0.0380575,0.1359495,0.45264600000000005,0.0064095,0.20478949999999999,0.6521359999999999,-0.0717965,-0.25794049999999996,0.897946,-0.0915885,0.2483795,0.9053359999999999,-0.1295755,-0.062005500000000005,-0.0011059999999999993,0.0031255,0.062005500000000005,0.0011059999999999993,-0.0031255000000000002,-0.12417049999999999,-0.423844,-0.0478945,0.1141495,-0.430764,-0.0585015,-0.1632905,-0.8684540000000001,-0.1056055,0.1386695,-0.8734740000000001,-0.1356755
51,-0.011294499999999999,0.6468555,0.0184975,-0.1499645,0.4645155,0.023002500000000002,-0.2176745,0.6418755,-0.044222500000000005,0.1355055,0.4527355,0.0016584999999999998,0.2037255,0.6513755,-0.07948949999999999,-0.2599545,0.8969655,-0.1007285,0.24689550000000002,0.9036555000000001,-0.13887850000000002,-0.0619835,-0.0014805000000000026,0.0038175,0.0619835,0.0014804999999999992,-0.0038175,-0.12472449999999999,-0.4234245,-0.0511655,0.1143755,-0.4296345,-0.061941500000000004,-0.1636645,-0.8680344999999999,-0.1092385,0.1383355,-0.8723345,-0.1400685
52,-0.012153999999999998,0.646316,0.0119705,-0.150379,0.46491600000000005,0.0185445,-0.218339,0.641286,-0.0512225,0.135061,0.452596,-0.0031375,0.202821,0.6502760000000001,-0.0871765,-0.26191899999999996,0.8959360000000001,-0.10891050000000001,0.245291,0.901916,-0.1481605,-0.061995,-0.001641,0.0040655,0.061995,0.001641,-0.0040655,-0.125309,-0.42313399999999995,-0.054413500000000004,0.114871,-0.428564,-0.06562849999999999,-0.164129,-0.867744,-0.1126605,0.137741,-0.871324,-0.1448105
53,-0.013031499999999998,0.646049,0.0047799999999999995,-0.1509025,0.465149,0.013097999999999999,-0.2191525,0.641299,-0.058785000000000004,0.13399750000000002,0.45186899999999997,-0.010431,0.2020375,0.649849,-0.095248,-0.2639225,0.894949,-0.118016,0.2437475,0.901249,-0.157416,-0.061963500000000005,-0.0018700000000000001,0.004591,0.061963500000000005,0.0018700000000000001,-0.004591,-0.12605249999999998,-0.42209100000000005,-0.058376,0.1153575,-0.42653100000000005,-0.069959,-0.16446249999999998,-0.866731,-0.116446,0.1374875,-0.869291,-0.14935600000000002
54,-0.013940999999999995,0.6455945,-0.0024814999999999993,-0.15151399999999998,0.4652545,0.0071725,-0.220104,0.6414245,-0.0666645,0.132746,0.4509845,-0.0182845,0.20122600000000002,0.6495445,-0.1034075,-0.265864,0.8943745,-0.1276675,0.242366,0.9007445,-0.1659875,-0.061913,-0.002097500000000002,0.0052105,0.061913,0.0020974999999999987,-0.005210499999999999,-0.12709399999999998,-0.4211155,-0.0629265,0.11604600000000001,-0.4241355,-0.0749025,-0.16475399999999998,-0.8658255,-0.1203775,0.137306,-0.8668955,-0.1536875
55,-0.0148925,0.6445544999999999,-0.009558500000000001,-0.1521335,0.4648145,0.0015654999999999992,-0.22111350000000002,0.6412144999999999,-0.0742075,0.1314565,0.4495945,-0.0260365,0.2004365,0.6488145,-0.11116949999999999,-0.2676635,0.8936945,-0.1364755,0.2408865,0.8998744999999999,-0.1739555,-0.0618855,-0.0021825000000000004,0.005312500000000001,0.0618855,0.0021825000000000004,-0.0053125,-0.1281635,-0.4202655,-0.0672895,0.11686650000000001,-0.4219755,-0.0797455,-0.1650335,-0.8651155,-0.12418549999999999,0.13712649999999998,-0.8648455,-0.15761550000000002
56,-0.015878,0.6430775000000001,-0.016548,-0.152724,0.4646375,-0.0038250000000000003,-0.22234399999999999,0.6412075,-0.081865,0.130106,0.4482075,-0.033902,0.199636,0.6480775000000001,-0.118932,-0.269314,0.8933675,-0.14478200000000002,0.23974600000000001,0.8987475,-0.181402,-0.061847,-0.0022795000000000003,0.005594000000000002,0.061847,0.0022795000000000003,-0.005594,-0.129434,-0.4193525,-0.07217,0.117776,-0.4196125,-0.084854,-0.165484,-0.8643725,-0.128132,0.136906,-0.8626225,-0.161832
57,-0.016891,0.641328,-0.0236105,-0.15336899999999998,0.46477799999999997,-0.009018499999999999,-0.223769,0.641548,-0.0893855,0.12876100000000001,0.446928,-0.0418095,0.198911,0.6475179999999999,-0.1264795,-0.270899,0.893508,-0.15291949999999999,0.23872100000000002,0.897008,-0.18829949999999998,-0.061794,-0.002367000000000001,0.0060155,0.061794,0.002367000000000001,-0.006015499999999998,-0.130909,-0.41822200000000004,-0.0774685,0.118711,-0.416972,-0.0900595,-0.165959,-0.8634120000000001,-0.1321195,0.136801,-0.8603120000000001,-0.16622949999999997
58,-0.017923499999999995,0.6394845,-0.030759,-0.1538045,0.4652145,-0.014029,-0.2253545,0.6422945,-0.09682299999999999,0.1273155,0.44587449999999995,-0.049597,0.1983555,0.6473445,-0.134033,-0.2724145,0.8940045,-0.160793,0.23761549999999998,0.8959245,-0.197123,-0.0617365,-0.0024435000000000012,0.006488999999999998,0.0617365,0.0024434999999999978,-0.006489,-0.1325145,-0.4168455,-0.083024,0.1197155,-0.4141055,-0.09539,-0.1665045,-0.8622455,-0.136253,0.1368355,-0.8578355000000001,-0.169923
59,-0.018947000000000002,0.6371680000000001,-0.0376265,-0.154216,0.46489800000000003,-0.018944500000000003,-0.22683599999999998,0.642888,-0.10390850000000001,0.126094,0.44497800000000004,-0.0561825,0.198074,0.6469280000000001,-0.1412555,-0.27333599999999997,0.894228,-0.16802550000000002,0.236564,0.895978,-0.2050555,-0.061738,-0.0023849999999999982,0.0066085,0.061738,0.002385000000000005,-0.006608500000000003,-0.13419599999999998,-0.415682,-0.0885465,0.12074399999999999,-0.411642,-0.1005565,-0.167016,-0.861302,-0.1399255,0.136714,-0.855532,-0.1746655
60,-0.020147999999999996,0.6354085,-0.04489,-0.154908,0.46300850000000005,-0.025485999999999998,-0.228618,0.6442185,-0.11133900000000001,0.12476200000000001,0.44400850000000003,-0.063421,0.197882,0.6476885,-0.149029,-0.274358,0.8954585,-0.174869,0.235332,0.8969985,-0.212889,-0.061681,-0.0023475000000000024,0.006714000000000001,0.061681,0.0023474999999999954,-0.006714000000000001,-0.135968,-0.41326149999999995,-0.09443700000000001,0.12165200000000001,-0.40862149999999997,-0.10642900000000001,-0.167608,-0.8590614999999999,-0.144089,0.136182,-0.8526715,-0.179849
61,-0.021391,0.6340195,-0.0521625,-0.155576,0.4610595,-0.031906500000000004,-0.23053600000000002,0.6459995000000001,-0.1189645,0.123384,0.4431195,-0.0707445,0.19791399999999998,0.6491795,-0.1569045,-0.275456,0.8952395,-0.18208449999999998,0.234074,0.8975795,-0.22047450000000002,-0.061579999999999996,-0.002402500000000002,0.007006499999999999,0.061579999999999996,0.002402500000000002,-0.007006500000000002,-0.137866,-0.4103005,-0.10058550000000001,0.122334,-0.40548049999999997,-0.1122405,-0.168346,-0.8563005,-0.1479145,0.135764,-0.8497804999999999,-0.18402449999999998
62,-0.0225595,0.6322055000000001,-0.058915,-0.1559665,0.45912549999999996,-0.037372,-0.23238650000000002,0.6456655,-0.12617499999999998,0.1225335,0.4422055,-0.07602500000000001,0.1980235,0.6490055,-0.164487,-0.27638650000000003,0.8958055,-0.188147,0.23284349999999998,0.8970255,-0.22763699999999998,-0.061384499999999995,-0.0023595000000000005,0.007155000000000002,0.061384499999999995,0.0023595000000000005,-0.007155000000000002,-0.13968650000000002,-0.4076945,-0.106379,0.1230835,-0.4025645,-0.117724,-0.1691465,-0.8539245,-0.15176699999999999,0.1354135,-0.8471845,-0.18743700000000002
63,-0.023927,0.6299895,-0.0656725,-0.15634800000000001,0.4569495,-0.0423875,-0.23427800000000001,0.6454694999999999,-0.1334035,0.121692,0.4416195,-0.0808255,0.198152,0.6483795000000001,-0.1718235,-0.277038,0.8962695,-0.1943035,0.231812,0.9011994999999999,-0.2350535,-0.061177999999999996,-0.0023334999999999953,0.007209500000000001,0.061177999999999996,0.0023335000000000022,-0.007209500000000004,-0.141368,-0.4046605,-0.1119075,0.123662,-0.3998305,-0.1232165,-0.169898,-0.8510605,-0.15572350000000001,0.134992,-0.8446805,-0.1910935
64,-0.025197999999999998,0.6277355,-0.07224,-0.15670499999999998,0.45525550000000004,-0.047184,-0.23632499999999998,0.6454354999999999,-0.14079999999999998,0.120955,0.44166550000000004,-0.085321,0.19787500000000002,0.6478855,-0.17906,-0.277545,0.8966955,-0.20129,0.230405,0.9008155,-0.24249,-0.060889,-0.0023714999999999986,0.007412000000000002,0.060889,0.0023715000000000055,-0.0074119999999999985,-0.14307499999999998,-0.4014045,-0.117628,0.12421499999999999,-0.39726449999999996,-0.129016,-0.170585,-0.8479645,-0.16018,0.134725,-0.8423445,-0.19564
65,-0.0264665,0.625331,-0.07878750000000001,-0.1571775,0.453411,-0.0521345,-0.2384175,0.645281,-0.1482725,0.1201825,0.441561,-0.0898075,0.1977525,0.647481,-0.1862425,-0.27857750000000003,0.900321,-0.2089325,0.2289525,0.900441,-0.2505125,-0.0605955,-0.002351999999999993,0.007563500000000001,0.0605955,0.002352,-0.007563500000000001,-0.1447275,-0.397769,-0.12333150000000001,0.12463250000000001,-0.394389,-0.1347815,-0.17134749999999999,-0.844449,-0.1650025,0.1344325,-0.839699,-0.20015249999999998
66,-0.0277715,0.6235265000000001,-0.08503849999999999,-0.1577455,0.4496365,-0.0576315,-0.2403655,0.6453365,-0.1556115,0.1193545,0.4392665,-0.09493750000000001,0.1977345,0.6463464999999999,-0.19330150000000001,-0.27907550000000003,0.9005865,-0.21647149999999998,0.2275245,0.8996964999999999,-0.2586815,-0.060325500000000004,-0.002280499999999991,0.007713499999999998,0.060325500000000004,0.0022805000000000047,-0.007713499999999998,-0.1462655,-0.3934535,-0.1289565,0.12499450000000001,-0.3909835,-0.1405165,-0.1720655,-0.8402434999999999,-0.1697515,0.1338945,-0.8363335000000001,-0.2043315
67,-0.028969500000000002,0.6219775000000001,-0.09092449999999999,-0.15819149999999998,0.4454475,-0.0632495,-0.2421415,0.6450674999999999,-0.1627095,0.1185885,0.4371675,-0.0999375,0.1977985,0.6433774999999999,-0.1998795,-0.2794315,0.9004375,-0.2240895,0.22647849999999997,0.8963375,-0.2646195,-0.0600645,-0.0022524999999999906,0.007842500000000002,0.0600645,0.0022525000000000045,-0.007842500000000002,-0.1476615,-0.3889025,-0.1343955,0.12528850000000002,-0.3874125,-0.14600950000000001,-0.17266150000000002,-0.8357025,-0.1744495,0.13339849999999998,-0.8328424999999999,-0.2083595
68,-0.03006,0.6201905,-0.096613,-0.158522,0.44143049999999995,-0.068563,-0.243882,0.6448505,-0.169382,0.117828,0.43484049999999996,-0.10483200000000001,0.197718,0.6405405000000001,-0.20595200000000002,-0.27971199999999996,0.9002605,-0.23176200000000002,0.22587800000000002,0.8942705000000001,-0.270452,-0.059858,-0.002200499999999994,0.007996999999999997,0.059858,0.002200499999999994,-0.007997000000000004,-0.14895199999999997,-0.38426950000000004,-0.13962,0.125558,-0.3838195,-0.15166200000000002,-0.17342200000000002,-0.8311195,-0.17926199999999998,0.132938,-0.8294294999999999,-0.212632
69,-0.030830000000000003,0.61785,-0.1017305,-0.15853599999999998,0.43921,-0.0722025,-0.245396,0.644,-0.1757955,0.117324,0.43289,-0.1088075,0.19723400000000002,0.6371,-0.21130549999999998,-0.27972600000000003,0.8994,-0.23905549999999998,0.22470400000000001,0.88721,-0.2758455,-0.059734999999999996,-0.0021759999999999974,0.008161500000000002,0.059734999999999996,0.0021759999999999974,-0.008161499999999995,-0.149976,-0.38036000000000003,-0.14430749999999998,0.12601400000000001,-0.38095999999999997,-0.15657549999999998,-0.173916,-0.8272499999999999,-0.1835755,0.132824,-0.82668,-0.21633550000000001
70,-0.031499,0.6152785000000001,-0.105345,-0.158592,0.43660849999999995,-0.075834,-0.246942,0.6433985,-0.18173,0.11673800000000001,0.4302785,-0.112565,0.197448,0.6332185,-0.21616000000000002,-0.27930200000000005,0.8928285,-0.246,0.224298,0.8799385000000001,-0.28095,-0.059572,-0.0020285000000000025,0.008206999999999999,0.059572,0.0020285000000000025,-0.008206999999999999,-0.150912,-0.3756515,-0.14862599999999998,0.126488,-0.37625149999999996,-0.16131,-0.174142,-0.8225414999999999,-0.18533,0.132998,-0.8219715,-0.21813
71,-0.032076,0.612507,-0.10863199999999999,-0.158684,0.433987,-0.07933899999999999,-0.248364,0.644407,-0.187614,0.116226,0.428117,-0.115981,0.197166,0.630697,-0.220374,-0.279144,0.888197,-0.25279399999999996,0.223336,0.873617,-0.286014,-0.059372,-0.0018639999999999907,0.008183000000000003,0.059372,0.0018640000000000045,-0.008182999999999996,-0.15179399999999998,-0.370913,-0.152654,0.127026,-0.371513,-0.165764,-0.174264,-0.817803,-0.186914,0.13328600000000002,-0.817233,-0.219754
72,-0.0325495,0.610034,-0.11419750000000001,-0.1588445,0.431824,-0.0854555,-0.2498745,0.645214,-0.1958375,0.1155555,0.425864,-0.12192850000000001,0.1966955,0.629164,-0.22667749999999998,-0.27914449999999996,0.883834,-0.2612775,0.2219255,0.864354,-0.2936275,-0.0590775,-0.001671999999999993,0.008166499999999993,0.0590775,0.0016720000000000068,-0.0081665,-0.15350450000000002,-0.36580599999999996,-0.1615075,0.12788549999999999,-0.366406,-0.17454750000000002,-0.1748845,-0.812696,-0.19053750000000003,0.13354549999999998,-0.812126,-0.22379749999999998
73,-0.033432,0.60815,-0.122696,-0.159189,0.43181,-0.09554599999999999,-0.251259,0.64786,-0.20649,0.114401,0.42769,-0.131029,0.195311,0.62893,-0.23560999999999999,-0.27946899999999997,0.88446,-0.27243,0.22029100000000001,0.85692,-0.30413,-0.058751,-0.001579999999999998,0.008015999999999995,0.058751,0.001579999999999998,-0.008015999999999995,-0.156599,-0.35292999999999997,-0.1747,0.12871100000000002,-0.35323000000000004,-0.18694,-0.175569,-0.79955,-0.19518,0.134251,-0.7992400000000001,-0.23047
74,-0.034382499999999996,0.606535,-0.13073849999999998,-0.15953350000000002,0.43140500000000004,-0.1053415,-0.2523835,0.6505650000000001,-0.2163645,0.1131965,0.429605,-0.13970149999999998,0.19346649999999999,0.626355,-0.2438245,-0.2801735,0.885045,-0.2827945,0.21871649999999998,0.849435,-0.3140945,-0.058494500000000005,-0.0015650000000000108,0.007862500000000008,0.058494500000000005,0.001564999999999997,-0.007862499999999994,-0.1595635,-0.340645,-0.1871545,0.1294865,-0.340665,-0.1988445,-0.17623350000000002,-0.786945,-0.1999345,0.1349465,-0.786965,-0.2365145
75,-0.035258,0.60462,-0.138565,-0.15980699999999998,0.43252,-0.11451700000000001,-0.25343699999999997,0.65278,-0.226181,0.112203,0.43348,-0.147458,0.19154300000000002,0.62468,-0.25178100000000003,-0.280867,0.88491,-0.293111,0.21737299999999998,0.84277,-0.323781,-0.058258,-0.0016100000000000003,0.007640999999999995,0.058258,0.0016100000000000003,-0.007640999999999995,-0.16235699999999997,-0.32909,-0.199121,0.130343,-0.32855999999999996,-0.210411,-0.17684699999999998,-0.77508,-0.204071,0.13576300000000002,-0.77512,-0.241991
76,-0.036106,0.602015,-0.146285,-0.16009199999999998,0.432795,-0.12376600000000001,-0.254422,0.6549050000000001,-0.235802,0.111208,0.434575,-0.155375,0.18948800000000002,0.6254850000000001,-0.259722,-0.281532,0.885165,-0.30326200000000003,0.21604800000000002,0.840705,-0.333362,-0.05809,-0.0016150000000000053,0.007415999999999992,0.05809,0.0016149999999999776,-0.007416000000000006,-0.165182,-0.317475,-0.21100200000000002,0.131188,-0.316025,-0.22182200000000002,-0.177422,-0.763155,-0.207702,0.136628,-0.762885,-0.246592
77,-0.037118,0.599645,-0.1543115,-0.160525,0.433015,-0.1329445,-0.255315,0.656515,-0.2453845,0.110075,0.435915,-0.1634195,0.187275,0.626225,-0.2677845,-0.282265,0.8787050000000001,-0.3130345,0.21468500000000001,0.8395349999999999,-0.3422545,-0.057922,-0.0016550000000000176,0.007170499999999996,0.057922,0.0016549999999999898,-0.007170499999999996,-0.168105,-0.30534500000000003,-0.22277450000000001,0.13187500000000002,-0.303215,-0.2327645,-0.177955,-0.7507550000000001,-0.2105845,0.13736500000000001,-0.7503550000000001,-0.2512145
78,-0.0382435,0.59741,-0.1622415,-0.1609175,0.43305000000000005,-0.1420885,-0.2562075,0.65794,-0.2548585,0.1084025,0.43616,-0.1719165,0.18524249999999998,0.6261,-0.2759185,-0.2830275,0.8731300000000001,-0.3223385,0.2138525,0.84172,-0.3515585,-0.0577615,-0.0016100000000000003,0.006981499999999988,0.0577615,0.0016100000000000003,-0.006981500000000002,-0.1710275,-0.29235,-0.2344485,0.13244250000000002,-0.28976999999999997,-0.2436885,-0.1785875,-0.73748,-0.21337850000000003,0.13795249999999998,-0.7370599999999999,-0.2556885
79,-0.039434,0.59518,-0.17041800000000001,-0.161215,0.43363999999999997,-0.15125899999999998,-0.257195,0.65876,-0.264296,0.106735,0.43694,-0.18037799999999998,0.18388500000000002,0.6268199999999999,-0.28449599999999997,-0.28387500000000004,0.8735299999999999,-0.331586,0.21252500000000002,0.84362,-0.362026,-0.057595,-0.0015600000000000058,0.006854000000000013,0.057595,0.001559999999999978,-0.006853999999999999,-0.173925,-0.27923000000000003,-0.246106,0.13295500000000002,-0.27612000000000003,-0.254546,-0.17918499999999998,-0.7240800000000001,-0.216306,0.13836500000000002,-0.7236800000000001,-0.260776
80,-0.040624499999999994,0.59336,-0.17886000000000002,-0.1614655,0.43409,-0.16058,-0.2578855,0.65923,-0.27366999999999997,0.10516450000000001,0.43813,-0.18900899999999998,0.1823545,0.62704,-0.29361000000000004,-0.2846355,0.8744000000000001,-0.34143,0.2110445,0.8462500000000001,-0.37238,-0.057388499999999995,-0.001590000000000008,0.006790000000000004,0.057388499999999995,0.001590000000000008,-0.006790000000000004,-0.1766755,-0.26581,-0.25775000000000003,0.13346449999999999,-0.26332,-0.26546000000000003,-0.17970550000000002,-0.7104199999999999,-0.21932000000000001,0.1387545,-0.7110799999999999,-0.26637
81,-0.0416685,0.591725,-0.185319,-0.16151949999999998,0.434485,-0.167121,-0.2583495,0.659515,-0.280435,0.1038905,0.43974499999999994,-0.19487300000000002,0.18119049999999998,0.626775,-0.300245,-0.2851995,0.8751450000000001,-0.349175,0.2100905,0.852455,-0.380155,-0.0572705,-0.001695000000000002,0.0067949999999999955,0.0572705,0.001695000000000002,-0.0067949999999999955,-0.1783995,-0.252355,-0.26419499999999996,0.13367050000000003,-0.250845,-0.271435,-0.1795195,-0.696665,-0.219475,0.13939050000000003,-0.698605,-0.26880499999999996
82,-0.0422985,0.59004,-0.189062,-0.1614525,0.4327,-0.16971,-0.25872249999999997,0.65793,-0.28464,0.1032775,0.43757,-0.197565,0.1809275,0.62555,-0.30457,-0.28575249999999996,0.8714,-0.35401,0.2097475,0.8555600000000001,-0.38529,-0.0571415,-0.0016400000000000026,0.006930000000000006,0.0571415,0.0016400000000000026,-0.006929999999999992,-0.17862250000000002,-0.24683,-0.26596,0.1338575,-0.24512,-0.27325,-0.1794925,-0.6910700000000001,-0.22064999999999999,0.1395475,-0.6928000000000001,-0.26929000000000003
83,-0.042864,0.588125,-0.19300699999999998,-0.161441,0.430355,-0.172958,-0.259011,0.655825,-0.2892,0.102719,0.433145,-0.201184,0.18059899999999998,0.626845,-0.30952,-0.28640099999999996,0.8682449999999999,-0.35968,0.209329,0.860015,-0.3911,-0.056984,-0.001475000000000004,0.007179999999999992,0.056984,0.001475000000000004,-0.007180000000000006,-0.178881,-0.240285,-0.26802000000000004,0.134119,-0.238575,-0.27536,-0.179491,-0.684525,-0.22213,0.139759,-0.6862550000000001,-0.26952
84,-0.043358499999999994,0.58607,-0.197218,-0.1614785,0.42833,-0.17655400000000002,-0.2593685,0.65376,-0.294335,0.10211150000000001,0.42916,-0.205142,0.18053149999999998,0.62808,-0.315875,-0.28713849999999996,0.8653,-0.36651500000000004,0.2091915,0.86663,-0.397735,-0.0568075,-0.0012699999999999934,0.007455000000000003,0.0568075,0.0012699999999999934,-0.007455000000000003,-0.1791585,-0.23356,-0.270245,0.1343315,-0.23185,-0.277615,-0.1795285,-0.6778,-0.223785,0.14006149999999998,-0.67953,-0.269645
85,-0.043969999999999995,0.584445,-0.20254699999999998,-0.161439,0.426465,-0.180089,-0.260389,0.647405,-0.299745,0.101491,0.42747500000000005,-0.209196,0.179351,0.629915,-0.320895,-0.287889,0.860465,-0.373655,0.208641,0.872015,-0.405065,-0.056665999999999994,-0.0010850000000000026,0.00772500000000001,0.056665999999999994,0.0010850000000000026,-0.007724999999999996,-0.179489,-0.226715,-0.27281500000000003,0.134571,-0.22708499999999998,-0.28002499999999997,-0.179579,-0.6709849999999999,-0.22603499999999999,0.14000100000000001,-0.674755,-0.27181500000000003
86,-0.0444185,0.582095,-0.207698,-0.16139050000000002,0.424555,-0.18365199999999998,-0.2613405,0.6421049999999999,-0.30524999999999997,0.10104949999999999,0.42517499999999997,-0.213301,0.17902949999999998,0.631095,-0.32796,-0.2885405,0.862655,-0.38172,0.2084295,0.873785,-0.41351,-0.0565585,-0.0009250000000000091,0.007949999999999999,0.0565585,0.0009249999999999814,-0.007949999999999999,-0.1798105,-0.21992500000000004,-0.27558,0.1348995,-0.22235500000000002,-0.28247,-0.17954050000000002,-0.6641050000000001,-0.22829,0.14003949999999998,-0.6698850000000001,-0.27416999999999997
87,-0.044678999999999996,0.579985,-0.212842,-0.161323,0.422875,-0.187044,-0.26223300000000005,0.637065,-0.31089500000000003,0.100947,0.424045,-0.216834,0.179057,0.6300349999999999,-0.334785,-0.289223,0.864025,-0.390425,0.208477,0.873515,-0.421775,-0.056459999999999996,-0.0007950000000000179,0.008215,0.056459999999999996,0.0007949999999999902,-0.008215,-0.180153,-0.213685,-0.278405,0.135307,-0.21775500000000003,-0.285095,-0.179453,-0.6577250000000001,-0.230255,0.140167,-0.665225,-0.276495
88,-0.0450395,0.577995,-0.217884,-0.1613885,0.420265,-0.19051200000000001,-0.2633985,0.632525,-0.31677500000000003,0.1007315,0.422125,-0.220455,0.1790315,0.625815,-0.34135499999999996,-0.2901885,0.8652949999999999,-0.39912499999999995,0.20848150000000001,0.870715,-0.42881499999999995,-0.0563995,-0.0007050000000000112,0.008505000000000013,0.0563995,0.0007049999999999834,-0.008504999999999999,-0.1806885,-0.20719500000000002,-0.281315,0.1356715,-0.212735,-0.287935,-0.17947849999999999,-0.651085,-0.232255,0.1401515,-0.6601750000000001,-0.279705
89,-0.045508,0.576715,-0.22365200000000002,-0.161593,0.417585,-0.193872,-0.264673,0.624875,-0.3225,0.100497,0.41973499999999997,-0.22412700000000002,0.178927,0.621675,-0.34757000000000005,-0.290943,0.862305,-0.40764,0.20852700000000002,0.867425,-0.43579,-0.05638,-0.0005850000000000022,0.008830000000000005,0.05638,0.0005850000000000022,-0.008830000000000005,-0.18133300000000002,-0.201055,-0.28426,0.136137,-0.20788500000000001,-0.29088,-0.179473,-0.644785,-0.23408,0.140007,-0.655215,-0.28282
90,-0.0459795,0.575205,-0.22924499999999998,-0.1618305,0.41510499999999995,-0.19705899999999998,-0.2660005,0.6173649999999999,-0.32765500000000003,0.1004295,0.417135,-0.227768,0.1789795,0.617555,-0.353305,-0.2917105,0.8587049999999999,-0.415815,0.20875950000000001,0.863495,-0.442665,-0.0563305,-0.0003850000000000242,0.009094999999999992,0.0563305,0.0003849999999999687,-0.009094999999999992,-0.1822305,-0.19538500000000003,-0.287355,0.13662950000000001,-0.20310500000000004,-0.293865,-0.1795205,-0.638875,-0.235715,0.14020950000000001,-0.650525,-0.283365
91,-0.046378499999999996,0.57404,-0.23446,-0.1620605,0.41061,-0.20052199999999998,-0.2673505,0.61144,-0.33292999999999995,0.10057949999999999,0.41281,-0.23185,0.1793195,0.61155,-0.35824,-0.2927105,0.85097,-0.4244,0.2092895,0.8570199999999999,-0.449,-0.0563085,-0.00032999999999999696,0.009360000000000007,0.0563085,0.00032999999999999696,-0.00935999999999998,-0.1832405,-0.18915000000000004,-0.29046,0.1373895,-0.19786000000000004,-0.29678,-0.1795205,-0.63239,-0.23732999999999999,0.1404095,-0.6452500000000001,-0.28429
92,-0.046567,0.57302,-0.239565,-0.162214,0.40730999999999995,-0.203418,-0.268714,0.60589,-0.338155,0.100946,0.41057999999999995,-0.23528500000000002,0.17982599999999999,0.60454,-0.36234500000000003,-0.293594,0.84354,-0.431995,0.210166,0.8494499999999999,-0.454865,-0.056342,-0.00031000000000003247,0.009514999999999996,0.056342,0.00030999999999997696,-0.00951500000000001,-0.184264,-0.18322000000000005,-0.293395,0.138106,-0.19278,-0.29969500000000004,-0.179434,-0.6262300000000001,-0.238715,0.140436,-0.64022,-0.28551499999999996
93,-0.0466865,0.571905,-0.244325,-0.1622205,0.403965,-0.20610499999999998,-0.2698405,0.6003050000000001,-0.342785,0.1013295,0.408315,-0.238485,0.18020950000000002,0.5974349999999999,-0.365315,-0.2944905,0.836805,-0.438355,0.21096949999999998,0.8416750000000001,-0.459945,-0.0563045,-0.0003349999999999742,0.009675000000000017,0.0563045,0.0003350000000000297,-0.00967499999999999,-0.1854305,-0.17707499999999998,-0.296335,0.13869949999999998,-0.18749499999999997,-0.30266499999999996,-0.17936049999999998,-0.619745,-0.240005,0.14019949999999998,-0.634855,-0.286755
94,-0.046818,0.57111,-0.24903999999999998,-0.162275,0.40071,-0.20903699999999997,-0.270455,0.59914,-0.34751999999999994,0.10180499999999999,0.40521,-0.24172999999999997,0.180585,0.5897600000000001,-0.36769999999999997,-0.295485,0.8322,-0.44461,0.21199500000000002,0.83331,-0.46415999999999996,-0.056260000000000004,-0.00035000000000001696,0.009750000000000009,0.056260000000000004,0.00035000000000001696,-0.009749999999999981,-0.18648499999999998,-0.17218,-0.29913999999999996,0.13911500000000002,-0.18259999999999998,-0.30572,-0.179305,-0.61358,-0.24113999999999997,0.140375,-0.6297200000000001,-0.28565999999999997
95,-0.046603500000000006,0.5710649999999999,-0.253965,-0.16219350000000002,0.398625,-0.211744,-0.2708135,0.597035,-0.35236500000000004,0.1022965,0.403385,-0.244655,0.1810965,0.582685,-0.37039500000000003,-0.2965335,0.825465,-0.450525,0.21346649999999998,0.828715,-0.467915,-0.056236499999999995,-0.0003849999999999687,0.009805000000000008,0.056236499999999995,0.0003850000000000242,-0.009805000000000008,-0.1873535,-0.167045,-0.301725,0.13942649999999998,-0.178025,-0.30905499999999997,-0.1791935,-0.607275,-0.242115,0.1406265,-0.625055,-0.284335
96,-0.046352500000000005,0.570315,-0.25871,-0.1621415,0.39528,-0.214982,-0.27114150000000004,0.594535,-0.35691,0.1027385,0.400082,-0.24802999999999997,0.18161850000000002,0.579025,-0.37372,-0.29757150000000004,0.8194250000000001,-0.45614,0.21500850000000002,0.825725,-0.47206,-0.056221499999999994,-0.0004149999999999987,0.009840000000000015,0.056221499999999994,0.0004149999999999987,-0.009839999999999988,-0.1881415,-0.16191499999999998,-0.30471,0.13957850000000002,-0.173475,-0.31223,-0.17914149999999998,-0.600155,-0.24319999999999997,0.1404185,-0.620115,-0.28533
97,-0.045942000000000004,0.56857,-0.26322,-0.162182,0.393267,-0.21781,-0.271392,0.59104,-0.36097,0.103228,0.398113,-0.25098,0.18225799999999998,0.57802,-0.37761,-0.298502,0.81284,-0.46201,0.21694799999999997,0.82419,-0.47718,-0.056186,-0.00043999999999999595,0.009820000000000023,0.056186,0.00043999999999999595,-0.009819999999999995,-0.188782,-0.15755000000000002,-0.30764,0.139658,-0.16993000000000003,-0.31513,-0.179012,-0.59348,-0.24414999999999998,0.140478,-0.61593,-0.28525999999999996
98,-0.0452215,0.566265,-0.266945,-0.16188349999999999,0.389341,-0.220728,-0.2713635,0.589655,-0.365525,0.1037265,0.394808,-0.254335,0.18322650000000001,0.577255,-0.38243499999999997,-0.2994235,0.808865,-0.468785,0.2189865,0.822985,-0.483475,-0.0561195,-0.0004750000000000032,0.009685,0.0561195,0.0004750000000000032,-0.009685,-0.18932349999999998,-0.152345,-0.31071499999999996,0.1396365,-0.16596500000000003,-0.318175,-0.17886349999999998,-0.585855,-0.245285,0.1403165,-0.611075,-0.285925
99,-0.04425,0.564685,-0.270905,-0.161515,0.385979,-0.224422,-0.271255,0.5887450000000001,-0.370885,0.104245,0.39174,-0.258235,0.184595,0.577325,-0.388625,-0.300125,0.805805,-0.476235,0.22073500000000001,0.822905,-0.49101500000000003,-0.056007,-0.0004649999999999932,0.009494999999999976,0.056007,0.0004649999999999932,-0.009495000000000003,-0.189705,-0.14569500000000002,-0.314245,0.139575,-0.162495,-0.32160500000000003,-0.178755,-0.576835,-0.247205,0.140155,-0.6043750000000001,-0.287055
100,-0.043206999999999995,0.562015,-0.275025,-0.160925,0.38434,-0.227941,-0.270935,0.5857950000000001,-0.376205,0.104715,0.389645,-0.261745,0.186525,0.578775,-0.39565500000000003,-0.300685,0.805145,-0.483215,0.222485,0.820415,-0.499275,-0.055898,-0.0003650000000000042,0.009254999999999985,0.055898,0.0003650000000000042,-0.009255000000000013,-0.190025,-0.139785,-0.31774500000000006,0.139485,-0.159675,-0.324955,-0.178705,-0.5682750000000001,-0.24910500000000002,0.14060499999999998,-0.597925,-0.284845
101,-0.041827500000000004,0.559215,-0.279085,-0.16019450000000002,0.382623,-0.23165399999999997,-0.2705245,0.583105,-0.381735,0.1052755,0.38691299999999995,-0.265265,0.18871549999999998,0.579645,-0.403365,-0.3012545,0.804345,-0.49089499999999997,0.22423549999999998,0.813665,-0.507875,-0.0557725,-0.0002449999999999952,0.008934999999999998,0.0557725,0.0002449999999999952,-0.008934999999999998,-0.1901945,-0.133685,-0.321355,0.13948549999999998,-0.15531499999999998,-0.328145,-0.17858449999999998,-0.559245,-0.25104499999999996,0.14097549999999998,-0.5894550000000001,-0.282675
102,-0.0402415,0.55633,-0.28297,-0.1594215,0.379104,-0.235394,-0.2698215,0.57933,-0.38693,0.10582849999999999,0.38376899999999997,-0.26888,0.1908785,0.58045,-0.41093999999999997,-0.3017415,0.8025599999999999,-0.49948,0.2261285,0.80819,-0.5162800000000001,-0.0556645,-0.00021999999999999797,0.008580000000000004,0.0556645,0.00021999999999999797,-0.008580000000000004,-0.19042150000000002,-0.12720000000000004,-0.32504,0.13949850000000003,-0.15021999999999996,-0.33115,-0.1783415,-0.54942,-0.253,0.1411885,-0.5802,-0.28169
103,-0.038384,0.5529350000000001,-0.28679,-0.158397,0.376348,-0.238761,-0.268787,0.575365,-0.39212,0.106453,0.38109000000000004,-0.27229,0.192993,0.580315,-0.41852,-0.301967,0.800195,-0.50761,0.228033,0.8024450000000001,-0.52503,-0.055683,-0.00017499999999998073,0.008220000000000005,0.055683,0.00017500000000003624,-0.008219999999999977,-0.190507,-0.11993499999999996,-0.32862,0.139433,-0.14530500000000002,-0.3338,-0.178067,-0.539565,-0.25508,0.141563,-0.570565,-0.28091999999999995
104,-0.0363435,0.54886,-0.291095,-0.1571105,0.37139700000000003,-0.24255,-0.2672905,0.5700700000000001,-0.397675,0.1072095,0.37716700000000003,-0.276185,0.1951295,0.57569,-0.425575,-0.3020905,0.79727,-0.516255,0.23005949999999997,0.79698,-0.534145,-0.0556325,-0.00011999999999995348,0.007934999999999998,0.0556325,0.00012000000000000899,-0.007934999999999998,-0.19062050000000003,-0.11227999999999999,-0.33242499999999997,0.1394995,-0.13888999999999996,-0.336015,-0.17775049999999998,-0.52838,-0.25710500000000003,0.14202949999999998,-0.55903,-0.280215
105,-0.034112500000000004,0.545075,-0.29556,-0.1556185,0.367386,-0.246185,-0.2657385,0.564135,-0.40398,0.1082215,0.37446,-0.27995000000000003,0.1972315,0.571855,-0.43208,-0.3019885,0.792455,-0.52518,0.2320615,0.789955,-0.54314,-0.055640499999999996,-9.500000000001174e-05,0.007550000000000001,0.055640499999999996,9.500000000001174e-05,-0.007550000000000001,-0.1906385,-0.103765,-0.33574,0.1396715,-0.13212500000000005,-0.33826999999999996,-0.1774285,-0.518225,-0.26034999999999997,0.1426415,-0.546875,-0.27978000000000003
106,-0.031897499999999995,0.541235,-0.300295,-0.1541475,0.36347399999999996,-0.249801,-0.26422749999999995,0.5586249999999999,-0.410925,0.10924249999999999,0.372087,-0.283655,0.1995925,0.566175,-0.44086499999999995,-0.30180749999999995,0.787445,-0.533935,0.2343125,0.7831049999999999,-0.552745,-0.0556315,3.500000000000725e-05,0.007195000000000007,0.0556315,-3.500000000000725e-05,-0.007195000000000007,-0.1905975,-0.09484500000000001,-0.338905,0.1398325,-0.12530500000000006,-0.340505,-0.1771275,-0.507855,-0.263555,0.1431825,-0.534635,-0.27951499999999996
107,-0.0293085,0.53761,-0.304945,-0.15228550000000002,0.36080999999999996,-0.253715,-0.2623355,0.55363,-0.414055,0.1106445,0.369473,-0.286965,0.2019045,0.5603199999999999,-0.448455,-0.3009255,0.7824800000000001,-0.540205,0.2368345,0.7766599999999999,-0.561365,-0.0557225,0.00023000000000000798,0.006745000000000001,0.0557225,-0.00023000000000000798,-0.006745000000000001,-0.19041550000000002,-0.08588000000000001,-0.34167499999999995,0.1402745,-0.11871999999999999,-0.342085,-0.1764655,-0.49747,-0.266335,0.1440845,-0.52234,-0.279145
108,-0.0269615,0.53328,-0.30901,-0.1504345,0.35762000000000005,-0.25687,-0.2602645,0.54754,-0.41646,0.1120055,0.366149,-0.28972,0.2037255,0.55439,-0.45428999999999997,-0.2999645,0.77658,-0.54569,0.2393955,0.77048,-0.5681,-0.0558785,0.00042000000000003146,0.006420000000000009,0.0558785,-0.00041999999999997595,-0.006420000000000009,-0.19049449999999998,-0.07721999999999996,-0.34353,0.1408455,-0.11112,-0.34298,-0.1758545,-0.48729999999999996,-0.26808,0.1449155,-0.51074,-0.2782
109,-0.02492,0.529345,-0.31293000000000004,-0.148776,0.35467899999999997,-0.25994,-0.259086,0.540809,-0.42075,0.113154,0.36338,-0.29244000000000003,0.205344,0.5496,-0.45951000000000003,-0.298966,0.77054,-0.55217,0.242284,0.76293,-0.5752,-0.056075,0.00040000000000001146,0.006149999999999989,0.056075,-0.00040000000000001146,-0.0061500000000000166,-0.190946,-0.06778999999999996,-0.34525000000000006,0.141344,-0.10288000000000003,-0.34382,-0.175426,-0.47656000000000004,-0.26975000000000005,0.145544,-0.49811,-0.27738
110,-0.0235215,0.525474,-0.31688500000000003,-0.1475395,0.35014500000000004,-0.26293500000000003,-0.2584095,0.531692,-0.424445,0.1137905,0.36115,-0.295175,0.20648049999999998,0.546284,-0.46381500000000003,-0.2985395,0.761935,-0.5580350000000001,0.2447005,0.761525,-0.581645,-0.0562305,0.00017500000000003624,0.0061249999999999916,0.0562305,-0.00017499999999998073,-0.006125000000000019,-0.1918395,-0.05842499999999995,-0.346665,0.1416005,-0.094715,-0.344465,-0.1753795,-0.46601499999999996,-0.271245,0.1458905,-0.48587499999999995,-0.27654500000000004
111,-0.022442499999999997,0.522039,-0.32096,-0.1463285,0.348055,-0.26561,-0.2579985,0.523591,-0.42845999999999995,0.1143515,0.359205,-0.29768,0.2075515,0.543272,-0.46828000000000003,-0.2979185,0.752165,-0.56085,0.2471215,0.760165,-0.58794,-0.0564105,0.00019500000000000073,0.00605,0.0564105,-0.00019500000000000073,-0.00605,-0.1927785,-0.048815,-0.34771,0.14176149999999998,-0.08664500000000003,-0.34548,-0.1754185,-0.45551499999999995,-0.27263000000000004,0.1461615,-0.47349499999999994,-0.27567
112,-0.021802,0.518749,-0.325225,-0.145523,0.34474499999999997,-0.268125,-0.257833,0.516425,-0.432155,0.114527,0.358305,-0.300195,0.208027,0.541113,-0.47037500000000004,-0.297533,0.743605,-0.563315,0.248387,0.7588349999999999,-0.592175,-0.056426,-0.00010500000000002174,0.005894999999999984,0.056426,0.00010499999999996623,-0.005895000000000011,-0.193803,-0.038715000000000055,-0.348465,0.141687,-0.077905,-0.34655500000000006,-0.175523,-0.444665,-0.273745,0.146247,-0.460765,-0.274955
113,-0.021456999999999997,0.5158050000000001,-0.32852,-0.14474900000000002,0.34368,-0.26991,-0.25810900000000003,0.511702,-0.43566,0.11467100000000001,0.35897,-0.30188,0.208451,0.5441400000000001,-0.47207,-0.297159,0.73793,-0.5657,0.249301,0.7569,-0.5953299999999999,-0.05647,-0.0006299999999999639,0.00545000000000001,0.05647,0.0006300000000000194,-0.005449999999999983,-0.194519,-0.029189999999999938,-0.34841,0.14176100000000003,-0.07001999999999997,-0.34765999999999997,-0.17561900000000003,-0.43545999999999996,-0.27465,0.14630100000000001,-0.44925000000000004,-0.27451
114,-0.021122500000000002,0.5123289999999999,-0.33125,-0.14448750000000002,0.3434249999999999,-0.27141,-0.2583975,0.50935,-0.43879,0.1147725,0.3591749999999999,-0.30372,0.2087925,0.5428679999999999,-0.47359999999999997,-0.2967575,0.7303749999999999,-0.56769,0.2499325,0.7562849999999999,-0.59846,-0.0565045,-0.0006350000000000522,0.005110000000000003,0.0565045,0.0006349999999999412,-0.005110000000000003,-0.1950075,-0.019565000000000055,-0.34797,0.1420525,-0.06176500000000007,-0.34895,-0.17542750000000001,-0.42493500000000006,-0.27427,0.14631249999999998,-0.4378350000000001,-0.27378
115,-0.0212755,0.510369,-0.331585,-0.1445445,0.34343999999999997,-0.272845,-0.25839449999999997,0.5083059999999999,-0.440825,0.1147455,0.35910999999999993,-0.305315,0.2088455,0.539706,-0.473275,-0.2963245,0.72439,-0.568975,0.2497655,0.7530899999999999,-0.599595,-0.0566605,-0.0008799999999999919,0.004824999999999996,0.0566605,0.0008799999999999919,-0.004824999999999996,-0.1955345,-0.00939000000000001,-0.34680500000000003,0.1424055,-0.05230000000000001,-0.350035,-0.1754345,-0.41545,-0.274965,0.1462055,-0.42573000000000005,-0.272655
116,-0.0217735,0.50758,-0.331315,-0.1449115,0.345095,-0.272925,-0.2585815,0.508371,-0.442005,0.1144085,0.361305,-0.305875,0.2085685,0.536589,-0.472525,-0.29628150000000003,0.718625,-0.569825,0.2492285,0.749225,-0.599695,-0.056843500000000005,-0.001334999999999975,0.004535000000000011,0.056843500000000005,0.001334999999999975,-0.0045349999999999835,-0.1961215,-0.0007449999999999957,-0.345095,0.14256850000000001,-0.043645000000000045,-0.350755,-0.1757015,-0.406925,-0.274895,0.1458685,-0.415145,-0.270785
117,-0.0219635,0.5053839999999999,-0.33095,-0.1451385,0.34672499999999995,-0.27296,-0.25859849999999995,0.510184,-0.44299,0.1143315,0.363015,-0.30613,0.2084215,0.5338219999999999,-0.47161000000000003,-0.2961085,0.714155,-0.5705,0.2489715,0.7451249999999999,-0.5997300000000001,-0.0569615,-0.0016450000000000076,0.0044199999999999795,0.0569615,0.0016450000000000076,-0.004420000000000007,-0.1962685,0.007764999999999911,-0.34337,0.1431615,-0.03467500000000001,-0.35147,-0.1758885,-0.398255,-0.27459,0.1457915,-0.40442500000000003,-0.26897000000000004
118,-0.022522499999999997,0.500873,-0.33043999999999996,-0.1454315,0.34864000000000006,-0.27291,-0.2589315,0.514134,-0.44465999999999994,0.1138785,0.36488000000000004,-0.3065,0.2076285,0.5330480000000001,-0.46957000000000004,-0.29633149999999997,0.71418,-0.57144,0.2483485,0.74919,-0.59987,-0.0570625,-0.0015299999999999203,0.004489999999999994,0.0570625,0.0015300000000000313,-0.004489999999999994,-0.1967415,0.017040000000000055,-0.34186,0.1423685,-0.021529999999999938,-0.35245,-0.1762315,-0.38800999999999997,-0.27459,0.1452785,-0.39198,-0.26752
119,-0.023767,0.497519,-0.329495,-0.14638299999999999,0.35234999999999994,-0.27197499999999997,-0.259763,0.520736,-0.44621500000000003,0.112897,0.36741999999999997,-0.306415,0.206307,0.532199,-0.466935,-0.296823,0.71698,-0.571645,0.246957,0.7523599999999999,-0.599565,-0.057016,-0.0013100000000000334,0.004844999999999988,0.057016,0.0013100000000000334,-0.004844999999999988,-0.197663,0.02629999999999999,-0.340105,0.141387,-0.008369999999999989,-0.35319500000000004,-0.177053,-0.37778,-0.274535,0.144447,-0.37934,-0.26609499999999997
120,-0.025135499999999998,0.49493099999999995,-0.3283,-0.1473905,0.35541999999999996,-0.27115,-0.26043049999999995,0.527565,-0.44711,0.11206949999999999,0.37012999999999996,-0.30645999999999995,0.2049695,0.530906,-0.46507,-0.2972105,0.7227899999999999,-0.57224,0.2458095,0.7532699999999999,-0.59955,-0.0569285,-0.0015300000000000313,0.005350000000000021,0.0569285,0.0015299999999999203,-0.005349999999999994,-0.1985905,0.03556999999999999,-0.3386,0.1404395,0.0048599999999999755,-0.35392,-0.1778105,-0.36751,-0.27444999999999997,0.14361949999999998,-0.36675,-0.26493999999999995
121,-0.026285,0.49207,-0.32721500000000003,-0.14820499999999998,0.35959,-0.27020500000000003,-0.261125,0.532325,-0.448405,0.111425,0.3723,-0.306205,0.203735,0.52766,-0.463305,-0.297725,0.72797,-0.5739350000000001,0.24410500000000002,0.75281,-0.599745,-0.056758,-0.0012400000000000189,0.00598499999999999,0.056758,0.0012400000000000189,-0.005985000000000018,-0.19936500000000001,0.04481999999999997,-0.337135,0.140245,0.017789999999999973,-0.353745,-0.17857499999999998,-0.35763,-0.274735,0.14293499999999998,-0.35438000000000003,-0.263685
122,-0.027205499999999997,0.49002500000000004,-0.326145,-0.1487255,0.36258500000000005,-0.269405,-0.2617855,0.536351,-0.448555,0.11098450000000001,0.373895,-0.30615499999999995,0.20287449999999999,0.524119,-0.461705,-0.2987455,0.733135,-0.577825,0.2427145,0.753015,-0.6003449999999999,-0.0566145,-0.0007349999999999302,0.006714999999999999,0.0566145,0.0007350000000000412,-0.006714999999999999,-0.1999255,0.054645000000000055,-0.33579499999999995,0.1403645,0.033135000000000026,-0.353525,-0.1793355,-0.34714500000000004,-0.27546499999999996,0.1425845,-0.341785,-0.262615
123,-0.028283000000000003,0.4887099999999999,-0.324775,-0.149366,0.3660399999999999,-0.26869499999999996,-0.262496,0.539939,-0.44787499999999997,0.110454,0.37693999999999994,-0.305575,0.20199399999999998,0.524327,-0.460315,-0.299566,0.7422,-0.579415,0.241144,0.7522,-0.601585,-0.056465,-0.0006300000000000194,0.007315000000000016,0.056465,0.0006299999999999084,-0.007314999999999988,-0.200576,0.06503999999999988,-0.33452499999999996,0.140424,0.04491999999999996,-0.353765,-0.18021600000000002,-0.3363600000000001,-0.27636499999999997,0.142364,-0.32891000000000004,-0.26153499999999996
124,-0.02946,0.487405,-0.3231,-0.150399,0.369175,-0.26843,-0.262559,0.542821,-0.44754000000000005,0.109541,0.37992499999999996,-0.30532000000000004,0.200981,0.528415,-0.45987,-0.29966899999999996,0.747865,-0.58035,0.240041,0.754305,-0.60322,-0.056388,-0.0004250000000000087,0.007470000000000004,0.056388,0.0004250000000000087,-0.007470000000000004,-0.201429,0.07555499999999993,-0.33367,0.14030099999999998,0.056664999999999965,-0.35419999999999996,-0.18115900000000001,-0.3244250000000001,-0.27639,0.142031,-0.315685,-0.26087
125,-0.030876499999999998,0.4872250000000001,-0.321235,-0.1517925,0.37032500000000007,-0.267675,-0.2624025,0.5449250000000001,-0.44765499999999997,0.10835750000000001,0.3830550000000001,-0.305305,0.1995775,0.5325650000000001,-0.459165,-0.2997625,0.7552550000000001,-0.5812649999999999,0.23858749999999998,0.7565050000000001,-0.604325,-0.0562025,-0.0005649999999999267,0.007555000000000006,0.0562025,0.0005650000000000377,-0.007554999999999978,-0.20260250000000002,0.08708500000000008,-0.33347499999999997,0.13967749999999998,0.06931500000000013,-0.354755,-0.1824425,-0.31054499999999996,-0.27636499999999997,0.14142749999999998,-0.3018049999999999,-0.26014499999999996
126,-0.0322795,0.48608000000000007,-0.31943,-0.15339150000000001,0.3690900000000001,-0.26646000000000003,-0.2619515,0.54461,-0.44798000000000004,0.1069185,0.3866900000000001,-0.30544000000000004,0.19798849999999998,0.5348300000000001,-0.45840000000000003,-0.2999915,0.7604600000000001,-0.5829300000000001,0.2370185,0.7568260000000001,-0.6057,-0.0561095,-0.0007699999999999374,0.007819999999999994,0.0561095,0.0007700000000000484,-0.007819999999999994,-0.2041215,0.0977300000000001,-0.33342,0.1386585,0.0810900000000001,-0.35492999999999997,-0.1840715,-0.29769999999999996,-0.27648,0.1407985,-0.2889599999999999,-0.25937
127,-0.033384,0.487835,-0.31865,-0.154553,0.36820500000000006,-0.26527,-0.261843,0.543965,-0.4487,0.105777,0.38872500000000004,-0.3056,0.19664700000000002,0.535115,-0.4594,-0.299863,0.761295,-0.58385,0.23577700000000001,0.7548910000000001,-0.60841,-0.055927000000000004,-0.0013649999999999496,0.008709999999999996,0.055927000000000004,0.0013650000000000606,-0.008709999999999996,-0.206053,0.10518500000000008,-0.33414,0.137807,0.09113500000000008,-0.35567,-0.185843,-0.28629499999999997,-0.2764,0.140837,-0.2770649999999999,-0.25805
128,-0.033896499999999996,0.48928000000000005,-0.317085,-0.1550505,0.36537000000000003,-0.262065,-0.2613205,0.5415000000000001,-0.447305,0.1049095,0.39082000000000006,-0.304855,0.1958095,0.53362,-0.459355,-0.2990705,0.7606550000000001,-0.5839650000000001,0.2350995,0.751476,-0.610365,-0.055613499999999996,-0.0023699999999999832,0.009025000000000005,0.055613499999999996,0.0023699999999999832,-0.009025000000000005,-0.2074905,0.11314000000000002,-0.33403499999999997,0.1374095,0.10175000000000001,-0.355315,-0.1876205,-0.27230999999999994,-0.272215,0.1418295,-0.2639699999999999,-0.256195
129,-0.0345135,0.48945,-0.314515,-0.1553805,0.36377,-0.258855,-0.2609305,0.53974,-0.445405,0.10379949999999999,0.39388,-0.303895,0.19485950000000002,0.5333,-0.459175,-0.29870050000000004,0.759904,-0.585915,0.23459950000000002,0.750373,-0.611835,-0.0553265,-0.0027800000000000047,0.00897500000000001,0.0553265,0.0027800000000000047,-0.00897500000000001,-0.2090705,0.12124999999999997,-0.333895,0.1367395,0.11265000000000003,-0.35462499999999997,-0.1895005,-0.25793,-0.267815,0.1427795,-0.25095,-0.254475
130,-0.03493400000000001,0.490375,-0.31231,-0.155675,0.362755,-0.25569,-0.260515,0.539775,-0.44303,0.102795,0.39679499999999995,-0.30267,0.19409500000000002,0.534975,-0.45839,-0.298435,0.756668,-0.58755,0.234415,0.750764,-0.6128,-0.055057,-0.0028249999999999664,0.00913,0.055057,0.0028249999999999664,-0.00913,-0.210665,0.128815,-0.33397,0.136245,0.12283500000000003,-0.35399,-0.191335,-0.24401499999999998,-0.26339,0.143995,-0.23855500000000007,-0.25275000000000003
131,-0.03522,0.49191999999999997,-0.30994499999999997,-0.155998,0.36324999999999996,-0.25298499999999996,-0.260348,0.54081,-0.440735,0.10173199999999999,0.39994999999999997,-0.301415,0.193462,0.53713,-0.457625,-0.298298,0.754084,-0.589075,0.234592,0.7516039999999999,-0.6137349999999999,-0.054826,-0.0022800000000000598,0.009205000000000019,0.054826,0.0022799999999999487,-0.009204999999999991,-0.212338,0.13639,-0.33413499999999996,0.135902,0.13290999999999997,-0.353525,-0.193278,-0.22993000000000008,-0.259055,0.145452,-0.22615000000000007,-0.25087499999999996
132,-0.0353825,0.4935050000000001,-0.30794,-0.15617150000000002,0.3629150000000001,-0.25031000000000003,-0.2600915,0.5412650000000001,-0.43842,0.1007885,0.4020850000000001,-0.29991999999999996,0.1930385,0.5390050000000001,-0.45686,-0.2980715,0.751063,-0.58973,0.2348485,0.75343,-0.61456,-0.0546285,-0.0016049999999999676,0.009080000000000005,0.0546285,0.0016050000000000786,-0.009080000000000005,-0.21384150000000002,0.1432350000000001,-0.3343,0.1359485,0.14117500000000005,-0.35313,-0.1951415,-0.21711499999999995,-0.25472,0.1466785,-0.2150049999999999,-0.24878
133,-0.035318999999999996,0.49459999999999993,-0.30604,-0.156382,0.36212999999999995,-0.24761,-0.259552,0.54103,-0.43602,0.099988,0.40369,-0.29823,0.192968,0.54072,-0.4562,-0.29786199999999996,0.750132,-0.5895699999999999,0.23539800000000002,0.75486,-0.6151599999999999,-0.05463799999999999,-0.0009500000000000064,0.008649999999999991,0.05463799999999999,0.0009500000000000064,-0.008649999999999991,-0.21509199999999998,0.14864,-0.33433,0.13681800000000002,0.14401999999999993,-0.35275999999999996,-0.19675199999999998,-0.20518999999999998,-0.25026,0.148038,-0.20487,-0.24631999999999998
134,-0.035016,0.494765,-0.304135,-0.156429,0.362605,-0.245685,-0.259399,0.541075,-0.434795,0.09948100000000001,0.40432500000000005,-0.296485,0.193161,0.541575,-0.455375,-0.297399,0.747976,-0.589125,0.236211,0.755511,-0.615185,-0.05475,0.00020500000000001073,0.008035000000000014,0.05475,-0.00020500000000001073,-0.008034999999999987,-0.215949,0.15234500000000006,-0.334325,0.138201,0.14758500000000008,-0.352435,-0.197749,-0.194515,-0.245865,0.14949099999999999,-0.196295,-0.243835
135,-0.034761,0.49551999999999996,-0.30259499999999995,-0.156479,0.36496,-0.244385,-0.25887899999999997,0.5422899999999999,-0.433785,0.098831,0.40498,-0.295035,0.193201,0.54314,-0.454775,-0.297179,0.747024,-0.588025,0.237051,0.75708,-0.615265,-0.05491,0.0011999999999999789,0.007235000000000019,0.05491,-0.0011999999999999789,-0.0072349999999999914,-0.216869,0.15571000000000002,-0.334635,0.139421,0.15285000000000004,-0.352395,-0.198789,-0.18427000000000004,-0.242055,0.150721,-0.18788000000000005,-0.24184499999999998
136,-0.0345805,0.495995,-0.301245,-0.1565735,0.366435,-0.24329499999999998,-0.2582835,0.5426850000000001,-0.432245,0.09824650000000001,0.40659500000000004,-0.29398499999999994,0.1932865,0.544045,-0.45419499999999996,-0.29699349999999997,0.7463650000000001,-0.586935,0.2377965,0.758075,-0.615275,-0.0550695,0.002454999999999985,0.0063650000000000095,0.0550695,-0.002454999999999985,-0.006364999999999982,-0.2171935,0.16047500000000003,-0.334985,0.1406365,0.15693500000000005,-0.352755,-0.1997935,-0.17474500000000004,-0.237919,0.1514865,-0.182045,-0.24068499999999998
137,-0.034226,0.49598499999999995,-0.30017499999999997,-0.156325,0.36887499999999995,-0.24323499999999998,-0.25748499999999996,0.544435,-0.430965,0.098075,0.40763499999999997,-0.293145,0.193515,0.5467449999999999,-0.454125,-0.296815,0.74561,-0.586525,0.23877500000000002,0.760303,-0.615355,-0.055145,0.004135,0.005464999999999998,0.055145,-0.004135,-0.005464999999999998,-0.217275,0.16407499999999997,-0.335225,0.142055,0.15998499999999993,-0.353315,-0.200025,-0.17050500000000002,-0.237583,0.152035,-0.17800500000000008,-0.239725
138,-0.033747,0.496625,-0.29983499999999996,-0.156171,0.367015,-0.243045,-0.256761,0.543805,-0.429685,0.09822900000000001,0.407345,-0.292255,0.194019,0.548895,-0.453955,-0.296391,0.7440060000000001,-0.586775,0.23994900000000002,0.761612,-0.615275,-0.05512,0.005364999999999953,0.0044450000000000045,0.05512,-0.005364999999999953,-0.0044450000000000045,-0.217071,0.16684500000000002,-0.335325,0.14405900000000002,0.162485,-0.353555,-0.199991,-0.16767500000000002,-0.237385,0.152819,-0.174775,-0.238725
139,-0.033596,0.49717500000000003,-0.298705,-0.156062,0.364675,-0.24222500000000002,-0.256242,0.542795,-0.427785,0.098238,0.40736500000000003,-0.290785,0.19435799999999998,0.550695,-0.45315500000000003,-0.296182,0.744378,-0.586755,0.240838,0.7626280000000001,-0.6144050000000001,-0.055206000000000005,0.005964999999999998,0.0032049999999999856,0.055206000000000005,-0.005964999999999998,-0.0032050000000000134,-0.216902,0.169655,-0.334695,0.145968,0.16468500000000008,-0.353475,-0.200082,-0.16529499999999997,-0.236542,0.153168,-0.171975,-0.23784500000000003
140,-0.033534,0.4968,-0.29845,-0.155867,0.36234,-0.24266,-0.255967,0.54064,-0.42808999999999997,0.098203,0.40639000000000003,-0.29016,0.194903,0.55147,-0.45328999999999997,-0.296057,0.743573,-0.58772,0.241533,0.762849,-0.61447,-0.055171,0.005970000000000031,0.0032000000000000084,0.055171,-0.005970000000000031,-0.0031999999999999806,-0.21687700000000001,0.17123,-0.33486,0.147693,0.16581999999999997,-0.35436999999999996,-0.200187,-0.16393999999999997,-0.236531,0.153423,-0.17037000000000002,-0.23786999999999997
141,-0.033619,0.49646499999999993,-0.298375,-0.155695,0.35845499999999997,-0.243095,-0.25555500000000003,0.5381149999999999,-0.428355,0.098145,0.40550499999999995,-0.289725,0.19545500000000002,0.5519449999999999,-0.453395,-0.29585500000000003,0.74235,-0.588165,0.24220500000000003,0.76293,-0.614575,-0.055129,0.005714999999999915,0.003154999999999991,0.055129,-0.005715000000000026,-0.003154999999999991,-0.21684499999999998,0.17241499999999998,-0.33499500000000004,0.149485,0.166605,-0.355645,-0.200175,-0.16290500000000008,-0.236573,0.153725,-0.1692450000000001,-0.237305
142,-0.033549999999999996,0.4958799999999999,-0.29817499999999997,-0.155592,0.3545299999999999,-0.24317499999999997,-0.25474199999999997,0.5358999999999999,-0.428145,0.09808800000000001,0.4049399999999999,-0.28918499999999997,0.19597799999999999,0.5527499999999999,-0.45320499999999997,-0.295732,0.7434949999999999,-0.588125,0.242798,0.7633539999999999,-0.614115,-0.055026,0.005429999999999935,0.0030150000000000177,0.055026,-0.005430000000000046,-0.00301499999999999,-0.216862,0.17355999999999994,-0.334765,0.151098,0.16747999999999985,-0.35672499999999996,-0.200132,-0.16176000000000013,-0.23627499999999999,0.153908,-0.16831000000000007,-0.23693499999999998
143,-0.033825,0.49581500000000006,-0.29833,-0.155805,0.35259500000000005,-0.24384,-0.254075,0.5357850000000001,-0.42828999999999995,0.097735,0.40675500000000003,-0.28919,0.196195,0.5558050000000001,-0.45355,-0.29585500000000003,0.7468400000000001,-0.58837,0.243055,0.766012,-0.61386,-0.055015999999999995,0.0036450000000000093,0.0027500000000000024,0.055015999999999995,-0.0036449999999998983,-0.0027500000000000024,-0.21717499999999998,0.1769050000000001,-0.33507,0.15216500000000002,0.170555,-0.35817,-0.200405,-0.15842499999999993,-0.236511,0.153615,-0.16524499999999998,-0.23715999999999998
144,-0.033931,0.496105,-0.298735,-0.155877,0.35081500000000004,-0.24449500000000002,-0.25315699999999997,0.5359550000000001,-0.428195,0.09753300000000001,0.40875500000000003,-0.289195,0.196533,0.558915,-0.45387500000000003,-0.295707,0.748051,-0.588465,0.24339300000000003,0.768822,-0.613515,-0.055198,0.00199500000000008,0.0023050000000000015,0.055198,-0.001994999999999969,-0.0023050000000000015,-0.217247,0.18030500000000005,-0.335395,0.153243,0.173875,-0.359585,-0.200497,-0.15502499999999997,-0.236766,0.153523,-0.16185499999999997,-0.237405
145,-0.033988500000000005,0.49739,-0.29891999999999996,-0.15594850000000002,0.34915,-0.24516999999999997,-0.2523585,0.53572,-0.42817999999999995,0.0974215,0.40987,-0.28912,0.1968715,0.56113,-0.45405999999999996,-0.2954885,0.74833,-0.58829,0.24375149999999998,0.770984,-0.61296,-0.0553355,0.0012499999999999734,0.0020100000000000118,0.0553355,-0.0012499999999999734,-0.002009999999999984,-0.21730850000000002,0.18300000000000005,-0.33609,0.1542015,0.17622000000000004,-0.36132,-0.2007185,-0.15261000000000002,-0.23768999999999996,0.1534915,-0.15825,-0.23733099999999996
146,-0.034157,0.499855,-0.29889999999999994,-0.156046,0.348995,-0.24581999999999998,-0.251656,0.536865,-0.42806,0.09732400000000001,0.412175,-0.28912,0.19717400000000002,0.564365,-0.45427,-0.295246,0.749465,-0.58796,0.24400400000000003,0.774327,-0.6124,-0.055454,-0.0006349999999999412,0.0017600000000000116,0.055454,0.0006350000000000522,-0.0017599999999999838,-0.217366,0.186705,-0.3368,0.155114,0.17968499999999998,-0.36297999999999997,-0.200936,-0.14917499999999995,-0.23863999999999996,0.153524,-0.15354500000000004,-0.237419
147,-0.034064,0.50247,-0.29742,-0.155872,0.3527099999999999,-0.24489999999999998,-0.251442,0.54006,-0.42673,0.09747800000000001,0.41489999999999994,-0.28769999999999996,0.197728,0.5674499999999999,-0.45292,-0.29491199999999995,0.751787,-0.5862799999999999,0.24443800000000002,0.777704,-0.61043,-0.055748,-0.0027000000000000357,0.00024000000000001798,0.055748,0.0026999999999999247,-0.00023999999999999022,-0.217162,0.1901799999999999,-0.33605999999999997,0.155908,0.1830599999999999,-0.36268999999999996,-0.200882,-0.14595000000000002,-0.23812999999999998,0.153878,-0.14895000000000003,-0.236167
148,-0.033955,0.5049950000000001,-0.295825,-0.15567999999999999,0.35650500000000007,-0.243825,-0.25121,0.543205,-0.425295,0.09766,0.41748500000000005,-0.286195,0.19823000000000002,0.5703250000000001,-0.45142499999999997,-0.29459,0.7538830000000001,-0.584545,0.24483000000000002,0.7809860000000001,-0.608405,-0.056011,-0.004734999999999934,-0.0011950000000000016,0.056011,0.004735000000000045,0.0011950000000000016,-0.21695,0.19337500000000007,-0.335245,0.15655,0.18626500000000012,-0.36206499999999997,-0.20081,-0.14299499999999998,-0.237555,0.15428,-0.14454499999999992,-0.23490499999999997
149,-0.0338685,0.5075000000000001,-0.2942,-0.15547249999999999,0.3603,-0.24264999999999998,-0.2509725,0.54636,-0.42385,0.09787749999999999,0.42022000000000004,-0.28469999999999995,0.1986475,0.57301,-0.44988,-0.2943425,0.75774,-0.5831,0.2451675,0.784074,-0.60636,-0.0562805,-0.006789999999999963,-0.0026399999999999757,0.0562805,0.006789999999999963,0.0026400000000000035,-0.2167425,0.19627000000000006,-0.33445,0.1568875,0.18921,-0.36118,-0.2007225,-0.14029999999999998,-0.23698999999999998,0.15450750000000002,-0.14042999999999994,-0.23364
150,-0.033717,0.50998,-0.292315,-0.155289,0.36438,-0.241035,-0.250849,0.54962,-0.42286500000000005,0.098141,0.42290999999999995,-0.283045,0.19906100000000002,0.57553,-0.448025,-0.294079,0.761608,-0.581755,0.245541,0.787051,-0.604135,-0.05662400000000001,-0.008850000000000025,-0.004285000000000011,0.05662400000000001,0.008850000000000025,0.004285000000000011,-0.216449,0.19897999999999993,-0.333465,0.157201,0.19172999999999996,-0.359525,-0.200579,-0.13780000000000003,-0.23624499999999998,0.15482100000000001,-0.13688,-0.231935
151,-0.0334925,0.51281,-0.290295,-0.1550505,0.36843,-0.239365,-0.2507705,0.55289,-0.421735,0.09846949999999999,0.42549,-0.28132500000000005,0.1994795,0.57777,-0.445975,-0.2937805,0.765563,-0.580365,0.2459695,0.789964,-0.601905,-0.056960500000000004,-0.01090000000000002,-0.005955000000000016,0.056960500000000004,0.01090000000000002,0.005954999999999988,-0.2160905,0.20140999999999998,-0.332475,0.1575795,0.19391000000000003,-0.357845,-0.2003805,-0.13556,-0.235485,0.1552095,-0.13345000000000007,-0.230165
152,-0.033205,0.51468,-0.288245,-0.15477999999999997,0.3703,-0.23752500000000001,-0.25079,0.55449,-0.420345,0.09878,0.42579,-0.27954500000000004,0.19994,0.57765,-0.443645,-0.29339000000000004,0.767433,-0.578535,0.24641999999999997,0.7905300000000001,-0.599675,-0.057296,-0.011410000000000031,-0.007615000000000011,0.057296,0.011410000000000031,0.007614999999999983,-0.21572999999999998,0.20143,-0.331355,0.15799000000000002,0.19361000000000006,-0.356015,-0.20016,-0.13573000000000002,-0.234595,0.15561999999999998,-0.13259999999999994,-0.22834500000000002
153,-0.032895,0.5161199999999999,-0.285825,-0.154536,0.3717399999999999,-0.235595,-0.250956,0.5559299999999999,-0.419075,0.09906400000000001,0.4259099999999999,-0.277645,0.200424,0.5771899999999999,-0.441115,-0.292946,0.7670619999999999,-0.5763149999999999,0.246854,0.790804,-0.5972949999999999,-0.057635,-0.011990000000000056,-0.009194999999999981,0.057635,0.011989999999999945,0.009195000000000009,-0.215396,0.2011099999999999,-0.330145,0.15773399999999999,0.1930599999999999,-0.354105,-0.199936,-0.1362500000000001,-0.23362499999999997,0.155684,-0.1318800000000001,-0.22690499999999997
154,-0.032607000000000004,0.517,-0.28349,-0.15424200000000002,0.37262,-0.23365000000000002,-0.251152,0.55681,-0.41719000000000006,0.09934799999999999,0.42679,-0.27567,0.200878,0.57807,-0.43835,-0.292572,0.766222,-0.57404,0.247258,0.791684,-0.59483,-0.058003,-0.012870000000000048,-0.01082000000000001,0.058003,0.012870000000000048,0.010819999999999996,-0.215012,0.20187,-0.32824,0.157308,0.19394,-0.35209,-0.19953200000000001,-0.13548000000000004,-0.23165000000000002,0.155558,-0.131,-0.22559
155,-0.03229,0.51791,-0.28149,-0.153885,0.37319,-0.23176999999999998,-0.251495,0.55681,-0.41521,0.099665,0.42679,-0.27366999999999997,0.20120500000000002,0.57807,-0.43549,-0.29229499999999997,0.764589,-0.57177,0.24760500000000002,0.791684,-0.59215,-0.058426,-0.012870000000000048,-0.012359999999999996,0.058426,0.012870000000000048,0.012359999999999996,-0.214555,0.20179000000000002,-0.32627,0.15674500000000002,0.19394,-0.34991,-0.19905499999999998,-0.13561,-0.22966999999999999,0.155785,-0.13148000000000004,-0.22435
156,-0.0325295,0.51894,-0.281545,-0.1540325,0.37475,-0.231425,-0.2525625,0.55728,-0.415065,0.09962750000000001,0.42679,-0.27314499999999997,0.2011075,0.57807,-0.43415499999999996,-0.2928125,0.762891,-0.569485,0.2474675,0.791684,-0.590945,-0.0584455,-0.012870000000000048,-0.012344999999999995,0.0584455,0.012870000000000048,0.012344999999999995,-0.2145125,0.2017,-0.325955,0.1556975,0.19394,-0.349125,-0.1990425,-0.13571999999999995,-0.229295,0.1558675,-0.13249,-0.224515
157,-0.032791,0.5195400000000001,-0.28091,-0.15413,0.3772600000000001,-0.23061,-0.25354,0.5595600000000001,-0.41465,0.09952,0.42702000000000007,-0.27242,0.20094,0.5792400000000001,-0.43262,-0.29342,0.762646,-0.5670999999999999,0.24726,0.792602,-0.5898,-0.058473,-0.013519999999999976,-0.01228,0.058473,0.013520000000000088,0.012279999999999985,-0.21456999999999998,0.20105000000000006,-0.32533,0.15448,0.19349000000000005,-0.34768,-0.19918999999999998,-0.13636999999999988,-0.22866999999999998,0.15547,-0.1326799999999999,-0.22334
158,-0.032955000000000005,0.5198449999999999,-0.28080499999999997,-0.15408400000000003,0.3793549999999999,-0.22989500000000002,-0.254614,0.5614649999999999,-0.413915,0.099636,0.4267849999999999,-0.271675,0.20094599999999999,0.5802949999999999,-0.431085,-0.293884,0.7619219999999999,-0.564635,0.24717599999999998,0.7935239999999999,-0.5891649999999999,-0.058565000000000006,-0.013805000000000067,-0.012215000000000004,0.058565000000000006,0.013804999999999956,0.012215000000000004,-0.21436400000000003,0.1998049999999999,-0.32472500000000004,0.15226599999999998,0.1932649999999999,-0.346165,-0.198854,-0.13761500000000004,-0.228055,0.15519599999999997,-0.13392500000000007,-0.22218500000000002
159,-0.032991000000000006,0.520885,-0.27998,-0.154362,0.380575,-0.22914,-0.256252,0.561705,-0.41303,0.09995799999999999,0.425585,-0.27058,0.200978,0.579205,-0.42947,-0.294502,0.758475,-0.5614,0.24703800000000004,0.79204,-0.58832,-0.058544,-0.013774999999999982,-0.012029999999999999,0.058544,0.013774999999999982,0.012029999999999999,-0.21399200000000002,0.19579500000000005,-0.32401,0.149758,0.19220499999999996,-0.34421,-0.19840200000000002,-0.14260499999999998,-0.22749999999999998,0.154928,-0.13799499999999998,-0.22077
160,-0.033064,0.52208,-0.27892,-0.15455300000000002,0.38138,-0.22821,-0.25749299999999997,0.56195,-0.4117,0.10033700000000001,0.42422,-0.26928,0.200927,0.57855,-0.42783,-0.295223,0.753861,-0.5577300000000001,0.24673699999999998,0.790842,-0.58739,-0.058485,-0.013719999999999954,-0.011859999999999996,0.058485,0.013719999999999954,0.011859999999999996,-0.213433,0.19333,-0.32246,0.14706699999999998,0.19354000000000005,-0.3412,-0.19792300000000002,-0.14788999999999997,-0.22651,0.154437,-0.14337999999999995,-0.22003
161,-0.032964999999999994,0.52366,-0.27763000000000004,-0.154696,0.38192,-0.22729,-0.258296,0.56184,-0.41008999999999995,0.100774,0.42271,-0.2679,0.200784,0.57853,-0.42678000000000005,-0.296146,0.749979,-0.55562,0.246104,0.7908499999999999,-0.58633,-0.058358,-0.013610000000000011,-0.011660000000000004,0.058358,0.013610000000000011,0.011660000000000004,-0.21285600000000002,0.19094,-0.32072,0.144704,0.19087999999999994,-0.3382,-0.197366,-0.15208,-0.2249,0.153944,-0.14952,-0.21932000000000001
162,-0.0327345,0.525365,-0.27601000000000003,-0.15477349999999998,0.383775,-0.22636,-0.2590835,0.5609949999999999,-0.40889,0.10129650000000001,0.421745,-0.26632,0.2005665,0.5781149999999999,-0.42547,-0.2972835,0.745429,-0.55462,0.2454865,0.790324,-0.58513,-0.0581495,-0.01338499999999998,-0.011480000000000004,0.0581495,0.01338499999999998,0.011480000000000004,-0.2121935,0.18818499999999994,-0.3187,0.1431565,0.18772500000000003,-0.33535,-0.1962335,-0.15930500000000003,-0.22387,0.1534165,-0.15693500000000005,-0.21850000000000003
163,-0.03221700000000001,0.527195,-0.27624499999999996,-0.15451900000000002,0.385725,-0.22686499999999998,-0.260239,0.559715,-0.408775,0.101731,0.420815,-0.26593500000000003,0.20043099999999997,0.578395,-0.42542499999999994,-0.298489,0.740937,-0.554845,0.24478100000000003,0.790174,-0.585495,-0.057992,-0.013094999999999968,-0.011494999999999991,0.057992,0.013094999999999968,0.011495000000000005,-0.211549,0.18532499999999996,-0.317885,0.14121099999999998,0.18328500000000003,-0.333545,-0.195119,-0.16710499999999995,-0.224175,0.15286099999999997,-0.16478499999999996,-0.219575
164,-0.0317365,0.5287250000000001,-0.27664500000000003,-0.1541545,0.3883750000000001,-0.227615,-0.26118450000000004,0.557555,-0.409095,0.1022255,0.41976500000000005,-0.265575,0.2005255,0.5795950000000001,-0.425265,-0.30042450000000004,0.7379680000000001,-0.554675,0.2441855,0.790467,-0.586545,-0.057787500000000006,-0.0126949999999999,-0.011514999999999997,0.057787500000000006,0.012695000000000012,0.011514999999999997,-0.2106445,0.18199500000000002,-0.317015,0.1395255,0.17833500000000002,-0.331735,-0.1927245,-0.17666499999999996,-0.22486499999999998,0.1523955,-0.17369499999999993,-0.221875
165,-0.0311885,0.5303,-0.27739,-0.15361049999999998,0.39058000000000004,-0.22853,-0.2619605,0.55947,-0.41019,0.1027595,0.41865,-0.26517,0.2006395,0.5805400000000001,-0.42478,-0.3027005,0.740739,-0.55585,0.24375950000000002,0.790449,-0.58682,-0.0575385,-0.012270000000000003,-0.011540000000000009,0.0575385,0.012270000000000003,0.011539999999999995,-0.2096305,0.17847000000000002,-0.31615000000000004,0.1380095,0.17313999999999996,-0.3297,-0.1905605,-0.18618,-0.22718,0.1521295,-0.18284999999999996,-0.22454000000000002
166,-0.030227,0.528725,-0.279995,-0.152738,0.388645,-0.230955,-0.262198,0.554535,-0.413545,0.103862,0.412535,-0.266405,0.201142,0.571725,-0.426035,-0.30508799999999997,0.736984,-0.559435,0.243722,0.781415,-0.588235,-0.057489,-0.011595000000000022,-0.011304999999999996,0.057489,0.011595000000000022,0.011304999999999996,-0.208158,0.16666499999999995,-0.316865,0.13725199999999999,0.15919499999999998,-0.329025,-0.188058,-0.20386499999999996,-0.230985,0.152222,-0.20038500000000004,-0.228665
167,-0.029421,0.527535,-0.28312499999999996,-0.15226399999999998,0.38665499999999997,-0.233605,-0.262424,0.549635,-0.41773499999999997,0.104876,0.407575,-0.26785499999999995,0.201466,0.563495,-0.42762500000000003,-0.307334,0.732361,-0.560545,0.243426,0.772441,-0.5901649999999999,-0.057443,-0.010994999999999977,-0.011024999999999993,0.057443,0.010994999999999977,0.011025000000000007,-0.206794,0.15530500000000003,-0.31786499999999995,0.137596,0.14468499999999995,-0.328585,-0.185684,-0.22111499999999995,-0.234945,0.151836,-0.21741500000000002,-0.232885
168,-0.028595,0.5251650000000001,-0.287145,-0.151838,0.3847750000000001,-0.23679499999999998,-0.262548,0.5456750000000001,-0.421535,0.105762,0.4028750000000001,-0.270065,0.201552,0.557185,-0.42989499999999997,-0.309718,0.7328510000000001,-0.565595,0.243012,0.7651240000000001,-0.592855,-0.057399,-0.010194999999999954,-0.010554999999999995,0.057399,0.010195000000000065,0.010554999999999995,-0.205378,0.14609500000000009,-0.318955,0.138092,0.13134500000000005,-0.32881499999999997,-0.183298,-0.23633499999999996,-0.239285,0.151212,-0.23226499999999994,-0.23740499999999998
169,-0.027747499999999998,0.52138,-0.29284,-0.1511605,0.37942,-0.24165,-0.2628105,0.53912,-0.42722000000000004,0.1066195,0.39786,-0.27407000000000004,0.20175949999999998,0.54774,-0.43356000000000006,-0.3120105,0.7299869999999999,-0.57235,0.2427895,0.753388,-0.59693,-0.057147500000000004,-0.007750000000000035,-0.008540000000000006,0.057147500000000004,0.007749999999999924,0.008539999999999992,-0.2040105,0.13095,-0.32233,0.1384195,0.11471999999999993,-0.33172,-0.1808505,-0.25351,-0.24591000000000002,0.1509295,-0.25032,-0.24359
170,-0.026743,0.51754,-0.29861499999999996,-0.15029599999999999,0.37517999999999996,-0.24656499999999998,-0.262876,0.53322,-0.432895,0.10755400000000001,0.39244999999999997,-0.27807499999999996,0.202154,0.53754,-0.437345,-0.31420600000000004,0.727932,-0.578605,0.243294,0.743239,-0.601205,-0.057053000000000006,-0.005759999999999987,-0.006524999999999975,0.057053000000000006,0.005759999999999987,0.006525000000000003,-0.202726,0.11483999999999994,-0.325935,0.138954,0.0927,-0.334765,-0.178636,-0.27166999999999997,-0.25299499999999997,0.150754,-0.26911000000000007,-0.24923499999999998
171,-0.025745999999999998,0.5135900000000001,-0.30433,-0.14905,0.36885000000000007,-0.25186000000000003,-0.26259,0.5278200000000001,-0.43794,0.10847,0.3862400000000001,-0.28275,0.20269,0.52846,-0.44185,-0.31588000000000005,0.727357,-0.5840700000000001,0.24358,0.734071,-0.60619,-0.056985,-0.004069999999999907,-0.004740000000000022,0.056985,0.004070000000000018,0.004739999999999994,-0.20169,0.0987300000000001,-0.33031,0.13955,0.07577000000000012,-0.33854,-0.17711,-0.2903199999999999,-0.26076,0.15092,-0.28664999999999996,-0.25421
172,-0.024526,0.50905,-0.31016,-0.14787699999999998,0.36211,-0.25698,-0.262517,0.52227,-0.44189,0.10941300000000001,0.37951999999999997,-0.28748999999999997,0.203273,0.51811,-0.44627999999999995,-0.31727700000000003,0.725708,-0.58914,0.243963,0.723919,-0.6110599999999999,-0.056895,-0.0020999999999999908,-0.0029499999999999804,0.056895,0.0020999999999999908,0.002950000000000008,-0.200707,0.08131999999999995,-0.33469,0.140303,0.05660999999999994,-0.34210999999999997,-0.175777,-0.31228,-0.26905,0.150953,-0.3064,-0.26109
173,-0.02341,0.50611,-0.316445,-0.146979,0.35462,-0.262465,-0.26204900000000003,0.51755,-0.446395,0.11020100000000001,0.37299,-0.292585,0.203791,0.50831,-0.450925,-0.317479,0.718537,-0.594515,0.24432099999999998,0.714706,-0.615755,-0.056938,-0.00024999999999997247,-0.0011049999999999949,0.056938,0.00024999999999997247,0.0011049999999999949,-0.199739,0.06359999999999999,-0.33953500000000003,0.14149099999999998,0.036699999999999955,-0.345725,-0.175039,-0.33219,-0.27619499999999997,0.15101099999999998,-0.32631,-0.268125
174,-0.0222625,0.50313,-0.32323,-0.14602949999999998,0.34656,-0.2685,-0.2615295,0.507915,-0.45133,0.1109305,0.36627,-0.29821,0.20427050000000002,0.49808,-0.45614,-0.3167595,0.70542,-0.60053,0.2447505,0.70552,-0.6202000000000001,-0.0570015,0.0014199999999999768,0.0007800000000000029,0.0570015,-0.0014199999999999768,-0.0007800000000000029,-0.19872949999999998,0.04544999999999999,-0.34493,0.1428605,0.015959999999999974,-0.35002,-0.1746095,-0.35067000000000004,-0.28223,0.15134050000000002,-0.34704999999999997,-0.27409
175,-0.021567499999999996,0.5033190000000001,-0.32693,-0.1453885,0.34148,-0.27219,-0.2610685,0.503603,-0.45420000000000005,0.11145150000000001,0.36328000000000005,-0.30152,0.2050815,0.495495,-0.45798000000000005,-0.3160985,0.7033900000000001,-0.60422,0.2449915,0.7041700000000001,-0.6208,-0.0568275,0.0030400000000000427,0.0026599999999999957,0.0568275,-0.0030399999999999316,-0.0026599999999999957,-0.1981385,0.03485000000000005,-0.34797,0.1439915,0.0026599999999999957,-0.35203,-0.1739485,-0.36397,-0.28592,0.1515015,-0.36029999999999995,-0.27773000000000003
176,-0.0207705,0.502417,-0.330885,-0.14473049999999998,0.33743500000000004,-0.275785,-0.26033049999999996,0.496736,-0.457985,0.11198949999999999,0.360045,-0.304755,0.2061195,0.490781,-0.45884499999999995,-0.3151605,0.697625,-0.606035,0.2453995,0.7008449999999999,-0.620345,-0.0565745,0.004704999999999959,0.004385,0.0565745,-0.004704999999999959,-0.004385,-0.19777050000000002,0.021565000000000056,-0.351105,0.1448895,-0.013055000000000039,-0.354255,-0.1732205,-0.38061500000000004,-0.289875,0.15195950000000003,-0.37685499999999994,-0.281675
177,-0.019718,0.502805,-0.334585,-0.14399299999999998,0.33386499999999997,-0.278895,-0.258913,0.49052999999999997,-0.457055,0.112747,0.35760499999999995,-0.307485,0.20722700000000002,0.48655,-0.461045,-0.31371299999999996,0.6920949999999999,-0.604815,0.246537,0.6985349999999999,-0.622205,-0.056259,0.00570499999999996,0.005865000000000009,0.056259,-0.005705000000000071,-0.005864999999999981,-0.197403,0.008364999999999956,-0.354375,0.14600700000000003,-0.028115,-0.356395,-0.172643,-0.395355,-0.292845,0.15285700000000002,-0.392815,-0.284925
178,-0.0191045,0.5048,-0.33577999999999997,-0.1440395,0.334565,-0.28014,-0.25770950000000004,0.486207,-0.45206999999999997,0.1132305,0.356775,-0.30882,0.20765050000000002,0.485385,-0.46038,-0.3122595,0.690015,-0.601,0.24728050000000001,0.701255,-0.62143,-0.0558225,0.00458499999999995,0.005690000000000001,0.0558225,-0.00458499999999995,-0.005690000000000001,-0.1974695,-0.001354999999999995,-0.35597999999999996,0.1468105,-0.038614999999999955,-0.35685999999999996,-0.1724595,-0.40693500000000005,-0.29418,0.1532405,-0.40669500000000003,-0.28692
179,-0.018107,0.506424,-0.337015,-0.143793,0.3343499999999999,-0.281325,-0.257333,0.48461599999999994,-0.450165,0.113887,0.35634,-0.310005,0.208017,0.48431099999999994,-0.459635,-0.310943,0.69028,-0.598495,0.248037,0.7009,-0.6199749999999999,-0.055491,0.00383,0.005425000000000013,0.055491,-0.00383,-0.005425000000000013,-0.197373,-0.011820000000000053,-0.357695,0.147957,-0.04746000000000006,-0.357395,-0.172093,-0.41876,-0.295435,0.153857,-0.42063000000000006,-0.289385
