sb224sc-HT22-VT27/4dt907/src/data/kinect_good_preprocessed_not_cut_A11_mediapipe/A57_kinect_mirrored.csv
FrameNo,nose_3d_x,nose_3d_y,nose_3d_z,left_shoulder_3d_x,left_shoulder_3d_y,left_shoulder_3d_z,left_elbow_3d_x,left_elbow_3d_y,left_elbow_3d_z,right_shoulder_3d_x,right_shoulder_3d_y,right_shoulder_3d_z,right_elbow_3d_x,right_elbow_3d_y,right_elbow_3d_z,left_wrist_3d_x,left_wrist_3d_y,left_wrist_3d_z,right_wrist_3d_x,right_wrist_3d_y,right_wrist_3d_z,left_hip_3d_x,left_hip_3d_y,left_hip_3d_z,right_hip_3d_x,right_hip_3d_y,right_hip_3d_z,left_knee_3d_x,left_knee_3d_y,left_knee_3d_z,right_knee_3d_x,right_knee_3d_y,right_knee_3d_z,left_ankle_3d_x,left_ankle_3d_y,left_ankle_3d_z,right_ankle_3d_x,right_ankle_3d_y,right_ankle_3d_z
0,0.9981010000000001,0.701276,0.06809,0.87039,0.435516,0.0332549999999999,0.8191900000000001,0.204416,0.0336649999999999,1.1452,0.421496,0.040191,1.18871,0.1820959999999999,0.037846,0.81972,-0.0460449999999999,-0.07029,1.19651,-0.0084669999999999,-0.045169,0.933822,0.0006279999999999,0.0001639999999999,1.066178,-0.000628,-0.000164,0.88191,-0.420604,-0.004766,1.12998,-0.407404,-0.010668,0.83403,-0.857994,-0.02216,1.17753,-0.8658440000000001,-0.03998
1,0.998049,0.7013860000000001,0.06827,0.8698350000000001,0.433366,0.035289,0.819185,0.204476,0.033596,1.1453749999999998,0.421256,0.041012,1.1887249999999998,0.182166,0.038459,0.819735,-0.045991,-0.07029,1.195875,-0.008005,-0.045644,0.933813,0.000611,0.000169,1.066187,-0.000611,-0.000169,0.881855,-0.420624,-0.00474,1.130025,-0.407204,-0.010657,0.8340250000000001,-0.857834,-0.022133,1.177425,-0.8654339999999999,-0.040315
2,0.9981305,0.7014695,0.068537,0.8696595,0.4318295,0.036502,0.8191195,0.2045395,0.033592,1.1455495,0.4206195,0.042274,1.1886595,0.1822195,0.038536,0.8196995,-0.0459045,-0.070369,1.1945595,-0.0346645,-0.054576,0.9337885,0.0006275,0.0001509999999999,1.0662115,-0.0006275,-0.0001509999999999,0.8817794999999999,-0.4205305,-0.004822,1.1299595,-0.4071005,-0.010736,0.8332595,-0.8529405000000001,-0.01877,1.1770495,-0.8606005000000001,-0.0351439999999999
3,0.998111,0.7017559999999999,0.068784,0.8698980000000001,0.431606,0.036596,0.818858,0.204086,0.033746,1.145438,0.4204759999999999,0.042527,1.188708,0.182556,0.038799,0.819698,-0.045757,-0.070305,1.194368,-0.0352339999999999,-0.054721,0.933783,0.000624,0.0001309999999999,1.066217,-0.000624,-0.0001309999999999,0.881718,-0.419994,-0.004746,1.129908,-0.406874,-0.0109019999999999,0.8334680000000001,-0.8533540000000001,-0.0194109999999999,1.176968,-0.860494,-0.035363
4,0.9982345,0.7018325000000001,0.0689095,0.8700565,0.4310925,0.0369045,0.8189165,0.2041625,0.0338185,1.1453265,0.4202425,0.0425175,1.1888165,0.1826925,0.0389175,0.8197365,-0.0457165,-0.0702774999999999,1.1946665,-0.0283975,-0.0523224999999999,0.9337825,0.0006355,0.0001255,1.0662175,-0.0006354999999999,-0.0001255,0.8817265,-0.4197675,-0.0048284999999999,1.1299865,-0.4069575,-0.0108045,0.8335365,-0.8553175,-0.0198865,1.1760465,-0.8497275,-0.0340225
5,0.9985485000000001,0.701963,0.0689065,0.8700085,0.430573,0.0372444999999999,0.8190485000000001,0.204333,0.0338625,1.1454785,0.419763,0.0431594999999999,1.1888885,0.182933,0.0390144999999999,0.8198985,-0.045676,-0.0704655,1.1949485,-0.025261,-0.0516195,0.9337975000000001,0.000719,-1.9500000000005624e-05,1.0662025,-0.000719,1.9499999999998685e-05,0.8818185000000001,-0.419327,-0.0050305,1.1301285,-0.406817,-0.0110275,0.8334685,-0.856637,-0.0204525,1.1760085,-0.851577,-0.0345895
6,0.9986270000000002,0.702129,0.069128,0.869612,0.430229,0.037945,0.819002,0.204169,0.03392,1.145312,0.419599,0.04334,1.188792,0.182939,0.039255,0.8199520000000001,-0.045745,-0.070466,1.195042,-0.02359,-0.051182,0.933785,0.0006619999999999,2.000000000002e-06,1.066215,-0.000662,-2.000000000002e-06,0.8818620000000001,-0.419241,-0.004928,1.130172,-0.406751,-0.0108899999999999,0.833452,-0.856931,-0.020712,1.176622,-0.855141,-0.036547
7,0.9984125000000001,0.7022215,0.0691015,0.8694065000000001,0.4300915,0.0375815,0.8189565,0.2045715,0.0340325,1.1451665,0.4196315,0.0432045,1.1885965,0.1828715,0.0390795,0.8197665000000001,-0.0455345,-0.0705455,1.1949865,-0.0246015,-0.0508364999999999,0.9337785,0.0006764999999999,-3.649999999999487e-05,1.0662215,-0.0006765,3.650000000000181e-05,0.8816665,-0.4193885,-0.0055524999999999,1.1300165,-0.4065885,-0.0111934999999999,0.8337765000000001,-0.8551985,-0.0207684999999999,1.1768565,-0.8608985,-0.0391834999999999
8,0.9984460000000001,0.7023825,0.0694335,0.869313,0.4298125,0.0379695,0.818933,0.2047025,0.0342185,1.145133,0.4194624999999999,0.0434965,1.1885729999999999,0.1829725,0.0392085,0.819773,-0.0454565,-0.0705735,1.194963,-0.0251955,-0.0512605,0.933773,0.0006875,-7.949999999999624e-05,1.066227,-0.0006874999999999,7.950000000000318e-05,0.881633,-0.4190275,-0.0058294999999999,1.130013,-0.4064975,-0.0113494999999999,0.8338630000000001,-0.8540675,-0.0210454999999999,1.176873,-0.8584275,-0.0387794999999999
9,0.998473,0.7025405,0.069744,0.869253,0.4295905,0.038311,0.818913,0.2048205,0.034407,1.145073,0.4193105,0.043799,1.188553,0.1830505,0.039318,0.8197730000000001,-0.0453935,-0.070614,1.1949429999999999,-0.0254765,-0.051578,0.933769,0.0006954999999999,-0.000119,1.066231,-0.0006954999999999,0.000119,0.881603,-0.4186395,-0.00612,1.130013,-0.4064495,-0.011519,0.8339730000000001,-0.8531295,-0.021335,1.176833,-0.8561595000000001,-0.038327
10,0.9984905000000001,0.7026945,0.0700774999999999,0.8692115,0.4294145,0.0386064999999999,0.8189015,0.2049345,0.0345814999999999,1.1450015,0.4192145,0.0440194999999999,1.1885215,0.1831545,0.0394234999999999,0.8197715000000001,-0.0453345,-0.0706315,1.1950015,-0.0240515,-0.0514635,0.9337555,0.0006934999999999,-0.0001415,1.0662445,-0.0006935,0.0001414999999999,0.8815715000000001,-0.4182655,-0.0063955,1.1300015,-0.4064055,-0.0116875,0.8342415,-0.8515255,-0.0216205,1.1767515,-0.8555055,-0.0388955
11,0.9985025,0.7028445,0.070375,0.8691795,0.4292845,0.038798,0.8189095,0.2050644999999999,0.034729,1.1449395,0.4191245,0.044228,1.1884895,0.1832244999999999,0.039475,0.8197595,-0.0452865,-0.070655,1.1950595,-0.0225124999999999,-0.0514639999999999,0.9337475,0.0006975,-0.000161,1.0662525,-0.0006975,0.000161,0.8815495,-0.4178955,-0.0067139999999999,1.1299895,-0.4063455,-0.0119039999999999,0.8344695,-0.8505255,-0.021974,1.1767395,-0.8549255,-0.0396529999999999
12,0.9985145000000001,0.702984,0.0706845,0.8690935000000001,0.429194,0.0390055,0.8189135000000001,0.205154,0.0348775,1.1448735,0.419054,0.0444355,1.1884435,0.183294,0.0395284999999999,0.8197435,-0.0452049999999999,-0.0706475,1.1950535,-0.022264,-0.0515765,0.9337395,0.0007029999999999,-0.0001794999999999,1.0662605,-0.000703,0.0001794999999999,0.8815235,-0.417556,-0.0069555,1.1299835,-0.406326,-0.0120835,0.8346534999999999,-0.849426,-0.0221785,1.1768135,-0.855286,-0.0404725
13,0.9985360000000001,0.7031080000000001,0.07107,0.8690230000000001,0.429158,0.0392,0.8189230000000001,0.205238,0.0350619999999999,1.144823,0.418988,0.0446489999999999,1.188413,0.183358,0.03963,0.819733,-0.045129,-0.070643,1.195073,-0.022223,-0.051613,0.9337350000000001,0.000701,-0.00019,1.0662649999999998,-0.0007009999999999,0.0001899999999999,0.881513,-0.4172619999999999,-0.007217,1.1299730000000001,-0.406312,-0.01227,0.8348330000000002,-0.848332,-0.022437,1.176803,-0.855892,-0.041448
14,0.998561,0.703231,0.0714175,0.868955,0.429121,0.0394045,0.818935,0.205301,0.0352335,1.144765,0.418941,0.0448545,1.188375,0.183441,0.0397345,0.819735,-0.045073,-0.0706335,1.195105,-0.022206,-0.0516125,0.933729,0.0006999999999999,-0.0001945,1.066271,-0.0006999999999999,0.0001945,0.881485,-0.416949,-0.0074854999999999,1.1299649999999999,-0.406289,-0.0124555,0.8349949999999999,-0.847199,-0.0226615,1.176745,-0.856219,-0.0421875
15,0.998586,0.703318,0.0717754999999999,0.868906,0.4290879999999999,0.0396295,0.818946,0.2053579999999999,0.0353445,1.144716,0.418898,0.0450715,1.188336,0.183528,0.0398565,0.819726,-0.045011,-0.0705755,1.195076,-0.0228649999999999,-0.0518485,0.9337219999999999,0.0006969999999999,-0.0001945,1.066278,-0.0006969999999999,0.0001945,0.881476,-0.416642,-0.0077604999999999,1.129946,-0.406272,-0.0126124999999999,0.835136,-0.8457819999999999,-0.0227985,1.176916,-0.856252,-0.0421314999999999
16,0.9986025000000001,0.7033995,0.072138,0.8688565,0.4290495,0.039804,0.8189265,0.2052095,0.035428,1.1446665,0.4188495,0.0453169999999999,1.1883065,0.1836895,0.039985,0.8197065,-0.0449605,-0.070551,1.1950265,-0.0238095,-0.052138,0.9337175,0.0006945,-0.000207,1.0662825,-0.0006945,0.0002069999999999,0.8814565,-0.4164205,-0.008011,1.1299365,-0.4062505,-0.01277,0.8351665,-0.8446505,-0.023039,1.1770965,-0.8562905000000001,-0.042002
17,0.9986185,0.7034395,0.0722725,0.8688025,0.4290395,0.0397865,0.8189124999999999,0.2050394999999999,0.0354015,1.1446225,0.4188495,0.0453805,1.1882625,0.1837194999999999,0.0400315,0.8196825,-0.0449325,-0.0705365,1.1949825,-0.0245695,-0.0523215,0.9337105,0.0006944999999999,-0.0002074999999999,1.0662895,-0.0006945,0.0002074999999999,0.8814325,-0.4163805,-0.0082065,1.1299125,-0.4062305,-0.0128905,0.8351625,-0.8445104999999999,-0.0231915,1.1770725,-0.8575905,-0.0426185
18,0.9986295,0.703477,0.072432,0.8687855,0.429017,0.039768,0.8188854999999999,0.204927,0.035354,1.1445855,0.418887,0.0454559999999999,1.1882155,0.183757,0.040096,0.8196555,-0.044907,-0.070535,1.1949355,-0.024907,-0.052409,0.9337075,0.000693,-0.000217,1.0662925,-0.0006929999999999,0.0002169999999999,0.8814155,-0.416343,-0.008405,1.1298854999999999,-0.406193,-0.013025,0.8350155,-0.845463,-0.023566,1.1771555,-0.858563,-0.0432269999999999
19,0.9986495000000001,0.7035144999999999,0.072603,0.8688125000000001,0.4290045,0.03977,0.8188725,0.2048145,0.035309,1.1445425,0.4189245,0.04557,1.1881825,0.1837845,0.0402099999999999,0.8196325,-0.0448695,-0.070517,1.1948725,-0.0249295,-0.0524149999999999,0.9337085,0.0006935,-0.000225,1.0662915,-0.0006934999999999,0.0002249999999999,0.8814025,-0.4163055,-0.008619,1.1298625,-0.4061655,-0.013156,0.8349925,-0.8460955,-0.023804,1.1771325,-0.8593755000000001,-0.043781
20,0.9986225000000001,0.7035414999999999,0.0728275,0.8687885000000001,0.4289815,0.0397885,0.8188485,0.2046015,0.0353095,1.1445085,0.4189015,0.0456725,1.1881385,0.1838115,0.0403415,0.8196085000000001,-0.0448855,-0.0704845,1.1948585,-0.0253535,-0.0524484999999999,0.9337055,0.0006934999999999,-0.0002435,1.0662945,-0.0006934999999999,0.0002435,0.8813885,-0.4162785,-0.0087795,1.1298485,-0.4061685,-0.0132974999999999,0.8350885,-0.8463385,-0.0241755,1.1773585,-0.8593485000000001,-0.0439365
21,0.9985885,0.7035644999999999,0.0730865,0.8687475,0.4289545,0.0398015,0.8188075,0.2043645,0.0353175,1.1444675,0.4188845,0.0458355,1.1880875,0.1838345,0.0404685,0.8195775000000001,-0.0448915,-0.0704725,1.1949175,-0.0248645,-0.0523104999999999,0.9337035,0.0006944999999999,-0.0002565,1.0662965,-0.0006945,0.0002564999999999,0.8813675,-0.4162555,-0.0089525,1.1298175,-0.4061455,-0.0134505,0.8350575,-0.8469255000000001,-0.0246175,1.1776275,-0.8593255000000001,-0.0441565
22,0.9985520000000001,0.703572,0.0732905,0.8687190000000001,0.428922,0.0398305,0.8187590000000001,0.204132,0.0353025,1.144419,0.418862,0.0459885,1.188049,0.183832,0.0405605,0.8195490000000001,-0.044906,-0.0704565,1.1948889999999999,-0.025047,-0.0524544999999999,0.9336990000000001,0.0006959999999999,-0.0002694999999999,1.066301,-0.000696,0.0002694999999999,0.881359,-0.416248,-0.0091014999999999,1.129789,-0.406128,-0.0135865,0.835119,-0.846928,-0.0248335,1.1779089999999999,-0.8593080000000001,-0.0444115
23,0.9985025000000001,0.703631,0.07373,0.8686395,0.428861,0.039956,0.8186895000000001,0.204131,0.03515,1.1443495,0.418911,0.046226,1.1879895,0.183921,0.040552,0.8194895,-0.04471,-0.070517,1.1947495,-0.025032,-0.052661,0.9336925000000001,0.0006879999999999,-0.0003119999999999,1.0663075,-0.0006879999999999,0.0003119999999999,0.8813895,-0.416059,-0.00937,1.1297995,-0.406079,-0.0137679999999999,0.8350595000000001,-0.847409,-0.025136,1.1780495,-0.8598889999999999,-0.045118
24,0.998473,0.7036865,0.0741785,0.868491,0.4287865,0.0400355,0.818601,0.2042465,0.0349485,1.144301,0.4189665,0.0464445,1.187931,0.1840065,0.0403515,0.819441,-0.0445275,-0.0707175,1.194651,-0.0255404999999999,-0.0529945,0.933688,0.0006815,-0.0003375,1.066312,-0.0006814999999999,0.0003375,0.881431,-0.4158135,-0.0096164999999999,1.129821,-0.4060535,-0.0139445,0.835061,-0.8480935000000001,-0.0253975,1.178241,-0.8605735,-0.0457964999999999
25,0.998435,0.7037420000000001,0.074628,0.868349,0.428752,0.040087,0.818469,0.204542,0.034746,1.144249,0.419042,0.046614,1.187879,0.184692,0.040149,0.819329,-0.044424,-0.070921,1.194609,-0.024915,-0.054581,0.9336810000000001,0.000673,-0.0003709999999999,1.066319,-0.000673,0.0003709999999999,0.8814790000000001,-0.415538,-0.009864,1.129839,-0.405938,-0.014111,0.8349690000000001,-0.8492679999999999,-0.026112,1.178469,-0.861208,-0.046471
26,0.9984145,0.7037990000000001,0.075031,0.8682015,0.428759,0.040152,0.8183215,0.205159,0.03451,1.1442115,0.4191089999999999,0.046776,1.1878315,0.185379,0.039932,0.8191915,-0.044388,-0.0711379999999999,1.1945815,-0.024298,-0.056378,0.9336675,0.000656,-0.000434,1.0663325,-0.000656,0.000434,0.8815215,-0.415301,-0.010098,1.1298615,-0.405751,-0.014295,0.8348615,-0.850451,-0.026824,1.1784815,-0.861811,-0.046659
27,0.9983970000000001,0.7038485000000001,0.075409,0.868084,0.4288085,0.040188,0.818114,0.2057485,0.034161,1.144174,0.4192285,0.046888,1.187784,0.1860284999999999,0.039639,0.8190040000000001,-0.0437985,-0.071758,1.194624,-0.0228955,-0.0583829999999999,0.9336540000000001,0.0006125,-0.0005129999999999,1.0663459999999998,-0.0006125,0.0005129999999999,0.881574,-0.4152015,-0.0103319999999999,1.1298139999999999,-0.4051315,-0.0145229999999999,0.8347640000000001,-0.8515815,-0.0275799999999999,1.178654,-0.8625214999999999,-0.046818
28,0.9983725000000001,0.703872,0.075658,0.8679545000000001,0.429092,0.040091,0.8177145,0.206422,0.033305,1.1441445,0.419392,0.046859,1.1879245,0.186762,0.03861,0.8186745000000001,-0.043245,-0.0730799999999999,1.1955445,-0.02204,-0.0613669999999999,0.9336385,0.000536,-0.000594,1.0663615,-0.000536,0.000594,0.8816345,-0.415158,-0.010683,1.1297545,-0.404568,-0.0148709999999999,0.8347045000000001,-0.852758,-0.028411,1.1788345,-0.861968,-0.046878
29,0.9983045000000002,0.7038314999999999,0.0756835,0.8677365000000001,0.4294115,0.0398284999999999,0.8168365000000001,0.2070415,0.0315374999999999,1.1440765,0.4196415,0.0466435,1.1883765,0.1881615,0.0365635,0.8181265,-0.0427655,-0.0755735,1.1967065,-0.0211435,-0.0651495,0.9336145,0.0004155,-0.0007065,1.0663855,-0.0004154999999999,0.0007064999999999,0.8816365,-0.4152085,-0.0112345,1.1296365,-0.4040985,-0.0153625,0.8345965000000001,-0.8540485,-0.0294945,1.1787865,-0.8615085,-0.0471005
30,0.9981735,0.703697,0.0754155,0.8674045,0.429697,0.0393375,0.8154745,0.207877,0.0287985,1.1439345,0.419867,0.0461105,1.1895745,0.189977,0.0326945,0.8159545,-0.040151,-0.0812555,1.1993444999999998,-0.0173909999999999,-0.0715815,0.9336055,0.0002489999999999,-0.0007594999999999,1.0663945,-0.0002489999999999,0.0007594999999999,0.8815745000000001,-0.4151629999999999,-0.0120114999999999,1.1294745,-0.402043,-0.0158295,0.8342845,-0.855143,-0.0309645,1.1787045,-0.8610129999999999,-0.0474715
31,0.998003,0.7034075,0.074918,0.866981,0.4298875,0.038741,0.813121,0.2099475,0.024296,1.143681,0.4200575,0.045358,1.191591,0.1931775,0.027037,0.811611,-0.0335505,-0.089,1.203741,-0.0122405,-0.08177,0.933606,7.849999999999871e-05,-0.0007889999999999,1.066394,-7.849999999999871e-05,0.000789,0.881431,-0.4149724999999999,-0.0129859999999999,1.129271,-0.4002124999999999,-0.0165459999999999,0.833981,-0.8563824999999999,-0.0325849999999999,1.178571,-0.8574425,-0.0469939999999999
32,0.9979015000000001,0.7034075,0.0739644999999999,0.8667045,0.4298875,0.0377905,0.8102745,0.2130775,0.0184294999999999,1.1434145,0.4200775,0.0442845,1.1943945,0.1975575,0.0195734999999999,0.8059745,-0.0259105,-0.1024735,1.2097345,-0.0074345,-0.0989135,0.9335925,7.849999999999871e-05,-0.0008645,1.0664075,-7.849999999999871e-05,0.0008644999999999,0.8812545,-0.4149724999999999,-0.0141025,1.1291145,-0.3987325,-0.0174475,0.8337045,-0.8571124999999999,-0.0344335,1.1784445,-0.8577825,-0.0479335
33,0.997933,0.7034075,0.0726515,0.86653,0.4298975,0.0364455,0.80659,0.2175475,0.0104455,1.14321,0.4200775,0.0428485,1.19842,0.2037275,0.0098895,0.79899,-0.0162895,-0.1201805,1.21746,0.0047515,-0.1175705,0.933576,7.849999999999871e-05,-0.0009445,1.066424,-7.849999999999871e-05,0.0009445,0.88115,-0.4149625,-0.0154504999999999,1.12901,-0.3974125,-0.0181535,0.8334900000000001,-0.8575125,-0.0362505,1.17843,-0.8581825,-0.0492704999999999
34,0.9981265,0.7034075,0.07111,0.8664255,0.4302275,0.034998,0.8024455,0.2230375,0.0012909999999999,1.1430655,0.4200775,0.0412,1.2040355,0.2118375,-0.002092,0.7904555,-0.0016574999999999,-0.140494,1.2264154999999999,0.0204285,-0.1392739999999999,0.9335424999999999,7.849999999999871e-05,-0.001052,1.0664575,-7.849999999999871e-05,0.0010519999999999,0.8810855,-0.4149625,-0.016829,1.1289855,-0.3961825,-0.019057,0.8333254999999999,-0.8575524999999999,-0.038222,1.1785255000000001,-0.8586125,-0.0510119999999999
35,0.9985615,0.7029964999999999,0.06928,0.8663375,0.4310265,0.03343,0.7967875,0.2310765,-0.010685,1.1429675,0.4203165,0.039386,1.2102575,0.2216165,-0.01576,0.7808675,0.0211934999999999,-0.163068,1.2360375,0.0397955,-0.168078,0.9335175,-4.050000000000234e-05,-0.0011439999999999,1.0664825,4.049999999999887e-05,0.0011439999999999,0.8810775,-0.4148235,-0.018158,1.1289075,-0.3939634999999999,-0.020066,0.8331475,-0.8581335,-0.040387,1.1785475,-0.8584835000000001,-0.053022
36,0.9991135,0.7024269999999999,0.067121,0.8663645,0.431837,0.0316199999999999,0.7905745,0.240117,-0.023768,1.1428045,0.420797,0.037473,1.2180945,0.235357,-0.03188,0.7705744999999999,0.046298,-0.1920039999999999,1.2463644999999999,0.0664329999999999,-0.197024,0.9335125,-0.0001199999999999,-0.001264,1.0664875,0.00012,0.0012639999999999,0.8810445000000001,-0.414263,-0.019202,1.1289245,-0.391883,-0.021232,0.8330345,-0.858843,-0.042892,1.1786945,-0.859203,-0.055766
37,0.999712,0.701697,0.0647725,0.8664700000000001,0.432707,0.0297995,0.78281,0.252687,-0.0386954999999999,1.14259,0.421497,0.0356115,1.22581,0.251417,-0.0489804999999999,0.76,0.078931,-0.2199675,1.25708,0.0985429999999999,-0.2263175,0.933516,-0.00017,-0.0013204999999999,1.066484,0.00017,0.0013205,0.88105,-0.413143,-0.0200994999999999,1.12903,-0.390043,-0.0224145,0.83302,-0.859733,-0.0455654999999999,1.1789299999999998,-0.855563,-0.0559365
38,1.0003114999999998,0.7007815,0.0624385,0.8665795000000001,0.4337014999999999,0.0278645,0.7747595,0.2678914999999999,-0.0539635,1.1422495,0.4224715,0.0337005,1.2338495,0.2704815,-0.0657965,0.7458695,0.1177715,-0.2487174999999999,1.2678695,0.1395115,-0.2548074999999999,0.9335154999999999,-0.0001904999999999,-0.0012065,1.0664845,0.0001904999999999,0.0012064999999999,0.8810595,-0.4132085,-0.0209994999999999,1.1291795,-0.3894485,-0.0234825,0.8330295,-0.8610485,-0.0481055,1.1791595,-0.8525885000000001,-0.0558884999999999
39,1.0009045,0.6997040000000001,0.0601265,0.8665985,0.434864,0.0260805,0.7668085,0.288644,-0.0698395,1.1419484999999998,0.423584,0.0317025,1.2408885,0.292374,-0.0812345,0.7326585,0.162014,-0.2752285,1.2788385,0.186014,-0.2809585,0.9335154999999999,-0.00021,-0.0012265,1.0664845,0.00021,0.0012265,0.8811385,-0.413406,-0.0219445,1.1290485000000001,-0.390356,-0.0246345,0.8330485000000001,-0.8623460000000001,-0.0506215,1.1795185,-0.8501860000000001,-0.0562615
40,1.0015414999999999,0.6983619999999999,0.0576275,0.8666435,0.436332,0.0245405,0.7599335,0.311882,-0.0853915,1.1417135,0.425042,0.0292214999999999,1.2474034999999999,0.317782,-0.0959245,0.7213335000000001,0.209812,-0.3014345,1.2876735,0.239222,-0.3037145,0.9335205,-0.0001619999999999,-0.0012624999999999,1.0664795,0.0001619999999999,0.0012625,0.8812235,-0.413878,-0.0231345,1.1288635,-0.391648,-0.0257275,0.8330735000000001,-0.8639680000000001,-0.0531665,1.1798735,-0.850638,-0.0588365
41,1.0022465,0.6968335000000001,0.0551975,0.8668275,0.4383135,0.0234435,0.7532875,0.3365835,-0.0998435,1.1416275,0.4264035,0.0266665,1.2538075,0.3447435,-0.1090635,0.7116875,0.2643835,-0.3204435,1.2940475,0.2988035,-0.3184635,0.9335575,-5.750000000000026e-05,-0.0013455,1.0664425,5.750000000000026e-05,0.0013455,0.8816275000000001,-0.4120065,-0.0242465,1.1287375,-0.3931365,-0.0267064999999999,0.8332075000000001,-0.8657665,-0.0553505,1.1802675,-0.8509865,-0.0614165
42,1.0030735,0.6952795,0.0530995,0.8672575,0.4406595,0.0225515,0.7480175,0.3629695,-0.1128955,1.1418075,0.4275995,0.0247025,1.2587575,0.3738695,-0.1198255,0.7051075,0.3262995,-0.3302655,1.2979075,0.3606995,-0.3277655,0.9335805000000001,0.0001095,-0.0015685,1.0664194999999999,-0.0001095,0.0015685,0.8819075000000001,-0.4136605,-0.0251734999999999,1.1292075,-0.3952505,-0.0277164999999999,0.8334675,-0.8675805,-0.0568505,1.1808074999999998,-0.8483905,-0.0615325
43,1.0039695,0.6938139999999999,0.0513595,0.8678125000000001,0.442804,0.0218605,0.7438525,0.3909439999999999,-0.1244385,1.1421725,0.428684,0.0229595,1.2618224999999998,0.4075439999999999,-0.1269385,0.7005725,0.3900639999999999,-0.3372185,1.2999225,0.4279639999999999,-0.3294885,0.9336234999999999,0.000326,-0.0017655,1.0663765,-0.000326,0.0017655,0.8822325,-0.415616,-0.0259215,1.1297125000000001,-0.397536,-0.0284405,0.8337925000000002,-0.869246,-0.0578975,1.1814525,-0.8495860000000001,-0.0624595
44,1.004656,0.6922324999999999,0.050184,0.868178,0.4445525,0.021089,0.741328,0.4233425,-0.131977,1.142428,0.4292625,0.021854,1.263778,0.4420325,-0.130607,0.697818,0.4522025,-0.338417,1.300208,0.4973125,-0.330667,0.933743,0.0005665,-0.00195,1.066257,-0.0005665,0.00195,0.882378,-0.4180275,-0.026345,1.129968,-0.3978175,-0.0292429999999999,0.834048,-0.8710675,-0.058232,1.181968,-0.8513975,-0.063162
45,1.005222,0.6903785,0.0496015,0.868428,0.4463485,0.0205365,0.7400180000000001,0.4554785,-0.1365595,1.142568,0.4305485,0.0213015,1.2639179999999999,0.4773185,-0.1311595,0.696808,0.5149285,-0.3389695,1.3003479999999998,0.5638685000000001,-0.3312195,0.933879,0.0007545,-0.0020495,1.066121,-0.0007545,0.0020495,0.882058,-0.4212015,-0.0268845,1.129958,-0.3987215,-0.0295975,0.834228,-0.8731914999999999,-0.0581084999999999,1.182368,-0.8584014999999999,-0.0659734999999999
46,1.0058064999999998,0.6885659999999999,0.049197,0.8686265,0.447866,0.020408,0.7401065,0.487386,-0.137509,1.1426565,0.431526,0.021161,1.2640065,0.511006,-0.131289,0.6966365,0.5788859999999999,-0.3374689999999999,1.3004265,0.6299159999999999,-0.330769,0.9339675000000001,0.000889,-0.002136,1.0660325,-0.0008889999999999,0.002136,0.8816965,-0.424524,-0.027017,1.1298165,-0.400064,-0.029689,0.8343365,-0.875784,-0.05769,1.1827565,-0.865484,-0.068458
47,1.0064015,0.6862845,0.0486614999999999,0.8688985000000001,0.4494245,0.0204104999999999,0.7401785000000001,0.5166445,-0.1375085,1.1429485,0.4331845,0.0210215,1.2640785,0.5430645,-0.1312885,0.6967085,0.6368645,-0.3374684999999999,1.2997684999999999,0.6898745,-0.3184785,0.9340395,0.0009164999999999,-0.0021355,1.0659605,-0.0009165,0.0021355,0.8813285000000001,-0.4275655,-0.0270195,1.1296385,-0.4018355,-0.0296905,0.8344185,-0.8788755,-0.0575105,1.1831185,-0.8678755,-0.0686255
48,1.006948,0.6838205,0.047605,0.869185,0.4507305,0.020398,0.7401949999999999,0.5418505,-0.137509,1.143525,0.4346005,0.02051,1.263975,0.5726705,-0.130159,0.696645,0.6916605,-0.325689,1.298915,0.7443505,-0.303519,0.934126,0.0009405,-0.0021349999999999,1.065874,-0.0009404999999999,0.002135,0.880735,-0.4343395,-0.027024,1.1293849999999999,-0.4040895,-0.029692,0.8345250000000001,-0.8822595,-0.057368,1.183225,-0.8713695,-0.06871
49,1.007353,0.6815760000000001,0.046171,0.869444,0.451556,0.019857,0.7409140000000001,0.564486,-0.1374989999999999,1.144224,0.435956,0.019816,1.263434,0.598506,-0.125559,0.696454,0.740416,-0.3112189999999999,1.295444,0.792766,-0.2855689999999999,0.934236,0.000889,-0.002134,1.065764,-0.0008889999999999,0.002134,0.880344,-0.437674,-0.027376,1.129014,-0.406284,-0.029702,0.834564,-0.885354,-0.057269,1.183224,-0.874814,-0.06874
50,1.00778,0.6793105,0.045071,0.869708,0.4518304999999999,0.0194319999999999,0.743638,0.5866905,-0.1358899999999999,1.145128,0.4375705,0.01945,1.261188,0.6223105,-0.11995,0.700098,0.7834405,-0.29248,1.290968,0.8353605000000001,-0.2654,0.934368,0.0007994999999999,-0.002316,1.065632,-0.0007995,0.002316,0.879898,-0.4419895,-0.027513,1.128568,-0.4086295,-0.029616,0.8345580000000001,-0.8882795,-0.056879,1.183188,-0.8742194999999999,-0.065344
51,1.0082375,0.6768815,0.0439285,0.8699375,0.4519115,0.0189475,0.7466075,0.6074215,-0.1294894999999999,1.1460875,0.4394715,0.0195885,1.2589975,0.6430115,-0.1121495,0.7052375,0.8174815,-0.2737995,1.2842274999999999,0.8692314999999999,-0.2417995,0.9345345,0.0007015,-0.0024725,1.0654655,-0.0007014999999999,0.0024725,0.8796675,-0.4466185,-0.0274174999999999,1.1283975,-0.4123785,-0.0294024999999999,0.8345075,-0.8922585000000001,-0.0561474999999999,1.1831175,-0.8741485,-0.0616844999999999
52,1.0086549999999999,0.674237,0.0427345,0.870144,0.451957,0.0181785,0.749514,0.623227,-0.1236505,1.146984,0.441997,0.0205545,1.256684,0.6583169999999999,-0.1020005,0.710324,0.845317,-0.2537305,1.276874,0.8953369999999999,-0.2144005,0.934752,0.000518,-0.0026625,1.065248,-0.0005179999999999,0.0026625,0.879494,-0.451293,-0.0269455,1.128184,-0.416473,-0.0289925,0.834434,-0.896313,-0.0550375,1.1829239999999999,-0.878753,-0.0607355
53,1.0090565,0.671779,0.0412275,0.8703405,0.452329,0.0169835,0.7521805,0.6320589999999999,-0.1163355,1.1478405,0.444929,0.0216375,1.2540805,0.6717289999999999,-0.0908265,0.7157505,0.866769,-0.2292255,1.2692705,0.916849,-0.1847755,0.9349685,0.000297,-0.0027475,1.0650315,-0.0002969999999999,0.0027475,0.8793205,-0.4555909999999999,-0.0264985,1.1279105,-0.420361,-0.0285765,0.8343505,-0.900201,-0.0540665,1.1827805,-0.8829910000000001,-0.0596645
54,1.0093245,0.6697230000000001,0.039469,0.8704365000000001,0.452633,0.015765,0.7550765,0.6420330000000001,-0.1078949999999999,1.1485165,0.446853,0.022566,1.2510565,0.6804730000000001,-0.0789479999999999,0.7197165000000001,0.8862429999999999,-0.207975,1.2622665,0.933883,-0.157655,0.9351925,9.50000000000048e-05,-0.002715,1.0648075,-9.499999999999786e-05,0.002715,0.8789465,-0.459127,-0.026227,1.1276565,-0.426087,-0.0283059999999999,0.8342465,-0.903947,-0.053486,1.1825665,-0.8896569999999999,-0.060271
55,1.009502,0.66764,0.0371405,0.870233,0.45297,0.0141125,0.759833,0.6487499999999999,-0.0973155,1.149083,0.44922,0.0231595,1.247813,0.6875899999999999,-0.0678275,0.724503,0.8978999999999999,-0.1845574999999999,1.255373,0.94536,-0.1318774999999999,0.935413,-9.999999999999593e-05,-0.0026895,1.064587,0.0001,0.0026895,0.8785330000000001,-0.46247,-0.0264475,1.1274229999999998,-0.4305199999999999,-0.0282995,0.834023,-0.90796,-0.0533154999999999,1.182543,-0.89114,-0.0578495
56,1.0098435,0.666192,0.03419,0.8699125,0.453092,0.012421,0.7644725,0.6552420000000001,-0.087701,1.1496725,0.450912,0.023539,1.2448925,0.692412,-0.057875,0.7286025,0.907362,-0.1650889999999999,1.2493025,0.953502,-0.108639,0.9355755,-0.000202,-0.002706,1.0644244999999999,0.000202,0.002706,0.8781925,-0.465158,-0.027102,1.1274025,-0.433918,-0.028205,0.8338625,-0.911928,-0.053519,1.1826225,-0.891768,-0.055816
57,1.0102995,0.664909,0.031031,0.8696085,0.453059,0.010753,0.7685785,0.659759,-0.079356,1.1502785,0.453559,0.023808,1.2422185,0.6959690000000001,-0.048534,0.7315785,0.911879,-0.1465209999999999,1.2438285,0.958889,-0.086282,0.9357215,-0.000289,-0.002705,1.0642785,0.0002889999999999,0.002705,0.8783185,-0.467311,-0.0278969999999999,1.1272185,-0.436331,-0.028265,0.8338885,-0.913491,-0.053716,1.1825584999999998,-0.8978010000000001,-0.057707
58,1.0107385,0.6632745,0.0279945,0.8692755,0.4533645,0.0092795,0.7721955,0.6628744999999999,-0.0717955,1.1509855,0.4566945,0.0244315,1.2397055,0.6974144999999999,-0.0401114999999999,0.7338555,0.9145745,-0.1281435,1.2391155,0.9614045,-0.0650515,0.9359125000000001,-0.0003304999999999,-0.0027035,1.0640874999999999,0.0003305,0.0027035,0.8783955,-0.4698255,-0.0286525,1.1270355,-0.4390155,-0.0282665,0.8338555,-0.9168255,-0.0540425,1.1826155,-0.9006055000000001,-0.0581745
59,1.0112155,0.66165,0.0248795,0.8689145,0.45358,0.0078765,0.7750645,0.66403,-0.0649625,1.1515845,0.4597299999999999,0.0248375,1.2373245,0.69781,-0.0322295,0.7355745,0.91469,-0.1101365,1.2358545,0.96219,-0.0451165,0.9361245,-0.000377,-0.0027025,1.0638755,0.0003769999999999,0.0027024999999999,0.8784345,-0.47214,-0.0293815,1.1270245,-0.44216,-0.0282545,0.8337845,-0.9201,-0.0542995,1.1826444999999999,-0.90333,-0.0586465
60,1.0117185,0.6601725,0.021646,0.8684415,0.4536825,0.006384,0.7774115,0.6655525,-0.059943,1.1520615,0.4626825,0.025143,1.2352115,0.6972225,-0.025309,0.7365315,0.9140925,-0.094445,1.2335715,0.9616025,-0.026996,0.9363345,-0.0004195,-0.002751,1.0636655,0.0004194999999999,0.002751,0.8784815,-0.4728475,-0.030189,1.1270315,-0.4450175,-0.02839,0.8335715000000001,-0.9233175,-0.05471,1.1825714999999999,-0.9045475,-0.057899
61,1.012244,0.658896,0.018312,0.8678520000000001,0.453736,0.004733,0.779822,0.667436,-0.0547359999999999,1.152542,0.465056,0.025306,1.233112,0.695476,-0.0192449999999999,0.737242,0.912686,-0.079452,1.232542,0.959616,-0.010452,0.936544,-0.0004199999999999,-0.002881,1.063456,0.00042,0.002881,0.878472,-0.473344,-0.031124,1.127082,-0.447544,-0.028738,0.833322,-0.926134,-0.05522,1.182642,-0.903594,-0.0562099999999999
62,1.0126959999999998,0.6575314999999999,0.0147964999999999,0.867233,0.4536314999999999,0.0029035,0.782143,0.6675314999999999,-0.0495235,1.152983,0.4674414999999999,0.0250445,1.231413,0.6933414999999999,-0.0143975,0.737573,0.9108915,-0.0662905,1.232173,0.9574815,0.0041915,0.936764,-0.0004175,-0.0030165,1.063236,0.0004175,0.0030165,0.878343,-0.4740385,-0.0323565,1.127183,-0.4501185,-0.0293995,0.833053,-0.9289085,-0.0559525,1.182433,-0.9057285,-0.0569415
63,1.013184,0.6560845,0.0110745,0.8667,0.4535245,0.0009845,0.7844000000000001,0.6676045,-0.0448345,1.15353,0.4697945,0.0244455,1.23023,0.6912345,-0.0106995,0.73784,0.9087845,-0.0546325,1.23188,0.9553745,0.0170755,0.936965,-0.0003984999999999,-0.0030594999999999,1.063035,0.0003985,0.0030594999999999,0.8781500000000001,-0.4747355,-0.0337095,1.12724,-0.4524355,-0.0302685,0.8328600000000002,-0.9323655,-0.0569605,1.18236,-0.9042655,-0.0558205
64,1.0137019999999999,0.6545415,0.0074115,0.86623,0.4538815,-0.0009844999999999,0.7845,0.6656114999999999,-0.0427585,1.15414,0.4716115,0.0235485,1.22918,0.6891014999999999,-0.0076545,0.7377199999999999,0.9055815,-0.0451725,1.23167,0.9532415,0.0252755,0.937113,-0.0003365,-0.0030194999999999,1.062887,0.0003365,0.0030195,0.87801,-0.4755085,-0.0351454999999999,1.12734,-0.4547585,-0.0314575,0.83269,-0.9351085,-0.0582005,1.18232,-0.9034385,-0.0550765
65,1.014153,0.6526705,0.003845,0.8657730000000001,0.4539605,-0.002964,0.784663,0.6633905,-0.040867,1.154763,0.4728805,0.022383,1.228203,0.6865305,-0.0052879999999999,0.737683,0.9010605,-0.03681,1.232393,0.9492305,0.031832,0.937209,-0.0002655,-0.002878,1.062791,0.0002655,0.002878,0.8779230000000001,-0.4763395,-0.036754,1.127453,-0.4571395,-0.032903,0.832613,-0.9378895,-0.059757,1.182253,-0.9086095,-0.058481
66,1.0145704999999998,0.6509145,0.0004985,0.8654725,0.4540245,-0.0049784999999999,0.7847925,0.6615445,-0.0393325,1.1552324999999999,0.4731845,0.0208954999999999,1.2272224999999999,0.6839545,-0.0037564999999999,0.7377724999999999,0.8979845,-0.0300884999999999,1.2336624999999999,0.9452045,0.0369215,0.9372475,-0.0001614999999999,-0.0027034999999999,1.0627525,0.0001614999999999,0.0027035,0.8777725,-0.4764455,-0.0384635,1.1276325,-0.4589655,-0.0344475,0.8324525,-0.9400755,-0.0612985,1.1820425,-0.9133055,-0.0621564999999999
67,1.0150184999999998,0.649805,-0.002691,0.8655285,0.453995,-0.007047,0.7849885,0.662145,-0.038043,1.1555385,0.4729549999999999,0.019333,1.2263585,0.682415,-0.002989,0.7376485000000002,0.897275,-0.024833,1.2358185,0.936765,0.039605,0.9372914999999999,-7.999999999999674e-05,-0.002542,1.0627085,8.000000000001062e-05,0.002542,0.8775485,-0.476165,-0.040208,1.1278085,-0.460305,-0.036011,0.8323585,-0.941415,-0.062778,1.1819085,-0.914635,-0.064279
68,1.015379,0.648958,-0.005673,0.865637,0.454138,-0.008989,0.785207,0.662758,-0.037143,1.155867,0.472778,0.0176689999999999,1.225597,0.681208,-0.002822,0.737617,0.896708,-0.0216659999999999,1.238277,0.929028,0.040701,0.937377,2.5999999999998247e-05,-0.00228,1.062623,-2.5999999999998247e-05,0.0022799999999999,0.877197,-0.475572,-0.042152,1.128037,-0.461342,-0.03772,0.8322970000000001,-0.942372,-0.064275,1.181837,-0.915392,-0.065946
69,1.0156915,0.6480685,-0.0086245,0.8657645,0.4540785,-0.0109965,0.7854645,0.6618685,-0.0367245,1.1562045,0.4723585,0.0158695,1.2250045,0.6801585,-0.0031555,0.7377145,0.8951585,-0.0191305,1.2413745,0.9216985,0.0405005,0.9374905,0.0001265,-0.0020925,1.0625095,-0.0001265,0.0020925,0.8765745,-0.4751415,-0.0442764999999999,1.1283145,-0.4621415,-0.0398845,0.8322645,-0.9428215,-0.0658695,1.1819545,-0.9130715,-0.0667545
70,1.016252,0.6470060000000001,-0.0119829999999999,0.866057,0.4533459999999999,-0.013262,0.7859970000000001,0.661406,-0.037011,1.156647,0.4715759999999999,0.013577,1.224757,0.6790360000000001,-0.0041609999999999,0.7379570000000001,0.893676,-0.0178499999999999,1.244697,0.914836,0.038761,0.9375890000000001,0.0003739999999999,-0.0018739999999999,1.062411,-0.0003739999999999,0.001874,0.875587,-0.474774,-0.046713,1.128717,-0.462454,-0.042381,0.8321270000000001,-0.943804,-0.06792,1.182047,-0.912324,-0.0686779999999999
71,1.0169264999999998,0.646301,-0.0154445,0.8665845,0.452681,-0.0157145,0.7867045,0.661011,-0.0379885,1.1572144999999998,0.470991,0.0111195,1.2247145,0.678161,-0.0056955,0.7383545,0.8926810000000001,-0.0176925,1.2473645,0.908661,0.0366605,0.9376495,0.000641,-0.0016284999999999,1.0623505,-0.000641,0.0016284999999999,0.8743145,-0.4739089999999999,-0.0495785,1.1292645,-0.462369,-0.0453945,0.8321345,-0.944109,-0.0702355,1.1822845,-0.911699,-0.0707285
72,1.017741,0.6457944999999999,-0.0191504999999999,0.8674160000000001,0.4523144999999999,-0.0185495,0.787806,0.6606445,-0.0397395,1.157886,0.4706245,0.0082575,1.224936,0.6775645,-0.0078724999999999,0.7390460000000001,0.8914544999999999,-0.0189405,1.249876,0.9028045,0.0339775,0.937748,0.0009025,-0.0015264999999999,1.062252,-0.0009025,0.0015265,0.872986,-0.4742754999999999,-0.0525424999999999,1.1299659999999998,-0.4619355,-0.0490095,0.8323360000000001,-0.9447055,-0.0730545,1.182826,-0.9084555,-0.0718875
73,1.018742,0.645317,-0.0228659999999999,0.8684140000000001,0.452237,-0.021504,0.7889740000000001,0.660567,-0.042144,1.158594,0.470547,0.005197,1.225414,0.677327,-0.0104979999999999,0.740064,0.8906270000000001,-0.021535,1.252184,0.897347,0.030911,0.93785,0.0009799999999999,-0.0015009999999999,1.06215,-0.00098,0.001501,0.8714140000000001,-0.473013,-0.056227,1.130744,-0.461213,-0.053225,0.8325840000000001,-0.944223,-0.076158,1.183294,-0.907633,-0.074795
74,1.0197875,0.644387,-0.0265994999999999,0.8695205,0.452107,-0.0246535,0.7904405,0.6595570000000001,-0.0451064999999999,1.1593304999999998,0.470507,0.0018175,1.2261405,0.6770470000000001,-0.0135694999999999,0.7413704999999999,0.889937,-0.0247284999999999,1.2543705,0.892287,0.0260175,0.9379565,0.0009799999999999,-0.0016294999999999,1.0620435,-0.00098,0.0016295,0.8696005,-0.471453,-0.0603845,1.1316105,-0.460493,-0.0579304999999999,0.8328905,-0.943593,-0.0795255,1.1838205,-0.909943,-0.0797875
75,1.0209145,0.643077,-0.0304805,0.8707495000000001,0.451607,-0.0280515,0.7913095,0.658137,-0.0485785,1.1601595,0.470337,-0.0018395,1.2269595,0.6766570000000001,-0.0170415,0.7428795,0.889197,-0.0281955,1.2565095,0.887117,0.0206955,0.9381055,0.0009799999999999,-0.0018005,1.0618945,-0.00098,0.0018005,0.8676995000000001,-0.469743,-0.0649315,1.1325395,-0.459763,-0.0632595,0.8332595,-0.943183,-0.0831125,1.1844095000000001,-0.906083,-0.0821645
76,1.0220225,0.641294,-0.034537,0.8720165,0.4505039999999999,-0.031658,0.7925565,0.6551339999999999,-0.0522759999999999,1.1609865,0.4702139999999999,-0.0057379999999999,1.2277865000000001,0.676504,-0.0207419999999999,0.7442065000000001,0.8886240000000001,-0.031893,1.2585465,0.8862540000000001,0.016353,0.9382615,0.0011469999999999,-0.0018879999999999,1.0617385,-0.001147,0.001888,0.8656965,-0.467696,-0.069916,1.1335264999999999,-0.458826,-0.0690909999999999,0.8335965,-0.942566,-0.087045,1.1850765,-0.903826,-0.0859689999999999
77,1.0230745,0.6396545,-0.0388774999999999,0.8731355000000001,0.4496544999999999,-0.0357054999999999,0.7934455,0.6550345,-0.0562934999999999,1.1615655,0.4693144999999999,-0.0098764999999999,1.2286755,0.6770145,-0.0247594999999999,0.7454255000000001,0.8881844999999999,-0.0366064999999999,1.2607655,0.8856744999999999,0.0117105,0.9384095,0.0014234999999999,-0.0019834999999999,1.0615905,-0.0014235,0.0019835,0.8637755,-0.4648755,-0.0752785,1.1345955,-0.4573954999999999,-0.0753195,0.8339755,-0.9413955,-0.0913755,1.1857555,-0.8995955,-0.0883365
78,1.02416,0.6377940000000001,-0.0431644999999999,0.8741020000000002,0.4489040000000001,-0.0400245,0.794542,0.6524340000000001,-0.0611855,1.162112,0.468344,-0.0142644999999999,1.229852,0.6779040000000001,-0.0290834999999999,0.7465120000000001,0.8884040000000001,-0.0425325,1.262812,0.886694,0.0064435,0.938548,0.001653,-0.0019184999999999,1.061452,-0.001653,0.0019185,0.862032,-0.462026,-0.0808705,1.135782,-0.456186,-0.0816305,0.834452,-0.939986,-0.0958325,1.186362,-0.897226,-0.0928025
79,1.0250935,0.6356525,-0.0474369999999999,0.8750355000000001,0.4482224999999999,-0.0443499999999999,0.7956755,0.6496725,-0.066437,1.1626055,0.4674125,-0.0186299999999999,1.2313155,0.6790225,-0.033766,0.7474655,0.8887625,-0.049613,1.2647055,0.8891925,0.000942,0.9387275,0.0019004999999999,-0.0019489999999999,1.0612725,-0.0019004999999999,0.001949,0.8601455,-0.4582275,-0.0869679999999999,1.1369655,-0.4550075,-0.088167,0.8351355,-0.9382975,-0.100367,1.1869255,-0.8946775,-0.097505
80,1.025932,0.633651,-0.0518535,0.875874,0.4467109999999999,-0.0487665,0.796684,0.646421,-0.0728505,1.162874,0.465711,-0.0230915,1.232774,0.680631,-0.0388165,0.748324,0.889331,-0.0577475,1.266514,0.890951,-0.0053324999999999,0.938968,0.002082,-0.0020635,1.061032,-0.002082,0.0020635,0.858564,-0.454109,-0.0929494999999999,1.138114,-0.453249,-0.0947534999999999,0.835684,-0.936129,-0.1048955,1.187424,-0.891819,-0.1019235
81,1.026586,0.6315685,-0.0560935,0.876508,0.4449885,-0.0530065,0.797398,0.6441184999999999,-0.0792134999999999,1.162878,0.4636585,-0.0273765,1.234138,0.6824884999999999,-0.0439455,0.749018,0.8897284999999999,-0.0667535,1.268738,0.8931485,-0.0122415,0.939189,0.0022665,-0.0021045,1.060811,-0.0022665,0.0021045,0.8567279999999999,-0.4498014999999999,-0.0988475,1.139178,-0.4510515,-0.1012655,0.835958,-0.9336215,-0.1092704999999999,1.187788,-0.8885215000000001,-0.1061635
82,1.027098,0.6297889999999999,-0.0601605,0.876807,0.4429989999999999,-0.0572145,0.798017,0.642339,-0.0854895,1.162797,0.462259,-0.0316484999999999,1.235597,0.6844389999999999,-0.0493145,0.7494270000000001,0.8899389999999999,-0.0761795,1.2707869999999999,0.8939389999999999,-0.0194865,0.939334,0.0022829999999999,-0.0021634999999999,1.0606659999999999,-0.002283,0.0021634999999999,0.8551770000000001,-0.444391,-0.1046875,1.140237,-0.4485909999999999,-0.1076365,0.836257,-0.930371,-0.1136905,1.188027,-0.8842110000000001,-0.1108005
83,1.027442,0.6276725,-0.0639765,0.877012,0.4409725,-0.0612375,0.798562,0.6400024999999999,-0.0916645,1.162772,0.4608625,-0.0357315,1.237082,0.6862625,-0.0547205,0.7496320000000001,0.8897125,-0.0859855,1.2728220000000001,0.8939625,-0.0279925,0.939419,0.0022524999999999,-0.0021224999999999,1.060581,-0.0022524999999999,0.0021224999999999,0.853972,-0.4389674999999999,-0.1101185,1.141312,-0.4462374999999999,-0.1136665,0.836472,-0.9270875,-0.1179435,1.188302,-0.8801275000000001,-0.1152845
84,1.0276575000000001,0.6253799999999999,-0.0676435,0.8769264999999999,0.43871,-0.0650475,0.7987265,0.6381399999999999,-0.0977804999999999,1.1625365,0.45965,-0.0396634999999999,1.2385465,0.68782,-0.0602804999999999,0.7500165,0.8894099999999999,-0.0956124999999999,1.2744665,0.89357,-0.0363064999999999,0.9394415,0.0022229999999999,-0.0021554999999999,1.0605585,-0.002223,0.0021555,0.8528365,-0.43403,-0.1152614999999999,1.1423465,-0.44379,-0.1192724999999999,0.8365865,-0.92408,-0.1220435,1.1884265,-0.87611,-0.1195484999999999
85,1.0277049999999999,0.6241115,-0.0715165,0.876586,0.4373215,-0.0689325,0.7987960000000001,0.6366115,-0.1039035,1.162166,0.4587315,-0.0436205,1.2397960000000001,0.6900815,-0.0660825,0.750036,0.8898315,-0.1051465,1.275806,0.8937315,-0.0445515,0.939442,0.0021764999999999,-0.0020885,1.060558,-0.0021765,0.0020884999999999,0.851646,-0.4285385,-0.1202595,1.143486,-0.4410985,-0.1249515,0.836586,-0.9201685,-0.1262115,1.188426,-0.8713885,-0.1237845
86,1.0276744999999998,0.6228115,-0.0752589999999999,0.8760975,0.4355414999999999,-0.072681,0.7986075,0.6365014999999999,-0.110014,1.1619975,0.4574715,-0.0474659999999999,1.2409075,0.6927515,-0.072008,0.7502375,0.8910115,-0.114095,1.2763275,0.8942915,-0.052645,0.9394655,0.0021214999999999,-0.0020239999999999,1.0605345,-0.0021214999999999,0.0020239999999999,0.8501675,-0.4228685,-0.125377,1.1444375,-0.4379085,-0.13045,0.8363175,-0.9157185,-0.130305,1.1880975,-0.8660785,-0.127743
87,1.027569,0.6218165,-0.0788595,0.8756920000000001,0.4339165,-0.0763435,0.798652,0.6344365000000001,-0.1154065,1.161962,0.4556265,-0.0512785,1.241862,0.6921365,-0.0781535,0.750302,0.8904565,-0.1224625,1.276542,0.8939365,-0.0604965,0.939465,0.0022005,-0.0019575,1.060535,-0.0022005,0.0019575,0.8487620000000001,-0.4171235,-0.1302375,1.145292,-0.4344135,-0.1356435,0.8359420000000001,-0.9109835,-0.1343965,1.187862,-0.8610335,-0.1315245
88,1.0273385,0.6211694999999999,-0.0824635,0.8753265000000001,0.4315795,-0.0799965,0.7983765,0.6332694999999999,-0.1208165,1.1619865,0.4540395,-0.0551015,1.2427264999999998,0.6901795,-0.0842265,0.7504165,0.8903295,-0.1303945,1.2765965000000001,0.8940195,-0.0683755,0.9394645,0.0023065,-0.0018314999999999,1.0605355,-0.0023064999999999,0.0018314999999999,0.8479065,-0.4116905,-0.1345105,1.1461965,-0.4302905,-0.1407605,0.8354965,-0.9056905,-0.1386115,1.1876365,-0.8553005,-0.1352105
89,1.0272,0.620406,-0.0861615,0.8752390000000001,0.429926,-0.0835515,0.798019,0.6328060000000001,-0.1251425,1.162009,0.453366,-0.0587095,1.243509,0.688616,-0.0899565,0.7497389999999999,0.889606,-0.1385495,1.276659,0.890726,-0.0772125,0.939463,0.002437,-0.0016774999999999,1.060537,-0.002437,0.0016774999999999,0.847009,-0.404194,-0.1386385,1.147079,-0.425984,-0.1455584999999999,0.8351090000000001,-0.8989339999999999,-0.1429305,1.187399,-0.849514,-0.1384865
90,1.026955,0.6190505,-0.08986,0.875156,0.4282205,-0.087037,0.797676,0.6317005,-0.129525,1.161926,0.4530605,-0.062118,1.244096,0.6869605,-0.095465,0.749066,0.8895605,-0.145636,1.276626,0.8875105,-0.08529,0.939506,0.0025494999999999,-0.0014649999999999,1.060494,-0.0025494999999999,0.001465,0.846226,-0.3985495,-0.142538,1.147766,-0.4213195,-0.14994,0.834686,-0.8936995,-0.147163,1.1870560000000001,-0.8438695,-0.141684
91,1.026784,0.6177815,-0.0934579999999999,0.874979,0.4273915,-0.0902969999999999,0.796999,0.6311515,-0.134257,1.1614689999999999,0.4522615,-0.0652899999999999,1.244369,0.6846615,-0.1008649999999999,0.748849,0.8861815000000001,-0.152167,1.276829,0.8872015,-0.092897,0.939528,0.0026464999999999,-0.0011989999999999,1.060472,-0.0026465,0.001199,0.845329,-0.3927184999999999,-0.146233,1.148439,-0.4154885,-0.154025,0.834159,-0.8878685,-0.1509869999999999,1.1866189999999999,-0.8377785,-0.1444119999999999
92,1.0265325,0.6167355,-0.097118,0.8747294999999999,0.4264555,-0.093641,0.7968495,0.6316855,-0.138898,1.1610695,0.4502454999999999,-0.068652,1.2445995,0.6822355,-0.106284,0.7491495,0.8823255,-0.159137,1.2766994999999999,0.8861454999999999,-0.099332,0.9395455000000001,0.0027495,-0.0009269999999999,1.0604544999999999,-0.0027494999999999,0.0009269999999999,0.8442895,-0.3862145,-0.149976,1.1490395,-0.4089845,-0.157968,0.8335995,-0.8813645,-0.1551,1.1861294999999998,-0.8311445000000001,-0.146969
93,1.0262555,0.616471,-0.1046565,0.8745635,0.426441,-0.1008485,0.7961635,0.632771,-0.1475035,1.1607635,0.448641,-0.0759235,1.2446735,0.677371,-0.1155365,0.7498535,0.879141,-0.1694975,1.2758535,0.886141,-0.1101975,0.9395115,0.0028369999999999,-1.15000000000115e-05,1.0604885,-0.002837,1.1499999999997623e-05,0.8430135,-0.377319,-0.1578285,1.1496735,-0.401399,-0.1656755,0.8330235,-0.872449,-0.1629375,1.1856335,-0.823439,-0.1533295
94,1.0262595,0.6186470000000001,-0.1144829999999999,0.8752875,0.429807,-0.1106569999999999,0.7952975,0.638077,-0.158936,1.1601275,0.447627,-0.0863709999999999,1.2443775,0.677507,-0.127046,0.7503875,0.880587,-0.1829719999999999,1.2749675,0.890417,-0.1240039999999999,0.9394965,0.0028099999999999,-4.999999999999449e-05,1.0605035,-0.00281,5.000000000000837e-05,0.8402775,-0.363863,-0.1720459999999999,1.1521875,-0.386133,-0.179284,0.8312075,-0.859153,-0.1753139999999999,1.1850975,-0.810173,-0.162024
95,1.0264075,0.6199625,-0.1240159999999999,0.8761285,0.4333825,-0.120095,0.7950185000000001,0.6415325,-0.170121,1.1593784999999999,0.4468125,-0.0965179999999999,1.2441384999999998,0.6768424999999999,-0.1381839999999999,0.7509185,0.8772625,-0.195988,1.2743885,0.8920825,-0.1382419999999999,0.9393695,0.0027595,-0.0001449999999999,1.0606305,-0.0027595,0.000145,0.8378285,-0.3519275,-0.1855259999999999,1.1547185,-0.3721075,-0.192351,0.8295485000000001,-0.8474575000000001,-0.1872769999999999,1.1847485,-0.7971975,-0.1703269999999999
96,1.0266035,0.6202895,-0.133319,0.8769985,0.4369795,-0.129275,0.7948185,0.6470695000000001,-0.181825,1.1583785,0.4467795,-0.106314,1.2442484999999999,0.6792595,-0.148957,0.7518585,0.8752795,-0.2088269999999999,1.2738985,0.8943095,-0.152003,0.9392315,0.0026904999999999,-0.000325,1.0607685,-0.0026904999999999,0.0003249999999999,0.8353685,-0.3408104999999999,-0.198729,1.1572784999999999,-0.3587705,-0.205172,0.8278685,-0.8365905,-0.198877,1.1843685,-0.7843304999999999,-0.17836
97,1.0268005,0.620543,-0.142436,0.8778895,0.438753,-0.138764,0.7947495,0.650443,-0.193232,1.1573195,0.444103,-0.116479,1.2441695,0.680793,-0.159466,0.7527195,0.874093,-0.2218049999999999,1.2736095,0.8955529999999999,-0.165634,0.9392085,0.0026059999999999,-0.0005649999999999,1.0607915,-0.002606,0.000565,0.8327295,-0.331407,-0.212312,1.1598695,-0.344987,-0.217973,0.8261295,-0.8269470000000001,-0.210191,1.1839195,-0.7707470000000001,-0.1863969999999999
98,1.0271214999999998,0.620846,-0.15145,0.8794955,0.438196,-0.149054,0.7949255,0.6541260000000001,-0.2047189999999999,1.1560855,0.441916,-0.126718,1.2439855,0.681946,-0.1703819999999999,0.7533155000000001,0.8710460000000001,-0.2343449999999999,1.2733455,0.900656,-0.177579,0.9391725000000001,0.0023719999999999,-0.0008599999999999,1.0608274999999998,-0.0023719999999999,0.0008599999999999,0.8300455,-0.320114,-0.226341,1.1626755,-0.330644,-0.231099,0.8243655,-0.815384,-0.2213919999999999,1.1834355,-0.755934,-0.194516
99,1.0275005,0.621642,-0.160615,0.8810515,0.438022,-0.15932,0.7954315000000001,0.6512020000000001,-0.215887,1.1550115,0.439602,-0.137157,1.2439815,0.679002,-0.18218,0.7537715,0.866502,-0.247045,1.2731215,0.905412,-0.18978,0.9391255000000001,0.002139,-0.001125,1.0608745,-0.002139,0.0011249999999999,0.8273915000000001,-0.308048,-0.240465,1.1656815,-0.316998,-0.244575,0.8241215,-0.801878,-0.230013,1.1831715,-0.740848,-0.202629
100,1.0280175,0.6223925,-0.169762,0.8827005,0.4384225,-0.1694359999999999,0.7962505,0.6484825,-0.2262489999999999,1.1539805,0.4370925,-0.1478179999999999,1.2438704999999999,0.6771525,-0.193491,0.7543405000000001,0.8657525,-0.25942,1.2731005,0.9107125,-0.202646,0.9390515,0.0020865,-0.0012999999999999,1.0609485,-0.0020865,0.0013,0.8249005,-0.2956475,-0.2545699999999999,1.1688805,-0.3032775,-0.2583,0.8239605,-0.7878175,-0.2385729999999999,1.1830305,-0.7254875,-0.2108529999999999
101,1.028759,0.6228615,-0.178908,0.884491,0.4394615,-0.179188,0.797351,0.6453015,-0.236386,1.1530909999999999,0.4362615,-0.158039,1.2439509999999998,0.6759715000000001,-0.204559,0.754671,0.8664915,-0.27079,1.273971,0.9143815,-0.216554,0.939041,0.0020405,-0.00148,1.060959,-0.0020405,0.0014799999999999,0.8227010000000001,-0.2832285,-0.26855,1.172321,-0.2901685,-0.27207,0.8239810000000001,-0.7736685,-0.246546,1.183051,-0.7101685,-0.218958
102,1.0295645,0.62322,-0.184379,0.8863555,0.43829,-0.185531,0.7977455,0.64176,-0.242643,1.1521455,0.43418,-0.164485,1.2440555,0.67838,-0.211568,0.7546155,0.8669399999999999,-0.2783,1.2754055,0.91337,-0.226181,0.9390455,0.0019799999999999,-0.0021599999999999,1.0609545,-0.0019799999999999,0.0021599999999999,0.8207055,-0.2711199999999999,-0.27878,1.1759855,-0.2764399999999999,-0.28251,0.8239955,-0.75873,-0.250594,1.1830854999999998,-0.6941200000000001,-0.223538
103,1.029819,0.619975,-0.187383,0.887576,0.433535,-0.18889,0.798656,0.630715,-0.245772,1.151706,0.430685,-0.1676,1.244256,0.666645,-0.215672,0.754646,0.862105,-0.28215,1.276686,0.905705,-0.232789,0.939039,0.0020949999999999,-0.0019899999999999,1.060961,-0.0020949999999999,0.0019899999999999,0.820086,-0.2643649999999999,-0.28245,1.177526,-0.2679049999999999,-0.28649,0.823986,-0.749045,-0.251426,1.183076,-0.684035,-0.225254
104,1.0302605,0.61728,-0.190719,0.8888685000000001,0.42907,-0.1923909999999999,0.7993885000000001,0.6234,-0.248716,1.1514785,0.42711,-0.170904,1.2446685,0.6559999999999999,-0.219441,0.7550885,0.86208,-0.286055,1.2780084999999999,0.90091,-0.238404,0.9389895000000001,0.00235,-0.001865,1.0610104999999999,-0.0023499999999999,0.001865,0.8194585,-0.2592,-0.286505,1.1793885,-0.2583499999999999,-0.2909049999999999,0.8239885,-0.7399100000000001,-0.252228,1.1831485,-0.67432,-0.2268859999999999
105,1.0309375,0.6154,-0.1945029999999999,0.8904095,0.42278,-0.196625,0.8001895,0.6165700000000001,-0.251362,1.1517795,0.42371,-0.174626,1.2455395,0.6459600000000001,-0.223611,0.7557095,0.8629,-0.290385,1.2795795,0.89686,-0.244367,0.9389785,0.00247,-0.0017349999999999,1.0610215,-0.00247,0.001735,0.8188895,-0.25148,-0.291325,1.1817195,-0.24762,-0.295765,0.8242295,-0.7281500000000001,-0.2530949999999999,1.1833695,-0.66351,-0.2287159999999999
106,1.0317144999999999,0.61321,-0.198599,0.8919755,0.41908,-0.200382,0.8007255,0.61175,-0.254641,1.1522955,0.42231,-0.178041,1.2467355,0.6389,-0.228472,0.7564355,0.8604400000000001,-0.295315,1.2815254999999999,0.8942000000000001,-0.250193,0.9390095,0.0025199999999999,-0.0015449999999999,1.0609905,-0.0025199999999999,0.0015449999999999,0.8185555,-0.2461499999999999,-0.295905,1.1843955,-0.24141,-0.300465,0.8260355,-0.7178500000000001,-0.251834,1.1837555,-0.6529,-0.2302989999999999
107,1.03244,0.61031,-0.202782,0.892582,0.41755,-0.2035719999999999,0.801162,0.60682,-0.2584459999999999,1.152732,0.42091,-0.181425,1.248072,0.6319699999999999,-0.233309,0.7567619999999999,0.86097,-0.299635,1.283452,0.88955,-0.257994,0.939093,0.0026599999999999,-0.0013249999999999,1.060907,-0.0026599999999999,0.001325,0.8182320000000001,-0.24062,-0.300415,1.187072,-0.23526,-0.304945,0.827712,-0.70741,-0.250633,1.184102,-0.64239,-0.232282
108,1.0331795,0.60777,-0.2070139999999999,0.8931375,0.41665,-0.2068219999999999,0.8016775,0.61002,-0.262936,1.1532075,0.42012,-0.1849029999999999,1.2495275000000001,0.62949,-0.237925,0.7571975,0.86275,-0.304515,1.2854474999999999,0.88288,-0.265955,0.9393305,0.00291,-0.0011649999999999,1.0606695,-0.0029099999999999,0.0011649999999999,0.8178475000000001,-0.2342699999999999,-0.305145,1.1898475,-0.2287,-0.309365,0.8294475,-0.69628,-0.249432,1.1846875,-0.63153,-0.234209
109,1.0336515,0.605305,-0.211527,0.8937245,0.415455,-0.210342,0.8020645,0.6135349999999999,-0.268285,1.1536445,0.419385,-0.188298,1.2512245,0.623455,-0.2431459999999999,0.7575845,0.864285,-0.310145,1.2870945,0.876755,-0.273005,0.9395515,0.0029949999999999,-0.0010749999999999,1.0604485,-0.0029949999999999,0.001075,0.8173445,-0.227455,-0.310005,1.1925445,-0.2214749999999999,-0.313525,0.8311545,-0.684625,-0.248124,1.1851845,-0.6199250000000001,-0.235538
110,1.0340855,0.60302,-0.215855,0.8942475,0.4135999999999999,-0.21386,0.8015775,0.61723,-0.27373,1.1540075,0.41771,-0.191814,1.2523875,0.6179399999999999,-0.248179,0.7578575,0.8660399999999999,-0.31632,1.2883775,0.8730800000000001,-0.27896,0.9399065000000001,0.0030699999999999,-0.0010499999999999,1.0600934999999998,-0.00307,0.0010499999999999,0.8167175,-0.2205,-0.31473,1.1952075,-0.214,-0.31743,0.8328175,-0.67215,-0.246357,1.1855875,-0.6085,-0.236714
111,1.0343505,0.5986499999999999,-0.220197,0.8945025,0.4139299999999999,-0.216607,0.8002725000000002,0.62175,-0.28109,1.1541825000000001,0.4172399999999999,-0.194884,1.2534225,0.61183,-0.253803,0.7579925000000001,0.86741,-0.3234,1.2891525,0.87151,-0.28526,0.9402255,0.0031499999999999,-0.00101,1.0597745,-0.00315,0.0010099999999999,0.8161225,-0.21407,-0.31904,1.1976325,-0.20722,-0.32076,0.8330825,-0.66155,-0.246467,1.1859425,-0.5987,-0.237381
112,1.0347635,0.595185,-0.22444,0.8948435,0.412785,-0.219983,0.7986435000000001,0.627005,-0.28889,1.1545334999999999,0.414415,-0.198491,1.2547035,0.615545,-0.260129,0.7580835,0.8695050000000001,-0.33106,1.2898835,0.871545,-0.29316,0.9405725000000001,0.0032949999999999,-0.00104,1.0594275,-0.0032949999999999,0.0010399999999999,0.8157435,-0.207025,-0.32357,1.2003635,-0.1996849999999999,-0.32428,0.8334635,-0.649955,-0.246518,1.1864635,-0.588355,-0.238363
113,1.035017,0.5906750000000001,-0.228546,0.895081,0.411455,-0.223401,0.796711,0.631405,-0.29707,1.154571,0.413155,-0.201803,1.2551109999999999,0.612115,-0.26728,0.7580210000000001,0.871345,-0.34045,1.290041,0.866665,-0.30204,0.9407179999999999,0.003085,-0.0011099999999999,1.059282,-0.003085,0.0011099999999999,0.815161,-0.200235,-0.32811,1.202731,-0.192305,-0.32753,0.833601,-0.638705,-0.246588,1.1867510000000001,-0.581065,-0.240192
114,1.0352839999999999,0.5868199999999999,-0.232526,0.8950730000000001,0.40795,-0.227258,0.794883,0.63281,-0.304695,1.154473,0.41096,-0.205232,1.255403,0.61002,-0.273895,0.757753,0.8667499999999999,-0.350025,1.289693,0.8630499999999999,-0.310735,0.9407660000000001,0.0028199999999999,-0.0011649999999999,1.059234,-0.00282,0.0011649999999999,0.814693,-0.19279,-0.332635,1.2050130000000001,-0.18419,-0.3308649999999999,0.833653,-0.6268500000000001,-0.24689,1.186893,-0.5747800000000001,-0.242717
115,1.0350899999999998,0.5827100000000001,-0.236419,0.895196,0.4057699999999999,-0.230873,0.7931160000000002,0.63026,-0.31256,1.154326,0.40931,-0.208509,1.255696,0.60819,-0.28012,0.757136,0.8658300000000001,-0.35856,1.289666,0.85947,-0.3198,0.940853,0.0026899999999999,-0.0012099999999999,1.059147,-0.0026899999999999,0.00121,0.814256,-0.1847099999999999,-0.33726,1.207076,-0.17542,-0.33431,0.833596,-0.61439,-0.247144,1.186966,-0.5693299999999999,-0.24614
116,1.0347849999999998,0.578675,-0.240066,0.895371,0.404585,-0.2341829999999999,0.791401,0.628425,-0.31982,1.153821,0.406485,-0.211941,1.2556910000000001,0.602595,-0.2862099999999999,0.756271,0.8652249999999999,-0.36734,1.289461,0.8549549999999999,-0.3269999999999999,0.9410590000000001,0.0026249999999999,-0.0013699999999999,1.058941,-0.0026249999999999,0.00137,0.8137910000000002,-0.176655,-0.3416,1.208971,-0.166435,-0.33775,0.833481,-0.6018950000000001,-0.2474019999999999,1.187031,-0.5634349999999999,-0.2491649999999999
117,1.0345585,0.574135,-0.243789,0.8950925000000001,0.402865,-0.237693,0.7900225,0.626395,-0.3272,1.1531025,0.4033449999999999,-0.215293,1.2555725,0.597235,-0.29167,0.7550525,0.864105,-0.37663,1.2890424999999999,0.849345,-0.33563,0.9413585,0.0025149999999999,-0.0014099999999999,1.0586415,-0.002515,0.0014099999999999,0.8134025,-0.169065,-0.34597,1.2107425,-0.157605,-0.34125,0.8333025000000001,-0.589885,-0.247829,1.1870025,-0.557925,-0.252336
118,1.0343395,0.5704800000000001,-0.247585,0.8941685,0.39804,-0.242101,0.7886685,0.62293,-0.33429,1.1522285,0.40036,-0.218822,1.2552085,0.59571,-0.29699,0.7535285,0.85934,-0.38609,1.2881585,0.8446,-0.34433,0.9415855000000001,0.0022,-0.0013999999999999,1.0584144999999998,-0.0021999999999999,0.0014,0.8128985,-0.1603899999999999,-0.35077,1.2124985,-0.1477399999999999,-0.3451999999999999,0.8330185,-0.57704,-0.248259,1.1868985,-0.55153,-0.255658
119,1.033816,0.566065,-0.251255,0.893286,0.394483,-0.246393,0.7873460000000001,0.6197250000000001,-0.34077,1.1512660000000001,0.397855,-0.222301,1.254736,0.592345,-0.30256,0.7518060000000001,0.8546750000000001,-0.39482,1.287416,0.8422750000000001,-0.35278,0.941771,0.0020149999999999,-0.0012699999999999,1.058229,-0.0020149999999999,0.0012699999999999,0.8124660000000001,-0.152015,-0.35539,1.214086,-0.1377649999999999,-0.34909,0.832706,-0.564165,-0.248661,1.186676,-0.5419050000000001,-0.257801
120,1.0331485,0.56353,-0.254816,0.8924125,0.391626,-0.25063,0.7861325,0.61037,-0.34598,1.1501525,0.393161,-0.226048,1.2540025,0.58945,-0.30768,0.7501325,0.8484999999999999,-0.40243,1.2860425,0.83875,-0.36114,0.9418105,0.0019699999999999,-0.00128,1.0581895,-0.00197,0.00128,0.8120825,-0.14204,-0.35995,1.2156925,-0.1264,-0.35285,0.8324925,-0.54996,-0.248988,1.1867625,-0.53373,-0.260703
121,1.0324835,0.560015,-0.25814,0.8916705,0.388149,-0.253931,0.7851005,0.601275,-0.350725,1.1487905,0.391502,-0.2290039999999999,1.2534205,0.584015,-0.312555,0.7485405,0.8425450000000001,-0.4095149999999999,1.2845205,0.836965,-0.367865,0.9417805,0.0015749999999999,-0.001345,1.0582195,-0.0015749999999999,0.001345,0.8117805,-0.132175,-0.364035,1.2169405,-0.115365,-0.355875,0.8322905,-0.536465,-0.249074,1.1867105,-0.526375,-0.263567
122,1.031785,0.558475,-0.261476,0.891157,0.385499,-0.256973,0.783967,0.594295,-0.3549949999999999,1.147337,0.389819,-0.2320219999999999,1.2529569999999999,0.584625,-0.317075,0.7464770000000001,0.834805,-0.416895,1.282837,0.8388850000000001,-0.374575,0.941703,0.001305,-0.0014049999999999,1.058297,-0.001305,0.001405,0.811557,-0.120975,-0.3677549999999999,1.218127,-0.103325,-0.358765,0.832187,-0.521855,-0.2491319999999999,1.186597,-0.518365,-0.266449
123,1.0304135,0.555195,-0.264965,0.8907135,0.387381,-0.2590139999999999,0.7822235,0.588635,-0.36039,1.1461835,0.389095,-0.234819,1.2525534999999999,0.582955,-0.32192,0.7446335,0.831145,-0.42412,1.2813035,0.838395,-0.3821599999999999,0.9414885,0.001475,-0.0015199999999999,1.0585115,-0.001475,0.00152,0.8118735,-0.1122849999999999,-0.37098,1.2190135,-0.0924849999999999,-0.3615,0.8322735,-0.508755,-0.2494299999999999,1.1865735,-0.507105,-0.267796
124,1.0287995,0.5531200000000001,-0.26849,0.8896875,0.387976,-0.261161,0.7801875,0.58802,-0.3653,1.1448075,0.387252,-0.237478,1.2520975,0.5807,-0.32672,0.7428975,0.82788,-0.43123,1.2803175,0.8375900000000001,-0.38942,0.9414235,0.0014899999999999,-0.0015799999999999,1.0585765,-0.0014899999999999,0.0015799999999999,0.8122675,-0.1028199999999999,-0.37377,1.2196075,-0.0807999999999999,-0.36395,0.8323475,-0.49541,-0.249883,1.1863275,-0.49471,-0.26877
125,1.027004,0.55127,-0.27215,0.8886000000000001,0.388898,-0.263167,0.77826,0.5865800000000001,-0.37048,1.14348,0.387126,-0.239816,1.2517,0.58158,-0.33143,0.7410399999999999,0.8241,-0.4387999999999999,1.27959,0.83823,-0.39657,0.941343,0.00148,-0.00164,1.058657,-0.0014799999999999,0.00164,0.81289,-0.0938099999999999,-0.37654,1.21996,-0.0693999999999999,-0.36621,0.83251,-0.48253,-0.250492,1.1860899999999999,-0.48305,-0.27002
126,1.0251835,0.5488999999999999,-0.275465,0.8877405,0.387609,-0.264658,0.7757705,0.58093,-0.374895,1.1421605,0.384188,-0.242179,1.2512805,0.58049,-0.336215,0.7390805,0.8202,-0.445955,1.2791605,0.8411899999999999,-0.402115,0.9412585,0.0014199999999999,-0.001805,1.0587415,-0.00142,0.001805,0.8138305,-0.08392,-0.379155,1.2200705,-0.05719,-0.368075,0.8327705,-0.46937,-0.250993,1.1858304999999998,-0.47101,-0.271165
127,1.0230715,0.545635,-0.27802,0.8867985,0.3893,-0.264977,0.7732985,0.577505,-0.37873,1.1409785000000001,0.382807,-0.244049,1.2508385,0.579705,-0.3407599999999999,0.7369885,0.821475,-0.45232,1.2789385,0.843215,-0.40793,0.9411495,0.001285,-0.0020999999999999,1.0588505,-0.0012849999999999,0.0021,0.8148885000000001,-0.0741649999999999,-0.38133,1.2198185,-0.045215,-0.36917,0.8331385,-0.4566749999999999,-0.251478,1.1855785,-0.4593849999999999,-0.2723299999999999
128,1.0206635,0.543195,-0.280475,0.8853505000000002,0.390304,-0.26529,0.7712405,0.574345,-0.382805,1.1396705,0.3820669999999999,-0.245856,1.2504905,0.5773649999999999,-0.344935,0.7349405,0.822395,-0.458885,1.2785905,0.841915,-0.413575,0.9410275,0.0010549999999999,-0.0024049999999999,1.0589725,-0.001055,0.002405,0.8161305,-0.063575,-0.3836549999999999,1.2196205,-0.033015,-0.3702649999999999,0.8334805000000001,-0.444035,-0.252083,1.1850805,-0.448045,-0.273785
129,1.018492,0.54099,-0.28289,0.883908,0.3896759999999999,-0.265482,0.769218,0.5797599999999999,-0.38675,1.138858,0.382795,-0.247038,1.250108,0.57567,-0.34852,0.732718,0.82509,-0.46585,1.278248,0.8405499999999999,-0.41849,0.9408900000000001,0.0005299999999999,-0.0025799999999999,1.05911,-0.00053,0.0025799999999999,0.817138,-0.05238,-0.38585,1.219238,-0.02056,-0.37045,0.8338380000000001,-0.4308,-0.252655,1.184528,-0.43671,-0.27525
130,1.016751,0.539057,-0.28508,0.88273,0.391004,-0.265412,0.7673300000000001,0.5843700000000001,-0.39019,1.13838,0.384432,-0.247884,1.2497099999999999,0.57519,-0.3514,0.73063,0.8224400000000001,-0.47283,1.27806,0.83965,-0.42328,0.940694,0.00015,-0.00279,1.059306,-0.0001499999999999,0.0027899999999999,0.8181300000000001,-0.03925,-0.38784,1.21893,-0.0072099999999999,-0.37066,0.83443,-0.4172099999999999,-0.253374,1.18405,-0.42464,-0.27688
131,1.015041,0.536496,-0.28697,0.881657,0.3922319999999999,-0.265323,0.765417,0.58209,-0.3934299999999999,1.1379169999999998,0.386138,-0.2484949999999999,1.2491469999999998,0.57329,-0.3536899999999999,0.728947,0.8200799999999999,-0.4774899999999999,1.278897,0.83413,-0.4285,0.940423,-2.000000000002e-05,-0.0030099999999999,1.059577,1.999999999996449e-05,0.00301,0.818777,-0.02678,-0.38981,1.218267,0.00456,-0.3708399999999999,0.8349070000000001,-0.4047699999999999,-0.25407,1.183217,-0.41402,-0.27856
132,1.014042,0.536255,-0.286255,0.880952,0.393646,-0.264042,0.764772,0.583492,-0.392715,1.137272,0.385613,-0.24778,1.248492,0.573462,-0.354825,0.7270220000000001,0.82253,-0.480525,1.279812,0.8323400000000001,-0.432015,0.940312,-0.0001099999999999,-0.003935,1.059688,0.0001099999999999,0.0039349999999999,0.819192,-0.0095999999999999,-0.390505,1.217302,0.01896,-0.370125,0.835142,-0.3897,-0.253666,1.1820419999999998,-0.4009799999999999,-0.279125
133,1.0132305,0.5362009999999999,-0.285935,0.8801265,0.3950049999999999,-0.262633,0.7639665,0.583911,-0.3920949999999999,1.1364565,0.386605,-0.24691,1.2476865,0.5728949999999999,-0.355515,0.7249665000000001,0.8208249999999999,-0.483745,1.2808765,0.8308249999999999,-0.435185,0.9402765,-0.000395,-0.0048549999999999,1.0597235,0.0003949999999999,0.0048549999999999,0.8193465,0.0061949999999999,-0.391025,1.2161565,0.0320449999999999,-0.369035,0.8351465,-0.375685,-0.253087,1.1805264999999998,-0.3890450000000001,-0.279005
134,1.0125065,0.535645,-0.284905,0.8794025,0.395125,-0.261053,0.7632425,0.584194,-0.391235,1.1357725,0.386085,-0.24588,1.2470725,0.573156,-0.355675,0.7230925,0.8184750000000001,-0.485975,1.2822425,0.829295,-0.438105,0.9402615,-0.0005349999999999,-0.005895,1.0597385,0.000535,0.0058949999999999,0.8193525,0.021185,-0.390715,1.2150625,0.044665,-0.367645,0.8351525000000001,-0.362545,-0.252117,1.1791725,-0.377545,-0.278715
135,1.0114375,0.536088,-0.283795,0.8783225,0.396395,-0.258467,0.7625225,0.583501,-0.390015,1.1352625,0.390745,-0.244555,1.2461825,0.5752470000000001,-0.354465,0.7211925,0.814855,-0.486375,1.2832425,0.830385,-0.4397449999999999,0.9400055,-0.0003849999999999,-0.007105,1.0599945,0.0003849999999999,0.007105,0.8189725,0.039565,-0.389575,1.2132925,0.058895,-0.365475,0.8347025,-0.347715,-0.2509019999999999,1.1765925,-0.3653849999999999,-0.278185
136,1.0104214999999999,0.535916,-0.282505,0.8775275,0.397555,-0.25558,0.7623675,0.580903,-0.388285,1.1349375,0.394045,-0.242894,1.2452675,0.576116,-0.352965,0.7193875000000001,0.809555,-0.486045,1.2839775,0.830355,-0.440465,0.9397845,-0.0001149999999999,-0.008555,1.0602155,0.0001149999999999,0.0085549999999999,0.8185074999999999,0.0569549999999999,-0.388065,1.2116175,0.071595,-0.363075,0.8342575,-0.334685,-0.249398,1.1735574999999998,-0.355645,-0.277105
137,1.0094335,0.5375110000000001,-0.28052,0.8766975,0.39981,-0.252281,0.7615575,0.579814,-0.3857,1.1346275,0.39687,-0.240682,1.2438175,0.58069,-0.351,0.7174674999999999,0.8052,-0.48548,1.2843575,0.83396,-0.44028,0.9395315,0.00056,-0.01,1.0604685,-0.00056,0.0099999999999999,0.8179775,0.07629,-0.3861,1.2098275,0.08517,-0.35995,0.8330375,-0.3194099999999999,-0.247433,1.1703674999999998,-0.3450999999999999,-0.27524
138,1.008599,0.539015,-0.278185,0.875989,0.40266,-0.248877,0.7613989999999999,0.575202,-0.381595,1.134209,0.40017,-0.2379959999999999,1.242599,0.579414,-0.348735,0.715699,0.80112,-0.483375,1.2846790000000001,0.83186,-0.439405,0.9392560000000001,0.0010799999999999,-0.0112549999999999,1.060744,-0.0010799999999999,0.011255,0.817339,0.09415,-0.383985,1.207959,0.09694,-0.356735,0.8317289999999999,-0.30621,-0.245119,1.168509,-0.33601,-0.273505
139,1.008011,0.541613,-0.275765,0.875402,0.405535,-0.245381,0.761632,0.569802,-0.376915,1.1337819999999998,0.403065,-0.235005,1.241372,0.5786650000000001,-0.345825,0.713822,0.800975,-0.481085,1.284742,0.8304050000000001,-0.437395,0.938918,0.001635,-0.012215,1.061082,-0.0016349999999999,0.012215,0.8166720000000001,0.111335,-0.380895,1.206042,0.107735,-0.353125,0.830392,-0.2941749999999999,-0.242603,1.167182,-0.3279649999999999,-0.271705
140,1.0078055,0.5445260000000001,-0.272475,0.8749705,0.4081950000000001,-0.2419649999999999,0.7620405,0.5700360000000001,-0.371705,1.1334805000000001,0.404885,-0.231943,1.2403705,0.579779,-0.342665,0.7118405,0.802455,-0.478865,1.2838505,0.834165,-0.435175,0.9386785,0.002305,-0.013045,1.0613215,-0.002305,0.013045,0.8161705,0.129185,-0.377305,1.2042905,0.119185,-0.349595,0.8291505,-0.2800049999999999,-0.237529,1.1659705,-0.3192649999999999,-0.269975
141,1.007733,0.545867,-0.26939,0.87461,0.4101,-0.2392079999999999,0.76252,0.5675570000000001,-0.3661299999999999,1.13297,0.40844,-0.2294419999999999,1.23947,0.579526,-0.33985,0.7106399999999999,0.80081,-0.47659,1.2830599999999999,0.83509,-0.43344,0.938239,0.00264,-0.0132899999999999,1.061761,-0.0026399999999999,0.01329,0.81575,0.14415,-0.37376,1.20282,0.12811,-0.3476599999999999,0.82786,-0.26847,-0.232702,1.16486,-0.3135199999999999,-0.26938
142,1.0079354999999999,0.5451600000000001,-0.266725,0.8743305,0.4113500000000001,-0.236304,0.7630205,0.564852,-0.360295,1.1325805,0.41129,-0.226906,1.2387205,0.579778,-0.336885,0.7095805,0.8014800000000001,-0.472865,1.2824105000000001,0.83596,-0.431665,0.9377545,0.00329,-0.013385,1.0622455,-0.0032899999999999,0.0133849999999999,0.8156905,0.1582300000000001,-0.369665,1.2014205,0.13685,-0.345725,0.8272905,-0.25991,-0.230961,1.1639905,-0.3069599999999999,-0.269715
143,1.0079985,0.545377,-0.2633149999999999,0.8740025000000001,0.41297,-0.2333799999999999,0.7635125,0.562039,-0.3545149999999999,1.1321725,0.41468,-0.2243889999999999,1.2379925,0.580236,-0.3336449999999999,0.7085325,0.8022,-0.468825,1.2816425,0.8371999999999999,-0.428265,0.9372335,0.0038399999999999,-0.0135349999999999,1.0627665,-0.0038399999999999,0.013535,0.8156924999999999,0.17195,-0.365415,1.2000025,0.14578,-0.3437249999999999,0.8266425,-0.25128,-0.229149,1.1632925,-0.30032,-0.269765
144,1.0081365,0.5469249999999999,-0.25964,0.8733105,0.4172149999999999,-0.230378,0.7641005,0.5648229999999999,-0.349,1.1315005,0.4171149999999999,-0.221391,1.2374405,0.5811129999999999,-0.32942,0.7076104999999999,0.8014049999999999,-0.46095,1.2810305,0.838525,-0.42354,0.9371015,0.0040749999999999,-0.01309,1.0628985,-0.004075,0.0130899999999999,0.8157805,0.1814349999999999,-0.36055,1.1989305,0.1526249999999999,-0.34074,0.8259805,-0.240335,-0.222432,1.1624105,-0.293595,-0.26687
145,1.0087845,0.549082,-0.256575,0.8729885,0.4214399999999999,-0.2279899999999999,0.7643985,0.567789,-0.344005,1.1312285,0.41788,-0.218821,1.2372584999999998,0.581845,-0.325935,0.7072685000000001,0.80058,-0.453575,1.2808185,0.8397699999999999,-0.418715,0.9370175000000001,0.0045499999999999,-0.0123049999999999,1.0629825,-0.00455,0.012305,0.8163885000000001,0.1900699999999999,-0.356295,1.1983085,0.1591499999999999,-0.338265,0.8253785000000001,-0.22927,-0.2163819999999999,1.1621585,-0.28657,-0.2647049999999999
146,1.009578,0.549752,-0.254355,0.872706,0.42425,-0.226431,0.764726,0.568858,-0.3397949999999999,1.130976,0.4182599999999999,-0.217159,1.237266,0.581356,-0.323225,0.707156,0.79833,-0.447095,1.280726,0.8396699999999999,-0.414675,0.937124,0.00463,-0.0113049999999999,1.062876,-0.00463,0.011305,0.817276,0.1951899999999999,-0.353195,1.197796,0.16419,-0.336685,0.824956,-0.2214399999999999,-0.211532,1.162056,-0.2827199999999999,-0.263385
147,1.0103835,0.549965,-0.25391,0.8724324999999999,0.4268550000000001,-0.225765,0.7643825000000001,0.5709540000000001,-0.33786,1.1307225,0.418305,-0.216379,1.2372725,0.585211,-0.32207,0.7069125,0.7957850000000001,-0.44175,1.2806125,0.843805,-0.41183,0.9371465,0.005055,-0.01086,1.0628535000000001,-0.0050549999999999,0.0108599999999999,0.8183325000000001,0.199915,-0.35128,1.1972225,0.168575,-0.33622,0.8246125,-0.2143049999999999,-0.207353,1.1621825000000001,-0.2790249999999999,-0.26403
148,1.011199,0.548995,-0.252685,0.872248,0.428895,-0.225252,0.7648280000000001,0.573544,-0.335835,1.130598,0.417485,-0.215741,1.237058,0.5882769999999999,-0.321025,0.707248,0.793635,-0.436575,1.280378,0.847135,-0.409145,0.937326,0.005475,-0.0105449999999999,1.062674,-0.005475,0.0105449999999999,0.819658,0.203785,-0.349645,1.196728,0.171975,-0.335445,0.824288,-0.2083049999999999,-0.203352,1.162818,-0.275755,-0.264945
149,1.0119585,0.547335,-0.25199,0.8721845,0.430375,-0.224817,0.7650845,0.576453,-0.33402,1.1305745,0.416705,-0.2152589999999999,1.2369645,0.590918,-0.32025,0.7079545,0.790865,-0.4313599999999999,1.2802645,0.8501650000000001,-0.40652,0.9374165,0.005425,-0.0103,1.0625835,-0.005425,0.0103,0.8211945,0.207425,-0.3481499999999999,1.1964545,0.174195,-0.33491,0.8239945000000001,-0.2016449999999999,-0.199462,1.1636445,-0.272115,-0.26608
150,1.0125675,0.54589,-0.251055,0.8721415000000001,0.4317299999999999,-0.2244769999999999,0.7653515,0.5795049999999999,-0.332835,1.1305815,0.4162199999999999,-0.2149029999999999,1.2370515,0.59332,-0.3194749999999999,0.7086615,0.78797,-0.426765,1.2804315,0.85288,-0.404215,0.9374755,0.0052399999999999,-0.0100049999999999,1.0625245,-0.00524,0.010005,0.8228015,0.2104499999999999,-0.3467449999999999,1.1960115,0.1758799999999999,-0.334345,0.8238015,-0.19491,-0.1955219999999999,1.1635915,-0.2698600000000001,-0.267345
151,1.0131614999999998,0.54547,-0.25093,0.8722945,0.43364,-0.2243899999999999,0.7661845,0.582245,-0.33236,1.1307645,0.41585,-0.214714,1.2374144999999999,0.595035,-0.3188299999999999,0.7098045,0.78486,-0.42306,1.2807145,0.8549100000000001,-0.40236,0.9376105,0.0049,-0.0096399999999999,1.0623895,-0.0049,0.00964,0.8244245,0.2123,-0.34585,1.1958145,0.17693,-0.33372,0.8239245,-0.1915099999999999,-0.194819,1.1637245,-0.2683799999999999,-0.26822
152,1.013861,0.544875,-0.25106,0.872607,0.4351049999999999,-0.224381,0.767217,0.58505,-0.33211,1.130997,0.415505,-0.214704,1.238007,0.59678,-0.31845,0.7113970000000001,0.781825,-0.4198,1.2810570000000001,0.857085,-0.40088,0.937755,0.004375,-0.00927,1.062245,-0.004375,0.00927,0.825997,0.2138149999999999,-0.34523,1.195637,0.178045,-0.33332,0.824427,-0.1883449999999999,-0.195569,1.164127,-0.266725,-0.2692299999999999
153,1.014644,0.5426849999999999,-0.25109,0.872969,0.4348349999999998,-0.224207,0.768239,0.5858649999999999,-0.33174,1.1312389999999999,0.4135649999999999,-0.214615,1.238669,0.5969529999999998,-0.31797,0.712469,0.7818949999999999,-0.41903,1.281419,0.8576449999999999,-0.39951,0.937914,0.0038049999999999,-0.0089199999999999,1.062086,-0.003805,0.00892,0.827509,0.2137649999999998,-0.34452,1.195579,0.1775749999999998,-0.3328799999999999,0.825079,-0.187035,-0.1961909999999999,1.164809,-0.2669250000000001,-0.27029
154,1.0152835,0.54054,-0.251345,0.8732685,0.43456,-0.224011,0.7691785000000001,0.5867990000000001,-0.331425,1.1314185,0.41309,-0.214619,1.2393285,0.596988,-0.317395,0.7134185,0.78183,-0.418325,1.2817785,0.8579600000000001,-0.398325,0.9380365,0.0030999999999999,-0.008755,1.0619635,-0.0030999999999999,0.0087549999999999,0.8287985,0.21369,-0.343755,1.1956385,0.17725,-0.332925,0.8252185,-0.1861399999999999,-0.196948,1.1637985,-0.26695,-0.268615
155,1.016175,0.5383549999999999,-0.2515349999999999,0.873822,0.433955,-0.2239069999999999,0.770342,0.5873799999999999,-0.331295,1.131842,0.4125249999999999,-0.2146989999999999,1.240232,0.5967349999999999,-0.316925,0.7144619999999999,0.7815049999999999,-0.4178949999999999,1.282532,0.857965,-0.3979149999999999,0.938205,0.0022549999999998,-0.0086649999999999,1.061795,-0.002255,0.008665,0.8301620000000001,0.2132949999999999,-0.343035,1.195922,0.1767249999999999,-0.3329149999999999,0.825582,-0.186425,-0.1970279999999999,1.164162,-0.265375,-0.268695
156,1.017352,0.536125,-0.252795,0.874711,0.4330549999999999,-0.224932,0.7720210000000001,0.587298,-0.332245,1.132591,0.4118449999999999,-0.215889,1.241461,0.59624,-0.317655,0.715661,0.7809349999999999,-0.418775,1.2836809999999998,0.857675,-0.398405,0.938271,0.0012649999999999,-0.008655,1.061729,-0.001265,0.0086549999999999,0.831631,0.2128149999999999,-0.343545,1.1963409999999999,0.1758249999999999,-0.333695,0.826451,-0.185605,-0.198049,1.164841,-0.264425,-0.269885
157,1.018322,0.5341849999999999,-0.253715,0.875537,0.4319149999999999,-0.225593,0.7736069999999999,0.586912,-0.332845,1.133277,0.4109749999999999,-0.216758,1.2426169999999999,0.595505,-0.318065,0.716607,0.7801349999999999,-0.419465,1.284827,0.857085,-0.399215,0.9383319999999999,0.0003049999999999,-0.0087849999999999,1.061668,-0.0003049999999999,0.008785,0.832697,0.2119349999999999,-0.344035,1.196797,0.1748649999999999,-0.3343049999999999,0.826767,-0.184605,-0.1988609999999999,1.165467,-0.264025,-0.270995
158,1.019031,0.53383,-0.254375,0.8764419999999999,0.43127,-0.225719,0.7753019999999999,0.586307,-0.333005,1.134032,0.41099,-0.21704,1.243812,0.595346,-0.317985,0.717442,0.77984,-0.419705,1.2868819999999999,0.8554,-0.399445,0.938284,0.00021,-0.009025,1.061716,-0.0002099999999999,0.009025,0.833402,0.21169,-0.344275,1.197492,0.17489,-0.334545,0.827132,-0.1845099999999999,-0.199103,1.164942,-0.2656999999999999,-0.269425
159,1.019917,0.53383,-0.25529,0.877366,0.43075,-0.226032,0.776786,0.586307,-0.33336,1.134806,0.41099,-0.2175,1.244816,0.595332,-0.31811,0.718136,0.7795300000000001,-0.42007,1.289256,0.8537,-0.39979,0.9382530000000001,0.00021,-0.00925,1.061747,-0.0002099999999999,0.0092499999999999,0.834096,0.21148,-0.34464,1.198116,0.17463,-0.33489,0.8276060000000001,-0.1856599999999999,-0.200646,1.164726,-0.26702,-0.26978
160,1.0207715,0.53383,-0.256015,0.8782175,0.43043,-0.226182,0.7776575,0.586307,-0.333515,1.1354975,0.41099,-0.21777,1.2455175,0.595332,-0.318065,0.7187775000000001,0.77935,-0.4202249999999999,1.2915675,0.85218,-0.400035,0.9382905,0.00021,-0.0092849999999999,1.0617095,-0.0002099999999999,0.0092849999999999,0.8347275000000001,0.21122,-0.3447949999999999,1.1986575,0.17463,-0.334985,0.8284374999999999,-0.18847,-0.202316,1.1633075,-0.2683,-0.270155
161,1.021293,0.53295,-0.256975,0.878904,0.42955,-0.22638,0.778294,0.586222,-0.333795,1.136074,0.41011,-0.218166,1.246324,0.594452,-0.318265,0.719294,0.77847,-0.420635,1.293544,0.8503000000000001,-0.400535,0.93828,-0.00056,-0.0093749999999999,1.06172,0.00056,0.0093749999999999,0.8352440000000001,0.21026,-0.345335,1.199174,0.17375,-0.335185,0.8292540000000002,-0.1920299999999999,-0.204713,1.162404,-0.2692,-0.270225
162,1.0219575,0.531965,-0.25765,0.8797555,0.4283949999999999,-0.226374,0.7789655,0.585867,-0.33375,1.1366955,0.409165,-0.218418,1.2473055,0.593297,-0.31826,0.7198555,0.777315,-0.42098,1.2953055,0.848885,-0.40063,0.9381955,-0.001225,-0.00938,1.0618045,0.001225,0.00938,0.8356555000000001,0.209065,-0.34598,1.1999155,0.172705,-0.3356099999999999,0.8302455,-0.1969649999999999,-0.207258,1.1623755,-0.269235,-0.26978
163,1.0225665,0.53165,-0.25855,0.8805995000000001,0.4267199999999999,-0.226542,0.7795695,0.5853099999999999,-0.33401,1.1372995,0.4081899999999999,-0.218903,1.2482395,0.5919919999999999,-0.31842,0.7202795,0.7756399999999999,-0.42155,1.2967095,0.8472099999999999,-0.40063,0.9381285,-0.00143,-0.00955,1.0618715,0.0014299999999999,0.00955,0.8358295,0.2073599999999999,-0.34718,1.2006195,0.1711299999999999,-0.3361699999999999,0.8311495,-0.2020100000000001,-0.21042,1.1624895,-0.2694900000000001,-0.26926
164,1.0228815,0.531925,-0.25961,0.8812755,0.425075,-0.226897,0.7799555,0.5846859999999999,-0.33441,1.1376855,0.406975,-0.219429,1.2488455,0.5964109999999999,-0.31885,0.7199055,0.777015,-0.42296,1.2977155,0.844675,-0.40076,0.9380955,-0.001205,-0.00972,1.0619045,0.001205,0.0097199999999999,0.8355355000000001,0.2047049999999999,-0.34885,1.2012055,0.1687449999999999,-0.33709,0.8318655,-0.208065,-0.213575,1.1627055,-0.270475,-0.26883
165,1.0231615,0.53254,-0.26077,0.8820655,0.42219,-0.227526,0.7804455,0.5832480000000001,-0.33499,1.1381755,0.40553,-0.220336,1.2494554999999998,0.5993250000000001,-0.3194099999999999,0.7195655000000001,0.7764500000000001,-0.4246,1.2986155,0.8400500000000001,-0.40115,0.9382505,-0.0006499999999999,-0.0099599999999999,1.0617495,0.00065,0.0099599999999999,0.8347855,0.1999,-0.3518,1.2019155,0.1641,-0.33829,0.8325655,-0.2164399999999999,-0.217146,1.1633355,-0.2734199999999999,-0.26863
166,1.0222755,0.53229,-0.26312,0.8820735,0.41825,-0.2287469999999999,0.7788634999999999,0.5858070000000001,-0.3379999999999999,1.1380835,0.40357,-0.221769,1.2494634999999998,0.598017,-0.32049,0.7169335,0.7849700000000001,-0.42885,1.2989035,0.8316300000000001,-0.40225,0.9382525,-0.0004599999999999,-0.0102499999999999,1.0617475,0.00046,0.01025,0.8331335,0.19033,-0.35494,1.2023535,0.1554000000000001,-0.3406,0.8325435,-0.22546,-0.221611,1.1637735,-0.2808299999999999,-0.26952
167,1.0210675,0.533595,-0.265375,0.8820815,0.415635,-0.230023,0.7770414999999999,0.588182,-0.341465,1.1379615,0.402925,-0.22328,1.2494515,0.599401,-0.321635,0.7145515,0.7933950000000001,-0.432585,1.2989115,0.824485,-0.403425,0.9382545,-5.500000000002725e-05,-0.010525,1.0617455,5.500000000002725e-05,0.010525,0.8308415,0.176335,-0.357535,1.2028815,0.146545,-0.343125,0.8329215,-0.238495,-0.226471,1.1641115,-0.288235,-0.270255
168,1.019775,0.5331949999999999,-0.267715,0.8821,0.4114249999999999,-0.2320829999999999,0.7749700000000002,0.5886879999999999,-0.3461349999999999,1.13767,0.4006549999999999,-0.225572,1.24933,0.599416,-0.323565,0.71225,0.7992449999999999,-0.436895,1.29893,0.8224449999999999,-0.4053549999999999,0.93827,0.0004849999999999,-0.0106949999999999,1.0617299999999998,-0.000485,0.010695,0.8287100000000001,0.1589149999999999,-0.360465,1.20341,0.1349149999999999,-0.345975,0.8331100000000001,-0.253685,-0.2320819999999999,1.16397,-0.297965,-0.270715
169,1.0181135,0.533523,-0.2717,0.8818355,0.40764,-0.235358,0.7722055000000001,0.592092,-0.3517099999999999,1.1371255,0.39937,-0.228849,1.2488655,0.5982149999999999,-0.32652,0.7099555,0.80228,-0.44169,1.2987454999999999,0.8173699999999999,-0.4083,0.9385005,0.0008299999999999,-0.01012,1.0614995,-0.0008299999999999,0.0101199999999999,0.8267155000000002,0.1381699999999999,-0.36375,1.2037555,0.1207599999999999,-0.34957,0.8331855,-0.27103,-0.238507,1.1661155,-0.31009,-0.27397
170,1.0162905,0.533738,-0.27534,0.8813345,0.4047199999999999,-0.238989,0.7691645000000001,0.595433,-0.3565399999999999,1.1362045,0.39838,-0.232483,1.2483045,0.597679,-0.33019,0.7071645000000001,0.80428,-0.4461699999999999,1.2975444999999999,0.81261,-0.4119,0.9387755,0.00133,-0.00925,1.0612245,-0.0013299999999999,0.00925,0.8247845,0.11701,-0.36739,1.2040345000000001,0.1058299999999999,-0.35325,0.8330645,-0.2875799999999999,-0.243803,1.1657345000000001,-0.32447,-0.27688
171,1.014537,0.5336429999999999,-0.27947,0.8808630000000001,0.4011149999999999,-0.243106,0.766053,0.5975919999999999,-0.3615199999999999,1.135273,0.3963649999999999,-0.2366069999999999,1.247613,0.5970639999999999,-0.33396,0.704403,0.8058649999999999,-0.4507,1.296533,0.8064749999999999,-0.41602,0.9389689999999999,0.0015649999999999,-0.0082799999999999,1.061031,-0.001565,0.00828,0.8234530000000001,0.0975449999999998,-0.3715199999999999,1.204203,0.0902149999999999,-0.3573699999999999,0.8328530000000001,-0.305355,-0.2491809999999999,1.165423,-0.3394750000000001,-0.2803
172,1.0126725,0.5321659999999999,-0.28383,0.8801675,0.3997699999999999,-0.24757,0.7624875,0.5960859999999999,-0.36652,1.1340575,0.3957099999999999,-0.240815,1.2466775,0.5949279999999999,-0.33776,0.7013975,0.80419,-0.45522,1.2947275,0.80616,-0.41922,0.9391685,0.0014599999999999,-0.0072599999999999,1.0608315,-0.00146,0.0072599999999999,0.8223975,0.0748199999999999,-0.37603,1.2041175,0.0709199999999999,-0.36187,0.8324374999999999,-0.32711,-0.25401,1.1649275000000001,-0.3570500000000001,-0.28413
173,1.010821,0.531422,-0.28805,0.879483,0.39834,-0.252197,0.759043,0.595368,-0.37126,1.132953,0.39553,-0.245113,1.245893,0.593453,-0.34148,0.6989930000000001,0.80631,-0.45996,1.293073,0.81229,-0.42259,0.9394070000000001,0.00124,-0.0060999999999999,1.060593,-0.00124,0.0060999999999999,0.822023,0.0536099999999999,-0.38016,1.203693,0.0526699999999999,-0.3661,0.8322229999999999,-0.3483199999999999,-0.258807,1.166373,-0.3737,-0.2885999999999999
174,1.008783,0.5297499999999999,-0.292425,0.878433,0.3960999999999999,-0.256572,0.755483,0.596761,-0.376445,1.1317529999999998,0.3948699999999999,-0.2489589999999999,1.245053,0.589923,-0.345555,0.6964430000000001,0.80701,-0.4651349999999999,1.291303,0.8161499999999999,-0.426155,0.939698,0.00039,-0.004975,1.060302,-0.00039,0.004975,0.821563,0.0303699999999999,-0.384205,1.203233,0.0328999999999999,-0.370345,0.832013,-0.37117,-0.26397,1.167263,-0.39166,-0.292695
175,1.0071185,0.5305650000000001,-0.296485,0.8772515000000001,0.39612,-0.26008,0.7533815,0.5936950000000001,-0.381125,1.1305615,0.3938,-0.252142,1.2441615,0.589142,-0.348845,0.6952615000000001,0.7981400000000001,-0.469595,1.2896615,0.8221400000000001,-0.429195,0.9399515,0.00039,-0.0036849999999999,1.0600485,-0.00039,0.0036849999999999,0.8209915,0.00997,-0.387055,1.2026715000000001,0.01643,-0.374085,0.8314515,-0.38952,-0.26869,1.1681915,-0.4064099999999999,-0.296125
176,1.0058735,0.530103,-0.30012,0.8759865,0.39436,-0.2636969999999999,0.7515265,0.59186,-0.38615,1.1290865,0.390893,-0.255389,1.2428065,0.58564,-0.35097,0.6939465,0.7950200000000001,-0.47364,1.2877465,0.8269200000000001,-0.4319499999999999,0.9401545000000001,0.0004,-0.0022499999999999,1.0598455,-0.0003999999999999,0.00225,0.8207065,-0.0120099999999999,-0.3891,1.2022065,-0.0014599999999999,-0.37761,0.8309865,-0.40945,-0.273885,1.1684364999999999,-0.42276,-0.30011
177,1.0041099999999998,0.532517,-0.3017849999999999,0.874223,0.395707,-0.266074,0.749123,0.5917100000000001,-0.389695,1.127103,0.391472,-0.256758,1.240773,0.5856100000000001,-0.351375,0.6921729999999999,0.79091,-0.475835,1.284983,0.8242200000000001,-0.432825,0.9400850000000001,0.00013,-0.0011849999999999,1.059915,-0.0001299999999999,0.001185,0.8209030000000002,-0.0344999999999999,-0.388455,1.200793,-0.0200099999999999,-0.379305,0.8300330000000001,-0.43038,-0.277972,1.167793,-0.4387099999999999,-0.301925
178,1.0032455,0.534545,-0.301115,0.8734185,0.396071,-0.266957,0.7473785,0.5920650000000001,-0.3895349999999999,1.1259585,0.389568,-0.256934,1.2392585,0.586245,-0.350425,0.6914085000000001,0.7902549999999999,-0.4735049999999999,1.2825785,0.8229150000000001,-0.431285,0.9399365,6.499999999998174e-05,-0.000865,1.0600635,-6.499999999998174e-05,0.000865,0.8223185,-0.0554549999999999,-0.3867549999999999,1.1995784999999999,-0.037785,-0.3789249999999999,0.8297185,-0.450215,-0.280601,1.1675384999999998,-0.449965,-0.299765
179,1.0023765,0.5372250000000001,-0.299645,0.8724775000000001,0.395056,-0.267171,0.7456575,0.5915750000000001,-0.388945,1.1250175,0.388625,-0.255885,1.2377175,0.589315,-0.348315,0.6904775000000001,0.789855,-0.471145,1.2800475,0.823405,-0.428585,0.9397775,-0.0001549999999999,-0.0007449999999999,1.0602225,0.000155,0.0007449999999999,0.8244375000000002,-0.0720549999999999,-0.384925,1.1979075,-0.0556349999999999,-0.377515,0.8293175,-0.4707049999999999,-0.282179,1.1671375,-0.462025,-0.297504
180,1.001307,0.540875,-0.2970669999999999,0.871515,0.3955539999999999,-0.265877,0.744345,0.5913649999999999,-0.38712,1.124055,0.3885209999999999,-0.253623,1.236225,0.5913649999999999,-0.34521,0.689595,0.789795,-0.46742,1.277615,0.824635,-0.42383,0.939672,-0.000105,-0.00064,1.060328,0.0001049999999999,0.00064,0.826565,-0.087615,-0.38187,1.196035,-0.074275,-0.37529,0.8288949999999999,-0.492425,-0.283002,1.166745,-0.476065,-0.294475
181,1.0002885,0.545755,-0.293975,0.8707035,0.39781,-0.263421,0.7438035000000001,0.597785,-0.38328,1.1232635,0.3895679999999999,-0.250563,1.2349635,0.597715,-0.3411,0.6889135,0.799345,-0.4625,1.2754735,0.828905,-0.41805,0.9395095000000001,0.0001649999999999,-0.00062,1.0604905,-0.000165,0.00062,0.8288735,-0.100315,-0.37816,1.1939735,-0.090535,-0.37246,0.8286335,-0.5122650000000001,-0.283393,1.1663935,-0.488775,-0.291319
182,0.9995140000000001,0.5507949999999999,-0.290057,0.870505,0.399107,-0.260172,0.743005,0.602205,-0.3795,1.122925,0.391308,-0.246545,1.2337449999999999,0.597175,-0.33622,0.687835,0.800485,-0.45708,1.273785,0.8258749999999999,-0.41109,0.939221,-2.4999999999997247e-05,-0.0007199999999999,1.060779,2.4999999999997247e-05,0.0007199999999999,0.831295,-0.114695,-0.37373,1.1918149999999998,-0.108405,-0.36892,0.828625,-0.533855,-0.283233,1.166185,-0.5036050000000001,-0.287857
183,0.9985875000000001,0.556795,-0.284845,0.8701695,0.401352,-0.256505,0.7422695,0.6056250000000001,-0.373905,1.1224395,0.392481,-0.242398,1.2323994999999999,0.600295,-0.329535,0.6865095,0.8035749999999999,-0.450005,1.2721795,0.8251850000000001,-0.402445,0.9389555,0.000155,-0.000725,1.0610445,-0.000155,0.000725,0.8333195,-0.1296149999999999,-0.368365,1.1892194999999999,-0.1236849999999999,-0.364755,0.8285495,-0.554115,-0.282618,1.1655395,-0.516915,-0.284258
184,0.9975830000000001,0.562595,-0.278564,0.869542,0.401905,-0.252618,0.741792,0.610395,-0.36721,1.121542,0.394365,-0.2378569999999999,1.231092,0.606825,-0.32213,0.685372,0.808735,-0.44156,1.270502,0.825635,-0.39253,0.9386590000000001,-8.500000000000174e-05,-0.00073,1.0613409999999999,8.500000000000174e-05,0.00073,0.835082,-0.144275,-0.36285,1.186212,-0.1384749999999999,-0.3599299999999999,0.828412,-0.5741149999999999,-0.281752,1.164512,-0.530305,-0.280275
185,0.9966600000000001,0.56924,-0.2723919999999999,0.869157,0.40634,-0.247452,0.741117,0.61503,-0.36045,1.1206369999999999,0.4014,-0.23165,1.230857,0.6142399999999999,-0.31471,0.6851170000000001,0.81414,-0.43248,1.269507,0.83243,-0.38204,0.938314,-0.00045,-0.00073,1.061686,0.0004499999999999,0.00073,0.836677,-0.15969,-0.35758,1.183437,-0.15383,-0.35548,0.828427,-0.59487,-0.280973,1.163597,-0.54473,-0.276313
186,0.9958905,0.575985,-0.266447,0.8688135000000001,0.408155,-0.242868,0.7410435,0.620655,-0.3539799999999999,1.1199035,0.405385,-0.226482,1.2306834999999998,0.6182650000000001,-0.30733,0.6850435,0.8219650000000001,-0.42442,1.2690635000000001,0.840295,-0.37272,0.9382905,-0.0005049999999999,-0.00073,1.0617095,0.000505,0.00073,0.8377535,-0.172755,-0.35277,1.1808535,-0.1668549999999999,-0.35178,0.8284835,-0.613115,-0.280421,1.1630035,-0.5582349999999999,-0.2734769999999999
187,0.995028,0.58284,-0.259911,0.868584,0.41197,-0.2378279999999999,0.741064,0.62547,-0.34641,1.119794,0.41219,-0.22058,1.230394,0.6216,-0.2992019999999999,0.684994,0.82826,-0.41658,1.2687840000000001,0.84829,-0.3638,0.93829,-0.0006099999999999,-0.00089,1.06171,0.0006099999999999,0.00089,0.838634,-0.18487,-0.34772,1.178154,-0.1797899999999999,-0.3480499999999999,0.828484,-0.6311100000000001,-0.2797739999999999,1.162624,-0.5750500000000001,-0.272698
188,0.9941790000000001,0.58986,-0.251988,0.8681300000000001,0.41685,-0.231712,0.74117,0.63118,-0.338015,1.11971,0.41791,-0.214166,1.23027,0.62886,-0.290611,0.6855900000000001,0.83497,-0.406715,1.26837,0.85575,-0.354265,0.938277,-0.00059,-0.001255,1.061723,0.00059,0.0012549999999999,0.83925,-0.19671,-0.341765,1.17545,-0.1926,-0.343455,0.82849,-0.64862,-0.278539,1.16247,-0.59164,-0.271464
189,0.9937545,0.597415,-0.2429949999999999,0.8680685,0.423475,-0.2248759999999999,0.7413585,0.637635,-0.3286199999999999,1.1198585,0.423325,-0.2073379999999999,1.2304585,0.636485,-0.281622,0.6862685,0.8417049999999999,-0.3959899999999999,1.2681585,0.863455,-0.34443,0.9380285,-0.0005749999999999,-0.0015099999999999,1.0619715,0.0005749999999999,0.00151,0.8395985,-0.207545,-0.33574,1.1725685,-0.2035249999999999,-0.3379799999999999,0.8286385000000001,-0.6651050000000001,-0.276644,1.1624785,-0.6074050000000001,-0.2695649999999999
190,0.99359,0.604135,-0.232797,0.867877,0.427735,-0.216699,0.7425269999999999,0.639275,-0.31815,1.120227,0.429145,-0.199048,1.230977,0.640075,-0.271909,0.6872670000000001,0.840555,-0.38482,1.2680669999999998,0.861515,-0.33307,0.9378299999999999,-0.0007349999999999,-0.00137,1.06217,0.000735,0.0013699999999999,0.839977,-0.218105,-0.32903,1.169797,-0.214935,-0.33194,0.8286169999999999,-0.682015,-0.273957,1.162407,-0.622325,-0.266433
191,0.99338,0.61017,-0.221749,0.867528,0.4333,-0.20793,0.744078,0.64163,-0.306325,1.120578,0.43413,-0.190463,1.231348,0.64927,-0.261711,0.688358,0.84029,-0.372725,1.268148,0.8702099999999999,-0.321485,0.937664,-0.0006499999999999,-0.001285,1.062336,0.00065,0.001285,0.8403780000000001,-0.22829,-0.321855,1.1671079999999998,-0.22619,-0.325245,0.8286180000000001,-0.69845,-0.270855,1.1621679999999999,-0.6376900000000001,-0.262778
192,0.9932825,0.617,-0.2107409999999999,0.8672355,0.43961,-0.198937,0.7457955000000001,0.6471,-0.29485,1.1211555,0.4405,-0.1815979999999999,1.2317955,0.6578900000000001,-0.251967,0.6895655,0.8510899999999999,-0.36082,1.2686255,0.88147,-0.31015,0.9375985,-0.00062,-0.0013199999999999,1.0624015,0.00062,0.00132,0.8411055000000001,-0.23757,-0.3147,1.1649255,-0.23448,-0.31881,0.8288355000000001,-0.7133,-0.267208,1.1622555,-0.6513500000000001,-0.258789
193,0.9930845,0.62286,-0.199497,0.8670575,0.4461699999999999,-0.18941,0.7475475,0.65237,-0.283717,1.1213175,0.44697,-0.172215,1.2319874999999998,0.66339,-0.242136,0.6911575000000001,0.85883,-0.34977,1.2686074999999999,0.8934000000000001,-0.29915,0.9375035,-0.00064,-0.0012999999999999,1.0624965,0.00064,0.0012999999999999,0.8417574999999999,-0.2473999999999999,-0.30663,1.1630575,-0.24344,-0.31198,0.8290474999999999,-0.7280399999999999,-0.263081,1.1622275,-0.66479,-0.254198
194,0.993149,0.62828,-0.188351,0.866943,0.4499599999999999,-0.181069,0.749583,0.65547,-0.272042,1.121523,0.44897,-0.164523,1.2320829999999998,0.6688999999999999,-0.23219,0.6929529999999999,0.86012,-0.33849,1.268433,0.89807,-0.28827,0.937425,-0.0005799999999999,-0.00131,1.062575,0.0005799999999999,0.00131,0.842353,-0.2564,-0.29838,1.1614129999999998,-0.25138,-0.30506,0.829243,-0.7411,-0.258947,1.162183,-0.67631,-0.248734
195,0.9932925,0.632735,-0.177066,0.8664425,0.457155,-0.17085,0.7517825,0.657145,-0.260085,1.1219525,0.451875,-0.156118,1.2325725,0.6761050000000001,-0.222331,0.6948725,0.861415,-0.32615,1.2681825,0.906685,-0.276109,0.9374675,-0.0005649999999999,-0.0012,1.0625325,0.000565,0.0012,0.8427825,-0.265625,-0.28929,1.1603325,-0.259565,-0.2971,0.8295625,-0.753845,-0.254496,1.1624425,-0.686225,-0.24272
196,0.993527,0.6370349999999999,-0.166102,0.865961,0.463005,-0.160973,0.753831,0.6562549999999999,-0.24798,1.122341,0.4561349999999999,-0.147016,1.232911,0.6847749999999999,-0.212965,0.696531,0.862745,-0.313875,1.2680909999999999,0.916735,-0.2643459999999999,0.937489,-0.000576,-0.001035,1.062511,0.0005759999999999,0.001035,0.8430610000000001,-0.274575,-0.279845,1.159371,-0.267055,-0.288255,0.829831,-0.765575,-0.249974,1.162881,-0.695905,-0.236481
197,0.993662,0.640274,-0.155607,0.86516,0.468134,-0.151187,0.75587,0.6556839999999999,-0.235062,1.12253,0.4595539999999999,-0.138151,1.23285,0.686344,-0.203407,0.69815,0.8695539999999999,-0.30127,1.26743,0.926104,-0.252664,0.937597,-0.000559,-0.0008499999999999,1.062403,0.000559,0.0008499999999999,0.8431100000000001,-0.283236,-0.27022,1.15872,-0.274266,-0.27897,0.82997,-0.776686,-0.2453449999999999,1.1637799999999998,-0.711116,-0.230683
198,0.9936415,0.643028,-0.14543,0.8649265000000002,0.470408,-0.142073,0.7578965,0.6552479999999999,-0.22268,1.1226365,0.463098,-0.129282,1.2332765,0.690018,-0.193454,0.6995965,0.877138,-0.28929,1.2663665,0.935928,-0.241317,0.9376415,-0.0006909999999999,-0.00079,1.0623585,0.000691,0.0007899999999999,0.8433565000000001,-0.291532,-0.260591,1.1585965,-0.282022,-0.26975,0.8298465000000002,-0.786532,-0.240684,1.1646365,-0.725432,-0.224714
199,0.9932895,0.6457120000000001,-0.1358349999999999,0.8646545,0.471862,-0.1335929999999999,0.7595545,0.6557120000000001,-0.2114169999999999,1.1227545,0.4638319999999999,-0.1217859999999999,1.2339244999999999,0.6959120000000001,-0.1839229999999999,0.7008445000000001,0.885822,-0.27793,1.2651145,0.945622,-0.2309879999999999,0.9376345,-0.000938,-0.0008199999999999,1.0623655,0.000938,0.00082,0.8431245,-0.298788,-0.251702,1.1585345,-0.288538,-0.2600699999999999,0.8291945000000001,-0.7941779999999999,-0.237141,1.1653145,-0.7385379999999999,-0.2190639999999999
200,0.9928725,0.648471,-0.126669,0.8643355,0.472971,-0.1253989999999999,0.7608355,0.6567510000000001,-0.201003,1.1230155,0.4641909999999999,-0.114487,1.2331155,0.696821,-0.174673,0.7020155,0.8952110000000001,-0.26696,1.2634155,0.945781,-0.220225,0.9375645,-0.0011509999999999,-0.0008299999999999,1.0624355,0.0011509999999999,0.0008299999999999,0.8433155000000001,-0.305529,-0.243079,1.1584355,-0.294459,-0.250528,0.8284055000000001,-0.8011889999999999,-0.233644,1.1662255,-0.7446189999999999,-0.213219
201,0.9924995,0.6503575,-0.117766,0.8640205,0.4741275,-0.1172719999999999,0.7619505,0.6542275,-0.1906459999999999,1.1234005,0.4640775,-0.1071679999999999,1.2317904999999998,0.6980875,-0.1651949999999999,0.7031005,0.8949775,-0.256065,1.2612804999999998,0.9447075,-0.209471,0.9375435,-0.0013025,-0.000805,1.0624565,0.0013024999999999,0.000805,0.8438505000000001,-0.3123425,-0.2344689999999999,1.1584005,-0.3027725,-0.240694,0.8277205,-0.8081825,-0.228568,1.1666205,-0.7498925,-0.207228
202,0.9920430000000001,0.6520079999999999,-0.109071,0.863712,0.475238,-0.10919,0.762372,0.6508179999999999,-0.180003,1.123842,0.464368,-0.09964,1.230472,0.700908,-0.155931,0.703692,0.8961579999999999,-0.24498,1.259032,0.943358,-0.198423,0.937501,-0.0014399999999999,-0.00081,1.062499,0.00144,0.00081,0.844282,-0.322272,-0.2260889999999999,1.158302,-0.312702,-0.230646,0.827922,-0.8181120000000001,-0.2232509999999999,1.169292,-0.763642,-0.200846
203,0.9914665,0.653169,-0.1003199999999999,0.8632775,0.4756289999999999,-0.1011349999999999,0.7624375,0.648679,-0.170099,1.1242275,0.464709,-0.0920019999999999,1.2291375,0.703109,-0.14719,0.7040575,0.898059,-0.2341829999999999,1.2568175,0.942849,-0.1881959999999999,0.9374695,-0.001713,-0.0006549999999999,1.0625305,0.001713,0.000655,0.8446675,-0.331261,-0.2179849999999999,1.1581575,-0.321691,-0.220209,0.8282275,-0.827101,-0.217626,1.1714975,-0.778791,-0.1954679999999999
204,0.9909045,0.6524495,-0.0864769999999999,0.8634075,0.4716295,-0.0891719999999999,0.7622275000000001,0.6460295,-0.155684,1.1245174999999998,0.4635094999999999,-0.079231,1.2281075,0.7030895,-0.133511,0.7048675000000001,0.8993495,-0.218669,1.2545375,0.9386095,-0.1725259999999999,0.9374955,-0.0019505,-0.0001149999999999,1.0625045,0.0019504999999999,0.000115,0.8455874999999999,-0.3406005,-0.203642,1.1577275,-0.3310305,-0.2041599999999999,0.8284975,-0.8364405,-0.2062899999999999,1.1736475,-0.7902905,-0.1830969999999999
205,0.9904285,0.6496784999999999,-0.072939,0.8614385,0.4702685,-0.075128,0.7612085,0.6484985,-0.142096,1.1251685,0.4647685,-0.064926,1.2272185,0.7009084999999999,-0.119717,0.7055785,0.8989985,-0.202457,1.2517285,0.9315485,-0.156231,0.9375065,-0.0017164999999999,-3.0000000000002247e-05,1.0624935,0.0017164999999999,3.0000000000002247e-05,0.8483585000000001,-0.3559015,-0.186632,1.1553185,-0.3487915,-0.185806,0.8287185,-0.8478415,-0.192886,1.1760085,-0.8058215,-0.172236
206,0.9899045000000001,0.6471835,-0.060049,0.8594005,0.4691935,-0.061597,0.7596305,0.6505235,-0.129481,1.1260804999999998,0.4667234999999999,-0.050973,1.2264805,0.6992335,-0.106442,0.7061204999999999,0.8949435,-0.187752,1.2490104999999998,0.9252135,-0.140634,0.9375305,-0.0015345,-5.000000000005e-06,1.0624695,0.0015344999999999,5.000000000005e-06,0.8510705000000001,-0.3707265,-0.170307,1.1528605,-0.3656065,-0.168448,0.8287105000000001,-0.8587765,-0.179891,1.1783605,-0.8209565,-0.162016
207,0.9894745,0.6440914999999999,-0.047649,0.8573305,0.4679415,-0.048146,0.7580905,0.6516115,-0.117381,1.1269505,0.4684915,-0.037148,1.2259205,0.6963115,-0.093685,0.7066205,0.8903614999999999,-0.173298,1.2467305,0.9184815,-0.125704,0.9376005000000001,-0.0015784999999999,7.000000000000062e-05,1.0623995,0.0015785,-7.000000000000062e-05,0.8535205,-0.3772985,-0.154238,1.1502705,-0.3822485,-0.151573,0.8287305,-0.8651985,-0.167164,1.1803605,-0.8384885000000001,-0.152286
208,0.9891625,0.6416489999999999,-0.0360715,0.8553355,0.465989,-0.0358545,0.7563755,0.653459,-0.1060215,1.1273855,0.470069,-0.0239955,1.2253155,0.6924889999999999,-0.0817955,0.7070955,0.8866189999999999,-0.1596185,1.2447355,0.912869,-0.1118455,0.9376445,-0.0015399999999999,-8.450000000000124e-05,1.0623555,0.0015399999999999,8.450000000000124e-05,0.8558855,-0.383061,-0.1387685,1.1475855,-0.3907009999999999,-0.1359285,0.8286855,-0.870781,-0.1548775,1.1818855,-0.853631,-0.1431205
209,0.9890490000000001,0.638551,-0.0247395,0.8533580000000001,0.4640609999999999,-0.0234615,0.754638,0.655091,-0.0946665,1.127888,0.471851,-0.0107244999999999,1.224898,0.6885209999999999,-0.0699175,0.707598,0.882521,-0.1462435,1.243208,0.907241,-0.0986285,0.937696,-0.001484,-0.0002375,1.062304,0.0014839999999999,0.0002375,0.858338,-0.392039,-0.1232125,1.144888,-0.399319,-0.1203065,0.828648,-0.879499,-0.1422555,1.183208,-0.868259,-0.1342155
210,0.9889495000000001,0.635262,-0.013393,0.8513305,0.462592,-0.010983,0.7529805,0.6567620000000001,-0.0838879999999999,1.1284205,0.474012,0.002641,1.2248205,0.684652,-0.058266,0.7080905,0.878752,-0.13291,1.2421005,0.901492,-0.085654,0.9376965,-0.0014419999999999,-0.000296,1.0623035,0.0014419999999999,0.000296,0.8622704999999999,-0.401298,-0.107605,1.1419905,-0.407498,-0.105211,0.8287705,-0.8884679999999999,-0.129471,1.1839505,-0.882398,-0.125757
211,0.988765,0.6319405,-0.0024925,0.849197,0.4614105,0.0011074999999999,0.7525970000000001,0.6560705,-0.0735425,1.129087,0.4758605,0.0154134999999999,1.224627,0.6805305,-0.0470025,0.7085969999999999,0.8751105,-0.1200145,1.241137,0.8957405,-0.0733555,0.9377219999999999,-0.0013624999999999,-0.0003905,1.062278,0.0013625,0.0003904999999999,0.8664769999999999,-0.4111295,-0.0925335,1.138057,-0.4156595,-0.0899925,0.8295070000000001,-0.8979895,-0.1158385,1.184367,-0.8901495,-0.1166465
212,0.9885880000000001,0.628687,0.008009,0.84716,0.460437,0.012894,0.75194,0.656527,-0.0633809999999999,1.12975,0.477637,0.027759,1.22445,0.676307,-0.0361309999999999,0.7093400000000001,0.871447,-0.1073889999999999,1.24034,0.890357,-0.0617029999999999,0.9377610000000001,-0.00125,-0.0006349999999999,1.062239,0.00125,0.000635,0.8704400000000001,-0.420893,-0.077731,1.13499,-0.430233,-0.0754469999999999,0.8303100000000001,-0.907423,-0.102431,1.18435,-0.9006230000000001,-0.1078889999999999
213,0.98842,0.6272184999999999,0.012688,0.8452200000000001,0.4616585,0.01903,0.7516900000000001,0.6579984999999999,-0.058559,1.13041,0.4814285,0.03439,1.22442,0.6740484999999999,-0.0310399999999999,0.7103200000000001,0.8694885,-0.100382,1.2398500000000001,0.8873985,-0.056704,0.937794,-0.0011654999999999,-0.0012199999999999,1.062206,0.0011654999999999,0.00122,0.8737,-0.4281715,-0.070274,1.1314799999999998,-0.4353615,-0.0678469999999999,0.8308900000000001,-0.9144015,-0.096396,1.18435,-0.9054915,-0.1048149999999999
