sb224sc-HT22-VT27/4dt907/src/data/kinect_good_preprocessed_not_cut_A11_mediapipe/A60_kinect_mirrored.csv
FrameNo,nose_3d_x,nose_3d_y,nose_3d_z,left_shoulder_3d_x,left_shoulder_3d_y,left_shoulder_3d_z,left_elbow_3d_x,left_elbow_3d_y,left_elbow_3d_z,right_shoulder_3d_x,right_shoulder_3d_y,right_shoulder_3d_z,right_elbow_3d_x,right_elbow_3d_y,right_elbow_3d_z,left_wrist_3d_x,left_wrist_3d_y,left_wrist_3d_z,right_wrist_3d_x,right_wrist_3d_y,right_wrist_3d_z,left_hip_3d_x,left_hip_3d_y,left_hip_3d_z,right_hip_3d_x,right_hip_3d_y,right_hip_3d_z,left_knee_3d_x,left_knee_3d_y,left_knee_3d_z,right_knee_3d_x,right_knee_3d_y,right_knee_3d_z,left_ankle_3d_x,left_ankle_3d_y,left_ankle_3d_z,right_ankle_3d_x,right_ankle_3d_y,right_ankle_3d_z
0,1.0626535,0.569071,-0.389945,0.8891935,0.468311,-0.2259349999999999,0.7774135,0.4600209999999999,0.013155,1.1932535,0.4553609999999999,-0.217305,1.2561635,0.444561,0.03759,0.7727335000000001,0.393671,0.222315,1.2698035,0.3815909999999999,0.298675,0.9130475,0.005658,0.000251,1.0869525,-0.005658,-0.0002509999999999,0.8732935,-0.322079,-0.125005,1.1323435,-0.327799,-0.119645,0.8309235,-0.748689,-0.192735,1.1733535,-0.748939,-0.220825
1,1.061248,0.570348,-0.3843,0.890223,0.468588,-0.22215,0.800283,0.457218,0.025208,1.193433,0.453228,-0.21455,1.258553,0.444468,0.039856,0.792923,0.387098,0.28493,1.271723,0.380748,0.3007999999999999,0.913027,0.0058709999999999,0.000399,1.086973,-0.0058709999999999,-0.0003989999999999,0.873643,-0.323622,-0.12565,1.134353,-0.327632,-0.12007,0.832403,-0.749522,-0.19943,1.174893,-0.7475520000000001,-0.2270799999999999
2,1.0644295,0.494544,-0.511585,0.8960135,0.3947839999999999,-0.367075,0.8165835,0.3828539999999999,-0.116421,1.1988235,0.3789039999999999,-0.356105,1.2623134999999999,0.379774,-0.1013179999999999,0.8003635,0.312534,0.142825,1.2816435,0.328874,0.161775,0.9123405,0.007452,-0.001735,1.0876595,-0.007452,0.001735,0.8795835,-0.389236,-0.258885,1.1381135,-0.390136,-0.256915,0.8367735000000001,-0.814086,-0.338915,1.1786035,-0.809336,-0.3673849999999999
3,1.055525,0.586969,-0.3991025,0.887426,0.485799,-0.2232425,0.800816,0.4788989999999999,0.0252815,1.186586,0.465049,-0.2290025,1.263616,0.502889,0.0191085,0.785226,0.447519,0.2482474999999999,1.283236,0.4414889999999999,0.2802174999999999,0.9116960000000001,0.0064269999999999,0.0001755,1.088304,-0.006427,-0.0001755,0.852926,-0.297281,-0.1667925,1.1483759999999998,-0.309271,-0.1683725,0.834296,-0.669571,-0.2280225,1.1592859999999998,-0.649761,-0.2334024999999999
4,1.0539589999999999,0.4988195,-0.50732,0.888205,0.3975595,-0.34914,0.821895,0.3879495,-0.094938,1.187465,0.3766895,-0.34987,1.2662849999999999,0.4162895,-0.1025499999999999,0.776755,0.3450595,0.16007,1.286805,0.3558595,0.1587,0.91182,0.0064285,-0.0005399999999999,1.08818,-0.0064284999999999,0.00054,0.871645,-0.3949205,-0.24768,1.1290049999999998,-0.3904805,-0.24834,0.8246249999999999,-0.8134505000000001,-0.3575399999999999,1.167685,-0.8062905,-0.37275
5,1.046089,0.5921599999999999,-0.3848065,0.8802580000000001,0.48874,-0.2204664999999999,0.799458,0.50512,0.0290965,1.178288,0.4692,-0.2258464999999999,1.275298,0.55435,0.0037855,0.745058,0.46476,0.2890435,1.302888,0.48109,0.2614935,0.912,0.0047409999999999,0.0002725,1.088,-0.0047409999999999,-0.0002724999999999,0.845908,-0.29996,-0.1603465,1.140558,-0.30887,-0.1685964999999999,0.829348,-0.66085,-0.2289264999999999,1.1556179999999998,-0.65059,-0.2474664999999999
6,1.0513375,0.57057,-0.409829,0.8876905000000002,0.46588,-0.2482889999999999,0.8198505,0.46153,0.0055849999999999,1.1862405,0.44617,-0.250849,1.2848505000000001,0.53219,-0.022139,0.7690205,0.41811,0.265761,1.3159005,0.46416,0.216051,0.9146025,0.005605,0.0004519999999999,1.0853975,-0.0056049999999999,-0.000452,0.8690405,-0.33658,-0.157389,1.1320005,-0.3230099999999999,-0.158109,0.8255805,-0.75273,-0.278209,1.1706005,-0.7346199999999999,-0.296999
7,1.049766,0.583382,-0.399749,0.885141,0.474912,-0.242189,0.808871,0.4743119999999999,0.009639,1.184561,0.455192,-0.249079,1.272761,0.5174719999999999,-0.012019,0.773821,0.432152,0.244981,1.3246609999999999,0.4769919999999999,0.2436109999999999,0.914327,0.005526,0.001022,1.0856729999999999,-0.005526,-0.001022,0.862201,-0.316848,-0.165579,1.137141,-0.316748,-0.179719,0.828801,-0.732558,-0.265489,1.1671909999999999,-0.720748,-0.287779
8,1.048579,0.5871995,-0.3962704999999999,0.8840270000000001,0.4756195,-0.2426605,0.808847,0.4766695,0.0090554999999999,1.183527,0.4554095,-0.2507305,1.273537,0.5221095,-0.0147015,0.773677,0.4350195,0.2430895,1.331207,0.4856995,0.2411095,0.914565,0.0054605,0.0011064999999999,1.085435,-0.0054605,-0.0011065,0.860097,-0.3158904999999999,-0.1664605,1.137827,-0.3152704999999999,-0.1830105,0.828897,-0.7254205,-0.2679905,1.165507,-0.7188005000000001,-0.2905905
9,1.0476145,0.5913740000000001,-0.3926,0.8827595,0.476354,-0.24262,0.8084895,0.479014,0.009569,1.1823295,0.455604,-0.25079,1.2738095,0.526854,-0.015894,0.7726295,0.437984,0.23808,1.3373395000000001,0.494154,0.2391599999999999,0.9148745000000001,0.00541,0.001064,1.0851255,-0.00541,-0.001064,0.8581495,-0.313286,-0.16731,1.1382794999999999,-0.312356,-0.18602,0.8288695,-0.7179559999999999,-0.26953,1.1629995,-0.7172259999999999,-0.29279
10,1.046953,0.596031,-0.384564,0.881638,0.4772409999999999,-0.238684,0.8078380000000001,0.4811709999999999,0.013868,1.181318,0.4560209999999999,-0.247284,1.273188,0.5285110000000001,-0.0118889999999999,0.771968,0.440961,0.2382659999999999,1.340928,0.499141,0.242796,0.915126,0.00529,0.0010659999999999,1.0848740000000001,-0.0052899999999999,-0.0010659999999999,0.856298,-0.311569,-0.165144,1.1388880000000001,-0.310679,-0.184494,0.828968,-0.7106589999999999,-0.265854,1.160458,-0.7158289999999999,-0.289304
11,1.0466655,0.5997830000000001,-0.3807925,0.8809475000000001,0.477233,-0.2391025,0.8078974999999999,0.480693,0.0133244999999999,1.1807375,0.455933,-0.2485825,1.2730475,0.5281030000000001,-0.0124875,0.7717375,0.441353,0.2342774999999999,1.3443475,0.502053,0.2420375,0.9156045,0.005442,0.0012184999999999,1.0843955,-0.005442,-0.0012185,0.8564275,-0.310617,-0.1670425,1.1381575,-0.308927,-0.1877725,0.8289875000000001,-0.715487,-0.2661225,1.1608075,-0.721297,-0.2946325
12,1.0463945,0.605453,-0.3732895,0.8804495,0.478943,-0.2362095,0.8075995,0.481753,0.0164674999999999,1.1802595,0.457273,-0.2462495,1.2729495,0.5295730000000001,-0.0105065,0.7715295,0.444293,0.2345904999999999,1.3444895,0.504243,0.2442605,0.9160165000000001,0.005442,0.0011884999999999,1.0839835,-0.005442,-0.0011885,0.8550095,-0.307127,-0.1663495,1.1391695,-0.306087,-0.1882095,0.8301795000000001,-0.712677,-0.2622695,1.1603094999999999,-0.719177,-0.2936195
13,1.046272,0.6094769999999999,-0.3687025,0.880288,0.479197,-0.2366125,0.807518,0.480357,0.0155275,1.180048,0.457207,-0.2471425,1.272858,0.528377,-0.0115214999999999,0.7721480000000001,0.4433269999999999,0.2303375,1.344698,0.504337,0.2433775,0.916218,0.005553,0.0012385,1.083782,-0.005553,-0.0012384999999999,0.8553380000000002,-0.305233,-0.1684315,1.138738,-0.304253,-0.1905124999999999,0.830298,-0.712773,-0.2627724999999999,1.158368,-0.721373,-0.2939825
14,1.046367,0.615367,-0.3644695,0.879852,0.481047,-0.2366694999999999,0.806692,0.4814569999999999,0.0151744999999999,1.179612,0.458567,-0.2472595,1.272432,0.528377,-0.0118245,0.772342,0.4445469999999999,0.2268705,1.344682,0.506647,0.2432805,0.916462,0.005553,0.0012365,1.083538,-0.005553,-0.0012365,0.8537520000000001,-0.300493,-0.1699065,1.139502,-0.301263,-0.1945195,0.8313619999999999,-0.704253,-0.2615795,1.155172,-0.720163,-0.2919695
15,1.0471329999999999,0.6200410000000001,-0.3605945,0.87961,0.4818409999999999,-0.2367844999999999,0.80645,0.4805109999999999,0.0150595,1.17936,0.459041,-0.2461344999999999,1.27218,0.529181,-0.0109644999999999,0.7726500000000001,0.4435309999999999,0.2245355,1.34492,0.508151,0.2441655,0.916705,0.005724,0.0011255,1.083295,-0.005724,-0.0011254999999999,0.85365,-0.298189,-0.1700205,1.1391499999999999,-0.299299,-0.1946345,0.83218,-0.699009,-0.2611845,1.15531,-0.7211489999999999,-0.2935145
16,1.0482725,0.6257605,-0.358124,0.8790475000000001,0.4833805,-0.236534,0.8055875,0.4826805,0.0153079999999999,1.1787975,0.4602305,-0.245714,1.2718275,0.5305305,-0.010712,0.7720875,0.4433205,0.224056,1.3450075,0.5101205,0.244936,0.9169025000000001,0.0056764999999999,0.0008719999999999,1.0830974999999998,-0.0056764999999999,-0.000872,0.8528475,-0.2952495,-0.170404,1.1385875,-0.2966594999999999,-0.195244,0.8324374999999999,-0.6929394999999999,-0.260934,1.1544275,-0.7195695,-0.293274
17,1.0501975,0.630295,-0.358107,0.8787265000000001,0.484055,-0.236537,0.8054465,0.482045,0.015307,1.1783565,0.460695,-0.245707,1.2716865,0.5313950000000001,-0.0107129999999999,0.7722265,0.441215,0.2237529999999999,1.3453065,0.511665,0.244933,0.9171315,0.0059039999999999,0.0008739999999999,1.0828685,-0.0059039999999999,-0.0008739999999999,0.8524065000000001,-0.293525,-0.170557,1.1380365000000001,-0.295265,-0.195247,0.8326264999999999,-0.6911849999999999,-0.2606569999999999,1.1548265,-0.720855,-0.296137
18,1.0530245,0.6354735,-0.3567884999999999,0.8794665,0.4861435,-0.2352785,0.8046265000000001,0.4827535,0.0160735,1.1788265,0.4625535,-0.2444085,1.2713364999999999,0.5302135,-0.0089144999999999,0.7739165,0.4401235,0.2208814999999999,1.3461764999999999,0.5132035,0.2464915,0.9171245,0.0060545,0.0007304999999999,1.0828755,-0.0060545,-0.0007304999999999,0.8519565,-0.2931165,-0.1702985,1.1377265,-0.2952865,-0.1950785,0.8328265000000001,-0.6912765,-0.2586385,1.1544665,-0.7202865,-0.2952685
19,1.056639,0.640429,-0.3557445,0.880777,0.487889,-0.2357544999999999,0.803727,0.481969,0.0150025,1.179757,0.463839,-0.2433845,1.270877,0.5283490000000001,-0.0079004999999999,0.773567,0.437799,0.2174855,1.346957,0.513699,0.2475155,0.91703,0.006242,0.0005875,1.08297,-0.006242,-0.0005875,0.851577,-0.293091,-0.1709244999999999,1.137257,-0.295871,-0.1953345,0.832727,-0.687811,-0.2576245,1.154027,-0.720591,-0.2942545
20,1.0610065,0.6452205000000001,-0.3521645,0.8820355,0.4891705,-0.2338644999999999,0.8024155,0.4802105,0.0163365,1.1806355,0.4649305,-0.2402345,1.2708154999999999,0.5265705,-0.0044545,0.7730954999999999,0.4352005,0.2163455,1.3464555,0.5119405,0.2510955,0.9170225,0.0064385,0.0004325,1.0829775,-0.0064385,-0.0004325,0.8509055,-0.2936195,-0.1707445,1.1368654999999999,-0.2972895,-0.1945345,0.8323754999999999,-0.6848595,-0.2540445,1.1535355,-0.7214495,-0.2912045
21,1.0661885,0.6493035,-0.3481425,0.8846475,0.4909835,-0.2325625,0.8007675,0.4775835,0.0162674999999999,1.1827874999999999,0.4658735,-0.2364224999999999,1.2711875,0.5197335,0.0005874999999999,0.7725375,0.4308935,0.2178675,1.3458675,0.5093135,0.2566374999999999,0.9169365,0.0067025,0.0002435,1.0830635,-0.0067025,-0.0002435,0.8503075,-0.2946364999999999,-0.1685225,1.1363475,-0.2994565,-0.1916525,0.8318175,-0.6862465,-0.2489325,1.1554475,-0.7231765,-0.2890025
22,1.0724395,0.6529754999999999,-0.3442225,0.8876315,0.4925855,-0.2306524999999999,0.7991115,0.4745054999999999,0.0163635,1.1857815,0.4668255,-0.2316925,1.2718715,0.5121355,0.0069274999999999,0.7718615,0.4203555,0.2209175,1.3452015,0.5062355,0.2630175,0.9168045,0.0070484999999999,-0.0001085,1.0831955,-0.0070484999999999,0.0001084999999999,0.8491415,-0.2940445,-0.1695925,1.1359015000000001,-0.3019545,-0.1878225,0.8312815,-0.6893245,-0.2432524999999999,1.1565315,-0.7253845,-0.2842525
23,1.079658,0.6563319999999999,-0.3398549999999999,0.8908469999999999,0.494102,-0.227605,0.7962670000000001,0.469502,0.0162329999999999,1.189117,0.467382,-0.225515,1.272577,0.5033519999999999,0.0153659999999999,0.770657,0.408182,0.226105,1.3396970000000001,0.493512,0.271685,0.916736,0.007428,-0.000634,1.083264,-0.007428,0.0006339999999999,0.847917,-0.2938679999999999,-0.168605,1.135417,-0.304548,-0.183005,0.830457,-0.693238,-0.235695,1.1575369999999998,-0.728128,-0.277935
24,1.0877545,0.6599135,-0.335927,0.8947615,0.4961534999999999,-0.225417,0.7929515,0.4634835,0.014044,1.1935915,0.4688035,-0.219527,1.2732615,0.4945934999999999,0.023675,0.7675015000000001,0.3959735,0.2268529999999999,1.3390815,0.4775135,0.279293,0.9167115,0.0078325,-0.0010709999999999,1.0832885,-0.0078325,0.001071,0.8467715,-0.2949265,-0.166627,1.1348015,-0.3078465,-0.177517,0.8294315,-0.6991065,-0.226967,1.1591115,-0.7315364999999999,-0.270777
25,1.096278,0.6629925,-0.332336,0.899102,0.4985425,-0.223436,0.789478,0.4560825,0.011103,1.198408,0.4702725,-0.213366,1.275718,0.4846325,0.031687,0.761378,0.3779425,0.218214,1.3379780000000001,0.4605625,0.287454,0.916716,0.0082335,-0.0017289999999999,1.083284,-0.0082335,0.001729,0.845778,-0.2960275,-0.1642159999999999,1.1340379999999999,-0.3111875,-0.171866,0.8281080000000001,-0.7045875,-0.217366,1.158348,-0.7349275,-0.259786
26,1.1052665,0.665675,-0.329533,0.9038195,0.5007750000000001,-0.222133,0.7866165,0.447335,0.006012,1.2039065,0.471255,-0.2071629999999999,1.2783565000000001,0.4725749999999999,0.039316,0.7526865,0.352435,0.209107,1.3376565,0.436075,0.293087,0.9168065,0.00864,-0.002309,1.0831935,-0.0086399999999999,0.002309,0.8443665,-0.297575,-0.160853,1.1328465,-0.314655,-0.165723,0.8262965000000001,-0.705795,-0.206673,1.1571065,-0.7392949999999999,-0.248023
27,1.1147765,0.6677704999999999,-0.326586,0.9085205000000001,0.5023605,-0.220756,0.7847565,0.4361005,-0.000608,1.2098165,0.4706905,-0.201116,1.2835264999999998,0.4568005,0.045959,0.7456765000000001,0.3239905,0.196684,1.3375565,0.4083205,0.290754,0.9169175,0.0090175,-0.003012,1.0830825,-0.0090175,0.0030119999999999,0.8430365000000001,-0.2988395,-0.158346,1.1317365,-0.3176795,-0.160746,0.8245264999999999,-0.7081995000000001,-0.196976,1.1558565,-0.7432895,-0.236656
28,1.1243065,0.66967,-0.323596,0.9133765,0.50404,-0.219946,0.7841365000000001,0.42276,-0.009126,1.2166664999999999,0.4699,-0.195596,1.2902765,0.4392,0.050779,0.7420665,0.29215,0.178024,1.3370565,0.37605,0.282454,0.9171715,0.009403,-0.003665,1.0828285,-0.0094029999999999,0.0036649999999999,0.8416165,-0.29945,-0.155996,1.1305965,-0.32026,-0.1561759999999999,0.8228165000000001,-0.71341,-0.187396,1.1544765,-0.7462,-0.2255559999999999
29,1.133952,0.6710305,-0.319273,0.919019,0.5058005,-0.2195629999999999,0.783222,0.4084905,-0.0199909999999999,1.223882,0.4679005,-0.189223,1.296662,0.4176805,0.054873,0.740292,0.2616705,0.152587,1.335712,0.3379505,0.271107,0.917364,0.0098325,-0.0042019999999999,1.082636,-0.0098325,0.004202,0.841172,-0.3004095,-0.151463,1.129232,-0.3228094999999999,-0.150413,0.820762,-0.7185695,-0.176203,1.152832,-0.7491395,-0.2135629999999999
30,1.144014,0.6725235,-0.315513,0.923932,0.5067835,-0.218433,0.781774,0.3953335,-0.030739,1.230644,0.4661935,-0.183803,1.3033540000000001,0.4009335,0.055612,0.738734,0.2334835,0.117953,1.333214,0.2943935,0.257267,0.917691,0.0102755,-0.0047799999999999,1.082309,-0.0102755,0.0047799999999999,0.839234,-0.2998965,-0.147243,1.128134,-0.3245765,-0.145713,0.819164,-0.7189565,-0.1657829999999999,1.151014,-0.7521565,-0.202723
31,1.154003,0.6740625,-0.312161,0.9292320000000001,0.5080125,-0.218381,0.780153,0.3837425,-0.043901,1.237193,0.4649525,-0.179111,1.309643,0.3826025,0.054172,0.737063,0.2118324999999999,0.076442,1.330793,0.2499924999999999,0.233759,0.918027,0.0106954999999999,-0.00519,1.081973,-0.0106955,0.0051899999999999,0.837223,-0.2993575,-0.140641,1.127093,-0.3260674999999999,-0.1415509999999999,0.817623,-0.7201475,-0.156191,1.149083,-0.7546675,-0.192711
32,1.163775,0.675353,-0.3092455,0.934899,0.509333,-0.2194855,0.778895,0.374863,-0.0576454999999999,1.243775,0.464123,-0.1753555,1.316005,0.361533,0.0494705,0.735325,0.193473,0.0274325,1.328195,0.210973,0.2018345,0.918455,0.011129,-0.0055395,1.081545,-0.011129,0.0055395,0.835125,-0.298247,-0.1351655,1.125775,-0.327267,-0.1376555,0.815465,-0.7177169999999999,-0.1474755,1.147035,-0.756747,-0.1837355
33,1.1734855,0.675918,-0.30651,0.9406995000000001,0.510178,-0.2204,0.7788555,0.367918,-0.07073,1.2496355000000001,0.462428,-0.17137,1.3221655,0.338998,0.0432799999999999,0.7337855,0.175998,-0.02246,1.3252255,0.176008,0.162301,0.9189345,0.0115859999999999,-0.0060899999999999,1.0810655,-0.011586,0.0060899999999999,0.8343155000000001,-0.298222,-0.1316,1.1244055,-0.328702,-0.1341,0.8131355,-0.717472,-0.13953,1.1448455,-0.758962,-0.1755799999999999
34,1.1835985,0.6764095,-0.3043855,0.9467465000000002,0.5109795,-0.2218555,0.7797385,0.3625695,-0.0842955,1.2554285,0.4597794999999999,-0.1682855,1.3264084999999999,0.3167394999999999,0.0347535,0.7365485,0.1648995,-0.0677355,1.3203985,0.1406795,0.1177305,0.9194515,0.0120105,-0.0064354999999999,1.0805485,-0.0120105,0.0064355,0.8342485,-0.2996205,-0.1285555,1.1230385,-0.3301605,-0.1313254999999999,0.8110685,-0.7206305000000001,-0.1329054999999999,1.1426385,-0.7611105,-0.1686655
35,1.1936355,0.676685,-0.302401,0.9529675,0.511985,-0.223401,0.7830655,0.359405,-0.097721,1.2610655,0.4570249999999999,-0.165951,1.3302355,0.2960649999999999,0.024075,0.7408455,0.161165,-0.1133909999999999,1.3214555,0.113945,0.069136,0.9199545000000001,0.012421,-0.006821,1.0800455,-0.0124209999999999,0.0068209999999999,0.8344255,-0.300225,-0.126391,1.1219855,-0.331535,-0.129371,0.8097555000000001,-0.722795,-0.127321,1.1407755,-0.763015,-0.163111
36,1.2035535,0.6770105000000001,-0.3008,0.9588915,0.5127905,-0.22518,0.7874835,0.3587605,-0.11077,1.2655735,0.4530205,-0.16432,1.3314835,0.2798605,0.0113429999999999,0.7476735,0.1566004999999999,-0.15372,1.3204034999999998,0.0940805,0.023857,0.9205265,0.0130655,-0.00715,1.0794735,-0.0130654999999999,0.00715,0.8353935,-0.3006195,-0.12393,1.1208935,-0.3321795,-0.1270899999999999,0.8081035,-0.7249494999999999,-0.12197,1.1389235,-0.7637394999999999,-0.15742
37,1.213536,0.6770510000000001,-0.2996499999999999,0.9650970000000001,0.513681,-0.22724,0.792426,0.358191,-0.1225,1.2701959999999999,0.4486509999999999,-0.1637199999999999,1.3314059999999999,0.265861,-0.0017699999999999,0.758616,0.152111,-0.18951,1.319096,0.078561,-0.02233,0.921064,0.013635,-0.00741,1.0789360000000001,-0.0136349999999999,0.00741,0.836416,-0.300929,-0.12185,1.120056,-0.332749,-0.12521,0.806936,-0.726579,-0.11714,1.1372659999999999,-0.7643089999999999,-0.1526699999999999
38,1.2233685,0.6768595000000001,-0.299535,0.9712765,0.5145695,-0.2299149999999999,0.7973985,0.3575895,-0.1331549999999999,1.2744385,0.4443695,-0.1639549999999999,1.3317385,0.2552995,-0.0152349999999999,0.7729585,0.1505895,-0.214625,1.3178285,0.0684495,-0.065995,0.9216315,0.0141465,-0.0079349999999999,1.0783685,-0.0141464999999999,0.007935,0.8378185,-0.3011805,-0.1212149999999999,1.1198185,-0.3332605,-0.1248049999999999,0.8057985,-0.7270905,-0.1145649999999999,1.1359385,-0.7648404999999999,-0.1494749999999999
39,1.2324389999999998,0.676138,-0.299215,0.977412,0.514908,-0.232475,0.802099,0.356668,-0.1414949999999999,1.2791489999999999,0.439018,-0.1644749999999999,1.331399,0.246528,-0.0278249999999999,0.785689,0.150028,-0.2316349999999999,1.314919,0.0632679999999999,-0.1088249999999999,0.922201,0.015,-0.0084049999999999,1.077799,-0.015,0.008405,0.8395589999999999,-0.300572,-0.1214349999999999,1.1196789999999999,-0.3342119999999999,-0.1246749999999999,0.805339,-0.727032,-0.1117149999999999,1.134839,-0.765932,-0.146785
40,1.241158,0.675318,-0.298735,0.982888,0.5151779999999999,-0.2342949999999999,0.806528,0.356398,-0.146625,1.2837480000000001,0.433778,-0.1649149999999999,1.331328,0.239658,-0.039745,0.794788,0.150298,-0.2408449999999999,1.312438,0.05599,-0.1432049999999999,0.922752,0.015853,-0.0087549999999999,1.077248,-0.015853,0.008755,0.841668,-0.300062,-0.1205149999999999,1.119728,-0.335092,-0.1246249999999999,0.8052980000000001,-0.7270220000000001,-0.1088249999999999,1.1340279999999998,-0.766972,-0.144335
41,1.249353,0.6747044999999999,-0.29829,0.98823,0.5155345,-0.23573,0.810253,0.3575045,-0.14953,1.288193,0.4293445,-0.16538,1.331373,0.2362845,-0.04972,0.801283,0.1495044999999999,-0.24265,1.308973,0.0513155,-0.16783,0.923237,0.0166465,-0.00889,1.076763,-0.0166465,0.0088899999999999,0.842693,-0.2998854999999999,-0.12016,1.1200629999999998,-0.3358855,-0.12492,0.805043,-0.7277255,-0.10638,1.133523,-0.7678255,-0.14228
42,1.256662,0.674851,-0.29797,0.992931,0.516571,-0.2367,0.813482,0.358861,-0.15027,1.292352,0.4259909999999999,-0.16605,1.331512,0.234811,-0.05874,0.804702,0.149291,-0.23962,1.305682,0.046422,-0.18315,0.923658,0.01686,-0.00884,1.076342,-0.01686,0.0088399999999999,0.843562,-0.300099,-0.11842,1.120562,-0.336179,-0.12501,0.804302,-0.728259,-0.1036,1.133232,-0.768159,-0.13927
43,1.2630745,0.67435,-0.29744,0.9970685000000001,0.5167999999999999,-0.23714,0.8165545000000001,0.3584,-0.14835,1.2963545,0.42386,-0.16644,1.3316345,0.2329,-0.06552,0.8042045,0.14846,-0.23661,1.3035145,0.04043,-0.19208,0.9239955,0.017605,-0.00872,1.0760045,-0.017605,0.0087199999999999,0.8449945,-0.30093,-0.1172199999999999,1.1207845,-0.33726,-0.12489,0.8035945,-0.72909,-0.10191,1.1331645,-0.7692800000000001,-0.13649
44,1.2679425,0.6737299999999999,-0.294205,0.9998105,0.51671,-0.234245,0.8186625000000001,0.3573699999999999,-0.142795,1.2990625,0.4216899999999999,-0.164005,1.3308225,0.23087,-0.067725,0.8028025,0.14571,-0.2310849999999999,1.3009825,0.038434,-0.190735,0.9240075000000001,0.018342,-0.008165,1.0759925,-0.018342,0.0081649999999999,0.8455525,-0.30196,-0.113565,1.1202825,-0.33885,-0.121885,0.8022025,-0.73012,-0.097135,1.1325025,-0.77086,-0.131035
45,1.2715075,0.673126,-0.285035,1.0019064999999998,0.516636,-0.224955,0.8202875000000001,0.3562659999999999,-0.131515,1.3019275,0.419786,-0.155915,1.3298975,0.2282259999999999,-0.061905,0.8014175,0.1420159999999999,-0.217465,1.2991774999999999,0.03733,-0.179485,0.9238824999999999,0.019041,-0.007535,1.0761175,-0.019041,0.0075349999999999,0.8450875,-0.304694,-0.102295,1.1196875,-0.340204,-0.112815,0.8000975000000001,-0.733204,-0.087435,1.1318175,-0.772204,-0.120065
46,1.2728055,0.6723545000000001,-0.274995,1.0025134999999998,0.5161045000000001,-0.214525,0.8214755000000001,0.3550145,-0.119945,1.3040255,0.4183044999999999,-0.147765,1.3283855,0.2255145,-0.054805,0.7997155000000001,0.1375345,-0.194305,1.2975655,0.0346425,-0.167935,0.9240345000000001,0.0196054999999999,-0.007485,1.0759655,-0.0196054999999999,0.0074849999999999,0.8451055000000001,-0.3116455,-0.090905,1.1186355,-0.3420655,-0.103235,0.7966854999999999,-0.7395255,-0.076535,1.1308855,-0.7740355,-0.108765
47,1.2721325,0.6718225,-0.264325,1.0023915,0.5152725,-0.203585,0.8221925,0.3540025,-0.107235,1.3057625,0.4167925,-0.139875,1.3269625,0.2230125,-0.047185,0.7970425000000001,0.1306925,-0.170285,1.2961125,0.0314815,-0.156665,0.9241775,0.0199664999999999,-0.007405,1.0758225,-0.0199664999999999,0.0074049999999999,0.8451625,-0.3185774999999999,-0.079785,1.1173325,-0.3439075,-0.093405,0.7932825,-0.7464875,-0.067075,1.1301525,-0.7758475,-0.097585
48,1.270823,0.6718635,-0.2532,1.001142,0.5144135,-0.19246,0.822453,0.3522735,-0.09237,1.304473,0.4152635,-0.13156,1.325673,0.2202335,-0.03878,0.792573,0.1240835,-0.14347,1.294353,0.0265735,-0.14406,0.924267,0.0201335,-0.00736,1.075733,-0.0201335,0.0073599999999999,0.845253,-0.3246664999999999,-0.07085,1.116023,-0.3458664999999999,-0.08342,0.7909930000000001,-0.7531465,-0.05624,1.129523,-0.7777565000000001,-0.08633
49,1.269701,0.672982,-0.24219,1.00002,0.5134420000000001,-0.18145,0.821901,0.350142,-0.0765299999999999,1.3033709999999998,0.413772,-0.1230899999999999,1.324561,0.217552,-0.0297399999999999,0.786521,0.117062,-0.1146999999999999,1.294011,0.023153,-0.1238599999999999,0.924339,0.020178,-0.0073699999999999,1.075661,-0.0201779999999999,0.00737,0.845431,-0.330958,-0.0619299999999999,1.114911,-0.3477679999999999,-0.0734,0.788731,-0.7589779999999999,-0.04649,1.129011,-0.779578,-0.0751299999999999
50,1.2687255,0.6750365,-0.23114,0.9990445,0.5127265,-0.1704,0.8208854999999999,0.3469965,-0.0595299999999999,1.3024155,0.4122365,-0.11436,1.3233955,0.2154165,-0.0205999999999999,0.7789355,0.1121764999999999,-0.08936,1.2935455,0.0182335,-0.1008199999999999,0.9243445,0.0201265,-0.0072899999999999,1.0756555,-0.0201265,0.00729,0.8455555000000001,-0.3376735,-0.05286,1.1139454999999998,-0.3500235,-0.0634699999999999,0.7870455000000001,-0.7653535,-0.0366999999999999,1.1285355,-0.7817135,-0.0637499999999999
51,1.2662995,0.6780445,-0.219445,0.9982725000000001,0.5122145,-0.158825,0.8200895,0.3434045,-0.0424549999999999,1.3010595,0.4139245,-0.105155,1.3220295,0.2134945,-0.0104249999999999,0.7710795,0.1066444999999999,-0.064645,1.2926795,0.0116915,-0.077675,0.9242905,0.0198975,-0.0071549999999999,1.0757095,-0.0198975,0.007155,0.8457095,-0.3448255,-0.0434549999999999,1.1131294999999999,-0.3525155,-0.053275,0.7859995000000001,-0.7718855,-0.025255,1.1281895,-0.7840555,-0.052325
52,1.2613205,0.682282,-0.206275,0.9965865,0.511922,-0.146515,0.8194805000000001,0.339782,-0.0254849999999999,1.2992305,0.415942,-0.0949849999999999,1.3203105,0.211332,9.500000000001174e-05,0.7624805,0.1015119999999999,-0.0430249999999999,1.2917405,0.00715,-0.054765,0.9242095,0.0194799999999999,-0.0069549999999999,1.0757905,-0.0194799999999999,0.006955,0.8458305,-0.352128,-0.033495,1.1122405,-0.355308,-0.042995,0.7846905,-0.778888,-0.0149549999999999,1.1278105,-0.7866580000000001,-0.0406249999999999
53,1.253709,0.688017,-0.19402,0.9933640000000001,0.512177,-0.1358299999999999,0.818589,0.336717,-0.0116799999999999,1.296569,0.419377,-0.08684,1.318169,0.209317,0.00804,0.754629,0.0976669999999999,-0.0264899999999999,1.291329,0.0034099999999999,-0.03733,0.924211,0.018885,-0.0071299999999999,1.0757889999999999,-0.018885,0.0071299999999999,0.8460989999999999,-0.358873,-0.02612,1.111639,-0.357323,-0.0356999999999999,0.784089,-0.785413,-0.0059799999999999,1.1277490000000001,-0.7886730000000001,-0.0315399999999999
54,1.243538,0.6942130000000001,-0.1859949999999999,0.987563,0.512703,-0.1294949999999999,0.8159080000000001,0.333273,-0.0039049999999999,1.292408,0.423773,-0.084025,1.3153679999999999,0.207223,0.010355,0.746638,0.094563,-0.0184349999999999,1.290048,0.001166,-0.0278049999999999,0.924212,0.018166,-0.0072249999999999,1.075788,-0.0181659999999999,0.007225,0.846088,-0.363197,-0.0241549999999999,1.110808,-0.359567,-0.034225,0.783408,-0.789577,-0.0035049999999999,1.127728,-0.790917,-0.0283149999999999
55,1.2304405,0.701553,-0.1767599999999999,0.9796835,0.513683,-0.1223599999999999,0.8114205,0.330033,0.00218,1.2867905,0.428463,-0.0814699999999999,1.3116605,0.2059129999999999,0.01217,0.7392004999999999,0.090973,-0.0158899999999999,1.2900105,0.001223,-0.0223999999999999,0.9242095,0.0172729999999999,-0.00661,1.0757905,-0.0172729999999999,0.00661,0.8458905,-0.365267,-0.0219599999999999,1.1101205,-0.361637,-0.0330999999999999,0.7827905,-0.791647,-0.0009599999999999,1.1277105,-0.792987,-0.0256299999999999
56,1.2149375,0.7095505000000001,-0.165715,0.9700055,0.5150605,-0.113745,0.8056475000000001,0.3264505,0.0076949999999999,1.2805275,0.4342605,-0.078665,1.3077375,0.2047705,0.0142249999999999,0.7317675,0.0887705,-0.0130949999999999,1.2884175,-0.0009794999999999,-0.019505,0.9243225,0.0162285,-0.0058749999999999,1.0756775,-0.0162284999999999,0.0058749999999999,0.8464675,-0.3674695,-0.019455,1.1098275,-0.3633794999999999,-0.0324049999999999,0.7828174999999999,-0.7938495,0.0018849999999999,1.1282874999999999,-0.7945395,-0.0227449999999999
57,1.197264,0.717711,-0.152975,0.959096,0.5161310000000001,-0.104405,0.798834,0.321271,0.0121749999999999,1.273254,0.440741,-0.075605,1.302904,0.205461,0.0163049999999999,0.7247140000000001,0.085291,-0.010035,1.285984,-0.0035569999999999,-0.016415,0.924486,0.015061,-0.005035,1.075514,-0.0150609999999999,0.0050349999999999,0.847574,-0.370949,-0.016445,1.109884,-0.365509,-0.032605,0.7832740000000001,-0.797399,0.0050049999999999,1.129094,-0.7962990000000001,-0.019865
58,1.1791245,0.72551,-0.139355,0.9474184999999999,0.51717,-0.094445,0.7915145,0.31649,0.0159249999999999,1.2643345,0.4479799999999999,-0.070965,1.2982045,0.2069,0.018045,0.7179845,0.08018,-0.0094349999999999,1.2822544999999999,-0.0044639999999999,-0.013315,0.9242355,0.013823,-0.004025,1.0757645,-0.0138229999999999,0.004025,0.8484345,-0.37324,-0.013315,1.1105745,-0.3676199999999999,-0.033165,0.7860945,-0.79981,0.008475,1.1308145,-0.79803,-0.0168349999999999
59,1.1601605,0.7326225,-0.1249449999999999,0.9342785,0.5174924999999999,-0.0839149999999999,0.7839805000000001,0.3117925,0.018805,1.2551005,0.4558424999999999,-0.0662549999999999,1.2927905,0.2098725,0.019385,0.7113805,0.0753824999999999,-0.0115049999999999,1.2780405,-0.0041425,-0.0104549999999999,0.9239295,0.0125364999999999,-0.0029949999999999,1.0760705,-0.0125365,0.002995,0.8494705000000001,-0.3756775,-0.0104149999999999,1.1115605,-0.3698575,-0.033995,0.7889005,-0.8024175,0.012365,1.1330305,-0.7998375000000001,-0.0140349999999999
60,1.1415199999999999,0.7387714999999999,-0.110645,0.92087,0.5170815,-0.073305,0.77628,0.3067815,0.0213749999999999,1.24779,0.4619015,-0.061515,1.28768,0.2130815,0.0201949999999999,0.70531,0.0723714999999999,-0.016965,1.27368,-0.0025364999999999,-0.011115,0.92361,0.0112234999999999,-0.001935,1.07639,-0.0112234999999999,0.0019349999999999,0.85067,-0.3781184999999999,-0.007785,1.1128,-0.3721885,-0.034965,0.7920900000000001,-0.8049885,0.0157849999999999,1.13554,-0.8017285000000001,-0.011505
61,1.123292,0.743973,-0.09677,0.907946,0.5161929999999999,-0.06316,0.769072,0.301603,0.0235099999999999,1.239712,0.468433,-0.05668,1.282322,0.217073,0.0200799999999999,0.7004220000000001,0.069053,-0.02528,1.268952,0.000876,-0.01484,0.923278,0.009929,-0.00091,1.076722,-0.0099289999999999,0.0009099999999999,0.851642,-0.380417,-0.00551,1.114152,-0.374337,-0.03618,0.7956520000000001,-0.807547,0.0187199999999999,1.138352,-0.803507,-0.00943
62,1.106158,0.7481395,-0.083455,0.895384,0.5147295000000001,-0.0533449999999999,0.7626780000000001,0.2960195,0.025275,1.231938,0.4745995,-0.0517549999999999,1.277618,0.2207095,0.019315,0.695918,0.0657994999999999,-0.0356449999999999,1.264268,0.0037904999999999,-0.022795,0.922952,0.0086464999999999,9.500000000001174e-05,1.077048,-0.0086465,-9.500000000001174e-05,0.852678,-0.3827505,-0.0035449999999999,1.115678,-0.3766105,-0.0374149999999999,0.799498,-0.8101704999999999,0.021335,1.141448,-0.8054405,-0.0077249999999999
63,1.09002,0.7520825,-0.070665,0.884378,0.5125824999999999,-0.044535,0.7574600000000001,0.2909525,0.0259749999999999,1.22469,0.4800525,-0.046605,1.27292,0.2246825,0.0177149999999999,0.6926,0.0627224999999999,-0.046465,1.25926,0.0081124999999999,-0.033295,0.92265,0.0074294999999999,0.0011149999999999,1.07735,-0.0074295,-0.001115,0.85383,-0.3850575,-0.001965,1.11743,-0.3788575,-0.038495,0.8031699999999999,-0.8127875,0.0234649999999999,1.14471,-0.8074375,-0.006505
64,1.0753759999999999,0.7553015,-0.05848,0.874653,0.5102114999999999,-0.03654,0.753493,0.2866115,0.0257499999999999,1.218213,0.4846815,-0.042,1.268903,0.2287815,0.0157299999999999,0.690563,0.0601715,-0.05662,1.2555830000000001,0.0127914999999999,-0.0442,0.922367,0.0062765,0.0020499999999999,1.077633,-0.0062765,-0.0020499999999999,0.855233,-0.3873985,-0.00074,1.119373,-0.3810785,-0.03942,0.806833,-0.8153185000000001,0.0252499999999999,1.147973,-0.8093485,-0.0057099999999999
65,1.062651,0.7578,-0.04715,0.86659,0.5076799999999999,-0.02968,0.7508900000000001,0.283,0.0249799999999999,1.21205,0.4886299999999999,-0.03762,1.26574,0.2333699999999999,0.0133599999999999,0.6897500000000001,0.0568299999999999,-0.06617,1.25227,0.0183199999999999,-0.05558,0.9221050000000001,0.0052499999999999,0.0028399999999999,1.0778949999999998,-0.00525,-0.00284,0.8567,-0.38954,0.0002599999999999,1.12142,-0.38333,-0.03973,0.8101300000000001,-0.8176300000000001,0.0266899999999999,1.15119,-0.81138,-0.00513
66,1.051956,0.7597715,-0.03669,0.859827,0.5066415,-0.02354,0.7491570000000001,0.2810615,0.0237099999999999,1.2066270000000001,0.4921415,-0.03328,1.263577,0.2376415,0.0108999999999999,0.689797,0.0552215,-0.07475,1.249657,0.0235215,-0.0658,0.921891,0.0043614999999999,0.0033699999999999,1.078109,-0.0043615,-0.00337,0.858077,-0.3905685,0.00106,1.123227,-0.3843685,-0.03975,0.813337,-0.8186685,0.0278599999999999,1.154217,-0.8124085,-0.00462
67,1.0426565,0.761256,-0.0267899999999999,0.8544425,0.505806,-0.0180699999999999,0.7482725,0.279256,0.02274,1.2022625,0.494866,-0.0292499999999999,1.2617725,0.241416,0.00857,0.6915825,0.054026,-0.08073,1.2478425,0.028366,-0.07482,0.9217155,0.003606,0.0036999999999999,1.0782845,-0.0036059999999999,-0.0036999999999999,0.8591025,-0.391384,0.00157,1.1247825,-0.385204,-0.03947,0.8163525,-0.819474,0.02873,1.1568725,-0.813234,-0.00422
68,1.035227,0.762609,-0.0180249999999999,0.8505,0.504969,-0.0135149999999999,0.7480100000000001,0.2776289999999999,0.022115,1.19861,0.4969289999999999,-0.0254149999999999,1.26082,0.2443389999999999,0.006475,0.69469,0.0533489999999999,-0.0848249999999999,1.24614,0.033259,-0.0825349999999999,0.921555,0.0030089999999999,0.003945,1.078445,-0.0030089999999999,-0.0039449999999999,0.86006,-0.391941,0.001955,1.1259299999999999,-0.385781,-0.0391749999999999,0.81894,-0.820011,0.029445,1.15926,-0.8137610000000001,-0.0037049999999999
69,1.0292795,0.7633835,-0.0102899999999999,0.8474865,0.5035335,-0.0096999999999999,0.7487665,0.2763835,0.02209,1.1955165,0.4980735,-0.02193,1.2598465,0.2468835,0.00481,0.6974765,0.0519234999999999,-0.0854599999999999,1.2447065,0.0371634999999999,-0.0882699999999999,0.9214115,0.0029234999999999,0.00422,1.0785885,-0.0029235,-0.00422,0.8611465,-0.3930665,0.00209,1.1268565,-0.3865265,-0.0392099999999999,0.8211865,-0.8212364999999999,0.02964,1.1615764999999998,-0.8144665,-0.0036399999999999
70,1.0250329999999999,0.7638235,-0.0031249999999999,0.845164,0.5021635,-0.0063149999999999,0.750244,0.2746235,0.022345,1.193334,0.4985635,-0.0187749999999999,1.259294,0.2483635,0.004105,0.699844,0.0504034999999999,-0.0852049999999999,1.243674,0.0388435,-0.0918249999999999,0.921297,0.0029234999999999,0.0044649999999999,1.078703,-0.0029235,-0.0044649999999999,0.862444,-0.3936165,0.002285,1.1276439999999999,-0.3871565,-0.0392449999999999,0.823364,-0.8218065,0.029895,1.163594,-0.8150465,-0.0034649999999999
71,1.0222495,0.7639085,0.003105,0.8439505,0.5009785,-0.0034049999999999,0.7522305,0.2723485,0.022615,1.1919905,0.4985785,-0.0157549999999999,1.2587605,0.2491384999999999,0.004095,0.7018305,0.0485785,-0.0849349999999999,1.2427005,0.0391285,-0.0935249999999999,0.9212205,0.0029085,0.004715,1.0787795,-0.0029084999999999,-0.0047149999999999,0.8636505,-0.3940315,0.002395,1.1282605,-0.3877315,-0.039285,0.8253505,-0.8222715,0.0301649999999999,1.1652705,-0.8156115,-0.003255
72,1.020724,0.7643035,0.00877,0.843422,0.4996934999999999,-0.0006999999999999,0.753862,0.2691235,0.02285,1.191352,0.4989735,-0.01273,1.258642,0.2495334999999999,0.0043099999999999,0.705352,0.0462635,-0.0846799999999999,1.241912,0.0395235,-0.09331,0.9211590000000001,0.0025135,0.00494,1.078841,-0.0025135,-0.00494,0.864712,-0.3945965,0.0022499999999999,1.128682,-0.3885165,-0.0393,0.826982,-0.8228565,0.0303999999999999,1.166662,-0.8162765,-0.00307
73,1.0202705,0.7647775,0.013665,0.8434025,0.4986175,0.001645,0.7551525,0.2654575,0.023515,1.1911325,0.4994475,-0.0098049999999999,1.2584225,0.2500074999999999,0.0045749999999999,0.7095825,0.0435074999999999,-0.0832549999999999,1.2409025,0.0399974999999999,-0.0930449999999999,0.9211265,0.0021544999999999,0.005165,1.0788735,-0.0021545,-0.0051649999999999,0.8655925000000001,-0.3950225,0.001995,1.1289625,-0.3891624999999999,-0.039165,0.8282725,-0.8232825,0.030605,1.1679525,-0.8167925,-0.002805
74,1.0205635,0.765366,0.0181299999999999,0.8438455000000001,0.497826,0.00383,0.7563255,0.261506,0.0248899999999999,1.1915954999999998,0.499976,-0.00689,1.2580755,0.250596,0.00494,0.7149055,0.0402159999999999,-0.07931,1.2397555,0.040586,-0.09269,0.9211065,0.0018719999999999,0.0052699999999999,1.0788935,-0.0018719999999999,-0.0052699999999999,0.8664655,-0.395244,0.0017099999999999,1.1291755,-0.389574,-0.03886,0.8293055,-0.823484,0.0307099999999999,1.1689655,-0.817054,-0.00243
75,1.021318,0.765723,0.02226,0.844587,0.4972729999999999,0.0059799999999999,0.7583070000000001,0.257363,0.02698,1.192367,0.500133,-0.0040399999999999,1.257717,0.250993,0.00596,0.720667,0.035913,-0.07438,1.238597,0.0396529999999999,-0.09178,0.921108,0.0016639999999999,0.00529,1.078892,-0.0016639999999999,-0.00529,0.8672470000000001,-0.395267,0.00139,1.129387,-0.389637,-0.03841,0.8303070000000001,-0.823477,0.0308199999999999,1.169747,-0.816957,-0.0019299999999999
76,1.0218284999999998,0.765904,0.0258799999999999,0.8451095,0.496814,0.0079899999999999,0.7608595,0.253104,0.0294099999999999,1.1928795,0.500094,-0.0012199999999999,1.2569695,0.250894,0.0075999999999999,0.7270995,0.029904,-0.06855,1.2373495,0.037644,-0.08964,0.9211535,0.001569,0.00522,1.0788465,-0.001569,-0.00522,0.8677895,-0.395186,0.0009299999999999,1.1296095,-0.389536,-0.03802,0.8311195,-0.823366,0.0308799999999999,1.1702895,-0.816706,-0.00134
77,1.022133,0.766023,0.029205,0.845424,0.496573,0.009925,0.763694,0.248813,0.030725,1.193184,0.499743,0.001495,1.2558340000000001,0.250093,0.009315,0.733734,0.024333,-0.062365,1.235934,0.034883,-0.085575,0.921212,0.00156,0.005045,1.078788,-0.0015599999999999,-0.005045,0.868124,-0.395057,0.000365,1.129914,-0.389287,-0.037715,0.831824,-0.823207,0.030955,1.170804,-0.816387,-0.0007249999999999
78,1.022317,0.766006,0.032285,0.845517,0.4964459999999999,0.011525,0.766737,0.2445659999999999,0.031195,1.193347,0.4992759999999999,0.004205,1.254317,0.249086,0.0099049999999999,0.7400270000000001,0.019946,-0.0584649999999999,1.234307,0.0314659999999999,-0.082625,0.92128,0.001589,0.004825,1.07872,-0.0015889999999999,-0.0048249999999999,0.868347,-0.394964,-0.000375,1.130017,-0.389034,-0.0376949999999999,0.832327,-0.823084,0.030725,1.171227,-0.816024,-0.000265
79,1.0232015,0.765907,0.0349249999999999,0.8459194999999999,0.496387,0.0127949999999999,0.7699495000000001,0.242417,0.0315549999999999,1.1939894999999998,0.498807,0.0067149999999999,1.2526995,0.248287,0.0101249999999999,0.7448695000000001,0.017687,-0.058235,1.2327195,0.028977,-0.082355,0.9213175,0.001638,0.0045449999999999,1.0786825,-0.001638,-0.004545,0.8687095000000001,-0.394893,-0.001185,1.1300595,-0.388773,-0.037875,0.8327694999999999,-0.8229730000000001,0.0304949999999999,1.1716695,-0.8156530000000001,8.499999999994623e-05
80,1.02454,0.765762,0.0372849999999999,0.846658,0.496472,0.013695,0.773128,0.243052,0.031785,1.1949480000000001,0.4983620000000001,0.0088449999999999,1.250928,0.2483419999999999,0.010315,0.7481880000000001,0.018322,-0.058005,1.231048,0.027142,-0.0821549999999999,0.921319,0.001694,0.0043349999999999,1.078681,-0.001694,-0.0043349999999999,0.869068,-0.394818,-0.001925,1.130058,-0.388528,-0.038065,0.833248,-0.822888,0.0301849999999999,1.1719979999999999,-0.8153079999999999,0.000315
81,1.02623,0.7656799999999999,0.0391749999999999,0.847708,0.4965,0.0141149999999999,0.776058,0.24308,0.031035,1.196258,0.498,0.0103949999999999,1.249148,0.2483699999999999,0.010305,0.7488780000000002,0.01835,-0.057995,1.2298580000000001,0.02717,-0.0821649999999999,0.921319,0.001722,0.0043349999999999,1.078681,-0.001722,-0.0043349999999999,0.869298,-0.39483,-0.002595,1.130178,-0.38858,-0.038105,0.833888,-0.82294,0.029925,1.172158,-0.8153999999999999,0.0003849999999999
82,1.028014,0.765604,0.0410949999999999,0.848892,0.4965239999999999,0.014475,0.778242,0.243104,0.0279349999999999,1.197612,0.497784,0.0116549999999999,1.247452,0.2483939999999999,0.0082749999999999,0.748842,0.018374,-0.057995,1.228932,0.0271939999999999,-0.0828849999999999,0.9213550000000001,0.0017459999999999,0.0043349999999999,1.0786449999999999,-0.0017459999999999,-0.0043349999999999,0.869452,-0.394896,-0.003085,1.130352,-0.3886659999999999,-0.038105,0.834272,-0.823006,0.0297049999999999,1.1722419999999998,-0.8155560000000001,0.0004049999999999
83,1.029912,0.7655835,0.043065,0.850183,0.4965735,0.0146749999999999,0.779983,0.2437535,0.021915,1.198693,0.4976035,0.0124549999999999,1.246663,0.2484434999999999,0.003315,0.749293,0.0192035,-0.064255,1.228163,0.0272435,-0.0901949999999999,0.921417,0.0017955,0.004195,1.078583,-0.0017954999999999,-0.004195,0.869543,-0.3949265,-0.003475,1.130523,-0.3887965,-0.0382549999999999,0.834613,-0.8230465,0.029375,1.172303,-0.8157365,0.000255
84,1.031699,0.7655069999999999,0.0450399999999999,0.851492,0.4967669999999999,0.0146199999999999,0.780422,0.2477569999999999,0.0123499999999999,1.199342,0.497467,0.0128799999999999,1.246542,0.250857,-0.00504,0.749232,0.024617,-0.07815,1.227462,0.0292169999999999,-0.10451,0.921492,0.0018839999999999,0.0039099999999999,1.078508,-0.001884,-0.00391,0.8695120000000001,-0.395023,-0.00377,1.130692,-0.3887629999999999,-0.03854,0.834792,-0.823133,0.0289599999999999,1.172312,-0.815763,-2.000000000002e-05
85,1.033383,0.7653510000000001,0.0468999999999999,0.852939,0.497161,0.0142099999999999,0.7803090000000001,0.255231,-0.00191,1.199119,0.497401,0.0129199999999999,1.2464089999999999,0.256281,-0.017,0.749179,0.033411,-0.10187,1.227409,0.036251,-0.1263,0.9215409999999999,0.001976,0.0036899999999999,1.078459,-0.0019759999999999,-0.00369,0.869319,-0.3951989999999999,-0.0044,1.130839,-0.388769,-0.03896,0.834719,-0.823299,0.0282099999999999,1.1722489999999999,-0.815839,-0.00064
86,1.034849,0.7651205,0.0485299999999999,0.854445,0.4977604999999999,0.0133699999999999,0.7800850000000001,0.2653805,-0.01865,1.198785,0.4971305,0.01238,1.2457349999999998,0.2648804999999999,-0.03309,0.748105,0.0501705,-0.1336,1.227285,0.0515805,-0.15618,0.921581,0.0020915,0.0035699999999999,1.078419,-0.0020914999999999,-0.00357,0.868985,-0.3954495,-0.00548,1.130875,-0.3887695,-0.03948,0.8345750000000001,-0.8235595,0.0271299999999999,1.1719149999999998,-0.8158995,-0.00168
87,1.036099,0.764882,0.0499849999999999,0.856041,0.498482,0.012465,0.779881,0.279392,-0.039015,1.198431,0.496872,0.011355,1.245521,0.276572,-0.052485,0.747161,0.078552,-0.167705,1.226691,0.075832,-0.191355,0.9215949999999999,0.002194,0.0034949999999999,1.078405,-0.0021939999999999,-0.003495,0.868641,-0.395548,-0.006775,1.130851,-0.388768,-0.040015,0.834431,-0.823638,0.0257849999999999,1.171571,-0.815998,-0.002975
88,1.0372125,0.7645525000000001,0.0514299999999999,0.8578245,0.4992825,0.0115499999999999,0.7789645000000001,0.2967725,-0.06121,1.1979945,0.4967425,0.0100299999999999,1.2456545,0.2954025,-0.07558,0.7469145000000001,0.1162925,-0.20474,1.2260545,0.1106124999999999,-0.22817,0.9215755,0.0023134999999999,0.0034699999999999,1.0784245,-0.0023134999999999,-0.00347,0.8683745,-0.3956675,-0.008,1.1309244999999999,-0.3887975,-0.04057,0.8341845,-0.8237574999999999,0.0241599999999999,1.1713144999999998,-0.8161275,-0.00446
89,1.0381815,0.764192,0.052845,0.8597065,0.5002219999999999,0.0106249999999999,0.7771965000000001,0.321042,-0.084565,1.1963765,0.496622,0.008975,1.2462065,0.316502,-0.0988649999999999,0.7473065,0.162322,-0.2445649999999999,1.2241265000000001,0.1457419999999999,-0.266265,0.9215535,0.0024279999999999,0.003475,1.0784465,-0.0024279999999999,-0.003475,0.8681565,-0.3957779999999999,-0.0091749999999999,1.1310565,-0.3887879999999999,-0.041165,0.8340065,-0.823868,0.022405,1.1710165,-0.8161080000000001,-0.0059449999999999
90,1.0388635,0.7638235,0.0541899999999999,0.8616165,0.5014835000000001,0.0100199999999999,0.7751465000000001,0.3489335,-0.1067299999999999,1.1945665,0.4965235,0.00794,1.2483565,0.3375235,-0.12199,0.7477865,0.2169135,-0.28515,1.2234565,0.1957035,-0.31042,0.9215415,0.0025625,0.0034899999999999,1.0784585,-0.0025624999999999,-0.0034899999999999,0.8678865,-0.3956864999999999,-0.01008,1.1312365,-0.3888764999999999,-0.04167,0.8338965,-0.8238765,0.0206299999999999,1.1707065,-0.8162065,-0.00752
91,1.039236,0.763294,0.05534,0.8633870000000001,0.503064,0.0098699999999999,0.773237,0.381314,-0.13039,1.192537,0.496444,0.00707,1.250747,0.366514,-0.1458499999999999,0.748007,0.283604,-0.32186,1.223227,0.258174,-0.34734,0.9215500000000001,0.002694,0.0035399999999999,1.07845,-0.002694,-0.0035399999999999,0.867567,-0.395706,-0.01079,1.131377,-0.389196,-0.0421,0.8338570000000001,-0.824006,0.0189699999999999,1.170727,-0.816536,-0.0087999999999999
92,1.039178,0.7627255000000001,0.05623,0.8648850000000001,0.5051355000000001,0.01022,0.771965,0.4160155,-0.1481699999999999,1.190365,0.4966355,0.00641,1.253555,0.3998555,-0.16424,0.748155,0.3579255,-0.34768,1.223535,0.3287555,-0.3718,0.9215810000000001,0.0028245,0.00364,1.0784189999999998,-0.0028244999999999,-0.0036399999999999,0.867185,-0.3957944999999999,-0.0111399999999999,1.131405,-0.3889344999999999,-0.0423599999999999,0.833685,-0.8242244999999999,0.01766,1.170635,-0.8164745,-0.0097099999999999
93,1.0390475,0.761866,0.056775,0.8661245000000001,0.507876,0.010875,0.7710445000000001,0.454526,-0.160725,1.1878945,0.496706,0.005655,1.2564045,0.434226,-0.177935,0.7493645,0.436656,-0.3630649999999999,1.2236445,0.404216,-0.3879049999999999,0.9215645,0.002956,0.003725,1.0784355,-0.002956,-0.0037249999999999,0.8666545,-0.3960639999999999,-0.011145,1.1312745,-0.388884,-0.0423149999999999,0.8332345,-0.824624,0.016835,1.1703345,-0.816544,-0.0102249999999999
94,1.0389315,0.760524,0.0569649999999999,0.8671115,0.510734,0.011805,0.7709715,0.492594,-0.166725,1.1854215,0.497304,0.0052849999999999,1.2592615,0.4717539999999999,-0.186705,0.7523815,0.5206439999999999,-0.365555,1.2237115,0.4822939999999999,-0.3936249999999999,0.9215504999999999,0.0030759999999999,0.003865,1.0784495,-0.003076,-0.003865,0.8660915000000001,-0.396336,-0.0107849999999999,1.1311515,-0.389176,-0.041995,0.8328915,-0.825026,0.016525,1.1699715,-0.8169759999999999,-0.0103849999999999
95,1.038816,0.7586265000000001,0.0569649999999999,0.867826,0.5135765000000001,0.012465,0.770876,0.5317464999999999,-0.169595,1.183146,0.4982865,0.0051849999999999,1.2613459999999999,0.5082065,-0.190705,0.756866,0.6020064999999999,-0.365525,1.224216,0.5563765,-0.3936249999999999,0.921562,0.0031365,0.003865,1.078438,-0.0031365,-0.003865,0.865526,-0.3967235,-0.010365,1.131036,-0.3899935,-0.041775,0.832526,-0.8255634999999999,0.016435,1.169576,-0.8179135,-0.0103949999999999
96,1.038368,0.756521,0.0569649999999999,0.8683310000000001,0.516531,0.012605,0.770731,0.569301,-0.169595,1.1811809999999998,0.500131,0.0050749999999999,1.262971,0.544071,-0.190695,0.7633710000000001,0.675651,-0.365475,1.224631,0.629761,-0.393615,0.921594,0.0032009999999999,0.003865,1.078406,-0.003201,-0.003865,0.864931,-0.397149,-0.010155,1.130881,-0.391129,-0.041775,0.8320910000000001,-0.826099,0.016265,1.169031,-0.8191590000000001,-0.0103949999999999
97,1.037748,0.754055,0.0569649999999999,0.868657,0.5195350000000001,0.012605,0.770737,0.605715,-0.169595,1.1800169999999999,0.502255,0.0050549999999999,1.263957,0.575885,-0.190685,0.770337,0.743975,-0.365425,1.225497,0.697185,-0.393605,0.921659,0.003155,0.003865,1.078341,-0.003155,-0.003865,0.864497,-0.398045,-0.010155,1.130557,-0.392105,-0.041775,0.831677,-0.8271149999999999,0.0160849999999999,1.168477,-0.820225,-0.0103949999999999
98,1.037072,0.7513,0.05704,0.868959,0.52283,0.01308,0.7712289999999999,0.63654,-0.16912,1.180009,0.5046,0.00546,1.264739,0.60686,-0.1901999999999999,0.777169,0.80674,-0.35605,1.228269,0.76543,-0.38862,0.9217200000000001,0.00309,0.0039799999999999,1.07828,-0.0030899999999999,-0.0039799999999999,0.864179,-0.39944,-0.00968,1.1302889999999999,-0.39359,-0.04131,0.831419,-0.8286,0.01632,1.168099,-0.82174,-0.01001
99,1.0363354999999999,0.748205,0.05673,0.8693394999999999,0.5260549999999999,0.01399,0.7729695,0.665315,-0.1666699999999999,1.1800495,0.507065,0.00631,1.2647895,0.638585,-0.1886299999999999,0.7842895,0.8619049999999999,-0.34539,1.2304995,0.8211649999999999,-0.37484,0.9217945,0.002965,0.0040399999999999,1.0782055,-0.0029649999999999,-0.0040399999999999,0.8640095,-0.401925,-0.0087899999999999,1.1299795,-0.395385,-0.0404499999999999,0.8313095,-0.831115,0.01694,1.1678395,-0.823535,-0.00928
100,1.0356195,0.745355,0.05603,0.8697455000000001,0.528985,0.01505,0.7758955,0.689155,-0.1613399999999999,1.1800555,0.508775,0.0073,1.2647755,0.662525,-0.1807999999999999,0.7901955,0.905955,-0.3281699999999999,1.2304255,0.864565,-0.35861,0.9218685000000001,0.0028249999999999,0.0041,1.0781314999999998,-0.002825,-0.0040999999999999,0.8639055,-0.404625,-0.0074699999999999,1.1296255,-0.396905,-0.0393999999999999,0.8313355,-0.833825,0.01805,1.1676755,-0.8250649999999999,-0.0081499999999999
101,1.0348315,0.742455,0.054975,0.8701045000000001,0.531235,0.016025,0.7797445000000001,0.708445,-0.1526249999999999,1.1799945,0.511115,0.007905,1.2646745,0.681515,-0.1724949999999999,0.7944745,0.940335,-0.3064249999999999,1.2302445,0.9000349999999999,-0.3403049999999999,0.9219625,0.0027549999999999,0.004115,1.0780375,-0.002755,-0.0041149999999999,0.8638245,-0.407815,-0.0059549999999999,1.1292345,-0.399285,-0.0381749999999999,0.8312845,-0.8370150000000001,0.019465,1.1674245,-0.8274050000000001,-0.0071349999999999
102,1.0341094999999998,0.7396199999999999,0.0536249999999999,0.8704435,0.5326500000000001,0.0168249999999999,0.7838035000000001,0.7225300000000001,-0.142595,1.1799135,0.51284,0.0087749999999999,1.2636535,0.69754,-0.163105,0.7978535,0.96752,-0.2797449999999999,1.2322835,0.92772,-0.311665,0.9220485,0.0027,0.004195,1.0779515,-0.0026999999999999,-0.004195,0.8637435,-0.41111,-0.0043549999999999,1.1288035,-0.4017199999999999,-0.036715,0.8312035,-0.8403099999999999,0.0212649999999999,1.1671835,-0.82989,-0.005725
103,1.033437,0.736675,0.052305,0.870789,0.534065,0.017305,0.787839,0.733935,-0.127795,1.179979,0.513655,0.0099049999999999,1.262569,0.707455,-0.147995,0.7997290000000001,0.986295,-0.2514949999999999,1.234159,0.947295,-0.284805,0.922174,0.0026549999999999,0.0043449999999999,1.077826,-0.0026549999999999,-0.0043449999999999,0.863599,-0.414935,-0.0024949999999999,1.128419,-0.404355,-0.034885,0.831209,-0.844115,0.0234749999999999,1.1669990000000001,-0.832545,-0.003875
104,1.0328635,0.73422,0.0510099999999999,0.8710884999999999,0.53528,0.0176599999999999,0.7910485,0.74202,-0.11544,1.1800685,0.51415,0.0110599999999999,1.2612485,0.7156,-0.13461,0.8008485,1.00027,-0.22702,1.2359485000000001,0.96457,-0.26211,0.9223255,0.0026299999999999,0.0045699999999999,1.0776745,-0.0026299999999999,-0.00457,0.8634085,-0.41868,-0.00075,1.1280285,-0.40644,-0.03309,0.8315684999999999,-0.84782,0.0256899999999999,1.1667885,-0.83467,-0.00203
105,1.032384,0.73205,0.0498549999999999,0.871324,0.53643,0.0181249999999999,0.793754,0.74886,-0.104555,1.180084,0.51406,0.0126149999999999,1.2596239999999999,0.72202,-0.121895,0.801174,1.0111599999999998,-0.206325,1.237744,0.97536,-0.240275,0.922482,0.0025999999999999,0.0047749999999999,1.077518,-0.0025999999999999,-0.004775,0.863184,-0.42259,0.0009649999999999,1.127644,-0.40813,-0.031495,0.8318840000000001,-0.85173,0.0279649999999999,1.166494,-0.83635,-0.000285
106,1.03202,0.729935,0.0489249999999999,0.871588,0.537515,0.0186749999999999,0.795798,0.753645,-0.095665,1.180138,0.514525,0.0142349999999999,1.258018,0.725575,-0.110355,0.801168,1.019135,-0.188775,1.239568,0.982135,-0.220205,0.9226320000000001,0.002595,0.0049449999999999,1.0773679999999999,-0.0025949999999999,-0.004945,0.863028,-0.426215,0.0025749999999999,1.1274279999999999,-0.410195,-0.029965,0.832078,-0.855355,0.0301249999999999,1.1660579999999998,-0.8384349999999999,0.0013349999999999
107,1.0317319999999999,0.72837,0.04802,0.871815,0.5385900000000001,0.0193399999999999,0.797595,0.75753,-0.0879,1.180135,0.5144299999999999,0.0156899999999999,1.256405,0.72817,-0.09985,0.8008649999999999,1.0250400000000002,-0.17452,1.240775,0.98744,-0.20346,0.922775,0.00262,0.0051499999999999,1.077225,-0.0026199999999999,-0.0051499999999999,0.8628750000000001,-0.42951,0.0039699999999999,1.127205,-0.41184,-0.0286299999999999,0.832165,-0.8586499999999999,0.03209,1.165635,-0.84009,0.0028799999999999
108,1.031484,0.727005,0.0473349999999999,0.871903,0.539445,0.0201049999999999,0.799093,0.759855,-0.081505,1.180143,0.514315,0.017135,1.254923,0.7297549999999999,-0.091175,0.800583,1.029145,-0.162485,1.242273,0.990945,-0.190295,0.922901,0.002695,0.0053449999999999,1.077099,-0.002695,-0.0053449999999999,0.862753,-0.432515,0.005095,1.127013,-0.413155,-0.0274849999999999,0.832273,-0.861575,0.033975,1.165293,-0.841395,0.004315
109,1.031277,0.7257600000000001,0.04682,0.871912,0.54018,0.0208,0.800332,0.76132,-0.0761699999999999,1.180142,0.51436,0.01835,1.253642,0.7317400000000001,-0.0840399999999999,0.800352,1.03168,-0.1531099999999999,1.243362,0.99448,-0.1794599999999999,0.923034,0.00279,0.00554,1.076966,-0.0027899999999999,-0.0055399999999999,0.862642,-0.4351799999999999,0.00607,1.126842,-0.4145,-0.0264699999999999,0.832292,-0.8641599999999999,0.03562,1.165102,-0.84376,0.00554
110,1.03108,0.72482,0.0464549999999999,0.871902,0.54112,0.0214349999999999,0.8013520000000001,0.7622599999999999,-0.071805,1.180112,0.5145599999999999,0.0195349999999999,1.2526519999999999,0.7331700000000001,-0.078255,0.800102,1.0335,-0.145235,1.2440120000000001,0.9967,-0.171695,0.923138,0.0028199999999999,0.0057649999999999,1.076862,-0.0028199999999999,-0.005765,0.862552,-0.43753,0.0068149999999999,1.126692,-0.41569,-0.025615,0.8323920000000001,-0.86643,0.0370949999999999,1.164942,-0.8458399999999999,0.0066549999999999
111,1.0309255,0.72409,0.0461149999999999,0.8718485000000001,0.54178,0.021815,0.8020685000000001,0.7625,-0.068475,1.1798585,0.51367,0.020355,1.2518285,0.73455,-0.073925,0.7994885,1.03436,-0.1393249999999999,1.2443385,0.99916,-0.166115,0.9232765,0.0027799999999999,0.005925,1.0767235,-0.00278,-0.005925,0.8624485,-0.43982,0.007195,1.1265985,-0.41664,-0.0252149999999999,0.8325184999999999,-0.86863,0.038065,1.1647584999999998,-0.84768,0.007365
112,1.030752,0.7240099999999999,0.045495,0.871723,0.54167,0.0220049999999999,0.802503,0.763,-0.0662349999999999,1.1795930000000001,0.51281,0.020685,1.251093,0.7361,-0.071155,0.798573,1.03519,-0.135375,1.244453,1.00139,-0.162705,0.9233979999999999,0.0026999999999999,0.0060649999999999,1.076602,-0.0027,-0.0060649999999999,0.862333,-0.44169,0.0070749999999999,1.126573,-0.41692,-0.025355,0.832583,-0.87037,0.0384849999999999,1.165453,-0.85226,0.0064549999999999
113,1.0306835,0.72595,0.044495,0.8716435,0.54162,0.021925,0.8028635,0.76346,-0.0648849999999999,1.1793135,0.51176,0.020775,1.2505535,0.73732,-0.0696549999999999,0.7974835,1.03584,-0.1329849999999999,1.2443435,1.00294,-0.1616149999999999,0.9234745,0.0026299999999999,0.006065,1.0765255,-0.00263,-0.0060649999999999,0.8623135,-0.4434,0.006565,1.1265435,-0.41797,-0.0258249999999999,0.8324335,-0.87203,0.038525,1.1661934999999999,-0.85692,0.005325
114,1.0304849999999999,0.72771,0.043245,0.8714459999999999,0.54149,0.021535,0.802956,0.7634299999999999,-0.064415,1.178926,0.51098,0.020455,1.249926,0.73787,-0.069575,0.7965260000000001,1.03586,-0.1319349999999999,1.244416,1.00216,-0.161605,0.923596,0.0025699999999999,0.006065,1.076404,-0.00257,-0.0060649999999999,0.862496,-0.44492,0.005225,1.126446,-0.41875,-0.0266849999999999,0.832446,-0.8735,0.038075,1.166896,-0.8615200000000001,0.003815
115,1.030352,0.7285,0.042015,0.871228,0.54167,0.021295,0.8030079999999999,0.76385,-0.0643949999999999,1.178508,0.51069,0.020125,1.249288,0.73796,-0.069575,0.795968,1.03626,-0.1319349999999999,1.244218,1.00236,-0.161605,0.9236630000000001,0.0025699999999999,0.006065,1.0763369999999999,-0.00257,-0.0060649999999999,0.863538,-0.44578,0.003075,1.1263779999999999,-0.41886,-0.0278149999999999,0.8325279999999999,-0.8742300000000001,0.036185,1.1677279999999999,-0.8654000000000001,0.002255
116,1.030283,0.7285,0.0408399999999999,0.87107,0.54167,0.02104,0.80298,0.76385,-0.0644,1.17812,0.51063,0.0196799999999999,1.24861,0.73796,-0.06958,0.79573,1.03626,-0.13194,1.24401,1.00236,-0.16161,0.9236900000000001,0.0025699999999999,0.0060699999999999,1.0763099999999999,-0.00257,-0.00607,0.8648600000000001,-0.44675,0.00051,1.12648,-0.41927,-0.0297,0.83237,-0.87514,0.0342299999999999,1.16855,-0.86919,0.00056
117,1.030123,0.7285,0.03935,0.870829,0.54167,0.02078,0.8028290000000001,0.76385,-0.0645299999999999,1.177629,0.51047,0.01912,1.247719,0.73796,-0.0697199999999999,0.7954490000000001,1.03626,-0.1320699999999999,1.243719,1.00176,-0.1626499999999999,0.923644,0.0025699999999999,0.00606,1.076356,-0.00257,-0.0060599999999999,0.865909,-0.4477,-0.0031199999999999,1.1266289999999999,-0.42096,-0.0323999999999999,0.8318490000000001,-0.87641,0.03191,1.169259,-0.87314,-0.0014099999999999
118,1.0298094999999998,0.7289450000000001,0.036645,0.8704965,0.542115,0.0195549999999999,0.8025665,0.7642950000000001,-0.065635,1.1767365,0.508905,0.017635,1.2466365,0.738405,-0.0717149999999999,0.7950865,1.036705,-0.133245,1.2421565,1.002205,-0.167325,0.9234885,0.002655,0.0057849999999999,1.0765115,-0.0026549999999999,-0.0057849999999999,0.8665865,-0.448905,-0.008255,1.1268465,-0.422755,-0.0366949999999999,0.8312364999999999,-0.877425,0.028615,1.1699365,-0.876755,-0.004645
119,1.0294699999999999,0.7298,0.032835,0.8703020000000001,0.5416099999999999,0.017455,0.802352,0.76526,-0.0681649999999999,1.175852,0.5083500000000001,0.0153949999999999,1.2454319999999999,0.73902,-0.075465,0.7947420000000001,1.03772,-0.1361549999999999,1.240362,1.00222,-0.172885,0.9233480000000001,0.00278,0.005305,1.076652,-0.00278,-0.005305,0.867042,-0.4496,-0.0153949999999999,1.127192,-0.42371,-0.042435,0.8307519999999999,-0.8776200000000001,0.024685,1.170892,-0.8799999999999999,-0.009145
120,1.0291435,0.73056,0.027955,0.8701705,0.54106,0.014595,0.8021905,0.76636,-0.0720249999999999,1.1748805,0.50747,0.012445,1.2441605,0.73976,-0.080895,0.7947105000000001,1.03869,-0.1400549999999999,1.2382705,1.00159,-0.1798449999999999,0.9231155,0.00292,0.004835,1.0768845,-0.00292,-0.0048349999999999,0.8673005,-0.44982,-0.0239149999999999,1.1282105,-0.42757,-0.0509649999999999,0.8301105,-0.87757,0.020375,1.1718305,-0.8837,-0.0141249999999999
121,1.0286864999999998,0.72853,0.02256,0.8701544999999999,0.53866,0.00971,0.8020245,0.7669199999999999,-0.0770999999999999,1.1735745,0.50701,0.0081,1.2426745,0.73963,-0.0875799999999999,0.7949945,1.0393,-0.1449499999999999,1.2357445,1.0,-0.1877799999999999,0.9228555,0.0029299999999999,0.00447,1.0771445,-0.00293,-0.0044699999999999,0.8672345000000001,-0.44988,-0.0335899999999999,1.1292045,-0.43106,-0.0602399999999999,0.8293845000000001,-0.8775000000000001,0.01557,1.1718245,-0.88232,-0.0185799999999999
122,1.0282205,0.725985,0.0166499999999999,0.8702055000000001,0.536535,0.00407,0.8019054999999999,0.767375,-0.08339,1.1721355,0.5067349999999999,0.00286,1.2411355,0.739635,-0.0957399999999999,0.7958855000000001,1.039415,-0.1528899999999999,1.2324155,0.998915,-0.19696,0.9225845,0.0029849999999999,0.00411,1.0774155,-0.002985,-0.00411,0.8669155,-0.449745,-0.04407,1.1303154999999998,-0.433655,-0.07018,0.8290955,-0.876835,0.0102599999999999,1.1719555,-0.879715,-0.02376
123,1.027693,0.722995,0.010255,0.870286,0.5349550000000001,-0.0019949999999999,0.801826,0.767225,-0.0905249999999999,1.170926,0.508475,-0.002645,1.239546,0.739005,-0.1051249999999999,0.7969460000000002,1.039115,-0.1611449999999999,1.228496,0.998015,-0.206845,0.92232,0.0031349999999999,0.0036249999999999,1.07768,-0.0031349999999999,-0.0036249999999999,0.866416,-0.449285,-0.0547249999999999,1.131476,-0.435635,-0.080455,0.8284460000000001,-0.8758549999999999,0.004765,1.172036,-0.876335,-0.0293049999999999
124,1.0271659999999998,0.719745,0.0032399999999999,0.870318,0.5337949999999999,-0.00869,0.801758,0.767075,-0.0988,1.169778,0.509825,-0.00941,1.237918,0.738165,-0.11542,0.798108,1.038765,-0.17048,1.224018,0.996865,-0.21781,0.9220220000000001,0.003275,0.0030899999999999,1.0779779999999999,-0.003275,-0.00309,0.865938,-0.448065,-0.06509,1.132798,-0.436745,-0.09101,0.827788,-0.8736750000000001,0.0002399999999999,1.172158,-0.872085,-0.03531
125,1.026711,0.71352,-0.0045399999999999,0.8705180000000001,0.53057,-0.0156799999999999,0.8018080000000001,0.7669,-0.10803,1.168658,0.51149,-0.01672,1.236348,0.73761,-0.1265,0.800098,1.03845,-0.18052,1.218868,0.99565,-0.2302699999999999,0.921567,0.0032999999999999,0.00263,1.078433,-0.0032999999999999,-0.0026299999999999,0.865558,-0.44568,-0.07565,1.134188,-0.4356399999999999,-0.1011799999999999,0.8272079999999999,-0.87018,-0.0046399999999999,1.172418,-0.86691,-0.0413899999999999
126,1.0262475,0.70716,-0.012365,0.8708315,0.5281199999999999,-0.022785,0.8019715000000001,0.76577,-0.118145,1.1675415,0.51242,-0.024285,1.2348215,0.73736,-0.138375,0.8023015,1.03722,-0.191375,1.2134515,0.99642,-0.242365,0.9212295,0.0033299999999999,0.0022149999999999,1.0787705,-0.0033299999999999,-0.002215,0.8650415,-0.44233,-0.085315,1.1356815,-0.43303,-0.110595,0.8266315,-0.86706,-0.009385,1.1727915,-0.86131,-0.047135
127,1.025825,0.7014100000000001,-0.0200449999999999,0.871334,0.52563,-0.0298249999999999,0.8023640000000001,0.76402,-0.128425,1.166564,0.5113000000000001,-0.0320949999999999,1.233374,0.73719,-0.150355,0.805014,1.03558,-0.201525,1.208034,0.99658,-0.2540449999999999,0.921038,0.00339,0.0020249999999999,1.078962,-0.0033899999999999,-0.0020249999999999,0.863714,-0.43781,-0.094235,1.137284,-0.42954,-0.1190749999999999,0.8256240000000001,-0.86386,-0.013705,1.173214,-0.85531,-0.0521849999999999
128,1.025428,0.695825,-0.02773,0.871827,0.520565,-0.03833,0.802767,0.761125,-0.13868,1.165697,0.509145,-0.04042,1.231837,0.737205,-0.16244,0.806997,1.032435,-0.21346,1.202297,0.996235,-0.26594,0.9209410000000001,0.003325,0.00195,1.079059,-0.0033249999999999,-0.00195,0.8620369999999999,-0.431545,-0.10193,1.1390069999999999,-0.424845,-0.12679,0.825327,-0.854785,-0.01812,1.173477,-0.847525,-0.0564
129,1.0250834999999998,0.689183,-0.03503,0.8724345,0.515033,-0.04645,0.8030745,0.758523,-0.14937,1.1650545,0.506993,-0.04838,1.2304344999999999,0.736553,-0.17354,0.8088445000000001,1.0294230000000002,-0.22549,1.1968045,0.997423,-0.27695,0.9208045,0.003276,0.0018799999999999,1.0791955,-0.003276,-0.00188,0.8606045,-0.425037,-0.10879,1.1403145000000001,-0.417337,-0.13202,0.8244245,-0.849467,-0.02222,1.1738845,-0.839307,-0.06025
130,1.0249825,0.686604,-0.04289,0.8730485,0.512044,-0.05403,0.8035285,0.7563340000000001,-0.16043,1.1647185,0.506714,-0.05569,1.2292684999999999,0.732634,-0.18447,0.8104885,1.027054,-0.23788,1.1916685,0.993254,-0.28808,0.9204715,0.0029819999999999,0.0016599999999999,1.0795285,-0.0029819999999999,-0.0016599999999999,0.8594885,-0.415796,-0.1152199999999999,1.1416884999999999,-0.407226,-0.13698,0.8238585,-0.841356,-0.0260299999999999,1.1743885,-0.828766,-0.06362
131,1.0248955,0.683603,-0.050935,0.8736085,0.508893,-0.0613349999999999,0.8039785,0.754293,-0.1711849999999999,1.1641685,0.503223,-0.062975,1.2282585,0.727603,-0.194755,0.8123485,1.020463,-0.250195,1.1874085,0.988063,-0.2986749999999999,0.9201005,0.002894,0.001265,1.0798995,-0.0028939999999999,-0.0012649999999999,0.8585385,-0.405917,-0.121305,1.1429685,-0.397097,-0.141625,0.8235185,-0.832257,-0.029675,1.1747885,-0.818307,-0.0664349999999999
132,1.0250315,0.68045,-0.058795,0.8743605,0.5066900000000001,-0.068165,0.8047705,0.75342,-0.182425,1.1639205,0.5001199999999999,-0.069905,1.2277005,0.72052,-0.204345,0.8145905,1.01536,-0.2624250000000001,1.1839805,0.98016,-0.309185,0.9196815,0.002909,0.0009849999999999,1.0803185,-0.002909,-0.000985,0.8579005,-0.39579,-0.127415,1.1443805,-0.38673,-0.145985,0.8237505,-0.82209,-0.032985,1.1756005,-0.80755,-0.068395
133,1.0255545,0.676717,-0.06638,0.8754675000000001,0.505017,-0.0746799999999999,0.8058974999999999,0.748857,-0.1933399999999999,1.1640774999999999,0.498397,-0.0758599999999999,1.2276975,0.714447,-0.21319,0.8166175,1.009497,-0.27477,1.1813975,0.973297,-0.3192,0.9192915000000002,0.0030939999999999,0.00082,1.0807084999999998,-0.0030939999999999,-0.0008199999999999,0.8577375,-0.3851929999999999,-0.13327,1.1459275,-0.377023,-0.15054,0.8243075,-0.811143,-0.0358899999999999,1.1766975,-0.7971929999999999,-0.07005
134,1.0254735,0.673562,-0.0736899999999999,0.8759335,0.504522,-0.08156,0.8065035,0.744952,-0.2035099999999999,1.1635335,0.496792,-0.08132,1.2272035,0.708202,-0.22174,0.8172135,1.004212,-0.2863099999999999,1.1797935,0.966872,-0.3278799999999999,0.9191685,0.003157,0.00065,1.0808315,-0.003157,-0.0006499999999999,0.8571335,-0.371898,-0.13876,1.1469535,-0.365528,-0.1548,0.8248335,-0.7993480000000001,-0.03831,1.1771634999999998,-0.7840980000000001,-0.0718599999999999
135,1.025197,0.671397,-0.081255,0.876139,0.501217,-0.089745,0.806939,0.740877,-0.213185,1.162809,0.492757,-0.0880449999999999,1.226969,0.703097,-0.230175,0.817839,0.999997,-0.296925,1.178819,0.961247,-0.3373649999999999,0.9189690000000001,0.0034409999999999,0.0005249999999999,1.0810309999999999,-0.003441,-0.0005249999999999,0.8566590000000001,-0.356863,-0.143905,1.147939,-0.351983,-0.1593049999999999,0.825389,-0.7856730000000001,-0.040435,1.177589,-0.768973,-0.0732149999999999
136,1.02487,0.669878,-0.0936849999999999,0.876454,0.498868,-0.1024349999999999,0.8075740000000001,0.7378779999999999,-0.2273949999999999,1.162054,0.4915779999999999,-0.098985,1.226824,0.698388,-0.2436449999999999,0.818774,0.996008,-0.315165,1.179494,0.956138,-0.351805,0.918682,0.0035799999999999,0.000195,1.081318,-0.00358,-0.000195,0.8563140000000001,-0.341322,-0.1536749999999999,1.148814,-0.337892,-0.1685949999999999,0.8260140000000001,-0.769452,-0.047245,1.178134,-0.753202,-0.079265
137,1.024999,0.6693045000000001,-0.108925,0.876651,0.5011845,-0.117585,0.808511,0.7403845,-0.244615,1.161851,0.4902145,-0.114035,1.2271409999999998,0.6966645,-0.259565,0.820341,0.9933145,-0.3343549999999999,1.180201,0.9523245,-0.370545,0.918585,0.0036465,0.0001749999999999,1.081415,-0.0036465,-0.000175,0.856001,-0.3209955,-0.171265,1.1501009999999998,-0.3188855,-0.184615,0.8271510000000001,-0.7481454999999999,-0.057385,1.178961,-0.7324455,-0.0898849999999999
138,1.0254425,0.669756,-0.1243799999999999,0.8771075000000002,0.503606,-0.13267,0.8095575,0.741646,-0.26167,1.1618875,0.4889259999999999,-0.1289699999999999,1.2281675,0.694506,-0.2769,0.8221775,0.990226,-0.3531499999999999,1.1816375,0.948676,-0.38935,0.9186165,0.003667,0.00018,1.0813835,-0.0036669999999999,-0.0001799999999999,0.8561175,-0.301414,-0.18857,1.1515075,-0.300204,-0.20044,0.8285375,-0.727034,-0.06761,1.1799575,-0.711774,-0.1000699999999999
139,1.0258565,0.669236,-0.140225,0.8776375000000001,0.502646,-0.147585,0.8104975,0.740556,-0.277985,1.1619675,0.483886,-0.144175,1.2293475,0.693596,-0.294715,0.8229075000000001,0.986906,-0.372185,1.1832275,0.943566,-0.408445,0.9188905,0.00398,0.0002449999999999,1.0811095,-0.0039799999999999,-0.000245,0.8565375,-0.285494,-0.205365,1.1530775,-0.284764,-0.2159849999999999,0.8308675,-0.708564,-0.077685,1.1810975,-0.694584,-0.109995
140,1.0262,0.6699904999999999,-0.15607,0.87811,0.5025205,-0.1624199999999999,0.81157,0.7400005,-0.2947499999999999,1.16247,0.4821605,-0.15921,1.23059,0.6942905,-0.3122699999999999,0.82374,0.9899005,-0.38937,1.18505,0.9404805,-0.4278799999999999,0.919152,0.0044915,0.00031,1.080848,-0.0044914999999999,-0.00031,0.85713,-0.2694695,-0.22212,1.15468,-0.2683695,-0.23155,0.8334400000000001,-0.6892395,-0.0874299999999999,1.18238,-0.6769295000000001,-0.1197999999999999
141,1.026339,0.6706274999999999,-0.17168,0.878362,0.5012575,-0.1773999999999999,0.812522,0.7386775,-0.31072,1.1628919999999998,0.4790775,-0.17414,1.231592,0.6950175,-0.33024,0.824342,0.9923875,-0.40646,1.187452,0.9400575,-0.4470200000000001,0.9195409999999999,0.0047724999999999,0.0004,1.080459,-0.0047724999999999,-0.0004,0.857792,-0.2539525,-0.23793,1.156062,-0.2523425,-0.2466,0.835702,-0.6713025,-0.09677,1.183502,-0.6600925,-0.12938
142,1.026306,0.671615,-0.18717,0.878422,0.498785,-0.1926,0.8132920000000001,0.740235,-0.32639,1.163152,0.475005,-0.18903,1.232562,0.695105,-0.3479899999999999,0.825152,0.990375,-0.42373,1.189342,0.939115,-0.4659399999999999,0.919861,0.0048549999999999,0.0004799999999999,1.080139,-0.0048549999999999,-0.00048,0.8585420000000001,-0.2392449999999999,-0.2533,1.157632,-0.237255,-0.26102,0.838152,-0.653505,-0.10565,1.184622,-0.643635,-0.13862
143,1.0261814999999999,0.67182,-0.2025799999999999,0.8785075,0.49786,-0.20673,0.8137475000000001,0.74066,-0.34276,1.1635775,0.47108,-0.20355,1.2336274999999999,0.69457,-0.36583,0.8265875,0.98792,-0.4409099999999999,1.1915975,0.93713,-0.48566,0.9202275,0.0051599999999999,0.0003799999999999,1.0797725,-0.0051599999999999,-0.00038,0.8592375000000001,-0.2251099999999999,-0.26831,1.1593075,-0.22337,-0.27538,0.8403875000000001,-0.63672,-0.1143899999999999,1.1857275,-0.62795,-0.14767
144,1.0259809999999998,0.6714,-0.21771,0.87825,0.49782,-0.22051,0.8139000000000001,0.7417499999999999,-0.35915,1.1638,0.46917,-0.21751,1.2343,0.69275,-0.38328,0.82793,0.98549,-0.45858,1.19353,0.93398,-0.50502,0.920742,0.0051499999999999,0.0002899999999999,1.079258,-0.00515,-0.00029,0.85965,-0.21122,-0.28376,1.16075,-0.21059,-0.2895,0.84263,-0.6213900000000001,-0.12263,1.1867599999999998,-0.6132,-0.15654
145,1.0255495,0.67016,-0.2274499999999999,0.8778225,0.49529,-0.22923,0.8136825,0.7407900000000001,-0.37023,1.1636525,0.46598,-0.22619,1.2347024999999998,0.6897,-0.39471,0.8292825,0.98301,-0.46842,1.1952124999999998,0.93023,-0.51874,0.9212175,0.00515,0.0002399999999999,1.0787825,-0.0051499999999999,-0.00024,0.8596625,-0.19837,-0.29405,1.1619725,-0.1983499999999999,-0.29833,0.8446025,-0.60722,-0.12552,1.1875224999999998,-0.59872,-0.15994
146,1.0251335,0.66824,-0.236035,0.8776285,0.49158,-0.2356649999999999,0.8131185,0.7340199999999999,-0.380095,1.1629485,0.46285,-0.232015,1.2355485,0.6833100000000001,-0.404825,0.8302085,0.98052,-0.4775250000000001,1.1964685,0.92357,-0.530535,0.9218014999999999,0.0051599999999999,0.0002449999999999,1.0781985,-0.0051599999999999,-0.0002449999999999,0.8599485,-0.19107,-0.298575,1.1632585,-0.19104,-0.302185,0.8459985,-0.59819,-0.126265,1.1885685,-0.5896300000000001,-0.160665
147,1.024454,0.66623,-0.24456,0.877086,0.48808,-0.24253,0.812586,0.72815,-0.3892299999999999,1.161896,0.45936,-0.23829,1.235886,0.67732,-0.41403,0.830876,0.9782,-0.4872999999999999,1.197516,0.91792,-0.54234,0.922519,0.00542,0.00025,1.077481,-0.0054199999999999,-0.00025,0.859666,-0.1824,-0.30344,1.1645159999999999,-0.1816999999999999,-0.30658,0.846896,-0.58766,-0.12702,1.189296,-0.57947,-0.1616199999999999
148,1.0236445,0.6639,-0.25244,0.8763795,0.48577,-0.24919,0.8117595000000001,0.72431,-0.39861,1.1607395,0.45819,-0.2444,1.2360195,0.67344,-0.42312,0.8306595000000001,0.9759,-0.4967899999999999,1.1982895,0.91694,-0.55392,0.9228245,0.00543,0.00025,1.0771755,-0.0054299999999999,-0.00025,0.8586895000000001,-0.1730999999999999,-0.30942,1.1658395,-0.1709999999999999,-0.31148,0.8474395,-0.5760399999999999,-0.1278099999999999,1.1897395,-0.56819,-0.16265
149,1.023652,0.661125,-0.257615,0.876226,0.482955,-0.253245,0.811086,0.719895,-0.404965,1.160266,0.457885,-0.247505,1.236926,0.6692450000000001,-0.430145,0.831566,0.971835,-0.5037550000000001,1.199636,0.914885,-0.5634250000000001,0.922892,0.004675,-0.0001649999999999,1.077108,-0.0046749999999999,0.0001649999999999,0.858086,-0.1679149999999999,-0.313535,1.167756,-0.1643449999999999,-0.314315,0.848456,-0.5656950000000001,-0.126205,1.190756,-0.559725,-0.161075
150,1.023569,0.65901,-0.262115,0.875691,0.47898,-0.256555,0.810191,0.7152700000000001,-0.409675,1.159241,0.45548,-0.250705,1.237021,0.6666799999999999,-0.435245,0.831851,0.96686,-0.509585,1.200521,0.9119,-0.571955,0.922934,0.0041999999999999,-0.0006049999999999,1.077066,-0.0042,0.000605,0.8564210000000001,-0.16147,-0.317845,1.169611,-0.15658,-0.317455,0.8489310000000001,-0.5543,-0.124365,1.191501,-0.55023,-0.159555
151,1.0240545,0.658045,-0.2665099999999999,0.8754385000000001,0.475985,-0.25866,0.8095885,0.7114750000000001,-0.4135399999999999,1.1583485,0.453925,-0.25309,1.2370085,0.664145,-0.4398,0.8317585000000001,0.963505,-0.51482,1.2011185,0.906945,-0.58067,0.9229795,0.004065,-0.0008999999999999,1.0770205,-0.0040649999999999,0.0009,0.8545484999999999,-0.1541849999999999,-0.32199,1.1719485,-0.1481349999999999,-0.32036,0.8496285,-0.5425849999999999,-0.12095,1.1926685,-0.5402450000000001,-0.1583999999999999
152,1.024239,0.657025,-0.269225,0.875066,0.4734549999999999,-0.259965,0.809196,0.708495,-0.416245,1.1573159999999998,0.452505,-0.254765,1.2372459999999998,0.662185,-0.443335,0.831346,0.961065,-0.5190650000000001,1.201726,0.903545,-0.5869150000000001,0.923059,0.0041049999999999,-0.000895,1.076941,-0.0041049999999999,0.0008949999999999,0.852436,-0.146255,-0.325685,1.174896,-0.139175,-0.323015,0.849966,-0.5304249999999999,-0.116735,1.194186,-0.529585,-0.156845
153,1.0247089999999999,0.65553,-0.271105,0.875392,0.47028,-0.260715,0.809002,0.70489,-0.417825,1.156812,0.45206,-0.255605,1.237222,0.66048,-0.446055,0.8309219999999999,0.95947,-0.522335,1.2021519999999999,0.90032,-0.591805,0.9231199999999999,0.00385,-0.001045,1.07688,-0.00385,0.0010449999999999,0.850102,-0.1379,-0.329405,1.178342,-0.12996,-0.325625,0.849952,-0.51854,-0.113545,1.195972,-0.51844,-0.155755
154,1.024807,0.653095,-0.2722249999999999,0.8753299999999999,0.468605,-0.261155,0.80865,0.702705,-0.419195,1.15637,0.451725,-0.256255,1.23662,0.659105,-0.448675,0.83062,0.959065,-0.524745,1.20221,0.897445,-0.595585,0.923165,0.003755,-0.0011649999999999,1.076835,-0.003755,0.0011649999999999,0.84722,-0.128795,-0.333065,1.1816,-0.119655,-0.328385,0.84946,-0.506425,-0.110345,1.19762,-0.506105,-0.154715
155,1.024963,0.65124,-0.272695,0.875262,0.46694,-0.260935,0.808602,0.70146,-0.420335,1.1562819999999998,0.45265,-0.256075,1.236052,0.65788,-0.450675,0.829852,0.95355,-0.526665,1.202202,0.89537,-0.5977750000000001,0.9231600000000001,0.0035999999999999,-0.001205,1.0768399999999998,-0.0035999999999999,0.001205,0.844192,-0.1200799999999999,-0.336145,1.184852,-0.1099199999999999,-0.330665,0.848862,-0.49487,-0.1067149999999999,1.199262,-0.49428,-0.153335
156,1.0254365,0.64954,-0.27288,0.8752555,0.4658299999999999,-0.26027,0.8087155,0.7003999999999999,-0.42144,1.1561855,0.45409,-0.25538,1.2356955,0.65718,-0.45211,0.8290855,0.94864,-0.5278,1.2022655,0.89299,-0.59977,0.9231715,0.0033599999999999,-0.00132,1.0768285,-0.00336,0.0013199999999999,0.8409755,-0.11169,-0.3389999999999999,1.1881855,-0.10022,-0.33263,0.8478155,-0.48342,-0.10293,1.2010255,-0.48234,-0.15141
157,1.0258735,0.6480950000000001,-0.27302,0.8753665,0.465615,-0.25954,0.8088865000000001,0.698855,-0.42289,1.1562165,0.452485,-0.2551099999999999,1.2355064999999998,0.655505,-0.45305,0.8282165,0.944085,-0.52936,1.2025065,0.889735,-0.6018100000000001,0.9232005000000001,0.003425,-0.0012199999999999,1.0767995,-0.003425,0.0012199999999999,0.8378165,-0.102765,-0.3411,1.1915265,-0.0900449999999999,-0.3347800000000001,0.8468665,-0.4717749999999999,-0.09951,1.2028565,-0.470005,-0.14966
158,1.026381,0.64677,-0.27352,0.8757070000000001,0.4647699999999999,-0.25963,0.808997,0.69717,-0.42489,1.156297,0.44997,-0.25573,1.235347,0.6531799999999999,-0.45419,0.8269070000000001,0.93746,-0.5327500000000001,1.202687,0.88662,-0.6033299999999999,0.923255,0.0038599999999999,-0.00099,1.076745,-0.00386,0.0009899999999999,0.834817,-0.09373,-0.34288,1.194707,-0.07971,-0.33708,0.845367,-0.46038,-0.09558,1.204637,-0.4576800000000001,-0.148
159,1.0267784999999998,0.6451549999999999,-0.27402,0.8761335,0.465215,-0.25999,0.8091635,0.6959150000000001,-0.42788,1.1563835,0.450245,-0.25595,1.2352935,0.651745,-0.45602,0.8254435,0.932185,-0.5368700000000001,1.2027535,0.884935,-0.6051300000000001,0.9232465,0.004085,-0.00077,1.0767535,-0.004085,0.0007699999999999,0.8319535,-0.085355,-0.34412,1.1974735,-0.0699549999999999,-0.3388,0.8436035,-0.4503149999999999,-0.09389,1.2060935,-0.446345,-0.14613
160,1.026831,0.643055,-0.2741699999999999,0.876189,0.465545,-0.26073,0.809029,0.694195,-0.43154,1.156369,0.450205,-0.25636,1.234999,0.649935,-0.4582499999999999,0.824199,0.930945,-0.54045,1.202649,0.884715,-0.60619,0.923259,0.0040749999999999,-0.0006999999999999,1.076741,-0.0040749999999999,0.0007,0.828749,-0.0775049999999999,-0.34523,1.199609,-0.060475,-0.34017,0.841799,-0.441175,-0.0917399999999999,1.206899,-0.435605,-0.14388
161,1.0270815,0.642085,-0.2751599999999999,0.8764905000000001,0.464765,-0.2624499999999999,0.8091105000000001,0.691705,-0.4356299999999999,1.1564405,0.449294,-0.25736,1.2349005,0.647985,-0.46028,0.8231505,0.928995,-0.5456599999999999,1.2027405,0.8840250000000001,-0.60802,0.9232225000000001,0.003955,-0.00075,1.0767775,-0.0039549999999999,0.00075,0.8256705,-0.0695649999999999,-0.3464199999999999,1.2013405,-0.0508549999999999,-0.34121,0.8404105,-0.4322349999999999,-0.09083,1.2074105,-0.425045,-0.14225
162,1.027284,0.64102,-0.27669,0.8767870000000001,0.46591,-0.26368,0.809067,0.68987,-0.44056,1.156307,0.44896,-0.25816,1.234837,0.64577,-0.46251,0.822097,0.92496,-0.5520400000000001,1.202707,0.8817400000000001,-0.6107499999999999,0.923223,0.00414,-0.0007,1.076777,-0.0041399999999999,0.0006999999999999,0.8229569999999999,-0.0624299999999999,-0.34727,1.202757,-0.0420499999999999,-0.34201,0.838997,-0.4259699999999999,-0.0895699999999999,1.207767,-0.4153899999999999,-0.14118
163,1.027296,0.64148,-0.278455,0.876792,0.465725,-0.264935,0.808792,0.68733,-0.445115,1.155952,0.44753,-0.258905,1.234472,0.6436,-0.464285,0.820812,0.9203,-0.5589249999999999,1.202672,0.87755,-0.6140049999999999,0.923223,0.00423,-0.0007549999999999,1.076777,-0.00423,0.000755,0.820312,-0.05584,-0.3479349999999999,1.203572,-0.0341099999999999,-0.342385,0.837282,-0.41926,-0.0885349999999999,1.207762,-0.40639,-0.140515
164,1.0274125,0.6409800000000001,-0.27948,0.8769235,0.465243,-0.2663,0.8089435,0.68503,-0.4489399999999999,1.1557335,0.445211,-0.26,1.2343235,0.64123,-0.466,0.8198835,0.92096,-0.56518,1.2029334999999999,0.87409,-0.61717,0.9233115,0.00457,-0.0006699999999999,1.0766885,-0.0045699999999999,0.00067,0.8181335000000001,-0.0495199999999999,-0.34832,1.2040835,-0.0264899999999999,-0.3428199999999999,0.8356435,-0.41367,-0.0879499999999999,1.2078834999999999,-0.3982099999999999,-0.13983
165,1.0277005,0.640745,-0.280455,0.8775995,0.4642969999999999,-0.267585,0.8092795,0.682465,-0.452395,1.1560495,0.442954,-0.261115,1.2349095,0.639015,-0.467605,0.8194995,0.921475,-0.571245,1.2036295,0.870475,-0.619955,0.9233785,0.0047349999999999,-0.000685,1.0766215,-0.0047349999999999,0.0006849999999999,0.8169195,-0.0435849999999999,-0.348635,1.2049495000000001,-0.019235,-0.343015,0.8348495,-0.409235,-0.087795,1.2085495,-0.390555,-0.139055
166,1.027565,0.64022,-0.28115,0.878071,0.463937,-0.26846,0.8095410000000001,0.68062,-0.4552,1.156291,0.442976,-0.26139,1.235021,0.6376000000000001,-0.46874,0.8191010000000001,0.92187,-0.5755300000000001,1.204231,0.86653,-0.6224099999999999,0.923431,0.00487,-0.00068,1.076569,-0.0048699999999999,0.0006799999999999,0.8160810000000001,-0.0387699999999999,-0.3490899999999999,1.205611,-0.0134199999999999,-0.34293,0.8339110000000001,-0.40542,-0.08823,1.209031,-0.3843299999999999,-0.13807
167,1.027983,0.639855,-0.28178,0.8787640000000001,0.464806,-0.26896,0.8103540000000001,0.6798850000000001,-0.45757,1.156794,0.443444,-0.26145,1.235514,0.637255,-0.46944,0.8193440000000001,0.925115,-0.57803,1.205164,0.8634649999999999,-0.62419,0.9235200000000001,0.004985,-0.0006599999999999,1.0764799999999999,-0.004985,0.00066,0.815864,-0.0340949999999999,-0.3495999999999999,1.206654,-0.0080749999999999,-0.34291,0.8338040000000001,-0.4006349999999999,-0.0886799999999999,1.209444,-0.378235,-0.1372
168,1.0279384999999999,0.639885,-0.28229,0.8793255,0.4657199999999999,-0.26925,0.8107955,0.679265,-0.45922,1.1571455,0.443219,-0.26152,1.2359155,0.636725,-0.46964,0.8194855,0.928155,-0.57962,1.2061455,0.860155,-0.62523,0.9236165000000001,0.005195,-0.0005799999999999,1.0763835,-0.005195,0.0005799999999999,0.8159555000000001,-0.030535,-0.35001,1.2075755,-0.003955,-0.34298,0.8335555,-0.397135,-0.08895,1.2097355,-0.373415,-0.13643
169,1.028281,0.639555,-0.28245,0.879949,0.466191,-0.26929,0.8112090000000001,0.678975,-0.4596099999999999,1.1576389999999999,0.442392,-0.2615699999999999,1.2367389999999998,0.636315,-0.46968,0.819469,0.930665,-0.58009,1.207409,0.8585050000000001,-0.62527,0.923684,0.005445,-0.0005399999999999,1.076316,-0.0054449999999999,0.00054,0.8165789999999999,-0.0281549999999999,-0.35005,1.208589,-0.001195,-0.3429799999999999,0.833789,-0.395545,-0.08921,1.210059,-0.370125,-0.1357999999999999
170,1.028557,0.63942,-0.282545,0.880544,0.466415,-0.269375,0.811454,0.67911,-0.4596949999999999,1.1581839999999999,0.44168,-0.2616549999999999,1.237304,0.63644,-0.469765,0.819374,0.93258,-0.580185,1.208744,0.85871,-0.625355,0.923726,0.00562,-0.0005149999999999,1.076274,-0.00562,0.000515,0.8174040000000001,-0.02705,-0.350135,1.209494,0.0001499999999999,-0.3427749999999999,0.834094,-0.3943,-0.0899349999999999,1.210304,-0.36859,-0.1353849999999999
171,1.028823,0.64019,-0.28271,0.8810600000000001,0.466429,-0.2695499999999999,0.8116300000000001,0.68084,-0.45987,1.1587,0.440548,-0.2616199999999999,1.2379,0.6371,-0.4699299999999999,0.81931,0.93448,-0.5803499999999999,1.21024,0.86061,-0.62551,0.923767,0.00585,-0.0004699999999999,1.076233,-0.0058499999999999,0.0004699999999999,0.8181300000000001,-0.0265499999999999,-0.35024,1.21021,0.00074,-0.34253,0.83451,-0.39288,-0.0909,1.21051,-0.36804,-0.1350399999999999
172,1.028635,0.64019,-0.2829,0.8810340000000001,0.466429,-0.26993,0.8112140000000001,0.68084,-0.46026,1.158824,0.440548,-0.26169,1.238134,0.6371,-0.46958,0.818804,0.93448,-0.58075,1.211234,0.86061,-0.62589,0.9236340000000001,0.00585,-0.0003599999999999,1.076366,-0.0058499999999999,0.0003599999999999,0.8183740000000002,-0.0277199999999999,-0.35063,1.210494,-0.00046,-0.3422799999999999,0.834844,-0.39288,-0.09162,1.210274,-0.3694999999999999,-0.13525
173,1.0284845,0.64019,-0.2828549999999999,0.8808205,0.466429,-0.270205,0.8108204999999999,0.68084,-0.459615,1.1589605,0.440548,-0.2617649999999999,1.2383505,0.6371,-0.4688449999999999,0.8184505,0.93448,-0.5802849999999999,1.2121805,0.86061,-0.625315,0.9234605,0.00585,-0.0002549999999999,1.0765395,-0.0058499999999999,0.000255,0.8186105,-0.0283999999999999,-0.350975,1.2107605,-0.0015899999999999,-0.342045,0.8347805,-0.39288,-0.0927649999999999,1.2100605,-0.37104,-0.135895
174,1.028597,0.64019,-0.28254,0.880614,0.466429,-0.27051,0.8106840000000001,0.68084,-0.45796,1.159114,0.440548,-0.26188,1.238504,0.6371,-0.46736,0.8179339999999999,0.93579,-0.57846,1.2130239999999999,0.8607199999999999,-0.62395,0.923414,0.00585,-0.0001299999999999,1.076586,-0.0058499999999999,0.0001299999999999,0.819034,-0.0285199999999999,-0.35122,1.211004,-0.0024399999999999,-0.34197,0.8349139999999999,-0.39185,-0.0941799999999999,1.209824,-0.37265,-0.13677
175,1.0285905,0.64083,-0.28207,0.8801375000000001,0.466954,-0.26994,0.8105775,0.6827,-0.45557,1.1591075,0.441127,-0.26094,1.2386975,0.63861,-0.46526,0.8170675000000001,0.93757,-0.57568,1.2133875,0.86485,-0.62151,0.9234175,0.00567,-0.00014,1.0765825,-0.00567,0.00014,0.8194975000000001,-0.02876,-0.35134,1.2109475,-0.0033799999999999,-0.34199,0.8349175,-0.39147,-0.09547,1.2094175,-0.3746199999999999,-0.13777
176,1.0285855,0.6435150000000001,-0.28132,0.8797865000000001,0.467007,-0.26879,0.8105565,0.684445,-0.45214,1.1590965,0.441865,-0.25968,1.2390865,0.640625,-0.4623900000000001,0.8160965,0.939615,-0.57097,1.2138765,0.869095,-0.6183000000000001,0.9234165,0.005555,-0.00017,1.0765835,-0.0055549999999999,0.00017,0.8201765,-0.0309749999999999,-0.3512700000000001,1.2108565,-0.0055949999999999,-0.34185,0.8349165000000001,-0.392355,-0.09583,1.2092865,-0.3774849999999999,-0.13862
177,1.0284924999999998,0.6449400000000001,-0.27946,0.8795965,0.467138,-0.26728,0.8104465000000001,0.6868799999999999,-0.4475599999999999,1.1590065,0.443231,-0.258,1.2397965,0.64329,-0.45892,0.8150465,0.94331,-0.5643,1.2144965,0.8739,-0.61391,0.9233365,0.0053799999999999,-0.00026,1.0766635,-0.0053799999999999,0.00026,0.8210265,-0.0349599999999999,-0.35109,1.2106665,-0.0095799999999999,-0.34151,0.8352465,-0.39568,-0.09713,1.2088065000000001,-0.38219,-0.1400699999999999
178,1.0283405,0.647255,-0.277485,0.8793365,0.467621,-0.265805,0.8101865,0.6898850000000001,-0.442665,1.1588465000000001,0.445724,-0.256725,1.2406465,0.647435,-0.455295,0.8141265,0.946815,-0.558995,1.2152265,0.880525,-0.608895,0.9233264999999999,0.005095,-0.0003249999999999,1.0766735,-0.005095,0.0003249999999999,0.8220965,-0.039495,-0.350805,1.2102465,-0.0147249999999999,-0.341205,0.8359065,-0.400645,-0.0990349999999999,1.2083665,-0.388225,-0.142305
179,1.027312,0.6486149999999999,-0.275725,0.878146,0.465522,-0.264965,0.809086,0.6911050000000001,-0.4375449999999999,1.157656,0.445536,-0.256405,1.240616,0.649975,-0.4513749999999999,0.812346,0.948525,-0.554075,1.215406,0.886315,-0.603555,0.923297,0.004695,-0.000435,1.076703,-0.004695,0.0004349999999999,0.8227360000000001,-0.046015,-0.350135,1.208826,-0.0232049999999999,-0.3410149999999999,0.835576,-0.408305,-0.1019749999999999,1.207206,-0.3980249999999999,-0.145425
180,1.0265855,0.65208,-0.2733399999999999,0.8770935,0.465883,-0.2626,0.8080635,0.69431,-0.43175,1.1565335,0.4491739999999999,-0.25461,1.2408835,0.65588,-0.4466999999999999,0.8107835,0.95136,-0.5494600000000001,1.2161335,0.89469,-0.59727,0.9235275000000001,0.0041499999999999,-0.0005999999999999,1.0764725,-0.00415,0.0006,0.8235635,-0.0531099999999999,-0.34928,1.2074335,-0.0325,-0.3404299999999999,0.8354135,-0.41734,-0.1045499999999999,1.2061935,-0.4088,-0.1487699999999999
181,1.0257735,0.6560900000000001,-0.26988,0.8758395,0.4661349999999999,-0.25978,0.8070695,0.6974899999999999,-0.42528,1.1553494999999998,0.453569,-0.25255,1.2412794999999999,0.6617299999999999,-0.44217,0.8090395,0.9552,-0.54152,1.2169295,0.9003300000000001,-0.5902700000000001,0.9241435,0.00328,-0.00089,1.0758565,-0.00328,0.00089,0.8241395,-0.06089,-0.34808,1.2058395,-0.04292,-0.33925,0.8348895000000001,-0.42809,-0.10697,1.2049595,-0.42123,-0.15241
182,1.025382,0.66025,-0.26599,0.875005,0.4681,-0.25625,0.806455,0.7020500000000001,-0.41888,1.154445,0.459071,-0.25003,1.242395,0.66815,-0.43722,0.807535,0.96053,-0.5334399999999999,1.218815,0.9025,-0.5812299999999999,0.924069,0.00242,-0.00117,1.075931,-0.0024199999999999,0.00117,0.8248949999999999,-0.0697199999999999,-0.3463099999999999,1.204285,-0.0540499999999999,-0.33736,0.835265,-0.4399299999999999,-0.10885,1.203325,-0.43479,-0.15474
183,1.02495,0.663025,-0.261335,0.874271,0.471575,-0.252475,0.805701,0.706475,-0.4132749999999999,1.153351,0.464355,-0.247165,1.243471,0.6738550000000001,-0.4319149999999999,0.806121,0.966545,-0.526185,1.221071,0.902445,-0.571345,0.924116,0.002085,-0.0014649999999999,1.075884,-0.002085,0.0014649999999999,0.825331,-0.0794249999999999,-0.343855,1.202341,-0.0671649999999999,-0.335205,0.835811,-0.453925,-0.110075,1.201341,-0.450555,-0.157205
184,1.0251554999999999,0.667555,-0.2564999999999999,0.8738885000000001,0.475105,-0.2491199999999999,0.8054785000000001,0.711835,-0.4067,1.1525885,0.470475,-0.2447899999999999,1.2445884999999999,0.679805,-0.4259200000000001,0.8049585000000001,0.973695,-0.51869,1.2237985,0.901725,-0.56045,0.9243275,0.0018449999999999,-0.0015999999999999,1.0756725,-0.0018449999999999,0.0015999999999999,0.8259285000000001,-0.088985,-0.34102,1.2006585,-0.079755,-0.33218,0.8364385,-0.467765,-0.1111399999999999,1.1995285,-0.466395,-0.1596999999999999
185,1.025823,0.6657949999999999,-0.256,0.873972,0.474755,-0.25011,0.805722,0.7127049999999999,-0.40539,1.152182,0.4712849999999999,-0.24677,1.245562,0.680045,-0.4240299999999999,0.804172,0.974095,-0.5165299999999999,1.226812,0.898335,-0.5542499999999999,0.924396,0.0015249999999999,-0.0017099999999999,1.075604,-0.0015249999999999,0.00171,0.8284320000000001,-0.101015,-0.3375499999999999,1.1975419999999999,-0.095635,-0.3293099999999999,0.837302,-0.487635,-0.1169299999999999,1.197962,-0.4863349999999999,-0.1652799999999999
186,1.026447,0.667235,-0.256455,0.874169,0.476185,-0.251095,0.806049,0.7152350000000001,-0.404175,1.151839,0.473335,-0.2487849999999999,1.246969,0.681895,-0.422255,0.803849,0.976795,-0.514205,1.229789,0.901205,-0.5495650000000001,0.924454,0.001265,-0.001755,1.0755460000000001,-0.0012649999999999,0.001755,0.830909,-0.1119849999999999,-0.334055,1.194329,-0.1095249999999999,-0.325705,0.8381190000000001,-0.5068349999999999,-0.122805,1.1964489999999999,-0.504985,-0.170675
187,1.0271615,0.6681349999999999,-0.25726,0.8746705000000001,0.476485,-0.2528,0.8063405000000001,0.7168650000000001,-0.4031899999999999,1.1516105,0.472935,-0.25149,1.2483105,0.684075,-0.4203399999999999,0.8039005000000001,0.978745,-0.51211,1.2326005,0.902305,-0.54601,0.9243495,0.0012449999999999,-0.0017699999999999,1.0756505,-0.0012449999999999,0.0017699999999999,0.8331405000000001,-0.123385,-0.3302699999999999,1.1913005,-0.123305,-0.32219,0.8386905,-0.526505,-0.12908,1.1949605,-0.5239050000000001,-0.17592
188,1.0280904999999998,0.67069,-0.25786,0.8754435,0.4777599999999999,-0.25418,0.8070935,0.71942,-0.40206,1.1517235000000001,0.4736,-0.25356,1.2498335,0.68677,-0.41893,0.8043335,0.98142,-0.51014,1.2353435,0.90286,-0.54213,0.9240985,0.0015199999999999,-0.0017199999999999,1.0759015,-0.0015199999999999,0.0017199999999999,0.8351135000000001,-0.13398,-0.32636,1.1885835,-0.1356399999999999,-0.31826,0.8393535,-0.54532,-0.13493,1.1936535,-0.5414300000000001,-0.18046
189,1.028992,0.6711750000000001,-0.258165,0.876796,0.480115,-0.255685,0.8077960000000001,0.722245,-0.401405,1.1524860000000001,0.473825,-0.254775,1.251306,0.6877949999999999,-0.418095,0.8047759999999999,0.984415,-0.508225,1.237566,0.8996249999999999,-0.538075,0.924009,0.001785,-0.0016349999999999,1.075991,-0.001785,0.0016349999999999,0.8372459999999999,-0.145585,-0.321395,1.185756,-0.148195,-0.313555,0.839966,-0.565275,-0.1409149999999999,1.192936,-0.5597749999999999,-0.184685
190,1.0298665,0.67187,-0.2589599999999999,0.8773105000000001,0.48153,-0.2576,0.8085305,0.72458,-0.40071,1.1534405,0.47386,-0.2560099999999999,1.2525104999999999,0.68918,-0.41718,0.8053505000000001,0.98524,-0.50892,1.2388805,0.90089,-0.5343,0.9240755,0.0021899999999999,-0.0015,1.0759245,-0.0021899999999999,0.0015,0.8394405,-0.15746,-0.31617,1.1829605,-0.16068,-0.3091,0.8407305,-0.58504,-0.14695,1.1923205000000001,-0.5776899999999999,-0.18881
191,1.030643,0.671285,-0.25959,0.8785420000000002,0.480415,-0.25992,0.8092820000000001,0.7258850000000001,-0.39946,1.154902,0.472375,-0.25758,1.253322,0.689745,-0.41602,0.806002,0.986535,-0.5069,1.239292,0.902725,-0.53235,0.9244940000000001,0.002615,-0.00141,1.0755059999999999,-0.0026149999999999,0.0014099999999999,0.8417420000000001,-0.1684149999999999,-0.31095,1.180142,-0.172775,-0.30442,0.840832,-0.604695,-0.15325,1.191882,-0.5947549999999999,-0.19299
192,1.031163,0.669165,-0.259715,0.879346,0.475935,-0.2613149999999999,0.810066,0.723765,-0.397655,1.156726,0.473145,-0.258735,1.253446,0.690295,-0.415085,0.806676,0.984425,-0.504135,1.238996,0.909115,-0.531445,0.924816,0.0026049999999999,-0.0013449999999999,1.075184,-0.0026049999999999,0.001345,0.8441460000000001,-0.179885,-0.305545,1.177456,-0.183725,-0.298795,0.840836,-0.624705,-0.1596849999999999,1.191036,-0.612025,-0.1963249999999999
193,1.0314815,0.665065,-0.25912,0.8803485,0.475635,-0.26363,0.8109885,0.723615,-0.39642,1.1591085,0.4722849999999999,-0.26009,1.2541085,0.6915049999999999,-0.41466,0.8074885,0.983575,-0.50085,1.2388685,0.918785,-0.5317799999999999,0.9249305,0.002555,-0.00142,1.0750695,-0.002555,0.0014199999999999,0.8469085000000001,-0.190065,-0.29997,1.1746385,-0.193495,-0.29345,0.8410685,-0.6445350000000001,-0.16579,1.1901085,-0.628115,-0.19909
194,1.031686,0.66371,-0.253095,0.881457,0.47888,-0.262325,0.812137,0.72899,-0.389435,1.160817,0.47752,-0.257065,1.253957,0.69834,-0.410035,0.808317,0.98808,-0.493685,1.238937,0.93028,-0.527895,0.925003,0.0026999999999999,-0.001515,1.074997,-0.0027,0.001515,0.848347,-0.19754,-0.294435,1.173737,-0.19962,-0.287985,0.841267,-0.65804,-0.167315,1.189127,-0.63604,-0.1997749999999999
195,1.0317685,0.659655,-0.245945,0.8824835,0.480055,-0.260555,0.8138235,0.732425,-0.382375,1.1629435,0.479995,-0.253845,1.2535935,0.705165,-0.404865,0.8085835,0.988185,-0.486595,1.2392135,0.937065,-0.522095,0.9249455,0.003075,-0.001475,1.0750545,-0.0030749999999999,0.0014749999999999,0.8499135000000001,-0.205415,-0.2879049999999999,1.1727235,-0.206195,-0.2824649999999999,0.8411735,-0.6719849999999999,-0.167955,1.1880735,-0.642605,-0.199755
196,1.0320509999999998,0.654845,-0.237435,0.8839830000000001,0.484105,-0.256945,0.8144330000000001,0.736715,-0.373805,1.165103,0.482605,-0.248855,1.253873,0.709985,-0.399265,0.8084830000000001,0.989525,-0.4751449999999999,1.239013,0.944495,-0.514925,0.9248250000000001,0.002409,-0.001475,1.075175,-0.0024089999999999,0.0014749999999999,0.8516630000000001,-0.2138049999999999,-0.281215,1.171853,-0.212275,-0.276145,0.841173,-0.685555,-0.166545,1.187073,-0.649145,-0.198645
197,1.031604,0.649115,-0.229455,0.88742,0.487685,-0.253465,0.81548,0.740785,-0.365935,1.16655,0.488235,-0.243605,1.2533,0.7160650000000001,-0.393815,0.80759,0.992285,-0.462765,1.23809,0.951955,-0.507855,0.925392,0.001641,-0.001475,1.074608,-0.0016409999999999,0.0014749999999999,0.85276,-0.221845,-0.275205,1.1703899999999998,-0.217965,-0.2704649999999999,0.84029,-0.6988949999999999,-0.164965,1.18527,-0.654825,-0.197525
198,1.0312145,0.6443145,-0.222115,0.8881355,0.4848445,-0.251445,0.8150855,0.7403345,-0.357725,1.1677455,0.4898645,-0.240595,1.2523955,0.7186345,-0.387105,0.8065154999999999,0.9930345,-0.4505849999999999,1.2376255,0.9603445,-0.5013049999999999,0.9261025,0.0014524999999999,-0.0014649999999999,1.0738975,-0.0014525,0.001465,0.8539555,-0.2284855,-0.269955,1.1688455,-0.2245555,-0.265235,0.8393255,-0.7125955,-0.1634049999999999,1.1833755,-0.6603855,-0.1962649999999999
199,1.030801,0.6366580000000001,-0.21293,0.887907,0.485938,-0.2472099999999999,0.814677,0.7426780000000001,-0.34835,1.168847,0.492378,-0.2353799999999999,1.251717,0.723098,-0.37812,0.805267,0.994818,-0.4368299999999999,1.236817,0.961158,-0.4921799999999999,0.926951,0.0012069999999999,-0.0014499999999999,1.073049,-0.0012069999999999,0.00145,0.854687,-0.2369319999999999,-0.26138,1.167217,-0.232902,-0.25631,0.8383970000000001,-0.729912,-0.15964,1.181277,-0.669582,-0.19288
200,1.030063,0.6299625,-0.2038849999999999,0.889851,0.4885525,-0.242845,0.815861,0.7463124999999999,-0.339135,1.169201,0.4955225,-0.229745,1.250411,0.7285825,-0.369745,0.804241,0.9947225,-0.425205,1.235531,0.9639325,-0.4823849999999999,0.927936,0.0009634999999999,-0.001515,1.072064,-0.0009634999999999,0.001515,0.8550610000000001,-0.2447275,-0.252985,1.165551,-0.2403674999999999,-0.247665,0.8371910000000001,-0.7424275,-0.155435,1.178841,-0.6773575000000001,-0.188975
201,1.029423,0.62694,-0.195185,0.891517,0.49116,-0.237265,0.8187869999999999,0.75046,-0.329195,1.169347,0.49465,-0.223795,1.248527,0.73299,-0.360625,0.805067,0.99534,-0.412695,1.233087,0.96431,-0.470425,0.928787,0.000595,-0.001605,1.071213,-0.000595,0.0016049999999999,0.855357,-0.25243,-0.243525,1.163997,-0.24826,-0.238205,0.835597,-0.75823,-0.151625,1.1763270000000001,-0.6840799999999999,-0.183715
202,1.028857,0.624521,-0.186985,0.892936,0.489691,-0.231655,0.820576,0.751931,-0.319715,1.169376,0.493981,-0.218155,1.245776,0.736391,-0.350595,0.803636,0.996411,-0.401665,1.2309160000000001,0.966151,-0.457965,0.929634,0.000535,-0.001725,1.070366,-0.000535,0.001725,0.855506,-0.262039,-0.234175,1.162526,-0.256839,-0.228825,0.834426,-0.7723990000000001,-0.146415,1.173836,-0.689949,-0.178085
203,1.0284579999999999,0.624728,-0.1796149999999999,0.894068,0.4891979999999999,-0.225555,0.8234980000000001,0.7527079999999999,-0.309205,1.168418,0.491918,-0.2135949999999999,1.2423980000000001,0.740468,-0.339755,0.804448,1.000318,-0.3861149999999999,1.228368,0.968208,-0.445105,0.93016,0.0002489999999999,-0.0017249999999999,1.06984,-0.000249,0.001725,0.855418,-0.270622,-0.224935,1.1603979999999998,-0.265432,-0.2190849999999999,0.833188,-0.785362,-0.140965,1.172028,-0.6986920000000001,-0.171865
204,1.0280285,0.6260089999999999,-0.1724799999999999,0.8949295,0.489079,-0.2195099999999999,0.8260795,0.753529,-0.2980899999999999,1.1668995,0.491249,-0.20908,1.2401795,0.742289,-0.32792,0.8052695,1.004749,-0.37158,1.2269595,0.969229,-0.42949,0.9305545,-0.0001989999999999,-0.00156,1.0694455,0.000199,0.00156,0.8549895000000001,-0.277831,-0.2155699999999999,1.1581695,-0.273001,-0.2093999999999999,0.8317195,-0.797701,-0.13517,1.1698895,-0.708311,-0.16503
205,1.027542,0.627867,-0.165715,0.895419,0.487027,-0.213605,0.828149,0.754117,-0.287535,1.165519,0.491947,-0.204395,1.237999,0.744407,-0.315935,0.806119,1.009087,-0.3593749999999999,1.226559,0.971787,-0.413955,0.9307100000000001,0.0002629999999999,-0.0013449999999999,1.0692899999999999,-0.0002629999999999,0.001345,0.855159,-0.2843529999999999,-0.203465,1.156019,-0.281313,-0.199965,0.830329,-0.809483,-0.128575,1.167749,-0.716253,-0.157605
206,1.027115,0.6300895,-0.1603149999999999,0.894228,0.4869894999999999,-0.206785,0.827518,0.7545695,-0.276035,1.165328,0.4913695,-0.197515,1.236848,0.7455295,-0.303465,0.805618,1.0119495,-0.345085,1.226278,0.9743495,-0.398235,0.930567,0.0006954999999999,-0.0011549999999999,1.069433,-0.0006955,0.001155,0.8554780000000001,-0.2926805,-0.190355,1.153638,-0.2897105,-0.1884949999999999,0.8288880000000001,-0.8200805,-0.1219849999999999,1.165568,-0.7249705000000001,-0.149055
207,1.026916,0.629703,-0.1538049999999999,0.893477,0.4909829999999999,-0.198455,0.827157,0.757513,-0.263775,1.165697,0.4896229999999999,-0.1897049999999999,1.2368769999999998,0.7474729999999999,-0.291205,0.805457,1.012673,-0.3292549999999999,1.226647,0.978473,-0.381705,0.9302370000000001,0.0004229999999999,-0.0010649999999999,1.0697629999999998,-0.0004229999999999,0.001065,0.856067,-0.302767,-0.1751849999999999,1.151137,-0.298107,-0.1765649999999999,0.827847,-0.831187,-0.1145149999999999,1.1637170000000001,-0.733757,-0.139115
208,1.026668,0.6334200000000001,-0.140915,0.890166,0.4923399999999999,-0.183595,0.823236,0.7590600000000001,-0.245165,1.165596,0.49013,-0.175705,1.236256,0.74743,-0.272645,0.802906,1.01341,-0.307215,1.226976,0.98691,-0.359755,0.929683,0.000251,-0.000795,1.070317,-0.000251,0.0007949999999999,0.857096,-0.30778,-0.153335,1.148406,-0.3019,-0.157505,0.826396,-0.8360099999999999,-0.100405,1.162016,-0.73681,-0.122505
209,1.0274524999999999,0.6412610000000001,-0.1266749999999999,0.8867425,0.497871,-0.1626349999999999,0.8189725,0.760791,-0.224765,1.1671025,0.492181,-0.1575749999999999,1.2383425,0.7420610000000001,-0.252045,0.8003625,1.020071,-0.282345,1.2269925,0.986671,-0.336635,0.9289035,0.000477,-8.500000000000174e-05,1.0710965,-0.000477,8.500000000000174e-05,0.8586325,-0.323889,-0.128815,1.1444825,-0.317059,-0.1369849999999999,0.8245625,-0.852819,-0.083505,1.1603225,-0.750559,-0.1036449999999999
210,1.028285,0.6486125,-0.11288,0.8837400000000001,0.5055625,-0.1428799999999999,0.8169300000000002,0.7642424999999999,-0.2052699999999999,1.16853,0.4959525,-0.1403799999999999,1.24004,0.7397825,-0.2317999999999999,0.8002400000000001,1.0284325,-0.2579,1.22706,0.9858325,-0.31554,0.928216,0.0007764999999999,0.0006899999999999,1.071784,-0.0007764999999999,-0.0006899999999999,0.85997,-0.3371275,-0.1065299999999999,1.14077,-0.3302975,-0.119,0.82257,-0.8671875,-0.06783,1.1586,-0.7633075,-0.0863299999999999
211,1.0290725,0.655735,-0.0985649999999999,0.8827535,0.511215,-0.123885,0.8163835,0.767585,-0.1861449999999999,1.1693035,0.4993449999999999,-0.1232149999999999,1.2399335,0.737235,-0.213545,0.8006835000000001,1.0344950000000002,-0.233625,1.2270035,0.980495,-0.294195,0.9275395,0.0010649999999999,0.0014649999999999,1.0724605,-0.0010649999999999,-0.0014649999999999,0.8610835,-0.3522349999999999,-0.0850749999999999,1.1376035,-0.343925,-0.1017249999999999,0.8203535,-0.8814350000000001,-0.051415,1.1570035,-0.776545,-0.069435
212,1.0298515,0.661855,-0.0846949999999999,0.8800635,0.518805,-0.104235,0.8156635,0.770815,-0.1688249999999999,1.1701535,0.502545,-0.106095,1.2402335,0.733985,-0.196335,0.8014435,1.036345,-0.213585,1.2270035,0.974545,-0.2727549999999999,0.9269495000000001,0.0013449999999999,0.0021849999999999,1.0730505,-0.0013449999999999,-0.0021849999999999,0.8625635,-0.367285,-0.064745,1.1343935,-0.357565,-0.084875,0.8179535,-0.9003450000000001,-0.0353349999999999,1.1556735,-0.789795,-0.053005
