sb224sc-HT22-VT27/4dt907/src/data/kinect_good_preprocessed_not_cut_A11_mediapipe/A65_kinect.csv
FrameNo,nose_3d_x,nose_3d_y,nose_3d_z,left_shoulder_3d_x,left_shoulder_3d_y,left_shoulder_3d_z,left_elbow_3d_x,left_elbow_3d_y,left_elbow_3d_z,right_shoulder_3d_x,right_shoulder_3d_y,right_shoulder_3d_z,right_elbow_3d_x,right_elbow_3d_y,right_elbow_3d_z,left_wrist_3d_x,left_wrist_3d_y,left_wrist_3d_z,right_wrist_3d_x,right_wrist_3d_y,right_wrist_3d_z,left_hip_3d_x,left_hip_3d_y,left_hip_3d_z,right_hip_3d_x,right_hip_3d_y,right_hip_3d_z,left_knee_3d_x,left_knee_3d_y,left_knee_3d_z,right_knee_3d_x,right_knee_3d_y,right_knee_3d_z,left_ankle_3d_x,left_ankle_3d_y,left_ankle_3d_z,right_ankle_3d_x,right_ankle_3d_y,right_ankle_3d_z
0,-0.037274,0.7337815,0.0853405,-0.18501199999999998,0.5173615,0.0574135,-0.259412,0.7444315,-0.0096795,0.119638,0.5437715,0.0369655,0.18155800000000002,0.7866515,-0.0537125,-0.255312,0.9599815,-0.07609750000000001,0.17896800000000002,1.0765514999999999,-0.11395750000000002,-0.058938000000000004,-0.0035564999999999998,-0.0014914999999999998,0.058938000000000004,0.0035564999999999998,0.0014914999999999998,-0.12494200000000001,-0.3596385,-0.012174499999999998,0.119968,-0.3522185,-0.007831499999999998,-0.196012,-0.8561185,0.0230725,0.175968,-0.8542185,0.0332855
1,-0.0371545,0.733846,0.08531749999999999,-0.1848505,0.5175460000000001,0.057429499999999994,-0.25932049999999995,0.7449260000000001,-0.009823499999999999,0.11917950000000001,0.543196,0.0364415,0.1816795,0.786706,-0.0536785,-0.2468205,1.023236,-0.08536750000000001,0.1789295,1.076536,-0.1139975,-0.0589675,-0.003582,-0.001522500000000003,0.0589675,0.003582,0.001522500000000003,-0.1248405,-0.359684,-0.0121765,0.1200295,-0.352184,-0.007842500000000002,-0.19477049999999999,-0.8562639999999999,0.0236345,0.1774095,-0.855864,0.0328435
2,-0.0371445,0.733756,0.085319,-0.1847555,0.517466,0.05748,-0.25920550000000003,0.744896,-0.009852999999999994,0.11919450000000001,0.544576,0.036972000000000005,0.18167450000000002,0.786536,-0.05358399999999999,-0.2467955,1.022806,-0.085689,0.1788345,1.076406,-0.11406899999999999,-0.058953500000000006,-0.003624,-0.0015339999999999937,0.058953500000000006,0.003624,0.0015340000000000006,-0.12474550000000001,-0.359734,-0.012162,0.11969450000000001,-0.352164,-0.007306,-0.1991355,-0.855924,0.021241000000000003,0.1777445,-0.857534,0.032650000000000005
3,-0.0371345,0.7336269999999999,0.08510000000000001,-0.1847295,0.5173369999999999,0.057421,-0.2591595,0.7448469999999999,-0.010128999999999999,0.1189805,0.543917,0.0366,0.1816205,0.786387,-0.053592999999999995,-0.2504095,0.989977,-0.08172199999999999,0.1785705,1.0760669999999999,-0.11483200000000002,-0.058979500000000004,-0.003604,-0.001684999999999999,0.058979500000000004,0.003604,0.001684999999999999,-0.12466949999999999,-0.35973299999999997,-0.012187000000000003,0.1203305,-0.352153,-0.008206999999999999,-0.1967595,-0.8564430000000001,0.019250999999999997,0.1779805,-0.8561230000000001,0.031691
4,-0.03723799999999999,0.7334594999999999,0.0848635,-0.184694,0.5173095,0.0574475,-0.25896399999999997,0.7445995,-0.010011500000000007,0.119276,0.5455694999999999,0.037099499999999994,0.18146600000000002,0.7866694999999999,-0.0538535,-0.25079399999999996,0.9886594999999999,-0.0811655,0.17836600000000002,1.0762995,-0.1151055,-0.059,-0.0036105,-0.0016905000000000045,0.059,0.0036105,0.0016904999999999976,-0.124654,-0.35974049999999996,-0.012184500000000001,0.120006,-0.3522105,-0.008130500000000006,-0.196284,-0.8563605000000001,0.020871499999999998,0.178736,-0.8582705,0.0318795
5,-0.0372635,0.7335054999999999,0.084619,-0.1846275,0.5172955,0.057438,-0.2589975,0.7447954999999999,-0.010264000000000002,0.1192125,0.5463055,0.037258,0.1814425,0.7868955,-0.053916,-0.24820749999999997,1.0102455000000001,-0.08515600000000001,0.1780625,1.0765455000000002,-0.115506,-0.0589765,-0.0036214999999999997,-0.001691999999999999,0.0589765,0.0036214999999999997,0.001691999999999999,-0.12466749999999999,-0.35974449999999997,-0.012199000000000002,0.1198825,-0.3522245,-0.008194,-0.19290749999999998,-0.8569945,0.019271,0.17929250000000002,-0.8593345,0.031504
6,-0.037209000000000006,0.7334194999999999,0.08455599999999999,-0.184521,0.5171195,0.057683,-0.258941,0.7446495,-0.010121000000000005,0.119249,0.5466994999999999,0.037558,0.181339,0.7867795,-0.05380700000000001,-0.250551,0.9906895,-0.081939,0.177889,1.0763595000000001,-0.11566900000000001,-0.058978,-0.0036145,-0.0018160000000000051,0.058978,0.0036145,0.0018159999999999982,-0.124501,-0.3597805,-0.012319000000000004,0.11971899999999999,-0.3522605,-0.008026000000000005,-0.193711,-0.8569105,0.018976999999999997,0.17904899999999999,-0.8573805000000001,0.030577
7,-0.0374575,0.7333660000000001,0.083337,-0.1846875,0.517096,0.057054999999999995,-0.2592575,0.7442660000000001,-0.011139999999999997,0.1189925,0.545686,0.036747,0.18081250000000001,0.7871560000000001,-0.055162,-0.24921749999999998,1.0058960000000001,-0.086641,0.1771425,1.076596,-0.117381,-0.0590305,-0.003616,-0.0019469999999999973,0.0590305,0.003616,0.0019469999999999973,-0.12411749999999999,-0.359844,-0.011469,0.1202125,-0.352204,-0.007102999999999998,-0.19476749999999998,-0.856594,0.021959,0.17751250000000002,-0.853394,0.033892
8,-0.037492,0.7332535,0.0829385,-0.184634,0.5170135,0.05701350000000001,-0.25924400000000003,0.7441035,-0.011342499999999991,0.11888599999999999,0.5456635,0.03666250000000001,0.180646,0.7872135,-0.0554095,-0.24916399999999997,1.0047835,-0.08702149999999999,0.17677600000000002,1.0766835,-0.1179015,-0.059068999999999997,-0.0036025,-0.002078499999999997,0.059068999999999997,0.0036025000000000007,0.002078500000000004,-0.12394400000000001,-0.3598565,-0.011220499999999994,0.120296,-0.35221650000000004,-0.006813499999999993,-0.194744,-0.8566265000000001,0.022287500000000005,0.17764600000000003,-0.8528365,0.034211500000000006
9,-0.037524,0.733156,0.082536,-0.184596,0.5169360000000001,0.056971999999999995,-0.259246,0.7439260000000001,-0.011600000000000006,0.118774,0.5456460000000001,0.036576,0.18046399999999999,0.7872560000000001,-0.05565600000000001,-0.249516,0.9998760000000001,-0.086831,0.176424,1.076676,-0.11837100000000002,-0.059101,-0.0035859999999999998,-0.0022160000000000027,0.059101,0.0035860000000000006,0.0022159999999999958,-0.123776,-0.359864,-0.010975000000000006,0.120364,-0.352224,-0.006511000000000003,-0.194716,-0.856634,0.022573999999999997,0.177894,-0.852814,0.034652999999999996
10,-0.037561,0.7330455,0.0821295,-0.184556,0.5168655000000001,0.05691450000000001,-0.259246,0.7437455000000001,-0.0118375,0.118644,0.5454955,0.0364245,0.180274,0.7872855000000001,-0.055899500000000005,-0.250156,0.9941654999999999,-0.0865465,0.17610399999999998,1.0765654999999998,-0.11881649999999999,-0.059142,-0.0035715000000000005,-0.0023574999999999985,0.059142,0.0035715,0.0023574999999999985,-0.12360600000000001,-0.35987450000000004,-0.010745499999999998,0.120504,-0.3522245,-0.0062964999999999965,-0.194596,-0.8566045,0.023137500000000002,0.17815399999999998,-0.8539545,0.0348095
11,-0.037586499999999995,0.7329355,0.0817075,-0.18450750000000002,0.5168255,0.0568245,-0.2592575,0.7435955,-0.012133499999999998,0.1185125,0.5454255,0.0362865,0.1800925,0.7873455,-0.0561755,-0.25069749999999996,0.9910355,-0.0863345,0.1757925,1.0766755,-0.11924449999999999,-0.0591815,-0.0035565000000000006,-0.0024785000000000015,0.0591815,0.003556499999999999,0.0024785000000000015,-0.1234475,-0.3598745,-0.010544499999999998,0.1206025,-0.3522245,-0.006031500000000002,-0.19452750000000002,-0.8565245,0.023733499999999998,0.1782125,-0.8548645,0.0350255
12,-0.037633,0.7327994999999999,0.0812635,-0.184482,0.5167795,0.056704500000000005,-0.259292,0.7434495,-0.012476500000000001,0.118368,0.5453494999999999,0.0360825,0.179928,0.7873294999999999,-0.0563935,-0.251022,0.9890095,-0.0865845,0.17549800000000002,1.0765695,-0.11963449999999999,-0.059209,-0.0035405000000000002,-0.0025874999999999995,0.059209,0.0035405000000000002,0.0025874999999999995,-0.12329199999999998,-0.3598805,-0.0103525,0.120698,-0.3522205,-0.005785499999999999,-0.194152,-0.8564805000000001,0.0244105,0.17810800000000002,-0.8547105,0.0352335
13,-0.0375925,0.732669,0.08111,-0.18441749999999998,0.516759,0.05679200000000001,-0.2592575,0.743399,-0.012567999999999996,0.1182925,0.545479,0.036063000000000005,0.1798525,0.787249,-0.05627499999999999,-0.2510075,0.990379,-0.087084,0.17537250000000001,1.076519,-0.11956399999999999,-0.05923250000000001,-0.0035119999999999995,-0.002696999999999998,0.05923250000000001,0.0035119999999999995,0.002697000000000005,-0.1232175,-0.359861,-0.010186999999999995,0.1208125,-0.352231,-0.005527999999999998,-0.1940375,-0.856441,0.025270000000000004,0.1777725,-0.852631,0.035818
14,-0.037559,0.73255,0.08100450000000001,-0.18436000000000002,0.51672,0.0568645,-0.25922,0.74336,-0.0126825,0.11818999999999999,0.54551,0.0360335,0.17975000000000002,0.7871900000000001,-0.0561745,-0.2507,0.99438,-0.0876205,0.17525000000000002,1.07648,-0.11946050000000001,-0.059251,-0.0034870000000000005,-0.0028035000000000004,0.059251,0.0034870000000000005,0.0028035000000000004,-0.12314000000000001,-0.35984,-0.0099915,0.12090999999999999,-0.35224,-0.005272499999999999,-0.19393,-0.85642,0.026104500000000003,0.17745,-0.8508,0.0364825
15,-0.037559999999999996,0.732485,0.08077999999999999,-0.18434199999999998,0.516735,0.056871,-0.259222,0.743375,-0.012873000000000002,0.118068,0.545655,0.035954,0.179628,0.787185,-0.056142000000000004,-0.25115200000000004,0.9920850000000001,-0.088007,0.175118,1.0764850000000001,-0.11938700000000002,-0.059245,-0.0034609999999999997,-0.002923000000000002,0.059245,0.0034610000000000005,0.002923000000000002,-0.12310199999999999,-0.359815,-0.009877999999999998,0.12093799999999999,-0.352255,-0.005038000000000001,-0.193602,-0.8563649999999999,0.026511,0.177118,-0.8494649999999999,0.037188
16,-0.0375635,0.7324615,0.08046249999999999,-0.1843225,0.5167815,0.0567765,-0.2592125,0.7434415,-0.0131475,0.1179575,0.5456115,0.035784500000000004,0.17949749999999998,0.7872115000000001,-0.0562085,-0.2510525,0.9921315,-0.08812049999999999,0.17500749999999998,1.0764315,-0.11942049999999998,-0.059235499999999996,-0.003449500000000001,-0.002977500000000001,0.059235499999999996,0.0034494999999999994,0.002977500000000001,-0.1230625,-0.3598085,-0.009924499999999996,0.1209575,-0.3522585,-0.004980499999999999,-0.19328250000000002,-0.8563585,0.0266895,0.17669749999999998,-0.8480885,0.037907500000000004
17,-0.03756,0.7324615,0.0801585,-0.18429600000000002,0.5167815,0.0566975,-0.259206,0.7434315,-0.013393500000000003,0.117924,0.5453715,0.0357275,0.179384,0.7872115000000001,-0.056216499999999996,-0.250916,0.9918315000000001,-0.0885495,0.174954,1.0764315,-0.1194095,-0.059229,-0.003449500000000001,-0.0030395000000000005,0.059229,0.0034494999999999994,0.0030395000000000005,-0.123026,-0.3598085,-0.009973500000000003,0.120974,-0.3522585,-0.004899500000000001,-0.192916,-0.8563585,0.0267405,0.176304,-0.8476485,0.0376905
18,-0.03754450000000001,0.7324515,0.07984050000000001,-0.1842745,0.5167815,0.05659650000000001,-0.2592045,0.7434115,-0.013648499999999994,0.1179355,0.5452215,0.035729500000000004,0.1792955,0.7872115000000001,-0.0562385,-0.25095449999999997,0.9894315,-0.08887250000000001,0.17491549999999997,1.0764315,-0.1194425,-0.05921849999999999,-0.003449500000000001,-0.003089499999999995,0.05921849999999999,0.0034494999999999994,0.003089500000000002,-0.1230045,-0.3598085,-0.010039499999999993,0.1210355,-0.3522585,-0.004836499999999994,-0.1927045,-0.8563585,0.026921500000000004,0.1766055,-0.8488785,0.0376775
19,-0.0375485,0.73244,0.0795275,-0.1842855,0.51679,0.056500499999999995,-0.2592255,0.74342,-0.013906500000000002,0.1179145,0.5451199999999999,0.035734499999999995,0.1792145,0.78722,-0.0562995,-0.2504455,0.99074,-0.0897115,0.1748645,1.07644,-0.11947150000000001,-0.0591845,-0.0034519999999999993,-0.0031385000000000024,0.0591845,0.003452,0.0031384999999999955,-0.12300549999999999,-0.3598,-0.010105500000000003,0.1210845,-0.35225,-0.004753500000000001,-0.1922955,-0.8563500000000001,0.026991499999999995,0.1768845,-0.85012,0.03737649999999999
20,-0.03755700000000001,0.7325345,0.07920050000000001,-0.18429900000000002,0.5168944999999999,0.056399500000000005,-0.25924899999999995,0.7435345,-0.014136499999999996,0.117891,0.5453445,0.0356975,0.179141,0.7873445,-0.0563555,-0.249779,0.9938345000000001,-0.09110349999999999,0.174841,1.0766345000000002,-0.11951350000000001,-0.059155,-0.003447499999999999,-0.0031744999999999968,0.059155,0.003447500000000001,0.0031745000000000037,-0.12303900000000001,-0.3597855,-0.0101585,0.121111,-0.3522055,-0.004677500000000001,-0.19245900000000002,-0.8563155,0.027049500000000004,0.177191,-0.8517855000000001,0.0369245
21,-0.037558499999999995,0.7326729999999999,0.07886499999999999,-0.1843195,0.5169929999999999,0.05626,-0.2592495,0.7436029999999999,-0.014364000000000002,0.1179005,0.5456629999999999,0.035601999999999995,0.1791105,0.7875129999999999,-0.05646400000000001,-0.24974949999999999,0.992733,-0.09174099999999999,0.1748005,1.0768330000000002,-0.119621,-0.059124499999999997,-0.003438,-0.0031769999999999993,0.059124499999999997,0.003438,0.0031769999999999993,-0.1230695,-0.35967699999999997,-0.010156000000000005,0.12111050000000001,-0.352167,-0.004579,-0.19279949999999998,-0.856307,0.027316,0.1779705,-0.8548570000000001,0.035799
22,-0.03752,0.7328165000000001,0.0784775,-0.18432800000000002,0.5170865,0.0561475,-0.259228,0.7436765000000001,-0.014533499999999998,0.117922,0.5459265000000001,0.0355335,0.17907199999999998,0.7877665,-0.056562499999999995,-0.250048,0.9902965,-0.0923495,0.174762,1.0770465,-0.11974950000000001,-0.059095999999999996,-0.0034265,-0.0031795000000000018,0.059095999999999996,0.003426499999999999,0.0031795000000000018,-0.123098,-0.3596035,-0.010154500000000004,0.121102,-0.3521335,-0.004626499999999999,-0.192648,-0.8563335,0.0270445,0.178812,-0.8587235,0.0345985
23,-0.03747,0.732909,0.0779215,-0.184348,0.5171789999999999,0.0560165,-0.259188,0.743719,-0.014781500000000003,0.117922,0.546239,0.03546649999999999,0.179022,0.787979,-0.05676550000000001,-0.24928800000000004,0.994959,-0.0936775,0.17474199999999998,1.0772590000000002,-0.11989750000000002,-0.059065999999999994,-0.003422999999999999,-0.0031815000000000038,0.059065999999999994,0.0034230000000000007,0.003181499999999997,-0.123128,-0.359581,-0.010152500000000009,0.121072,-0.352121,-0.004684500000000008,-0.19242800000000002,-0.856401,0.026734499999999994,0.178982,-0.860411,0.03328949999999999
24,-0.037388,0.7330295,0.077345,-0.18433699999999997,0.5172694999999999,0.055816000000000004,-0.25910700000000003,0.7437794999999999,-0.015148999999999996,0.117893,0.5464295,0.035331,0.17900300000000002,0.7882294999999999,-0.05711399999999999,-0.24844700000000003,0.9997995,-0.09489600000000001,0.174773,1.0775995,-0.12015600000000001,-0.059059,-0.0034105000000000003,-0.003171,0.059059,0.0034105000000000003,0.003171,-0.12316699999999998,-0.3595605,-0.009987999999999997,0.121063,-0.35213049999999996,-0.004840999999999998,-0.192637,-0.8564305,0.026681000000000003,0.17888300000000001,-0.8614405,0.031759
25,-0.0373055,0.733109,0.076567,-0.1843435,0.517349,0.055496000000000004,-0.25901349999999995,0.743779,-0.015650999999999998,0.1178765,0.546669,0.03508,0.1790365,0.788289,-0.057652999999999996,-0.2481435,1.000049,-0.09613999999999999,0.1748365,1.077649,-0.12058999999999999,-0.0590535,-0.0034020000000000005,-0.0031829999999999983,0.0590535,0.0034020000000000005,0.0031829999999999983,-0.12333350000000001,-0.35953100000000004,-0.009896999999999996,0.12097650000000001,-0.352171,-0.005155,-0.1926335,-0.856471,0.026735000000000002,0.1782865,-0.858881,0.030576000000000002
26,-0.03723850000000001,0.7331835,0.07533400000000001,-0.1843615,0.5174235,0.054753,-0.2589215,0.7437435,-0.016603999999999994,0.1178185,0.5467035,0.034419000000000005,0.17907849999999997,0.7885935,-0.05867699999999999,-0.24781150000000002,1.0028135,-0.09824100000000001,0.1749085,1.0777135,-0.12147100000000001,-0.059038499999999994,-0.003394499999999999,-0.003012999999999995,0.059038499999999994,0.0033945,0.003013000000000002,-0.1235515,-0.3595065,-0.010341999999999997,0.1207485,-0.35225650000000003,-0.006274999999999996,-0.1938215,-0.8647265000000001,0.026826000000000003,0.1782985,-0.8577665,0.029012000000000003
27,-0.0371615,0.7332305,0.0732505,-0.1843275,0.5176204999999999,0.0534115,-0.2587275,0.7437104999999999,-0.018265499999999997,0.1177725,0.5467704999999999,0.0329085,0.1792325,0.7890205,-0.06034949999999999,-0.24753750000000002,1.0047105,-0.1008625,0.1750625,1.0778105,-0.12300249999999999,-0.05902349999999999,-0.0034335,-0.0028655,0.05902349999999999,0.003433500000000001,0.0028655,-0.12377750000000001,-0.35960949999999997,-0.011346500000000002,0.1202325,-0.3524795,-0.010061500000000001,-0.1956375,-0.8732595000000001,0.0260755,0.1798325,-0.8620995,0.0257545
28,-0.036995,0.7329975,0.069716,-0.18418199999999998,0.5180375,0.050835,-0.258412,0.7435875000000001,-0.021561000000000004,0.117878,0.5465675,0.029788,0.180038,0.7894775,-0.06402000000000001,-0.247502,1.0042075,-0.10450000000000001,0.175668,1.0719075,-0.12683,-0.059028,-0.0034915,-0.002257000000000002,0.059028,0.0034915,0.0022569999999999986,-0.12440199999999998,-0.35968249999999996,-0.013614000000000001,0.119768,-0.3526225,-0.015270000000000006,-0.197442,-0.8815025,0.024104999999999998,0.182088,-0.8711924999999999,0.020497999999999995
29,-0.036848000000000006,0.7321715,0.06530849999999999,-0.18400100000000003,0.5186015,0.0476365,-0.258231,0.7434315,-0.0257895,0.118059,0.5462015,0.0259945,0.181169,0.7899115,-0.0694735,-0.247231,1.0032015,-0.10979449999999999,0.175899,1.0658015,-0.1319545,-0.059011999999999995,-0.0034955,-0.0015794999999999976,0.059011999999999995,0.0034955000000000003,0.001579500000000001,-0.12516100000000002,-0.3597585,-0.0164855,0.119189,-0.3527885,-0.0215495,-0.199241,-0.8895385,0.0215165,0.184359,-0.8803385,0.015079500000000001
30,-0.03679399999999999,0.731064,0.0600535,-0.18384799999999998,0.5193340000000001,0.0437395,-0.258168,0.7430340000000001,-0.030974499999999995,0.118232,0.545864,0.0213785,0.18241200000000002,0.788514,-0.0757255,-0.246588,1.004524,-0.11602549999999999,0.175902,1.058924,-0.1377355,-0.058998,-0.003496,-0.0007224999999999974,0.058998,0.003495999999999999,0.0007225000000000009,-0.126048,-0.35977600000000004,-0.0200505,0.11838200000000001,-0.352956,-0.0292465,-0.20074799999999998,-0.897446,0.0179545,0.186142,-0.889076,0.010076500000000002
31,-0.03676,0.7298180000000001,0.054007,-0.18371400000000002,0.5201880000000001,0.039076,-0.258154,0.7422880000000001,-0.037224,0.11852599999999999,0.544678,0.015101000000000002,0.183746,0.785398,-0.082709,-0.24609400000000003,1.003368,-0.12283899999999999,0.175926,1.052668,-0.143999,-0.059009,-0.003536,0.00029100000000000306,0.059009,0.003536,-0.0002909999999999996,-0.127144,-0.359702,-0.024076,0.117556,-0.353042,-0.037368,-0.202404,-0.9047919999999999,0.013782000000000003,0.187886,-0.8969419999999999,0.004473000000000001
32,-0.036748,0.72833,0.0473195,-0.18359099999999998,0.52139,0.033973500000000004,-0.258171,0.74121,-0.0444125,0.118789,0.544,0.0082395,0.18507900000000002,0.78279,-0.0902055,-0.24550099999999997,1.0032,-0.13065549999999998,0.175909,1.0468,-0.15101550000000002,-0.059037000000000006,-0.00356,0.001265500000000001,0.059037000000000006,0.00356,-0.0012654999999999993,-0.12845099999999998,-0.35953,-0.0286125,0.116799,-0.35306000000000004,-0.046145500000000006,-0.203731,-0.91182,0.0092625,0.18956900000000002,-0.9045,-0.001518499999999999
33,-0.036706,0.7267605,0.039644,-0.18343800000000002,0.5224905,0.0279,-0.258168,0.7401105,-0.052563,0.119172,0.5431805,0.0003759999999999996,0.186502,0.7805305,-0.098207,-0.245548,1.0047005,-0.13966699999999999,0.175732,1.0414005,-0.158857,-0.059108999999999995,-0.0034415,0.0020230000000000005,0.059108999999999995,0.0034415,-0.0020230000000000005,-0.130008,-0.35910949999999997,-0.03383800000000001,0.11636200000000001,-0.3530695,-0.055329,-0.204928,-0.9182195,0.004075,0.191262,-0.9105795,-0.008184
34,-0.0367975,0.7243855,0.031316000000000004,-0.1832845,0.5235655,0.021529,-0.2584445,0.7386855,-0.061544,0.1194455,0.5425355000000001,-0.0077209999999999996,0.1879355,0.7780055,-0.10689799999999999,-0.2458645,1.0040354999999999,-0.14927800000000002,0.1751355,1.0359355,-0.167168,-0.059187500000000004,-0.0033464999999999996,0.00288,0.059187500000000004,0.0033465,-0.0028799999999999997,-0.1317245,-0.3586245,-0.039431999999999995,0.1160955,-0.3529945,-0.064527,-0.20608449999999998,-0.9243644999999999,-0.0012050000000000003,0.1912955,-0.9090145,-0.014925
35,-0.03680649999999999,0.7216295,0.02259,-0.1829625,0.5247495,0.015146,-0.2588525,0.7371895,-0.071015,0.1195875,0.5419395,-0.015953000000000002,0.18935749999999998,0.7752395,-0.11595699999999999,-0.24583249999999998,1.0059395,-0.15870700000000001,0.1742175,1.0315995,-0.175507,-0.0592915,-0.0032455,0.003595,0.0592915,0.0032454999999999993,-0.003595,-0.1334325,-0.3580405,-0.045199,0.1162575,-0.35275049999999997,-0.07352099999999999,-0.20582250000000002,-0.9210105,-0.006608999999999999,0.1918175,-0.9101104999999999,-0.022115999999999997
36,-0.0369275,0.7186319999999999,0.014069499999999999,-0.18322850000000002,0.522282,0.0074015,-0.2598085,0.734762,-0.0809945,0.1197015,0.541782,-0.0237225,0.1908315,0.772162,-0.1254095,-0.24612850000000003,0.997242,-0.1679695,0.17281149999999998,1.027632,-0.1837895,-0.05945449999999999,-0.0031909999999999994,0.0044364999999999995,0.05945449999999999,0.0031909999999999994,-0.0044365,-0.1353685,-0.357348,-0.0510785,0.11657150000000001,-0.352198,-0.08021049999999999,-0.20537850000000002,-0.916648,-0.0125935,0.19326149999999997,-0.912398,-0.0282775
37,-0.03728000000000001,0.7151455,0.006091500000000001,-0.18363200000000002,0.5198355,0.0005265000000000009,-0.261162,0.7320055,-0.0904005,0.119748,0.5417855,-0.0303535,0.191638,0.7682855,-0.1340395,-0.24593199999999998,0.9895655,-0.1763795,0.17088799999999998,1.0291555,-0.1904195,-0.059629,-0.003096500000000002,0.0048555000000000004,0.059629,0.0030964999999999986,-0.0048555,-0.137102,-0.3565645,-0.056201499999999995,0.116808,-0.35166450000000005,-0.0857955,-0.205062,-0.9120245,-0.0170485,0.193528,-0.9089545,-0.0335735
38,-0.0374285,0.7127315000000001,-0.0023985000000000013,-0.1839595,0.5183715,-0.007048500000000001,-0.26262949999999996,0.7307915,-0.1004225,0.1195305,0.5358715000000001,-0.0400175,0.1919505,0.7649515,-0.1421195,-0.2455495,0.9818415,-0.1841195,0.16896049999999999,1.0328215,-0.1965095,-0.0599465,-0.0030304999999999985,0.005282499999999999,0.0599465,0.003030500000000002,-0.005282500000000001,-0.1390095,-0.3556085,-0.0615305,0.1175905,-0.3508885,-0.0910645,-0.2045095,-0.9054584999999999,-0.021760500000000002,0.1958705,-0.9105384999999999,-0.039164500000000005
39,-0.037578,0.7104685000000001,-0.010839999999999999,-0.184319,0.5161985,-0.014848,-0.264159,0.7301185,-0.110592,0.119251,0.5308085,-0.049179,0.192221,0.7642185,-0.150576,-0.24503900000000003,0.9742185,-0.191906,0.166651,1.0376185,-0.202586,-0.060297,-0.002925500000000001,0.005488,0.060297,0.002925500000000001,-0.005488,-0.141189,-0.35449149999999996,-0.066623,0.119071,-0.35000149999999997,-0.095448,-0.203789,-0.8977315,-0.026652,0.196651,-0.9030414999999999,-0.044184
40,-0.0376905,0.707992,-0.0194135,-0.18463749999999998,0.513712,-0.0224925,-0.2656975,0.7297819999999999,-0.1209565,0.1191925,0.527442,-0.0568805,0.1924625,0.765602,-0.1592665,-0.2441375,0.9691019999999999,-0.2002865,0.1636025,1.044272,-0.2089265,-0.0606335,-0.002793999999999998,0.005565500000000001,0.0606335,0.002793999999999998,-0.005565499999999999,-0.14358749999999998,-0.35320799999999997,-0.07151350000000001,0.12084249999999999,-0.348998,-0.0997965,-0.20303749999999998,-0.889348,-0.0311065,0.1972625,-0.8950480000000001,-0.0485795
41,-0.037717,0.705669,-0.027848499999999998,-0.18482200000000001,0.510869,-0.0302785,-0.266982,0.727719,-0.1307025,0.11921799999999999,0.5232289999999999,-0.0648265,0.193168,0.766759,-0.1680925,-0.24372200000000002,0.962399,-0.2084425,0.161668,1.0487289999999998,-0.2150625,-0.061021000000000006,-0.002676999999999999,0.005761499999999999,0.061021000000000006,0.002676999999999999,-0.005761499999999999,-0.14633200000000002,-0.351711,-0.0765245,0.12308799999999999,-0.347761,-0.1044775,-0.202182,-0.879651,-0.0352375,0.197938,-0.886111,-0.0526075
42,-0.0375205,0.703595,-0.03573,-0.1847775,0.5087050000000001,-0.037358,-0.2681375,0.726725,-0.13974,0.1193425,0.5182450000000001,-0.072469,0.1937625,0.767005,-0.17644,-0.2432975,0.956025,-0.21624,0.1600925,1.052105,-0.22083,-0.061408500000000005,-0.0025060000000000013,0.006062999999999999,0.061408500000000005,0.0025060000000000013,-0.006063000000000002,-0.1493575,-0.349985,-0.08131,0.1260925,-0.346135,-0.109184,-0.2013175,-0.869345,-0.038505,0.1988325,-0.875815,-0.055943
43,-0.037475499999999995,0.7013064999999999,-0.0431615,-0.18483549999999999,0.5066665,-0.0440615,-0.2692155,0.7234565,-0.1482135,0.1190945,0.5134565,-0.0797365,0.1939745,0.7676465,-0.1845435,-0.24342550000000002,0.9503665,-0.2237835,0.15853450000000002,1.0556665,-0.22618349999999998,-0.0617785,-0.002395499999999995,0.006314500000000001,0.0617785,0.002395499999999995,-0.006314500000000001,-0.1527555,-0.3481435,-0.0862855,0.1289145,-0.3443235,-0.11395549999999999,-0.2006755,-0.8582835,-0.0411505,0.19933450000000003,-0.8648535,-0.0588065
44,-0.037684,0.69945,-0.05015700000000001,-0.185074,0.50502,-0.050405000000000005,-0.270274,0.72091,-0.15601500000000001,0.118706,0.50927,-0.086412,0.194566,0.76163,-0.19229500000000002,-0.243614,0.9447,-0.23153500000000002,0.157156,1.05147,-0.23120500000000002,-0.062051999999999996,-0.002263000000000001,0.006554999999999998,0.062051999999999996,0.002263000000000001,-0.006555000000000002,-0.156434,-0.34603,-0.091382,0.131546,-0.3424,-0.11891399999999999,-0.200314,-0.84703,-0.043178,0.199706,-0.85375,-0.060756000000000004
45,-0.0378655,0.6973355,-0.0566705,-0.1851665,0.5053455,-0.0556055,-0.27077650000000003,0.7197155,-0.1633525,0.11837349999999999,0.5031955,-0.0931135,0.1952035,0.7571555,-0.19888250000000002,-0.24390650000000003,0.9485555,-0.23964249999999998,0.1563335,1.0479855,-0.23598249999999998,-0.0623275,-0.0020575000000000038,0.006651499999999998,0.0623275,0.00205749999999999,-0.006651500000000001,-0.1601565,-0.34356450000000005,-0.0965925,0.1341035,-0.34044450000000004,-0.1242085,-0.1999265,-0.8343245,-0.0443985,0.2001635,-0.8422945000000001,-0.0626665
46,-0.03822,0.6957300000000001,-0.0637625,-0.185563,0.50547,-0.0615345,-0.271333,0.7184400000000001,-0.17145649999999998,0.117867,0.49790999999999996,-0.1005605,0.195627,0.7536700000000001,-0.20586649999999998,-0.244603,0.95096,-0.24971649999999998,0.155687,1.04461,-0.24161649999999998,-0.062352,-0.002019999999999994,0.0066275000000000014,0.062352,0.002020000000000008,-0.006627499999999998,-0.164283,-0.34092,-0.1031735,0.13644699999999998,-0.33809999999999996,-0.13099349999999998,-0.199873,-0.82111,-0.0460995,0.200337,-0.8297599999999999,-0.0650515
47,-0.0385285,0.69281,-0.070518,-0.1859865,0.50488,-0.06675500000000001,-0.27194650000000004,0.7152900000000001,-0.179348,0.11751349999999999,0.49885999999999997,-0.10488,0.1954335,0.7490300000000001,-0.212678,-0.24538649999999998,0.95298,-0.26001799999999997,0.1552035,1.03999,-0.247668,-0.0624105,-0.002009999999999998,0.006541999999999999,0.0624105,0.002009999999999998,-0.006541999999999999,-0.16801649999999999,-0.33327,-0.109649,0.1386135,-0.32978,-0.138048,-0.1998165,-0.8079299999999999,-0.047321,0.2001535,-0.81704,-0.06695999999999999
48,-0.038785,0.69035,-0.0772735,-0.18586799999999998,0.50426,-0.0721595,-0.27262800000000004,0.7120200000000001,-0.1873245,0.11704200000000001,0.49861000000000005,-0.10978750000000001,0.195222,0.74411,-0.2194045,-0.24486800000000003,0.95475,-0.27133450000000003,0.15467199999999998,1.03515,-0.2536145,-0.062531,-0.0019299999999999873,0.006444499999999999,0.062531,0.001930000000000015,-0.006444500000000002,-0.17153800000000002,-0.32399999999999995,-0.11653450000000001,0.14067200000000002,-0.31981,-0.1455045,-0.20000800000000002,-0.7941099999999999,-0.0490845,0.19990200000000002,-0.8034999999999999,-0.0688915
49,-0.03880600000000001,0.687745,-0.0850005,-0.185753,0.504035,-0.0793405,-0.27343300000000004,0.709425,-0.19690249999999998,0.116447,0.497925,-0.1169765,0.19487700000000002,0.739485,-0.22802250000000002,-0.244793,0.9570350000000001,-0.2847025,0.15393700000000002,1.030635,-0.2614225,-0.062724,-0.0019850000000000145,0.006260500000000002,0.062724,0.0019849999999999868,-0.006260499999999999,-0.174863,-0.31311500000000003,-0.1253165,0.142297,-0.309075,-0.15477249999999998,-0.200283,-0.7795749999999999,-0.0528395,0.199447,-0.7892950000000001,-0.0726715
50,-0.039131,0.6840999999999999,-0.09307199999999999,-0.185525,0.50349,-0.087679,-0.274775,0.71198,-0.207341,0.115875,0.50036,-0.124122,0.193905,0.73541,-0.23683099999999999,-0.245805,0.96251,-0.298361,0.15332500000000002,1.02631,-0.273871,-0.06273899999999999,-0.0020900000000000085,0.0061319999999999986,0.06273899999999999,0.0020900000000000085,-0.0061319999999999986,-0.17882499999999998,-0.29788000000000003,-0.13680900000000001,0.143005,-0.29298,-0.166771,-0.201335,-0.76032,-0.056704,0.197665,-0.77009,-0.076296
51,-0.0393485,0.68031,-0.100593,-0.1853745,0.5023799999999999,-0.09565699999999999,-0.2763245,0.7126,-0.21806399999999998,0.1152455,0.50274,-0.130755,0.1927655,0.7314499999999999,-0.245684,-0.2469445,0.9621299999999999,-0.312224,0.15267550000000002,1.02211,-0.285944,-0.0626305,-0.0022999999999999965,0.0061230000000000034,0.0626305,0.0022999999999999965,-0.0061229999999999965,-0.1821345,-0.28303,-0.14785399999999999,0.1431855,-0.27834000000000003,-0.17809399999999997,-0.2025445,-0.74111,-0.060497999999999996,0.19571550000000001,-0.7524200000000001,-0.079425
52,-0.039862499999999995,0.67804,-0.1090155,-0.1851055,0.49943,-0.1047095,-0.2783155,0.7151099999999999,-0.2297365,0.1141145,0.5025,-0.1388135,0.1914345,0.7270399999999999,-0.2547165,-0.24849549999999998,0.95878,-0.3258865,0.1520045,1.01742,-0.2986865,-0.06224450000000001,-0.00274000000000002,0.005965499999999999,0.06224450000000001,0.0027399999999999924,-0.005965499999999999,-0.1853555,-0.26871,-0.15871649999999998,0.1429645,-0.26465,-0.1899165,-0.2040355,-0.7213,-0.0645825,0.1933745,-0.73457,-0.0826065
53,-0.040041999999999994,0.673575,-0.116988,-0.18489699999999998,0.49675500000000006,-0.113999,-0.280007,0.714555,-0.241425,0.112943,0.502115,-0.147225,0.189813,0.728605,-0.264115,-0.250057,0.956025,-0.339055,0.15066300000000002,1.018715,-0.31191500000000005,-0.061795,-0.003275,0.0057929999999999995,0.061795,0.003275,-0.0057929999999999995,-0.18833699999999998,-0.254335,-0.169855,0.142603,-0.250865,-0.201435,-0.205597,-0.701055,-0.06886400000000001,0.190983,-0.716875,-0.085662
54,-0.0402575,0.6706,-0.125492,-0.18475149999999999,0.49456,-0.122466,-0.2815915,0.71242,-0.25235,0.1118585,0.5027,-0.15528999999999998,0.1882585,0.72886,-0.27404,-0.2513515,0.95192,-0.35176,0.1492485,1.01871,-0.32529,-0.0613125,-0.003709999999999991,0.005823000000000002,0.0613125,0.003709999999999991,-0.005823000000000002,-0.1909315,-0.24099,-0.18078,0.1421685,-0.23831,-0.21273999999999998,-0.2070215,-0.68235,-0.072801,0.18852850000000002,-0.6999000000000001,-0.088137
55,-0.040967500000000004,0.6691100000000001,-0.13730900000000001,-0.18528050000000001,0.49319,-0.133879,-0.2837705,0.71206,-0.265694,0.11026949999999999,0.50378,-0.16614400000000001,0.18597950000000002,0.72749,-0.287024,-0.25322049999999996,0.95028,-0.367284,0.14706950000000002,1.0171999999999999,-0.341264,-0.0609655,-0.0036299999999999666,0.005801000000000001,0.0609655,0.003630000000000022,-0.005801000000000001,-0.19394050000000002,-0.22630999999999996,-0.194474,0.14090950000000002,-0.22514999999999996,-0.226054,-0.2090705,-0.66213,-0.07931099999999999,0.18549949999999998,-0.68147,-0.09300900000000001
56,-0.041741999999999994,0.6679949999999999,-0.149424,-0.18583999999999998,0.49165499999999995,-0.14499,-0.28583000000000003,0.7102849999999999,-0.279051,0.1086,0.5047649999999999,-0.176651,0.18352000000000002,0.7257049999999999,-0.299851,-0.25492000000000004,0.946885,-0.382671,0.14485,1.015175,-0.35746100000000003,-0.060619,-0.0035550000000000304,0.005735999999999998,0.060619,0.003554999999999975,-0.005735999999999998,-0.19688,-0.21181500000000003,-0.20819100000000001,0.13948000000000002,-0.21220500000000003,-0.239241,-0.21114,-0.643085,-0.08590199999999999,0.18200000000000002,-0.664065,-0.098257
57,-0.042396,0.66735,-0.1615455,-0.18627300000000002,0.49078,-0.1553285,-0.28778299999999996,0.7076899999999999,-0.2918505,0.10692700000000001,0.50684,-0.18625049999999999,0.18117699999999998,0.72296,-0.3124905,-0.25638299999999997,0.9432,-0.39766050000000003,0.142677,1.01216,-0.3737705,-0.0601,-0.003689999999999971,0.005760500000000002,0.0601,0.0036900000000000266,-0.005760500000000002,-0.199763,-0.19733,-0.2213705,0.137767,-0.19890999999999998,-0.2532505,-0.213113,-0.62428,-0.0918075,0.178317,-0.64687,-0.1031955
58,-0.042616,0.66767,-0.1717955,-0.185901,0.48782000000000003,-0.1646145,-0.289061,0.70486,-0.3021055,0.106189,0.50534,-0.1948955,0.179359,0.72061,-0.32298550000000004,-0.25717100000000004,0.9375500000000001,-0.4105955,0.141199,1.00954,-0.3879855,-0.059631,-0.00384000000000001,0.005917500000000006,0.059631,0.00384000000000001,-0.005917499999999992,-0.202061,-0.18147999999999997,-0.2325055,0.136469,-0.18427,-0.2646455,-0.214541,-0.60574,-0.09512449999999999,0.175259,-0.62948,-0.10581849999999998
59,-0.042771,0.6681250000000001,-0.1813855,-0.18554600000000002,0.485005,-0.1721055,-0.289766,0.698435,-0.3117355,0.106034,0.501735,-0.2025555,0.178044,0.716065,-0.3334355,-0.257266,0.927925,-0.4225255,0.140084,1.005105,-0.3975855,-0.059233999999999995,-0.004154999999999964,0.006033499999999997,0.059233999999999995,0.00415500000000002,-0.006033499999999997,-0.20369600000000002,-0.17069499999999999,-0.2402655,0.135274,-0.173815,-0.27241550000000003,-0.215526,-0.592515,-0.09772349999999999,0.173014,-0.617505,-0.1079325
60,-0.042872499999999994,0.669105,-0.1913415,-0.1848495,0.482765,-0.1798015,-0.29016949999999997,0.6933849999999999,-0.3217215,0.1060705,0.49868499999999993,-0.2105715,0.1769905,0.712795,-0.3440715,-0.2567395,0.9249649999999999,-0.4341815,0.13935050000000002,1.0018349999999998,-0.40790150000000003,-0.0589455,-0.004115000000000035,0.006141499999999994,0.0589455,0.00411499999999998,-0.006141500000000008,-0.2050695,-0.15860500000000005,-0.24870150000000002,0.1343505,-0.16168500000000002,-0.2806015,-0.2162395,-0.578675,-0.1003175,0.1711505,-0.603905,-0.10971850000000001
61,-0.0424835,0.66906,-0.2002815,-0.1840535,0.48170999999999997,-0.1864115,-0.2900935,0.68919,-0.3309615,0.1068565,0.49666,-0.2173815,0.1764165,0.70933,-0.35439149999999997,-0.2550935,0.9254699999999999,-0.44624149999999996,0.13923649999999999,0.99852,-0.41733149999999997,-0.0588955,-0.0037000000000000366,0.006257499999999999,0.0588955,0.003699999999999981,-0.006257499999999999,-0.2059835,-0.14669000000000004,-0.2565115,0.1339165,-0.14932000000000006,-0.2878115,-0.2164935,-0.5651200000000001,-0.10240949999999999,0.1697065,-0.59035,-0.11081949999999999
62,-0.042294000000000005,0.671305,-0.209621,-0.183199,0.480345,-0.192981,-0.29034899999999997,0.687485,-0.340941,0.107721,0.494545,-0.224101,0.17657099999999998,0.7065049999999999,-0.364991,-0.254469,0.926755,-0.458551,0.13937100000000002,0.992215,-0.431801,-0.058882000000000004,-0.0032849999999999824,0.006455000000000002,0.058882000000000004,0.0032849999999999824,-0.006455000000000002,-0.206509,-0.13853500000000002,-0.263881,0.133681,-0.14320500000000003,-0.295031,-0.216619,-0.551505,-0.104127,0.168481,-0.577685,-0.111494
63,-0.0422205,0.6717299999999999,-0.217488,-0.1822795,0.47949,-0.198628,-0.2905995,0.68685,-0.350358,0.1085505,0.49264,-0.22982799999999998,0.17662049999999999,0.70347,-0.37463799999999997,-0.2534495,0.92906,-0.470578,0.1397605,0.98715,-0.44462799999999997,-0.0588815,-0.0029000000000000137,0.006462000000000009,0.0588815,0.0029000000000000137,-0.0064619999999999955,-0.2069395,-0.13006,-0.26994799999999997,0.1335205,-0.13614999999999994,-0.30090799999999995,-0.2166895,-0.53817,-0.105153,0.1673805,-0.5644899999999999,-0.11151599999999999
64,-0.0416155,0.670715,-0.224393,-0.1807675,0.47763599999999995,-0.203933,-0.29015749999999996,0.685005,-0.360013,0.10985249999999999,0.48897499999999994,-0.235333,0.1772225,0.701495,-0.38398299999999996,-0.2518975,0.930975,-0.48156299999999996,0.14073249999999998,0.977955,-0.45775299999999997,-0.058673499999999996,-0.002735000000000043,0.006609000000000004,0.058673499999999996,0.0027349999999999874,-0.00660899999999999,-0.2065275,-0.12201499999999998,-0.275363,0.1341225,-0.12926500000000007,-0.30651300000000004,-0.21622750000000002,-0.526575,-0.106103,0.1668325,-0.552805,-0.11163999999999999
65,-0.0408735,0.67006,-0.230923,-0.1792195,0.47547300000000003,-0.209883,-0.2895695,0.68484,-0.369203,0.1113005,0.485316,-0.241413,0.1776705,0.7003900000000001,-0.393783,-0.2503395,0.92517,-0.49210299999999996,0.1417905,0.97074,-0.47023299999999996,-0.0586435,-0.0026399999999999757,0.006607000000000002,0.0586435,0.002640000000000031,-0.006607000000000002,-0.2060395,-0.11273,-0.280783,0.1349105,-0.12104000000000004,-0.312293,-0.2156095,-0.51412,-0.107125,0.1668405,-0.53949,-0.11209
66,-0.040484000000000006,0.668675,-0.23691099999999998,-0.177957,0.473213,-0.215671,-0.28913700000000003,0.681065,-0.377901,0.112623,0.481121,-0.247751,0.177803,0.700445,-0.403371,-0.249557,0.920895,-0.501331,0.142603,0.9648650000000001,-0.482461,-0.05849,-0.0024150000000000005,0.006596000000000005,0.05849,0.0024150000000000005,-0.006596000000000005,-0.206007,-0.10278499999999996,-0.286261,0.13572299999999998,-0.11049499999999995,-0.316981,-0.215107,-0.501185,-0.10819000000000001,0.166423,-0.5259750000000001,-0.112765
67,-0.040750999999999996,0.6666150000000001,-0.2396365,-0.17757499999999998,0.47219000000000005,-0.2169665,-0.28925500000000004,0.677845,-0.3829765,0.113005,0.479818,-0.24933650000000002,0.17750500000000002,0.698485,-0.40920650000000003,-0.24981499999999998,0.918255,-0.5064664999999999,0.14247500000000002,0.958215,-0.4913465,-0.058400999999999995,-0.0020649999999999835,0.00674749999999999,0.058400999999999995,0.002065000000000039,-0.0067475000000000035,-0.206805,-0.09346500000000002,-0.2884565,0.13626500000000002,-0.10122500000000001,-0.3188465,-0.21470499999999998,-0.489135,-0.10623650000000001,0.16551500000000002,-0.513605,-0.1106715
68,-0.041235999999999995,0.66536,-0.242338,-0.177851,0.470603,-0.218388,-0.289711,0.67511,-0.387788,0.112669,0.478049,-0.251258,0.176839,0.698,-0.414438,-0.250481,0.91474,-0.512528,0.14174899999999999,0.95309,-0.500358,-0.05832899999999999,-0.0017599999999999838,0.006586999999999996,0.05832899999999999,0.0017599999999999838,-0.006587000000000003,-0.208161,-0.08386000000000005,-0.290748,0.136519,-0.09180999999999995,-0.32069800000000004,-0.214881,-0.47705,-0.104495,0.163689,-0.50205,-0.108261
69,-0.0417655,0.663105,-0.245568,-0.1782385,0.467699,-0.220478,-0.2901585,0.671575,-0.393188,0.1122715,0.476227,-0.253318,0.1760815,0.696505,-0.420268,-0.2508485,0.9074450000000001,-0.519638,0.1407815,0.947095,-0.509818,-0.0582775,-0.0019549999999999845,0.006223000000000006,0.0582775,0.0019549999999999845,-0.006222999999999999,-0.20967850000000002,-0.07490500000000005,-0.293228,0.1368415,-0.08305500000000005,-0.322828,-0.2151585,-0.465485,-0.103212,0.16152149999999998,-0.49125500000000005,-0.10611799999999999
70,-0.041662500000000005,0.660965,-0.24875950000000002,-0.1778315,0.46577900000000005,-0.22267949999999997,-0.28973150000000003,0.6673450000000001,-0.3989895,0.11247850000000001,0.47592100000000004,-0.2552595,0.1757685,0.6947450000000001,-0.42614949999999996,-0.2494615,0.8966050000000001,-0.5262295,0.1404785,0.9415450000000001,-0.5200895,-0.0582895,-0.002214999999999967,0.005852499999999997,0.0582895,0.0022150000000000225,-0.0058525000000000035,-0.2105715,-0.06595499999999999,-0.2960895,0.13787850000000001,-0.07477499999999992,-0.3252295,-0.2146615,-0.455955,-0.1022175,0.1602585,-0.480575,-0.1045215
71,-0.0416695,0.65863,-0.2522525,-0.1774545,0.46308699999999997,-0.2254725,-0.28909450000000003,0.6631,-0.4053025,0.1129255,0.474424,-0.2573725,0.1757755,0.69367,-0.4317925,-0.2480745,0.88552,-0.5328225,0.1405955,0.94009,-0.5258025,-0.0582695,-0.0024100000000000232,0.005544499999999994,0.0582695,0.0024099999999999677,-0.005544500000000001,-0.2112845,-0.05727000000000004,-0.2990125,0.1389655,-0.06701999999999997,-0.3279025,-0.2140845,-0.44706,-0.1021235,0.1584755,-0.47035000000000005,-0.1034475
72,-0.041758,0.65649,-0.255826,-0.177083,0.460013,-0.228636,-0.28820300000000004,0.65796,-0.41216600000000003,0.113357,0.473239,-0.259716,0.17577700000000002,0.69216,-0.437746,-0.24687299999999998,0.87416,-0.539666,0.140747,0.9378,-0.5321859999999999,-0.058303999999999995,-0.0027299999999999547,0.005382999999999999,0.058303999999999995,0.00273000000000001,-0.005382999999999999,-0.21190299999999998,-0.04898999999999998,-0.302186,0.14005700000000001,-0.05969000000000002,-0.330726,-0.213473,-0.4390299999999999,-0.102073,0.156637,-0.46016,-0.103335
73,-0.0419555,0.6539,-0.2594635,-0.1767435,0.45670700000000003,-0.2319735,-0.28707350000000004,0.6521,-0.4190935,0.11373649999999999,0.472229,-0.2622135,0.1759165,0.68983,-0.4434935,-0.24623350000000002,0.86206,-0.5486135,0.1406665,0.94074,-0.5381135,-0.0583085,-0.003190000000000026,0.005271499999999998,0.0583085,0.003190000000000026,-0.005271500000000005,-0.2122735,-0.04122999999999999,-0.30499350000000003,0.14095649999999998,-0.05298999999999998,-0.3335835,-0.21276350000000002,-0.43106,-0.10277750000000001,0.1548765,-0.45126,-0.1043165
74,-0.042238,0.6507400000000001,-0.2629815,-0.17646099999999998,0.4531510000000001,-0.2351515,-0.286061,0.6459100000000001,-0.4267915,0.114039,0.47078200000000003,-0.2646215,0.17594900000000002,0.6867400000000001,-0.44896149999999996,-0.245941,0.8578100000000001,-0.5585415,0.13853900000000002,0.9422200000000001,-0.5444615,-0.058370000000000005,-0.003569999999999962,0.005276500000000003,0.058370000000000005,0.003570000000000073,-0.0052764999999999965,-0.212561,-0.03385999999999989,-0.3071715,0.14155900000000002,-0.04652999999999996,-0.33596149999999997,-0.211831,-0.42389,-0.10360549999999999,0.153099,-0.44297999999999993,-0.10546649999999999
75,-0.0425515,0.6466949999999999,-0.26634800000000003,-0.1760465,0.44849799999999995,-0.23804799999999998,-0.28519649999999996,0.642145,-0.43452799999999997,0.1142235,0.46857299999999996,-0.266768,0.17593350000000002,0.6828649999999999,-0.45411799999999997,-0.2460965,0.8499049999999999,-0.568438,0.1379335,0.943395,-0.550928,-0.0584495,-0.003955000000000042,0.005281999999999995,0.0584495,0.003954999999999931,-0.005282000000000002,-0.2129565,-0.02678500000000006,-0.308348,0.14209349999999998,-0.04029500000000008,-0.337688,-0.21076650000000002,-0.41727500000000006,-0.103681,0.1512735,-0.4350250000000001,-0.10688500000000001
76,-0.042897500000000005,0.6426000000000001,-0.269446,-0.1756985,0.44451,-0.240746,-0.2844185,0.6373,-0.442026,0.1141015,0.466372,-0.26857600000000004,0.1758015,0.67975,-0.459366,-0.2463785,0.8419099999999999,-0.577806,0.1374315,0.94216,-0.559056,-0.0585345,-0.0042600000000000415,0.005213000000000002,0.0585345,0.0042600000000000415,-0.005213000000000002,-0.2133585,-0.019889999999999963,-0.308576,0.1426115,-0.03493000000000002,-0.338976,-0.2093885,-0.41108,-0.103854,0.1497115,-0.42762999999999995,-0.109037
77,-0.0434075,0.638094,-0.272196,-0.1755075,0.4406300000000001,-0.243726,-0.2841175,0.630268,-0.44973599999999997,0.1136225,0.46368100000000007,-0.270856,0.1757425,0.67615,-0.46498599999999995,-0.2456875,0.8341700000000001,-0.587166,0.1371325,0.9415,-0.567176,-0.058623499999999995,-0.0042999999999999705,0.005070999999999999,0.058623499999999995,0.0043000000000000815,-0.005070999999999999,-0.21433750000000001,-0.0136099999999999,-0.309246,0.1428825,-0.030239999999999934,-0.340796,-0.2080775,-0.4058299999999999,-0.104683,0.1482725,-0.42060999999999993,-0.11210500000000001
78,-0.044091000000000005,0.633498,-0.275563,-0.17563,0.43745999999999996,-0.24699300000000002,-0.28428000000000003,0.623359,-0.457113,0.1126,0.461061,-0.273393,0.17543,0.67117,-0.470873,-0.24570999999999998,0.82845,-0.596393,0.13665,0.93233,-0.575563,-0.058743000000000004,-0.0042600000000000415,0.004957999999999997,0.058743000000000004,0.0042600000000000415,-0.004957999999999997,-0.21586,-0.00766,-0.310743,0.14259,-0.025560000000000027,-0.343193,-0.20681,-0.40091,-0.10597799999999999,0.14763,-0.41384,-0.11619199999999999
79,-0.044789999999999996,0.628694,-0.279078,-0.175812,0.43396999999999997,-0.250328,-0.284702,0.6163179999999999,-0.46364800000000006,0.111478,0.45826999999999996,-0.276088,0.175068,0.6663899999999999,-0.476668,-0.24645199999999998,0.82484,-0.6062080000000001,0.13611800000000002,0.92309,-0.5835980000000001,-0.058799000000000004,-0.0042200000000000015,0.004794999999999994,0.058799000000000004,0.0042200000000000015,-0.004795000000000008,-0.21773199999999998,-0.0022199999999999998,-0.312668,0.141598,-0.02135000000000009,-0.345688,-0.20571199999999998,-0.39487000000000005,-0.10711000000000001,0.14655800000000002,-0.40795000000000003,-0.12104200000000001
80,-0.0450565,0.6230529999999999,-0.282703,-0.1755265,0.4308049999999999,-0.253593,-0.28470650000000003,0.6099519999999999,-0.469593,0.1107635,0.4562449999999999,-0.279373,0.1750635,0.6617519999999999,-0.482593,-0.2470865,0.8213249999999999,-0.616173,0.1359735,0.9147649999999998,-0.5915429999999999,-0.058969499999999994,-0.00419500000000006,0.004927000000000001,0.058969499999999994,0.004194999999999949,-0.004926999999999994,-0.21940649999999998,0.003474999999999895,-0.314623,0.14049350000000002,-0.016445000000000154,-0.34852299999999997,-0.2038865,-0.38839500000000016,-0.108581,0.1463535,-0.40129500000000007,-0.125384
81,-0.044964000000000004,0.618665,-0.2860585,-0.17494,0.42845,-0.25640850000000004,-0.28432,0.60456,-0.4744385,0.11031,0.45353,-0.2823485,0.17559999999999998,0.657249,-0.48793850000000005,-0.24726,0.81775,-0.6251185,0.13651999999999997,0.90579,-0.5994885,-0.059136999999999995,-0.0040000000000000036,0.005122500000000002,0.059136999999999995,0.0040000000000000036,-0.005122500000000002,-0.2209,0.009070000000000022,-0.3156085,0.1391,-0.011450000000000071,-0.35105850000000005,-0.20136,-0.38187000000000004,-0.1090155,0.14678999999999998,-0.39456,-0.1295125
82,-0.044635999999999995,0.6147790000000001,-0.289238,-0.174288,0.42664,-0.259228,-0.283818,0.5993580000000001,-0.478208,0.109872,0.45113000000000003,-0.285138,0.17638199999999998,0.653545,-0.49320800000000004,-0.24687800000000001,0.8140400000000001,-0.632038,0.13758199999999998,0.89666,-0.6076280000000001,-0.059331999999999996,-0.0038199999999999346,0.005332000000000003,0.059331999999999996,0.0038200000000000456,-0.005332000000000003,-0.222298,0.014250000000000096,-0.315808,0.137632,-0.006859999999999977,-0.35372800000000004,-0.198638,-0.37595999999999996,-0.108899,0.14735199999999998,-0.3887999999999999,-0.13398300000000002
83,-0.044279,0.6114269999999999,-0.292066,-0.17367000000000002,0.42517,-0.262076,-0.28357,0.594624,-0.48102599999999995,0.1094,0.44914,-0.287906,0.17701,0.6501669999999999,-0.49786600000000003,-0.24646,0.81045,-0.6380359999999999,0.13899999999999998,0.88798,-0.615256,-0.059567999999999996,-0.0036399999999999766,0.005552000000000001,0.059567999999999996,0.0036399999999999766,-0.005552000000000001,-0.22387,0.01907000000000003,-0.315346,0.13573,-0.00266999999999995,-0.35639600000000005,-0.19612000000000002,-0.37019,-0.108846,0.14804,-0.3832,-0.139038
84,-0.0440695,0.6088399999999999,-0.2946335,-0.17331249999999998,0.42457999999999996,-0.2646635,-0.28394250000000004,0.5913849999999999,-0.4835635,0.1090375,0.44764999999999994,-0.29044349999999997,0.17737750000000002,0.646817,-0.5016134999999999,-0.2467825,0.8088299999999999,-0.6434534999999999,0.1406075,0.8788099999999999,-0.6221835,-0.0597675,-0.0034600000000000186,0.005649500000000002,0.0597675,0.0034599999999999076,-0.005649500000000002,-0.22557249999999998,0.023189999999999933,-0.31377350000000004,0.1333675,0.0009799999999999809,-0.3587835,-0.19399249999999998,-0.3655400000000001,-0.1086165,0.14898750000000002,-0.3784900000000001,-0.14314749999999998
85,-0.0441575,0.6065499999999999,-0.297142,-0.1733415,0.4237499999999999,-0.26696200000000003,-0.2849015,0.5879409999999999,-0.48600200000000005,0.1084685,0.44618999999999986,-0.292912,0.1774585,0.6434599999999999,-0.504482,-0.2488015,0.8068699999999999,-0.648042,0.1423885,0.8716499999999999,-0.626722,-0.0599115,-0.003330000000000055,0.005732000000000001,0.0599115,0.003329999999999944,-0.005732000000000001,-0.2275115,0.02690999999999988,-0.311572,0.1307385,0.0048399999999999554,-0.361042,-0.1924315,-0.3616800000000001,-0.108755,0.1493385,-0.3746600000000001,-0.145684
86,-0.0443805,0.6052379999999999,-0.2998385,-0.1733595,0.42352999999999996,-0.2686585,-0.2860595,0.587016,-0.48812849999999997,0.1075405,0.44388999999999995,-0.2946485,0.1774005,0.640358,-0.5073385,-0.2514995,0.80453,-0.6518185,0.1442005,0.8639399999999999,-0.6315284999999999,-0.0600305,-0.003130000000000077,0.005770499999999998,0.0600305,0.003129999999999966,-0.005770499999999998,-0.2293395,0.029999999999999916,-0.3095585,0.1278905,0.007929999999999993,-0.3633985,-0.1909795,-0.35819,-0.1090905,0.1498705,-0.37157000000000007,-0.1486445
87,-0.0447075,0.6045470000000001,-0.302294,-0.1734385,0.42347999999999997,-0.270264,-0.2873085,0.586505,-0.489854,0.1065615,0.4417,-0.296334,0.1774015,0.63803,-0.510424,-0.2542185,0.80342,-0.6547040000000001,0.1445015,0.86463,-0.636124,-0.0600585,-0.0029200000000000337,0.0057920000000000055,0.0600585,0.0029200000000000337,-0.0057920000000000055,-0.2311485,0.03183999999999998,-0.307734,0.1246815,0.009770000000000056,-0.365774,-0.1900885,-0.35580999999999996,-0.110027,0.1499315,-0.37112999999999996,-0.153267
88,-0.0450745,0.6046919999999999,-0.3049875,-0.1734805,0.42344499999999996,-0.2717675,-0.28864049999999997,0.586938,-0.49154749999999997,0.10549950000000001,0.43954499999999996,-0.2984275,0.1770395,0.6374509999999999,-0.5140875,-0.2571305,0.803765,-0.6581875,0.1447095,0.8649349999999999,-0.6409075000000001,-0.0600555,-0.002735000000000043,0.0058404999999999985,0.0600555,0.002734999999999932,-0.0058404999999999985,-0.2327605,0.0326749999999999,-0.3061975,0.1214795,0.010694999999999899,-0.36847749999999996,-0.18978050000000002,-0.35380500000000004,-0.11190549999999999,0.1509095,-0.3695250000000001,-0.1570835
89,-0.045366500000000004,0.6046919999999999,-0.3073075,-0.1735415,0.42344499999999996,-0.2729975,-0.2899515,0.586938,-0.49253749999999996,0.1046985,0.4391449999999999,-0.3000075,0.1767185,0.6374509999999999,-0.5174175,-0.2600415,0.803765,-0.6614875,0.1448285,0.8649349999999999,-0.6445475,-0.0600545,-0.002735000000000043,0.006015499999999993,0.0600545,0.002734999999999932,-0.006015500000000007,-0.2341315,0.03312499999999996,-0.3044975,0.1186885,0.011574999999999891,-0.37071750000000003,-0.1899815,-0.35267500000000007,-0.1144965,0.1512985,-0.3692850000000001,-0.1606195
90,-0.045620999999999995,0.6046919999999999,-0.309661,-0.17379,0.42344499999999996,-0.274301,-0.29133,0.586938,-0.493041,0.10408,0.4391449999999999,-0.301761,0.17633,0.6374509999999999,-0.5210710000000001,-0.26299999999999996,0.803765,-0.665091,0.14473999999999998,0.8649349999999999,-0.648611,-0.06006,-0.002735000000000043,0.006228999999999998,0.06006,0.002734999999999932,-0.006229000000000012,-0.23533,0.034074999999999966,-0.303541,0.11666,0.012634999999999952,-0.373201,-0.19041000000000002,-0.3520150000000001,-0.11853200000000001,0.15164,-0.3682550000000001,-0.164118
91,-0.0459005,0.6046919999999999,-0.31164650000000005,-0.17415950000000002,0.42344499999999996,-0.2756965,-0.2926695,0.586938,-0.4928665,0.1036005,0.4391449999999999,-0.3036665,0.1756105,0.6374509999999999,-0.5237665,-0.2657795,0.803765,-0.6673365,0.1446005,0.8649349999999999,-0.6527265,-0.060063500000000006,-0.002735000000000043,0.006413499999999989,0.060063500000000006,0.002734999999999932,-0.0064135000000000025,-0.23642950000000001,0.035274999999999945,-0.30303650000000004,0.1150705,0.013944999999999874,-0.3756165,-0.19083950000000002,-0.35063500000000003,-0.12262750000000001,0.15211049999999998,-0.3668850000000001,-0.16654750000000001
92,-0.0464555,0.6058429999999999,-0.313355,-0.1749295,0.4232899999999999,-0.276865,-0.29446950000000005,0.5862689999999999,-0.49234500000000003,0.1029205,0.43686999999999987,-0.305585,0.1746905,0.6366809999999999,-0.526205,-0.26841950000000003,0.8031699999999999,-0.668215,0.1437505,0.8640599999999998,-0.6570849999999999,-0.060026499999999997,-0.0025000000000000577,0.006504999999999997,0.060026499999999997,0.0024999999999999467,-0.006504999999999997,-0.2374295,0.034479999999999844,-0.302865,0.1141505,0.01311999999999991,-0.377945,-0.1916895,-0.3512200000000001,-0.126986,0.1521605,-0.36784000000000006,-0.16905599999999998
93,-0.047265,0.606803,-0.31421,-0.17572500000000002,0.424435,-0.27756,-0.296765,0.585817,-0.49207,0.102105,0.437415,-0.30655,0.17346499999999998,0.6373489999999999,-0.52847,-0.271045,0.802775,-0.66843,0.142795,0.863845,-0.66058,-0.059992,-0.0025049999999999795,0.006510000000000002,0.059992,0.0025049999999999795,-0.006510000000000002,-0.238235,0.03230500000000003,-0.3036,0.11324500000000001,0.010904999999999943,-0.3802,-0.19337500000000002,-0.35301499999999997,-0.132093,0.15173499999999998,-0.370235,-0.171929
94,-0.047869,0.608193,-0.31486000000000003,-0.17641199999999999,0.4255,-0.27797,-0.298882,0.587649,-0.49194000000000004,0.10142799999999999,0.43746000000000007,-0.30745,0.17252800000000001,0.6380490000000001,-0.52977,-0.27289199999999997,0.8050200000000001,-0.6682,0.142208,0.86374,-0.66297,-0.059941,-0.0022699999999999942,0.006540000000000004,0.059941,0.0022699999999999942,-0.006540000000000004,-0.238982,0.028630000000000044,-0.305,0.11243800000000001,0.007369999999999988,-0.38239999999999996,-0.195112,-0.35649,-0.137626,0.152198,-0.37388,-0.175182
95,-0.048056999999999996,0.610744,-0.314555,-0.177126,0.4267249999999999,-0.278025,-0.29970600000000003,0.5896399999999999,-0.49149499999999996,0.100744,0.4376649999999999,-0.308145,0.171814,0.639481,-0.529755,-0.274166,0.8075349999999999,-0.6666850000000001,0.141674,0.8702449999999999,-0.663145,-0.059828,-0.002075000000000049,0.006614999999999996,0.059828,0.002074999999999938,-0.006614999999999996,-0.239786,0.02316499999999988,-0.306245,0.11166400000000001,0.0023849999999999705,-0.38331499999999996,-0.196886,-0.36221500000000006,-0.142835,0.151974,-0.3795950000000001,-0.177943
96,-0.04808,0.6140110000000001,-0.31355,-0.17783700000000002,0.428285,-0.27754999999999996,-0.300397,0.593268,-0.49073,0.100423,0.43783500000000003,-0.30798,0.17095300000000002,0.642074,-0.52835,-0.27536700000000003,0.8099350000000001,-0.66364,0.141123,0.875765,-0.66234,-0.059739,-0.001794999999999991,0.006659999999999999,0.059739,0.001794999999999991,-0.006659999999999985,-0.24056699999999998,0.01631500000000008,-0.30737,0.111393,-0.004164999999999974,-0.38356,-0.198787,-0.3695649999999999,-0.14784499999999998,0.151443,-0.38726499999999997,-0.179997
97,-0.047904499999999996,0.6180720000000001,-0.311685,-0.1784305,0.42941000000000007,-0.276485,-0.3010405,0.597375,-0.48911499999999997,0.10035949999999999,0.43822000000000005,-0.307045,0.1703695,0.6454040000000001,-0.525845,-0.2762905,0.8157000000000001,-0.659165,0.1407495,0.88107,-0.659485,-0.059686499999999997,-0.0017300000000000093,0.006605,0.059686499999999997,0.0017300000000000093,-0.006605,-0.24073050000000001,0.007759999999999989,-0.30845500000000003,0.11172950000000001,-0.012329999999999952,-0.383205,-0.2006905,-0.37825,-0.152513,0.1509995,-0.39696999999999993,-0.181464
98,-0.047427,0.6219790000000001,-0.309195,-0.178801,0.43248000000000003,-0.27502499999999996,-0.301711,0.602634,-0.48512500000000003,0.10084900000000001,0.43971000000000005,-0.305515,0.16994900000000002,0.64876,-0.522375,-0.277081,0.82176,-0.654295,0.141039,0.8856200000000001,-0.6549349999999999,-0.059626,-0.0014999999999999458,0.00659499999999999,0.059626,0.0015000000000000568,-0.006595000000000004,-0.240621,-0.003229999999999955,-0.309435,0.112819,-0.02242999999999995,-0.381575,-0.203101,-0.38949999999999996,-0.156781,0.15068900000000002,-0.4094899999999999,-0.183097
99,-0.046496,0.626775,-0.30586,-0.178763,0.43551399999999996,-0.27295,-0.302663,0.6075849999999999,-0.48077,0.10186699999999999,0.44155599999999995,-0.30322,0.170147,0.6541899999999999,-0.51678,-0.277053,0.82745,-0.64819,0.14193699999999998,0.89094,-0.6485000000000001,-0.059567,-0.0013600000000000279,0.00656000000000001,0.059567,0.0013599999999999168,-0.00656000000000001,-0.239543,-0.015070000000000028,-0.30943,0.114837,-0.03322000000000003,-0.37898,-0.204963,-0.40115,-0.160188,0.150807,-0.42325,-0.183543
100,-0.045483,0.63137,-0.30174500000000004,-0.17872500000000002,0.437338,-0.27049500000000004,-0.303845,0.61516,-0.476555,0.10300499999999999,0.442971,-0.300345,0.170425,0.6583600000000001,-0.5113650000000001,-0.277095,0.83365,-0.6412150000000001,0.14293499999999998,0.89662,-0.641025,-0.059566,-0.0011299999999999644,0.0064750000000000085,0.059566,0.0011299999999999644,-0.0064750000000000085,-0.238185,-0.028189999999999937,-0.309255,0.11746499999999999,-0.044520000000000004,-0.375255,-0.207015,-0.41498999999999997,-0.163303,0.15079499999999998,-0.43835,-0.18379800000000002
101,-0.0442135,0.636425,-0.297115,-0.17816949999999998,0.441309,-0.26695500000000005,-0.3035295,0.6219250000000001,-0.471775,0.1041705,0.447763,-0.29618500000000003,0.1711805,0.662965,-0.505005,-0.2768495,0.8382050000000001,-0.633175,0.14446050000000002,0.901605,-0.632545,-0.0595175,-0.0011749999999999816,0.006414999999999976,0.0595175,0.0011749999999999816,-0.006415000000000004,-0.2362795,-0.042385000000000006,-0.308535,0.12037050000000002,-0.05702499999999999,-0.37073500000000004,-0.2085795,-0.430855,-0.16534200000000002,0.1509405,-0.455315,-0.18344000000000002
102,-0.0429265,0.64141,-0.293015,-0.1775145,0.444333,-0.26409499999999997,-0.3028845,0.62904,-0.466425,0.10449549999999999,0.450283,-0.293025,0.1714755,0.66703,-0.49800500000000003,-0.27631449999999996,0.84628,-0.624705,0.1459455,0.90808,-0.624575,-0.0594795,-0.0008799999999999919,0.0064649999999999985,0.0594795,0.0008799999999999919,-0.0064649999999999985,-0.2338245,-0.05688000000000004,-0.307235,0.1231555,-0.06955,-0.36534500000000003,-0.2100345,-0.44792999999999994,-0.16705799999999998,0.1509355,-0.47280999999999995,-0.18303
103,-0.04141249999999999,0.64669,-0.288405,-0.17699749999999997,0.44668100000000005,-0.26148499999999997,-0.3015175,0.63514,-0.459715,0.1051425,0.451404,-0.289865,0.17274250000000002,0.6716500000000001,-0.490365,-0.2751575,0.85233,-0.615885,0.1479225,0.9191,-0.615355,-0.059428499999999995,-0.0008699999999999819,0.0064750000000000085,0.059428499999999995,0.0008700000000000374,-0.006474999999999981,-0.23075749999999998,-0.07135000000000002,-0.305175,0.1259425,-0.08051999999999992,-0.359155,-0.21099749999999998,-0.46507,-0.16840599999999997,0.1509425,-0.4922099999999999,-0.18220599999999998
104,-0.0404895,0.6514,-0.28362,-0.1769915,0.45164099999999996,-0.25864,-0.29992149999999995,0.6427,-0.45194,0.1052385,0.455793,-0.28619,0.1738085,0.67469,-0.48235,-0.27370150000000004,0.86027,-0.60595,0.1499885,0.92198,-0.60686,-0.0593925,-0.0009000000000000119,0.0064499999999999835,0.0593925,0.0009000000000000119,-0.006450000000000011,-0.2277915,-0.08684999999999998,-0.30249000000000004,0.1280085,-0.09277000000000002,-0.35323000000000004,-0.2120115,-0.4837,-0.169274,0.1509385,-0.51309,-0.181462
105,-0.03990300000000001,0.655815,-0.278775,-0.17678,0.45535400000000004,-0.256075,-0.29868,0.648615,-0.443785,0.10533999999999999,0.45910700000000004,-0.28298500000000004,0.17461000000000002,0.679455,-0.474435,-0.27203,0.867495,-0.595575,0.15219,0.925125,-0.598125,-0.059372,-0.0010749999999999926,0.006394999999999984,0.059372,0.0010749999999999926,-0.006395000000000012,-0.22485,-0.10241500000000003,-0.299415,0.1297,-0.10469499999999998,-0.34687500000000004,-0.21287,-0.502375,-0.169795,0.15115,-0.5345449999999999,-0.181314
106,-0.03952,0.6599299999999999,-0.27362000000000003,-0.17678499999999997,0.459933,-0.25313,-0.29661499999999996,0.65479,-0.43481000000000003,0.10537500000000001,0.461924,-0.27948000000000006,0.17534500000000003,0.68241,-0.46617000000000003,-0.271395,0.87271,-0.58364,0.15457500000000002,0.92757,-0.5889,-0.059308,-0.0008900000000000019,0.006259999999999988,0.059308,0.0008900000000000019,-0.0062600000000000156,-0.22192499999999998,-0.11802000000000001,-0.29495000000000005,0.130915,-0.11774000000000007,-0.34015000000000006,-0.21376499999999998,-0.52205,-0.17001300000000003,0.15081499999999998,-0.55682,-0.18095000000000003
107,-0.039337000000000004,0.6651450000000001,-0.268425,-0.17674700000000002,0.461633,-0.250045,-0.294617,0.663045,-0.427255,0.105043,0.46581700000000004,-0.27622500000000005,0.175953,0.6891050000000001,-0.457895,-0.269787,0.8827550000000001,-0.571705,0.15717299999999998,0.932555,-0.578955,-0.05921,-0.0011449999999999516,0.006164999999999976,0.05921,0.0011450000000000071,-0.006165000000000004,-0.218567,-0.13342499999999996,-0.289175,0.131653,-0.13055499999999998,-0.332835,-0.21407700000000002,-0.542735,-0.17008,0.150503,-0.578705,-0.18055400000000002
108,-0.039136000000000004,0.668415,-0.262245,-0.176836,0.46205500000000005,-0.247075,-0.292776,0.670675,-0.419435,0.10426400000000001,0.46881500000000004,-0.273235,0.176354,0.694625,-0.449685,-0.268246,0.891475,-0.5606949999999999,0.159514,0.939345,-0.5693349999999999,-0.059077000000000005,-0.0013849999999999696,0.006154999999999994,0.059077000000000005,0.001385000000000025,-0.006154999999999994,-0.215596,-0.14868499999999996,-0.282975,0.131974,-0.14345499999999994,-0.324945,-0.214376,-0.5641649999999999,-0.17005499999999998,0.149974,-0.6003649999999999,-0.180033
109,-0.038947,0.669825,-0.254895,-0.177219,0.462245,-0.243175,-0.292009,0.6746650000000001,-0.40930500000000003,0.103531,0.47797500000000004,-0.269685,0.176891,0.701265,-0.440905,-0.26721900000000004,0.897005,-0.548045,0.160631,0.944665,-0.559845,-0.058744000000000005,-0.0025049999999999795,0.0061350000000000016,0.058744000000000005,0.0025049999999999795,-0.0061350000000000016,-0.211909,-0.158065,-0.27493500000000004,0.132181,-0.15630499999999997,-0.31737499999999996,-0.214689,-0.585235,-0.169747,0.149381,-0.621225,-0.179529
110,-0.038790000000000005,0.669355,-0.247085,-0.17799,0.45837500000000003,-0.239208,-0.29142999999999997,0.678965,-0.398645,0.10277,0.482445,-0.266475,0.17743,0.707865,-0.43144499999999997,-0.26652,0.908895,-0.535795,0.16268,0.949705,-0.549645,-0.058429,-0.0030349999999999544,0.005934999999999996,0.058429,0.00303500000000001,-0.005934999999999996,-0.20849,-0.16697499999999998,-0.266695,0.13252,-0.16723499999999997,-0.308605,-0.2147,-0.605055,-0.168856,0.14919,-0.639775,-0.17850100000000002
111,-0.03856949999999999,0.667725,-0.23852399999999999,-0.17857050000000002,0.454465,-0.23483199999999999,-0.2911805,0.682955,-0.38837,0.1016995,0.488375,-0.26352,0.17794949999999998,0.7153149999999999,-0.42261,-0.2656805,0.916965,-0.5241199999999999,0.16450950000000003,0.9523950000000001,-0.53826,-0.0580715,-0.0038750000000000173,0.005530000000000007,0.0580715,0.0038750000000000173,-0.005529999999999979,-0.2054105,-0.176205,-0.25848,0.13268950000000002,-0.17583500000000002,-0.29928,-0.2145105,-0.624465,-0.167517,0.1489395,-0.654965,-0.177252
112,-0.0384665,0.6614150000000001,-0.227971,-0.1796645,0.460345,-0.228692,-0.2911845,0.690175,-0.377715,0.10051550000000001,0.494065,-0.258855,0.1786355,0.723565,-0.412725,-0.2647545,0.923075,-0.510885,0.16702550000000002,0.956505,-0.526245,-0.0576525,-0.0037550000000000083,0.005275000000000002,0.0576525,0.0037550000000000083,-0.005275000000000002,-0.2022145,-0.188695,-0.24845499999999998,0.1326855,-0.189305,-0.288595,-0.2137945,-0.6470049999999999,-0.164517,0.14884550000000002,-0.672875,-0.174318
113,-0.038334,0.654405,-0.217155,-0.18093,0.463605,-0.22274099999999997,-0.29047,0.699605,-0.368345,0.09932,0.496175,-0.254955,0.17907,0.732615,-0.403835,-0.2637,0.929855,-0.497735,0.16967,0.966725,-0.5130250000000001,-0.057198,-0.003625000000000017,0.0050050000000000094,0.057198,0.0036249999999999893,-0.005004999999999982,-0.19893,-0.198295,-0.23823499999999997,0.13256,-0.200305,-0.27780499999999997,-0.21285,-0.666025,-0.161488,0.14907,-0.687485,-0.17199399999999998
114,-0.03822300000000001,0.6491800000000001,-0.20632599999999998,-0.182274,0.46981,-0.21683999999999998,-0.289404,0.7107700000000001,-0.3589,0.096486,0.49874,-0.25057999999999997,0.178806,0.73875,-0.39372,-0.26290399999999997,0.93845,-0.48536,0.172636,0.97675,-0.49973999999999996,-0.05677700000000001,-0.0031799999999999884,0.004730000000000012,0.05677700000000001,0.003180000000000016,-0.004729999999999984,-0.195334,-0.20673999999999998,-0.227648,0.132296,-0.20877999999999997,-0.26582,-0.211704,-0.68367,-0.15836999999999998,0.149596,-0.6986399999999999,-0.169205
115,-0.0375885,0.6431199999999999,-0.194991,-0.1829325,0.47617,-0.210051,-0.28773249999999995,0.7219199999999999,-0.349175,0.09733750000000001,0.50038,-0.24595499999999998,0.1790875,0.7449600000000001,-0.382075,-0.26217250000000003,0.9467000000000001,-0.473145,0.1760575,0.98655,-0.486775,-0.0559485,-0.0027900000000000147,0.0045550000000000035,0.0559485,0.002789999999999987,-0.00455499999999999,-0.1914225,-0.21436,-0.21675699999999998,0.1323375,-0.21605000000000002,-0.253255,-0.2095225,-0.69977,-0.153854,0.1507475,-0.70834,-0.165818
116,-0.03707100000000001,0.6408,-0.18353799999999998,-0.18346099999999999,0.48407,-0.20302099999999998,-0.286721,0.72995,-0.339925,0.09841899999999999,0.5001599999999999,-0.24062499999999998,0.17923899999999998,0.74705,-0.369835,-0.261681,0.9504900000000001,-0.460345,0.179139,0.99321,-0.474935,-0.055256,-0.002019999999999994,0.004415000000000002,0.055256,0.0020200000000000218,-0.004414999999999988,-0.186641,-0.21827999999999997,-0.20404699999999998,0.13183899999999998,-0.22326999999999997,-0.239775,-0.20698100000000003,-0.7109099999999999,-0.14915699999999998,0.15185900000000002,-0.71734,-0.16218899999999997
117,-0.036211,0.637475,-0.171658,-0.183619,0.491055,-0.19442,-0.285269,0.738355,-0.328295,0.099811,0.499035,-0.233685,0.179581,0.748275,-0.356095,-0.26007899999999995,0.955145,-0.444615,0.182451,0.996905,-0.460415,-0.054589,-0.001695000000000002,0.004844999999999988,0.054589,0.001695000000000002,-0.004845000000000002,-0.181719,-0.223465,-0.190394,0.131391,-0.231345,-0.224755,-0.203749,-0.722515,-0.14241,0.153201,-0.726985,-0.156879
118,-0.03578049999999999,0.636015,-0.160995,-0.18396749999999998,0.499175,-0.186745,-0.2839075,0.7483249999999999,-0.31767,0.1009825,0.493515,-0.22612,0.1797825,0.7505649999999999,-0.34225,-0.2589375,0.962745,-0.43008,0.1854325,1.005035,-0.44528,-0.0539075,-0.0005549999999999999,0.005500000000000005,0.0539075,0.0005549999999999999,-0.005500000000000005,-0.1777675,-0.232925,-0.17841600000000002,0.1305425,-0.23885499999999998,-0.210119,-0.2006275,-0.731625,-0.135629,0.1543025,-0.7358450000000001,-0.151456
119,-0.035488,0.63594,-0.150332,-0.184334,0.5091100000000001,-0.17954399999999998,-0.28288399999999997,0.75942,-0.306315,0.10242599999999999,0.48971,-0.21848499999999998,0.180346,0.75228,-0.328075,-0.25868399999999997,0.97221,-0.415205,0.188116,1.01431,-0.430525,-0.053037,0.00021999999999999797,0.006205000000000002,0.053037,-0.00021999999999999797,-0.006205000000000002,-0.17361400000000002,-0.24064000000000002,-0.16606300000000002,0.128526,-0.24582000000000004,-0.195213,-0.197474,-0.7378,-0.1288,0.155116,-0.7438400000000001,-0.144602
120,-0.034951499999999996,0.63651,-0.1408665,-0.1844305,0.51907,-0.1721855,-0.28137049999999997,0.77032,-0.2937475,0.1044295,0.48427,-0.2106475,0.18206950000000002,0.75289,-0.3129375,-0.2579005,0.98198,-0.4000875,0.19063950000000002,1.02424,-0.4158075,-0.0524245,0.0010700000000000015,0.006912499999999988,0.0524245,-0.0010700000000000015,-0.006912500000000002,-0.1686405,-0.24731000000000003,-0.1535955,0.1272195,-0.25163,-0.1814155,-0.1939705,-0.74258,-0.1214215,0.1559295,-0.75054,-0.1378035
121,-0.0343155,0.6425050000000001,-0.1330815,-0.1838325,0.521655,-0.1657675,-0.2805225,0.7771649999999999,-0.2813995,0.1061475,0.481925,-0.2032295,0.1839275,0.752815,-0.2988695,-0.2563025,0.993965,-0.3852595,0.1929875,1.028835,-0.40223949999999997,-0.0523675,0.0008849999999999969,0.007500500000000007,0.0523675,-0.0008850000000000108,-0.007500499999999993,-0.1634025,-0.249585,-0.1431895,0.1259875,-0.253075,-0.1686855,-0.1862025,-0.7300150000000001,-0.1113745,0.1568475,-0.752705,-0.1324275
122,-0.033405000000000004,0.6505270000000001,-0.1214605,-0.183196,0.523847,-0.1538595,-0.279156,0.7795970000000001,-0.2640705,0.108754,0.482487,-0.1891785,0.186234,0.755447,-0.2804505,-0.25496599999999997,1.003507,-0.3665505,0.195494,1.029247,-0.38562050000000003,-0.052498,0.0004919999999999924,0.007786500000000002,0.052498,-0.0004920000000000063,-0.007786500000000002,-0.157586,-0.252803,-0.1299035,0.125134,-0.255213,-0.1523255,-0.178246,-0.7182230000000001,-0.09714350000000001,0.158114,-0.7554130000000001,-0.1228345
123,-0.0317215,0.6603305,-0.10213799999999999,-0.1819985,0.5242905,-0.131108,-0.2768885,0.7745905,-0.239806,0.1126915,0.48753050000000003,-0.164655,0.18933149999999999,0.7532605,-0.256016,-0.2527185,1.0001905,-0.33990600000000004,0.1986015,1.0273505,-0.36029599999999995,-0.0534575,-8.049999999999724e-05,0.007719000000000004,0.0534575,8.049999999999724e-05,-0.00771899999999999,-0.15026850000000003,-0.26618949999999997,-0.11020999999999999,0.1241015,-0.2689495,-0.130214,-0.16908849999999997,-0.7163295,-0.074472,0.1606415,-0.7690395,-0.106122
124,-0.030234500000000004,0.6706774999999999,-0.0831455,-0.1808415,0.5237475,-0.10940749999999999,-0.2744515,0.7693774999999999,-0.21516049999999998,0.1161485,0.4937975,-0.14117049999999998,0.1919885,0.7526475,-0.23324050000000002,-0.2505315,0.9994974999999999,-0.3147005,0.2016585,1.0267075,-0.3356605,-0.0544785,-0.0008094999999999908,0.007617499999999999,0.0544785,0.0008095000000000047,-0.007617499999999992,-0.1433915,-0.27865249999999997,-0.0920085,0.1230785,-0.2811625,-0.1088835,-0.1604215,-0.7137325,-0.052683499999999994,0.1629785,-0.7810925,-0.08932949999999999
125,-0.0288025,0.6760514999999999,-0.06487,-0.17970650000000002,0.5234615,-0.088381,-0.2723865,0.7637714999999999,-0.191642,0.11950350000000001,0.5011615,-0.118196,0.1945235,0.7527315,-0.21183200000000002,-0.2484565,0.9984115,-0.290382,0.2044735,1.0272615,-0.311892,-0.0554575,-0.001743499999999995,0.007528,0.0554575,0.001743500000000002,-0.007528,-0.1378565,-0.2919285,-0.076364,0.1222935,-0.2921785,-0.090951,-0.1521765,-0.7122885,-0.031229,0.16493349999999998,-0.7921085,-0.072242
126,-0.027555500000000004,0.683605,-0.0476595,-0.1786885,0.524905,-0.06832150000000001,-0.2702885,0.7586149999999999,-0.1699225,0.1260015,0.510185,-0.0956465,0.19804149999999998,0.753675,-0.1926925,-0.2469985,0.9975849999999999,-0.26722250000000003,0.2069015,1.028495,-0.2905725,-0.056410499999999995,-0.002139000000000002,0.006899499999999996,0.056410499999999995,0.002138999999999995,-0.006899499999999999,-0.1324785,-0.303435,-0.0617375,0.12156149999999999,-0.301345,-0.0749915,-0.14315850000000002,-0.708785,-0.009777500000000001,0.1673315,-0.803125,-0.0557695
127,-0.026620500000000002,0.6916209999999999,-0.0311845,-0.1779515,0.526361,-0.048460500000000004,-0.2688815,0.7530009999999999,-0.14967750000000002,0.12896849999999999,0.5178809999999999,-0.0747605,0.2015185,0.752991,-0.17465750000000002,-0.2459615,0.996041,-0.2459175,0.2089185,1.027071,-0.27063750000000003,-0.057401499999999994,-0.002551000000000001,0.0061224999999999995,0.057401499999999994,0.002551000000000001,-0.0061225,-0.1278215,-0.314779,-0.0471975,0.1206685,-0.310529,-0.0596295,-0.1346415,-0.7052590000000001,0.011838499999999998,0.1694485,-0.814389,-0.0393325
128,-0.025706999999999997,0.6997755,-0.014562499999999999,-0.177245,0.5258855,-0.0284955,-0.267535,0.7469655000000001,-0.1306725,0.131825,0.5255555000000001,-0.054039500000000004,0.204895,0.7522255000000001,-0.1578225,-0.24499500000000002,0.9885155000000001,-0.2258225,0.210895,1.0256455,-0.2516325,-0.058370000000000005,-0.0029145000000000004,0.0053365,0.058370000000000005,0.0029145000000000004,-0.0053365,-0.12360499999999999,-0.3267545,-0.033862500000000004,0.120975,-0.3220045,-0.0448785,-0.126405,-0.7025545,0.033598499999999996,0.171355,-0.8274144999999999,-0.023112499999999998
129,-0.024925000000000003,0.708104,0.0018145000000000019,-0.176677,0.525414,-0.008869499999999999,-0.266467,0.740654,-0.11266949999999999,0.134513,0.533314,-0.0336515,0.208073,0.751254,-0.1419295,-0.24410700000000002,0.980934,-0.2067695,0.212753,1.024224,-0.2338495,-0.059269,-0.0032569999999999995,0.004585500000000001,0.059269,0.0032570000000000003,-0.004585499999999999,-0.120027,-0.338216,-0.0209465,0.121223,-0.33328599999999997,-0.030412499999999995,-0.119947,-0.700476,0.0523485,0.173493,-0.840106,-0.006652499999999999
130,-0.024138500000000004,0.715146,0.017916500000000002,-0.1761895,0.527096,0.0102435,-0.2659095,0.733106,-0.0958715,0.1369405,0.540076,-0.014413500000000003,0.2109805,0.749036,-0.12700150000000002,-0.24338949999999998,0.970886,-0.1894915,0.2144205,1.021276,-0.2180115,-0.06006449999999999,-0.003532,0.003779499999999998,0.06006449999999999,0.0035319999999999995,-0.003779499999999998,-0.11703949999999999,-0.34917400000000004,-0.008663499999999998,0.1214705,-0.344254,-0.0162775,-0.1172095,-0.710444,0.06844349999999999,0.1755705,-0.852814,0.0092625
131,-0.023652,0.720717,0.029602499999999997,-0.17594700000000002,0.529347,0.023648499999999996,-0.266157,0.724917,-0.0839865,0.138633,0.543967,-0.0014555000000000054,0.21330300000000002,0.742977,-0.11644650000000001,-0.243597,0.9614670000000001,-0.17778650000000001,0.215723,1.0169569999999999,-0.2083965,-0.060628,-0.003472000000000001,0.0032634999999999956,0.060628,0.0034719999999999994,-0.0032635000000000025,-0.114967,-0.35914300000000005,-0.0012235000000000024,0.121383,-0.352453,-0.007713500000000005,-0.114907,-0.719793,0.0801865,0.17718299999999998,-0.8624229999999999,0.020552499999999998
132,-0.024023499999999996,0.721437,0.033362,-0.17625849999999998,0.529347,0.026233,-0.2675185,0.724917,-0.08080999999999999,0.1388615,0.543967,0.0007030000000000022,0.21395150000000002,0.742977,-0.11431,-0.24519849999999999,0.9614670000000001,-0.17603,0.2160115,1.0169569999999999,-0.20678,-0.060665500000000004,-0.003472000000000001,0.0031250000000000028,0.060665500000000004,0.0034719999999999994,-0.0031250000000000028,-0.11494849999999998,-0.359603,-0.002118000000000002,0.1213715,-0.352453,-0.007462000000000003,-0.1137685,-0.719793,0.08383299999999999,0.1776015,-0.862433,0.023831
133,-0.0243425,0.721707,0.036739,-0.1766335,0.529347,0.028962,-0.2698035,0.724917,-0.078634,0.1391165,0.543967,0.0032350000000000018,0.21542650000000002,0.742977,-0.11194399999999999,-0.24897350000000001,0.960137,-0.174064,0.2162165,1.0169569999999999,-0.205094,-0.0607115,-0.003472000000000001,0.0029870000000000035,0.0607115,0.0034719999999999994,-0.0029869999999999966,-0.11482350000000001,-0.36031300000000005,-0.002908999999999995,0.1211965,-0.352453,-0.007783999999999999,-0.1121435,-0.719913,0.087976,0.1781165,-0.8620129999999999,0.026636000000000003
134,-0.024624999999999998,0.721707,0.040064999999999996,-0.17707699999999998,0.529347,0.031653999999999995,-0.273467,0.724917,-0.07674500000000001,0.139423,0.543967,0.005941999999999996,0.21854300000000002,0.742977,-0.110185,-0.254877,0.955327,-0.172015,0.217033,1.0169569999999999,-0.203705,-0.060801999999999995,-0.003472000000000001,0.002821999999999998,0.060801999999999995,0.0034719999999999994,-0.002822000000000005,-0.114707,-0.361333,-0.0031820000000000043,0.12101300000000001,-0.352453,-0.007971000000000006,-0.110597,-0.7199829999999999,0.09199299999999999,0.178343,-0.861393,0.029492999999999995
135,-0.024985,0.7231464999999999,0.04391950000000001,-0.177667,0.5290965,0.03420550000000001,-0.278667,0.7216064999999999,-0.07487849999999999,0.139673,0.5432564999999999,0.008739500000000004,0.223553,0.7397864999999999,-0.1084385,-0.260177,0.9491265,-0.1706385,0.219813,1.0091965,-0.2055285,-0.060762,-0.0034995,0.0026195000000000038,0.060762,0.003499500000000001,-0.002619499999999997,-0.11485700000000001,-0.3613535,-0.003069499999999996,0.12091299999999999,-0.35239349999999997,-0.007945499999999994,-0.109207,-0.7185435,0.0956985,0.178723,-0.8619335,0.033099500000000004
136,-0.025361500000000002,0.7250595,0.047453,-0.17831850000000002,0.5284595,0.03673,-0.2857585,0.7161095000000001,-0.07230600000000001,0.1402415,0.5419795000000001,0.011548000000000003,0.2307515,0.7319495,-0.106846,-0.2667885,0.9420995,-0.171626,0.22388149999999998,0.9969095000000001,-0.209006,-0.0607325,-0.0034885000000000003,0.0025120000000000003,0.0607325,0.0034885000000000003,-0.0025120000000000003,-0.1150485,-0.3613405,-0.003009999999999999,0.1208015,-0.35236049999999997,-0.007843999999999997,-0.1093085,-0.7168605,0.096991,0.1790115,-0.8619805,0.036528000000000005
137,-0.025772000000000003,0.7272865000000001,0.050727499999999995,-0.179043,0.5272465000000001,0.0390755,-0.294633,0.7086865,-0.0697005,0.141057,0.5406765,0.014495499999999995,0.23928699999999997,0.7216665,-0.10546050000000001,-0.274153,0.9337565,-0.1753905,0.228877,0.9796965,-0.21500049999999998,-0.060694,-0.003531500000000001,0.002419499999999998,0.060694,0.0035315,-0.002419500000000005,-0.115243,-0.3613735,-0.0027315000000000048,0.120727,-0.3523535,-0.007399500000000003,-0.109443,-0.7151435,0.0980765,0.179097,-0.8616135,0.039009499999999996
138,-0.026214,0.730123,0.0537675,-0.179819,0.525253,0.04124850000000001,-0.306199,0.691083,-0.0671445,0.14193099999999997,0.538423,0.017414500000000006,0.251421,0.7033429999999999,-0.1055145,-0.28496900000000003,0.916103,-0.1845345,0.23469099999999998,0.949493,-0.22532449999999998,-0.060668,-0.0035549999999999996,0.0023765000000000036,0.060668,0.003555,-0.0023764999999999967,-0.11541900000000001,-0.361287,-0.002507499999999996,0.120681,-0.35231700000000005,-0.0069594999999999935,-0.109589,-0.713757,0.1008355,0.178641,-0.8583270000000001,0.04039450000000001
139,-0.026666000000000002,0.732875,0.056589999999999994,-0.180751,0.523005,0.043240999999999995,-0.317141,0.667265,-0.064968,0.14292899999999997,0.535635,0.020087999999999998,0.263299,0.678565,-0.104758,-0.299321,0.883215,-0.19536799999999999,0.24067899999999998,0.911075,-0.23814799999999997,-0.060639,-0.003587,0.002369999999999997,0.060639,0.003587,-0.002370000000000004,-0.11567100000000001,-0.361185,-0.002341000000000003,0.120639,-0.35218499999999997,-0.006457000000000004,-0.11085099999999999,-0.713575,0.10112099999999999,0.17851899999999998,-0.855255,0.041422
140,-0.0271005,0.736079,0.059142499999999994,-0.1816355,0.5202990000000001,0.044469499999999995,-0.3259455,0.6381290000000001,-0.0629555,0.1437845,0.532909,0.022025499999999996,0.2734945,0.647989,-0.10325550000000001,-0.31312550000000006,0.844229,-0.19948550000000004,0.2468645,0.868859,-0.24977550000000004,-0.0606265,-0.003574,0.0023404999999999954,0.0606265,0.003574000000000001,-0.0023405000000000023,-0.11609549999999999,-0.36100099999999996,-0.002093500000000005,0.1206545,-0.35207099999999997,-0.0059595000000000065,-0.11223550000000002,-0.713121,0.1010175,0.17853449999999998,-0.851801,0.0420235
141,-0.027504999999999995,0.7395365,0.0612075,-0.182498,0.5176265,0.0452045,-0.33298799999999995,0.6053565000000001,-0.061289500000000004,0.144612,0.5294065,0.0235325,0.28074200000000005,0.6118665000000001,-0.09982950000000002,-0.32769800000000004,0.7894965,-0.20139949999999998,0.25359200000000004,0.8114765,-0.2554295,-0.060642,-0.003556499999999999,0.002286499999999997,0.060642,0.0035565000000000006,-0.002286499999999997,-0.116618,-0.3608035,-0.0018325000000000008,0.12065200000000001,-0.35195350000000003,-0.005658499999999997,-0.112368,-0.7121934999999999,0.1027945,0.178242,-0.8476634999999999,0.0426685
142,-0.027972,0.7431385,0.06267900000000001,-0.18334799999999998,0.5148885,0.045486000000000006,-0.335708,0.5676785,-0.05562199999999999,0.145402,0.5260385,0.024283000000000006,0.286392,0.5719685,-0.08924199999999999,-0.335268,0.7310785,-0.205512,0.260942,0.7408285,-0.25583199999999995,-0.060676999999999995,-0.0035404999999999985,0.0022250000000000048,0.060676999999999995,0.0035405000000000002,-0.002224999999999998,-0.117288,-0.3605915,-0.0016629999999999978,0.120642,-0.3518615,-0.005534999999999991,-0.112518,-0.7109415,0.10445000000000002,0.177712,-0.8423715,0.043139000000000004
143,-0.028437000000000004,0.7466499999999999,0.0635555,-0.18422700000000003,0.51176,0.0455545,-0.335687,0.5274599999999999,-0.0478435,0.14598299999999997,0.52272,0.0242725,0.28873299999999996,0.5314,-0.07714249999999999,-0.339637,0.65967,-0.2052025,0.267613,0.66985,-0.25630250000000004,-0.060694,-0.003608,0.0022205000000000003,0.060694,0.003608,-0.0022205000000000003,-0.118017,-0.36046,-0.0016055000000000028,0.12066299999999999,-0.35169,-0.0053925000000000015,-0.112547,-0.7099300000000001,0.1061275,0.177313,-0.8376600000000001,0.0435555
144,-0.0289455,0.7501145,0.063598,-0.18499149999999998,0.5085945000000001,0.045616000000000004,-0.3351715,0.4869345,-0.037731,0.1464085,0.5198545,0.024249000000000003,0.28946849999999996,0.4904445,-0.06382199999999999,-0.34257150000000003,0.5889345,-0.204982,0.2702385,0.5897645,-0.256482,-0.0607545,-0.0035844999999999974,0.0022190000000000057,0.0607545,0.003584500000000001,-0.0022189999999999988,-0.11880149999999999,-0.3602455,-0.0015429999999999958,0.1206985,-0.35162550000000004,-0.0051069999999999935,-0.11275149999999999,-0.7091255,0.106148,0.1768885,-0.8330355,0.043832
145,-0.029463500000000007,0.7534785,0.063635,-0.1856735,0.5057285,0.045664,-0.33457349999999997,0.44579850000000004,-0.026517,0.1465165,0.5174385,0.024241000000000006,0.2902465,0.4499285,-0.05009799999999999,-0.3427735,0.5095385,-0.204968,0.2705765,0.5052985,-0.24887800000000002,-0.0608085,-0.0036004999999999995,0.0022230000000000028,0.0608085,0.0036004999999999995,-0.002222999999999996,-0.11957350000000001,-0.35999149999999996,-0.0014799999999999952,0.1207765,-0.35150149999999997,-0.004674999999999999,-0.11302350000000001,-0.7086715,0.10841300000000001,0.1763565,-0.8279415,0.044152000000000004
146,-0.029918500000000004,0.756772,0.063616,-0.18618050000000003,0.503482,0.045437,-0.33387049999999996,0.40479200000000004,-0.014151000000000004,0.14643949999999997,0.514892,0.024195,0.2911095,0.409582,-0.03535699999999999,-0.34265049999999997,0.422652,-0.200756,0.2714395,0.42025199999999996,-0.234226,-0.060872499999999996,-0.0035589999999999997,0.0021699999999999983,0.060872499999999996,0.0035589999999999997,-0.0021699999999999983,-0.1202805,-0.35972800000000005,-0.0014129999999999976,0.1208195,-0.351418,-0.004193000000000002,-0.11227050000000001,-0.708318,0.111773,0.17585949999999997,-0.823168,0.044308
147,-0.030334999999999997,0.759245,0.0634545,-0.18667199999999998,0.502095,0.0446395,-0.32969200000000004,0.370975,0.00018049999999999317,0.146288,0.513105,0.023414499999999994,0.289398,0.375425,-0.01907650000000001,-0.341772,0.344215,-0.1855425,0.272848,0.344405,-0.2116425,-0.060949,-0.0035559999999999967,0.0021154999999999993,0.060949,0.0035560000000000036,-0.0021155000000000063,-0.120992,-0.359535,-0.0013445000000000054,0.120808,-0.351325,-0.0038215000000000054,-0.111682,-0.707895,0.11487449999999999,0.17538800000000002,-0.819585,0.0442075
148,-0.0307555,0.761524,0.062422000000000005,-0.1870595,0.501254,0.043317,-0.3221695,0.340554,0.015597,0.1460905,0.511734,0.022152,0.2840305,0.34523400000000004,-0.0011079999999999979,-0.3392995,0.273334,-0.163754,0.27366050000000003,0.273594,-0.183154,-0.0610315,-0.003494999999999998,0.0020710000000000034,0.0610315,0.003495000000000005,-0.0020709999999999965,-0.1216095,-0.35931599999999997,-0.0011460000000000012,0.1209605,-0.351306,-0.0035379999999999995,-0.11327949999999999,-0.706906,0.112247,0.1749705,-0.816536,0.044061
149,-0.031178499999999998,0.7634105,0.0606255,-0.1874495,0.5009105,0.0413915,-0.3114595,0.31441050000000004,0.0318555,0.1458805,0.5104305,0.020223500000000002,0.2760005,0.31929050000000003,0.0174485,-0.3332295,0.2061905,-0.13435049999999998,0.2723805,0.20422050000000003,-0.1478605,-0.0611035,-0.0034655000000000033,0.0020405000000000006,0.0611035,0.0034655000000000033,-0.0020405000000000006,-0.12213949999999998,-0.3591495,-0.0010615,0.12109049999999999,-0.3512495,-0.003335499999999998,-0.11419949999999998,-0.7064095,0.11214750000000001,0.1748305,-0.8143895,0.043757500000000005
150,-0.0316405,0.7649425,0.05796,-0.1879095,0.5008325,0.039145,-0.29639950000000004,0.2910825,0.04806,0.1455905,0.5097225,0.017699,0.2637905,0.2986325,0.035193,-0.32120950000000004,0.1527525,-0.09589,0.2687205,0.1501325,-0.1061,-0.0611235,-0.0034585000000000032,0.002015999999999997,0.0611235,0.0034584999999999963,-0.002015999999999997,-0.1226195,-0.3590175,-0.001011999999999999,0.1211805,-0.3511875,-0.003164,-0.11585949999999999,-0.7059875,0.109576,0.1746605,-0.8123975,0.043515
151,-0.03206199999999999,0.766174,0.0547115,-0.188366,0.500914,0.0367045,-0.28154599999999996,0.274114,0.0607255,0.14524399999999998,0.509094,0.0149935,0.250954,0.282434,0.0465305,-0.305106,0.10546900000000001,-0.057697500000000006,0.263214,0.110262,-0.057907499999999994,-0.061135,-0.0034249999999999975,0.0019915,0.061135,0.0034249999999999975,-0.0019915,-0.122976,-0.358896,-0.0010155000000000025,0.12129400000000001,-0.351156,-0.002963500000000001,-0.11624599999999999,-0.7064360000000001,0.1094735,0.174484,-0.810966,0.043299500000000005
152,-0.0324535,0.767111,0.0510495,-0.18874449999999998,0.501431,0.034699499999999994,-0.2684845,0.260861,0.0722595,0.1449355,0.508611,0.0124675,0.2397355,0.268511,0.0573905,-0.2891145,0.074511,-0.0225365,0.2606255,0.070964,-0.010781500000000006,-0.0611405,-0.003349999999999999,0.001961499999999998,0.0611405,0.003349999999999999,-0.001961500000000005,-0.12324449999999999,-0.358769,-0.0011045000000000013,0.12142549999999999,-0.351179,-0.0028085000000000054,-0.11715450000000001,-0.707239,0.1093705,0.1740755,-0.810029,0.0435565
153,-0.0327955,0.767767,0.047164000000000005,-0.1889975,0.501957,0.032913,-0.25763749999999996,0.249627,0.082183,0.1446825,0.508217,0.010269,0.2316425,0.257317,0.067756,-0.27311749999999996,0.043632,0.011541000000000003,0.2587225,0.046636,0.029299000000000002,-0.0611175,-0.0033010000000000053,0.0019650000000000015,0.0611175,0.0033009999999999984,-0.0019650000000000015,-0.1234075,-0.358683,-0.0011709999999999984,0.12155250000000001,-0.351163,-0.002696999999999998,-0.1215775,-0.709033,0.103157,0.1739925,-0.809803,0.04347
154,-0.03318600000000001,0.768207,0.04331,-0.18932100000000002,0.502537,0.031293,-0.251131,0.241257,0.089888,0.144459,0.507907,0.008375,0.225499,0.249737,0.077036,-0.26398099999999997,0.021786,0.041093,0.255659,0.032284,0.053248,-0.061058,-0.0032890000000000003,0.002000999999999996,0.061058,0.0032890000000000003,-0.0020010000000000028,-0.123531,-0.358643,-0.001230000000000002,0.121639,-0.351133,-0.0026569999999999996,-0.12471100000000002,-0.710733,0.09923499999999999,0.173699,-0.808873,0.043762999999999996
155,-0.033552000000000005,0.7685839999999999,0.0396445,-0.189725,0.502914,0.0298525,-0.246955,0.234984,0.09486349999999999,0.144335,0.507894,0.006869500000000001,0.221915,0.244784,0.0826345,-0.257295,0.009987000000000003,0.0608395,0.255105,0.021942000000000003,0.0664085,-0.060994,-0.0032219999999999957,0.0020114999999999994,0.060994,0.0032220000000000026,-0.0020114999999999994,-0.123645,-0.35856600000000005,-0.001285500000000002,0.12171499999999999,-0.351166,-0.0026974999999999985,-0.12790500000000002,-0.712256,0.0952375,0.17360499999999998,-0.808486,0.0439355
156,-0.033822500000000005,0.768878,0.0364525,-0.19012949999999998,0.503208,0.028772499999999996,-0.24608950000000002,0.231768,0.0957575,0.1443605,0.508038,0.005821499999999993,0.2208805,0.242498,0.0841915,-0.2541495,0.004116999999999996,0.0670475,0.2551905,0.015675,0.0689275,-0.060935500000000004,-0.0031790000000000013,0.0020114999999999994,0.060935500000000004,0.0031790000000000013,-0.0020115000000000063,-0.12373950000000002,-0.358532,-0.0014305000000000012,0.1218105,-0.351172,-0.002746500000000006,-0.13317949999999998,-0.714302,0.0873465,0.1736105,-0.808352,0.043718499999999993
157,-0.033959500000000004,0.7690365,0.033714,-0.1903975,0.5034165,0.027955,-0.24618750000000003,0.2313265,0.095499,0.14445249999999998,0.5080665,0.004963000000000002,0.2207825,0.24257649999999997,0.08393300000000001,-0.25424749999999996,0.0037214999999999956,0.066789,0.2550925,0.012289499999999995,0.06866900000000001,-0.0608925,-0.003187500000000003,0.0019670000000000035,0.0608925,0.003187499999999996,-0.0019669999999999965,-0.12385750000000001,-0.3585335,-0.0016559999999999978,0.1219225,-0.35113350000000004,-0.002811000000000001,-0.1383375,-0.7164735,0.079836,0.1738925,-0.8085735000000001,0.043326
158,-0.0340505,0.7691760000000001,0.031241500000000002,-0.1906835,0.503936,0.0273585,-0.24629350000000003,0.231516,0.0950555,0.1445965,0.508086,0.004284500000000004,0.2206765,0.24276599999999998,0.0834895,-0.2543535,0.003910999999999998,0.0663455,0.2549865,0.012478999999999997,0.0682255,-0.0608605,-0.0031839999999999993,0.0018835000000000032,0.0608605,0.0031839999999999993,-0.0018834999999999963,-0.1239835,-0.358504,-0.0020174999999999985,0.1220665,-0.351124,-0.002757499999999996,-0.1428135,-0.7182139999999999,0.0734195,0.1741365,-0.808554,0.0428325
159,-0.034033999999999995,0.7693285000000001,0.029337000000000002,-0.191007,0.5045085,0.026765,-0.24636700000000003,0.2317185,0.094445,0.144783,0.5081085,0.0036549999999999985,0.220603,0.24296849999999998,0.08287900000000001,-0.25442699999999996,0.004113499999999999,0.065735,0.255523,0.012681499999999998,0.067571,-0.060872,-0.0031494999999999995,0.0017549999999999996,0.060872,0.0031494999999999995,-0.0017549999999999996,-0.124057,-0.3584815,-0.002457000000000001,0.12226300000000001,-0.35113150000000004,-0.002715999999999996,-0.145967,-0.7193415,0.06867100000000001,0.174493,-0.8088615,0.04218
160,-0.033987,0.7695135000000001,0.0278065,-0.19135,0.5050935,0.0259925,-0.24731,0.2319735,0.0920565,0.14497,0.5082535,0.0028445,0.2212,0.24322349999999998,0.08059250000000001,-0.25497,0.004368500000000004,0.0625565,0.25891000000000003,0.012936500000000004,0.0600285,-0.06088300000000001,-0.0030474999999999947,0.0016065000000000038,0.06088300000000001,0.0030475000000000016,-0.0016064999999999968,-0.12412000000000001,-0.3583865,-0.002958499999999996,0.12256,-0.3511665,-0.0026084999999999997,-0.15207,-0.7309365,0.061504500000000004,0.17492,-0.8089765,0.0415205
161,-0.0339385,0.7697155,0.026602,-0.1916955,0.5056155,0.025084,-0.2500855,0.23333549999999997,0.086289,0.1451345,0.5084455,0.001899999999999999,0.2230445,0.2456855,0.075328,-0.2591855,0.007095499999999998,0.049654,0.2624145,0.015553499999999998,0.042277999999999996,-0.0609095,-0.0029155000000000014,0.0014419999999999988,0.0609095,0.0029155000000000014,-0.0014419999999999988,-0.12419549999999999,-0.3582645,-0.003359000000000001,0.12292449999999999,-0.3511545,-0.0019259999999999972,-0.15552549999999998,-0.7319045000000001,0.057221,0.17529450000000002,-0.8086745000000001,0.040401
162,-0.033937499999999995,0.7699370000000001,0.025478000000000004,-0.19199049999999998,0.505987,0.024041000000000003,-0.2548105,0.23688700000000001,0.07802500000000001,0.1453095,0.508797,0.001010000000000004,0.2254795,0.24888700000000002,0.06752,-0.26573050000000004,0.014441999999999997,0.029746,0.2665095,0.0242,0.021181000000000002,-0.0609275,-0.0027740000000000056,0.0012270000000000059,0.0609275,0.0027739999999999987,-0.001226999999999999,-0.1243205,-0.358123,-0.0037589999999999985,0.1232695,-0.351163,-0.0012980000000000005,-0.1580705,-0.741633,0.0555,0.1757195,-0.808303,0.039172000000000005
163,-0.0340005,0.7702225,0.024257499999999994,-0.1922525,0.5064025,0.023112499999999994,-0.2602525,0.2421425,0.06755349999999999,0.14550749999999998,0.5091825,0.0003444999999999976,0.2282575,0.2518325,0.057555499999999996,-0.2735825,0.024149499999999997,0.005825499999999997,0.2719075,0.0322095,-0.005276500000000003,-0.060969499999999996,-0.0026295,0.0009724999999999942,0.060969499999999996,0.0026295,-0.0009725000000000011,-0.1244525,-0.3579775,-0.0041605000000000045,0.1235875,-0.3511975,-0.0007585000000000022,-0.1606125,-0.7513875000000001,0.053662499999999995,0.1760675,-0.8078875000000001,0.0378875
164,-0.0341375,0.7704975,0.0230115,-0.1925125,0.5068475,0.0221915,-0.26605249999999997,0.2483675,0.0550195,0.1456875,0.5095375,-0.0001774999999999971,0.2308375,0.25415750000000004,0.0456355,-0.28226249999999997,0.0353425,-0.024830500000000005,0.2747375,0.042442499999999994,-0.0359515,-0.0610085,-0.0024955000000000047,0.0007515000000000022,0.0610085,0.0024954999999999977,-0.0007515000000000022,-0.1246025,-0.3578325,-0.004521499999999998,0.12386749999999999,-0.35123249999999995,-0.0002595000000000028,-0.1613225,-0.7514325000000001,0.0524305,0.1762775,-0.8066625000000001,0.0365675
165,-0.03428400000000001,0.770757,0.021956,-0.19273600000000002,0.5072369999999999,0.021311,-0.271206,0.25493699999999997,0.041324,0.145794,0.509877,-0.0007360000000000005,0.23305399999999998,0.256257,0.032387,-0.28959599999999996,0.048008,-0.055567,0.276614,0.052278,-0.06645200000000001,-0.061043,-0.002381000000000001,0.0005570000000000019,0.061043,0.002381000000000001,-0.0005570000000000019,-0.124746,-0.357713,-0.004876999999999999,0.124084,-0.351283,0.00011699999999999905,-0.161896,-0.751473,0.051162,0.17657399999999998,-0.8055329999999999,0.03529
166,-0.0343845,0.7709115,0.021384000000000004,-0.1929565,0.5074815,0.020520000000000004,-0.2753465,0.2619715,0.028229000000000004,0.1457935,0.5102114999999999,-0.0012769999999999934,0.2357435,0.2582615,0.016438000000000005,-0.29485649999999997,0.0638395,-0.083412,0.27603350000000004,0.0620015,-0.09806199999999998,-0.0610935,-0.0022665000000000046,0.00041400000000000464,0.0610935,0.0022664999999999977,-0.0004139999999999977,-0.1248965,-0.3575985,-0.0052209999999999965,0.12425349999999999,-0.3513385,0.0003860000000000044,-0.1620465,-0.7514185,0.049882,0.1765035,-0.8042185,0.034105
167,-0.0344475,0.770982,0.021186,-0.1931525,0.507592,0.019961,-0.2783625,0.268802,0.016731999999999997,0.1457475,0.510452,-0.001582,0.2372475,0.259762,0.001793999999999997,-0.2982725,0.079629,-0.10887600000000001,0.2739775,0.073521,-0.126226,-0.0611485,-0.0021980000000000055,0.000338999999999999,0.0611485,0.0021979999999999986,-0.000338999999999999,-0.12502249999999998,-0.357528,-0.005471000000000004,0.1243775,-0.351338,0.0005449999999999969,-0.1622025,-0.751408,0.048846,0.1766375,-0.803448,0.032581
168,-0.034534499999999996,0.7710595,0.021320000000000002,-0.1933895,0.5076295,0.019636,-0.28041950000000004,0.2753795,0.0075860000000000025,0.1456805,0.5106895,-0.0017799999999999969,0.2380205,0.26018949999999996,-0.010925999999999998,-0.2999795,0.0942845,-0.13070199999999998,0.2723305,0.0822675,-0.148662,-0.061203499999999994,-0.0021605000000000027,0.0003130000000000008,0.061203499999999994,0.0021604999999999958,-0.0003130000000000008,-0.1251695,-0.3574705,-0.005689,0.1244405,-0.3513405,0.0006250000000000006,-0.1623195,-0.7510604999999999,0.047920000000000004,0.1768705,-0.8031105000000001,0.031227
169,-0.0346605,0.7710685,0.021774500000000002,-0.1936505,0.5075284999999999,0.0195085,-0.2819305,0.2775885,0.00028450000000000003,0.1456395,0.5108685,-0.0017754999999999993,0.2383495,0.2604585,-0.021738499999999994,-0.30128049999999995,0.1029165,-0.1484565,0.2709395,0.09064849999999999,-0.1676365,-0.0612545,-0.002165499999999994,0.00031950000000000034,0.0612545,0.0021655000000000008,-0.0003194999999999934,-0.1253005,-0.3574715,-0.005887499999999997,0.12437949999999999,-0.3513415,0.00037950000000000483,-0.1642005,-0.7608115,0.047157500000000005,0.1771095,-0.8037115,0.030060500000000004
170,-0.034791,0.7708630000000001,0.022428500000000004,-0.193984,0.507063,0.019613500000000002,-0.282984,0.27852299999999997,-0.004901499999999996,0.145636,0.510953,-0.0015734999999999985,0.238216,0.260673,-0.030996499999999996,-0.30224399999999996,0.107596,-0.1617215,0.26498600000000005,0.096082,-0.1806015,-0.061281,-0.0021970000000000045,0.0003455000000000055,0.061281,0.0021969999999999976,-0.0003454999999999986,-0.125414,-0.35749699999999995,-0.006269499999999997,0.124316,-0.35139699999999996,-0.0001754999999999951,-0.166624,-0.775067,0.0450925,0.177296,-0.804177,0.029085500000000004
171,-0.03494,0.7706325,0.0232375,-0.194335,0.5064925,0.0199405,-0.283165,0.2812025,-0.007522500000000001,0.145645,0.5110125,-0.0011564999999999978,0.23810499999999998,0.2616225,-0.032699500000000006,-0.302645,0.11196249999999999,-0.1674095,0.258615,0.09898950000000001,-0.1866895,-0.061291,-0.0022425000000000014,0.0004315000000000013,0.061291,0.0022425000000000014,-0.0004315000000000013,-0.125445,-0.3575475,-0.0065355,0.124305,-0.3514475,-0.00044349999999999945,-0.16662500000000002,-0.7754475,0.0448155,0.17748499999999998,-0.8049575,0.028462499999999998
172,-0.0351665,0.7704075,0.0241545,-0.1947225,0.5058875,0.0203605,-0.2832225,0.2829775,-0.0084155,0.1456075,0.5110475,-0.0006345000000000031,0.23809750000000002,0.2620475,-0.032919500000000004,-0.3008325,0.1128695,-0.1686585,0.2506975,0.0991045,-0.1887585,-0.0612935,-0.002290500000000001,0.0005005000000000009,0.0612935,0.002290499999999994,-0.0005005000000000009,-0.1254525,-0.35760250000000005,-0.006604499999999999,0.12428750000000001,-0.3515125,-0.0005114999999999981,-0.1688225,-0.7903025,0.042791499999999996,0.1774675,-0.8058025,0.028063499999999998
173,-0.035479,0.770128,0.0252135,-0.195178,0.505288,0.0208765,-0.28321799999999997,0.283698,-0.0084155,0.145532,0.511078,-9.15000000000013e-05,0.238102,0.261888,-0.0329855,-0.297118,0.11359,-0.1689185,0.243472,0.099825,-0.1882485,-0.061298000000000005,-0.002339000000000001,0.0005005000000000009,0.061298000000000005,0.002339000000000001,-0.0005005000000000009,-0.12545800000000001,-0.357652,-0.006603499999999998,0.124142,-0.35156200000000004,-0.000953500000000003,-0.171018,-0.805182,0.0408395,0.177442,-0.804452,0.0276595
174,-0.035861000000000004,0.7698425,0.026001499999999997,-0.195678,0.5047425,0.0212185,-0.281748,0.2844025,-0.0085195,0.14538199999999998,0.5110625,0.00027850000000000097,0.234952,0.2608425,-0.0327765,-0.292838,0.1142945,-0.1692285,0.236282,0.1000035,-0.1877385,-0.061298000000000005,-0.0023844999999999977,0.0005005000000000009,0.061298000000000005,0.0023844999999999977,-0.0005005000000000009,-0.125478,-0.3577175,-0.006659499999999999,0.123902,-0.35162750000000004,-0.0015884999999999996,-0.17141800000000001,-0.8103874999999999,0.0392555,0.177202,-0.8037475,0.0276765
175,-0.036276,0.7696605,0.026529499999999998,-0.196141,0.5042705,0.0214515,-0.279861,0.2835505,-0.0086245,0.145209,0.5110005,0.0005644999999999956,0.231769,0.2598805,-0.03252050000000001,-0.28841100000000003,0.11500250000000001,-0.1695125,0.22941899999999998,0.09922149999999999,-0.1872125,-0.061294,-0.002429500000000001,0.0005304999999999963,0.061294,0.002429500000000001,-0.0005305000000000032,-0.125471,-0.35776949999999996,-0.006790500000000005,0.123879,-0.35166949999999997,-0.0022655000000000036,-0.171811,-0.8155595,0.037754499999999996,0.177229,-0.8030395,0.027261499999999998
176,-0.0367035,0.7694785,0.026971000000000002,-0.1965525,0.5038585,0.02169,-0.2775925,0.2811585,-0.008418999999999996,0.1449575,0.5108185000000001,0.0007489999999999997,0.2284375,0.2582685,-0.031503,-0.2832325,0.1091505,-0.164348,0.2238775,0.0924975,-0.183738,-0.0612775,-0.0024855000000000016,0.0006299999999999986,0.0612775,0.0024854999999999947,-0.0006299999999999986,-0.1254125,-0.35784150000000003,-0.006939000000000001,0.12389750000000001,-0.35169150000000005,-0.002935,-0.1739425,-0.8304915,0.035696,0.1772675,-0.8041915000000001,0.027574
