sb224sc-HT22-VT27/4dt907/src/data/kinect_good_preprocessed_not_cut_A11_mediapipe/A66_kinect_mirrored.csv
FrameNo,nose_3d_x,nose_3d_y,nose_3d_z,left_shoulder_3d_x,left_shoulder_3d_y,left_shoulder_3d_z,left_elbow_3d_x,left_elbow_3d_y,left_elbow_3d_z,right_shoulder_3d_x,right_shoulder_3d_y,right_shoulder_3d_z,right_elbow_3d_x,right_elbow_3d_y,right_elbow_3d_z,left_wrist_3d_x,left_wrist_3d_y,left_wrist_3d_z,right_wrist_3d_x,right_wrist_3d_y,right_wrist_3d_z,left_hip_3d_x,left_hip_3d_y,left_hip_3d_z,right_hip_3d_x,right_hip_3d_y,right_hip_3d_z,left_knee_3d_x,left_knee_3d_y,left_knee_3d_z,right_knee_3d_x,right_knee_3d_y,right_knee_3d_z,left_ankle_3d_x,left_ankle_3d_y,left_ankle_3d_z,right_ankle_3d_x,right_ankle_3d_y,right_ankle_3d_z
0,1.0393175,0.74951,0.0657285,0.8825515,0.5327200000000001,0.0274164999999999,0.8114615000000001,0.66993,-0.2153365,1.1801215,0.50738,0.0356385,1.2705815,0.64363,-0.1951465,0.8401815,0.8473200000000001,-0.4162165,1.2189315,0.8113900000000001,-0.4178765,0.9376275000000001,0.002317,0.0016734999999999,1.0623725,-0.002317,-0.0016735,0.8805515,-0.35313,-0.0031725,1.1235615,-0.35906,-0.0157235,0.8143215,-0.9058,0.0062594999999999,1.1726615,-0.8578,0.0232155
1,1.0381345,0.7466675,0.0667339999999999,0.8824295,0.5349575000000001,0.02753,0.8118695,0.6826975000000001,-0.203158,1.1811495,0.5113975000000001,0.037374,1.2695195,0.6598475,-0.186748,0.8379295,0.8860375,-0.385818,1.2333995,0.8295175,-0.368058,0.9376575,0.0024644999999999,0.0015869999999999,1.0623425,-0.0024645,-0.001587,0.8804895000000001,-0.3529925,-0.002898,1.1218895,-0.3595325,-0.015689,0.8149795,-0.9096625,0.0076399999999999,1.1716895,-0.8582725,0.0227789999999999
2,1.037206,0.7427684999999999,0.067489,0.88251,0.5378584999999999,0.0286739999999999,0.81547,0.7019884999999999,-0.183752,1.1814,0.5147584999999999,0.0387989999999999,1.26726,0.6764585,-0.165302,0.83876,0.9174485,-0.3621419999999999,1.2268899999999998,0.8921785,-0.370332,0.937898,0.0021775,0.0015579999999999,1.062102,-0.0021774999999999,-0.001558,0.8815500000000001,-0.3537814999999999,-0.005845,1.1209799999999999,-0.3593915,-0.015003,0.82436,-0.8536715,0.0047309999999999,1.1711,-0.8580215000000001,0.0245369999999999
3,1.03653,0.7406375,0.067601,0.883581,0.5411475,0.028905,0.817401,0.7196075,-0.170331,1.181901,0.5184175,0.03985,1.266301,0.6913374999999999,-0.153491,0.840681,0.9588575,-0.334801,1.228351,0.9280275,-0.335951,0.9378660000000001,0.0020895,0.002312,1.062134,-0.0020894999999999,-0.0023119999999999,0.881611,-0.3539625,-0.0052299999999999,1.120471,-0.3594124999999999,-0.0151999999999999,0.824221,-0.8538325,0.00573,1.170241,-0.8580225,0.025033
4,1.035915,0.7347585,0.067127,0.8849180000000001,0.5445385,0.028729,0.820418,0.7320285,-0.153789,1.181908,0.5209985,0.040277,1.2641879999999999,0.7022385,-0.137409,0.840788,0.9726185,-0.310559,1.229138,0.9434685,-0.313889,0.938415,0.0023535,0.002651,1.061585,-0.0023534999999999,-0.002651,0.8822380000000001,-0.3538815,-0.0052069999999999,1.117408,-0.3598715,-0.0116259999999999,0.8249480000000001,-0.8538115,0.005764,1.176878,-0.9216715,0.030237
5,1.0353435,0.7329640000000001,0.0664454999999999,0.8862585000000001,0.5462640000000001,0.0292254999999999,0.8202685000000001,0.7426440000000001,-0.1420325,1.1814185,0.520784,0.0411205,1.2625985,0.710704,-0.1243124999999999,0.8405685,1.008014,-0.2762325,1.2303784999999998,0.964754,-0.2807624999999999,0.9385935,0.0023099999999999,0.0031085,1.0614065,-0.0023099999999999,-0.0031085,0.8823585,-0.353936,-0.0041755,1.1197585,-0.359866,-0.0163675,0.8247485,-0.853866,0.0065404999999999,1.1682785,-0.858476,0.0256584999999999
6,1.0355855,0.7320625,0.0646835,0.8855805,0.5511025,0.0295295,0.8207005,0.7533925,-0.1293225,1.1818905,0.5198225,0.0405375,1.2619805,0.7189225,-0.1078625,0.8389705000000001,1.0148525,-0.2592125,1.2333105,0.9785525,-0.2547725,0.9387225,0.0020774999999999,0.0035914999999999,1.0612775,-0.0020774999999999,-0.0035914999999999,0.8823005,-0.3539775,-0.0014505,1.1192605,-0.3596875,-0.0160175,0.8097805000000001,-0.9328275,0.0137914999999999,1.1675305,-0.8583475,0.0260535
7,1.038104,0.7319330000000001,0.0643244999999999,0.886355,0.5523330000000001,0.0301874999999999,0.822095,0.753363,-0.1193135,1.182735,0.517613,0.0404184999999999,1.262945,0.718793,-0.0994935,0.837805,1.005913,-0.2380235,1.238205,0.981413,-0.2364635,0.93877,0.00213,0.0040824999999999,1.06123,-0.00213,-0.0040825,0.882865,-0.354157,-0.0021105,1.118775,-0.359667,-0.0134435,0.817455,-0.902997,0.0108544999999999,1.167765,-0.866377,0.0271895
8,1.0387,0.73042,0.0633755,0.8868720000000001,0.55485,0.0303305,0.8231220000000001,0.75996,-0.1087565,1.183042,0.51689,0.0407245,1.262612,0.72437,-0.0882564999999999,0.8368320000000001,1.01161,-0.2159265,1.240692,0.99051,-0.2157764999999999,0.9388090000000001,0.002118,0.0044065,1.061191,-0.002118,-0.0044064999999999,0.883172,-0.35419,-0.0014544999999999,1.118612,-0.35973,-0.0129914999999999,0.8173520000000001,-0.90646,0.0117005,1.166862,-0.86529,0.0273345
9,1.0395365,0.7295225,0.0622675,0.8872935000000001,0.5572325,0.0304214999999999,0.8239335,0.7654124999999999,-0.0995435,1.1833535,0.5156025,0.0408125,1.2625535,0.7290525,-0.0784835,0.8359235,1.0155925,-0.1963234999999999,1.2435135,0.9973925,-0.1963935,0.9388545,0.0021434999999999,0.0046584999999999,1.0611455,-0.0021435,-0.0046585,0.8835235000000001,-0.3541875,-0.0007544999999999,1.1185435,-0.3597575,-0.0125175,0.8171235,-0.9090875,0.0123124999999999,1.1660935000000001,-0.8637075,0.0275305
10,1.040484,0.728848,0.0611795,0.887668,0.559388,0.0303835,0.824898,0.770038,-0.0910764999999999,1.183618,0.514228,0.0407444999999999,1.262608,0.732948,-0.0698465,0.835048,1.0157079999999998,-0.1799465,1.246998,1.001908,-0.1791765,0.9389190000000001,0.002188,0.0048464999999999,1.061081,-0.0021879999999999,-0.0048465,0.883848,-0.354172,-0.0001745,1.118518,-0.359782,-0.0121555,0.815968,-0.918262,0.0134624999999999,1.165408,-0.862232,0.0274815
11,1.0415195,0.728391,0.0601525,0.8880045,0.5610609999999999,0.0303255,0.8259845,0.773481,-0.0838285,1.1838845,0.513081,0.0407035,1.2627945,0.735991,-0.0625885,0.8340745,1.016991,-0.1652385,1.2503345000000001,1.005491,-0.1644385,0.9390115,0.002264,0.0049874999999999,1.0609885000000001,-0.002264,-0.0049874999999999,0.8841245,-0.3541089999999999,0.0004114999999999,1.1182945,-0.359799,-0.0116155,0.8158145,-0.918339,0.0146004999999999,1.1657745,-0.8701990000000001,0.0282704999999999
12,1.042599,0.727834,0.0592875,0.888313,0.5625640000000001,0.0302215,0.827163,0.776064,-0.0780605,1.184113,0.511834,0.0407195,1.263113,0.738214,-0.0564325,0.833353,1.018544,-0.1531404999999999,1.253583,1.007844,-0.1524305,0.939095,0.0023549999999999,0.0050865,1.060905,-0.002355,-0.0050865,0.884393,-0.354056,0.0010895,1.118323,-0.359816,-0.0111124999999999,0.815743,-0.918746,0.0158865,1.165863,-0.872646,0.0287785
13,1.0435565,0.727166,0.058185,0.8886325,0.563516,0.029972,0.8282125,0.778626,-0.073763,1.1842925,0.510386,0.040576,1.2634325,0.740516,-0.051481,0.8328425,1.0207860000000002,-0.144023,1.2562725,1.009486,-0.142803,0.9391325,0.0024459999999999,0.0050669999999999,1.0608675,-0.002446,-0.005067,0.8846825,-0.354024,0.0016419999999999,1.1181725,-0.359874,-0.010557,0.8143525,-0.929394,0.0172699999999999,1.1663925,-0.882604,0.0295029999999999
14,1.0444535,0.7268224999999999,0.0569429999999999,0.8889035,0.5640824999999999,0.0294769999999999,0.8298935000000001,0.7872125,-0.070586,1.1844535,0.5092424999999999,0.0402589999999999,1.2639035,0.7425525,-0.048016,0.8324835000000002,1.0246625,-0.137066,1.2587335,1.0100625,-0.135816,0.9391725000000001,0.0025164999999999,0.0050199999999999,1.0608274999999998,-0.0025164999999999,-0.00502,0.8850035,-0.3539275,0.0017179999999999,1.1180335,-0.3599475,-0.010165,0.8144735000000001,-0.9312675,0.0173499999999999,1.1671035,-0.8925175000000001,0.0300749999999999
15,1.045252,0.7268479999999999,0.055853,0.8890750000000001,0.564178,0.029269,0.8313550000000001,0.795598,-0.068257,1.184595,0.508408,0.039847,1.2644250000000001,0.744498,-0.045132,0.832385,1.028328,-0.131467,1.260975,1.009828,-0.129667,0.939206,0.002616,0.005023,1.060794,-0.002616,-0.005023,0.885275,-0.353842,0.0016229999999999,1.117895,-0.360012,-0.0098639999999999,0.814495,-0.932912,0.017284,1.167915,-0.902022,0.030532
16,1.045835,0.7268205000000001,0.0550105,0.889186,0.5643005000000001,0.0290885,0.8324460000000001,0.8031604999999999,-0.0670295,1.1847159999999999,0.5079505,0.0395345,1.2648760000000001,0.7459205,-0.0429585,0.832176,1.0316605,-0.1274095,1.263106,1.0095605,-0.1255695,0.939275,0.0027115,0.0050284999999999,1.060725,-0.0027114999999999,-0.0050284999999999,0.8854060000000001,-0.3537794999999999,0.0016675,1.118026,-0.3600695,-0.0098525,0.813346,-0.9424495,0.0173135,1.168126,-0.9019995,0.0305505
17,1.0462729999999998,0.7267405,0.0543115,0.889277,0.5641505,0.0289555,0.8333470000000001,0.8101705,-0.0663925,1.184797,0.5076305,0.0392885,1.2652269999999999,0.7464405,-0.0413404999999999,0.832117,1.0341205,-0.1254025,1.265037,1.0091205,-0.1223925,0.939356,0.0028085,0.0050354999999999,1.060644,-0.0028084999999999,-0.0050354999999999,0.8855770000000001,-0.3537495,0.0016815,1.117977,-0.3601094999999999,-0.0095685,0.8124070000000001,-0.9524595,0.0172355,1.169407,-0.9110495,0.0312885
18,1.046615,0.7267405,0.053609,0.889361,0.5637605,0.028713,0.834091,0.8169305,-0.066547,1.184811,0.5073905,0.038894,1.265591,0.7466705,-0.040328,0.8320810000000001,1.0404005,-0.123847,1.266711,1.0098005,-0.121277,0.939457,0.0028284999999999,0.0048969999999999,1.060543,-0.0028285,-0.0048969999999999,0.8858210000000001,-0.3537695,0.001447,1.118001,-0.3601095,-0.009707,0.8125910000000001,-0.9519595,0.016785,1.170641,-0.9204495,0.031827
19,1.046867,0.7263965,0.052513,0.889372,0.5632965,0.028087,0.834592,0.8230164999999999,-0.0669309999999999,1.184802,0.5065464999999999,0.038159,1.265952,0.7465265,-0.0400139999999999,0.831892,1.0426565,-0.123871,1.267722,1.0083565,-0.121361,0.939505,0.0028224999999999,0.004882,1.060495,-0.0028225,-0.0048819999999999,0.8859319999999999,-0.3538934999999999,0.000799,1.118002,-0.3601935,-0.0101279999999999,0.813802,-0.9425035,0.016261,1.171932,-0.9306935,0.031595
20,1.046989,0.7256170000000001,0.0508165,0.889374,0.562947,0.0269345,0.834634,0.822457,-0.0678375,1.184754,0.5059670000000001,0.0369155,1.266224,0.7460870000000001,-0.0409015,0.832044,1.049427,-0.1247674999999999,1.2677640000000001,1.007527,-0.1222675,0.939548,0.0029299999999999,0.0047665,1.060452,-0.00293,-0.0047665,0.8861240000000001,-0.354023,-9.549999999999836e-05,1.118064,-0.360503,-0.0112085,0.813844,-0.942573,0.0153544999999999,1.1722139999999999,-0.930683,0.0298844999999999
21,1.0470395,0.725228,0.0484364999999999,0.8892545000000001,0.562918,0.0251354999999999,0.8346145,0.822068,-0.0693795,1.1846445,0.505628,0.0350334999999999,1.2662244999999999,0.745698,-0.0424415,0.8322545,1.056538,-0.1262895,1.2677445,1.007138,-0.1238095,0.9397015,0.003144,0.0047084999999999,1.0602985,-0.003144,-0.0047085,0.8863845,-0.354042,-0.0021735,1.1179945,-0.360852,-0.0127535,0.8136545,-0.942112,0.0135904999999999,1.1735145,-0.940152,0.0284525
22,1.047098,0.7252225,0.045509,0.8891150000000001,0.5630124999999999,0.022948,0.834645,0.8220624999999999,-0.07193,1.184525,0.5056324999999999,0.032838,1.266195,0.7456925,-0.044312,0.832545,1.0624325,-0.12813,1.267735,1.0066325,-0.12591,0.939897,0.0031494999999999,0.004594,1.060103,-0.0031494999999999,-0.004594,0.886565,-0.3540475,-0.006473,1.118185,-0.3608575,-0.014926,0.813475,-0.9410475,0.011411,1.174795,-0.9491775,0.0265849999999999
23,1.0471565,0.7252225,0.0418064999999999,0.8889115,0.5630124999999999,0.0201505,0.8339315,0.8220624999999999,-0.0753274999999999,1.1843615,0.5054624999999999,0.0301414999999999,1.2661514999999999,0.7456925,-0.0467435,0.8324415000000001,1.0624325,-0.1310075,1.2675315,1.0065325,-0.1303675,0.9400635,0.0031494999999999,0.0041765,1.0599365,-0.0031494999999999,-0.0041765,0.8867515,-0.3540475,-0.0117225,1.1182414999999999,-0.3608575,-0.0185235,0.8132815,-0.9400475,0.0086904999999999,1.1749915,-0.9491775,0.0241044999999999
24,1.047161,0.7245524999999999,0.037012,0.888649,0.5630124999999999,0.016429,0.8331189999999999,0.8219825,-0.0796399999999999,1.184159,0.5053325,0.026601,1.2661289999999998,0.7452325,-0.0507189999999999,0.832299,1.0624325,-0.13555,1.2670789999999998,1.0056325,-0.13598,0.940214,0.0031494999999999,0.00337,1.059786,-0.0031494999999999,-0.0033699999999999,0.886939,-0.3540475,-0.01817,1.118269,-0.3608575,-0.02303,0.813199,-0.9393375,0.005258,1.175139,-0.9492775,0.020787
25,1.047019,0.7236055,0.0308745,0.888404,0.5633155,0.0118755,0.832134,0.8206255,-0.0850865,1.183934,0.5055855,0.0223195,1.266044,0.7443055,-0.0560295,0.8321540000000001,1.0627355,-0.1413765,1.266434,1.0042355,-0.1424865,0.940369,0.0034525,0.0022945,1.059631,-0.0034524999999999,-0.0022945,0.887174,-0.3538345,-0.0257424999999999,1.118314,-0.3611945,-0.0281965,0.812954,-0.9377945,0.0003324999999999,1.1753339999999999,-0.9489745,0.0167825
26,1.046643,0.7226079999999999,0.023833,0.887964,0.5638679999999999,0.006765,0.830234,0.8120379999999999,-0.091559,1.183724,0.5063679999999999,0.017548,1.265784,0.743348,-0.0624849999999999,0.832214,1.055378,-0.148549,1.264154,1.001078,-0.151269,0.9405310000000001,0.003729,0.001095,1.059469,-0.003729,-0.0010949999999999,0.887144,-0.3536019999999999,-0.033914,1.118694,-0.361352,-0.034047,0.811444,-0.947422,-0.0048889999999999,1.175404,-0.947152,0.011435
27,1.0460304999999999,0.7215050000000001,0.0157395,0.8874335,0.563555,0.0006425,0.8280535,0.8032950000000001,-0.0991165,1.1833835,0.5076449999999999,0.0121985,1.2653035,0.742275,-0.0701335,0.8322735,1.048575,-0.1567365,1.2617135,0.997775,-0.1609465,0.9406535,0.003928,-9.349999999999983e-05,1.0593465,-0.003928,9.349999999999983e-05,0.8869535,-0.353345,-0.0425085,1.1191535,-0.361375,-0.0405814999999999,0.8107835,-0.945925,-0.0103634999999999,1.1753835,-0.944665,0.0054655
28,1.0450045000000001,0.7196455,0.0075239999999999,0.8866515000000001,0.5633255,-0.005774,0.8255515,0.7940555,-0.107309,1.1827115,0.5095655,0.006723,1.2644615,0.7411955,-0.078616,0.8321415,1.0425855,-0.165639,1.2585115,0.9949855,-0.171299,0.9407435,0.0040605,-0.001256,1.0592565,-0.0040605,0.001256,0.8863615,-0.3530245,-0.051385,1.1196015,-0.3612645,-0.047368,0.8101214999999999,-0.9429145,-0.0160599999999999,1.1751515,-0.9418945,-0.000771
29,1.043853,0.7171885,-0.0006534999999999,0.886025,0.5599585,-0.0142455,0.822955,0.7847685000000001,-0.1159835,1.182015,0.5113785000000001,0.0008715,1.263555,0.7403185,-0.0877185,0.832025,1.0374285,-0.1751835,1.255065,0.9927285,-0.1821134999999999,0.940721,0.0041675,-0.0023254999999999,1.059279,-0.0041674999999999,0.0023255,0.885515,-0.3525915,-0.0601895,1.120275,-0.3609915,-0.0543865,0.809295,-0.9390315,-0.0218075,1.174745,-0.9381615,-0.0071684999999999
30,1.042716,0.713897,-0.0089494999999999,0.885305,0.556867,-0.0225845,0.820325,0.7748970000000001,-0.1248574999999999,1.181325,0.513517,-0.0047084999999999,1.262645,0.738757,-0.0971375,0.831615,1.0281669999999998,-0.1855875,1.251385,0.990967,-0.1927275,0.9405610000000001,0.0042939999999999,-0.0033795,1.0594389999999998,-0.004294,0.0033795,0.884505,-0.352053,-0.0685865,1.121125,-0.360653,-0.0611165,0.808475,-0.935083,-0.0272514999999999,1.174285,-0.934003,-0.0132924999999999
31,1.041578,0.7106785,-0.0174675,0.884753,0.5537985,-0.0309855,0.817693,0.7651684999999999,-0.1341605,1.180493,0.5154785,-0.0109144999999999,1.261823,0.7374084999999999,-0.1070305,0.831243,1.0227485,-0.1959605,1.247853,0.9899485,-0.2037305,0.940181,0.0043904999999999,-0.0042765,1.059819,-0.0043904999999999,0.0042765,0.883063,-0.3513215,-0.0752735,1.122283,-0.3600615,-0.0678195,0.8073030000000001,-0.9297015,-0.0326964999999999,1.173683,-0.9286415,-0.0187595
32,1.040767,0.707529,-0.0259765,0.884479,0.548419,-0.0397005,0.816219,0.7621389999999999,-0.1436885,1.180039,0.517679,-0.0173285,1.261349,0.7367189999999999,-0.1172385,0.831339,1.018479,-0.2064785,1.2451789999999998,0.986179,-0.2133585,0.93974,0.004279,-0.0048365,1.06026,-0.0042789999999999,0.0048365,0.881729,-0.350471,-0.0814695,1.123929,-0.3590609999999999,-0.0736385,0.806489,-0.923171,-0.0380635,1.173289,-0.922131,-0.0239465
33,1.03999,0.703665,-0.03411,0.884196,0.5435249999999999,-0.047852,0.8146059999999999,0.7587149999999999,-0.153198,1.179616,0.5191849999999999,-0.023516,1.261026,0.736215,-0.127418,0.830956,1.013925,-0.216768,1.242446,0.980695,-0.222548,0.9393320000000001,0.0040959999999999,-0.005046,1.060668,-0.004096,0.0050459999999999,0.880396,-0.349595,-0.087014,1.1258460000000001,-0.357805,-0.079294,0.805986,-0.916175,-0.042991,1.172816,-0.915095,-0.028601
34,1.039176,0.700446,-0.0410515,0.883787,0.536376,-0.0557315,0.812917,0.7570560000000001,-0.1618745,1.179057,0.517616,-0.0298425,1.260697,0.737116,-0.1371545,0.830657,1.0121859999999998,-0.2262245,1.239397,0.980746,-0.2311345,0.938826,0.00389,-0.0048805,1.061174,-0.00389,0.0048804999999999,0.878587,-0.348614,-0.0922435,1.1278069999999998,-0.3563739999999999,-0.0849535,0.805427,-0.907504,-0.0477875,1.1722169999999998,-0.905914,-0.0330565
35,1.0387405,0.6969190000000001,-0.0474175,0.8837005,0.529889,-0.0631125,0.8115105000000001,0.7568090000000001,-0.1701524999999999,1.1788705,0.5165890000000001,-0.0358394999999999,1.2607205000000001,0.739229,-0.1467725,0.8302005,1.019519,-0.2335025,1.2370605000000001,0.977079,-0.2400425,0.9382375000000001,0.003694,-0.0046415,1.0617625,-0.003694,0.0046415,0.8769605,-0.347591,-0.0974945,1.1300405,-0.354801,-0.0904675,0.8052205,-0.8978809999999999,-0.0520725,1.1719905,-0.896041,-0.0370925
36,1.0384484999999999,0.692944,-0.0531325,0.8837495,0.5245340000000001,-0.0694615,0.8101895,0.755544,-0.1778875,1.1788495,0.515624,-0.0411794999999999,1.2604994999999999,0.741304,-0.1561875,0.8297995,1.0168339999999998,-0.2409275,1.2347995,0.974284,-0.2482475,0.9378695,0.003518,-0.0044195,1.0621305,-0.003518,0.0044195,0.8754995000000001,-0.346446,-0.1027365,1.1322995,-0.353236,-0.0957395,0.8052295,-0.888106,-0.0557005,1.1719694999999999,-0.886566,-0.0410785
37,1.0383745,0.690374,-0.0591685,0.8840145,0.519184,-0.0763745,0.8092145,0.756274,-0.1856375,1.1791645,0.513614,-0.0473715,1.2605845,0.739754,-0.1655174999999999,0.8294045000000001,1.015854,-0.2495175,1.2325245,0.973544,-0.2562875,0.9378345,0.0033049999999999,-0.0042304999999999,1.0621655,-0.003305,0.0042305,0.8739145,-0.344866,-0.1088605,1.1350045,-0.351176,-0.1019955,0.8055845,-0.8764959999999999,-0.0591984999999999,1.1723145,-0.875046,-0.0455265
38,1.038179,0.687903,-0.0649255,0.884091,0.5162629999999999,-0.0810444999999999,0.808181,0.753833,-0.1924795,1.179381,0.511683,-0.0528455,1.260551,0.735963,-0.1737495,0.828731,1.014183,-0.2582595,1.229341,0.968403,-0.2634195,0.937791,0.0031549999999999,-0.0041034999999999,1.062209,-0.0031549999999999,0.0041034999999999,0.872231,-0.343117,-0.1152195,1.137531,-0.349107,-0.1079855,0.8060210000000001,-0.864747,-0.0623465,1.172621,-0.863367,-0.0493775
39,1.037901,0.6858385,-0.0703865,0.88406,0.5133385,-0.0852835,0.8072,0.7511785000000001,-0.1985305,1.17964,0.5097785,-0.0580305,1.26052,0.7330185,-0.1815805,0.82708,1.0059385,-0.2662405,1.22658,0.9635585,-0.2703005,0.937641,0.0030454999999999,-0.0041145,1.062359,-0.0030454999999999,0.0041145,0.87042,-0.3411415,-0.1218545,1.14013,-0.3467015,-0.1144485,0.80663,-0.8522415,-0.0650815,1.17297,-0.8508114999999999,-0.0525455
40,1.037935,0.683836,-0.0755735,0.88412,0.510286,-0.0897185,0.80649,0.748756,-0.2042985,1.1801300000000001,0.507436,-0.0628895,1.2607599999999999,0.7312960000000001,-0.1886785,0.82563,0.996916,-0.2735285,1.22415,0.959446,-0.2778885,0.937136,0.003014,-0.0040884999999999,1.062864,-0.003014,0.0040885,0.86878,-0.3389939999999999,-0.1288225,1.14289,-0.344094,-0.1211555,0.8078000000000001,-0.839714,-0.0675595,1.17346,-0.838064,-0.0554585
41,1.038446,0.682046,-0.0803255,0.884579,0.509156,-0.0937585,0.806569,0.746556,-0.2097615,1.180539,0.504476,-0.0676345,1.261479,0.727626,-0.1956014999999999,0.824859,0.987096,-0.2798815,1.222959,0.958986,-0.2855215,0.936653,0.0031339999999999,-0.0041385,1.063347,-0.0031339999999999,0.0041384999999999,0.8673890000000001,-0.333294,-0.1362715,1.146129,-0.338884,-0.1278735,0.809689,-0.826614,-0.0704185,1.174479,-0.824434,-0.0579145
42,1.0390834999999998,0.6808004999999999,-0.08498,0.8851845,0.5084405000000001,-0.097482,0.8069545,0.7441905,-0.2148979999999999,1.1809545,0.5018005,-0.072179,1.2622645,0.7238605,-0.201628,0.8244045,0.9759305,-0.286068,1.2219945,0.9585605,-0.294478,0.9363025,0.0032125,-0.004139,1.0636975,-0.0032124999999999,0.0041389999999999,0.8660045000000001,-0.3265895,-0.143668,1.1493145,-0.3329195,-0.134358,0.8117245,-0.8133895,-0.072585,1.1754745,-0.8106595000000001,-0.059896
43,1.0398155,0.679415,-0.0933015,0.8861565000000001,0.508675,-0.1048945,0.8077965,0.741105,-0.2237105,1.1814764999999998,0.502195,-0.0796625,1.2631465,0.719325,-0.2110505,0.8244165,0.965495,-0.2956905,1.2212865,0.958035,-0.3068205,0.9362045,0.0031749999999999,-0.0044205,1.0637955,-0.0031749999999999,0.0044205,0.8651865,-0.317855,-0.1537805,1.1525665,-0.325055,-0.1435205,0.8143065,-0.8000149999999999,-0.0773145,1.1768165,-0.796995,-0.0648485
44,1.040532,0.681645,-0.1061995,0.887569,0.509965,-0.1176705,0.809289,0.740235,-0.2368905,1.182189,0.501295,-0.0929165,1.2644790000000001,0.718745,-0.2253905,0.825279,0.961045,-0.3115805,1.222009,0.958265,-0.3220805,0.936281,0.003185,-0.0044895,1.063719,-0.0031849999999999,0.0044895,0.864789,-0.303995,-0.1724704999999999,1.156709,-0.311365,-0.1605205,0.817539,-0.7821250000000001,-0.0863225,1.178639,-0.7782250000000001,-0.0745625
45,1.041192,0.68384,-0.1191079999999999,0.8889670000000001,0.5111399999999999,-0.130481,0.811167,0.7400899999999999,-0.249786,1.182897,0.50004,-0.106217,1.266087,0.71753,-0.2399359999999999,0.827167,0.96611,-0.327176,1.222857,0.95828,-0.337726,0.936367,0.0032599999999999,-0.004565,1.063633,-0.00326,0.004565,0.864447,-0.28995,-0.190656,1.160717,-0.29853,-0.177466,0.821197,-0.76448,-0.095632,1.180197,-0.7597100000000001,-0.083853
46,1.0417775,0.68291,-0.1313045,0.8907595,0.5114799999999999,-0.1430485,0.8130995,0.73859,-0.2621845,1.1833595,0.4981399999999999,-0.1189075,1.2673695,0.71955,-0.2542745,0.8282795000000001,0.96963,-0.3416045,1.2231995,0.9604,-0.3535645,0.9366495,0.0035399999999999,-0.0044645,1.0633505,-0.00354,0.0044644999999999,0.8646995,-0.27545,-0.2074745,1.1642795,-0.28484,-0.1930945,0.8250895,-0.7477,-0.1040705,1.1817695,-0.74142,-0.0920975
47,1.0422325,0.6814749999999999,-0.143977,0.8923305,0.511505,-0.155755,0.8150805,0.7400249999999999,-0.275333,1.1836205,0.4967749999999999,-0.131724,1.2679905,0.724005,-0.269353,0.8299105,0.975335,-0.355503,1.2256805,0.964695,-0.371303,0.9371214999999999,0.0036349999999999,-0.004413,1.0628785,-0.0036349999999999,0.004413,0.8649605000000001,-0.260835,-0.223833,1.1673305,-0.270275,-0.208513,0.8287705000000001,-0.730445,-0.1119759999999999,1.1831005,-0.722715,-0.100138
48,1.042522,0.6796150000000001,-0.1563355,0.8939509999999999,0.511115,-0.1688045,0.817111,0.740945,-0.2890595,1.183691,0.494475,-0.1448674999999999,1.2679909999999999,0.7277250000000001,-0.2844295,0.831961,0.985165,-0.3699795,1.2273209999999999,0.969955,-0.3891595,0.937497,0.003715,-0.0045155,1.062503,-0.0037149999999999,0.0045155,0.865491,-0.2461049999999999,-0.2397995,1.170081,-0.255505,-0.2235695,0.832581,-0.712875,-0.1196825,1.1843110000000001,-0.704345,-0.1079805
49,1.042536,0.67862,-0.1691775,0.895486,0.5121199999999999,-0.1814415,0.818766,0.74159,-0.3032694999999999,1.1834859999999998,0.4934,-0.1577305,1.268796,0.73015,-0.3005995,0.834546,0.98883,-0.3864095,1.228626,0.97529,-0.4064195,0.937922,0.0038499999999999,-0.0046145,1.062078,-0.00385,0.0046144999999999,0.8662259999999999,-0.2319,-0.2556695,1.172286,-0.24105,-0.2386295,0.836006,-0.69575,-0.1282475,1.184996,-0.68621,-0.1154765
50,1.0421685,0.6784749999999999,-0.1828395,0.8967605,0.513945,-0.1937335,0.8200605,0.739475,-0.3180135,1.1831305,0.492865,-0.1702044999999999,1.2693805,0.7339249999999999,-0.3167735,0.8365505,0.992835,-0.4031735,1.2297605,0.971725,-0.4241335,0.9383315,0.0039049999999999,-0.0046934999999999,1.0616685,-0.0039049999999999,0.0046935,0.8671805,-0.218545,-0.2709534999999999,1.1741605,-0.227555,-0.2537735,0.8393605,-0.679225,-0.1368385,1.1852505,-0.668635,-0.1230614999999999
51,1.0416335,0.678725,-0.196351,0.8973555,0.511685,-0.207497,0.8212455000000001,0.738155,-0.3325869999999999,1.1825755,0.489635,-0.18316,1.2699354999999999,0.735895,-0.3322969999999999,0.8396655,0.997605,-0.419807,1.2324155,0.971125,-0.439927,0.9386765,0.0038849999999999,-0.0048829999999999,1.0613235,-0.003885,0.004883,0.8684455,-0.204655,-0.285867,1.1759555,-0.213355,-0.268517,0.8426855,-0.662415,-0.144335,1.1852155,-0.650725,-0.1308379999999999
52,1.0409795,0.678015,-0.2070349999999999,0.8976965000000001,0.5111049999999999,-0.2176949999999999,0.8223265,0.7367049999999999,-0.344715,1.1820264999999999,0.4867749999999999,-0.192973,1.2705965,0.7329950000000001,-0.345195,0.8427765,1.000835,-0.434625,1.2334165,0.968545,-0.453895,0.9390695,0.003915,-0.0049049999999999,1.0609305,-0.003915,0.004905,0.8695865,-0.190555,-0.298075,1.1775165,-0.199925,-0.280655,0.8455064999999999,-0.646715,-0.148951,1.1850265,-0.633675,-0.135706
53,1.040352,0.67374,-0.2137649999999999,0.897564,0.50761,-0.223405,0.823234,0.73231,-0.353465,1.181134,0.4841299999999999,-0.197695,1.270864,0.7254799999999999,-0.352855,0.845274,0.99778,-0.444525,1.234404,0.96352,-0.4644749999999999,0.939409,0.0038599999999999,-0.0050049999999999,1.060591,-0.00386,0.005005,0.8703339999999999,-0.1815,-0.301765,1.178124,-0.19092,-0.284915,0.847634,-0.63592,-0.148058,1.184194,-0.62234,-0.135898
54,1.0398445,0.669265,-0.22063,0.8972915,0.5047550000000001,-0.22898,0.8242715,0.727795,-0.36288,1.1801815,0.481625,-0.202428,1.2708215,0.717905,-0.36022,0.8478615,0.995385,-0.45457,1.2358215,0.958045,-0.47531,0.9398735,0.003815,-0.00507,1.0601265,-0.0038149999999999,0.0050699999999999,0.8710015,-0.171265,-0.30541,1.1784515,-0.180755,-0.28907,0.8493815,-0.624885,-0.14705,1.1835915,-0.610605,-0.136173
55,1.0398675,0.668075,-0.227725,0.8974075,0.501295,-0.2345549999999999,0.8258274999999999,0.7235450000000001,-0.372495,1.1797175,0.4795750000000001,-0.207345,1.2716675,0.711215,-0.3677049999999999,0.8510475,0.991765,-0.4655049999999999,1.2377174999999998,0.952155,-0.485935,0.9401375,0.003665,-0.0051449999999999,1.0598625,-0.0036649999999999,0.005145,0.8718775,-0.1609049999999999,-0.308875,1.1789875,-0.1699349999999999,-0.292945,0.8508475,-0.6134949999999999,-0.14595,1.1832075,-0.5987549999999999,-0.1362779999999999
56,1.040223,0.6668499999999999,-0.234185,0.897464,0.49889,-0.239255,0.827074,0.7183999999999999,-0.381435,1.179564,0.47758,-0.211345,1.272894,0.70357,-0.375055,0.854604,0.98613,-0.475705,1.239384,0.94131,-0.494975,0.94026,0.0034199999999999,-0.005205,1.05974,-0.0034199999999999,0.0052049999999999,0.873084,-0.1548399999999999,-0.311765,1.179214,-0.16293,-0.296055,0.8523540000000001,-0.60302,-0.1448,1.183004,-0.58841,-0.136112
57,1.0407125,0.66689,-0.2409,0.8977235,0.49568,-0.24429,0.8284235,0.71534,-0.39049,1.1794235,0.47269,-0.21574,1.2737935,0.69635,-0.38216,0.8571135,0.98245,-0.48638,1.2405835,0.92567,-0.50309,0.9403795,0.0034799999999999,-0.00526,1.0596205,-0.00348,0.00526,0.8742635,-0.1482,-0.31443,1.1795435,-0.15431,-0.2983099999999999,0.8536435,-0.59183,-0.143591,1.1827935,-0.57737,-0.136104
58,1.0413575,0.665285,-0.247251,0.8979415,0.492185,-0.2492809999999999,0.8297715,0.712145,-0.399391,1.1794015,0.468185,-0.219991,1.2748515,0.688975,-0.3893109999999999,0.8597215,0.980985,-0.496951,1.2416814999999999,0.909745,-0.510531,0.9405965000000001,0.003615,-0.0052289999999999,1.0594035,-0.0036149999999999,0.0052289999999999,0.8753915,-0.141395,-0.3168809999999999,1.1800015,-0.1457149999999999,-0.300021,0.8554215000000001,-0.581315,-0.143099,1.1826515,-0.5671649999999999,-0.135666
59,1.0419445,0.662755,-0.2528075,0.8980025000000001,0.4888949999999999,-0.2541474999999999,0.8312625000000001,0.710805,-0.4081875,1.1792025,0.463885,-0.2241175,1.2759825,0.681505,-0.3964075,0.8619325000000001,0.979185,-0.5075675,1.2432225,0.902435,-0.5177775,0.9408145,0.003815,-0.0052125,1.0591855,-0.003815,0.0052124999999999,0.8760924999999999,-0.1343349999999999,-0.3191075,1.1806025,-0.1367249999999999,-0.3011075,0.8571325,-0.5707150000000001,-0.1425015,1.1824725,-0.5572250000000001,-0.1351875
60,1.0427635,0.660595,-0.2583755,0.8985475,0.484525,-0.2585755,0.8328275,0.708925,-0.4174354999999999,1.1793675000000001,0.462055,-0.2279355,1.2786275,0.675905,-0.4040654999999999,0.8637875,0.970855,-0.5178755,1.2448975,0.895405,-0.5263455,0.9410325,0.0037749999999999,-0.0051845,1.0589675,-0.003775,0.0051844999999999,0.8766075,-0.126835,-0.3211954999999999,1.1814675000000001,-0.127065,-0.3023655,0.8588075,-0.559245,-0.1409315,1.1826275,-0.5459350000000001,-0.1342435
61,1.0437845,0.657675,-0.263824,0.8991375,0.480245,-0.262664,0.8345075,0.706815,-0.426524,1.1796475,0.4587779999999999,-0.231764,1.2807875,0.673325,-0.4117139999999999,0.8658475,0.962985,-0.5268839999999999,1.2466875,0.888595,-0.5351539999999999,0.9410805,0.0038249999999999,-0.0052259999999999,1.0589195,-0.003825,0.005226,0.8768275000000001,-0.119475,-0.323074,1.1825875,-0.117695,-0.303154,0.8608275,-0.548585,-0.139369,1.1828675,-0.5352750000000001,-0.13351
62,1.0447184999999999,0.6541,-0.2694189999999999,0.8996125,0.476585,-0.266899,0.8359325000000001,0.70392,-0.436009,1.1800225,0.4548069999999999,-0.235829,1.2824825,0.6687000000000001,-0.420199,0.8675525,0.95457,-0.536459,1.2475224999999999,0.88283,-0.5443290000000001,0.9411095,0.00395,-0.005321,1.0588905,-0.00395,0.0053209999999999,0.8765125,-0.11125,-0.325579,1.1835625,-0.1082,-0.303939,0.8629025000000001,-0.5378099999999999,-0.138071,1.1830824999999998,-0.5243500000000001,-0.132697
63,1.0454135,0.6515850000000001,-0.2746665,0.8998045000000001,0.472461,-0.2714565,0.8370145,0.700455,-0.4449065,1.1803445,0.450933,-0.2398765,1.2840245000000001,0.663985,-0.4288665,0.8691845000000001,0.945785,-0.5461865,1.2481145,0.8776250000000001,-0.5538165,0.9410635,0.003945,-0.0053534999999999,1.0589365,-0.0039449999999999,0.0053534999999999,0.8760445,-0.1032849999999999,-0.3279965,1.1844445000000001,-0.0989749999999999,-0.3046465,0.8651545,-0.5272349999999999,-0.1363325,1.1831245,-0.5131749999999999,-0.1322964999999999
64,1.0456885,0.6477649999999999,-0.279613,0.8997695,0.468881,-0.275003,0.8374295,0.695305,-0.453003,1.1803695,0.4471199999999999,-0.243143,1.2844695,0.6583349999999999,-0.436543,0.8703595,0.937215,-0.554893,1.2483595,0.870905,-0.562833,0.9411185000000001,0.0040649999999999,-0.0054169999999999,1.0588814999999998,-0.004065,0.005417,0.8750795000000001,-0.096585,-0.330223,1.1849895,-0.091075,-0.305363,0.8671495000000001,-0.517115,-0.135736,1.1827895,-0.5033850000000001,-0.1318939999999999
65,1.045777,0.6448,-0.2837325,0.899858,0.465688,-0.2784324999999999,0.837678,0.6910000000000001,-0.4602124999999999,1.180218,0.442387,-0.2463624999999999,1.284688,0.65376,-0.4429625,0.871318,0.92893,-0.5634625,1.248248,0.8681300000000001,-0.5712125,0.941057,0.0044199999999999,-0.0054574999999999,1.058943,-0.0044199999999999,0.0054575,0.8742180000000002,-0.08947,-0.3321225,1.185658,-0.08276,-0.3059725,0.8691880000000001,-0.50665,-0.1350265,1.182498,-0.4932899999999999,-0.1312964999999999
66,1.0458095,0.64113,-0.2877595,0.9001515000000001,0.46318,-0.2816095,0.8378615,0.68559,-0.4672195,1.1801915,0.441034,-0.2490095,1.2846715,0.6490900000000001,-0.4494595,0.8716215,0.91943,-0.5722095,1.2480615,0.86652,-0.5811795,0.9410795,0.0044,-0.0055405,1.0589205,-0.0043999999999999,0.0055404999999999,0.8735915,-0.0834899999999999,-0.3342795,1.1865415,-0.07554,-0.3068995,0.8703915,-0.4983299999999999,-0.1357115,1.1821715,-0.48448,-0.1302885
67,1.045699,0.63828,-0.2914885,0.9004450000000002,0.4598569999999999,-0.2850085,0.837835,0.6802699999999999,-0.4740885,1.179985,0.4388299999999999,-0.2516785,1.284815,0.64438,-0.4549385,0.8712950000000002,0.91303,-0.5797785,1.248055,0.8623399999999999,-0.5910085,0.941067,0.0042599999999999,-0.0055414999999999,1.058933,-0.00426,0.0055415,0.873255,-0.07719,-0.3362684999999999,1.187565,-0.06809,-0.3077284999999999,0.8720450000000001,-0.48918,-0.1359985,1.182075,-0.47565,-0.1294664999999999
68,1.0454875,0.63502,-0.295325,0.9008725,0.455577,-0.289135,0.8375425000000001,0.67497,-0.480885,1.1797225,0.436007,-0.254775,1.2849025,0.63952,-0.460285,0.8707425,0.90643,-0.587885,1.2474725,0.85863,-0.600345,0.9410605,0.00406,-0.005655,1.0589395,-0.00406,0.0056549999999999,0.8733625,-0.0706999999999999,-0.338645,1.1887825,-0.06074,-0.308895,0.8739725,-0.48011,-0.135131,1.1820325,-0.4665,-0.128926
69,1.0451914999999998,0.631495,-0.2986725,0.9015075,0.455444,-0.2921625,0.8369975000000001,0.669515,-0.4874625,1.1793675000000001,0.433403,-0.2574125,1.2852475,0.633225,-0.4662925,0.8708875,0.906225,-0.5965525,1.2462675,0.854815,-0.6087625,0.9409485000000001,0.0043549999999999,-0.0057274999999999,1.0590514999999998,-0.0043549999999999,0.0057274999999999,0.8739574999999999,-0.0646049999999999,-0.3410525,1.1900275,-0.053765,-0.3098325,0.8753975,-0.471915,-0.1376945,1.1821575,-0.457815,-0.1285365
70,1.0449659999999998,0.62816,-0.3015405,0.902473,0.455008,-0.2951405,0.836383,0.66306,-0.4934305,1.179103,0.4314,-0.2597905,1.285533,0.62755,-0.4717105,0.871083,0.90568,-0.6050905,1.245033,0.84989,-0.6167705,0.940777,0.0046499999999999,-0.0057394999999999,1.059223,-0.0046499999999999,0.0057395,0.8748830000000001,-0.0587499999999999,-0.3434405,1.191463,-0.0474499999999999,-0.3108205,0.876843,-0.4634,-0.1400134999999999,1.1824729999999999,-0.44947,-0.1282384999999999
71,1.044624,0.6251549999999999,-0.3038295,0.903301,0.452993,-0.2973995,0.835631,0.6574949999999999,-0.4982595,1.178691,0.4307279999999999,-0.2614695,1.285571,0.623065,-0.4762695,0.870891,0.901825,-0.6148895,1.244001,0.842375,-0.6231095,0.9404170000000001,0.0044949999999999,-0.0057704999999999,1.059583,-0.004495,0.0057705,0.875661,-0.053095,-0.3452794999999999,1.192791,-0.041115,-0.3118395,0.8780209999999999,-0.455285,-0.1411835,1.182761,-0.441875,-0.1282154999999999
72,1.044243,0.62137,-0.3057035,0.903955,0.451085,-0.2993635,0.834755,0.65212,-0.5030335,1.1780249999999999,0.429833,-0.2629935,1.285085,0.61964,-0.4799435,0.870345,0.8980600000000001,-0.6236135,1.242785,0.8347,-0.6287035000000001,0.9400990000000001,0.00458,-0.0058465,1.059901,-0.0045799999999999,0.0058464999999999,0.876225,-0.0473599999999999,-0.3470535,1.193825,-0.03473,-0.3128335,0.879065,-0.44687,-0.1424095,1.182955,-0.43432,-0.1281115
73,1.0438595,0.61709,-0.3079975,0.9044615,0.449422,-0.3015675,0.8339015000000001,0.64735,-0.5076975,1.1774115,0.427365,-0.2650075,1.2836815,0.61355,-0.4846975,0.8697815,0.89581,-0.6322774999999999,1.2412415,0.82753,-0.6353775,0.9397205,0.0045399999999999,-0.0061424999999999,1.0602795,-0.0045399999999999,0.0061424999999999,0.8769315,-0.0404399999999999,-0.3494175,1.1948315,-0.0273899999999999,-0.3143275,0.8796015,-0.43702,-0.1424685,1.1831715,-0.42554,-0.1284405
74,1.043707,0.612495,-0.3100455,0.905348,0.447769,-0.3035555,0.8334480000000001,0.641645,-0.5122455,1.177228,0.425529,-0.2668755,1.282688,0.606925,-0.4896455,0.8685480000000001,0.885445,-0.6404855,1.2397179999999999,0.819145,-0.6426755,0.93933,0.004535,-0.0064344999999999,1.06067,-0.004535,0.0064344999999999,0.878478,-0.0337349999999999,-0.3513455,1.196128,-0.020105,-0.3155854999999999,0.880498,-0.4284449999999999,-0.1442135,1.183798,-0.417415,-0.1291785
75,1.0436359999999998,0.6074550000000001,-0.3117689999999999,0.906277,0.447128,-0.304799,0.832967,0.6354150000000001,-0.516439,1.177017,0.424425,-0.268379,1.281877,0.600275,-0.494479,0.867487,0.875915,-0.647879,1.238447,0.812935,-0.649269,0.938874,0.004645,-0.006801,1.061126,-0.0046449999999999,0.006801,0.880027,-0.0273849999999999,-0.353129,1.197467,-0.0136149999999999,-0.316759,0.8811970000000001,-0.420585,-0.147761,1.184407,-0.410675,-0.130572
76,1.043615,0.603115,-0.313774,0.906824,0.443076,-0.306454,0.832584,0.627875,-0.5205139999999999,1.176934,0.422177,-0.270394,1.281614,0.594208,-0.499704,0.866554,0.867875,-0.655174,1.237614,0.8088150000000001,-0.656814,0.938499,0.0044449999999999,-0.0072059999999999,1.061501,-0.004445,0.007206,0.8815740000000001,-0.0205149999999999,-0.355234,1.198954,-0.006665,-0.318334,0.881924,-0.413365,-0.150694,1.185014,-0.4040749999999999,-0.133288
77,1.043663,0.5989599999999999,-0.31571,0.9073810000000001,0.4398049999999999,-0.30834,0.832431,0.621115,-0.52417,1.177001,0.4197229999999999,-0.27232,1.281271,0.588279,-0.50477,0.865701,0.859795,-0.66208,1.237381,0.803415,-0.66476,0.938138,0.0042749999999999,-0.00766,1.061862,-0.004275,0.00766,0.883031,-0.013565,-0.3570399999999999,1.200631,0.0004249999999998,-0.32012,0.882291,-0.405865,-0.154671,1.185481,-0.3970450000000001,-0.135181
78,1.0436915,0.594596,-0.31793,0.9078195,0.435989,-0.31053,0.8322695,0.6144740000000001,-0.5274,1.1770995,0.41697,-0.27453,1.2810295,0.583496,-0.50893,0.8649095,0.85165,-0.66852,1.2376395,0.7965500000000001,-0.6729799999999999,0.9379125,0.00381,-0.00802,1.0620875,-0.0038099999999999,0.00802,0.8842695,-0.0069299999999999,-0.35917,1.2023295,0.00722,-0.32221,0.8825095000000001,-0.3986999999999999,-0.158247,1.1860895,-0.39174,-0.138469
79,1.043659,0.5908769999999999,-0.320275,0.908058,0.4316819999999999,-0.312625,0.832128,0.6085029999999999,-0.530145,1.177168,0.4145399999999999,-0.276875,1.280488,0.5779289999999999,-0.512275,0.864208,0.84059,-0.6758350000000001,1.238368,0.78941,-0.680165,0.937797,0.0032099999999999,-0.0084149999999999,1.062203,-0.00321,0.008415,0.885208,-0.00032,-0.361425,1.203978,0.0141099999999998,-0.324385,0.8824879999999999,-0.39138,-0.161585,1.186518,-0.3856900000000001,-0.1407749999999999
80,1.0434644999999998,0.587304,-0.32258,0.9078935,0.429325,-0.3141199999999999,0.8320135,0.6023640000000001,-0.53252,1.1771735,0.4118650000000001,-0.27922,1.2800135,0.5728540000000001,-0.5151,0.8635935000000001,0.833415,-0.68023,1.2389335,0.7842450000000001,-0.6871700000000001,0.9378135,0.002975,-0.0087799999999999,1.0621865,-0.0029749999999999,0.00878,0.8858235000000001,0.005455,-0.3635899999999999,1.2057635,0.0202350000000001,-0.32601,0.8821635,-0.3849249999999999,-0.164432,1.1867735,-0.3803949999999999,-0.143125
81,1.043039,0.584657,-0.325215,0.907277,0.4262849999999999,-0.315575,0.831817,0.597406,-0.535465,1.1769370000000001,0.408805,-0.281455,1.279577,0.567448,-0.518055,0.8627770000000001,0.826345,-0.685155,1.239247,0.779385,-0.6941849999999999,0.937561,0.0025349999999999,-0.009125,1.062439,-0.002535,0.0091249999999999,0.8860070000000001,0.0116749999999999,-0.366125,1.207527,0.0266849999999999,-0.327705,0.8819770000000001,-0.378575,-0.167533,1.187047,-0.376025,-0.148413
82,1.0425105,0.5826279999999999,-0.326945,0.9066875000000001,0.4238899999999999,-0.316485,0.8315475,0.5927489999999999,-0.5378350000000001,1.1765975,0.4079699999999999,-0.282965,1.2792775,0.5650079999999998,-0.520435,0.8619275,0.8178699999999999,-0.689565,1.2396575,0.7740199999999999,-0.699275,0.9372515,0.0021099999999999,-0.009325,1.0627485,-0.00211,0.009325,0.8859875000000001,0.0166599999999998,-0.367665,1.2094875,0.0320199999999999,-0.328215,0.8817275,-0.3734200000000001,-0.170145,1.1871275,-0.3709800000000001,-0.150237
83,1.0421155,0.581241,-0.328795,0.9060245000000001,0.420915,-0.317485,0.8312345000000001,0.589468,-0.540495,1.1762545,0.406695,-0.284385,1.2790245,0.563279,-0.5225949999999999,0.8618545,0.8179350000000001,-0.694105,1.2399045,0.769855,-0.702795,0.9369545,0.001595,-0.0093749999999999,1.0630455,-0.001595,0.0093749999999999,0.8857945,0.021645,-0.369195,1.2115745,0.037455,-0.328565,0.8812445000000001,-0.369085,-0.175062,1.1872445,-0.3651449999999999,-0.152483
84,1.0418735,0.580497,-0.33044,0.9055335,0.41703,-0.31836,0.8309735,0.587172,-0.54254,1.1759635,0.40503,-0.28572,1.2787335,0.562207,-0.52432,0.8617335,0.8181,-0.69778,1.2404435,0.7667,-0.70551,0.9366775,0.00095,-0.0094899999999999,1.0633225,-0.00095,0.0094899999999999,0.8855235,0.02581,-0.37045,1.2137935,0.0420599999999999,-0.3282899999999999,0.8804735,-0.363,-0.176528,1.1874135,-0.3601099999999999,-0.154025
85,1.0413545,0.57946,-0.331605,0.9050805,0.416655,-0.3191349999999999,0.8307505,0.586774,-0.544645,1.1756605,0.404865,-0.2867349999999999,1.2791305,0.561672,-0.5262549999999999,0.8615505,0.817245,-0.700375,1.2416605,0.765235,-0.707815,0.9364485,0.000645,-0.0095549999999999,1.0635515,-0.000645,0.009555,0.8852605,0.0283149999999999,-0.371175,1.2160104999999999,0.0451049999999999,-0.327265,0.8804105000000001,-0.360425,-0.1785649999999999,1.1878005,-0.3568449999999999,-0.1548379999999999
86,1.0408815,0.5799439999999999,-0.33271,0.9046015000000001,0.4168199999999999,-0.3194599999999999,0.8304415,0.5877089999999999,-0.54677,1.1752015,0.4057999999999999,-0.28739,1.2794115,0.5626069999999999,-0.52749,0.8614315000000001,0.81724,-0.7029299999999999,1.2436515,0.7661699999999999,-0.7101999999999999,0.9362895,0.0003799999999999,-0.00959,1.0637105,-0.00038,0.0095899999999999,0.8848615,0.0289699999999999,-0.37194,1.2180315,0.0460399999999998,-0.32628,0.8797015,-0.35984,-0.1811,1.1878715,-0.35396,-0.153893
87,1.040351,0.5799439999999999,-0.33359,0.904497,0.4168199999999999,-0.31986,0.829997,0.5877089999999999,-0.5486,1.174637,0.4057999999999999,-0.28796,1.279687,0.5626069999999999,-0.52739,0.861227,0.81724,-0.7055400000000001,1.245497,0.7661699999999999,-0.71248,0.936177,0.0003799999999999,-0.0095899999999999,1.063823,-0.00038,0.00959,0.884437,0.0288499999999999,-0.37272,1.219917,0.0460399999999998,-0.3252899999999999,0.879317,-0.35984,-0.18372,1.188057,-0.3538500000000001,-0.155468
88,1.039651,0.5799439999999999,-0.33414,0.903783,0.4168199999999999,-0.3202899999999999,0.829623,0.5877089999999999,-0.5500700000000001,1.173953,0.4057999999999999,-0.2882,1.279583,0.5626069999999999,-0.5266,0.860933,0.81724,-0.70842,1.246993,0.7661699999999999,-0.7136199999999999,0.9361349999999999,0.0003799999999999,-0.00956,1.063865,-0.00038,0.00956,0.883963,0.0288499999999999,-0.3736899999999999,1.221613,0.0460399999999998,-0.32449,0.878533,-0.35984,-0.186052,1.188163,-0.35381,-0.157736
89,1.0388705,0.5799439999999999,-0.334105,0.9029325,0.4168199999999999,-0.320705,0.8296425000000001,0.5884109999999999,-0.550785,1.1731925,0.4060899999999999,-0.287915,1.2798625000000001,0.5628749999999999,-0.524865,0.8607525,0.81724,-0.710475,1.2483825,0.7666599999999999,-0.713465,0.9362685,0.0003799999999999,-0.009385,1.0637315,-0.00038,0.009385,0.8836425,0.0288499999999999,-0.375275,1.2230825,0.0464399999999999,-0.324265,0.8780625,-0.3613800000000001,-0.190635,1.1881325,-0.3528500000000001,-0.1595899999999999
90,1.038331,0.5817570000000001,-0.33338,0.902558,0.4187050000000001,-0.32116,0.829948,0.5906570000000001,-0.55084,1.172648,0.4081950000000001,-0.2875999999999999,1.281478,0.564914,-0.5226299999999999,0.860788,0.818975,-0.71162,1.249928,0.7690950000000001,-0.71184,0.936527,0.000385,-0.00918,1.0634730000000001,-0.0003849999999999,0.0091799999999999,0.883398,0.027485,-0.37658,1.224348,0.045855,-0.32388,0.8772880000000001,-0.3612849999999999,-0.191581,1.188518,-0.3519549999999999,-0.161013
91,1.0379965,0.5841970000000001,-0.33258,0.9022275,0.419595,-0.32172,0.8303475000000001,0.59506,-0.5509,1.1720975,0.408645,-0.28745,1.2830975,0.5681440000000001,-0.52006,0.8610075,0.823755,-0.71088,1.2515375,0.7727350000000001,-0.70933,0.9368115,0.000595,-0.0088999999999999,1.0631885,-0.000595,0.0088999999999999,0.8832475000000001,0.024135,-0.3782,1.2252275,0.0433650000000001,-0.32398,0.8765375,-0.3649949999999999,-0.194664,1.1892375,-0.353935,-0.164482
92,1.037893,0.5879160000000001,-0.330895,0.902267,0.4220650000000001,-0.321215,0.8309070000000001,0.5997030000000001,-0.5504249999999999,1.171967,0.411445,-0.285885,1.285057,0.572405,-0.517085,0.861407,0.828395,-0.709055,1.253417,0.7773350000000001,-0.705095,0.937195,0.000735,-0.0087049999999999,1.062805,-0.0007349999999999,0.008705,0.883357,0.019085,-0.379455,1.2259470000000001,0.038965,-0.323965,0.875847,-0.3696149999999999,-0.195801,1.190267,-0.3588249999999999,-0.168261
93,1.037987,0.59173,-0.3285949999999999,0.902482,0.4247049999999999,-0.320355,0.8316920000000001,0.60544,-0.549115,1.172092,0.4144349999999999,-0.2840249999999999,1.2870219999999999,0.5773119999999999,-0.5138849999999999,0.861862,0.8317649999999999,-0.7061249999999999,1.255322,0.7849349999999999,-0.7005950000000001,0.9376320000000001,0.0008449999999999,-0.008495,1.062368,-0.000845,0.008495,0.883732,0.0118149999999999,-0.3805349999999999,1.226402,0.0324849999999999,-0.3241349999999999,0.875502,-0.377985,-0.197148,1.191122,-0.365585,-0.171283
94,1.038272,0.5970329999999999,-0.32581,0.902853,0.4273999999999999,-0.31881,0.8325629999999999,0.6120629999999999,-0.54696,1.1725430000000001,0.4177999999999999,-0.28188,1.289123,0.5837979999999999,-0.5098100000000001,0.862893,0.84149,-0.7020000000000001,1.257393,0.7921099999999999,-0.69555,0.9379480000000001,0.0008799999999999,-0.00829,1.062052,-0.0008800000000001,0.0082899999999999,0.884363,0.0034899999999999,-0.38181,1.226733,0.0249899999999999,-0.32478,0.875043,-0.3875200000000001,-0.198587,1.191863,-0.37411,-0.17481
95,1.038939,0.602984,-0.32231,0.903185,0.430604,-0.31704,0.833715,0.61925,-0.54381,1.173055,0.421641,-0.2794999999999999,1.2901150000000001,0.591472,-0.50475,0.863935,0.84886,-0.69746,1.259395,0.8034,-0.69024,0.938155,0.00109,-0.0081699999999999,1.061845,-0.00109,0.00817,0.885175,-0.0070299999999999,-0.38297,1.226885,0.01517,-0.32503,0.8745350000000001,-0.39939,-0.1997499999999999,1.1928949999999998,-0.3849,-0.178168
96,1.0398285,0.610025,-0.31799,0.9035385,0.434321,-0.31449,0.8350985,0.627295,-0.5394300000000001,1.1735785,0.426116,-0.27629,1.2919885,0.598541,-0.4992,0.8646685000000001,0.857875,-0.6910400000000001,1.2614984999999999,0.8133950000000001,-0.6839599999999999,0.9383585,0.001295,-0.0080599999999999,1.0616415,-0.0012949999999999,0.00806,0.8859085,-0.0186549999999999,-0.38346,1.2267385,0.004275,-0.32467,0.8739785,-0.4121249999999999,-0.200093,1.1939685,-0.3968849999999999,-0.180358
97,1.040768,0.617235,-0.313065,0.903876,0.437681,-0.311655,0.836396,0.635845,-0.534185,1.174376,0.4286419999999999,-0.272975,1.293566,0.6057549999999999,-0.491765,0.865586,0.866895,-0.6837150000000001,1.263846,0.822935,-0.6757249999999999,0.93862,0.0016349999999999,-0.007905,1.06138,-0.0016349999999999,0.0079049999999999,0.8866360000000001,-0.0309749999999999,-0.382995,1.226566,-0.007805,-0.323725,0.873406,-0.426365,-0.199784,1.195326,-0.410115,-0.183264
98,1.0418334999999999,0.62352,-0.307865,0.9043185,0.442123,-0.307745,0.8374285000000001,0.64357,-0.528755,1.1751984999999998,0.433385,-0.268875,1.2949885,0.60886,-0.483305,0.8662885000000001,0.87452,-0.675745,1.2662385,0.82787,-0.664985,0.9390005,0.00163,-0.007745,1.0609995,-0.00163,0.007745,0.8871985,-0.04397,-0.381055,1.2265185,-0.0212999999999999,-0.321715,0.8730985,-0.4417199999999999,-0.198393,1.1966284999999999,-0.42461,-0.184665
99,1.0431845,0.630285,-0.30286,0.9049285,0.445704,-0.30411,0.8387585,0.651545,-0.52359,1.1763785,0.437753,-0.26505,1.2960885,0.618225,-0.47442,0.8667485,0.8814150000000001,-0.6670799999999999,1.2687785,0.835515,-0.65466,0.9393515,0.0015649999999999,-0.0076299999999999,1.0606485,-0.0015649999999999,0.00763,0.8878985000000001,-0.055985,-0.3791299999999999,1.2267385,-0.034285,-0.3200199999999999,0.8734085,-0.4567349999999999,-0.198061,1.1978885,-0.439205,-0.185967
100,1.04443,0.6381749999999999,-0.2976499999999999,0.905637,0.450861,-0.30027,0.839887,0.659175,-0.51718,1.177467,0.44288,-0.261119,1.2969870000000001,0.627915,-0.46621,0.866677,0.892385,-0.65916,1.270887,0.845665,-0.64417,0.939678,0.001485,-0.0075699999999999,1.060322,-0.001485,0.0075699999999999,0.888327,-0.067305,-0.37692,1.226417,-0.0463649999999999,-0.31765,0.873577,-0.471735,-0.19767,1.199017,-0.453445,-0.187059
101,1.0453305,0.64482,-0.2924599999999999,0.9062435000000001,0.456245,-0.29682,0.8407935,0.66635,-0.50988,1.1781435,0.450795,-0.2582959999999999,1.2975935,0.63796,-0.45724,0.8661735,0.90038,-0.6511199999999999,1.2724834999999999,0.85514,-0.63375,0.9398645,0.0011399999999999,-0.0075699999999999,1.0601355,-0.00114,0.00757,0.8883535,-0.07852,-0.37444,1.2253435,-0.05906,-0.31476,0.8734835,-0.4874199999999999,-0.1973619999999999,1.1997835000000001,-0.46833,-0.1876089999999999
102,1.0461115,0.64957,-0.28748,0.9065595,0.458549,-0.29351,0.8414395,0.67106,-0.50256,1.1786695,0.454962,-0.2556,1.2980595,0.64619,-0.44757,0.8655295000000001,0.91028,-0.64196,1.2739995,0.86251,-0.62287,0.9399335000000001,0.0014299999999999,-0.00756,1.0600664999999998,-0.0014299999999999,0.00756,0.8882194999999999,-0.0914499999999999,-0.37138,1.2238995,-0.07417,-0.3117999999999999,0.8734295,-0.5057,-0.197022,1.2004595,-0.4857999999999999,-0.187987
103,1.0470065,0.65434,-0.2824649999999999,0.9069885,0.461977,-0.290425,0.8419785000000001,0.67603,-0.4953249999999999,1.1790885,0.45851,-0.252673,1.2986585,0.65327,-0.4387149999999999,0.8650185,0.91299,-0.633575,1.2753385,0.8708800000000001,-0.611935,0.9400025000000001,0.00146,-0.0075549999999999,1.0599975,-0.0014599999999999,0.007555,0.8880985000000001,-0.1043399999999999,-0.3675549999999999,1.2222385,-0.08947,-0.308785,0.8732185,-0.52488,-0.196988,1.2011985,-0.5036499999999999,-0.1880009999999999
104,1.047751,0.65906,-0.2775499999999999,0.9078990000000001,0.4665,-0.2872599999999999,0.842309,0.6806300000000001,-0.48766,1.179529,0.464305,-0.249574,1.299399,0.65929,-0.43085,0.864409,0.92046,-0.62355,1.276509,0.87636,-0.59983,0.940143,0.00142,-0.0076399999999999,1.059857,-0.0014199999999999,0.00764,0.887999,-0.1167999999999999,-0.36315,1.220199,-0.1038199999999999,-0.30548,0.873109,-0.5438799999999999,-0.196774,1.201639,-0.5215599999999999,-0.187739
105,1.0484099999999998,0.663995,-0.272765,0.909123,0.470295,-0.284165,0.842423,0.686725,-0.480145,1.1802030000000001,0.468355,-0.246786,1.300313,0.665915,-0.422695,0.864013,0.924265,-0.614865,1.277603,0.8824050000000001,-0.586825,0.940236,0.0013549999999999,-0.0076249999999999,1.059764,-0.0013549999999999,0.0076249999999999,0.887753,-0.128185,-0.3580649999999999,1.218173,-0.118695,-0.301845,0.873023,-0.563215,-0.196874,1.202133,-0.539855,-0.187297
106,1.048876,0.6687700000000001,-0.2678649999999999,0.910121,0.47482,-0.2805649999999999,0.842461,0.6927000000000001,-0.472935,1.1806809999999999,0.47419,-0.2432909999999999,1.301761,0.6730400000000001,-0.415815,0.862791,0.93384,-0.606255,1.278171,0.88809,-0.574955,0.940122,0.0013199999999999,-0.0075849999999999,1.059878,-0.0013199999999999,0.007585,0.887031,-0.13987,-0.352435,1.215581,-0.1336999999999999,-0.297315,0.872781,-0.5827199999999999,-0.1966839999999999,1.202381,-0.5587599999999999,-0.186471
107,1.049276,0.674395,-0.26237,0.910861,0.477655,-0.27678,0.8421609999999999,0.697635,-0.465,1.181521,0.477975,-0.239464,1.304321,0.682655,-0.40892,0.861561,0.941545,-0.59815,1.278351,0.8950549999999999,-0.56455,0.940137,0.001475,-0.00733,1.059863,-0.001475,0.00733,0.886011,-0.150835,-0.34603,1.212431,-0.1468249999999999,-0.29193,0.872861,-0.6017950000000001,-0.195518,1.202691,-0.5774250000000001,-0.185054
108,1.049434,0.678795,-0.257093,0.9113910000000001,0.478835,-0.27307,0.8417209999999999,0.702175,-0.45666,1.182381,0.480885,-0.235823,1.304981,0.6855450000000001,-0.40217,0.860101,0.947075,-0.58917,1.2780610000000001,0.902225,-0.55423,0.940208,0.001465,-0.00712,1.059792,-0.0014649999999999,0.0071199999999999,0.884911,-0.1627249999999999,-0.33936,1.209081,-0.1602749999999999,-0.28627,0.873001,-0.621405,-0.194369,1.202821,-0.596335,-0.183531
109,1.04935,0.68094,-0.251596,0.911193,0.4789099999999999,-0.26948,0.840873,0.7049799999999999,-0.44821,1.183253,0.48485,-0.2322829999999999,1.305423,0.6894899999999999,-0.39541,0.858303,0.95218,-0.5796399999999999,1.277783,0.90619,-0.54471,0.940448,0.00101,-0.0070899999999999,1.059552,-0.00101,0.00709,0.883493,-0.17286,-0.3317,1.2059929999999999,-0.17414,-0.2812599999999999,0.8729830000000001,-0.6393200000000001,-0.193731,1.202683,-0.6150599999999999,-0.1821099999999999
110,1.0491335,0.6821999999999999,-0.245255,0.9109515000000001,0.48111,-0.265435,0.8405914999999999,0.70851,-0.439685,1.1841415,0.48496,-0.22796,1.3052315,0.68982,-0.390205,0.8565315,0.9572,-0.5694349999999999,1.2777215,0.91065,-0.535275,0.9404995,0.0016499999999999,-0.0069649999999999,1.0595005,-0.00165,0.0069649999999999,0.8822415,-0.18462,-0.322335,1.2023515,-0.1855,-0.274765,0.8726015,-0.65744,-0.1924519999999999,1.2025315,-0.6347,-0.180058
111,1.0485655,0.68477,-0.237695,0.9110785,0.48513,-0.261365,0.8402985000000001,0.71531,-0.431625,1.1845785,0.48884,-0.223495,1.3049985,0.69739,-0.382965,0.8547685,0.96376,-0.560175,1.2775985,0.9183,-0.525265,0.9405924999999999,0.0014199999999999,-0.006775,1.0594075,-0.00142,0.006775,0.8810884999999999,-0.19377,-0.3127649999999999,1.1988685000000001,-0.19361,-0.267855,0.8718485,-0.6719700000000001,-0.191225,1.2009185,-0.64489,-0.178052
112,1.047985,0.6863,-0.229922,0.911107,0.4869799999999999,-0.25752,0.839897,0.72116,-0.42362,1.1850669999999999,0.49341,-0.219017,1.304637,0.70436,-0.3766899999999999,0.853077,0.9705,-0.55056,1.277617,0.92434,-0.51568,0.940649,0.00134,-0.0066299999999999,1.059351,-0.00134,0.0066299999999999,0.880307,-0.20323,-0.30288,1.195527,-0.20208,-0.26038,0.870777,-0.68624,-0.18975,1.199177,-0.6540699999999999,-0.175599
113,1.0473555,0.6857599999999999,-0.222126,0.9107585,0.48788,-0.253975,0.8390385,0.72558,-0.416265,1.1858085,0.49417,-0.215141,1.3042085,0.71054,-0.370855,0.8514885,0.97414,-0.542015,1.2776785,0.92871,-0.507205,0.9406915,0.0012599999999999,-0.006625,1.0593085,-0.00126,0.0066249999999999,0.8794785,-0.20956,-0.292485,1.1919385,-0.20948,-0.251925,0.8696385,-0.69718,-0.188773,1.1973685,-0.66268,-0.173403
114,1.0464215,0.682735,-0.212876,0.9105835,0.488105,-0.250565,0.8384135,0.728605,-0.408355,1.1861835,0.500455,-0.210749,1.3036135,0.7199249999999999,-0.365645,0.8497535,0.979295,-0.532485,1.2777735,0.934515,-0.498745,0.9408455,0.000705,-0.0065449999999999,1.0591545,-0.000705,0.0065449999999999,0.8784235,-0.216275,-0.2818049999999999,1.1878935,-0.215225,-0.242247,0.8680935000000001,-0.7068650000000001,-0.187057,1.1953535,-0.6705650000000001,-0.170911
115,1.0455215,0.6786,-0.202782,0.9113485,0.48773,-0.2465299999999999,0.8380185,0.73129,-0.39913,1.1866185,0.50435,-0.2059559999999999,1.3031185,0.72659,-0.35917,0.8479985,0.9775,-0.5216099999999999,1.2780285,0.93881,-0.48918,0.9412475,0.0002299999999999,-0.0066599999999999,1.0587525,-0.00023,0.0066599999999999,0.8773685000000001,-0.22055,-0.26868,1.1841585000000001,-0.22115,-0.231802,0.8667185,-0.71367,-0.184517,1.1917185,-0.66909,-0.1669439999999999
116,1.045014,0.674415,-0.192398,0.9126180000000002,0.488905,-0.242335,0.838148,0.7358750000000001,-0.389635,1.1870379999999998,0.507985,-0.200838,1.302838,0.732735,-0.352225,0.846758,0.976845,-0.509405,1.278708,0.943575,-0.479495,0.941917,-1.4999999999987246e-05,-0.006775,1.058083,1.5000000000015e-05,0.006775,0.877038,-0.227595,-0.255205,1.181018,-0.2284149999999999,-0.220598,0.865688,-0.7228249999999999,-0.181024,1.187798,-0.666465,-0.162303
117,1.0445005,0.669795,-0.182094,0.9124445,0.4912749999999999,-0.23828,0.8386745,0.740225,-0.38042,1.1874745,0.512355,-0.19591,1.3026244999999999,0.740585,-0.34568,0.8463845,0.983475,-0.49922,1.2790344999999999,0.946865,-0.46979,0.9425585000000001,-0.0002349999999999,-0.0068499999999999,1.0574415,0.0002349999999999,0.0068499999999999,0.8770745,-0.233445,-0.24129,1.1778345,-0.233785,-0.209194,0.8649645,-0.7306349999999999,-0.177655,1.1839145,-0.6623549999999999,-0.1577619999999999
118,1.043976,0.66567,-0.172082,0.9120620000000002,0.49382,-0.23443,0.839572,0.74515,-0.37178,1.187792,0.51678,-0.190958,1.300462,0.7483899999999999,-0.33889,0.845852,0.98686,-0.48883,1.2790219999999999,0.95288,-0.45873,0.943219,-0.00019,-0.00686,1.056781,0.0001899999999999,0.0068599999999999,0.8771820000000001,-0.24068,-0.227896,1.1741920000000001,-0.23784,-0.197251,0.864092,-0.7393700000000001,-0.174236,1.179872,-0.65757,-0.153071
119,1.0433454999999998,0.6627025,-0.162736,0.9120175,0.4931225,-0.230869,0.8402975,0.7500024999999999,-0.362975,1.1877975,0.5201525,-0.186896,1.2980475,0.7594025,-0.3325249999999999,0.8451675,0.9928225,-0.478995,1.2786674999999998,0.9599025,-0.448095,0.9440425000000001,-0.0009064999999999,-0.0069649999999999,1.0559574999999999,0.0009065,0.0069649999999999,0.8781475,-0.2457475,-0.215582,1.1709275,-0.2425275,-0.187008,0.8631775000000002,-0.7456175,-0.171396,1.1755675,-0.6494675000000001,-0.14875
120,1.042377,0.6598040000000001,-0.154722,0.912255,0.493284,-0.2273649999999999,0.840545,0.7535540000000001,-0.35369,1.1874850000000001,0.523444,-0.183138,1.296385,0.7647940000000001,-0.32535,0.844295,0.998704,-0.4676099999999999,1.278045,0.968014,-0.43799,0.944365,-0.0012599999999999,-0.0071799999999999,1.055635,0.0012599999999999,0.0071799999999999,0.8788650000000001,-0.250666,-0.20415,1.166835,-0.246806,-0.177186,0.862005,-0.751556,-0.168725,1.170565,-0.645466,-0.141679
121,1.0415205,0.656964,-0.147093,0.9121975000000001,0.4963539999999999,-0.224072,0.8404675,0.757804,-0.34446,1.1870474999999998,0.526194,-0.1799089999999999,1.2946075,0.7709940000000001,-0.31756,0.8433775,1.006054,-0.45674,1.2772975,0.978294,-0.4281199999999999,0.9446865,-0.001292,-0.0073,1.0553135,0.001292,0.0073,0.8800375000000001,-0.254256,-0.193375,1.1622675,-0.249976,-0.167679,0.8611275,-0.7559659999999999,-0.16574,1.1657875,-0.641216,-0.134831
122,1.0407285,0.6556845,-0.139913,0.9115095,0.4996845,-0.220878,0.8400395,0.7645445,-0.33558,1.1866995,0.5299445,-0.176767,1.2937295,0.7771545,-0.3096799999999999,0.8426395,1.0133545000000002,-0.4465099999999999,1.2765195,0.9887645,-0.41866,0.9449035,-0.0013304999999999,-0.0072399999999999,1.0550965,0.0013305,0.0072399999999999,0.8813495000000001,-0.2571655,-0.183056,1.1581895,-0.2539755,-0.160034,0.8603695,-0.7635755,-0.162512,1.1608895,-0.6356955,-0.127185
123,1.039644,0.658372,-0.129897,0.910142,0.5043219999999999,-0.213353,0.838722,0.771312,-0.323225,1.185872,0.529042,-0.169812,1.292222,0.7799119999999999,-0.297125,0.841782,1.020982,-0.432635,1.274942,0.998282,-0.405365,0.944852,-0.0007629999999999,-0.0064349999999999,1.055148,0.0007629999999999,0.0064349999999999,0.8821120000000001,-0.259808,-0.169717,1.1537519999999999,-0.258258,-0.150263,0.859352,-0.7660980000000001,-0.155817,1.1554019999999998,-0.6291680000000001,-0.115431
124,1.037973,0.6653055,-0.1103045,0.9074700000000001,0.5091855,-0.1965295,0.8362499999999999,0.7771355,-0.3019485,1.18417,0.5298655,-0.1529325,1.28971,0.7834555,-0.2752685,0.84005,1.0293655,-0.4092085,1.27284,1.0055655,-0.3827085,0.94455,-0.0001644999999999,-0.0065315,1.05545,0.0001644999999999,0.0065314999999999,0.8818500000000001,-0.2621845,-0.1499845,1.1485699999999999,-0.2614645,-0.1322855,0.8570599999999999,-0.7707245,-0.1386105,1.15056,-0.6304245,-0.0944935
125,1.0367065,0.6740865,-0.0900495,0.9042825,0.5133265,-0.1751515,0.8336325,0.7742365,-0.2797885,1.1835825,0.5299865,-0.1334515,1.2873425,0.7801665,-0.2526485,0.8395325,1.0332065,-0.3839185,1.2706225,1.0038365,-0.3588785,0.9441365000000002,0.0004355,-0.0064125,1.0558634999999998,-0.0004354999999999,0.0064124999999999,0.8824525,-0.2716635,-0.1300775,1.1432425,-0.2725135,-0.1148535,0.8546024999999999,-0.7824335,-0.1202895,1.1445224999999999,-0.6401935,-0.0696555
126,1.035759,0.682972,-0.0699569999999999,0.899703,0.517472,-0.1534869999999999,0.829793,0.771402,-0.258051,1.182993,0.530102,-0.1138569999999999,1.284723,0.7753519999999999,-0.2305809999999999,0.839163,1.030892,-0.358491,1.2684829999999998,1.000342,-0.335271,0.94373,0.0010509999999999,-0.0062349999999999,1.05627,-0.0010509999999999,0.006235,0.883363,-0.281318,-0.112121,1.138253,-0.283958,-0.098462,0.852333,-0.790798,-0.1025079999999999,1.138423,-0.650078,-0.0445209999999999
127,1.0351145,0.6920824999999999,-0.0500379999999999,0.8951595,0.5218825,-0.131962,0.8266595000000001,0.7682724999999999,-0.236976,1.1823895,0.5296325,-0.094123,1.2823895,0.7694325,-0.2085759999999999,0.8387295000000001,1.0279725,-0.333916,1.2667795,0.9945125,-0.311046,0.9432355,0.0016485,-0.0060829999999999,1.0567645,-0.0016484999999999,0.006083,0.8843695,-0.2926475,-0.095028,1.1335595,-0.2951375,-0.0818879999999999,0.8499795,-0.8020575000000001,-0.08509,1.1323795,-0.6594475,-0.0192209999999999
128,1.0341989999999999,0.7012189999999999,-0.03003,0.892321,0.522119,-0.111008,0.823831,0.7651789999999999,-0.2162319999999999,1.181461,0.528909,-0.074079,1.279871,0.762459,-0.186902,0.837711,1.025029,-0.309622,1.264681,0.988439,-0.287002,0.942337,0.002279,-0.005948,1.057663,-0.0022789999999999,0.0059479999999999,0.8843910000000001,-0.304221,-0.077742,1.128931,-0.306081,-0.06499,0.8472310000000001,-0.8131010000000001,-0.067897,1.126111,-0.668381,0.0058039999999999
129,1.0332284999999999,0.7106954999999999,-0.009793,0.8873535,0.5264854999999999,-0.089205,0.8205235000000001,0.7613255,-0.195949,1.1804835,0.5282355,-0.053591,1.2774735,0.7553455,-0.165569,0.8361235000000001,1.0193055,-0.287659,1.2624535,0.9777755,-0.2634189999999999,0.9414915,0.0028145,-0.005785,1.0585085,-0.0028144999999999,0.005785,0.8841735,-0.3154445,-0.0601789999999999,1.1246335,-0.3170345,-0.047822,0.8437635,-0.8340245000000001,-0.049699,1.1212434999999998,-0.6779345,0.028276
130,1.03217,0.720081,0.010535,0.882732,0.530841,-0.067102,0.816632,0.7569309999999999,-0.175791,1.179472,0.5276409999999999,-0.0326609999999999,1.275302,0.748031,-0.1445709999999999,0.834202,1.013771,-0.265411,1.259652,0.970011,-0.239641,0.9406410000000001,0.003302,-0.005584,1.059359,-0.003302,0.005584,0.883392,-0.326349,-0.042331,1.120922,-0.328559,-0.031383,0.840962,-0.844769,-0.031969,1.116402,-0.6876190000000001,0.050832
131,1.0310275,0.729342,0.031035,0.8782815,0.5338120000000001,-0.0447889999999999,0.8122914999999999,0.751062,-0.155636,1.1785315,0.527182,-0.011344,1.2733515,0.740882,-0.123916,0.8318415,1.008512,-0.2430959999999999,1.2566614999999999,0.963372,-0.2160159999999999,0.9398145,0.0036799999999999,-0.0054869999999999,1.0601855,-0.0036799999999999,0.005487,0.8824415,-0.335548,-0.0251419999999999,1.1175514999999998,-0.339718,-0.0152889999999999,0.8380615000000001,-0.8536579999999999,-0.0140669999999999,1.1116514999999998,-0.697078,0.072615
132,1.030701,0.7356235,0.0476025,0.8754230000000001,0.5358434999999999,-0.0263385,0.808983,0.7437134999999999,-0.1396035,1.178593,0.5268835,0.0061575,1.2728329999999999,0.7334535,-0.1076034999999999,0.829733,1.0029235,-0.2253835,1.255513,0.9559735,-0.1969935,0.939737,0.0039944999999999,-0.0061234999999999,1.060263,-0.0039945,0.0061235,0.882453,-0.3445865,-0.0121015,1.1155529999999998,-0.3507565,-0.0037234999999999,0.836023,-0.8624065000000001,-0.0001195,1.109613,-0.7070765,0.0869215
133,1.0311869999999999,0.738644,0.0537115,0.8737970000000002,0.538264,-0.0184534999999999,0.806467,0.736364,-0.1337525,1.179617,0.527084,0.0132635,1.273637,0.726144,-0.1015524999999999,0.8288070000000001,0.998234,-0.2190825,1.255607,0.948664,-0.1891125,0.939793,0.003979,-0.0056965,1.060207,-0.0039789999999999,0.0056965,0.8835770000000001,-0.352996,-0.0103865,1.114697,-0.360776,-0.0030594999999999,0.8350770000000001,-0.870526,0.0033535,1.107437,-0.7162959999999999,0.0929935
134,1.0313905,0.738644,0.0582895,0.8730285,0.538264,-0.0156405,0.8049085,0.736364,-0.1297485,1.1795885,0.527084,0.0166935,1.2739284999999998,0.726144,-0.0973584999999999,0.8282385000000001,0.998234,-0.2168985,1.2560685,0.950314,-0.1839785,0.9398495000000001,0.003979,-0.0055725,1.0601505,-0.0039789999999999,0.0055725,0.8836685,-0.352996,-0.0112444999999999,1.1143885,-0.361326,-0.0039635,0.8343185000000001,-0.869286,0.0051045,1.1055484999999998,-0.7162959999999999,0.0977095
135,1.0317479999999999,0.738644,0.062847,0.872538,0.538264,-0.012716,0.803488,0.736364,-0.126439,1.179788,0.527084,0.0202689999999999,1.274748,0.726144,-0.092729,0.827878,0.998234,-0.214559,1.256948,0.951514,-0.180449,0.939676,0.003979,-0.005469,1.060324,-0.0039789999999999,0.0054689999999999,0.883758,-0.352996,-0.011629,1.114128,-0.3618059999999999,-0.004282,0.833908,-0.868206,0.0066339999999999,1.104948,-0.7164659999999999,0.101133
136,1.0319905,0.738644,0.0672234999999999,0.8721305,0.538264,-0.0098325,0.8017704999999999,0.736364,-0.1232245,1.1801504999999999,0.527084,0.0238254999999999,1.2762505,0.726144,-0.0888444999999999,0.8269505,0.998234,-0.2123844999999999,1.2572904999999999,0.949904,-0.1781745,0.9396195,0.003979,-0.0052805,1.0603805,-0.0039789999999999,0.0052804999999999,0.8839205,-0.352996,-0.0113285,1.1140305,-0.3624159999999999,-0.0039885,0.8334305,-0.867506,0.0077934999999999,1.1047205,-0.7164659999999999,0.1033675
137,1.0317005,0.739012,0.071078,0.8710365000000001,0.538002,-0.006752,0.7988265,0.734952,-0.121095,1.1801065,0.527092,0.027159,1.2783365,0.725552,-0.086005,0.8215865,0.996642,-0.210965,1.2572065000000001,0.947312,-0.176165,0.9396325,0.003896,-0.005089,1.0603675,-0.0038959999999999,0.0050889999999999,0.8837565000000001,-0.352968,-0.011157,1.1136165,-0.362328,-0.003602,0.8333865,-0.858098,0.009471,1.1038665,-0.715808,0.105877
138,1.0313045,0.73963,0.07431,0.8697085,0.53743,-0.0037779999999999,0.7939285,0.73195,-0.11939,1.1800385,0.52701,0.030076,1.2817185,0.72415,-0.08406,0.8161085000000001,0.99332,-0.21205,1.2577685,0.94497,-0.17445,0.9396055,0.0037659999999999,-0.004906,1.0603945,-0.0037659999999999,0.004906,0.8835985,-0.3529899999999999,-0.0104039999999999,1.1130785,-0.36228,-0.003269,0.8325885,-0.85885,0.011597,1.1031084999999998,-0.7150299999999999,0.107752
139,1.030946,0.740377,0.076903,0.868267,0.536327,-0.000895,0.7870969999999999,0.725057,-0.118316,1.180117,0.5268769999999999,0.032649,1.287507,0.719807,-0.082436,0.809277,0.988237,-0.214216,1.259677,0.946637,-0.175656,0.939577,0.00355,-0.004727,1.060423,-0.0035499999999999,0.0047269999999999,0.883387,-0.353093,-0.009917,1.112717,-0.3621029999999999,-0.002983,0.8322769999999999,-0.857133,0.0126559999999999,1.102327,-0.714453,0.108823
140,1.0306825,0.7414934999999999,0.0791325,0.8667015,0.5348735,0.0020265,0.7791715,0.7163934999999999,-0.1174105,1.1804415,0.5264234999999999,0.0350275,1.2944615,0.7142835,-0.0798104999999999,0.8000815,0.9761535,-0.2188004999999999,1.2656815,0.9413235,-0.1780705,0.9395075,0.0034485,-0.0045325,1.0604925,-0.0034485,0.0045325,0.8832715,-0.3531065,-0.0096035,1.1125715,-0.3619765,-0.0027424999999999,0.8319515,-0.8551165000000001,0.0134454999999999,1.1016415,-0.7139065,0.1096895
141,1.0303985,0.7426065,0.0810255,0.8648235,0.5334565,0.0048565,0.7680935,0.7027565,-0.1170975,1.1807935,0.5254365,0.0370435,1.3040435,0.7061565,-0.0773674999999999,0.7898835,0.9611565,-0.2254775,1.2719135,0.9353165,-0.1824474999999999,0.9394055,0.0033535,-0.0043324999999999,1.0605945,-0.0033534999999999,0.0043325,0.8830635,-0.3530735,-0.0095054999999999,1.1125935,-0.3618335,-0.0024644999999999,0.8315235,-0.8555635,0.0140115,1.1010335,-0.7138135,0.1103265
142,1.0301125,0.7442295000000001,0.082634,0.8629295000000001,0.5317995000000001,0.00762,0.7562495,0.6873195000000001,-0.117283,1.1811095,0.5239795,0.03887,1.3149795,0.6926995,-0.0751429999999999,0.7788695,0.9420995,-0.2351929999999999,1.2799795,0.9239195,-0.190393,0.9392735,0.0032715,-0.004158,1.0607265,-0.0032715,0.004158,0.8828395,-0.3530805,-0.0093379999999999,1.1127195,-0.3616605,-0.0022679999999999,0.8311295,-0.8557505,0.014801,1.1011095,-0.7135005,0.109058
143,1.0298885,0.7460694999999999,0.08403,0.8611915,0.5298995,0.010319,0.7428615000000001,0.6668695,-0.117824,1.1816315,0.5219395,0.040771,1.3272015,0.6734595,-0.072974,0.7669615000000001,0.9165895,-0.2450339999999999,1.2905615,0.9042695,-0.199244,0.9391645,0.0032154999999999,-0.0041669999999999,1.0608355,-0.0032154999999999,0.004167,0.8826715,-0.3530805,-0.009352,1.1130915,-0.3614905,-0.0022369999999999,0.8308415,-0.8559005000000001,0.015441,1.1024515,-0.7129305,0.107006
144,1.02969,0.7484925,0.0854045,0.8596509999999999,0.5274625000000001,0.0127574999999999,0.7291909999999999,0.6437625,-0.1180104999999999,1.182191,0.5198325,0.0427245,1.3382509999999999,0.6488125,-0.0694505,0.7532909999999999,0.8815025000000001,-0.2567104999999999,1.3038210000000001,0.8746825,-0.2087705,0.939055,0.0032895,-0.0041765,1.060945,-0.0032895,0.0041765,0.8822510000000001,-0.3529675,-0.0093875,1.113601,-0.3614275,-0.0021945,0.8306410000000001,-0.8526975,0.0154074999999999,1.1022210000000001,-0.7120575,0.1075734999999999
145,1.0294925,0.7511059999999999,0.0865215,0.8582605,0.524566,0.0150315,0.7183505,0.615256,-0.1171234999999999,1.1828005,0.517586,0.0447485,1.3475005,0.620846,-0.0659035,0.7395705,0.839316,-0.2685634999999999,1.3176605000000001,0.8354159999999999,-0.2207435,0.9389555,0.0033029999999999,-0.0041775,1.0610445,-0.003303,0.0041775,0.8822305,-0.352924,-0.0091074999999999,1.1141605,-0.361304,-0.0021095,0.8302705,-0.8525940000000001,0.0159725,1.1019505,-0.711454,0.1084415
146,1.029418,0.753837,0.0871494999999999,0.857322,0.5223570000000001,0.0164435,0.7096020000000001,0.5822970000000001,-0.1154785,1.183512,0.5150170000000001,0.0463045,1.353972,0.588937,-0.0610085,0.7291620000000001,0.787477,-0.2775485,1.328012,0.785587,-0.2291985,0.9388780000000001,0.003298,-0.0040455,1.061122,-0.0032979999999999,0.0040455,0.882332,-0.352943,-0.0088575,1.114812,-0.3611629999999999,-0.0018845,0.829982,-0.8525429999999999,0.0162875,1.101742,-0.711293,0.1093915
147,1.0294555,0.7565575,0.0869695,0.8566315000000001,0.5202975,0.0170535,0.7041014999999999,0.5466475000000001,-0.1106195,1.1842515,0.5125175000000001,0.0472965,1.3574914999999999,0.5530275,-0.0532795,0.7202815,0.7294375,-0.2788095,1.3334915,0.7252075,-0.2318395,0.9388585,0.0033245,-0.0040055,1.0611415,-0.0033244999999999,0.0040054999999999,0.8823715,-0.3528425,-0.0088575,1.1155315,-0.3609925,-0.0017435,0.8299415,-0.8524125,0.0162994999999999,1.1001115,-0.7111925,0.1117115
148,1.0294995,0.7593235,0.0862845,0.8561515,0.5187635,0.0167905,0.7020515,0.5130535,-0.1000004999999999,1.1849515,0.5100235,0.0477345,1.3565715,0.5172035,-0.0433294999999999,0.7107915,0.6643935,-0.2802905,1.3437014999999999,0.6586835,-0.2316704999999999,0.9388935,0.0035265,-0.0040544999999999,1.0611065,-0.0035265,0.0040545,0.8824115,-0.3525864999999999,-0.0089635,1.1162415,-0.3609965,-0.0016504999999999,0.8298814999999999,-0.8521765,0.0162885,1.0995815,-0.7110465,0.1131595
149,1.0295765,0.7619005,0.0853755,0.8559895,0.5175405,0.0158615,0.7009295000000001,0.4799704999999999,-0.0878885,1.1854495,0.5078104999999999,0.0474135,1.3554095,0.4803305,-0.0307075,0.7074495000000001,0.5959405,-0.2814785,1.3462895,0.5931605,-0.2323785,0.9389485000000001,0.0036574999999999,-0.0041124999999999,1.0610514999999998,-0.0036575,0.0041124999999999,0.8824595,-0.3524095,-0.0091855,1.1170895,-0.3609295,-0.0015415,0.8298095,-0.8520395000000001,0.0155305,1.0991595,-0.7110295,0.1142855
150,1.029726,0.7644489999999999,0.0844274999999999,0.855974,0.5161789999999999,0.0148994999999999,0.699724,0.450119,-0.0745305,1.186024,0.505979,0.0467364999999999,1.354204,0.444489,-0.0174205,0.7074140000000001,0.526389,-0.2823105,1.347294,0.525949,-0.2332505,0.93896,0.0037669999999999,-0.0041815,1.06104,-0.003767,0.0041814999999999,0.882324,-0.352261,-0.0093885,1.117834,-0.360861,-0.0015015,0.829704,-0.8519410000000001,0.0145704999999999,1.098964,-0.710731,0.1144545
151,1.030005,0.7665270000000001,0.0832585,0.855952,0.514907,0.0139994999999999,0.698412,0.4193469999999999,-0.0600705,1.186632,0.504617,0.0458895,1.352042,0.4119669999999999,-0.0025565,0.706332,0.4518069999999999,-0.2705205,1.346272,0.450337,-0.2221405,0.938918,0.003839,-0.0043185,1.061082,-0.003839,0.0043184999999999,0.882242,-0.352143,-0.0095735,1.1185019999999999,-0.360803,-0.0015365,0.829672,-0.851833,0.0138274999999999,1.098662,-0.710553,0.1143645
152,1.030433,0.768402,0.0813359999999999,0.85595,0.513842,0.0128279999999999,0.6990200000000001,0.391212,-0.044971,1.18711,0.503712,0.045076,1.34811,0.383322,0.012418,0.70472,0.378142,-0.252447,1.3449,0.379002,-0.207027,0.9388380000000001,0.0038599999999999,-0.004462,1.061162,-0.00386,0.004462,0.882,-0.352068,-0.0098009999999999,1.11905,-0.360738,-0.0015939999999999,0.82942,-0.851768,0.0129249999999999,1.09838,-0.7106279999999999,0.114336
153,1.030954,0.769963,0.0788659999999999,0.856208,0.5131429999999999,0.0111729999999999,0.7048479999999999,0.363563,-0.028624,1.187478,0.502973,0.044331,1.3395579999999998,0.357033,0.026561,0.703468,0.309633,-0.227741,1.342938,0.312383,-0.185531,0.9387880000000001,0.003754,-0.0045909999999999,1.0612119999999998,-0.003754,0.0045909999999999,0.881798,-0.352117,-0.0100509999999999,1.119428,-0.3605669999999999,-0.0016509999999999,0.8288880000000001,-0.8518070000000001,0.012246,1.097888,-0.7104870000000001,0.114094
154,1.031553,0.7712205,0.0757694999999999,0.856491,0.5127205,0.0089664999999999,0.713931,0.3385805,-0.0115875,1.1877010000000001,0.5025305,0.0435235,1.327881,0.3317705,0.0411275,0.7057709999999999,0.2424905,-0.1974325,1.337431,0.2481605,-0.1571325,0.938766,0.0036555,-0.0047095,1.061234,-0.0036555,0.0047094999999999,0.8815310000000001,-0.3521495,-0.0104055,1.119671,-0.3604195,-0.0017835,0.828101,-0.8518795,0.0117234999999999,1.097671,-0.7098095,0.1138825
155,1.0322685,0.772228,0.0722395,0.8568884999999999,0.5119779999999999,0.0063124999999999,0.7258785,0.3171279999999999,0.0052935,1.1880085,0.502348,0.0426135,1.3137785,0.3102879999999999,0.0545945,0.7107385000000002,0.186198,-0.1603834999999999,1.3275085,0.192558,-0.1243535,0.9387485,0.003589,-0.0047945,1.0612515,-0.0035889999999999,0.0047945,0.8813585,-0.352092,-0.0108925,1.1198685,-0.360312,-0.0019165,0.8267385,-0.8524120000000001,0.0109994999999999,1.0972185,-0.7090920000000001,0.1142585
156,1.0331085,0.7730035000000001,0.0683005,0.8572124999999999,0.5113735,0.0037914999999999,0.7390825,0.3000735,0.0193665,1.1883525,0.5022335,0.0416475,1.2990024999999998,0.2922435,0.0656325,0.7186925,0.1380334999999999,-0.1229354999999999,1.3129525,0.1426235,-0.0894255,0.9387335,0.0034954999999999,-0.0048515,1.0612665,-0.0034955,0.0048514999999999,0.8812325,-0.3521265,-0.0112965,1.1200125,-0.3601765,-0.0021175,0.8256625,-0.8529565,0.0103464999999999,1.0964725,-0.7083765,0.1148435
157,1.033922,0.773447,0.064276,0.857502,0.510747,0.001411,0.7509319999999999,0.284647,0.028628,1.188732,0.502427,0.040518,1.284692,0.276387,0.074945,0.728032,0.099031,-0.081298,1.297312,0.101403,-0.049793,0.938753,0.003335,-0.0048969999999999,1.061247,-0.0033349999999999,0.0048969999999999,0.881102,-0.352233,-0.0116269999999999,1.120042,-0.360003,-0.0023859999999999,0.824072,-0.857853,0.009947,1.095322,-0.707563,0.115436
158,1.034497,0.774414,0.0591475,0.856742,0.510484,-0.0017474999999999,0.775212,0.247434,0.0459975,1.188042,0.502024,0.0382205,1.267782,0.246464,0.0823705,0.747852,0.018176,-0.0224545,1.280002,0.03431,0.0103865,0.938704,0.002844,-0.0049265,1.061296,-0.002844,0.0049265,0.882012,-0.352656,-0.0077095,1.119472,-0.359576,-0.0015635,0.815392,-0.903836,0.0130795,1.095662,-0.707746,0.1133734999999999
159,1.035936,0.7747495,0.0543305,0.85819,0.5077895,-0.0057454999999999,0.7844800000000001,0.2356695,0.0492685,1.18933,0.5023795,0.0373875,1.25634,0.2388395,0.0885315,0.76203,-0.0094604999999999,0.0193805,1.26355,0.0216055,0.0365805,0.9388230000000001,0.0029315,-0.0048214999999999,1.0611769999999998,-0.0029315,0.0048215,0.87729,-0.3519704999999999,-0.0105164999999999,1.11948,-0.3596205,-0.0016874999999999,0.8238300000000001,-0.8518205000000001,0.0074325,1.092435,-0.7058905000000001,0.1176255
160,1.0372015,0.7748565,0.050191,0.8589805,0.5077365,-0.0078019999999999,0.7883105,0.2353665,0.052081,1.1900805,0.5030665,0.036699,1.2410405,0.2258065,0.097722,0.7663605,-0.0040475,0.024613,1.2448005,-0.0193135,0.0637,0.9389455,0.0030914999999999,-0.0049149999999999,1.0610545,-0.0030915,0.004915,0.8803705,-0.3524135,-0.0113579999999999,1.1198005,-0.3597535,-0.0021349999999999,0.8156005,-0.9000335,0.012002,1.0899595,-0.7047035,0.119887
161,1.037914,0.7738755,0.0481855,0.859369,0.5078254999999999,-0.0076164999999999,0.793079,0.2342455,0.0599935,1.1908590000000001,0.5034155,0.0379095,1.232329,0.2203655,0.1062585,0.786639,0.0145245,0.0737085,1.238119,-0.0242075,0.0745845,0.939099,0.0031374999999999,-0.0050305,1.060901,-0.0031375,0.0050305,0.879959,-0.3523045,-0.0128044999999999,1.119189,-0.3598745,-0.0031254999999999,0.814439,-0.8995445,0.0097215,1.088576,-0.7046945,0.1189834999999999
162,1.037073,0.773401,0.0453895,0.858916,0.507751,-0.0082925,0.794536,0.234761,0.0679815,1.190706,0.504361,0.0379764999999999,1.227836,0.218771,0.1122445,0.784666,0.0144849999999999,0.0741645,1.233896,-0.022782,0.0802644999999999,0.939223,0.0030709999999999,-0.0052745,1.060777,-0.003071,0.0052744999999999,0.881176,-0.3533489999999999,-0.0233995,1.118606,-0.359919,-0.0033395,0.817196,-0.850969,0.0062574999999999,1.088924,-0.704689,0.1190825
163,1.0371,0.772949,0.042098,0.85883,0.507679,-0.008511,0.79479,0.233069,0.073198,1.1911100000000001,0.505249,0.037724,1.2262499999999998,0.219609,0.114853,0.77768,0.013557,0.082149,1.22929,-0.014568,0.092982,0.939287,0.003017,-0.00526,1.060713,-0.003017,0.00526,0.88118,-0.353391,-0.023481,1.11872,-0.359881,-0.003889,0.81898,-0.851281,0.0057969999999999,1.088881,-0.704291,0.1194119999999999
164,1.0371569999999999,0.772989,0.039556,0.858699,0.507679,-0.0083629999999999,0.792589,0.231449,0.077775,1.191519,0.505699,0.037881,1.226229,0.220319,0.115934,0.769389,0.012606,0.087098,1.229669,-0.014647,0.093419,0.939334,0.00298,-0.00537,1.0606659999999999,-0.00298,0.00537,0.883079,-0.353591,-0.0210319999999999,1.118889,-0.359851,-0.004232,0.811029,-0.898341,0.0087,1.088174,-0.703301,0.121229
