sb224sc-HT22-VT27/4dt907/src/data/kinect_good_preprocessed_not_cut_A11_mediapipe/A70_kinect.csv
FrameNo,nose_3d_x,nose_3d_y,nose_3d_z,left_shoulder_3d_x,left_shoulder_3d_y,left_shoulder_3d_z,left_elbow_3d_x,left_elbow_3d_y,left_elbow_3d_z,right_shoulder_3d_x,right_shoulder_3d_y,right_shoulder_3d_z,right_elbow_3d_x,right_elbow_3d_y,right_elbow_3d_z,left_wrist_3d_x,left_wrist_3d_y,left_wrist_3d_z,right_wrist_3d_x,right_wrist_3d_y,right_wrist_3d_z,left_hip_3d_x,left_hip_3d_y,left_hip_3d_z,right_hip_3d_x,right_hip_3d_y,right_hip_3d_z,left_knee_3d_x,left_knee_3d_y,left_knee_3d_z,right_knee_3d_x,right_knee_3d_y,right_knee_3d_z,left_ankle_3d_x,left_ankle_3d_y,left_ankle_3d_z,right_ankle_3d_x,right_ankle_3d_y,right_ankle_3d_z
0,-0.040624,0.758062,0.011900499999999994,-0.20579199999999997,0.501272,-0.002425500000000004,-0.253262,0.29522200000000004,-0.09044450000000001,0.13684800000000003,0.503552,-0.010300500000000004,0.204988,0.310862,-0.11661450000000001,-0.245342,0.084532,-0.2734645,0.24658799999999997,0.11122199999999999,-0.28608449999999996,-0.061571,-0.0028910000000000003,-0.0012385000000000035,0.061571,0.0028910000000000003,0.0012384999999999965,-0.120582,-0.360788,-0.016013500000000007,0.12368799999999999,-0.35241799999999995,-0.00019350000000000617,-0.161522,-0.861958,0.009214499999999994,0.192428,-0.8985879999999999,0.005098499999999995
1,-0.039238999999999996,0.757885,0.0166175,-0.202308,0.501795,-0.0042745000000000005,-0.26533799999999996,0.318375,-0.1292945,0.13547199999999998,0.506015,-0.0102685,0.20967200000000003,0.333425,-0.14398450000000002,-0.24864799999999998,0.131935,-0.3661245,0.231182,0.178305,-0.3635545,-0.061655,-0.003138,-0.0010495000000000018,0.061655,0.003138,0.0010495000000000018,-0.119768,-0.36117499999999997,-0.0158325,0.124162,-0.35211499999999996,-0.0005174999999999971,-0.16170800000000002,-0.862425,0.0071745,0.19302200000000003,-0.900425,0.002521500000000003
2,-0.038676,0.757786,0.021674,-0.199353,0.5015759999999999,-0.004091000000000001,-0.273593,0.342556,-0.155501,0.133237,0.5078959999999999,-0.008813999999999999,0.212117,0.360976,-0.169571,-0.25759299999999996,0.218576,-0.40371100000000004,0.227257,0.251126,-0.418761,-0.061766999999999996,-0.003162,-0.0012810000000000009,0.061766999999999996,0.003162,0.0012810000000000009,-0.11935300000000001,-0.361234,-0.015458000000000003,0.124137,-0.352204,-0.001075999999999997,-0.161963,-0.862554,0.0059619999999999986,0.19552699999999998,-0.899594,0.008156
3,-0.0380095,0.7578364999999999,0.026565999999999996,-0.1922095,0.5060665,0.00034099999999999756,-0.2733795,0.4095765,-0.195819,0.1315505,0.5094865,-0.007453000000000001,0.2213605,0.4042465,-0.19411899999999999,-0.2965795,0.3307565,-0.409219,0.2218205,0.3421965,-0.44251900000000005,-0.061865500000000004,-0.0032385,-0.0018030000000000025,0.061865500000000004,0.0032385,0.001802999999999999,-0.1192595,-0.36137349999999996,-0.016291,0.1273705,-0.35139349999999997,0.0007179999999999964,-0.1623195,-0.8627735000000001,0.0034639999999999983,0.1949705,-0.9006035,0.006768999999999997
4,-0.0377985,0.7569295,0.029497500000000003,-0.1863325,0.5034295000000001,0.004522500000000002,-0.2714525,0.40877949999999996,-0.1907905,0.12879749999999998,0.5118195000000001,-0.004990500000000002,0.2224275,0.4554295,-0.2104005,-0.2948425,0.32862949999999996,-0.4036705,0.2233475,0.4463495,-0.4388405,-0.0617555,-0.0028085000000000002,-0.0013974999999999994,0.0617555,0.0028085,0.0013974999999999994,-0.11992249999999999,-0.3609505,-0.017425499999999997,0.1250075,-0.3524605,-0.0015755000000000005,-0.1629625,-0.8623004999999999,0.0031135000000000017,0.16706749999999998,-0.9033304999999999,0.0517595
5,-0.0376205,0.756586,0.0319545,-0.1849965,0.503286,0.0070805,-0.2968765,0.48432600000000003,-0.1961215,0.1277635,0.5136160000000001,-0.0021405,0.21286349999999998,0.510876,-0.2186815,-0.2838165,0.43841600000000003,-0.41990150000000004,0.2204435,0.5231560000000001,-0.4466415,-0.0617335,-0.0027760000000000003,-0.0011185000000000014,0.0617335,0.0027760000000000003,0.001118499999999998,-0.1201865,-0.360934,-0.0179205,0.1247735,-0.35259399999999996,-0.002271499999999999,-0.16463650000000002,-0.862274,0.0010615,0.1834235,-0.907794,0.0257275
6,-0.0375055,0.7544185,0.034936499999999995,-0.18402949999999998,0.5039385000000001,0.0103515,-0.2804195,0.5195485000000001,-0.2009445,0.12656050000000002,0.5172985,0.002738499999999998,0.2102005,0.5561785,-0.23505450000000003,-0.2634395,0.5753485,-0.5006345,0.2031905,0.6406985000000001,-0.5054945,-0.0617125,-0.0027004999999999998,-0.0007675000000000008,0.0617125,0.0027004999999999998,0.0007675000000000008,-0.1204495,-0.3608715,-0.019535499999999997,0.1240405,-0.3528915,-0.0041624999999999995,-0.1650295,-0.8622614999999999,-0.0016635000000000018,0.1825205,-0.9126015,0.0180635
7,-0.03634950000000001,0.7494385,0.035458500000000004,-0.1839005,0.5095385,0.014617499999999999,-0.2743805,0.5638885,-0.1691345,0.1259695,0.5220685,0.0064624999999999995,0.2057295,0.5923585,-0.1799645,-0.2648905,0.6461485,-0.37540450000000003,0.1998295,0.7023685000000001,-0.3818345,-0.061788499999999996,-0.0024455000000000006,-0.001294499999999997,0.061788499999999996,0.0024454999999999998,0.0012945000000000005,-0.1190005,-0.3609315,-0.0178945,0.1234595,-0.3531915,-0.002412499999999998,-0.1638005,-0.8621715,0.0025255,0.1843495,-0.9130915,0.0099425
8,-0.035943,0.7464719999999999,0.035975,-0.182636,0.5118119999999999,0.016782000000000002,-0.27463600000000005,0.600402,-0.168897,0.124834,0.5256719999999999,0.008682000000000002,0.20436400000000002,0.6300119999999999,-0.179657,-0.26730600000000004,0.7190719999999999,-0.375027,0.193244,0.776782,-0.379687,-0.061824000000000004,-0.002254000000000001,-0.0013740000000000002,0.061824000000000004,0.002254000000000001,0.0013740000000000002,-0.11873600000000001,-0.360888,-0.018105999999999997,0.12317399999999999,-0.353468,-0.0026349999999999985,-0.163966,-0.862128,0.002073000000000002,0.184084,-0.917598,0.010049000000000002
9,-0.035595,0.7434365000000001,0.0364345,-0.182046,0.5136665,0.018610500000000002,-0.274576,0.6369265,-0.16734949999999998,0.124034,0.5287165,0.010741500000000001,0.202324,0.6632165,-0.1774895,-0.268726,0.7934865,-0.3622195,0.187634,0.8405765,-0.3660795,-0.061804,-0.001957499999999999,-0.001509499999999997,0.061804,0.001957500000000001,0.0015095000000000004,-0.118346,-0.3607335,-0.0182885,0.122894,-0.3539735,-0.0027874999999999983,-0.16398600000000002,-0.8619735,0.001525499999999999,0.183864,-0.9228035,0.0104635
10,-0.0352345,0.7402639999999999,0.0371935,-0.1815685,0.5158039999999999,0.020372499999999995,-0.2731885,0.6657639999999999,-0.1613965,0.1233715,0.5317139999999999,0.012737499999999995,0.1998015,0.690774,-0.1713665,-0.2693485,0.857474,-0.3426165,0.18261149999999998,0.896664,-0.3438565,-0.0617745,-0.0018460000000000004,-0.001522500000000003,0.0617745,0.0018460000000000004,0.001522499999999996,-0.11791850000000001,-0.360766,-0.018401500000000008,0.1225415,-0.354286,-0.0029185000000000044,-0.1639185,-0.862016,0.0013124999999999942,0.1832015,-0.928546,0.011232499999999996
11,-0.03491799999999999,0.7368239999999999,0.0382075,-0.181245,0.5175639999999999,0.0218785,-0.271515,0.692004,-0.14975149999999998,0.122795,0.534924,0.0144175,0.196715,0.7144539999999999,-0.1616915,-0.267945,0.907704,-0.3206915,0.179275,0.941264,-0.3170215,-0.061704999999999996,-0.001729999999999999,-0.0015765000000000015,0.061704999999999996,0.0017300000000000024,0.0015765000000000015,-0.117495,-0.360766,-0.018362500000000004,0.121905,-0.35459599999999997,-0.002986500000000003,-0.163795,-0.8620260000000001,0.0015714999999999965,0.183005,-0.934516,0.012011499999999998
12,-0.034669500000000006,0.733217,0.0390275,-0.1810935,0.519027,0.0231595,-0.2700735,0.713937,-0.13791150000000002,0.12238650000000001,0.538357,0.0159585,0.1936465,0.732507,-0.1494815,-0.2664635,0.947937,-0.29811150000000003,0.1773365,0.975197,-0.28957150000000004,-0.061606499999999995,-0.0016619999999999968,-0.0016185000000000019,0.061606499999999995,0.0016620000000000038,0.0016185000000000019,-0.1171035,-0.360823,-0.0181785,0.12124650000000001,-0.35489299999999996,-0.0029105000000000034,-0.1636435,-0.862093,0.0019314999999999957,0.1841465,-0.941083,0.010939499999999998
13,-0.034550500000000005,0.7298020000000001,0.0393585,-0.18103550000000002,0.519872,0.024149499999999997,-0.2672355,0.732282,-0.1249555,0.12199449999999999,0.541242,0.016979499999999998,0.1905545,0.7452420000000001,-0.1357955,-0.2648055,0.979792,-0.2724355,0.1767945,1.001692,-0.2599455,-0.0614655,-0.0016229999999999994,-0.0017765000000000003,0.0614655,0.0016229999999999994,0.0017765000000000003,-0.1167755,-0.36087800000000003,-0.017542500000000003,0.1204945,-0.35510800000000003,-0.0025944999999999996,-0.1633055,-0.862188,0.0029034999999999964,0.1849145,-0.945508,0.010817499999999997
14,-0.0345585,0.7275174999999999,0.0387225,-0.1809885,0.5201874999999999,0.024694499999999998,-0.2646685,0.7450074999999999,-0.1116945,0.1216915,0.5436274999999999,0.017547499999999997,0.1880315,0.7551574999999999,-0.12141450000000001,-0.2640385,1.0046375,-0.2457945,0.1765115,1.0217375,-0.23306449999999998,-0.0612625,-0.0016734999999999944,-0.0020035000000000053,0.0612625,0.0016735000000000014,0.0020034999999999983,-0.1165185,-0.3609825,-0.0170115,0.1197215,-0.3552325,-0.0024565000000000003,-0.1630885,-0.8623325000000001,0.003437499999999996,0.1857115,-0.9480525000000001,0.010334499999999996
15,-0.03476749999999999,0.7261115,0.037289,-0.1809645,0.5193515,0.024693,-0.2626445,0.7514615,-0.102099,0.1214555,0.5452515,0.017563,0.18634550000000003,0.7606515,-0.112479,-0.26356450000000003,1.0169415,-0.22666899999999998,0.17681550000000001,1.0313415,-0.214099,-0.0610265,-0.001525499999999999,-0.002019,0.0610265,0.001525499999999999,0.002019,-0.1163145,-0.36086850000000004,-0.017026,0.1189755,-0.3555185,-0.002477,-0.16279449999999998,-0.8622785000000001,0.0034169999999999964,0.18625550000000002,-0.9498085,0.010238
16,-0.034943,0.7252649999999999,0.035382,-0.180907,0.5186149999999999,0.024179,-0.26065699999999997,0.756365,-0.093566,0.12123300000000001,0.545955,0.01724,0.184863,0.764575,-0.10509600000000001,-0.262917,1.025555,-0.211426,0.177163,1.038155,-0.199326,-0.060834,-0.0015560000000000018,-0.002031999999999999,0.060834,0.0015560000000000018,0.002031999999999999,-0.116147,-0.360925,-0.017037000000000004,0.118323,-0.355715,-0.002686000000000001,-0.162557,-0.8623850000000001,0.003382999999999997,0.186433,-0.9526450000000001,0.010563999999999997
17,-0.035073999999999994,0.7243325,0.033749999999999995,-0.18083,0.5177925,0.023549999999999995,-0.25899,0.7595425,-0.086925,0.12104000000000001,0.5463425000000001,0.016801999999999994,0.1836,0.7680025,-0.10097500000000001,-0.26234,1.0318524999999998,-0.200305,0.17749,1.0424525,-0.187675,-0.060671,-0.001520500000000001,-0.002043000000000003,0.060671,0.001520500000000001,0.002042999999999996,-0.11599999999999999,-0.3609075,-0.016863000000000003,0.11764000000000001,-0.3559775,-0.003017000000000006,-0.16227,-0.8624175,0.003375999999999997,0.18647,-0.9551975,0.010831999999999994
18,-0.035018999999999995,0.7229814999999999,0.032182499999999996,-0.180584,0.5170515,0.0227805,-0.25758400000000004,0.7624815,-0.0826955,0.121056,0.5466015,0.016243499999999998,0.18280600000000002,0.7696415,-0.09760550000000001,-0.261784,1.0360515,-0.1923155,0.17783600000000002,1.0455515,-0.1788955,-0.060649999999999996,-0.0016905000000000045,-0.0020955,0.060649999999999996,0.0016904999999999976,0.0020955,-0.115764,-0.3611585,-0.015450499999999999,0.117076,-0.3561485,-0.0034964999999999996,-0.16189399999999998,-0.8627885,0.0033814999999999956,0.186706,-0.9574485,0.011016499999999999
19,-0.034949,0.721809,0.030298999999999993,-0.180332,0.516489,0.021502999999999994,-0.25652200000000003,0.764659,-0.080928,0.121298,0.546649,0.015186999999999992,0.18224800000000002,0.771009,-0.095898,-0.261452,1.0385989999999998,-0.187938,0.17798799999999998,1.047799,-0.17398800000000003,-0.060611,-0.0018320000000000003,-0.0021820000000000034,0.060611,0.0018320000000000003,0.0021819999999999964,-0.115582,-0.361421,-0.014357000000000009,0.116388,-0.35645099999999996,-0.004526000000000009,-0.161462,-0.863171,0.003013999999999996,0.188228,-0.960801,0.010603999999999995
20,-0.0348975,0.720369,0.027455499999999997,-0.1800895,0.516629,0.019216499999999997,-0.25580949999999997,0.765229,-0.0819615,0.1214605,0.546919,0.013108499999999999,0.18146050000000002,0.7725190000000001,-0.0974815,-0.2612695,1.038959,-0.18725150000000002,0.1778905,1.0480589999999999,-0.1733415,-0.0604885,-0.0020509999999999973,-0.0017005000000000006,0.0604885,0.0020509999999999973,0.0017005000000000006,-0.1154895,-0.361731,-0.0139455,0.1154905,-0.35665100000000005,-0.0064665,-0.16101949999999998,-0.863591,0.0018364999999999979,0.1886505,-0.963611,0.008347499999999997
21,-0.0345115,0.718755,0.023691499999999997,-0.1797395,0.5172950000000001,0.016314499999999996,-0.2550195,0.763615,-0.08423549999999999,0.1215505,0.545425,0.010110499999999998,0.18145050000000001,0.771865,-0.09969549999999999,-0.2608795,1.037345,-0.1894855,0.17768050000000002,1.047245,-0.1755455,-0.0603095,-0.002236000000000002,-0.001076500000000001,0.0603095,0.002235999999999988,0.0010764999999999976,-0.1153595,-0.36194499999999996,-0.014053500000000003,0.1143005,-0.35675500000000004,-0.009475500000000005,-0.1606495,-0.863945,0.0004804999999999983,0.1886205,-0.9633849999999999,0.005511499999999996
22,-0.0340195,0.7182435,0.018591,-0.1793215,0.5187235,0.012264,-0.2542115,0.7631035,-0.08758099999999999,0.1215785,0.5449135,0.005697000000000001,0.1813885,0.7713535,-0.10298099999999999,-0.2599015,1.0368335,-0.19284099999999998,0.1773685,1.0467335,-0.178811,-0.0601215,-0.0023704999999999976,-0.0006080000000000009,0.0601215,0.0023704999999999976,0.0006080000000000009,-0.1153215,-0.36192650000000004,-0.015871000000000003,0.1130785,-0.3568165,-0.013187999999999998,-0.1606615,-0.8644565,-0.0020149999999999994,0.1885585,-0.9641965,0.002225999999999999
23,-0.033355499999999996,0.7182435,0.0118715,-0.17878149999999998,0.5189235,0.007147500000000001,-0.2532615,0.7631035,-0.0919565,0.1216685,0.5449135,9.550000000000183e-05,0.18125850000000002,0.7713535,-0.10853649999999998,-0.2583615,1.0368335,-0.19726649999999998,0.17706850000000002,1.0467335,-0.1831065,-0.059983499999999995,-0.0023704999999999976,0.00017649999999999957,0.059983499999999995,0.0023704999999999976,-0.00017649999999999957,-0.1153415,-0.36192650000000004,-0.018570499999999997,0.11197850000000001,-0.3568165,-0.0182545,-0.16066149999999998,-0.8644565,-0.0055855,0.18827850000000002,-0.9632364999999999,-0.0020745
24,-0.032462000000000005,0.7177535,0.003674000000000002,-0.178193,0.5189235,0.0011280000000000005,-0.25223300000000004,0.7630135,-0.098269,0.12171699999999999,0.5449135,-0.007122,0.181387,0.7713535,-0.11595899999999998,-0.256633,1.0362334999999998,-0.202709,0.176727,1.0467335,-0.18847899999999998,-0.059862,-0.0023704999999999976,0.001006,0.059862,0.0023704999999999976,-0.001006,-0.115593,-0.36192650000000004,-0.022218,0.11080699999999999,-0.3568165,-0.025645,-0.16070299999999998,-0.8644565,-0.010787999999999999,0.187687,-0.9614064999999999,-0.006621999999999999
25,-0.031572,0.7158135,-0.0053325000000000004,-0.177584,0.5189235,-0.0051135,-0.251284,0.7607135,-0.10654749999999999,0.121766,0.5440335000000001,-0.0148335,0.181686,0.7709535000000001,-0.1250075,-0.254964,1.0327335,-0.2115375,0.176086,1.0448335,-0.1973275,-0.059814,-0.0023704999999999976,0.0019014999999999987,0.059814,0.0023704999999999976,-0.0019015000000000004,-0.116454,-0.36192650000000004,-0.027082500000000002,0.109656,-0.3568165,-0.0336775,-0.161914,-0.8721765,-0.016310500000000002,0.187506,-0.9613265,-0.0130235
26,-0.030888000000000002,0.7127995,-0.015774000000000003,-0.176462,0.5201595,-0.012612,-0.250702,0.7575295000000001,-0.11678799999999999,0.121738,0.5398795000000001,-0.026959000000000004,0.181888,0.7690995,-0.13666799999999998,-0.253482,1.0289694999999999,-0.222928,0.174958,1.0418695,-0.209178,-0.059888,-0.0024894999999999917,0.0030800000000000003,0.059888,0.0024895000000000056,-0.0030799999999999994,-0.117762,-0.36176050000000004,-0.033381,0.108528,-0.35671050000000004,-0.04292,-0.163392,-0.8791005,-0.022598,0.186908,-0.9600905,-0.019531
27,-0.0302345,0.709216,-0.027322,-0.1752515,0.521316,-0.020839999999999997,-0.2502715,0.754066,-0.128536,0.1211985,0.536706,-0.039486,0.1821985,0.767026,-0.149946,-0.25181149999999997,1.024856,-0.236636,0.1736785,1.038556,-0.223366,-0.0600275,-0.002679000000000001,0.004205,0.0600275,0.002679000000000001,-0.004205,-0.1192315,-0.361544,-0.039966,0.1078385,-0.356394,-0.052974,-0.1651615,-0.884664,-0.029162999999999998,0.1858885,-0.957284,-0.026285
28,-0.0296435,0.7034214999999999,-0.039695499999999995,-0.17412350000000001,0.5231515,-0.0290085,-0.24997350000000002,0.7500614999999999,-0.1412065,0.1206365,0.5337814999999999,-0.0521195,0.1823765,0.7638014999999999,-0.1648465,-0.2499235,1.0200115,-0.2513065,0.1721265,1.0343115,-0.2388965,-0.060104500000000005,-0.0027885000000000063,0.0054415,0.060104500000000005,0.0027884999999999993,-0.0054415,-0.1208835,-0.36112849999999996,-0.046495499999999995,0.1073065,-0.35607849999999996,-0.0632835,-0.1670935,-0.8892185,-0.0361875,0.1845265,-0.9521985000000001,-0.033743499999999996
29,-0.0291995,0.6974495,-0.051878999999999995,-0.1731415,0.5244694999999999,-0.037043,-0.2501715,0.7459395,-0.15498,0.1200285,0.5296095,-0.064633,0.18230849999999998,0.7598895,-0.18001,-0.2481315,1.0132495,-0.26747,0.1702785,1.0296494999999999,-0.25603000000000004,-0.0600595,-0.0028105000000000005,0.0061189999999999994,0.0600595,0.0028104999999999936,-0.0061189999999999994,-0.1228315,-0.3604205,-0.052474999999999994,0.10664850000000001,-0.3556805,-0.073182,-0.16895149999999998,-0.8916505,-0.042567999999999995,0.1830585,-0.9452405,-0.040636
30,-0.029062499999999998,0.6925300000000001,-0.0644665,-0.1721675,0.52234,-0.0467295,-0.2506975,0.7439600000000001,-0.16979349999999999,0.1193325,0.52342,-0.0783065,0.18192250000000001,0.7570600000000001,-0.19615349999999998,-0.2463975,1.0021099999999998,-0.28374350000000004,0.1678625,1.01861,-0.27425350000000004,-0.060206499999999996,-0.0028980000000000047,0.006843499999999999,0.060206499999999996,0.002897999999999998,-0.006843500000000001,-0.12560749999999998,-0.3593,-0.0599715,0.1057825,-0.35476,-0.08329450000000001,-0.17117749999999998,-0.89059,-0.0486845,0.18143250000000002,-0.93462,-0.0470855
31,-0.0291745,0.686393,-0.076782,-0.17129950000000002,0.520623,-0.055774000000000004,-0.2515695,0.742223,-0.184234,0.11854050000000001,0.518213,-0.091006,0.1810905,0.752613,-0.21216400000000002,-0.24503950000000002,0.9917029999999999,-0.299344,0.1654205,1.007703,-0.29103399999999996,-0.060450500000000004,-0.0027800000000000047,0.007650999999999998,0.060450500000000004,0.0027799999999999978,-0.0076510000000000015,-0.1287695,-0.357677,-0.067416,0.1049905,-0.35374700000000003,-0.09328800000000001,-0.17348950000000002,-0.887837,-0.053875000000000006,0.1797605,-0.922207,-0.052699
32,-0.029937500000000002,0.6808705,-0.088332,-0.1706925,0.5173505,-0.064752,-0.2529225,0.7340805,-0.197549,0.11750749999999999,0.5126205,-0.103327,0.1802475,0.7455605,-0.225809,-0.2437625,0.9814005,-0.31393899999999997,0.1627675,0.9982405,-0.307369,-0.0607885,-0.0025094999999999996,0.008232999999999997,0.0607885,0.0025095000000000013,-0.008233,-0.1324225,-0.3555495,-0.07509,0.1045375,-0.3525695,-0.10353599999999999,-0.1759425,-0.8831395,-0.058435,0.1779175,-0.9084995,-0.057337
33,-0.03142400000000001,0.675945,-0.098851,-0.17037100000000002,0.514055,-0.073195,-0.254491,0.727595,-0.209513,0.115979,0.507305,-0.114854,0.17856899999999998,0.740115,-0.238993,-0.242451,0.972975,-0.327673,0.159709,0.990095,-0.323073,-0.061123000000000004,-0.002334,0.008698999999999998,0.061123000000000004,0.0023339999999999997,-0.008698999999999998,-0.136801,-0.35296500000000003,-0.08324000000000001,0.104829,-0.351015,-0.11246199999999999,-0.178461,-0.876265,-0.062204999999999996,0.17601899999999998,-0.893035,-0.060933
34,-0.032419500000000004,0.6711555,-0.108768,-0.17035050000000002,0.5092055,-0.081702,-0.2557405,0.7212155,-0.22102700000000003,0.1145195,0.5019855,-0.12592599999999998,0.17686949999999999,0.7314855,-0.251937,-0.2411805,0.9625355,-0.34063699999999997,0.1563495,0.9831854999999999,-0.338457,-0.0614405,-0.002257499999999999,0.009235,0.0614405,0.002257500000000001,-0.009235000000000004,-0.1411305,-0.35015450000000004,-0.091104,0.1056695,-0.3466145,-0.121584,-0.1795205,-0.8594645,-0.06542400000000001,0.17428949999999999,-0.8757645000000001,-0.063984
35,-0.033531,0.666074,-0.117278,-0.17105599999999999,0.506144,-0.088756,-0.257196,0.7144940000000001,-0.231989,0.113304,0.499994,-0.132665,0.175094,0.7244440000000001,-0.263559,-0.23932599999999998,0.9529540000000001,-0.353289,0.15266400000000002,0.9766140000000001,-0.353049,-0.061926999999999996,-0.0019489999999999993,0.009519,0.061926999999999996,0.0019490000000000028,-0.009519,-0.14546599999999998,-0.346016,-0.09926499999999999,0.106734,-0.340656,-0.1301,-0.18067599999999998,-0.8423759999999999,-0.067863,0.17228400000000002,-0.857896,-0.066193
36,-0.0349235,0.6615840000000001,-0.12837949999999998,-0.17235750000000002,0.501024,-0.0998145,-0.2590675,0.709014,-0.24649949999999998,0.1118225,0.497194,-0.1430495,0.1728025,0.718304,-0.2782495,-0.23787750000000002,0.945994,-0.36905950000000004,0.14830249999999998,0.971344,-0.3703095,-0.0624045,-0.0018589999999999995,0.009482499999999998,0.0624045,0.0018589999999999995,-0.009482500000000001,-0.15014750000000002,-0.33892599999999995,-0.1111835,0.1077025,-0.33187599999999995,-0.1417995,-0.18217750000000002,-0.8234159999999999,-0.0725615,0.16992249999999998,-0.8384159999999999,-0.0712625
37,-0.0373225,0.6595344999999999,-0.13934950000000002,-0.17459249999999998,0.4963045,-0.1120585,-0.2619225,0.7090945,-0.2614145,0.10933749999999999,0.4949145,-0.1541145,0.16932750000000002,0.7192345,-0.2924145,-0.23786249999999998,0.9446545,-0.38589450000000003,0.14312750000000002,0.9732845000000001,-0.38651450000000004,-0.0629575,-0.002185499999999993,0.009301499999999997,0.0629575,0.002185500000000007,-0.009301499999999997,-0.1565725,-0.3247255,-0.1282195,0.1083875,-0.3160455,-0.1571745,-0.18457250000000003,-0.7966255,-0.0775715,0.16661749999999997,-0.8114655,-0.0763515
38,-0.038402500000000006,0.657377,-0.1498065,-0.1756895,0.49083699999999997,-0.12394350000000001,-0.26347950000000003,0.707727,-0.2758665,0.1076905,0.49401700000000004,-0.1646165,0.16705050000000002,0.719557,-0.3062865,-0.23678949999999999,0.9445870000000001,-0.4017465,0.1390705,0.9676170000000001,-0.4026165,-0.0626085,-0.0025229999999999975,0.0090545,0.0626085,0.0025229999999999975,-0.0090545,-0.1613695,-0.31029300000000004,-0.1448395,0.1100905,-0.300913,-0.1722265,-0.1856895,-0.770803,-0.0824845,0.1643105,-0.784683,-0.0812705
39,-0.0391755,0.654265,-0.1606705,-0.1768465,0.48802500000000004,-0.1350525,-0.2647465,0.7002649999999999,-0.2897205,0.1062835,0.494445,-0.1743105,0.1651235,0.7174849999999999,-0.3200405,-0.2355565,0.941805,-0.4186605,0.1355535,0.9673649999999999,-0.4182705,-0.0621935,-0.0026750000000000107,0.008585500000000003,0.0621935,0.002674999999999997,-0.008585500000000003,-0.1651165,-0.295335,-0.1617205,0.1118635,-0.285975,-0.1874705,-0.1861965,-0.747205,-0.08755650000000001,0.1630835,-0.7618750000000001,-0.08677850000000001
40,-0.040037500000000004,0.652045,-0.17201349999999999,-0.17817750000000002,0.483665,-0.1473335,-0.2660875,0.692585,-0.3038135,0.1047225,0.493715,-0.1853235,0.16324249999999998,0.716495,-0.3342035,-0.23429750000000002,0.9392349999999999,-0.4361235,0.1319125,0.967565,-0.4351035,-0.061684499999999996,-0.003275,0.008157499999999998,0.061684499999999996,0.003275,-0.008157500000000005,-0.16854750000000002,-0.27951499999999996,-0.1793535,0.1135025,-0.26934499999999995,-0.2037835,-0.1867075,-0.724055,-0.0932045,0.1605825,-0.736885,-0.0927705
41,-0.040886000000000006,0.651775,-0.184571,-0.179208,0.482055,-0.15946300000000002,-0.267108,0.6922550000000001,-0.319451,0.10339199999999998,0.494475,-0.196491,0.16173200000000001,0.7172350000000001,-0.349121,-0.233018,0.9374549999999999,-0.454611,0.128662,0.9674449999999999,-0.451851,-0.061301,-0.0032050000000000134,0.007626999999999995,0.061301,0.0032049999999999856,-0.007627000000000009,-0.171198,-0.262065,-0.197531,0.11555200000000002,-0.250915,-0.220831,-0.186848,-0.700285,-0.09935500000000001,0.158362,-0.7130749999999999,-0.09928000000000001
42,-0.0415625,0.65181,-0.197274,-0.1800785,0.4772,-0.172234,-0.2676885,0.69041,-0.33589399999999997,0.1027615,0.49346,-0.207644,0.16051149999999997,0.71501,-0.363444,-0.2320085,0.9344600000000001,-0.473194,0.1262015,0.9664900000000001,-0.467814,-0.06107750000000001,-0.0033999999999999864,0.007058000000000009,0.06107750000000001,0.003400000000000014,-0.007057999999999995,-0.17296850000000003,-0.24413999999999997,-0.215474,0.11746150000000001,-0.23274999999999996,-0.23685399999999998,-0.1864685,-0.67758,-0.10500499999999999,0.1563915,-0.69034,-0.10552199999999999
43,-0.042112,0.65178,-0.20991749999999998,-0.18062299999999998,0.47279000000000004,-0.1852275,-0.268503,0.68948,-0.3532275,0.102257,0.49285999999999996,-0.21894750000000002,0.159337,0.71715,-0.37843750000000004,-0.230623,0.93413,-0.4931475,0.12488700000000001,0.96511,-0.4846075,-0.06093899999999999,-0.003720000000000001,0.006439500000000001,0.06093899999999999,0.003720000000000001,-0.006439500000000001,-0.174333,-0.22332,-0.23322749999999998,0.119347,-0.21301,-0.25309750000000003,-0.184853,-0.65386,-0.1098275,0.15452700000000003,-0.66569,-0.1113625
44,-0.0424385,0.6524749999999999,-0.222296,-0.1806825,0.467225,-0.197666,-0.26793249999999996,0.688615,-0.37022599999999994,0.10188749999999999,0.492355,-0.229866,0.1585375,0.718415,-0.393026,-0.2295825,0.932885,-0.5125959999999999,0.12374750000000001,0.964415,-0.499996,-0.0606245,-0.004165000000000002,0.0059040000000000065,0.0606245,0.004164999999999974,-0.005903999999999993,-0.1754325,-0.202295,-0.249746,0.12144749999999999,-0.19359500000000002,-0.26845600000000003,-0.1833525,-0.630415,-0.11423799999999999,0.1527475,-0.6410849999999999,-0.117393
45,-0.0420855,0.6521399999999999,-0.230927,-0.17958449999999998,0.4633,-0.205837,-0.2663445,0.68632,-0.382617,0.10197550000000001,0.49024,-0.23705700000000002,0.1583955,0.71872,-0.403677,-0.2282045,0.93015,-0.527947,0.1230955,0.9593400000000001,-0.512007,-0.0601975,-0.004400000000000015,0.005663000000000001,0.0601975,0.004400000000000015,-0.005663000000000001,-0.1760245,-0.18257,-0.262827,0.12402550000000001,-0.17557,-0.280067,-0.1814545,-0.60768,-0.11507700000000001,0.15167550000000002,-0.6173299999999999,-0.11977700000000001
46,-0.041645,0.651435,-0.23973,-0.178453,0.45882500000000004,-0.21286999999999998,-0.264903,0.678115,-0.39497,0.10231699999999999,0.488565,-0.24334999999999998,0.158527,0.712305,-0.4138,-0.22658299999999998,0.917275,-0.54114,0.122657,0.944305,-0.52386,-0.059655,-0.004315000000000013,0.005627000000000007,0.059655,0.004315000000000013,-0.005626999999999993,-0.176113,-0.16908499999999999,-0.27081999999999995,0.126207,-0.162775,-0.28844,-0.179563,-0.591475,-0.11550999999999999,0.150787,-0.600035,-0.12204699999999999
47,-0.0420655,0.650725,-0.248974,-0.17790150000000002,0.456645,-0.21995399999999998,-0.2642415,0.671455,-0.407624,0.1021385,0.486645,-0.249814,0.1580085,0.7073050000000001,-0.424104,-0.2257315,0.903325,-0.5542039999999999,0.1217985,0.939075,-0.5343640000000001,-0.0594405,-0.004135,0.005581000000000003,0.0594405,0.004135,-0.005580999999999989,-0.1770515,-0.15437499999999998,-0.279074,0.1279185,-0.147665,-0.297304,-0.1784215,-0.5740149999999999,-0.11643799999999999,0.14963849999999998,-0.581685,-0.122055
48,-0.042405,0.650595,-0.25749900000000003,-0.177199,0.45572500000000005,-0.226529,-0.263699,0.6677150000000001,-0.420999,0.101851,0.48468500000000003,-0.256309,0.157671,0.701755,-0.43459899999999996,-0.224799,0.8972549999999999,-0.567009,0.121361,0.934075,-0.545979,-0.059187000000000003,-0.0038650000000000073,0.005542000000000005,0.059187000000000003,0.0038650000000000073,-0.005542000000000005,-0.178109,-0.13826499999999997,-0.28708900000000004,0.130011,-0.131975,-0.306319,-0.177439,-0.555865,-0.116939,0.148781,-0.563145,-0.12201999999999999
49,-0.041683,0.649295,-0.2666405,-0.175687,0.451665,-0.2342605,-0.262227,0.662035,-0.43455049999999995,0.102413,0.480965,-0.2639805,0.158573,0.6952050000000001,-0.44634050000000003,-0.223527,0.889375,-0.5835105,0.12176300000000001,0.9278150000000001,-0.5601305,-0.058709,-0.0036450000000000093,0.005270499999999997,0.058709,0.0036450000000000093,-0.005270500000000011,-0.177937,-0.121915,-0.2952405,0.133273,-0.11921499999999996,-0.3148605,-0.175587,-0.536425,-0.1183485,0.148813,-0.543435,-0.1222145
50,-0.041232000000000005,0.6453099999999999,-0.27495,-0.17450300000000002,0.44564499999999996,-0.24222,-0.261223,0.65531,-0.44742,0.10239699999999999,0.47551999999999994,-0.27181,0.159027,0.68876,-0.4583,-0.223003,0.88051,-0.5996999999999999,0.121557,0.9217799999999999,-0.57443,-0.058722,-0.0041400000000000325,0.00508299999999999,0.058722,0.004139999999999977,-0.005083000000000004,-0.178453,-0.10623000000000005,-0.30294,0.135937,-0.10557000000000005,-0.32206999999999997,-0.17436300000000002,-0.5182,-0.120144,0.14823699999999998,-0.52507,-0.122585
51,-0.0409215,0.6404449999999999,-0.28269299999999997,-0.17334149999999998,0.443015,-0.24873299999999998,-0.2604815,0.6487149999999999,-0.458873,0.1017985,0.473148,-0.278503,0.15924850000000002,0.6840649999999999,-0.470943,-0.2229315,0.870395,-0.614703,0.12103850000000001,0.915395,-0.5892229999999999,-0.058576500000000004,-0.004325000000000023,0.005037,0.058576500000000004,0.004324999999999968,-0.005037,-0.1790215,-0.09062500000000001,-0.309203,0.1385285,-0.09284500000000001,-0.32897299999999996,-0.1734715,-0.500675,-0.12215,0.14754849999999997,-0.5078550000000001,-0.12240999999999999
52,-0.0401605,0.6343000000000001,-0.2888755,-0.1719085,0.43826800000000005,-0.2532855,-0.2601285,0.6405000000000001,-0.4682755,0.1014215,0.46815400000000007,-0.2842155,0.1596715,0.67788,-0.4822055,-0.2235185,0.8611200000000001,-0.6270755,0.12098149999999999,0.9108900000000001,-0.6013755,-0.0585835,-0.004469999999999974,0.004922499999999996,0.0585835,0.0044700000000000295,-0.004922499999999996,-0.17931850000000002,-0.07661999999999997,-0.3136555,0.1408615,-0.08173999999999998,-0.3338755,-0.1731185,-0.48536,-0.1239015,0.14678149999999998,-0.49322,-0.1252035
53,-0.040218,0.62897,-0.2939425,-0.17163799999999999,0.433988,-0.2570825,-0.261118,0.63252,-0.4757625,0.100092,0.463499,-0.2888025,0.15904200000000002,0.67101,-0.49236250000000004,-0.22519799999999998,0.85004,-0.6381025,0.12094200000000001,0.89937,-0.6144325,-0.05877399999999999,-0.0046700000000000075,0.0049354999999999954,0.05877399999999999,0.0046700000000000075,-0.004935500000000009,-0.18056799999999998,-0.06336999999999998,-0.3167125,0.141652,-0.07086999999999999,-0.3377525,-0.17374799999999999,-0.47077,-0.1254075,0.145242,-0.47831,-0.1276795
54,-0.0401375,0.621685,-0.29914399999999997,-0.1717435,0.430279,-0.25979399999999997,-0.2627635,0.624345,-0.482644,0.0982865,0.45987100000000003,-0.29292399999999996,0.1582065,0.663845,-0.5019640000000001,-0.2270335,0.836145,-0.6476839999999999,0.12069650000000001,0.891505,-0.6267240000000001,-0.0588995,-0.005054999999999976,0.004944000000000004,0.0588995,0.005055000000000032,-0.00494399999999999,-0.1822935,-0.05096499999999998,-0.31830400000000003,0.1418165,-0.06055499999999997,-0.340664,-0.1747635,-0.457325,-0.126876,0.14345650000000001,-0.464835,-0.12948199999999999
55,-0.03968100000000001,0.61337,-0.3035155,-0.171597,0.425607,-0.2622755,-0.264117,0.61521,-0.48776549999999996,0.097063,0.45471100000000003,-0.2969255,0.157673,0.6571,-0.5109055,-0.228707,0.82679,-0.6573455,0.120203,0.88489,-0.6389355,-0.059032,-0.00540999999999997,0.004952499999999999,0.059032,0.005410000000000026,-0.004952499999999999,-0.184027,-0.039049999999999974,-0.3192755,0.141823,-0.05033999999999994,-0.3425355,-0.176107,-0.44359000000000004,-0.1285235,0.141923,-0.45238999999999996,-0.12943749999999998
56,-0.039333,0.6055349999999999,-0.30738849999999995,-0.171514,0.42017599999999994,-0.26454849999999996,-0.265404,0.606305,-0.4914785,0.096046,0.44975299999999996,-0.3006485,0.157326,0.648585,-0.5180585,-0.231014,0.818635,-0.6664285,0.12009600000000001,0.875145,-0.6506085,-0.059178999999999995,-0.005945000000000034,0.0049465000000000064,0.059178999999999995,0.005944999999999978,-0.004946499999999993,-0.186024,-0.02838500000000005,-0.3193685,0.141506,-0.04151500000000008,-0.3435085,-0.17749399999999999,-0.431555,-0.1293695,0.140206,-0.4411550000000001,-0.1275825
57,-0.039015,0.597855,-0.31144099999999997,-0.171498,0.41456800000000005,-0.267221,-0.266758,0.598255,-0.494351,0.094982,0.44598200000000005,-0.304371,0.15797199999999997,0.639735,-0.524481,-0.23400800000000002,0.809505,-0.6754309999999999,0.12006199999999999,0.8661350000000001,-0.660941,-0.059298000000000003,-0.0063249999999999695,0.004968,0.059298000000000003,0.006325000000000025,-0.004968,-0.18826800000000002,-0.018724999999999936,-0.320121,0.140622,-0.033775,-0.344351,-0.17885800000000002,-0.420825,-0.13069,0.13813199999999998,-0.4310149999999999,-0.12670199999999998
58,-0.038677,0.59214,-0.3145755,-0.171238,0.41296800000000006,-0.26880550000000003,-0.267748,0.59212,-0.49728550000000005,0.094582,0.44361200000000006,-0.3059155,0.159092,0.63224,-0.5290555,-0.236208,0.8013600000000001,-0.6804455,0.12038199999999999,0.85873,-0.6680055,-0.059503,-0.006139999999999979,0.004988500000000007,0.059503,0.006140000000000034,-0.004988499999999993,-0.19042800000000001,-0.012649999999999939,-0.32154550000000004,0.139772,-0.02943999999999991,-0.34586550000000005,-0.179928,-0.41428999999999994,-0.1321905,0.136282,-0.42467,-0.1263175
59,-0.0377385,0.588945,-0.3173415,-0.1705705,0.411903,-0.2715515,-0.2681405,0.5875250000000001,-0.5006115,0.0943495,0.44108,-0.3086015,0.1608095,0.626085,-0.5331615000000001,-0.2375905,0.795355,-0.6853515,0.12146950000000001,0.854785,-0.6746115,-0.0595855,-0.005884999999999974,0.004994500000000013,0.0595855,0.005885000000000029,-0.004994499999999999,-0.1919905,-0.008954999999999935,-0.32414149999999997,0.1395095,-0.027004999999999946,-0.3485515,-0.1801205,-0.41059499999999993,-0.1348805,0.1352795,-0.420975,-0.1259515
60,-0.036713,0.586344,-0.32092350000000003,-0.169904,0.41060199999999997,-0.2751135,-0.268394,0.584595,-0.5041135,0.094366,0.438104,-0.3121135,0.162606,0.62192,-0.5368035,-0.239224,0.79377,-0.6887635,0.12290599999999999,0.85033,-0.6790035,-0.059576000000000004,-0.005520000000000025,0.005133499999999999,0.059576000000000004,0.005519999999999969,-0.005133499999999999,-0.193524,-0.00714999999999999,-0.32670350000000004,0.139296,-0.02583000000000002,-0.3517435,-0.180044,-0.40879,-0.1384035,0.135256,-0.41917000000000004,-0.1264225
61,-0.0357785,0.586344,-0.32474400000000003,-0.1694635,0.41060199999999997,-0.27855399999999997,-0.2693735,0.584595,-0.507804,0.09414650000000001,0.437922,-0.315784,0.16313650000000002,0.62192,-0.540594,-0.2413035,0.79374,-0.692384,0.1242265,0.85033,-0.6828540000000001,-0.059554499999999996,-0.005520000000000025,0.005455999999999989,0.059554499999999996,0.005519999999999969,-0.0054560000000000025,-0.19498349999999998,-0.00714999999999999,-0.328614,0.1386965,-0.02583000000000002,-0.35437399999999997,-0.1802535,-0.40858000000000005,-0.142098,0.1350865,-0.41890000000000005,-0.127971
62,-0.0359705,0.586344,-0.32917050000000003,-0.16899150000000002,0.41060199999999997,-0.2817405,-0.2703115,0.584595,-0.5122805,0.0940585,0.437922,-0.3190005,0.16376849999999998,0.62192,-0.5451805,-0.24304150000000002,0.79374,-0.6968105,0.1247185,0.85033,-0.6874205,-0.0596435,-0.005520000000000025,0.0056895,0.0596435,0.005519999999999969,-0.0056895,-0.19626149999999998,-0.006709999999999994,-0.33056050000000003,0.1377985,-0.02583000000000002,-0.3572105,-0.1804615,-0.40812000000000004,-0.1456575,0.13504850000000002,-0.41852999999999996,-0.1333565
63,-0.0357815,0.586344,-0.3311415,-0.16874450000000002,0.41060199999999997,-0.2838815,-0.2711145,0.584595,-0.5147815,0.0945955,0.437922,-0.3211815,0.1645055,0.62192,-0.5478415,-0.2443345,0.79374,-0.7007815,0.12543549999999998,0.85033,-0.6916515,-0.0598455,-0.005520000000000025,0.0057585,0.0598455,0.005519999999999969,-0.0057585,-0.1969545,-0.005720000000000003,-0.3315715,0.1368255,-0.02583000000000002,-0.35922149999999997,-0.18026450000000002,-0.40781,-0.1486555,0.13529549999999999,-0.41754,-0.1382105
64,-0.0348105,0.58584,-0.33213000000000004,-0.1678515,0.41063500000000003,-0.28615999999999997,-0.2709915,0.583809,-0.5169,0.0957285,0.436332,-0.32259000000000004,0.1655385,0.62159,-0.54786,-0.24461149999999998,0.79215,-0.70328,0.1268485,0.84982,-0.69423,-0.0599435,-0.005340000000000011,0.005549999999999999,0.0599435,0.005340000000000011,-0.005549999999999999,-0.1967815,-0.00602999999999998,-0.33275,0.1364285,-0.027240000000000042,-0.36076,-0.1797615,-0.40728,-0.151425,0.13599850000000002,-0.41788000000000003,-0.143299
65,-0.033838,0.589275,-0.332575,-0.16631100000000001,0.412513,-0.286195,-0.269461,0.584495,-0.517015,0.097579,0.43548600000000004,-0.322155,0.167289,0.622075,-0.5469849999999999,-0.243911,0.793655,-0.703145,0.128669,0.855485,-0.694655,-0.06004999999999999,-0.004774999999999974,0.005495,0.06004999999999999,0.004775000000000029,-0.005495,-0.195821,-0.008794999999999997,-0.333965,0.136489,-0.03045500000000001,-0.361575,-0.178771,-0.409415,-0.154374,0.137199,-0.42054499999999995,-0.148779
66,-0.032480499999999995,0.596965,-0.3327,-0.1638885,0.41336,-0.28635,-0.2667985,0.586175,-0.51559,0.1010115,0.434604,-0.32108000000000003,0.1700415,0.623645,-0.54418,-0.2419985,0.798505,-0.70245,0.13172150000000002,0.858185,-0.6928,-0.0601595,-0.003925000000000012,0.00562,0.0601595,0.003925000000000012,-0.00562,-0.19348849999999998,-0.014855000000000007,-0.33496,0.1374515,-0.036595000000000044,-0.36241,-0.1767785,-0.415215,-0.158022,0.1394815,-0.42683499999999996,-0.154869
67,-0.030669000000000002,0.60408,-0.33159,-0.161816,0.416209,-0.28573,-0.264576,0.59093,-0.5136799999999999,0.10402399999999999,0.434299,-0.31886000000000003,0.17322400000000002,0.62636,-0.5393600000000001,-0.239696,0.80389,-0.69967,0.135304,0.86476,-0.6877599999999999,-0.060028,-0.0029799999999999827,0.005760000000000015,0.060028,0.0029799999999999827,-0.005760000000000001,-0.190686,-0.02322000000000002,-0.3357,0.138684,-0.04451999999999995,-0.36268999999999996,-0.174416,-0.42438000000000003,-0.16136,0.14269400000000002,-0.43512,-0.159631
68,-0.028847499999999998,0.611375,-0.329325,-0.1598685,0.419217,-0.284605,-0.26238849999999997,0.598555,-0.509725,0.1070915,0.436534,-0.315645,0.1761115,0.631985,-0.534725,-0.2381185,0.8078350000000001,-0.6920850000000001,0.1390015,0.8775649999999999,-0.681875,-0.059979500000000005,-0.0022150000000000225,0.005934999999999996,0.059979500000000005,0.0022150000000000225,-0.00593500000000001,-0.18783850000000002,-0.034094999999999986,-0.335975,0.1398915,-0.05414499999999994,-0.362455,-0.1720385,-0.436015,-0.164667,0.1463515,-0.44583500000000004,-0.16436
69,-0.027133000000000004,0.620085,-0.325,-0.158143,0.421362,-0.28314,-0.260423,0.607195,-0.50471,0.110057,0.438522,-0.31211,0.17729699999999998,0.6415150000000001,-0.52783,-0.236653,0.8133250000000001,-0.68265,0.142617,0.8913150000000001,-0.6753,-0.059907,-0.001815000000000011,0.005929999999999991,0.059907,0.001815000000000011,-0.005930000000000019,-0.185143,-0.04536499999999999,-0.33583,0.140667,-0.06307499999999999,-0.36092,-0.16989300000000002,-0.44797499999999996,-0.16784200000000002,0.149397,-0.45698500000000003,-0.16864800000000002
70,-0.026349499999999998,0.629105,-0.32059,-0.1572205,0.428039,-0.28054,-0.25933049999999996,0.618765,-0.49889,0.1123495,0.444647,-0.30838,0.1780595,0.652315,-0.5205299999999999,-0.2359005,0.826325,-0.67304,0.1456495,0.903235,-0.6681,-0.05979949999999999,-0.001564999999999983,0.00581000000000001,0.05979949999999999,0.001564999999999983,-0.005809999999999982,-0.1826305,-0.05824499999999999,-0.33448,0.14067949999999999,-0.07361499999999999,-0.35863999999999996,-0.1683305,-0.46216500000000005,-0.170568,0.1524295,-0.470475,-0.172736
71,-0.026627500000000002,0.6336649999999999,-0.31571499999999997,-0.1569505,0.42991,-0.277925,-0.25868050000000004,0.626655,-0.491145,0.1139395,0.446386,-0.304815,0.1786995,0.659945,-0.511695,-0.2355505,0.835415,-0.6621049999999999,0.1480295,0.911645,-0.657975,-0.059800500000000006,-0.001365000000000005,0.005674999999999986,0.059800500000000006,0.001365000000000005,-0.005675000000000013,-0.1802805,-0.07549500000000003,-0.33265500000000003,0.1401495,-0.08771500000000004,-0.355425,-0.16735049999999999,-0.48056499999999996,-0.173087,0.1548895,-0.488115,-0.176565
72,-0.027705499999999997,0.641135,-0.31135999999999997,-0.1575325,0.434912,-0.27493,-0.2583525,0.635765,-0.48318,0.1149275,0.45218200000000003,-0.30089,0.1783075,0.668845,-0.5032,-0.23598249999999998,0.845815,-0.65122,0.14987750000000002,0.9209350000000001,-0.64821,-0.059690499999999994,-0.0012849999999999806,0.005549999999999999,0.059690499999999994,0.0012850000000000361,-0.005549999999999999,-0.17811249999999998,-0.09208499999999997,-0.32975,0.1389575,-0.09916499999999995,-0.35114,-0.1670025,-0.499255,-0.175482,0.1560775,-0.5066149999999999,-0.180222
73,-0.02946,0.6483749999999999,-0.30662,-0.158634,0.440728,-0.27056,-0.258434,0.643625,-0.47426,0.115516,0.457515,-0.29585,0.17838600000000002,0.676125,-0.4949,-0.236394,0.855505,-0.63886,0.15168600000000002,0.924045,-0.6378900000000001,-0.059545,-0.0009049999999999891,0.005659999999999998,0.059545,0.0009049999999999891,-0.005659999999999998,-0.175954,-0.109655,-0.32565,0.137796,-0.11232500000000001,-0.34587999999999997,-0.166784,-0.5194749999999999,-0.176911,0.157066,-0.5266550000000001,-0.182708
74,-0.029972999999999996,0.65137,-0.30117000000000005,-0.160071,0.44476000000000004,-0.26798,-0.258621,0.6513500000000001,-0.46483,0.11598900000000001,0.46157000000000004,-0.29208,0.178129,0.68417,-0.48601,-0.237211,0.86599,-0.6258699999999999,0.153359,0.93398,-0.6262000000000001,-0.059254,-0.0009799999999999809,0.005649999999999988,0.059254,0.0009800000000000364,-0.005650000000000016,-0.173851,-0.12768999999999997,-0.32068,0.136729,-0.12661,-0.34024,-0.16692099999999999,-0.54076,-0.17843,0.157889,-0.54872,-0.185098
75,-0.030728499999999995,0.6536200000000001,-0.29391,-0.16167349999999997,0.45035000000000003,-0.2641,-0.2597335,0.66004,-0.45559,0.1151065,0.4677,-0.28706,0.1774965,0.69285,-0.47731,-0.23850349999999998,0.87383,-0.61235,0.15449649999999998,0.94497,-0.61495,-0.0591955,-0.0012800000000000034,0.005430000000000018,0.0591955,0.0012800000000000034,-0.00542999999999999,-0.1723135,-0.14499999999999996,-0.31426,0.1354665,-0.13900999999999997,-0.33265999999999996,-0.16755350000000002,-0.56169,-0.178643,0.15820650000000003,-0.57007,-0.186087
76,-0.031007,0.65306,-0.28473000000000004,-0.163433,0.45519000000000004,-0.25958000000000003,-0.261023,0.66729,-0.4449,0.11405699999999999,0.47567000000000004,-0.28225,0.17702700000000002,0.6994100000000001,-0.46728000000000003,-0.239593,0.8820300000000001,-0.5979300000000001,0.155957,0.95537,-0.60225,-0.059053999999999995,-0.0016399999999999748,0.005420000000000008,0.059053999999999995,0.0016400000000000303,-0.005420000000000008,-0.17041299999999998,-0.16222999999999999,-0.30461,0.134527,-0.15429999999999994,-0.32369000000000003,-0.16816299999999998,-0.58661,-0.178679,0.158717,-0.5953999999999999,-0.186756
77,-0.029653,0.65244,-0.27475499999999997,-0.164896,0.46079000000000003,-0.254915,-0.261536,0.67268,-0.434775,0.113294,0.48107,-0.278125,0.177124,0.70562,-0.456005,-0.239526,0.89405,-0.586335,0.157754,0.96082,-0.589585,-0.058909,-0.0017900000000000138,0.005404999999999993,0.058909,0.0017900000000000138,-0.005405000000000021,-0.168286,-0.17735,-0.29534499999999997,0.133834,-0.16854999999999998,-0.314485,-0.168276,-0.60969,-0.178577,0.158984,-0.61902,-0.187258
78,-0.0283445,0.64844,-0.26537,-0.1662425,0.46658,-0.25,-0.2617925,0.6800299999999999,-0.42413,0.1126575,0.48574,-0.27391,0.1772075,0.71348,-0.4465,-0.2393725,0.90851,-0.57437,0.1591275,0.96583,-0.57601,-0.0586575,-0.0017900000000000138,0.005420000000000008,0.0586575,0.001789999999999986,-0.005420000000000008,-0.1659225,-0.19063000000000002,-0.28495000000000004,0.1333175,-0.18463000000000002,-0.30545,-0.1683025,-0.63352,-0.178565,0.1595675,-0.6444,-0.18775
79,-0.0276395,0.64332,-0.254985,-0.1679265,0.4698,-0.245555,-0.2621165,0.68468,-0.41352500000000003,0.1120235,0.484,-0.27037500000000003,0.1768935,0.71928,-0.436465,-0.2396565,0.91441,-0.561505,0.1597835,0.97134,-0.561955,-0.058485499999999996,-0.0016599999999999948,0.005275000000000002,0.058485499999999996,0.0016599999999999948,-0.005275000000000002,-0.1643765,-0.20426999999999998,-0.275215,0.1322935,-0.20014,-0.296065,-0.16876649999999999,-0.65708,-0.178176,0.1597535,-0.6687500000000001,-0.187776
80,-0.0279075,0.640055,-0.24420999999999998,-0.16957049999999999,0.477445,-0.24054899999999999,-0.2636405,0.695925,-0.40321999999999997,0.1103295,0.487155,-0.26719,0.1752195,0.726505,-0.42456,-0.23998049999999999,0.924955,-0.5473600000000001,0.1607595,0.977515,-0.54874,-0.058395499999999996,-0.0011449999999999794,0.005170000000000008,0.058395499999999996,0.0011450000000000071,-0.00516999999999998,-0.1629005,-0.21315499999999998,-0.26461,0.1308495,-0.208405,-0.28546,-0.1691605,-0.675825,-0.17715799999999998,0.15988950000000002,-0.685315,-0.187188
81,-0.027841,0.63534,-0.233193,-0.170751,0.48145,-0.236052,-0.265071,0.7046000000000001,-0.393885,0.108709,0.48491,-0.264425,0.173459,0.7295800000000001,-0.412855,-0.239961,0.9312199999999999,-0.5335650000000001,0.161769,0.9844200000000001,-0.533185,-0.058204,-0.00021999999999999797,0.005025000000000002,0.058204,0.00021999999999999797,-0.005025000000000002,-0.161281,-0.22266999999999998,-0.253815,0.129879,-0.21985,-0.27544500000000005,-0.169371,-0.6942699999999999,-0.175774,0.159869,-0.70221,-0.18627100000000002
82,-0.027437000000000003,0.63189,-0.22139,-0.17136800000000002,0.48990999999999996,-0.23044,-0.266028,0.71424,-0.384345,0.107292,0.48278,-0.260735,0.172072,0.73049,-0.399965,-0.240268,0.9375100000000001,-0.518745,0.163232,0.99127,-0.5181450000000001,-0.058067,0.0005799999999999972,0.0049849999999999894,0.058067,-0.0005799999999999972,-0.004985000000000017,-0.15923800000000002,-0.23139,-0.241755,0.12925199999999998,-0.23029999999999998,-0.264805,-0.168778,-0.71156,-0.173856,0.16014199999999998,-0.7181799999999999,-0.184681
83,-0.0261115,0.62819,-0.208013,-0.1713665,0.49654,-0.222935,-0.26622650000000003,0.72268,-0.37248000000000003,0.10612350000000001,0.48199,-0.25500999999999996,0.1714235,0.7323999999999999,-0.38555,-0.24036649999999998,0.94106,-0.5017199999999999,0.16535350000000001,0.9936799999999999,-0.50205,-0.05753949999999999,0.0012599999999999972,0.005220000000000002,0.05753949999999999,-0.0012600000000000111,-0.005220000000000002,-0.1565365,-0.23854999999999998,-0.22754999999999997,0.1291735,-0.23941,-0.25214,-0.1676765,-0.7266699999999999,-0.170095,0.1608935,-0.73244,-0.18110199999999999
84,-0.0246755,0.623575,-0.19430999999999998,-0.1714045,0.502595,-0.215562,-0.26555449999999997,0.7329950000000001,-0.359765,0.10445549999999999,0.47922499999999996,-0.249255,0.1704855,0.732975,-0.370295,-0.2404845,0.950395,-0.483735,0.1673155,0.9969450000000001,-0.48282499999999995,-0.057097499999999995,0.0020550000000000013,0.005385000000000001,0.057097499999999995,-0.0020550000000000013,-0.005385000000000001,-0.1536745,-0.24399500000000002,-0.21329700000000001,0.1291755,-0.24823500000000004,-0.23718499999999998,-0.1667445,-0.739575,-0.166414,0.1614655,-0.7444649999999999,-0.177036
85,-0.022997499999999997,0.623724,-0.18227,-0.1702155,0.507314,-0.209001,-0.26426550000000004,0.7437239999999999,-0.34740499999999996,0.1034045,0.475344,-0.24340499999999998,0.1700845,0.736384,-0.356415,-0.24063549999999997,0.958954,-0.46652499999999997,0.1693945,1.001204,-0.466985,-0.056676500000000005,0.0027780000000000027,0.005545000000000022,0.056676500000000005,-0.0027780000000000027,-0.005544999999999994,-0.1504255,-0.24787600000000004,-0.20162,0.12842450000000002,-0.253796,-0.223642,-0.1654455,-0.746706,-0.16222999999999999,0.16241450000000002,-0.751506,-0.172686
86,-0.021193499999999997,0.623694,-0.171536,-0.1687975,0.510434,-0.202837,-0.2627275,0.7536039999999999,-0.334765,0.1026125,0.472184,-0.23667499999999997,0.1697625,0.739874,-0.34255499999999994,-0.24099749999999998,0.965744,-0.449265,0.17216250000000002,1.006624,-0.451245,-0.0560995,0.0034359999999999946,0.005665000000000003,0.0560995,-0.0034360000000000085,-0.0056649999999999895,-0.14616749999999998,-0.251996,-0.18931599999999998,0.12803250000000002,-0.25952600000000003,-0.21055799999999997,-0.16378749999999997,-0.753906,-0.15756699999999998,0.1635925,-0.758976,-0.16793899999999998
87,-0.019320999999999998,0.626396,-0.16155699999999998,-0.167027,0.513656,-0.196895,-0.260517,0.760806,-0.32215,0.101743,0.470866,-0.22991999999999999,0.169833,0.740926,-0.32814,-0.241657,0.969096,-0.43213999999999997,0.175263,1.0124360000000001,-0.43606999999999996,-0.05568,0.003907000000000001,0.005940000000000001,0.05568,-0.003906999999999994,-0.005939999999999987,-0.141797,-0.258184,-0.178178,0.128203,-0.264214,-0.19779999999999998,-0.161887,-0.760544,-0.15284099999999998,0.165093,-0.764524,-0.163019
88,-0.017366999999999997,0.629346,-0.152227,-0.16526,0.514956,-0.190944,-0.25823,0.767826,-0.30852,0.100901,0.471536,-0.2233,0.16974,0.742716,-0.31384999999999996,-0.24201999999999999,0.973286,-0.41442,0.17801,1.018556,-0.42103,-0.055464,0.0042169999999999985,0.005960000000000007,0.055464,-0.0042169999999999985,-0.005959999999999993,-0.13732,-0.262604,-0.166715,0.12904000000000002,-0.267694,-0.184634,-0.1596,-0.765394,-0.148219,0.16683,-0.7687539999999999,-0.15759399999999998
89,-0.0166645,0.6332505,-0.14398,-0.1650255,0.5165704999999999,-0.184423,-0.2571055,0.7720405,-0.29412,0.1015325,0.47204050000000003,-0.21633000000000002,0.1707045,0.7452305,-0.30184,-0.24358549999999998,0.9832905000000001,-0.39736,0.1787245,1.0236905,-0.40576999999999996,-0.0556325,0.004098499999999998,0.005940000000000001,0.0556325,-0.004098500000000005,-0.005940000000000001,-0.1339955,-0.2666995,-0.15576800000000002,0.1287345,-0.2738395,-0.172676,-0.15827549999999999,-0.7698695,-0.142231,0.16705450000000002,-0.7753295,-0.150927
90,-0.0163565,0.6395055,-0.134219,-0.1647285,0.5199155,-0.17560599999999998,-0.2569685,0.7779055,-0.277855,0.10212149999999999,0.4762355,-0.20758500000000002,0.1716015,0.7520655,-0.288575,-0.2450085,0.9924255,-0.37939500000000004,0.1791315,1.0278255,-0.391185,-0.055638499999999994,0.0034754999999999994,0.005934999999999996,0.055638499999999994,-0.0034754999999999994,-0.005934999999999996,-0.1308485,-0.2711845,-0.144959,0.1282615,-0.2797345,-0.159348,-0.15688850000000001,-0.7745545,-0.134705,0.1673715,-0.7815745,-0.142213
91,-0.0160225,0.6449555,-0.121864,-0.1642175,0.5192055,-0.164315,-0.2564975,0.7829655,-0.258656,0.1029065,0.48109549999999995,-0.19590400000000002,0.1726425,0.7588455000000001,-0.273036,-0.2458675,1.0017355,-0.35958599999999996,0.1797725,1.0322755,-0.372976,-0.055663500000000005,0.003034499999999999,0.005653999999999992,0.055663500000000005,-0.0030345000000000025,-0.005654000000000006,-0.1276475,-0.2743645,-0.13223200000000002,0.1279325,-0.2801345,-0.144241,-0.15516749999999999,-0.7778845,-0.12398700000000001,0.1681825,-0.7879244999999999,-0.13006
92,-0.0161845,0.6529,-0.10307449999999999,-0.1655775,0.51912,-0.1417495,-0.25615750000000004,0.77902,-0.2341965,0.10498350000000001,0.48882000000000003,-0.1713595,0.1745525,0.75999,-0.2509765,-0.2461575,1.0043199999999999,-0.3342965,0.1807825,1.03247,-0.3475065,-0.0558395,0.0023110000000000006,0.004877500000000007,0.0558395,-0.0023110000000000006,-0.004877499999999993,-0.12374749999999998,-0.2851,-0.1142815,0.1268625,-0.28973000000000004,-0.12333449999999999,-0.1530375,-0.7885599999999999,-0.1064185,0.1695425,-0.80086,-0.11000549999999999
93,-0.017103499999999997,0.661278,-0.085202,-0.16743149999999998,0.519238,-0.11960699999999999,-0.25648150000000003,0.772008,-0.210782,0.1066085,0.497138,-0.147973,0.17628850000000001,0.761398,-0.230352,-0.24691149999999998,1.003458,-0.310832,0.18181850000000002,1.032058,-0.325562,-0.05624950000000001,0.0015569999999999998,0.004140999999999999,0.05624950000000001,-0.001557,-0.004140999999999999,-0.1206115,-0.295972,-0.09767799999999999,0.1252285,-0.298902,-0.10644899999999999,-0.15136149999999998,-0.7993319999999999,-0.08918,0.1702885,-0.813242,-0.093314
94,-0.0184595,0.669716,-0.068147,-0.1692435,0.519906,-0.097836,-0.2572135,0.764926,-0.188476,0.1082265,0.5045959999999999,-0.125107,0.1779865,0.761386,-0.211156,-0.24740350000000003,1.003236,-0.289246,0.1827465,1.030436,-0.304056,-0.0568405,0.0007690000000000006,0.0035240000000000063,0.0568405,-0.0007689999999999989,-0.0035239999999999994,-0.11786350000000001,-0.30677400000000005,-0.081577,0.1239965,-0.307614,-0.090016,-0.1502135,-0.809984,-0.072557,0.17095649999999998,-0.825214,-0.073845
95,-0.0199805,0.6782545,-0.051179,-0.1710375,0.5207245,-0.076158,-0.2581675,0.7575345,-0.167668,0.1111525,0.5114745,-0.10327800000000001,0.18008249999999998,0.7603745,-0.193078,-0.24769750000000001,1.0030445,-0.269128,0.18378250000000002,1.0279445,-0.283358,-0.0575035,4.500000000001031e-06,0.0029459999999999972,0.0575035,-4.4999999999975615e-06,-0.0029460000000000007,-0.1158675,-0.3173155,-0.06551699999999999,0.1230125,-0.3160255,-0.073758,-0.1491575,-0.8204054999999999,-0.056434,0.1717825,-0.8375355,-0.05520800000000001
96,-0.021537500000000005,0.685915,-0.03462,-0.1728415,0.521485,-0.054993,-0.2591515,0.750535,-0.148638,0.1140785,0.517825,-0.08178600000000001,0.1820585,0.758845,-0.17615799999999998,-0.2475815,1.0029549999999998,-0.250888,0.1851185,1.0250549999999998,-0.264098,-0.058234499999999995,-0.000563000000000001,0.0021989999999999996,0.058234499999999995,0.000563000000000001,-0.0021990000000000013,-0.1140515,-0.327395,-0.049803,0.1219885,-0.328725,-0.057854,-0.1480715,-0.830355,-0.040672,0.1726285,-0.849995,-0.037011
97,-0.0232465,0.6937690000000001,-0.018456,-0.1748535,0.523289,-0.033992,-0.2603435,0.7437290000000001,-0.130786,0.11666649999999999,0.5246190000000001,-0.060614,0.1837365,0.7574890000000001,-0.160006,-0.2476835,1.0031489999999998,-0.234676,0.1861665,1.022249,-0.246246,-0.058868500000000004,-0.0010819999999999996,0.001515,0.058868500000000004,0.0010819999999999996,-0.001515,-0.1124735,-0.337121,-0.035099,0.12092649999999999,-0.336811,-0.042297999999999995,-0.14728349999999998,-0.839931,-0.025233000000000002,0.1735065,-0.8611209999999999,-0.019464000000000002
98,-0.024970999999999997,0.701506,-0.002745000000000001,-0.176953,0.524636,-0.013506,-0.26175299999999996,0.7358359999999999,-0.11403100000000002,0.118547,0.531716,-0.039862,0.185307,0.755976,-0.144161,-0.248003,0.9959459999999999,-0.21954100000000001,0.186777,1.019646,-0.23034100000000002,-0.059493000000000004,-0.001682000000000003,0.0009160000000000001,0.059493000000000004,0.001682000000000003,-0.0009160000000000001,-0.111133,-0.347024,-0.021859000000000003,0.119917,-0.344314,-0.0274,-0.146663,-0.849654,-0.010461999999999999,0.174217,-0.8713540000000001,-0.002763999999999999
99,-0.026716500000000004,0.7059085,0.010574,-0.1793005,0.5244085,0.004364,-0.2632205,0.7262385,-0.09936599999999998,0.12094949999999999,0.5360085,-0.021225,0.1870995,0.7512685,-0.13053599999999999,-0.2487105,0.9890485000000001,-0.206506,0.18696949999999998,1.0170485,-0.217366,-0.060046499999999996,-0.0020295000000000035,0.0003699999999999988,0.060046499999999996,0.0020295000000000035,-0.0003699999999999988,-0.10999049999999999,-0.3552615,-0.011351,0.1189095,-0.3506115,-0.015382,-0.14643050000000002,-0.8577015,0.002149999999999999,0.17486949999999998,-0.8797315,0.011667
100,-0.028891500000000004,0.710243,0.019512,-0.1820135,0.524063,0.018003,-0.2652935,0.7177929999999999,-0.08974900000000001,0.12307649999999999,0.5408329999999999,-0.006759000000000001,0.1889865,0.745163,-0.12127899999999998,-0.2498835,0.9806030000000001,-0.197639,0.1872765,1.013003,-0.20859899999999998,-0.0605605,-0.0024490000000000067,5.6000000000000494e-05,0.0605605,0.002448999999999993,-5.6000000000000494e-05,-0.1092535,-0.36284700000000003,-0.005405,0.11756649999999999,-0.355917,-0.008528999999999995,-0.1465735,-0.8650869999999999,0.010594000000000003,0.1750865,-0.8865270000000001,0.021865000000000002
101,-0.030236500000000006,0.710243,0.0210725,-0.1821235,0.524063,0.0196525,-0.2674235,0.7177929999999999,-0.08812249999999999,0.12322649999999999,0.5408329999999999,-0.004824500000000002,0.1904065,0.745163,-0.11948249999999999,-0.2518435,0.9806030000000001,-0.1963425,0.1887565,1.013003,-0.2072225,-0.0605345,-0.0024490000000000067,4.649999999999793e-05,0.0605345,0.002448999999999993,-4.649999999999793e-05,-0.10901350000000001,-0.36284700000000003,-0.006486499999999999,0.1173565,-0.355917,-0.008843499999999997,-0.1467235,-0.8650869999999999,0.011588500000000002,0.1751665,-0.8853070000000001,0.0247665
102,-0.031231000000000002,0.710243,0.0230755,-0.182387,0.524063,0.0216555,-0.270527,0.716953,-0.08628950000000002,0.123783,0.5408329999999999,-0.002430500000000002,0.193153,0.745163,-0.11750950000000002,-0.254677,0.9806030000000001,-0.19549950000000002,0.191563,1.013003,-0.2065295,-0.060502,-0.0024490000000000067,7.650000000000018e-05,0.060502,0.002448999999999993,-7.650000000000018e-05,-0.108757,-0.36284700000000003,-0.006925500000000001,0.117173,-0.355917,-0.008986500000000001,-0.146787,-0.8650869999999999,0.012865499999999998,0.174993,-0.8846069999999999,0.0269355
103,-0.032078499999999996,0.710243,0.024852999999999997,-0.1826405,0.524063,0.023762,-0.2752505,0.714283,-0.08406400000000001,0.12471950000000001,0.5408329999999999,0.0003419999999999951,0.1982895,0.745163,-0.11584399999999999,-0.26023050000000003,0.977403,-0.19608399999999998,0.1957595,1.013003,-0.207604,-0.060471500000000004,-0.0024490000000000067,0.00011999999999999511,0.060471500000000004,0.002448999999999993,-0.00012000000000000205,-0.1085905,-0.36284700000000003,-0.007009000000000001,0.11703949999999999,-0.355917,-0.008092000000000002,-0.1468405,-0.8650869999999999,0.014216999999999997,0.1745495,-0.8844369999999999,0.029191999999999996
104,-0.03261699999999999,0.7124435,0.027619,-0.182699,0.5237435,0.025955000000000002,-0.28190899999999997,0.7103435,-0.081973,0.12632100000000002,0.5409735,0.003506000000000002,0.20575100000000002,0.7409235000000001,-0.11415299999999999,-0.266359,0.9714635,-0.197863,0.203081,1.0055635,-0.21182300000000004,-0.060531,-0.0024464999999999903,8.500000000000174e-05,0.060531,0.0024465000000000042,-8.500000000000174e-05,-0.108359,-0.36282649999999994,-0.0069099999999999995,0.11725100000000001,-0.35579649999999996,-0.007052999999999997,-0.146939,-0.8649465,0.015398000000000002,0.174781,-0.8820865,0.030591
105,-0.033205000000000005,0.71477,0.030372000000000003,-0.182957,0.52314,0.028098,-0.29085700000000003,0.70402,-0.079402,0.128273,0.54014,0.0067000000000000046,0.215573,0.7313,-0.112152,-0.27392700000000003,0.96256,-0.20469199999999999,0.211593,0.9936600000000001,-0.217702,-0.060584,-0.0024090000000000084,0.00013700000000000517,0.060584,0.0024089999999999945,-0.00013699999999999823,-0.108117,-0.36282000000000003,-0.007184999999999997,0.117433,-0.35568,-0.0058999999999999955,-0.147087,-0.86476,0.016536000000000002,0.174813,-0.87928,0.031932
106,-0.033739500000000006,0.716818,0.033122,-0.18331450000000002,0.5225179999999999,0.030081999999999998,-0.3016545,0.6915779999999999,-0.07697100000000001,0.1305555,0.5389379999999999,0.010083000000000002,0.2275055,0.7186779999999999,-0.110381,-0.28397449999999996,0.9463280000000001,-0.211881,0.2214455,0.9757279999999999,-0.225701,-0.060635499999999995,-0.002346000000000001,0.00021999999999999797,0.060635499999999995,0.002346000000000001,-0.00021999999999999797,-0.1080245,-0.362762,-0.007442000000000004,0.1177555,-0.355632,-0.005812999999999999,-0.1473245,-0.8645320000000001,0.017484999999999997,0.1744355,-0.876212,0.033498
107,-0.034352499999999994,0.7194254999999999,0.036049,-0.1839075,0.5203355,0.032346,-0.3134375,0.6768655,-0.07464,0.1327825,0.5372655,0.013232,0.2415225,0.7016555,-0.11,-0.2958675,0.9238155,-0.21958,0.2316425,0.9527355000000001,-0.23674999999999996,-0.0606705,-0.0022655000000000036,0.00048100000000000226,0.0606705,0.0022655000000000036,-0.00048100000000000226,-0.1082275,-0.36264450000000004,-0.0075799999999999965,0.1181325,-0.3555645,-0.005757999999999999,-0.14797749999999998,-0.8642445,0.018524000000000002,0.17385250000000002,-0.8722445,0.034736
108,-0.0349515,0.722465,0.038989,-0.18464350000000002,0.5183150000000001,0.03458800000000001,-0.3257835,0.656085,-0.072355,0.13498649999999998,0.535215,0.016180000000000007,0.2572265,0.679655,-0.108165,-0.3109635,0.8896550000000001,-0.225775,0.2429365,0.920865,-0.249635,-0.0607015,-0.0023010000000000044,0.0006370000000000056,0.0607015,0.0023010000000000044,-0.0006369999999999987,-0.10856350000000001,-0.36258500000000005,-0.0075829999999999995,0.1182665,-0.355385,-0.005610999999999998,-0.1488335,-0.863995,0.019572000000000003,0.1731965,-0.8677349999999999,0.036208000000000004
109,-0.035601499999999994,0.7258565,0.041952,-0.1855355,0.5161264999999999,0.036626000000000006,-0.3359155,0.6299665,-0.069598,0.1370945,0.5324265,0.018773000000000005,0.2704845,0.6543765,-0.105458,-0.32679549999999996,0.8485765,-0.22988799999999998,0.2527045,0.8798665,-0.260338,-0.060729500000000006,-0.0024934999999999957,0.0007300000000000015,0.060729500000000006,0.0024935000000000027,-0.0007299999999999945,-0.1090355,-0.36263349999999994,-0.007403,0.1185645,-0.35504349999999996,-0.005399000000000001,-0.15008549999999998,-0.8638835,0.020677,0.17260450000000002,-0.8630635,0.037591
110,-0.036216,0.72965,0.0448295,-0.1865,0.51367,0.0381875,-0.34358,0.60022,-0.0666735,0.13893,0.52959,0.020498500000000003,0.28191,0.62336,-0.10251350000000001,-0.34264,0.79749,-0.22885350000000002,0.25375000000000003,0.82912,-0.25922350000000005,-0.060767,-0.0026639999999999997,0.0008825000000000013,0.060767,0.0026639999999999997,-0.0008825000000000013,-0.10959,-0.36263,-0.007115499999999997,0.1188,-0.3547,-0.004982500000000001,-0.15138000000000001,-0.8637400000000001,0.0216765,0.17188,-0.85744,0.0388255
111,-0.036893499999999996,0.733386,0.04744949999999999,-0.18740749999999998,0.511306,0.03931249999999999,-0.3476975,0.565816,-0.06088650000000001,0.1403425,0.526386,0.021469499999999996,0.28926250000000003,0.587136,-0.0928365,-0.3568375,0.732826,-0.2268465,0.2633325,0.764956,-0.2587965,-0.0607955,-0.002937999999999996,0.0009964999999999974,0.0607955,0.002938000000000003,-0.0009965000000000043,-0.1102775,-0.362714,-0.006805500000000006,0.1190125,-0.354284,-0.004671500000000002,-0.1527575,-0.8636739999999999,0.022447499999999995,0.1711125,-0.852164,0.040097499999999994
112,-0.037582000000000004,0.7369865,0.04978,-0.188294,0.5090065,0.040337,-0.348094,0.5286165,-0.054279999999999995,0.141396,0.5229965,0.022363999999999995,0.292396,0.5485665000000001,-0.07962000000000001,-0.364124,0.6681365,-0.22539000000000003,0.271546,0.6998065,-0.25838,-0.06080000000000001,-0.0031535000000000035,0.0011029999999999998,0.06080000000000001,0.0031534999999999966,-0.0011029999999999998,-0.111044,-0.36273350000000004,-0.006485999999999999,0.119166,-0.35394349999999997,-0.004383000000000005,-0.154134,-0.8635535,0.023439,0.170356,-0.8476435,0.041447
113,-0.0381405,0.7404725000000001,0.0517125,-0.1889995,0.5067125,0.0413365,-0.3481695,0.49039249999999995,-0.0437115,0.1420505,0.5195925,0.023273499999999996,0.2925305,0.5105325000000001,-0.0660705,-0.3660095,0.5967925000000001,-0.2243205,0.2760505,0.6405525000000001,-0.25754049999999995,-0.060824500000000004,-0.0033914999999999987,0.001281499999999998,0.060824500000000004,0.0033915000000000056,-0.001281499999999998,-0.1117795,-0.3627675,-0.006020499999999998,0.1193005,-0.3535775,-0.0041215,-0.1554895,-0.8634674999999999,0.024480499999999995,0.1697905,-0.8432175,0.042706499999999994
114,-0.038596500000000006,0.7438495,0.052848,-0.1895725,0.5044895,0.042083999999999996,-0.3480725,0.4523395,-0.03258199999999999,0.1423475,0.5170395,0.024128999999999998,0.2927875,0.4743395,-0.052452000000000006,-0.36625250000000004,0.5162595,-0.218292,0.27594749999999996,0.5607595,-0.24939199999999997,-0.060870499999999994,-0.0036214999999999997,0.0014450000000000018,0.060870499999999994,0.0036214999999999997,-0.0014450000000000018,-0.1123425,-0.36274049999999997,-0.0052320000000000005,0.1194475,-0.3532105,-0.003930999999999997,-0.1567125,-0.8633704999999999,0.025462,0.1693475,-0.8391305,0.04397
115,-0.03905,0.747675,0.053738999999999995,-0.19010200000000002,0.5023150000000001,0.042575999999999996,-0.34787199999999996,0.41785500000000003,-0.020575000000000003,0.142238,0.514725,0.024291,0.293078,0.436645,-0.038519000000000005,-0.366102,0.435945,-0.206423,0.276088,0.479135,-0.23766299999999999,-0.06095299999999999,-0.003855000000000001,0.0016089999999999993,0.06095299999999999,0.003855000000000001,-0.0016089999999999993,-0.112872,-0.362695,-0.004395000000000003,0.11938800000000001,-0.352775,-0.0031900000000000053,-0.15790200000000001,-0.863265,0.026401999999999995,0.168928,-0.8349449999999999,0.045318
116,-0.0393285,0.7509935000000001,0.054527,-0.1904825,0.5017535000000001,0.042322,-0.3434025,0.3824935,-0.007832000000000006,0.1420475,0.5125935,0.023112,0.2918775,0.4003635,-0.024241,-0.3655425,0.3567535,-0.19058399999999998,0.2744875,0.3971035,-0.217704,-0.0610495,-0.0040525000000000005,0.0016549999999999968,0.0610495,0.0040525000000000005,-0.0016550000000000037,-0.1132725,-0.3626565,-0.0036820000000000047,0.11944750000000001,-0.3523965,-0.002610000000000001,-0.1586825,-0.8631565,0.027490999999999998,0.1688675,-0.8316064999999999,0.046395
117,-0.0395485,0.754129,0.0551445,-0.1908835,0.501009,0.041137499999999994,-0.3310635,0.347869,0.007137499999999998,0.1416865,0.510509,0.020561499999999996,0.2841565,0.364969,-0.009108499999999999,-0.3575835,0.28135899999999997,-0.1606035,0.2712965,0.317979,-0.1856335,-0.0610975,-0.004249999999999999,0.0016994999999999996,0.0610975,0.00425,-0.0016994999999999996,-0.1138235,-0.362641,-0.0031225000000000003,0.1195665,-0.352031,-0.0022474999999999995,-0.1592935,-0.863061,0.028402499999999997,0.1688865,-0.828651,0.046961499999999996
118,-0.039698,0.7556665,0.055236999999999994,-0.191199,0.5005864999999999,0.03969299999999999,-0.316009,0.3190565,0.022369,0.141351,0.5091865,0.017352,0.274421,0.33323650000000005,0.006539999999999997,-0.34506899999999996,0.2135265,-0.125663,0.266861,0.2481165,-0.146953,-0.061127,-0.004294499999999998,0.0017549999999999996,0.061127,0.0042945,-0.0017549999999999996,-0.114279,-0.3625635,-0.002683000000000005,0.119771,-0.35182349999999996,-0.0015320000000000056,-0.159819,-0.8628435,0.029237999999999997,0.168771,-0.8271135000000001,0.047340999999999994
119,-0.0399295,0.7565115,0.054522,-0.1915815,0.5002314999999999,0.037748000000000004,-0.2993815,0.2942215,0.038657,0.1410185,0.5079714999999999,0.013997999999999997,0.2628385,0.3079315,0.024288999999999998,-0.3307015,0.15581150000000002,-0.08890900000000002,0.2620985,0.18850150000000002,-0.104489,-0.0611345,-0.0042865,0.0018159999999999982,0.0611345,0.004286499999999999,-0.0018159999999999982,-0.1146615,-0.3624485,-0.0023340000000000027,0.1199985,-0.3516785,-0.0009489999999999985,-0.1601115,-0.8626085,0.030243,0.1685085,-0.8262685000000001,0.048234
120,-0.0401185,0.7571295,0.0533705,-0.19188850000000002,0.4999695,0.035599500000000006,-0.2825185,0.27524950000000004,0.0530905,0.14076149999999998,0.5073295,0.010658500000000001,0.24972149999999999,0.2888295,0.037546500000000003,-0.31339849999999997,0.1124795,-0.0504685,0.2576215,0.14156950000000001,-0.0577685,-0.0611515,-0.0042605,0.0018785000000000052,0.0611515,0.0042605,-0.0018784999999999982,-0.1149785,-0.3623305,-0.0020304999999999906,0.1201315,-0.3515905,-0.0005364999999999953,-0.16038850000000002,-0.8623805,0.0312065,0.1682215,-0.8253805000000001,0.049071500000000004
121,-0.0401855,0.7587214999999999,0.0512575,-0.1920895,0.4999215000000001,0.033197500000000005,-0.2684795,0.2604615,0.0673145,0.1406205,0.5069015,0.007203500000000002,0.2397105,0.27398150000000004,0.0477415,-0.2972095,0.07239050000000001,-0.014990500000000004,0.25379050000000003,0.0962915,-0.013142500000000001,-0.0611615,-0.0042615,0.0019475000000000048,0.0611615,0.0042615,-0.0019475000000000048,-0.1152295,-0.3622585,-0.001745499999999997,0.1202505,-0.3514885,-0.00013149999999999967,-0.1605495,-0.8621985000000001,0.0327175,0.1679305,-0.8256385,0.0500645
122,-0.040194999999999995,0.7602255,0.048725500000000005,-0.192254,0.49993550000000003,0.0311325,-0.258284,0.2485955,0.0759515,0.140596,0.5068155,0.004223499999999998,0.232166,0.2606355,0.0562115,-0.281154,0.0399655,0.0145915,0.252276,0.0522015,0.0173665,-0.061149999999999996,-0.004255500000000001,0.002092500000000004,0.061149999999999996,0.004255499999999999,-0.002092500000000004,-0.11541399999999999,-0.36224449999999997,-0.0014864999999999948,0.120506,-0.35147449999999997,0.00037550000000000083,-0.160614,-0.8621845,0.0340925,0.167776,-0.8254845000000001,0.0512215
123,-0.040166,0.761833,0.045957,-0.192356,0.499953,0.029419999999999995,-0.25162599999999996,0.239123,0.081671,0.140624,0.506823,0.0016289999999999985,0.22847399999999998,0.251073,0.061026,-0.26839599999999997,0.019646999999999998,0.034234,0.25336400000000003,0.032189,0.036435999999999996,-0.061115,-0.004253,0.002251999999999997,0.061115,0.004253,-0.002251999999999997,-0.115566,-0.362227,-0.0011999999999999997,0.120754,-0.351447,0.0009139999999999981,-0.160646,-0.8621570000000001,0.035515,0.168134,-0.826607,0.05165499999999999
124,-0.040117,0.7634755,0.043160000000000004,-0.19240100000000002,0.5000355,0.027917000000000004,-0.24738100000000002,0.2329655,0.08540600000000001,0.140709,0.5067955,-0.0004819999999999963,0.227049,0.24654550000000003,0.063055,-0.26108099999999995,0.008949499999999999,0.046031,0.254149,0.0196415,0.049018000000000006,-0.061064,-0.004214500000000001,0.002384000000000004,0.061064,0.0042144999999999995,-0.0023839999999999972,-0.115701,-0.3621545,-0.0009209999999999913,0.120979,-0.3514445,0.0015040000000000053,-0.160641,-0.8620845,0.036819000000000005,0.168599,-0.8287145,0.052089
125,-0.040040000000000006,0.7650975,0.040446499999999996,-0.192503,0.5003074999999999,0.026826499999999996,-0.24571300000000001,0.2303775,0.0866855,0.140867,0.5066474999999999,-0.0019085000000000074,0.226687,0.24605749999999998,0.0634665,-0.25976299999999997,0.004252499999999999,0.0511275,0.263027,0.012881499999999997,0.048812499999999995,-0.061027,-0.004159500000000002,0.0024724999999999955,0.061027,0.0041595,-0.0024725000000000025,-0.115803,-0.3620425,-0.0006885000000000085,0.12111699999999999,-0.3513625,0.0018694999999999962,-0.160533,-0.8618525,0.0378835,0.168317,-0.8286625000000001,0.0524945
126,-0.0399155,0.7663865000000001,0.0383015,-0.19261250000000002,0.5008064999999999,0.026465500000000003,-0.24579250000000002,0.2301265,0.0869945,0.14119749999999998,0.5064165,-0.0022205000000000003,0.22660750000000002,0.24580649999999998,0.0637755,-0.2598425,0.004001500000000002,0.0514365,0.2629475,0.0126305,0.0491215,-0.0610105,-0.0040935,0.0024915000000000007,0.0610105,0.0040935,-0.0024914999999999937,-0.1158325,-0.3619135,-0.00038249999999999396,0.1211175,-0.3512235,0.002173500000000002,-0.1605125,-0.8616135,0.0388385,0.16849750000000002,-0.8307235,0.0527865
127,-0.039737,0.76732,0.036584500000000006,-0.19270199999999998,0.50125,0.02623550000000001,-0.24586200000000002,0.22953,0.08722150000000001,0.141588,0.50623,-0.0023734999999999867,0.226508,0.24520999999999998,0.0640045,-0.259912,0.0034050000000000018,0.05166350000000001,0.26262800000000003,0.012034,0.04936550000000001,-0.061003,-0.003993,0.0024915000000000076,0.061003,0.003993,-0.0024914999999999937,-0.115872,-0.36178,-0.00015749999999999098,0.121158,-0.35119,0.0023925000000000057,-0.160472,-0.86137,0.039713500000000006,0.168468,-0.8337300000000001,0.0528025
128,-0.039510500000000004,0.7680564999999999,0.035288,-0.1927595,0.5017564999999999,0.02604,-0.2459395,0.2287565,0.087342,0.1420105,0.5062264999999999,-0.0023320000000000007,0.2271705,0.24443649999999997,0.063218,-0.2599895,0.0026314999999999984,0.051784000000000004,0.2650005,0.011260499999999996,0.049306,-0.0610075,-0.003918500000000002,0.0024400000000000047,0.0610075,0.003918499999999998,-0.0024399999999999977,-0.11592949999999999,-0.3616735,-3.799999999999637e-05,0.1211905,-0.35116349999999996,0.0025060000000000013,-0.16051949999999998,-0.8611935000000001,0.040377,0.1679205,-0.8371135000000001,0.053068000000000004
129,-0.039249000000000006,0.7683565,0.03431599999999999,-0.192837,0.5022464999999999,0.02600099999999999,-0.250207,0.2315465,0.083962,0.142433,0.5064265,-0.0023210000000000036,0.231573,0.24737649999999997,0.05973599999999999,-0.266407,0.007313499999999997,0.04217799999999999,0.270763,0.014224499999999998,0.033899999999999986,-0.061009999999999995,-0.0037605000000000017,0.0024039999999999895,0.061009999999999995,0.0037605,-0.0024040000000000034,-0.115987,-0.3615235,2.1999999999994246e-05,0.121153,-0.3512435,0.0031149999999999928,-0.160557,-0.8609635,0.04094899999999999,0.168283,-0.8406435,0.05252899999999999
130,-0.039095500000000005,0.7683565,0.03431250000000001,-0.19294850000000002,0.5022464999999999,0.026043500000000004,-0.2552685,0.2352565,0.07760750000000001,0.1427115,0.5064265,-0.002304499999999987,0.23526149999999998,0.2503965,0.0535795,-0.27521850000000003,0.014700500000000002,0.023665500000000006,0.2762215,0.0234485,0.011713500000000009,-0.0610285,-0.0037605000000000017,0.0023705000000000045,0.0610285,0.0037605,-0.0023704999999999976,-0.1160885,-0.3615235,0.00015450000000000186,0.1211415,-0.3512435,0.0036005000000000065,-0.1606885,-0.8609635,0.04099250000000001,0.16779149999999998,-0.8432935,0.05167050000000001
131,-0.0389805,0.7683565,0.0343045,-0.19304349999999998,0.5022464999999999,0.026050500000000004,-0.2608535,0.24042650000000002,0.0689915,0.14293650000000002,0.5064265,-0.002319500000000002,0.2378665,0.25386650000000005,0.0442485,-0.28329350000000003,0.0246205,0.0012805000000000039,0.2777765,0.0330285,-0.013207499999999997,-0.0610695,-0.0037605000000000017,0.0023735000000000006,0.0610695,0.0037605,-0.0023735000000000006,-0.1161935,-0.3615235,0.0003085000000000032,0.1210265,-0.3512435,0.004171500000000002,-0.1609735,-0.8609635,0.041011500000000006,0.16777650000000002,-0.8459335,0.0506515
132,-0.0388145,0.7682924999999999,0.03302,-0.1931095,0.5023425,0.026559,-0.2735995,0.2346425,0.053085999999999994,0.1436205,0.5062424999999999,-0.0017390000000000044,0.2465105,0.25661249999999997,0.025582999999999995,-0.3007995,0.019638500000000003,-0.021393999999999996,0.31459050000000005,-0.0003454999999999986,-0.06425900000000001,-0.061061500000000005,-0.0036804999999999997,0.0023059999999999956,0.061061500000000005,0.0036804999999999997,-0.0023060000000000025,-0.1160795,-0.3614275,0.0011999999999999927,0.1214105,-0.3514275,0.004489,-0.1605595,-0.8609075,0.042328,0.1686005,-0.8499575,0.050180999999999996
133,-0.038848,0.7687075,0.033461,-0.193585,0.5027674999999999,0.026621999999999993,-0.278225,0.24513749999999998,0.041301,0.14361500000000002,0.5063175,-0.0010330000000000061,0.246345,0.2603675,0.012663999999999995,-0.308875,0.039206500000000005,-0.066098,0.30966499999999997,0.033535499999999996,-0.10398800000000001,-0.061259,-0.0034254999999999997,0.0019599999999999965,0.061259,0.0034255000000000015,-0.0019600000000000034,-0.11655499999999999,-0.3610625,0.0014079999999999926,0.120895,-0.3509125,0.010973999999999998,-0.161795,-0.8604525000000001,0.042665999999999996,0.177405,-0.9071625,0.058495
134,-0.038745999999999996,0.7690775,0.0339275,-0.193704,0.5030574999999999,0.026509500000000005,-0.281114,0.2620075,0.026620500000000005,0.143576,0.5064974999999999,-0.0009185000000000026,0.243836,0.2679375,-0.0011275000000000035,-0.31147400000000003,0.056543500000000003,-0.10336849999999999,0.293736,0.08383750000000001,-0.12179849999999999,-0.061361,-0.003277499999999999,0.0017915000000000014,0.061361,0.003277499999999999,-0.0017915000000000014,-0.116724,-0.3609225,0.0010275000000000006,0.121226,-0.3514625,0.008009500000000003,-0.161944,-0.8603125,0.042259500000000005,0.166966,-0.8503925,0.051480500000000005
135,-0.038518000000000004,0.7691665,0.03442400000000001,-0.193558,0.5031565,0.02670900000000001,-0.27904799999999996,0.27610650000000003,0.020337000000000008,0.143692,0.5065864999999999,-0.0005279999999999868,0.242512,0.2759165,-0.009739999999999999,-0.313608,0.0800985,-0.12528399999999998,0.290442,0.09042649999999999,-0.14099399999999998,-0.061431,-0.0032924999999999986,0.0017060000000000061,0.061431,0.0032925000000000003,-0.0017059999999999992,-0.116818,-0.3609635,0.0006190000000000084,0.121292,-0.3515135,0.007605000000000008,-0.162108,-0.8603535,0.04182000000000001,0.161332,-0.8507935,0.05227400000000001
136,-0.038539500000000004,0.768629,0.0354195,-0.1934655,0.5029589999999999,0.0273285,-0.28034549999999997,0.279519,0.015045500000000003,0.14383449999999998,0.5063989999999999,0.0002735000000000029,0.2404345,0.281859,-0.014445499999999993,-0.3132755,0.101329,-0.1544895,0.28244450000000004,0.110209,-0.15602950000000002,-0.0613785,-0.0032330000000000015,0.0019095000000000015,0.0613785,0.0032329999999999998,-0.0019095000000000015,-0.1170055,-0.360921,0.00026650000000000285,0.1195445,-0.35174099999999997,0.0082975,-0.1630155,-0.860301,0.0410075,0.1741245,-0.892641,0.0415065
137,-0.038386,0.768555,0.0362475,-0.19344699999999998,0.5029950000000001,0.0277195,-0.27843700000000005,0.287995,0.009168500000000003,0.143963,0.506405,0.0007955000000000045,0.236673,0.29151499999999997,-0.017141499999999997,-0.31473700000000004,0.136155,-0.1562325,0.272513,0.142525,-0.1849925,-0.06143,-0.0031439999999999992,0.0017855000000000024,0.06143,0.003144000000000001,-0.0017855000000000024,-0.117037,-0.360865,-0.0001394999999999938,0.12031299999999999,-0.352105,0.005457500000000004,-0.16383699999999998,-0.860425,0.0382585,0.163003,-0.852005,0.042646500000000004
138,-0.0385935,0.7685945,0.03722,-0.1937585,0.5028645,0.028409000000000004,-0.2770685,0.2949145,0.006709,0.1439615,0.5062345,0.0010850000000000026,0.23299150000000002,0.30141450000000003,-0.017235999999999994,-0.30935850000000004,0.1389145,-0.205552,0.2379215,0.1773645,-0.255512,-0.0614665,-0.003185499999999999,0.0017030000000000031,0.0614665,0.003185500000000001,-0.0017030000000000031,-0.11714849999999999,-0.3609155,-0.00045999999999999514,0.1203015,-0.35211549999999997,0.005209999999999999,-0.1673385,-0.8603455,0.036056000000000005,0.1686415,-0.8515755,0.041483000000000006
