sb224sc-HT22-VT27/4dt907/src/data/kinect_good_preprocessed_not_cut_A11_mediapipe/A86_kinect.csv
FrameNo,nose_3d_x,nose_3d_y,nose_3d_z,left_shoulder_3d_x,left_shoulder_3d_y,left_shoulder_3d_z,left_elbow_3d_x,left_elbow_3d_y,left_elbow_3d_z,right_shoulder_3d_x,right_shoulder_3d_y,right_shoulder_3d_z,right_elbow_3d_x,right_elbow_3d_y,right_elbow_3d_z,left_wrist_3d_x,left_wrist_3d_y,left_wrist_3d_z,right_wrist_3d_x,right_wrist_3d_y,right_wrist_3d_z,left_hip_3d_x,left_hip_3d_y,left_hip_3d_z,right_hip_3d_x,right_hip_3d_y,right_hip_3d_z,left_knee_3d_x,left_knee_3d_y,left_knee_3d_z,right_knee_3d_x,right_knee_3d_y,right_knee_3d_z,left_ankle_3d_x,left_ankle_3d_y,left_ankle_3d_z,right_ankle_3d_x,right_ankle_3d_y,right_ankle_3d_z
0,-0.011180500000000003,0.777593,0.1208825,-0.16415649999999998,0.581143,0.09016450000000001,-0.2368865,0.837283,0.019964500000000003,0.1675535,0.5720529999999999,0.10854950000000001,0.2803635,0.813383,0.0605855,-0.2434365,1.121443,-0.0205015,0.31047349999999996,1.089043,-0.022634500000000002,-0.0812515,0.002143,0.002084500000000003,0.0812515,-0.002143,-0.002084499999999996,-0.11337649999999999,-0.456327,-0.026395500000000002,0.11928349999999999,-0.508927,0.011849500000000002,-0.09921350000000001,-0.862867,-0.004276499999999996,0.12458350000000001,-0.8920170000000001,0.015942500000000002
1,-0.010170000000000002,0.7770885000000001,0.1209025,-0.164833,0.5813085,0.0906785,-0.236793,0.8368485,0.0197905,0.167697,0.5722685000000001,0.10859250000000001,0.280307,0.8134685,0.060414499999999996,-0.243373,1.1210985,-0.0205865,0.310257,1.0891985,-0.022879500000000004,-0.081246,0.0020535,0.0019705,0.081246,-0.0020535,-0.0019705,-0.113523,-0.4565715,-0.026238500000000005,0.119347,-0.5088415,0.011933499999999996,-0.099049,-0.8635514999999999,-0.0036974999999999994,0.124007,-0.8919414999999999,0.016306499999999998
2,-0.009465500000000005,0.7777285,0.120508,-0.1655715,0.5808785000000001,0.091168,-0.2367515,0.8359485000000001,0.019826,0.16773849999999998,0.5725385000000001,0.108592,0.2800485,0.8138285000000001,0.059886999999999996,-0.24381150000000001,1.1200685,-0.021269999999999997,0.3095185,1.0897685,-0.022733000000000003,-0.0812515,0.0019185,0.0018410000000000024,0.0812515,-0.0019184999999999998,-0.0018410000000000024,-0.11356150000000001,-0.4606215,-0.025223999999999996,0.12055849999999999,-0.5062715,0.012216000000000001,-0.09869050000000001,-0.8645514999999999,-0.004055000000000003,0.12410849999999998,-0.8911515,0.016423
3,-0.009127499999999993,0.7776925,0.12053050000000001,-0.1661125,0.5814825,0.0915945,-0.2368925,0.8358225,0.0199065,0.1677375,0.5725725,0.1086615,0.2798775,0.8137725,0.059811500000000004,-0.2440925,1.1199025,-0.021693499999999998,0.3094775,1.0897025,-0.0227375,-0.0812335,0.0018815,0.0017345,0.0812335,-0.0018815,-0.0017345,-0.11369249999999999,-0.4604975,-0.0251235,0.12041750000000001,-0.5044775,0.011772500000000002,-0.09885849999999999,-0.8636874999999999,-0.004000499999999997,0.1238775,-0.8911375,0.0165445
4,-0.008634000000000006,0.7777415,0.12091500000000001,-0.166535,0.5813915,0.091912,-0.236985,0.8352715,0.020199,0.16785499999999998,0.5726715,0.10871,0.279825,0.8139115,0.059728,-0.243915,1.1192815,-0.022425,0.309545,1.0897815,-0.022708999999999993,-0.081248,0.0018275000000000001,0.0015560000000000018,0.081248,-0.0018275000000000001,-0.0015559999999999949,-0.113745,-0.4607185,-0.024856000000000003,0.12056499999999999,-0.5045985000000001,0.011838000000000001,-0.09883900000000001,-0.8638185,-0.004092999999999999,0.124785,-0.8881285,0.016866000000000003
5,-0.008152,0.777964,0.121257,-0.166813,0.581184,0.091967,-0.238073,0.844504,0.01738,0.167937,0.5727639999999999,0.108737,0.279697,0.814004,0.059625,-0.24426299999999998,1.128654,-0.024049,0.30944699999999997,1.089854,-0.023113999999999996,-0.08127000000000001,0.001992,0.0013680000000000012,0.08127000000000001,-0.001992,-0.0013680000000000012,-0.113763,-0.46062600000000004,-0.02491,0.12054699999999999,-0.504416,0.01174,-0.098491,-0.8659060000000001,-0.005865000000000002,0.12453700000000001,-0.886226,0.016985999999999998
6,-0.0078515,0.7783865,0.12124650000000001,-0.1669025,0.5808964999999999,0.0920075,-0.2388925,0.8493265,0.015738500000000006,0.1680575,0.5729065,0.10887050000000001,0.2793875,0.8134764999999999,0.05983250000000001,-0.24434250000000002,1.1334665000000002,-0.025164499999999992,0.31170749999999997,1.0677665,-0.011227499999999994,-0.08131050000000001,0.0019284999999999999,0.0012245000000000034,0.08131050000000001,-0.0019285,-0.0012244999999999964,-0.1136125,-0.4605635,-0.024964499999999987,0.1205975,-0.5042535,0.011946500000000006,-0.09849450000000001,-0.8660235000000001,-0.005819499999999991,0.1248475,-0.8864035,0.017705500000000006
7,-0.007667000000000001,0.7793875,0.12194050000000001,-0.167098,0.5811275,0.0915765,-0.238368,0.8421375,0.016734500000000003,0.168062,0.5730875,0.10909450000000001,0.279332,0.8136975,0.060173500000000005,-0.243878,1.1261875000000001,-0.024924500000000002,0.31213199999999997,1.0726875,-0.014622499999999997,-0.081313,0.0019335,0.0009355000000000058,0.081313,-0.0019334999999999999,-0.0009354999999999988,-0.113898,-0.4575825,-0.02546749999999999,0.120282,-0.5044025,0.012253500000000004,-0.098969,-0.8626325,-0.004143499999999994,0.12438199999999999,-0.8875825,0.017671500000000003
8,-0.007362999999999999,0.7798185,0.122274,-0.167318,0.5811785,0.091732,-0.238668,0.8432985000000001,0.016194999999999998,0.168102,0.5732685,0.10922699999999999,0.279212,0.8137585,0.06029999999999999,-0.243808,1.1273585,-0.025564999999999997,0.312602,1.0700585,-0.013203,-0.081334,0.0019344999999999998,0.0007559999999999997,0.081334,-0.0019345,-0.0007559999999999997,-0.114018,-0.4572615,-0.025418000000000003,0.120322,-0.5042314999999999,0.012349999999999996,-0.09899,-0.8626715,-0.004123000000000002,0.12440200000000001,-0.8870315,0.017851999999999996
9,-0.007072000000000002,0.7802585,0.12254899999999999,-0.16736399999999999,0.5811785,0.091845,-0.238944,0.8444085,0.015437,0.16811600000000002,0.5732685,0.109351,0.279156,0.8137685,0.060444,-0.243714,1.1284585,-0.026365,0.313136,1.0682585,-0.012077000000000004,-0.081338,0.0019344999999999998,0.0005819999999999992,0.081338,-0.0019345,-0.0005819999999999992,-0.11413400000000001,-0.4570315,-0.025390999999999997,0.12032599999999999,-0.5039915,0.012479999999999998,-0.099073,-0.8625115,-0.004022999999999999,0.124356,-0.8868515,0.018098999999999997
10,-0.006812500000000001,0.7806885,0.12286649999999999,-0.1673925,0.5812185,0.0918795,-0.2390625,0.8454785,0.0147955,0.1681375,0.5732785,0.10948449999999998,0.2791075,0.8137685,0.060588499999999997,-0.2436025,1.1295585,-0.027255499999999995,0.3138575,1.0664585,-0.010925500000000005,-0.08133950000000001,0.0019344999999999998,0.000394499999999999,0.08133950000000001,-0.0019345,-0.000394499999999999,-0.11423249999999999,-0.4559215,-0.025586500000000005,0.1202675,-0.5038115,0.0126135,-0.09918450000000001,-0.8621715,-0.0038494999999999988,0.1243175,-0.8866415,0.018283499999999998
11,-0.006565999999999998,0.7811385,0.123141,-0.167417,0.5812185,0.09181700000000001,-0.239137,0.8465085,0.014042000000000006,0.16814300000000001,0.5732785,0.109643,0.27909300000000004,0.8137785,0.060744000000000006,-0.243487,1.1305585,-0.028330999999999995,0.31451300000000004,1.0664585,-0.010515999999999998,-0.081334,0.0019344999999999998,0.00019900000000000473,0.081334,-0.0019345,-0.0001989999999999978,-0.114337,-0.45441149999999997,-0.025793999999999997,0.120213,-0.5037715,0.012817000000000005,-0.0993,-0.8618215,-0.0036519999999999955,0.12429300000000001,-0.8859815,0.018475000000000005
12,-0.006198499999999997,0.7820235,0.123501,-0.1673975,0.5814135,0.091252,-0.2390475,0.8478935,0.013035999999999999,0.16829249999999998,0.5736235,0.109813,0.2790725,0.8138735,0.060834,-0.2432175,1.1318835,-0.030056000000000006,0.3154225,1.0659835,-0.009951000000000002,-0.08132249999999999,0.0020255,-2.8000000000000247e-05,0.08132249999999999,-0.0020255,2.8000000000000247e-05,-0.11442749999999999,-0.4532265,-0.025899,0.1201525,-0.5032565,0.013086,-0.0993945,-0.8614365,-0.003382000000000003,0.1241825,-0.8857865,0.01872
13,-0.0058439999999999985,0.782892,0.123824,-0.167376,0.581622,0.090675,-0.238956,0.848882,0.012048000000000003,0.16842400000000002,0.573962,0.109953,0.279054,0.813962,0.060919,-0.242886,1.132802,-0.031803,0.316334,1.065502,-0.009409,-0.081313,0.002104,-0.00020699999999999885,0.081313,-0.002104,0.00020699999999999885,-0.11452599999999999,-0.45202800000000004,-0.026023000000000004,0.120094,-0.5028480000000001,0.013354000000000001,-0.099547,-0.861098,-0.003034999999999996,0.124054,-0.885938,0.019105
14,-0.0054915,0.78374,0.1241085,-0.1673615,0.58187,0.0901285,-0.23887150000000001,0.84935,0.011019500000000002,0.1685485,0.57428,0.1100545,0.2789985,0.8140900000000001,0.0609905,-0.24254150000000002,1.13321,-0.0334845,0.3171785,1.06571,-0.008980500000000002,-0.0813105,0.002192,-0.00036649999999999877,0.0813105,-0.002192,0.00036649999999999877,-0.11457149999999999,-0.45122,-0.0259495,0.1200585,-0.50234,0.0135745,-0.0996995,-0.86074,-0.002737500000000004,0.12392850000000001,-0.88583,0.0194165
15,-0.005162499999999997,0.7845675,0.12436,-0.1673305,0.5820475,0.089583,-0.2387805,0.8503075,0.009918000000000003,0.1686595,0.5745975,0.11013200000000001,0.2789595,0.8142275,0.061052999999999996,-0.24220049999999999,1.1339975,-0.035288999999999994,0.31790949999999996,1.0659975,-0.008572999999999997,-0.0813135,0.0022715,-0.0005090000000000025,0.0813135,-0.0022715,0.0005090000000000025,-0.1145905,-0.4506425,-0.025873,0.1200195,-0.5016725,0.013803,-0.0998525,-0.8606825,-0.002458000000000002,0.1237695,-0.8856125,0.019752
16,-0.0048715,0.7853494999999999,0.124612,-0.1672655,0.5822295,0.089049,-0.23861549999999998,0.8511995,0.008797000000000006,0.16874450000000002,0.5748595,0.11019100000000001,0.2789045,0.8143195,0.06113400000000001,-0.24182550000000003,1.1348395,-0.03715199999999999,0.3185445,1.0664395,-0.008131999999999993,-0.0813175,0.0023245,-0.0006049999999999944,0.0813175,-0.0023245,0.0006050000000000014,-0.1146355,-0.4506805,-0.025699,0.1199745,-0.5016505,0.014007000000000006,-0.1000015,-0.8604405,-0.0021989999999999926,0.12359450000000001,-0.8852305,0.019984000000000005
17,-0.004639500000000002,0.7860495000000001,0.12485,-0.1671565,0.5824295,0.088512,-0.2384265,0.8518095,0.007667999999999994,0.1688235,0.5751095,0.110237,0.27884349999999997,0.8143695000000001,0.06124199999999999,-0.2414365,1.1353595,-0.039075,0.3189135,1.0666595,-0.007657000000000004,-0.08131949999999999,0.0023945,-0.0007060000000000052,0.08131949999999999,-0.0023945,0.0007059999999999983,-0.1146665,-0.4503205,-0.02559,0.1199335,-0.5020304999999999,0.014252999999999995,-0.1001535,-0.8602004999999999,-0.0019840000000000066,0.1234635,-0.8849305,0.020273999999999997
18,-0.004463499999999998,0.7865495,0.125055,-0.1670145,0.5825195,0.08799499999999999,-0.2381745,0.8523995,0.0066859999999999975,0.1688755,0.5753195,0.110259,0.2787655,0.8143795,0.061378,-0.24097449999999998,1.1358395,-0.040878,0.3189955,1.0670395,-0.007102000000000004,-0.0813195,0.0024545,-0.0008070000000000022,0.0813195,-0.0024544999999999997,0.0008069999999999952,-0.1147145,-0.4502605,-0.025464,0.1199055,-0.5014705,0.014454999999999999,-0.1002985,-0.8600405,-0.0017630000000000007,0.12331550000000001,-0.8846705,0.020589
19,-0.004321000000000006,0.7870175,0.125186,-0.166745,0.5826375,0.087257,-0.23783500000000002,0.8530075,0.005784000000000004,0.16894499999999998,0.5755275,0.11032700000000001,0.27865500000000004,0.8143875,0.061564,-0.240425,1.1364075,-0.042439,0.31888500000000003,1.0676075,-0.006517999999999996,-0.081323,0.0025085,-0.000893999999999999,0.081323,-0.0025085,0.000893999999999999,-0.11468500000000001,-0.4505225,-0.025340999999999995,0.119925,-0.5009325,0.014629,-0.10044700000000001,-0.8599625,-0.0015599999999999989,0.12322499999999997,-0.8844225,0.020805
20,-0.004188000000000001,0.787329,0.125232,-0.16648000000000002,0.582699,0.08648900000000001,-0.23754999999999998,0.853209,0.0051170000000000035,0.16897,0.575649,0.11038200000000001,0.27854,0.814349,0.06171,-0.23987999999999998,1.136579,-0.043713,0.31876,1.067879,-0.005912999999999995,-0.081319,0.002545,-0.0009619999999999976,0.081319,-0.002545,0.0009620000000000045,-0.11464,-0.451251,-0.025179999999999994,0.11998,-0.500871,0.014761000000000003,-0.100586,-0.8599910000000001,-0.0013919999999999974,0.12313999999999999,-0.885231,0.021220000000000003
21,-0.0042835000000000035,0.78721,0.125241,-0.16635350000000002,0.58265,0.08616499999999999,-0.2372235,0.85314,0.004697,0.1688665,0.57559,0.11042199999999999,0.2783765,0.81429,0.061764,-0.2395035,1.1364599999999998,-0.044337999999999995,0.3185665,1.06826,-0.0051,-0.0813195,0.002493,-0.0009849999999999998,0.0813195,-0.0024930000000000004,0.0009849999999999998,-0.1146035,-0.45137,-0.025105999999999996,0.1200465,-0.50054,0.014812000000000002,-0.1007045,-0.8600099999999999,-0.0013330000000000009,0.1230365,-0.8848699999999999,0.021268000000000002
22,-0.004388999999999997,0.787095,0.1252385,-0.166222,0.5825750000000001,0.0858235,-0.236922,0.853075,0.004317499999999995,0.168748,0.5756450000000001,0.1104315,0.278168,0.8142550000000001,0.061816499999999996,-0.239072,1.136445,-0.0448775,0.318288,1.068545,-0.0041624999999999995,-0.081314,0.002454,-0.0010225000000000026,0.081314,-0.0024539999999999996,0.0010224999999999956,-0.114582,-0.451485,-0.024955500000000005,0.120088,-0.500095,0.0148335,-0.100823,-0.860055,-0.001287500000000004,0.12292800000000001,-0.884775,0.0213275
23,-0.004513500000000003,0.7869685,0.125285,-0.1660725,0.5824885,0.085442,-0.2366025,0.8529985,0.003941,0.1686175,0.5757285,0.110447,0.27793749999999995,0.8142085,0.06194,-0.2385825,1.1363184999999998,-0.045337,0.31760750000000004,1.0687185,-0.003019999999999995,-0.0813005,0.0024355,-0.0010599999999999984,0.0813005,-0.0024355,0.0010600000000000054,-0.1145125,-0.4521015,-0.024741,0.1201875,-0.4996815,0.014854000000000003,-0.1009765,-0.8600915,-0.0012439999999999951,0.1227975,-0.8847115,0.02145
24,-0.004680999999999997,0.78698,0.1253415,-0.16624999999999998,0.5825,0.0850945,-0.23673999999999998,0.85305,0.0037065000000000015,0.16841,0.57578,0.1104985,0.27754,0.81418,0.0622325,-0.23865,1.1363699999999999,-0.04556149999999999,0.31647,1.06877,-0.001738499999999997,-0.08126900000000001,0.0024720000000000002,-0.0011254999999999946,0.08126900000000001,-0.002472,0.0011255000000000015,-0.11446999999999999,-0.45286,-0.024531499999999998,0.12025,-0.49942000000000003,0.014829500000000002,-0.101129,-0.86004,-0.0013395000000000004,0.12269000000000002,-0.88471,0.021443500000000004
25,-0.0048905,0.7869339999999999,0.12539450000000002,-0.1664445,0.5824739999999999,0.0848225,-0.2369345,0.853054,0.003561500000000002,0.1681455,0.5757939999999999,0.1105465,0.2770855,0.8141339999999999,0.0625975,-0.2387845,1.1363839999999998,-0.0456275,0.3151255,1.068784,-0.0005234999999999962,-0.0812465,0.002483,-0.0011964999999999962,0.0812465,-0.002483,0.0011965000000000031,-0.1144545,-0.453786,-0.0242995,0.1203155,-0.499636,0.014814500000000001,-0.1012825,-0.860056,-0.0014424999999999993,0.12254549999999999,-0.884726,0.0215025
26,-0.005113500000000003,0.786874,0.1254575,-0.1666485,0.5824239999999999,0.0847505,-0.23711849999999998,0.853024,0.0034755000000000064,0.1678715,0.5758139999999999,0.1106305,0.27663150000000003,0.8141039999999999,0.0629755,-0.2389585,1.136304,-0.0455985,0.3137915,1.068604,0.0005605000000000054,-0.0812225,0.002498,-0.0012734999999999969,0.0812225,-0.0024980000000000002,0.0012735000000000038,-0.1144385,-0.454796,-0.02410749999999999,0.1204015,-0.49957599999999996,0.014741500000000005,-0.1014265,-0.860106,-0.0015414999999999943,0.1224315,-0.884756,0.021571500000000007
27,-0.005749500000000002,0.786631,0.12558550000000002,-0.1669165,0.5821609999999999,0.0847585,-0.2373365,0.8528009999999999,0.0034584999999999963,0.1672835,0.5759409999999999,0.1106955,0.2757235,0.814221,0.0634475,-0.2391865,1.136051,-0.045550499999999994,0.3119035,1.068751,0.0015924999999999967,-0.0812145,0.002439,-0.0013434999999999975,0.0812145,-0.0024389999999999998,0.0013434999999999975,-0.1141765,-0.455179,-0.0240075,0.12056349999999999,-0.499009,0.014621499999999999,-0.1012255,-0.8601690000000001,-0.0015025000000000038,0.1227135,-0.8846090000000001,0.021669499999999998
28,-0.0064165,0.786399,0.1256725,-0.1672315,0.581909,0.0847475,-0.2376715,0.852569,0.003442500000000001,0.1666685,0.576079,0.1107185,0.2747985,0.814359,0.0638935,-0.2394415,1.135819,-0.0455665,0.3100085,1.068919,0.0025715000000000043,-0.0811955,0.002396,-0.0014365000000000003,0.0811955,-0.002396,0.0014365000000000003,-0.11398150000000001,-0.455791,-0.023914499999999998,0.12052849999999998,-0.498911,0.014429500000000001,-0.10104650000000001,-0.860381,-0.0015695000000000014,0.12302849999999999,-0.884311,0.0215545
29,-0.007057500000000005,0.7861615000000001,0.125759,-0.1675855,0.5816315,0.084705,-0.23800549999999998,0.8522815,0.0034020000000000022,0.16608449999999997,0.5762215,0.110724,0.27393449999999997,0.8145215,0.06431500000000001,-0.23967549999999999,1.1355915,-0.045597,0.3083045,1.0691915,0.003374000000000009,-0.0811775,0.0023545000000000003,-0.0015239999999999976,0.0811775,-0.0023545,0.0015240000000000045,-0.11379550000000001,-0.4565285,-0.02375999999999999,0.1205345,-0.4990885,0.014183000000000008,-0.1008315,-0.8605484999999999,-0.0016909999999999911,0.12343449999999999,-0.8843485,0.021325000000000007
30,-0.0076510000000000015,0.785936,0.12584,-0.167926,0.581396,0.084615,-0.238376,0.852036,0.0033089999999999994,0.165544,0.576386,0.11071399999999999,0.273144,0.814706,0.064728,-0.239986,1.135386,-0.045586,0.307074,1.0693860000000002,0.003907000000000001,-0.081166,0.002319,-0.001580999999999999,0.081166,-0.002319,0.001580999999999999,-0.113616,-0.457114,-0.023654999999999995,0.120554,-0.49914400000000003,0.013907999999999997,-0.100535,-0.860704,-0.0018239999999999992,0.12379399999999999,-0.884424,0.021051999999999998
31,-0.008256999999999999,0.7857605,0.125922,-0.168445,0.5811405,0.084704,-0.238815,0.8517904999999999,0.0032290000000000027,0.164995,0.5765705,0.11064700000000001,0.272385,0.8149405,0.065068,-0.24044500000000002,1.1351105,-0.045605999999999994,0.30600499999999997,1.0696105,0.004305000000000003,-0.08115800000000001,0.0022865,-0.0016539999999999958,0.08115800000000001,-0.0022865000000000003,0.0016540000000000027,-0.113455,-0.4575495,-0.023613999999999996,0.12054499999999999,-0.4987595,0.013606,-0.10023599999999999,-0.8608095,-0.0019609999999999975,0.12423499999999998,-0.8844695,0.020733
32,-0.008836499999999994,0.785635,0.12600899999999998,-0.1690175,0.580925,0.08491499999999999,-0.2391275,0.851545,0.0031979999999999995,0.16447250000000002,0.576795,0.110553,0.27167250000000004,0.815215,0.06537599999999999,-0.24100749999999999,1.1348850000000001,-0.045603000000000005,0.3051125,1.069985,0.004512999999999996,-0.0811495,0.0022500000000000003,-0.0017540000000000056,0.0811495,-0.0022500000000000003,0.0017539999999999986,-0.1134275,-0.457175,-0.02371100000000001,0.12051250000000001,-0.498235,0.013339999999999998,-0.09991449999999999,-0.860925,-0.002241000000000007,0.1246625,-0.884425,0.020341999999999996
33,-0.009355500000000003,0.78554,0.1261295,-0.1695505,0.5807899999999999,0.0851565,-0.2394705,0.85136,0.003211499999999992,0.1640095,0.57701,0.1104235,0.2710395,0.81551,0.06569449999999999,-0.2415805,1.13467,-0.0456125,0.3043395,1.07037,0.004667499999999998,-0.0811505,0.002244,-0.0018405000000000019,0.0811505,-0.0022440000000000003,0.001840499999999995,-0.1133605,-0.45679,-0.023859500000000006,0.12052949999999998,-0.49818999999999997,0.013077499999999992,-0.0995565,-0.861,-0.0024915000000000076,0.1250695,-0.88436,0.019969499999999994
34,-0.009831000000000001,0.785453,0.1262655,-0.170094,0.580613,0.0854625,-0.239814,0.851123,0.003231500000000005,0.16358599999999998,0.577103,0.1102875,0.27044599999999996,0.815743,0.0659415,-0.242144,1.134453,-0.04563249999999999,0.30375599999999997,1.070553,0.0047195000000000015,-0.081144,0.0022,-0.0019154999999999936,0.081144,-0.0021999999999999997,0.0019155000000000005,-0.113284,-0.456407,-0.023984499999999992,0.120506,-0.498277,0.012809500000000001,-0.099187,-0.861117,-0.0027335,0.12534599999999999,-0.884287,0.019555500000000003
35,-0.0102875,0.78538,0.1263705,-0.1706625,0.5804199999999999,0.0858125,-0.2401725,0.8503099999999999,0.003525500000000001,0.1631775,0.57716,0.11011750000000001,0.2698975,0.8158799999999999,0.0661745,-0.2427225,1.1336300000000001,-0.0455925,0.3031875,1.07063,0.0047805,-0.0811365,0.002114,-0.001982499999999998,0.0811365,-0.002114,0.001982499999999998,-0.1132125,-0.45579,-0.024300499999999996,0.12044750000000001,-0.49774,0.0125795,-0.0987965,-0.8612500000000001,-0.002967499999999998,0.1256275,-0.8843000000000001,0.0191705
36,-0.010332500000000001,0.785367,0.1264005,-0.17079850000000002,0.580417,0.08612249999999999,-0.2402185,0.849807,0.0036864999999999953,0.1631515,0.577167,0.1099205,0.26985149999999997,0.815807,0.0662585,-0.2427585,1.133147,-0.045635499999999996,0.30310149999999997,1.070347,0.004692499999999995,-0.0811215,0.002097,-0.0020435000000000036,0.0811215,-0.002097,0.0020434999999999967,-0.1132185,-0.45554300000000003,-0.024530499999999997,0.12043150000000001,-0.497723,0.012374499999999997,-0.0986945,-0.861353,-0.003207500000000002,0.1256115,-0.884503,0.018965499999999996
37,-0.010356000000000002,0.7853505,0.1264345,-0.170912,0.5804305,0.0863935,-0.240252,0.8493805,0.003882500000000004,0.16314800000000002,0.5771805,0.1097195,0.269828,0.8157605,0.0663265,-0.242772,1.1326605,-0.0456045,0.303048,1.0700605,0.004557499999999999,-0.081116,0.0020835,-0.002079499999999998,0.081116,-0.0020835,0.002079499999999998,-0.11321200000000001,-0.4553895,-0.024741499999999993,0.12043800000000002,-0.4981095,0.0121625,-0.098581,-0.8614195,-0.0033774999999999986,0.125618,-0.8847695,0.0187535
38,-0.0103685,0.7853105,0.1264265,-0.1709515,0.5804305,0.0864795,-0.2402915,0.8491105,0.004066500000000001,0.1631585,0.5771805,0.1094755,0.2698085,0.8157205,0.06637950000000001,-0.2428015,1.1323605,-0.0455135,0.3029885,1.0698605,0.0043575,-0.0811055,0.0020835,-0.0021234999999999934,0.0811055,-0.0020835,0.0021235000000000004,-0.1132015,-0.4558495,-0.0249375,0.12041850000000001,-0.4986495,0.0119965,-0.0984695,-0.8615395,-0.0036924999999999944,0.1256285,-0.8850395,0.018499500000000002
39,-0.010326000000000002,0.7851905,0.126421,-0.17098600000000003,0.5803705,0.086479,-0.240186,0.8488105,0.004294999999999993,0.163184,0.5771205,0.109174,0.269814,0.8156405000000001,0.066354,-0.242776,1.1321005,-0.04541200000000001,0.303054,1.0697005,0.004139999999999991,-0.081103,0.0020355,-0.0021060000000000037,0.081103,-0.0020355,0.0021059999999999968,-0.113306,-0.4558495,-0.025175000000000003,0.120264,-0.4997295,0.011931999999999991,-0.098383,-0.8615995,-0.003972000000000003,0.125564,-0.8851195,0.018181999999999993
40,-0.010277000000000001,0.7851325,0.126442,-0.17097500000000002,0.5803025,0.086478,-0.240065,0.8482325000000001,0.004533000000000002,0.163245,0.5771425,0.109079,0.269855,0.8155825,0.06633700000000001,-0.242695,1.1315225,-0.04524399999999999,0.303255,1.0694225,0.0039020000000000027,-0.081097,0.0020135,-0.0020809999999999995,0.081097,-0.0020135,0.0020809999999999995,-0.11343500000000001,-0.4558275,-0.025468000000000005,0.120175,-0.5008675,0.01174,-0.098346,-0.8616075,-0.004292999999999998,0.125465,-0.8855375,0.017801
41,-0.0102165,0.7850655,0.1264115,-0.1709715,0.5802955,0.0864955,-0.2399515,0.8478155,0.0047665,0.1632985,0.5771655,0.1089895,0.26989850000000004,0.8155255,0.06630749999999999,-0.2425815,1.1311455,-0.045035500000000006,0.30345849999999996,1.0690455,0.003672499999999995,-0.0810905,0.0019935,-0.0020505000000000037,0.0810905,-0.0019935,0.0020504999999999968,-0.1135515,-0.4558445,-0.025730500000000003,0.12008849999999999,-0.5020045,0.011501499999999998,-0.09830850000000001,-0.8617545,-0.004578499999999999,0.1253785,-0.8860245,0.0171955
42,-0.0101505,0.7850134999999999,0.12640400000000002,-0.17092849999999998,0.5803035,0.086557,-0.2398285,0.8474835,0.005039000000000002,0.1633715,0.5772335,0.108932,0.2699515,0.8155135,0.066272,-0.24240849999999997,1.1308135,-0.044782,0.30360149999999997,1.0688134999999999,0.0034239999999999965,-0.0810795,0.0020205,-0.0020669999999999994,0.0810795,-0.0020205,0.0020669999999999994,-0.1136885,-0.4563965,-0.025869000000000003,0.1199815,-0.5030665000000001,0.011358,-0.0982645,-0.8619465000000001,-0.004906000000000001,0.1252415,-0.8864465,0.016742999999999997
43,-0.009862500000000001,0.784683,0.126518,-0.17077750000000003,0.5803130000000001,0.08674799999999999,-0.2394575,0.8472930000000001,0.005430999999999998,0.1636125,0.5770430000000001,0.109115,0.2702425,0.815243,0.066338,-0.2418675,1.130603,-0.044451000000000004,0.30390249999999996,1.068703,0.003344999999999994,-0.0810755,0.001968,-0.002039000000000006,0.0810755,-0.001968,0.002038999999999999,-0.1138775,-0.456807,-0.026123000000000007,0.11982250000000001,-0.503877,0.011179999999999995,-0.0982985,-0.8622569999999999,-0.005368000000000005,0.12511250000000002,-0.886757,0.016188999999999995
44,-0.009520499999999998,0.7843265,0.126567,-0.17056849999999998,0.5802865,0.086944,-0.23911849999999998,0.8472565,0.005547000000000003,0.1638815,0.5768265,0.109354,0.27058150000000003,0.8149365000000001,0.066349,-0.2411985,1.1304665,-0.044287,0.30424150000000005,1.0686665,0.003256000000000002,-0.0810835,0.0018885,-0.001913999999999999,0.0810835,-0.0018885,0.001913999999999999,-0.1139085,-0.4570035,-0.026525,0.1197415,-0.5045435,0.010871000000000002,-0.0983045,-0.8625635,-0.0059060000000000015,0.1250415,-0.8871535,0.015503
45,-0.009182999999999998,0.784021,0.12664550000000002,-0.170358,0.580321,0.08716850000000001,-0.238768,0.847251,0.005575500000000004,0.164162,0.576681,0.10967750000000001,0.27093199999999995,0.814661,0.06635550000000001,-0.240488,1.1304610000000002,-0.04430049999999999,0.30455200000000004,1.068761,0.003081500000000008,-0.081099,0.001797,-0.0017724999999999963,0.081099,-0.001797,0.0017725000000000032,-0.113908,-0.457219,-0.0269755,0.11965200000000001,-0.505169,0.010441500000000006,-0.0983,-0.862819,-0.0065134999999999985,0.125072,-0.887419,0.014715500000000006
46,-0.008856499999999996,0.7837035,0.126722,-0.17010750000000002,0.5803535,0.08740899999999999,-0.23843750000000002,0.8473635,0.0055639999999999926,0.16441250000000002,0.5765635,0.110029,0.2712625,0.8144035,0.066365,-0.2397975,1.1305635,-0.04442,0.3048525,1.0688635,0.002929999999999995,-0.0811125,0.0017325,-0.0015910000000000021,0.0811125,-0.0017325,0.0015909999999999952,-0.1139075,-0.4574265,-0.027431999999999998,0.1195325,-0.5055665,0.010039999999999997,-0.0982085,-0.8630765,-0.007069000000000006,0.1251025,-0.8876765,0.014178999999999997
47,-0.008547,0.7833995,0.126831,-0.169879,0.5803794999999999,0.08770800000000001,-0.238099,0.8477295,0.005505000000000003,0.164661,0.5764295,0.110461,0.271611,0.8141795,0.066362,-0.239119,1.1308795,-0.044709000000000006,0.305161,1.0688795,0.0027319999999999983,-0.08113000000000001,0.0016725,-0.0013750000000000012,0.08113000000000001,-0.0016725,0.0013750000000000012,-0.11393900000000001,-0.4584105,-0.027649,0.11940099999999998,-0.5060005,0.009638,-0.098165,-0.8633305,-0.007512999999999999,0.12512099999999998,-0.8878505,0.013711999999999998
48,-0.008235500000000007,0.7830975,0.1269105,-0.1696995,0.5803375000000001,0.08808150000000001,-0.2377495,0.8480375,0.0053965000000000055,0.16490049999999998,0.5762775,0.1110005,0.2719505,0.8139175000000001,0.0663875,-0.2384695,1.1311475,-0.0450825,0.3054805,1.0688475,0.0025055000000000008,-0.08114350000000001,0.0015905,-0.0012204999999999994,0.08114350000000001,-0.0015905,0.0012205000000000063,-0.11395950000000002,-0.4593125,-0.027927499999999994,0.1193805,-0.5058324999999999,0.009173500000000005,-0.09816250000000001,-0.8636925,-0.007908499999999999,0.1251205,-0.8880524999999999,0.013267500000000002
49,-0.007948500000000002,0.7827865,0.12691000000000002,-0.1695415,0.5802365,0.088392,-0.2374115,0.8481965,0.005182000000000006,0.1651085,0.5761365,0.111321,0.27226849999999997,0.8136565,0.06633,-0.2378715,1.1312965000000001,-0.04556399999999999,0.3057485,1.0688965000000001,0.0021740000000000023,-0.0811515,0.0015055,-0.001017999999999998,0.0811515,-0.0015055000000000001,0.001018000000000005,-0.1139415,-0.4601035,-0.028284000000000004,0.11934850000000001,-0.5056835,0.008686000000000003,-0.0981955,-0.8646535,-0.008281999999999998,0.12512849999999998,-0.8880735,0.012747000000000001
50,-0.0076729999999999975,0.782539,0.1269465,-0.169383,0.580169,0.0886615,-0.237073,0.8484090000000001,0.0049454999999999985,0.165317,0.576029,0.11165449999999999,0.27258699999999997,0.8134290000000001,0.0662575,-0.237293,1.131489,-0.04604250000000001,0.306157,1.068889,0.001842499999999997,-0.08116100000000001,0.001473,-0.0007894999999999985,0.08116100000000001,-0.0014730000000000001,0.0007894999999999985,-0.113923,-0.46071100000000004,-0.028640500000000006,0.11929700000000001,-0.5054909999999999,0.0081945,-0.09825600000000001,-0.865151,-0.0086665,0.125147,-0.887991,0.012229499999999997
51,-0.0074085000000000045,0.782359,0.12691249999999998,-0.1692385,0.580079,0.08880249999999999,-0.2367285,0.848629,0.004638499999999997,0.1655115,0.575949,0.11201549999999999,0.2729015,0.813249,0.06614149999999999,-0.2366085,1.1317190000000001,-0.04655250000000001,0.3065815,1.0687190000000002,0.0014744999999999966,-0.0811685,0.001416,-0.0005335000000000062,0.0811685,-0.0014160000000000002,0.0005334999999999993,-0.1139085,-0.460671,-0.028979500000000005,0.1192715,-0.504591,0.007601499999999997,-0.09835050000000001,-0.865491,-0.009119500000000003,0.1251615,-0.887871,0.011421499999999994
52,-0.007330499999999997,0.7823895,0.126771,-0.1691275,0.5800495,0.088809,-0.2365875,0.8486795,0.004185999999999995,0.1655925,0.5759995,0.11216,0.2730325,0.8132995000000001,0.065887,-0.2362275,1.1316795,-0.047126,0.30681250000000004,1.0684794999999998,0.001012999999999993,-0.0811785,0.0014185,-0.0003140000000000018,0.0811785,-0.0014184999999999998,0.00031399999999999484,-0.1138275,-0.4609205,-0.029238,0.1193225,-0.5040005,0.0070829999999999955,-0.09836149999999999,-0.8657805,-0.009603000000000007,0.1252325,-0.8879104999999999,0.010756999999999996
53,-0.007300499999999996,0.782396,0.1267165,-0.1690845,0.5800460000000001,0.08883949999999999,-0.2364945,0.848736,0.003757499999999997,0.16563550000000002,0.576056,0.11228049999999999,0.2731155,0.813346,0.0657035,-0.23589449999999998,1.131736,-0.047683500000000004,0.3070355,1.068236,0.0006214999999999971,-0.0811855,0.00142,-0.00021150000000000335,0.0811855,-0.00142,0.0002114999999999964,-0.11378449999999998,-0.461024,-0.029423500000000005,0.11933550000000001,-0.503334,0.006594499999999993,-0.09841749999999999,-0.8660439999999999,-0.009928500000000007,0.1251855,-0.887904,0.010314499999999994
54,-0.007278500000000001,0.7824,0.126606,-0.1690505,0.58002,0.088812,-0.2364105,0.84879,0.0034220000000000014,0.1656695,0.5761000000000001,0.112359,0.2731695,0.8133900000000001,0.065537,-0.2355705,1.13179,-0.048206,0.3072295,1.06809,0.0003259999999999999,-0.0811925,0.0014199999999999998,-0.00011299999999999505,0.0811925,-0.00142,0.00011300000000000199,-0.1137605,-0.4612,-0.029538999999999996,0.1193595,-0.50301,0.006220000000000003,-0.0984705,-0.8661099999999999,-0.010222999999999996,0.1251195,-0.8879199999999999,0.009965000000000002
55,-0.007242500000000006,0.7823454999999999,0.1263625,-0.1690105,0.5799654999999999,0.0886055,-0.2363405,0.8487555,0.003111500000000003,0.1656895,0.5761354999999999,0.11234150000000001,0.27323949999999997,0.8133555,0.06522649999999999,-0.2352705,1.1318355,-0.048847499999999995,0.30741949999999996,1.0680355,-3.550000000000081e-05,-0.0811985,0.0014125000000000001,-5.4499999999998994e-05,0.0811985,-0.0014125,5.4499999999998994e-05,-0.1136905,-0.4612545,-0.029681499999999993,0.11935950000000001,-0.5022945000000001,0.005924499999999999,-0.0985095,-0.8660545000000001,-0.010401500000000001,0.12513950000000001,-0.8879745,0.009649500000000002
56,-0.0072215000000000005,0.782314,0.12609700000000001,-0.1689805,0.579934,0.088363,-0.2362805,0.848774,0.0027719999999999967,0.1656995,0.576174,0.112277,0.2732795,0.813324,0.064926,-0.2348005,1.131804,-0.04954700000000001,0.3076095,1.068104,-0.000452000000000001,-0.0811935,0.0013809999999999998,-1.2000000000005062e-05,0.0811935,-0.0013809999999999998,1.1999999999998123e-05,-0.1136305,-0.46128600000000003,-0.02988500000000001,0.11933949999999999,-0.501776,0.005646999999999996,-0.09855549999999999,-0.866076,-0.010564000000000004,0.1250395,-0.888006,0.009427999999999995
57,-0.007207500000000005,0.7822705,0.1258125,-0.16893750000000002,0.5798804999999999,0.0881255,-0.23621750000000002,0.8487604999999999,0.002441500000000006,0.16570249999999997,0.5761805,0.1121825,0.27332249999999997,0.8132805,0.06464550000000001,-0.2343375,1.1317505,-0.05018449999999999,0.3078125,1.0680505,-0.0008704999999999963,-0.0811965,0.0013285,3.750000000000281e-05,0.0811965,-0.0013285,-3.749999999999587e-05,-0.1135575,-0.4610495,-0.030065499999999995,0.1193225,-0.5013095000000001,0.005376500000000003,-0.09863150000000001,-0.8661295,-0.010707499999999995,0.1249325,-0.8880595,0.009228500000000004
58,-0.007211499999999997,0.7820705,0.1256245,-0.1689305,0.5798105,0.0879845,-0.2361505,0.8488505,0.0019494999999999998,0.16570949999999998,0.5762805,0.1121115,0.2733495,0.8133705,0.0644145,-0.23396050000000002,1.1317405,-0.0510825,0.3080795,1.0675405,-0.0015335000000000001,-0.0811955,0.0013665,4.149999999999987e-05,0.0811955,-0.0013665,-4.149999999999987e-05,-0.1134905,-0.46072949999999996,-0.030172500000000005,0.11927950000000001,-0.5013595000000001,0.005208499999999998,-0.09858449999999999,-0.8669795,-0.010682500000000004,0.12471949999999998,-0.8882095,0.009441499999999999
59,-0.007221499999999997,0.7818855,0.125468,-0.1689395,0.5797755,0.087875,-0.2360995,0.8481555000000001,0.0015189999999999926,0.1657305,0.5763755,0.11208,0.27338049999999997,0.8134955,0.06419,-0.2336895,1.1310555,-0.051791000000000004,0.3083105,1.0668555,-0.0021050000000000027,-0.0811955,0.0013985,2.4999999999997247e-05,0.0811955,-0.0013985,-2.5000000000004186e-05,-0.1134195,-0.4605345,-0.030322,0.11920050000000001,-0.5017345,0.0051169999999999966,-0.09849150000000001,-0.8678245,-0.010610000000000008,0.1245205,-0.8881344999999999,0.009732999999999995
60,-0.007245999999999999,0.781647,0.1253205,-0.168956,0.579737,0.0878125,-0.23608600000000002,0.847487,0.0010864999999999972,0.16572399999999998,0.576457,0.11201150000000001,0.273384,0.813627,0.0639785,-0.233646,1.130387,-0.0525145,0.308564,1.066287,-0.0026715000000000003,-0.081203,0.001438,-2.1500000000000685e-05,0.081203,-0.001438,2.1500000000000685e-05,-0.113406,-0.460223,-0.030431499999999993,0.11912400000000001,-0.5021730000000001,0.005017500000000001,-0.09846099999999999,-0.868413,-0.010542499999999996,0.124384,-0.887993,0.0099915
61,-0.007274999999999999,0.7812785,0.125125,-0.168997,0.5797385,0.087717,-0.236077,0.8469385,0.0006460000000000007,0.165713,0.5765385000000001,0.111954,0.273413,0.8137885,0.063749,-0.233617,1.1297385,-0.053208000000000005,0.308883,1.0657385,-0.003264000000000003,-0.081205,0.0014565000000000001,-5.100000000000243e-05,0.081205,-0.0014565,5.100000000000243e-05,-0.113427,-0.4600515,-0.030535999999999994,0.119013,-0.5023815,0.004905,-0.098608,-0.8682515,-0.010583000000000002,0.124283,-0.8881915,0.009916000000000001
62,-0.0073030000000000005,0.7809205,0.124902,-0.169056,0.5797405,0.087624,-0.236066,0.8463005,0.00021399999999999197,0.165694,0.5766105,0.111927,0.27343399999999995,0.8139505,0.06352,-0.233586,1.1291005,-0.053915000000000005,0.309234,1.0657005000000002,-0.003917000000000004,-0.081211,0.0014885000000000002,-6.700000000000456e-05,0.081211,-0.0014884999999999998,6.699999999999762e-05,-0.113456,-0.4593695,-0.030638,0.118904,-0.5024795,0.004807999999999996,-0.098737,-0.8685195,-0.010507000000000002,0.124194,-0.8883895,0.009942999999999994
63,-0.007331500000000003,0.780619,0.124648,-0.1691495,0.579759,0.087532,-0.2361195,0.845659,-0.00042299999999999977,0.1656605,0.576689,0.111893,0.2734705,0.8141390000000001,0.06325700000000001,-0.2335895,1.1284889999999999,-0.054689,0.3096105,1.065489,-0.004569999999999998,-0.0812325,0.0015140000000000002,-7.599999999999968e-05,0.0812325,-0.001514,7.599999999999968e-05,-0.1134795,-0.458921,-0.030896999999999994,0.1187705,-0.5026010000000001,0.004720000000000002,-0.0988905,-0.868831,-0.010483,0.12414049999999999,-0.888571,0.009955000000000002
64,-0.007329500000000002,0.780413,0.124311,-0.1692165,0.579853,0.087424,-0.2362065,0.844453,-0.0010800000000000046,0.1656535,0.576823,0.111836,0.2735335,0.814423,0.062965,-0.2336665,1.1271630000000001,-0.05558300000000001,0.3101835,1.065563,-0.005363,-0.0812705,0.001588,-8.600000000000274e-05,0.0812705,-0.001588,8.59999999999958e-05,-0.1134865,-0.45944700000000005,-0.031252,0.1186535,-0.502557,0.004525999999999999,-0.0989735,-0.869127,-0.010479000000000002,0.12408349999999999,-0.888667,0.010168
65,-0.007323000000000003,0.780277,0.1239475,-0.16929500000000003,0.579947,0.0872835,-0.236325,0.8435069999999999,-0.0017585000000000031,0.165655,0.5769369999999999,0.1117155,0.273635,0.814707,0.0626015,-0.233865,1.1261370000000002,-0.056439500000000004,0.31078500000000003,1.065537,-0.006169500000000001,-0.081305,0.0016519999999999998,-9.05000000000003e-05,0.081305,-0.0016520000000000003,9.05000000000003e-05,-0.11343500000000001,-0.459123,-0.0317615,0.118555,-0.502433,0.004261499999999998,-0.099027,-0.8693930000000001,-0.0104555,0.12402500000000001,-0.888733,0.010300499999999997
66,-0.007318999999999997,0.7801560000000001,0.1235575,-0.169392,0.580066,0.0871375,-0.236472,0.8428760000000001,-0.002549499999999996,0.165648,0.577076,0.11153550000000001,0.273738,0.814976,0.0621825,-0.234162,1.1254259999999998,-0.0574225,0.311468,1.065426,-0.0070754999999999985,-0.081326,0.0017010000000000003,-0.00011649999999999855,0.081326,-0.0017009999999999998,0.00011650000000000549,-0.113402,-0.459094,-0.0323035,0.11845800000000001,-0.502264,0.0038445000000000007,-0.09905699999999999,-0.869544,-0.010445499999999996,0.12395800000000001,-0.888844,0.010390500000000004
67,-0.007311499999999998,0.7802330000000001,0.1232925,-0.1694825,0.580063,0.0870155,-0.2366425,0.842993,-0.0031915,0.1656675,0.577083,0.1113635,0.27385750000000003,0.8149730000000001,0.0619055,-0.2345625,1.1254229999999998,-0.0582705,0.31216750000000004,1.065423,-0.007745500000000002,-0.08133850000000001,0.0017039999999999998,-0.00016449999999999798,0.08133850000000001,-0.0017040000000000002,0.00016449999999999798,-0.11337249999999999,-0.458327,-0.03290850000000001,0.1183775,-0.501667,0.0033924999999999997,-0.09905049999999999,-0.869197,-0.010557500000000004,0.12388749999999998,-0.8888469999999999,0.010502499999999998
68,-0.007300000000000001,0.7803230000000001,0.12303,-0.16956000000000002,0.580063,0.086818,-0.23696,0.8431730000000001,-0.003949000000000001,0.16569,0.577083,0.111191,0.27404,0.8149730000000001,0.061454,-0.23525000000000001,1.1255229999999998,-0.059421,0.31301,1.065423,-0.008654000000000002,-0.08135400000000001,0.0017039999999999998,-0.0002109999999999959,0.08135400000000001,-0.0017040000000000002,0.00021100000000000285,-0.11330000000000001,-0.458327,-0.033691,0.11831,-0.501077,0.0029500000000000012,-0.099029,-0.869027,-0.010676999999999999,0.12383,-0.8888269999999999,0.010504000000000003
69,-0.007274500000000001,0.7803530000000001,0.1227825,-0.1696565,0.580063,0.0866015,-0.2373865,0.843443,-0.004869499999999999,0.1657535,0.577083,0.1110105,0.2742735,0.8149730000000001,0.0608705,-0.2360165,1.125623,-0.060881500000000005,0.3139035,1.065423,-0.009746499999999998,-0.0813735,0.0017039999999999998,-0.0002134999999999984,0.0813735,-0.0017040000000000002,0.0002134999999999984,-0.1132365,-0.458327,-0.0345125,0.1183435,-0.501077,0.002425499999999997,-0.0989835,-0.8688769999999999,-0.010811500000000002,0.12377350000000001,-0.8887069999999999,0.0104905
70,-0.007251000000000003,0.7803405,0.122552,-0.169756,0.5801505,0.086466,-0.237836,0.8430905000000001,-0.005864000000000001,0.165804,0.5771305,0.110886,0.274534,0.8150905,0.060265,-0.23674599999999998,1.1250905,-0.06245200000000001,0.314744,1.0652905000000001,-0.010862999999999998,-0.08139199999999999,0.0016975000000000002,-0.0002489999999999992,0.08139199999999999,-0.0016974999999999998,0.0002489999999999992,-0.11319599999999999,-0.4586195,-0.035351999999999995,0.11838399999999999,-0.5011194999999999,0.0016959999999999961,-0.098962,-0.8687695,-0.011027000000000002,0.123774,-0.8885894999999999,0.010238
71,-0.007221999999999998,0.780306,0.1222715,-0.169845,0.580236,0.08631250000000001,-0.238295,0.842866,-0.0069624999999999965,0.16583499999999998,0.577176,0.1107095,0.274855,0.815206,0.05951250000000001,-0.237425,1.124866,-0.0642295,0.315715,1.0650659999999998,-0.012216499999999998,-0.08141100000000001,0.0016899999999999997,-0.00029349999999999515,0.08141100000000001,-0.0016900000000000005,0.0002935000000000021,-0.11310500000000001,-0.458894,-0.0362195,0.118455,-0.501364,0.0007685000000000053,-0.098942,-0.868854,-0.011310499999999994,0.12379499999999999,-0.888784,0.009825500000000004
72,-0.0071115000000000015,0.7803730000000001,0.12188750000000001,-0.16989150000000003,0.580353,0.08609349999999999,-0.23871150000000002,0.842663,-0.007954500000000003,0.16590850000000001,0.5772830000000001,0.1104715,0.27521850000000003,0.8153130000000001,0.0587145,-0.23800149999999998,1.124583,-0.0660385,0.3167685,1.064883,-0.0137385,-0.0814285,0.001666,-0.0003415000000000015,0.0814285,-0.0016660000000000004,0.0003415000000000015,-0.1130415,-0.45903700000000003,-0.0370955,0.1185385,-0.501717,-0.0002554999999999988,-0.0988855,-0.8689269999999999,-0.0116075,0.1238085,-0.888917,0.0094605
73,-0.006951000000000005,0.7806115,0.121472,-0.169883,0.5805915,0.085772,-0.23907299999999998,0.8425715,-0.009047,0.166037,0.5774015,0.110055,0.275687,0.8154515,0.057755,-0.238533,1.1243115,-0.068038,0.317817,1.0650115,-0.015317999999999998,-0.081485,0.0016245,-0.00037100000000000327,0.081485,-0.0016244999999999996,0.00037099999999999633,-0.112913,-0.4590185,-0.038058999999999996,0.118697,-0.5017185000000001,-0.0013970000000000024,-0.09882400000000001,-0.8685984999999999,-0.012077999999999998,0.12386699999999999,-0.8887484999999999,0.009075999999999997
74,-0.006800500000000001,0.780976,0.12098400000000001,-0.1699055,0.580956,0.08540400000000001,-0.2394655,0.843746,-0.010132999999999996,0.1661645,0.5774360000000001,0.10944899999999999,0.2762445,0.815546,0.056662000000000004,-0.23900549999999998,1.125106,-0.07020199999999999,0.3190545,1.065306,-0.017243999999999995,-0.0815295,0.001568,-0.0003799999999999984,0.0815295,-0.0015680000000000004,0.0003799999999999984,-0.1127655,-0.458894,-0.03928299999999999,0.1188745,-0.500974,-0.002812999999999996,-0.0987715,-0.8678939999999999,-0.012695999999999999,0.12385449999999999,-0.8883639999999999,0.008645000000000003
75,-0.006623000000000004,0.7812925000000001,0.120446,-0.16994800000000002,0.5812925,0.085009,-0.239868,0.8441725,-0.011164,0.166292,0.5774225000000001,0.108795,0.276872,0.8155625,0.05545799999999999,-0.239418,1.1253024999999999,-0.072636,0.320382,1.0654024999999998,-0.019531000000000007,-0.081564,0.0015244999999999998,-0.00037200000000000427,0.081564,-0.0015245000000000002,0.00037199999999999733,-0.112518,-0.4589675,-0.040687,0.11905199999999999,-0.5001275000000001,-0.0043310000000000015,-0.098719,-0.8676775,-0.013317000000000002,0.12376199999999998,-0.8879374999999999,0.008253999999999997
76,-0.0063999999999999994,0.7815679999999999,0.11967149999999999,-0.17000099999999999,0.581638,0.0846085,-0.240351,0.844328,-0.012347500000000004,0.166399,0.577278,0.10798749999999999,0.277539,0.815498,0.0541085,-0.239771,1.125218,-0.0752845,0.321739,1.065218,-0.022039500000000004,-0.081612,0.001438,-0.00033350000000000046,0.081612,-0.0014379999999999998,0.00033350000000000046,-0.112241,-0.458842,-0.0422365,0.119309,-0.499502,-0.006086500000000002,-0.098512,-0.868002,-0.0140225,0.123689,-0.887352,0.008021499999999997
77,-0.006161999999999999,0.7819265,0.11877299999999999,-0.170086,0.5819665,0.084049,-0.24071599999999999,0.8452265,-0.013595000000000003,0.166494,0.5772265,0.10705100000000001,0.27826399999999996,0.8153865,0.052636,-0.24010599999999999,1.1259165,-0.077982,0.322924,1.0650164999999998,-0.024583,-0.081695,0.0013135,-0.0002909999999999996,0.081695,-0.0013135,0.0002909999999999996,-0.111986,-0.4588235,-0.043882,0.11963399999999999,-0.4989435,-0.008237000000000001,-0.098265,-0.8685635,-0.014961000000000002,0.12360399999999999,-0.8868135,0.007745999999999999
78,-0.0059339999999999974,0.7821665,0.1177945,-0.17015899999999998,0.5822965,0.0834725,-0.241039,0.8461565,-0.014880500000000005,0.166611,0.5770665,0.1060275,0.279021,0.8152065,0.051130499999999995,-0.240399,1.1268465,-0.0806925,0.324071,1.0647465,-0.0272255,-0.081819,0.0012374999999999999,-0.00029850000000000015,0.081819,-0.0012375,0.00029850000000000015,-0.11171899999999998,-0.4590035,-0.045899499999999996,0.12002100000000002,-0.4984235,-0.010759500000000005,-0.09806100000000001,-0.8691435,-0.015878500000000004,0.123471,-0.8862535,0.0074754999999999995
79,-0.0057355000000000045,0.7824639999999999,0.1166155,-0.1702645,0.582704,0.0827235,-0.2414145,0.8472339999999999,-0.0165045,0.1667255,0.576834,0.1047575,0.2798055,0.8151139999999999,0.049406500000000006,-0.2407245,1.1279240000000001,-0.0836485,0.3252755,1.064824,-0.030142500000000003,-0.0819625,0.001185,-0.0003794999999999979,0.0819625,-0.001185,0.0003794999999999979,-0.11145450000000001,-0.458086,-0.04838049999999999,0.1204555,-0.497686,-0.013416499999999998,-0.0978955,-0.869646,-0.0168745,0.12333549999999999,-0.885546,0.006984500000000001
80,-0.0055384999999999966,0.782625,0.1152455,-0.1704565,0.583085,0.0819065,-0.2418665,0.847345,-0.018155499999999998,0.1667535,0.5766749999999999,0.10343050000000001,0.28059350000000005,0.814985,0.0475385,-0.2413465,1.127775,-0.0868225,0.3263035,1.064975,-0.0331335,-0.0821115,0.001109,-0.0004515000000000005,0.0821115,-0.0011089999999999997,0.0004515000000000005,-0.1112465,-0.45769499999999996,-0.051133500000000005,0.12094350000000001,-0.496745,-0.0163065,-0.0977845,-0.8701650000000001,-0.0177765,0.1231235,-0.8848050000000001,0.006360499999999998
81,-0.005444500000000001,0.7827475,0.113739,-0.1707245,0.5833175,0.080851,-0.24231450000000002,0.8471575,-0.020024,0.1667455,0.5765875,0.10205600000000001,0.28135550000000004,0.8149075,0.045288,-0.2420545,1.1272675,-0.090009,0.32731550000000004,1.0646675,-0.036273999999999994,-0.0823035,0.0010635000000000002,-0.0005280000000000007,0.0823035,-0.0010635000000000002,0.0005280000000000007,-0.1110545,-0.4568725,-0.054391,0.1214055,-0.4954525,-0.019421999999999995,-0.0977385,-0.8706725,-0.018656,0.1228155,-0.8838425,0.005721
82,-0.005403499999999999,0.782765,0.11225750000000001,-0.1709405,0.583395,0.0798775,-0.2427505,0.8463350000000001,-0.021740499999999996,0.1666895,0.576485,0.1008455,0.28212950000000003,0.814875,0.0431175,-0.2427505,1.126015,-0.09295149999999999,0.3282495,1.064415,-0.039329499999999996,-0.08251649999999999,0.0010179999999999998,-0.0006234999999999991,0.08251649999999999,-0.0010179999999999998,0.0006235000000000025,-0.11088049999999999,-0.456295,-0.05787749999999999,0.1219395,-0.494105,-0.022561499999999998,-0.0977325,-0.870945,-0.0193155,0.12246949999999998,-0.8828849999999999,0.005201500000000001
83,-0.005357000000000004,0.782742,0.11074099999999999,-0.171156,0.583392,0.078799,-0.243156,0.845262,-0.023726000000000004,0.166604,0.576432,0.09967999999999999,0.28282399999999996,0.814912,0.04089999999999999,-0.243506,1.124102,-0.09609600000000001,0.329034,1.063802,-0.042363,-0.08273900000000001,0.000994,-0.0007090000000000013,0.08273900000000001,-0.000994,0.0007089999999999944,-0.110766,-0.456048,-0.061223,0.12249399999999999,-0.493118,-0.025572000000000004,-0.097717,-0.871358,-0.019817,0.12231399999999998,-0.882128,0.004393999999999995
84,-0.005348999999999998,0.7826555000000001,0.109057,-0.17135999999999998,0.5834155,0.0776,-0.24358,0.8438855000000001,-0.025869999999999997,0.1665,0.5764255,0.098506,0.28354999999999997,0.8149455,0.038412,-0.24433,1.1217855,-0.09904400000000001,0.32977,1.0631855000000001,-0.04553,-0.082964,0.0009605000000000004,-0.000788999999999998,0.082964,-0.0009604999999999995,0.0007890000000000015,-0.11075,-0.45548449999999996,-0.064997,0.12308,-0.4917045,-0.028626,-0.0978,-0.8713945,-0.020291999999999998,0.12211,-0.8812245,0.003589000000000002
85,-0.005334999999999995,0.7826965,0.1073345,-0.171478,0.5834065,0.0761465,-0.243998,0.8422265,-0.028160500000000005,0.16642200000000001,0.5765065,0.0972015,0.28425200000000006,0.8150265,0.0354445,-0.245248,1.1197165,-0.10206749999999999,0.330422,1.0627165,-0.048975500000000005,-0.083177,0.0009285000000000005,-0.000850500000000004,0.083177,-0.0009285000000000005,0.0008504999999999971,-0.110858,-0.4549835,-0.06880750000000001,0.123662,-0.4901935,-0.031893500000000005,-0.09812799999999999,-0.8707335,-0.0206565,0.121832,-0.8801635,0.0027004999999999946
86,-0.005308499999999998,0.782771,0.1056155,-0.1715845,0.583491,0.07482649999999999,-0.2444045,0.840481,-0.030322500000000002,0.1664455,0.576261,0.0957595,0.28486550000000005,0.815211,0.0326385,-0.2461345,1.117711,-0.1051575,0.33109550000000004,1.062311,-0.052392499999999995,-0.0833885,0.0008990000000000005,-0.0008924999999999975,0.0833885,-0.0008990000000000005,0.0008925000000000009,-0.1109745,-0.454309,-0.0724375,0.12427549999999998,-0.487949,-0.034922499999999995,-0.0985035,-0.869579,-0.020902499999999997,0.12158549999999999,-0.8790290000000001,0.0018884999999999978
87,-0.005298999999999997,0.782962,0.10388900000000001,-0.17167500000000002,0.583542,0.07350100000000001,-0.244975,0.8384520000000001,-0.032341,0.16646500000000003,0.576342,0.094329,0.285425,0.815292,0.029849,-0.24700499999999997,1.115402,-0.108458,0.331485,1.0621019999999999,-0.055817,-0.08358,0.000785000000000001,-0.0009110000000000021,0.08358,-0.0007849999999999992,0.0009110000000000021,-0.111155,-0.453478,-0.075878,0.12486499999999999,-0.485948,-0.037705999999999996,-0.098915,-0.8684879999999999,-0.021022,0.12136500000000001,-0.877938,0.000961
88,-0.0054069999999999995,0.7829980000000001,0.10205449999999999,-0.17191,0.5834480000000001,0.0721555,-0.24572,0.8365680000000001,-0.034120500000000005,0.16638,0.5763980000000001,0.0929125,0.28590000000000004,0.8153480000000001,0.026976499999999997,-0.24801,1.113018,-0.1117765,0.3316,1.0619180000000001,-0.0594985,-0.083782,0.0006389999999999989,-0.0009445000000000009,0.083782,-0.0006390000000000007,0.0009444999999999974,-0.11151,-0.452632,-0.0790265,0.12528,-0.483912,-0.0404835,-0.099455,-0.8673719999999999,-0.021213500000000003,0.12096000000000001,-0.876822,1.6499999999999154e-05
89,-0.005439500000000001,0.7829235,0.10024899999999999,-0.1719995,0.5834435,0.070817,-0.2463895,0.8354135,-0.03599100000000001,0.1663805,0.5763335,0.091409,0.2863405,0.8154135,0.023889,-0.2488095,1.1109235,-0.11498400000000002,0.3317005,1.0616235,-0.06327100000000001,-0.0839955,0.0005625000000000005,-0.0009960000000000004,0.0839955,-0.0005625000000000005,0.0009960000000000004,-0.1118395,-0.45178650000000004,-0.08203400000000001,0.1256905,-0.48175650000000003,-0.04308100000000001,-0.0999875,-0.8660464999999999,-0.021382,0.1206605,-0.8755565,-0.0008300000000000009
90,-0.005390999999999996,0.7828554999999999,0.098351,-0.17208800000000002,0.5835155,0.069508,-0.247068,0.8340854999999999,-0.038017999999999996,0.16644199999999998,0.5761455,0.08973400000000001,0.286802,0.8154555,0.02075,-0.249988,1.1089055,-0.118643,0.331722,1.0616055,-0.067682,-0.084177,0.00041749999999999947,-0.0010469999999999993,0.084177,-0.00041749999999999947,0.0010469999999999993,-0.11212799999999999,-0.45088449999999997,-0.084693,0.12646200000000002,-0.4790145,-0.045601,-0.100268,-0.8643345,-0.021518000000000002,0.12070200000000002,-0.8740445,-0.0015920000000000031
91,-0.005309000000000005,0.782736,0.096188,-0.172198,0.583626,0.068224,-0.247678,0.832936,-0.04023299999999999,0.166482,0.5758960000000001,0.087963,0.287222,0.815296,0.017480000000000002,-0.251268,1.1070360000000001,-0.12225399999999999,0.33167199999999997,1.061536,-0.072534,-0.084364,0.00029199999999999886,-0.0009679999999999966,0.084364,-0.0002920000000000006,0.0009680000000000036,-0.11254800000000001,-0.44959400000000005,-0.087044,0.127272,-0.47632399999999997,-0.0479,-0.10059699999999999,-0.862974,-0.021552999999999996,0.120722,-0.8728239999999999,-0.0022089999999999957
92,-0.005287000000000002,0.7826235,0.094065,-0.172354,0.5837235,0.067042,-0.248324,0.8317535,-0.042391,0.166526,0.5757635,0.086231,0.287586,0.8149935,0.014204000000000001,-0.252624,1.1054435,-0.125779,0.331536,1.0616435000000002,-0.07758899999999999,-0.08454700000000001,0.00020650000000000182,-0.0009219999999999992,0.08454700000000001,-0.00020649999999999835,0.0009220000000000027,-0.11307900000000001,-0.44878650000000003,-0.089209,0.128426,-0.4736765,-0.05022,-0.10106899999999999,-0.8616065,-0.021546999999999997,0.12048600000000001,-0.8713965,-0.002258999999999997
93,-0.005226,0.782582,0.09209,-0.17250000000000001,0.5838319999999999,0.065924,-0.24892,0.8308319999999999,-0.044512,0.16666999999999998,0.575542,0.08441,0.28787,0.8148019999999999,0.010871999999999996,-0.25396,1.104032,-0.12954500000000002,0.33145,1.061632,-0.08247499999999999,-0.084724,7.799999999999821e-05,-0.0008200000000000013,0.084724,-7.800000000000168e-05,0.0008199999999999978,-0.11360400000000001,-0.448278,-0.09093500000000002,0.12969999999999998,-0.470788,-0.052462,-0.101515,-0.8601080000000001,-0.02153,0.12026999999999999,-0.8699680000000001,-0.0021010000000000056
94,-0.0052764999999999965,0.7823119999999999,0.09013199999999999,-0.17279049999999999,0.5838920000000001,0.065028,-0.2495605,0.8301719999999999,-0.046606999999999996,0.1668395,0.5753919999999999,0.082596,0.28810949999999996,0.8147120000000001,0.007762999999999999,-0.2553105,1.102142,-0.13341799999999998,0.33150949999999996,1.061642,-0.087538,-0.08490049999999999,6.200000000000302e-05,-0.0007139999999999994,0.08490049999999999,-6.199999999999956e-05,0.0007139999999999994,-0.11409049999999998,-0.448068,-0.093178,0.13118950000000001,-0.467418,-0.054487999999999995,-0.1019555,-0.858708,-0.02153,0.12011950000000002,-0.868498,-0.0020659999999999984
95,-0.005365500000000002,0.7819324999999999,0.0880525,-0.17312750000000002,0.5839725,0.06400349999999999,-0.2502475,0.8294524999999999,-0.0489525,0.16690249999999998,0.5750225,0.0809465,0.28825249999999997,0.8146424999999999,0.004345499999999999,-0.2567875,1.0999325,-0.13729550000000001,0.3315725,1.0612325,-0.0930355,-0.0850725,-1.0500000000000093e-05,-0.000616499999999999,0.0850725,1.0500000000000093e-05,0.000616499999999999,-0.1146945,-0.4479375,-0.09535550000000001,0.13257249999999998,-0.46416749999999996,-0.0563425,-0.1024835,-0.8572175000000001,-0.0215085,0.11986249999999998,-0.8669675,-0.002062500000000002
96,-0.005456000000000001,0.781514,0.08604400000000001,-0.173443,0.5840040000000001,0.062862,-0.250983,0.828694,-0.051466,0.166927,0.5748340000000001,0.079335,0.288917,0.814554,-0.0006009999999999974,-0.258313,1.097674,-0.141083,0.331567,1.060874,-0.098693,-0.085237,-0.00011200000000000099,-0.0005169999999999966,0.085237,0.00011200000000000099,0.0005170000000000036,-0.11533,-0.44811599999999996,-0.09743299999999999,0.13399699999999998,-0.460786,-0.058057,-0.103058,-0.8556659999999999,-0.021406,0.11958700000000001,-0.865406,-0.0020499999999999963
97,-0.005519999999999997,0.780945,0.0839435,-0.173534,0.583675,0.061371499999999996,-0.25170400000000004,0.827785,-0.0545045,0.166936,0.574735,0.07764650000000001,0.28950600000000004,0.814745,-0.0052825000000000025,-0.259814,1.095305,-0.1453465,0.33153600000000005,1.060105,-0.10434650000000001,-0.085396,-0.00018800000000000067,-0.0003855000000000039,0.085396,0.00018800000000000067,0.00038549999999999696,-0.116006,-0.44721500000000003,-0.0993965,0.135806,-0.457075,-0.059923500000000005,-0.103621,-0.853905,-0.021255500000000004,0.11932600000000002,-0.863495,-0.0018825000000000022
98,-0.005763000000000001,0.78051,0.0819255,-0.17369600000000002,0.58338,0.059928499999999996,-0.252526,0.82689,-0.05777550000000001,0.166854,0.5746,0.0759715,0.28995400000000005,0.81504,-0.009492500000000001,-0.261356,1.0931000000000002,-0.14956950000000002,0.331394,1.0591000000000002,-0.10983949999999999,-0.085534,-0.00032300000000000037,-0.0002515000000000017,0.085534,0.00032300000000000037,0.0002514999999999948,-0.116808,-0.44612,-0.10114950000000002,0.13755399999999998,-0.45348,-0.061631500000000006,-0.104267,-0.85202,-0.021116500000000003,0.11901399999999998,-0.86137,-0.0016455000000000011
99,-0.006167499999999998,0.7800714999999999,0.0801105,-0.1738235,0.5824214999999999,0.058277499999999996,-0.2532435,0.8260915,-0.06082749999999999,0.16662649999999998,0.5744214999999999,0.0743045,0.2901765,0.8154115,-0.014118499999999999,-0.2627035,1.0907715,-0.1538135,0.3310365,1.0582715,-0.11470349999999999,-0.08572650000000001,-0.0004244999999999978,-0.00010650000000000243,0.08572650000000001,0.00042450000000000127,0.00010650000000000243,-0.11772550000000001,-0.4444785,-0.1025935,0.13909649999999998,-0.45059849999999996,-0.0630695,-0.10518349999999999,-0.8505385000000001,-0.020936499999999997,0.1182765,-0.8597185,-0.0012645000000000017
100,-0.006649000000000002,0.77938,0.078387,-0.173966,0.58124,0.056607,-0.254016,0.82524,-0.063936,0.166324,0.5743199999999999,0.07293,0.290424,0.81585,-0.018331,-0.264076,1.08807,-0.158292,0.330544,1.0572700000000002,-0.119182,-0.085884,-0.0006749999999999985,-1.000000000001e-06,0.085884,0.000675000000000002,1.000000000001e-06,-0.118927,-0.44249,-0.10416199999999999,0.140854,-0.4476,-0.064297,-0.106153,-0.84891,-0.020738,0.117484,-0.8580300000000001,-0.000781999999999998
101,-0.007147499999999999,0.7787115,0.07656550000000001,-0.17408949999999998,0.5801515,0.0548475,-0.2548495,0.8234915,-0.06710849999999999,0.1659905,0.5737515000000001,0.07112850000000001,0.2906205,0.8162115000000001,-0.0223415,-0.2654995,1.0855615,-0.1628085,0.33006050000000003,1.0562615,-0.1235685,-0.08604049999999999,-0.000840500000000001,0.0001434999999999978,0.08604049999999999,0.0008404999999999975,-0.0001434999999999978,-0.1203205,-0.4399485,-0.10570850000000001,0.14246050000000002,-0.4446185,-0.0652005,-0.1071435,-0.8468884999999999,-0.020491499999999996,0.11665050000000002,-0.8562584999999999,-4.350000000000187e-05
102,-0.007730500000000001,0.778368,0.0746085,-0.1742495,0.579148,0.0530845,-0.2556495,0.8216779999999999,-0.0702065,0.1655605,0.573168,0.0693265,0.2907105,0.816788,-0.0259495,-0.2670495,1.083398,-0.1672865,0.32999049999999996,1.055398,-0.12801649999999998,-0.0862105,-0.0008780000000000003,0.00028650000000000203,0.0862105,0.0008780000000000003,-0.00028650000000000203,-0.12207950000000001,-0.439082,-0.1071265,0.14395049999999998,-0.442672,-0.0658955,-0.1083005,-0.8452120000000001,-0.0202885,0.1158005,-0.854422,0.0003594999999999987
103,-0.008273499999999998,0.7780405,0.07269400000000001,-0.1743475,0.5780105,0.051182000000000005,-0.2564675,0.8199805,-0.073309,0.16509249999999998,0.5724104999999999,0.06733900000000001,0.2909525,0.8165005,-0.030029,-0.2686075,1.0813305,-0.171719,0.3301125,1.0543305,-0.13266899999999998,-0.0863425,-0.0009375000000000008,0.00037900000000000433,0.0863425,0.0009374999999999974,-0.0003789999999999974,-0.1238575,-0.43814949999999997,-0.10784899999999999,0.14545249999999998,-0.44075949999999997,-0.066359,-0.1095355,-0.8434095,-0.020235999999999997,0.11497249999999999,-0.8525895,0.0007590000000000027
104,-0.008865999999999997,0.777776,0.0707965,-0.17441099999999998,0.576746,0.049241499999999994,-0.257191,0.818386,-0.0763755,0.164689,0.571666,0.0654035,0.291159,0.8162459999999999,-0.0338845,-0.27015100000000003,1.079466,-0.1759255,0.330309,1.053466,-0.13709549999999998,-0.086479,-0.001014000000000001,0.0004534999999999956,0.086479,0.0010139999999999975,-0.0004535000000000025,-0.125771,-0.43724399999999997,-0.1085755,0.147209,-0.43895399999999996,-0.0668455,-0.110757,-0.841684,-0.020178500000000002,0.114149,-0.8508640000000001,0.001175499999999996
105,-0.009368000000000001,0.777447,0.0689695,-0.17440599999999998,0.5755870000000001,0.0474015,-0.257976,0.8168770000000001,-0.0793345,0.16420400000000002,0.5707169999999999,0.0635145,0.290734,0.8158970000000001,-0.0360295,-0.271776,1.0776970000000001,-0.1798645,0.330584,1.052697,-0.1411245,-0.086614,-0.0010830000000000006,0.000507500000000001,0.086614,0.0010830000000000006,-0.000507500000000001,-0.127856,-0.434723,-0.1092445,0.148864,-0.435573,-0.0675145,-0.11211,-0.8389930000000001,-0.020535499999999998,0.11328399999999998,-0.848503,0.0015645000000000034
106,-0.009680499999999998,0.7772425,0.0672845,-0.17430749999999998,0.5747525,0.0458695,-0.2588375,0.8154425,-0.0817945,0.16386250000000002,0.5698225,0.0616955,0.2904625,0.8154025,-0.0382445,-0.2732075,1.0760325,-0.1832845,0.3310425,1.0518325,-0.1451845,-0.08669249999999999,-0.0011185000000000014,0.000509500000000003,0.08669249999999999,0.0011185000000000014,-0.0005094999999999961,-0.1298075,-0.4330275,-0.11003450000000001,0.1503925,-0.4327075,-0.0678945,-0.1134005,-0.8364175,-0.0210175,0.1126225,-0.8463275,0.0018735000000000002
107,-0.009850999999999995,0.776946,0.065458,-0.17405900000000002,0.573796,0.044256000000000004,-0.259689,0.814006,-0.083901,0.16367099999999998,0.568986,0.059976,0.290701,0.814446,-0.041185,-0.27458899999999997,1.0744660000000001,-0.18683100000000002,0.331651,1.0513659999999998,-0.149241,-0.086801,-0.001112999999999996,0.0004730000000000012,0.086801,0.0011130000000000029,-0.0004730000000000012,-0.131709,-0.429614,-0.11087100000000001,0.151991,-0.430014,-0.068211,-0.11473499999999999,-0.833954,-0.021485999999999998,0.11195100000000001,-0.844234,0.002009999999999998
108,-0.009862000000000003,0.77671,0.06354749999999999,-0.173821,0.57357,0.042955499999999994,-0.260341,0.81274,-0.0858875,0.163569,0.56806,0.05812049999999999,0.290879,0.81327,-0.043550500000000006,-0.275761,1.07318,-0.1900175,0.332409,1.0506799999999998,-0.1533875,-0.08685899999999999,-0.0010830000000000006,0.000392499999999997,0.08685899999999999,0.0010830000000000006,-0.00039250000000000396,-0.133581,-0.42561,-0.11187750000000002,0.153499,-0.42725,-0.0687075,-0.116065,-0.8316199999999999,-0.022004500000000003,0.11137899999999998,-0.84202,0.0018954999999999944
109,-0.009745000000000004,0.776795,0.061741,-0.17352599999999999,0.573695,0.041645999999999996,-0.260866,0.811475,-0.088524,0.163594,0.567205,0.05606,0.291444,0.811975,-0.04656400000000001,-0.276866,1.0723449999999999,-0.193284,0.333304,1.050445,-0.15751400000000002,-0.086954,-0.0009440000000000004,0.00031499999999999584,0.086954,0.0009440000000000004,-0.0003150000000000028,-0.135156,-0.421385,-0.112784,0.154684,-0.424675,-0.069394,-0.117327,-0.829095,-0.022595000000000004,0.110924,-0.839775,0.0018269999999999953
110,-0.009502500000000004,0.77671,0.0597315,-0.17323950000000002,0.57392,0.0402895,-0.26124949999999997,0.81084,-0.0912665,0.16371049999999998,0.56671,0.0542435,0.29197049999999997,0.81066,-0.0499975,-0.2778695,1.07161,-0.19643649999999999,0.3343905,1.05012,-0.1617065,-0.08711050000000001,-0.0009100000000000011,0.0002025000000000013,0.08711050000000001,0.0009100000000000011,-0.0002025000000000013,-0.1365395,-0.41724,-0.11376649999999999,0.1556505,-0.42233000000000004,-0.0703165,-0.11856749999999999,-0.82672,-0.0232365,0.11048049999999998,-0.8378099999999999,0.0017855000000000024
111,-0.009004500000000002,0.776548,0.057381,-0.1727655,0.574148,0.038626,-0.2614455,0.811008,-0.094111,0.1640245,0.565888,0.051885,0.2927345,0.8090579999999999,-0.053694,-0.2787555,1.071138,-0.19981100000000002,0.33575449999999996,1.049788,-0.166321,-0.0872545,-0.0008140000000000022,0.00013799999999999923,0.0872545,0.0008139999999999953,-0.00013799999999999923,-0.13757550000000002,-0.413612,-0.115311,0.1567345,-0.419852,-0.07162099999999999,-0.1197415,-0.824362,-0.024016999999999997,0.1101145,-0.835152,0.0016240000000000004
112,-0.008315499999999997,0.7765430000000001,0.05483700000000001,-0.17210150000000002,0.574493,0.036716000000000006,-0.2615215,0.810713,-0.096899,0.1643585,0.565513,0.04957500000000001,0.2936285,0.8082130000000001,-0.056998999999999994,-0.2795815,1.0711929999999998,-0.20332899999999998,0.3372485,1.049783,-0.17077900000000001,-0.0874385,-0.000677000000000004,0.00012100000000000305,0.0874385,0.000676999999999997,-0.00012099999999999611,-0.1384915,-0.410557,-0.11697899999999999,0.1576685,-0.416987,-0.07321899999999999,-0.12083949999999999,-0.8218169999999999,-0.024838999999999993,0.11013850000000001,-0.8324769999999999,0.0008660000000000057
113,-0.007327999999999998,0.7761965,0.051884,-0.171307,0.5749964999999999,0.034759,-0.261447,0.8105665,-0.09955800000000001,0.164703,0.5650265000000001,0.046891,0.294743,0.8070865,-0.060508000000000006,-0.280247,1.0713765,-0.207028,0.338843,1.0499065,-0.175208,-0.087573,-0.0005465000000000053,0.00010799999999999699,0.087573,0.0005464999999999984,-0.00010800000000000393,-0.13910699999999998,-0.4079335,-0.11871799999999999,0.158583,-0.4139635,-0.075028,-0.121719,-0.8195034999999999,-0.025689000000000003,0.11030300000000001,-0.8293934999999999,8.79999999999978e-05
114,-0.006349999999999998,0.7761575,0.0486585,-0.170494,0.5755275,0.0326785,-0.261264,0.8105874999999999,-0.1022865,0.165166,0.5646575,0.0439565,0.296176,0.8058075,-0.0642665,-0.28073400000000004,1.0717375,-0.2107865,0.340456,1.0500475,-0.1801665,-0.087726,-0.00045050000000000645,9.15000000000013e-05,0.087726,0.0004504999999999926,-9.15000000000013e-05,-0.139424,-0.4063825,-0.12036649999999999,0.159616,-0.41168250000000006,-0.0768565,-0.122376,-0.8173725000000001,-0.0261355,0.11074600000000001,-0.8267125000000001,-0.0005384999999999973
115,-0.005295499999999998,0.776288,0.0450775,-0.1696615,0.576258,0.0302795,-0.2609715,0.810718,-0.10515749999999999,0.16565850000000001,0.564208,0.0406615,0.2976385,0.804508,-0.0684775,-0.2811215,1.072568,-0.21504749999999997,0.3418985,1.0505179999999998,-0.1849075,-0.08789849999999999,-0.00031899999999999984,8.249999999999924e-05,0.08789849999999999,0.00031899999999999984,-8.249999999999924e-05,-0.1397015,-0.404272,-0.12202750000000001,0.1605485,-0.409142,-0.0788075,-0.12289549999999999,-0.814932,-0.026584499999999997,0.11126850000000002,-0.823812,-0.0014235000000000012
116,-0.0041539999999999945,0.7764865000000001,0.0413085,-0.16873699999999997,0.5767265,0.0274055,-0.260517,0.8107265,-0.1085895,0.16608299999999998,0.5638765,0.037338500000000004,0.298913,0.8034465000000001,-0.0725895,-0.281327,1.0732865,-0.21948949999999998,0.343403,1.0509665,-0.1899995,-0.088063,-0.00021949999999999747,8.450000000000124e-05,0.088063,0.00021949999999999747,-8.450000000000124e-05,-0.13988699999999998,-0.4019235,-0.12382950000000001,0.16140300000000002,-0.40664350000000005,-0.0809995,-0.12328399999999999,-0.8123635,-0.027120499999999992,0.11181300000000001,-0.8208035,-0.0025465
117,-0.002939999999999998,0.77681,0.037239,-0.16775500000000002,0.577,0.024336,-0.259925,0.81056,-0.11227700000000002,0.166675,0.56338,0.033754,0.300285,0.8021400000000001,-0.076797,-0.281485,1.07357,-0.224337,0.34508500000000003,1.0512,-0.195547,-0.088205,5.9999999999990616e-05,0.00010399999999999993,0.088205,-6.0000000000004494e-05,-0.00010399999999999993,-0.140005,-0.39905,-0.125557,0.162225,-0.40436,-0.08324699999999999,-0.123532,-0.8102800000000001,-0.027447999999999993,0.112455,-0.8184499999999999,-0.0033159999999999995
118,-0.0017250000000000043,0.776947,0.0330615,-0.166731,0.577157,0.021049500000000002,-0.25943099999999997,0.810347,-0.11529249999999999,0.16727899999999998,0.5624170000000001,0.029838500000000004,0.30145900000000003,0.8006570000000001,-0.0806825,-0.281601,1.073637,-0.2291425,0.346649,1.051057,-0.2010725,-0.08834900000000001,0.00028200000000000447,0.00012150000000000355,0.088349,-0.00028200000000000447,-0.00012149999999999661,-0.140161,-0.39609300000000003,-0.12716249999999998,0.162929,-0.402123,-0.0853925,-0.12381,-0.808203,-0.027791499999999997,0.11302899999999999,-0.816033,-0.0041355
119,-0.0005009999999999945,0.777138,0.028877,-0.165537,0.577188,0.017569,-0.25894700000000004,0.810108,-0.118374,0.167833,0.561528,0.025911,0.302743,0.799238,-0.084584,-0.281607,1.073508,-0.234194,0.34830300000000003,1.050708,-0.20696399999999998,-0.088453,0.0005529999999999979,0.00020900000000000085,0.088453,-0.0005529999999999979,-0.00020900000000000085,-0.140257,-0.393052,-0.128714,0.163683,-0.40005199999999996,-0.087514,-0.124028,-0.806262,-0.028274999999999995,0.11366300000000001,-0.813672,-0.005205000000000001
120,0.0005250000000000046,0.7774030000000001,0.024268999999999995,-0.164439,0.576923,0.013610999999999995,-0.258449,0.809593,-0.122306,0.168211,0.561133,0.021813999999999997,0.303861,0.798233,-0.089336,-0.281519,1.073253,-0.24002600000000002,0.349731,1.050553,-0.213486,-0.08860099999999999,0.0007269999999999915,0.00031499999999999584,0.088601,-0.0007270000000000054,-0.0003150000000000028,-0.140339,-0.389507,-0.129916,0.164281,-0.39754700000000004,-0.089566,-0.12407299999999999,-0.802907,-0.028945,0.11423100000000001,-0.8099970000000001,-0.006524000000000002
121,0.001458000000000001,0.7773479999999999,0.019527999999999997,-0.163399,0.576678,0.009693999999999998,-0.25788900000000003,0.8094979999999999,-0.126588,0.168681,0.560658,0.01756,0.304751,0.797188,-0.094218,-0.281359,1.072938,-0.24615800000000002,0.35109100000000004,1.0501880000000001,-0.220048,-0.088751,0.0008640000000000037,0.00042400000000000077,0.088751,-0.0008639999999999898,-0.00042400000000000077,-0.140379,-0.38654199999999994,-0.131178,0.164871,-0.39532199999999995,-0.091538,-0.124025,-0.799762,-0.029681,0.11439099999999999,-0.806872,-0.007316000000000003
122,0.0022199999999999998,0.7776415,0.015201,-0.162359,0.5763815,0.00579,-0.257299,0.8093115,-0.13108,0.169221,0.5603515,0.013506999999999998,0.305701,0.7962815,-0.09920000000000001,-0.281029,1.0723115,-0.25257,0.352491,1.0498115000000001,-0.22663,-0.08896100000000001,0.0009834999999999983,0.0004950000000000024,0.088961,-0.0009834999999999983,-0.0004950000000000024,-0.140339,-0.3837585,-0.13241,0.165361,-0.3931385,-0.09338000000000002,-0.12392,-0.7966985000000001,-0.030514999999999994,0.114571,-0.8036685,-0.008218000000000003
123,0.002961499999999999,0.7775289999999999,0.010990000000000003,-0.1611705,0.575869,0.0015890000000000036,-0.2567205,0.809099,-0.135832,0.1698095,0.560119,0.009511000000000002,0.3064295,0.795709,-0.104182,-0.2806805,1.071569,-0.259192,0.3539395,1.049439,-0.233252,-0.0891595,0.0009730000000000016,0.00047900000000000373,0.0891595,-0.0009730000000000016,-0.00047900000000000026,-0.14027050000000002,-0.382241,-0.133722,0.1658095,-0.390991,-0.09495200000000001,-0.1238525,-0.7940309999999999,-0.031337,0.11457949999999999,-0.8011809999999999,-0.009237999999999996
124,0.0035140000000000032,0.7774004999999999,0.00699,-0.160221,0.5755305000000001,-0.002352,-0.256231,0.8085304999999999,-0.140764,0.170259,0.5597605,0.005815999999999998,0.307099,0.7951905,-0.108964,-0.280491,1.0706205,-0.265534,0.355359,1.0488705,-0.24010399999999998,-0.089319,0.001074500000000006,0.0004480000000000005,0.089319,-0.0010744999999999921,-0.0004480000000000005,-0.14027099999999998,-0.38057949999999996,-0.13494399999999998,0.166099,-0.3889595,-0.096444,-0.12374,-0.7915795,-0.03203,0.11432900000000001,-0.7988995,-0.010194000000000002
125,0.0039949999999999986,0.777276,0.0029305000000000025,-0.15948800000000002,0.575036,-0.0060775,-0.255928,0.8080759999999999,-0.1456025,0.170682,0.559726,0.0018815000000000012,0.307522,0.794566,-0.1139125,-0.280368,1.069246,-0.27182249999999997,0.35666200000000003,1.0482960000000001,-0.24700249999999999,-0.089452,0.0010539999999999994,0.0004305000000000003,0.089452,-0.0010539999999999994,-0.00043049999999999686,-0.140268,-0.378924,-0.1363025,0.166312,-0.38668399999999997,-0.0979225,-0.12374099999999999,-0.7889740000000001,-0.0327405,0.11405199999999999,-0.7966840000000001,-0.011480499999999998
126,0.0043835000000000054,0.777084,-0.0008715000000000007,-0.15880149999999998,0.574584,-0.009799500000000003,-0.2556715,0.807374,-0.1504025,0.17098850000000002,0.559644,-0.0016784999999999994,0.3079585,0.794104,-0.1188625,-0.2802215,1.067874,-0.2780825,0.3577685,1.047774,-0.2533925,-0.0895785,0.0010339999999999933,0.0004035000000000011,0.0895785,-0.0010340000000000071,-0.0004035000000000011,-0.1402015,-0.37659600000000004,-0.13766250000000002,0.1664485,-0.38451599999999997,-0.09929249999999999,-0.1237685,-0.786216,-0.0334685,0.11369850000000001,-0.795366,-0.012872500000000002
127,0.004723999999999999,0.7768615,-0.004598999999999999,-0.15826400000000002,0.5742015,-0.013394999999999997,-0.25541400000000003,0.8068314999999999,-0.155279,0.171256,0.5595815,-0.004954,0.308386,0.7937215,-0.123679,-0.280064,1.0663515000000001,-0.284229,0.358906,1.0470115,-0.259749,-0.089656,0.0011084999999999984,0.0003630000000000022,0.089656,-0.0011084999999999984,-0.00036299999999999874,-0.140044,-0.3743285,-0.139139,0.166596,-0.3824085,-0.10073900000000001,-0.123776,-0.7834285000000001,-0.034288,0.113406,-0.7937585,-0.014158999999999998
128,0.004944999999999998,0.7765395,-0.008349000000000002,-0.157928,0.5737995,-0.016953000000000003,-0.255208,0.8060195,-0.16017399999999998,0.171542,0.5596395,-0.008276000000000006,0.308712,0.7932695,-0.12847399999999998,-0.279868,1.0649595,-0.290804,0.359942,1.0460995,-0.26601400000000003,-0.089722,0.0012825000000000059,0.0002479999999999982,0.089722,-0.0012825000000000059,-0.0002480000000000017,-0.139868,-0.37223049999999996,-0.140664,0.166672,-0.3804005,-0.102224,-0.123821,-0.7806905,-0.035190000000000006,0.112982,-0.7916605,-0.015274000000000003
129,0.005073000000000001,0.7756695,-0.011814000000000005,-0.157662,0.5728595,-0.020333000000000004,-0.255092,0.8048195,-0.164732,0.17175800000000002,0.5593895,-0.011231000000000005,0.308948,0.7923595,-0.132752,-0.279722,1.0629995,-0.29701200000000005,0.360928,1.0445695000000002,-0.271412,-0.089778,0.0013814999999999938,0.00011299999999999852,0.08977800000000001,-0.0013815000000000077,-0.00011300000000000199,-0.139752,-0.3714205,-0.142202,0.166638,-0.3795305,-0.10367200000000001,-0.124095,-0.7798805,-0.036241,0.11253799999999999,-0.7899405,-0.016353
130,0.005147499999999999,0.7745960000000001,-0.015129000000000004,-0.1575045,0.572106,-0.023647,-0.2550645,0.8032560000000001,-0.16937000000000002,0.1718755,0.559256,-0.013937999999999999,0.30914549999999996,0.791386,-0.13676000000000002,-0.27964449999999996,1.060556,-0.30298,0.3617855,1.042876,-0.27638,-0.08981549999999999,0.0014350000000000057,2.1999999999997716e-05,0.08981549999999999,-0.0014349999999999918,-2.2000000000001185e-05,-0.1396445,-0.370834,-0.14373,0.1665155,-0.37894399999999995,-0.10513,-0.1244225,-0.7792939999999999,-0.037315,0.11215549999999999,-0.788644,-0.017547
131,0.005094499999999995,0.7734825000000001,-0.0186865,-0.1574365,0.5713525,-0.027056499999999997,-0.2551565,0.8015125000000001,-0.1742175,0.17188350000000002,0.5589725,-0.0167765,0.3092135,0.7904525,-0.1404875,-0.2795765,1.0568525,-0.30925749999999996,0.3626235,1.0395825,-0.2811475,-0.08984349999999999,0.001421500000000006,-6.149999999999906e-05,0.0898435,-0.0014214999999999922,6.150000000000252e-05,-0.13960650000000002,-0.3702375,-0.1452375,0.16627350000000002,-0.37834749999999995,-0.10651749999999999,-0.1248595,-0.7786974999999999,-0.038392499999999996,0.1115935,-0.7878575,-0.0184085
132,0.004983000000000001,0.772454,-0.0223835,-0.157506,0.570464,-0.030364500000000003,-0.255306,0.800164,-0.1790005,0.171824,0.559074,-0.0196015,0.309294,0.790044,-0.1443805,-0.279406,1.053954,-0.3159305,0.363404,1.037224,-0.2861105,-0.08988399999999999,0.001480000000000009,-0.00019450000000000023,0.08988399999999999,-0.0014799999999999952,0.00019450000000000023,-0.139576,-0.36915600000000004,-0.14698050000000001,0.165954,-0.37656599999999996,-0.1080005,-0.12526299999999999,-0.777016,-0.039773499999999996,0.11099399999999998,-0.786296,-0.019778499999999997
133,0.005080499999999995,0.7715895,-0.026147,-0.1574145,0.5695494999999999,-0.033746,-0.2552145,0.7987995,-0.183866,0.1718555,0.5592395,-0.022438000000000003,0.3094455,0.7896495,-0.14832599999999999,-0.2790045,1.0512795000000001,-0.322696,0.36421549999999997,1.0343895,-0.291026,-0.0898955,0.0015265,-0.0003009999999999992,0.0898955,-0.0015265,0.0003009999999999992,-0.1396645,-0.3679005,-0.148766,0.16561549999999997,-0.3748705,-0.10947599999999999,-0.1255995,-0.7752405,-0.04123,0.11063549999999998,-0.7846805,-0.021432999999999997
134,0.0051754999999999995,0.770682,-0.029955000000000002,-0.1572965,0.568742,-0.037132000000000005,-0.2550365,0.797542,-0.188921,0.17195349999999998,0.559462,-0.025286000000000003,0.3096235,0.789492,-0.151921,-0.2784465,1.047962,-0.329941,0.36504349999999997,1.031512,-0.29573099999999997,-0.0898835,0.0015519999999999978,-0.00042100000000000123,0.08988349999999999,-0.0015519999999999978,0.00042099999999999776,-0.1397065,-0.366548,-0.150531,0.1653635,-0.373168,-0.11097100000000001,-0.1258495,-0.7734580000000001,-0.042805,0.11030350000000001,-0.7835080000000001,-0.023082000000000005
135,0.005316999999999995,0.7697305,-0.034081,-0.15709700000000001,0.5680405000000001,-0.040617,-0.254797,0.7964005000000001,-0.194393,0.172053,0.5596505,-0.028165999999999997,0.309753,0.7894005000000001,-0.155553,-0.277807,1.0446705,-0.337133,0.365983,1.0282105,-0.300833,-0.089843,0.0015885000000000066,-0.0006289999999999976,0.089843,-0.0015884999999999927,0.0006290000000000011,-0.139797,-0.3650495,-0.152413,0.165153,-0.37140949999999995,-0.11261300000000002,-0.126048,-0.7715595,-0.044556,0.10992299999999999,-0.7822695,-0.024832
136,0.005492499999999997,0.7687125,-0.038051999999999996,-0.1566775,0.5675224999999999,-0.044001,-0.2544475,0.7950825,-0.199794,0.1721125,0.5598125,-0.031001999999999995,0.3098825,0.7890325,-0.159254,-0.2769775,1.0420825,-0.34459399999999996,0.3670925,1.0244525,-0.305864,-0.0897925,0.00164750000000001,-0.0008039999999999992,0.08979250000000001,-0.0016474999999999962,0.0008040000000000026,-0.1399375,-0.3635075,-0.154284,0.16480250000000002,-0.3697575,-0.11422399999999999,-0.1265715,-0.7695675,-0.046486,0.1092125,-0.7803475,-0.026736999999999997
137,0.005632000000000005,0.76788,-0.042263999999999996,-0.156155,0.56683,-0.047717999999999997,-0.25399499999999997,0.79408,-0.205547,0.172175,0.55957,-0.034096,0.310145,0.78851,-0.162927,-0.275935,1.03878,-0.352837,0.368015,1.02085,-0.31077699999999997,-0.08974499999999999,0.001680000000000001,-0.0010029999999999987,0.08974499999999999,-0.001680000000000001,0.0010030000000000004,-0.140005,-0.36151,-0.156307,0.164475,-0.36816,-0.116007,-0.127024,-0.76735,-0.048594,0.10858500000000001,-0.77819,-0.028838
138,0.005977500000000004,0.766885,-0.0464495,-0.1555095,0.566635,-0.050970499999999995,-0.25331950000000003,0.792635,-0.2111825,0.1723905,0.559405,-0.0369265,0.3106505,0.787845,-0.16671249999999999,-0.2747095,1.035455,-0.3606625,0.36901049999999996,1.017025,-0.31556249999999997,-0.0896905,0.001685000000000006,-0.0011745000000000002,0.0896905,-0.001684999999999992,0.0011745000000000002,-0.1398795,-0.35970499999999994,-0.15827249999999998,0.1643205,-0.366765,-0.11779250000000001,-0.1272615,-0.765305,-0.05066349999999999,0.10813050000000002,-0.776115,-0.030857499999999996
139,0.006279500000000007,0.766195,-0.0511555,-0.1547615,0.566245,-0.0548385,-0.2526215,0.791485,-0.2171565,0.1726785,0.559055,-0.0404415,0.3111085,0.787095,-0.1709465,-0.2735415,1.032035,-0.3687965,0.3699885,1.0129650000000001,-0.3208565,-0.0896385,0.0017150000000000082,-0.0014514999999999997,0.0896385,-0.0017149999999999943,0.0014514999999999997,-0.13970149999999998,-0.357785,-0.16061650000000002,0.16415849999999998,-0.365395,-0.11998650000000001,-0.12746649999999998,-0.762845,-0.0530925,0.1077685,-0.773825,-0.0335065
140,0.0066395000000000065,0.765495,-0.056161499999999996,-0.1539235,0.565395,-0.059226499999999994,-0.2518435,0.790465,-0.2232645,0.1730365,0.5590849999999999,-0.0440985,0.3117065,0.786295,-0.1759145,-0.2725035,1.029475,-0.3770045,0.3708865,1.010395,-0.3267045,-0.08961649999999999,0.001674999999999996,-0.0016625000000000008,0.08961649999999999,-0.001674999999999996,0.0016625,-0.1395635,-0.35595499999999997,-0.16321449999999998,0.1640365,-0.364045,-0.1225145,-0.1275815,-0.760165,-0.055812499999999994,0.1075265,-0.771545,-0.0364025
141,0.0069664999999999935,0.76481,-0.061114,-0.1532965,0.56471,-0.06364500000000001,-0.2510465,0.78899,-0.229706,0.17332350000000002,0.55885,-0.047985,0.31220349999999997,0.7852199999999999,-0.18103599999999997,-0.2715865,1.02715,-0.384646,0.37170349999999996,1.00599,-0.332366,-0.08961350000000001,0.001579999999999998,-0.0018449999999999994,0.0896135,-0.001579999999999998,0.0018450000000000003,-0.1395365,-0.35419999999999996,-0.16572599999999998,0.16385349999999999,-0.36292,-0.12496600000000001,-0.1277065,-0.75731,-0.058417,0.1071535,-0.76839,-0.03877
142,0.007323999999999997,0.764205,-0.06607900000000001,-0.15271,0.564225,-0.068052,-0.25031000000000003,0.7875449999999999,-0.236327,0.17352,0.558225,-0.052132,0.31269,0.7838849999999999,-0.186247,-0.27074000000000004,1.0246250000000001,-0.392247,0.37232,1.002035,-0.338047,-0.08960000000000001,0.0015349999999999947,-0.0020889999999999997,0.08960000000000001,-0.0015349999999999947,0.0020889999999999997,-0.13945000000000002,-0.35253500000000004,-0.168197,0.16366,-0.361915,-0.127547,-0.127799,-0.7545350000000001,-0.061166000000000005,0.10674,-0.765555,-0.041278
143,0.0076444999999999985,0.763215,-0.07104049999999999,-0.1520545,0.563775,-0.07243849999999999,-0.2495445,0.785995,-0.2429595,0.1737655,0.557425,-0.0562845,0.3132755,0.782045,-0.1917895,-0.2700045,1.0226250000000001,-0.3996795,0.3730455,0.997695,-0.3439795,-0.0895955,0.0015349999999999947,-0.0023425,0.0895955,-0.0015349999999999947,0.0023425,-0.1392745,-0.351025,-0.17067949999999998,0.1635055,-0.361075,-0.13015949999999998,-0.1278405,-0.7518450000000001,-0.06392049999999999,0.1064755,-0.763325,-0.0437655
144,0.0080075,0.762325,-0.0758715,-0.15144849999999999,0.562665,-0.07682749999999999,-0.24880850000000002,0.784035,-0.2493475,0.1740015,0.556785,-0.0605805,0.3139915,0.779805,-0.1983075,-0.2692185,1.020745,-0.4071475,0.3738015,0.993815,-0.3499075,-0.0896315,0.0014849999999999863,-0.0024915,0.0896315,-0.001485000000000014,0.0024915,-0.1390885,-0.349665,-0.1731975,0.1634615,-0.360275,-0.1328375,-0.1278395,-0.749015,-0.06671149999999999,0.1063415,-0.760965,-0.046573500000000004
145,0.00830199999999999,0.76169,-0.080943,-0.150951,0.56109,-0.081516,-0.24811100000000003,0.78176,-0.255757,0.174149,0.55612,-0.065061,0.314629,0.77766,-0.205097,-0.268421,1.01723,-0.414997,0.374429,0.98943,-0.356137,-0.08965900000000002,0.0013699999999999823,-0.00262,0.089659,-0.00137000000000001,0.00262,-0.138861,-0.34859,-0.175677,0.16369899999999998,-0.35936,-0.135587,-0.12754700000000002,-0.7461200000000001,-0.069436,0.10650899999999998,-0.75858,-0.049370000000000004
146,0.00852349999999999,0.760985,-0.08566299999999999,-0.1505325,0.559655,-0.085855,-0.24752250000000003,0.779125,-0.261827,0.17417749999999999,0.555885,-0.06921,0.3151075,0.775585,-0.212097,-0.2677625,1.0138150000000001,-0.42184699999999997,0.37507749999999995,0.985385,-0.362867,-0.0896475,0.0013149999999999828,-0.0027400000000000002,0.0896475,-0.0013150000000000106,0.0027400000000000002,-0.1386425,-0.347965,-0.177967,0.16389749999999997,-0.35851500000000003,-0.138127,-0.12730950000000002,-0.743375,-0.07202599999999999,0.1066575,-0.7561950000000001,-0.051926
147,0.008686999999999993,0.760475,-0.0903285,-0.150117,0.558065,-0.0903015,-0.24694700000000003,0.776905,-0.2679555,0.17411300000000002,0.555335,-0.07376350000000001,0.315343,0.773525,-0.2189255,-0.26709700000000003,1.010455,-0.4288555,0.375753,0.9820249999999999,-0.3699255,-0.089633,0.0012550000000000061,-0.002852500000000001,0.089633,-0.0012550000000000061,0.002852499999999999,-0.13842700000000002,-0.34723499999999996,-0.1802055,0.16412300000000002,-0.35763500000000004,-0.14067549999999998,-0.127064,-0.740275,-0.07463750000000001,0.106783,-0.753495,-0.05444550000000001
148,0.008438000000000008,0.7596849999999999,-0.0946675,-0.150092,0.556225,-0.0943095,-0.246662,0.7743549999999999,-0.27351549999999997,0.17388800000000001,0.555025,-0.0777495,0.31517799999999996,0.771425,-0.2257755,-0.26710199999999995,1.0069649999999999,-0.4357355,0.376038,0.9787950000000001,-0.3773255,-0.089668,0.0011549999999999894,-0.0029394999999999994,0.089668,-0.0011550000000000171,0.002939500000000001,-0.138332,-0.346625,-0.18202549999999998,0.164218,-0.35680500000000004,-0.1429055,-0.126896,-0.7372650000000001,-0.0769285,0.10671800000000001,-0.750955,-0.056887499999999994
149,0.008227000000000005,0.75868,-0.098747,-0.15011,0.55497,-0.097903,-0.24639,0.77193,-0.278889,0.17362,0.55434,-0.081598,0.31499000000000005,0.7693700000000001,-0.23199899999999998,-0.26705,1.00376,-0.44242899999999996,0.37642000000000003,0.97583,-0.384789,-0.08973999999999999,0.0011300000000000199,-0.003155,0.08973999999999999,-0.0011299999999999921,0.0031550000000000016,-0.13828,-0.34614,-0.18389899999999998,0.16433,-0.35603999999999997,-0.145109,-0.126688,-0.73438,-0.079168,0.10666999999999999,-0.74838,-0.059330999999999995
150,0.007987000000000008,0.7573799999999999,-0.1030205,-0.150141,0.55379,-0.1013665,-0.246171,0.76966,-0.2841185,0.173359,0.5536300000000001,-0.0852605,0.31476899999999997,0.7670899999999999,-0.2384385,-0.267131,1.00022,-0.4494185,0.376799,0.97419,-0.3923485,-0.089809,0.0010799999999999976,-0.003383500000000001,0.089809,-0.0010800000000000254,0.003383500000000001,-0.138191,-0.34499,-0.18566850000000001,0.164359,-0.35469,-0.14737850000000002,-0.126388,-0.7315200000000001,-0.0815455,0.10658900000000002,-0.74602,-0.0619765
151,0.007846500000000006,0.755595,-0.1073485,-0.14992450000000002,0.5523450000000001,-0.1046615,-0.2457645,0.767155,-0.2882705,0.1734055,0.5534749999999999,-0.0885205,0.3155055,0.7648950000000001,-0.24485049999999997,-0.26706450000000004,0.9966950000000001,-0.4559305,0.3775355,0.972445,-0.3999605,-0.08978549999999999,0.0009750000000000036,-0.0035354999999999987,0.08978549999999999,-0.0009750000000000036,0.0035355000000000004,-0.13806449999999998,-0.341945,-0.1877605,0.1646355,-0.351645,-0.1495105,-0.1261535,-0.7285550000000001,-0.0838915,0.10682549999999999,-0.743465,-0.06435350000000001
152,0.007889,0.75439,-0.11162,-0.14954699999999999,0.55042,-0.108265,-0.24527700000000002,0.7646999999999999,-0.292064,0.17361300000000002,0.55305,-0.091965,0.31622300000000003,0.76273,-0.251044,-0.266837,0.9935299999999999,-0.462304,0.378373,0.97105,-0.407484,-0.089803,0.0008299999999999974,-0.0035770000000000003,0.08980300000000001,-0.0008299999999999974,0.0035770000000000003,-0.13777699999999998,-0.33857000000000004,-0.19003399999999998,0.16503299999999999,-0.34826999999999997,-0.15181399999999998,-0.12580000000000002,-0.72523,-0.086351,0.10726300000000001,-0.7406400000000001,-0.066926
153,0.008447000000000003,0.753885,-0.121551,-0.14863500000000002,0.5499449999999999,-0.117399,-0.244365,0.763165,-0.30124999999999996,0.174365,0.552845,-0.100968,0.317215,0.761255,-0.26155,-0.266205,0.990985,-0.47397,0.379645,0.969365,-0.42031999999999997,-0.089815,0.0007849999999999802,-0.003609000000000001,0.089815,-0.0007850000000000079,0.003609000000000001,-0.137005,-0.334535,-0.19783,0.165925,-0.344235,-0.15981,-0.124989,-0.721255,-0.094444,0.108245,-0.737135,-0.07499700000000001
154,0.009126999999999996,0.7556050000000001,-0.13213550000000002,-0.14764100000000002,0.549525,-0.1268935,-0.243261,0.7612749999999999,-0.3110035,0.175239,0.553825,-0.11029749999999999,0.31828900000000004,0.7607950000000001,-0.2722335,-0.265461,0.9892449999999999,-0.4854735,0.381019,0.9689050000000001,-0.4333035,-0.089779,0.0007150000000000212,-0.0039044999999999982,0.089779,-0.0007149999999999934,0.003904500000000005,-0.13743100000000003,-0.32742499999999997,-0.2107135,0.170079,-0.335615,-0.17423349999999999,-0.124835,-0.717905,-0.1071135,0.112009,-0.7322850000000001,-0.0892925
155,0.009974000000000004,0.7575700000000001,-0.142846,-0.14658,0.5493600000000001,-0.136359,-0.2421,0.75953,-0.32067100000000004,0.17612,0.55477,-0.119657,0.31917,0.7606200000000001,-0.282431,-0.26465,0.9877100000000001,-0.496691,0.38244,0.96821,-0.445661,-0.08965000000000001,0.0006400000000000017,-0.004124000000000003,0.08965000000000001,-0.0006400000000000017,0.004123999999999996,-0.13779999999999998,-0.31992,-0.223971,0.17441,-0.32669,-0.188911,-0.124663,-0.71438,-0.120079,0.11585000000000001,-0.72725,-0.103796
156,0.011002999999999999,0.75956,-0.1532975,-0.145405,0.54922,-0.14564749999999999,-0.24085499999999999,0.7578499999999999,-0.3300475,0.177135,0.55593,-0.1286225,0.32020499999999996,0.7605899999999999,-0.2924475,-0.263755,0.98631,-0.5076475,0.38398499999999997,0.9669399999999999,-0.45719750000000003,-0.08938499999999999,0.0006199999999999817,-0.004335499999999999,0.08938499999999999,-0.0006200000000000094,0.004335499999999999,-0.13805499999999998,-0.31231000000000003,-0.2372375,0.17889499999999997,-0.31746,-0.20363750000000003,-0.12418,-0.7109000000000001,-0.1328735,0.11992499999999999,-0.7221500000000001,-0.1182255
157,0.012185500000000002,0.761865,-0.1636735,-0.1441395,0.549485,-0.1549275,-0.2396395,0.756465,-0.33936350000000004,0.17812050000000001,0.556975,-0.1374895,0.3212805,0.7609250000000001,-0.3020935,-0.2628195,0.984925,-0.5182235,0.3857305,0.965715,-0.4680035,-0.0891105,0.0005650000000000099,-0.004535499999999998,0.0891105,-0.0005650000000000099,0.004535499999999998,-0.1382895,-0.30432499999999996,-0.2506535,0.1832405,-0.30788499999999996,-0.2184335,-0.1229275,-0.704255,-0.1414765,0.1238705,-0.716895,-0.1326365
158,0.013387000000000003,0.764475,-0.174078,-0.142884,0.549905,-0.164232,-0.238454,0.755455,-0.34859799999999996,0.179136,0.557735,-0.146366,0.322646,0.761155,-0.311798,-0.26189399999999996,0.9840249999999999,-0.5285880000000001,0.387446,0.964515,-0.478568,-0.088836,0.0005050000000000054,-0.004629000000000008,0.088836,-0.0005050000000000054,0.004628999999999994,-0.13847399999999999,-0.29593499999999995,-0.264318,0.187486,-0.29800499999999996,-0.233208,-0.121615,-0.697345,-0.15017400000000003,0.12795600000000001,-0.711785,-0.147375
159,0.014614499999999999,0.767005,-0.1843,-0.14153949999999998,0.550125,-0.173362,-0.2372495,0.7545550000000001,-0.35773999999999995,0.1802305,0.5588650000000001,-0.154997,0.3240105,0.7616550000000001,-0.32099,-0.2610895,0.9830450000000001,-0.53897,0.3891705,0.9632350000000001,-0.4888,-0.0885305,0.0004250000000000087,-0.004697999999999994,0.0885305,-0.0004250000000000087,0.004698000000000008,-0.1386295,-0.28742500000000004,-0.27769,0.1917405,-0.287995,-0.24784,-0.1202285,-0.690365,-0.15870599999999999,0.1321405,-0.7066749999999999,-0.16199599999999997
160,0.0159865,0.7699849999999999,-0.1945005,-0.1399205,0.550475,-0.1827115,-0.2359105,0.7538349999999999,-0.36734049999999996,0.18147950000000002,0.559385,-0.16390149999999998,0.32556949999999996,0.761595,-0.3304105,-0.2601905,0.9820249999999999,-0.5499005,0.3910295,0.9622149999999999,-0.4989905,-0.0881895,0.0004250000000000087,-0.004846500000000004,0.0881895,-0.0004250000000000087,0.004846500000000004,-0.1386605,-0.279235,-0.2910705,0.1961495,-0.278095,-0.2627105,-0.1186805,-0.683705,-0.16729349999999998,0.1366695,-0.7015450000000001,-0.1768265
161,0.017429499999999997,0.772605,-0.20475349999999998,-0.13815750000000002,0.550925,-0.1917055,-0.2344775,0.753125,-0.3768735,0.1826925,0.560395,-0.17247849999999998,0.3271225,0.7618450000000001,-0.3397435,-0.2593275,0.9808349999999999,-0.5606235,0.3929625,0.960925,-0.5091435,-0.0878425,0.0004149999999999987,-0.005079500000000001,0.0878425,-0.0004149999999999987,0.005079500000000001,-0.13865750000000002,-0.271015,-0.3043335,0.2006325,-0.26836499999999996,-0.2773235,-0.1171095,-0.677395,-0.1756185,0.1413225,-0.696855,-0.1915175
162,0.018363499999999998,0.774435,-0.20931349999999999,-0.1369515,0.550575,-0.1950605,-0.2335315,0.7519450000000001,-0.3805535,0.1832885,0.560465,-0.1754985,0.32814849999999995,0.761295,-0.3436435,-0.2589715,0.979025,-0.5658835,0.3943885,0.959965,-0.5138235,-0.0874985,0.0003549999999999942,-0.005306499999999992,0.0874985,-0.0003549999999999942,0.005306500000000006,-0.1391815,-0.264125,-0.3117835,0.2045285,-0.259845,-0.2860935,-0.11628350000000001,-0.6720250000000001,-0.1782805,0.1453385,-0.6929750000000001,-0.2006335
163,0.0190115,0.774065,-0.2130565,-0.1362025,0.5504450000000001,-0.1978755,-0.23284249999999998,0.751405,-0.38355649999999997,0.18353750000000002,0.5591550000000001,-0.1780595,0.3288475,0.759695,-0.3470165,-0.2589925,0.976955,-0.5710165,0.3952675,0.958515,-0.5183865,-0.08731749999999999,0.0004149999999999987,-0.005343500000000001,0.08731749999999999,-0.0004149999999999987,0.005343499999999987,-0.1387225,-0.260945,-0.3137365,0.2051875,-0.256665,-0.2883965,-0.1157165,-0.669025,-0.1802785,0.1459775,-0.690545,-0.2030765
164,0.019609,0.773245,-0.21664699999999998,-0.13553,0.550135,-0.20065699999999997,-0.23234000000000002,0.750815,-0.38652699999999995,0.18370999999999998,0.557775,-0.18062099999999998,0.32943,0.757725,-0.35029699999999997,-0.25912,0.975105,-0.576157,0.39602000000000004,0.956735,-0.522987,-0.0872,0.0004049999999999887,-0.0053329999999999905,0.0872,-0.0004049999999999887,0.005333000000000004,-0.13839,-0.258065,-0.315597,0.20574,-0.253785,-0.290447,-0.115225,-0.666355,-0.18217299999999997,0.14645999999999998,-0.688455,-0.205197
165,0.020042000000000004,0.772405,-0.2201855,-0.135038,0.549845,-0.2034755,-0.231968,0.750085,-0.38952549999999997,0.183762,0.556425,-0.18314550000000002,0.329822,0.755775,-0.3534855,-0.259348,0.973145,-0.5814055,0.396582,0.955045,-0.5279855,-0.087172,0.0003750000000000142,-0.005374500000000004,0.087172,-0.00037499999999998646,0.005374500000000004,-0.138238,-0.255385,-0.3175355,0.206152,-0.25110499999999997,-0.2923755,-0.11491499999999999,-0.664165,-0.18416749999999998,0.146722,-0.686485,-0.2070955
166,0.020284999999999997,0.7714650000000001,-0.22350550000000002,-0.134711,0.549375,-0.2060255,-0.23186099999999998,0.749275,-0.3935455,0.18343900000000002,0.555195,-0.1856015,0.329569,0.753625,-0.3568655,-0.259591,0.971475,-0.5864955,0.39702899999999997,0.953335,-0.5327455,-0.087169,0.00035500000000002196,-0.005414500000000003,0.087169,-0.0003549999999999942,0.005414500000000003,-0.138101,-0.25381499999999996,-0.31953550000000003,0.206369,-0.24917499999999998,-0.2941255,-0.113754,-0.658895,-0.1819925,0.14685900000000002,-0.684615,-0.2088555
167,0.020487,0.770425,-0.226348,-0.13442900000000002,0.548645,-0.208198,-0.231839,0.748115,-0.39717800000000003,0.183141,0.554155,-0.187674,0.329381,0.751355,-0.360148,-0.25983900000000004,0.9693849999999999,-0.591238,0.397451,0.951425,-0.537168,-0.087161,0.0003949999999999787,-0.005512000000000003,0.087161,-0.00039500000000000646,0.005511999999999989,-0.13797900000000002,-0.252515,-0.320988,0.206491,-0.24754500000000002,-0.295518,-0.112584,-0.653925,-0.17922700000000003,0.146861,-0.683025,-0.21022800000000003
168,0.0205505,0.769625,-0.22899999999999998,-0.1342325,0.548225,-0.21034,-0.2318825,0.747175,-0.40060999999999997,0.18276750000000003,0.552905,-0.18981900000000002,0.32919750000000003,0.749105,-0.36368,-0.2601025,0.967705,-0.59557,0.3977075,0.949855,-0.5413600000000001,-0.0870775,0.0004149999999999987,-0.005580000000000002,0.0870775,-0.0004149999999999987,0.005580000000000002,-0.1379825,-0.251065,-0.32227,0.20652749999999997,-0.246135,-0.29684,-0.1116555,-0.648885,-0.176512,0.1467075,-0.681505,-0.21165
169,0.020569000000000004,0.7686249999999999,-0.231335,-0.134077,0.5476449999999999,-0.21226499999999998,-0.231887,0.746405,-0.403865,0.182463,0.552195,-0.191674,0.328913,0.7477149999999999,-0.366365,-0.260297,0.9663249999999999,-0.5995349999999999,0.397853,0.948375,-0.545235,-0.087043,0.0003549999999999942,-0.005574999999999997,0.087043,-0.00035500000000002196,0.005574999999999997,-0.138157,-0.24961500000000003,-0.323455,0.206523,-0.24484500000000003,-0.297935,-0.111539,-0.6465050000000001,-0.17771,0.146743,-0.680215,-0.21307500000000001
170,0.0206005,0.767705,-0.233215,-0.1339075,0.547415,-0.213945,-0.2318275,0.745925,-0.406665,0.1822325,0.551285,-0.193508,0.3286825,0.746435,-0.368755,-0.26031750000000003,0.965175,-0.603155,0.3979325,0.947315,-0.548755,-0.0870425,0.00032499999999999196,-0.005574999999999997,0.0870425,-0.0003250000000000197,0.0055750000000000105,-0.1382575,-0.24815500000000001,-0.324545,0.2065725,-0.243535,-0.298895,-0.11143349999999999,-0.644175,-0.178798,0.1468225,-0.678795,-0.214505
171,0.020626500000000006,0.7671399999999999,-0.23474,-0.1338065,0.54725,-0.21522000000000002,-0.23174650000000002,0.7456100000000001,-0.40882999999999997,0.1820135,0.5508299999999999,-0.194975,0.3284835,0.7455799999999999,-0.37068,-0.26022649999999997,0.96425,-0.60607,0.39790349999999997,0.9460900000000001,-0.55181,-0.0870435,0.0003200000000000147,-0.005589999999999998,0.0870435,-0.00031999999999998696,0.005589999999999998,-0.1384165,-0.24702999999999997,-0.32539,0.2065635,-0.2425,-0.2997,-0.1113535,-0.64218,-0.179662,0.14685350000000003,-0.6777,-0.21562
172,0.020533499999999996,0.76654,-0.23566499999999999,-0.13385550000000002,0.54728,-0.215975,-0.2318055,0.74579,-0.410065,0.1817445,0.55028,-0.196152,0.32829450000000004,0.74486,-0.372015,-0.2602555,0.96417,-0.607695,0.3976945,0.94509,-0.5541149999999999,-0.0870445,0.0002999999999999947,-0.0055650000000000005,0.0870445,-0.0002999999999999947,0.0055650000000000005,-0.1387655,-0.24617,-0.326025,0.2066045,-0.24192000000000002,-0.300265,-0.11146249999999999,-0.64145,-0.180417,0.1467945,-0.67695,-0.216325
173,0.020387999999999996,0.76629,-0.23613,-0.133951,0.54745,-0.21643,-0.231951,0.7462799999999999,-0.41053,0.181549,0.54958,-0.196884,0.328069,0.74448,-0.37249,-0.260401,0.96456,-0.60816,0.397439,0.94481,-0.55528,-0.087059,0.00036999999999998145,-0.005580000000000002,0.087059,-0.0003700000000000092,0.005580000000000002,-0.13909100000000002,-0.24571000000000004,-0.32642,0.206759,-0.24171000000000004,-0.30062,-0.111657,-0.64129,-0.18098,0.146719,-0.67657,-0.21667999999999998
174,0.020303499999999995,0.7663650000000001,-0.236315,-0.1339755,0.547525,-0.216605,-0.2320355,0.746355,-0.41071500000000005,0.18147449999999998,0.548775,-0.19714399999999999,0.3278745,0.7445550000000001,-0.37268500000000004,-0.2604855,0.964635,-0.608345,0.3972345,0.9448850000000001,-0.555475,-0.0870645,0.00044500000000000095,-0.005485000000000004,0.0870645,-0.00044500000000000095,0.00548499999999999,-0.1393855,-0.24563500000000002,-0.326455,0.20700449999999998,-0.242105,-0.300605,-0.11182450000000001,-0.642135,-0.181237,0.14672449999999998,-0.676975,-0.21668500000000002
175,0.020324500000000002,0.7663650000000001,-0.23632,-0.1338905,0.547525,-0.21652,-0.2320505,0.746355,-0.41072000000000003,0.1814595,0.548775,-0.19714900000000002,0.3278595,0.7445550000000001,-0.37269,-0.2602605,0.964635,-0.60832,0.39718950000000003,0.9448850000000001,-0.55548,-0.0870795,0.00044500000000000095,-0.005490000000000009,0.0870795,-0.00044500000000000095,0.005489999999999995,-0.13943049999999999,-0.24563500000000002,-0.32634,0.2073295,-0.242105,-0.30031,-0.1119465,-0.642695,-0.181286,0.1466695,-0.676985,-0.21626
176,0.020437500000000004,0.7663650000000001,-0.2361,-0.1338155,0.547525,-0.21622000000000002,-0.23193550000000002,0.746355,-0.41052,0.1814245,0.548775,-0.19714900000000002,0.3278145,0.7445550000000001,-0.37258,-0.25997549999999997,0.964635,-0.6082700000000001,0.3971245,0.9448850000000001,-0.55549,-0.0871145,0.00044500000000000095,-0.005490000000000009,0.0871145,-0.00044500000000000095,0.005489999999999995,-0.1395055,-0.24563500000000002,-0.32616,0.20759450000000002,-0.242105,-0.30004,-0.1127215,-0.6460349999999999,-0.185276,0.1466345,-0.676985,-0.21626
177,0.0206415,0.76642,-0.23497,-0.1336965,0.54818,-0.21554,-0.23170649999999998,0.74709,-0.40938,0.18150349999999998,0.5487,-0.197131,0.3277235,0.74531,-0.37159,-0.2595765,0.96563,-0.60683,0.3970435,0.9455899999999999,-0.55514,-0.0871135,0.0005199999999999927,-0.005500000000000005,0.0871135,-0.0005200000000000204,0.005500000000000005,-0.1395265,-0.24535,-0.32594999999999996,0.2078835,-0.24218,-0.29956,-0.1135515,-0.64894,-0.18946400000000002,0.1468835,-0.67706,-0.21622
