sb224sc-HT22-VT27/4dt907/src/data/kinect_good_preprocessed_not_cut_A11_mediapipe/A8_kinect.csv
FrameNo,nose_3d_x,nose_3d_y,nose_3d_z,left_shoulder_3d_x,left_shoulder_3d_y,left_shoulder_3d_z,left_elbow_3d_x,left_elbow_3d_y,left_elbow_3d_z,right_shoulder_3d_x,right_shoulder_3d_y,right_shoulder_3d_z,right_elbow_3d_x,right_elbow_3d_y,right_elbow_3d_z,left_wrist_3d_x,left_wrist_3d_y,left_wrist_3d_z,right_wrist_3d_x,right_wrist_3d_y,right_wrist_3d_z,left_hip_3d_x,left_hip_3d_y,left_hip_3d_z,right_hip_3d_x,right_hip_3d_y,right_hip_3d_z,left_knee_3d_x,left_knee_3d_y,left_knee_3d_z,right_knee_3d_x,right_knee_3d_y,right_knee_3d_z,left_ankle_3d_x,left_ankle_3d_y,left_ankle_3d_z,right_ankle_3d_x,right_ankle_3d_y,right_ankle_3d_z
0,0.003973500000000002,0.761965,0.06850200000000001,-0.15020350000000002,0.458455,0.054017,-0.1784135,0.201405,0.060340000000000005,0.1526365,0.458395,0.055922,0.18760649999999998,0.20676499999999998,0.068549,-0.19083350000000002,-0.0002350000000000004,-0.025063999999999996,0.2019265,0.004337,-0.014797999999999999,-0.07205049999999999,0.0019619999999999998,0.0008809999999999998,0.07205049999999999,-0.001962,-0.0008809999999999998,-0.12275349999999999,-0.37909499999999996,-0.015220999999999998,0.1193465,-0.416725,0.012171000000000005,-0.1278435,-0.7407549999999999,-0.013302999999999995,0.1283365,-0.7435849999999999,-0.016285999999999995
1,0.003940000000000004,0.762001,0.0685195,-0.152466,0.457781,0.0561135,-0.179986,0.202211,0.0564495,0.153534,0.458861,0.055329500000000004,0.19162400000000002,0.210751,0.0604485,-0.19672599999999998,-0.033389,-0.044524499999999995,0.202794,0.005287,-0.020657500000000002,-0.072075,0.001963,0.0009154999999999996,0.072075,-0.0019630000000000003,-0.0009154999999999996,-0.122726,-0.37765899999999997,-0.015137499999999998,0.119274,-0.416819,0.0122805,-0.128126,-0.739129,-0.012483500000000002,0.128024,-0.743459,-0.0156725
2,0.003939999999999999,0.7619864999999999,0.068628,-0.15236699999999997,0.4580765,0.055889999999999995,-0.18206699999999998,0.2051865,0.049159999999999995,0.15420299999999998,0.4592565,0.054668999999999995,0.195453,0.2132965,0.054279999999999995,-0.208347,0.0085185,-0.053448999999999997,0.203573,0.005466499999999999,-0.027875000000000004,-0.072069,0.0019895,0.0007360000000000005,0.072069,-0.0019895,-0.0007360000000000005,-0.122737,-0.3776335,-0.015073000000000003,0.119273,-0.4171335,0.012291,-0.128067,-0.7388935000000001,-0.012590999999999998,0.127983,-0.7440235000000001,-0.016553
3,0.003896000000000002,0.761993,0.068636,-0.15229199999999998,0.458403,0.055468,-0.18614199999999997,0.21033300000000002,0.040690000000000004,0.154088,0.459173,0.054988999999999996,0.19934800000000003,0.22321300000000002,0.047101000000000004,-0.214042,0.006996,-0.070134,0.21049800000000002,0.009437,-0.05211,-0.072077,0.0020299999999999997,0.0006320000000000006,0.072077,-0.00203,-0.0006320000000000006,-0.122852,-0.376597,-0.014776999999999998,0.119098,-0.416667,0.012247000000000001,-0.128042,-0.737897,-0.013191000000000001,0.128008,-0.744007,-0.016564999999999996
4,0.003982499999999996,0.7620115,0.068663,-0.15195650000000002,0.45871150000000005,0.05498,-0.1921865,0.21933149999999998,0.029432999999999997,0.15482349999999998,0.45987150000000004,0.054081,0.20473349999999998,0.2314615,0.036557,-0.22139650000000002,0.0095705,-0.10056699999999999,0.22271349999999998,0.042551500000000006,-0.075807,-0.0721765,0.0019355,0.0008139999999999953,0.0721765,-0.0019355000000000002,-0.0008140000000000022,-0.12275649999999999,-0.3762585,-0.014760000000000002,0.1190235,-0.4168385,0.012346999999999997,-0.1272965,-0.7365985,-0.012073,0.1285935,-0.7444885,-0.018599000000000004
5,0.004677999999999999,0.7617740000000001,0.069836,-0.152168,0.45958400000000005,0.055897999999999996,-0.21895799999999999,0.26014400000000004,-0.017666,0.15449200000000002,0.459834,0.053968,0.235432,0.261444,-0.006206000000000003,-0.255608,0.09998599999999999,-0.166165,0.254212,0.09557399999999999,-0.152055,-0.072295,0.001982,0.0008159999999999973,0.072295,-0.001982,-0.0008160000000000042,-0.123328,-0.37429599999999996,-0.013893000000000003,0.117892,-0.41487599999999997,0.012731999999999997,-0.128498,-0.737186,-0.012708000000000004,0.12893200000000002,-0.7458859999999999,-0.020727000000000002
6,0.003998000000000002,0.760865,0.07513800000000001,-0.150618,0.461915,0.054033,-0.26430800000000004,0.322795,-0.081385,0.143382,0.463165,0.049869000000000004,0.27399199999999996,0.318235,-0.061450000000000005,-0.28144800000000003,0.23837499999999998,-0.28691500000000003,0.281962,0.26310500000000003,-0.277495,-0.07275699999999999,0.0017209999999999999,0.00026900000000000535,0.07275699999999999,-0.0017210000000000003,-0.0002689999999999984,-0.12393799999999999,-0.36578499999999997,-0.010745999999999999,0.11638200000000001,-0.41107499999999997,0.013192000000000002,-0.129218,-0.7352350000000001,-0.011313999999999998,0.12829200000000002,-0.746615,-0.022452
7,0.003237000000000003,0.7597975,0.07532150000000001,-0.149962,0.4625075,0.05340450000000001,-0.249122,0.3262275,-0.06336549999999999,0.145318,0.4633775,0.0502365,0.256658,0.3264875,-0.055848499999999995,-0.281232,0.2444675,-0.2532265,0.28251800000000005,0.2518175,-0.2438265,-0.07278899999999999,0.0017825,0.0010185000000000055,0.07278899999999999,-0.0017825,-0.0010184999999999986,-0.12373200000000001,-0.3685025,-0.012331499999999995,0.11638799999999999,-0.4111025,0.012391500000000003,-0.129272,-0.7382825,-0.012466499999999998,0.128158,-0.7459724999999999,-0.020753499999999994
8,0.0029355000000000023,0.7591420000000001,0.0766775,-0.14971649999999997,0.463222,0.0529085,-0.2610765,0.353922,-0.07976849999999999,0.14419350000000003,0.464632,0.04957349999999999,0.2671135,0.353652,-0.07406850000000001,-0.29429649999999996,0.300112,-0.2837285,0.2951935,0.309062,-0.2771885,-0.0729355,0.001732,0.0011724999999999965,0.0729355,-0.001732,-0.0011725,-0.1239665,-0.367218,-0.012028500000000004,0.1158035,-0.410398,0.012242499999999996,-0.1295265,-0.738628,-0.0125785,0.1280235,-0.7465379999999999,-0.021227500000000003
9,0.002613500000000002,0.7583810000000001,0.077762,-0.1494045,0.464061,0.052077,-0.2726745,0.38354099999999997,-0.09535000000000002,0.14357550000000002,0.465811,0.048653,0.2769455,0.38226099999999996,-0.09056,-0.3067045,0.361711,-0.30662,0.3056555,0.368291,-0.3043,-0.0730925,0.001671,0.001290000000000003,0.0730925,-0.001671,-0.0012899999999999995,-0.12413450000000001,-0.366089,-0.011748999999999996,0.11534549999999999,-0.409879,0.012079000000000003,-0.1296645,-0.7391989999999999,-0.012577999999999999,0.12791550000000002,-0.7472989999999999,-0.021709
10,0.002275499999999999,0.7574150000000001,0.0786995,-0.1491865,0.464625,0.0512185,-0.2816465,0.411795,-0.10490649999999999,0.1431035,0.46726500000000004,0.0477865,0.28233349999999996,0.41081500000000004,-0.10076650000000001,-0.3153265,0.41907500000000003,-0.3219565,0.3121835,0.427785,-0.3207965,-0.07327049999999999,0.001548,0.0013775000000000037,0.07327049999999999,-0.001548,-0.0013774999999999968,-0.1243165,-0.365325,-0.011554499999999995,0.1149935,-0.40974499999999997,0.011890500000000005,-0.1298365,-0.739905,-0.0125715,0.1277735,-0.748265,-0.021794499999999994
11,0.0019710000000000005,0.756073,0.079022,-0.14917999999999998,0.464913,0.050431000000000004,-0.28536,0.435353,-0.10687200000000001,0.14299,0.468393,0.047161,0.28503,0.435703,-0.10532200000000001,-0.32083,0.46553300000000003,-0.322702,0.31555,0.474003,-0.322502,-0.073408,0.0014590000000000002,0.0014890000000000007,0.073408,-0.001459,-0.0014890000000000007,-0.12445999999999999,-0.365897,-0.011698999999999998,0.11479,-0.410377,0.011672000000000002,-0.12994999999999998,-0.7408370000000001,-0.012016000000000002,0.12766,-0.7495670000000001,-0.021673
12,0.001507500000000001,0.754338,0.0790875,-0.1492745,0.465288,0.0495425,-0.2873145,0.461648,-0.10735049999999999,0.14287550000000002,0.469318,0.046731499999999995,0.2868055,0.464018,-0.10838049999999999,-0.3250845,0.5145679999999999,-0.32334050000000003,0.3172355,0.524758,-0.3227405,-0.07346849999999999,0.0014320000000000001,0.0016105000000000008,0.07346849999999999,-0.0014319999999999997,-0.0016105000000000008,-0.12452450000000001,-0.367122,-0.011796500000000001,0.11462549999999999,-0.411832,0.011529499999999998,-0.13007449999999998,-0.7424820000000001,-0.011500500000000004,0.1275155,-0.7512120000000001,-0.021288500000000002
13,0.0010125000000000012,0.7525514999999999,0.078953,-0.1493665,0.4655715,0.048727,-0.2882365,0.4868715,-0.10766400000000001,0.14274350000000002,0.4706415,0.046467999999999995,0.2879235,0.4914115,-0.108564,-0.3266865,0.5653714999999999,-0.323694,0.3171035,0.5743415,-0.323004,-0.0734775,0.0013694999999999992,0.0016669999999999983,0.0734775,-0.0013695,-0.0016670000000000018,-0.1244965,-0.3686485,-0.011833999999999997,0.1144735,-0.4135185,0.011432999999999999,-0.1300365,-0.7441485,-0.010917000000000003,0.12742350000000002,-0.7527585,-0.020561999999999997
14,0.0005535000000000019,0.750699,0.0787445,-0.1494505,0.46590899999999996,0.0479705,-0.2883705,0.513049,-0.10785050000000002,0.1436195,0.47240899999999997,0.046436500000000006,0.2877995,0.5182289999999999,-0.1087505,-0.3275205,0.609459,-0.32393049999999995,0.31697949999999997,0.623329,-0.3231905,-0.0734245,0.0012860000000000007,0.0016735000000000014,0.0734245,-0.0012860000000000007,-0.0016735000000000014,-0.1244605,-0.37035100000000004,-0.011842499999999999,0.1143495,-0.415441,0.011369500000000001,-0.1299405,-0.746331,-0.010290500000000001,0.1273895,-0.754451,-0.0196645
15,8.500000000000044e-05,0.748537,0.078634,-0.149883,0.46686700000000003,0.047392,-0.288593,0.538457,-0.106237,0.14476699999999998,0.473957,0.046672,0.287537,0.545987,-0.108847,-0.327943,0.656427,-0.319207,0.316657,0.6722269999999999,-0.32006700000000005,-0.073302,0.0011370000000000009,0.0016029999999999968,0.073302,-0.0011369999999999991,-0.0016030000000000003,-0.124433,-0.372673,-0.011767,0.114237,-0.41767299999999996,0.011393999999999998,-0.12978299999999998,-0.748823,-0.009571000000000003,0.12738700000000003,-0.756583,-0.018658
16,-0.0004220000000000018,0.7462359999999999,0.078537,-0.150536,0.468156,0.046904,-0.289036,0.5639759999999999,-0.10132799999999999,0.146044,0.475416,0.047017,0.287274,0.5724959999999999,-0.106728,-0.32891600000000004,0.7024959999999999,-0.306338,0.314764,0.719146,-0.307858,-0.073181,0.0010249999999999981,0.0015470000000000032,0.073181,-0.0010250000000000016,-0.0015469999999999998,-0.124406,-0.375294,-0.011718,0.114174,-0.420074,0.011428000000000004,-0.129596,-0.751344,-0.008801999999999997,0.12742399999999998,-0.758934,-0.017772999999999997
17,-0.0009270000000000046,0.7440335,0.0783345,-0.15133300000000002,0.4695935,0.0465255,-0.289333,0.5873235,-0.09593049999999999,0.147247,0.47661349999999997,0.047323500000000004,0.286487,0.5965635,-0.09981050000000001,-0.329843,0.7451835,-0.2940005,0.31262700000000004,0.7617835,-0.2925105,-0.07306499999999999,0.0009375000000000008,0.0014894999999999978,0.07306499999999999,-0.0009375000000000008,-0.0014894999999999978,-0.124383,-0.3779865,-0.0117055,0.11413699999999999,-0.4225065,0.0114475,-0.129343,-0.7537965,-0.0081525,0.12747699999999998,-0.7613365,-0.017057500000000003
18,-0.0013864999999999988,0.741915,0.077983,-0.1521945,0.47103500000000004,0.046305,-0.2891145,0.608485,-0.08927600000000001,0.1483855,0.47809500000000005,0.047785999999999995,0.2848355,0.618495,-0.092796,-0.3304345,0.784555,-0.278356,0.3104755,0.799085,-0.27618600000000004,-0.07296050000000001,0.0008649999999999977,0.0014449999999999984,0.07296050000000001,-0.0008650000000000012,-0.0014449999999999984,-0.1243445,-0.380785,-0.011671999999999998,0.11412549999999999,-0.424975,0.01148,-0.1291145,-0.756285,-0.0075299999999999985,0.12757549999999998,-0.7637849999999999,-0.016312999999999998
19,-0.0018114999999999976,0.740007,0.0775065,-0.1530185,0.47281699999999993,0.046216499999999994,-0.2881285,0.627987,-0.0824095,0.1494015,0.479557,0.0484905,0.2819315,0.637837,-0.08500950000000002,-0.3308385,0.819097,-0.2618395,0.3078415,0.830587,-0.2585095,-0.0728885,0.0008660000000000022,0.001348499999999999,0.0728885,-0.0008659999999999987,-0.0013485000000000025,-0.12427849999999999,-0.38361300000000004,-0.011577500000000004,0.11418149999999999,-0.427383,0.011547499999999999,-0.1288785,-0.758613,-0.006830500000000003,0.1277615,-0.766163,-0.0162575
20,-0.002116,0.73841,0.076853,-0.153783,0.47489000000000003,0.046249,-0.286413,0.64538,-0.075354,0.150277,0.48092999999999997,0.049204,0.27969700000000003,0.65579,-0.076344,-0.329893,0.84974,-0.244074,0.304747,0.85792,-0.237674,-0.072801,0.0008519999999999986,0.0012220000000000009,0.072801,-0.0008520000000000021,-0.0012220000000000009,-0.12412300000000001,-0.38651,-0.011425999999999999,0.114317,-0.42956,0.011654000000000001,-0.12864299999999998,-0.76104,-0.006602000000000004,0.12795700000000002,-0.76838,-0.016161000000000002
21,-0.002204000000000001,0.737131,0.076417,-0.154331,0.476821,0.046301999999999996,-0.283901,0.658631,-0.067584,0.15040900000000001,0.482361,0.049913,0.276599,0.669001,-0.067519,-0.328631,0.874061,-0.227779,0.302299,0.8796809999999999,-0.218169,-0.07270599999999999,0.0007650000000000018,0.0011259999999999985,0.07270599999999999,-0.0007649999999999949,-0.001126000000000002,-0.12401100000000001,-0.388379,-0.011284000000000002,0.11441899999999999,-0.43127899999999997,0.011806999999999998,-0.128441,-0.762779,-0.006344000000000002,0.128219,-0.770239,-0.016054000000000006
22,-0.0022425000000000014,0.736123,0.075911,-0.1547635,0.478773,0.046369,-0.28152350000000004,0.670343,-0.059606,0.1504965,0.483263,0.050499,0.2733065,0.680033,-0.058671999999999995,-0.32706349999999995,0.893803,-0.210343,0.30005649999999995,0.899943,-0.199513,-0.0725765,0.0007309999999999955,0.0010289999999999987,0.0725765,-0.0007310000000000025,-0.0010289999999999987,-0.12388350000000001,-0.39033700000000005,-0.011146999999999997,0.1145665,-0.43278700000000003,0.011949000000000001,-0.1282135,-0.764447,-0.0061179999999999984,0.1284665,-0.7720469999999999,-0.015959
23,-0.0022524999999999954,0.735361,0.07533899999999999,-0.15509250000000002,0.48087100000000005,0.046428,-0.2786725,0.681221,-0.050466,0.1506075,0.48365100000000005,0.050943,0.2700075,0.6904710000000001,-0.048538,-0.3248025,0.911781,-0.187654,0.29745750000000004,0.915231,-0.17625400000000002,-0.0724345,0.0007160000000000014,0.0009580000000000005,0.0724345,-0.0007159999999999944,-0.0009580000000000005,-0.1237325,-0.392189,-0.010998,0.11472750000000001,-0.434199,0.012090999999999998,-0.1279825,-0.765979,-0.0061200000000000004,0.12871749999999998,-0.773779,-0.016007
24,-0.0022920000000000006,0.7350300000000001,0.074476,-0.155053,0.48269999999999996,0.046674999999999994,-0.277033,0.68859,-0.042045000000000006,0.15068700000000002,0.48410000000000003,0.051558999999999994,0.26682700000000004,0.6970000000000001,-0.037239,-0.322563,0.92276,-0.167156,0.29518700000000003,0.92537,-0.15423599999999998,-0.072337,0.0007730000000000029,0.0009249999999999987,0.072337,-0.0007729999999999959,-0.0009250000000000022,-0.123583,-0.39407,-0.010852,0.114937,-0.4351,0.012145999999999997,-0.127803,-0.7679199999999999,-0.006214999999999998,0.12905699999999998,-0.7754399999999999,-0.016294000000000003
25,-0.0022389999999999966,0.7349825,0.073584,-0.154923,0.48450250000000006,0.047106999999999996,-0.275773,0.6942025000000001,-0.034676,0.150637,0.4843425,0.051985,0.264027,0.7002825,-0.026578,-0.320143,0.9294125,-0.14926899999999999,0.293337,0.9318325000000001,-0.133819,-0.072274,0.0008174999999999988,0.0009160000000000001,0.072274,-0.0008174999999999988,-0.0009160000000000001,-0.123413,-0.3956075,-0.010706000000000004,0.115207,-0.4357175,0.012149999999999998,-0.127623,-0.7694774999999999,-0.0062980000000000015,0.129197,-0.7770575,-0.016145000000000003
26,-0.0020705,0.734972,0.072732,-0.15473749999999997,0.48630199999999996,0.047619999999999996,-0.2742075,0.6987819999999999,-0.027531999999999997,0.15042250000000001,0.484562,0.052386,0.2626525,0.7029219999999999,-0.018939,-0.3176175,0.934882,-0.132245,0.29185249999999996,0.9367519999999999,-0.117255,-0.0722535,0.0008499999999999966,0.0008969999999999985,0.0722535,-0.0008500000000000035,-0.0008969999999999985,-0.1231675,-0.397038,-0.010539000000000003,0.1155525,-0.436288,0.012152,-0.1273875,-0.771028,-0.006355000000000003,0.12941249999999999,-0.778528,-0.015933
27,-0.0018780000000000012,0.735013,0.0718975,-0.154536,0.488143,0.048271499999999995,-0.27256600000000003,0.702723,-0.0206485,0.150214,0.484483,0.052615499999999996,0.261334,0.705243,-0.011291500000000003,-0.315266,0.937513,-0.1162005,0.290494,0.941843,-0.10150050000000001,-0.072238,0.0008859999999999979,0.0008564999999999996,0.072238,-0.0008859999999999979,-0.0008565000000000031,-0.12290599999999999,-0.398307,-0.0103235,0.115924,-0.436707,0.012150499999999998,-0.127126,-0.772397,-0.0064115000000000005,0.129604,-0.779807,-0.015962500000000004
28,-0.001598499999999998,0.7348945,0.071059,-0.1541405,0.4900645,0.049086,-0.2707005,0.7052545,-0.013485999999999998,0.1500395,0.48407449999999996,0.052627999999999994,0.2601195,0.7066844999999999,-0.0035150000000000042,-0.31284049999999997,0.9396845,-0.099993,0.2897595,0.9468044999999999,-0.08563300000000001,-0.0722145,0.0009224999999999997,0.0008069999999999987,0.0722145,-0.0009224999999999997,-0.0008070000000000022,-0.1225805,-0.3993955,-0.010097000000000002,0.1163695,-0.4371455,0.012150999999999999,-0.12680049999999998,-0.7738155,-0.006447000000000001,0.1298495,-0.7811955,-0.016170000000000004
29,-0.0013275000000000014,0.7347680000000001,0.07032150000000001,-0.1536885,0.491678,0.049827500000000004,-0.2688285,0.7076380000000001,-0.006565499999999995,0.14990150000000002,0.48368799999999995,0.0526225,0.2589415,0.706868,0.003801500000000003,-0.3106685,0.9414680000000001,-0.0851025,0.2885115,0.9510080000000001,-0.0706125,-0.0722025,0.0009689999999999976,0.0007795000000000024,0.0722025,-0.0009689999999999976,-0.0007794999999999989,-0.1222585,-0.400292,-0.009882499999999995,0.1168115,-0.437342,0.012139500000000001,-0.12644850000000002,-0.7752319999999999,-0.0063765,0.1301115,-0.782422,-0.0164365
30,-0.0010479999999999995,0.7347334999999999,0.07022,-0.153209,0.4932135,0.050635,-0.26700900000000005,0.7096735000000001,-0.0004380000000000009,0.149771,0.4835835,0.052655999999999994,0.258551,0.7083035,0.010828999999999998,-0.308539,0.9441735,-0.07125400000000001,0.28749100000000005,0.9553135000000001,-0.056504000000000006,-0.072213,0.0010685,0.000782999999999999,0.072213,-0.0010685,-0.0007830000000000024,-0.121999,-0.4004365,-0.009644,0.117211,-0.4374865,0.012079999999999997,-0.126189,-0.7753764999999999,-0.006527999999999999,0.130521,-0.7825664999999999,-0.016997000000000005
31,-0.0007979999999999991,0.7346735,0.0700595,-0.152799,0.4947235,0.051514500000000005,-0.265239,0.7114735,0.0052905,0.149731,0.4835735,0.0526485,0.258371,0.7097635,0.0171165,-0.306589,0.9470434999999999,-0.05815150000000001,0.286621,0.9586334999999999,-0.0428125,-0.072219,0.0011365000000000056,0.0008155000000000003,0.072219,-0.0011364999999999986,-0.0008155000000000003,-0.121749,-0.40051649999999994,-0.009457499999999997,0.117591,-0.43756649999999997,0.0119725,-0.12600899999999998,-0.7754565,-0.0067975000000000015,0.130861,-0.7826465,-0.0175565
32,-0.0005880000000000042,0.734759,0.069852,-0.152479,0.495979,0.052342,-0.263799,0.7119690000000001,0.009592,0.149701,0.48359899999999995,0.052689,0.25826099999999996,0.7104290000000001,0.021798,-0.305529,0.9495490000000001,-0.051025,0.286231,0.9610990000000001,-0.034093,-0.07222200000000001,0.0011489999999999972,0.000902,0.07222200000000001,-0.0011490000000000042,-0.000902,-0.12151900000000002,-0.400781,-0.009377,0.11793100000000001,-0.437601,0.011824000000000001,-0.125879,-0.775731,-0.007063999999999997,0.131121,-0.7827409999999999,-0.017988
33,-0.0003809999999999984,0.7347945,0.069445,-0.152089,0.49648450000000005,0.053622,-0.262339,0.7119545,0.013807000000000002,0.14982099999999998,0.4836445,0.053059,0.258101,0.7120344999999999,0.026742000000000002,-0.304299,0.9519745,-0.042821,0.285831,0.9634745,-0.025577999999999997,-0.07222200000000001,0.0011545000000000027,0.0010710000000000025,0.07222200000000001,-0.0011544999999999958,-0.001070999999999999,-0.121309,-0.4012655,-0.009641999999999998,0.118171,-0.4379555,0.011392000000000003,-0.125789,-0.7775955000000001,-0.007788999999999997,0.13134099999999999,-0.7840855,-0.018701999999999996
34,-0.00019200000000000196,0.7348315,0.0691195,-0.151726,0.49661150000000004,0.0547525,-0.261016,0.7119314999999999,0.017606500000000004,0.149744,0.4836215,0.0533445,0.258024,0.7141915,0.0311505,-0.303236,0.9538515,-0.035268499999999994,0.285394,0.9656515,-0.0172775,-0.07220499999999999,0.0011514999999999997,0.001247500000000002,0.07220499999999999,-0.0011514999999999997,-0.0012474999999999986,-0.121136,-0.4017785,-0.009937499999999995,0.118364,-0.43850849999999997,0.010963500000000001,-0.125756,-0.7791585000000001,-0.0084995,0.131564,-0.7855485000000001,-0.0193985
35,-6.699999999999924e-05,0.7347815,0.0689505,-0.15136699999999997,0.4967215,0.0558775,-0.259867,0.7119314999999999,0.021358500000000002,0.14959299999999998,0.4835915,0.0536295,0.258033,0.7165815,0.0351765,-0.302257,0.9563515,-0.0282515,0.284813,0.9659515000000001,-0.009308499999999997,-0.07219,0.001183500000000004,0.0014755000000000011,0.07219,-0.001183499999999997,-0.0014754999999999976,-0.121047,-0.4020685,-0.010152500000000002,0.118483,-0.43900849999999997,0.010596500000000002,-0.125687,-0.7810185000000001,-0.009231499999999997,0.13155299999999998,-0.7869085,-0.0193935
36,8.149999999999661e-05,0.734665,0.0690825,-0.1510525,0.49724499999999994,0.0568675,-0.2588125,0.712255,0.024845500000000003,0.1494375,0.48353499999999994,0.0540425,0.2582775,0.719495,0.0387985,-0.3012725,0.9589749999999999,-0.021830499999999996,0.2842175,0.968275,-0.0019784999999999976,-0.07218150000000001,0.001235,0.001685500000000003,0.07218150000000001,-0.001235,-0.0016854999999999995,-0.12100250000000001,-0.402315,-0.010382499999999996,0.1185475,-0.43967500000000004,0.0102725,-0.1257925,-0.782425,-0.009910499999999996,0.1313375,-0.7880550000000001,-0.019263499999999996
37,0.0001844999999999977,0.734618,0.0693565,-0.1507575,0.497878,0.057778499999999997,-0.25793750000000004,0.712508,0.0277355,0.1492925,0.483608,0.0544905,0.25855249999999996,0.7225480000000001,0.041633500000000004,-0.3003175,0.960918,-0.016552499999999998,0.28369249999999996,0.9702180000000001,0.004066500000000001,-0.0721935,0.0012600000000000042,0.0018694999999999996,0.0721935,-0.0012599999999999972,-0.0018694999999999996,-0.12097750000000002,-0.402552,-0.010563499999999997,0.11859249999999999,-0.440342,0.010037500000000001,-0.1259475,-0.7833819999999999,-0.0104975,0.1313125,-0.789102,-0.019221500000000002
38,0.0002679999999999984,0.7346079999999999,0.069692,-0.150473,0.49843799999999994,0.058686,-0.257093,0.7126979999999999,0.030507000000000003,0.14921700000000002,0.483768,0.054935,0.258857,0.725918,0.044268,-0.299313,0.963368,-0.011005000000000001,0.283227,0.971868,0.009593,-0.07220499999999999,0.0012910000000000005,0.002035000000000002,0.07220499999999999,-0.0012910000000000005,-0.0020349999999999986,-0.120943,-0.40269200000000005,-0.010736999999999997,0.118647,-0.44087200000000004,0.009834000000000002,-0.126163,-0.784302,-0.011360999999999996,0.13128700000000001,-0.790142,-0.018997
39,0.0003290000000000015,0.7346655,0.070121,-0.15021299999999999,0.4988355,0.059528,-0.256273,0.7127855,0.033191,0.14914699999999997,0.48391550000000005,0.055272,0.259267,0.7294455,0.046619999999999995,-0.29845299999999997,0.9656355000000001,-0.005842,0.282727,0.9732354999999999,0.014622,-0.072213,0.001308500000000004,0.0021909999999999985,0.072213,-0.0013084999999999972,-0.0021909999999999985,-0.120923,-0.4026145,-0.010897999999999998,0.118727,-0.4412945,0.009641,-0.12638300000000002,-0.7851145,-0.012191,0.131247,-0.7909845,-0.018882999999999997
40,0.0002794999999999984,0.734835,0.070635,-0.1500185,0.49896500000000005,0.06027,-0.2565185,0.713885,0.03573,0.14908149999999998,0.48408500000000004,0.055616,0.25976150000000003,0.7331449999999999,0.048658,-0.2977685,0.9680549999999999,-0.0011929999999999996,0.2823115,0.974755,0.018822,-0.0722035,0.0012930000000000025,0.002326999999999999,0.0722035,-0.0012930000000000025,-0.0023270000000000027,-0.12094850000000001,-0.402655,-0.011025,0.1187415,-0.441665,0.009472999999999999,-0.12644850000000002,-0.785915,-0.012908000000000003,0.13138149999999998,-0.7914450000000001,-0.019482
41,0.00019249999999999964,0.7350530000000001,0.071228,-0.14984750000000002,0.499123,0.061022,-0.2559275,0.713923,0.038195,0.14899249999999997,0.48427300000000006,0.055899000000000004,0.2603025,0.736723,0.050438,-0.2972075,0.970353,0.003115000000000003,0.2819225,0.976253,0.022569000000000002,-0.0721855,0.0012720000000000023,0.0024240000000000025,0.0721855,-0.0012720000000000023,-0.002423999999999999,-0.1209975,-0.402657,-0.011106999999999999,0.1187325,-0.442167,0.009356000000000003,-0.1265575,-0.786507,-0.013548999999999999,0.1314725,-0.791907,-0.019971999999999997
42,0.00011649999999999996,0.7350530000000001,0.071223,-0.1497535,0.499123,0.061028,-0.2553235,0.714033,0.039373,0.14894649999999998,0.48427300000000006,0.055896,0.26022649999999997,0.7367630000000001,0.050433,-0.2968635,0.9717530000000001,0.005541000000000001,0.2817165,0.976653,0.02343,-0.07217950000000001,0.0012720000000000023,0.002423999999999999,0.07217950000000001,-0.0012720000000000023,-0.002423999999999999,-0.1210235,-0.402657,-0.011102999999999998,0.1187365,-0.442167,0.009357,-0.1266535,-0.786507,-0.013732999999999999,0.13151649999999998,-0.791907,-0.019968999999999997
43,3.849999999999828e-05,0.7350530000000001,0.0712845,-0.1497115,0.499123,0.0610985,-0.2550915,0.714043,0.0405835,0.1488685,0.48427300000000006,0.055958499999999994,0.2601485,0.7367630000000001,0.0504975,-0.2965715,0.9733529999999999,0.0078615,0.28155850000000004,0.976853,0.0241245,-0.0721835,0.0012720000000000023,0.0024904999999999997,0.0721835,-0.0012720000000000023,-0.0024904999999999997,-0.1210415,-0.402657,-0.011038500000000003,0.1187585,-0.442167,0.0094255,-0.1267315,-0.786507,-0.0136715,0.1315785,-0.791907,-0.019816499999999997
44,-2.1999999999999776e-05,0.7350530000000001,0.071362,-0.149732,0.499123,0.061177999999999996,-0.254932,0.714043,0.041696,0.148788,0.48427300000000006,0.056034,0.260088,0.737943,0.050575,-0.296412,0.974653,0.009935,0.281418,0.976853,0.024523,-0.07219400000000001,0.0012720000000000023,0.0025710000000000004,0.07219400000000001,-0.0012720000000000023,-0.0025710000000000004,-0.121032,-0.402657,-0.010955999999999997,0.118808,-0.442167,0.009510000000000001,-0.126792,-0.786507,-0.013593999999999998,0.131578,-0.791907,-0.019618
45,-0.00010750000000000007,0.7351235,0.0712565,-0.1497955,0.49919349999999996,0.0614515,-0.2548955,0.7139235,0.0430715,0.1486645,0.48419349999999994,0.0558155,0.2596345,0.7366235,0.0510535,-0.29639550000000003,0.9760334999999999,0.012154499999999999,0.2811445,0.9772335,0.025126499999999996,-0.0721975,0.0012295000000000014,0.0026514999999999976,0.0721975,-0.0012294999999999945,-0.002651500000000001,-0.1210155,-0.4030365,-0.010489499999999999,0.11884449999999999,-0.4422665,0.0099695,-0.12686550000000002,-0.7867965,-0.0130995,0.13143449999999998,-0.7920365,-0.0185745
46,-0.0002020000000000022,0.735178,0.0711585,-0.149874,0.499218,0.061728500000000006,-0.25485399999999997,0.713828,0.0443385,0.14857599999999999,0.48410800000000004,0.0556395,0.258946,0.735248,0.0514675,-0.296464,0.977418,0.0143065,0.280906,0.977618,0.0257015,-0.072201,0.0011919999999999986,0.0027335,0.072201,-0.0011919999999999986,-0.0027335,-0.12098400000000001,-0.40343199999999996,-0.010023500000000001,0.11888599999999999,-0.442362,0.0104075,-0.12692399999999998,-0.786972,-0.0126035,0.13130599999999998,-0.792042,-0.0175515
47,-0.00031899999999999886,0.735216,0.071025,-0.14993,0.499256,0.061988999999999995,-0.25495,0.7138059999999999,0.045029,0.1485,0.484056,0.055448,0.25813,0.7332759999999999,0.051781999999999995,-0.2966,0.978236,0.015648,0.28082,0.978036,0.026255,-0.072208,0.0011670000000000014,0.0027679999999999996,0.072208,-0.0011670000000000014,-0.0027679999999999996,-0.12095,-0.403814,-0.009624,0.11891,-0.442484,0.010799999999999997,-0.12692,-0.7869940000000001,-0.012077000000000004,0.13113,-0.792114,-0.016767999999999998
48,-0.0004445000000000009,0.735237,0.07086300000000001,-0.1499975,0.499297,0.062354,-0.2550475,0.713777,0.045885,0.1484625,0.48398699999999995,0.055292,0.2572725,0.731127,0.052057000000000006,-0.29671749999999997,0.979147,0.016775,0.2807425,0.9782469999999999,0.026805000000000002,-0.0722115,0.0011430000000000051,0.0028100000000000035,0.0722115,-0.0011429999999999982,-0.00281,-0.1209075,-0.40418299999999996,-0.009264999999999995,0.1189125,-0.44270299999999996,0.011151000000000001,-0.1268875,-0.786903,-0.011564999999999999,0.1310825,-0.792133,-0.016125999999999995
49,-0.0005559999999999997,0.7352135000000001,0.0706505,-0.15005800000000002,0.49932350000000003,0.0625975,-0.25517799999999996,0.7142135000000001,0.046439499999999995,0.148472,0.48395350000000004,0.0552025,0.25642200000000004,0.7288335,0.0522435,-0.29680799999999996,0.9798535,0.0177095,0.280662,0.9784535,0.0275555,-0.072214,0.0011214999999999975,0.0028604999999999985,0.072214,-0.0011214999999999975,-0.002860500000000002,-0.120858,-0.4045565,-0.008988500000000003,0.118922,-0.44293649999999996,0.011418499999999998,-0.12680799999999998,-0.7873165,-0.011312500000000003,0.131042,-0.7920865,-0.0157095
50,-0.0006864999999999996,0.735174,0.0704675,-0.15017950000000002,0.499374,0.06277150000000001,-0.2552495,0.7143039999999999,0.0469845,0.1484705,0.483924,0.0552055,0.2555405,0.726254,0.052346500000000004,-0.2969795,0.980564,0.018439499999999998,0.28059049999999996,0.978564,0.0281265,-0.0722155,0.0011000000000000038,0.002909499999999999,0.0722155,-0.0010999999999999968,-0.0029095000000000024,-0.1208295,-0.40491600000000005,-0.008812500000000001,0.1189605,-0.44321599999999994,0.011605499999999998,-0.12664950000000003,-0.787506,-0.010749500000000002,0.13111050000000002,-0.791976,-0.015836500000000003
51,-0.0008204999999999991,0.7351125,0.070284,-0.1504075,0.4994425,0.062875,-0.2553475,0.7143324999999999,0.047417,0.1484625,0.48389249999999995,0.055210999999999996,0.2546625,0.7235325,0.052433999999999995,-0.2972075,0.9810725,0.019018,0.2806625,0.9787725,0.028356,-0.0722025,0.001073499999999998,0.0029159999999999985,0.0722025,-0.001073499999999998,-0.0029159999999999985,-0.1207975,-0.40523750000000003,-0.008723000000000005,0.1190125,-0.44350750000000005,0.011730999999999998,-0.1264575,-0.7874575,-0.010109000000000003,0.1311625,-0.7918475,-0.016026000000000002
52,-0.0009825000000000046,0.735018,0.070141,-0.15067850000000002,0.499468,0.062977,-0.25544849999999997,0.714088,0.04793,0.14842149999999998,0.48381799999999997,0.055209,0.2537315,0.720588,0.052662,-0.2975485,0.9813580000000001,0.019523,0.2808415,0.9791580000000001,0.02851,-0.0721935,0.0010730000000000045,0.0029169999999999995,0.0721935,-0.0010729999999999976,-0.0029169999999999995,-0.1207985,-0.405582,-0.00862,0.1190415,-0.44384199999999996,0.011874000000000003,-0.1264685,-0.787672,-0.009458999999999999,0.1311715,-0.791842,-0.015991999999999996
53,-0.0012325000000000016,0.734925,0.070065,-0.1510205,0.49951500000000004,0.063124,-0.2556005,0.712765,0.048402,0.14839950000000002,0.48372499999999996,0.055207,0.2527395,0.717585,0.053065,-0.2979405,0.9816349999999999,0.019969,0.2810095,0.9796349999999999,0.028884,-0.0721785,0.0010649999999999965,0.0029180000000000005,0.0721785,-0.0010650000000000034,-0.0029180000000000005,-0.1208505,-0.405945,-0.008527999999999997,0.1190195,-0.444455,0.012041,-0.1265005,-0.788115,-0.009092,0.1310895,-0.791865,-0.016002
54,-0.0015490000000000015,0.73489,0.07001750000000001,-0.151393,0.49950999999999995,0.0633425,-0.255783,0.7126699999999999,0.0488045,0.148427,0.48368000000000005,0.0553105,0.252287,0.7159599999999999,0.0536965,-0.298393,0.98184,0.020464500000000004,0.281167,0.98024,0.0293675,-0.07219400000000001,0.0010550000000000004,0.0029435000000000017,0.07219400000000001,-0.0010550000000000004,-0.0029435000000000017,-0.120923,-0.40591,-0.008514500000000001,0.11898700000000001,-0.44447,0.012176500000000003,-0.126533,-0.78819,-0.009085499999999996,0.130997,-0.7918700000000001,-0.016011499999999998
55,-0.001970500000000002,0.7348169999999999,0.06980549999999999,-0.1518165,0.49949699999999997,0.0633955,-0.2558665,0.711997,0.0490755,0.1484035,0.48364699999999994,0.0554335,0.2519635,0.714997,0.05425050000000001,-0.2989265,0.982137,0.020726500000000002,0.2812735,0.980837,0.029781500000000002,-0.0721965,0.0010509999999999964,0.0029145000000000004,0.0721965,-0.0010510000000000033,-0.0029145000000000004,-0.1210865,-0.405883,-0.008663499999999998,0.1189035,-0.444573,0.012092500000000003,-0.1266465,-0.788293,-0.009277500000000001,0.1307535,-0.7918930000000001,-0.016212499999999998
56,-0.002441000000000002,0.7348169999999999,0.0694775,-0.152311,0.49949699999999997,0.0634135,-0.256151,0.711997,0.0487605,0.148409,0.48364699999999994,0.0556985,0.251569,0.7145469999999999,0.054849499999999995,-0.299481,0.982137,0.0207695,0.28123899999999996,0.9813369999999999,0.0303335,-0.07220299999999999,0.0010509999999999964,0.0028814999999999986,0.07220299999999999,-0.0010510000000000033,-0.002881500000000002,-0.121281,-0.405883,-0.008968500000000004,0.11881900000000001,-0.444573,0.011806499999999998,-0.12679100000000001,-0.788293,-0.009583500000000002,0.130469,-0.7918930000000001,-0.0165275
57,-0.002989000000000002,0.734757,0.0693875,-0.15284,0.49949699999999997,0.0635555,-0.25651999999999997,0.711857,0.0486955,0.14842999999999998,0.48359699999999994,0.0564775,0.25129,0.714117,0.0553765,-0.30005,0.982137,0.020858500000000002,0.28112000000000004,0.9817370000000001,0.0313465,-0.072219,0.0010509999999999964,0.0028695000000000005,0.072219,-0.0010510000000000033,-0.002869499999999997,-0.12149000000000001,-0.406013,-0.009542499999999995,0.11871999999999999,-0.444973,0.0112545,-0.12694,-0.788293,-0.010138499999999995,0.13008,-0.791973,-0.017022499999999996
58,-0.0035575000000000016,0.7346795,0.0692295,-0.1533495,0.4994995,0.0635935,-0.25691949999999997,0.7117095,0.048530500000000004,0.1484805,0.48355950000000003,0.0572335,0.25100049999999996,0.7137995,0.0557845,-0.3006295,0.9821395,0.0208505,0.28098049999999997,0.9821395,0.0322305,-0.0722315,0.0010524999999999979,0.0029225000000000015,0.0722315,-0.0010525000000000048,-0.002922499999999998,-0.1217095,-0.4061405,-0.0102275,0.1186205,-0.4454705,0.0105565,-0.1270795,-0.7888205,-0.0110865,0.1297205,-0.7920605000000001,-0.0176855
59,-0.0042225,0.734421,0.069216,-0.1537885,0.49927099999999996,0.063706,-0.2573385,0.7112609999999999,0.048487,0.1485415,0.483851,0.058053,0.2505415,0.713171,0.056295,-0.30131850000000004,0.982441,0.021002,0.2807415,0.982741,0.0333,-0.0722595,0.0010649999999999965,0.00298,0.0722595,-0.0010650000000000034,-0.00298,-0.1218385,-0.406439,-0.011127999999999999,0.1185515,-0.446039,0.009640000000000003,-0.1272485,-0.7895390000000001,-0.012450999999999997,0.1294015,-0.792269,-0.018852
60,-0.004913499999999996,0.7342110000000001,0.0691315,-0.1542265,0.499081,0.06361649999999999,-0.2577665,0.710801,0.0481945,0.1486135,0.484201,0.0589395,0.2500635,0.712531,0.0567395,-0.3020165,0.9827410000000001,0.0210605,0.28045349999999997,0.983441,0.0342245,-0.0723065,0.0010800000000000046,0.002968499999999999,0.0723065,-0.0010799999999999976,-0.0029685000000000024,-0.12197649999999999,-0.406629,-0.0121705,0.1184335,-0.446539,0.0085925,-0.1275065,-0.7901889999999999,-0.013837500000000003,0.1290935,-0.792689,-0.0200795
61,-0.005587499999999998,0.7340555,0.0690275,-0.1546905,0.49891550000000007,0.0633305,-0.2584005,0.7115955,0.0478245,0.1486595,0.48455550000000003,0.0596385,0.2496395,0.7119255,0.05706749999999999,-0.3026605,0.9829555000000001,0.0209545,0.28007950000000004,0.9837555,0.0348025,-0.0723425,0.0011094999999999994,0.002970500000000001,0.0723425,-0.0011094999999999994,-0.002970500000000001,-0.12211050000000001,-0.4068345,-0.013292500000000002,0.11830950000000001,-0.4470645,0.007353499999999999,-0.1277905,-0.7912144999999999,-0.015442500000000001,0.1287595,-0.7931644999999999,-0.021390500000000003
62,-0.006250499999999996,0.7339180000000001,0.0688075,-0.1551855,0.49875800000000003,0.06294849999999999,-0.2588955,0.711688,0.0473165,0.1486145,0.484888,0.0601985,0.2492645,0.711338,0.0571985,-0.3033555,0.9832780000000001,0.0207915,0.2797445,0.984178,0.0351185,-0.0723785,0.0011520000000000002,0.0029794999999999995,0.0723785,-0.0011520000000000002,-0.0029794999999999995,-0.1221855,-0.40706200000000003,-0.0146395,0.11819450000000001,-0.447592,0.0056275000000000006,-0.1280755,-0.792272,-0.017170499999999998,0.1284645,-0.793612,-0.023023500000000002
63,-0.006827000000000003,0.733795,0.06849949999999999,-0.155522,0.49857500000000005,0.0625235,-0.259342,0.7117850000000001,0.0467405,0.148588,0.485195,0.0606625,0.24897799999999998,0.710785,0.0570615,-0.30398200000000003,0.9836150000000001,0.020483499999999998,0.279518,0.984515,0.0352505,-0.072395,0.0011970000000000036,0.003032499999999997,0.072395,-0.0011969999999999967,-0.0030325000000000005,-0.122202,-0.407365,-0.016114500000000004,0.118088,-0.448075,0.003706499999999998,-0.128392,-0.793245,-0.0190035,0.128228,-0.7941549999999999,-0.0248545
64,-0.007260000000000001,0.7336870000000001,0.06828000000000001,-0.155684,0.49831699999999995,0.062141,-0.259754,0.7117870000000001,0.046085,0.14860600000000002,0.48551700000000003,0.060947,0.248826,0.7110970000000001,0.056831,-0.30452399999999996,0.9839270000000001,0.020113000000000002,0.279426,0.984827,0.035247,-0.072411,0.001238999999999997,0.0030680000000000013,0.072411,-0.001239000000000004,-0.003067999999999998,-0.122084,-0.407723,-0.017684,0.118076,-0.448573,0.0016649999999999998,-0.128614,-0.794103,-0.020793,0.12813599999999997,-0.794793,-0.026872
65,-0.007626499999999998,0.7336590000000001,0.06799050000000001,-0.15580349999999998,0.498159,0.0616825,-0.2603135,0.711829,0.046051499999999995,0.1485665,0.48587900000000006,0.0609685,0.2487065,0.7115090000000001,0.0563815,-0.30503349999999996,0.9843390000000001,0.0196805,0.2794165,0.985239,0.0348865,-0.0724355,0.0012780000000000014,0.0030165,0.0724355,-0.0012780000000000014,-0.003016500000000002,-0.1219435,-0.408011,-0.019353500000000003,0.1180465,-0.44893099999999997,-0.0006094999999999989,-0.12888349999999998,-0.794821,-0.0226525,0.12807649999999998,-0.795281,-0.0291335
66,-0.007969,0.7336604999999999,0.06767100000000001,-0.15587,0.4980605,0.061302,-0.26087,0.7119605,0.045966,0.14849,0.48622049999999994,0.060726,0.24867,0.7119605,0.055822,-0.30552,0.9846605,0.019178999999999998,0.27948,0.9853605,0.034315,-0.072453,0.0013195000000000012,0.002985,0.072453,-0.0013195000000000012,-0.0029850000000000015,-0.12175,-0.40836950000000005,-0.021124000000000004,0.11807,-0.4493395,-0.0030349999999999995,-0.12919999999999998,-0.7955695,-0.024577,0.12780000000000002,-0.7957995,-0.030599
67,-0.008370499999999996,0.733595,0.0672625,-0.1559505,0.498005,0.060913499999999995,-0.26150049999999997,0.712145,0.0457145,0.1482795,0.48657500000000004,0.0603535,0.2495095,0.7128150000000001,0.0551045,-0.3060805,0.9850050000000001,0.0185415,0.27957950000000004,0.9855050000000001,0.0334275,-0.0724555,0.001351999999999999,0.0029344999999999996,0.0724555,-0.001351999999999999,-0.0029344999999999996,-0.12145049999999999,-0.409785,-0.0232425,0.1180995,-0.449645,-0.005750500000000002,-0.1295605,-0.796175,-0.026763500000000003,0.12744950000000002,-0.7963749999999999,-0.0323235
68,-0.008664499999999999,0.733587,0.066598,-0.1559065,0.498057,0.060360000000000004,-0.2620265,0.711967,0.045245,0.1481535,0.486547,0.059794,0.25042349999999997,0.713137,0.054071,-0.30641650000000004,0.9850170000000001,0.017531,0.2798835,0.9855170000000001,0.031934000000000004,-0.0724305,0.001347000000000001,0.0028850000000000004,0.0724305,-0.001347000000000001,-0.0028850000000000004,-0.1211665,-0.411263,-0.025315999999999998,0.1181535,-0.449863,-0.008412999999999999,-0.1298465,-0.7967329999999999,-0.028987,0.12715349999999997,-0.796773,-0.033902999999999996
69,-0.008882999999999997,0.7335425,0.06590599999999999,-0.15585,0.4980725,0.059961,-0.26251,0.7117325,0.04474399999999999,0.14801000000000003,0.4865025,0.058987,0.25132,0.7131525,0.05293099999999999,-0.30672,0.9850125000000001,0.016422,0.28031,0.9856125,0.030382,-0.072394,0.0013615000000000016,0.0028769999999999993,0.072394,-0.0013615000000000016,-0.002877000000000001,-0.1209,-0.4127975,-0.027464,0.11825000000000001,-0.4501775,-0.011195,-0.1301,-0.7972975,-0.031223000000000004,0.12717,-0.7975075,-0.036240999999999995
70,-0.008828999999999997,0.7335435,0.0651565,-0.155561,0.4981635,0.0595995,-0.26265099999999997,0.7113634999999999,0.0440785,0.14809899999999998,0.4864935,0.0581575,0.252579,0.7130535,0.051533499999999996,-0.306741,0.9851635000000001,0.0150375,0.281049,0.9856635,0.028783500000000004,-0.072337,0.0013654999999999987,0.002858500000000001,0.072337,-0.0013655000000000056,-0.0028585,-0.120641,-0.4143365,-0.0297365,0.118459,-0.45011650000000003,-0.0139505,-0.13015100000000002,-0.7978065000000001,-0.0335245,0.12715900000000002,-0.7978765,-0.0386525
71,-0.008552499999999998,0.733674,0.064371,-0.15522650000000002,0.498294,0.059227,-0.2626865,0.711494,0.043306,0.1481535,0.48662400000000006,0.057286000000000004,0.2539035,0.713234,0.050128000000000006,-0.3066365,0.9854940000000001,0.013528,0.28190350000000003,0.9855940000000001,0.027249,-0.0723335,0.0013740000000000002,0.0028079999999999997,0.0723335,-0.0013739999999999933,-0.0028079999999999997,-0.1204665,-0.416106,-0.032002,0.11867349999999999,-0.449986,-0.016442000000000002,-0.1301565,-0.798206,-0.035967,0.1272335,-0.797936,-0.040737999999999996
72,-0.008383499999999999,0.7339135,0.0634315,-0.1549205,0.49854350000000003,0.0586355,-0.2627205,0.7117035,0.0422605,0.1483295,0.4868135,0.056175499999999996,0.25523949999999995,0.7133235,0.0485695,-0.3065205,0.9857435000000001,0.0117825,0.28277949999999996,0.9856435000000001,0.025454499999999998,-0.0723365,0.0013495000000000035,0.002851499999999999,0.0723365,-0.0013494999999999965,-0.0028515,-0.1203105,-0.4178265,-0.0344495,0.1189095,-0.44971649999999996,-0.0191835,-0.1301505,-0.7984565,-0.0386325,0.1272595,-0.7980265,-0.0433495
73,-0.008276000000000002,0.733919,0.061996,-0.154708,0.498829,0.057637,-0.262768,0.7120190000000001,0.040673,0.148412,0.487029,0.054935,0.256502,0.713489,0.046636,-0.306318,0.9860590000000001,0.009628999999999999,0.284132,0.985559,0.022661,-0.07234299999999999,0.001346,0.002953,0.07234299999999999,-0.001346,-0.0029530000000000008,-0.12009800000000001,-0.419781,-0.037632,0.11924199999999999,-0.449401,-0.02279,-0.13028800000000001,-0.7986209999999999,-0.041936,0.127522,-0.798141,-0.046378
74,-0.008072499999999998,0.733886,0.0603525,-0.1544045,0.499026,0.0564945,-0.26267450000000003,0.712426,0.0382575,0.14859550000000002,0.48708599999999996,0.0535855,0.25785549999999996,0.714086,0.0444325,-0.3060645,0.986766,0.0072245,0.28571549999999996,0.9856659999999999,0.0193215,-0.0723325,0.0013729999999999992,0.0031515000000000002,0.0723325,-0.0013729999999999992,-0.0031515,-0.1197645,-0.421244,-0.0412105,0.11972550000000001,-0.448694,-0.0267495,-0.1304345,-0.7984439999999999,-0.0456815,0.12783550000000002,-0.797804,-0.0499485
75,-0.007859999999999995,0.733379,0.058631,-0.15422699999999998,0.498839,0.055221,-0.262587,0.7122090000000001,0.035699,0.14872300000000002,0.48703899999999994,0.052296,0.259143,0.714829,0.042019,-0.305817,0.986969,0.004397,0.28736300000000004,0.9857690000000001,0.015635,-0.072331,0.001362000000000002,0.003373,0.072331,-0.001362000000000002,-0.003373,-0.119537,-0.42174100000000003,-0.045475,0.12027300000000002,-0.447641,-0.031397,-0.130607,-0.798051,-0.04976,0.12807300000000002,-0.7974209999999999,-0.053506
76,-0.0076159999999999995,0.7327825,0.056792499999999996,-0.154007,0.4985225,0.05386150000000001,-0.26228700000000005,0.7112425,0.0330155,0.148853,0.4866125,0.0508405,0.25954299999999997,0.7155725,0.039306499999999994,-0.30550700000000003,0.9869625000000001,0.0010294999999999996,0.288983,0.9861624999999999,0.0116775,-0.072318,0.0013545000000000015,0.0034725,0.072318,-0.0013544999999999946,-0.0034725000000000003,-0.119397,-0.42083750000000003,-0.05015650000000001,0.12088300000000002,-0.4461575,-0.036519499999999996,-0.13075699999999998,-0.7972575000000001,-0.0541305,0.128093,-0.7966275,-0.0571575
77,-0.007344999999999999,0.732003,0.0549785,-0.15375,0.498113,0.0524705,-0.26193,0.710483,0.030186499999999998,0.14898,0.48602300000000004,0.0491045,0.25992000000000004,0.7165229999999999,0.0365425,-0.30512999999999996,0.986973,-0.0026564999999999996,0.29035,0.986473,0.0076625,-0.072291,0.0013150000000000037,0.0035915,0.072291,-0.0013149999999999967,-0.003591499999999999,-0.11926999999999999,-0.419827,-0.0550735,0.12158,-0.44437699999999997,-0.0418875,-0.13078,-0.795987,-0.058568499999999996,0.12808999999999998,-0.795597,-0.0607385
78,-0.007067999999999995,0.7310800000000001,0.0526895,-0.15343600000000002,0.49777000000000005,0.0507555,-0.261656,0.7098,0.0270865,0.148924,0.48522,0.0474225,0.260334,0.7175,0.0336385,-0.304756,0.98709,-0.006857499999999999,0.291364,0.98709,0.0034885000000000003,-0.072297,0.001232000000000004,0.0037295,0.072297,-0.001231999999999997,-0.0037294999999999993,-0.119296,-0.41791,-0.060913499999999995,0.122354,-0.44204,-0.0478785,-0.13041599999999998,-0.7940699999999999,-0.0628895,0.128164,-0.7936799999999999,-0.0645595
79,-0.006724499999999998,0.7301795000000001,0.0504975,-0.15300550000000002,0.4968795,0.0488515,-0.2613955,0.7093995000000001,0.023648500000000003,0.1489345,0.48456950000000004,0.045546500000000004,0.2607945,0.7172995000000001,0.030664499999999997,-0.3042155,0.9873295000000001,-0.0114925,0.2925045,0.9881295,-0.0008824999999999996,-0.07234850000000001,0.0011435000000000056,0.0038484999999999995,0.07234850000000001,-0.0011434999999999987,-0.0038484999999999995,-0.11933550000000001,-0.41537050000000003,-0.0670235,0.1233145,-0.4390905,-0.0544725,-0.1299455,-0.7915304999999999,-0.0673435,0.1284545,-0.7911205,-0.0687805
80,-0.0063310000000000016,0.7290495,0.047832,-0.152431,0.49589949999999994,0.046499000000000006,-0.261101,0.7088495,0.019653000000000004,0.149219,0.48394950000000003,0.043151,0.26158899999999996,0.7168395,0.027233,-0.30347100000000005,0.9875094999999999,-0.0167,0.29383899999999996,0.9882095000000001,-0.006050999999999999,-0.072389,0.0010874999999999982,0.003826999999999999,0.072389,-0.0010875000000000051,-0.003826999999999999,-0.119341,-0.4127305,-0.074072,0.12450900000000001,-0.4355505,-0.062058999999999996,-0.129401,-0.7881505,-0.072121,0.128989,-0.7877405000000001,-0.07341400000000001
81,-0.006007499999999999,0.727416,0.0447735,-0.1519115,0.494436,0.0437805,-0.26113149999999996,0.708066,0.0149655,0.14947850000000001,0.48285599999999995,0.0404965,0.26252850000000005,0.716586,0.0226335,-0.3027115,0.987336,-0.0230415,0.29521850000000005,0.989436,-0.0124895,-0.0724735,0.0009170000000000011,0.0037295,0.0724735,-0.0009170000000000011,-0.0037295,-0.1197015,-0.40907400000000005,-0.08325450000000001,0.1260085,-0.430774,-0.07182050000000001,-0.1289315,-0.782914,-0.0771525,0.1298985,-0.782414,-0.0785005
82,-0.005812500000000002,0.7256675,0.041871500000000006,-0.1516045,0.49320749999999997,0.041316500000000006,-0.2612945,0.7075075000000001,0.010471500000000002,0.1495655,0.4815875,0.0377955,0.2633255,0.7161375,0.018152500000000002,-0.3020045,0.9872075,-0.0290575,0.2962455,0.9904075000000001,-0.0182195,-0.0726225,0.0007785000000000014,0.0035655000000000027,0.0726225,-0.0007785000000000014,-0.0035654999999999992,-0.12008450000000001,-0.4044825,-0.09238249999999999,0.1274255,-0.42520250000000004,-0.0815005,-0.12830450000000002,-0.7765725,-0.0817125,0.1306155,-0.7760225,-0.08322550000000001
83,-0.005652000000000004,0.7235094999999999,0.038582500000000006,-0.15131499999999998,0.4931895,0.0385235,-0.26142499999999996,0.7063594999999999,0.005598499999999999,0.149445,0.4809395,0.0348085,0.264245,0.7157795,0.0131825,-0.30117499999999997,0.9860795,-0.0357165,0.297395,0.9852794999999999,-0.0252305,-0.072769,0.0005695000000000006,0.003394499999999998,0.072769,-0.0005695000000000006,-0.0033945000000000017,-0.120745,-0.3978005,-0.1033615,0.129035,-0.4177305,-0.0927925,-0.12771500000000002,-0.7683605,-0.0864335,0.131405,-0.7677105000000001,-0.0881775
84,-0.0054470000000000005,0.721952,0.0351885,-0.151155,0.492352,0.0357195,-0.261625,0.706172,0.0006015000000000013,0.149455,0.479332,0.031739500000000004,0.265115,0.716342,0.008175500000000002,-0.300495,0.985922,-0.0423145,0.298445,0.981002,-0.0321535,-0.07294500000000001,0.0003820000000000004,0.0031264999999999973,0.07294500000000001,-0.0003820000000000004,-0.003126500000000001,-0.12137500000000001,-0.390218,-0.1139065,0.130575,-0.409438,-0.10387249999999999,-0.127175,-0.759138,-0.09099750000000001,0.131825,-0.7586080000000001,-0.0932325
85,-0.005235500000000004,0.7202755,0.03205949999999999,-0.1509445,0.49166550000000003,0.0330285,-0.26185450000000005,0.7063355,-0.004256500000000003,0.1494155,0.4778155,0.028859499999999996,0.2659255,0.7147954999999999,0.0034994999999999957,-0.3000545,0.9860755,-0.0485825,0.2992855,0.9774655,-0.0387945,-0.07315050000000001,0.00022750000000000027,0.002843499999999999,0.07315050000000001,-0.0002274999999999994,-0.0028435000000000023,-0.1219945,-0.3818145,-0.1239475,0.1321555,-0.4008845,-0.1145505,-0.12663449999999998,-0.7495845000000001,-0.0951025,0.1321955,-0.7490445,-0.0978075
86,-0.005052999999999997,0.71875,0.028740499999999995,-0.150663,0.49134,0.0303415,-0.262093,0.70652,-0.009090500000000001,0.14938700000000002,0.47657,0.0258935,0.26647699999999996,0.71365,-0.0011175000000000004,-0.299613,0.98628,-0.0547295,0.300187,0.9746900000000001,-0.0454385,-0.07342599999999999,9.200000000000007e-05,0.0025885000000000005,0.07342599999999999,-9.200000000000007e-05,-0.0025885000000000005,-0.12273300000000001,-0.37345,-0.1342775,0.133717,-0.39245,-0.1254655,-0.125993,-0.73911,-0.09860350000000001,0.132297,-0.73906,-0.1022525
87,-0.004566000000000004,0.717254,0.0255745,-0.150226,0.490774,0.027790499999999996,-0.261386,0.706374,-0.013653500000000002,0.149674,0.475454,0.023295499999999997,0.267164,0.712724,-0.005499500000000004,-0.298796,0.982054,-0.0611015,0.30105400000000004,0.972174,-0.0519265,-0.07361000000000001,-1.4000000000000123e-05,0.002316499999999999,0.07361000000000001,1.4000000000000123e-05,-0.002316499999999999,-0.123306,-0.365056,-0.14396350000000002,0.13525399999999999,-0.383936,-0.1358965,-0.12549600000000002,-0.728926,-0.1025085,0.132524,-0.729026,-0.1069535
88,-0.004193000000000002,0.7156220000000001,0.022607000000000002,-0.14992300000000003,0.489902,0.025384000000000004,-0.260933,0.706272,-0.017868,0.149777,0.474132,0.020815,0.26769699999999996,0.711982,-0.009750999999999996,-0.29869300000000004,0.978322,-0.067274,0.301657,0.968832,-0.058197,-0.073772,-7.700000000000068e-05,0.0020809999999999995,0.073772,7.700000000000068e-05,-0.0020809999999999995,-0.124123,-0.356738,-0.153462,0.13649699999999998,-0.375608,-0.145972,-0.125203,-0.718618,-0.106303,0.13255699999999998,-0.7185879999999999,-0.111325
89,-0.003942499999999999,0.7143385,0.020023500000000007,-0.14969249999999998,0.4886085,0.023205499999999997,-0.26062250000000003,0.7065085,-0.021667499999999996,0.1497475,0.4730285,0.01859650000000001,0.2681075,0.7087285,-0.0135165,-0.2986625,0.9754585,-0.0729155,0.30209749999999996,0.9654485,-0.0636055,-0.07384950000000001,-0.00022250000000000048,0.0020545000000000008,0.07384950000000001,0.00022250000000000048,-0.0020545000000000008,-0.12486249999999999,-0.3488615,-0.1623515,0.13765750000000002,-0.3674015,-0.15558149999999998,-0.1249525,-0.7082615,-0.10965349999999999,0.13241750000000002,-0.7081514999999999,-0.1152705
90,-0.003897999999999996,0.7123635,0.01775249999999999,-0.149495,0.4885435,0.0211335,-0.260395,0.7026235,-0.024671500000000006,0.149785,0.4728035,0.016494499999999995,0.268405,0.7058235,-0.016175500000000006,-0.298745,0.9713935,-0.0773205,0.302885,0.9541835,-0.06804850000000001,-0.073907,-0.00020050000000000623,0.0019054999999999975,0.073907,0.0002004999999999993,-0.0019055000000000044,-0.125405,-0.3425765,-0.1693645,0.13843500000000003,-0.3592765,-0.16319450000000002,-0.12554500000000002,-0.6983465,-0.1135955,0.13194499999999998,-0.6982165,-0.11877750000000001
91,-0.003936000000000003,0.7111705,0.015317500000000012,-0.149279,0.48762049999999996,0.01871550000000001,-0.25998899999999997,0.7005705,-0.027925499999999995,0.149891,0.4721505,0.01417750000000001,0.268621,0.7038205000000001,-0.018931499999999993,-0.29878899999999997,0.9624305000000001,-0.0828305,0.303451,0.9455605,-0.0726835,-0.074049,-0.00029950000000000115,0.0017225000000000018,0.074049,0.00029950000000000115,-0.0017224999999999949,-0.12581900000000001,-0.33485950000000003,-0.1764725,0.139181,-0.3503895,-0.1709525,-0.126189,-0.6871594999999999,-0.11770749999999999,0.131461,-0.6872094999999999,-0.12242449999999999
92,-0.004171999999999998,0.7105184999999999,0.013393500000000003,-0.14928899999999998,0.48573849999999996,0.016806500000000002,-0.25960900000000003,0.6997185,-0.030550500000000005,0.14972100000000002,0.47066850000000005,0.012258499999999992,0.26858099999999996,0.7020485,-0.021138500000000005,-0.29901900000000003,0.9550185,-0.08744850000000001,0.303811,0.9437985,-0.07570550000000001,-0.074245,-0.00032250000000000334,0.0015604999999999994,0.074245,0.00032249999999998946,-0.0015605000000000063,-0.126069,-0.3279915,-0.18153249999999999,0.139601,-0.3427015,-0.17690250000000002,-0.127159,-0.6773615000000001,-0.1212105,0.130631,-0.6776015000000001,-0.1253935
93,-0.004294500000000001,0.7097015,0.011515499999999998,-0.1491655,0.4851215,0.0149445,-0.2587755,0.6987915,-0.0334175,0.1495045,0.46966149999999995,0.010374499999999995,0.2685845,0.6994615,-0.0233195,-0.2990655,0.9488215,-0.0918945,0.3041245,0.9427015,-0.0786805,-0.07452149999999999,-0.0003454999999999986,0.001410499999999995,0.07452149999999999,0.00034550000000001246,-0.001410500000000002,-0.1263355,-0.3178485,-0.1866335,0.1400545,-0.3325585,-0.1828135,-0.12807549999999998,-0.6675085000000001,-0.1248595,0.1298245,-0.6671785,-0.1280125
94,-0.004612499999999998,0.7085385,0.009312,-0.1489455,0.48563850000000003,0.012897000000000006,-0.2578955,0.6969384999999999,-0.036728,0.1492545,0.4701785,0.008337999999999998,0.26855450000000003,0.6986785,-0.025849999999999998,-0.2991355,0.9440685,-0.096403,0.3041545,0.9418285,-0.082055,-0.0748205,-0.00037550000000000083,0.0013309999999999989,0.0748205,0.00037550000000000083,-0.0013309999999999989,-0.1267355,-0.3069115,-0.192147,0.1404845,-0.3216215,-0.188967,-0.1288955,-0.6567015,-0.128523,0.1289445,-0.6560915,-0.13026
95,-0.004797999999999995,0.7090095,0.0027194999999999997,-0.14847,0.4842495,0.005625499999999992,-0.25679,0.6963695,-0.044556500000000006,0.1493,0.47303950000000006,0.001839499999999994,0.26835,0.6997095,-0.03290850000000001,-0.2991,0.9418195,-0.1053885,0.3043,0.9424994999999999,-0.0898705,-0.075106,-0.00043249999999998845,0.0009995000000000004,0.075106,0.0004325000000000023,-0.0009995000000000073,-0.12694,-0.29399050000000004,-0.2016815,0.14105,-0.3086905,-0.19959149999999998,-0.12925,-0.6438605000000001,-0.1360945,0.12823,-0.6429805000000001,-0.13679550000000001
96,-0.005011499999999997,0.710065,-0.0038910000000000056,-0.1473925,0.482815,-0.0021110000000000018,-0.2564025,0.695905,-0.052354,0.1492175,0.472355,-0.005219000000000001,0.2681075,0.699995,-0.040303000000000005,-0.2992925,0.944915,-0.114032,0.3044875,0.943405,-0.097952,-0.07532649999999999,-0.0004649999999999932,0.0005730000000000041,0.07532649999999999,0.0004650000000000071,-0.0005730000000000041,-0.1279225,-0.282375,-0.215408,0.1419575,-0.295905,-0.212868,-0.1292525,-0.630365,-0.143499,0.1275575,-0.629205,-0.143436
97,-0.0052565000000000025,0.71174,-0.010721000000000008,-0.1463245,0.48283,-0.009801000000000004,-0.2562445,0.6952400000000001,-0.060147,0.1491855,0.47227,-0.012159000000000003,0.2680755,0.6997500000000001,-0.047753000000000004,-0.2992545,0.9470400000000001,-0.122783,0.3047055,0.9445399999999999,-0.106118,-0.0755045,-0.0004899999999999904,8.800000000000474e-05,0.0755045,0.0004899999999999904,-8.800000000000474e-05,-0.12894450000000002,-0.2711,-0.228942,0.1429055,-0.28327,-0.225892,-0.1292045,-0.61711,-0.15105000000000002,0.1267855,-0.6155600000000001,-0.149742
98,-0.005517500000000002,0.7127100000000001,-0.017519999999999994,-0.1452985,0.48292999999999997,-0.017560000000000006,-0.2561585,0.6952400000000001,-0.06776,0.1491015,0.47274000000000005,-0.018979000000000003,0.2679815,0.70292,-0.055215,-0.2992985,0.94948,-0.130356,0.3047415,0.94748,-0.114198,-0.0756545,-0.0004899999999999904,-0.00038299999999999446,0.0756545,0.0004899999999999904,0.00038299999999999446,-0.1301785,-0.25873999999999997,-0.242442,0.1439315,-0.26944999999999997,-0.238632,-0.1290885,-0.60326,-0.15809,0.1259615,-0.6013499999999999,-0.155709
99,-0.006007000000000005,0.7138399999999999,-0.0240695,-0.144225,0.4821,-0.025889500000000003,-0.256115,0.69906,-0.0756425,0.148895,0.47182,-0.026460500000000005,0.267795,0.70516,-0.0626215,-0.299295,0.95343,-0.1376455,0.304245,0.95466,-0.12183350000000001,-0.075792,-0.00039000000000000146,-0.0008294999999999969,0.075792,0.00039000000000000146,0.0008294999999999969,-0.13160500000000003,-0.24200000000000002,-0.2569755,0.145455,-0.25159,-0.25238550000000004,-0.12904500000000002,-0.5859500000000001,-0.1640595,0.125435,-0.58321,-0.16085850000000002
100,-0.006544999999999995,0.7147049999999999,-0.030222500000000006,-0.143172,0.481085,-0.034196500000000005,-0.255942,0.702075,-0.0834245,0.148728,0.471305,-0.033640500000000004,0.267598,0.706845,-0.0695935,-0.299702,0.9631449999999999,-0.1436195,0.303878,0.958785,-0.1290825,-0.07586899999999999,-0.0002550000000000052,-0.0012344999999999995,0.07586899999999999,0.0002550000000000052,0.0012344999999999995,-0.133062,-0.226725,-0.2711735,0.147038,-0.23512500000000003,-0.2656035,-0.128852,-0.5698049999999999,-0.16952250000000002,0.12498800000000002,-0.5663849999999999,-0.1655415
101,-0.007220999999999998,0.715165,-0.03616149999999999,-0.142305,0.479285,-0.042151499999999995,-0.255835,0.705225,-0.0913025,0.148585,0.471665,-0.040368499999999995,0.267845,0.708235,-0.0765425,-0.300325,0.972575,-0.1495965,0.303255,0.962135,-0.1360115,-0.075922,-0.00028500000000000747,-0.00162749999999999,0.075922,0.00028500000000000747,0.001627500000000004,-0.134555,-0.211725,-0.2850085,0.148585,-0.21962500000000001,-0.2784185,-0.128745,-0.553825,-0.17475849999999998,0.124635,-0.549605,-0.1701705
102,-0.008007000000000002,0.715715,-0.041836500000000006,-0.141385,0.477905,-0.049767500000000006,-0.25670499999999996,0.708685,-0.0989585,0.148285,0.471965,-0.0468225,0.267915,0.710225,-0.0834665,-0.300975,0.981415,-0.15589750000000002,0.30225500000000005,0.963045,-0.1428145,-0.075977,-0.0002949999999999897,-0.0019845,0.075977,0.00029500000000001747,0.0019845,-0.135945,-0.196405,-0.2989055,0.150455,-0.204225,-0.2911655,-0.127505,-0.537835,-0.1798165,0.124355,-0.532725,-0.1746355
103,-0.008500500000000005,0.71697,-0.047314,-0.1407735,0.47579000000000005,-0.057150000000000006,-0.2575135,0.71331,-0.10626000000000001,0.1480365,0.47150000000000003,-0.053093,0.2682265,0.7135100000000001,-0.08981900000000001,-0.3014535,0.9890800000000001,-0.162194,0.3015365,0.9632700000000001,-0.149003,-0.0761005,-0.0002899999999999847,-0.0024450000000000027,0.0761005,0.00029000000000001247,0.0024450000000000027,-0.1371835,-0.18135999999999997,-0.312395,0.1522965,-0.18871,-0.303495,-0.1260535,-0.52244,-0.184537,0.1241265,-0.51639,-0.1787
104,-0.009280499999999995,0.71696,-0.048891000000000004,-0.14052549999999997,0.47538,-0.059838,-0.25857549999999996,0.71658,-0.109657,0.14749450000000003,0.46846,-0.055490000000000005,0.26817450000000004,0.7143999999999999,-0.09231700000000001,-0.3021155,0.99419,-0.164574,0.3007345,0.96129,-0.150867,-0.0761945,-0.00023000000000000798,-0.0025000000000000022,0.0761945,0.00023000000000000798,0.0025000000000000022,-0.1386055,-0.16814,-0.32191000000000003,0.1539145,-0.17509000000000002,-0.31151,-0.1247455,-0.5089,-0.185266,0.1238345,-0.50187,-0.17892000000000002
105,-0.010163000000000004,0.716575,-0.050688,-0.14030399999999998,0.475765,-0.062256,-0.259954,0.720305,-0.11316799999999999,0.14710600000000001,0.469105,-0.057599,0.268086,0.7154849999999999,-0.094655,-0.303754,0.9929950000000001,-0.16880299999999998,0.30051599999999995,0.9575450000000001,-0.152503,-0.07626,-8.500000000000174e-05,-0.0023999999999999994,0.07626,8.500000000000174e-05,0.0023999999999999994,-0.139224,-0.155725,-0.32702,0.155046,-0.16158500000000003,-0.31672999999999996,-0.123474,-0.49679500000000004,-0.186199,0.12356600000000001,-0.48849500000000007,-0.179397
106,-0.011147500000000001,0.714205,-0.05222,-0.1401055,0.474805,-0.064986,-0.2616455,0.718305,-0.11668,0.1467045,0.469085,-0.059857,0.26803449999999995,0.717085,-0.097165,-0.30565549999999997,0.991545,-0.173026,0.30052449999999997,0.9541149999999999,-0.153983,-0.0762835,-7.500000000004725e-05,-0.0023299999999999987,0.0762835,7.499999999999174e-05,0.0023299999999999987,-0.1398255,-0.14217500000000005,-0.33231,0.1560745,-0.14728500000000005,-0.32189999999999996,-0.12222549999999999,-0.4845750000000001,-0.186749,0.1232745,-0.474615,-0.179729
107,-0.011958000000000003,0.712945,-0.05367600000000001,-0.139785,0.47480500000000003,-0.06734400000000001,-0.263435,0.716775,-0.120186,0.146285,0.46786500000000003,-0.06221100000000001,0.268145,0.718125,-0.09932,-0.307545,0.990175,-0.177434,0.300785,0.9507950000000001,-0.15512700000000001,-0.076321,2.5000000000052758e-05,-0.0024550000000000127,0.076321,-2.4999999999997247e-05,0.002454999999999999,-0.140135,-0.128405,-0.337055,0.157065,-0.132955,-0.326625,-0.121015,-0.472525,-0.187137,0.123195,-0.46096499999999996,-0.179861
108,-0.01277,0.71227,-0.05564600000000001,-0.14023,0.47407999999999995,-0.0695,-0.26398,0.7170300000000001,-0.12362000000000001,0.14563,0.46753,-0.064282,0.26817,0.71727,-0.10192300000000001,-0.30967,0.9860099999999999,-0.182309,0.30096,0.94841,-0.156881,-0.076322,-5.0000000000050004e-05,-0.002570000000000003,0.076322,4.999999999999449e-05,0.002569999999999989,-0.1403,-0.12054000000000004,-0.34019,0.15741,-0.12444000000000005,-0.32984,-0.12025,-0.46289,-0.187936,0.12287000000000001,-0.45100000000000007,-0.180266
109,-0.013403500000000002,0.711095,-0.05772800000000001,-0.1406325,0.474275,-0.07130900000000001,-0.2641925,0.716405,-0.126673,0.1451475,0.46737500000000004,-0.066167,0.2682975,0.7162250000000001,-0.104482,-0.3112525,0.9804050000000001,-0.18702200000000002,0.3013075,0.946685,-0.158718,-0.07637150000000001,-9.499999999995623e-05,-0.002725000000000005,0.07637150000000001,9.500000000001174e-05,0.0027249999999999913,-0.1402725,-0.11329499999999998,-0.342865,0.1578075,-0.11651499999999998,-0.332505,-0.1192425,-0.453855,-0.18874800000000003,0.1226575,-0.44159499999999996,-0.18100500000000003
110,-0.013852999999999997,0.71068,-0.059809,-0.141057,0.47555000000000003,-0.07299,-0.264197,0.71221,-0.129274,0.144753,0.46674000000000004,-0.06797900000000001,0.268563,0.71518,-0.106924,-0.312497,0.97405,-0.191732,0.301813,0.94498,-0.160589,-0.076431,4.999999999999449e-05,-0.0028900000000000037,0.076431,-4.999999999999449e-05,0.00288999999999999,-0.140157,-0.10614999999999997,-0.34538,0.158313,-0.10877999999999999,-0.33496000000000004,-0.118247,-0.44494,-0.189374,0.122543,-0.43226,-0.181591
111,-0.014128499999999999,0.70977,-0.06217800000000001,-0.1416075,0.47492999999999996,-0.07494,-0.26444749999999995,0.70584,-0.131757,0.1445925,0.46662000000000003,-0.06983400000000001,0.2689825,0.71286,-0.10930900000000002,-0.31362749999999995,0.96696,-0.19610100000000003,0.3028225,0.9449099999999999,-0.162497,-0.0765725,2.0000000000020002e-05,-0.0030050000000000077,0.0765725,-2.0000000000020002e-05,0.003004999999999994,-0.1399575,-0.09871000000000002,-0.347785,0.1588625,-0.10097,-0.337125,-0.1172275,-0.43621000000000004,-0.18962,0.1222825,-0.42334999999999995,-0.18247200000000002
112,-0.014402500000000006,0.707955,-0.06434899999999999,-0.1420355,0.474145,-0.07689,-0.2641055,0.699355,-0.13368,0.14456449999999998,0.466285,-0.07167,0.2694845,0.7095750000000001,-0.111646,-0.31419549999999996,0.959705,-0.19969399999999998,0.30353450000000004,0.944285,-0.16414499999999999,-0.0767025,1.4999999999987246e-05,-0.003159999999999996,0.0767025,-1.4999999999987246e-05,0.003159999999999996,-0.13957550000000002,-0.09201500000000001,-0.34997,0.1594545,-0.09382499999999999,-0.33911,-0.11619550000000001,-0.42838499999999996,-0.189993,0.1220145,-0.415445,-0.183602
113,-0.0146125,0.7061599999999999,-0.06631200000000001,-0.1425275,0.47286999999999996,-0.078803,-0.2638975,0.6934199999999999,-0.135361,0.1447225,0.46563999999999994,-0.073274,0.26987249999999996,0.70685,-0.113618,-0.31482750000000004,0.95297,-0.205281,0.30417249999999996,0.9445,-0.165776,-0.0768235,-8.00000000000245e-05,-0.0034200000000000064,0.0768235,7.999999999996898e-05,0.0034200000000000064,-0.13898749999999999,-0.08503000000000005,-0.35197,0.1599725,-0.08651000000000003,-0.34069,-0.11498749999999999,-0.42059,-0.19045,0.1216725,-0.40785000000000005,-0.184162
114,-0.0147645,0.703835,-0.068388,-0.1431615,0.47097500000000003,-0.081008,-0.2638215,0.6880850000000001,-0.137397,0.1448085,0.465015,-0.07511100000000001,0.2701985,0.704115,-0.115608,-0.3147915,0.952505,-0.208014,0.3048385,0.946105,-0.167525,-0.0769165,-0.0002949999999999897,-0.0036299999999999943,0.0769165,0.0002949999999999897,0.0036299999999999943,-0.13830150000000002,-0.07704499999999997,-0.35419,0.16019850000000002,-0.07769499999999996,-0.34236,-0.1134715,-0.41173499999999996,-0.19089499999999998,0.1212485,-0.399745,-0.185824
115,-0.014705000000000003,0.7032400000000001,-0.07048400000000002,-0.143473,0.46984000000000004,-0.08290900000000001,-0.26360300000000003,0.68502,-0.139343,0.144707,0.46424200000000004,-0.07694800000000002,0.27053699999999997,0.70162,-0.117315,-0.314493,0.94931,-0.21064500000000003,0.30555699999999997,0.9432200000000001,-0.16909000000000002,-0.07705000000000001,-0.00039999999999995595,-0.0038650000000000073,0.07705000000000001,0.00040000000000001146,0.0038649999999999934,-0.137543,-0.06889999999999996,-0.356275,0.160467,-0.06865999999999994,-0.34382500000000005,-0.11205300000000001,-0.40283,-0.191037,0.120307,-0.39237,-0.188276
116,-0.014706999999999998,0.7013750000000001,-0.07217699999999999,-0.143664,0.46830400000000005,-0.084567,-0.263494,0.6817850000000001,-0.140991,0.144816,0.46434200000000003,-0.078095,0.271116,0.698715,-0.119066,-0.31424399999999997,0.946115,-0.21296500000000002,0.30640599999999996,0.940365,-0.170867,-0.077238,-0.0006149999999999767,-0.004074999999999995,0.077238,0.0006150000000000322,0.004074999999999995,-0.136824,-0.06055499999999997,-0.358215,0.16059600000000002,-0.059464999999999935,-0.344955,-0.110914,-0.393795,-0.190857,0.11955600000000001,-0.3852049999999999,-0.19134400000000001
117,-0.014674500000000004,0.7001949999999999,-0.073391,-0.1438955,0.46737999999999996,-0.085392,-0.26341549999999997,0.677925,-0.142152,0.14497449999999998,0.463248,-0.07883899999999999,0.27166450000000003,0.698725,-0.120115,-0.3140655,0.9462349999999999,-0.214605,0.3071245,0.939475,-0.172155,-0.07750850000000001,-0.0006650000000000267,-0.004424999999999998,0.07750850000000001,0.0006649999999999712,0.004424999999999998,-0.13624550000000002,-0.052364999999999995,-0.35972499999999996,0.16060449999999998,-0.05071500000000001,-0.34570500000000004,-0.1099455,-0.385155,-0.190356,0.1192145,-0.378325,-0.19526
118,-0.014598000000000003,0.698955,-0.07416500000000001,-0.143972,0.465735,-0.086227,-0.263492,0.674345,-0.143283,0.145208,0.462426,-0.07960300000000001,0.272138,0.698615,-0.121291,-0.313972,0.9474750000000001,-0.216135,0.307778,0.937535,-0.17349900000000001,-0.07786799999999999,-0.0007449999999999957,-0.004765000000000005,0.07786799999999999,0.0007449999999999957,0.004765000000000005,-0.135702,-0.04336499999999999,-0.361085,0.160518,-0.04123500000000002,-0.346485,-0.10914200000000002,-0.37618500000000005,-0.189857,0.11960799999999999,-0.371485,-0.199841
119,-0.014419999999999999,0.69687,-0.07497499999999999,-0.144154,0.46322,-0.08706,-0.26349399999999995,0.67186,-0.144393,0.14546599999999998,0.461448,-0.080408,0.27256600000000003,0.69891,-0.12250299999999999,-0.314114,0.94663,-0.21835,0.30865600000000004,0.93523,-0.174813,-0.07820099999999999,-0.0008699999999999819,-0.005069999999999991,0.07820099999999999,0.0008700000000000374,0.005070000000000005,-0.135014,-0.032769999999999966,-0.36223,0.160336,-0.03014,-0.34733,-0.10844399999999998,-0.36593,-0.18944099999999997,0.12009600000000001,-0.36343000000000003,-0.20373599999999997
120,-0.014200500000000001,0.69556,-0.075795,-0.1441985,0.462382,-0.08789799999999999,-0.2632385,0.67099,-0.145641,0.1457815,0.461006,-0.08089099999999999,0.27324149999999997,0.69939,-0.12353199999999999,-0.3143285,0.94569,-0.22053,0.3091615,0.93121,-0.17590299999999998,-0.0784915,-0.0008799999999999919,-0.005379999999999996,0.0784915,0.0008799999999999919,0.00538000000000001,-0.1341485,-0.02198,-0.36322,0.1599215,-0.018990000000000007,-0.34813,-0.1081085,-0.35556,-0.189869,0.1192115,-0.35556,-0.205399
121,-0.013897499999999997,0.693845,-0.076474,-0.14438050000000002,0.46088599999999996,-0.088632,-0.2629105,0.670495,-0.146678,0.1460495,0.45985,-0.080979,0.2736795,0.700475,-0.124279,-0.31461049999999996,0.9451350000000001,-0.222855,0.30955950000000004,0.927785,-0.17671,-0.0787325,-0.0009149999999999991,-0.005644999999999997,0.0787325,0.0009149999999999991,0.005644999999999997,-0.13322050000000002,-0.010375000000000023,-0.363935,0.15940949999999998,-0.0070350000000000135,-0.348765,-0.1078005,-0.344235,-0.19062400000000002,0.11809950000000001,-0.34703500000000004,-0.20677099999999998
122,-0.0137305,0.69148,-0.07658099999999998,-0.1443835,0.459737,-0.08907999999999999,-0.2633235,0.66987,-0.14773599999999998,0.1461865,0.45898500000000003,-0.08072199999999999,0.27405650000000004,0.7012499999999999,-0.12482399999999999,-0.3150135,0.94445,-0.22508499999999998,0.3098265,0.9230499999999999,-0.177225,-0.0789675,-0.0008299999999999974,-0.005834999999999993,0.0789675,0.0008299999999999974,0.005835000000000007,-0.1322135,0.0010000000000000009,-0.364455,0.1586665,0.004709999999999992,-0.349085,-0.10760349999999999,-0.33307000000000003,-0.19119399999999998,0.11705650000000001,-0.33856,-0.20831499999999997
123,-0.013730999999999997,0.68894,-0.076363,-0.144395,0.458722,-0.088907,-0.26447499999999996,0.6686799999999999,-0.1489,0.146165,0.45804,-0.080176,0.27437500000000004,0.70126,-0.125117,-0.315555,0.94321,-0.227105,0.309925,0.91794,-0.177529,-0.079177,-0.0007199999999999984,-0.005915000000000004,0.079177,0.0007199999999999984,0.005915000000000004,-0.13127499999999998,0.011919999999999986,-0.364765,0.157955,0.01583000000000001,-0.34897500000000004,-0.108065,-0.32256,-0.19159700000000002,0.116255,-0.3302,-0.210255
124,-0.013906499999999999,0.68653,-0.07580500000000001,-0.14470249999999998,0.457399,-0.088456,-0.2659325,0.67139,-0.15024300000000002,0.1458975,0.457674,-0.07936100000000001,0.2745875,0.6987,-0.12495800000000001,-0.3162825,0.93972,-0.22939,0.3099675,0.91611,-0.177477,-0.0794765,-0.0007099999999999884,-0.005840000000000012,0.0794765,0.0007099999999999884,0.005839999999999998,-0.13043249999999998,0.023289999999999977,-0.36486,0.1571275,0.02733000000000002,-0.34859,-0.1097825,-0.31159000000000003,-0.193015,0.11556749999999999,-0.32096,-0.21366400000000002
125,-0.013885499999999995,0.68485,-0.075047,-0.14495450000000001,0.455649,-0.087732,-0.2667545,0.67303,-0.151087,0.1456655,0.456913,-0.07841200000000001,0.2750255,0.69658,-0.124587,-0.3167545,0.93542,-0.231385,0.3101055,0.91332,-0.17704999999999999,-0.0796865,-0.0006599999999999939,-0.005794999999999995,0.0796865,0.0006599999999999939,0.005794999999999995,-0.1297045,0.03356999999999999,-0.364645,0.1565455,0.03761000000000003,-0.347945,-0.1116645,-0.30173,-0.194685,0.11550550000000001,-0.31214000000000003,-0.215885
126,-0.013720500000000004,0.682565,-0.073981,-0.1452255,0.454274,-0.08689100000000001,-0.26756549999999996,0.6747650000000001,-0.151684,0.1458045,0.457192,-0.076994,0.27555450000000004,0.693925,-0.12392500000000001,-0.3170155,0.931495,-0.23318,0.31036450000000004,0.910825,-0.176625,-0.0799195,-0.0005850000000000022,-0.0057900000000000035,0.0799195,0.0005850000000000022,0.00578999999999999,-0.1290455,0.043474999999999986,-0.36414,0.1560345,0.04774499999999998,-0.34723000000000004,-0.1140755,-0.292235,-0.19704100000000002,0.1158245,-0.30374500000000004,-0.21744000000000002
127,-0.013441499999999999,0.6804,-0.072861,-0.14547349999999998,0.453611,-0.08591499999999999,-0.26825350000000003,0.67679,-0.152306,0.1461965,0.45724299999999996,-0.07520299999999999,0.27598649999999997,0.69191,-0.12318899999999999,-0.3173835,0.9278599999999999,-0.23517,0.3110365,0.90998,-0.17656,-0.0802295,-0.00040000000000001146,-0.0058,0.0802295,0.00039999999999995595,0.0058,-0.12843349999999998,0.05347999999999997,-0.36307,0.15547650000000002,0.057989999999999986,-0.34634,-0.1166135,-0.28259,-0.199666,0.1153165,-0.29297000000000006,-0.21454099999999998
128,-0.0130675,0.6786,-0.071509,-0.1456735,0.45382,-0.084863,-0.2689235,0.67729,-0.152919,0.1466865,0.457325,-0.073523,0.2761665,0.68948,-0.122019,-0.31759350000000003,0.92691,-0.236,0.3115365,0.91011,-0.176389,-0.08026549999999999,-0.00012999999999996348,-0.005659999999999998,0.08026549999999999,0.00012999999999996348,0.005659999999999998,-0.1277435,0.06306,-0.36152,0.15513649999999998,0.06791000000000003,-0.34511000000000003,-0.12097350000000001,-0.27481999999999995,-0.206012,0.1150465,-0.28464999999999996,-0.214421
129,-0.012679999999999997,0.676385,-0.070092,-0.145872,0.453605,-0.08371400000000001,-0.269472,0.678135,-0.153229,0.147218,0.457277,-0.071742,0.276128,0.687445,-0.120406,-0.317852,0.9261550000000001,-0.236585,0.311988,0.9111750000000001,-0.176063,-0.08018800000000001,0.00011499999999997623,-0.005365000000000009,0.08018800000000001,-0.00011499999999997623,0.005364999999999995,-0.127102,0.07210500000000003,-0.359815,0.154738,0.07725500000000002,-0.343625,-0.12543200000000002,-0.26756499999999994,-0.212288,0.114348,-0.27719499999999997,-0.213668
130,-0.012359500000000002,0.67537,-0.068663,-0.14618150000000002,0.45416,-0.082458,-0.27051149999999996,0.6798299999999999,-0.153619,0.14761849999999999,0.457695,-0.069994,0.27604850000000003,0.68497,-0.118471,-0.31830149999999996,0.92508,-0.23694500000000002,0.31234850000000003,0.91211,-0.17556,-0.07999049999999999,0.00036000000000002697,-0.004964999999999997,0.07999049999999999,-0.00036000000000002697,0.004964999999999997,-0.1265715,0.08078000000000002,-0.357835,0.1542685,0.08633000000000002,-0.34191499999999997,-0.12994150000000002,-0.26032999999999995,-0.218415,0.1134985,-0.26879,-0.206229
131,-0.012045000000000004,0.67459,-0.06693900000000001,-0.146589,0.455081,-0.08094500000000002,-0.271679,0.68127,-0.153763,0.147901,0.458113,-0.06809800000000002,0.275911,0.68148,-0.11612900000000001,-0.318599,0.9232100000000001,-0.236925,0.31239100000000003,0.90864,-0.17389700000000002,-0.079786,0.0008000000000000229,-0.004475000000000007,0.079786,-0.0008000000000000229,0.004474999999999993,-0.12614899999999998,0.08921000000000001,-0.355655,0.153771,0.09542,-0.33987500000000004,-0.134719,-0.25332,-0.224335,0.11213100000000001,-0.26217,-0.199336
132,-0.011735500000000003,0.674215,-0.065306,-0.14698350000000002,0.45610200000000006,-0.079328,-0.27286350000000004,0.6831550000000001,-0.15372,0.1480665,0.45902100000000007,-0.066062,0.2757565,0.6799350000000001,-0.11387499999999999,-0.3190635,0.9221350000000001,-0.236765,0.3125465,0.906895,-0.172258,-0.07953450000000001,0.0010050000000000336,-0.003924999999999998,0.07953450000000001,-0.0010049999999999226,0.003924999999999998,-0.1255735,0.09832500000000005,-0.352745,0.15332649999999998,0.10545500000000008,-0.33725499999999997,-0.13874350000000002,-0.24570499999999995,-0.229235,0.11053649999999998,-0.2544549999999999,-0.192033
133,-0.011521000000000003,0.6734100000000001,-0.06368300000000002,-0.147427,0.457589,-0.07768900000000001,-0.274017,0.68413,-0.15362,0.148203,0.459546,-0.06403500000000001,0.275563,0.68037,-0.112208,-0.319477,0.92657,-0.236255,0.31253299999999995,0.90693,-0.17072,-0.079315,0.0011999999999999789,-0.003385000000000013,0.079315,-0.0011999999999999789,0.003384999999999999,-0.12517699999999998,0.10698000000000002,-0.34963500000000003,0.152943,0.11499999999999999,-0.334405,-0.142007,-0.23858999999999997,-0.232635,0.108263,-0.24726000000000004,-0.184876
134,-0.011296999999999998,0.672625,-0.062153,-0.147797,0.45926100000000003,-0.07606299999999999,-0.275077,0.684565,-0.153616,0.148223,0.46,-0.062099,0.274883,0.680795,-0.11064,-0.319727,0.930515,-0.23579,0.312523,0.9069849999999999,-0.169392,-0.07913300000000001,0.001395000000000035,-0.0028799999999999937,0.07913300000000001,-0.001395000000000035,0.0028800000000000076,-0.124757,0.11532500000000001,-0.34643,0.15265299999999998,0.124305,-0.33145,-0.14527700000000002,-0.23209499999999994,-0.23596,0.10691999999999999,-0.24048499999999995,-0.179035
135,-0.011184,0.672185,-0.06103900000000001,-0.14822800000000003,0.460769,-0.074466,-0.275988,0.6859649999999999,-0.15374100000000002,0.147982,0.46070099999999997,-0.06041500000000001,0.274162,0.681235,-0.10941200000000001,-0.31989799999999996,0.933495,-0.23608,0.312462,0.906325,-0.168348,-0.078981,0.0014049999999999896,-0.0024200000000000055,0.078981,-0.0014049999999999896,0.0024199999999999916,-0.12427800000000001,0.12333499999999997,-0.34329,0.152362,0.13322499999999998,-0.32843,-0.14912799999999998,-0.22655500000000006,-0.23945000000000002,0.105949,-0.23453500000000005,-0.175715
136,-0.011216500000000004,0.67196,-0.060082,-0.14862150000000002,0.46205999999999997,-0.07297600000000001,-0.2756015,0.68404,-0.152922,0.1478485,0.46131999999999995,-0.058989,0.27404850000000003,0.68123,-0.108341,-0.3195815,0.93548,-0.23549,0.31262850000000003,0.90693,-0.167852,-0.0786945,0.0013400000000000079,-0.0020499999999999963,0.0786945,-0.0013400000000000079,0.0020499999999999963,-0.12365150000000001,0.13061999999999996,-0.34037,0.1521385,0.14096999999999998,-0.32562,-0.1530015,-0.22203000000000006,-0.24323,0.1053925,-0.22982000000000002,-0.17283500000000002
137,-0.0111945,0.67183,-0.05934899999999999,-0.1490355,0.46298,-0.071793,-0.2761255,0.68506,-0.15298299999999998,0.1478445,0.46196000000000004,-0.05781699999999999,0.2740645,0.68067,-0.107613,-0.3196455,0.93704,-0.23601999999999998,0.3128045,0.90601,-0.16747399999999998,-0.0784895,0.0011900000000000244,-0.0018199999999999883,0.0784895,-0.0011900000000000244,0.0018200000000000022,-0.1231755,0.13657999999999998,-0.33782999999999996,0.1520545,0.1472,-0.3232,-0.1549455,-0.21779000000000004,-0.24352,0.10463549999999999,-0.22633999999999999,-0.169588
138,-0.011195000000000004,0.671749,-0.058653,-0.14953100000000003,0.46338000000000007,-0.070719,-0.275581,0.6857700000000001,-0.152115,0.14781899999999998,0.46237000000000006,-0.056815,0.273979,0.6800700000000001,-0.107085,-0.319381,0.9382300000000001,-0.23555,0.312849,0.90493,-0.16714299999999999,-0.078318,0.001060000000000061,-0.0015899999999999942,0.078318,-0.0010599999999999499,0.001590000000000008,-0.12286100000000001,0.14190000000000008,-0.33543,0.151949,0.1528100000000001,-0.32096,-0.15709099999999998,-0.21401999999999988,-0.24391,0.103624,-0.22345999999999988,-0.166266
139,-0.011161499999999998,0.671616,-0.058157,-0.15003149999999998,0.463475,-0.069773,-0.2748815,0.685955,-0.15116200000000002,0.14776850000000002,0.46281500000000003,-0.055912,0.2737385,0.679325,-0.10670400000000001,-0.31919149999999996,0.938955,-0.235105,0.3127785,0.903355,-0.16694799999999999,-0.0781785,0.0008749999999999591,-0.0014450000000000018,0.0781785,-0.0008749999999999591,0.0014450000000000018,-0.12257149999999999,0.14652500000000002,-0.333285,0.15186850000000002,0.157615,-0.318975,-0.15929149999999997,-0.21093499999999998,-0.244405,0.1032345,-0.22053500000000004,-0.16605
140,-0.011265500000000005,0.671477,-0.057973,-0.1506645,0.463235,-0.06905,-0.2753145,0.682185,-0.150638,0.1475255,0.463385,-0.055163,0.2731155,0.679419,-0.106538,-0.3197445,0.937765,-0.23549,0.3125155,0.905235,-0.167228,-0.0781445,0.0004250000000000087,-0.0013900000000000023,0.0781445,-0.0004250000000000087,0.0013900000000000023,-0.12241450000000001,0.150605,-0.33132,0.1515555,0.16168500000000002,-0.31736,-0.1614345,-0.20816500000000004,-0.24505,0.10274449999999999,-0.21831500000000004,-0.165995
141,-0.011480499999999998,0.671509,-0.057946999999999985,-0.1514025,0.46283,-0.06853299999999998,-0.2757325,0.677242,-0.150188,0.1471375,0.46349,-0.05466299999999999,0.27229749999999997,0.678367,-0.10644599999999999,-0.3203925,0.93547,-0.23603,0.31231749999999997,0.90612,-0.16765599999999997,-0.0781405,0.00021999999999999797,-0.0013799999999999923,0.0781405,-0.00021999999999999797,0.0013800000000000062,-0.12245249999999999,0.15323000000000003,-0.32997,0.1512575,0.16406000000000004,-0.31627,-0.1635825,-0.20704,-0.24602,0.1022855,-0.21733999999999998,-0.165984
142,-0.011767499999999997,0.6720539999999999,-0.05795600000000001,-0.1520845,0.46222499999999994,-0.06817600000000001,-0.2761045,0.671658,-0.14982,0.1466855,0.46357499999999996,-0.05431300000000001,0.2714455,0.6771989999999999,-0.106493,-0.3210845,0.9332149999999999,-0.23672,0.3121155,0.9062749999999999,-0.16834,-0.0781495,6.499999999998174e-05,-0.00137000000000001,0.0781495,-6.500000000009276e-05,0.0013699999999999962,-0.12250449999999999,0.15482499999999993,-0.32903000000000004,0.1509555,0.16555499999999995,-0.31562,-0.1655445,-0.206635,-0.24694,0.10209750000000001,-0.21714500000000003,-0.16792800000000002
143,-0.01225,0.6723939999999999,-0.05800099999999999,-0.15279800000000002,0.461425,-0.06797299999999999,-0.276208,0.6651649999999999,-0.148536,0.146222,0.46374499999999996,-0.05425699999999999,0.270582,0.6763939999999999,-0.10656299999999999,-0.321518,0.929025,-0.236735,0.311872,0.9067449999999999,-0.169756,-0.078176,-7.500000000004725e-05,-0.001354999999999995,0.078176,7.499999999993623e-05,0.001355000000000009,-0.12256800000000001,0.15605499999999994,-0.328365,0.150532,0.16670499999999994,-0.31527499999999997,-0.167548,-0.2065450000000001,-0.247885,0.101776,-0.21704500000000004,-0.170046
144,-0.012728000000000003,0.672439,-0.058109,-0.153483,0.46043,-0.06792899999999999,-0.276313,0.65894,-0.147232,0.145867,0.46379000000000004,-0.054314,0.269967,0.675766,-0.106692,-0.321913,0.9246099999999999,-0.23674,0.311537,0.90693,-0.17082,-0.078202,-0.00012000000000000899,-0.0013800000000000062,0.078202,0.00012000000000000899,0.0013800000000000062,-0.12260299999999999,0.15632000000000001,-0.3281,0.150287,0.16681,-0.31533,-0.168933,-0.20680999999999994,-0.24875,0.101632,-0.21728000000000003,-0.172158
145,-0.013111000000000005,0.672521,-0.05843999999999999,-0.153896,0.46043,-0.06800999999999999,-0.274986,0.654766,-0.14559899999999998,0.145594,0.46379000000000004,-0.05438699999999999,0.26950399999999997,0.675766,-0.106871,-0.322426,0.92144,-0.23696,0.311284,0.90766,-0.17196499999999998,-0.078203,-0.00012000000000000899,-0.0013799999999999923,0.078203,0.00012000000000000899,0.0013800000000000062,-0.12256600000000001,0.15633000000000002,-0.32815,0.150144,0.16682000000000002,-0.31539,-0.169266,-0.20706000000000002,-0.24935,0.10184399999999999,-0.21718000000000004,-0.17438599999999999
146,-0.013542499999999999,0.6729390000000001,-0.059009000000000006,-0.1540975,0.46031,-0.068096,-0.2748775,0.654496,-0.14566400000000002,0.1454825,0.46386000000000005,-0.054466,0.2694525,0.675639,-0.10757900000000001,-0.3228775,0.92117,-0.237935,0.3110125,0.9081300000000001,-0.173317,-0.0782275,-0.00019999999999997797,-0.0013750000000000012,0.0782275,0.00019999999999997797,0.0013750000000000012,-0.12258749999999999,0.15606000000000003,-0.328225,0.1501025,0.16655000000000003,-0.315465,-0.1691575,-0.20733000000000001,-0.249415,0.1019525,-0.21699999999999997,-0.17445100000000002
147,-0.014017499999999999,0.673679,-0.05969,-0.1541455,0.460245,-0.068157,-0.27563550000000003,0.6545030000000001,-0.145991,0.1453545,0.46387500000000004,-0.054649,0.2693345,0.675574,-0.108447,-0.3232155,0.9211050000000001,-0.23833000000000001,0.3104845,0.909595,-0.17471799999999998,-0.0782675,-0.0002649999999999597,-0.001350000000000004,0.0782675,0.00026500000000007073,0.00134999999999999,-0.1227755,0.15599500000000005,-0.32828999999999997,0.1499745,0.16648500000000005,-0.31562,-0.16911549999999997,-0.207395,-0.24947,0.1020885,-0.21706499999999995,-0.175933
148,-0.014102499999999997,0.674059,-0.060704999999999995,-0.1538555,0.459515,-0.06878,-0.2760455,0.656012,-0.1474,0.1455145,0.463405,-0.05522199999999999,0.2692645,0.674896,-0.110113,-0.32328549999999995,0.920015,-0.23864999999999997,0.3102345,0.9122950000000001,-0.177723,-0.0784495,-0.00011499999999997623,-0.0013200000000000017,0.0784495,0.00011499999999997623,0.0013200000000000017,-0.1228155,0.15475499999999998,-0.32892,0.15011449999999998,0.16539500000000001,-0.31618,-0.1688555,-0.20848500000000003,-0.24956,0.10302350000000002,-0.21760500000000005,-0.177327
149,-0.014033999999999998,0.6741409999999999,-0.062724,-0.15337299999999998,0.4585349999999999,-0.070246,-0.275733,0.658589,-0.149485,0.145927,0.46196499999999996,-0.056477,0.269337,0.675025,-0.11311299999999999,-0.323883,0.9182949999999999,-0.239735,0.310217,0.9137649999999999,-0.181409,-0.078596,1.4999999999987246e-05,-0.0014850000000000002,0.078596,-1.5000000000098268e-05,0.0014850000000000002,-0.12268299999999999,0.15100499999999994,-0.330775,0.150417,0.16161499999999995,-0.31771499999999997,-0.166173,-0.21024500000000002,-0.24751499999999999,0.10334299999999999,-0.2201550000000001,-0.177848
150,-0.0136475,0.673947,-0.06498599999999999,-0.15280149999999998,0.45887999999999995,-0.072207,-0.2742815,0.658497,-0.150372,0.14632849999999997,0.46021999999999996,-0.05808699999999999,0.2695085,0.6764899999999999,-0.116712,-0.32443150000000004,0.91884,-0.241345,0.31022849999999996,0.91504,-0.185414,-0.0787365,0.00031999999999998696,-0.0017249999999999904,0.0787365,-0.00031999999999998696,0.0017250000000000043,-0.1224515,0.14626999999999996,-0.333125,0.1507985,0.15674999999999994,-0.319525,-0.16317150000000002,-0.21271000000000007,-0.245445,0.1050215,-0.22347000000000006,-0.180705
151,-0.012999999999999998,0.674625,-0.0676,-0.15198799999999998,0.45938500000000004,-0.07479,-0.273798,0.665676,-0.154415,0.146792,0.45815500000000003,-0.060284,0.26979200000000003,0.679695,-0.12099399999999999,-0.324878,0.923395,-0.24467499999999998,0.310062,0.916575,-0.189658,-0.07886399999999999,0.0006249999999999867,-0.002134999999999998,0.07886399999999999,-0.0006249999999999867,0.002134999999999998,-0.12211799999999998,0.140305,-0.336035,0.151252,0.15046500000000002,-0.321705,-0.15944799999999998,-0.21619499999999992,-0.24361499999999997,0.10755200000000001,-0.22779499999999997,-0.185786
152,-0.012445999999999999,0.675765,-0.070916,-0.15113100000000002,0.459215,-0.07789,-0.271671,0.665705,-0.157159,0.14709899999999998,0.454365,-0.06293399999999999,0.269869,0.681115,-0.125699,-0.324681,0.925025,-0.24726,0.30956900000000004,0.918365,-0.194403,-0.07874999999999999,0.0008350000000000302,-0.0029799999999999965,0.07874999999999999,-0.0008350000000000302,0.0029799999999999965,-0.12196100000000001,0.131455,-0.33991,0.151639,0.14125500000000002,-0.32437,-0.153331,-0.22225499999999998,-0.23822,0.108343,-0.23340499999999997,-0.187475
153,-0.011980499999999998,0.67815,-0.074316,-0.1503275,0.45968699999999996,-0.081055,-0.2707875,0.67075,-0.161756,0.1473525,0.45189999999999997,-0.066064,0.2698925,0.68411,-0.130723,-0.3242675,0.93016,-0.25088,0.3089025,0.92084,-0.199433,-0.0784405,0.0010299999999999754,-0.0038900000000000046,0.0784405,-0.0010299999999999754,0.0038900000000000046,-0.12174749999999998,0.12120999999999998,-0.34415,0.15206250000000002,0.13071,-0.32715,-0.14708749999999998,-0.22965999999999998,-0.2323,0.10903650000000001,-0.23926000000000003,-0.18911899999999998
154,-0.0115315,0.679065,-0.07751,-0.1494835,0.460576,-0.084242,-0.2698735,0.6742049999999999,-0.165586,0.1475965,0.44901599999999997,-0.069203,0.2697565,0.686735,-0.135653,-0.3238535,0.933515,-0.254295,0.3081165,0.925535,-0.204725,-0.0781095,0.0013649999999999496,-0.004824999999999996,0.0781095,-0.0013650000000000606,0.004824999999999996,-0.12155350000000001,0.109545,-0.348615,0.1524965,0.11876499999999995,-0.330035,-0.1406235,-0.23838500000000007,-0.226235,0.1100505,-0.24595500000000003,-0.190583
155,-0.010994500000000004,0.68233,-0.080907,-0.14873550000000002,0.463115,-0.087812,-0.2696255,0.67961,-0.169913,0.14753449999999999,0.449114,-0.073063,0.26960449999999997,0.69078,-0.140424,-0.32364550000000003,0.93417,-0.25776,0.3067045,0.93037,-0.209987,-0.0780895,0.0015899999999999803,-0.005650000000000002,0.0780895,-0.0015899999999999803,0.005649999999999988,-0.12133550000000001,0.09589000000000003,-0.35105,0.1527145,0.10439999999999999,-0.33255,-0.13407550000000001,-0.25010999999999994,-0.22065,0.11229449999999999,-0.25554,-0.193443
156,-0.011029999999999998,0.6859949999999999,-0.08412499999999999,-0.147903,0.46583399999999997,-0.09029099999999998,-0.26860300000000004,0.684655,-0.17214,0.14735700000000002,0.45096499999999995,-0.07653299999999999,0.26940699999999995,0.693645,-0.144616,-0.323233,0.939255,-0.26093999999999995,0.30524700000000005,0.9387049999999999,-0.214686,-0.078057,0.0016249999999999876,-0.006139999999999993,0.078057,-0.0016249999999999876,0.0061400000000000066,-0.121253,0.080175,-0.35231,0.152807,0.08868499999999996,-0.3338,-0.127223,-0.263525,-0.214851,0.114577,-0.26666500000000004,-0.195473
157,-0.011128499999999996,0.68957,-0.087059,-0.1470415,0.467545,-0.092142,-0.2678115,0.69101,-0.174843,0.14703850000000002,0.45305599999999996,-0.079636,0.2689485,0.69781,-0.147802,-0.3227315,0.94544,-0.263955,0.3036485,0.94451,-0.21719,-0.0779965,0.0013299999999999979,-0.006534999999999999,0.0779965,-0.0013300000000000534,0.006535000000000013,-0.1212115,0.06455,-0.35345499999999996,0.1530185,0.07305999999999996,-0.334935,-0.12109149999999999,-0.27677000000000007,-0.209117,0.1171485,-0.27764,-0.19700099999999998
158,-0.011475500000000003,0.692075,-0.08774900000000002,-0.1465265,0.468249,-0.092645,-0.2686865,0.691585,-0.175545,0.1465135,0.454187,-0.08147800000000002,0.26786350000000003,0.699955,-0.148568,-0.3229165,0.946285,-0.26478,0.30173350000000004,0.945705,-0.218057,-0.07781450000000001,0.0010950000000000126,-0.006350000000000008,0.07781450000000001,-0.0010949999999999571,0.0063499999999999945,-0.12134650000000002,0.04316500000000001,-0.35363,0.1532035,0.05149500000000001,-0.3351,-0.11769650000000001,-0.29634499999999997,-0.204745,0.1190435,-0.29427499999999995,-0.197027
159,-0.011831499999999995,0.696245,-0.08813099999999999,-0.1461005,0.469167,-0.09262,-0.2696305,0.687435,-0.175611,0.1456595,0.45586,-0.082932,0.26663950000000003,0.702075,-0.148652,-0.3225205,0.944655,-0.26476,0.29983950000000004,0.949465,-0.218185,-0.0775215,0.0006349999999999967,-0.006330000000000002,0.0775215,-0.0006349999999999967,0.006330000000000002,-0.12125050000000001,0.014705000000000024,-0.35268,0.1534395,0.021894999999999998,-0.33426999999999996,-0.11418049999999999,-0.324865,-0.200251,0.1210395,-0.320015,-0.196173
160,-0.012173499999999993,0.699775,-0.088466,-0.1461765,0.470445,-0.09262200000000001,-0.2707465,0.687575,-0.175683,0.14487350000000002,0.45858,-0.083972,0.2656735,0.702375,-0.148714,-0.3220465,0.947225,-0.26473,0.29822350000000003,0.951325,-0.21829,-0.0770985,0.00013499999999999623,-0.0063,0.0770985,-0.00013499999999999623,0.0063,-0.1213165,-0.013064999999999993,-0.35104,0.1535435,-0.0072349999999999914,-0.33301000000000003,-0.1113465,-0.35278499999999996,-0.19579400000000002,0.12251350000000001,-0.34532500000000005,-0.1943
161,-0.012684499999999994,0.703735,-0.088474,-0.1465445,0.471631,-0.09262100000000001,-0.2708145,0.691835,-0.17441800000000002,0.1437155,0.463831,-0.084901,0.2648155,0.7054549999999999,-0.14874500000000002,-0.3208845,0.9480850000000001,-0.26461999999999997,0.2967755,0.955905,-0.21836,-0.0766255,-0.0003849999999999687,-0.006240000000000009,0.0766255,0.0003850000000000242,0.0062399999999999956,-0.1217645,-0.04113499999999998,-0.34782,0.1532755,-0.03708499999999998,-0.33025000000000004,-0.11136449999999999,-0.383115,-0.195081,0.1240855,-0.3745649999999999,-0.19417
162,-0.013417499999999999,0.7072750000000001,-0.08785699999999999,-0.1468375,0.47286500000000004,-0.091759,-0.2712075,0.696875,-0.172363,0.14271250000000002,0.467965,-0.08435999999999999,0.2641925,0.707625,-0.147694,-0.3196075,0.947565,-0.26315,0.29541249999999997,0.959335,-0.217444,-0.0761945,-0.0008050000000000002,-0.0059999999999999915,0.0761945,0.0008050000000000002,0.0059999999999999915,-0.1222575,-0.07055499999999998,-0.34285,0.1528425,-0.06783499999999998,-0.32581,-0.1115075,-0.416095,-0.193535,0.1234725,-0.4054749999999999,-0.189386
163,-0.0141575,0.7110799999999999,-0.08623900000000001,-0.14719349999999998,0.47475999999999996,-0.08973300000000001,-0.2712335,0.70077,-0.169109,0.1417365,0.47272000000000003,-0.08290800000000001,0.2636765,0.7085,-0.145117,-0.3185335,0.95004,-0.25961500000000004,0.29430649999999997,0.96028,-0.215197,-0.0758315,-0.0013099999999999778,-0.005585000000000007,0.0758315,0.0013099999999999778,0.005584999999999993,-0.1227235,-0.09996,-0.336245,0.15248650000000002,-0.09824,-0.32006500000000004,-0.1117435,-0.44954999999999995,-0.191443,0.1235765,-0.43878999999999996,-0.185643
164,-0.0145665,0.712195,-0.08372299999999999,-0.1472135,0.47457499999999997,-0.08696,-0.2704535,0.702475,-0.164848,0.1411565,0.474115,-0.080906,0.2633565,0.710395,-0.141369,-0.31782350000000004,0.954025,-0.25495,0.29417649999999995,0.961025,-0.211698,-0.0757835,-0.0017449999999999966,-0.004859999999999989,0.0757835,0.0017449999999999966,0.004860000000000003,-0.12281349999999999,-0.126585,-0.32799,0.1525065,-0.12588499999999997,-0.31308,-0.1118335,-0.481035,-0.18857000000000002,0.1256265,-0.470085,-0.18356899999999998
165,-0.0152475,0.714855,-0.08033499999999999,-0.1475205,0.473995,-0.083094,-0.26971049999999996,0.703485,-0.159661,0.1404995,0.47479499999999997,-0.077801,0.2630595,0.7133050000000001,-0.13655699999999998,-0.3178505,0.955225,-0.248945,0.2939195,0.958725,-0.20687,-0.0757745,-0.002035000000000009,-0.004014999999999991,0.0757745,0.002035000000000009,0.004015000000000005,-0.12295050000000002,-0.152125,-0.318195,0.1522995,-0.152345,-0.304695,-0.11199049999999999,-0.512295,-0.184952,0.1266295,-0.5018750000000001,-0.179659
166,-0.01611,0.71754,-0.07656299999999999,-0.14803300000000003,0.47473,-0.078703,-0.270573,0.7035199999999999,-0.15392899999999998,0.139787,0.47531,-0.07438199999999999,0.262747,0.71448,-0.131465,-0.31810299999999997,0.9555,-0.24258,0.293557,0.95575,-0.201021,-0.075796,-0.0021599999999999953,-0.0033399999999999958,0.075796,0.0021599999999999953,0.0033400000000000096,-0.12311299999999999,-0.17747,-0.30745,0.15190700000000001,-0.17859,-0.29547,-0.112173,-0.54425,-0.181039,0.126367,-0.53485,-0.175257
167,-0.016881999999999998,0.72149,-0.071349,-0.147988,0.47687,-0.07330300000000001,-0.27133799999999997,0.70079,-0.146768,0.139542,0.47803,-0.069465,0.26271200000000006,0.71749,-0.125035,-0.31807799999999997,0.95758,-0.23550000000000001,0.293702,0.95836,-0.193795,-0.075501,-0.0023799999999999932,-0.0025500000000000106,0.075501,0.002380000000000021,0.0025499999999999967,-0.12314800000000001,-0.19838,-0.29717000000000005,0.151902,-0.19902999999999998,-0.28525,-0.112008,-0.57165,-0.176773,0.127252,-0.56269,-0.170452
168,-0.016662999999999997,0.724925,-0.06599950000000002,-0.147687,0.478005,-0.06856150000000001,-0.272097,0.702955,-0.1397565,0.13971299999999998,0.480175,-0.06459050000000001,0.262973,0.720045,-0.11820250000000002,-0.317907,0.9598450000000001,-0.2276975,0.294373,0.959185,-0.1859985,-0.075394,-0.0024450000000000027,-0.001862500000000003,0.075394,0.0024450000000000027,0.0018624999999999892,-0.122797,-0.211165,-0.2881575,0.152273,-0.210965,-0.2762775,-0.111847,-0.5895250000000001,-0.17274850000000003,0.128143,-0.580665,-0.1660005
169,-0.016101999999999998,0.7277549999999999,-0.060326000000000005,-0.14746099999999998,0.479815,-0.06343000000000001,-0.272691,0.7052849999999999,-0.13243300000000002,0.140269,0.48247500000000004,-0.05929700000000001,0.263659,0.722145,-0.11097200000000002,-0.317491,0.9569749999999999,-0.21885500000000002,0.29527899999999996,0.960005,-0.177681,-0.07511699999999999,-0.002464999999999995,-0.0013250000000000067,0.07511699999999999,0.0024650000000000227,0.0013249999999999929,-0.12212099999999998,-0.22475499999999998,-0.278125,0.152869,-0.22373499999999996,-0.26622500000000004,-0.11147099999999999,-0.608115,-0.168128,0.129349,-0.5992550000000001,-0.16087600000000002
170,-0.015374500000000003,0.7298600000000001,-0.0545655,-0.1473425,0.48197999999999996,-0.0584555,-0.2724425,0.7040700000000001,-0.12485550000000001,0.1407475,0.48436,-0.0543445,0.2642675,0.7229800000000001,-0.1041555,-0.3169725,0.95925,-0.20994849999999998,0.2961575,0.95836,-0.1697665,-0.0741375,-0.0023999999999999994,-0.0014605000000000035,0.0741375,0.0023999999999999994,0.0014605000000000035,-0.12133249999999998,-0.23621,-0.2684585,0.1532675,-0.23355,-0.2564585,-0.1110025,-0.6229899999999999,-0.1632425,0.1306175,-0.61461,-0.15485749999999998
171,-0.0145955,0.7307554999999999,-0.0493615,-0.1472345,0.4831355,-0.053893500000000004,-0.27288450000000003,0.7024155000000001,-0.1181765,0.1412455,0.4856555,-0.04995650000000001,0.2650755,0.7242154999999999,-0.0980165,-0.3170145,0.9632555,-0.2022845,0.2971255,0.9580255,-0.1628215,-0.0732445,-0.002436500000000008,-0.001534500000000008,0.0732445,0.0024364999999999942,0.0015344999999999942,-0.1206845,-0.24539450000000002,-0.2598045,0.1534355,-0.2415045,-0.2477045,-0.1105845,-0.6343645,-0.1585995,0.1320455,-0.6266445,-0.14948250000000002
172,-0.013937999999999999,0.732578,-0.0449845,-0.14721299999999998,0.48235799999999995,-0.0492475,-0.273363,0.704568,-0.1113255,0.141967,0.486008,-0.0456325,0.26574699999999996,0.727278,-0.0921875,-0.317353,0.965048,-0.19574350000000001,0.298127,0.9574079999999999,-0.15625050000000001,-0.072501,-0.0024460000000000037,-0.0016064999999999968,0.072501,0.0024460000000000037,0.0016064999999999968,-0.12005299999999999,-0.257022,-0.2511135,0.153477,-0.253192,-0.23876350000000002,-0.110263,-0.6460520000000001,-0.1538925,0.132877,-0.638332,-0.1442995
173,-0.013345499999999996,0.734212,-0.03990550000000001,-0.1471725,0.483842,-0.044096500000000004,-0.2736325,0.705092,-0.1045785,0.1425275,0.487822,-0.04074850000000001,0.2663275,0.727152,-0.08604450000000001,-0.3181825,0.9671620000000001,-0.1886025,0.29971749999999997,0.958792,-0.1491715,-0.0717215,-0.002360000000000001,-0.0018315000000000137,0.0717215,0.002360000000000001,0.0018314999999999998,-0.11923249999999999,-0.26995800000000003,-0.2406025,0.1535775,-0.26612800000000003,-0.2279625,-0.1097725,-0.658988,-0.14867550000000002,0.1336375,-0.651268,-0.13858150000000002
174,-0.0129715,0.732558,-0.030443500000000005,-0.1472355,0.484178,-0.034509500000000005,-0.2741855,0.7062980000000001,-0.09372950000000001,0.14273450000000001,0.48702799999999996,-0.031358500000000004,0.26686449999999995,0.725178,-0.07537350000000001,-0.3193455,0.9659880000000001,-0.1774125,0.30124449999999997,0.9578180000000001,-0.1378565,-0.0710845,-0.0021609999999999963,-0.00196650000000001,0.0710845,0.002161000000000003,0.001966499999999996,-0.11858550000000001,-0.283262,-0.2253925,0.1533845,-0.279432,-0.2119925,-0.1094555,-0.6725819999999999,-0.1392785,0.13457449999999999,-0.6648419999999999,-0.1283285
175,-0.01268,0.7333109999999999,-0.021049499999999992,-0.148148,0.485501,-0.025333499999999995,-0.274608,0.707341,-0.0833385,0.142822,0.487481,-0.022335499999999994,0.267252,0.724281,-0.06471149999999999,-0.32075800000000004,0.964691,-0.1659475,0.30285199999999995,0.959011,-0.1267285,-0.070557,-0.0021790000000000004,-0.0017804999999999974,0.070557,0.0021790000000000004,0.0017805000000000043,-0.11712800000000001,-0.296489,-0.2067075,0.15224200000000002,-0.294689,-0.19247749999999997,-0.109238,-0.686729,-0.12904349999999998,0.135452,-0.679439,-0.1176295
