sb224sc-HT22-VT27/4dt907/src/data/kinect_good_preprocessed_not_cut_A11_mediapipe/A96_kinect.csv
FrameNo,nose_3d_x,nose_3d_y,nose_3d_z,left_shoulder_3d_x,left_shoulder_3d_y,left_shoulder_3d_z,left_elbow_3d_x,left_elbow_3d_y,left_elbow_3d_z,right_shoulder_3d_x,right_shoulder_3d_y,right_shoulder_3d_z,right_elbow_3d_x,right_elbow_3d_y,right_elbow_3d_z,left_wrist_3d_x,left_wrist_3d_y,left_wrist_3d_z,right_wrist_3d_x,right_wrist_3d_y,right_wrist_3d_z,left_hip_3d_x,left_hip_3d_y,left_hip_3d_z,right_hip_3d_x,right_hip_3d_y,right_hip_3d_z,left_knee_3d_x,left_knee_3d_y,left_knee_3d_z,right_knee_3d_x,right_knee_3d_y,right_knee_3d_z,left_ankle_3d_x,left_ankle_3d_y,left_ankle_3d_z,right_ankle_3d_x,right_ankle_3d_y,right_ankle_3d_z
0,0.017299500000000002,0.7566545,0.12972050000000002,-0.1477435,0.6008945,0.1153925,-0.24688349999999998,0.7939045,0.0384225,0.1808565,0.5888645,0.08173749999999999,0.2786165,0.7893844999999999,0.0500105,-0.2667635,1.0344645000000001,-0.0068645000000000025,0.3299765,1.0328645,0.025756499999999998,-0.07851849999999999,0.0020465,-0.0011035000000000003,0.07851849999999999,-0.0020465,0.0011035000000000003,-0.16204349999999998,-0.5827555,-0.009950500000000001,0.1564865,-0.5968055,-0.022669499999999995,-0.1864235,-0.9601755000000001,0.0272115,0.21994650000000002,-1.0108355,-0.1095945
1,0.016987000000000002,0.7567594999999999,0.129824,-0.147932,0.6006294999999999,0.11549,-0.247532,0.7932195,0.037918,0.180578,0.5883794999999999,0.08176,0.278478,0.7888394999999999,0.050055999999999996,-0.267312,1.0340795,-0.0072560000000000055,0.329768,1.0326795,0.025509999999999998,-0.078575,0.0020395,-0.0009880000000000028,0.078575,-0.0020395,0.0009879999999999958,-0.162152,-0.5828405,-0.009634000000000004,0.156388,-0.5968005000000001,-0.022434999999999997,-0.188702,-0.9580905000000001,0.026560999999999998,0.218498,-1.0101205,-0.10730300000000001
2,0.016923000000000004,0.7575825,0.1261175,-0.147899,0.6010125,0.1126965,-0.24778899999999998,0.7930825,0.0341705,0.18050100000000002,0.5884725,0.0789565,0.27843100000000004,0.7887625,0.0463615,-0.267939,1.0338925,-0.0125095,0.329421,1.0327925,0.0199475,-0.07871,0.0020995000000000007,-0.0008944999999999995,0.07871,-0.002099499999999999,0.0008944999999999995,-0.161829,-0.5829575,-0.006801500000000002,0.157891,-0.5968175,-0.0205515,-0.18821899999999997,-0.9575975,0.0312275,0.21914100000000003,-1.0088675,-0.1010965
3,0.016627000000000006,0.7576655,0.126145,-0.14799400000000001,0.6009555000000001,0.112625,-0.248184,0.7928855,0.034151,0.180666,0.5889255,0.07927000000000001,0.278426,0.7892355000000001,0.045721,-0.268644,1.0334554999999999,-0.012852000000000002,0.329376,1.0323555,0.019392,-0.07877100000000001,0.0020774999999999995,-0.0008060000000000012,0.07877100000000001,-0.0020775000000000012,0.0008060000000000012,-0.161904,-0.5829844999999999,-0.006628999999999996,0.15759599999999999,-0.5968344999999999,-0.020532,-0.189224,-0.9539945,0.031080000000000003,0.21934599999999999,-1.0104345000000001,-0.10645800000000001
4,0.016410499999999995,0.7571445,0.1252765,-0.1480185,0.6004945,0.1122305,-0.2484385,0.7923545000000001,0.033910499999999996,0.1808415,0.5893145000000001,0.07940349999999999,0.2786115,0.7895745000000001,0.045240499999999996,-0.2693685,1.0322545,-0.013510500000000002,0.3293315,1.0318545000000001,0.018730499999999997,-0.0786935,0.0019934999999999987,-0.0007125000000000048,0.0786935,-0.0019935000000000005,0.0007124999999999979,-0.1618385,-0.5831854999999999,-0.006763500000000006,0.1581015,-0.5967255,-0.021580500000000002,-0.1894285,-0.9546555,0.030383499999999997,0.21756150000000002,-1.0102255,-0.10180950000000001
5,0.016309000000000004,0.756951,0.125357,-0.147969,0.6006009999999999,0.11199500000000001,-0.248629,0.792351,0.033726,0.180671,0.589241,0.079242,0.278391,0.789531,0.045044,-0.270049,1.030921,-0.013940000000000001,0.329301,1.031921,0.01841,-0.07882700000000001,0.0019379999999999988,-0.0007609999999999978,0.07882700000000001,-0.0019380000000000005,0.0007609999999999978,-0.161749,-0.583079,-0.006702,0.157881,-0.596709,-0.021384,-0.188649,-0.954399,0.030397,0.216441,-1.0068789999999999,-0.09692699999999999
6,0.0164695,0.7576625,0.1253495,-0.1477925,0.6004824999999999,0.1119625,-0.2487425,0.7921325,0.03383850000000001,0.1808875,0.5898924999999999,0.0795425,0.2788275,0.7900324999999999,0.044825500000000004,-0.2702825,1.0304525,-0.014155499999999994,0.32953750000000004,1.0320525,0.018293500000000004,-0.07897850000000001,0.002009500000000001,-0.0006664999999999935,0.07897850000000001,-0.002009499999999999,0.0006665000000000004,-0.1615725,-0.5919075,-0.0037894999999999943,0.1578975,-0.5967775000000001,-0.020926499999999994,-0.1886625,-0.9535875,0.030958500000000003,0.21427749999999998,-1.0092275,-0.0750975
7,0.0161715,0.7577029999999999,0.1252305,-0.14800049999999998,0.600563,0.11220949999999999,-0.24942050000000002,0.791503,0.0336385,0.1807995,0.5898129999999999,0.07987649999999999,0.27845949999999997,0.790033,0.0449805,-0.2709905,1.029243,-0.014215499999999999,0.3293295,1.0318429999999998,0.0187575,-0.07892550000000001,0.001965999999999999,-0.0005824999999999997,0.07892550000000001,-0.0019660000000000007,0.0005824999999999997,-0.1608605,-0.5878770000000001,-0.0072085,0.1572295,-0.5968070000000001,-0.0208715,-0.1886505,-0.955767,0.031315499999999996,0.21866950000000002,-1.010207,-0.09910550000000001
8,0.016045500000000004,0.7578159999999999,0.125131,-0.14803049999999998,0.600536,0.11218399999999999,-0.2497105,0.791476,0.03354599999999999,0.1808095,0.589996,0.080021,0.2784595,0.7902159999999999,0.044909,-0.2715205,1.029216,-0.014412000000000001,0.3293495,1.032116,0.018686999999999995,-0.07896249999999999,0.001962,-0.0005520000000000039,0.07896249999999999,-0.001962,0.0005519999999999969,-0.16071049999999998,-0.5876140000000001,-0.006961000000000002,0.1572095,-0.596804,-0.020713000000000002,-0.1886205,-0.955794,0.03147199999999999,0.2187395,-1.009944,-0.09845899999999999
9,0.016013000000000003,0.7578159999999999,0.125221,-0.14800999999999997,0.600536,0.11225500000000001,-0.24998000000000004,0.791476,0.033608,0.18081000000000003,0.589996,0.080154,0.27845,0.7902159999999999,0.044967,-0.27198,1.029216,-0.014426999999999995,0.32918,1.032316,0.018855000000000004,-0.078995,0.001962,-0.0005219999999999947,0.078995,-0.001962,0.0005220000000000016,-0.16063,-0.5876140000000001,-0.006745999999999995,0.15716999999999998,-0.596804,-0.02055,-0.18871,-0.955794,0.031637,0.21849000000000002,-1.009944,-0.09730000000000001
10,0.015994500000000002,0.757817,0.125327,-0.1479895,0.6004970000000001,0.112366,-0.2502395,0.791287,0.033715999999999996,0.1808305,0.590037,0.080311,0.27845050000000005,0.790257,0.045084,-0.2723795,1.028957,-0.014371000000000002,0.3289805,1.032357,0.019021999999999997,-0.0790295,0.0019360000000000002,-0.0004909999999999984,0.0790295,-0.0019360000000000002,0.0004909999999999984,-0.1604395,-0.588643,-0.006599000000000001,0.1569905,-0.596803,-0.020470000000000002,-0.1888095,-0.955873,0.031566,0.2178405,-1.010383,-0.09640399999999999
11,0.015920000000000004,0.7578075000000001,0.1254845,-0.14798099999999997,0.6004875000000001,0.11247950000000001,-0.250481,0.7911275,0.033868499999999996,0.180799,0.5900975,0.0804425,0.278409,0.7903175,0.0452395,-0.272771,1.0286175,-0.014289500000000004,0.32875899999999997,1.0331175,0.0191325,-0.079056,0.0019135000000000003,-0.00046449999999999964,0.079056,-0.0019135000000000003,0.00046449999999999964,-0.16031099999999998,-0.5896524999999999,-0.006490500000000003,0.15679900000000002,-0.5968025,-0.0203845,-0.188801,-0.9563625,0.0315065,0.217229,-1.0105525,-0.09547049999999999
12,0.015857999999999997,0.7580545,0.125606,-0.147975,0.6005245,0.112572,-0.250695,0.7910645000000001,0.033997,0.18074500000000002,0.5901945,0.08050199999999999,0.278355,0.7904145,0.045361,-0.273105,1.0285145,-0.014156000000000002,0.328495,1.0342144999999998,0.019243,-0.07908699999999999,0.0019344999999999987,-0.0004590000000000011,0.07908699999999999,-0.0019345000000000005,0.0004590000000000011,-0.160215,-0.5902455,-0.006441000000000002,0.156735,-0.5968455,-0.020361999999999998,-0.188575,-0.9566155,0.031613,0.216865,-1.0103655,-0.094663
13,0.015793,0.7583475000000001,0.12571100000000002,-0.14796,0.6005575000000001,0.112665,-0.25086,0.7910375000000001,0.034107,0.18070999999999998,0.5902375000000001,0.080573,0.2783,0.7904675,0.045465000000000005,-0.27340000000000003,1.0284175,-0.014040999999999998,0.32822,1.0346175,0.019281000000000003,-0.079121,0.0019524999999999994,-0.0004849999999999993,0.079121,-0.0019525000000000011,0.0004849999999999993,-0.16017,-0.5908025,-0.006415999999999998,0.15661999999999998,-0.5968825,-0.020373999999999996,-0.18841,-0.9568825,0.031715,0.21664999999999998,-1.0103325,-0.09439199999999999
14,0.015729000000000003,0.7585715000000001,0.1259075,-0.147959,0.6006115000000001,0.1127545,-0.25097899999999995,0.7910515,0.0342035,0.180641,0.5902015,0.0806165,0.27820100000000003,0.7904515000000001,0.0455685,-0.27363899999999997,1.0283315,-0.013938500000000006,0.32803099999999996,1.0361315,0.019389499999999997,-0.079154,0.0019755,-0.000509500000000003,0.079154,-0.0019755,0.0005094999999999961,-0.160169,-0.5903185,-0.006376500000000007,0.156501,-0.5969184999999999,-0.0203435,-0.188219,-0.9572385,0.031751499999999995,0.216831,-1.0102585,-0.09465150000000001
15,0.015678999999999995,0.7587915000000001,0.126201,-0.147943,0.6006315000000001,0.11283499999999999,-0.251083,0.7910715,0.034378,0.180597,0.5902215000000001,0.080702,0.278147,0.7905015000000001,0.045702,-0.273813,1.0282215000000001,-0.013848,0.328067,1.0377215,0.019505,-0.079202,0.0019825,-0.0005430000000000018,0.079202,-0.0019825,0.0005430000000000018,-0.160273,-0.5902385,-0.0061229999999999965,0.156437,-0.5969384999999999,-0.020317999999999996,-0.187993,-0.9575984999999999,0.031799,0.217077,-1.0100585,-0.09479100000000001
16,0.015607499999999996,0.759047,0.1265195,-0.1479205,0.6006870000000001,0.1128795,-0.25119050000000004,0.791097,0.034560499999999994,0.1805295,0.590237,0.0807245,0.2780795,0.7905270000000001,0.04588949999999999,-0.27394050000000003,1.0282369999999998,-0.013751500000000007,0.3280595,1.039537,0.019537499999999996,-0.0792465,0.0020009999999999993,-0.0005675000000000055,0.0792465,-0.002001000000000001,0.0005674999999999986,-0.16036050000000002,-0.5904229999999999,-0.005889500000000006,0.1564195,-0.5969629999999999,-0.020319500000000004,-0.1879905,-0.9570829999999999,0.0315035,0.21657949999999998,-1.009823,-0.09424750000000001
17,0.0155385,0.7592435,0.12686550000000002,-0.1478895,0.6007334999999999,0.1129455,-0.2512795,0.7911435,0.034813500000000004,0.1804305,0.5901035,0.0806925,0.2779705,0.7904435,0.0461045,-0.2740695,1.0281535,-0.013559499999999995,0.3280405,1.0412535,0.0196195,-0.0792905,0.0020254999999999995,-0.0005835000000000007,0.0792905,-0.0020254999999999995,0.0005835000000000007,-0.1604295,-0.5904165,-0.0056244999999999976,0.1564505,-0.5969665000000001,-0.0203285,-0.1879695,-0.9565665,0.0311995,0.21660049999999997,-1.0096165,-0.0944635
18,0.015468499999999998,0.7594310000000001,0.1272485,-0.14785350000000003,0.600811,0.11303650000000001,-0.25137349999999997,0.791201,0.035131499999999996,0.1802565,0.5899110000000001,0.0806505,0.2778365,0.7902910000000001,0.0462985,-0.2742035,1.028171,-0.013319499999999998,0.3280165,1.0428709999999999,0.0197155,-0.0793355,0.002055999999999999,-0.0005975000000000008,0.0793355,-0.0020560000000000005,0.0005975000000000008,-0.16051349999999998,-0.589889,-0.0056235000000000035,0.1564065,-0.596999,-0.020353500000000004,-0.1879635,-0.9560489999999999,0.0309505,0.21649649999999998,-1.009339,-0.09464049999999999
19,0.015413999999999997,0.7595385,0.12761,-0.147824,0.6008785,0.113134,-0.251484,0.7912585,0.03545899999999999,0.180086,0.5896885,0.080631,0.277706,0.7900585,0.046523999999999996,-0.274354,1.0281885000000002,-0.013057000000000006,0.32797600000000005,1.0441885000000002,0.019787999999999993,-0.079367,0.0020824999999999993,-0.0006070000000000034,0.079367,-0.0020825,0.0006069999999999964,-0.16065400000000002,-0.5893515,-0.005510000000000008,0.156406,-0.5970115,-0.020359000000000002,-0.188204,-0.9553415000000001,0.030798999999999993,0.216386,-1.0089314999999999,-0.094785
20,0.015385999999999999,0.759602,0.12796649999999998,-0.147798,0.6009319999999999,0.11321250000000001,-0.251568,0.791302,0.035765500000000006,0.179982,0.589492,0.0806325,0.277642,0.789862,0.0467595,-0.274478,1.028292,-0.012811499999999997,0.328082,1.0450920000000001,0.0198415,-0.079403,0.0021069999999999995,-0.0006084999999999979,0.079403,-0.0021069999999999995,0.0006085000000000049,-0.160828,-0.588778,-0.005434499999999995,0.156422,-0.597028,-0.020363499999999993,-0.188238,-0.954948,0.030593500000000003,0.216172,-1.008308,-0.0946405
21,0.015360499999999997,0.7595845,0.128228,-0.14775850000000001,0.6009245000000001,0.113232,-0.2516585,0.7912745,0.035948,0.1799815,0.5895245,0.08063400000000001,0.27765150000000005,0.7899045,0.046916,-0.2745885,1.0281544999999999,-0.012674999999999999,0.3282315,1.0451545,0.019834,-0.0794325,0.0021075,-0.0006069999999999964,0.0794325,-0.0021075,0.0006070000000000034,-0.1609885,-0.5885254999999999,-0.005255999999999997,0.15644149999999998,-0.5970154999999999,-0.020403000000000004,-0.1882185,-0.9550154999999999,0.03046,0.2162115,-1.0081455,-0.094642
22,0.015328999999999999,0.7595555,0.128496,-0.147719,0.6009055,0.113254,-0.251749,0.7912355,0.036115,0.179971,0.5895255,0.080651,0.277671,0.7898955,0.047045,-0.27470900000000004,1.0281155,-0.012602000000000002,0.328401,1.0452155,0.019825,-0.079454,0.0021065000000000007,-0.0006060000000000024,0.079454,-0.0021065,0.0006060000000000024,-0.16113899999999998,-0.5884645,-0.005138000000000004,0.15646100000000002,-0.5970044999999999,-0.020475000000000007,-0.188039,-0.9551545,0.030391,0.21609099999999998,-1.0082345000000001,-0.094634
23,0.015315500000000006,0.7595299999999999,0.12863,-0.1476555,0.60088,0.11323,-0.25182550000000004,0.7912,0.036209,0.1799045,0.58941,0.08062,0.2776145,0.7897799999999999,0.047083,-0.2747855,1.02807,-0.012559,0.3283345,1.04397,0.01977,-0.0794985,0.0021049999999999992,-0.0006309999999999996,0.0794985,-0.002105,0.0006309999999999996,-0.1612355,-0.58872,-0.005192000000000002,0.1565645,-0.59702,-0.020662999999999994,-0.18796549999999998,-0.95547,0.030188,0.2161545,-1.00836,-0.094696
24,0.015278499999999999,0.759515,0.1287235,-0.1476365,0.600855,0.1131775,-0.25189649999999997,0.791145,0.036199499999999996,0.1799335,0.589285,0.08062949999999999,0.27764350000000004,0.789675,0.0469915,-0.2749065,1.028025,-0.012642500000000001,0.32847350000000003,1.042825,0.019523499999999996,-0.07951949999999999,0.0021060000000000002,-0.0006115000000000009,0.07951949999999999,-0.0021059999999999994,0.000611499999999994,-0.1612565,-0.588755,-0.0052805000000000005,0.1567135,-0.597035,-0.020817500000000003,-0.1876765,-0.955525,0.030053499999999997,0.2164835,-1.008445,-0.09544949999999999
25,0.015266499999999999,0.7594970000000001,0.128657,-0.1476405,0.600827,0.113094,-0.2519905,0.7910870000000001,0.036080999999999995,0.17994949999999998,0.589117,0.08066899999999999,0.27769950000000004,0.789517,0.046866,-0.2750205,1.027977,-0.012760000000000007,0.3286895,1.041677,0.019198999999999997,-0.0795495,0.0021089999999999998,-0.0005720000000000031,0.0795495,-0.0021090000000000006,0.0005719999999999961,-0.1614005,-0.588283,-0.005487000000000006,0.15685949999999999,-0.597043,-0.021015000000000006,-0.1875805,-0.955603,0.029857999999999996,0.2168795,-1.008393,-0.096525
26,0.0152445,0.7594795,0.1285315,-0.1477385,0.6007495,0.1130545,-0.2521985,0.7909695,0.0359655,0.1799915,0.5891695,0.08072750000000001,0.2777515,0.7895395,0.0467365,-0.2752485,1.0278095,-0.012874500000000004,0.3288515,1.0408095,0.0188015,-0.07960049999999999,0.0020935,-0.0005275000000000002,0.07960049999999999,-0.0020935000000000007,0.0005275000000000002,-0.16157849999999999,-0.5873405,-0.0056825,0.15700150000000002,-0.5970305,-0.021385499999999995,-0.1874785,-0.9553505,0.0296255,0.21720150000000002,-1.0084905,-0.0975435
27,0.0151685,0.7593015,0.1282965,-0.1478575,0.6006815,0.11285150000000001,-0.2524475,0.7908315,0.0357385,0.1800425,0.5892515,0.0806905,0.2778325,0.7896015,0.046407500000000004,-0.2754175,1.0276615,-0.0131765,0.3290225,1.0419615,0.018080500000000003,-0.0796385,0.0020724999999999997,-0.000502499999999996,0.0796385,-0.0020724999999999997,0.0005025000000000029,-0.1617275,-0.5865885,-0.006030500000000001,0.1570325,-0.5970185,-0.022069499999999992,-0.1875675,-0.9549185,0.0290445,0.2172025,-1.0082385,-0.0981835
28,0.0150825,0.759037,0.128041,-0.1480135,0.600617,0.112599,-0.2527235,0.790587,0.035269,0.18011649999999998,0.589387,0.08054800000000001,0.2779765,0.7896569999999999,0.045655,-0.2755335,1.027207,-0.014101000000000002,0.3291365,1.041807,0.016464,-0.07964850000000001,0.002057,-0.0004860000000000003,0.07964850000000001,-0.002057,0.0004860000000000003,-0.16183350000000002,-0.585893,-0.006629000000000003,0.1570665,-0.597023,-0.022937000000000006,-0.18772350000000002,-0.954353,0.028444999999999998,0.2171765,-1.008193,-0.09887299999999999
29,0.0150905,0.758646,0.127592,-0.14814049999999998,0.600566,0.11227400000000001,-0.25302050000000004,0.790256,0.034478,0.1801295,0.589386,0.080236,0.2781595,0.789476,0.044545,-0.2755805,1.026686,-0.015507,0.3291595,1.039586,0.014221000000000001,-0.07967550000000001,0.0020410000000000003,-0.00044199999999999795,0.07967550000000001,-0.0020410000000000003,0.00044199999999999795,-0.1619305,-0.585224,-0.007454000000000002,0.15713950000000002,-0.597034,-0.024421000000000005,-0.18797049999999998,-0.953594,0.027804000000000002,0.2172595,-1.0080140000000002,-0.09986499999999998
30,0.015057000000000001,0.7579635,0.1267995,-0.148304,0.6005135,0.1118805,-0.25309400000000004,0.7897335,0.0330035,0.180036,0.5894435,0.07979549999999999,0.278476,0.7892335,0.0427055,-0.27568400000000004,1.0259435000000001,-0.017875499999999996,0.328936,1.0371435,0.0096165,-0.0797,0.0019885,-0.0003415000000000015,0.0797,-0.0019885,0.0003415000000000015,-0.162084,-0.5842665,-0.008849499999999996,0.157136,-0.5970165000000001,-0.0262765,-0.188214,-0.9529665,0.027034500000000003,0.217256,-1.0077565,-0.1008165
31,0.014973,0.7574430000000001,0.12563200000000002,-0.14852300000000002,0.6006530000000001,0.111227,-0.253243,0.789213,0.030801000000000002,0.17993699999999999,0.5896830000000001,0.079127,0.278837,0.7889430000000001,0.039908,-0.275893,1.024943,-0.021256999999999998,0.32870699999999997,1.032943,0.0036530000000000035,-0.07973,0.001948,-0.0002149999999999999,0.07973,-0.0019479999999999996,0.0002149999999999999,-0.162283,-0.5829669999999999,-0.010779999999999998,0.15714699999999998,-0.597047,-0.028647999999999993,-0.188303,-0.9525469999999999,0.026101000000000003,0.217167,-1.006957,-0.10174100000000001
32,0.014888499999999999,0.7568,0.12419550000000001,-0.14874150000000003,0.60079,0.11047850000000001,-0.25342149999999997,0.7885500000000001,0.0281225,0.1798285,0.58985,0.0784325,0.2792585,0.7885300000000001,0.0365455,-0.2761515,1.02378,-0.0254275,0.3287985,1.02888,-0.0023644999999999985,-0.0797655,0.001888,-1.5500000000001624e-05,0.0797655,-0.001888,1.5500000000001624e-05,-0.16252149999999999,-0.5815699999999999,-0.012991499999999996,0.1571285,-0.59703,-0.031460499999999995,-0.1883915,-0.9517899999999999,0.0250765,0.2170285,-1.0061200000000001,-0.10240450000000001
33,0.014762,0.7561815,0.12195700000000001,-0.149282,0.6003514999999999,0.108816,-0.253662,0.7877215,0.024901,0.179698,0.5888715,0.07738,0.27960799999999997,0.7879214999999999,0.032408,-0.276372,1.0229615,-0.030751999999999995,0.32910799999999996,1.0258615,-0.009480999999999996,-0.079839,0.0018534999999999997,0.00018599999999999867,0.079839,-0.0018535,-0.00018599999999999867,-0.162872,-0.5793585000000001,-0.015830999999999998,0.15712800000000002,-0.5970285000000001,-0.034806,-0.188582,-0.9503085,0.023785,0.21698800000000001,-1.0047385,-0.103599
34,0.014590500000000001,0.7553175000000001,0.119323,-0.1498425,0.5999175,0.107068,-0.2539925,0.7867375000000001,0.020949,0.17943750000000003,0.5878375,0.076085,0.2798575,0.7870375000000001,0.027555,-0.2766225,1.0216975000000001,-0.037017999999999995,0.3294275,1.0227975,-0.017291,-0.0799745,0.0018095,0.0004009999999999986,0.0799745,-0.0018095,-0.0004009999999999986,-0.1633425,-0.5770725,-0.018914,0.1570975,-0.5961624999999999,-0.03839000000000001,-0.1888725,-0.9487724999999999,0.02237,0.2168275,-1.0034025,-0.10476
35,0.014387499999999994,0.7542555000000001,0.1159975,-0.1504345,0.5995755,0.1052105,-0.25445450000000003,0.7856055000000001,0.0161905,0.1789655,0.5866355,0.07462350000000001,0.2799855,0.7863855000000001,0.0220315,-0.2769145,1.0204054999999999,-0.044312500000000005,0.32974549999999997,1.0194055,-0.0258585,-0.08014450000000001,0.0017794999999999998,0.0005925000000000027,0.08014450000000001,-0.0017794999999999998,-0.0005925000000000027,-0.16397450000000002,-0.5751145,-0.022218500000000002,0.1569855,-0.5949544999999999,-0.042303499999999994,-0.18947450000000002,-0.9475644999999999,0.021096499999999997,0.21644549999999999,-1.0021945,-0.1058425
36,0.014110500000000002,0.75353,0.112388,-0.1511495,0.59943,0.103161,-0.2549995,0.78445,0.010759999999999999,0.1782805,0.58562,0.07284199999999999,0.2801305,0.7856799999999999,0.016096999999999997,-0.2773095,1.01925,-0.052529000000000006,0.3299305,1.01585,-0.03521200000000001,-0.0803375,0.001738,0.0008149999999999963,0.0803375,-0.001738,-0.0008150000000000032,-0.1647895,-0.57293,-0.025797,0.15680049999999998,-0.59351,-0.04625900000000001,-0.19024950000000002,-0.9461,0.019652999999999997,0.2159805,-1.00075,-0.106943
37,0.0138195,0.7532325,0.108284,-0.1519105,0.5993425,0.100525,-0.2554105,0.7839925,0.004986000000000001,0.17725950000000001,0.5831625,0.070407,0.2802895,0.7856425,0.009547,-0.2776805,1.0186725,-0.061370999999999995,0.3302495,1.0129725,-0.044565999999999995,-0.0805795,0.0017274999999999999,0.0009959999999999969,0.0805795,-0.0017274999999999999,-0.0009959999999999969,-0.1656605,-0.5700275,-0.029648999999999995,0.1565395,-0.5914874999999999,-0.050962999999999994,-0.1910505,-0.9440474999999999,0.018012,0.2155595,-0.9987275,-0.10794899999999999
38,0.0136495,0.7529925,0.103939,-0.15262550000000003,0.5989525,0.09756500000000001,-0.2556855,0.7842125,-0.0010479999999999934,0.17631449999999999,0.5806125,0.067683,0.2805245,0.7858925,0.002621000000000002,-0.2778555,1.0180825,-0.07094799999999998,0.3306545,1.0110825,-0.054016,-0.0808115,0.0017044999999999994,0.0012060000000000022,0.0808115,-0.0017045000000000003,-0.0012059999999999987,-0.1665355,-0.5666275000000001,-0.033433,0.1562845,-0.5887475000000001,-0.055482,-0.19180550000000002,-0.9413675,0.016313000000000005,0.21504449999999997,-0.9962175000000001,-0.10954799999999998
39,0.0134885,0.7527005,0.099391,-0.1533285,0.5986505000000001,0.094481,-0.25591850000000005,0.7846205,-0.0074719999999999995,0.1753115,0.5788805,0.064889,0.2806415,0.7859605000000001,-0.004078000000000005,-0.2780085,1.0178505,-0.080586,0.33137150000000004,1.0098505,-0.06202100000000001,-0.0810645,0.0015894999999999998,0.0014389999999999993,0.0810645,-0.0015895000000000006,-0.0014390000000000028,-0.1673885,-0.5634595,-0.037222000000000005,0.1560415,-0.5863594999999999,-0.05971,-0.1925085,-0.9391295,0.014644999999999998,0.2146415,-0.9939495,-0.11097599999999999
40,0.013380499999999998,0.7522869999999999,0.0946925,-0.1539075,0.598217,0.0913385,-0.2560975,0.784737,-0.014670500000000003,0.1744125,0.577357,0.0621525,0.2808625,0.7862669999999999,-0.010549499999999996,-0.27812749999999997,1.017877,-0.0901825,0.3323125,1.010477,-0.0696715,-0.0813885,0.0014070000000000003,0.001740499999999999,0.0813885,-0.0014070000000000003,-0.001740499999999999,-0.1681675,-0.560353,-0.0407565,0.1558125,-0.583813,-0.0637445,-0.1930675,-0.936733,0.0130965,0.21420250000000002,-0.9917229999999999,-0.11248250000000001
41,0.013255,0.7521844999999999,0.0898785,-0.154423,0.5976144999999999,0.0880555,-0.25615299999999996,0.7852045,-0.0221345,0.173507,0.5761744999999999,0.0593625,0.28099700000000005,0.7867445,-0.0169585,-0.278243,1.0179745,-0.0999535,0.333037,1.0110145,-0.0778935,-0.081729,0.0013044999999999984,0.0018984999999999974,0.081729,-0.0013045,-0.0018985000000000009,-0.168903,-0.5571955000000001,-0.04412150000000001,0.155607,-0.5808955,-0.0674525,-0.193503,-0.9342055,0.011348499999999997,0.213777,-0.9892255,-0.11412349999999999
42,0.013215999999999997,0.751963,0.0852155,-0.154874,0.597523,0.0852165,-0.256434,0.785563,-0.029796500000000004,0.172756,0.576233,0.0566515,0.281126,0.7873330000000001,-0.023502500000000003,-0.278414,1.0178429999999998,-0.1098595,0.333596,1.011253,-0.0862695,-0.082023,0.0011609999999999988,0.002179500000000001,0.082023,-0.0011610000000000006,-0.002179500000000001,-0.169584,-0.553877,-0.0470775,0.155456,-0.5773269999999999,-0.0708455,-0.193914,-0.931427,0.0097905,0.213446,-0.986547,-0.11569949999999998
43,0.013279499999999994,0.7520685,0.08045150000000001,-0.15525550000000002,0.5974185,0.0819955,-0.2567155,0.7860985,-0.0374415,0.1720445,0.5755085,0.0537095,0.2813445,0.7879885,-0.030200499999999998,-0.2785155,1.0181385,-0.1198005,0.3341845,1.0117685,-0.09497050000000001,-0.0822725,0.0010514999999999986,0.0026084999999999997,0.0822725,-0.0010515000000000004,-0.0026084999999999997,-0.1701755,-0.5504715,-0.050121500000000006,0.1553145,-0.5733515,-0.07426749999999999,-0.1943055,-0.9285315,0.0079635,0.2131345,-0.9837415,-0.1173805
44,0.013318500000000004,0.752169,0.075823,-0.1556135,0.597069,0.07800699999999999,-0.2569435,0.786509,-0.04502400000000001,0.17140650000000002,0.5747289999999999,0.050591,0.28163649999999996,0.788739,-0.037071,-0.27854349999999994,1.018669,-0.129805,0.33477650000000003,1.012429,-0.103645,-0.0824115,0.0009579999999999988,0.0031169999999999982,0.0824115,-0.0009580000000000005,-0.0031170000000000017,-0.17065349999999999,-0.5470710000000001,-0.053116,0.1551265,-0.569311,-0.07746600000000001,-0.1946335,-0.925631,0.005973999999999998,0.21278650000000002,-0.9808910000000001,-0.11909499999999999
45,0.013382000000000002,0.7520005000000001,0.0709625,-0.155653,0.5963705,0.07379949999999999,-0.25719299999999995,0.7869705,-0.052451500000000005,0.170827,0.5738605,0.047462500000000005,0.28187700000000004,0.7892805,-0.0440755,-0.278543,1.0187905,-0.13970249999999998,0.335507,1.0129405,-0.11212249999999999,-0.08251900000000001,0.0007955000000000011,0.003650500000000001,0.08251900000000001,-0.0007955000000000011,-0.003650500000000001,-0.17103300000000002,-0.5438395,-0.056030500000000004,0.154947,-0.5652595,-0.0806895,-0.194853,-0.9228594999999999,0.004101500000000001,0.212497,-0.9782295,-0.1212125
46,0.013498000000000003,0.7513234999999999,0.0662735,-0.155694,0.5956635,0.0700125,-0.25751399999999997,0.7871035,-0.059942499999999996,0.17069600000000001,0.5738534999999999,0.0445025,0.282196,0.7891435,-0.050866499999999995,-0.278674,1.0185135,-0.14918250000000002,0.336366,1.0130735,-0.12066249999999999,-0.082599,0.0007085000000000008,0.0042404999999999995,0.082599,-0.0007085000000000008,-0.004240500000000001,-0.17124399999999998,-0.5410165,-0.058541499999999996,0.154926,-0.5622965000000001,-0.0831425,-0.194854,-0.9203865,0.0024814999999999993,0.212446,-0.9760365000000001,-0.1233125
47,0.0135825,0.7507594999999999,0.0614665,-0.1556885,0.5951295,0.06618550000000001,-0.25777849999999997,0.7873694999999999,-0.0676935,0.1706315,0.5740295,0.041527499999999995,0.2825115,0.7889495,-0.0577245,-0.2790085,1.0183595,-0.1583875,0.3371815,1.0130795,-0.1297775,-0.08272950000000001,0.0006155000000000015,0.0048094999999999995,0.08272950000000001,-0.000615499999999998,-0.004809500000000001,-0.1714285,-0.5379205,-0.06135549999999999,0.1549815,-0.5595105,-0.0857675,-0.19482850000000002,-0.9176305,0.0004664999999999999,0.2123815,-0.9733605000000001,-0.1258075
48,0.013578499999999995,0.749584,0.056623999999999994,-0.1556655,0.594774,0.062340999999999994,-0.2579355,0.786964,-0.075058,0.1706345,0.574354,0.038439,0.2829745,0.788564,-0.06512,-0.2792555,1.0181339999999999,-0.167585,0.3379645,1.013204,-0.138695,-0.0829125,0.0005789999999999997,0.005390000000000001,0.0829125,-0.0005789999999999997,-0.005389999999999999,-0.1715255,-0.5350159999999999,-0.064027,0.1551545,-0.556766,-0.08859500000000001,-0.1945955,-0.9149959999999999,-0.001542,0.2122645,-0.9706659999999999,-0.127555
49,0.013637999999999997,0.7489220000000001,0.051881,-0.155596,0.5932820000000001,0.057656,-0.258016,0.7868120000000001,-0.081637,0.170684,0.574242,0.034578,0.28358399999999995,0.7884920000000001,-0.072674,-0.27940600000000004,1.018172,-0.176705,0.33866399999999997,1.013462,-0.147675,-0.083189,0.000505000000000002,0.005922,0.083189,-0.0005049999999999985,-0.005922,-0.171526,-0.5315679999999999,-0.066671,0.15526399999999999,-0.553808,-0.091375,-0.194256,-0.912068,-0.0034590000000000003,0.212204,-0.967378,-0.12931499999999999
50,0.013705999999999998,0.747938,0.0471675,-0.15552000000000002,0.591818,0.0531695,-0.25825,0.7862779999999999,-0.08787550000000001,0.17079999999999998,0.574668,0.030865499999999997,0.28422000000000003,0.7881779999999999,-0.08017450000000001,-0.27957,1.017668,-0.18558850000000002,0.33953,1.010708,-0.15824850000000001,-0.08346100000000001,0.0005209999999999972,0.0065275,0.08346100000000001,-0.0005210000000000006,-0.0065275,-0.17154,-0.5281020000000001,-0.06956050000000001,0.15541,-0.551142,-0.09432850000000001,-0.19392,-0.908972,-0.005355499999999999,0.21216,-0.964302,-0.1315585
51,0.014070999999999995,0.7470675,0.0426125,-0.155389,0.5895175,0.0486905,-0.258369,0.7857475,-0.0936365,0.171151,0.5746375,0.0270805,0.285281,0.7884375,-0.0874785,-0.279619,1.0174375,-0.19383650000000002,0.340571,1.0085375,-0.1677365,-0.083809,0.0004885000000000028,0.0070245,0.083809,-0.0004884999999999994,-0.0070244999999999995,-0.171269,-0.5248025,-0.0723735,0.155841,-0.5480925,-0.0975565,-0.193289,-0.9059225,-0.007121499999999999,0.212621,-0.9611825,-0.1336565
52,0.014419999999999999,0.7462305,0.0383285,-0.155346,0.5877005,0.0445545,-0.258406,0.7839105,-0.0990985,0.171544,0.5744605,0.0234925,0.286344,0.7886705,-0.0943985,-0.279686,1.0174005,-0.2015885,0.341534,1.0066005,-0.1766785,-0.08412700000000001,0.0004994999999999999,0.0073455,0.08412700000000001,-0.0004994999999999999,-0.0073455000000000005,-0.17097600000000002,-0.5209195,-0.0750445,0.156274,-0.5444995,-0.1007085,-0.192546,-0.9023895,-0.0084895,0.213104,-0.9574795,-0.1355085
53,0.014740500000000007,0.7456225,0.0344225,-0.1552955,0.5863225,0.041385500000000006,-0.2583955,0.7816925,-0.1040065,0.1719245,0.5740925,0.0201455,0.2872245,0.7884425,-0.1010965,-0.2797755,1.0171925,-0.2086965,0.3422945,1.0046925,-0.1850565,-0.0844255,0.0005355000000000013,0.0074235,0.0844255,-0.0005355000000000013,-0.0074234999999999995,-0.1707455,-0.5168775,-0.0776275,0.1566745,-0.5407775,-0.1036765,-0.1917655,-0.8986675,-0.009469499999999999,0.2136245,-0.9536275,-0.1364165
54,0.0148225,0.7444204999999999,0.0307565,-0.1552235,0.5853705,0.0386865,-0.2586235,0.7790905,-0.1086235,0.1723065,0.5724705,0.0170275,0.28773649999999995,0.7881505,-0.1074435,-0.2798935,1.0171605,-0.2153735,0.34255650000000004,1.0026105,-0.1931035,-0.0847405,0.0007745000000000044,0.0074125,0.0847405,-0.0007744999999999974,-0.007412500000000001,-0.1705735,-0.5127395,-0.0801515,0.1570165,-0.5374195,-0.1064735,-0.1909835,-0.8951395000000001,-0.0101885,0.2142365,-0.9495895000000001,-0.1373335
55,0.014993000000000001,0.744189,0.0272785,-0.155451,0.584089,0.0357815,-0.258661,0.776989,-0.1129685,0.172809,0.570199,0.0138555,0.288279,0.787809,-0.1133985,-0.279921,1.018099,-0.2218085,0.343019,1.0017690000000001,-0.2006885,-0.08513699999999999,0.0009650000000000006,0.007265499999999999,0.08513699999999999,-0.0009650000000000006,-0.0072655,-0.170301,-0.507481,-0.0829285,0.15747899999999998,-0.532681,-0.1097985,-0.190011,-0.8905810000000001,-0.010755500000000001,0.215049,-0.944331,-0.1379685
56,0.0151255,0.7441895,0.024055,-0.15583750000000002,0.5822394999999999,0.032873,-0.25863749999999996,0.7747495,-0.11690299999999999,0.17330250000000003,0.5677694999999999,0.010737,0.2889125,0.7871794999999999,-0.118953,-0.28000749999999996,1.0192895,-0.22787300000000002,0.3435925,1.0019995,-0.20741300000000001,-0.0855685,0.0011444999999999997,0.007076000000000001,0.0855685,-0.0011444999999999997,-0.007076000000000001,-0.1699175,-0.5017505,-0.085808,0.1579125,-0.5274805,-0.113173,-0.1890075,-0.8855505,-0.011304999999999999,0.21565250000000002,-0.9383905,-0.137793
57,0.015080999999999995,0.7446805,0.021274,-0.15658,0.5800305,0.029782,-0.25875000000000004,0.7729705,-0.120491,0.17377,0.5654505,0.007704000000000001,0.28964999999999996,0.7863905,-0.12382099999999999,-0.28019000000000005,1.0192105,-0.233671,0.34426,1.0022005,-0.213551,-0.08605,0.0012975,0.00694,0.08605,-0.0012975,-0.00694,-0.16951,-0.49623950000000006,-0.08872,0.15835,-0.5226795,-0.11651099999999999,-0.18769,-0.8806295,-0.011688,0.2164,-0.9329995,-0.137991
58,0.014782500000000004,0.7440585,0.0186095,-0.1573165,0.5787485,0.0276475,-0.2589165,0.7703185,-0.1239565,0.1742435,0.5646185,0.0057185,0.29023350000000003,0.7843685,-0.1283565,-0.28036649999999996,1.0191285,-0.2391265,0.34453350000000005,1.0020685,-0.2197465,-0.08645749999999999,0.0013714999999999977,0.0069605,0.08645749999999999,-0.0013714999999999977,-0.0069605,-0.1691865,-0.49120150000000007,-0.0920715,0.1583435,-0.5182615,-0.1205365,-0.1864165,-0.8762115,-0.0117495,0.2169635,-0.9279615,-0.1380165
59,0.0146455,0.744441,0.016022,-0.1577945,0.577731,0.025248,-0.2588145,0.768731,-0.127444,0.1747655,0.563581,0.0030419999999999996,0.2908055,0.782421,-0.133014,-0.2801645,1.020731,-0.24456399999999998,0.34490550000000003,1.0062609999999999,-0.223704,-0.0869155,0.0015460000000000057,0.006983,0.0869155,-0.0015460000000000057,-0.006983,-0.16857450000000002,-0.48463900000000004,-0.095653,0.1585455,-0.512319,-0.12486399999999999,-0.1848345,-0.870399,-0.011995,0.2179855,-0.921119,-0.138064
60,0.014376499999999999,0.744045,0.0135175,-0.1581585,0.577815,0.0233595,-0.2590885,0.766905,-0.1311405,0.1750815,0.563075,0.0009304999999999999,0.2909515,0.779175,-0.13724050000000002,-0.2800685,1.018615,-0.24990050000000003,0.3449815,1.0100850000000001,-0.2273505,-0.0873025,0.0017599999999999977,0.0068715,0.0873025,-0.0017600000000000116,-0.006871500000000001,-0.1681585,-0.478615,-0.0995005,0.15833150000000001,-0.506605,-0.1292905,-0.1833685,-0.865045,-0.012221500000000001,0.2188715,-0.914295,-0.1374505
61,0.014466999999999995,0.744174,0.011306,-0.158184,0.576804,0.0213,-0.259144,0.766014,-0.134547,0.175426,0.561744,-0.0012890000000000002,0.291136,0.776264,-0.14116700000000001,-0.279694,1.017084,-0.254627,0.344846,1.010064,-0.23367700000000002,-0.087674,0.001911999999999997,0.006742999999999999,0.087674,-0.001911999999999997,-0.006743,-0.167404,-0.47187599999999996,-0.103287,0.15839599999999998,-0.500296,-0.13356700000000002,-0.18124400000000002,-0.859396,-0.012050000000000002,0.220026,-0.906596,-0.13639700000000002
62,0.01448,0.7442074999999999,0.0091935,-0.158105,0.5755574999999999,0.0192265,-0.259245,0.7649775000000001,-0.1381125,0.17584499999999997,0.5602975,-0.0034145,0.29130500000000004,0.7734875000000001,-0.1448425,-0.279275,1.0152575,-0.2591825,0.344175,1.0065475,-0.2405825,-0.088064,0.001959499999999989,0.006675499999999999,0.088064,-0.001959500000000003,-0.0066755,-0.16646499999999997,-0.4653025,-0.1069625,0.15851500000000002,-0.49364250000000004,-0.1379425,-0.17911500000000002,-0.8530525,-0.0114175,0.221665,-0.8984025,-0.1354125
63,0.014497499999999997,0.7448815,0.007412500000000001,-0.1580375,0.5741015,0.0171625,-0.2593975,0.7648515,-0.1414975,0.1761725,0.5587115,-0.0054104999999999995,0.2911925,0.7704814999999999,-0.1482075,-0.2789175,1.0133815,-0.26342750000000004,0.3431925,1.0033315,-0.2467175,-0.0884225,0.0019435000000000008,0.0066005000000000005,0.0884225,-0.0019435000000000008,-0.0066005,-0.16543750000000002,-0.45836850000000007,-0.1104675,0.15865249999999997,-0.48634849999999996,-0.14219749999999998,-0.17693750000000003,-0.8460885,-0.010471500000000002,0.2234625,-0.8896385,-0.13464749999999998
64,0.014095,0.74467,0.0056830000000000006,-0.15774899999999997,0.57289,0.015449000000000001,-0.259909,0.76374,-0.144839,0.17624099999999998,0.55838,-0.006845,0.29068099999999997,0.76683,-0.15128899999999998,-0.278749,1.0101900000000001,-0.26765900000000004,0.341991,0.99823,-0.252419,-0.088679,0.0018900000000000028,0.006456,0.088679,-0.0018900000000000028,-0.006456,-0.16451900000000003,-0.45182999999999995,-0.113759,0.158561,-0.47985999999999995,-0.145919,-0.174869,-0.83957,-0.009640000000000001,0.22503099999999998,-0.88137,-0.133929
65,0.013437499999999995,0.7439899999999999,0.003959,-0.1575655,0.5718799999999999,0.013672,-0.2605355,0.76077,-0.147964,0.1760045,0.55714,-0.008444,0.2899945,0.7627200000000001,-0.154514,-0.2787455,1.00649,-0.271844,0.3406445,0.99241,-0.25812399999999996,-0.08895549999999999,0.0017500000000000016,0.006436000000000001,0.08895549999999999,-0.0017500000000000016,-0.006435999999999999,-0.1637555,-0.44634999999999997,-0.116904,0.1583145,-0.47368000000000005,-0.14952400000000002,-0.1729455,-0.83345,-0.008837999999999999,0.22635450000000001,-0.8739300000000001,-0.13265400000000002
66,0.012794999999999997,0.74346,0.0023300000000000005,-0.15709800000000002,0.57123,0.012155000000000001,-0.261008,0.7587900000000001,-0.150745,0.175562,0.55579,-0.010145999999999999,0.289552,0.7593000000000001,-0.157915,-0.27867800000000004,1.00324,-0.27557499999999996,0.339642,0.9876,-0.26358499999999996,-0.08909800000000001,0.001669999999999991,0.006535,0.08909800000000001,-0.0016700000000000048,-0.006534999999999999,-0.163088,-0.4411,-0.119975,0.15795199999999998,-0.46667,-0.152835,-0.171358,-0.82575,-0.007719,0.22722199999999998,-0.8653,-0.131055
67,0.0122285,0.7433000000000001,0.0005245000000000007,-0.1566065,0.57082,0.0106995,-0.2614565,0.75704,-0.1531135,0.1749735,0.55424,-0.011907499999999998,0.28918350000000004,0.75654,-0.1612035,-0.27861650000000004,0.99992,-0.2790035,0.3386635,0.9820800000000001,-0.2698435,-0.0891965,0.0017399999999999916,0.006871500000000001,0.0891965,-0.0017399999999999916,-0.006871499999999999,-0.1624965,-0.43611,-0.1226435,0.1578335,-0.45948,-0.1553835,-0.1697265,-0.8174,-0.006398499999999998,0.2281535,-0.85627,-0.12944350000000002
68,0.011489999999999997,0.742585,-0.0012495000000000006,-0.156241,0.569975,0.009513499999999998,-0.262131,0.754325,-0.1551205,0.174399,0.553525,-0.0128665,0.288779,0.7540250000000001,-0.1647605,-0.278801,0.994455,-0.2822605,0.336899,0.972385,-0.2767005,-0.089321,0.0015350000000000086,0.007014499999999999,0.089321,-0.0015349999999999808,-0.0070145,-0.161981,-0.43267500000000003,-0.1251605,0.157419,-0.45313499999999995,-0.1574305,-0.168141,-0.810015,-0.004760500000000001,0.22869899999999999,-0.848095,-0.1268505
69,0.010643000000000005,0.7422150000000001,-0.002926500000000002,-0.15606599999999998,0.569125,0.008469499999999998,-0.262806,0.7520549999999999,-0.1569165,0.173184,0.551275,-0.014520500000000002,0.287904,0.7521450000000001,-0.1685265,-0.279256,0.992685,-0.28549650000000004,0.33468400000000004,0.962755,-0.2833165,-0.089566,0.001375000000000015,0.007063499999999999,0.089566,-0.0013749999999999873,-0.0070635,-0.161706,-0.42946500000000004,-0.1273965,0.156894,-0.446425,-0.1590565,-0.166676,-0.801345,-0.0033965000000000037,0.22906400000000002,-0.8389249999999999,-0.1237665
70,0.009414500000000004,0.7414149999999999,-0.004982500000000001,-0.15651649999999998,0.568195,0.0071045,-0.2639665,0.7491049999999999,-0.1591725,0.1717635,0.5502549999999999,-0.0160505,0.2859735,0.7470950000000001,-0.17201249999999998,-0.2801265,0.989555,-0.2893225,0.3318835,0.954115,-0.2872225,-0.0898565,0.0012750000000000261,0.0069145000000000005,0.0898565,-0.0012749999999999984,-0.0069145000000000005,-0.16171649999999999,-0.42728499999999997,-0.1299125,0.15611350000000002,-0.44095499999999993,-0.1609225,-0.1659465,-0.7936650000000001,-0.0024474999999999983,0.22905350000000002,-0.830365,-0.1219325
71,0.008231500000000001,0.740645,-0.007316499999999997,-0.15700250000000002,0.566925,0.005539500000000003,-0.2650725,0.746435,-0.1615375,0.1703275,0.549625,-0.0177415,0.2839675,0.7427549999999999,-0.1751875,-0.2810025,0.9874649999999999,-0.2932575,0.3291075,0.949155,-0.2906875,-0.0901225,0.0011049999999999949,0.0066875000000000025,0.0901225,-0.0011049999999999949,-0.006687499999999999,-0.1618125,-0.425555,-0.13257750000000001,0.1552575,-0.43611500000000003,-0.1626575,-0.1651725,-0.785985,-0.0016464999999999987,0.2290475,-0.821875,-0.12108750000000001
72,0.007220000000000001,0.7401549999999999,-0.010447999999999999,-0.157488,0.565875,0.0035129999999999988,-0.266138,0.7442249999999999,-0.164458,0.168872,0.547955,-0.020415000000000003,0.281862,0.738685,-0.179138,-0.281838,0.985895,-0.29842799999999997,0.326152,0.944825,-0.295758,-0.090378,0.0009250000000000091,0.006488000000000001,0.090378,-0.0009250000000000091,-0.006488000000000001,-0.162008,-0.42428499999999997,-0.13566799999999998,0.154192,-0.431835,-0.164968,-0.164348,-0.7784549999999999,-0.0012490000000000001,0.229202,-0.8130250000000001,-0.12031799999999998
73,0.006387,0.7395499999999999,-0.013719499999999996,-0.15798,0.56491,0.0012875000000000004,-0.26697,0.74017,-0.1669655,0.16737,0.54714,-0.0231375,0.27999,0.7351300000000001,-0.1834155,-0.28253,0.9841900000000001,-0.30343549999999997,0.32332,0.94251,-0.3009355,-0.09061,0.0006900000000000239,0.006377500000000001,0.09061,-0.0006899999999999962,-0.006377499999999998,-0.16234,-0.42351999999999995,-0.13923549999999998,0.15292,-0.42761999999999994,-0.1677355,-0.16412000000000002,-0.76759,-0.0011224999999999985,0.22907,-0.80365,-0.11966550000000001
74,0.005649500000000002,0.739465,-0.017273999999999998,-0.1584235,0.5642050000000001,-0.0009679999999999966,-0.2679635,0.7385649999999999,-0.169761,0.1658965,0.546325,-0.026500999999999997,0.2781365,0.7325250000000001,-0.188111,-0.28322349999999996,0.9827950000000001,-0.308491,0.3200265,0.940275,-0.307261,-0.0909235,0.0005949999999999844,0.006334000000000003,0.0909235,-0.0005950000000000122,-0.006333999999999999,-0.1627735,-0.42246500000000003,-0.142871,0.1514865,-0.423965,-0.17033099999999998,-0.1639035,-0.7571650000000001,-0.0011069999999999969,0.2287965,-0.7936749999999999,-0.11899099999999999
75,0.005038999999999995,0.738815,-0.021621,-0.158593,0.562935,-0.0038790000000000005,-0.269173,0.735975,-0.17411400000000002,0.164637,0.5452250000000001,-0.030176,0.276217,0.729415,-0.194284,-0.283833,0.982145,-0.31412399999999996,0.316467,0.936785,-0.31528399999999995,-0.09127299999999999,0.0004649999999999932,0.006270000000000001,0.09127299999999999,-0.0004649999999999932,-0.006269999999999998,-0.163133,-0.421505,-0.14666400000000002,0.150127,-0.421215,-0.173244,-0.163213,-0.747745,-0.0015420000000000017,0.228427,-0.784325,-0.11899400000000002
76,0.004493000000000002,0.737865,-0.0262265,-0.158847,0.561895,-0.007336499999999996,-0.270417,0.734665,-0.1792795,0.163333,0.543975,-0.0344945,0.274263,0.727015,-0.2010695,-0.284237,0.981215,-0.3205195,0.31265299999999996,0.934365,-0.3222095,-0.091777,0.00023499999999998522,0.006118500000000002,0.091777,-0.00023500000000001298,-0.006118499999999999,-0.163317,-0.42054500000000006,-0.1506395,0.148793,-0.41905499999999996,-0.1764795,-0.162127,-0.738615,-0.0022884999999999954,0.228043,-0.774555,-0.11914949999999999
77,0.0040530000000000045,0.737015,-0.031170000000000003,-0.159034,0.560485,-0.011377000000000005,-0.271544,0.7336449999999999,-0.185219,0.16170600000000002,0.541605,-0.039736,0.27223600000000003,0.724645,-0.208119,-0.28460399999999997,0.9798849999999999,-0.327869,0.30928599999999995,0.9348350000000001,-0.32982900000000004,-0.092194,0.00014499999999997848,0.006245999999999998,0.092194,-0.00014500000000000624,-0.0062460000000000016,-0.163514,-0.41943500000000006,-0.154519,0.147526,-0.417375,-0.179999,-0.161054,-0.7295450000000001,-0.003309000000000003,0.227506,-0.7646850000000001,-0.11959899999999998
78,0.0036169999999999987,0.73636,-0.036350999999999994,-0.159309,0.55794,-0.016139000000000004,-0.272559,0.73195,-0.19132400000000002,0.160391,0.54051,-0.044777,0.270391,0.7225900000000001,-0.215424,-0.284999,0.9785200000000001,-0.335094,0.305961,0.9354,-0.338354,-0.09265899999999999,3.0000000000002247e-05,0.006502999999999998,0.09265899999999999,-3.0000000000002247e-05,-0.006502999999999998,-0.163759,-0.41816,-0.15857400000000002,0.146351,-0.41634000000000004,-0.183454,-0.159999,-0.72046,-0.0041639999999999976,0.226941,-0.75497,-0.12028399999999999
79,0.002827500000000002,0.7354400000000001,-0.042204,-0.1598245,0.55609,-0.020909999999999998,-0.2735545,0.73045,-0.197566,0.1589155,0.5389900000000001,-0.050550000000000005,0.2690155,0.72355,-0.22426599999999997,-0.2856745,0.97774,-0.342956,0.30271549999999997,0.93689,-0.34865599999999997,-0.09322449999999999,-0.00019999999999997797,0.006565000000000001,0.09322449999999999,0.00020000000000003348,-0.006565000000000001,-0.1641745,-0.41698999999999997,-0.162656,0.1449355,-0.4152,-0.18714599999999998,-0.1591545,-0.71161,-0.005046999999999996,0.2261455,-0.74517,-0.12115599999999999
80,0.002097000000000005,0.73416,-0.0481455,-0.160267,0.55349,-0.0261285,-0.274427,0.7283,-0.2040135,0.157273,0.53622,-0.0569155,0.26750300000000005,0.72248,-0.2331635,-0.28618699999999997,0.97652,-0.35090350000000003,0.299693,0.93843,-0.3590435,-0.093667,-0.00033999999999995145,0.0065875,0.093667,0.00034000000000000696,-0.006587499999999996,-0.164517,-0.41572999999999993,-0.1664235,0.143643,-0.41418999999999995,-0.1908635,-0.158717,-0.70246,-0.0060365,0.22584300000000002,-0.73524,-0.1216035
81,0.0013344999999999989,0.733125,-0.053939499999999994,-0.16058350000000002,0.550725,-0.0318735,-0.27511349999999996,0.7259950000000001,-0.2108895,0.15566649999999999,0.535105,-0.0628725,0.2661465,0.7220150000000001,-0.2420595,-0.2863135,0.975245,-0.3583995,0.29692650000000004,0.939775,-0.36903949999999996,-0.0941035,-0.0003349999999999742,0.0067504999999999996,0.0941035,0.0003350000000000297,-0.0067504999999999996,-0.1650735,-0.414145,-0.17037950000000002,0.1424765,-0.41310499999999994,-0.1946695,-0.1581535,-0.6935749999999999,-0.006572500000000002,0.2253065,-0.7254149999999999,-0.12280950000000002
82,0.000571500000000006,0.732135,-0.060227499999999996,-0.1606655,0.5482549999999999,-0.038175499999999994,-0.27575550000000004,0.725285,-0.2187945,0.15417450000000002,0.532815,-0.0695145,0.2647545,0.721135,-0.2515245,-0.28602550000000004,0.9737450000000001,-0.3671945,0.2936345,0.9372849999999999,-0.37966449999999996,-0.0945555,-0.0002650000000000152,0.0070185,0.0945555,0.0002650000000000152,-0.007018499999999997,-0.1654555,-0.412495,-0.17429450000000002,0.1414845,-0.41194500000000006,-0.1984445,-0.1575455,-0.6847350000000001,-0.006921499999999997,0.22477450000000002,-0.715765,-0.1243745
83,-0.00042350000000000027,0.730575,-0.0670945,-0.1609665,0.5448850000000001,-0.044886499999999996,-0.2767665,0.723805,-0.22738949999999997,0.1523935,0.530465,-0.0760395,0.2631735,0.719895,-0.2610095,-0.2857465,0.968215,-0.37614949999999997,0.2906235,0.9358650000000001,-0.3891695,-0.0950265,-0.00015499999999996072,0.007379500000000001,0.0950265,0.00015500000000001624,-0.007379500000000001,-0.1660665,-0.410635,-0.1785495,0.1403835,-0.41066499999999995,-0.2027395,-0.1571865,-0.675505,-0.007818499999999996,0.2239635,-0.7058149999999999,-0.12610949999999999
84,-0.0011119999999999984,0.728485,-0.0741435,-0.160927,0.542085,-0.05127349999999999,-0.277667,0.721095,-0.2354735,0.15085300000000001,0.528235,-0.0826135,0.261903,0.7175549999999999,-0.2693735,-0.285177,0.963055,-0.3850035,0.287503,0.932345,-0.3995235,-0.095237,4.500000000001725e-05,0.007779500000000002,0.095237,-4.500000000001725e-05,-0.007779500000000002,-0.166577,-0.408435,-0.18319349999999998,0.139323,-0.40930500000000003,-0.20728349999999998,-0.156727,-0.665695,-0.0087905,0.223633,-0.6954250000000001,-0.12813349999999998
85,-0.0019664999999999926,0.72706,-0.080866,-0.1610965,0.5386,-0.05780999999999999,-0.2788565,0.71634,-0.243266,0.1500035,0.5255,-0.089286,0.2605135,0.71435,-0.277746,-0.2847965,0.9552700000000001,-0.39373600000000003,0.2843835,0.92875,-0.409576,-0.0957065,0.00021999999999999797,0.008166000000000003,0.0957065,-0.00021999999999999797,-0.008166,-0.1673665,-0.39843,-0.188106,0.1379835,-0.40077999999999997,-0.211776,-0.1572665,-0.65614,-0.009971999999999995,0.2233735,-0.6855,-0.12989599999999998
86,-0.0028660000000000005,0.724245,-0.087482,-0.161239,0.536005,-0.063725,-0.279909,0.710485,-0.25082200000000004,0.149231,0.5235650000000001,-0.095162,0.259131,0.7100150000000001,-0.285922,-0.28441900000000003,0.9471750000000001,-0.402092,0.281321,0.9240949999999999,-0.419362,-0.096139,0.0004149999999999987,0.008548999999999998,0.096139,-0.0004149999999999987,-0.008549000000000001,-0.16816899999999999,-0.388735,-0.19284199999999999,0.136561,-0.39108499999999996,-0.215942,-0.157819,-0.6464449999999999,-0.011372,0.223111,-0.676105,-0.131592
87,-0.004233000000000001,0.7243550000000001,-0.09957450000000001,-0.162036,0.534605,-0.07581650000000001,-0.281126,0.708165,-0.26429450000000004,0.14789400000000003,0.522705,-0.1071045,0.256884,0.7085250000000001,-0.29992450000000004,-0.28420599999999996,0.942925,-0.41693450000000004,0.27750400000000003,0.9221550000000001,-0.4350645,-0.096236,0.0006849999999999912,0.0090225,0.096236,-0.0006849999999999912,-0.0090225,-0.169636,-0.37577499999999997,-0.2049345,0.134354,-0.37812499999999993,-0.2274745,-0.158906,-0.633485,-0.018475500000000002,0.22259400000000001,-0.663445,-0.1394945
88,-0.005941000000000002,0.724355,-0.11215649999999999,-0.16287400000000002,0.532225,-0.0883565,-0.282644,0.706245,-0.27942649999999997,0.146036,0.521355,-0.11929649999999999,0.254106,0.7057450000000001,-0.3136265,-0.284084,0.939485,-0.4324665,0.273696,0.919955,-0.4512565,-0.095974,0.0008050000000000002,0.009373499999999998,0.095974,-0.0008050000000000002,-0.0093735,-0.17204400000000003,-0.362475,-0.2261865,0.131226,-0.36482499999999995,-0.2487265,-0.16066400000000003,-0.619715,-0.026629500000000004,0.221466,-0.657845,-0.15791650000000002
89,-0.007582000000000005,0.7247950000000001,-0.1256695,-0.163749,0.531155,-0.1009095,-0.284109,0.705665,-0.29515949999999996,0.14455099999999999,0.521045,-0.1313595,0.251751,0.705045,-0.3283695,-0.283839,0.935165,-0.4495995,0.269801,0.917915,-0.46767949999999997,-0.095699,0.0008850000000000247,0.0096725,0.095699,-0.0008849999999999691,-0.0096725,-0.17438900000000002,-0.347035,-0.2481295,0.128271,-0.35087499999999994,-0.2706095,-0.162669,-0.6049749999999999,-0.035652500000000004,0.220221,-0.644705,-0.1657195
90,-0.009155500000000004,0.72316,-0.13938399999999998,-0.1646035,0.53005,-0.112854,-0.2856435,0.70354,-0.310724,0.1430465,0.52042,-0.143234,0.2493765,0.70331,-0.343474,-0.2837035,0.9298500000000001,-0.466504,0.2657365,0.91471,-0.483514,-0.0954035,0.0009500000000000064,0.009783,0.0954035,-0.0009500000000000064,-0.009783,-0.17684350000000001,-0.33180999999999994,-0.270164,0.1253165,-0.33702999999999994,-0.292624,-0.16438350000000002,-0.5914699999999999,-0.045026000000000004,0.21952649999999999,-0.6400800000000001,-0.18595399999999998
91,-0.010896999999999993,0.722545,-0.1527365,-0.165555,0.528105,-0.12541650000000001,-0.287325,0.702145,-0.32629650000000004,0.141465,0.5182249999999999,-0.1557065,0.246965,0.7027950000000001,-0.3590265,-0.28374499999999997,0.9255150000000001,-0.4828565,0.262205,0.915025,-0.4989565,-0.095055,0.0011249999999999871,0.010023500000000001,0.095055,-0.0011249999999999871,-0.010023500000000001,-0.17957499999999998,-0.31453499999999995,-0.2926765,0.12237500000000001,-0.321155,-0.3154365,-0.165875,-0.5771250000000001,-0.054622500000000004,0.218725,-0.6347849999999999,-0.2069365
92,-0.012546000000000002,0.7222999999999999,-0.16579900000000003,-0.166653,0.52733,-0.137729,-0.28895299999999996,0.70032,-0.34118899999999996,0.14014700000000002,0.51793,-0.16774899999999998,0.244637,0.70181,-0.374599,-0.28385299999999997,0.92342,-0.499699,0.258347,0.91253,-0.516069,-0.094713,0.0011400000000000299,0.010183999999999999,0.094713,-0.0011399999999999744,-0.010184000000000002,-0.18233300000000002,-0.29599,-0.315639,0.119577,-0.30405000000000004,-0.33868899999999996,-0.167543,-0.56262,-0.064582,0.21730699999999997,-0.62232,-0.21536899999999998
93,-0.014114499999999995,0.7227600000000001,-0.17820750000000002,-0.1677135,0.52643,-0.1498575,-0.2904835,0.69989,-0.3555975,0.1389965,0.51746,-0.1794075,0.2422665,0.7008000000000001,-0.38940749999999996,-0.2837935,0.92131,-0.5160575000000001,0.2549865,0.91223,-0.5316075,-0.0942635,0.0011300000000000199,0.0103305,0.0942635,-0.0011300000000000199,-0.010330500000000003,-0.1849235,-0.27623,-0.3383575,0.11698650000000001,-0.28584999999999994,-0.3619275,-0.16890349999999998,-0.54776,-0.0745025,0.2159365,-0.61005,-0.22372750000000002
94,-0.015567000000000001,0.72342,-0.19055100000000003,-0.16856400000000002,0.5262020000000001,-0.16164099999999998,-0.291934,0.7007,-0.370371,0.138086,0.5166310000000001,-0.19094099999999997,0.23996599999999998,0.7004,-0.40381100000000003,-0.283594,0.92172,-0.5322209999999999,0.251736,0.91154,-0.5472509999999999,-0.09373400000000001,0.0011999999999999789,0.010449,0.09373400000000001,-0.0011999999999999789,-0.010449,-0.187634,-0.25523999999999997,-0.360901,0.11435600000000001,-0.26674000000000003,-0.385461,-0.170264,-0.5325,-0.08413999999999999,0.214696,-0.59629,-0.23185099999999997
95,-0.016964499999999997,0.7247399999999999,-0.2026985,-0.1696745,0.5257620000000001,-0.1739185,-0.2934545,0.70289,-0.3853585,0.1370055,0.515759,-0.2027285,0.2376555,0.7013,-0.4181185,-0.2831445,0.92363,-0.5479985,0.2484955,0.9121900000000001,-0.5625885,-0.0932355,0.0013400000000000079,0.010471499999999995,0.0932355,-0.0013400000000000079,-0.010471500000000002,-0.1903345,-0.23194999999999993,-0.3838785,0.11175550000000001,-0.24530000000000002,-0.4093085,-0.1710945,-0.51665,-0.09394250000000001,0.2132655,-0.58162,-0.23978850000000002
96,-0.017425499999999997,0.7213700000000001,-0.2086985,-0.16984849999999999,0.525032,-0.1793685,-0.2940385,0.70145,-0.3946185,0.1369415,0.513995,-0.20786849999999998,0.2363915,0.6986,-0.4266685,-0.2819385,0.92047,-0.5573685,0.2462915,0.90757,-0.5725285,-0.0930465,0.0012900000000000134,0.010292500000000003,0.0930465,-0.0012899999999999578,-0.010292499999999996,-0.1919685,-0.21197,-0.39916850000000004,0.10995150000000001,-0.22687000000000002,-0.4256685,-0.1719085,-0.50449,-0.0980375,0.2129815,-0.57074,-0.2419885
97,-0.017815,0.71843,-0.213484,-0.169821,0.526615,-0.18393400000000001,-0.294501,0.70014,-0.402574,0.136819,0.514301,-0.211984,0.235539,0.6979299999999999,-0.435344,-0.280831,0.91621,-0.565974,0.24393900000000002,0.9052100000000001,-0.580084,-0.092802,0.0011800000000000144,0.010097999999999996,0.092802,-0.0011800000000000144,-0.010098000000000003,-0.19289099999999998,-0.19798000000000004,-0.406194,0.108799,-0.21436999999999995,-0.432294,-0.171991,-0.49200999999999995,-0.10108400000000001,0.212749,-0.55969,-0.243254
98,-0.018133499999999997,0.716695,-0.217011,-0.1697185,0.525586,-0.18896100000000002,-0.2948685,0.697535,-0.409371,0.1365915,0.513467,-0.216311,0.23452150000000002,0.6966749999999999,-0.44276099999999996,-0.2797385,0.9126449999999999,-0.572771,0.24154150000000002,0.902605,-0.586821,-0.0924545,0.0011749999999999816,0.009864999999999999,0.0924545,-0.0011749999999999816,-0.009864999999999999,-0.1937785,-0.18400499999999997,-0.412971,0.10743150000000001,-0.20192500000000002,-0.438751,-0.1718585,-0.47999500000000006,-0.103238,0.2127115,-0.547485,-0.244221
99,-0.018834999999999998,0.716815,-0.219883,-0.170068,0.525682,-0.193883,-0.29524799999999995,0.696475,-0.415413,0.136192,0.513299,-0.220613,0.23280199999999998,0.695175,-0.449063,-0.278838,0.909885,-0.5793729999999999,0.238922,0.900135,-0.593693,-0.09226699999999999,0.0011050000000000226,0.009663000000000005,0.09226699999999999,-0.0011050000000000226,-0.009662999999999998,-0.194998,-0.168775,-0.419823,0.10575999999999999,-0.18806500000000004,-0.445413,-0.171908,-0.46667499999999995,-0.10547300000000001,0.211812,-0.533855,-0.244153
100,-0.019231,0.71497,-0.2227035,-0.170106,0.526465,-0.1975835,-0.295026,0.69336,-0.4206335,0.135664,0.515182,-0.2236635,0.231114,0.69177,-0.4540735,-0.27729600000000004,0.90587,-0.5853134999999999,0.23622400000000002,0.89365,-0.6007235,-0.091968,0.0007699999999999929,0.009509499999999997,0.091968,-0.0007699999999999929,-0.009509499999999997,-0.195516,-0.15517999999999998,-0.4259235,0.10478399999999999,-0.17580000000000007,-0.4508435,-0.170796,-0.45487,-0.10638249999999999,0.211824,-0.5141500000000001,-0.2342935
101,-0.0197105,0.71343,-0.22480050000000001,-0.17043350000000002,0.5262119999999999,-0.2009305,-0.2948335,0.69109,-0.4257005,0.13461649999999997,0.51586,-0.2265005,0.22919650000000003,0.68913,-0.4583405,-0.2756235,0.90267,-0.5910805,0.23381649999999998,0.8895799999999999,-0.6061605,-0.0916595,0.0006399999999999739,0.009396500000000002,0.0916595,-0.0006400000000000849,-0.009396500000000002,-0.19620349999999998,-0.1415200000000001,-0.4312505,0.1035335,-0.16341000000000006,-0.4556605,-0.1700335,-0.44433,-0.10778650000000001,0.21138649999999998,-0.4948300000000001,-0.2231005
102,-0.020304999999999997,0.71152,-0.22681199999999999,-0.17068499999999998,0.526829,-0.204002,-0.29512499999999997,0.68757,-0.430652,0.133635,0.5176040000000001,-0.229082,0.22717500000000002,0.6874,-0.462582,-0.274275,0.8992500000000001,-0.597002,0.23130499999999998,0.8858900000000001,-0.611542,-0.091291,0.00024999999999997247,0.009239999999999998,0.091291,-0.00024999999999997247,-0.009239999999999998,-0.19692500000000002,-0.12761999999999996,-0.436032,0.102068,-0.15073999999999999,-0.460172,-0.16923500000000002,-0.43501999999999996,-0.109631,0.21120499999999998,-0.47751,-0.21210199999999998
103,-0.020954,0.7090700000000001,-0.22866999999999998,-0.17141,0.52507,-0.20690000000000003,-0.29508999999999996,0.68422,-0.43443,0.13219999999999998,0.51608,-0.23120000000000002,0.22507,0.68508,-0.46642,-0.27319,0.89604,-0.6027899999999999,0.22841,0.8824700000000001,-0.61666,-0.091,1.0000000000065512e-05,0.009092000000000003,0.091,-9.99999999995449e-06,-0.009092000000000003,-0.19733,-0.11376999999999993,-0.44053,0.101233,-0.13761,-0.46434,-0.16817,-0.42469,-0.111499,0.21205000000000002,-0.46694,-0.21259
104,-0.021761999999999997,0.7071000000000001,-0.230313,-0.172085,0.523714,-0.209443,-0.29496500000000003,0.6805,-0.437583,0.13081500000000001,0.514868,-0.233293,0.222265,0.6800900000000001,-0.469703,-0.272235,0.89239,-0.6088629999999999,0.22475499999999998,0.8767100000000001,-0.6214630000000001,-0.090715,-0.00019000000000002348,0.009113999999999997,0.090715,0.00019000000000002348,-0.009113999999999997,-0.197565,-0.10055999999999998,-0.444433,0.100532,-0.12446000000000002,-0.468233,-0.16700500000000001,-0.41459,-0.113299,0.21319500000000002,-0.45860999999999996,-0.214303
105,-0.022736,0.7063050000000001,-0.2320795,-0.17271699999999998,0.523062,-0.2119895,-0.294817,0.676645,-0.4404495,0.129333,0.513661,-0.2354595,0.219343,0.675965,-0.4721795,-0.271237,0.8876350000000001,-0.6148695,0.220503,0.8720450000000001,-0.6251895000000001,-0.090397,-8.500000000000174e-05,0.009204500000000004,0.090397,8.500000000000174e-05,-0.009204499999999997,-0.19780699999999998,-0.0853449999999999,-0.4480995,0.100219,-0.1094949999999999,-0.4725995,-0.166047,-0.40334499999999995,-0.1151005,0.214253,-0.446665,-0.2148295
106,-0.024085000000000002,0.7053699999999999,-0.23370549999999998,-0.173903,0.52011,-0.2145655,-0.295313,0.66763,-0.4424555,0.12731699999999999,0.5111559999999999,-0.2376355,0.215887,0.6710699999999999,-0.4739255,-0.270373,0.8823399999999999,-0.6201455,0.216197,0.86697,-0.6290155000000001,-0.090313,-4.999999999999449e-05,0.009260499999999998,0.090313,4.999999999999449e-05,-0.009260499999999998,-0.198013,-0.07179000000000002,-0.45042550000000003,0.09972500000000001,-0.09513000000000005,-0.47646550000000004,-0.16548300000000002,-0.39380000000000004,-0.1167165,0.215007,-0.43523,-0.2148955
107,-0.025598500000000003,0.7023950000000001,-0.2350295,-0.1750025,0.5188680000000001,-0.2161295,-0.2957625,0.659205,-0.4447295,0.1258375,0.5092900000000001,-0.2389295,0.21241749999999998,0.6655550000000001,-0.4760095,-0.26965249999999996,0.8760350000000001,-0.6253194999999999,0.2107075,0.8611950000000002,-0.6327895,-0.0902425,-7.499999999993623e-05,0.009216500000000002,0.0902425,7.500000000004725e-05,-0.009216499999999996,-0.1981525,-0.060314999999999896,-0.4520695,0.0995955,-0.08271499999999987,-0.47952949999999994,-0.16493249999999998,-0.3838649999999999,-0.1181875,0.2157775,-0.4267749999999999,-0.21538949999999998
108,-0.027577000000000004,0.699475,-0.2364165,-0.176429,0.5167879999999999,-0.2176265,-0.296709,0.650874,-0.4476265,0.123851,0.506432,-0.2402165,0.20852099999999998,0.660832,-0.4790965,-0.269839,0.8682049999999999,-0.6306164999999999,0.204821,0.856355,-0.6362165,-0.090449,-7.500000000004725e-05,0.009293500000000003,0.090449,7.499999999993623e-05,-0.009293500000000003,-0.198649,-0.04982500000000012,-0.4527665,0.09916799999999999,-0.07154500000000008,-0.4815065,-0.164859,-0.37631500000000007,-0.1197375,0.216141,-0.4191450000000001,-0.2158065
109,-0.029745,0.69726,-0.237811,-0.178147,0.5146390000000001,-0.219201,-0.298137,0.644155,-0.45004099999999997,0.121593,0.503533,-0.24163099999999998,0.204563,0.657018,-0.482701,-0.270437,0.86085,-0.636001,0.19859300000000002,0.8540300000000001,-0.639551,-0.090547,9.00000000000345e-05,0.00952,0.090547,-9.00000000000345e-05,-0.009519999999999994,-0.19977699999999998,-0.03964999999999996,-0.453391,0.09853200000000001,-0.06076999999999999,-0.483281,-0.165207,-0.36927999999999994,-0.12108,0.21587299999999998,-0.41196999999999995,-0.216581
110,-0.032041,0.694595,-0.23927199999999998,-0.179735,0.5132999999999999,-0.220412,-0.29984500000000003,0.637354,-0.451982,0.119785,0.5012699999999999,-0.242652,0.20075500000000002,0.6517899999999999,-0.48602199999999995,-0.27144500000000005,0.8533549999999999,-0.640822,0.192045,0.8506349999999999,-0.642452,-0.090665,-2.5000000000052758e-05,0.009663000000000005,0.090665,2.4999999999941735e-05,-0.009662999999999998,-0.201105,-0.030955000000000066,-0.453812,0.096578,-0.050935000000000064,-0.484402,-0.166015,-0.36429500000000004,-0.121592,0.216005,-0.4062850000000001,-0.218092
111,-0.034198000000000006,0.692411,-0.241202,-0.181353,0.5110239999999999,-0.222022,-0.30124300000000004,0.631362,-0.454102,0.118007,0.49810699999999997,-0.244102,0.197027,0.646497,-0.489712,-0.272643,0.845625,-0.645822,0.185537,0.846665,-0.645562,-0.090723,7.499999999993623e-05,0.009871999999999999,0.090723,-7.500000000004725e-05,-0.009871999999999999,-0.202733,-0.023605000000000098,-0.45462199999999997,0.094953,-0.04223500000000002,-0.485652,-0.166603,-0.35936500000000005,-0.122976,0.215827,-0.4005850000000001,-0.218972
112,-0.0362545,0.690806,-0.243077,-0.1824225,0.511018,-0.22334700000000002,-0.30265250000000005,0.6252380000000001,-0.455837,0.11678749999999999,0.49924,-0.245467,0.1935075,0.643038,-0.493297,-0.2740825,0.83791,-0.650357,0.1794675,0.84266,-0.648327,-0.09069250000000001,-9.999999999998899e-05,0.009978,0.09069250000000001,9.999999999998899e-05,-0.009978000000000008,-0.2047425,-0.017529999999999935,-0.454787,0.09319449999999999,-0.035150000000000015,-0.486757,-0.1673725,-0.35582,-0.123878,0.2153475,-0.39583,-0.21975699999999998
113,-0.038512500000000005,0.6896260000000001,-0.2448885,-0.1836855,0.5107710000000001,-0.2245085,-0.3042355,0.6198150000000001,-0.45695850000000005,0.11528449999999998,0.4999450000000001,-0.24647850000000002,0.1904745,0.6424120000000001,-0.49662850000000003,-0.27591550000000004,0.8311650000000002,-0.6537185,0.1739945,0.8411050000000001,-0.6507885,-0.0907055,-0.0003649999999999487,0.010114499999999998,0.0907055,0.0003650000000000597,-0.010114500000000005,-0.2073955,-0.012434999999999863,-0.45426849999999996,0.09111249999999999,-0.029514999999999958,-0.4876385,-0.16871550000000002,-0.3525449999999999,-0.12488950000000001,0.2147845,-0.3922549999999999,-0.2202285
114,-0.040152,0.690133,-0.2465715,-0.184553,0.5097119999999999,-0.2255215,-0.305323,0.615592,-0.45749150000000005,0.114293,0.500315,-0.2474915,0.18801700000000002,0.642065,-0.5004215,-0.27643300000000004,0.828095,-0.6557615,0.170007,0.841215,-0.6530715,-0.090703,-0.0008249999999999647,0.010205499999999992,0.090703,0.0008249999999999647,-0.010205500000000006,-0.209593,-0.01010500000000003,-0.45363149999999997,0.08951300000000001,-0.026715000000000044,-0.48833150000000003,-0.169303,-0.35099499999999995,-0.12553350000000002,0.214487,-0.390605,-0.22072150000000001
115,-0.041405000000000004,0.690193,-0.248261,-0.184844,0.5097719999999999,-0.226301,-0.305944,0.615652,-0.459241,0.113766,0.5002249999999999,-0.248411,0.18645599999999998,0.642125,-0.503981,-0.276444,0.8271249999999999,-0.658321,0.16672599999999999,0.841275,-0.654921,-0.09063399999999999,-0.0007650000000000157,0.010437000000000002,0.09063399999999999,0.0007649999999999046,-0.010436999999999995,-0.211364,-0.010455000000000103,-0.452971,0.08852099999999999,-0.026455000000000006,-0.48899099999999995,-0.16975400000000002,-0.35116500000000006,-0.126113,0.214836,-0.391475,-0.221901
116,-0.0425025,0.690193,-0.2502385,-0.1849735,0.5097719999999999,-0.2270085,-0.3066535,0.615652,-0.4582885,0.1132395,0.5002249999999999,-0.2492685,0.1855565,0.642125,-0.5072885,-0.27663350000000003,0.8271249999999999,-0.6600885,0.16547650000000003,0.841275,-0.6567985000000001,-0.0905635,-0.0007650000000000157,0.0105325,0.0905635,0.0007649999999999046,-0.0105325,-0.2129235,-0.011065000000000103,-0.4524285,0.0875655,-0.02680500000000008,-0.4894985,-0.17032350000000002,-0.35211500000000007,-0.1266485,0.2149065,-0.39227500000000004,-0.22325850000000003
117,-0.043359,0.690193,-0.251992,-0.18537700000000001,0.5097719999999999,-0.227362,-0.307557,0.615652,-0.45668200000000003,0.112688,0.5002249999999999,-0.24979200000000001,0.185073,0.642125,-0.5093219999999999,-0.277037,0.8271249999999999,-0.660492,0.164833,0.8426549999999999,-0.658332,-0.090517,-0.0007650000000000157,0.010718000000000005,0.090517,0.0007649999999999046,-0.010717999999999998,-0.214337,-0.011065000000000103,-0.451582,0.08627599999999999,-0.02680500000000008,-0.489252,-0.170987,-0.352545,-0.126587,0.214663,-0.39224500000000007,-0.22371200000000002
118,-0.043843,0.6911980000000001,-0.2536815,-0.18582500000000002,0.5110000000000001,-0.2282715,-0.308065,0.6169950000000001,-0.45885149999999997,0.1121,0.500175,-0.25108149999999996,0.184635,0.6423080000000001,-0.5099615,-0.277445,0.827075,-0.6608514999999999,0.16436499999999998,0.844395,-0.6597415,-0.09051500000000001,-0.0007149999999999102,0.010803500000000008,0.09051500000000001,0.0007150000000000212,-0.010803499999999994,-0.21485500000000002,-0.011974999999999958,-0.4510115,0.08512700000000001,-0.026854999999999962,-0.48911150000000003,-0.171385,-0.35282499999999994,-0.1265605,0.21412499999999998,-0.39209499999999997,-0.22349149999999998
119,-0.044415500000000004,0.6922159999999999,-0.25530200000000003,-0.18634050000000002,0.511909,-0.229332,-0.30961049999999996,0.617686,-0.459262,0.11150950000000001,0.50039,-0.252822,0.1841195,0.642987,-0.510482,-0.27781049999999996,0.82616,-0.661332,0.1637995,0.8451,-0.661192,-0.0904105,-0.0007099999999999884,0.010766999999999999,0.0904105,0.0007099999999999884,-0.010767000000000006,-0.21531050000000002,-0.015270000000000006,-0.450272,0.08464849999999999,-0.029249999999999998,-0.488702,-0.1717605,-0.35467000000000004,-0.126704,0.21366949999999998,-0.39344999999999997,-0.223132
120,-0.045156,0.6919810000000001,-0.2563665,-0.18629800000000002,0.513568,-0.22985650000000002,-0.312518,0.6175080000000001,-0.4589665,0.110736,0.502028,-0.2545565,0.183522,0.6429640000000001,-0.5122265,-0.277738,0.825875,-0.6617765,0.16303199999999998,0.8452550000000001,-0.6627265,-0.09018799999999999,-0.0007149999999999102,0.010766499999999998,0.09018799999999999,0.0007150000000000212,-0.010766499999999998,-0.21593800000000002,-0.023334999999999995,-0.4491165,0.08398800000000001,-0.03657499999999991,-0.48817649999999996,-0.17244800000000002,-0.3597849999999999,-0.12677549999999999,0.21304199999999998,-0.39780499999999996,-0.2226765
121,-0.0458485,0.69385,-0.2569715,-0.1864735,0.514232,-0.2302515,-0.3154035,0.619659,-0.4578015,0.10975950000000001,0.502726,-0.2561315,0.1836665,0.6424989999999999,-0.5126315,-0.2773735,0.82788,-0.6619015,0.16310650000000002,0.84478,-0.6643815000000001,-0.09016350000000001,-0.0008299999999999974,0.010731499999999991,0.09016350000000001,0.0008299999999999974,-0.010731500000000005,-0.2167635,-0.03375000000000006,-0.4476715,0.0831685,-0.04704000000000008,-0.48659149999999995,-0.17334349999999998,-0.36738000000000004,-0.12675350000000002,0.2126065,-0.40471,-0.2226515
122,-0.046479999999999994,0.695385,-0.25733,-0.18682500000000002,0.514151,-0.23063,-0.31814499999999996,0.621585,-0.4556,0.108567,0.502273,-0.25748,0.18454500000000001,0.6447160000000001,-0.5130699999999999,-0.27680499999999997,0.830835,-0.661,0.164895,0.8465050000000001,-0.66516,-0.090255,-0.0007249999999999757,0.010802000000000006,0.090255,0.0007249999999999757,-0.010801999999999992,-0.217165,-0.04695499999999997,-0.44534999999999997,0.08284,-0.060975,-0.48405,-0.17372500000000002,-0.377015,-0.126537,0.21208500000000002,-0.414805,-0.22458
123,-0.0465145,0.6978449999999999,-0.2573795,-0.1871175,0.5159079999999999,-0.2306595,-0.32069749999999997,0.622343,-0.45354950000000005,0.10746050000000001,0.501687,-0.2586495,0.1866225,0.646404,-0.5132295,-0.2763175,0.833515,-0.6592795,0.1678425,0.849505,-0.6653595,-0.09038750000000001,-0.0003650000000000597,0.0107535,0.09038750000000001,0.0003649999999999487,-0.0107535,-0.2167075,-0.06374500000000005,-0.44136949999999997,0.08248849999999999,-0.07808500000000007,-0.47988949999999997,-0.1744375,-0.389355,-0.1259965,0.2113425,-0.42786499999999994,-0.22615949999999999
124,-0.0464165,0.699995,-0.257181,-0.1872455,0.516903,-0.230281,-0.3225755,0.622832,-0.450391,0.1064885,0.50113,-0.259411,0.1887645,0.647917,-0.512971,-0.2758755,0.8360449999999999,-0.657041,0.1715345,0.8508450000000001,-0.665341,-0.0906715,-2.4999999999941735e-05,0.010872000000000007,0.0906715,2.5000000000052758e-05,-0.010872,-0.2155955,-0.083515,-0.436521,0.0820205,-0.09777499999999995,-0.47453100000000004,-0.1752855,-0.40376500000000004,-0.125108,0.2104545,-0.443365,-0.22745100000000001
125,-0.045932,0.702535,-0.2567595,-0.187361,0.516475,-0.22987950000000001,-0.324181,0.623811,-0.44730949999999997,0.105677,0.49984700000000004,-0.2599095,0.190689,0.649005,-0.5112795,-0.275321,0.840515,-0.6535695,0.176309,0.852995,-0.6653895000000001,-0.090916,6.499999999998174e-05,0.011022500000000005,0.090916,-6.499999999998174e-05,-0.011022499999999998,-0.213931,-0.10399499999999995,-0.4311995,0.081851,-0.11832500000000001,-0.4682195,-0.175781,-0.418285,-0.1248695,0.208459,-0.46670500000000004,-0.2362995
126,-0.0450695,0.701965,-0.255834,-0.1873035,0.517406,-0.228894,-0.3255635,0.622885,-0.444264,0.1050395,0.50043,-0.259714,0.19299650000000002,0.6462950000000001,-0.509514,-0.27557349999999997,0.841065,-0.650164,0.18158649999999998,0.8504149999999999,-0.664834,-0.0912825,0.00018499999999999073,0.011173000000000002,0.0912825,-0.00018499999999999073,-0.011172999999999995,-0.21179350000000002,-0.12866500000000003,-0.42331399999999997,0.08180849999999999,-0.14283500000000005,-0.45906399999999997,-0.1763035,-0.437445,-0.12404599999999999,0.20672649999999998,-0.493745,-0.238754
127,-0.044227,0.7020500000000001,-0.2541935,-0.18730000000000002,0.517295,-0.2278135,-0.32715,0.6222300000000001,-0.4408635,0.10432,0.500473,-0.2594035,0.19635000000000002,0.64141,-0.5058735000000001,-0.27607,0.84243,-0.6457235,0.18713000000000002,0.8470599999999999,-0.6633235,-0.09165,0.00031999999999998696,0.011161499999999991,0.09165,-0.00031999999999998696,-0.011161500000000005,-0.20956000000000002,-0.15266999999999997,-0.41462350000000003,0.081739,-0.16717000000000004,-0.4491835,-0.17675999999999997,-0.45716999999999997,-0.1228965,0.20477,-0.52099,-0.2412235
128,-0.0428875,0.70332,-0.2522095,-0.1870705,0.518425,-0.2264095,-0.32828050000000003,0.62323,-0.4370895,0.10406950000000001,0.499438,-0.2589595,0.2000995,0.63663,-0.5011795,-0.27673050000000005,0.8458,-0.6413395,0.1933395,0.84224,-0.6603895,-0.09208250000000001,0.0005700000000000149,0.011173500000000003,0.09208250000000001,-0.0005700000000000149,-0.011173500000000003,-0.2070305,-0.17634000000000005,-0.4047195,0.0821085,-0.19116,-0.4382895,-0.17687049999999999,-0.47880999999999996,-0.1215985,0.2035295,-0.5504,-0.24902950000000001
129,-0.041504,0.70694,-0.24947049999999998,-0.186907,0.518807,-0.2243505,-0.329287,0.62495,-0.4329605,0.10442299999999999,0.498513,-0.2583705,0.20375300000000002,0.63827,-0.4976605,-0.27752699999999997,0.85006,-0.6357904999999999,0.19970300000000002,0.84503,-0.6565705,-0.092277,0.0005999999999999894,0.011363499999999999,0.092277,-0.0005999999999999894,-0.011363500000000006,-0.204537,-0.19803000000000004,-0.3940205,0.08291199999999999,-0.2128,-0.4261105,-0.176737,-0.50024,-0.1201525,0.202073,-0.57784,-0.2536605
130,-0.039913,0.70913,-0.2462665,-0.186218,0.5190710000000001,-0.2216665,-0.328828,0.62649,-0.4285365,0.105552,0.499267,-0.25699649999999996,0.207462,0.6419900000000001,-0.4931965,-0.278138,0.8550800000000001,-0.6298465,0.206202,0.8488100000000001,-0.6520665,-0.09240100000000001,0.0006300000000000194,0.011341500000000004,0.09240100000000001,-0.0006299999999999639,-0.011341499999999997,-0.20208800000000002,-0.21872000000000003,-0.3835065,0.08447299999999999,-0.23348999999999998,-0.4140665,-0.17760800000000002,-0.5219199999999999,-0.1193585,0.200702,-0.60273,-0.2543565
131,-0.037922,0.71204,-0.24167349999999999,-0.18483300000000003,0.5244300000000001,-0.2176335,-0.326333,0.6287200000000001,-0.4236135,0.107277,0.5004810000000001,-0.2540635,0.211167,0.6473500000000001,-0.48699349999999997,-0.27853300000000003,0.8607400000000001,-0.6230735000000001,0.21237699999999998,0.85148,-0.6454835,-0.092542,0.0010100000000000109,0.0114065,0.092542,-0.0010099999999999554,-0.0114065,-0.199403,-0.23997000000000002,-0.37129349999999994,0.086774,-0.25473999999999997,-0.40100349999999996,-0.178263,-0.5436,-0.11769450000000001,0.19925700000000002,-0.62788,-0.2557735
132,-0.0362925,0.7155750000000001,-0.2360445,-0.1834455,0.526285,-0.2136845,-0.32351549999999996,0.632665,-0.4180545,0.10971449999999999,0.5056750000000001,-0.2507245,0.2144645,0.655645,-0.4799845,-0.27872549999999996,0.8674350000000001,-0.6156345,0.2185745,0.8562050000000001,-0.6388445,-0.0925685,0.0007750000000000257,0.011158500000000002,0.0925685,-0.0007749999999999702,-0.011158500000000002,-0.1969455,-0.260795,-0.3591045,0.08950649999999999,-0.274775,-0.3880345,-0.17873550000000002,-0.564425,-0.11584549999999999,0.1983845,-0.652605,-0.2573345
133,-0.034689000000000005,0.71947,-0.229927,-0.182205,0.5294000000000001,-0.209077,-0.322125,0.64361,-0.412797,0.11197499999999999,0.51003,-0.246837,0.217725,0.66164,-0.472277,-0.279375,0.87732,-0.606917,0.224405,0.86436,-0.629747,-0.09259300000000001,0.0007400000000000184,0.010786000000000004,0.09259300000000001,-0.0007399999999999629,-0.010785999999999997,-0.194695,-0.27967999999999993,-0.346357,0.092558,-0.29235,-0.375087,-0.179595,-0.58909,-0.117355,0.19774499999999998,-0.67432,-0.256717
134,-0.033293500000000004,0.723605,-0.223186,-0.1809925,0.534405,-0.20352599999999998,-0.3186325,0.653405,-0.40667600000000004,0.1142275,0.515575,-0.241946,0.2209175,0.669355,-0.463866,-0.28061250000000004,0.8844650000000001,-0.5980260000000001,0.2291075,0.869685,-0.619596,-0.0923945,0.0007550000000000057,0.010536000000000004,0.0923945,-0.0007549999999999502,-0.010536000000000004,-0.1928625,-0.29791499999999993,-0.333106,0.0953575,-0.30893499999999996,-0.36166600000000004,-0.1807825,-0.614395,-0.11802800000000001,0.19701749999999998,-0.694825,-0.257146
135,-0.0320975,0.7300249999999999,-0.2161475,-0.1799715,0.538125,-0.19840750000000001,-0.31493150000000003,0.665005,-0.40052750000000004,0.1165185,0.5193949999999999,-0.2368675,0.22397850000000002,0.679295,-0.45541750000000003,-0.2819515,0.896555,-0.5878875,0.2332185,0.878985,-0.6082075,-0.0921165,0.0008349999999999747,0.010446499999999997,0.0921165,-0.0008350000000000302,-0.010446500000000004,-0.19165149999999997,-0.3104950000000001,-0.32203750000000003,0.0982585,-0.321295,-0.34995750000000003,-0.1819615,-0.6354650000000001,-0.1182425,0.19616850000000002,-0.7121550000000001,-0.2566375
136,-0.0309295,0.73305,-0.20738099999999998,-0.17889449999999998,0.54199,-0.19254100000000002,-0.31434449999999997,0.6777,-0.393591,0.11891550000000001,0.52452,-0.230981,0.2254555,0.6933400000000001,-0.445241,-0.2839145,0.91006,-0.577101,0.2370255,0.89564,-0.594071,-0.09163650000000001,0.0005600000000000049,0.010458000000000002,0.09163650000000001,-0.0005600000000000049,-0.010458000000000002,-0.1909245,-0.32379,-0.308471,0.1013355,-0.33333,-0.337731,-0.1838145,-0.65841,-0.118086,0.1954255,-0.73179,-0.256331
137,-0.029791,0.735515,-0.19789600000000002,-0.177568,0.5460050000000001,-0.186216,-0.313998,0.6887650000000001,-0.38649599999999995,0.121392,0.530945,-0.224606,0.226702,0.709255,-0.43391599999999997,-0.286138,0.921985,-0.565806,0.239912,0.911565,-0.580646,-0.091159,0.0003049999999999997,0.010396999999999997,0.091159,-0.0003049999999999997,-0.010397000000000003,-0.190468,-0.33606499999999995,-0.29481599999999997,0.105642,-0.34272499999999995,-0.32575600000000005,-0.185948,-0.680065,-0.117533,0.195052,-0.742745,-0.247416
138,-0.028073999999999998,0.7393350000000001,-0.188453,-0.17615,0.550945,-0.180013,-0.31372,0.7033450000000001,-0.379543,0.12412999999999999,0.536375,-0.218493,0.22836,0.7198850000000001,-0.422503,-0.28803999999999996,0.9338850000000001,-0.554223,0.24320999999999998,0.921265,-0.566953,-0.09035399999999999,0.0003450000000000397,0.010055000000000001,0.09035399999999999,-0.0003449999999999842,-0.010054999999999998,-0.18967,-0.3468049999999999,-0.281323,0.10999,-0.3509749999999999,-0.315203,-0.18751,-0.699665,-0.11638,0.19525,-0.7529349999999999,-0.239973
139,-0.0265865,0.742245,-0.17870049999999998,-0.1749435,0.556095,-0.1739505,-0.3130135,0.7162850000000001,-0.37129049999999997,0.12644650000000002,0.540575,-0.2124305,0.2300165,0.7319249999999999,-0.4133105,-0.29050349999999997,0.945565,-0.5417405,0.24663649999999998,0.934685,-0.5526305,-0.0895775,0.0004250000000000087,0.009812500000000002,0.0895775,-0.0004250000000000087,-0.009812499999999998,-0.18885349999999998,-0.35699499999999995,-0.2676205,0.1140465,-0.35880499999999993,-0.3048305,-0.18888349999999998,-0.716615,-0.1139235,0.1942365,-0.763745,-0.2331305
140,-0.025131999999999998,0.74486,-0.16949750000000002,-0.17424099999999998,0.55658,-0.1689175,-0.311731,0.7277199999999999,-0.3625675,0.128499,0.5443199999999999,-0.2072475,0.231659,0.74098,-0.4038875,-0.292701,0.95695,-0.5297975,0.24948900000000002,0.9468300000000001,-0.5383075,-0.08854100000000001,0.00019999999999997797,0.0096025,0.08854100000000001,-0.00020000000000000573,-0.009602500000000003,-0.188381,-0.36541000000000007,-0.25514749999999997,0.11820900000000001,-0.36539000000000005,-0.2947675,-0.19023099999999998,-0.73285,-0.1111595,0.193559,-0.7731999999999999,-0.2270075
141,-0.023310499999999998,0.7464949999999999,-0.160819,-0.17376750000000002,0.5620449999999999,-0.163009,-0.3097675,0.7374149999999999,-0.354389,0.13018249999999998,0.5491349999999999,-0.200979,0.23303249999999998,0.746875,-0.391749,-0.29498749999999996,0.967665,-0.517839,0.2526625,0.9578249999999999,-0.523499,-0.0873285,0.0004649999999999932,0.009405999999999998,0.0873285,-0.00046500000000002095,-0.009405999999999998,-0.1878575,-0.37286500000000006,-0.242049,0.1222225,-0.37689500000000004,-0.283819,-0.19063750000000002,-0.7493750000000001,-0.10814499999999999,0.1943125,-0.784915,-0.224099
142,-0.021363999999999994,0.74397,-0.151342,-0.17328,0.56167,-0.156722,-0.30735,0.7379,-0.344542,0.13222,0.54949,-0.194102,0.23543999999999998,0.75267,-0.379722,-0.29695,0.9727399999999999,-0.505002,0.25599,0.96202,-0.509772,-0.086131,0.0007500000000000007,0.009271000000000001,0.086131,-0.0007500000000000007,-0.009270999999999998,-0.18689,-0.38494000000000006,-0.226422,0.12627,-0.39332,-0.27005199999999996,-0.19119999999999998,-0.76947,-0.104506,0.19530999999999998,-0.80104,-0.216962
143,-0.019209999999999998,0.7399249999999999,-0.136722,-0.17262499999999997,0.561045,-0.144982,-0.304015,0.7398450000000001,-0.32907200000000003,0.134465,0.549025,-0.182082,0.23785499999999998,0.7563850000000001,-0.36376200000000003,-0.298385,0.978345,-0.48680199999999996,0.260505,0.969355,-0.48941199999999996,-0.085371,0.0011449999999999794,0.008965999999999998,0.085371,-0.0011450000000000071,-0.008966000000000002,-0.18538500000000002,-0.39718500000000007,-0.204302,0.13055499999999998,-0.41119500000000003,-0.248652,-0.191135,-0.789325,-0.095612,0.19609500000000002,-0.8171550000000001,-0.20114200000000002
144,-0.017142999999999995,0.74118,-0.121159,-0.171992,0.5640799999999999,-0.132199,-0.299372,0.74485,-0.312789,0.13644799999999999,0.55156,-0.16903900000000002,0.240368,0.76021,-0.346779,-0.298972,0.9807299999999999,-0.46817899999999996,0.264888,0.97479,-0.469509,-0.084792,0.0008099999999999774,0.009159,0.084792,-0.0008100000000000052,-0.009159,-0.182462,-0.41195,-0.179069,0.134758,-0.43065000000000003,-0.22420900000000002,-0.190982,-0.80985,-0.084297,0.197388,-0.8342400000000001,-0.184599
145,-0.015157,0.7456849999999999,-0.10706800000000001,-0.171125,0.565685,-0.11941800000000001,-0.296425,0.747105,-0.296448,0.138125,0.552425,-0.156248,0.242885,0.761705,-0.329768,-0.298975,0.981625,-0.449058,0.269775,0.9723649999999999,-0.450618,-0.084522,0.0008849999999999969,0.009375999999999999,0.084522,-0.0008849999999999969,-0.009375999999999999,-0.179525,-0.4263950000000001,-0.15614799999999998,0.138205,-0.45050500000000004,-0.19955799999999999,-0.189125,-0.822705,-0.067246,0.198945,-0.852265,-0.170658
146,-0.013265000000000004,0.7509699999999999,-0.093196,-0.170329,0.56766,-0.10689599999999999,-0.293429,0.75112,-0.279506,0.139731,0.5539499999999999,-0.143706,0.24583100000000002,0.7621800000000001,-0.312806,-0.298489,0.9832000000000001,-0.42936599999999997,0.275271,0.9713700000000001,-0.431106,-0.084244,0.0009100000000000219,0.009618999999999999,0.084244,-0.0009099999999999941,-0.009619,-0.17651899999999998,-0.44102,-0.133596,0.140351,-0.46998,-0.17471599999999998,-0.187349,-0.83531,-0.050448,0.20059100000000002,-0.8711599999999999,-0.155256
147,-0.011643000000000004,0.75317,-0.079528,-0.169547,0.56914,-0.094625,-0.290487,0.75208,-0.26291499999999995,0.141143,0.55499,-0.13145500000000002,0.249583,0.76465,-0.296255,-0.29773700000000003,0.98609,-0.409055,0.28169299999999997,0.97229,-0.41234499999999996,-0.08396200000000001,0.0008200000000000013,0.009722999999999999,0.08396200000000001,-0.0008200000000000013,-0.009722999999999999,-0.173517,-0.45616,-0.11155500000000002,0.14268299999999998,-0.48861,-0.14935500000000002,-0.185807,-0.84789,-0.03382400000000001,0.202153,-0.8891,-0.139395
148,-0.009892999999999996,0.756589,-0.066016,-0.16894299999999998,0.571599,-0.082203,-0.287563,0.753199,-0.24751300000000004,0.142897,0.557239,-0.11884299999999999,0.253127,0.764359,-0.27970300000000003,-0.296953,0.986649,-0.389233,0.288177,0.970459,-0.393893,-0.083593,0.0008210000000000023,0.009888000000000001,0.083593,-0.0008210000000000023,-0.009888000000000001,-0.170523,-0.471691,-0.089623,0.144837,-0.507251,-0.123603,-0.184373,-0.860641,-0.017243,0.203597,-0.907541,-0.125483
149,-0.007980499999999998,0.7602145,-0.052244,-0.1683185,0.5735545000000001,-0.06948,-0.2835885,0.7556045,-0.23188999999999999,0.14487150000000001,0.5602845,-0.10562999999999999,0.2570615,0.7648445,-0.26239999999999997,-0.2960185,0.9869845,-0.36780999999999997,0.2954115,0.9698945,-0.37473,-0.0832455,0.0006985000000000047,0.009989000000000001,0.0832455,-0.0006984999999999908,-0.009988999999999998,-0.1670685,-0.4877555,-0.06738,0.1467615,-0.5264955,-0.09735999999999999,-0.1828985,-0.8736355,-0.0005830000000000002,0.2052415,-0.9252055,-0.10829000000000001
150,-0.006448999999999996,0.763642,-0.038915500000000006,-0.167928,0.572132,-0.058188500000000004,-0.280918,0.760752,-0.21632849999999998,0.146392,0.558322,-0.09404850000000001,0.260652,0.767042,-0.24568850000000003,-0.294908,0.989392,-0.34659850000000003,0.302192,0.967952,-0.3557485,-0.082997,0.00044600000000000195,0.010175499999999997,0.082997,-0.00044600000000000195,-0.010175500000000004,-0.16383799999999998,-0.503738,-0.0464185,0.148422,-0.543868,-0.07277850000000001,-0.181888,-0.885958,0.014874499999999992,0.206012,-0.940828,-0.0925485
151,-0.005011000000000003,0.7714690000000001,-0.026085999999999998,-0.167627,0.575849,-0.04766999999999999,-0.27571700000000005,0.7703190000000001,-0.20160999999999998,0.14766300000000002,0.561359,-0.08321,0.26309299999999997,0.770699,-0.22909,-0.293267,0.9954890000000001,-0.32626999999999995,0.309123,0.971319,-0.33667,-0.08268700000000001,3.799999999999637e-05,0.010390000000000003,0.08268700000000001,-3.800000000000331e-05,-0.010389999999999996,-0.160927,-0.514691,-0.027940999999999994,0.149803,-0.5560309999999999,-0.05079,-0.181417,-0.8963909999999999,0.027850000000000003,0.206183,-0.951711,-0.08302999999999999
152,-0.0037535,0.7799134999999999,-0.018075499999999994,-0.1675705,0.5796935,-0.04255149999999999,-0.2710105,0.7787935,-0.19216149999999999,0.1485695,0.5644335,-0.0777515,0.2651795,0.7745335,-0.21695150000000002,-0.2910805,1.0029135,-0.3109015,0.3151395,0.9727235,-0.3232715,-0.08237149999999999,-0.00029850000000000015,0.010656500000000006,0.08237149999999999,0.00029850000000000015,-0.0106565,-0.15839050000000002,-0.5247565000000001,-0.01604549999999999,0.1507595,-0.5678165000000001,-0.03695749999999999,-0.1808805,-0.9064565,0.0343325,0.2061895,-0.9623965,-0.0794415
153,-0.002606499999999996,0.782838,-0.011246500000000006,-0.16781449999999998,0.579958,-0.038540500000000005,-0.26909449999999996,0.7851279999999999,-0.1829535,0.15013549999999998,0.566858,-0.0713735,0.2671655,0.779148,-0.20533349999999997,-0.2886745,1.011028,-0.2963835,0.3210855,0.975988,-0.30957349999999995,-0.0822305,2.2000000000001185e-05,0.0104005,0.0822305,-2.2000000000001185e-05,-0.010400500000000007,-0.1574645,-0.533362,-0.005863500000000008,0.1509255,-0.575922,-0.0265865,-0.1806045,-0.914562,0.0376945,0.2059955,-0.970502,-0.0770035
154,-0.0013915000000000021,0.784467,-0.004756000000000003,-0.16721350000000001,0.583047,-0.034172,-0.26695349999999995,0.791777,-0.174449,0.1518265,0.569887,-0.065669,0.2693265,0.783367,-0.194579,-0.2861535,1.017987,-0.282899,0.3263165,0.979797,-0.297089,-0.08248849999999999,4.60000000000009e-05,0.010222000000000002,0.08248849999999999,-4.60000000000009e-05,-0.010222000000000002,-0.15653350000000002,-0.540623,0.0033090000000000064,0.1513265,-0.582173,-0.017390999999999997,-0.1800035,-0.9213330000000001,0.040464,0.20586649999999998,-0.976753,-0.075679
155,-0.00022800000000000337,0.785474,0.0017735000000000042,-0.166385,0.585364,-0.029842499999999994,-0.264725,0.797514,-0.1663055,0.15317499999999998,0.571894,-0.06028549999999999,0.271025,0.787214,-0.1843155,-0.28386500000000003,1.024074,-0.2698255,0.330905,0.983654,-0.2844055,-0.082615,0.000194999999999999,0.010037500000000005,0.082615,-0.00019500000000000073,-0.010037499999999991,-0.155865,-0.548036,0.011723500000000005,0.151275,-0.587736,-0.009420499999999998,-0.179755,-0.928716,0.04382050000000001,0.205735,-0.982316,-0.0741755
156,0.0010865000000000041,0.786806,0.0086385,-0.16543249999999998,0.586976,-0.025648500000000005,-0.2621325,0.802946,-0.15740949999999998,0.1545475,0.5738460000000001,-0.055029499999999995,0.27191750000000003,0.788896,-0.17338949999999997,-0.2823525,1.029016,-0.2572795,0.3344875,0.9855160000000001,-0.2706095,-0.08259749999999999,0.0002669999999999999,0.0101575,0.08259749999999999,-0.0002670000000000016,-0.0101575,-0.1553925,-0.553954,0.0195465,0.1510775,-0.590664,-0.001861500000000002,-0.1803525,-0.934734,0.0469375,0.2052175,-0.986254,-0.0717995
157,0.002664000000000003,0.7877495,0.015882500000000008,-0.16457499999999997,0.5882595,-0.021491499999999997,-0.258905,0.8079195,-0.1477145,0.15558500000000003,0.5748695,-0.0502445,0.272965,0.7920895,-0.1617245,-0.280945,1.0343295000000001,-0.2444945,0.338345,0.9887295,-0.2567645,-0.082581,0.00037850000000000036,0.010249500000000009,0.082581,-0.0003784999999999995,-0.010249499999999995,-0.155045,-0.5584205,0.026414500000000007,0.15087499999999998,-0.5926604999999999,0.004638500000000004,-0.18060500000000002,-0.9400805,0.04996450000000001,0.20510499999999998,-0.9896505,-0.0696445
158,0.004215000000000005,0.7878575,0.022758999999999995,-0.162607,0.5913975,-0.015589000000000006,-0.255947,0.8123975,-0.138532,0.157933,0.5776275000000001,-0.043472,0.27387300000000003,0.7935675,-0.15055200000000002,-0.280057,1.0385975,-0.230962,0.34160300000000005,0.9904975,-0.24254199999999998,-0.08232400000000001,0.0005405000000000002,0.010508999999999998,0.08232400000000001,-0.0005404999999999997,-0.010509000000000004,-0.155047,-0.5627624999999999,0.031772999999999996,0.15057299999999998,-0.5930225,0.009299999999999996,-0.180797,-0.9454825,0.052743,0.204973,-0.9931925,-0.067732
159,0.005847500000000004,0.7878085,0.02999849999999999,-0.16049650000000001,0.5948485,-0.009581500000000007,-0.2530265,0.8159885,-0.1289895,0.1603035,0.5804585,-0.036569500000000005,0.2752235,0.7951685000000001,-0.13948950000000002,-0.2795465,1.0415685,-0.2174695,0.3445535,0.9926585,-0.2283495,-0.08207249999999999,0.0006825,0.010750499999999996,0.08207249999999999,-0.0006825000000000001,-0.01075050000000001,-0.15508650000000002,-0.5663914999999999,0.03589549999999999,0.15025349999999998,-0.5927715,0.013197499999999994,-0.1809365,-0.9503415,0.05530349999999999,0.2047835,-0.9965014999999999,-0.06646950000000001
160,0.0075105,0.7859505,0.03685750000000001,-0.1583515,0.5979205,-0.003069499999999989,-0.25038150000000003,0.8171404999999999,-0.11896249999999998,0.16257850000000001,0.5823904999999999,-0.029762499999999997,0.2768585,0.7957905,-0.1287025,-0.2794115,1.0421605,-0.20401249999999999,0.3470685,0.9937904999999999,-0.2148925,-0.0816625,0.0010035,0.010906500000000006,0.0816625,-0.0010035,-0.0109065,-0.15516149999999998,-0.5707995,0.03901550000000001,0.1495685,-0.5928395000000001,0.016065500000000003,-0.1810615,-0.9557695,0.0575625,0.20448850000000002,-1.0008595,-0.0651925
161,0.0090405,0.783709,0.043121999999999994,-0.1561525,0.600209,0.0026589999999999947,-0.2478425,0.818429,-0.108791,0.1649275,0.584689,-0.023372000000000004,0.2787075,0.796849,-0.118951,-0.2792825,1.0414489999999998,-0.190931,0.34967750000000003,0.9954489999999999,-0.202531,-0.0812405,0.001259999999999999,0.011018999999999994,0.0812405,-0.0012600000000000007,-0.011019000000000001,-0.1552025,-0.574801,0.041402999999999995,0.14875750000000001,-0.592891,0.018295,-0.1810225,-0.960701,0.059515,0.20426750000000002,-1.004971,-0.06418100000000002
162,0.010387500000000001,0.7813005,0.049069,-0.1539675,0.6025705,0.008904999999999996,-0.2457475,0.8185805,-0.09920899999999999,0.1665525,0.5841505,-0.018768999999999994,0.2804825,0.7979305,-0.110119,-0.2792075,1.0408505000000001,-0.17792899999999998,0.3522325,0.9972504999999999,-0.191109,-0.0807625,0.001520500000000001,0.011044000000000005,0.0807625,-0.0015204999999999993,-0.011043999999999998,-0.1553375,-0.5787095,0.042165,0.1478525,-0.5930795,0.019599000000000005,-0.1810875,-0.9659495,0.061235,0.2037125,-1.0088694999999999,-0.06334899999999999
163,0.0115625,0.7789585,0.054951,-0.1526945,0.6030985,0.013847000000000005,-0.24395450000000002,0.8188985000000001,-0.08957699999999999,0.1680855,0.5841185,-0.014301999999999995,0.28206549999999997,0.7989385,-0.101847,-0.2791845,1.0401384999999999,-0.165207,0.3546255,0.9990385,-0.180237,-0.0802765,0.0017485,0.010840000000000002,0.0802765,-0.0017485,-0.010840000000000002,-0.15555449999999998,-0.5820314999999999,0.042868,0.1468755,-0.5932815,0.020604000000000004,-0.18141449999999998,-0.9706815,0.062711,0.2031155,-1.0123715,-0.062557
164,0.012601999999999999,0.7765315,0.060561000000000004,-0.15155000000000002,0.6037615000000001,0.018408,-0.24252,0.8194815000000001,-0.080005,0.16952,0.5843015,-0.010028999999999996,0.28382999999999997,0.7994815000000001,-0.093765,-0.27948,1.0396915,-0.152835,0.3569,1.0001915,-0.170105,-0.079817,0.0018974999999999999,0.010537000000000005,0.079817,-0.0018974999999999999,-0.010537000000000005,-0.15585,-0.5849884999999999,0.043363,0.14587,-0.5933885,0.021348,-0.18203000000000003,-0.9739285,0.063302,0.20246999999999998,-1.0156285,-0.061905
165,0.013201999999999995,0.773447,0.0661465,-0.15013300000000002,0.604447,0.0244445,-0.24163300000000001,0.8193769999999999,-0.07086550000000001,0.171157,0.5847669999999999,-0.004546499999999995,0.285727,0.799477,-0.08596549999999999,-0.280013,1.039177,-0.1409455,0.358697,1.000777,-0.16034549999999997,-0.079317,0.0021630000000000017,0.010122500000000006,0.079317,-0.0021629999999999983,-0.010122500000000006,-0.156253,-0.5859730000000001,0.0429565,0.144737,-0.593763,0.021942500000000004,-0.182823,-0.977543,0.0637385,0.201767,-1.019093,-0.061135499999999995
166,0.013595,0.7699405,0.0707455,-0.148676,0.6051905000000001,0.030413500000000003,-0.241296,0.8195005000000001,-0.0629315,0.172814,0.5852105000000001,0.000843499999999997,0.286944,0.7979605000000001,-0.07940149999999999,-0.280536,1.0384105000000001,-0.1301115,0.360044,0.9999105000000001,-0.15125149999999998,-0.078817,0.0023724999999999996,0.009958500000000009,0.078817,-0.0023724999999999996,-0.009958499999999995,-0.15673600000000001,-0.5876794999999999,0.04255250000000001,0.143474,-0.5941995,0.022243500000000006,-0.183416,-0.9816895,0.0640465,0.200984,-1.0224395,-0.060501499999999986
167,0.014017499999999999,0.7672725,0.075199,-0.1482825,0.6048625000000001,0.034403,-0.2408625,0.8199525000000001,-0.055490999999999985,0.1731375,0.5840525000000001,0.0038640000000000063,0.2882175,0.7972525,-0.072651,-0.28097249999999996,1.0384425,-0.12138099999999999,0.36131749999999996,0.9997425000000001,-0.143041,-0.0784975,0.0025185,0.009834999999999997,0.0784975,-0.0025185,-0.009834999999999997,-0.1571425,-0.5883674999999999,0.042082,0.1424275,-0.5946075,0.022488,-0.1842725,-0.9843575,0.06417300000000001,0.2002475,-1.0248875,-0.059891
168,0.014214500000000001,0.7646925,0.07876449999999999,-0.1479285,0.6044525000000001,0.03821549999999999,-0.2405985,0.8200825,-0.049198500000000006,0.17365150000000001,0.5833325,0.007443499999999992,0.2890415,0.7958525,-0.0666185,-0.28149850000000004,1.0382624999999999,-0.1134985,0.3623315,0.9986625000000001,-0.1355085,-0.07821249999999999,0.0026935000000000014,0.009526499999999993,0.07821249999999999,-0.0026935000000000014,-0.009526500000000007,-0.15760849999999998,-0.5881975,0.04085549999999999,0.1413115,-0.5950075,0.022319499999999992,-0.18552849999999999,-0.9863575,0.06384449999999998,0.1991415,-1.0274375,-0.05960850000000001
169,0.014330999999999997,0.763268,0.082051,-0.14761400000000002,0.604688,0.041707999999999995,-0.240204,0.820888,-0.04367800000000001,0.174066,0.583388,0.010971999999999996,0.289526,0.795088,-0.06117800000000001,-0.28198399999999996,1.0392379999999999,-0.10614799999999999,0.363306,0.998138,-0.128508,-0.07802100000000001,0.0026550000000000046,0.009105000000000002,0.07802100000000001,-0.0026549999999999976,-0.009105000000000002,-0.15812400000000001,-0.588292,0.040194999999999995,0.140426,-0.595242,0.021951999999999992,-0.18660400000000002,-0.9869720000000001,0.063486,0.19808599999999998,-1.029082,-0.059247999999999995
170,0.014451500000000003,0.7619279999999999,0.0850385,-0.1472405,0.605178,0.045159500000000005,-0.2396305,0.821358,-0.03867849999999999,0.1743595,0.583218,0.014329500000000002,0.28981949999999995,0.794338,-0.05591850000000001,-0.28249050000000003,1.040488,-0.0998385,0.36420949999999996,0.9976879999999999,-0.12155849999999999,-0.0778635,0.0026370000000000005,0.0085055,0.0778635,-0.0026370000000000005,-0.0085055,-0.1586705,-0.5883820000000001,0.0396185,0.1395695,-0.595472,0.021422500000000004,-0.1878105,-0.987572,0.0629425,0.1972495,-1.030482,-0.05985850000000001
171,0.014339500000000005,0.7607695,0.0876835,-0.1468545,0.6058295,0.04783949999999999,-0.2392045,0.8220195,-0.0343875,0.1743855,0.5834295,0.01708649999999999,0.2900655,0.7940895,-0.0511775,-0.28271450000000004,1.0415495,-0.0944275,0.3650755,0.9975495000000001,-0.11548749999999999,-0.0776885,0.0025924999999999976,0.007898499999999989,0.0776885,-0.0025924999999999976,-0.007898500000000003,-0.1593145,-0.5885505,0.03884749999999999,0.13868550000000002,-0.5956105,0.020752499999999993,-0.1889045,-0.9867605,0.0622055,0.1963955,-1.0314305,-0.06066750000000001
172,0.013986500000000002,0.759537,0.08975549999999999,-0.14649150000000002,0.6065269999999999,0.0502165,-0.23879150000000002,0.822367,-0.030727500000000005,0.1742485,0.5835969999999999,0.01945149999999999,0.2903085,0.793747,-0.047157500000000005,-0.2828215,1.042287,-0.0904575,0.3657985,0.997287,-0.1104475,-0.0774485,0.002576000000000002,0.007834499999999994,0.0774485,-0.002576000000000002,-0.007834500000000008,-0.16000150000000002,-0.588703,0.037585499999999994,0.1377685,-0.595793,0.01979249999999999,-0.18973150000000003,-0.987363,0.06082649999999999,0.19553849999999998,-1.032333,-0.06174750000000001
173,0.013462499999999995,0.7583230000000001,0.0916455,-0.1459565,0.606203,0.052977500000000004,-0.2384165,0.8226230000000001,-0.028065499999999993,0.1741035,0.583863,0.0218835,0.2907635,0.7933330000000001,-0.0440425,-0.2826465,1.0429730000000001,-0.08709249999999999,0.3666335,0.9968730000000001,-0.1063425,-0.0771545,0.0025300000000000045,0.008098500000000002,0.0771545,-0.0025299999999999975,-0.008098499999999995,-0.1607165,-0.588897,0.0360525,0.1368835,-0.5959570000000001,0.018652500000000002,-0.1905765,-0.991287,0.0590675,0.1946435,-1.033227,-0.0630925
174,0.013035499999999998,0.7573115,0.09285550000000001,-0.1455325,0.6061814999999999,0.0541965,-0.2378725,0.8230014999999999,-0.026320499999999997,0.1737975,0.5836614999999999,0.022739499999999996,0.29151750000000004,0.7930315,-0.0412255,-0.28181249999999997,1.0437715,-0.08471550000000001,0.36760750000000003,0.9966715,-0.10322550000000001,-0.0768235,0.0024874999999999967,0.0086235,0.0768235,-0.0024875000000000036,-0.008623500000000006,-0.1611725,-0.5889485,0.0345265,0.13630750000000003,-0.5959785,0.017392499999999998,-0.1916025,-0.9909485,0.0570125,0.19364749999999997,-1.0333885,-0.0642455
175,0.012538999999999998,0.756518,0.09392149999999999,-0.144951,0.606188,0.054876499999999995,-0.237271,0.823288,-0.024924500000000002,0.173479,0.583648,0.023271499999999994,0.292219,0.792588,-0.03876550000000001,-0.280641,1.0449080000000002,-0.08264550000000001,0.368339,0.9962080000000001,-0.1005855,-0.076492,0.0024240000000000025,0.009361499999999995,0.076492,-0.0024240000000000025,-0.009361500000000009,-0.16163100000000002,-0.589012,0.032839499999999994,0.13580899999999999,-0.596042,0.015950499999999992,-0.19260100000000002,-0.9905120000000001,0.054771499999999994,0.192769,-1.033282,-0.06558550000000002
176,0.012064499999999999,0.7558174999999999,0.094904,-0.1440175,0.6063075,0.055723,-0.23672749999999998,0.8235975,-0.023820999999999995,0.17318250000000002,0.5837475,0.023555,0.29286249999999997,0.7925074999999999,-0.037113999999999994,-0.2795975,1.0460975,-0.08116399999999999,0.3691125,0.9962975000000001,-0.09862399999999999,-0.0761795,0.002413500000000006,0.010333000000000002,0.0761795,-0.002413499999999999,-0.010332999999999995,-0.1620475,-0.5890225,0.031083,0.13534249999999998,-0.5960525,0.014506999999999999,-0.1936775,-0.9902025,0.052495,0.19205250000000001,-1.0332125,-0.06698399999999999
177,0.011724499999999999,0.755171,0.09560249999999999,-0.1431505,0.606491,0.0560745,-0.23618050000000002,0.823931,-0.02308550000000001,0.1730295,0.583781,0.022540499999999998,0.2936195,0.792501,-0.03605850000000001,-0.2786205,1.0469810000000002,-0.0803035,0.3699695,0.9962810000000001,-0.09721350000000001,-0.0758225,0.002342999999999998,0.011098499999999997,0.0758225,-0.002342999999999998,-0.011098499999999997,-0.1623905,-0.589349,0.029258499999999993,0.1349795,-0.596109,0.012913499999999994,-0.19455050000000002,-0.994169,0.0491775,0.1916195,-1.033299,-0.0691235
