sb224sc-HT22-VT27/4dt907/src/data/kinect_good_preprocessed_not_cut_A11_mediapipe/A97_kinect_mirrored.csv
FrameNo,nose_3d_x,nose_3d_y,nose_3d_z,left_shoulder_3d_x,left_shoulder_3d_y,left_shoulder_3d_z,left_elbow_3d_x,left_elbow_3d_y,left_elbow_3d_z,right_shoulder_3d_x,right_shoulder_3d_y,right_shoulder_3d_z,right_elbow_3d_x,right_elbow_3d_y,right_elbow_3d_z,left_wrist_3d_x,left_wrist_3d_y,left_wrist_3d_z,right_wrist_3d_x,right_wrist_3d_y,right_wrist_3d_z,left_hip_3d_x,left_hip_3d_y,left_hip_3d_z,right_hip_3d_x,right_hip_3d_y,right_hip_3d_z,left_knee_3d_x,left_knee_3d_y,left_knee_3d_z,right_knee_3d_x,right_knee_3d_y,right_knee_3d_z,left_ankle_3d_x,left_ankle_3d_y,left_ankle_3d_z,right_ankle_3d_x,right_ankle_3d_y,right_ankle_3d_z
0,0.981704,0.8075920000000001,0.1190635,0.800984,0.502112,0.1175885,0.7454540000000001,0.277872,0.1172775,1.157374,0.511982,0.0973435,1.237134,0.242322,0.0674085,0.752124,0.160442,-0.1791925,1.272414,0.0318359999999999,-0.0279684999999999,0.919324,-0.004089,4.350000000000187e-05,1.080676,0.004089,-4.350000000000187e-05,0.871654,-0.474338,0.0390905,1.133954,-0.438418,0.0062685,0.853574,-0.8562879999999999,0.0317115,1.131824,-0.826148,0.0166175
1,0.989985,0.8088915,0.1250919999999999,0.803126,0.5025315,0.115116,0.745046,0.2791515,0.117312,1.161526,0.5128214999999999,0.101491,1.237776,0.2413815,0.0669609999999999,0.745486,0.1603015,-0.178644,1.274496,0.0329315,-0.032687,0.91923,-0.0038125,-0.00064,1.08077,0.0038125,0.00064,0.871916,-0.4752484999999999,0.039117,1.133946,-0.4380085,0.0063179999999999,0.852186,-0.8575585,0.0300199999999999,1.1325560000000001,-0.8255185,0.0172599999999999
2,0.9922005,0.8088639999999999,0.1277395,0.8038135000000001,0.5026039999999999,0.1144535,0.7442934999999999,0.279704,0.1175975,1.1633535,0.511544,0.1033925,1.2375835,0.2407939999999999,0.0674085,0.7446735,0.159624,-0.1778535,1.2742135,0.033473,-0.0348745,0.9193445000000001,-0.003431,-0.0013065,1.0806555,0.003431,0.0013065,0.8718635,-0.466856,0.0365425,1.1334535,-0.438006,0.0065985,0.8518435,-0.8578260000000001,0.0306155,1.1319135,-0.826176,0.0181365
3,0.9942975000000001,0.8092714999999999,0.1302505,0.8042085,0.5023715,0.1139485,0.7403785,0.2789915,0.1133315,1.1643485,0.5105114999999999,0.1048395,1.2374885,0.2404615,0.0676635,0.7443385,0.1573515,-0.1814475,1.2741485,0.0333375,-0.0350454999999999,0.9193845,-0.0032295,-0.0015685,1.0806155,0.0032295,0.0015685,0.8722985,-0.4645085,0.0362765,1.1334285,-0.4383585,0.0069115,0.8496985,-0.8571885,0.0277065,1.1319285,-0.8264785,0.0183095
4,0.9958175000000001,0.809336,0.132677,0.8052075,0.502656,0.11395,0.7420775,0.280956,0.119193,1.1654675,0.509886,0.106678,1.2372875,0.239506,0.068413,0.6890475,0.187876,-0.0935189999999999,1.2733975,0.032711,-0.035224,0.9193835,-0.002849,-0.0021619999999999,1.0806165,0.002849,0.0021619999999999,0.8729375,-0.458604,0.036138,1.1333075,-0.438194,0.0071109999999999,0.8501575,-0.860404,0.02659,1.1316074999999999,-0.826444,0.019697
5,0.9971325000000001,0.8095230000000001,0.1344865,0.8055295,0.503213,0.1140965,0.7393195,0.279413,0.1139005,1.1663995,0.5094930000000001,0.1083665,1.2369395,0.239243,0.0686265,0.6908995,0.1704729999999999,-0.0920604999999999,1.2733295,0.032491,-0.0350075,0.9194085,-0.002862,-0.0024005,1.0805915,0.002862,0.0024005,0.8725895,-0.465267,0.0366635,1.1331895,-0.438347,0.0072974999999999,0.8516295,-0.8507969999999999,0.0367785,1.1312095,-0.8275969999999999,0.0195715
6,0.997917,0.810269,0.1366635,0.805498,0.5039990000000001,0.1148204999999999,0.738198,0.277509,0.1116445,1.166058,0.5099090000000001,0.1095424999999999,1.236118,0.239389,0.0698385,0.692198,0.161409,-0.0908015,1.270768,0.0323759999999999,-0.0338995,0.919431,-0.0024029999999999,-0.0036184999999999,1.0805690000000001,0.002403,0.0036184999999999,0.872178,-0.462021,0.0366255,1.132618,-0.438471,0.0080225,0.853288,-0.856471,0.0402295,1.131028,-0.8266509999999999,0.0198935
7,0.9985520000000001,0.8104685,0.1378505,0.805582,0.5041184999999999,0.1150455,0.738642,0.2802585,0.1130525,1.167292,0.5107685,0.1115665,1.236502,0.2405385,0.0696305,0.726542,0.1633485,-0.1590375,1.272142,0.0331865,-0.0341385,0.91925,-0.0029965,-0.0035414999999999,1.08075,0.0029965,0.0035415,0.871432,-0.4677015,0.0386765,1.132532,-0.4380415,0.0079095,0.852422,-0.8562215,0.0366525,1.130782,-0.8269314999999999,0.0198875
8,0.9995670000000001,0.811163,0.1393795,0.805901,0.504763,0.1151955,0.737931,0.281213,0.1120845,1.167861,0.510983,0.1128415,1.237041,0.241453,0.0691555,0.720331,0.165313,-0.1597664999999999,1.273061,0.03561,-0.0366904999999999,0.9192180000000001,-0.0028339999999999,-0.0038855,1.080782,0.002834,0.0038855,0.871291,-0.467167,0.0389185,1.132281,-0.437557,0.0080035,0.8522609999999999,-0.855877,0.0376145,1.130471,-0.826987,0.0202085
9,1.000521,0.8118375,0.140529,0.8061590000000001,0.5053974999999999,0.115179,0.736919,0.2823875,0.110999,1.168299,0.5111375,0.113873,1.238359,0.2448374999999999,0.0679299999999999,0.7141489999999999,0.1680975,-0.160711,1.274529,0.0411355,-0.041548,0.919185,-0.0027235,-0.004029,1.080815,0.0027235,0.0040289999999999,0.871269,-0.4665625,0.038658,1.1321189999999999,-0.4370725,0.0078449999999999,0.852289,-0.8545725,0.038729,1.130159,-0.8271125,0.0203319999999999
10,1.0013859999999999,0.812522,0.141563,0.806406,0.506062,0.115111,0.733976,0.283682,0.107842,1.168626,0.511462,0.114686,1.240446,0.249952,0.065793,0.706816,0.175312,-0.162007,1.2775560000000001,0.049861,-0.0512829999999999,0.919128,-0.002634,-0.0041169999999999,1.080872,0.002634,0.004117,0.871056,-0.467328,0.038886,1.1319460000000001,-0.436598,0.00758,0.852376,-0.853548,0.039373,1.129956,-0.827128,0.020331
11,1.002149,0.813159,0.142594,0.806729,0.506699,0.115002,0.730869,0.285209,0.102561,1.1689189999999998,0.512049,0.115562,1.243849,0.2576589999999999,0.061644,0.698769,0.186329,-0.1637259999999999,1.282449,0.0621739999999999,-0.065376,0.919033,-0.00256,-0.004234,1.080967,0.0025599999999999,0.0042339999999999,0.870799,-0.4685209999999999,0.0391279999999999,1.1317789999999999,-0.436021,0.007271,0.852319,-0.852091,0.0399929999999999,1.129749,-0.827091,0.0203159999999999
12,1.002856,0.8137055000000001,0.1438125,0.807102,0.5073255000000001,0.1148744999999999,0.725332,0.2872455,0.0950255,1.169082,0.5127555,0.1162105,1.248462,0.2674055,0.0566765,0.693622,0.1992055,-0.1753875,1.288462,0.0817185,-0.0823875,0.918933,-0.0025354999999999,-0.0043735,1.081067,0.0025355,0.0043735,0.870512,-0.4692145,0.0394185,1.131592,-0.4348045,0.0069084999999999,0.852132,-0.8507245,0.0398515,1.129552,-0.8268144999999999,0.0202255
13,1.0034595,0.8141235,0.1452245,0.8075065000000001,0.5079035,0.1147185,0.7176065,0.2913335,0.0852205,1.1692865000000001,0.5136735,0.1167785,1.2556365,0.2812235,0.0478905,0.6876065,0.2208335,-0.1899254999999999,1.2969365,0.1081034999999999,-0.1034155,0.9188125,-0.0024955,-0.0045714999999999,1.0811875,0.0024955,0.0045715,0.8702565,-0.4696964999999999,0.0400075,1.1314465,-0.4338864999999999,0.0065775,0.8519765000000001,-0.8505065,0.0395145,1.1294265,-0.8261265,0.0201175
14,1.003958,0.8143754999999999,0.1464235,0.807821,0.5084055,0.1143935,0.705491,0.2987355,0.0690455,1.169531,0.5146155,0.1171325,1.2633809999999999,0.2961655,0.0380505,0.679711,0.2523455,-0.1981665,1.307071,0.1443855,-0.1267665,0.918679,-0.0024795,-0.0046645,1.081321,0.0024795,0.0046645,0.8700510000000001,-0.4706845,0.0404215,1.131291,-0.4326945,0.0060395,0.851691,-0.8497245,0.0388285,1.1293009999999999,-0.8255345000000001,0.0199125
15,1.0043635,0.8144405,0.1476155,0.8080135000000002,0.5089205,0.1139985,0.6926935000000001,0.3112305,0.0519865,1.1697335,0.5156305000000001,0.1173335,1.2716835,0.3119004999999999,0.0280684999999999,0.6705935000000001,0.2895605,-0.2050745,1.3189834999999999,0.1807605,-0.1501845,0.9185525,-0.0024695,-0.0047705,1.0814475,0.0024695,0.0047704999999999,0.8698735000000001,-0.4715095,0.0407345,1.1310635,-0.4316195,0.0054724999999999,0.8514835000000001,-0.8495094999999999,0.0381805,1.1291435,-0.8247295,0.0196184999999999
16,1.0046815,0.8143210000000001,0.148569,0.8079645,0.5096510000000001,0.113354,0.6790345,0.326451,0.035707,1.1699545,0.5167409999999999,0.117251,1.2827945,0.331111,0.017853,0.6601045,0.332081,-0.211761,1.3308745,0.228151,-0.173051,0.9184445,-0.0025,-0.00483,1.0815555,0.0024999999999999,0.00483,0.8697145,-0.472229,0.040769,1.1308444999999998,-0.430889,0.004725,0.8515345,-0.850109,0.038094,1.1290045,-0.824039,0.019055
17,1.0048365,0.814011,0.1494515,0.8078515,0.510231,0.1126514999999999,0.6654115,0.345081,0.0191725,1.1702115,0.5175810000000001,0.1170225,1.2942715,0.351641,0.0079294999999999,0.6435315000000001,0.378211,-0.2178485,1.3421615,0.282181,-0.1940585,0.9183515,-0.0024959999999999,-0.0048245,1.0816485,0.002496,0.0048245,0.8695815,-0.4718989999999999,0.0406305,1.1306515,-0.430629,0.0038554999999999,0.8514714999999999,-0.850289,0.0378225,1.1288915,-0.823789,0.0181875
18,1.0049095,0.8134435,0.1502495,0.8077825000000001,0.5108535,0.1117475,0.6522825,0.3691835,0.0038405,1.1705524999999999,0.5189834999999999,0.1166025,1.3047125,0.3785435,-0.0037524999999999,0.6275124999999999,0.4299535,-0.2233905,1.3517125,0.3424435,-0.2121305,0.9182885000000001,-0.0025545,-0.0047514999999999,1.0817115,0.0025544999999999,0.0047515,0.8695125,-0.4719865,0.0401235,1.1305125,-0.4303665,0.0028325,0.8515725000000001,-0.8507865,0.0373015,1.1289525,-0.8236365,0.0171185
19,1.0049184999999998,0.812585,0.1509765,0.8077445,0.5119549999999999,0.1110405,0.6421745,0.395375,-0.0088284999999999,1.1709445,0.520635,0.1160075,1.3137745,0.4087449999999999,-0.0150954999999999,0.6183745,0.4822849999999999,-0.2275134999999999,1.3590145,0.4054149999999999,-0.2235734999999999,0.9183005,-0.0025059999999999,-0.0045844999999999,1.0816995,0.0025059999999999,0.0045845,0.8695045,-0.472275,0.0393475,1.1304645,-0.430295,0.0015355,0.8517245,-0.851415,0.0366225,1.1290645,-0.823715,0.0158775
20,1.0048739999999998,0.811113,0.1515765,0.80765,0.513533,0.1105865,0.6341399999999999,0.425733,-0.0187394999999999,1.1712,0.522683,0.1152145,1.32121,0.442543,-0.0239234999999999,0.6108100000000001,0.535683,-0.2288935,1.36442,0.473163,-0.2290735,0.9183330000000001,-0.0025949999999999,-0.0043004999999999,1.081667,0.002595,0.0043005,0.86955,-0.473117,0.0385175,1.13048,-0.430187,0.0001545,0.85202,-0.853857,0.0356145,1.12926,-0.823917,0.0145425
21,1.004918,0.8096265,0.151835,0.807436,0.5154365000000001,0.110419,0.628456,0.4570165,-0.0260579999999999,1.171416,0.5249165,0.114348,1.328806,0.4763965,-0.030369,0.6070960000000001,0.5897764999999999,-0.2296949999999999,1.367796,0.5396764999999999,-0.230155,0.918354,-0.0026614999999999,-0.0040509999999999,1.081646,0.0026615,0.0040509999999999,0.869546,-0.4740435,0.037862,1.130476,-0.4306535,-0.0012129999999999,0.851866,-0.8546635,0.03447,1.129346,-0.8246435000000001,0.013447
22,1.0049635,0.807681,0.1517514999999999,0.8071015,0.5176510000000001,0.1104955,0.6248815000000001,0.491431,-0.0298825,1.1714315,0.526941,0.1135865,1.3336315,0.511561,-0.0318114999999999,0.6051815,0.640931,-0.2298585,1.3679014999999999,0.604751,-0.2312085,0.9183715000000001,-0.00272,-0.0036505,1.0816284999999999,0.00272,0.0036505,0.8695415000000001,-0.475669,0.0368405,1.1304715,-0.431579,-0.0025024999999999,0.8517915,-0.856849,0.0334165,1.1293515,-0.8259289999999999,0.0124315
23,1.0050275,0.805398,0.151609,0.8066905,0.519948,0.11074,0.6249605,0.5267879999999999,-0.030795,1.1715005,0.5291279999999999,0.1129719999999999,1.3372804999999999,0.546578,-0.032656,0.6052605,0.6861379999999999,-0.230771,1.3679805,0.664478,-0.232121,0.9184215,-0.0027399999999999,-0.003179,1.0815785,0.0027399999999999,0.0031789999999999,0.8695205,-0.477302,0.035926,1.1305705,-0.4320219999999999,-0.0038569999999999,0.8519005,-0.859172,0.032625,1.1294305,-0.827682,0.0114589999999999
24,1.0051135,0.8024225,0.151302,0.8062185,0.5224025,0.111063,0.6250885000000002,0.5563525,-0.031642,1.1716285,0.5317324999999999,0.112482,1.3394285,0.5819225,-0.033465,0.6053485000000001,0.7262925,-0.2293879999999999,1.3680984999999999,0.7274725,-0.232678,0.9185065,-0.0027365,-0.0026709999999999,1.0814935,0.0027364999999999,0.0026709999999999,0.8694785,-0.4807275,0.0350759999999999,1.1306085,-0.4336175,-0.00513,0.8520485,-0.8625975,0.032103,1.1295585,-0.8297475,0.0104389999999999
25,1.005241,0.799357,0.1510645,0.805712,0.524497,0.1116645,0.625282,0.583807,-0.0322295,1.171812,0.534887,0.1122045,1.3396219999999999,0.615247,-0.0340525,0.605382,0.765537,-0.2214355,1.368152,0.7823869999999999,-0.2255755,0.918632,-0.0027519999999999,-0.0021195,1.0813679999999999,0.002752,0.0021195,0.8696820000000001,-0.483203,0.0343785,1.130702,-0.435083,-0.0062074999999999,0.852112,-0.865783,0.0320305,1.129762,-0.831833,0.0097095
26,1.0054215,0.7960025,0.1506845,0.8052695,0.5270325,0.1125585,0.6268795,0.6085025,-0.0265144999999999,1.1719694999999999,0.5380225,0.1120235,1.3398795,0.6479425,-0.0338915,0.6055595,0.8013825,-0.2092555,1.3663195,0.8306825,-0.2149754999999999,0.9188265,-0.0028334999999999,-0.0015704999999999,1.0811735,0.0028334999999999,0.0015705,0.8698795,-0.4861075,0.0337295,1.1308995,-0.4369075,-0.0072715,0.8522595,-0.8698175,0.0309535,1.1299195,-0.8343375000000001,0.0090445
27,1.0055445,0.7927635,0.150311,0.8048795,0.5297035,0.113882,0.6294995000000001,0.6281835,-0.020066,1.1720695,0.5408634999999999,0.112011,1.3401395,0.6735835,-0.03263,0.6076195000000001,0.8329135,-0.195439,1.3612895,0.8718135,-0.201919,0.9190635,-0.0028264999999999,-0.001187,1.0809365,0.0028265,0.001187,0.8700595,-0.4892165,0.033351,1.1311295000000001,-0.4390265,-0.008233,0.8525395,-0.8735965,0.0308419999999999,1.1300895,-0.8370265,0.0085839999999999
28,1.0056,0.7896745000000001,0.1501434999999999,0.804741,0.5320745,0.1152875,0.6333409999999999,0.6470545000000001,-0.0121505,1.172111,0.5434045000000001,0.1122124999999999,1.338921,0.6954845000000001,-0.0305855,0.6115809999999999,0.8607645,-0.1796865,1.356331,0.9077345,-0.1873365,0.919377,-0.0029455,-0.0010185,1.0806230000000001,0.0029454999999999,0.0010184999999999,0.870221,-0.4922155,0.0331194999999999,1.131361,-0.4413455,-0.0090565,0.852811,-0.8772854999999999,0.0306844999999999,1.130241,-0.8398654999999999,0.0083224999999999
29,1.0055999999999998,0.786802,0.1501495,0.804768,0.534172,0.1167325,0.6371180000000001,0.6623819999999999,-0.0031004999999999,1.172098,0.545712,0.1125655,1.334518,0.713032,-0.0265725,0.6165080000000001,0.8850819999999999,-0.1629805,1.3506479999999998,0.935462,-0.1699105,0.919702,-0.002914,-0.0009625,1.080298,0.002914,0.0009625,0.8703380000000001,-0.495038,0.0329375,1.1315979999999999,-0.4441879999999999,-0.0096475,0.8529180000000001,-0.8806080000000001,0.0306875,1.130368,-0.842738,0.0082605
30,1.0055635,0.784038,0.15021,0.8049295,0.536108,0.118396,0.6414095,0.676628,0.005766,1.1719795,0.547668,0.113053,1.3297595,0.728718,-0.01953,0.6222695,0.904618,-0.1451299999999999,1.3448695,0.957338,-0.1518699999999999,0.9199965,-0.002855,-0.0008309999999999,1.0800035000000001,0.002855,0.000831,0.8704295,-0.497872,0.032822,1.1318295,-0.446832,-0.0103209999999999,0.8527395,-0.883692,0.030744,1.1304195,-0.845632,0.008333
31,1.00552,0.781494,0.150036,0.805092,0.5376740000000001,0.12,0.646482,0.6910240000000001,0.014571,1.171902,0.549664,0.113561,1.3246120000000001,0.739284,-0.01217,0.628162,0.921954,-0.127114,1.339202,0.973584,-0.134204,0.920243,-0.002789,-0.000626,1.079757,0.002789,0.000626,0.870542,-0.499656,0.031997,1.132102,-0.449676,-0.0108019999999999,0.852272,-0.885606,0.030633,1.130442,-0.8486659999999999,0.008502
32,1.005417,0.7790745,0.149777,0.80532,0.5391545,0.12183,0.65025,0.7012545,0.023145,1.17187,0.5520745,0.114466,1.31918,0.7494645,-0.0043839999999999,0.6337900000000001,0.9365845,-0.110013,1.33308,0.9855545,-0.116823,0.920475,-0.0027325,-0.0004259999999999,1.079525,0.0027324999999999,0.0004259999999999,0.87066,-0.5010255,0.031171,1.13236,-0.4533055,-0.011013,0.85185,-0.8874255,0.030785,1.13049,-0.8517155000000001,0.008721
33,1.0052805,0.776767,0.149754,0.8055715000000001,0.5406569999999999,0.123954,0.6543915,0.711997,0.03203,1.1719015,0.554017,0.115567,1.3139615,0.7590969999999999,0.002253,0.6394715,0.951637,-0.094356,1.3270715,1.0032370000000002,-0.100466,0.9207315000000001,-0.0026909999999999,-0.000313,1.0792685,0.0026909999999999,0.000313,0.8706415000000001,-0.5023230000000001,0.030498,1.1325815,-0.456023,-0.011086,0.8517115,-0.889203,0.03118,1.1305415,-0.854373,0.009054
34,1.005158,0.774532,0.149787,0.805868,0.542802,0.126419,0.658988,0.722442,0.0405829999999999,1.171988,0.555322,0.11662,1.308418,0.767052,0.0080209999999999,0.6445180000000001,0.962182,-0.080453,1.322058,1.017482,-0.087273,0.920975,-0.0026409999999999,-0.000328,1.079025,0.0026409999999999,0.0003279999999999,0.8705780000000001,-0.503718,0.029684,1.132788,-0.458678,-0.011145,0.851518,-0.890908,0.031637,1.130688,-0.857028,0.0094779999999999
35,1.00503,0.7726375,0.149778,0.8062520000000001,0.5442874999999999,0.128606,0.664002,0.7327775,0.047857,1.172132,0.5565475,0.117622,1.302872,0.7737274999999999,0.013819,0.649532,0.9719974999999998,-0.066421,1.317292,1.0302975,-0.074662,0.921193,-0.0025785,-0.0003859999999999,1.078807,0.0025784999999999,0.000386,0.870512,-0.5046825,0.028842,1.132852,-0.4620125,-0.0112099999999999,0.8512919999999999,-0.8922225,0.032093,1.130922,-0.8593125,0.009941
36,1.0048935,0.7704755,0.149724,0.8067245000000001,0.5456955,0.130654,0.6694645,0.7429954999999999,0.054161,1.1723345,0.5574555,0.118518,1.2976445,0.7791954999999999,0.019353,0.6546145,0.9804355,-0.054264,1.3128445,1.0411355,-0.063324,0.9213985,-0.0024775,-0.0004949999999999,1.0786015,0.0024775,0.0004949999999999,0.8704244999999999,-0.5050445,0.02801,1.1328545,-0.4658644999999999,-0.0112509999999999,0.8510945,-0.8938345000000001,0.032181,1.1311645,-0.8617245,0.010213
37,1.0047525,0.7684920000000001,0.149563,0.8075985,0.547632,0.132753,0.6751885,0.752102,0.059677,1.1725685000000001,0.558342,0.1194269999999999,1.2925485,0.783792,0.024839,0.6594885000000001,0.986652,-0.042458,1.3084085,1.051652,-0.052633,0.9216065,-0.0022819999999999,-0.0006239999999999,1.0783935,0.0022819999999999,0.0006239999999999,0.8703185,-0.504788,0.027171,1.1327885,-0.469658,-0.011342,0.8510485,-0.895428,0.03222,1.1314285,-0.864238,0.010495
38,1.0045575,0.7667265,0.149498,0.8088185,0.5494365,0.134948,0.6813185000000002,0.7613765,0.064635,1.1728085,0.5590265,0.120475,1.2892985000000001,0.7867065,0.029248,0.6641585000000001,0.9921865,-0.031676,1.3043685,1.0624865,-0.043857,0.9218005,-0.0021305,-0.000757,1.0781995,0.0021304999999999,0.000757,0.8701985,-0.5044735,0.026359,1.1327285,-0.4736134999999999,-0.011279,0.8512085,-0.8970035000000001,0.03241,1.1317185,-0.8665335000000001,0.010865
39,1.004359,0.7651845,0.1493545,0.810203,0.5510745,0.1369445,0.687663,0.7720745,0.0690355,1.1730729999999998,0.5598545,0.1215314999999999,1.286193,0.7896945000000001,0.0338075,0.6683129999999999,0.9985645,-0.0222825,1.300363,1.0732644999999998,-0.0350205,0.921984,-0.0020444999999999,-0.0008695,1.078016,0.0020445,0.0008694999999999,0.870043,-0.5041055,0.0252745,1.132653,-0.4770554999999999,-0.0112785,0.8514030000000001,-0.8984255,0.0324975,1.132023,-0.8687355,0.0111894999999999
40,1.0040864999999999,0.7638780000000001,0.149151,0.8115035000000002,0.552748,0.138781,0.6924935,0.7783680000000001,0.073036,1.1733335,0.560548,0.122476,1.2834035,0.7923680000000001,0.037969,0.6726135,1.003958,-0.0137639999999999,1.2966834999999999,1.084558,-0.027363,0.9221555,-0.0019599999999999,-0.00093,1.0778445,0.00196,0.00093,0.8698735,-0.5038819999999999,0.024833,1.1325435,-0.480332,-0.0113339999999999,0.8516735,-0.899632,0.032566,1.1323235,-0.8707619999999999,0.011427
41,1.003801,0.7627875,0.148871,0.812725,0.5543475,0.140241,0.697165,0.7848375,0.076704,1.173555,0.5605475,0.123068,1.280815,0.7945175,0.041971,0.6771050000000001,1.0091075,-0.005661,1.293115,1.0957075,-0.020491,0.922321,-0.0018864999999999,-0.0009599999999999,1.077679,0.0018864999999999,0.0009599999999999,0.869685,-0.5037025,0.024355,1.132335,-0.4833625,-0.011446,0.851915,-0.9003325000000001,0.033187,1.132615,-0.8725125,0.011574
42,1.0034925,0.76188,0.1484595,0.8141035,0.55577,0.1414294999999999,0.7018535,0.79023,0.0807075,1.1737834999999999,0.56045,0.1235904999999999,1.2784935,0.79618,0.0458815,0.6805935000000001,1.01345,0.0020505,1.2903235,1.09785,-0.0136254999999999,0.9224325,-0.0018169999999999,-0.0009615,1.0775675,0.0018169999999999,0.0009615,0.8697135000000001,-0.50436,0.0238374999999999,1.1321235,-0.48609,-0.0115795,0.8521235,-0.90109,0.0335564999999999,1.1328734999999999,-0.87372,0.0116495
43,1.0030815,0.7611575,0.148067,0.8154085,0.5567175,0.142307,0.7059585000000002,0.7946775,0.083978,1.1739885,0.5604375,0.124108,1.2764885000000001,0.7976675,0.049714,0.6835585,1.0177075000000002,0.009028,1.2873685,1.0999075,-0.0062349999999999,0.9225265,-0.0017675,-0.0009619999999999,1.0774735,0.0017675,0.000962,0.8699285,-0.5049524999999999,0.023273,1.1318985,-0.4881225,-0.0116399999999999,0.8523985000000001,-0.9020425,0.033852,1.1331085,-0.8745725,0.011818
44,1.002618,0.7604245000000001,0.147737,0.8166450000000001,0.5576445,0.143117,0.709435,0.7979545,0.086898,1.174115,0.5603945,0.124566,1.274735,0.7988745,0.053366,0.685685,1.0216445,0.015324,1.284765,1.1015445,0.000748,0.922609,-0.0016635,-0.0009239999999999,1.077391,0.0016634999999999,0.000924,0.870085,-0.5050955,0.022695,1.131745,-0.4888855,-0.011664,0.852525,-0.9029455,0.034002,1.133295,-0.8752455,0.012
45,1.002215,0.7599045,0.1475075,0.8176770000000001,0.5585644999999999,0.1437475,0.7123470000000001,0.8004145,0.0898615,1.174207,0.5603245000000001,0.1250985,1.273287,0.7996445000000001,0.0566095,0.687037,1.0261445,0.0214275,1.282847,1.1030445,0.0069025,0.922669,-0.0016014999999999,-0.0008964999999999,1.077331,0.0016015,0.0008965,0.870197,-0.5054955,0.0221385,1.131607,-0.4897855,-0.0115324999999999,0.852627,-0.9035355,0.0341825,1.133567,-0.8757155000000001,0.0122165
46,1.0017379999999998,0.759404,0.147258,0.8182240000000001,0.5586040000000001,0.143968,0.713974,0.804184,0.0914939999999999,1.174294,0.5603640000000001,0.125537,1.272164,0.8000940000000001,0.059385,0.687114,1.031014,0.025811,1.281494,1.104214,0.012646,0.922699,-0.001631,-0.000877,1.077301,0.0016309999999999,0.0008769999999999,0.870294,-0.5053460000000001,0.021317,1.131484,-0.490416,-0.011409,0.852614,-0.903996,0.034353,1.1337139999999999,-0.876106,0.012419
47,1.0013144999999999,0.758921,0.1470845,0.8185065,0.5584509999999999,0.1441645,0.7156465000000001,0.806921,0.0932294999999999,1.1743565,0.560321,0.1259104999999999,1.2713465,0.8004009999999999,0.0617765,0.6870365,1.035521,0.0300294999999999,1.2806165,1.104721,0.0176085,0.9227045,-0.0016509999999999,-0.0008705,1.0772955,0.0016509999999999,0.0008704999999999,0.8703665,-0.505339,0.0205155,1.1313464999999998,-0.490809,-0.0113255,0.8525065000000001,-0.904879,0.0340295,1.1338065,-0.8766590000000001,0.0126084999999999
48,1.0008925,0.75854,0.1469705,0.8187645,0.55855,0.1443405,0.7161845,0.80823,0.0946075,1.1744045,0.56022,0.1261795,1.2708145,0.80046,0.0636704999999999,0.6869645000000001,1.03794,0.0338615,1.2805445,1.10524,0.0214005,0.9227065,-0.0016589999999999,-0.0008724999999999,1.0772935,0.001659,0.0008724999999999,0.8704545000000001,-0.5054799999999999,0.0199335,1.1312045,-0.49119,-0.0112944999999999,0.8523845,-0.90588,0.0335945,1.1338845,-0.87715,0.0128005
49,1.0005425,0.7583,0.1469875,0.8190535000000001,0.55872,0.1445874999999999,0.7162735,0.81036,0.0955205,1.1744435,0.5600999999999999,0.1265045,1.2705134999999999,0.80052,0.0654025,0.6867734999999999,1.0402,0.0370355,1.2804735,1.1055,0.0249334999999999,0.9227145,-0.001627,-0.0008775,1.0772855,0.001627,0.0008774999999999,0.8705635,-0.50501,0.0194364999999999,1.1310835,-0.49091,-0.0111875,0.8522535,-0.90665,0.0329164999999999,1.1339635000000001,-0.87738,0.0129754999999999
50,1.0001995,0.7582085,0.1471205,0.8192425,0.5587785,0.1447105,0.7162325,0.8121185,0.0965615,1.1744725,0.5600084999999999,0.1268405,1.2704625,0.8004585,0.0666155,0.6863125,1.0424085,0.0390034999999999,1.2803925,1.1055085,0.0280554999999999,0.9227434999999999,-0.0016265,-0.0009115,1.0772565,0.0016265,0.0009114999999999,0.8706125,-0.5048815,0.0189674999999999,1.1310125,-0.4909914999999999,-0.0109485,0.8521925,-0.9072015,0.0321194999999999,1.1340225,-0.8774915000000001,0.0131814999999999
51,0.9998815,0.7581175,0.147374,0.8192515,0.5586075,0.144704,0.7161915,0.8112775,0.096965,1.1744415,0.5596475,0.127141,1.2704115,0.8000975,0.067737,0.6859415,1.0438475,0.040185,1.2803315,1.1051475,0.03073,0.9227745,-0.0016175,-0.0009629999999999,1.0772255,0.0016174999999999,0.000963,0.8706615,-0.5057525,0.018588,1.1309415,-0.4910124999999999,-0.0106979999999999,0.8521915,-0.9081925,0.031862,1.1340715000000001,-0.8775725,0.013427
52,0.9996380000000001,0.7579899999999999,0.1476859999999999,0.819225,0.55826,0.144696,0.7161649999999999,0.81106,0.097348,1.174415,0.5592999999999999,0.127468,1.2702849999999999,0.79977,0.068758,0.684455,1.0455,0.0410349999999999,1.280775,1.1049,0.032747,0.922806,-0.001576,-0.001083,1.077194,0.0015759999999999,0.001083,0.870755,-0.50685,0.0184559999999999,1.130915,-0.49101,-0.010389,0.8521750000000001,-0.90872,0.031761,1.134185,-0.87775,0.0137389999999999
53,0.9993765000000001,0.7578765000000001,0.1479775,0.8192235,0.5581265,0.1446675,0.7161235,0.8115965,0.0976485,1.1743934999999999,0.5589565,0.1277695,1.2702035,0.7994265,0.0697165,0.6820735,1.0471565,0.0413305,1.2817135,1.1045565,0.0343585,0.9228225,-0.0015185,-0.0012544999999999,1.0771775,0.0015184999999999,0.0012544999999999,0.8709135,-0.5069035000000001,0.0182985,1.1309135,-0.4913235,-0.0100774999999999,0.8522035,-0.9093535,0.0320635,1.1343135,-0.8777535,0.0140955
54,0.9990975000000001,0.75791,0.1482755,0.8191174999999999,0.55794,0.1445955,0.7154674999999999,0.8127300000000001,0.0979135,1.1742575,0.5587,0.1280645,1.2701975,0.7991900000000001,0.0705735,0.6799075,1.04765,0.0415875,1.2828875,1.10435,0.0351985,0.9228255,-0.001467,-0.0014134999999999,1.0771745,0.0014669999999999,0.0014134999999999,0.8710575,-0.50654,0.0180145,1.1308975,-0.49156,-0.0097794999999999,0.8522975,-0.9097,0.0323375,1.1344075,-0.8778699999999999,0.0144695
55,0.9986885,0.7579775,0.148428,0.8189535,0.5577975,0.144488,0.7145835,0.8136375,0.098062,1.1739635,0.5584375,0.128352,1.2702635,0.7989975,0.071358,0.6774835,1.0475075,0.041844,1.2842035,1.1041075,0.035663,0.9228305,-0.0013984999999999,-0.001587,1.0771695000000001,0.0013984999999999,0.0015869999999999,0.8710635000000001,-0.5066825,0.0179639999999999,1.1308435000000001,-0.4917025,-0.009466,0.8524035,-0.9094425,0.0321959999999999,1.1345735000000001,-0.8780125,0.0148719999999999
56,0.9982895,0.7581045,0.148601,0.8187685,0.5577245,0.144281,0.7135885,0.8144545,0.097896,1.1736285,0.5581145,0.128625,1.2703385,0.7988645,0.072127,0.6752885,1.0474345,0.042115,1.2857185,1.1039345,0.036063,0.9228455,-0.0013424999999999,-0.0017759999999999,1.0771545,0.0013424999999999,0.0017759999999999,0.8710685000000001,-0.5054055,0.0180029999999999,1.1307785,-0.4917755,-0.009108,0.8526985,-0.9100455,0.03173,1.1346685,-0.8780855,0.0151859999999999
57,0.997954,0.758159,0.148811,0.818494,0.557399,0.144101,0.7124440000000001,0.8160689999999999,0.097235,1.173324,0.557729,0.128918,1.270384,0.798639,0.0727609999999999,0.673134,1.047359,0.04172,1.288034,1.099859,0.036426,0.922863,-0.0012889999999999,-0.001931,1.077137,0.001289,0.001931,0.8711040000000001,-0.502701,0.01805,1.130754,-0.4920609999999999,-0.008722,0.852974,-0.910291,0.031359,1.134724,-0.878201,0.015507
58,0.997567,0.758184,0.1491425,0.81824,0.556964,0.1439725,0.71147,0.817314,0.0966915,1.17299,0.557334,0.1292225,1.27042,0.798404,0.0733745,0.67142,1.047074,0.0413525,1.29025,1.095574,0.0368085,0.922873,-0.0012319999999999,-0.0020944999999999,1.077127,0.001232,0.0020944999999999,0.87104,-0.505566,0.0184975,1.13075,-0.492896,-0.0083574999999999,0.85321,-0.910456,0.0314405,1.13475,-0.878536,0.0157345
59,0.9972130000000001,0.7582175,0.149465,0.8179820000000001,0.5565275000000001,0.143895,0.710872,0.8184275000000001,0.096328,1.172642,0.5568675000000001,0.129526,1.270482,0.7982775,0.0739269999999999,0.669842,1.0462975,0.041002,1.292162,1.0902975,0.037176,0.922876,-0.0011815,-0.0022199999999999,1.077124,0.0011815,0.0022199999999999,0.870982,-0.5083325000000001,0.018726,1.130802,-0.4939225,-0.0079559999999999,0.853342,-0.9104825,0.031206,1.134802,-0.8793925,0.01579
60,0.9968755000000001,0.758235,0.1498155,0.8177415,0.556185,0.1438555,0.7103515,0.819625,0.0959875,1.1723215,0.556505,0.1298395,1.2705415,0.798185,0.0744155,0.6685115000000001,1.045645,0.0406865,1.2938714999999998,1.084745,0.0371545,0.9228745,-0.001152,-0.0023195,1.0771255,0.001152,0.0023195,0.8709215000000001,-0.508385,0.0188075,1.1308115,-0.493895,-0.0076644999999999,0.8536414999999999,-0.910535,0.0313154999999999,1.1349215,-0.8799849999999999,0.0160195
61,0.9965520000000001,0.758281,0.1501345,0.817557,0.555881,0.1438045,0.7098870000000002,0.819581,0.0957055,1.172067,0.556181,0.1301505,1.270647,0.798141,0.0748175,0.6672570000000001,1.0453009999999998,0.0404005,1.295247,1.079101,0.0368465,0.922861,-0.001138,-0.0023824999999999,1.077139,0.001138,0.0023825,0.870877,-0.5085390000000001,0.0187775,1.130817,-0.494039,-0.0073594999999999,0.853987,-0.910579,0.0313125,1.135117,-0.880599,0.0162395
62,0.9962495000000001,0.758281,0.1505449999999999,0.8175095,0.556001,0.143895,0.7094195000000001,0.820821,0.09532,1.1718395,0.555891,0.130578,1.2707595,0.798091,0.075298,0.6660095000000001,1.045051,0.040337,1.2965895,1.073451,0.036487,0.9228395000000001,-0.0011259999999999,-0.002374,1.0771605,0.001126,0.002374,0.8708595,-0.508689,0.018927,1.1308295,-0.494189,-0.006841,0.8544795000000001,-0.910499,0.032063,1.1354095,-0.881069,0.016665
63,0.995931,0.758256,0.1507945,0.817376,0.5559559999999999,0.1439845,0.709006,0.8214760000000001,0.0949465,1.171806,0.5558460000000001,0.1310035,1.2708059999999999,0.798046,0.0757755,0.664786,1.044406,0.0403405,1.297796,1.073406,0.0360045,0.922823,-0.001118,-0.0023514999999999,1.077177,0.0011179999999999,0.0023514999999999,0.8707960000000001,-0.506584,0.0187885,1.130716,-0.494294,-0.0063635,0.854936,-0.910314,0.0329515,1.135696,-0.881434,0.0170915
64,0.995838,0.7582465,0.151067,0.8173540000000001,0.5559464999999999,0.144157,0.708754,0.8219565,0.094723,1.171954,0.5558365000000001,0.131457,1.270814,0.7980665,0.076295,0.6636340000000001,1.0436965,0.040353,1.298994,1.0733965,0.03545,0.922816,-0.0011215,-0.0022779999999999,1.077184,0.0011214999999999,0.002278,0.870754,-0.5037535,0.018557,1.1305939999999999,-0.4943435,-0.0058459999999999,0.855354,-0.9103235,0.033824,1.1359139999999999,-0.8817335,0.017566
65,0.995733,0.7582305,0.151196,0.817379,0.5560605000000001,0.144066,0.708609,0.8230205,0.094644,1.172049,0.5558205,0.131887,1.270829,0.7982605,0.076561,0.662549,1.0430805,0.040395,1.299969,1.0733804999999998,0.034915,0.922807,-0.0011255,-0.0021759999999999,1.077193,0.0011255,0.002176,0.870709,-0.5018994999999999,0.01825,1.130469,-0.4949795,-0.0053669999999999,0.855749,-0.9105495,0.034644,1.1361189999999999,-0.8820295,0.018024
66,0.995558,0.7581225,0.1512665,0.8173900000000001,0.5565225,0.1438465,0.70845,0.8238825000000001,0.0945275,1.1721300000000001,0.5557525,0.1323515,1.27084,0.7983325,0.0767645,0.66153,1.0422725,0.0402395,1.3003,1.0688725,0.0347965,0.922804,-0.0011144999999999,-0.0021235,1.077196,0.0011145,0.0021235,0.8706400000000001,-0.5017675,0.0187665,1.13033,-0.4957975,-0.0048514999999999,0.8561500000000001,-0.9104075,0.0348485,1.1362999999999999,-0.8822574999999999,0.0186025
67,0.9954215,0.7579235,0.1514355,0.8174255,0.5572935,0.1435354999999999,0.7082055,0.8246235,0.0944915,1.1721955,0.5554635,0.1327315,1.2708755,0.7983835,0.0768264999999999,0.6607155,1.0421635,0.0400245,1.3006255,1.0686635,0.0346665,0.9228015,-0.0010734999999999,-0.0020765,1.0771985,0.0010735,0.0020765,0.8705655,-0.5018265,0.0190504999999999,1.1302154999999998,-0.4966065,-0.0043675,0.8563855000000001,-0.9104465,0.0353394999999999,1.1363555,-0.8824164999999999,0.0191485
68,0.9952925000000001,0.7578135,0.151617,0.8174805,0.5569535,0.143297,0.7079105,0.8246235,0.094361,1.1723205,0.5554635,0.133063,1.2710305,0.7983835,0.076801,0.6599605,1.0418635,0.0395779999999999,1.3009605,1.0676635,0.034496,0.9227905,-0.0010734999999999,-0.002057,1.0772095,0.0010735,0.0020569999999999,0.8705205,-0.5021465,0.0190449999999999,1.1301005,-0.4972565,-0.003861,0.8562805,-0.9105665,0.0357279999999999,1.1364505,-0.8831665,0.019544
69,0.995168,0.7576935,0.151754,0.817445,0.5566835,0.1430739999999999,0.7075549999999999,0.8246235,0.094091,1.172455,0.5554635,0.13329,1.271205,0.7983835,0.076677,0.6593650000000001,1.0413635,0.0390029999999999,1.301155,1.0703635,0.033458,0.922776,-0.0010734999999999,-0.002071,1.077224,0.0010735,0.0020709999999999,0.8704450000000001,-0.5030064999999999,0.019527,1.129985,-0.4975365,-0.0034199999999999,0.8564550000000001,-0.9102765,0.0355409999999999,1.136545,-0.8838965,0.019854
70,0.995055,0.7574735,0.1518285,0.817418,0.5564735,0.1426185,0.707128,0.8246235,0.0936315,1.172538,0.5554135,0.1333995,1.271378,0.7983735,0.0764914999999999,0.658718,1.0413635,0.0381955,1.301328,1.0731635,0.0323755,0.922763,-0.0010734999999999,-0.0020745,1.077237,0.0010735,0.0020745,0.870598,-0.5051965,0.0204565,1.129928,-0.4976965,-0.0030605,0.856608,-0.9107565,0.0357175,1.136618,-0.8845864999999999,0.0201505
71,0.9949695,0.7571435,0.151541,0.8173775,0.5570835,0.141851,0.7067175,0.8242835,0.092974,1.1726375,0.5551834999999999,0.133118,1.2715675,0.7983635,0.075963,0.6583075,1.0408235,0.037016,1.3016675,1.0783235000000002,0.0308449999999999,0.9227255,-0.0010275,-0.002077,1.0772745,0.0010275,0.002077,0.8707675,-0.5058865,0.020936,1.1299875,-0.4976265,-0.0029809999999999,0.8567075,-0.9101765,0.03581,1.1367075,-0.8838265,0.020276
72,0.9948275000000001,0.7568025,0.1509734999999999,0.8173105,0.5579025,0.1410435,0.7062805,0.8236925,0.0919734999999999,1.1726705,0.5548425,0.1327445,1.2717905,0.7982325,0.0751075,0.6580005,1.0397425,0.0354315,1.3020005000000001,1.0832425,0.0292284999999999,0.9226655,-0.0009844999999999,-0.0020785,1.0773345,0.0009844999999999,0.0020784999999999,0.8709005,-0.5060675,0.0216164999999999,1.1301305,-0.4975575,-0.0029785,0.8568305,-0.9099975,0.0358444999999999,1.1367305,-0.8830574999999999,0.0203174999999999
73,0.994469,0.756228,0.1497045,0.817185,0.558618,0.1401585,0.705615,0.822778,0.0905545,1.172625,0.554438,0.1323095,1.272035,0.798068,0.0738294999999999,0.657845,1.038578,0.0332584999999999,1.302245,1.087478,0.0274364999999999,0.9225909999999999,-0.000947,-0.0020795,1.077409,0.0009469999999999,0.0020794999999999,0.871155,-0.505262,0.0216214999999999,1.130205,-0.497502,-0.0029765,0.856875,-0.910862,0.0358955,1.136715,-0.8820520000000001,0.0204364999999999
74,0.9940625,0.755507,0.147885,0.8171815,0.559437,0.139614,0.7048915,0.821877,0.0891039999999999,1.1725415,0.554097,0.131863,1.2722815,0.797867,0.072489,0.6576415,1.037847,0.0308169999999999,1.3025915000000001,1.091647,0.0251729999999999,0.9225645000000001,-0.0009109999999999,-0.00208,1.0774355,0.000911,0.0020799999999999,0.8714715,-0.504393,0.0220219999999999,1.1302315,-0.497363,-0.002966,0.8569415,-0.910963,0.0364689999999999,1.1366114999999999,-0.881223,0.0205309999999999
75,0.993693,0.7543075,0.144338,0.817145,0.5602775,0.139015,0.704225,0.8212174999999999,0.087307,1.172405,0.5538575,0.1312539999999999,1.272635,0.7977175,0.070589,0.657315,1.0370975,0.0279569999999999,1.3030549999999999,1.0950975,0.0217659999999999,0.9225639999999999,-0.0008864999999999,-0.002058,1.077436,0.0008864999999999,0.0020579999999999,0.8716550000000001,-0.5037125,0.0222929999999999,1.130265,-0.4979424999999999,-0.002919,0.8572050000000001,-0.9095325,0.0363069999999999,1.136435,-0.8808025,0.0204079999999999
76,0.9934530000000001,0.7528870000000001,0.1389345,0.817121,0.561427,0.1378345,0.7035910000000001,0.8209970000000001,0.0844055,1.172261,0.554057,0.1301195,1.273151,0.797867,0.0677845,0.6569910000000001,1.036207,0.0234755,1.303791,1.096407,0.0165365,0.922536,-0.000917,-0.0020044999999999,1.077464,0.000917,0.0020044999999999,0.871911,-0.502813,0.0227095,1.130321,-0.498073,-0.0032244999999999,0.857271,-0.909683,0.0359015,1.136241,-0.8800129999999999,0.0196495
77,0.9934145,0.7512955000000001,0.132409,0.8170545,0.5623955,0.136076,0.7033845000000001,0.8200955000000001,0.080768,1.1721545,0.5543754999999999,0.128634,1.2736945,0.7978855,0.063777,0.6565544999999999,1.0352455,0.016329,1.3046145,1.0977455,0.009451,0.9224375,-0.0009684999999999,-0.0019979999999999,1.0775625,0.0009685,0.0019979999999999,0.8721245,-0.5019345,0.022838,1.1303245,-0.4967344999999999,-0.003698,0.8573945000000001,-0.9099245,0.03506,1.1359545,-0.8793845,0.018381
78,0.99328,0.7493035,0.1241905,0.816808,0.5632935,0.1337035,0.7031879999999999,0.8192834999999999,0.0760204999999999,1.171898,0.5553334999999999,0.1265775,1.274078,0.7980435,0.0585115,0.655918,1.0340135,0.0085564999999999,1.305288,1.0970135,0.0016265,0.922276,-0.0010184999999999,-0.0020244999999999,1.077724,0.0010184999999999,0.0020244999999999,0.872258,-0.5021365,0.0243085,1.130248,-0.4952665,-0.0043424999999999,0.856998,-0.9093065,0.0336895,1.135478,-0.8788165,0.0164295
79,0.9929745000000001,0.747231,0.1140175,0.8163665,0.564311,0.1307555,0.7028065,0.8186910000000001,0.0698345,1.1714465,0.5568409999999999,0.1238305,1.2743864999999999,0.7985709999999999,0.0517895,0.6554865000000001,1.032921,-0.0016554999999999,1.3058765,1.097121,-0.0082604999999999,0.9220675,-0.0010989999999999,-0.0021455,1.0779325,0.001099,0.0021455,0.8721865,-0.501949,0.0250235,1.1300965,-0.4935589999999999,-0.0055325,0.8563465,-0.909359,0.0309505,1.1348665,-0.877929,0.0138495
80,0.9924735,0.7452085,0.1023699999999999,0.8163235,0.5652385,0.126301,0.7022035,0.8188585,0.062641,1.1707835,0.5577685,0.1205499999999999,1.2745735,0.7994385,0.043821,0.6550635,1.0320485,-0.012476,1.3061535,1.0962485,-0.019718,0.9218085,-0.0011865,-0.00234,1.0781915,0.0011865,0.0023399999999999,0.8719535,-0.5024715,0.0251739999999999,1.1301935,-0.4921015,-0.007123,0.8554035,-0.9098415,0.0280419999999999,1.1341135,-0.8773715,0.0107329999999999
81,0.992037,0.7430304999999999,0.090015,0.816423,0.5661505,0.120989,0.7014130000000001,0.8187905,0.054424,1.169893,0.5586804999999999,0.116041,1.274623,0.8003404999999999,0.034887,0.654523,1.0311605,-0.024027,1.3062230000000001,1.0971605,-0.032468,0.921582,-0.0012845,-0.002456,1.078418,0.0012845,0.002456,0.871533,-0.5015695,0.024456,1.130233,-0.4904995,-0.0092,0.854173,-0.9108595,0.024928,1.133213,-0.8764595,0.007103
82,0.991587,0.7409775,0.0776085,0.8165170000000002,0.5670375,0.1151205,0.700727,0.8190375,0.0457645,1.168957,0.5596774999999999,0.1110184999999999,1.274557,0.8013275,0.0253275,0.653877,1.0305575,-0.0373005,1.306147,1.0961575,-0.0462985,0.921319,-0.0013855,-0.0026735,1.078681,0.0013854999999999,0.0026734999999999,0.870707,-0.4996625,0.0239934999999999,1.130307,-0.4883625,-0.0114744999999999,0.852857,-0.9103525,0.0209115,1.132057,-0.8754625,0.0030764999999999
83,0.9910175,0.738878,0.0654365,0.8165135,0.568158,0.1089855,0.7000635,0.819418,0.0366745,1.1680935,0.561598,0.1053185,1.2743935,0.802308,0.0153005,0.6525935,1.030038,-0.0508505,1.3057735,1.095138,-0.0604855,0.9210305,-0.001507,-0.0029875,1.0789695,0.001507,0.0029875,0.8696235,-0.498382,0.0233895,1.1301635,-0.4852619999999999,-0.0138055,0.8516334999999999,-0.910182,0.0171295,1.1305435,-0.874232,-0.0010205
84,0.9907810000000001,0.7372465,0.054527,0.816416,0.5695565,0.1027619999999999,0.699406,0.8202365,0.027062,1.167426,0.5635665,0.0992319999999999,1.274136,0.8032965,0.0053,0.651046,1.0296465,-0.065724,1.3050760000000001,1.0940465,-0.0741459999999999,0.920779,-0.0016094999999999,-0.003217,1.079221,0.0016094999999999,0.003217,0.868696,-0.4964035,0.022164,1.130336,-0.4811235,-0.016042,0.849776,-0.9094235,0.013681,1.128816,-0.8729335,-0.0050249999999999
85,0.9907485,0.735841,0.0451615,0.8166535,0.570541,0.0965765,0.6988935000000001,0.820311,0.0177195,1.1669035,0.565231,0.0932485,1.2738735,0.803951,-0.0045235,0.6494035,1.0286810000000002,-0.0792925,1.3040835,1.092681,-0.0869905,0.9205405000000001,-0.0016209999999999,-0.0035224999999999,1.0794595,0.0016209999999999,0.0035225,0.8679235000000001,-0.495979,0.0196135,1.1304835,-0.476429,-0.0181375,0.8478735,-0.908319,0.0105275,1.1269035,-0.871819,-0.0086184999999999
86,0.9909305,0.734769,0.036445,0.8167735,0.5714090000000001,0.090733,0.6983235,0.820729,0.008503,1.1667135,0.566849,0.087182,1.2737034999999999,0.804879,-0.0137539999999999,0.6473835,1.027319,-0.090253,1.3027035,1.091719,-0.0986489999999999,0.9203595,-0.0016049999999999,-0.0036679999999999,1.0796405,0.001605,0.003668,0.8669935,-0.495441,0.016364,1.1305535,-0.4716909999999999,-0.020195,0.8452835,-0.907831,0.006901,1.1249735,-0.870471,-0.0118969999999999
87,0.9916885000000001,0.734201,0.029071,0.8174655,0.572071,0.085453,0.6978555,0.8215509999999999,0.00022,1.1671455,0.5682609999999999,0.0813759999999999,1.2739055000000001,0.805731,-0.022194,0.6456955000000001,1.026241,-0.100765,1.3013555,1.090541,-0.109165,0.9201745,-0.0015739999999999,-0.003623,1.0798255,0.0015739999999999,0.003623,0.8660255,-0.495019,0.0133309999999999,1.1308155,-0.466679,-0.022161,0.8424455,-0.907249,0.003669,1.1229255,-0.869419,-0.0145169999999999
88,0.9925385000000001,0.733858,0.0236105,0.8184265,0.572548,0.0808025,0.6975065,0.820908,-0.0060385,1.1678565,0.569318,0.0760214999999999,1.2742065,0.806098,-0.0295955,0.6441365,1.024958,-0.1081075,1.2999965,1.089258,-0.1181375,0.9200115,-0.0015099999999999,-0.0033635,1.0799885,0.00151,0.0033634999999999,0.8651265000000001,-0.493532,0.0109164999999999,1.1311465,-0.461582,-0.0236914999999999,0.8393865,-0.907132,0.0009134999999999,1.1208365,-0.869242,-0.0166335
89,0.993352,0.7333985000000001,0.019702,0.8190580000000001,0.5728185,0.077754,0.6968580000000001,0.8202685000000001,-0.010874,1.168808,0.5701685000000001,0.071228,1.2745980000000001,0.8062585,-0.036052,0.642748,1.0240885,-0.11427,1.2987980000000001,1.0882885,-0.12573,0.919779,-0.0014794999999999,-0.002954,1.080221,0.0014795,0.002954,0.8639479999999999,-0.4917015,0.00915,1.131138,-0.4568314999999999,-0.024943,0.8361879999999999,-0.9077015,-0.001531,1.118638,-0.8690715,-0.0181
90,0.9942480000000001,0.7331035,0.0171599999999999,0.819781,0.5730735,0.075905,0.696411,0.8193635,-0.01425,1.170091,0.5704535000000001,0.067737,1.275411,0.8062735,-0.041385,0.641421,1.0224035,-0.119111,1.298221,1.0875035,-0.1323909999999999,0.919549,-0.0014645,-0.002471,1.080451,0.0014645,0.002471,0.862621,-0.4887465,0.005464,1.131051,-0.4521765,-0.025769,0.8325210000000001,-0.9076865,-0.002424,1.1165910000000001,-0.8684265,-0.018712
91,0.99537,0.7329435,0.0154,0.820444,0.5733235,0.074707,0.696584,0.8184835,-0.016607,1.171684,0.5705835,0.064564,1.2765039999999999,0.8062735,-0.045948,0.640274,1.0206035,-0.121136,1.298204,1.0865035,-0.1386059999999999,0.919386,-0.0014645,-0.002064,1.080614,0.0014645,0.002064,0.861074,-0.4857265,0.0015409999999999,1.130804,-0.4480464999999999,-0.026183,0.828454,-0.9071565,-0.009226,1.114774,-0.8677265,-0.018839
92,0.9965905,0.7328045000000001,0.0141135,0.8212515,0.5735045000000001,0.0740595,0.6965915,0.8179445000000001,-0.0184475,1.1731515,0.5705845,0.0622075,1.2777915,0.8062645,-0.0501075,0.6386915,1.0191045,-0.1226305,1.2985315,1.0853045,-0.1442804999999999,0.9192885,-0.0013704999999999,-0.0020435,1.0807115,0.0013705,0.0020435,0.8592215,-0.4821355,-0.0028335,1.1305415,-0.4440555,-0.0262115,0.8241315,-0.9062955,-0.0161655,1.1132215,-0.8670454999999999,-0.0186415
93,0.9978015,0.7328009999999999,0.0129425,0.8222255,0.5736209999999999,0.0735105,0.6963655,0.817591,-0.0196625,1.1746055,0.570611,0.0597455,1.2794055,0.806171,-0.0545935,0.6370955,1.0178310000000002,-0.1231154999999999,1.2994055,1.0841310000000002,-0.1499855,0.9191845,-0.0012879999999999,-0.0020455,1.0808155,0.001288,0.0020455,0.8569255,-0.478789,-0.0079295,1.1298455,-0.440839,-0.0262465,0.8198455,-0.907229,-0.0232164999999999,1.1119055,-0.866749,-0.0186435
94,0.999133,0.7327085,0.0120075,0.823116,0.5736985,0.0735255,0.6962060000000001,0.8177685,-0.0202574999999999,1.176096,0.5705185,0.0575975,1.281316,0.8056785000000001,-0.0584755,0.635676,1.0167385,-0.1234915,1.301026,1.0826385,-0.1551915,0.919124,-0.0011125,-0.0018095,1.080876,0.0011124999999999,0.0018095,0.855316,-0.4772415,-0.0133145,1.129336,-0.4385615,-0.0263915,0.815796,-0.9074615,-0.0316715,1.111116,-0.8668414999999999,-0.0183874999999999
95,1.0004294999999999,0.7326875,0.0117605,0.8239935,0.5737375,0.0738325,0.6960934999999999,0.8176375,-0.0204405,1.1772935,0.5698675000000001,0.0558465,1.2830635,0.8044475000000001,-0.0617145,0.6346935,1.0164075,-0.1234654999999999,1.3034135,1.0808075,-0.1599954999999999,0.9190564999999999,-0.0009074999999999,-0.0010955,1.0809435,0.0009075,0.0010955,0.8544035,-0.4759325,-0.0191315,1.1288135,-0.4374525,-0.0264925,0.8121235,-0.9059625,-0.0422424999999999,1.1107434999999999,-0.8669724999999999,-0.0176795
96,1.001132,0.732781,0.0122624999999999,0.824316,0.573751,0.0745385,0.6958160000000001,0.8174710000000001,-0.0200085,1.177956,0.569121,0.0548305,1.284696,0.803091,-0.0641365,0.634406,1.016351,-0.1227295,1.306096,1.079051,-0.1640895,0.918984,-0.0007459999999999,-0.0005635,1.081016,0.000746,0.0005635,0.854236,-0.474909,-0.0245965,1.128546,-0.4367189999999999,-0.0267024999999999,0.8072360000000001,-0.906229,-0.0582154999999999,1.111066,-0.8670789999999999,-0.0163714999999999
97,1.0011169999999998,0.732951,0.013016,0.824288,0.573941,0.07564,0.6957880000000001,0.816581,-0.018828,1.1779579999999998,0.568411,0.054273,1.285588,0.801671,-0.0658,0.634378,1.016351,-0.121288,1.308438,1.077251,-0.167458,0.918972,-0.0007459999999999,1.9000000000000357e-05,1.081028,0.000746,-1.899999999999992e-05,0.852728,-0.474039,-0.030052,1.1285379999999998,-0.4364289999999999,-0.026615,0.802388,-0.907019,-0.0739509999999999,1.111498,-0.867389,-0.0144819999999999
98,1.0010899999999998,0.732951,0.0144254999999999,0.824257,0.574041,0.0771604999999999,0.695747,0.815501,-0.0166365,1.177967,0.567611,0.0540695,1.285607,0.799571,-0.0668055,0.6343270000000001,1.016351,-0.1189525,1.309907,1.075251,-0.1702225,0.918963,-0.0007459999999999,0.0004884999999999,1.081037,0.000746,-0.0004885,0.850747,-0.474039,-0.0346944999999999,1.128537,-0.4364289999999999,-0.0262495,0.797567,-0.907429,-0.0887265,1.111797,-0.867799,-0.0119355
99,1.0010545,0.733039,0.016323,0.8242325,0.574069,0.078928,0.6954525,0.8144290000000001,-0.014302,1.1779525,0.5669890000000001,0.054599,1.2856125,0.797419,-0.0669599999999999,0.6325625,1.016509,-0.116764,1.3101325,1.0734089999999998,-0.171954,0.9189575,-0.000563,0.0007959999999999,1.0810425,0.000563,-0.0007959999999999,0.8479725,-0.474081,-0.037818,1.1284525,-0.436431,-0.025242,0.7916624999999999,-0.907731,-0.106004,1.1119625,-0.867891,-0.0088019999999999
100,1.001906,0.7332420000000001,0.0184325,0.8243440000000001,0.574362,0.0807465,0.695314,0.8141120000000001,-0.0113385,1.178754,0.566402,0.0558995,1.286514,0.795452,-0.0664145,0.631344,1.015912,-0.1140035,1.311054,1.071912,-0.1724335,0.918846,-0.000468,0.0010565,1.081154,0.0004679999999999,-0.0010565,0.8453240000000001,-0.473978,-0.0405975,1.128504,-0.436328,-0.0235895,0.7880140000000001,-0.908808,-0.1172334999999999,1.112844,-0.867828,-0.0047975
101,1.0024735,0.7335205,0.0210505,0.8240445000000001,0.5745105,0.0824875,0.6952445,0.8136305,-0.0081725,1.1791345,0.5659305,0.0576135,1.2878445,0.7933605,-0.0647905,0.6302245,1.0162605,-0.1112685,1.3129645,1.0704605,-0.1717385,0.9188355,-0.0003294999999999,0.0012315,1.0811645,0.0003295,-0.0012315,0.8427745,-0.4747895,-0.0432034999999999,1.1287444999999998,-0.4367395,-0.0212615,0.7857345,-0.9085495,-0.1271085,1.1146645,-0.8677795,8.750000000000077e-05
102,1.002154,0.734022,0.0232055,0.823305,0.574762,0.0837665,0.694345,0.813352,-0.0059025,1.178675,0.565672,0.0595565,1.288475,0.791512,-0.0622035,0.629135,1.016862,-0.1085205,1.315655,1.069162,-0.1704805,0.918835,-0.000191,0.0011534999999999,1.081165,0.0001909999999999,-0.0011535,0.841025,-0.477028,-0.0449935,1.129465,-0.437408,-0.0181315,0.784845,-0.905698,-0.1333505,1.1172749999999998,-0.8676980000000001,0.0055984999999999
103,1.001517,0.734526,0.025466,0.822349,0.575086,0.084679,0.692489,0.813346,-0.0047919999999999,1.177449,0.565816,0.061679,1.288879,0.789976,-0.059151,0.627579,1.017386,-0.107142,1.318239,1.068186,-0.168202,0.918781,-8.99999999999998e-05,0.0009119999999999,1.081219,8.99999999999998e-05,-0.000912,0.840279,-0.4793739999999999,-0.0461979999999999,1.129779,-0.439944,-0.014417,0.785829,-0.902554,-0.136742,1.120969,-0.8673540000000001,0.0118909999999999
104,1.0005285,0.7352665,0.027657,0.8209735,0.5754665,0.084917,0.6906635000000001,0.8136865,-0.0045209999999999,1.1761335,0.5662065000000001,0.064247,1.2889435,0.7891265000000001,-0.055783,0.6265235,1.0187765,-0.1068049999999999,1.3208035,1.0675765,-0.165215,0.9188125,-4.949999999999399e-05,0.000594,1.0811875,4.950000000000093e-05,-0.0005939999999999,0.8406135,-0.4823735,-0.0464949999999999,1.1307235,-0.4432035,-0.0102169999999999,0.7878335,-0.8993534999999999,-0.137935,1.1255335,-0.8671635,0.018812
105,0.9989665,0.7362805,0.0294784999999999,0.8192985,0.5757605,0.0850094999999999,0.6890085,0.8133405,-0.0046665,1.1747585,0.5666405,0.0667244999999999,1.2887885,0.7885504999999999,-0.0523115,0.6257085,1.0201105,-0.1069135,1.3232185,1.0674105,-0.1617835,0.9188725000000001,-7.150000000000212e-05,0.0003984999999999,1.0811274999999998,7.150000000000212e-05,-0.0003985,0.8414485,-0.4859095,-0.0465115,1.1323685000000001,-0.4456595,-0.0055765,0.7927585,-0.8991795,-0.1330935,1.1307085,-0.8670895000000001,0.0259965
106,0.9975515000000001,0.7373624999999999,0.0313154999999999,0.8179275,0.5761025,0.0847315,0.6878775000000001,0.8133725,-0.0047545,1.1730975,0.5671725000000001,0.0693345,1.2887475,0.7880825,-0.0485055,0.6257975,1.0208425,-0.1073355,1.3258874999999999,1.0673425,-0.1576255,0.9187265,-0.0001215,-0.0001034999999999,1.0812735,0.0001214999999999,0.0001034999999999,0.8443975,-0.4882675,-0.0447684999999999,1.1345975,-0.4471975,-0.0017235,0.7991874999999999,-0.8988974999999999,-0.1279855,1.1370275,-0.8669175,0.0336324999999999
107,0.9953590000000001,0.738051,0.0325084999999999,0.816127,0.5759409999999999,0.0836775,0.686417,0.8122309999999999,-0.0061955,1.171407,0.567591,0.0720695,1.288237,0.7876409999999999,-0.0447525,0.6252270000000001,1.020961,-0.1096225,1.327897,1.067461,-0.1531925,0.918604,-0.0001709999999999,-0.0006215,1.081396,0.0001709999999999,0.0006214999999999,0.847567,-0.490969,-0.0426125,1.137337,-0.4481489999999999,0.0012064999999999,0.806237,-0.898849,-0.1224125,1.143817,-0.866799,0.0409714999999999
108,0.9930995000000001,0.738707,0.032962,0.8141035,0.575817,0.0822,0.6848035,0.8110170000000001,-0.0085539999999999,1.1692235,0.568177,0.074322,1.2872635,0.787177,-0.0411779999999999,0.6253635,1.020687,-0.1116279999999999,1.3293335,1.067487,-0.148758,0.9185035,-0.0001969999999999,-0.0011889999999999,1.0814965,0.000197,0.001189,0.8512935,-0.493783,-0.0400779999999999,1.1396335,-0.448923,0.000386,0.8145835000000001,-0.896253,-0.1165279999999999,1.1506235,-0.8667729999999999,0.047411
109,0.9904925000000001,0.739373,0.033081,0.8117695,0.575353,0.080258,0.6828795000000001,0.8099329999999999,-0.0118449999999999,1.1664495,0.5688829999999999,0.076087,1.2858494999999999,0.7871929999999999,-0.037543,0.6245995000000001,1.019903,-0.115653,1.3302895000000001,1.067503,-0.144623,0.9184895,-0.0002129999999999,-0.001862,1.0815105,0.0002129999999999,0.001862,0.8549295,-0.497157,-0.037233,1.1422495,-0.448907,-0.0022169999999999,0.8230295,-0.893267,-0.110993,1.1570595,-0.866477,0.050998
110,0.988222,0.7399929999999999,0.032771,0.8098520000000001,0.574943,0.078235,0.680912,0.808873,-0.0160029999999999,1.164312,0.569723,0.077901,1.284592,0.7871929999999999,-0.0342629999999999,0.6241420000000001,1.018903,-0.1200629999999999,1.331282,1.067403,-0.141033,0.918602,-0.0002129999999999,-0.0025319999999999,1.081398,0.0002129999999999,0.002532,0.859342,-0.497517,-0.0335829999999999,1.145512,-0.449357,-0.0056209999999999,0.831242,-0.892777,-0.1048529999999999,1.163392,-0.8660770000000001,0.053841
111,0.9861485,0.740488,0.0324074999999999,0.8075025,0.574648,0.0760535,0.6794025,0.807668,-0.0199795,1.1625025,0.5707180000000001,0.0797445,1.2834225,0.787188,-0.0313095,0.6236824999999999,1.015798,-0.1259394999999999,1.3318425,1.067298,-0.1376995,0.9185425,-0.0002749999999999,-0.0033445,1.0814575,0.000275,0.0033445,0.8626225000000001,-0.499622,-0.0309195,1.1484225,-0.4502819999999999,-0.0103895,0.8403325,-0.889852,-0.0977895,1.1690825,-0.866082,0.0532644999999999
112,0.9839895000000001,0.7409025,0.0316554999999999,0.8056655,0.5740925,0.0743294999999999,0.6780255,0.8062125,-0.0243395,1.1607155,0.5716425,0.0813545,1.2817655000000001,0.7872125000000001,-0.0292795,0.6236855,1.0126225,-0.1316295,1.3319055,1.0667225,-0.1350795,0.9185055,-0.0003994999999999,-0.0041595,1.0814945,0.0003995,0.0041594999999999,0.8654355,-0.5022575,-0.0283194999999999,1.1515255,-0.4521375,-0.0162795,0.8488255,-0.8841175,-0.0913095,1.1742655,-0.8658674999999999,0.0504654999999999
113,0.9820975,0.7410655,0.0308299999999999,0.8045964999999999,0.5733555,0.073456,0.6768565,0.8049555,-0.028492,1.1591665,0.5723855,0.082861,1.2802164999999999,0.7877255,-0.0273719999999999,0.6236965,1.0091655,-0.137562,1.3314565,1.0664655,-0.132882,0.9184165,-0.0006974999999999,-0.0049219999999999,1.0815835,0.0006975,0.0049219999999999,0.8682065,-0.5051045000000001,-0.026002,1.1545425,-0.4540345,-0.0224819999999999,0.8566065,-0.8787145,-0.085612,1.1789065,-0.8658145,0.045294
114,0.9804505000000001,0.7413109999999999,0.03007,0.8027295,0.572941,0.071492,0.6755295,0.8031309999999999,-0.0326749999999999,1.1574045,0.573331,0.084172,1.2785195,0.788401,-0.0257749999999999,0.6232694999999999,1.005481,-0.1441149999999999,1.3305495,1.065981,-0.1309749999999999,0.9182895000000001,-0.000982,-0.0057749999999999,1.0817104999999998,0.0009819999999999,0.005775,0.8709795,-0.507529,-0.023535,1.1570265,-0.455629,-0.0289349999999999,0.8634094999999999,-0.8750990000000001,-0.0803549999999999,1.1821795,-0.866299,0.035516
115,0.978199,0.7412915,0.029215,0.800117,0.5723015,0.069611,0.673527,0.8015415,-0.03718,1.155479,0.5738715,0.085128,1.276167,0.7890315,-0.0245399999999999,0.622097,1.0021815,-0.1504899999999999,1.328547,1.0654815,-0.1296399999999999,0.918367,-0.0012055,-0.00648,1.081633,0.0012054999999999,0.00648,0.872637,-0.5098285,-0.0213399999999999,1.158576,-0.4571185,-0.03462,0.868507,-0.8720585,-0.0747399999999999,1.184087,-0.8671485,0.024814
116,0.9765495,0.7412515,0.0285,0.7979134999999999,0.5717114999999999,0.068204,0.6718235,0.8001315,-0.04091,1.1536415,0.5744015,0.085902,1.2742835000000001,0.7897314999999999,-0.0233599999999999,0.6213934999999999,0.9983015,-0.1555599999999999,1.3266035,1.0651015,-0.12864,0.9183935,-0.0015764999999999,-0.00716,1.0816065,0.0015765,0.00716,0.8742335,-0.5120285,-0.01929,1.1598485,-0.4575984999999999,-0.0393,0.8726935,-0.8724585,-0.0696999999999999,1.1851135,-0.8677485,0.01346
117,0.9753750000000001,0.7413245,0.0281779999999999,0.796232,0.5712945,0.0670059999999999,0.670902,0.7989645000000001,-0.0435,1.152664,0.5750445000000001,0.086708,1.272912,0.7906245000000001,-0.02225,0.6209819999999999,0.9950645,-0.15994,1.325042,1.0647645,-0.12777,0.918502,-0.0020304999999999,-0.0077,1.081498,0.0020304999999999,0.0076999999999999,0.875652,-0.5140855,-0.01724,1.1611719999999999,-0.4579355,-0.0406799999999999,0.8762220000000001,-0.8698754999999999,-0.06679,1.185052,-0.8673854999999999,0.0015399999999999
118,0.9742845,0.7411570000000001,0.0280969999999999,0.7948845,0.570727,0.066314,0.6698345,0.7977970000000001,-0.04558,1.1521555,0.5753569999999999,0.087669,1.2717145,0.7913669999999999,-0.0215,0.6207045,0.991907,-0.1626399999999999,1.3232344999999999,1.064207,-0.1268,0.9185945,-0.002464,-0.00809,1.0814055,0.0024639999999999,0.00809,0.8769445,-0.516113,-0.0151199999999999,1.1613245,-0.459723,-0.04088,0.8786545,-0.8706529999999999,-0.06322,1.1842044999999999,-0.867173,-0.0084599999999999
119,0.9732825,0.741326,0.02808,0.7935125000000001,0.570376,0.065854,0.6688425,0.7968959999999999,-0.04671,1.1515995,0.575786,0.088213,1.2708025,0.792486,-0.0211799999999999,0.6199425000000001,0.990746,-0.1644199999999999,1.3210325,1.063946,-0.12591,0.9186025,-0.0027249999999999,-0.0083,1.0813975,0.0027249999999999,0.0083,0.8778925,-0.516904,-0.0135199999999999,1.1607445,-0.460914,-0.0405899999999999,0.8800924999999999,-0.870984,-0.0597399999999999,1.1827325,-0.865854,-0.0182799999999999
120,0.9728105000000001,0.7414645,0.0287199999999999,0.7930305000000001,0.5701745,0.0659609999999999,0.6682405,0.7964245,-0.04686,1.1515345,0.5761145,0.0886869999999999,1.2703305,0.7936645,-0.02112,0.6191705000000001,0.9904445,-0.16399,1.3192305,1.0635445,-0.12479,0.9187305,-0.0029264999999999,-0.00822,1.0812694999999999,0.0029264999999999,0.0082199999999999,0.8792605000000001,-0.5176455,-0.01137,1.1602365,-0.4634255,-0.03935,0.8812405,-0.8683955,-0.05692,1.1811485,-0.8646155,-0.02532
121,0.972898,0.7414955,0.030025,0.792458,0.5700555,0.066131,0.6680980000000001,0.7962155,-0.045545,1.1523459999999999,0.5761155,0.089333,1.2706979999999999,0.7942655,-0.020425,0.618358,0.9902355,-0.1617549999999999,1.317968,1.0630355,-0.1234049999999999,0.918868,-0.0031354999999999,-0.007965,1.081132,0.0031354999999999,0.007965,0.880048,-0.5183045000000001,-0.009495,1.159986,-0.4667745,-0.0372849999999999,0.8820180000000001,-0.8656345,-0.0544149999999999,1.179193,-0.8637445,-0.0306749999999999
122,0.972966,0.742002,0.03172,0.791996,0.570302,0.066893,0.668066,0.796372,-0.04336,1.152442,0.576272,0.0894899999999999,1.270796,0.795032,-0.01996,0.617726,0.990392,-0.15853,1.317126,1.062692,-0.12206,0.918966,-0.0034819999999999,-0.00775,1.081034,0.0034819999999999,0.00775,0.880106,-0.518538,-0.00754,1.159273,-0.470098,-0.03564,0.881786,-0.865488,-0.05196,1.1768489999999998,-0.862648,-0.03432
123,0.9729205000000001,0.7424595,0.034315,0.7919505,0.5703095,0.0694309999999999,0.6680005000000001,0.7963595,-0.040025,1.1524345,0.5763095,0.08981,1.2707804999999999,0.7956395,-0.019375,0.6176605,0.9904795,-0.155195,1.3171005,1.0623795,-0.120745,0.9189605,-0.0036545,-0.007385,1.0810395,0.0036544999999999,0.007385,0.8805205,-0.5186205,-0.005585,1.1588195,-0.4738305,-0.0339849999999999,0.8811405000000001,-0.8690804999999999,-0.049325,1.1753345,-0.8618104999999999,-0.033535
124,0.97286,0.7435324999999999,0.037525,0.7919,0.5706724999999999,0.072122,0.6679400000000001,0.7964325,-0.0368149999999999,1.1524619999999999,0.5763524999999999,0.090094,1.2707799999999998,0.7962325,-0.0193649999999999,0.6175999999999999,0.9912925,-0.1519849999999999,1.31708,1.0622925,-0.1195549999999999,0.91895,-0.0038205,-0.0068049999999999,1.08105,0.0038204999999999,0.006805,0.88107,-0.5186575,-0.0037849999999999,1.158785,-0.4763975,-0.0321149999999999,0.88059,-0.8729675,-0.0461249999999999,1.174055,-0.8607775000000001,-0.0324349999999999
125,0.9730280000000001,0.7449425000000001,0.0407399999999999,0.791798,0.5711325,0.0751839999999999,0.6678380000000002,0.7967025000000001,-0.0336,1.153434,0.5763324999999999,0.0899109999999999,1.271298,0.7967124999999999,-0.01929,0.617478,0.9930725,-0.14816,1.317018,1.0622725,-0.1183,0.918978,-0.0039545,-0.00614,1.081022,0.0039545,0.0061399999999999,0.882118,-0.5187275,-0.00188,1.158706,-0.4769875,-0.03011,0.880388,-0.8729875,-0.04329,1.173151,-0.8607975000000001,-0.03065
126,0.9735125000000001,0.7467905,0.04411,0.7922325,0.5714405,0.078329,0.6679425,0.7973505000000001,-0.0301499999999999,1.1546295,0.5761605000000001,0.089855,1.2719025,0.7971705,-0.0191999999999999,0.6169425,0.9957405,-0.1418499999999999,1.3164625,1.0621405,-0.1170999999999999,0.9191725,-0.0040925,-0.0053799999999999,1.0808275,0.0040924999999999,0.0053799999999999,0.8828525,-0.5187195,6.0000000000004494e-05,1.1579445,-0.4791995,-0.02753,0.8792725000000001,-0.8769895,-0.0397099999999999,1.1723805,-0.8591495,-0.0275399999999999
127,0.9747295000000001,0.7491000000000001,0.04748,0.7933195,0.57204,0.081531,0.6686095000000001,0.79861,-0.02565,1.1563015,0.5759500000000001,0.089533,1.2733295,0.79834,-0.01966,0.6166595,0.99885,-0.1341899999999999,1.3162295,1.06205,-0.11592,0.9193395,-0.0042519999999999,-0.0046299999999999,1.0806605,0.004252,0.0046299999999999,0.8832395000000001,-0.51879,0.00187,1.1570095,-0.48093,-0.02485,0.8781495,-0.87708,-0.03684,1.1712485,-0.85766,-0.0244399999999999
128,0.976292,0.75157,0.05132,0.7947420000000001,0.57297,0.084445,0.669832,0.80007,-0.02024,1.158212,0.57562,0.088937,1.275042,0.79952,-0.0201099999999999,0.616692,1.00202,-0.12558,1.316212,1.0620200000000002,-0.11478,0.919522,-0.004382,-0.004,1.080478,0.0043819999999999,0.004,0.883382,-0.51882,0.0039,1.156477,-0.4816,-0.0224499999999999,0.8765220000000001,-0.88109,-0.0333799999999999,1.169827,-0.8568100000000001,-0.02187
129,0.977929,0.754491,0.056145,0.796388,0.573931,0.087521,0.671208,0.8014709999999999,-0.0141049999999999,1.160264,0.5752309999999999,0.088218,1.276688,0.800671,-0.0205049999999999,0.6168279999999999,1.0055310000000002,-0.1159449999999999,1.315908,1.0620310000000002,-0.1138049999999999,0.9196480000000001,-0.0045709999999999,-0.0032449999999999,1.080352,0.004571,0.003245,0.8831280000000001,-0.5190089999999999,0.005915,1.156316,-0.482429,-0.0202349999999999,0.874598,-0.8850790000000001,-0.0298849999999999,1.168156,-0.856349,-0.019455
130,0.980008,0.7574415000000001,0.0613199999999999,0.7980160000000001,0.5743815000000001,0.0906729999999999,0.673116,0.8025914999999999,-0.0076,1.1624240000000001,0.5753315000000001,0.0872159999999999,1.278626,0.8013315000000001,-0.02111,0.617556,1.0089215,-0.10594,1.315996,1.0625215,-0.11282,0.919756,-0.0048614999999999,-0.00251,1.080244,0.0048615,0.0025099999999999,0.882686,-0.5188385,0.0077999999999999,1.15647,-0.4832385,-0.01848,0.872756,-0.8883085,-0.02738,1.166817,-0.8560585,-0.0172
131,0.9820620000000001,0.760239,0.067019,0.79935,0.574979,0.093861,0.6752100000000001,0.803619,-0.0009949999999999,1.1642730000000001,0.575419,0.0863,1.28055,0.802049,-0.0217549999999999,0.6186500000000001,1.0121490000000002,-0.096005,1.31631,1.0627490000000002,-0.1119449999999999,0.9198999999999999,-0.005057,-0.0017049999999999,1.0801,0.0050569999999999,0.001705,0.8822800000000001,-0.518931,0.008615,1.156657,-0.483621,-0.0167649999999999,0.8711300000000001,-0.888701,-0.0251649999999999,1.165532,-0.855731,-0.0151849999999999
132,0.9840470000000001,0.7629189999999999,0.0729799999999999,0.80098,0.575599,0.0970839999999999,0.6773199999999999,0.804359,0.00539,1.165937,0.5754090000000001,0.085404,1.28232,0.8026789999999999,-0.02232,0.61983,1.015099,-0.0868299999999999,1.31693,1.062899,-0.1109699999999999,0.92006,-0.0051939999999999,-0.0010199999999999,1.07994,0.0051939999999999,0.0010199999999999,0.8817100000000001,-0.518941,0.0093699999999999,1.156563,-0.484211,-0.01528,0.86965,-0.891891,-0.02296,1.1642299999999999,-0.856231,-0.0135099999999999
133,0.985419,0.7655150000000001,0.079458,0.8022330000000001,0.576655,0.10038,0.6788529999999999,0.805405,0.0118349999999999,1.166863,0.574635,0.084897,1.283353,0.803695,-0.022215,0.620493,1.017585,-0.0781149999999999,1.317353,1.063585,-0.109555,0.920113,-0.00507,-0.000375,1.079887,0.0050699999999999,0.0003749999999999,0.881053,-0.5184650000000001,0.0100349999999999,1.156424,-0.4845649999999999,-0.0136749999999999,0.868093,-0.892415,-0.0217249999999999,1.16299,-0.856595,-0.011945
134,0.9865915,0.767456,0.0859379999999999,0.8031475,0.577296,0.102975,0.6804075,0.8059860000000001,0.01796,1.1674775,0.5735260000000001,0.0849669999999999,1.2842775,0.804496,-0.02187,0.6210775,1.018946,-0.07006,1.3178775,1.063246,-0.10781,0.9202175000000001,-0.0049,4.999999999999449e-05,1.0797824999999999,0.0049,-4.999999999999449e-05,0.8796575,-0.518654,0.01069,1.1562495,-0.483004,-0.0127899999999999,0.8666675,-0.893274,-0.02022,1.1618425000000001,-0.856594,-0.0105399999999999
135,0.9876550000000001,0.768836,0.091982,0.8040430000000001,0.577776,0.105297,0.682023,0.806476,0.02343,1.168073,0.572306,0.085303,1.285163,0.8049459999999999,-0.02116,0.6219130000000002,1.019896,-0.06334,1.318063,1.062796,-0.1061,0.920313,-0.0047289999999999,0.0002699999999999,1.079687,0.0047289999999999,-0.0002699999999999,0.8786230000000002,-0.518304,0.0110399999999999,1.156107,-0.482194,-0.0118999999999999,0.865333,-0.894904,-0.0182299999999999,1.160988,-0.856594,-0.00948
136,0.988438,0.7699860000000001,0.0977239999999999,0.804623,0.578326,0.1075819999999999,0.6833929999999999,0.806996,0.0281699999999999,1.168603,0.571146,0.0859489999999999,1.285563,0.805446,-0.01946,0.622603,1.0205959999999998,-0.05776,1.3181829999999999,1.062396,-0.10441,0.920423,-0.004532,0.0004499999999999,1.079577,0.004532,-0.00045,0.877733,-0.5179739999999999,0.0113099999999999,1.155946,-0.483984,-0.01096,0.864113,-0.896454,-0.01645,1.160083,-0.8555839999999999,-0.00865
137,0.9890890000000001,0.7709820000000001,0.103162,0.8051730000000001,0.578752,0.10973,0.6845030000000001,0.807512,0.03226,1.168903,0.570032,0.086885,1.285883,0.805962,-0.01785,0.623373,1.021412,-0.0530799999999999,1.318383,1.062212,-0.1028,0.9205230000000001,-0.004318,0.00059,1.079477,0.0043179999999999,-0.0005899999999999,0.8769930000000001,-0.517638,0.01137,1.15527,-0.485638,-0.0105099999999999,0.863633,-0.8978079999999999,-0.01485,1.159256,-0.854638,-0.0079899999999999
138,0.9895665000000001,0.77214,0.107815,0.8056004999999999,0.57948,0.111749,0.6853905,0.80802,0.035765,1.1689805,0.5691900000000001,0.08808,1.2862305,0.8066200000000001,-0.0162249999999999,0.6239605000000001,1.02234,-0.0493949999999999,1.3186505,1.06204,-0.100825,0.9206505,-0.0042369999999999,0.0005549999999999,1.0793495,0.004237,-0.0005549999999999,0.8763805,-0.5175099999999999,0.011055,1.1537925,-0.48427,-0.010185,0.8633605000000001,-0.89883,-0.0132149999999999,1.1585745,-0.8542099999999999,-0.0072249999999999
139,0.9900405,0.773491,0.112422,0.8063715000000001,0.580101,0.113646,0.6862315,0.808221,0.038965,1.1691015,0.568471,0.0894759999999999,1.2867215,0.805161,-0.014275,0.6245514999999999,1.0234910000000002,-0.046265,1.3190715,1.061991,-0.098585,0.9207715,-0.0041059999999999,0.0004249999999999,1.0792285,0.0041059999999999,-0.000425,0.8760315,-0.517289,0.0102749999999999,1.1530434999999999,-0.486359,-0.009995,0.8632315,-0.899879,-0.011845,1.1582265,-0.854369,-0.006565
140,0.9905135,0.7749254999999999,0.116592,0.8068025,0.5803855,0.115408,0.6871425,0.8083754999999999,0.041885,1.1693925,0.5678055,0.0909,1.2872725,0.8033555,-0.012245,0.6253725,1.0248955,-0.043475,1.3197925,1.0617955,-0.0962849999999999,0.9208324999999999,-0.0039755,0.000255,1.0791675,0.0039755,-0.000255,0.8756825,-0.5171045000000001,0.0101449999999999,1.1526494999999999,-0.4884545,-0.0100149999999999,0.8633824999999999,-0.9004945000000001,-0.0107849999999999,1.1581525,-0.8544745,-0.005755
141,0.991197,0.775981,0.1203109999999999,0.806765,0.580591,0.1169269999999999,0.688115,0.808641,0.0446099999999999,1.169875,0.567351,0.0922579999999999,1.287885,0.801581,-0.01033,0.626385,1.025831,-0.04085,1.3205149999999999,1.061631,-0.09407,0.920905,-0.0038709999999999,7.999999999999674e-05,1.079095,0.0038709999999999,-7.999999999999674e-05,0.875745,-0.516839,0.0100099999999999,1.152593,-0.4877189999999999,-0.01074,0.863645,-0.901139,-0.00994,1.158645,-0.8545389999999999,-0.0050199999999999
142,0.991642,0.7760064999999999,0.1233189999999999,0.806745,0.5805265,0.1182609999999999,0.688805,0.8087965,0.0467449999999999,1.170165,0.5671065,0.0934599999999999,1.288255,0.7998265,-0.008655,0.627095,1.0260365,-0.038905,1.320835,1.0605365,-0.092375,0.920905,-0.0038634999999999,-9.500000000001174e-05,1.079095,0.0038634999999999,9.4999999999984e-05,0.875745,-0.5173635,0.0100349999999999,1.152609,-0.4884935,-0.011415,0.863835,-0.9020235,-0.008715,1.158815,-0.8555135,-0.004195
143,0.9915910000000001,0.776242,0.125975,0.8067140000000002,0.5803820000000001,0.1200289999999999,0.6887640000000002,0.8090820000000001,0.04879,1.170144,0.567002,0.0945449999999999,1.288214,0.798052,-0.00699,0.627424,1.026322,-0.03706,1.3208039999999999,1.060622,-0.09105,0.920904,-0.003833,-1.000000000001e-05,1.079096,0.003833,9.999999999982244e-06,0.8757340000000001,-0.517498,0.0105899999999999,1.152339,-0.486698,-0.01214,0.864344,-0.901738,-0.00836,1.158984,-0.856408,-0.00343
144,0.9915460000000001,0.7765285,0.128357,0.806679,0.5802285,0.121744,0.6887289999999999,0.8093685,0.05066,1.170129,0.5667985,0.095429,1.288189,0.7962185,-0.00553,0.627399,1.0265085,-0.0353799999999999,1.320789,1.0607085,-0.09026,0.920899,-0.0038224999999999,0.00023,1.079101,0.0038224999999999,-0.00023,0.875729,-0.5174515,0.0110899999999999,1.151648,-0.4861115,-0.01341,0.864409,-0.9024015,-0.00842,1.158969,-0.8566615,-0.0029599999999999
145,0.992191,0.776924,0.130282,0.80687,0.580044,0.123291,0.68938,0.809464,0.05211,1.1708,0.5664039999999999,0.096008,1.28885,0.794084,-0.0042399999999999,0.6280600000000001,1.026694,-0.0342599999999999,1.32147,1.060494,-0.0897899999999999,0.92107,-0.0037509999999999,0.00045,1.07893,0.003751,-0.00045,0.87616,-0.517696,0.0113699999999999,1.151249,-0.485396,-0.0151199999999999,0.86509,-0.902526,-0.0083999999999999,1.15965,-0.857126,-0.0027299999999999
146,0.99341,0.777121,0.131591,0.807414,0.579991,0.123933,0.690544,0.8093509999999999,0.05264,1.171834,0.565851,0.096453,1.289984,0.792271,-0.0034599999999999,0.629554,1.026921,-0.0338099999999999,1.322874,1.060621,-0.0893399999999999,0.921144,-0.003686,0.00054,1.078856,0.0036859999999999,-0.0005399999999999,0.876914,-0.517869,0.01179,1.151566,-0.486779,-0.0166299999999999,0.866594,-0.902699,-0.0085899999999999,1.161114,-0.858069,-0.0026699999999999
147,0.9946670000000001,0.7773285,0.132486,0.808212,0.5799285000000001,0.124066,0.6917519999999999,0.8093785,0.0527799999999999,1.1730019999999999,0.5655685,0.096675,1.291282,0.7905585,-0.0030399999999999,0.631402,1.0271085,-0.0336599999999999,1.324692,1.0607085,-0.0891899999999999,0.921152,-0.0037705,0.0006299999999999,1.078848,0.0037704999999999,-0.0006299999999999,0.8777420000000001,-0.5179815,0.0119299999999999,1.152128,-0.4878215,-0.01838,0.868832,-0.9026015,-0.0084299999999999,1.163272,-0.8588915,-0.00286
148,0.995865,0.7774599999999999,0.132741,0.809024,0.57982,0.124022,0.6926140000000001,0.8094399999999999,0.05279,1.1741039999999998,0.56546,0.096805,1.292284,0.7902399999999999,-0.00268,0.6327039999999999,1.0274,-0.03367,1.3264239999999998,1.0608,-0.0893399999999999,0.921124,-0.00383,0.0006299999999999,1.078876,0.00383,-0.0006299999999999,0.878984,-0.51809,0.0119499999999999,1.152998,-0.48876,-0.02022,0.871574,-0.90225,-0.00816,1.165474,-0.85973,-0.00315
149,0.9968985000000001,0.7783549999999999,0.132759,0.8090055,0.5802449999999999,0.123993,0.6931955000000001,0.809355,0.0528,1.1749955,0.5652550000000001,0.096965,1.2932755,0.790035,-0.00248,0.6336855,1.028095,-0.0339599999999999,1.3283755,1.061095,-0.0899599999999999,0.9210855,-0.0037669999999999,0.0006299999999999,1.0789145,0.0037669999999999,-0.0006299999999999,0.8804455,-0.518115,0.0119799999999999,1.1541605,-0.490435,-0.0220599999999999,0.8746355,-0.901115,-0.0087599999999999,1.1679054999999998,-0.861235,-0.0035199999999999
150,0.9975585000000001,0.7793565,0.132775,0.8085435000000001,0.5806565,0.123737,0.6934535,0.8091265,0.05251,1.1754735,0.5650265,0.097112,1.2938135,0.7898065,-0.0022699999999999,0.6342835,1.0283665,-0.0348799999999999,1.3299435,1.0611665,-0.09059,0.9209935,-0.0036585,0.00063,1.0790065,0.0036584999999999,-0.0006299999999999,0.8821635000000001,-0.5180935,0.01241,1.1555615,-0.4912035,-0.0233099999999999,0.8775835000000001,-0.9005035,-0.0086999999999999,1.1704725,-0.8625835000000001,-0.0037699999999999
151,0.9976550000000001,0.7803295,0.132614,0.807803,0.5809995,0.122896,0.693173,0.8088295,0.051285,1.175363,0.5649395,0.097077,1.293903,0.7895095,-0.0026049999999999,0.634403,1.0282695,-0.0368749999999999,1.331223,1.0613695,-0.091555,0.920933,-0.0035945,0.000735,1.079067,0.0035945,-0.0007349999999999,0.8838430000000002,-0.5181005,0.013285,1.157086,-0.4901405,-0.0246349999999999,0.880333,-0.8999505,-0.0087549999999999,1.173022,-0.8639605,-0.0038549999999999
152,0.99751,0.7812725,0.132168,0.8075019999999999,0.5812925,0.121403,0.692342,0.8084525,0.04893,1.175109,0.5649525000000001,0.096814,1.293772,0.7895425,-0.00317,0.6341220000000001,1.0279925,-0.04016,1.332162,1.0614925,-0.09289,0.920892,-0.0034854999999999,0.00075,1.079108,0.0034855,-0.00075,0.885162,-0.5180275,0.0143,1.158666,-0.4895475,-0.02548,0.883552,-0.8989174999999999,-0.0092299999999999,1.175176,-0.8652175,-0.0042099999999999
153,0.9967870000000001,0.7821830000000001,0.13126,0.807116,0.581593,0.1193659999999999,0.691066,0.808053,0.0456599999999999,1.174529,0.565103,0.0964129999999999,1.293366,0.7898430000000001,-0.00376,0.6334760000000002,1.027593,-0.04453,1.332616,1.061493,-0.09417,0.920826,-0.003407,0.0007099999999999,1.079174,0.003407,-0.00071,0.886286,-0.517917,0.0152899999999999,1.160185,-0.490187,-0.02601,0.8864060000000001,-0.894567,-0.01025,1.176818,-0.866487,-0.00474
154,0.9956950000000001,0.78292,0.129889,0.8065140000000001,0.58185,0.116951,0.689574,0.80748,0.0418,1.1737440000000001,0.5653699999999999,0.095845,1.292854,0.79033,-0.0044999999999999,0.632684,1.02705,-0.0499599999999999,1.332854,1.06175,-0.0951199999999999,0.9207339999999999,-0.0033569999999999,0.00059,1.079266,0.003357,-0.0005899999999999,0.8874140000000001,-0.51788,0.01594,1.161488,-0.4899699999999999,-0.0267199999999999,0.8888440000000001,-0.8941,-0.0105699999999999,1.177958,-0.86761,-0.0053699999999999
155,0.9943025000000001,0.7835274999999999,0.128144,0.8053275,0.5823775,0.113725,0.6879875,0.8065675,0.03727,1.1726685,0.5656774999999999,0.095174,1.2919575,0.7907474999999999,-0.0053499999999999,0.6314775,1.0263875,-0.0564699999999999,1.3324574999999999,1.0620875,-0.0959599999999999,0.9206675,-0.0033494999999999,0.00032,1.0793325,0.0033494999999999,-0.0003199999999999,0.8882575,-0.5178825,0.01594,1.1620325,-0.4899225,-0.02754,0.8904575000000001,-0.8940425000000001,-0.0106499999999999,1.1783115,-0.8682725,-0.00547
156,0.9927135,0.784124,0.126188,0.8043285,0.582574,0.1106079999999999,0.6862885000000001,0.8056340000000001,0.0323099999999999,1.1713345,0.566234,0.0945629999999999,1.2908385,0.791084,-0.0061,0.6301685,1.025524,-0.0635,1.3315485,1.0624239999999998,-0.0967399999999999,0.9206485000000001,-0.003377,-0.00012,1.0793514999999998,0.0033769999999999,0.0001199999999999,0.8891585,-0.517886,0.0159799999999999,1.1626365,-0.4905859999999999,-0.02812,0.8912985,-0.893846,-0.0107,1.1781745,-0.8689359999999999,-0.0056
157,0.990953,0.7846235,0.1243259999999999,0.803124,0.5825835,0.107506,0.684774,0.8045535,0.027295,1.169992,0.5668235,0.094053,1.289754,0.7913835,-0.0064549999999999,0.629284,1.0244835,-0.0706349999999999,1.330524,1.0627835,-0.097365,0.920644,-0.0033494999999999,-0.0005749999999999,1.079356,0.0033495,0.0005749999999999,0.889464,-0.5178564999999999,0.015985,1.1629019999999999,-0.4913265,-0.027725,0.8914540000000001,-0.8939165,-0.0105649999999999,1.177769,-0.8696765,-0.0053449999999999
158,0.989086,0.7846405,0.122921,0.802543,0.5823505,0.105145,0.683303,0.8037004999999999,0.022965,1.168727,0.5678105,0.093719,1.288433,0.7921604999999999,-0.006615,0.6283529999999999,1.0239505,-0.076905,1.3295029999999999,1.0630505,-0.0976949999999999,0.9206529999999999,-0.0034094999999999,-0.0009349999999999,1.079347,0.0034095,0.0009349999999999,0.889383,-0.5178395,0.0160849999999999,1.162858,-0.4916594999999999,-0.0264349999999999,0.8907430000000001,-0.8981595,-0.010025,1.1769370000000001,-0.8699895000000001,-0.0046249999999999
159,0.9879870000000001,0.784512,0.121574,0.802577,0.582092,0.103381,0.682547,0.802902,0.018835,1.168314,0.568702,0.093499,1.287857,0.793022,-0.0066349999999999,0.628247,1.023442,-0.0825249999999999,1.329377,1.063342,-0.0975749999999999,0.9206570000000001,-0.0034529999999999,-0.0011449999999999,1.079343,0.0034529999999999,0.001145,0.8893870000000001,-0.517838,0.015945,1.162828,-0.490708,-0.0248249999999999,0.890507,-0.893728,-0.0103749999999999,1.176218,-0.870018,-0.0037749999999999
160,0.9876875,0.784497,0.120472,0.8025975000000001,0.581897,0.101989,0.6825475000000001,0.802257,0.015295,1.1683165,0.569427,0.093405,1.2878475,0.793897,-0.006425,0.6283375,1.023547,-0.087105,1.3293675,1.063747,-0.097035,0.9206575,-0.0034479999999999,-0.0012149999999999,1.0793425,0.0034479999999999,0.0012149999999999,0.8893875000000001,-0.517753,0.0159549999999999,1.1627915,-0.490903,-0.022895,0.8899475,-0.893923,-0.0105949999999999,1.1758115,-0.869683,-0.002625
161,0.9876825000000001,0.7844995,0.119466,0.8026025,0.5814695,0.100837,0.6825825000000001,0.8016895,0.01236,1.1682914999999998,0.5700695,0.09348,1.2878224999999999,0.7947995,-0.0060899999999999,0.6283825000000001,1.0231195,-0.09058,1.3293225,1.0646194999999998,-0.0959499999999999,0.9206825,-0.0034785,-0.0012899999999999,1.0793175,0.0034784999999999,0.00129,0.8893625000000001,-0.5177705,0.01603,1.1627305,-0.4910605,-0.0208899999999999,0.8893925000000001,-0.8940505,-0.0108599999999999,1.1757115,-0.8692405,-0.0014299999999999
162,0.987008,0.7844465,0.118668,0.8019480000000001,0.5810065,0.099998,0.681928,0.8012365,0.010275,1.167597,0.5705965,0.093745,1.287118,0.7955565,-0.005445,0.627738,1.0229565,-0.092985,1.328608,1.0656565,-0.0946249999999999,0.920758,-0.0035344999999999,-0.001565,1.079242,0.0035345,0.001565,0.889208,-0.5178035,0.016305,1.162213,-0.4893735,-0.0185549999999999,0.888428,-0.8947835,-0.0118749999999999,1.1749939999999999,-0.8688435,3.500000000000725e-05
163,0.9857220000000001,0.7843184999999999,0.11817,0.8012020000000001,0.5804885,0.099189,0.6806719999999999,0.8007785,0.0087899999999999,1.166652,0.5709685,0.094083,1.286112,0.7965684999999999,-0.0045999999999999,0.6269819999999999,1.0227385,-0.094,1.327652,1.0663385,-0.09294,0.920762,-0.0036274999999999,-0.002,1.079238,0.0036274999999999,0.002,0.888742,-0.5178615,0.01633,1.161731,-0.4895715,-0.01608,0.8868320000000001,-0.8957515,-0.0125699999999999,1.173683,-0.8686415000000001,0.00126
164,0.9840155,0.784175,0.1180439999999999,0.8003755000000001,0.579995,0.0984699999999999,0.6794355000000001,0.800415,0.0080549999999999,1.1655915000000001,0.571375,0.0946469999999999,1.2849955,0.797435,-0.003285,0.6262355,1.0224950000000002,-0.093665,1.3265354999999999,1.066895,-0.090685,0.9208155,-0.003738,-0.002395,1.0791845,0.0037379999999999,0.0023949999999999,0.8880655,-0.517915,0.0162849999999999,1.1607815,-0.489815,-0.012825,0.8843355,-0.900695,-0.011825,1.1717315,-0.868195,0.0022849999999999
165,0.9826415,0.7838685,0.118195,0.7998435000000002,0.5793385,0.0978339999999999,0.6784935000000001,0.8000385,0.007885,1.1648075,0.5717085,0.095465,1.2841635,0.7984785,-0.001705,0.6256335,1.0222185,-0.092625,1.3255235,1.0673185,-0.088005,0.9209235,-0.0037605,-0.002785,1.0790765,0.0037605,0.0027849999999999,0.8871035,-0.5179615,0.0157449999999999,1.1599435,-0.4877015,-0.009915,0.8814435,-0.9013815,-0.011815,1.1696415,-0.8680115,0.0037049999999999
166,0.9815815,0.7835725,0.118631,0.7995905,0.5785825,0.097443,0.6778204999999999,0.7997125,0.0082649999999999,1.1642835,0.5720924999999999,0.096464,1.2835405,0.7993125000000001,0.0001549999999999,0.6255105000000001,1.0223925,-0.091345,1.3248805,1.0676925000000002,-0.084845,0.9210505,-0.0037724999999999,-0.003145,1.0789494999999998,0.0037725,0.003145,0.8858305,-0.5179175,0.0153149999999999,1.1592235,-0.4853675,-0.007475,0.8783905,-0.9017875,-0.0116249999999999,1.1675815,-0.8674474999999999,0.0053249999999999
167,0.980761,0.783167,0.1192869999999999,0.7995829999999999,0.577747,0.0972589999999999,0.677373,0.799307,0.0091299999999999,1.163833,0.572327,0.0976699999999999,1.2832029999999999,0.799847,0.0023699999999999,0.625443,1.022287,-0.08986,1.324463,1.067887,-0.08137,0.9212030000000001,-0.003722,-0.00351,1.0787969999999998,0.0037219999999999,0.0035099999999999,0.884473,-0.517663,0.0151399999999999,1.158519,-0.482793,-0.00539,0.875323,-0.902733,-0.01087,1.165562,-0.867183,0.0071899999999999
168,0.980166,0.7827225,0.120091,0.799323,0.5772125,0.097054,0.6771229999999999,0.7988625,0.0103,1.16368,0.5724525,0.098811,1.283073,0.8001325,0.00472,0.6254930000000001,1.0222425,-0.0882199999999999,1.324503,1.0680425,-0.0777399999999999,0.9212629999999999,-0.0036274999999999,-0.0037899999999999,1.078737,0.0036274999999999,0.00379,0.8830030000000001,-0.5174275,0.01557,1.157641,-0.4837375,-0.0029999999999999,0.872533,-0.9034675,-0.0093899999999999,1.163653,-0.8670074999999999,0.00911
169,0.979904,0.782262,0.120985,0.79909,0.5767120000000001,0.097177,0.6769700000000001,0.798522,0.0118149999999999,1.163549,0.572452,0.0999729999999999,1.28312,0.800192,0.0071849999999999,0.62554,1.022232,-0.0858549999999999,1.3247900000000001,1.0682319999999998,-0.074065,0.92132,-0.0034789999999999,-0.003975,1.0786799999999999,0.003479,0.003975,0.88162,-0.517138,0.0162549999999999,1.156769,-0.484588,-0.000625,0.87007,-0.903878,-0.0080449999999999,1.16185,-0.8668279999999999,0.0111549999999999
170,0.9798885,0.7817855,0.1218789999999999,0.7988975,0.5762355,0.0973769999999999,0.6769975000000001,0.7982655,0.0132149999999999,1.1636835,0.5724555,0.1010489999999999,1.2832775,0.8000755,0.0095349999999999,0.6256875,1.0221655,-0.083395,1.3248075,1.0679655,-0.070645,0.9213775,-0.0032864999999999,-0.004175,1.0786225,0.0032864999999999,0.0041749999999999,0.8803275,-0.5168145000000001,0.0169149999999999,1.1558775,-0.4865144999999999,0.0015249999999999,0.8679975000000001,-0.9045045,-0.006795,1.1602715,-0.8662044999999999,0.0131849999999999
171,0.9800135000000001,0.7814110000000001,0.1228539999999999,0.7989385,0.5759110000000001,0.0976769999999999,0.6771085,0.798141,0.014515,1.1638285,0.5724710000000001,0.1020479999999999,1.2836485,0.800011,0.011685,0.6259785,1.022121,-0.080965,1.3249485,1.067721,-0.0674549999999999,0.9214485,-0.0030629999999999,-0.0043549999999999,1.0785515,0.003063,0.0043549999999999,0.8789185000000002,-0.516309,0.0178149999999999,1.1552825,-0.487549,0.0033949999999999,0.8662185,-0.904989,-0.0054349999999999,1.1589415,-0.8655689999999999,0.0151049999999999
172,0.9802355,0.781059,0.123747,0.7991595,0.575719,0.098116,0.6772895,0.798009,0.0156999999999999,1.1642235,0.572439,0.103032,1.2839595,0.799789,0.0136699999999999,0.6264195,1.021899,-0.07863,1.3253295,1.0674990000000002,-0.0646,0.9215495,-0.0028409999999999,-0.0045099999999999,1.0784505,0.002841,0.0045099999999999,0.8777595,-0.515831,0.0189499999999999,1.1543614999999998,-0.4876709999999999,0.0047,0.8647195,-0.905311,-0.0041499999999999,1.1578215,-0.865121,0.01674
173,0.9806655000000001,0.7807445,0.124594,0.7995565000000001,0.5755045,0.0987359999999999,0.6776965000000001,0.7979145,0.0168899999999999,1.1647955,0.5722944999999999,0.10389,1.2844765,0.7996245,0.0153299999999999,0.6269865,1.0217345,-0.07668,1.3259565,1.0673345,-0.0621899999999999,0.9215865,-0.0026764999999999,-0.0045999999999999,1.0784135,0.0026764999999999,0.0045999999999999,0.8770465000000001,-0.5154455,0.01999,1.1537575,-0.4867054999999999,0.0058699999999999,0.8635765,-0.9054755,-0.0029899999999999,1.1570765,-0.8644455000000001,0.0183299999999999
174,0.9811225,0.78054,0.125325,0.7997894999999999,0.57543,0.099522,0.6780895,0.79787,0.017935,1.1652385,0.57224,0.104593,1.2848695,0.79957,0.0168149999999999,0.6276295000000001,1.02168,-0.075015,1.3267095,1.0670799999999998,-0.0602749999999999,0.9215595,-0.0026219999999999,-0.004635,1.0784405,0.0026219999999999,0.004635,0.8765795,-0.51518,0.020795,1.1530765,-0.48649,0.006885,0.8626195,-0.90553,-0.0010249999999999,1.1564585,-0.86363,0.019735
175,0.9814495000000001,0.7803485,0.1259989999999999,0.7999355000000001,0.5754684999999999,0.1002929999999999,0.6783155000000001,0.7979284999999999,0.0189699999999999,1.1654555,0.5722984999999999,0.1051619999999999,1.2851155,0.7992985,0.0180199999999999,0.6278555,1.0217385,-0.07392,1.3270655,1.0668385,-0.05899,0.9214955,-0.0025525,-0.00467,1.0785045,0.0025524999999999,0.0046699999999999,0.8762255000000001,-0.5149115,0.0214999999999999,1.1522025,-0.4829814999999999,0.0070899999999999,0.8619654999999999,-0.9049815,0.0018599999999999,1.1558645,-0.8628415,0.0209999999999999
176,0.9817480000000001,0.780133,0.126656,0.7999890000000001,0.5755629999999999,0.101048,0.678479,0.7980229999999999,0.0198599999999999,1.165749,0.5723929999999999,0.1055919999999999,1.2853489999999999,0.799003,0.01891,0.628069,1.021633,-0.0730899999999999,1.327329,1.066633,-0.05803,0.921409,-0.002458,-0.0046599999999999,1.078591,0.002458,0.0046599999999999,0.8759890000000001,-0.514817,0.0221099999999999,1.151454,-0.479477,0.00711,0.8611489999999999,-0.904667,0.0034899999999999,1.155443,-0.861647,0.02198
177,0.9820275,0.7799465,0.127257,0.7999594999999999,0.5757065,0.101726,0.6785395000000001,0.7981364999999999,0.0206349999999999,1.1658995,0.5722965,0.106069,1.2855395,0.7983865,0.0195849999999999,0.6282695,1.0215465,-0.0723149999999999,1.3274895,1.0665465,-0.057355,0.9213695000000001,-0.0022735,-0.004635,1.0786305,0.0022734999999999,0.004635,0.8758495,-0.5146235,0.0230249999999999,1.1509335,-0.4819735,0.0077049999999999,0.8605095,-0.9046235,0.0040949999999999,1.1549845,-0.8610035,0.022655
178,0.982257,0.7797970000000001,0.127767,0.800055,0.575907,0.1022339999999999,0.678725,0.798217,0.0211699999999999,1.166065,0.572157,0.106442,1.285705,0.7978970000000001,0.0200999999999999,0.628505,1.021387,-0.0716999999999999,1.3276249999999998,1.066387,-0.05684,0.921345,-0.002119,-0.0046299999999999,1.078655,0.0021189999999999,0.0046299999999999,0.875855,-0.514463,0.0238099999999999,1.1504249999999998,-0.479863,0.00741,0.860125,-0.904293,0.00514,1.154739,-0.859793,0.0233599999999999
179,0.9824960000000001,0.779822,0.12811,0.8001660000000002,0.576132,0.1025749999999999,0.678886,0.7984020000000001,0.0215299999999999,1.166106,0.572102,0.106677,1.285936,0.797582,0.0204399999999999,0.628796,1.021302,-0.07122,1.327766,1.066402,-0.0564999999999999,0.921286,-0.0020299999999999,-0.0045499999999999,1.078714,0.00203,0.0045499999999999,0.8759560000000001,-0.514258,0.0244699999999999,1.150023,-0.4773679999999999,0.0069599999999999,0.859856,-0.904268,0.0058999999999999,1.1545679999999998,-0.858748,0.02387
180,0.982858,0.7798415000000001,0.12833,0.800376,0.5763215,0.102938,0.679156,0.7985415,0.0217749999999999,1.166226,0.5720215000000001,0.106792,1.286246,0.7973615000000001,0.0206349999999999,0.629166,1.0213015,-0.070985,1.327996,1.0664015,-0.0563049999999999,0.9212160000000001,-0.0019725,-0.004365,1.078784,0.0019724999999999,0.004365,0.8759860000000002,-0.5140585,0.024685,1.149699,-0.4775085,0.006605,0.859726,-0.9039285,0.0067949999999999,1.15443,-0.8578285,0.024175
181,0.983161,0.779833,0.128537,0.800604,0.576463,0.103263,0.679424,0.798623,0.02197,1.166254,0.571923,0.106847,1.286464,0.7973129999999999,0.02068,0.629434,1.021363,-0.07087,1.328094,1.0663630000000002,-0.05627,0.921174,-0.0019059999999999,-0.0042399999999999,1.078826,0.001906,0.0042399999999999,0.875924,-0.513907,0.02482,1.149408,-0.480747,0.00659,0.8595740000000001,-0.903737,0.00709,1.154298,-0.8570770000000001,0.02431
182,0.9834835000000001,0.7798445,0.1287309999999999,0.8008365,0.5765545000000001,0.103605,0.6796965000000001,0.7986745000000001,0.0221699999999999,1.1662665,0.5718345,0.106854,1.2866765,0.7973645,0.0206,0.6296465,1.0214945,-0.07086,1.3281565,1.0663945,-0.05649,0.9211465000000001,-0.0018575,-0.0042399999999999,1.0788535,0.0018574999999999,0.0042399999999999,0.8758065000000002,-0.5137855,0.02484,1.1491295,-0.4840655,0.00653,0.8593765000000001,-0.9035555,0.00731,1.1540995,-0.8566754999999999,0.02426
183,0.9838480000000001,0.779868,0.128973,0.801063,0.576688,0.1039699999999999,0.679943,0.798718,0.0224099999999999,1.166233,0.571768,0.106849,1.2868330000000001,0.797438,0.02046,0.6297830000000001,1.021508,-0.0708899999999999,1.328113,1.0664079999999998,-0.05678,0.921113,-0.0018209999999999,-0.0042399999999999,1.078887,0.001821,0.0042399999999999,0.875663,-0.513802,0.02459,1.148712,-0.483952,0.0060399999999999,0.859193,-0.903452,0.0074499999999999,1.153782,-0.8563919999999999,0.02418
184,0.9841815,0.779904,0.1292479999999999,0.8012655,0.576784,0.104265,0.6801855,0.7987339999999999,0.0227399999999999,1.1661955,0.571734,0.1068249999999999,1.2869555,0.797534,0.0202799999999999,0.6299155000000001,1.021604,-0.07091,1.3280355,1.066404,-0.05709,0.9211255,-0.00182,-0.00421,1.0788745,0.00182,0.0042099999999999,0.8754455,-0.513806,0.0242799999999999,1.1483395,-0.483686,0.0058399999999999,0.8589154999999999,-0.903676,0.00694,1.1535575,-0.855996,0.02398
185,0.984409,0.7799895,0.1294239999999999,0.801389,0.5769394999999999,0.1044969999999999,0.680329,0.7988295,0.0230599999999999,1.166099,0.5717895,0.106704,1.286969,0.7976894999999999,0.0200299999999999,0.629919,1.0217595,-0.07098,1.3278590000000001,1.0665595,-0.05745,0.921129,-0.0018234999999999,-0.00408,1.078871,0.0018234999999999,0.00408,0.875159,-0.5138505,0.0239299999999999,1.147865,-0.4830305,0.00561,0.858469,-0.9035705,0.0063399999999999,1.1532499999999999,-0.8556405,0.0236599999999999
186,0.9846210000000001,0.780081,0.1295029999999999,0.801484,0.577071,0.1046329999999999,0.680404,0.798891,0.0232999999999999,1.165994,0.571851,0.1065159999999999,1.286964,0.797821,0.0197199999999999,0.629894,1.021991,-0.0711199999999999,1.327634,1.0666909999999998,-0.05783,0.921144,-0.0018379999999999,-0.0039099999999999,1.078856,0.0018379999999999,0.0039099999999999,0.874834,-0.513909,0.02365,1.147372,-0.480779,0.0051199999999999,0.858164,-0.903439,0.0059599999999999,1.152855,-0.855429,0.02326
187,0.984669,0.7802295,0.1294119999999999,0.801545,0.5772395,0.1046829999999999,0.680285,0.7990095,0.0232849999999999,1.1658549999999999,0.5719695,0.1062109999999999,1.286935,0.7979795000000001,0.0193249999999999,0.6298250000000001,1.0220395,-0.071485,1.327385,1.0668395,-0.058325,0.9211750000000001,-0.0018665,-0.003685,1.078825,0.0018665,0.0036849999999999,0.874455,-0.5139905,0.0232449999999999,1.146863,-0.4818105,0.0046949999999999,0.8577250000000001,-0.9034805,0.0040449999999999,1.152428,-0.8552704999999999,0.0228149999999999
188,0.9846285,0.780381,0.129101,0.8015275,0.577421,0.10456,0.6801375000000001,0.799141,0.023035,1.1656775,0.572111,0.10575,1.2868675,0.798131,0.0187549999999999,0.6296775,1.0221909999999998,-0.071985,1.3271275,1.066891,-0.0589849999999999,0.9211975,-0.0019549999999999,-0.0034349999999999,1.0788025,0.001955,0.0034349999999999,0.8740375,-0.514159,0.0226949999999999,1.1463855,-0.483199,0.0042949999999999,0.8572775,-0.903369,0.0034949999999999,1.1518255,-0.855049,0.0221949999999999
189,0.984476,0.7805709999999999,0.128574,0.801459,0.5776509999999999,0.104292,0.6798690000000001,0.7993709999999999,0.0226299999999999,1.165449,0.572341,0.1052029999999999,1.286689,0.7983509999999999,0.0180799999999999,0.629329,1.022421,-0.0726,1.326769,1.067121,-0.0598299999999999,0.921179,-0.0020949999999999,-0.0032,1.078821,0.0020949999999999,0.0031999999999999,0.873659,-0.514279,0.02207,1.146027,-0.485819,0.0039099999999999,0.856739,-0.903139,0.0028799999999999,1.151253,-0.8548790000000001,0.0213899999999999
190,0.9842175,0.7808025,0.127729,0.8012905,0.5779125,0.103842,0.6795205,0.7996025,0.02193,1.1651205,0.5725625,0.104425,1.2864404999999999,0.7985725,0.01716,0.6289405,1.0226525,-0.07347,1.3263905,1.0672525,-0.06109,0.9211205000000001,-0.0022345,-0.0030199999999999,1.0788795,0.0022345,0.0030199999999999,0.8732005,-0.5141775000000001,0.02122,1.1456295,-0.4871375,0.00342,0.8562605,-0.9029075,0.00203,1.1506425,-0.8547475,0.02046
191,0.9839325,0.7810315,0.1267619999999999,0.8010575,0.5781715000000001,0.103234,0.6791375,0.7998315,0.02096,1.1648175,0.5727815,0.103471,1.2861875,0.7987915,0.01602,0.6285075,1.0228815,-0.0745699999999999,1.3260375,1.0673815,-0.0626499999999999,0.9210575,-0.0023514999999999,-0.0028799999999999,1.0789425,0.0023514999999999,0.0028799999999999,0.8726775,-0.5143285,0.02025,1.1452925,-0.4891885,0.0028499999999999,0.8559375,-0.9026185,0.00075,1.1499865,-0.8547385,0.0194
192,0.9836075,0.7812905,0.12579,0.8008045,0.5784705,0.102594,0.6787345,0.8000905,0.019985,1.1645345,0.5730205,0.102493,1.2859945,0.7990205,0.014685,0.6280745,1.0229405,-0.075915,1.3256945,1.0673405,-0.0645049999999999,0.9210045,-0.0024985,-0.002755,1.0789955,0.0024985,0.002755,0.8722145,-0.5145195,0.019275,1.1448405,-0.4898095,0.002175,0.8556445,-0.9020495,0.0001049999999999,1.1494695,-0.8543495,0.018575
193,0.983342,0.7815255,0.1247279999999999,0.8005710000000001,0.5786855,0.1018529999999999,0.6783710000000001,0.8003255,0.0189499999999999,1.164271,0.5732655,0.1015199999999999,1.2858209999999999,0.7992755,0.0132599999999999,0.6277210000000001,1.0230055,-0.07747,1.325411,1.0673055,-0.06668,0.920941,-0.0026225,-0.00266,1.079059,0.0026225,0.0026599999999999,0.871791,-0.5146845,0.0183099999999999,1.144434,-0.4919245,0.0015999999999999,0.855241,-0.9019245,-0.00088,1.148921,-0.8544645,0.0173899999999999
194,0.9831705000000001,0.7817430000000001,0.1236379999999999,0.8003925000000001,0.5788530000000001,0.1011249999999999,0.6780725000000001,0.800513,0.0178549999999999,1.1640625,0.573493,0.100599,1.2857224999999999,0.7994730000000001,0.0117049999999999,0.6274625,1.023033,-0.079195,1.3252325,1.067133,-0.069105,0.9208825,-0.0027369999999999,-0.002555,1.0791175,0.002737,0.002555,0.8714525000000001,-0.514797,0.017515,1.1440615,-0.491697,0.0008249999999999,0.8549125,-0.901857,-0.001845,1.1484715,-0.854557,0.0162749999999999
195,0.9830655000000001,0.7819039999999999,0.122308,0.8002625000000001,0.578994,0.100368,0.6778625,0.800674,0.01664,1.1639325,0.573714,0.099646,1.2856725,0.799644,0.00995,0.6272725,1.022954,-0.0811699999999999,1.3251425000000001,1.0668540000000002,-0.0717899999999999,0.9207925000000001,-0.0028559999999999,-0.0025099999999999,1.0792075,0.002856,0.00251,0.8711825,-0.515016,0.01672,1.1438535,-0.493876,0.00019,0.8546525,-0.901936,-0.0029699999999999,1.1480795,-0.854696,0.01514
196,0.983087,0.7820525,0.120865,0.8002370000000001,0.5792425,0.09949,0.677727,0.8007625,0.01521,1.163907,0.5737925,0.0986,1.285727,0.7995525,0.00813,0.6272270000000001,1.0228125,-0.0832099999999999,1.325177,1.0664125,-0.07454,0.920687,-0.0028994999999999,-0.0025099999999999,1.079313,0.0028994999999999,0.00251,0.8709070000000001,-0.5152275,0.01589,1.143619,-0.4934175,-0.0006199999999999,0.854427,-0.9017975,-0.0041799999999999,1.147706,-0.8547475,0.01396
197,0.9831259999999999,0.7821950000000001,0.119399,0.8002230000000001,0.579495,0.098508,0.677563,0.8008350000000001,0.0137,1.163903,0.573835,0.097579,1.285783,0.799415,0.00627,0.627223,1.022775,-0.0855499999999999,1.325223,1.065775,-0.0774699999999999,0.920593,-0.0029199999999999,-0.0025099999999999,1.079407,0.0029199999999999,0.00251,0.870653,-0.515445,0.0151,1.143372,-0.492955,-0.0013999999999999,0.854143,-0.901635,-0.0056499999999999,1.14728,-0.8550249999999999,0.01294
198,0.983193,0.782359,0.1178879999999999,0.800189,0.579729,0.097435,0.6774290000000001,0.8008890000000001,0.012075,1.163899,0.573859,0.096471,1.285869,0.7992090000000001,0.0042849999999999,0.6272690000000001,1.022619,-0.088005,1.325309,1.065119,-0.080655,0.9205090000000001,-0.002908,-0.0024349999999999,1.079491,0.002908,0.0024349999999999,0.870409,-0.515591,0.0142049999999999,1.143148,-0.493721,-0.001865,0.8538390000000001,-0.901441,-0.007175,1.14693,-0.8553109999999999,0.0118649999999999
199,0.983336,0.7825460000000001,0.116464,0.8002279999999999,0.580026,0.096477,0.677378,0.800946,0.010475,1.163918,0.5738960000000001,0.095453,1.286038,0.798936,0.002305,0.627328,1.022486,-0.090395,1.3254579999999998,1.0645859999999998,-0.083845,0.920448,-0.0028709999999999,-0.0023549999999999,1.079552,0.0028709999999999,0.0023549999999999,0.870258,-0.515754,0.013305,1.142983,-0.494904,-0.002335,0.853738,-0.901324,-0.0084349999999999,1.1466489999999998,-0.8557239999999999,0.010825
200,0.9834965000000001,0.7827365000000001,0.114873,0.8002775,0.5803165,0.095605,0.6773475,0.8010165,0.0087849999999999,1.1639175,0.5739265,0.0945179999999999,1.2861975,0.7986765,0.000365,0.6273075,1.0223865,-0.0930149999999999,1.3256475,1.0638865,-0.087085,0.9203975000000001,-0.0028674999999999,-0.0022449999999999,1.0796024999999998,0.0028675,0.0022449999999999,0.8701175000000001,-0.5158435,0.012435,1.1429235,-0.4963835,-0.0028849999999999,0.8535175,-0.9010335,-0.009525,1.1463475,-0.8561534999999999,0.0099549999999999
201,0.9836605,0.7829375000000001,0.113224,0.8003534999999999,0.5806775,0.0947,0.6772935,0.8010575,0.007025,1.1639135,0.5739675,0.093505,1.2863335,0.7983775,-0.0016649999999999,0.6272835,1.0223275,-0.095675,1.3258635,1.0632275,-0.0903249999999999,0.9203535,-0.0028385,-0.002165,1.0796465,0.0028385,0.002165,0.8699935,-0.5159225000000001,0.011525,1.1428975000000001,-0.4989925,-0.0036549999999999,0.8531635000000001,-0.9009625,-0.0110649999999999,1.1460965,-0.8567225,0.008965
202,0.9837935000000001,0.783109,0.111437,0.8004225,0.580989,0.093705,0.6771825,0.801089,0.005005,1.1639125,0.573989,0.092438,1.2864825,0.797939,-0.0039549999999999,0.6272525,1.021799,-0.098725,1.3262025,1.062299,-0.0941249999999999,0.9203025,-0.0027939999999999,-0.0021149999999999,1.0796975,0.002794,0.002115,0.8698325,-0.5160009999999999,0.010695,1.1428255,-0.500111,-0.0044849999999999,0.8528325000000001,-0.900911,-0.0123149999999999,1.1458355,-0.857391,0.008025
203,0.9839385,0.7833165,0.1095509999999999,0.8005115,0.5813165,0.09255,0.6770214999999999,0.8010965,0.0028549999999999,1.1639515,0.5740265,0.0911949999999999,1.2866815,0.7975165,-0.006265,0.6272615,1.0214265,-0.1019249999999999,1.3267115,1.0614265,-0.098175,0.9202415,-0.0027645,-0.002065,1.0797585,0.0027644999999999,0.0020649999999999,0.8697315,-0.5161735000000001,0.0098149999999999,1.1427315,-0.4999435,-0.0053549999999999,0.8525415000000001,-0.9007935,-0.014035,1.1456205,-0.8583535,0.0067949999999999
204,0.9840385,0.7836385,0.1074239999999999,0.8005845,0.5816585,0.0912,0.6767445000000001,0.8010585,0.0003199999999999,1.1639645,0.5741285,0.089817,1.2869245,0.7969885,-0.0089899999999999,0.6272545,1.0207484999999998,-0.10564,1.3273445,1.0597485,-0.10274,0.9201445,-0.0027814999999999,-0.0019899999999999,1.0798555,0.0027814999999999,0.0019899999999999,0.8696145,-0.5160515,0.00891,1.1424375,-0.4997315,-0.00644,0.8522845,-0.9004615,-0.01511,1.1453965,-0.8592615,0.00558
205,0.9841010000000001,0.7839794999999999,0.105201,0.800574,0.5819995,0.089707,0.676354,0.8008795,-0.00245,1.164034,0.5743695,0.088337,1.287164,0.7965395,-0.0120299999999999,0.627324,1.0179295000000002,-0.10983,1.328014,1.0580295000000002,-0.10804,0.920024,-0.0028564999999999,-0.0019399999999999,1.079976,0.0028565,0.0019399999999999,0.8695539999999999,-0.5159905,0.0080099999999999,1.142196,-0.4998904999999999,-0.0076199999999999,0.852074,-0.9000905,-0.0161399999999999,1.145243,-0.8600205000000001,0.00442
206,0.984156,0.7841235000000001,0.102163,0.800625,0.5823235,0.087987,0.675945,0.8005535,-0.005805,1.164145,0.5746235000000001,0.086644,1.287555,0.7960835,-0.0154449999999999,0.627575,1.0149535,-0.1141549999999999,1.328795,1.0560535,-0.113695,0.919875,-0.0028945,-0.002005,1.080125,0.0028945,0.002005,0.869565,-0.5157565,0.006805,1.142037,-0.4995465,-0.0091849999999999,0.851965,-0.8996865,-0.017235,1.145204,-0.8603365,0.0031549999999999
207,0.984225,0.7840820000000001,0.0983339999999999,0.80069,0.582562,0.0861889999999999,0.6754300000000001,0.800142,-0.00975,1.16418,0.574812,0.0845689999999999,1.28815,0.795532,-0.01961,0.6278600000000001,1.011792,-0.1192,1.32979,1.053592,-0.12018,0.9197200000000001,-0.002904,-0.00212,1.08028,0.0029039999999999,0.0021199999999999,0.86955,-0.5155879999999999,0.0052499999999999,1.141963,-0.499008,-0.01099,0.85179,-0.899438,-0.01823,1.145177,-0.860698,0.0017299999999999
208,0.9843345000000001,0.7840879999999999,0.094047,0.8007795,0.582708,0.083909,0.6748195,0.799558,-0.0144549999999999,1.1641495,0.5750280000000001,0.081961,1.2889395000000001,0.7949980000000001,-0.024535,0.6280495000000001,1.008318,-0.125305,1.3309695000000001,1.050918,-0.1275649999999999,0.9195195,-0.0028979999999999,-0.0022649999999999,1.0804805,0.0028979999999999,0.002265,0.8695995,-0.515262,0.003375,1.1419245,-0.498212,-0.0130749999999999,0.8517095,-0.899092,-0.0196249999999999,1.1451935,-0.8610420000000001,-1.4999999999987246e-05
