sb224sc-HT22-VT27/4dt907/src/data/kinect_good_preprocessed_not_cut_A11_mediapipe/B12_kinect_mirrored.csv
FrameNo,nose_3d_x,nose_3d_y,nose_3d_z,left_shoulder_3d_x,left_shoulder_3d_y,left_shoulder_3d_z,left_elbow_3d_x,left_elbow_3d_y,left_elbow_3d_z,right_shoulder_3d_x,right_shoulder_3d_y,right_shoulder_3d_z,right_elbow_3d_x,right_elbow_3d_y,right_elbow_3d_z,left_wrist_3d_x,left_wrist_3d_y,left_wrist_3d_z,right_wrist_3d_x,right_wrist_3d_y,right_wrist_3d_z,left_hip_3d_x,left_hip_3d_y,left_hip_3d_z,right_hip_3d_x,right_hip_3d_y,right_hip_3d_z,left_knee_3d_x,left_knee_3d_y,left_knee_3d_z,right_knee_3d_x,right_knee_3d_y,right_knee_3d_z,left_ankle_3d_x,left_ankle_3d_y,left_ankle_3d_z,right_ankle_3d_x,right_ankle_3d_y,right_ankle_3d_z
0,1.0039255,0.7637345,0.0368519999999999,0.8374625,0.4887145,0.0100869999999999,0.8031925,0.2488245,-0.029203,1.1768925000000001,0.4887745,0.0073209999999999,1.2241525,0.2380345,-0.007639,0.8500624999999999,0.3246545,-0.22786,1.2117125,0.0461065,-0.08353,0.9256575,0.0016034999999999,3.299999999999831e-05,1.0743425,-0.0016034999999999,-3.299999999999831e-05,0.8989625,-0.3394554999999999,0.0461429999999999,1.1049025,-0.3338355,0.03529,0.8953425,-0.6476155,0.081026,1.1127925,-0.6579455,0.076926
1,1.003809,0.7635219999999999,0.036524,0.836365,0.488092,0.009158,0.804025,0.249252,-0.031194,1.176965,0.488862,0.007512,1.224085,0.2380519999999999,-0.0077109999999999,0.850205,0.323602,-0.226696,1.211785,0.047324,-0.083496,0.925672,0.001586,2.1000000000000185e-05,1.074328,-0.001586,-2.1000000000000185e-05,0.898825,-0.3395379999999999,0.046345,1.104935,-0.3338279999999999,0.035402,0.895525,-0.6463180000000001,0.081091,1.112745,-0.6577780000000001,0.076962
2,1.003696,0.7634375,0.0359775,0.838057,0.4898475,0.0106625,0.8039769999999999,0.2492075,-0.0313294999999999,1.177087,0.4888575,0.0076525,1.224077,0.2379875,-0.0079154999999999,0.850297,0.3230475,-0.2260105,1.211807,0.0472835,-0.0836505,0.9256800000000001,0.0016095,8.650000000000324e-05,1.07432,-0.0016095,-8.64999999999963e-05,0.898777,-0.3393225,0.0462255,1.104797,-0.3342125,0.0355595,0.895617,-0.6453125000000001,0.0811095,1.113647,-0.6600025,0.0770615
3,1.0036875,0.763372,0.0359009999999999,0.8390045000000002,0.490672,0.0119599999999999,0.8026145,0.2497719999999999,-0.025749,1.1771145,0.488832,0.0076429999999999,1.2240045,0.238432,-0.00775,0.8494845,0.326942,-0.227563,1.2117645,0.047136,-0.083303,0.9256785,0.001617,0.0001209999999999,1.0743215,-0.001617,-0.000121,0.8987145,-0.337908,0.0461589999999999,1.1047645,-0.3332279999999999,0.03507,0.8955845,-0.6450779999999999,0.081118,1.1127545,-0.657238,0.077982
4,1.003741,0.7630254999999999,0.035712,0.83935,0.4908255,0.012593,0.80264,0.2496654999999999,-0.025631,1.17715,0.4887655,0.0076099999999999,1.22407,0.2382355,-0.007725,0.8493999999999999,0.3269355,-0.227428,1.21178,0.0471404999999999,-0.083368,0.925671,0.0016235,0.000167,1.074329,-0.0016235,-0.000167,0.89868,-0.3371645,0.046068,1.1049499999999999,-0.3326745,0.035133,0.89547,-0.6447845000000001,0.081269,1.11242,-0.6565145,0.0785869999999999
5,1.0037479999999999,0.7630615,0.0354915,0.839683,0.4909215,0.0128525,0.802843,0.2498115,-0.0262384999999999,1.177133,0.4888015,0.0077664999999999,1.2240229999999999,0.2382515,-0.0077505,0.853303,0.3233215,-0.2340824999999999,1.211733,0.0471334999999999,-0.0833025,0.925667,0.0016235,0.0001574999999999,1.074333,-0.0016235,-0.0001574999999999,0.898653,-0.3372385,0.0461095,1.1049129999999998,-0.3324085,0.0350525,0.895543,-0.6440685,0.0813015,1.112423,-0.6565785,0.0784575
6,1.0037204999999998,0.762926,0.035204,0.8401155,0.4912459999999999,0.013358,0.8028554999999999,0.249726,-0.026476,1.1771455,0.4887959999999999,0.007719,1.2240455,0.238306,-0.0077619999999999,0.8526055,0.322806,-0.232359,1.2117555,0.047251,-0.083269,0.9256685,0.001611,0.00021,1.0743315,-0.001611,-0.0002099999999999,0.8986655,-0.337254,0.046092,1.1048655,-0.332534,0.035035,0.8955555,-0.644754,0.081211,1.1123154999999998,-0.656254,0.078238
7,1.0034964999999998,0.7623110000000001,0.034259,0.8389395,0.490421,0.011677,0.8031695,0.249501,-0.0277039999999999,1.1771194999999999,0.488761,0.007725,1.2241095,0.238141,-0.0073999999999999,0.8507595,0.323901,-0.2295559999999999,1.2115595,0.046702,-0.083066,0.9256785,0.001592,0.000171,1.0743215,-0.001592,-0.0001709999999999,0.8988095,-0.337949,0.046032,1.1048795,-0.332489,0.035053,0.8956395,-0.6470189999999999,0.080821,1.1123995,-0.6571089999999999,0.07739
8,1.0034115,0.7620290000000001,0.033795,0.8390745,0.490469,0.0116899999999999,0.8032245,0.2495689999999999,-0.027787,1.1771245,0.488759,0.007734,1.2241145,0.238149,-0.007329,0.8507645,0.323739,-0.229557,1.2114945,0.04668,-0.083047,0.9256785,0.001593,0.0001799999999999,1.0743215,-0.001593,-0.0001799999999999,0.8988045,-0.337931,0.0460379999999999,1.1048745,-0.332401,0.035046,0.8956445000000001,-0.647121,0.080832,1.1123745,-0.657121,0.0774
9,1.003338,0.7617754999999999,0.033345,0.8392310000000001,0.4905155,0.0117349999999999,0.8032509999999999,0.2496255,-0.027767,1.177141,0.4887255,0.007748,1.224121,0.2381555,-0.007266,0.850781,0.3236855,-0.229543,1.211411,0.0465224999999999,-0.083033,0.925677,0.0015955,0.000195,1.074323,-0.0015955,-0.000195,0.8988210000000001,-0.3379145,0.046013,1.104871,-0.3323245,0.035025,0.895641,-0.6473745,0.0808079999999999,1.112311,-0.6570445,0.077438
10,1.0032655,0.7615155,0.0328725,0.8394115,0.4905755,0.0117624999999999,0.8032715,0.2496955,-0.0277425,1.1771515,0.4886955,0.0077724999999999,1.2241214999999999,0.2381855,-0.0072145,0.8507715,0.3236955,-0.2295185,1.2112915,0.0463055,-0.0829985,0.9256735,0.0015955,0.0002094999999999,1.0743265,-0.0015955,-0.0002095,0.8988315,-0.3378945,0.0460094999999999,1.1048815,-0.3322545,0.0350134999999999,0.8956215,-0.6477745,0.0807634999999999,1.1122615,-0.6568145,0.0774594999999999
11,1.0032,0.761291,0.0324265,0.839547,0.490581,0.0117535,0.8033669999999999,0.249721,-0.0281735,1.177157,0.488671,0.0077815,1.224127,0.2381609999999999,-0.0071815,0.850797,0.323501,-0.2294865,1.211137,0.046004,-0.0829565,0.925671,0.001597,0.0002194999999999,1.074329,-0.001597,-0.0002194999999999,0.8988570000000001,-0.3379189999999999,0.0460155,1.1048969999999998,-0.3321889999999999,0.0350205,0.895617,-0.6482089999999999,0.0807005,1.112227,-0.6567189999999999,0.0773755
12,1.0031405,0.761093,0.032044,0.8396735,0.4906129999999999,0.01176,0.8034835,0.2497329999999999,-0.028564,1.1771635,0.488633,0.007813,1.2241335,0.2381529999999999,-0.007119,0.8508335,0.323333,-0.229425,1.2109835,0.045671,-0.082895,0.9256715000000001,0.001601,0.000232,1.0743284999999998,-0.001601,-0.000232,0.8989035,-0.338037,0.0460519999999999,1.1049235,-0.332107,0.034992,0.8956335,-0.648477,0.080689,1.1121935,-0.656647,0.0774239999999999
13,1.0030964999999998,0.7609345,0.031749,0.8395435,0.4905045,0.011679,0.8035535,0.2497145,-0.0289239999999999,1.1771735,0.4886045,0.007824,1.2241435,0.2381645,-0.0070379999999999,0.8506935,0.3231445,-0.2289259999999999,1.2108235,0.0453295,-0.082816,0.9256695,0.0016045,0.0002419999999999,1.0743305,-0.0016045,-0.0002419999999999,0.8989535,-0.3382655,0.046116,1.1049535,-0.3320455,0.034985,0.8957035,-0.6485955,0.080695,1.1121635,-0.6565655,0.077505
14,1.0030585,0.760871,0.031582,0.8393615,0.490371,0.0116069999999999,0.8036515000000001,0.249731,-0.0291939999999999,1.1771615,0.488561,0.0078289999999999,1.2241315,0.238181,-0.006947,0.8505515000000001,0.322991,-0.228476,1.2106914999999998,0.04501,-0.082746,0.9256665,0.001611,0.0002479999999999,1.0743335,-0.001611,-0.000248,0.8989914999999999,-0.3383589999999999,0.046186,1.1049815,-0.3319789999999999,0.0349899999999999,0.8957515,-0.648579,0.080766,1.1121415,-0.656509,0.077598
15,1.0030184999999998,0.7608474999999999,0.0314375,0.8393905,0.4903575,0.0115474999999999,0.8037105,0.2497674999999999,-0.0294704999999999,1.1771605,0.4885175,0.0078314999999999,1.2241105,0.2381975,-0.0069145,0.8504404999999999,0.3228375,-0.2280795,1.2105505,0.0447845,-0.0827095,0.9256635,0.0016175,0.0002575,1.0743365,-0.0016175,-0.0002575,0.8990305,-0.3384425,0.0462395,1.1050005,-0.3319025,0.0349865,0.8957605,-0.6485625,0.0808615,1.1121105,-0.6566825000000001,0.0775565
16,1.0029819999999998,0.7608619999999999,0.031316,0.83918,0.490172,0.01138,0.80374,0.249802,-0.0297259999999999,1.17717,0.4884719999999999,0.007833,1.22414,0.238212,-0.006905,0.8503499999999999,0.3226219999999999,-0.227846,1.2104,0.044659,-0.082676,0.925662,0.001622,0.000278,1.074338,-0.001622,-0.000278,0.89908,-0.338588,0.046333,1.1050200000000001,-0.331868,0.034982,0.89576,-0.648548,0.080947,1.11209,-0.6568080000000001,0.077503
17,1.0029474999999999,0.7608779999999999,0.0312309999999999,0.8391455,0.489998,0.0112349999999999,0.8037655,0.2498679999999999,-0.029994,1.1771455,0.4884179999999999,0.0078009999999999,1.2241755,0.238248,-0.006903,0.8502955,0.322278,-0.22749,1.2102255,0.044675,-0.08274,0.9256615,0.001618,0.0002949999999999,1.0743385,-0.001618,-0.000295,0.8991255,-0.338712,0.0463679999999999,1.1050455,-0.331822,0.0349699999999999,0.8957655,-0.6483720000000001,0.081096,1.1120855,-0.656792,0.077619
18,1.0029135,0.7608999999999999,0.0311605,0.8388575,0.48974,0.0109825,0.8037974999999999,0.24992,-0.0301624999999999,1.1771174999999998,0.4884,0.0077875,1.2242175,0.23834,-0.0068924999999999,0.8502375,0.32202,-0.2273505,1.2102575,0.044697,-0.0828705,0.9256605,0.0016129999999999,0.0003175,1.0743395,-0.0016129999999999,-0.0003174999999999,0.8991575,-0.33882,0.0464205,1.1050675,-0.33179,0.0349825,0.8957675,-0.6481300000000001,0.0812685,1.1121575,-0.65676,0.0778065
19,1.0028665,0.760925,0.03111,0.8384395,0.489375,0.010575,0.8038395,0.249985,-0.0300519999999999,1.1770695,0.488425,0.007736,1.2242495,0.238515,-0.006946,0.8501595,0.322045,-0.22723,1.2102895,0.044722,-0.0832099999999999,0.9256615,0.001607,0.0003459999999999,1.0743385,-0.001607,-0.0003459999999999,0.8991995,-0.338935,0.046464,1.1050795,-0.331765,0.034985,0.8957595,-0.6478349999999999,0.081417,1.1122595,-0.656735,0.077945
20,1.0028104999999998,0.760977,0.031089,0.8379605,0.4889969999999999,0.010192,0.8038305,0.2500369999999999,-0.0299349999999999,1.1770205,0.4884469999999999,0.0077099999999999,1.2243205,0.238777,-0.007039,0.8499605,0.322067,-0.2271049999999999,1.2102905,0.0455799999999999,-0.084075,0.9256605,0.0015999999999999,0.000377,1.0743395,-0.0015999999999999,-0.000377,0.8992505,-0.339033,0.046513,1.1050905,-0.331753,0.0349929999999999,0.8957505,-0.6475730000000001,0.08154,1.1123505,-0.657023,0.0780579999999999
21,1.002761,0.761026,0.031096,0.837977,0.489016,0.009932,0.8037770000000001,0.250056,-0.029832,1.176957,0.488466,0.007645,1.224497,0.239816,-0.0072289999999999,0.8495370000000001,0.322086,-0.226996,1.210617,0.04865,-0.085946,0.9256580000000001,0.001592,0.0004289999999999,1.074342,-0.001592,-0.0004289999999999,0.899307,-0.339134,0.046538,1.105097,-0.3317139999999999,0.03503,0.8957670000000001,-0.6473340000000001,0.0816399999999999,1.112407,-0.657234,0.078146
22,1.0027365,0.7610855,0.031172,0.8382255000000001,0.4891555,0.0097209999999999,0.8035155,0.2500655,-0.0294969999999999,1.1768855,0.4884955,0.0075719999999999,1.2252455,0.2418855,-0.007536,0.8488255,0.3221155,-0.226802,1.2110655,0.0525625,-0.088742,0.9256555,0.0015825,0.000501,1.0743445,-0.0015825,-0.000501,0.8993655,-0.3391645,0.046546,1.1050955,-0.3316845,0.035039,0.8957755000000001,-0.6471445,0.081717,1.1124755,-0.6575545,0.078184
23,1.00276,0.7611205000000001,0.031242,0.838444,0.4892305,0.009807,0.803254,0.2500205,-0.02844,1.176804,0.4885905,0.0074989999999999,1.226434,0.2449205,-0.007973,0.8474840000000001,0.3224505,-0.226663,1.211724,0.0580235,-0.093513,0.925645,0.0015845,0.0005719999999999,1.074355,-0.0015845,-0.000572,0.899384,-0.3391695,0.046546,1.105094,-0.3316895,0.035042,0.895804,-0.6469695,0.081789,1.112494,-0.6575194999999999,0.0782529999999999
24,1.002791,0.76116,0.0313165,0.838875,0.48932,0.0098715,0.801145,0.25009,-0.0282194999999999,1.176665,0.48875,0.0074105,1.228285,0.24935,-0.0090244999999999,0.8442950000000001,0.32397,-0.2268085,1.213935,0.067529,-0.1017785,0.925624,0.001585,0.0006485,1.074376,-0.001585,-0.0006484999999999,0.8994050000000001,-0.3391699999999999,0.0465495,1.105085,-0.33164,0.0350665,0.895815,-0.6469900000000001,0.0818915,1.112555,-0.6577000000000001,0.0783135
25,1.002817,0.7612145,0.0314059999999999,0.83937,0.4894245,0.0099899999999999,0.79749,0.2502645,-0.028237,1.17643,0.4890144999999999,0.0073199999999999,1.23044,0.2551644999999999,-0.010396,0.84012,0.3260544999999999,-0.227237,1.21749,0.0794634999999999,-0.1129169999999999,0.925605,0.0015835,0.000722,1.074395,-0.0015835,-0.000722,0.89942,-0.3391055,0.046522,1.10507,-0.3316255,0.0351309999999999,0.89577,-0.6469955000000001,0.082043,1.11263,-0.6580155,0.078372
26,1.0028385,0.7612625000000001,0.0315905,0.8401055,0.4896925,0.0100495,0.7933355,0.2507425,-0.0283184999999999,1.1761455,0.4893725,0.0072395,1.2329255,0.2620425,-0.0124734999999999,0.8341054999999999,0.3294425,-0.2276524999999999,1.2220755,0.0965105,-0.1267525,0.9255945,0.0015795,0.0008225,1.0744055,-0.0015795,-0.0008224999999999,0.8994055000000001,-0.3389574999999999,0.0464435,1.1050455,-0.3316375,0.0351575,0.8957055,-0.6470175,0.0821365,1.1126555,-0.6582675,0.0784055
27,1.0028994999999998,0.7613084999999999,0.031913,0.8409015000000001,0.4897285,0.010025,0.7875715,0.2536585,-0.028377,1.1758215,0.4898285,0.007133,1.2363515,0.2708585,-0.015626,0.8261115,0.3358585,-0.228128,1.2295515,0.1167185,-0.142528,0.9255925,0.0015725,0.0009359999999999,1.0744075,-0.0015725,-0.0009359999999999,0.8993715,-0.3388215,0.046332,1.1049915,-0.3316915,0.035145,0.8955515000000001,-0.6470615000000001,0.082204,1.1126915,-0.6583215,0.078357
28,1.0031095,0.7614695,0.0326105,0.8419825,0.4898495,0.0102674999999999,0.7812825,0.2578495,-0.0294184999999999,1.1755025,0.4903195,0.0069935,1.2410625,0.2811595,-0.0221584999999999,0.8169725,0.3441795,-0.2288145,1.2372925,0.1378395,-0.1608345,0.9255915,0.0015635,0.0010705,1.0744085,-0.0015635,-0.0010705,0.8993225,-0.3386105,0.0461345,1.1049325,-0.3317905,0.0350695,0.8953625000000001,-0.6472705,0.0822045,1.1127125,-0.6583705,0.0782785
29,1.003386,0.7616350000000001,0.0334435,0.843207,0.489915,0.0106474999999999,0.7736069999999999,0.265165,-0.0335615,1.175277,0.490805,0.0067994999999999,1.246147,0.291405,-0.0288044999999999,0.806527,0.355805,-0.2300154999999999,1.245867,0.167615,-0.1799255,0.9255750000000001,0.001553,0.0011924999999999,1.074425,-0.001553,-0.0011925,0.899337,-0.338755,0.0460115,1.1048669999999998,-0.3319249999999999,0.0349545,0.895167,-0.647605,0.0821605,1.112687,-0.658445,0.0781574999999999
30,1.003716,0.7618499999999999,0.0347005,0.84441,0.48998,0.0111355,0.7655000000000001,0.27381,-0.0383795,1.1751800000000001,0.49126,0.0066105,1.25198,0.30181,-0.0357264999999999,0.7951000000000001,0.37406,-0.2332195,1.25733,0.20048,-0.2009295,0.925529,0.001532,0.0013305,1.074471,-0.001532,-0.0013304999999999,0.8993200000000001,-0.33892,0.0458765,1.10478,-0.33204,0.0348285,0.89493,-0.64814,0.0821405,1.1126800000000001,-0.65852,0.0780445
31,1.0041179999999998,0.7620785,0.036201,0.8455170000000001,0.4901585,0.0117219999999999,0.756027,0.2870685,-0.046225,1.175077,0.4916685,0.0064069999999999,1.260417,0.3121185,-0.042743,0.783067,0.3958185,-0.2353429999999999,1.269067,0.2398385,-0.221273,0.925459,0.0014985,0.0014809999999999,1.074541,-0.0014985,-0.001481,0.8992370000000001,-0.3389414999999999,0.0457319999999999,1.104667,-0.3321415,0.034711,0.8946570000000001,-0.6485915,0.082116,1.112607,-0.6586314999999999,0.0779489999999999
32,1.0046005,0.7623675,0.0378145,0.8465325,0.4904675,0.0123495,0.7455425,0.3028075,-0.0553424999999999,1.1749225,0.4920775,0.0061515,1.2702125,0.3240175,-0.0513024999999999,0.7698125,0.4225775,-0.2362474999999999,1.2808225,0.2850375,-0.2407974999999999,0.9253745,0.0014565,0.0016455,1.0746255,-0.0014565,-0.0016455,0.8991525,-0.3389925,0.0456805,1.1045125,-0.3322925,0.0345675,0.8943325,-0.6489725000000001,0.0820455,1.1124525,-0.6586525000000001,0.0778075
33,1.0051104999999998,0.7626375000000001,0.039518,0.8464385,0.4907475,0.0129739999999999,0.7351885,0.3205874999999999,-0.065703,1.1747085,0.4925575,0.0058509999999999,1.2801784999999999,0.3388675,-0.063075,0.7577685000000001,0.4513175,-0.236033,1.2919685,0.3327974999999999,-0.255193,0.9252835,0.0013935,0.0017739999999999,1.0747165,-0.0013934999999999,-0.001774,0.8989985,-0.3390725,0.04559,1.1042985,-0.3325125,0.034351,0.8939684999999999,-0.6493224999999999,0.0819159999999999,1.1122885,-0.6587324999999999,0.0775039999999999
34,1.00569,0.762876,0.0413355,0.8462120000000001,0.4909159999999999,0.0135514999999999,0.725322,0.340196,-0.0756795,1.174622,0.493066,0.0054734999999999,1.290062,0.3592059999999999,-0.0771595,0.7456320000000001,0.482326,-0.2357695,1.302192,0.3850059999999999,-0.2656095,0.925189,0.00132,0.0018794999999999,1.074811,-0.00132,-0.0018795,0.898782,-0.339194,0.0454604999999999,1.104032,-0.332764,0.0340744999999999,0.893582,-0.649814,0.0817125,1.111972,-0.658504,0.0771675
35,1.0062715,0.763119,0.0432325,0.8459055,0.491039,0.0137955,0.7156355,0.3623389999999999,-0.0875044999999999,1.1746254999999999,0.493619,0.0049885,1.2997455,0.381119,-0.0912544999999999,0.7344855,0.515879,-0.2350745,1.3116755,0.4381089999999999,-0.2718745,0.9251165000000001,0.001247,0.0019824999999999,1.0748834999999999,-0.001247,-0.0019824999999999,0.8985155,-0.339261,0.0452925,1.1037055,-0.333061,0.0337915,0.8931555,-0.650311,0.0814685,1.1115955,-0.658441,0.0768185
36,1.0068235,0.7633019999999999,0.04511,0.8454425,0.490922,0.0140459999999999,0.7071825,0.383592,-0.098533,1.1747925,0.494382,0.0043249999999999,1.3078025,0.406412,-0.104143,0.7245525000000002,0.548412,-0.233433,1.3181825,0.493312,-0.274673,0.9250605000000001,0.00117,0.0020599999999999,1.0749395,-0.0011699999999999,-0.00206,0.8981825,-0.339358,0.0451339999999999,1.1033125,-0.333458,0.0334989999999999,0.8927325000000002,-0.650798,0.081182,1.1111625,-0.658508,0.076483
37,1.0072365,0.7631265,0.0467459999999999,0.8448905000000001,0.4911065,0.0143349999999999,0.6994505000000001,0.4095665,-0.106084,1.1750005,0.4954565,0.0035699999999999,1.3141505,0.4321365,-0.113174,0.7151105,0.5859765,-0.233484,1.3241805,0.5526265,-0.275324,0.9250195,0.0010745,0.002124,1.0749805000000001,-0.0010745,-0.002124,0.8978005,-0.3397935,0.044945,1.1028905,-0.3341135,0.0331389999999999,0.8922405,-0.6515635,0.080854,1.1106405,-0.6588335,0.076131
38,1.007619,0.762678,0.048383,0.8437100000000001,0.491508,0.014782,0.6934100000000001,0.436418,-0.109604,1.17506,0.4968279999999999,0.002867,1.3191,0.4594879999999999,-0.1206439999999999,0.70676,0.620078,-0.232474,1.32895,0.605748,-0.275964,0.925007,0.001021,0.0023089999999999,1.074993,-0.0010209999999999,-0.0023089999999999,0.8974,-0.340642,0.044782,1.10241,-0.335092,0.032776,0.8916900000000001,-0.652732,0.080471,1.11004,-0.659462,0.075773
39,1.0080289999999998,0.7619405,0.0498644999999999,0.842453,0.4920005,0.0153644999999999,0.688123,0.4631305,-0.1110675,1.175143,0.4986505,0.0023984999999999,1.322543,0.4916305,-0.1265275,0.699253,0.6493105,-0.2287475,1.3298130000000001,0.6547905,-0.2764075,0.925026,0.0009684999999999,0.0024804999999999,1.074974,-0.0009685,-0.0024805,0.896993,-0.3418195,0.0446854999999999,1.101923,-0.3364895,0.0324974999999999,0.891113,-0.6541494999999999,0.0801134999999999,1.1094229999999998,-0.6605995,0.0754225
40,1.008433,0.7607309999999999,0.0513094999999999,0.841127,0.492771,0.0162774999999999,0.684477,0.486361,-0.1112485,1.175157,0.500871,0.0020745,1.322287,0.523651,-0.1307085,0.692537,0.6776909999999999,-0.2231185,1.329987,0.702171,-0.2746385,0.925083,0.0009339999999999,0.0026204999999999,1.074917,-0.0009339999999999,-0.0026205,0.896617,-0.3435689999999999,0.0447194999999999,1.101457,-0.338269,0.0323055,0.890507,-0.656089,0.0798325,1.108767,-0.662269,0.0751925
41,1.0087895,0.759108,0.0527705,0.8397045,0.493988,0.0175635,0.6820945,0.508258,-0.1113345,1.1750245,0.503278,0.0019095,1.3216345,0.554838,-0.1322245,0.6875245000000001,0.702818,-0.2157745,1.3300045,0.744588,-0.2668844999999999,0.9251735000000001,0.0009069999999999,0.0027105,1.0748265,-0.0009069999999999,-0.0027104999999999,0.8961844999999999,-0.3458119999999999,0.0446355,1.1009945,-0.340412,0.0322525,0.8899045000000001,-0.658272,0.0797005,1.1081345,-0.664312,0.0751085
42,1.0090695,0.7569724999999999,0.0541805,0.8384655,0.4952324999999999,0.0188905,0.6814355000000001,0.5301224999999999,-0.1113925,1.1747055,0.5057825,0.0018384999999999,1.3209755,0.5830225,-0.1322825,0.6831155,0.7260725,-0.2043925,1.3296155,0.7815124999999999,-0.2601925,0.9253035000000001,0.0008975,0.0027435,1.0746965,-0.0008975,-0.0027434999999999,0.8956855,-0.3485275,0.0445715,1.1005055,-0.3430575,0.0323515,0.8892755,-0.6608075,0.0796475,1.1074655,-0.6670575,0.0750875
43,1.0093145,0.7544295,0.055401,0.8371795000000001,0.4968494999999999,0.020375,0.6809195,0.5513095,-0.10848,1.1741795,0.5083595,0.0020369999999999,1.3203495,0.6054695,-0.13227,0.6797295,0.7488695,-0.19199,1.3294095,0.8115694999999999,-0.24912,0.9254695,0.0009174999999999,0.0027259999999999,1.0745305,-0.0009174999999999,-0.0027259999999999,0.8952305,-0.3515405,0.044577,1.1000695,-0.3459905,0.032524,0.8886795,-0.6637605,0.079651,1.1068395,-0.6702005,0.0751469999999999
44,1.0095975,0.7515069999999999,0.0563805,0.8361514999999999,0.4988769999999999,0.0221335,0.6805315000000001,0.570627,-0.1033864999999999,1.1736015,0.511007,0.0023615,1.3177815,0.6258969999999999,-0.1321665,0.6771815,0.768767,-0.1798664999999999,1.3293815,0.8368669999999999,-0.2346964999999999,0.9256335,0.0009499999999999,0.0027194999999999,1.0743665,-0.0009499999999999,-0.0027194999999999,0.8948465,-0.354253,0.0445935,1.0996815,-0.349303,0.0327005,0.8881515,-0.667223,0.0796725,1.1063015,-0.673713,0.0752205
45,1.0099135,0.7483274999999999,0.057145,0.8352984999999999,0.5006275,0.023703,0.6805685,0.5897074999999999,-0.0956359999999999,1.1730785,0.5134575,0.002926,1.3134185,0.6427575,-0.128896,0.6753985,0.7881075,-0.167306,1.3287285,0.8568675,-0.220946,0.9257985,0.0010175,0.002713,1.0742015,-0.0010175,-0.002713,0.8945405,-0.3568725,0.044578,1.0993485,-0.3528125,0.032811,0.8876785000000001,-0.6709425,0.07969,1.1057585,-0.6775625000000001,0.075263
46,1.0103265,0.7449905,0.057653,0.8347225,0.5027305,0.025446,0.6821225,0.6039505,-0.086974,1.1727925,0.5155605,0.003567,1.3096425,0.6588205,-0.122274,0.6743425000000001,0.8013804999999999,-0.153854,1.3282924999999999,0.8716805,-0.206704,0.9259895,0.0011334999999999,0.002731,1.0740105,-0.0011334999999999,-0.0027309999999999,0.8944075,-0.3596595,0.044589,1.0991324999999998,-0.3564795,0.032897,0.8873425,-0.6747795,0.079709,1.1053825,-0.6816795,0.075288
47,1.0108005,0.7417119999999999,0.0580495,0.8342485,0.504042,0.0270895,0.6847985000000001,0.615142,-0.0774965,1.1725385,0.517622,0.0045445,1.3053085,0.674082,-0.1144464999999999,0.6735885000000001,0.818782,-0.1389965,1.3280685,0.889362,-0.1910965,0.9261705000000001,0.0012129999999999,0.0026625,1.0738295,-0.001213,-0.0026624999999999,0.8943955,-0.362448,0.0446995,1.0990484999999999,-0.360008,0.0330695,0.8871185,-0.678548,0.0798215,1.1051885,-0.685978,0.0754265
48,1.011291,0.7386395,0.05833,0.833845,0.5053795,0.028793,0.687775,0.6264595,-0.068224,1.172185,0.5191795,0.005769,1.301175,0.6842794999999999,-0.106024,0.673265,0.8346895,-0.1256239999999999,1.328235,0.9060495,-0.176304,0.926336,0.0012924999999999,0.002548,1.073664,-0.0012925,-0.002548,0.894454,-0.3650505,0.044888,1.099025,-0.3630705,0.033315,0.887005,-0.6820805,0.0800019999999999,1.105015,-0.6898005,0.075678
49,1.011872,0.7353065,0.0586855,0.8335230000000001,0.5076365,0.0313135,0.691343,0.6377065000000001,-0.0587115,1.171923,0.5206565000000001,0.0075784999999999,1.296973,0.6938065,-0.0967825,0.673273,0.8476765,-0.1117524999999999,1.328723,0.9170265,-0.1605025,0.926456,0.0013955,0.0023714999999999,1.073544,-0.0013955,-0.0023714999999999,0.894569,-0.3676934999999999,0.0451784999999999,1.099083,-0.3662935,0.0336965,0.886953,-0.6859735,0.0802975,1.104973,-0.6942035,0.0760565
50,1.0124769999999998,0.732057,0.059115,0.833411,0.509397,0.0337419999999999,0.695111,0.6483869999999999,-0.0494939999999999,1.171831,0.521837,0.0094409999999999,1.293531,0.701657,-0.088437,0.673601,0.8586469999999999,-0.0984469999999999,1.329221,0.925987,-0.145417,0.926523,0.001508,0.0020579999999999,1.073477,-0.0015079999999999,-0.002058,0.894724,-0.370033,0.0455519999999999,1.099201,-0.369433,0.034182,0.886961,-0.689873,0.080656,1.105011,-0.698563,0.0765079999999999
51,1.013144,0.7292029999999999,0.0594945,0.8335170000000001,0.511613,0.0363125,0.6989369999999999,0.657743,-0.0411664999999999,1.171827,0.522813,0.0111435,1.290627,0.7082729999999999,-0.0808425,0.674087,0.868223,-0.0859825,1.329777,0.934153,-0.1312525,0.926511,0.0016289999999999,0.0017505,1.073489,-0.001629,-0.0017505,0.894983,-0.371817,0.0458205,1.099337,-0.372267,0.0345565,0.8870169999999999,-0.6934670000000001,0.0809685,1.105227,-0.702647,0.0768495
52,1.0138,0.7266410000000001,0.059742,0.833683,0.513671,0.038708,0.702813,0.666941,-0.033566,1.171803,0.5237010000000001,0.012629,1.288063,0.713901,-0.074275,0.674553,0.8765510000000001,-0.074435,1.3307529999999999,0.939671,-0.117865,0.9265140000000001,0.001759,0.0014899999999999,1.073486,-0.0017589999999999,-0.0014899999999999,0.895244,-0.373389,0.046036,1.099453,-0.374809,0.03488,0.887093,-0.696649,0.081269,1.105443,-0.7063889999999999,0.077102
53,1.0144009999999999,0.7242785,0.0598765,0.833868,0.5157585,0.0409384999999999,0.706758,0.6752085,-0.0266315,1.171838,0.5242185,0.0139185,1.285978,0.7189385,-0.0684025,0.675018,0.8840985,-0.0634315,1.332168,0.9461785,-0.1062325,0.926552,0.0018794999999999,0.0013094999999999,1.073448,-0.0018794999999999,-0.0013094999999999,0.895511,-0.3749015,0.0461655,1.099588,-0.3771115,0.0351135,0.887148,-0.6996114999999999,0.0814915,1.105688,-0.7100415,0.0771485
54,1.0150169999999998,0.7221675000000001,0.059949,0.8340580000000001,0.5180475,0.043209,0.710958,0.6824775000000001,-0.020773,1.171958,0.5243175,0.0148839999999999,1.284208,0.7222275,-0.063134,0.675708,0.8906875000000001,-0.053432,1.334198,0.9530575,-0.095289,0.926621,0.0020025,0.0011949999999999,1.073379,-0.0020024999999999,-0.001195,0.895856,-0.3761925,0.046223,1.099798,-0.3790725,0.0352079999999999,0.887298,-0.7023725,0.081615,1.106058,-0.7133925,0.077128
55,1.015595,0.720263,0.0599745,0.834307,0.519833,0.0451895,0.7154370000000001,0.6896129999999999,-0.0155275,1.172127,0.524073,0.0156685,1.2826469999999999,0.724223,-0.0586095,0.6765369999999999,0.8963329999999999,-0.0445505,1.3365770000000001,0.959963,-0.0860134999999999,0.926666,0.002116,0.0011434999999999,1.073334,-0.002116,-0.0011434999999999,0.896208,-0.377277,0.0462044999999999,1.100037,-0.3808669999999999,0.0352085,0.8874970000000001,-0.704937,0.0816554999999999,1.106457,-0.716597,0.0769405
56,1.016138,0.7185295,0.059948,0.834798,0.5220495,0.0471139999999999,0.719838,0.6962695,-0.011242,1.1723279999999998,0.5238195,0.016305,1.2814079999999999,0.7254695,-0.054558,0.677358,0.8979695,-0.037971,1.339308,0.9607695,-0.079078,0.926692,0.0022365,0.0011369999999999,1.073308,-0.0022364999999999,-0.0011369999999999,0.896594,-0.3779705,0.0460659999999999,1.1002480000000001,-0.3824404999999999,0.035067,0.8877180000000001,-0.7072305,0.0816409999999999,1.106828,-0.7192105,0.07664
57,1.016672,0.7168614999999999,0.0599275,0.8351500000000001,0.5242414999999999,0.0490585,0.7241,0.7020415,-0.0075264999999999,1.17257,0.5237815,0.0170295,1.28047,0.7261015,-0.0511525,0.67826,0.8995115,-0.0317255,1.34212,0.9613015,-0.0726084999999999,0.926693,0.0023694999999999,0.0011364999999999,1.073307,-0.0023695,-0.0011364999999999,0.897008,-0.3786485,0.0459675,1.10052,-0.3841584999999999,0.0350565,0.88798,-0.7094985,0.0816305,1.10727,-0.7218185,0.0762935
58,1.017046,0.7159545,0.0599125,0.83567,0.5253045000000001,0.0500445,0.72778,0.7068745000000001,-0.0049005,1.17283,0.5234645,0.0173954999999999,1.27996,0.7265745,-0.0488465,0.6793100000000001,0.9014145,-0.0273344999999999,1.34433,0.9623445,-0.0685685,0.926658,0.0024845,0.0011385,1.073342,-0.0024845,-0.0011385,0.897366,-0.3788555,0.0459535,1.10078,-0.3850355,0.0350465,0.88823,-0.7109555,0.0816215,1.10772,-0.7235355,0.0760224999999999
59,1.0173855,0.715147,0.0598995,0.8360704999999999,0.526667,0.0510385,0.7312105,0.7110070000000001,-0.0028774999999999,1.1731205,0.522987,0.0176595,1.2796604999999999,0.726807,-0.0470674999999999,0.6806004999999999,0.903117,-0.0238265,1.3461905,0.962887,-0.0654535,0.9266335,0.0025769999999999,0.0011725,1.0733665000000001,-0.002577,-0.0011725,0.8977365,-0.379053,0.0459055,1.1010705,-0.385803,0.0350015,0.8885205,-0.7123229999999999,0.0815965,1.1082105,-0.7251529999999999,0.0757115
60,1.017681,0.714358,0.059864,0.836668,0.5279579999999999,0.051854,0.7343580000000001,0.714318,-0.0015369999999999,1.173378,0.522648,0.017857,1.279468,0.726818,-0.045875,0.681968,0.904938,-0.0210889999999999,1.347688,0.962718,-0.063495,0.926637,0.002679,0.00126,1.073363,-0.0026789999999999,-0.0012599999999999,0.8980720000000001,-0.379312,0.045734,1.101348,-0.386482,0.034853,0.888768,-0.713562,0.081493,1.108658,-0.726772,0.075327
61,1.017957,0.7137205,0.059897,0.8375509999999999,0.5293105,0.052527,0.737201,0.7164505,-0.000745,1.173581,0.5225605,0.0180689999999999,1.2793510000000001,0.7265605,-0.045307,0.683601,0.9054305,-0.019828,1.348571,0.9622905,-0.06262,0.92665,0.0027495,0.00139,1.07335,-0.0027495,-0.00139,0.898385,-0.3795195,0.045439,1.101571,-0.3870995,0.034645,0.889011,-0.7147095,0.081291,1.109091,-0.7283995,0.074802
62,1.0182005,0.7133175,0.059952,0.8383455,0.5302875,0.052957,0.7396055,0.7185375,-0.0003299999999999,1.1737255,0.5226075,0.018201,1.2792855,0.7262775,-0.0451019999999999,0.6851755000000002,0.9055875,-0.0190769999999999,1.3490855,0.9620475,-0.0624919999999999,0.9266575,0.0027984999999999,0.001537,1.0733425,-0.0027985,-0.0015369999999999,0.8986395000000001,-0.3796425,0.045147,1.1017355,-0.3875425,0.034385,0.8891955,-0.7158025,0.081033,1.1094555,-0.7296925,0.074329
63,1.018381,0.7129785,0.059958,0.839017,0.5311385,0.053243,0.741287,0.7202885,-0.0004519999999999,1.173807,0.5227485,0.018257,1.279217,0.7259185,-0.045194,0.686617,0.9051685,-0.0193939999999999,1.349237,0.9615285,-0.062896,0.926681,0.0028364999999999,0.001697,1.073319,-0.0028365,-0.0016969999999999,0.898827,-0.3801015,0.04481,1.101857,-0.3879615,0.034137,0.889317,-0.7168315,0.080722,1.109757,-0.7308315,0.07384
64,1.0185164999999998,0.712824,0.0599835,0.8395935,0.531914,0.0534105,0.7423635,0.721054,-0.0009044999999999,1.1738835,0.523134,0.0182975,1.2791735,0.725654,-0.0453724999999999,0.6881735,0.904824,-0.0198644999999999,1.3493635,0.961294,-0.0632114999999999,0.9267035,0.0028689999999999,0.0018475,1.0732965,-0.002869,-0.0018474999999999,0.8989785,-0.380406,0.0444735,1.1019534999999998,-0.388206,0.0338845,0.8894235,-0.7175659999999999,0.0804045,1.1100235,-0.731716,0.0733425
65,1.0186045,0.7126305000000001,0.0600254999999999,0.8401164999999999,0.5324805,0.0534664999999999,0.7430365,0.7212705,-0.0013685,1.1739164999999998,0.5232805,0.0182264999999999,1.2790965,0.7252405000000001,-0.0456495,0.6897165000000001,0.9044205,-0.0203625,1.3494365,0.9608205,-0.0636085,0.9267295,0.0029005,0.0019884999999999,1.0732705,-0.0029005,-0.0019885,0.8990705,-0.3809095,0.0441525,1.1019965,-0.3885195,0.0335984999999999,0.8894465,-0.7183394999999999,0.0800835,1.1102365,-0.7325594999999999,0.0728304999999999
66,1.0186365,0.712474,0.060057,0.8405665,0.532994,0.053442,0.7434365000000001,0.721024,-0.0018199999999999,1.1738565,0.523664,0.018258,1.2789665000000001,0.724834,-0.045942,0.6911865000000001,0.903834,-0.020856,1.3494565,0.960184,-0.063956,0.9267585,0.002934,0.002105,1.0732415,-0.0029339999999999,-0.0021049999999999,0.8991505,-0.3813459999999999,0.043964,1.1019765,-0.388816,0.03336,0.8894165,-0.719166,0.07975,1.1103865,-0.733316,0.072321
67,1.018652,0.7123174999999999,0.0601305,0.8409440000000001,0.5334774999999999,0.0533855,0.743674,0.7206075,-0.0022754999999999,1.173794,0.5237474999999999,0.0182295,1.278764,0.7243875,-0.0463345,0.6924840000000001,0.9031775,-0.0214694999999999,1.348984,0.9601275,-0.0643384999999999,0.926775,0.0029575,0.0021835,1.073225,-0.0029575,-0.0021834999999999,0.899201,-0.3817625,0.0438265,1.101954,-0.3893824999999999,0.0331685,0.8893840000000001,-0.7200225,0.0794675,1.110494,-0.7341225,0.0718645
68,1.018657,0.7124385,0.0602485,0.841261,0.5337685,0.0532505,0.7438009999999999,0.7202985,-0.0028294999999999,1.1737009999999999,0.5241485,0.0182735,1.278491,0.7241285,-0.0466584999999999,0.693711,0.9027285,-0.0221125,1.3479009999999998,0.9601685,-0.0651335,0.926777,0.0030094999999999,0.0022385,1.073223,-0.0030094999999999,-0.0022384999999999,0.899263,-0.3821415,0.0437595,1.101931,-0.3897615,0.0330815,0.889341,-0.7205915,0.0792425,1.1105809999999998,-0.7347715,0.0714785
69,1.018663,0.7126680000000001,0.0604064999999999,0.841441,0.533858,0.0530224999999999,0.743881,0.720078,-0.0033705,1.1736010000000001,0.5243680000000001,0.0182924999999999,1.2781609999999999,0.7240380000000001,-0.0469175,0.6948310000000001,0.902368,-0.0229305,1.346571,0.960428,-0.0660325,0.926778,0.003044,0.0022644999999999,1.073222,-0.0030439999999999,-0.0022645,0.899316,-0.382452,0.0437384999999999,1.101911,-0.390042,0.0330054999999999,0.889291,-0.721092,0.0790865,1.110641,-0.735302,0.0711624999999999
70,1.018646,0.7129015000000001,0.060501,0.841555,0.5338315,0.052825,0.743895,0.7199615,-0.003943,1.173485,0.5244715,0.018239,1.277785,0.7242015,-0.047101,0.695525,0.9019115,-0.023985,1.345015,0.9608015,-0.066848,0.9267970000000001,0.0030914999999999,0.0022739999999999,1.073203,-0.0030915,-0.002274,0.8993500000000001,-0.3826185,0.0437269999999999,1.101875,-0.3902084999999999,0.032977,0.889215,-0.7214385,0.078991,1.110695,-0.7356885,0.070946
71,1.0185875,0.7131095,0.0605809999999999,0.8415645,0.5336595,0.0526529999999999,0.7438145,0.7197995,-0.00451,1.1732845,0.5245295,0.0182129999999999,1.2773444999999999,0.7245895,-0.047251,0.6960445,0.9013295,-0.024967,1.3433445,0.9611995,-0.067424,0.9268105000000001,0.0031434999999999,0.0022709999999999,1.0731894999999998,-0.0031435,-0.002271,0.8993495,-0.3827705,0.0437209999999999,1.1017945,-0.3904205,0.0329689999999999,0.8891045,-0.7218905,0.0789089999999999,1.1107145,-0.7360005,0.070773
72,1.0184745,0.7133475,0.0607165,0.8415365000000001,0.5334074999999999,0.0525145,0.7437065,0.7196175,-0.0050184999999999,1.1730464999999999,0.5246175,0.0182235,1.2768665000000001,0.7251875,-0.0473914999999999,0.6964465,0.9006474999999999,-0.0258984999999999,1.3415765,0.9616475,-0.0677805,0.9268015000000001,0.0031754999999999,0.0022605,1.0731985,-0.0031754999999999,-0.0022604999999999,0.8993375,-0.3829025,0.0437255,1.1017065,-0.3905125,0.0329355,0.8889565,-0.7223425,0.0788835,1.1106965,-0.7362425,0.0706295
73,1.018372,0.7135595,0.0608735,0.841472,0.5331794999999999,0.0523455,0.743602,0.7193895,-0.0054405,1.172792,0.5246795,0.0182475,1.276372,0.7260395,-0.0475364999999999,0.696572,0.9002095,-0.0266884999999999,1.339762,0.9623195,-0.0679515,0.92679,0.0031844999999999,0.0022334999999999,1.07321,-0.0031845,-0.0022334999999999,0.8993059999999999,-0.3830305,0.0437365,1.101602,-0.3906705,0.0328875,0.8888020000000001,-0.7227505000000001,0.0788755,1.110662,-0.7365205,0.0704805
74,1.018298,0.713819,0.0610305,0.841379,0.5330189999999999,0.0522085,0.743509,0.719229,-0.0058524999999999,1.172559,0.5248889999999999,0.0183835,1.2758589999999999,0.726939,-0.0476365,0.6964589999999999,0.899929,-0.0273544999999999,1.337849,0.962859,-0.0679635,0.926777,0.0031909999999999,0.0022095,1.073223,-0.0031909999999999,-0.0022094999999999,0.899278,-0.383031,0.0437405,1.101499,-0.390731,0.0328575,0.888679,-0.7229610000000001,0.0788925,1.110619,-0.7366510000000001,0.0703975
75,1.0182235,0.7140285000000001,0.061271,0.8412845000000001,0.5328185,0.051993,0.7433445000000001,0.7190785000000001,-0.0062409999999999,1.1723545,0.5251685,0.018572,1.2753645,0.7277985,-0.0477139999999999,0.6963645,0.8996585,-0.02778,1.3358345,0.9634085,-0.06794,0.9267635,0.0031904999999999,0.002182,1.0732365,-0.0031904999999999,-0.0021819999999999,0.8992115,-0.3829114999999999,0.043706,1.1013945,-0.3907815,0.03284,0.8885645000000001,-0.7231515,0.078936,1.1105345,-0.7367015,0.070341
76,1.0181565,0.7141854999999999,0.06153,0.8411985000000001,0.5325454999999999,0.051761,0.7431285000000001,0.7189254999999999,-0.006648,1.1721585,0.5254555000000001,0.0187939999999999,1.2749285,0.7287554999999999,-0.047739,0.6962785,0.8994755000000001,-0.028108,1.3341285,0.9642055,-0.0679009999999999,0.9267485,0.0031844999999999,0.002159,1.0732515,-0.0031845,-0.002159,0.8991565,-0.3828345,0.043684,1.1013085,-0.3907745,0.032834,0.8884885,-0.7233544999999999,0.078915,1.1104685,-0.7366945,0.070333
77,1.018033,0.7142845,0.061884,0.841116,0.5322045,0.051556,0.742836,0.7187645,-0.0070599999999999,1.171956,0.5257645,0.019025,1.274566,0.7296845000000001,-0.04776,0.696186,0.8994245000000001,-0.0283959999999999,1.332586,0.9651245,-0.067554,0.926731,0.0031634999999999,0.0021569999999999,1.073269,-0.0031634999999999,-0.0021569999999999,0.899084,-0.3826655,0.043684,1.1012359999999999,-0.3907355,0.032834,0.888416,-0.7234455,0.078881,1.110396,-0.7366855000000001,0.070356
78,1.0178809999999998,0.7143835,0.0621925,0.841014,0.5317835,0.0513265,0.742534,0.7185435,-0.0074585,1.171754,0.5260435,0.0192205,1.274254,0.7305735,-0.0477445,0.695954,0.8994034999999999,-0.0286714999999999,1.3312140000000001,0.9659635,-0.0671765,0.9267120000000001,0.0031414999999999,0.0021575,1.0732879999999998,-0.0031415,-0.0021574999999999,0.899017,-0.3823965,0.0436865,1.1011739999999999,-0.3906765,0.0328365,0.888354,-0.7234065000000001,0.0788915,1.110334,-0.7366365,0.0704005
79,1.0176635,0.7145,0.062546,0.8408765000000001,0.53129,0.051155,0.7421965000000001,0.71828,-0.007842,1.1715665,0.5263300000000001,0.019412,1.2739865,0.73131,-0.0477709999999999,0.6954765,0.8993300000000001,-0.0289999999999999,1.3300465,0.96681,-0.0668639999999999,0.9266945,0.003117,0.002156,1.0733055,-0.0031169999999999,-0.0021559999999999,0.8989445000000001,-0.38222,0.043672,1.1011065,-0.3905999999999999,0.032841,0.8883065,-0.7233299999999999,0.0789219999999999,1.1102764999999999,-0.7365499999999999,0.070465
80,1.017373,0.7146255,0.062993,0.840728,0.5307555,0.05101,0.741798,0.7178755,-0.0081929999999999,1.1713879999999999,0.5266255,0.019653,1.273688,0.7318555,-0.047751,0.694758,0.8992055,-0.0293219999999999,1.328848,0.9674455,-0.066508,0.9266719999999999,0.0030794999999999,0.002114,1.073328,-0.0030794999999999,-0.0021139999999999,0.898842,-0.3820345,0.043613,1.101028,-0.3903844999999999,0.032804,0.888238,-0.7232745,0.078999,1.110218,-0.7364745,0.070574
81,1.017063,0.7147555000000001,0.0635215,0.840542,0.5301355000000001,0.0508505,0.741382,0.7174355000000001,-0.0084704999999999,1.171222,0.5268955,0.0199315,1.273422,0.7322555,-0.0476525,0.693932,0.8990255,-0.0296514999999999,1.3277320000000001,0.9680855000000002,-0.0661935,0.926647,0.0030384999999999,0.0020545,1.073353,-0.0030384999999999,-0.0020545,0.8987260000000001,-0.3817645,0.0435345,1.100942,-0.3901445,0.0327865,0.888202,-0.7231745,0.0791095,1.110142,-0.7363645000000001,0.0707445
82,1.0167625,0.7149005,0.064094,0.8403115,0.5295405000000001,0.050704,0.7409615,0.7169905000000001,-0.0087469999999999,1.1710715,0.5271505000000001,0.020219,1.2731315,0.7324105000000001,-0.047531,0.6931115,0.8987905,-0.0299769999999999,1.3266715,0.9686305,-0.065804,0.9266275,0.0030025,0.001996,1.0733725,-0.0030024999999999,-0.0019959999999999,0.8986225,-0.3814995,0.043434,1.1008815,-0.3899195,0.032772,0.8881415,-0.7232295,0.0792259999999999,1.1100415,-0.7362095,0.070914
83,1.016466,0.715047,0.0647285,0.840083,0.529067,0.0506495,0.7405130000000001,0.716567,-0.0089565,1.170913,0.527297,0.0204755,1.272893,0.732547,-0.0473755,0.692283,0.898547,-0.0303004999999999,1.3258429999999999,0.968977,-0.0655025,0.926612,0.0029729999999999,0.0019155,1.073388,-0.002973,-0.0019155,0.898533,-0.381383,0.0433675,1.1008429999999998,-0.389683,0.0327695,0.888103,-0.723313,0.0793234999999999,1.109963,-0.736083,0.0710765
84,1.0161935,0.715182,0.065317,0.8398645,0.528682,0.050676,0.7400845,0.716212,-0.009096,1.1707545,0.527392,0.020732,1.2726345000000001,0.7326619999999999,-0.0472009999999999,0.6914644999999999,0.898292,-0.0305679999999999,1.3250945,0.969022,-0.0652809999999999,0.9266004999999999,0.0029449999999999,0.001811,1.0733995,-0.002945,-0.001811,0.8984545,-0.381308,0.043322,1.1007745,-0.3894579999999999,0.032785,0.8880745,-0.723348,0.079471,1.1098945,-0.735858,0.071271
85,1.0159215,0.7153235,0.065856,0.8396705,0.5283735,0.0507499999999999,0.7396505,0.7158835,-0.009204,1.1706005,0.5274835,0.0209889999999999,1.2723905,0.7327835,-0.047067,0.6906905,0.8980335,-0.0308729999999999,1.3244605,0.9691635,-0.065054,0.9265915,0.0029155,0.001714,1.0734085,-0.0029154999999999,-0.001714,0.8983535,-0.3812865,0.043286,1.1007105,-0.3892265,0.032774,0.8881005,-0.7233365,0.07957,1.1098305,-0.7356765,0.071471
86,1.015702,0.7154465,0.0662379999999999,0.839498,0.5280865,0.05083,0.7392780000000001,0.7155465000000001,-0.009284,1.170458,0.5275365000000001,0.0212259999999999,1.272118,0.7329165000000001,-0.047013,0.6901079999999999,0.8976565000000001,-0.031293,1.323918,0.9693065,-0.064826,0.926581,0.0028915,0.0016109999999999,1.073419,-0.0028914999999999,-0.001611,0.898257,-0.3812934999999999,0.0432749999999999,1.1006779999999998,-0.3889935,0.0327649999999999,0.8881380000000001,-0.7233235,0.079674,1.109798,-0.7356334999999999,0.071654
87,1.015511,0.715551,0.0665645,0.839349,0.5278309999999999,0.0509005,0.738909,0.715311,-0.0093824999999999,1.170339,0.5275909999999999,0.0214305,1.2718690000000001,0.733041,-0.0469695,0.6895790000000002,0.8972610000000001,-0.0317704999999999,1.323359,0.969251,-0.0647295,0.926576,0.0028669999999999,0.0015175,1.073424,-0.002867,-0.0015174999999999,0.898164,-0.381279,0.0432545,1.100669,-0.388639,0.0326895,0.888189,-0.7231890000000001,0.0797675,1.109769,-0.735609,0.0718375
88,1.0153439999999998,0.7156435,0.066797,0.8392040000000001,0.5275935,0.0509499999999999,0.7385740000000001,0.7151335,-0.00951,1.170214,0.5276435,0.0216089999999999,1.271624,0.7331535,-0.0469679999999999,0.6892739999999999,0.8970935,-0.0322449999999999,1.322794,0.9691935,-0.064779,0.926569,0.0028395,0.0014179999999999,1.073431,-0.0028394999999999,-0.001418,0.8980720000000001,-0.3812465,0.043223,1.1006239999999998,-0.3883065,0.0325979999999999,0.888224,-0.7230765,0.0798619999999999,1.109714,-0.7355865,0.0720099999999999
89,1.015226,0.7157180000000001,0.0668945,0.839094,0.527408,0.0509275,0.738294,0.715098,-0.0097514999999999,1.170144,0.527688,0.0217035,1.271414,0.733268,-0.0470945,0.689244,0.896838,-0.0329034999999999,1.322414,0.968958,-0.0650814999999999,0.926567,0.002819,0.0013285,1.073433,-0.002819,-0.0013284999999999,0.898024,-0.381202,0.0431985,1.100624,-0.388122,0.0324935,0.8882740000000001,-0.722982,0.0798735,1.109674,-0.735622,0.0720615
90,1.015121,0.7157500000000001,0.0669475,0.839005,0.52732,0.0509315,0.737995,0.71506,-0.0101605,1.170035,0.52772,0.0217144999999999,1.271225,0.7333400000000001,-0.0473014999999999,0.689215,0.8966799999999999,-0.0336435,1.322065,0.96872,-0.0656135,0.926565,0.0027959999999999,0.0012795,1.073435,-0.002796,-0.0012795,0.89798,-0.38124,0.0431305,1.100615,-0.38804,0.0323445,0.888325,-0.7229099999999999,0.0798305,1.109665,-0.73566,0.0720215
91,1.015025,0.7157835,0.066992,0.8389070000000001,0.5272635,0.050917,0.737727,0.7150335,-0.010594,1.169927,0.5277535,0.021713,1.2710569999999999,0.7334135,-0.047552,0.6891769999999999,0.8964435000000001,-0.034455,1.321817,0.9684935,-0.06632,0.926563,0.0027864999999999,0.0012389999999999,1.073437,-0.0027864999999999,-0.001239,0.8979360000000001,-0.3812665,0.0430959999999999,1.1005969999999998,-0.3880665,0.032167,0.888367,-0.7228165,0.079818,1.109657,-0.7356865,0.071997
92,1.0149505,0.7158214999999999,0.0669635,0.8388115,0.5272015000000001,0.0508455,0.7374915,0.7150114999999999,-0.0111215,1.1698015,0.5277915,0.0216085,1.2709215,0.7334814999999999,-0.0478535,0.6892215000000002,0.8964215,-0.0353445,1.3217515,0.9683715,-0.0671205,0.9265585000000001,0.0027734999999999,0.0012394999999999,1.0734415,-0.0027735,-0.0012395,0.8979045,-0.3813185,0.0430134999999999,1.1005715,-0.3880885,0.0319715,0.8884215,-0.7228384999999999,0.0796985,1.1096415,-0.7358285,0.0718834999999999
93,1.0148775,0.7158914999999999,0.0667825,0.8387245,0.5271714999999999,0.0507435,0.7372745,0.7150715000000001,-0.0117185,1.1696745,0.5278514999999999,0.0214715,1.2708045000000001,0.7335915,-0.0482265,0.6894045,0.8964215,-0.0363015,1.3217245,0.9683715,-0.0680265,0.9265615,0.0027734999999999,0.0012134999999999,1.0734385,-0.0027735,-0.0012134999999999,0.8978425,-0.3815785,0.0428965,1.1005445,-0.3880985,0.0317275,0.8884745000000001,-0.7228885,0.0795174999999999,1.1096145,-0.7360884999999999,0.0716255
94,1.014834,0.7159415,0.0664235,0.838634,0.5271215,0.0505715,0.737134,0.7151514999999999,-0.0124214999999999,1.169564,0.5279115000000001,0.0212755,1.270714,0.7336415000000001,-0.0487014999999999,0.689724,0.8964215,-0.0374444999999999,1.321704,0.9682715,-0.0690375,0.926569,0.0027734999999999,0.0011325,1.073431,-0.0027735,-0.0011324999999999,0.8977430000000001,-0.3818685,0.0427085,1.100474,-0.3882685,0.0313525,0.8884740000000001,-0.7230084999999999,0.0792765,1.109574,-0.7365284999999999,0.0712685
95,1.0147935,0.7159415,0.0658779999999999,0.8386595,0.5270714999999999,0.0502989999999999,0.7370895,0.7151615,-0.0133129999999999,1.1694795,0.5279814999999999,0.020979,1.2706795,0.7337115000000001,-0.0493309999999999,0.6901195,0.8963114999999999,-0.038763,1.3216795000000001,0.9681715,-0.070363,0.9265665,0.0027734999999999,0.0010169999999999,1.0734335,-0.0027735,-0.0010169999999999,0.8975545,-0.3821785,0.042277,1.1004095,-0.3887585,0.030598,0.8884895,-0.7231384999999999,0.078836,1.1095195,-0.7369985000000001,0.070786
96,1.01479,0.715967,0.0650505,0.838708,0.5270570000000001,0.0498705,0.7371179999999999,0.715147,-0.0144255,1.169428,0.5280670000000001,0.0205235,1.270678,0.7337370000000001,-0.0502054999999999,0.690658,0.896177,-0.0402525,1.321818,0.967997,-0.0720065,0.926563,0.002777,0.0008955,1.073437,-0.002777,-0.0008955,0.897267,-0.382583,0.0414725,1.100288,-0.389383,0.0293715,0.888528,-0.723263,0.0782305,1.109478,-0.7375130000000001,0.0701075
97,1.0148154999999999,0.71602,0.063918,0.8387585000000001,0.52707,0.049235,0.7371384999999999,0.7151500000000001,-0.015816,1.1693885,0.52815,0.019874,1.2706785,0.73379,-0.051333,0.6913285,0.8960600000000001,-0.042035,1.3220285,0.96785,-0.074091,0.9265535,0.0027699999999999,0.000771,1.0734465,-0.0027699999999999,-0.000771,0.8969225000000001,-0.38314,0.040197,1.1001085,-0.39013,0.027544,0.8885485,-0.7232799999999999,0.077307,1.1094185,-0.73808,0.0690689999999999
98,1.0148679999999999,0.716212,0.062375,0.8392180000000001,0.526832,0.047555,0.7372080000000001,0.715322,-0.01761,1.1693879999999999,0.528342,0.0188459999999999,1.270718,0.733982,-0.052856,0.692328,0.896192,-0.044251,1.322358,0.967442,-0.076651,0.926523,0.0027139999999999,0.0006679999999999,1.073477,-0.002714,-0.000668,0.8964570000000001,-0.383598,0.038332,1.1000379999999998,-0.390908,0.0250209999999999,0.888568,-0.723378,0.075804,1.109458,-0.738508,0.0675969999999999
99,1.014978,0.7163195,0.0605315,0.839606,0.5266495,0.0457005,0.737366,0.7155495,-0.0197215,1.169496,0.5285795,0.0176274999999999,1.270826,0.7341995,-0.0548235,0.6935359999999999,0.8964195,-0.0471445,1.3228360000000001,0.9672795,-0.0793805,0.92647,0.0026204999999999,0.0006124999999999,1.07353,-0.0026204999999999,-0.0006125,0.895868,-0.3837605,0.0357845,1.100106,-0.3918105,0.0214245,0.888706,-0.7234905,0.0738685,1.109596,-0.7388805,0.0657835
100,1.0150955,0.7162145,0.0583135,0.8401535,0.5265145,0.0434125,0.7376134999999999,0.7157745,-0.0221735,1.1696135,0.5288744999999999,0.0161015,1.2709234999999999,0.7342845,-0.0571765,0.6949135,0.8966544999999999,-0.0503625,1.3234035,0.9669745,-0.0824385,0.9263315,0.0024874999999999,0.0005875,1.0736685,-0.0024875,-0.0005874999999999,0.8950485,-0.3838255,0.0322005,1.1001735,-0.3927055,0.0168735,0.8888635,-0.7236855,0.0715135,1.1097335,-0.7393155,0.0635315
101,1.015207,0.716023,0.055523,0.840735,0.5264829999999999,0.04063,0.738145,0.715343,-0.0252569999999999,1.1697449999999998,0.529373,0.0140689999999999,1.270955,0.734173,-0.060143,0.6963550000000001,0.8964129999999999,-0.0540959999999999,1.323675,0.9666829999999998,-0.085712,0.926159,0.0023579999999999,0.000503,1.073841,-0.0023579999999999,-0.000503,0.894115,-0.3835369999999999,0.0277359999999999,1.100185,-0.393377,0.01116,0.889015,-0.723727,0.068627,1.109855,-0.7396670000000001,0.0606209999999999
102,1.0153295,0.715012,0.0516915,0.8413875,0.526732,0.0368585,0.7389375,0.714132,-0.0297175,1.1698775,0.530152,0.0110775,1.2708975,0.733392,-0.0639235,0.6979075,0.895862,-0.0589725,1.3238075,0.967012,-0.0895335,0.9259265,0.002283,0.0003545,1.0740735,-0.0022829999999999,-0.0003544999999999,0.8929075,-0.382858,0.0212945,1.1002875,-0.393378,0.0035315,0.8891775,-0.723358,0.0643955,1.1100575,-0.739788,0.0562675
103,1.015434,0.714237,0.0471775,0.842458,0.5248569999999999,0.0318995,0.7397279999999999,0.7131369999999999,-0.0348275,1.169848,0.5299769999999999,0.0074295,1.270838,0.732807,-0.0682465,0.699378,0.895837,-0.0644454999999999,1.323898,0.967857,-0.0945314999999999,0.925635,0.002156,0.0003884999999999,1.074365,-0.0021559999999999,-0.0003884999999999,0.891568,-0.3813229999999999,0.0138575,1.1007479999999998,-0.392173,-0.0051924999999999,0.889198,-0.7220629999999999,0.0593275,1.110358,-0.739053,0.0510045
104,1.0155375,0.7131415,0.0422214999999999,0.8435745,0.5229215,0.0264035,0.7405445000000002,0.7120015000000001,-0.0403585,1.1697045,0.5298615,0.0033884999999999,1.2706445,0.7317115000000001,-0.0730465,0.7008345,0.8968415000000001,-0.0702434999999999,1.3240045,0.9684115,-0.0998105,0.9253155,0.0020415,0.0003575,1.0746845,-0.0020415,-0.0003575,0.8900745,-0.3787885,0.0056814999999999,1.1014445,-0.3897084999999999,-0.0146115,0.8892045,-0.7199085,0.0535995,1.1106645,-0.7372885,0.0452255
105,1.015638,0.7121495,0.0366795,0.844892,0.5212695,0.0200755,0.741392,0.7112795000000001,-0.0465864999999999,1.169452,0.5292595,-0.0012825,1.270012,0.7294695,-0.0784875,0.7021920000000001,0.8988195,-0.0767945,1.323902,0.9677595,-0.1055495,0.924953,0.0020015,0.0002955,1.075047,-0.0020015,-0.0002955,0.888362,-0.3749905,-0.0035954999999999,1.102452,-0.3863105,-0.0249334999999999,0.889222,-0.7164705,0.0469765,1.111112,-0.7341905,0.0386775
106,1.0156379999999998,0.7105945,0.0309964999999999,0.846178,0.5203645,0.0133854999999999,0.7422679999999999,0.7100345,-0.0530545,1.1691079999999998,0.5289045,-0.0062105,1.2693279999999998,0.7275745,-0.0842504999999999,0.703668,0.8976645,-0.0840355,1.323688,0.9635645,-0.1118685,0.924593,0.0019165,0.0002604999999999,1.075407,-0.0019165,-0.0002605,0.886158,-0.3705055,-0.0137325,1.103768,-0.3823455,-0.0359704999999999,0.889168,-0.7121955,0.0399035,1.111528,-0.7299755,0.0315864999999999
107,1.0155599999999998,0.7087595,0.0253355,0.8472,0.5185095,0.0073245,0.7431000000000001,0.7090395,-0.0595295,1.16867,0.5271895,-0.0110545,1.26852,0.7258095,-0.0902164999999999,0.7050200000000001,0.8967595,-0.0913885,1.32333,0.9610895,-0.1180885,0.924193,0.0018644999999999,0.0002115,1.075807,-0.0018644999999999,-0.0002115,0.88364,-0.3656305,-0.0248945,1.10531,-0.3772405,-0.0477725,0.88899,-0.7066405,0.0324955,1.11191,-0.7243805,0.0240405
108,1.015383,0.7072635,0.0196895,0.848392,0.5163635,0.0014504999999999,0.7437819999999999,0.7087535,-0.0662225,1.1679719999999998,0.5258935,-0.0158535,1.2676020000000001,0.7247735000000001,-0.0960845,0.706162,0.8965335,-0.0984905,1.322752,0.9604735,-0.1241545,0.923759,0.0018145,0.0001834999999999,1.076241,-0.0018144999999999,-0.0001835,0.881082,-0.3590065,-0.0363265,1.106992,-0.3703665,-0.0596285,0.888772,-0.7000265,0.0242365,1.112202,-0.7167065,0.0159665
109,1.01524,0.7054414999999999,0.0139529999999999,0.849724,0.5138315,-0.004445,0.7442740000000001,0.7084515,-0.072699,1.1672539999999998,0.5241215,-0.020692,1.266724,0.7238815,-0.101948,0.7073240000000001,0.8963114999999999,-0.105575,1.3220239999999999,0.9607115,-0.130221,0.9234680000000001,0.0018244999999999,7.099999999999988e-05,1.0765319999999998,-0.0018245,-7.099999999999988e-05,0.878634,-0.3517485,-0.0479399999999999,1.108874,-0.3626585,-0.07147,0.888674,-0.6923385,0.0155279999999999,1.112544,-0.7078685,0.0076119999999999
110,1.0150975,0.7036399999999999,0.0082055,0.8511385,0.51176,-0.0102294999999999,0.7444885000000001,0.70806,-0.0792105,1.1664385,0.5216,-0.0254415,1.2659585,0.72388,-0.1078925,0.7084285,0.8974599999999999,-0.1126385,1.3213185,0.96233,-0.1363015,0.9231035,0.0017989999999999,0.0001524999999999,1.0768965,-0.001799,-0.0001524999999999,0.8761585000000001,-0.34343,-0.0600965,1.1108785,-0.35431,-0.0834695,0.8886985000000001,-0.68299,0.0067284999999999,1.1128185,-0.69745,-0.0010515
111,1.0148195,0.7028165000000001,0.002849,0.8524605000000001,0.5082265,-0.015745,0.7446805000000001,0.7089665,-0.0849989999999999,1.1655805,0.5190765,-0.029613,1.2652605000000001,0.7241165,-0.113339,0.7094305000000001,0.8980065,-0.1194109999999999,1.3200305,0.9630865,-0.142383,0.9227395,0.0017905,0.0003329999999999,1.0772605,-0.0017905,-0.0003329999999999,0.8737905,-0.3345634999999999,-0.07166,1.1126605,-0.3449835,-0.094669,0.8888005,-0.6721435,-0.001576,1.1129304999999998,-0.6850235,-0.008981
112,1.014587,0.7007380000000001,-0.001691,0.853446,0.507428,-0.020876,0.7449060000000001,0.7086680000000001,-0.090352,1.164826,0.5174380000000001,-0.033332,1.264496,0.723488,-0.118607,0.710216,0.897018,-0.125751,1.318506,0.962698,-0.148075,0.922307,0.001853,0.0003319999999999,1.077693,-0.001853,-0.000332,0.871596,-0.326212,-0.08288,1.114106,-0.336782,-0.105616,0.8890560000000001,-0.661202,-0.009398,1.113076,-0.672372,-0.01644
113,1.0143315,0.698417,-0.0058084999999999,0.8543324999999999,0.507317,-0.0256874999999999,0.7451525,0.707927,-0.0955724999999999,1.1641625,0.516077,-0.0368484999999999,1.2638625,0.722597,-0.1236105,0.7112125,0.895047,-0.1320865,1.3170525,0.962047,-0.1535544999999999,0.9218705,0.001967,0.0004005,1.0781295,-0.001967,-0.0004004999999999,0.8695925,-0.318313,-0.0941545,1.1151825,-0.329013,-0.1163635,0.8892425,-0.649803,-0.0169884999999999,1.1132325,-0.6592830000000001,-0.0237764999999999
114,1.0142605,0.6966405,-0.0095515,0.8550025,0.5048705,-0.0300105,0.7452725,0.7074205,-0.1005605,1.1635925,0.5124005,-0.0400335,1.2635425,0.7226805000000001,-0.1282715,0.7124125,0.8936705,-0.1382835,1.3161225,0.9599305,-0.1593235,0.9214145,0.0020335,0.0005215,1.0785855,-0.0020335,-0.0005215,0.8680725,-0.3097195,-0.1048035,1.1160825,-0.3201795,-0.1266445,0.8895025,-0.6374495,-0.0243335,1.1135525,-0.6452494999999999,-0.0309805
115,1.014293,0.694498,-0.0131519999999999,0.8558939999999999,0.501968,-0.0336039999999999,0.745554,0.706898,-0.105766,1.163114,0.509758,-0.0432529999999999,1.263364,0.721588,-0.132685,0.713534,0.896868,-0.144147,1.315394,0.962628,-0.165187,0.9210430000000001,0.002186,0.000685,1.078957,-0.002186,-0.0006849999999999,0.8671340000000001,-0.297882,-0.115164,1.117114,-0.307652,-0.1366129999999999,0.890004,-0.624322,-0.031483,1.1139439999999998,-0.630542,-0.0379199999999999
116,1.014435,0.691776,-0.016977,0.856785,0.499956,-0.036908,0.745865,0.7059759999999999,-0.110944,1.162785,0.5092260000000001,-0.046481,1.2632050000000001,0.720956,-0.136926,0.714485,0.895826,-0.150528,1.314675,0.964716,-0.170938,0.920688,0.0022449999999999,0.000826,1.079312,-0.0022449999999999,-0.000826,0.866555,-0.285304,-0.124608,1.117975,-0.295224,-0.145847,0.890565,-0.611314,-0.038272,1.114265,-0.616384,-0.044245
117,1.014371,0.6898555000000001,-0.0261269999999999,0.857754,0.4990854999999999,-0.045207,0.746444,0.7044855,-0.121326,1.162494,0.5077055,-0.054837,1.2628840000000001,0.7196155000000001,-0.146164,0.715454,0.8945255,-0.1622549999999999,1.313884,0.9650655,-0.181735,0.920457,0.0023204999999999,0.000877,1.079543,-0.0023205,-0.0008769999999999,0.865914,-0.2715745,-0.13887,1.118644,-0.2818845,-0.159735,0.891064,-0.5963444999999999,-0.0493809999999999,1.114334,-0.6013744999999999,-0.055129
118,1.014237,0.691125,-0.036706,0.858747,0.4983849999999999,-0.054365,0.746827,0.7043349999999999,-0.132735,1.161157,0.504875,-0.064345,1.262197,0.718205,-0.156623,0.7164470000000001,0.896845,-0.175233,1.3132169999999999,0.962525,-0.194473,0.920201,0.002325,0.0013429999999999,1.079799,-0.0023249999999999,-0.0013429999999999,0.863627,-0.254405,-0.157936,1.1194169999999999,-0.265435,-0.177643,0.891807,-0.578165,-0.061302,1.114457,-0.583145,-0.066781
119,1.0140895,0.6922299999999999,-0.046772,0.8596874999999999,0.49777,-0.063496,0.7471975,0.70489,-0.14383,1.1599375,0.50241,-0.073673,1.2613975,0.7142900000000001,-0.166467,0.7174475,0.8991800000000001,-0.187842,1.3126175,0.95835,-0.206722,0.9200565,0.0025499999999999,0.001698,1.0799435,-0.0025499999999999,-0.001698,0.8617075000000001,-0.23762,-0.176061,1.1201575,-0.24902,-0.1948119999999999,0.8927475,-0.5607800000000001,-0.072868,1.1146875,-0.5658700000000001,-0.077717
120,1.014047,0.695125,-0.0564595,0.86068,0.496165,-0.0728125,0.74778,0.703875,-0.1548585,1.1588999999999998,0.5000249999999999,-0.0832245,1.2606600000000001,0.7126049999999999,-0.1764785,0.71868,0.8987350000000001,-0.2010605,1.31291,0.956235,-0.2190705,0.919924,0.002655,0.0020374999999999,1.080076,-0.0026549999999999,-0.0020374999999999,0.8601300000000001,-0.2200949999999999,-0.1941505,1.1209500000000001,-0.231985,-0.2120004999999999,0.8938699999999999,-0.5428550000000001,-0.0842375,1.11504,-0.548295,-0.0884245
121,1.0139809999999998,0.698735,-0.066027,0.861396,0.4947549999999999,-0.082363,0.748386,0.704495,-0.1659479999999999,1.157776,0.497375,-0.092912,1.259776,0.711385,-0.186538,0.719706,0.899425,-0.214287,1.313356,0.954485,-0.231617,0.9197730000000001,0.0027749999999999,0.002359,1.0802269999999998,-0.0027749999999999,-0.002359,0.8584160000000001,-0.2024149999999999,-0.212137,1.121536,-0.214835,-0.228667,0.8948659999999999,-0.5244449999999999,-0.095382,1.115266,-0.530175,-0.098911
122,1.0141604999999998,0.700835,-0.075791,0.8623495,0.492255,-0.092261,0.7491795,0.7051850000000001,-0.177221,1.1568595,0.495035,-0.102851,1.2591495,0.707815,-0.196489,0.7210295,0.900465,-0.227665,1.3138795,0.950345,-0.244315,0.9197115,0.0027449999999999,0.0027049999999999,1.0802885,-0.0027449999999999,-0.002705,0.8569495,-0.1846749999999999,-0.229625,1.1222995,-0.1975549999999999,-0.245045,0.8960695,-0.505635,-0.106583,1.1155395,-0.511845,-0.109279
123,1.0138865,0.701125,-0.085466,0.8627435,0.492605,-0.101617,0.7494935,0.7036450000000001,-0.188186,1.1555935,0.495615,-0.112394,1.2584635,0.705295,-0.20618,0.7219135,0.898675,-0.2407,1.3139535,0.947995,-0.25688,0.9196955,0.002725,0.0030299999999999,1.0803045,-0.002725,-0.00303,0.8550135,-0.168145,-0.24666,1.1226535,-0.181305,-0.26075,0.8967435,-0.488005,-0.117271,1.1152935,-0.4947549999999999,-0.119236
124,1.0137655,0.70113,-0.095163,0.8631275,0.4915899999999999,-0.110955,0.7498075,0.70367,-0.19871,1.1541475,0.4933,-0.121684,1.2580475,0.7048099999999999,-0.2159,0.7227475,0.89466,-0.253845,1.3137775,0.94652,-0.269145,0.9196525,0.0026399999999999,0.0033149999999999,1.0803475,-0.00264,-0.003315,0.8531975,-0.15105,-0.263335,1.1228675,-0.16437,-0.276165,0.8972475,-0.4697,-0.12781,1.1148375,-0.4769799999999999,-0.12892
125,1.0136669999999999,0.70192,-0.1051179999999999,0.863453,0.49132,-0.1202699999999999,0.7501030000000001,0.70316,-0.2091529999999999,1.152613,0.49055,-0.130959,1.257653,0.70394,-0.2255339999999999,0.723583,0.8946999999999999,-0.2661599999999999,1.313453,0.94206,-0.2816999999999999,0.919725,0.0026499999999999,0.00358,1.080275,-0.00265,-0.00358,0.851413,-0.13297,-0.2797699999999999,1.122823,-0.14642,-0.29124,0.897613,-0.45072,-0.138158,1.114263,-0.4583399999999999,-0.138599
126,1.013809,0.7018599999999999,-0.10977,0.863994,0.48833,-0.124368,0.7507640000000001,0.70223,-0.214198,1.151184,0.48923,-0.135107,1.2577939999999999,0.7039,-0.23025,0.724484,0.89485,-0.272885,1.313384,0.93918,-0.289005,0.9196759999999999,0.00239,0.0038249999999999,1.080324,-0.00239,-0.003825,0.849884,-0.1161099999999999,-0.290735,1.122884,-0.12961,-0.300825,0.898024,-0.4331,-0.143064,1.113804,-0.44089,-0.142891
127,1.013965,0.6988350000000001,-0.1131039999999999,0.864288,0.486485,-0.1272869999999999,0.7514580000000001,0.6992750000000001,-0.217967,1.151278,0.486235,-0.1382489999999999,1.257258,0.700485,-0.233319,0.725518,0.8933650000000001,-0.27831,1.3134679999999999,0.934645,-0.29435,0.919714,0.002765,0.00377,1.080286,-0.0027649999999999,-0.0037699999999999,0.8499680000000001,-0.1003049999999999,-0.2958199999999999,1.123038,-0.1138649999999999,-0.30579,0.8984179999999999,-0.417075,-0.1466029999999999,1.113358,-0.4249549999999999,-0.145869
128,1.013896,0.6953100000000001,-0.116145,0.864476,0.48387,-0.130231,0.7519560000000001,0.6971400000000001,-0.221805,1.151186,0.48448,-0.141454,1.257186,0.6999,-0.236408,0.726376,0.89183,-0.2840249999999999,1.313386,0.93177,-0.299555,0.9196630000000001,0.00273,0.0037049999999999,1.0803369999999999,-0.00273,-0.003705,0.849836,-0.0835099999999999,-0.300625,1.123026,-0.09708,-0.310375,0.8985160000000001,-0.40054,-0.150002,1.112676,-0.40818,-0.148736
129,1.0138635,0.688515,-0.1186779999999999,0.8647335,0.483835,-0.132377,0.7522835000000001,0.695775,-0.22521,1.1510835,0.483275,-0.144027,1.2570934999999999,0.698025,-0.238863,0.7272935,0.893715,-0.28833,1.3136435,0.927715,-0.30408,0.9196664999999999,0.002685,0.0037999999999999,1.0803335,-0.0026849999999999,-0.0037999999999999,0.8497235,-0.0674249999999999,-0.3035,1.1230335,-0.0810849999999999,-0.31375,0.8985535,-0.3853449999999999,-0.1525919999999999,1.1120335,-0.3925949999999999,-0.1508979999999999
130,1.0140865,0.682975,-0.12115,0.8649735000000001,0.4830149999999999,-0.134758,0.7526235,0.694925,-0.228369,1.1509935,0.481945,-0.14629,1.2578735,0.696485,-0.2419839999999999,0.7282535,0.892285,-0.292805,1.3136435,0.925685,-0.3083749999999999,0.9196735,0.002755,0.0039649999999999,1.0803265,-0.002755,-0.0039649999999999,0.8500035,-0.053315,-0.305705,1.1230034999999998,-0.0672849999999999,-0.316795,0.8985735,-0.3686549999999999,-0.155056,1.1114335,-0.375525,-0.152913
131,1.0145015,0.67894,-0.122577,0.8651645,0.48257,-0.136006,0.7530145000000001,0.6926399999999999,-0.230582,1.1510745,0.48,-0.147442,1.2582345,0.6950799999999999,-0.243888,0.7290645,0.89018,-0.295945,1.3138445,0.9245,-0.311645,0.9196355,0.00291,0.004275,1.0803645,-0.00291,-0.004275,0.8502145,-0.04071,-0.306865,1.1229345,-0.0549399999999999,-0.318755,0.8985045,-0.3535399999999999,-0.156225,1.1109944999999999,-0.35999,-0.154162
132,1.0144125,0.67789,-0.123269,0.8650535,0.48056,-0.136739,0.7528435,0.6931799999999999,-0.232283,1.1506535,0.47916,-0.148017,1.2581535,0.69676,-0.245411,0.7290935000000001,0.8923,-0.298425,1.3134535,0.92791,-0.313375,0.9197555,0.0028199999999999,0.0045949999999999,1.0802445,-0.0028199999999999,-0.004595,0.8497035,-0.0234,-0.307165,1.1221335,-0.03805,-0.320325,0.8977035,-0.3342199999999999,-0.156848,1.1099035,-0.3402199999999999,-0.154906
133,1.015035,0.6767799999999999,-0.123524,0.865599,0.4800909999999999,-0.137174,0.7534689999999999,0.69275,-0.23403,1.1509289999999999,0.4791769999999999,-0.148471,1.259029,0.694,-0.2469529999999999,0.7297490000000001,0.8935299999999999,-0.300485,1.313699,0.92492,-0.3159349999999999,0.919907,0.0028599999999999,0.004535,1.080093,-0.00286,-0.004535,0.849919,-0.00767,-0.307565,1.122289,-0.02211,-0.320795,0.897609,-0.3163,-0.157436,1.109619,-0.32194,-0.1555409999999999
134,1.0154789999999998,0.675825,-0.123704,0.8661300000000001,0.47962,-0.13724,0.75383,0.691655,-0.235288,1.1511,0.479009,-0.148522,1.25945,0.692195,-0.247826,0.73013,0.8953450000000001,-0.30213,1.31381,0.925055,-0.31778,0.919956,0.002925,0.0044899999999999,1.080044,-0.0029249999999999,-0.0044899999999999,0.84999,0.007965,-0.30759,1.12239,-0.0060049999999999,-0.32084,0.89736,-0.2984749999999999,-0.157614,1.10929,-0.303825,-0.155792
135,1.0161615,0.6745950000000001,-0.123794,0.8669145,0.480997,-0.137271,0.7541245,0.6919150000000001,-0.2363,1.1515045,0.478063,-0.148538,1.2598544999999999,0.6904049999999999,-0.248605,0.7306645,0.896135,-0.3035299999999999,1.3141145,0.924335,-0.3194099999999999,0.9199405,0.003095,0.0044899999999999,1.0800595,-0.003095,-0.0044899999999999,0.8502145,0.023905,-0.3076,1.1228245000000001,0.0103949999999999,-0.32086,0.8973445,-0.280485,-0.157617,1.1092445,-0.2857349999999999,-0.156054
136,1.0166585,0.67368,-0.123949,0.8676195,0.4816759999999999,-0.137243,0.7542495,0.69336,-0.237167,1.1521295,0.4806729999999999,-0.148545,1.2600995,0.6927699999999999,-0.249256,0.7310194999999999,0.8954199999999999,-0.30478,1.3144295,0.92809,-0.32057,0.9198855,0.0029099999999999,0.0045099999999999,1.0801145,-0.00291,-0.00451,0.8502195,0.0388999999999999,-0.30713,1.1232495,0.0257499999999999,-0.32085,0.8973395,-0.26351,-0.157598,1.1091795,-0.2689100000000001,-0.156164
137,1.0167745,0.67378,-0.1237479999999999,0.8683555000000001,0.482361,-0.136703,0.7542255,0.69408,-0.2374369999999999,1.1527055,0.48218,-0.147919,1.2601655,0.69416,-0.2494849999999999,0.7311255000000001,0.89285,-0.305355,1.3149755,0.92957,-0.3213049999999999,0.9197845,0.00285,0.004525,1.0802155,-0.0028499999999999,-0.0045249999999999,0.8501555000000001,0.05407,-0.3060549999999999,1.1236655,0.04133,-0.320275,0.8972855,-0.2466699999999999,-0.157154,1.1090955,-0.25222,-0.155801
138,1.0166955,0.67468,-0.123524,0.8690585,0.482432,-0.136156,0.7539885,0.69461,-0.237282,1.1532785,0.482101,-0.147132,1.2604885,0.69448,-0.24916,0.7310285000000001,0.89034,-0.30553,1.3155785,0.92631,-0.32234,0.9196385,0.00296,0.0045899999999999,1.0803615,-0.0029599999999999,-0.00459,0.8501285000000001,0.0686499999999999,-0.30453,1.1240685,0.05621,-0.31931,0.8972285000000001,-0.2305899999999999,-0.1566,1.1090285,-0.2361999999999999,-0.155325
139,1.0167265,0.674425,-0.122779,0.8696695,0.482371,-0.135348,0.7540895,0.6931750000000001,-0.236626,1.1536895,0.4816480000000001,-0.14589,1.2609095,0.6938350000000001,-0.248655,0.7310495,0.8906350000000001,-0.305025,1.3159695,0.921405,-0.323175,0.9194825000000001,0.003055,0.0045849999999999,1.0805174999999998,-0.0030549999999999,-0.004585,0.8501995,0.080575,-0.302805,1.1246195,0.068395,-0.317585,0.8973895000000001,-0.2172849999999999,-0.155123,1.1091294999999999,-0.2229249999999999,-0.154583
140,1.016709,0.6751149999999999,-0.121718,0.8699749999999999,0.4819879999999999,-0.134007,0.7538549999999999,0.693305,-0.235628,1.153835,0.4815539999999999,-0.144297,1.261005,0.696345,-0.247795,0.7308049999999999,0.891195,-0.304305,1.316045,0.919105,-0.323665,0.919423,0.0030949999999999,0.004535,1.080577,-0.003095,-0.004535,0.849925,0.0931549999999999,-0.300765,1.124955,0.0809649999999999,-0.3155449999999999,0.897315,-0.203425,-0.15326,1.108995,-0.209265,-0.153507
141,1.0165785,0.6742400000000001,-0.120373,0.8699775,0.48231,-0.132432,0.7536475,0.69182,-0.234625,1.1537875,0.480469,-0.14256,1.2609575,0.69058,-0.2466499999999999,0.7305875,0.88872,-0.30341,1.3159975,0.91289,-0.3241,0.9194325000000001,0.00328,0.0042699999999999,1.0805675,-0.0032799999999999,-0.0042699999999999,0.8495975,0.10091,-0.29895,1.1252775,0.08873,-0.31347,0.8976575,-0.19384,-0.150521,1.1089175,-0.2004399999999999,-0.15231
142,1.0164115,0.6738949999999999,-0.118526,0.8699925,0.4812809999999999,-0.130157,0.7533925,0.6903549999999999,-0.233361,1.1537225,0.479427,-0.140291,1.2611325,0.6897249999999999,-0.2455,0.7301425,0.889175,-0.3023,1.3159025,0.911725,-0.32351,0.9194475,0.0035149999999999,0.0040299999999999,1.0805525,-0.003515,-0.00403,0.8491325000000001,0.1098049999999999,-0.2966,1.1255225,0.0974249999999999,-0.31089,0.8981525,-0.183385,-0.147076,1.1087925,-0.1905649999999999,-0.150812
143,1.0163825,0.673305,-0.1158189999999999,0.8700865,0.481775,-0.127878,0.7533165,0.691795,-0.231974,1.1538864999999998,0.479634,-0.138044,1.2610965,0.689555,-0.244115,0.7297665,0.890505,-0.301145,1.3158965,0.910935,-0.323025,0.9196255000000001,0.0033149999999999,0.003835,1.0803745,-0.0033149999999999,-0.003835,0.8488865,0.119235,-0.293245,1.1259165,0.106785,-0.3077149999999999,0.8988865,-0.1724449999999999,-0.1435199999999999,1.1088865,-0.180165,-0.149231
144,1.016978,0.672445,-0.113192,0.870754,0.4824199999999999,-0.125811,0.753224,0.692385,-0.230749,1.154754,0.479504,-0.136023,1.261864,0.688665,-0.243115,0.729904,0.892165,-0.300125,1.316424,0.909095,-0.322655,0.919671,0.003445,0.0036449999999999,1.080329,-0.003445,-0.003645,0.8492040000000001,0.127315,-0.290185,1.127044,0.1145649999999999,-0.304255,0.900354,-0.162985,-0.139876,1.109624,-0.1712249999999999,-0.147834
145,1.0170585,0.671235,-0.1104769999999999,0.8709455,0.4829949999999999,-0.1237419999999999,0.7526955000000001,0.692475,-0.229452,1.1552255,0.4791809999999999,-0.133907,1.2621155,0.6872149999999999,-0.2424,0.7295255,0.893265,-0.2991,1.3165155,0.906465,-0.3222399999999999,0.9197385,0.0034049999999999,0.00346,1.0802615,-0.0034049999999999,-0.0034599999999999,0.8490055,0.1341649999999999,-0.28701,1.1277655,0.1213849999999999,-0.30135,0.9014455000000001,-0.154785,-0.13616,1.1099455,-0.163515,-0.145957
146,1.0170035,0.66953,-0.1079749999999999,0.8710095,0.4837679999999999,-0.1219039999999999,0.7522395,0.6924899999999999,-0.2283209999999999,1.1556295,0.4789399999999999,-0.1321419999999999,1.2622594999999999,0.68573,-0.2419549999999999,0.7290395000000001,0.89523,-0.298245,1.3165295000000001,0.90437,-0.3220949999999999,0.9197465,0.0034699999999999,0.003455,1.0802535,-0.00347,-0.0034549999999999,0.8487595,0.1398099999999999,-0.2840749999999999,1.1284895,0.1272599999999999,-0.2987149999999999,0.9025815000000001,-0.1477900000000001,-0.1325699999999999,1.1102394999999998,-0.15705,-0.1442779999999999
147,1.016929,0.66835,-0.105507,0.8709630000000002,0.484137,-0.119958,0.751823,0.69255,-0.227287,1.155973,0.479597,-0.130416,1.2623129999999998,0.68514,-0.24154,0.728523,0.89756,-0.29739,1.316443,0.90673,-0.32156,0.919744,0.0033499999999999,0.0033799999999999,1.0802559999999999,-0.0033499999999999,-0.0033799999999999,0.848553,0.1454099999999999,-0.2811,1.129353,0.1333099999999999,-0.29597,0.903751,-0.1409399999999999,-0.129065,1.110523,-0.15064,-0.142548
148,1.016645,0.6673079999999999,-0.1029959999999999,0.870689,0.4847159999999999,-0.1179409999999999,0.751189,0.6933699999999999,-0.226275,1.156119,0.4810119999999999,-0.1286439999999999,1.262239,0.68538,-0.240985,0.727739,0.8999699999999999,-0.296285,1.315969,0.90891,-0.320845,0.919793,0.0031299999999999,0.003405,1.080207,-0.00313,-0.0034049999999999,0.848229,0.1509099999999999,-0.277985,1.129939,0.1392499999999999,-0.293095,0.904548,-0.13434,-0.126049,1.110519,-0.14419,-0.1406359999999999
149,1.016397,0.665933,-0.1004799999999999,0.870354,0.485903,-0.116121,0.750624,0.69472,-0.225358,1.156294,0.482204,-0.126885,1.262464,0.68559,-0.24053,0.7269639999999999,0.90264,-0.2953599999999999,1.315534,0.91086,-0.32016,0.919952,0.0029099999999999,0.0034899999999999,1.080048,-0.0029099999999999,-0.0034899999999999,0.8479840000000001,0.15615,-0.27483,1.130484,0.14497,-0.29027,0.905372,-0.12809,-0.123124,1.110494,-0.13795,-0.138738
150,1.0161275,0.6642140000000001,-0.098233,0.8699645,0.487058,-0.11445,0.7499745,0.69632,-0.224567,1.1564045,0.483132,-0.125292,1.2624845,0.6900200000000001,-0.240195,0.7262145,0.90522,-0.294575,1.3149345000000001,0.91287,-0.319455,0.9201725000000001,0.00273,0.003645,1.0798275,-0.00273,-0.003645,0.8477245,0.16103,-0.271815,1.1308745,0.15031,-0.287645,0.9058235,-0.1226999999999999,-0.121068,1.1104545,-0.1320199999999999,-0.136945
151,1.0158865,0.6635610000000001,-0.096464,0.8696915000000001,0.489022,-0.11372,0.7493515,0.69777,-0.224161,1.1564215,0.484537,-0.124589,1.2624615000000001,0.69267,-0.240175,0.7256215000000001,0.90633,-0.294195,1.3143915,0.91418,-0.319175,0.9204125,0.00246,0.0037349999999999,1.0795875,-0.00246,-0.0037349999999999,0.8475015,0.1642,-0.269625,1.1312715,0.15391,-0.285785,0.9061375,-0.1190799999999999,-0.119948,1.1104315,-0.12829,-0.135834
152,1.0158165,0.6632909999999999,-0.0958209999999999,0.8696645000000001,0.4891389999999999,-0.113462,0.7489645,0.6977649999999999,-0.2240329999999999,1.1564545,0.4842859999999999,-0.124265,1.2625045,0.6931549999999999,-0.240095,0.7252945,0.9058849999999998,-0.294185,1.3140445,0.9137849999999998,-0.319215,0.9204395,0.0026349999999999,0.0037349999999999,1.0795605,-0.002635,-0.0037349999999999,0.8473845,0.1651049999999999,-0.268875,1.1318545,0.1551749999999999,-0.284715,0.9065825000000001,-0.1178850000000001,-0.119264,1.1106045,-0.1270750000000001,-0.135272
153,1.015861,0.663341,-0.09545,0.869705,0.489168,-0.1133,0.748685,0.697645,-0.2238359999999999,1.156495,0.483695,-0.124059,1.262535,0.693155,-0.240115,0.7250850000000001,0.905935,-0.294165,1.313755,0.913175,-0.319305,0.92047,0.002685,0.0037349999999999,1.07953,-0.002685,-0.0037349999999999,0.847275,0.164925,-0.2683149999999999,1.132345,0.1553749999999999,-0.284035,0.906859,-0.117755,-0.118916,1.110855,-0.1269449999999999,-0.1348929999999999
154,1.0158725,0.663341,-0.0952529999999999,0.8697785,0.489168,-0.1131879999999999,0.7485985,0.697645,-0.2238379999999999,1.1564985,0.483695,-0.1240639999999999,1.2625385,0.693155,-0.2401199999999999,0.7248885,0.905935,-0.294,1.3134085,0.913175,-0.3193899999999999,0.9205075,0.002685,0.00373,1.0794925,-0.002685,-0.0037299999999999,0.8471085,0.164735,-0.2680599999999999,1.1326685,0.155505,-0.28386,0.9068665,-0.117755,-0.1188489999999999,1.1114285,-0.1269449999999999,-0.1349199999999999
155,1.01582,0.663341,-0.0952089999999999,0.8698640000000001,0.489361,-0.1132389999999999,0.7486539999999999,0.697645,-0.223934,1.156554,0.483695,-0.124169,1.262594,0.693155,-0.240225,0.724734,0.905935,-0.293935,1.313044,0.913175,-0.319485,0.920569,0.002685,0.003835,1.079431,-0.002685,-0.003835,0.8469340000000001,0.164675,-0.2680949999999999,1.1330040000000001,0.155625,-0.283975,0.906922,-0.117695,-0.118954,1.111934,-0.1269449999999999,-0.135042
156,1.0156535,0.664144,-0.095745,0.8699135,0.4892509999999999,-0.113546,0.7485335,0.6975349999999999,-0.224111,1.1565435,0.4835849999999999,-0.124711,1.2623635,0.6930449999999999,-0.24105,0.7244935,0.905975,-0.29421,1.3125235,0.913065,-0.32004,0.9206535,0.0027949999999999,0.0040599999999999,1.0793465,-0.0027950000000001,-0.00406,0.8467735000000001,0.1645649999999999,-0.26863,1.1332435,0.1556949999999999,-0.28453,0.9069915,-0.117805,-0.119499,1.1123835,-0.127055,-0.135602
157,1.015348,0.665751,-0.0966469999999999,0.869795,0.488374,-0.114257,0.7483950000000001,0.697255,-0.2244939999999999,1.1560849999999998,0.4845959999999999,-0.125878,1.261395,0.6923549999999999,-0.2421149999999999,0.724125,0.905735,-0.294655,1.3116349999999999,0.911495,-0.3210349999999999,0.920681,0.0026549999999999,0.004235,1.079319,-0.0026549999999999,-0.0042349999999999,0.846425,0.162945,-0.269565,1.133335,0.1543149999999999,-0.285475,0.906913,-0.119425,-0.120444,1.1128149999999999,-0.128785,-0.136673
158,1.0150694999999998,0.6689590000000001,-0.0972229999999999,0.8696845,0.487285,-0.11484,0.7482845,0.697295,-0.224762,1.1556345000000001,0.484672,-0.126696,1.2601845,0.692065,-0.24275,0.7236845000000001,0.906215,-0.29469,1.3105245,0.910405,-0.32158,0.9206525,0.002695,0.00413,1.0793475,-0.002695,-0.0041299999999999,0.8461345,0.160225,-0.27014,1.1335245,0.151855,-0.28613,0.9064635,-0.1221949999999999,-0.1217449999999999,1.1132345,-0.1316449999999999,-0.137448
159,1.014838,0.669099,-0.098393,0.8691390000000001,0.486914,-0.116239,0.747899,0.696395,-0.225885,1.154449,0.484215,-0.128944,1.2589489999999999,0.692275,-0.244055,0.722979,0.907205,-0.295295,1.309349,0.912625,-0.322925,0.920759,0.0026249999999999,0.0044249999999999,1.0792410000000001,-0.0026249999999999,-0.004425,0.8454890000000002,0.151855,-0.272985,1.133839,0.1436049999999999,-0.289375,0.9058180000000001,-0.1308249999999999,-0.124137,1.113529,-0.1402949999999999,-0.138771
160,1.0145555,0.670955,-0.099701,0.8686175,0.486254,-0.117764,0.7476875000000001,0.696165,-0.226456,1.1532075,0.483792,-0.131332,1.2576075,0.692775,-0.24541,0.7221575,0.907805,-0.29602,1.3080675,0.913955,-0.32437,0.9208755,0.002465,0.0045,1.0791245,-0.002465,-0.0045,0.8448375,0.1423249999999999,-0.27639,1.1341275,0.134075,-0.29315,0.9050644999999999,-0.1408549999999999,-0.126862,1.1138774999999999,-0.1505149999999999,-0.140364
161,1.0140825,0.67339,-0.1010499999999999,0.8682685,0.485991,-0.1194639999999999,0.7473185,0.69642,-0.2270569999999999,1.1520085,0.483069,-0.1336929999999999,1.2559084999999999,0.6934100000000001,-0.2463999999999999,0.7210885,0.91073,-0.29652,1.3067285,0.91675,-0.32569,0.9210545,0.00263,0.00459,1.0789455000000001,-0.00263,-0.0045899999999999,0.8441085,0.12738,-0.28115,1.1347085,0.11881,-0.29755,0.9042445,-0.1566299999999999,-0.1297959999999999,1.1142385,-0.1665499999999999,-0.141867
162,1.0132679999999998,0.6753699999999999,-0.102527,0.867936,0.4863079999999999,-0.121441,0.746596,0.6960299999999999,-0.228052,1.150386,0.4820639999999999,-0.136373,1.2539259999999999,0.69363,-0.247395,0.719716,0.91172,-0.297205,1.304816,0.91883,-0.327065,0.9210929999999999,0.0030199999999999,0.0047049999999999,1.078907,-0.00302,-0.004705,0.843936,0.1099699999999999,-0.284065,1.134596,0.1008699999999999,-0.299735,0.903157,-0.1752100000000001,-0.133053,1.114316,-0.18563,-0.143619
163,1.0123265,0.6789350000000001,-0.1040589999999999,0.8673615,0.484983,-0.1234909999999999,0.7456815,0.6956450000000001,-0.229016,1.1485515,0.482519,-0.139098,1.2517015,0.694985,-0.24822,0.7180715000000001,0.913105,-0.29796,1.3027015,0.920075,-0.32855,0.9210405,0.002835,0.0049099999999999,1.0789595,-0.002835,-0.0049099999999999,0.8436815000000001,0.091375,-0.2872599999999999,1.1343615,0.081385,-0.30225,0.9018855,-0.195415,-0.136538,1.1141215,-0.2061849999999999,-0.145363
164,1.011339,0.68313,-0.105583,0.866269,0.486715,-0.125452,0.7446090000000001,0.69554,-0.229816,1.146719,0.486163,-0.141899,1.249129,0.69556,-0.24946,0.716299,0.91423,-0.2987,1.300279,0.92001,-0.33,0.920973,0.0027599999999999,0.0050699999999999,1.079027,-0.00276,-0.00507,0.843309,0.0713499999999999,-0.29023,1.133999,0.0596099999999999,-0.30476,0.900449,-0.21797,-0.140134,1.113799,-0.2290499999999999,-0.146913
165,1.0102285,0.683335,-0.106909,0.8649875000000001,0.485062,-0.127291,0.7434775,0.6939649999999999,-0.230416,1.1446475,0.485197,-0.144247,1.2468275,0.691975,-0.25063,0.7143675,0.911515,-0.29922,1.2978475,0.919175,-0.33125,0.9207975,0.0025249999999999,0.0047999999999999,1.0792025,-0.0025249999999999,-0.0047999999999999,0.8427675,0.046325,-0.29278,1.1332475,0.0333649999999999,-0.30634,0.8989175000000001,-0.2460449999999999,-0.143572,1.1133075,-0.2574349999999999,-0.148263
166,1.009249,0.6844399999999999,-0.107545,0.8635520000000001,0.484943,-0.128155,0.7420519999999999,0.6934400000000001,-0.230471,1.142682,0.483702,-0.14536,1.244732,0.6936599999999999,-0.250855,0.712262,0.9096,-0.299385,1.295452,0.9237,-0.332015,0.920601,0.00256,0.0046149999999999,1.079399,-0.00256,-0.004615,0.842122,0.02229,-0.293855,1.132232,0.00823,-0.3072249999999999,0.897402,-0.27414,-0.146362,1.112392,-0.2854399999999999,-0.149148
167,1.008006,0.68454,-0.107351,0.861984,0.485859,-0.128153,0.740494,0.69379,-0.229718,1.1406939999999999,0.483988,-0.146022,1.242744,0.69577,-0.25035,0.710124,0.91051,-0.2984,1.293334,0.92572,-0.33118,0.9203479999999999,0.00229,0.0044499999999999,1.079652,-0.0022899999999999,-0.00445,0.841534,-0.0031799999999999,-0.29401,1.130964,-0.01765,-0.30735,0.896204,-0.30399,-0.14778,1.1113639999999998,-0.3152899999999999,-0.149471
168,1.0066605,0.6887049999999999,-0.1065749999999999,0.8604635,0.4852349999999999,-0.127853,0.7388935,0.694345,-0.228731,1.1391835,0.4840249999999999,-0.146256,1.2406435,0.6962849999999999,-0.24977,0.7080535,0.910235,-0.29716,1.2911234999999999,0.927205,-0.33003,0.9201375,0.0021149999999999,0.00446,1.0798625,-0.002115,-0.0044599999999999,0.8408935000000001,-0.024895,-0.29398,1.1292535,-0.040025,-0.30728,0.8950535,-0.331285,-0.1487049999999999,1.1103035,-0.342585,-0.149528
169,1.0053005,0.6922600000000001,-0.105663,0.8584944999999999,0.48775,-0.127403,0.7371845,0.69557,-0.227849,1.1378145,0.48512,-0.146132,1.2386245,0.69496,-0.249265,0.7061445,0.9101,-0.295375,1.2887545,0.92771,-0.328715,0.9198255,0.00207,0.0043949999999999,1.0801745,-0.0020699999999999,-0.004395,0.8403445,-0.0475799999999999,-0.293885,1.1273445,-0.0636699999999999,-0.306795,0.8934545,-0.36044,-0.150431,1.1091045,-0.3719399999999999,-0.149481
170,1.0042155,0.693925,-0.104186,0.8565635,0.489005,-0.126464,0.7361535,0.695735,-0.226771,1.1365135,0.485815,-0.145542,1.2370035,0.695655,-0.248545,0.7045435,0.909565,-0.292755,1.2868135,0.926795,-0.326555,0.9195435,0.001725,0.004085,1.0804565,-0.0017249999999999,-0.004085,0.8400235,-0.0671149999999999,-0.292895,1.1255135,-0.0836049999999999,-0.305375,0.8919935,-0.3871449999999999,-0.151633,1.1082035,-0.3979349999999999,-0.148983
171,1.0031629999999998,0.6979299999999999,-0.1019829999999999,0.854591,0.4909699999999999,-0.125498,0.734761,0.69917,-0.224427,1.135361,0.48546,-0.1440489999999999,1.235941,0.69571,-0.246244,0.703001,0.90994,-0.28941,1.285131,0.92607,-0.32357,0.9192,0.0013699999999999,0.00375,1.0808,-0.00137,-0.00375,0.840211,-0.08501,-0.28959,1.123401,-0.10108,-0.30149,0.890341,-0.41187,-0.152285,1.107391,-0.42178,-0.148112
172,1.001958,0.698905,-0.099007,0.8523540000000001,0.492465,-0.123788,0.7331840000000001,0.700175,-0.221383,1.134214,0.486795,-0.141792,1.234514,0.6931149999999999,-0.242995,0.701484,0.906575,-0.28468,1.283214,0.926345,-0.31959,0.919242,0.0007349999999999,0.00358,1.0807579999999999,-0.000735,-0.00358,0.840634,-0.105175,-0.2843,1.120924,-0.1199649999999999,-0.29519,0.888554,-0.438675,-0.152406,1.106374,-0.4474249999999999,-0.146856
173,1.0007039999999998,0.7001949999999999,-0.0966439999999999,0.8505320000000001,0.4909349999999999,-0.1221729999999999,0.731482,0.701635,-0.2183839999999999,1.132922,0.484875,-0.1404899999999999,1.233522,0.695865,-0.2404029999999999,0.699932,0.908335,-0.28015,1.281872,0.931625,-0.3163399999999999,0.919339,0.0001749999999999,0.00357,1.080661,-0.000175,-0.0035699999999999,0.841242,-0.123515,-0.27813,1.118142,-0.136295,-0.28905,0.886482,-0.462875,-0.153246,1.105322,-0.470575,-0.1464899999999999
174,0.9997320000000001,0.704405,-0.092407,0.848773,0.496545,-0.1189419999999999,0.730093,0.7048650000000001,-0.2137069999999999,1.131913,0.488865,-0.137218,1.232853,0.701685,-0.23587,0.698773,0.913805,-0.273395,1.2811329999999999,0.935105,-0.311295,0.919749,7.50000000000195e-05,0.0033849999999999,1.080251,-7.499999999999174e-05,-0.0033849999999999,0.8416830000000001,-0.138135,-0.271185,1.116203,-0.1495249999999999,-0.2826849999999999,0.884663,-0.483185,-0.152298,1.104673,-0.4895349999999999,-0.144768
175,0.9989525,0.708085,-0.0881089999999999,0.8471945,0.5005649999999999,-0.115679,0.7289845000000001,0.7080649999999999,-0.208857,1.1313745,0.492165,-0.133442,1.2320945,0.702795,-0.23074,0.6978345,0.919065,-0.265955,1.2806045,0.933455,-0.305745,0.9202945,-0.000125,0.003395,1.0797055,0.0001249999999999,-0.003395,0.8425245,-0.152975,-0.264035,1.1144545,-0.163335,-0.275685,0.8825845,-0.503265,-0.151896,1.1044545,-0.508475,-0.143829
176,0.997964,0.712545,-0.0833339999999999,0.845362,0.505505,-0.112079,0.727942,0.7101149999999999,-0.203422,1.130762,0.494575,-0.129262,1.231172,0.705545,-0.225372,0.6969719999999999,0.920455,-0.25836,1.279912,0.939695,-0.2998,0.920817,-0.0002449999999999,0.00326,1.079183,0.0002449999999999,-0.00326,0.843532,-0.166975,-0.25553,1.112762,-0.176635,-0.26774,0.880292,-0.522135,-0.151084,1.1044019999999999,-0.5262450000000001,-0.142593
177,0.9972195000000001,0.7162850000000001,-0.077652,0.8439295,0.511305,-0.10721,0.7273594999999999,0.7150049999999999,-0.197378,1.1303695,0.4982149999999999,-0.124263,1.2305395,0.708855,-0.219014,0.6964195,0.925195,-0.24953,1.2798295,0.942685,-0.2928,0.9214185,-0.000325,0.0032899999999999,1.0785815,0.0003249999999999,-0.0032899999999999,0.8449095,-0.180715,-0.24541,1.1115295,-0.189175,-0.2581,0.8781495,-0.539625,-0.148787,1.1045194999999999,-0.5425550000000001,-0.138056
178,0.996085,0.7183,-0.072255,0.8427290000000001,0.51534,-0.102652,0.7265090000000001,0.71741,-0.191757,1.130029,0.50461,-0.119739,1.2295589999999998,0.71291,-0.212813,0.6957190000000001,0.92912,-0.24141,1.278649,0.94593,-0.28596,0.9218459999999999,-0.0005,0.0031399999999999,1.078154,0.0005,-0.0031399999999999,0.845909,-0.19355,-0.23542,1.110029,-0.20029,-0.24769,0.875989,-0.55525,-0.145285,1.104269,-0.55695,-0.133823
179,0.9949475000000001,0.7224195,-0.067434,0.8417235000000001,0.5198095,-0.098568,0.7256735000000001,0.7210495,-0.186861,1.1295935,0.5110895,-0.115676,1.2289735,0.7156895,-0.207436,0.6950835,0.9311695,-0.234285,1.2774535,0.9490395,-0.279985,0.9226775,-0.0007735,0.002875,1.0773225,0.0007734999999999,-0.002875,0.8469135,-0.2045105,-0.226305,1.1085735,-0.2102205,-0.237385,0.8736435000000001,-0.5684705,-0.14118,1.1039735,-0.5698505,-0.130235
180,0.9939315000000001,0.7255579999999999,-0.062863,0.8408055,0.522118,-0.094771,0.7249654999999999,0.723278,-0.182202,1.1291355,0.520818,-0.111636,1.2280755,0.719988,-0.202018,0.6944954999999999,0.933858,-0.226875,1.2767155,0.950438,-0.273965,0.9235395,-0.0012869999999999,0.0025249999999999,1.0764605,0.0012869999999999,-0.0025249999999999,0.8482355,-0.2158419999999999,-0.215635,1.1065155,-0.221792,-0.223665,0.8719855000000001,-0.5819620000000001,-0.137093,1.1036455,-0.584252,-0.1262
181,0.9936865000000001,0.7292704999999999,-0.059198,0.8406455000000002,0.5262805,-0.092462,0.7249455,0.7279304999999999,-0.17854,1.1292855,0.5273605,-0.108753,1.2277955,0.7258304999999999,-0.197498,0.6945955000000001,0.9398005,-0.220905,1.2763855,0.9517505,-0.268985,0.9237655,-0.0010334999999999,0.0022049999999999,1.0762345,0.0010334999999999,-0.002205,0.8500155,-0.2238095,-0.205617,1.1050455,-0.2306495,-0.211195,0.8715855,-0.5921495,-0.13385,1.1039155,-0.5956695000000001,-0.122982
182,0.9935200000000001,0.730631,-0.056227,0.840568,0.532521,-0.090633,0.7252080000000001,0.732531,-0.17554,1.1298679999999999,0.5339510000000001,-0.105943,1.228158,0.729001,-0.194547,0.694868,0.940591,-0.215855,1.276538,0.948941,-0.264215,0.923788,-0.000794,0.0019949999999999,1.076212,0.0007939999999999,-0.0019949999999999,0.852448,-0.237419,-0.194937,1.103418,-0.244419,-0.198498,0.8717280000000001,-0.6055790000000001,-0.130577,1.104188,-0.611319,-0.120028
183,0.9934340000000002,0.7316495,-0.0539759999999999,0.840504,0.5342294999999999,-0.089563,0.725394,0.7368494999999999,-0.1733,1.130704,0.5391895,-0.1038969999999999,1.2289539999999999,0.7328695,-0.19233,0.695114,0.9407795,-0.212065,1.2761040000000001,0.9486395,-0.2602649999999999,0.9238770000000001,-0.0008214999999999,0.001735,1.076123,0.0008214999999999,-0.001735,0.855324,-0.2496904999999999,-0.184479,1.101934,-0.2568605,-0.185419,0.871964,-0.6176505000000001,-0.127019,1.104534,-0.6255905,-0.1163059999999999
184,0.9939240000000001,0.730274,-0.0459865,0.841051,0.5350239999999999,-0.0826234999999999,0.726711,0.7388239999999999,-0.1653415,1.132061,0.542334,-0.0964095,1.230031,0.7354839999999999,-0.1843624999999999,0.695951,0.939314,-0.2030465,1.277151,0.947434,-0.2506764999999999,0.924167,-0.0005139999999999,0.0014834999999999,1.075833,0.000514,-0.0014834999999999,0.859741,-0.2632859999999999,-0.1655105,1.101031,-0.270466,-0.1654505,0.872871,-0.631306,-0.1162084999999999,1.105391,-0.640086,-0.1067485
185,0.9947465,0.728753,-0.034762,0.8417485,0.533563,-0.072506,0.7277184999999999,0.7359829999999999,-0.154068,1.1337285,0.543333,-0.085582,1.2318985,0.736113,-0.173745,0.6980585,0.934393,-0.190627,1.2779985,0.944073,-0.237087,0.9244825000000001,-0.0004749999999999,0.0008049999999999,1.0755175,0.000475,-0.000805,0.8659585,-0.279657,-0.14172,1.1001485,-0.287967,-0.140759,0.8747785,-0.648657,-0.099947,1.1065385,-0.657587,-0.09172
186,0.9954415,0.7269490000000001,-0.024179,0.8422815000000001,0.5329790000000001,-0.062806,0.7291615,0.732089,-0.143091,1.1352215,0.543749,-0.075141,1.2331215,0.737039,-0.163351,0.7001515,0.927319,-0.179306,1.2788115,0.942659,-0.224016,0.9248755,-0.00037,0.0003739999999999,1.0751245,0.0003699999999999,-0.000374,0.8717515,-0.293811,-0.118876,1.0990315,-0.303521,-0.117166,0.8765615,-0.6640809999999999,-0.083967,1.1075415,-0.673621,-0.076738
187,0.9961245000000001,0.7258045,-0.0137315,0.8426905,0.5312745,-0.0528335,0.7306005,0.7296944999999999,-0.1323695,1.1363805,0.5403844999999999,-0.0645655,1.2345605,0.7387545,-0.1537095,0.7023505,0.9216245,-0.1680745,1.2795305,0.9425045,-0.2109945,0.9251745000000001,-0.0002295,-6.550000000001e-05,1.0748255,0.0002294999999999,6.549999999999612e-05,0.8773205,-0.3054854999999999,-0.0966455,1.0977605,-0.3166055,-0.0947735,0.8786905,-0.6770255000000001,-0.0667145,1.1082105,-0.6876455,-0.0605395
188,0.997001,0.7238640000000001,-0.0033214999999999,0.843533,0.529994,-0.0427405,0.732193,0.726884,-0.1216715,1.137683,0.537494,-0.0539985,1.2361829999999998,0.739484,-0.1440354999999999,0.7048730000000001,0.916014,-0.1566635,1.280133,0.942114,-0.1982535,0.925305,6.899999999999962e-05,-0.0005124999999999,1.074695,-6.899999999999962e-05,0.0005124999999999,0.882973,-0.315916,-0.0741895,1.096603,-0.328326,-0.0727415,0.881123,-0.688836,-0.0494155,1.108843,-0.700726,-0.0440715
189,0.9979230000000001,0.7210730000000001,0.0071429999999999,0.844292,0.529603,-0.032373,0.7337120000000001,0.722933,-0.1108929999999999,1.138842,0.5326930000000001,-0.0433,1.237352,0.7397929999999999,-0.13404,0.7075220000000001,0.912273,-0.145526,1.280502,0.943383,-0.185206,0.925432,0.000425,-0.000729,1.074568,-0.000425,0.000729,0.888172,-0.324497,-0.053339,1.096012,-0.338697,-0.054043,0.883602,-0.698407,-0.032162,1.109542,-0.712237,-0.029226
190,0.9989535,0.7188985,0.0177665,0.8449925,0.5294885,-0.0218625,0.7353325,0.7190485,-0.0999934999999999,1.1397625,0.5281585,-0.0324285,1.2388625,0.7401785,-0.1242165,0.7101225,0.9100585,-0.1342715,1.2810725,0.9443485,-0.1722515,0.9253875,0.0008554999999999,-0.0009995,1.0746125,-0.0008554999999999,0.0009995,0.8932525,-0.3333715,-0.0332084999999999,1.0957225,-0.3490915,-0.0358145,0.8862525,-0.7080315,-0.0151684999999999,1.1103825,-0.7235015,-0.0145504999999999
191,1.0001585,0.717773,0.0281585,0.8459865,0.527243,-0.0113254999999999,0.7372765,0.714423,-0.0891945,1.1410265,0.523783,-0.0216705,1.2407765,0.738853,-0.1146814999999999,0.7132565,0.908453,-0.1232375,1.2820665,0.945923,-0.1596675,0.9251705,0.0010959999999999,-0.0013014999999999,1.0748294999999999,-0.0010959999999999,0.0013015,0.8981375,-0.341797,-0.0141514999999999,1.0958275,-0.358607,-0.0177195,0.8894765,-0.717067,0.0008975,1.1115865,-0.733827,-3.949999999999787e-05
192,1.0013079999999999,0.7172930000000001,0.0389505,0.846778,0.525833,-0.0002295,0.739078,0.709773,-0.0778325,1.142358,0.520143,-0.0103685,1.242638,0.738403,-0.1049485,0.716188,0.907473,-0.1120305,1.282918,0.948073,-0.1466205,0.924775,0.001156,-0.0015405,1.075225,-0.001156,0.0015404999999999,0.902222,-0.350577,0.0041894999999999,1.095813,-0.367677,-0.0005775,0.892068,-0.7262569999999999,0.0166494999999999,1.112628,-0.743387,0.0142235
193,1.0018364999999998,0.718388,0.0435614999999999,0.8469565,0.525938,0.0047765,0.7403165,0.706608,-0.0726275,1.1431365,0.518188,-0.0052324999999999,1.2437465,0.739108,-0.1012604999999999,0.7185265000000001,0.908028,-0.1070575,1.2834265,0.951868,-0.1398675,0.9247865,0.00101,-0.0019044999999999,1.0752135,-0.0010099999999999,0.0019045,0.9045795,-0.357982,0.0138265,1.0952745,-0.3750519999999999,0.0088805,0.8934265,-0.733792,0.0241725,1.1130965,-0.751092,0.0220015
194,1.0021185,0.7183915,0.04474,0.8467745,0.5263315,0.006209,0.7410545,0.7080915,-0.071402,1.1432645,0.5182915,-0.003812,1.2439244999999999,0.7391715,-0.099857,0.7197545000000001,0.9098815,-0.106011,1.2837945,0.9520215,-0.138171,0.9247935,0.0010514999999999,-0.001738,1.0752065,-0.0010514999999999,0.001738,0.9048375,-0.3581285,0.0174749999999999,1.0946355,-0.3751985,0.0122899999999999,0.8936745,-0.7339385,0.02668,1.1131945,-0.7512385,0.024565
195,1.0023799999999998,0.718383,0.046105,0.846828,0.526613,0.0077369999999999,0.741708,0.7089030000000001,-0.0700669999999999,1.143408,0.518343,-0.002283,1.244148,0.739193,-0.098329,0.7206779999999999,0.913353,-0.104835,1.284058,0.951863,-0.136405,0.9248,0.00109,-0.001565,1.0752,-0.0010899999999999,0.001565,0.905092,-0.358287,0.021268,1.094031,-0.3753569999999999,0.015588,0.893938,-0.734097,0.029295,1.113338,-0.751397,0.027062
196,1.0027175,0.7184360000000001,0.047601,0.8468875,0.526826,0.009374,0.7422875,0.7093959999999999,-0.068634,1.1435975,0.5183960000000001,-0.000619,1.2444175,0.739206,-0.096651,0.7214275,0.914986,-0.1035119999999999,1.2843375,0.951686,-0.134412,0.9248035,0.0011339999999999,-0.001483,1.0751965,-0.0011339999999999,0.001483,0.9053315,-0.358464,0.02485,1.0934105,-0.375534,0.018869,0.8941875,-0.7342740000000001,0.031791,1.1134675,-0.751574,0.029629
197,1.003191,0.7185855,0.0490915,0.846832,0.5271155,0.0112025,0.742722,0.7096254999999999,-0.0672465,1.143992,0.5193154999999999,0.0007324999999999,1.2446419999999998,0.7393955,-0.0950205,0.7220420000000001,0.9173455,-0.1024935,1.284282,0.9500455,-0.1326435,0.924857,0.0012744999999999,-0.0014275,1.075143,-0.0012744999999999,0.0014275,0.905361,-0.3571344999999999,0.0280955,1.092724,-0.3735144999999999,0.0217365,0.894302,-0.7341645,0.0342525,1.1135419999999998,-0.7503345,0.0321005
198,1.0036155,0.7187515,0.0506785,0.8468205000000001,0.5273915,0.0123875,0.7430705,0.7098015,-0.0658885,1.1444205,0.5206915000000001,0.0019364999999999,1.2449405,0.7397115000000001,-0.0933615,0.7224005,0.9173215,-0.1015215,1.2843505,0.9500215,-0.1305915,0.9249415,0.0013984999999999,-0.0014714999999999,1.0750585,-0.0013984999999999,0.0014715,0.9052685,-0.3560485,0.0311255,1.0919885,-0.3713885,0.0242795,0.8943105000000001,-0.7336185,0.0368095,1.1134905,-0.7482385,0.0346125
199,1.0040365,0.7188025,0.0521849999999999,0.8469475,0.5274025,0.013397,0.7434075,0.7097924999999999,-0.0646529999999999,1.1449675,0.5221025,0.00297,1.2453275,0.7399325,-0.091766,0.7228375,0.9186225,-0.1004169999999999,1.2845475,0.9486225,-0.128737,0.9250125,0.0015004999999999,-0.001529,1.0749875,-0.0015005,0.001529,0.9051835,-0.3552875,0.033894,1.0912505,-0.3695175,0.0263979999999999,0.8943274999999999,-0.7328975,0.0392659999999999,1.1134975,-0.7463275,0.037043
200,1.004473,0.718815,0.0535459999999999,0.8472060000000001,0.5273150000000001,0.0143679999999999,0.743716,0.709665,-0.063605,1.145546,0.5234650000000001,0.0039399999999999,1.245786,0.7400450000000001,-0.090206,0.722986,0.918375,-0.0994589999999999,1.284746,0.947375,-0.126959,0.925082,0.001551,-0.001525,1.074918,-0.0015509999999999,0.0015249999999999,0.905031,-0.3548249999999999,0.03625,1.090792,-0.368205,0.028297,0.894286,-0.732445,0.041594,1.113466,-0.744945,0.03943
201,1.0048705,0.7188655,0.054747,0.8474715000000002,0.5271755,0.015239,0.7439915000000001,0.7095055,-0.062703,1.1461014999999999,0.5248855,0.004727,1.2462815,0.7401455,-0.088761,0.7231115,0.9168555,-0.098857,1.2850015,0.9465555,-0.125257,0.9251565,0.0015904999999999,-0.0015809999999999,1.0748435,-0.0015905,0.001581,0.9048815,-0.3542745,0.038325,1.0904335,-0.3669945,0.030095,0.8942315000000001,-0.7318945,0.04381,1.1133715,-0.7436745,0.041577
202,1.005237,0.718948,0.0557635,0.8478559999999999,0.527058,0.0155404999999999,0.7441960000000001,0.709338,-0.0620345,1.146616,0.526128,0.0053965,1.246776,0.740158,-0.0874235,0.723176,0.914188,-0.0983365,1.2855159999999999,0.945888,-0.1236765,0.925236,0.001616,-0.0016555,1.074764,-0.0016159999999999,0.0016554999999999,0.904657,-0.353812,0.0400635,1.0901059999999998,-0.366052,0.0318375,0.8941060000000001,-0.731432,0.0458605,1.113176,-0.742652,0.0435385
203,1.005569,0.7189865,0.0566215,0.8481069999999999,0.5271365,0.0155725,0.7442970000000001,0.7091765,-0.0617015,1.147137,0.5272965,0.0058755,1.247287,0.7401065,-0.0862655,0.723257,0.9135265,-0.0982605,1.286087,0.9452265,-0.1222705,0.925322,0.0016155,-0.0017724999999999,1.074678,-0.0016155,0.0017724999999999,0.904473,-0.3534635,0.0417045,1.089782,-0.3653834999999999,0.0330945,0.893927,-0.7310635,0.0477255,1.112907,-0.7419035,0.0452745
204,1.005861,0.719036,0.057249,0.848244,0.5271859999999999,0.015389,0.744184,0.709036,-0.0616039999999999,1.147624,0.528326,0.006232,1.247764,0.739966,-0.085261,0.723304,0.911626,-0.098512,1.286694,0.944586,-0.1210019999999999,0.925407,0.0015799999999999,-0.001917,1.074593,-0.0015799999999999,0.001917,0.904305,-0.353024,0.043246,1.089402,-0.365194,0.033961,0.893704,-0.730604,0.049449,1.112594,-0.7416240000000001,0.046921
205,1.0060555,0.7190615,0.057623,0.8486065,0.5271315,0.014992,0.7437365,0.7089715,-0.0618009999999999,1.1481465,0.5295415,0.00631,1.2482665,0.7399115,-0.084474,0.7232965,0.9092015,-0.099174,1.2872965,0.9440315,-0.120024,0.9254745,0.0015254999999999,-0.0019979999999999,1.0745255,-0.0015254999999999,0.001998,0.9041905000000001,-0.3525184999999999,0.044552,1.0889945,-0.3651585,0.034601,0.8934765,-0.7300584999999999,0.051028,1.1122265,-0.7414985,0.048454
206,1.0062155,0.7190615,0.0578905,0.8489765,0.5271315,0.0145695,0.7433065000000001,0.7089015000000001,-0.0622394999999999,1.1483565,0.5297015,0.0065335,1.2487465,0.7399115,-0.0837705,0.7228665000000001,0.9090515,-0.0997705,1.2879665,0.9436315,-0.1192905,0.9255015,0.0015254999999999,-0.0021064999999999,1.0744985,-0.0015254999999999,0.0021065,0.9041135000000001,-0.3520885,0.0454985,1.0886695,-0.3651585,0.0353025,0.8932765,-0.7296085,0.0523995,1.1118765,-0.7414885,0.0499445
207,1.0063795,0.7190615,0.0578985,0.8492075,0.5271115000000001,0.0145034999999999,0.7429775000000001,0.7086815000000001,-0.0631235,1.1486175,0.5297015,0.0066795,1.2494075,0.7398115000000001,-0.0834185,0.7225375,0.9074015,-0.1004585,1.2886375,0.9431315,-0.1188984999999999,0.9255075,0.0015254999999999,-0.0022085,1.0744925,-0.0015254999999999,0.0022084999999999,0.9041565,-0.3517585,0.0460585,1.0884925,-0.3651585,0.0358195,0.8931475,-0.7292285,0.0534265,1.1116175,-0.7414585,0.0512475
208,1.00643,0.719067,0.057821,0.849089,0.5267270000000001,0.01406,0.7425390000000001,0.708197,-0.064257,1.148979,0.529707,0.006962,1.250249,0.7393770000000001,-0.083123,0.7221690000000001,0.905497,-0.101393,1.289089,0.942837,-0.118503,0.925528,0.0015199999999999,-0.002256,1.074472,-0.00152,0.002256,0.90416,-0.351453,0.0465789999999999,1.088281,-0.365153,0.036355,0.8929590000000001,-0.7288629999999999,0.054478,1.111259,-0.741453,0.052598
209,1.006451,0.7191295,0.057718,0.849031,0.5262395,0.0136769999999999,0.741661,0.7071894999999999,-0.065658,1.1494309999999999,0.5298495000000001,0.007316,1.251291,0.7381995000000001,-0.082911,0.721511,0.9053595,-0.103651,1.2894809999999999,0.9425795,-0.1182709999999999,0.925536,0.0014765,-0.002338,1.074464,-0.0014764999999999,0.002338,0.904203,-0.3510805,0.047067,1.08798,-0.3652404999999999,0.036839,0.892761,-0.7284405,0.055575,1.110881,-0.7414605000000001,0.053996
210,1.0063894999999998,0.7191685,0.057671,0.8489465,0.5257385,0.013244,0.7400765,0.7052485,-0.06739,1.1500165,0.5297885,0.007828,1.2528165,0.7364084999999999,-0.0827189999999999,0.7209965,0.9033185,-0.105659,1.2897865,0.9428885,-0.118199,0.9255585,0.0014094999999999,-0.0024679999999999,1.0744415,-0.0014094999999999,0.002468,0.9042015,-0.3507715,0.047599,1.0877295,-0.3652114999999999,0.037334,0.8925265,-0.7281315,0.056656,1.1104765,-0.7413615,0.055515
211,1.0062849999999999,0.7191275,0.0576949999999999,0.848786,0.5252675,0.0133239999999999,0.7378359999999999,0.7022075,-0.0694849999999999,1.150736,0.5294274999999999,0.0086329999999999,1.255036,0.7332975,-0.082675,0.720256,0.9010575,-0.108395,1.289826,0.9425075,-0.118175,0.925585,0.0013364999999999,-0.002615,1.074415,-0.0013365,0.0026149999999999,0.9042040000000001,-0.3501525,0.0481339999999999,1.087856,-0.3656525,0.037986,0.892276,-0.7275125,0.05778,1.1099759999999999,-0.7410625,0.057006
212,1.006046,0.718956,0.0578835,0.848358,0.524266,0.0133875,0.734908,0.698096,-0.0714515,1.151538,0.528936,0.0094705,1.257908,0.728306,-0.0827455,0.719448,0.897856,-0.1111755,1.289638,0.940706,-0.1187655,0.925625,0.001283,-0.0027865,1.074375,-0.0012829999999999,0.0027865,0.904139,-0.349154,0.0487125,1.087905,-0.365714,0.0387425,0.891958,-0.726514,0.0589284999999999,1.109398,-0.740964,0.0585264999999999
