sb224sc-HT22-VT27/4dt907/src/data/kinect_good_preprocessed_not_cut_A11_mediapipe/B13_kinect_mirrored.csv
FrameNo,nose_3d_x,nose_3d_y,nose_3d_z,left_shoulder_3d_x,left_shoulder_3d_y,left_shoulder_3d_z,left_elbow_3d_x,left_elbow_3d_y,left_elbow_3d_z,right_shoulder_3d_x,right_shoulder_3d_y,right_shoulder_3d_z,right_elbow_3d_x,right_elbow_3d_y,right_elbow_3d_z,left_wrist_3d_x,left_wrist_3d_y,left_wrist_3d_z,right_wrist_3d_x,right_wrist_3d_y,right_wrist_3d_z,left_hip_3d_x,left_hip_3d_y,left_hip_3d_z,right_hip_3d_x,right_hip_3d_y,right_hip_3d_z,left_knee_3d_x,left_knee_3d_y,left_knee_3d_z,right_knee_3d_x,right_knee_3d_y,right_knee_3d_z,left_ankle_3d_x,left_ankle_3d_y,left_ankle_3d_z,right_ankle_3d_x,right_ankle_3d_y,right_ankle_3d_z
0,1.0064929999999999,0.762396,0.0290695,0.839184,0.481256,0.0134795,0.7859240000000001,0.2447659999999999,-0.0151354999999999,1.170254,0.493436,0.0085785,1.226954,0.252876,-0.0026834999999999,0.868074,0.297306,-0.2301795,1.220054,0.059403,-0.0760995,0.926569,0.000896,-0.0001965,1.073431,-0.000896,0.0001965,0.898904,-0.334644,0.0381145,1.095314,-0.339844,0.0291725,0.896414,-0.662614,0.0769445,1.101864,-0.6594140000000001,0.0741495
1,1.0062404999999999,0.7620295,0.0286975,0.8392775,0.4812195,0.0136235,0.7857075,0.2450594999999999,-0.0147684999999999,1.1703075,0.4932795,0.0086925,1.2267575,0.2531195,-0.0023184999999999,0.8678475,0.2976094999999999,-0.2309405,1.2198875,0.0590375,-0.0761405,0.9265765,0.0008905,-0.0002504999999999,1.0734235,-0.0008905,0.0002505,0.8989175,-0.3344805,0.0382265,1.0953395,-0.3399205,0.0292255,0.8964575,-0.6624905,0.0768095,1.1016774999999999,-0.6602104999999999,0.0736815
2,1.0059165,0.7616665,0.0282464999999999,0.8392435,0.4813064999999999,0.0136654999999999,0.7913535,0.2453465,-0.0246225,1.1704235,0.4931665,0.0088504999999999,1.2266135,0.2531965,-0.0022025,0.8679034999999999,0.2979265,-0.2326054999999999,1.2198034999999998,0.0591924999999999,-0.0760255,0.9265734999999999,0.0008545,-0.0002665,1.0734265,-0.0008545,0.0002664999999999,0.8988435,-0.3343535,0.0382594999999999,1.0956215,-0.3377135,0.0283674999999999,0.8966135000000001,-0.6623235,0.0766975,1.1014735,-0.6578935,0.0741014999999999
3,1.0057954999999998,0.7615999999999999,0.028246,0.8392665,0.48136,0.013703,0.7917765,0.24571,-0.024684,1.1708565,0.49312,0.009255,1.2264065,0.25309,-0.0020729999999999,0.8677064999999999,0.29813,-0.2331859999999999,1.2197265,0.059232,-0.075916,0.9265985,0.00083,-0.000282,1.0734015,-0.00083,0.0002819999999999,0.8987965,-0.33428,0.038287,1.0955205,-0.33796,0.028405,0.8964365,-0.6631100000000001,0.076149,1.1014665,-0.6581600000000001,0.074032
4,1.005572,0.7614825000000001,0.0280585,0.8391650000000002,0.4816225,0.0136805,0.7919250000000001,0.2463925,-0.0245915,1.170765,0.4927125,0.0091035,1.225995,0.2533725,-0.0017754999999999,0.867575,0.2985425,-0.2333984999999999,1.219665,0.0595955,-0.0758885,0.9265760000000001,0.0008274999999999,-0.0003755,1.073424,-0.0008274999999999,0.0003755,0.898725,-0.3339275,0.0383285,1.094891,-0.3387675,0.0286965,0.8963550000000001,-0.6628575,0.0758865,1.101625,-0.6585075,0.0743365
5,1.0052605,0.761149,0.0276665,0.8390815,0.481689,0.0137815,0.7927915,0.247369,-0.0264405,1.1706915,0.492599,0.0091745,1.2257315,0.253409,-0.0015664999999999,0.8675015,0.298759,-0.2338725,1.2195915,0.059681,-0.0756425,0.9266265,0.000762,-0.0003234999999999,1.0733735,-0.000762,0.0003234999999999,0.8986315,-0.334281,0.0384705,1.0947665,-0.338621,0.0286815,0.8961715000000001,-0.6628310000000001,0.0758145,1.1013815,-0.6579510000000001,0.0742325
6,1.0047154999999999,0.7606769999999999,0.0271354999999999,0.8389325000000001,0.4816769999999999,0.0137694999999999,0.7925625000000001,0.247557,-0.0264145,1.1707825,0.492707,0.0094364999999999,1.2254824999999998,0.253497,-0.0014175,0.8672325000000001,0.299027,-0.2342544999999999,1.2194625000000001,0.0600379999999999,-0.0753645,0.9266395000000001,0.000711,-0.0004045,1.0733605,-0.0007109999999999,0.0004044999999999,0.8987725,-0.333193,0.0384384999999999,1.0943605,-0.338913,0.0288414999999999,0.8962625,-0.662433,0.0758865,1.1010925,-0.658133,0.0742755
7,1.0038845,0.759828,0.025819,0.8388774999999999,0.481628,0.013969,0.7922775,0.247968,-0.0253899999999999,1.1711175,0.492848,0.009968,1.2252875,0.252928,-0.0010509999999999,0.8672675,0.298798,-0.233006,1.2193575,0.059378,-0.074936,0.9266595,0.000705,-0.0004229999999999,1.0733405,-0.000705,0.0004229999999999,0.8987075,-0.334072,0.038805,1.0943384999999999,-0.339282,0.029192,0.8959375,-0.662752,0.0760919999999999,1.1010775,-0.657922,0.074227
8,1.003356,0.759384,0.0251479999999999,0.838797,0.481674,0.0140319999999999,0.792377,0.248424,-0.025694,1.1712069999999999,0.492784,0.0101879999999999,1.225057,0.252824,-0.000815,0.866857,0.298834,-0.232808,1.219277,0.059183,-0.074618,0.926673,0.000681,-0.000446,1.073327,-0.000681,0.0004459999999999,0.898677,-0.334076,0.0389169999999999,1.094202,-0.339326,0.0292829999999999,0.895877,-0.662776,0.076099,1.100997,-0.657726,0.0742539999999999
9,1.00279,0.7588945,0.0244155,0.838734,0.4816844999999999,0.0140954999999999,0.7924640000000001,0.2488145,-0.0260035,1.171284,0.4927745,0.0103965,1.224874,0.2527045,-0.0006104999999999,0.864934,0.2990144999999999,-0.2313895,1.219214,0.0589795,-0.0742994999999999,0.9266890000000001,0.0006575,-0.0004644999999999,1.073311,-0.0006575,0.0004644999999999,0.8986540000000001,-0.3340855,0.0390125,1.0940999999999999,-0.3393655,0.0293664999999999,0.895784,-0.6628354999999999,0.0761085,1.100914,-0.6575854999999999,0.0743185
10,1.002194,0.758373,0.0235995,0.8386629999999999,0.481673,0.0141424999999999,0.792543,0.249133,-0.0264305,1.171383,0.492783,0.0105975,1.224713,0.252573,-0.0004315,0.862973,0.299243,-0.2297095,1.219153,0.058716,-0.0740194999999999,0.926702,0.0006389999999999,-0.0004725,1.073298,-0.000639,0.0004725,0.898643,-0.334097,0.0390864999999999,1.094018,-0.339467,0.0295064999999999,0.8956729999999999,-0.662887,0.0761105,1.100853,-0.657517,0.0743755
11,1.0016014999999998,0.7578685000000001,0.0227595,0.8385745,0.4816485,0.0141945,0.7926445,0.2493985,-0.0269294999999999,1.1714445,0.4927885,0.0107635,1.2245545,0.2524685,-0.0002664999999999,0.8625045,0.2995585,-0.2297795,1.2191144999999999,0.0584485,-0.0737695,0.9267125,0.0006235,-0.0004764999999999,1.0732875,-0.0006235,0.0004765,0.8986045,-0.3341215,0.0391645,1.0939855,-0.3395115,0.0296305,0.8956045,-0.6629415,0.0761215,1.1008145,-0.6574415,0.0744365
12,1.001047,0.75748,0.022017,0.838472,0.48162,0.014219,0.7927620000000001,0.24962,-0.0274449999999999,1.171462,0.4928,0.010854,1.224412,0.25242,-0.0001029999999999,0.862072,0.30005,-0.2298499999999999,1.219082,0.058207,-0.07352,0.926723,0.000608,-0.0004819999999999,1.073277,-0.0006079999999999,0.000482,0.898582,-0.33414,0.039221,1.093958,-0.33949,0.029729,0.895532,-0.66298,0.076236,1.100762,-0.65727,0.074488
13,1.0004845,0.7570844999999999,0.0213275,0.8383785000000001,0.4816045,0.0142465,0.7929285,0.2498245,-0.0278095,1.1714485,0.4927845,0.0108905,1.2242985,0.2524045,2.650000000000569e-05,0.8616985,0.3005045,-0.2298204999999999,1.2190685,0.0579565,-0.0732604999999999,0.9267295,0.0005954999999999,-0.0004874999999999,1.0732705,-0.0005955,0.0004875,0.8985685,-0.3341754999999999,0.0392485,1.0939485,-0.3394755,0.0298225,0.8955185,-0.6629055,0.0762905,1.1007185,-0.6569755,0.0745675
14,0.999887,0.7566805,0.0206535,0.838286,0.4815905,0.0142795,0.7931159999999999,0.2499805,-0.0282854999999999,1.171446,0.4927505,0.0108935,1.224206,0.2524105,0.0001525,0.861396,0.3009305,-0.2298184999999999,1.219056,0.0577045,-0.0730484999999999,0.926732,0.0005845,-0.0004894999999999,1.073268,-0.0005845,0.0004895,0.898556,-0.3341294999999999,0.0392505,1.093951,-0.3394594999999999,0.0299055,0.895516,-0.6628595,0.0763625,1.100696,-0.6566695,0.0746435
15,0.999325,0.756328,0.0200265,0.838156,0.481558,0.0142995,0.7933060000000001,0.250118,-0.0286635,1.171446,0.492728,0.0108955,1.224076,0.252428,0.0003025,0.8611260000000001,0.3012979999999999,-0.2298665,1.219046,0.0574929999999999,-0.0728765,0.926732,0.000575,-0.0004914999999999,1.073268,-0.000575,0.0004914999999999,0.898546,-0.334092,0.0392535,1.093977,-0.339422,0.0299425,0.895516,-0.662822,0.0764035,1.100676,-0.6563720000000001,0.0747275
16,0.998729,0.7559635,0.0193724999999999,0.838016,0.4815235,0.0143064999999999,0.793486,0.2502435,-0.0290725,1.171436,0.4927235,0.0108974999999999,1.223956,0.2524635,0.0004244999999999,0.860896,0.3016735,-0.2299054999999999,1.2190159999999999,0.0573475,-0.0727955,0.926732,0.0005635,-0.0004905,1.073268,-0.0005635,0.0004904999999999,0.898526,-0.3340565,0.0392555,1.093994,-0.3393865,0.0299424999999999,0.895526,-0.6627765,0.0764435,1.100656,-0.6560864999999999,0.0748045
17,0.9981685000000001,0.7556554999999999,0.0187914999999999,0.8378595,0.4814755,0.0143144999999999,0.7934895000000001,0.2502755,-0.0290725,1.1713795,0.4927455,0.0108974999999999,1.2238195,0.2524955,0.0005414999999999,0.8608895,0.3019955,-0.2299255,1.2189694999999998,0.0572274999999999,-0.0727255,0.9267355,0.0005515,-0.0004885,1.0732645,-0.0005514999999999,0.0004884999999999,0.8984894999999999,-0.3339645,0.0391845,1.0939975,-0.3393645,0.0299424999999999,0.8955295,-0.6625045,0.0764505,1.1006395,-0.6558945,0.0748185
18,0.9976495,0.7554,0.01829,0.8377105,0.48142,0.014328,0.7934905,0.2503,-0.029186,1.1713405,0.49276,0.010906,1.2236704999999999,0.25252,0.000682,0.8609105,0.30178,-0.22936,1.2189405,0.057106,-0.07264,0.9267445,0.000537,-0.0004779999999999,1.0732555,-0.0005369999999999,0.0004779999999999,0.8984605,-0.3339399999999999,0.039136,1.0940085,-0.33934,0.029948,0.8956205,-0.6621100000000001,0.07646,1.1006205,-0.65569,0.074862
19,0.9971635,0.755231,0.0178575,0.8375755,0.481371,0.0143074999999999,0.7935355,0.250381,-0.0297375,1.1712755,0.492781,0.0108664999999999,1.2234955,0.252591,0.0008074999999999,0.8609755,0.302401,-0.2299394999999999,1.2189055,0.056972,-0.0725595,0.9267535,0.000526,-0.0004625,1.0732465,-0.000526,0.0004624999999999,0.8984354999999999,-0.3339189999999999,0.0390815,1.0940215,-0.339189,0.0299074999999999,0.8957055,-0.661699,0.0764664999999999,1.1006055,-0.655479,0.0748915
20,0.9967195,0.755099,0.0174964999999999,0.8374635,0.481339,0.0142575,0.7937235,0.250389,-0.0302815,1.1712135,0.492789,0.0108385,1.2232935,0.252659,0.0009035,0.8589535,0.302749,-0.2274135,1.2188535,0.056804,-0.0724735,0.9267635,0.000519,-0.0004434999999999,1.0732365,-0.0005189999999999,0.0004434999999999,0.8983935,-0.333941,0.0390475,1.0940275,-0.339101,0.0298705,0.8958135,-0.661341,0.0764785,1.1005835,-0.655351,0.0749094999999999
21,0.9963160000000001,0.7550290000000001,0.0171745,0.837371,0.481309,0.0141945,0.793891,0.250359,-0.0306935,1.171131,0.492779,0.0107665,1.223101,0.252729,0.0009405,0.8588709999999999,0.303409,-0.2279545,1.2188109999999999,0.05663,-0.0724345,0.926774,0.000519,-0.0004204999999999,1.073226,-0.0005189999999999,0.0004205,0.8983210000000001,-0.333961,0.0390365,1.094033,-0.3390309999999999,0.0298335,0.895931,-0.6609809999999999,0.0764935,1.100571,-0.655261,0.0749235
22,0.996036,0.7550290000000001,0.0169669999999999,0.8372809999999999,0.481299,0.0141219999999999,0.794131,0.250319,-0.03108,1.1710509999999998,0.492779,0.0106969999999999,1.222891,0.252809,0.0009709999999999,0.861111,0.303409,-0.226955,1.218751,0.056439,-0.072415,0.926783,0.000519,-0.0004,1.073217,-0.0005189999999999,0.0003999999999999,0.898261,-0.333981,0.0390219999999999,1.09404,-0.3389609999999999,0.0297949999999999,0.896051,-0.660631,0.0765039999999999,1.1005909999999999,-0.655251,0.0749229999999999
23,0.995872,0.755028,0.0168314999999999,0.837183,0.481298,0.0140444999999999,0.794353,0.250248,-0.0314655,1.171003,0.492788,0.0106194999999999,1.222703,0.252888,0.0009964999999999,0.8629730000000001,0.303408,-0.2273204999999999,1.218703,0.056253,-0.0723905,0.926793,0.000518,-0.0003785,1.073207,-0.000518,0.0003784999999999,0.898193,-0.334062,0.0389964999999999,1.094071,-0.338892,0.0297424999999999,0.896163,-0.660292,0.0765005,1.100613,-0.6552520000000001,0.0749185
24,0.9957885,0.7550185,0.0168095,0.8371105,0.4812885,0.0139555,0.7945605,0.2501585,-0.0318554999999999,1.1709705,0.4927885,0.0105575,1.2225305,0.2529585,0.0010285,0.8627605,0.3030184999999999,-0.2297195,1.2186505,0.0560424999999999,-0.0723694999999999,0.9268035,0.0005135,-0.0003554999999999,1.0731964999999999,-0.0005135,0.0003555,0.8981105,-0.3342315,0.0389855,1.0941025,-0.3388315,0.0296955,0.8963004999999999,-0.6599615,0.0764225,1.1006505,-0.6552615,0.0748955
25,0.9958335000000001,0.7550595,0.0168424999999999,0.8370685,0.4812695,0.0138674999999999,0.7945785000000001,0.2500595,-0.0321765,1.1709485,0.4927795,0.0104744999999999,1.2223685,0.2529995,0.0009974999999999,0.8627885,0.3024695,-0.2304465,1.2185685,0.0558385,-0.0723665,0.9268175,0.0005095,-0.0003285,1.0731825,-0.0005095,0.0003284999999999,0.8980385,-0.3344205,0.0389964999999999,1.0941375,-0.3387405,0.0296474999999999,0.8964185000000001,-0.6597505,0.0764505,1.1007085,-0.6553705,0.0748745
26,0.9958995,0.7552460000000001,0.0168789999999999,0.8370445,0.481256,0.0137609999999999,0.7946145,0.249996,-0.03262,1.1709445,0.492766,0.0104119999999999,1.2222345,0.252996,0.0009639999999999,0.8619545,0.302546,-0.22864,1.2184545,0.055475,-0.07239,0.9268315,0.0005079999999999,-0.000299,1.0731685,-0.000508,0.000299,0.8979645,-0.334644,0.03904,1.0941605,-0.338694,0.0295809999999999,0.8964845,-0.659774,0.076469,1.1007745,-0.655474,0.074857
27,0.9959675,0.755557,0.016909,0.8370825,0.481267,0.013634,0.7947725,0.2498669999999999,-0.033123,1.1709425,0.492757,0.0103399999999999,1.2221225,0.252967,0.0008939999999999,0.8622325,0.301977,-0.22871,1.2183324999999998,0.055114,-0.07243,0.9268425,0.000511,-0.0002749999999999,1.0731575,-0.000511,0.0002749999999999,0.8978925,-0.334833,0.039077,1.0941865,-0.338663,0.029542,0.8965725,-0.659773,0.0764799999999999,1.1008625,-0.655543,0.074849
28,0.996043,0.756044,0.017022,0.837144,0.481284,0.013543,0.794904,0.249684,-0.034066,1.170954,0.4927539999999999,0.010262,1.222034,0.252934,0.000805,0.8626440000000001,0.301344,-0.2288529999999999,1.218204,0.054765,-0.0724829999999999,0.926853,0.0005219999999999,-0.0002529999999999,1.073147,-0.000522,0.000253,0.897834,-0.334946,0.03911,1.094236,-0.338626,0.029495,0.896644,-0.659806,0.076514,1.100944,-0.6556059999999999,0.074843
29,0.996204,0.7566590000000001,0.0172725,0.837234,0.481309,0.0134745,0.795044,0.249469,-0.0349834999999999,1.170974,0.492739,0.0101564999999999,1.221994,0.252899,0.0006914999999999,0.863034,0.300739,-0.2290545,1.2180639999999998,0.054373,-0.0725244999999999,0.926862,0.000532,-0.0002385,1.073138,-0.0005319999999999,0.0002385,0.897804,-0.335151,0.0391665,1.094322,-0.338581,0.0294545,0.896734,-0.659851,0.0765425,1.1010339999999998,-0.6556609999999999,0.0748625
30,0.996476,0.757413,0.017698,0.837313,0.481373,0.013379,0.795133,0.249303,-0.0357639999999999,1.171023,0.492703,0.010077,1.2219529999999998,0.252853,0.00056,0.863383,0.300193,-0.229206,1.217883,0.053924,-0.072576,0.926872,0.000553,-0.0002229999999999,1.073128,-0.0005529999999999,0.000223,0.897793,-0.335307,0.039233,1.094405,-0.338627,0.029415,0.896803,-0.6599569999999999,0.076593,1.101143,-0.655767,0.074874
31,0.9968165,0.7582150000000001,0.0182799999999999,0.8374135,0.481475,0.0133049999999999,0.7952535000000001,0.249145,-0.0365,1.1710734999999999,0.4926649999999999,0.0100059999999999,1.2219435,0.2527749999999999,0.0004479999999999,0.8636935,0.299715,-0.229438,1.2176935,0.0534609999999999,-0.072658,0.9268805,0.000587,-0.000217,1.0731195,-0.000587,0.0002169999999999,0.8977935,-0.335435,0.0392859999999999,1.0944915,-0.338635,0.0293859999999999,0.8969335,-0.6600149999999999,0.0766419999999999,1.1012434999999998,-0.6558849999999999,0.074903
32,0.9972175000000001,0.7591175,0.0189785,0.8375265000000001,0.4815775,0.0132375,0.7955065,0.2489974999999999,-0.0372765,1.1711065,0.4926275,0.0098435,1.2219265,0.2526474999999999,0.0003505,0.8639765,0.2992575,-0.2295144999999999,1.2174865,0.0530005,-0.0727245,0.9268865,0.0006215,-0.0002155,1.0731135,-0.0006215,0.0002155,0.8977765,-0.3355825,0.0393435,1.0945845,-0.3386325,0.0293685,0.8970065,-0.6600725,0.0767555,1.1013465,-0.6559625,0.0749415
33,0.9976505000000001,0.759992,0.019717,0.8376835,0.481702,0.0131329999999999,0.7957035,0.248892,-0.037902,1.1711335,0.492582,0.0096859999999999,1.2219135,0.252442,0.0002329999999999,0.8642735,0.299272,-0.230415,1.2172735000000001,0.052493,-0.072805,0.9268895,0.000655,-0.0002219999999999,1.0731105,-0.000655,0.0002219999999999,0.8978035,-0.335638,0.0393989999999999,1.0946635,-0.338678,0.029355,0.8970835,-0.6601279999999999,0.076861,1.1014434999999998,-0.6560779999999999,0.074959
34,0.998099,0.760856,0.0205594999999999,0.8378369999999999,0.481796,0.0130225,0.795767,0.248716,-0.0378175,1.171187,0.492536,0.0095785,1.221897,0.252196,0.0001685,0.864487,0.298636,-0.2309005,1.217077,0.052011,-0.0728805,0.92689,0.000695,-0.0002404999999999,1.07311,-0.000695,0.0002404999999999,0.897817,-0.335704,0.0394795,1.0947669999999998,-0.338624,0.0292704999999999,0.897137,-0.660194,0.0770125,1.101517,-0.656204,0.0750025
35,0.9985275000000001,0.761641,0.0214415,0.8380285000000001,0.481911,0.0129304999999999,0.7958185,0.248551,-0.0377275,1.1712185,0.492491,0.0094834999999999,1.2218685,0.251951,0.0001045,0.8664785,0.298391,-0.2331805,1.2169285,0.051698,-0.0729104999999999,0.9268895,0.000735,-0.0002655,1.0731105,-0.000735,0.0002655,0.8978285,-0.335779,0.0395654999999999,1.0948535,-0.338559,0.0292155,0.8971785,-0.6602589999999999,0.0771805,1.1015985,-0.656389,0.0750915
36,0.9989290000000001,0.762238,0.02231,0.838227,0.482008,0.012862,0.7958170000000001,0.248388,-0.037633,1.171257,0.492438,0.009409,1.221837,0.2516779999999999,3.200000000000425e-05,0.867847,0.298328,-0.235098,1.216777,0.051393,-0.072978,0.926891,0.000772,-0.000293,1.073109,-0.000772,0.000293,0.8978470000000001,-0.335872,0.039649,1.094937,-0.338502,0.029163,0.8972170000000002,-0.660322,0.077349,1.101647,-0.656562,0.075187
37,0.9992985000000001,0.7626745,0.0231805,0.8384075,0.4820844999999999,0.0128065,0.7953275,0.2482245,-0.0367905,1.1712775,0.4923745,0.0093445,1.2217975,0.2514045,-3.849999999999687e-05,0.8677975,0.2985045,-0.2365405,1.2166375,0.0511065,-0.0730305,0.9268935,0.0008045,-0.0003224999999999,1.0731065,-0.0008045,0.0003225,0.8978575,-0.3359655,0.0397475,1.0950075,-0.3384555,0.0291235,0.8972375000000001,-0.6603755,0.0774895,1.1016975,-0.6567555,0.0752785
38,0.9995955,0.7629049999999999,0.0239519999999999,0.8385724999999999,0.482165,0.0127619999999999,0.7944625000000001,0.247995,-0.034524,1.1712725,0.492325,0.0093219999999999,1.2217625,0.251175,-9.699999999999986e-05,0.8670925,0.298455,-0.236408,1.2165225,0.050897,-0.073078,0.9268925000000001,0.000841,-0.000351,1.0731074999999999,-0.000841,0.0003509999999999,0.8978625000000001,-0.336005,0.039845,1.0950375,-0.338445,0.0290889999999999,0.8972424999999999,-0.660455,0.077582,1.1017025,-0.6569050000000001,0.0753919999999999
39,0.9998015000000001,0.7629440000000001,0.024583,0.8386865,0.482214,0.0127739999999999,0.7937465000000001,0.247804,-0.0323549999999999,1.1712865,0.492294,0.009318,1.2217265,0.250974,-0.000136,0.8671965,0.298194,-0.235763,1.2164465,0.050777,-0.073123,0.9268905000000001,0.0008609999999999,-0.000389,1.0731095,-0.000861,0.000389,0.8978665000000001,-0.336026,0.039924,1.0950475,-0.3384459999999999,0.0290519999999999,0.8972365,-0.660496,0.077667,1.1017065,-0.657036,0.075496
40,0.9999775,0.7629370000000001,0.0251005,0.8387805,0.482247,0.0128235,0.7931705,0.247667,-0.0306915,1.1713005,0.492257,0.0093235,1.2216905,0.250797,-0.0001864999999999,0.8672105,0.297967,-0.2356444999999999,1.2163905,0.050695,-0.0731745,0.9268895,0.000868,-0.0004214999999999,1.0731105,-0.000868,0.0004214999999999,0.8978705,-0.336023,0.0399865,1.0950525,-0.338453,0.0290135,0.8972505,-0.660543,0.0777185,1.1017105,-0.657183,0.0755935
41,1.000101,0.7629345000000001,0.0255159999999999,0.838863,0.4822545,0.0128679999999999,0.792673,0.2475945,-0.029021,1.171343,0.4922545,0.0093929999999999,1.221673,0.2506545,-0.0002009999999999,0.867213,0.2976445,-0.2355719999999999,1.216343,0.0506155,-0.073222,0.926889,0.0008705,-0.000451,1.073111,-0.0008705,0.000451,0.897873,-0.3360255,0.040046,1.095076,-0.3383555,0.0289619999999999,0.8972930000000001,-0.6605655,0.0777789999999999,1.101713,-0.6572454999999999,0.075687
42,1.0001755,0.7629345000000001,0.0258749999999999,0.8388965000000002,0.4822545,0.0129479999999999,0.7920965,0.2475145,-0.026774,1.1713665,0.4922145,0.0094729999999999,1.2216465,0.2505545,-0.000143,0.8666564999999999,0.2976145,-0.23421,1.2163165,0.0506015,-0.07326,0.9268895,0.0008705,-0.000496,1.0731105,-0.0008705,0.0004959999999999,0.8978965000000001,-0.3360455,0.0401109999999999,1.0950955,-0.3382655,0.0289269999999999,0.8973065,-0.6606555,0.07786,1.1016565,-0.6572454999999999,0.0757569999999999
43,1.000219,0.7628849999999999,0.026084,0.838908,0.482255,0.013001,0.7915179999999999,0.247475,-0.024618,1.171408,0.4921649999999999,0.009525,1.221628,0.250465,-8.89999999999988e-05,0.866108,0.297625,-0.2326659999999999,1.216308,0.050586,-0.073276,0.92689,0.000871,-0.000536,1.07311,-0.000871,0.000536,0.897948,-0.336045,0.040144,1.095103,-0.338235,0.028981,0.8973180000000001,-0.660725,0.07786,1.101598,-0.657245,0.075789
44,1.000239,0.7627015,0.0261994999999999,0.838892,0.4822615,0.0130454999999999,0.791422,0.2475115,-0.0238755,1.171452,0.4921215,0.0095974999999999,1.221592,0.2503815,-4.350000000000187e-05,0.866102,0.2978215,-0.2325114999999999,1.216282,0.0505855,-0.0732915,0.926892,0.0008775,-0.0005745,1.073108,-0.0008775,0.0005744999999999,0.8979920000000001,-0.3360785,0.0401684999999999,1.095092,-0.3382185,0.0290244999999999,0.897302,-0.6607785,0.0778494999999999,1.101532,-0.6572685,0.0758244999999999
45,1.000246,0.7624725,0.0262395,0.838894,0.4822625,0.0131224999999999,0.7910940000000001,0.2475425,-0.0224235,1.171494,0.4920724999999999,0.0096854999999999,1.221564,0.2502725,-1.5000000000015e-06,0.865824,0.2979624999999999,-0.2315105,1.216264,0.0505965,-0.0732505,0.926893,0.0008825,-0.0006125,1.073107,-0.0008825,0.0006124999999999,0.898034,-0.3360875,0.0401865,1.0950739999999999,-0.3382075,0.0290654999999999,0.897284,-0.6608675,0.0778395,1.101454,-0.6573075,0.0758554999999999
46,1.0002415,0.7621535,0.0262815,0.8388795,0.4822635,0.0132344999999999,0.7900595,0.2473435,-0.0207395,1.1715395,0.4920334999999999,0.0097934999999999,1.2215295,0.2501935,5.049999999999499e-05,0.8652695,0.2977535,-0.2297975,1.2162495,0.0506275,-0.0732075,0.9268955,0.0008815,-0.0006545,1.0731045,-0.0008815,0.0006544999999999,0.8980895,-0.3361065,0.0402094999999999,1.0950385,-0.3382265,0.0291214999999999,0.8972495,-0.6609965,0.0778555,1.1013795,-0.6572765,0.0758925
47,1.000235,0.761779,0.0263225,0.838874,0.482249,0.0133844999999999,0.788574,0.247069,-0.0189025,1.171594,0.491979,0.0099374999999999,1.221494,0.250119,0.0001064999999999,0.8647040000000001,0.297539,-0.2280554999999999,1.216224,0.050663,-0.0731655,0.926899,0.0008789999999999,-0.0006955,1.073101,-0.000879,0.0006955,0.898164,-0.336111,0.0402355,1.095012,-0.338241,0.0291705,0.897214,-0.661101,0.0778415,1.101324,-0.657221,0.0759344999999999
48,1.00023,0.7614495,0.026336,0.838871,0.4822195,0.0135339999999999,0.7885610000000001,0.2471095,-0.018503,1.171671,0.4919195,0.0100939999999999,1.221441,0.2500394999999999,0.0001889999999999,0.8643810000000001,0.2975595,-0.226736,1.216201,0.0507144999999999,-0.073116,0.926904,0.0008745,-0.000737,1.073096,-0.0008745,0.0007369999999999,0.8982110000000001,-0.3360705,0.04026,1.094979,-0.3382605,0.0292219999999999,0.897111,-0.6611705000000001,0.077829,1.1012609999999998,-0.6571305000000001,0.0759749999999999
49,1.000233,0.7610979999999999,0.0262355,0.8388599999999999,0.482208,0.0136615,0.78877,0.247358,-0.0184674999999999,1.17176,0.491888,0.0102415,1.2214,0.249958,0.0002785,0.86405,0.297588,-0.2253784999999999,1.21619,0.050774,-0.0730685,0.9269080000000001,0.00087,-0.0007734999999999,1.073092,-0.0008699999999999,0.0007735,0.89827,-0.336022,0.0402755,1.09494,-0.338252,0.0292925,0.89701,-0.6612020000000001,0.0778035,1.1012,-0.657012,0.0760135
50,1.000242,0.7607895,0.0260915,0.838844,0.4821895,0.0137885,0.790294,0.2478595,-0.0195575,1.171834,0.4918395,0.0103745,1.221364,0.2498895,0.0003654999999999,0.863684,0.2975295,-0.2242284999999999,1.216184,0.0508275,-0.0729885,0.926913,0.0008625,-0.0008114999999999,1.073087,-0.0008625,0.0008114999999999,0.8983240000000001,-0.3359805,0.0402825,1.094915,-0.3382205,0.0293455,0.896914,-0.6612105,0.0778075,1.101164,-0.6569105000000001,0.0760245
51,1.0002505,0.760485,0.025847,0.8388375,0.482175,0.01386,0.7902675,0.248285,-0.019545,1.1719075,0.491805,0.010487,1.2213175,0.249825,0.0004359999999999,0.8632975,0.297235,-0.223516,1.2161875,0.050871,-0.072906,0.9269175000000001,0.000863,-0.000835,1.0730825,-0.000863,0.000835,0.8983575,-0.335925,0.040259,1.0948895,-0.338215,0.0293809999999999,0.8968275,-0.6611950000000001,0.077778,1.1011374999999999,-0.6568550000000001,0.076067
52,1.000256,0.7602205000000001,0.025591,0.838839,0.4821605,0.013887,0.787699,0.2486705,-0.0180689999999999,1.1719789999999999,0.4917705,0.010588,1.221269,0.2497705,0.000501,0.8618390000000001,0.2967105,-0.2208959999999999,1.216179,0.0508975,-0.0728159999999999,0.926921,0.0008635,-0.0008559999999999,1.073079,-0.0008635,0.000856,0.898379,-0.3358294999999999,0.040215,1.094862,-0.3381794999999999,0.029408,0.896759,-0.6612195,0.077743,1.101119,-0.6567695,0.076135
53,1.0002669999999998,0.7599555,0.025328,0.838843,0.4821555,0.013914,0.784693,0.2487555,-0.015523,1.172063,0.4917655,0.01069,1.221223,0.2497155,0.000599,0.860363,0.2963155,-0.217904,1.216183,0.0509134999999999,-0.072714,0.926925,0.0008605,-0.0008789999999999,1.073075,-0.0008604999999999,0.0008789999999999,0.898403,-0.3357345,0.040178,1.094857,-0.3381544999999999,0.029435,0.896693,-0.6612445,0.077708,1.101093,-0.6566945000000001,0.076188
54,1.0002815,0.7597075000000001,0.025067,0.8388545000000001,0.4821575,0.013928,0.7816045,0.2487774999999999,-0.012,1.1721345,0.4917575,0.0107869999999999,1.2211745,0.2497275,0.000695,0.8585645,0.2956375,-0.213992,1.2161845,0.0509354999999999,-0.072612,0.9269315,0.0008585,-0.0008999999999999,1.0730685,-0.0008585,0.0008999999999999,0.8984345,-0.3356125,0.040136,1.0948615,-0.3380925,0.029462,0.8966345,-0.6612625,0.077679,1.1010945,-0.6566225,0.076236
55,1.000297,0.759487,0.024802,0.8388820000000001,0.482167,0.013942,0.781792,0.249157,-0.0122019999999999,1.172232,0.491747,0.010883,1.2211319999999999,0.249737,0.0007829999999999,0.858772,0.295897,-0.2142989999999999,1.216192,0.050953,-0.072519,0.926936,0.000857,-0.000916,1.073064,-0.000857,0.000916,0.898452,-0.335563,0.040116,1.094872,-0.338023,0.029477,0.8965920000000001,-0.661293,0.0776449999999999,1.101112,-0.656543,0.076257
56,1.0003155,0.7593015000000001,0.0244934999999999,0.8388915,0.4821715,0.0139424999999999,0.7820015000000001,0.2495415,-0.0128565,1.1723215,0.4917615,0.0109424999999999,1.2210915,0.2497515,0.0008704999999999,0.8590515,0.2961915,-0.2149565,1.2162015,0.0509445,-0.0724365,0.9269405,0.0008565,-0.0009305,1.0730595,-0.0008565,0.0009305,0.8984515,-0.3355085,0.0400965,1.0948965,-0.3380085,0.0294825,0.8965315,-0.6613685,0.0776065,1.1011415,-0.6564785,0.0762625
57,1.0003315,0.759123,0.0242005,0.8389285,0.482173,0.0139405,0.7821585,0.250013,-0.0137824999999999,1.1723885,0.491763,0.0109715,1.2210585,0.249753,0.0009415,0.8594385,0.296503,-0.2158365,1.2162085,0.050904,-0.0723765,0.9269425,0.0008579999999999,-0.0009394999999999,1.0730575,-0.0008579999999999,0.0009395,0.8984585,-0.335427,0.0400615,1.0949235,-0.338007,0.0294805,0.8965185,-0.661397,0.0775715,1.1011785,-0.656477,0.0763175
58,1.0003305,0.758993,0.023929,0.8389445,0.482173,0.013938,0.7823145,0.2504429999999999,-0.0146489999999999,1.1724545,0.491763,0.010992,1.2210345,0.249753,0.001012,0.8598045,0.296793,-0.2166469999999999,1.2162145,0.0508669999999999,-0.0723169999999999,0.9269445000000001,0.0008579999999999,-0.0009489999999999,1.0730555,-0.0008579999999999,0.000949,0.8984645,-0.335347,0.040027,1.0949545,-0.337987,0.029478,0.8965045000000001,-0.661467,0.07754,1.1012145,-0.656477,0.076381
59,1.00033,0.758893,0.0236789999999999,0.8389610000000001,0.482173,0.0139119999999999,0.7822410000000001,0.250493,-0.014641,1.172521,0.491773,0.0109929999999999,1.221001,0.249773,0.0010529999999999,0.859791,0.296793,-0.216642,1.216211,0.050827,-0.072302,0.926946,0.0008579999999999,-0.000953,1.073054,-0.0008579999999999,0.0009529999999999,0.8984610000000001,-0.3352569999999999,0.039991,1.094986,-0.3379169999999999,0.0294799999999999,0.8964910000000001,-0.661557,0.077515,1.1012609999999998,-0.656417,0.0764459999999999
60,1.0003235,0.7588435,0.0234789999999999,0.8389785000000001,0.4821835,0.0138739999999999,0.7822585000000001,0.2506335,-0.014881,1.1725984999999999,0.4917735,0.0109849999999999,1.2209685000000001,0.2498135,0.0010729999999999,0.8599085000000001,0.2969035,-0.21682,1.2162085,0.0507745,-0.0723,0.9269485000000001,0.0008594999999999,-0.000955,1.0730514999999998,-0.0008595,0.0009549999999999,0.8984885,-0.3350765,0.0399529999999999,1.0950255,-0.3378265,0.0294789999999999,0.8965485,-0.6616365000000001,0.077497,1.1012985,-0.6562965000000001,0.076547
61,1.0003199999999999,0.758822,0.023301,0.8389880000000001,0.482192,0.013845,0.7857680000000001,0.250982,-0.019176,1.172658,0.491792,0.010973,1.220958,0.249862,0.001079,0.8620880000000001,0.298002,-0.221484,1.216198,0.050718,-0.072294,0.926952,0.0008609999999999,-0.0009599999999999,1.073048,-0.000861,0.00096,0.898518,-0.334918,0.03993,1.095043,-0.337828,0.029464,0.896618,-0.661688,0.077476,1.101338,-0.656278,0.076568
62,1.0003054999999998,0.758818,0.02312,0.8389895,0.482218,0.013825,0.7893095,0.251108,-0.0227419999999999,1.1727095,0.491818,0.010948,1.2209395,0.249908,0.001095,0.8640595,0.2988679999999999,-0.2254779999999999,1.2161795,0.050653,-0.072278,0.9269525,0.000861,-0.0009539999999999,1.0730475,-0.000861,0.000954,0.8985395,-0.334752,0.039918,1.0950375,-0.337832,0.029463,0.8966795,-0.661742,0.077452,1.1013395,-0.656282,0.076583
63,1.000286,0.758808,0.0229414999999999,0.838973,0.482228,0.0138004999999999,0.789253,0.251138,-0.0235385,1.172743,0.491858,0.0108884999999999,1.220923,0.249948,0.0011134999999999,0.864283,0.299018,-0.2261395,1.216173,0.0505819999999999,-0.0722695,0.926952,0.000859,-0.0009445,1.073048,-0.000859,0.0009444999999999,0.8985430000000001,-0.334642,0.0399044999999999,1.095035,-0.337842,0.0294614999999999,0.8967430000000001,-0.661752,0.0774344999999999,1.101343,-0.656292,0.0765955
64,1.0002665,0.7587945,0.022811,0.8389584999999999,0.4822445,0.013769,0.7892485000000001,0.2511245,-0.0245099999999999,1.1727285,0.4918745,0.010772,1.2209085,0.2499945,0.00113,0.8645785,0.2991845,-0.226973,1.2161785,0.0505245,-0.072263,0.9269505000000001,0.0008575,-0.0009279999999999,1.0730495,-0.0008575,0.000928,0.8985385,-0.3345654999999999,0.039908,1.0950335,-0.3378755,0.029459,0.8968185,-0.6617655,0.077407,1.1013385,-0.6562655,0.076631
65,1.000243,0.7587785,0.0227685,0.838945,0.4822585,0.0137165,0.7893749999999999,0.2511185,-0.0257635,1.172705,0.4918985,0.0106305,1.220895,0.2500485,0.0010975,0.864975,0.2992985,-0.2280885,1.216175,0.0504795,-0.0722485,0.926948,0.0008575,-0.0009084999999999,1.0730520000000001,-0.0008575,0.0009084999999999,0.8985150000000001,-0.3345415,0.0399215,1.0950179999999998,-0.3379215,0.0294655,0.896865,-0.6617815,0.0774165,1.101315,-0.6562815,0.0766755
66,1.0002175,0.7588214999999999,0.0227595,0.8389425,0.4822715,0.0136384999999999,0.7929325,0.2509515,-0.0289974999999999,1.1726725,0.4919115,0.0104674999999999,1.2208824999999999,0.2501015,0.0010594999999999,0.8668125,0.2998615,-0.2318425,1.2161624999999998,0.0504405,-0.0722425,0.9269435,0.0008575,-0.0008885,1.0730565,-0.0008575,0.0008885,0.8984825,-0.3345185,0.0399445,1.0950045,-0.3379784999999999,0.0294735,0.8969225,-0.6616785000000001,0.0774285,1.1012925,-0.6562985,0.0766075
67,1.0001959999999999,0.7589045,0.0227904999999999,0.838952,0.4822844999999999,0.0135085,0.7933520000000001,0.2509045,-0.0297465,1.172642,0.4919345,0.0102224999999999,1.2208919999999999,0.2501744999999999,0.0009894999999999,0.8670720000000001,0.2998444999999999,-0.2325815,1.2161719999999998,0.0504234999999999,-0.0722315,0.92694,0.0008575,-0.0008745,1.07306,-0.0008575,0.0008745,0.898472,-0.3345355,0.0399465,1.094983,-0.3380355,0.0294865,0.896972,-0.6615455,0.0774525,1.101262,-0.6563154999999999,0.0765365
68,1.0001715,0.759059,0.0228459999999999,0.8389715,0.482279,0.0133679999999999,0.7937615,0.250879,-0.030443,1.1725915,0.491949,0.0099659999999999,1.2209115,0.250249,0.0008949999999999,0.8670515,0.299819,-0.232526,1.2161715,0.050398,-0.072256,0.9269355,0.00086,-0.000864,1.0730645,-0.00086,0.0008639999999999,0.8984415,-0.334601,0.0399379999999999,1.0949535,-0.338091,0.0295039999999999,0.8970215,-0.661381,0.077467,1.1012415,-0.6563709999999999,0.0764649999999999
69,1.000155,0.7592805,0.022913,0.8390490000000002,0.4822705,0.013154,0.7941590000000001,0.2508605,-0.0311309999999999,1.172549,0.4919905,0.009681,1.220969,0.2503505,0.000706,0.867039,0.2998004999999999,-0.232459,1.216189,0.0504015,-0.072309,0.92693,0.0008604999999999,-0.0008509999999999,1.07307,-0.0008605,0.000851,0.898429,-0.3346695,0.039951,1.09493,-0.3381195,0.02952,0.897049,-0.6611895,0.07749,1.101219,-0.6563695,0.076418
70,1.000136,0.7595765,0.0229834999999999,0.839107,0.4822465,0.0129344999999999,0.794567,0.2506465,-0.0318535,1.172507,0.4920365,0.0093934999999999,1.221037,0.2504565,0.0005194999999999,0.867027,0.2996565,-0.2323785,1.216197,0.0503915,-0.0723584999999999,0.926924,0.0008635,-0.0008374999999999,1.073076,-0.0008635,0.0008374999999999,0.8984070000000001,-0.3346935,0.0399665,1.094908,-0.3381535,0.0295375,0.897077,-0.6610635,0.0775135,1.1012069999999998,-0.6564435000000001,0.0763675
71,1.000127,0.7598825,0.023054,0.839176,0.4822225,0.012719,0.794906,0.2504625,-0.0324099999999999,1.172466,0.4920724999999999,0.009128,1.221136,0.2505825,0.000327,0.867316,0.2990925,-0.2331309999999999,1.216226,0.0503855,-0.0724409999999999,0.92692,0.0008655,-0.0008349999999999,1.07308,-0.0008655,0.000835,0.8983760000000001,-0.3347375,0.039977,1.094896,-0.3382275,0.029528,0.897106,-0.6609775,0.077552,1.101186,-0.6564975,0.076311
72,1.0001155,0.7602375,0.02316,0.8392375,0.4821875,0.0124939999999999,0.7951975,0.2503175,-0.032935,1.1723975,0.4921375,0.0088879999999999,1.2212375,0.2506975,7.799999999999474e-05,0.8656375000000001,0.2976675,-0.232654,1.2162475,0.0503775,-0.072524,0.9269175000000001,0.0008655,-0.00083,1.0730825,-0.0008655,0.0008299999999999,0.8983375000000001,-0.3349325,0.040007,1.0948755000000001,-0.3383325,0.0295399999999999,0.8971275,-0.6609125,0.0776,1.1011775,-0.6566425,0.0762259999999999
73,1.000108,0.7606200000000001,0.0232944999999999,0.839291,0.48216,0.0122844999999999,0.795191,0.25015,-0.0330385,1.1723009999999998,0.49221,0.0086654999999999,1.221361,0.25087,-0.0001925,0.865881,0.29723,-0.2334224999999999,1.216261,0.0503809999999999,-0.0726425,0.926917,0.0008669999999999,-0.0008415,1.073083,-0.0008669999999999,0.0008414999999999,0.898281,-0.3351,0.0400414999999999,1.094863,-0.33836,0.0295674999999999,0.897141,-0.66084,0.0776554999999999,1.101171,-0.65675,0.0762164999999999
74,1.000095,0.761082,0.0235215,0.839345,0.482132,0.0120785,0.795195,0.249992,-0.0329664999999999,1.172135,0.492292,0.0083585,1.221475,0.251022,-0.0004984999999999,0.866065,0.296822,-0.2340165,1.216275,0.0504159999999999,-0.0728164999999999,0.926916,0.0008709999999999,-0.0008535,1.073084,-0.000871,0.0008535,0.898235,-0.335258,0.0400795,1.094848,-0.3383879999999999,0.0295905,0.897165,-0.660808,0.0777125,1.101175,-0.6568579999999999,0.0762555
75,1.0000795,0.7615735,0.0238515,0.8393915000000001,0.4821035,0.0119035,0.7951815,0.2498735,-0.0332544999999999,1.1719815,0.4923935,0.0080725,1.2216115,0.2511735,-0.0008685,0.8662315,0.2964135,-0.2353445,1.2162915,0.0504595,-0.0729845,0.9269125,0.0008755,-0.0008654999999999,1.0730875,-0.0008755,0.0008655,0.8981915,-0.3354065,0.0401235,1.0948385,-0.3384164999999999,0.0296205,0.8971715000000001,-0.6608065,0.0777765,1.1011815,-0.6569665,0.0763015
76,1.0000705,0.762049,0.0242165,0.8394105000000001,0.482089,0.0117695,0.7949105,0.249749,-0.0331564999999999,1.1718405,0.4924989999999999,0.0077775,1.2217405000000001,0.2513289999999999,-0.0012355,0.8663305,0.2959489999999999,-0.2366905,1.2163005,0.050523,-0.0732205,0.9269085,0.000881,-0.0008694999999999,1.0730915,-0.000881,0.0008695,0.8981605,-0.335561,0.0401575,1.0948025,-0.338381,0.0296025,0.8971905,-0.660811,0.0778505,1.1011905,-0.657091,0.0763554999999999
77,1.0000935,0.762512,0.024624,0.8394385,0.482072,0.0116309999999999,0.7944685,0.249642,-0.032837,1.1717184999999999,0.4926319999999999,0.0074699999999999,1.2219185,0.251482,-0.0016639999999999,0.8660585000000001,0.2955319999999999,-0.237754,1.2163185,0.0506659999999999,-0.073584,0.9269015,0.000883,-0.0008669999999999,1.0730985,-0.000883,0.0008669999999999,0.8981385,-0.335698,0.040222,1.0947835,-0.338368,0.0296019999999999,0.8972185,-0.660838,0.0779489999999999,1.1013285,-0.657388,0.0764489999999999
78,1.0001585,0.762981,0.0250675,0.8394985,0.482041,0.0115954999999999,0.7940885,0.249521,-0.0329695,1.1715684999999998,0.492731,0.0071284999999999,1.2221185,0.251611,-0.0020495,0.8656885,0.295211,-0.2389695,1.2163785,0.051082,-0.0740795,0.9268875,0.000892,-0.0008795,1.0731125,-0.000892,0.0008794999999999,0.8981485000000001,-0.335829,0.0403045,1.0947655,-0.338359,0.0296164999999999,0.8972585000000001,-0.660979,0.0780625,1.1014485,-0.657719,0.0765305
79,1.0002335,0.763397,0.0255755,0.8395755,0.481997,0.0115895,0.7932255,0.249447,-0.0328295,1.1714255,0.492807,0.0067895,1.2223755,0.251847,-0.0025594999999999,0.8646755,0.295157,-0.2399345,1.2164454999999998,0.05155,-0.0747444999999999,0.9268745,0.000903,-0.0008874999999999,1.0731255,-0.000903,0.0008875,0.8981555,-0.335923,0.0404035,1.0947475,-0.338363,0.0296495,0.8973155,-0.6611229999999999,0.0782045,1.1015855,-0.658123,0.0766245
80,1.0003225,0.763888,0.0261885,0.8396625,0.481948,0.0115625,0.7923625,0.2493979999999999,-0.0326445,1.1712725,0.492878,0.0064605,1.2227425,0.252148,-0.0031904999999999,0.8623525000000001,0.295108,-0.2409074999999999,1.2165225,0.052209,-0.0757075,0.9268565,0.000919,-0.0009074999999999,1.0731435,-0.000919,0.0009074999999999,0.8981725,-0.336092,0.0404995,1.0947475,-0.338352,0.0296965,0.8973525,-0.661262,0.0783635,1.1017625,-0.658452,0.0767245
81,1.0004205,0.7643770000000001,0.0268755,0.8397235000000001,0.481897,0.0115105,0.7914535,0.2493469999999999,-0.0328325,1.1711435,0.492937,0.0061485,1.2232535,0.252627,-0.0038785,0.8592934999999999,0.295057,-0.2418334999999999,1.2170135,0.054223,-0.0777635,0.9268405,0.000937,-0.0009084999999999,1.0731595,-0.000937,0.0009085,0.8981835,-0.336273,0.0405785,1.0947565,-0.338323,0.0297205,0.8974035,-0.661403,0.0784985,1.1019335,-0.6587729999999999,0.0768025
82,1.000549,0.764834,0.027672,0.839789,0.481884,0.011429,0.790529,0.249294,-0.0324919999999999,1.171049,0.493014,0.0058759999999999,1.223939,0.253294,-0.004747,0.856179,0.295004,-0.243079,1.217969,0.05745,-0.080859,0.926814,0.000959,-0.000876,1.073186,-0.000959,0.000876,0.898189,-0.3363259999999999,0.040606,1.094745,-0.3383759999999999,0.029703,0.897439,-0.661486,0.078594,1.102049,-0.659116,0.076842
83,1.000719,0.7651990000000001,0.0285285,0.839924,0.481929,0.0112955,0.789384,0.249349,-0.0320455,1.171004,0.493069,0.0058305,1.225074,0.254559,-0.0060824999999999,0.856074,0.296969,-0.2440965,1.219844,0.062848,-0.0864865,0.926781,0.000982,-0.0008405,1.073219,-0.000982,0.0008405,0.898184,-0.336351,0.0406155,1.094728,-0.338431,0.0296755,0.897474,-0.6615909999999999,0.0786875,1.1021139999999998,-0.659361,0.0768685
84,1.0009305,0.765477,0.029419,0.8402525000000001,0.4822369999999999,0.011097,0.7870425,0.250527,-0.03228,1.1709425,0.4931069999999999,0.005845,1.2268725,0.257107,-0.0078439999999999,0.8557625,0.299757,-0.24512,1.2232525,0.070644,-0.0950699999999999,0.9267415,0.001014,-0.0007939999999999,1.0732585000000001,-0.001014,0.000794,0.8981725,-0.336393,0.040592,1.0947075,-0.338503,0.029644,0.8974925,-0.6617230000000001,0.078776,1.1021725,-0.659643,0.076874
85,1.0011979999999998,0.7657025000000001,0.03039,0.840612,0.4825725,0.010927,0.784162,0.2522025,-0.032097,1.170882,0.4931525,0.005892,1.229462,0.2623825,-0.009992,0.849952,0.3032125,-0.245388,1.227592,0.0811475,-0.107108,0.926696,0.0010515,-0.0007469999999999,1.073304,-0.0010515,0.000747,0.898122,-0.3364375,0.04057,1.094695,-0.3385875,0.029652,0.897502,-0.6618474999999999,0.078843,1.102212,-0.6597274999999999,0.076842
86,1.0015399999999999,0.7659005,0.0315025,0.84158,0.4833105,0.0107575,0.77963,0.2544305,-0.0322205,1.17082,0.4931305,0.0059155,1.23249,0.2684605,-0.0124974999999999,0.84017,0.3082305,-0.2461705,1.23356,0.0975015,-0.1202605,0.92665,0.0010955,-0.0007244999999999,1.07335,-0.0010955,0.0007245,0.89805,-0.3364895,0.0405255,1.094697,-0.3386595,0.0296485,0.8975,-0.6619794999999999,0.0789095,1.10224,-0.6598295,0.0767695
87,1.002009,0.7661129999999999,0.032878,0.842595,0.483993,0.010625,0.773865,0.257853,-0.033987,1.170855,0.493013,0.005914,1.236315,0.276303,-0.0159819999999999,0.832125,0.316543,-0.2472019999999999,1.242565,0.118793,-0.135632,0.926615,0.001141,-0.0007229999999999,1.073385,-0.001141,0.000723,0.8979550000000001,-0.336497,0.040459,1.09473,-0.338727,0.029611,0.897495,-0.662127,0.078964,1.102215,-0.659957,0.076696
88,1.002602,0.766353,0.034562,0.843612,0.484523,0.010505,0.767192,0.2644229999999999,-0.037747,1.170892,0.4928829999999999,0.005995,1.242722,0.284893,-0.023631,0.8191220000000001,0.3274829999999999,-0.249064,1.251722,0.143163,-0.154744,0.926578,0.00118,-0.0007209999999999,1.073422,-0.00118,0.0007209999999999,0.897852,-0.336487,0.040408,1.094765,-0.338847,0.029567,0.897492,-0.662257,0.078967,1.102142,-0.660057,0.076684
89,1.0032675,0.7665275,0.036353,0.8444885,0.4850075,0.010383,0.7600385000000001,0.2722375,-0.041793,1.1709284999999998,0.4927475,0.006214,1.2490785,0.2947175,-0.0313419999999999,0.8046685,0.3447075,-0.252171,1.2641485000000001,0.1684775,-0.176821,0.9265415,0.0012195,-0.000694,1.0734585,-0.0012195,0.000694,0.8977585,-0.3364425,0.040382,1.0947895,-0.3389724999999999,0.029502,0.8974885,-0.6623525,0.078945,1.1019585,-0.6598625,0.076611
90,1.0039915,0.7666395,0.038202,0.8452425,0.4855494999999999,0.010259,0.7522425,0.2829595,-0.04603,1.1709925,0.4927795,0.00639,1.2572725,0.3051395,-0.039117,0.7884325,0.3665695,-0.256375,1.2785325,0.2037695,-0.199615,0.9265145,0.0012575,-0.000633,1.0734855,-0.0012575,0.000633,0.8976625,-0.3364005,0.040302,1.0948054999999999,-0.3389805,0.029373,0.8974725,-0.6624705,0.078864,1.1017525,-0.6596105,0.076546
91,1.00474,0.7668035000000001,0.040093,0.845845,0.4861935,0.010078,0.7415050000000001,0.2985835,-0.0571539999999999,1.171175,0.4927835,0.006349,1.2683550000000001,0.3175834999999999,-0.047349,0.770985,0.3937035,-0.258845,1.292465,0.2445435,-0.222575,0.926477,0.0012935,-0.0005629999999999,1.073523,-0.0012935,0.000563,0.897535,-0.3363265,0.040156,1.094878,-0.3388765,0.029186,0.897425,-0.6624665,0.078725,1.101495,-0.6592564999999999,0.076406
92,1.0055065,0.7670089999999999,0.0419445,0.8460365,0.486769,0.0098535,0.7299765,0.316409,-0.0679575,1.1715165,0.4927789999999999,0.0061164999999999,1.2806565,0.3335889999999999,-0.0562405,0.7538865000000001,0.424259,-0.2592475,1.3061365,0.2909589999999999,-0.2437375,0.9264345,0.0013349999999999,-0.0004554999999999,1.0735655,-0.0013349999999999,0.0004554999999999,0.8974265000000001,-0.336181,0.0399475,1.0949725,-0.338751,0.0289565,0.8973765,-0.662461,0.0785355,1.1012765,-0.658911,0.0762015
93,1.006354,0.7671745,0.0438425,0.845957,0.4870045,0.0095905,0.7191270000000001,0.3358145,-0.0776505,1.172207,0.4926845,0.0058165,1.292267,0.3512845,-0.0652005,0.737247,0.4569245,-0.2587104999999999,1.319027,0.3417045,-0.2604805,0.926374,0.0013785,-0.0003195,1.073626,-0.0013785,0.0003195,0.897347,-0.3364755,0.0397295,1.095068,-0.3387055,0.0287025,0.897287,-0.6625354999999999,0.0782954999999999,1.101077,-0.6587054999999999,0.0759615
94,1.0072385,0.7672914999999999,0.0458825,0.8458495,0.4870715,0.0094195,0.7090395,0.3563115,-0.0871905,1.1732195,0.4927015,0.0054625,1.3029295,0.3748115,-0.0792905,0.7238095,0.4918615,-0.2579205,1.3317795000000001,0.3973215,-0.2727805,0.9263155,0.0014135,-0.0001704999999999,1.0736845,-0.0014135,0.0001705,0.8972495,-0.3366584999999999,0.0395175,1.0951585,-0.3387785,0.0284155,0.8971695000000001,-0.6626385,0.0780165,1.1009395,-0.6585985000000001,0.0757265
95,1.008023,0.7672075,0.0477984999999999,0.845682,0.4871175,0.0095124999999999,0.700222,0.3776675,-0.0980434999999999,1.174472,0.4931675,0.0048814999999999,1.313122,0.4004875,-0.0934435,0.711192,0.5273075,-0.2563635,1.342872,0.4519375,-0.2826535,0.9262690000000001,0.0014085,8.049999999999724e-05,1.073731,-0.0014084999999999,-8.050000000000418e-05,0.8970720000000001,-0.3371325,0.0393725,1.095176,-0.3391025,0.0281694999999999,0.896982,-0.6630125,0.0777325,1.1007619999999998,-0.6587225,0.0755494999999999
96,1.0086,0.7668839999999999,0.0494165,0.8452370000000001,0.487404,0.0095855,0.6925570000000001,0.399674,-0.1051405,1.175587,0.493864,0.0039014999999999,1.322217,0.428684,-0.1066905,0.6995470000000001,0.561164,-0.2524805,1.350537,0.505404,-0.2887105,0.926261,0.001422,0.0004124999999999,1.073739,-0.0014219999999999,-0.0004125,0.896797,-0.337886,0.0393095,1.095091,-0.339636,0.0278824999999999,0.896697,-0.663606,0.0773784999999999,1.1004569999999998,-0.6590760000000001,0.0753315
97,1.009012,0.7661715,0.0506355,0.8445230000000001,0.4881715,0.0097095,0.685983,0.4247515,-0.1116175,1.176483,0.4949615,0.0024685,1.327853,0.4561115,-0.1149574999999999,0.6892230000000001,0.5945415,-0.2496475,1.357683,0.5619215,-0.2894275,0.92625,0.0014015,0.0007585,1.07375,-0.0014015,-0.0007584999999999,0.896483,-0.3390685,0.0392945,1.095014,-0.3404284999999999,0.0275745,0.896333,-0.6645785000000001,0.0770105,1.100083,-0.6598885,0.0751415
98,1.0092905,0.765113,0.0515375,0.8429685,0.488983,0.0099975,0.6806485000000001,0.4517029999999999,-0.1151125,1.1771285,0.496423,0.0006315,1.3328185000000001,0.4846129999999999,-0.1224825,0.6798785,0.6282730000000001,-0.2490325,1.3609085,0.619183,-0.2899725,0.9262525,0.001368,0.0011465,1.0737475,-0.001368,-0.0011465,0.8961285,-0.340597,0.0392525,1.0948705,-0.341607,0.0272485,0.8958885,-0.6659069999999999,0.0766115,1.0996985,-0.6614169999999999,0.0748905
99,1.0094699999999999,0.7636835000000001,0.0522615,0.841208,0.4900834999999999,0.0105195,0.676308,0.4765434999999999,-0.1173144999999999,1.177488,0.4985135,-0.0012085,1.333928,0.5143435000000001,-0.1271145,0.672508,0.6589935,-0.2447345,1.361558,0.6683235000000001,-0.2902745,0.926266,0.0013165,0.0015545,1.073734,-0.0013165,-0.0015545,0.895748,-0.3423665,0.0393485,1.094652,-0.3432865,0.0270275,0.895398,-0.6677065,0.0763435,1.099338,-0.6633264999999999,0.0747734999999999
100,1.0096225,0.7619185,0.052764,0.8394085,0.4914884999999999,0.011349,0.6751485000000002,0.4986285,-0.1173819999999999,1.1776185,0.5008585,-0.002949,1.3335885,0.5440885000000001,-0.132082,0.6671985,0.6839785,-0.239392,1.3621285,0.7125785,-0.285652,0.9263065,0.0012455,0.001986,1.0736935,-0.0012455,-0.001986,0.8953885,-0.3444615,0.039502,1.0943815,-0.3453715,0.026957,0.8949285,-0.6698915,0.076219,1.0990585,-0.6655114999999999,0.0747869999999999
101,1.0097195,0.7596455,0.0530975,0.8377165,0.4932955,0.0125905,0.6746165,0.5196655,-0.1173755,1.1774165,0.5035755,-0.0044994999999999,1.3329564999999999,0.5710655,-0.1342055,0.6634964999999999,0.7064254999999999,-0.2276955,1.3617065,0.7506655,-0.2835155,0.9263795,0.0011765,0.0023975,1.0736205,-0.0011765,-0.0023974999999999,0.8950065,-0.3470545,0.0397295,1.0940695,-0.3479245,0.0269975,0.8944265000000001,-0.6725345,0.0762144999999999,1.0988565,-0.6681545,0.0748735
102,1.009748,0.757091,0.053286,0.836443,0.495491,0.01406,0.674113,0.538561,-0.117211,1.176843,0.506551,-0.005727,1.332393,0.597481,-0.135211,0.6608229999999999,0.726501,-0.213981,1.361533,0.786041,-0.276481,0.926447,0.0011009999999999,0.0027879999999999,1.073553,-0.0011009999999999,-0.0027879999999999,0.8947430000000001,-0.349709,0.040094,1.093834,-0.350679,0.0272499999999999,0.893943,-0.675439,0.0763669999999999,1.098733,-0.670989,0.075137
103,1.0097859999999999,0.7543945000000001,0.0535449999999999,0.835513,0.4977945,0.0155069999999999,0.673883,0.5569345,-0.111847,1.1763029999999999,0.5094645000000001,-0.006616,1.330593,0.6167645,-0.134867,0.659513,0.7453745,-0.200627,1.361563,0.8142745,-0.265647,0.926525,0.0010515,0.0031009999999999,1.073475,-0.0010515,-0.0031009999999999,0.894543,-0.3521355,0.0404739999999999,1.093626,-0.3535355,0.0276179999999999,0.893483,-0.6786055,0.076661,1.098643,-0.6741054999999999,0.075483
104,1.009909,0.7513704999999999,0.0538644999999999,0.834625,0.5002105,0.0169274999999999,0.674855,0.5758205,-0.1042105,1.175845,0.5121205,-0.0070055,1.326695,0.6343304999999999,-0.1343505,0.659115,0.7642605,-0.1873705,1.361705,0.8395305,-0.2512105,0.926624,0.0010565,0.0034215,1.073376,-0.0010564999999999,-0.0034215,0.894375,-0.3547194999999999,0.0408725,1.093431,-0.3566895,0.0280445,0.893075,-0.6821595,0.0770184999999999,1.098605,-0.6774395000000001,0.0758804999999999
105,1.0101415,0.7483839999999999,0.054199,0.8339525,0.502424,0.018364,0.6768125,0.593814,-0.09669,1.1755025,0.5146139999999999,-0.0069989999999999,1.3223525,0.6480739999999999,-0.1338,0.6592225,0.782474,-0.17428,1.3611825,0.861574,-0.23723,0.9267045,0.0010659999999999,0.003763,1.0732955,-0.001066,-0.0037629999999999,0.8942825000000001,-0.357246,0.041227,1.0933255,-0.359766,0.02845,0.8927925,-0.6856960000000001,0.077399,1.0986425,-0.6807660000000001,0.076302
106,1.0104585,0.7455605,0.0541614999999999,0.8333555,0.5041705,0.0199044999999999,0.6794255,0.6070005,-0.0894254999999999,1.1748455,0.5166605,-0.0065825,1.3182654999999999,0.6624005000000001,-0.1283555,0.6596055000000001,0.7993205,-0.1615155,1.3598255,0.8770105,-0.2231755,0.9267925,0.0011465,0.0041424999999999,1.0732075,-0.0011464999999999,-0.0041425,0.8943055,-0.3593294999999999,0.0416094999999999,1.0932755,-0.3626095,0.0288364999999999,0.8925755,-0.6891895,0.0778165,1.0987055,-0.6839195,0.0767535
107,1.010818,0.742791,0.0540395,0.8330690000000001,0.5062409999999999,0.0213464999999999,0.682699,0.618401,-0.0820645,1.173909,0.5182009999999999,-0.0061324999999999,1.313959,0.674701,-0.1220145,0.660129,0.814991,-0.1475445,1.358829,0.891181,-0.2092045,0.9268800000000001,0.001266,0.0044055,1.0731199999999999,-0.0012659999999999,-0.0044055,0.894419,-0.361309,0.0420365,1.093246,-0.365289,0.0292515,0.892489,-0.692569,0.0782365,1.098819,-0.6870689999999999,0.0772485
108,1.011237,0.7402615,0.0536264999999999,0.832889,0.5080915,0.0227904999999999,0.6864790000000001,0.6299615000000001,-0.0746655,1.173029,0.5191115000000001,-0.0056445,1.309579,0.6855215,-0.1152955,0.660659,0.8288615,-0.1359155,1.357789,0.9025115,-0.1956755,0.926966,0.0013955,0.0044624999999999,1.073034,-0.0013955,-0.0044625,0.894599,-0.3629785,0.0424774999999999,1.093219,-0.3677785,0.0297224999999999,0.892459,-0.6957384999999999,0.0786895,1.0989289999999998,-0.6899985,0.0777964999999999
109,1.0116209999999999,0.7377995,0.053128,0.832835,0.5097995000000001,0.02415,0.690705,0.6397295000000001,-0.06727,1.172245,0.5198195,-0.0050089999999999,1.305795,0.6945695000000001,-0.10894,0.661575,0.8427195000000001,-0.12464,1.357065,0.9121195,-0.18282,0.927036,0.0015665,0.004355,1.072964,-0.0015664999999999,-0.0043549999999999,0.8947849999999999,-0.3646305,0.042942,1.093173,-0.3701605,0.030158,0.892445,-0.6988405,0.079134,1.099045,-0.6930105,0.0783399999999999
110,1.0120125,0.7356324999999999,0.0526645,0.8328635,0.5112224999999999,0.0252925,0.6945635,0.6493125,-0.0614224999999999,1.1715935,0.5202825,-0.0040274999999999,1.3023734999999999,0.7027325,-0.1027124999999999,0.6629535,0.8550125,-0.1157324999999999,1.3565135,0.9196825,-0.1700225,0.9270595,0.0017575,0.0041155,1.0729405,-0.0017575,-0.0041154999999999,0.8949835,-0.3660075,0.0434465,1.0931605,-0.3722175,0.0306295,0.8924835,-0.7016775000000001,0.0796475,1.0991035,-0.6957375,0.0788875
111,1.0123685,0.7336455000000001,0.052178,0.8330235000000001,0.5125355,0.026395,0.6984635,0.6591755,-0.05613,1.1710335,0.5205655,-0.002979,1.3002835,0.7087755,-0.097823,0.6641735,0.8658655000000001,-0.107283,1.3559635,0.9216655,-0.158873,0.9270775,0.0019505,0.0038479999999999,1.0729225,-0.0019505,-0.003848,0.8950935,-0.3674044999999999,0.043834,1.0931495,-0.3739745,0.031037,0.8925135,-0.7042045,0.080145,1.0991335,-0.6985144999999999,0.079285
112,1.012683,0.7317455,0.0516815,0.8333130000000001,0.5139955,0.0275904999999999,0.702243,0.6684755,-0.0515655,1.170583,0.5207155,-0.0019554999999999,1.298433,0.7135155,-0.0937464999999999,0.665153,0.8751855,-0.0996564999999999,1.355603,0.9226855,-0.1485265,0.927087,0.0021254999999999,0.0036004999999999,1.072913,-0.0021255,-0.0036004999999999,0.895193,-0.3689245,0.0441975,1.093156,-0.3755145,0.0313795,0.892563,-0.7066145,0.0806255,1.099193,-0.7010645,0.0796935
113,1.0129765,0.7302365,0.0511775,0.8336505000000001,0.5152964999999999,0.0287635,0.7054104999999999,0.6761165,-0.0486905,1.1703105,0.5207864999999999,-0.0011534999999999,1.2970104999999998,0.7170765,-0.0903265,0.6658305,0.8825265,-0.0938965,1.3559805,0.9237265,-0.1411365,0.9270965,0.0022835,0.0033415,1.0729035,-0.0022835,-0.0033414999999999,0.8953005,-0.3699734999999999,0.0444975,1.0931795,-0.3765635,0.0316365,0.8926405,-0.7085535000000001,0.0810435,1.0992804999999999,-0.7028135,0.0800795
114,1.0132679999999998,0.7288445,0.050649,0.833813,0.5162045000000001,0.029878,0.708283,0.6829645,-0.046386,1.170073,0.5208145000000001,-0.0004359999999999,1.295823,0.7202345,-0.0873519999999999,0.666083,0.8888045,-0.089142,1.355993,0.9218945,-0.134542,0.927103,0.0024194999999999,0.0030929999999999,1.072897,-0.0024194999999999,-0.0030929999999999,0.895373,-0.3706954999999999,0.044774,1.093112,-0.3774054999999999,0.03178,0.892723,-0.7103855,0.081434,1.099393,-0.7046454999999999,0.08037
115,1.0135589999999999,0.727557,0.0501655,0.8339110000000001,0.516647,0.0307785,0.710861,0.688437,-0.0446364999999999,1.169931,0.520967,0.0002645,1.294951,0.722707,-0.0849414999999999,0.666291,0.8944869999999999,-0.0854315,1.356051,0.920207,-0.1288515,0.927121,0.002524,0.0028705,1.072879,-0.0025239999999999,-0.0028704999999999,0.895431,-0.371533,0.0450625,1.093022,-0.378143,0.0318465,0.892801,-0.712063,0.0817755,1.099511,-0.706333,0.0805865
116,1.0138749999999999,0.7265,0.0496599999999999,0.83399,0.51638,0.0315469999999999,0.71313,0.6926,-0.043309,1.16984,0.5211899999999999,0.0009119999999999,1.2942999999999998,0.72486,-0.082881,0.6664300000000001,0.89471,-0.0834309999999999,1.35611,0.91881,-0.124221,0.9271310000000001,0.002588,0.0026969999999999,1.0728689999999999,-0.002588,-0.002697,0.895497,-0.37215,0.0453089999999999,1.092954,-0.37868,0.031865,0.89286,-0.7134900000000001,0.082061,1.0996,-0.70773,0.0807749999999999
117,1.0141209999999998,0.725587,0.0493759999999999,0.8338760000000001,0.515787,0.032131,0.714986,0.6958070000000001,-0.0423049999999999,1.169726,0.5214070000000001,0.001485,1.293796,0.726487,-0.081042,0.666446,0.895337,-0.081682,1.356306,0.919727,-0.1206019999999999,0.927141,0.0026549999999999,0.0025659999999999,1.072859,-0.0026549999999999,-0.0025659999999999,0.895549,-0.372533,0.045519,1.092836,-0.3789929999999999,0.031895,0.892886,-0.714643,0.0823069999999999,1.099696,-0.708993,0.080952
118,1.014359,0.724881,0.0491135,0.833769,0.514971,0.0325275,0.7164889999999999,0.6986009999999999,-0.0416614999999999,1.169649,0.521641,0.0019075,1.293429,0.7276509999999999,-0.0795515,0.666129,0.896261,-0.0803514999999999,1.356309,0.917611,-0.1177815,0.927148,0.0026939999999999,0.0024825,1.072852,-0.002694,-0.0024824999999999,0.8955919999999999,-0.372699,0.0457065,1.092709,-0.3791489999999999,0.0318695,0.892909,-0.7155290000000001,0.0824825,1.099769,-0.7100690000000001,0.0810575
119,1.0145825,0.7243605,0.0488425,0.8336625,0.5143004999999999,0.0327895,0.7175525,0.7002805,-0.0414485,1.1696024999999999,0.5218904999999999,0.0022184999999999,1.2932325,0.7283105,-0.0784625,0.6659125,0.8971905,-0.0794525,1.3567125,0.9215405,-0.1170725,0.9271475,0.0027005,0.0024235,1.0728525,-0.0027005,-0.0024235,0.8956245,-0.3726695,0.0458385,1.0925715,-0.3790894999999999,0.0318165,0.8928925,-0.7162195,0.0826235,1.0998325,-0.7109295000000001,0.0810685
120,1.014789,0.7239875,0.048602,0.8336120000000001,0.5138175,0.03294,0.718202,0.7011674999999999,-0.041457,1.169552,0.5220775,0.0025089999999999,1.2931219999999999,0.7287275,-0.077703,0.6656219999999999,0.8982174999999999,-0.078953,1.356582,0.9185775,-0.1163429999999999,0.927146,0.0026954999999999,0.002388,1.072854,-0.0026955,-0.002388,0.895652,-0.3725625,0.045902,1.092458,-0.3790225,0.031766,0.892822,-0.7167725,0.082732,1.099832,-0.7115425,0.081062
121,1.014949,0.7237595,0.048455,0.83357,0.5135095,0.032945,0.71848,0.7015994999999999,-0.041469,1.16949,0.5223295,0.0027739999999999,1.29308,0.7290495,-0.077131,0.6651100000000001,0.8989495,-0.078911,1.35708,0.9214595,-0.1156209999999999,0.9271469999999999,0.0026785,0.0023569999999999,1.072853,-0.0026785,-0.0023569999999999,0.895694,-0.3724105,0.045944,1.092339,-0.3789305,0.031743,0.89275,-0.7170705,0.082825,1.09984,-0.7120005,0.0810859999999999
122,1.015048,0.7236414999999999,0.0484045,0.833495,0.5130714999999999,0.0329505,0.718615,0.7018015,-0.0414704999999999,1.1694049999999998,0.5224915,0.0030235,1.293035,0.7292814999999999,-0.0766785,0.6645449999999999,0.8995515,-0.0788285,1.3571749999999998,0.9207515,-0.1141085,0.92715,0.0026554999999999,0.0023245,1.07285,-0.0026554999999999,-0.0023244999999999,0.895724,-0.3723285,0.0459445,1.092233,-0.3787985,0.0317055,0.892695,-0.7171985000000001,0.0829085,1.099825,-0.7122785,0.0811205
123,1.015082,0.7235815,0.0484055,0.833338,0.5124015000000001,0.0329655,0.718668,0.7018515000000001,-0.0414575,1.169328,0.5226415,0.0032625,1.2929680000000001,0.7294415000000001,-0.0762655,0.664158,0.9001915,-0.0787654999999999,1.357868,0.9244315,-0.1126855,0.927143,0.0026225,0.0023014999999999,1.072857,-0.0026225,-0.0023014999999999,0.895736,-0.3723385,0.0459274999999999,1.092127,-0.3787085,0.0316935,0.892638,-0.7172685,0.0829815,1.099818,-0.7123685,0.0811544999999999
124,1.0150439999999998,0.723594,0.0484114999999999,0.83314,0.511394,0.0329825,0.71864,0.7018939999999999,-0.0415554999999999,1.16926,0.5226839999999999,0.0033974999999999,1.29291,0.729634,-0.0758695,0.6640000000000001,0.900694,-0.0786695,1.35853,0.928424,-0.1114194999999999,0.927135,0.002595,0.0022765,1.072865,-0.002595,-0.0022765,0.895722,-0.372216,0.0458795,1.091999,-0.378606,0.0316484999999999,0.89257,-0.7172860000000001,0.0830385,1.09978,-0.712396,0.0811945
125,1.0149865,0.7236375,0.048426,0.8328725,0.5101175,0.032917,0.7185825,0.7019475000000001,-0.041634,1.1691725,0.5227375000000001,0.0034959999999999,1.2928525,0.7298375,-0.075465,0.6639425000000001,0.9012375,-0.078605,1.3590725,0.9325975,-0.1100149999999999,0.9271265,0.0025885,0.0022539999999999,1.0728735,-0.0025885,-0.0022539999999999,0.8956985000000001,-0.3720125,0.045841,1.0918385,-0.3784925,0.031611,0.8924725,-0.7172525,0.083098,1.0997325,-0.7124024999999999,0.081231
126,1.0149355,0.723681,0.0484965,0.8326295,0.509081,0.0328474999999999,0.7185195,0.701991,-0.0416695,1.1690495,0.522781,0.0036054999999999,1.2926895,0.730041,-0.0750495,0.6638895,0.901231,-0.0785795,1.3593695000000001,0.938281,-0.1086095,0.9271205,0.002582,0.0022314999999999,1.0728795,-0.002582,-0.0022315,0.8956735,-0.371819,0.0458525,1.0917135,-0.378399,0.0316255,0.8923895,-0.717259,0.0831445,1.0995995,-0.712289,0.0813795
127,1.0148795,0.7237490000000001,0.048608,0.8324145000000001,0.5083890000000001,0.0327839999999999,0.7184745,0.7020390000000001,-0.041717,1.1688645,0.522849,0.0037169999999999,1.2924544999999998,0.730249,-0.074673,0.6638545,0.901049,-0.078553,1.3595644999999998,0.944349,-0.107213,0.9271055,0.0025689999999999,0.0022079999999999,1.0728945,-0.002569,-0.002208,0.8956775,-0.371681,0.0458429999999999,1.0915895,-0.378241,0.031656,0.8922845,-0.717251,0.083173,1.0994745,-0.712241,0.081509
128,1.014786,0.723842,0.0487865,0.8322530000000001,0.5078820000000001,0.0327465,0.718413,0.702072,-0.0417444999999999,1.168593,0.5229320000000001,0.0038415,1.292143,0.730472,-0.0742765,0.663813,0.901322,-0.0785164999999999,1.359283,0.944372,-0.1070265,0.927094,0.0025459999999999,0.0021745,1.072906,-0.0025459999999999,-0.0021744999999999,0.8956840000000001,-0.371548,0.0458275,1.091472,-0.378078,0.0316815,0.892213,-0.717228,0.0832115,1.099353,-0.712218,0.0815605
129,1.0146704999999998,0.723976,0.049044,0.8321495,0.5075959999999999,0.03276,0.7183695,0.7021059999999999,-0.0416949999999999,1.1683695,0.522986,0.003939,1.2917895,0.7306459999999999,-0.073893,0.6644095,0.901566,-0.0783529999999999,1.3593294999999999,0.950696,-0.105623,0.9270825,0.002527,0.002126,1.0729175,-0.002527,-0.0021259999999999,0.8957035,-0.371564,0.045818,1.0913735,-0.377894,0.031712,0.8921495,-0.717204,0.083266,1.0992495,-0.711984,0.081619
130,1.0145335,0.7241169999999999,0.0493454999999999,0.8320585,0.507357,0.0328134999999999,0.7183285000000001,0.702167,-0.0416185,1.1681485,0.523037,0.0040584999999999,1.2913785,0.7308169999999999,-0.0735475,0.6652585000000001,0.901597,-0.0780475,1.3593585,0.957227,-0.1042575,0.9270725,0.002485,0.0020724999999999,1.0729275,-0.002485,-0.0020725,0.8957095,-0.371543,0.0457724999999999,1.0912795,-0.377693,0.0317205,0.8920985,-0.7171930000000001,0.0833285,1.0991485,-0.711833,0.0816995
131,1.014387,0.7242470000000001,0.049691,0.831976,0.5070870000000001,0.032872,0.718306,0.702237,-0.041523,1.167946,0.523097,0.004179,1.2909359999999999,0.730987,-0.073192,0.666226,0.901517,-0.077602,1.3593359999999999,0.960457,-0.103042,0.9270579999999999,0.0024479999999999,0.002021,1.072942,-0.0024479999999999,-0.002021,0.8957190000000002,-0.371353,0.045714,1.091228,-0.377493,0.031738,0.892046,-0.717123,0.0833879999999999,1.099026,-0.711753,0.0818
132,1.0142265,0.7243904999999999,0.0500985,0.8319315,0.5068505,0.0329315,0.7182915000000001,0.7023405,-0.0414345,1.1677615000000001,0.5231505,0.0042864999999999,1.2904815,0.7311205,-0.0728635,0.6672715,0.9015205,-0.0770835,1.3589815,0.9604805,-0.1026435,0.9270484999999999,0.0024185,0.0019705,1.0729515,-0.0024184999999999,-0.0019705,0.8957345,-0.3711595,0.0456665,1.0911635,-0.3772995,0.0317085,0.8920315,-0.7170395,0.0834385,1.0989415,-0.7117295,0.0818255
133,1.0140815,0.72451,0.050487,0.8318845,0.50665,0.032986,0.7182845,0.7024299999999999,-0.04134,1.1676445,0.5231999999999999,0.004372,1.2900245,0.7312399999999999,-0.072573,0.6685245,0.90169,-0.076563,1.3589745,0.9611999999999998,-0.102533,0.9270355,0.0023979999999999,0.001901,1.0729645,-0.002398,-0.001901,0.8957535000000001,-0.37095,0.0455939999999999,1.0911035,-0.37711,0.031656,0.8920245000000001,-0.71702,0.083449,1.0988645,-0.7117100000000001,0.081839
134,1.0139665,0.724613,0.0508555,0.8318665000000001,0.506473,0.0330555,0.7182965,0.702503,-0.0411975,1.1675465,0.523223,0.0044595,1.2895965,0.7313029999999999,-0.0723395,0.6697465,0.901893,-0.0760595,1.3586165000000001,0.961213,-0.1024294999999999,0.9270305000000001,0.002382,0.0018275,1.0729695,-0.002382,-0.0018274999999999,0.8957515,-0.370787,0.0455155,1.0910585,-0.376917,0.0315495,0.8920465,-0.716987,0.0834795,1.0988064999999998,-0.711697,0.0818855
135,1.0138635,0.724722,0.0512064999999999,0.8318445000000001,0.506292,0.0331095,0.7183445000000002,0.702572,-0.0410285,1.1674545,0.523252,0.0045244999999999,1.2891445,0.7313620000000001,-0.0721205,0.6708945000000002,0.902122,-0.0755305,1.3586145,0.961722,-0.1023805,0.9270235,0.002364,0.0017684999999999,1.0729765,-0.0023639999999999,-0.0017685,0.8957435000000001,-0.3706979999999999,0.0454414999999999,1.0909995,-0.3767379999999999,0.0314015,0.8920545,-0.716978,0.0834785,1.0987345,-0.711688,0.0818955
136,1.013772,0.7248535,0.0515575,0.831824,0.5061335,0.0331444999999999,0.7183940000000001,0.7027035,-0.0408745,1.167374,0.5232735000000001,0.0045694999999999,1.288744,0.7314035,-0.0719225,0.6718740000000001,0.9023035,-0.0751225,1.358384,0.9622235,-0.1023424999999999,0.9270200000000001,0.0023444999999999,0.0017314999999999,1.0729799999999998,-0.0023444999999999,-0.0017315,0.8957390000000001,-0.3706965,0.0453924999999999,1.090948,-0.3766165,0.0312645,0.892054,-0.7169865,0.0834505,1.098664,-0.7117765,0.0818705
137,1.013688,0.7250095,0.0519045,0.831812,0.5059795,0.0331475,0.7184620000000002,0.7028295,-0.0407405,1.167372,0.5232795,0.0045915,1.288382,0.7314395,-0.0718005,0.672742,0.9025095,-0.0748805,1.357982,0.9627195,-0.1024305,0.927011,0.0023154999999999,0.0017245,1.072989,-0.0023154999999999,-0.0017244999999999,0.895744,-0.3708205,0.0453215,1.0909259999999998,-0.3765905,0.0310635,0.892042,-0.7170305,0.0833755,1.098642,-0.7119105,0.0817705
138,1.0136204999999998,0.7251255,0.0521955,0.8318085,0.5058155,0.0331335,0.7185485,0.7029555,-0.0406084999999999,1.1673784999999999,0.5232755,0.0046005,1.2880485,0.7314554999999999,-0.0717064999999999,0.6731885,0.9026655,-0.0748664999999999,1.3576385,0.9630955,-0.1025464999999999,0.9270015,0.0022915,0.0016985,1.0729985,-0.0022914999999999,-0.0016984999999999,0.8957285000000001,-0.3709945,0.0451935,1.0909235,-0.3766144999999999,0.0308525,0.8920285,-0.7171145,0.0833005,1.0985885,-0.7120945000000001,0.0816365
139,1.0135645,0.725267,0.0524614999999999,0.8318105,0.505657,0.0331065,0.7186405,0.703067,-0.0405065,1.1673905,0.523287,0.0045984999999999,1.2877705,0.731467,-0.0716345,0.6735705000000001,0.902967,-0.0749245,1.3572805,0.963567,-0.1027245,0.9269885,0.002251,0.0016525,1.0730115,-0.0022509999999999,-0.0016525,0.8956695000000001,-0.371163,0.0450575,1.0909285,-0.376643,0.0306494999999999,0.8920105,-0.717233,0.0832104999999999,1.0985705000000001,-0.7123430000000001,0.0814645
140,1.013574,0.725417,0.0526255,0.831872,0.505587,0.0329855,0.7188019999999999,0.703177,-0.0405105,1.167452,0.523297,0.0045024999999999,1.287572,0.731487,-0.0717035,0.6739919999999999,0.903217,-0.0750935,1.357002,0.963937,-0.1030234999999999,0.926973,0.002195,0.0015555,1.073027,-0.0021949999999999,-0.0015555,0.8956320000000001,-0.371353,0.0448325,1.09101,-0.376673,0.0303315,0.892042,-0.717383,0.0829975,1.098622,-0.712743,0.0810945
141,1.013644,0.7255685000000001,0.0525469999999999,0.831993,0.5054985,0.032676,0.718993,0.7032585,-0.040744,1.167573,0.5233085,0.0042279999999999,1.287453,0.7315185,-0.072002,0.674463,0.9039585,-0.075442,1.356793,0.9641885,-0.103582,0.926959,0.0021214999999999,0.0014749999999999,1.073041,-0.0021214999999999,-0.001475,0.8955720000000001,-0.3715715,0.044397,1.091149,-0.3767915,0.0297339999999999,0.892123,-0.7175715,0.082593,1.098713,-0.7132015,0.0804719999999999
142,1.013765,0.7257365,0.0521859999999999,0.83216,0.5053865000000001,0.032104,0.71921,0.7033165,-0.041292,1.16774,0.5232965,0.003685,1.2873999999999999,0.7314765000000001,-0.072607,0.67474,0.9047365,-0.076067,1.35662,0.9641165,-0.1045069999999999,0.926939,0.0020384999999999,0.001416,1.073061,-0.0020384999999999,-0.001416,0.8954900000000001,-0.3718135,0.043634,1.091336,-0.3771235,0.0287629999999999,0.89226,-0.7177635,0.081886,1.09882,-0.7137534999999999,0.07943
143,1.0139115,0.7258199999999999,0.051548,0.8323435000000001,0.50535,0.031307,0.7194035,0.70341,-0.042167,1.1679235000000001,0.52333,0.0028829999999999,1.2873735,0.73146,-0.073472,0.6750435,0.90547,-0.077102,1.3563635,0.9641,-0.105822,0.9269105,0.001992,0.0014139999999999,1.0730895,-0.0019919999999999,-0.0014139999999999,0.8953335,-0.37211,0.042272,1.0915735,-0.37743,0.027388,0.8924235,-0.7179500000000001,0.0808929999999999,1.0989735,-0.71428,0.0780859999999999
144,1.014088,0.725856,0.05051,0.832573,0.505356,0.0301449999999999,0.719633,0.703446,-0.043407,1.168153,0.523386,0.001729,1.287413,0.731466,-0.074702,0.6754030000000001,0.906136,-0.078702,1.356053,0.964136,-0.107692,0.9268780000000001,0.0019559999999999,0.001445,1.073122,-0.0019559999999999,-0.001445,0.895113,-0.372444,0.04016,1.0919079999999999,-0.377874,0.025466,0.892613,-0.718074,0.079527,1.099143,-0.714954,0.0761189999999999
145,1.0142754999999999,0.7259114999999999,0.049059,0.8328045,0.5053915,0.028595,0.7198645,0.7034914999999999,-0.045023,1.1683744999999999,0.5234415,0.000197,1.2873645,0.7314714999999999,-0.076358,0.6757945000000001,0.9066415,-0.080898,1.3556845,0.9639915,-0.1102279999999999,0.9268365000000001,0.0019004999999999,0.0014549999999999,1.0731635,-0.0019004999999999,-0.0014549999999999,0.8947645,-0.3728685,0.037392,1.0922915,-0.3785385,0.022865,0.8928145000000001,-0.7182485000000001,0.077717,1.0992945,-0.7159985,0.073431
146,1.014471,0.726012,0.047075,0.833049,0.505452,0.026572,0.720109,0.703592,-0.04714,1.168579,0.5235420000000001,-0.001819,1.287269,0.731492,-0.078549,0.676229,0.906742,-0.083809,1.355299,0.963892,-0.113269,0.926778,0.0018,0.0013969999999999,1.073222,-0.0017999999999999,-0.001397,0.894339,-0.373458,0.033807,1.092673,-0.379278,0.019538,0.8930089999999999,-0.7184879999999999,0.075357,1.099469,-0.717088,0.070211
147,1.014631,0.7261690000000001,0.0446955,0.833267,0.5055890000000001,0.0241215,0.7202770000000001,0.703689,-0.0498635,1.168737,0.523719,-0.0042335,1.287097,0.731529,-0.0813085,0.6766369999999999,0.906919,-0.0871685,1.354857,0.963769,-0.1168085,0.9266580000000001,0.0016559999999999,0.0013714999999999,1.0733419999999998,-0.001656,-0.0013714999999999,0.893837,-0.3740409999999999,0.0295205,1.093096,-0.380011,0.0155245,0.893207,-0.718671,0.0725445,1.099647,-0.718201,0.0665125
148,1.014706,0.726208,0.041876,0.833698,0.505848,0.0212009999999999,0.720378,0.703718,-0.053143,1.168648,0.523898,-0.006556,1.286738,0.731288,-0.084556,0.677028,0.907258,-0.091136,1.354298,0.963408,-0.120906,0.926457,0.001517,0.0013689999999999,1.073543,-0.0015169999999999,-0.0013689999999999,0.893208,-0.374412,0.024396,1.093589,-0.380572,0.010577,0.8933679999999999,-0.718702,0.069155,1.099818,-0.719232,0.062318
149,1.0146795,0.72611,0.0389039999999999,0.8341065000000001,0.50627,0.018035,0.7204165,0.7033,-0.056759,1.1683565,0.5240100000000001,-0.008951,1.2862865,0.73092,-0.0881879999999999,0.6773965,0.90779,-0.095648,1.3537565,0.96305,-0.125308,0.9261895,0.001327,0.0013709999999999,1.0738105,-0.0013269999999999,-0.001371,0.8924465,-0.37462,0.0187999999999999,1.0941305,-0.3809,0.0050479999999999,0.8934965,-0.7185999999999999,0.0653759999999999,1.0999365,-0.7201299999999999,0.0578179999999999
150,1.0145339999999998,0.7256395,0.035605,0.834526,0.5065394999999999,0.014537,0.720386,0.7023394999999999,-0.060786,1.167986,0.5243595000000001,-0.011649,1.285766,0.7306094999999999,-0.092225,0.677736,0.9080595,-0.100825,1.3531659999999999,0.9630095,-0.130055,0.9259340000000001,0.0010665,0.001343,1.074066,-0.0010664999999999,-0.0013429999999999,0.891546,-0.3746505,0.01265,1.0946239999999998,-0.3810505,-0.0012639999999999,0.893566,-0.7182305,0.061214,1.100046,-0.7207505000000001,0.052951
151,1.0142405,0.724849,0.032002,0.8349905000000001,0.5068590000000001,0.010627,0.7203705,0.701259,-0.065259,1.1674705,0.524369,-0.014404,1.2852504999999999,0.730229,-0.09662,0.6780805,0.908469,-0.1066,1.3526405,0.963369,-0.1352,0.9256635,0.000757,0.001287,1.0743365,-0.0007569999999999,-0.001287,0.8906705,-0.374201,0.00597,1.0952065,-0.3807109999999999,-0.008255,0.8936405000000001,-0.717511,0.056584,1.1001805,-0.7209909999999999,0.047602
152,1.0138415,0.7233905,0.0280775,0.8355185,0.5071505000000001,0.0063745,0.7203385,0.6998505,-0.0702685,1.1669584999999998,0.5246405000000001,-0.0175335,1.2847985,0.7297005,-0.1014114999999999,0.6784485,0.9087105,-0.1128114999999999,1.3522685,0.9639505,-0.1406214999999999,0.9254344999999999,0.0005075,0.0011215,1.0745655,-0.0005075,-0.0011215,0.8898785,-0.3733094999999999,-0.0009785,1.0958665,-0.3800894999999999,-0.0157334999999999,0.8937385,-0.7165095,0.0514745,1.1003384999999999,-0.7209694999999999,0.0418345
153,1.013443,0.7221234999999999,0.0237025,0.836367,0.5072534999999999,0.0018275,0.720317,0.6986135,-0.0758395,1.166287,0.5238835,-0.0206554999999999,1.283977,0.7280435,-0.1065065,0.678817,0.9090935,-0.1195664999999999,1.3516869999999999,0.9634735,-0.1463065,0.925144,0.0003314999999999,0.0009205,1.074856,-0.0003314999999999,-0.0009204999999999,0.889017,-0.3715365,-0.0083845,1.0966289999999999,-0.3788065,-0.0238145,0.893867,-0.7146065,0.0458405,1.1005369999999999,-0.7199665000000001,0.0357635
154,1.0129245,0.72006,0.0192965,0.8372145,0.50754,-0.0028015,0.7202645,0.69699,-0.0816635,1.1654944999999999,0.52353,-0.0236755,1.2828945,0.72534,-0.1116275,0.6795745,0.90558,-0.1267275,1.3500445,0.95719,-0.1532975,0.9248295,0.0002219999999999,0.0007465,1.0751705,-0.0002219999999999,-0.0007464999999999,0.8880645,-0.36932,-0.0158825,1.0972335,-0.37707,-0.0323144999999999,0.8938945,-0.7122499999999999,0.0401575,1.1006345,-0.71819,0.0296875
155,1.012478,0.7180785,0.0145185,0.83859,0.5068185,-0.0077884999999999,0.72041,0.6955985,-0.0878655,1.16479,0.5227085,-0.0268365,1.28194,0.7231685,-0.1172245,0.68042,0.9029685,-0.1342845,1.34862,0.9523985,-0.1606344999999999,0.924413,0.0001834999999999,0.0006494999999999,1.075587,-0.0001835,-0.0006495,0.88693,-0.3661515,-0.0240415,1.097853,-0.3742615,-0.0414955,0.89397,-0.7083915000000001,0.0340385,1.10084,-0.7152315,0.0228935
156,1.0121375,0.716018,0.0095295,0.8402375,0.506248,-0.0129755,0.7207875,0.694368,-0.0941985,1.1639575,0.520988,-0.0300625,1.2810475000000001,0.721098,-0.1229935,0.6815074999999999,0.900558,-0.1422334999999999,1.3473775,0.948698,-0.1681035,0.9239905,0.0002019999999999,0.0005354999999999,1.0760095,-0.000202,-0.0005355,0.8856175,-0.362402,-0.0324495,1.0985274999999999,-0.370712,-0.0511265,0.8941075,-0.703462,0.0275595,1.1011575,-0.711492,0.0155174999999999
157,1.0120375,0.713894,0.0045769999999999,0.8419975,0.505244,-0.01813,0.7214475,0.692614,-0.100475,1.1636075,0.519394,-0.033717,1.2804575,0.718794,-0.128753,0.6829275,0.898394,-0.150133,1.3464375,0.946234,-0.175283,0.9235545000000001,0.0002209999999999,0.0004119999999999,1.0764455,-0.000221,-0.000412,0.8842975,-0.358276,-0.041185,1.0992675,-0.366626,-0.060971,0.8944775,-0.697706,0.020814,1.1017575,-0.706936,0.0079079999999999
158,1.012049,0.711455,-0.000656,0.843911,0.503875,-0.02332,0.722261,0.691165,-0.106847,1.163431,0.5177849999999999,-0.037744,1.2799209999999999,0.716665,-0.1347269999999999,0.6850210000000001,0.895165,-0.158017,1.345661,0.944325,-0.182467,0.923128,0.000345,0.0003039999999999,1.076872,-0.000345,-0.000304,0.882951,-0.353565,-0.050381,1.099944,-0.361835,-0.071182,0.894931,-0.690975,0.0135449999999999,1.102491,-0.701095,-0.0001279999999999
159,1.012284,0.7090085,-0.0058125,0.8459840000000001,0.5023685,-0.0282945,0.723274,0.6902385,-0.1132605,1.163314,0.5156285,-0.0416524999999999,1.279574,0.7150285000000001,-0.1407955,0.687434,0.8920585,-0.1656254999999999,1.345134,0.9427085,-0.1895355,0.922661,0.0005395,0.0002915,1.077339,-0.0005395,-0.0002915,0.8818239999999999,-0.3480014999999999,-0.0597865,1.100769,-0.3561715,-0.0813655,0.895584,-0.6833215,0.0061184999999999,1.103384,-0.6942214999999999,-0.0082815
160,1.0127195,0.7068305,-0.0110199999999999,0.8481225,0.5002205000000001,-0.0332089999999999,0.7244225,0.6890205,-0.1195939999999999,1.1633625,0.5134205000000001,-0.045615,1.2792124999999999,0.7133505,-0.146861,0.6902025,0.8882105,-0.173211,1.3446425,0.9413105,-0.196951,0.9222015000000001,0.0008945,0.000308,1.0777984999999999,-0.0008945,-0.0003079999999999,0.8804525,-0.3418695,-0.069534,1.1016655,-0.3500494999999999,-0.0920629999999999,0.8962925,-0.6745495,-0.0014049999999999,1.1043524999999998,-0.6860795,-0.0164929999999999
161,1.0134975,0.7050230000000001,-0.015999,0.8504015,0.498203,-0.038055,0.7258015,0.687423,-0.125801,1.1636515,0.5105930000000001,-0.049162,1.2789815,0.7112930000000001,-0.15271,0.6932615,0.884483,-0.1805999999999999,1.3439915,0.939303,-0.20421,0.9217425,0.0012269999999999,0.0004619999999999,1.0782575,-0.001227,-0.000462,0.8790315,-0.335127,-0.079507,1.1027695,-0.343627,-0.102899,0.8971815,-0.664947,-0.009015,1.1054915,-0.6767569999999999,-0.024685
162,1.0143605,0.702405,-0.0205655,0.8523695,0.496175,-0.0424485,0.7272995,0.685655,-0.1315115,1.1642695,0.508815,-0.0526905,1.2792295,0.710135,-0.1581105,0.6965295,0.880435,-0.1875405,1.3435195,0.938265,-0.2110405,0.9214115,0.001614,0.0005205,1.0785885,-0.001614,-0.0005205,0.8777695000000001,-0.328155,-0.0891415,1.1038745,-0.336965,-0.1134325,0.8981295,-0.655195,-0.0164915,1.1066395,-0.666895,-0.0326365
163,1.015331,0.700582,-0.025278,0.854476,0.494182,-0.046878,0.728916,0.684592,-0.137141,1.164826,0.506022,-0.056498,1.279736,0.709762,-0.163513,0.6994760000000001,0.880072,-0.194243,1.344046,0.939232,-0.2173629999999999,0.9210929999999999,0.001944,0.0006439999999999,1.078907,-0.001944,-0.0006439999999999,0.876756,-0.320068,-0.098917,1.104874,-0.329968,-0.124037,0.8993059999999999,-0.6440980000000001,-0.024272,1.107796,-0.655628,-0.040616
164,1.016255,0.6983685000000001,-0.0294299999999999,0.856171,0.4930485,-0.0507149999999999,0.730491,0.6827985,-0.142177,1.165331,0.5033685,-0.0599469999999999,1.280181,0.7086285,-0.168033,0.702291,0.8779185,-0.200323,1.344471,0.9398285,-0.223073,0.9208149999999999,0.0022444999999999,0.000851,1.079185,-0.0022445,-0.0008509999999999,0.875891,-0.3123714999999999,-0.1080629999999999,1.105683,-0.3230314999999999,-0.133755,0.900441,-0.6331815,-0.031637,1.108831,-0.6440915,-0.0477089999999999
165,1.0170374999999998,0.6955064999999999,-0.0333414999999999,0.8575714999999999,0.4909165,-0.0541845,0.7320015,0.6805764999999999,-0.1467505,1.1659215,0.5019565,-0.0633035,1.2805914999999999,0.7074265,-0.1723285,0.7046215,0.8738665,-0.2059485,1.3448115,0.9400865,-0.2284485,0.9205285,0.0024154999999999,0.0010155,1.0794715,-0.0024155,-0.0010154999999999,0.8750915,-0.3011735,-0.1170394999999999,1.1063225,-0.3115035,-0.1429935,0.9014415,-0.6219235000000001,-0.0387135,1.1097615,-0.6316735,-0.0541445
166,1.0176095,0.692441,-0.0373725,0.8587275,0.488131,-0.0574685,0.7332575,0.678201,-0.1514045,1.1662474999999999,0.501671,-0.0666575,1.2808375,0.7065210000000001,-0.1766245,0.7065675,0.869761,-0.2115545,1.3449275,0.940341,-0.2335645,0.9203005,0.0024049999999999,0.0012014999999999,1.0796995,-0.002405,-0.0012015,0.8742875,-0.289079,-0.1257475,1.1068175,-0.299479,-0.1518665,0.9022975,-0.610319,-0.0453955,1.1103375,-0.619019,-0.0602325
167,1.018065,0.6906950000000001,-0.0461255,0.859666,0.487375,-0.0656635,0.7342660000000001,0.6772050000000001,-0.1605565,1.1664759999999998,0.499965,-0.0747895,1.279966,0.703455,-0.1855925,0.707766,0.868735,-0.2220225,1.343786,0.935565,-0.2436725,0.920214,0.0024909999999999,0.0014434999999999,1.079786,-0.002491,-0.0014435,0.873506,-0.2746349999999999,-0.1391805,1.107362,-0.285455,-0.1653745,0.9030660000000001,-0.596555,-0.0564545,1.110695,-0.604285,-0.0707555
168,1.0184594999999999,0.691315,-0.0556814999999999,0.8605375,0.485755,-0.0745575,0.7353175000000001,0.677505,-0.1706105,1.1656075,0.497065,-0.0838145,1.2789175,0.701505,-0.1948444999999999,0.7088975,0.8689950000000001,-0.2333144999999999,1.3426974999999999,0.933595,-0.2547844999999999,0.9201225000000001,0.002615,0.0017485,1.0798774999999998,-0.0026149999999999,-0.0017485,0.8714875,-0.257775,-0.1575955,1.1079535,-0.2691749999999999,-0.1825445,0.9039675000000001,-0.5803149999999999,-0.0682504999999999,1.1111725,-0.587075,-0.0819665
169,1.0187925,0.691275,-0.0649155,0.8613305,0.485495,-0.0830984999999999,0.7364204999999999,0.677725,-0.1802055,1.1647905,0.494495,-0.0926584999999999,1.2776905,0.699265,-0.2035515,0.7101305,0.869135,-0.2443214999999999,1.3414804999999999,0.929925,-0.2653915,0.9200825,0.0028449999999999,0.0020415,1.0799175,-0.002845,-0.0020415,0.8698905,-0.241655,-0.1752465,1.1086595,-0.253275,-0.1986915,0.9049005,-0.564745,-0.0795535,1.1116625,-0.570605,-0.0925525
170,1.018988,0.69147,-0.0742515,0.861953,0.4844,-0.0917735,0.737393,0.6781999999999999,-0.1898225,1.163703,0.49233,-0.1018155,1.276683,0.69784,-0.2119365,0.7112229999999999,0.8685700000000001,-0.2552864999999999,1.340243,0.92803,-0.2760465,0.920032,0.0028199999999999,0.0024274999999999,1.079968,-0.00282,-0.0024274999999999,0.8683730000000001,-0.22488,-0.1931365,1.109219,-0.23669,-0.2149765,0.905713,-0.54782,-0.0906775,1.111995,-0.55311,-0.1030885
171,1.0192075,0.69189,-0.0836069999999999,0.8623745,0.48334,-0.1006889999999999,0.7384145000000001,0.67891,-0.1994969999999999,1.1626044999999998,0.4899099999999999,-0.1110729999999999,1.2754745,0.69649,-0.220215,0.7123145,0.86966,-0.266065,1.3393245,0.92508,-0.2859049999999999,0.9199355,0.0028299999999999,0.002735,1.0800645,-0.0028299999999999,-0.0027349999999999,0.8669745,-0.2084899999999999,-0.211105,1.1097795,-0.22001,-0.231005,0.9065445,-0.5301199999999999,-0.1014549999999999,1.1123655,-0.5352399999999999,-0.11341
172,1.019413,0.6915899999999999,-0.092632,0.8629640000000001,0.48282,-0.109676,0.7393740000000001,0.67902,-0.20886,1.161784,0.48765,-0.120026,1.274224,0.69506,-0.228105,0.7133240000000001,0.86886,-0.276425,1.338004,0.92292,-0.295195,0.919878,0.00292,0.0030049999999999,1.080122,-0.00292,-0.003005,0.8658140000000001,-0.1924399999999999,-0.228535,1.110426,-0.2040999999999999,-0.246355,0.907404,-0.51274,-0.111737,1.112674,-0.5177200000000001,-0.123221
173,1.0192204999999999,0.691085,-0.101926,0.8630445000000001,0.481355,-0.118553,0.7399245,0.679335,-0.21845,1.1604345,0.486145,-0.129322,1.2725445,0.692475,-0.236005,0.7138445,0.869445,-0.286945,1.3362845,0.921835,-0.304885,0.9199025000000001,0.002975,0.0031549999999999,1.0800975,-0.0029749999999999,-0.003155,0.8643745,-0.1763349999999999,-0.245865,1.1108615,-0.1878249999999999,-0.261805,0.9080145,-0.494435,-0.122014,1.1125664999999998,-0.499515,-0.1332
174,1.018881,0.691145,-0.11085,0.8630880000000001,0.481005,-0.127293,0.740308,0.679925,-0.227686,1.158978,0.483835,-0.138193,1.270738,0.6874750000000001,-0.243495,0.714168,0.871225,-0.297215,1.334388,0.917995,-0.314115,0.919874,0.003055,0.0032949999999999,1.080126,-0.003055,-0.003295,0.862988,-0.160055,-0.262735,1.111388,-0.171125,-0.276885,0.908438,-0.476055,-0.131803,1.11233,-0.481425,-0.142854
175,1.018366,0.69036,-0.119421,0.8631489999999999,0.4819299999999999,-0.135979,0.740559,0.67909,-0.236765,1.157309,0.4801499999999999,-0.146831,1.269069,0.68404,-0.25104,0.714459,0.8719600000000001,-0.30724,1.3324289999999999,0.91459,-0.32315,0.919849,0.00339,0.0033799999999999,1.080151,-0.00339,-0.0033799999999999,0.8617090000000001,-0.1417999999999999,-0.27927,1.1122,-0.1516,-0.29161,0.9086890000000001,-0.45576,-0.141402,1.112078,-0.46123,-0.152318
176,1.0180015,0.689655,-0.1227099999999999,0.8633585,0.478785,-0.139399,0.7411485,0.6788350000000001,-0.240284,1.1558285,0.478045,-0.150169,1.2686585,0.684485,-0.2536899999999999,0.7149384999999999,0.873165,-0.31174,1.3315285000000001,0.913745,-0.32687,0.9196525000000001,0.003195,0.00338,1.0803474999999998,-0.003195,-0.0033799999999999,0.8607985,-0.1229049999999999,-0.29069,1.1133445,-0.132025,-0.30127,0.9091285,-0.435675,-0.1457399999999999,1.1120075,-0.4413149999999999,-0.156321
177,1.0176875,0.686375,-0.124757,0.8634425,0.477835,-0.141391,0.7416225000000001,0.676615,-0.242635,1.1555225,0.476415,-0.152141,1.2686325,0.683095,-0.255675,0.7154225000000001,0.873855,-0.314685,1.3305225,0.911055,-0.329325,0.9195765,0.003195,0.003235,1.0804235,-0.003195,-0.0032349999999999,0.8605925,-0.105655,-0.296315,1.1144325,-0.1144549999999999,-0.306435,0.9093925,-0.417985,-0.148923,1.1117345,-0.423765,-0.158813
178,1.0175315,0.6835249999999999,-0.126104,0.8634385,0.476865,-0.142835,0.7420785000000001,0.676065,-0.244411,1.1554285,0.475205,-0.153308,1.2679585,0.6821349999999999,-0.256965,0.7159385,0.877095,-0.316875,1.3296385,0.911205,-0.3308449999999999,0.9195805,0.002935,0.003325,1.0804195,-0.0029349999999999,-0.0033249999999999,0.8603485000000001,-0.086245,-0.301305,1.1155835,-0.0949349999999999,-0.310825,0.9095885,-0.3987849999999999,-0.151689,1.1114745,-0.4046649999999999,-0.1605789999999999
179,1.017449,0.6805950000000001,-0.126832,0.863497,0.475595,-0.143499,0.742637,0.6751750000000001,-0.245469,1.155397,0.473995,-0.154009,1.2676669999999999,0.680965,-0.257615,0.717187,0.876355,-0.318445,1.329307,0.908295,-0.331515,0.919578,0.002925,0.003275,1.080422,-0.0029249999999999,-0.003275,0.860167,-0.067525,-0.305075,1.11675,-0.0757149999999999,-0.314025,0.9098269999999999,-0.380555,-0.153779,1.111285,-0.3864649999999999,-0.161615
180,1.01718,0.677835,-0.127103,0.863457,0.473495,-0.14422,0.7428669999999999,0.673405,-0.246248,1.155137,0.472725,-0.154026,1.267617,0.6792050000000001,-0.257945,0.7184170000000001,0.8746449999999999,-0.319515,1.328777,0.907075,-0.331655,0.919325,0.0027849999999999,0.0032249999999999,1.080675,-0.0027849999999999,-0.003225,0.860377,-0.0540149999999999,-0.307745,1.117687,-0.062035,-0.316605,0.909807,-0.363425,-0.155394,1.110926,-0.369245,-0.161988
181,1.016834,0.677145,-0.12742,0.863343,0.473125,-0.145264,0.743163,0.673335,-0.247401,1.154793,0.473075,-0.154458,1.267253,0.679575,-0.25879,0.719353,0.878685,-0.32104,1.328413,0.911695,-0.33224,0.919216,0.0027349999999999,0.0030099999999999,1.080784,-0.0027349999999999,-0.00301,0.860553,-0.036895,-0.31053,1.118563,-0.0449549999999999,-0.31877,0.909663,-0.343205,-0.157333,1.110514,-0.348835,-0.162654
182,1.0160339999999999,0.675845,-0.1279709999999999,0.863194,0.473031,-0.1463139999999999,0.742774,0.6730050000000001,-0.2488229999999999,1.154264,0.472369,-0.1552779999999999,1.266724,0.680615,-0.2600599999999999,0.719824,0.879155,-0.32313,1.327334,0.910995,-0.33377,0.919178,0.002645,0.00285,1.080822,-0.002645,-0.0028499999999999,0.860474,-0.0207549999999999,-0.3115799999999999,1.118944,-0.0288049999999999,-0.31957,0.909024,-0.3241949999999999,-0.1594509999999999,1.10966,-0.3295649999999999,-0.1635599999999999
183,1.015081,0.674875,-0.128659,0.8626400000000001,0.472279,-0.147251,0.742,0.671755,-0.250162,1.15348,0.472309,-0.156101,1.26612,0.683895,-0.261135,0.71994,0.881615,-0.325005,1.32619,0.913055,-0.335175,0.919131,0.002425,0.002695,1.080869,-0.002425,-0.002695,0.86018,-0.003695,-0.312305,1.11902,-0.0121049999999999,-0.320305,0.90806,-0.3051049999999999,-0.161606,1.108515,-0.3101349999999999,-0.16435
184,1.0142069999999999,0.67411,-0.129251,0.861993,0.471287,-0.147973,0.741043,0.6721900000000001,-0.251456,1.152723,0.472876,-0.156809,1.265573,0.6851700000000001,-0.26214,0.719773,0.88131,-0.32675,1.3252030000000001,0.91337,-0.3367799999999999,0.919059,0.00213,0.00253,1.080941,-0.00213,-0.00253,0.8597830000000001,0.0115,-0.31298,1.118743,0.00264,-0.32099,0.907003,-0.28834,-0.163566,1.1073439999999999,-0.29316,-0.165063
185,1.01382,0.67176,-0.130467,0.8616110000000001,0.472017,-0.149324,0.740201,0.67073,-0.253368,1.152061,0.471345,-0.158147,1.264621,0.68101,-0.26379,0.719631,0.87797,-0.32913,1.324351,0.91294,-0.33921,0.918934,0.00248,0.00186,1.081066,-0.0024799999999999,-0.00186,0.8594510000000001,0.0255,-0.31433,1.118501,0.01585,-0.32209,0.9060910000000001,-0.27235,-0.166042,1.106334,-0.2772,-0.166428
186,1.0136265,0.6707700000000001,-0.13171,0.8612985,0.471456,-0.150622,0.7393685000000001,0.6711400000000001,-0.254985,1.1516985,0.471247,-0.159442,1.2644785,0.6785000000000001,-0.26561,0.7193885000000001,0.87547,-0.33146,1.3237485,0.91235,-0.34178,0.9189275000000001,0.00264,0.0012399999999999,1.0810724999999999,-0.0026399999999999,-0.00124,0.8591185,0.0396,-0.31521,1.1182885,0.02988,-0.32286,0.9052884999999999,-0.2553799999999999,-0.167881,1.1054785,-0.2605699999999999,-0.167712
187,1.013571,0.6700299999999999,-0.13247,0.860939,0.4707599999999999,-0.151246,0.738479,0.67045,-0.256193,1.151159,0.4714029999999999,-0.160359,1.264319,0.67684,-0.266855,0.7190190000000001,0.87201,-0.333245,1.323189,0.91078,-0.343815,0.9189700000000001,0.0028599999999999,0.0006349999999999,1.08103,-0.00286,-0.0006349999999999,0.858519,0.0524399999999999,-0.315025,1.117999,0.0434899999999999,-0.3230349999999999,0.9045090000000001,-0.23936,-0.168821,1.104608,-0.24478,-0.168644
188,1.01361,0.6689700000000001,-0.132936,0.8605039999999999,0.470729,-0.152238,0.7376940000000001,0.66997,-0.257204,1.1508639999999999,0.471216,-0.161112,1.264024,0.6753,-0.268235,0.7182040000000001,0.87344,-0.334945,1.322654,0.91023,-0.345775,0.919044,0.00317,1.4999999999987246e-05,1.080956,-0.0031699999999999,-1.5000000000015e-05,0.857774,0.0649,-0.314145,1.117774,0.05623,-0.322535,0.903784,-0.2241499999999999,-0.169806,1.103823,-0.22977,-0.169588
189,1.0136835,0.667805,-0.1332279999999999,0.8601785,0.471646,-0.153132,0.7371585,0.669905,-0.258278,1.1506185,0.471263,-0.1619689999999999,1.2639785,0.674505,-0.26965,0.7175485000000001,0.874585,-0.33652,1.3222085,0.908415,-0.34782,0.9190625,0.003495,-0.0006099999999999,1.0809375,-0.003495,0.0006099999999999,0.8571584999999999,0.077515,-0.31292,1.1176985,0.068815,-0.3218299999999999,0.9031685,-0.2090349999999999,-0.170877,1.1031575,-0.214655,-0.170596
190,1.0140395,0.6646850000000001,-0.133575,0.8601605,0.470067,-0.15377,0.7369705,0.6680550000000001,-0.259285,1.1505105,0.470234,-0.162735,1.2642905,0.671605,-0.271175,0.7172505,0.871435,-0.337795,1.3219705,0.903305,-0.349665,0.9192605000000001,0.003645,-0.001205,1.0807395,-0.003645,0.0012049999999999,0.8568405,0.085655,-0.3114449999999999,1.1179904999999999,0.076995,-0.320885,0.9030805000000001,-0.198195,-0.171293,1.1027695,-0.204025,-0.171442
191,1.0146695,0.662675,-0.133999,0.8602365,0.469516,-0.154574,0.7369565,0.665915,-0.260508,1.1505765000000001,0.470226,-0.163754,1.2646765,0.669455,-0.27293,0.7173365,0.871245,-0.33902,1.3220065,0.901325,-0.35126,0.9193135,0.0037949999999999,-0.0017199999999999,1.0806865,-0.0037949999999999,0.0017199999999999,0.8567665,0.093565,-0.30979,1.1186065,0.084795,-0.31998,0.9033065,-0.187655,-0.171604,1.1027414999999998,-0.193915,-0.172487
192,1.015321,0.6603950000000001,-0.1343839999999999,0.860411,0.469439,-0.1552289999999999,0.737051,0.664335,-0.26122,1.150641,0.470322,-0.1648529999999999,1.265041,0.667465,-0.274185,0.717561,0.869255,-0.3403349999999999,1.3219910000000001,0.898375,-0.352715,0.9193040000000001,0.004125,-0.0021549999999999,1.0806959999999999,-0.0041249999999999,0.002155,0.856601,0.100115,-0.308075,1.119391,0.091535,-0.318925,0.9037910000000001,-0.1783949999999999,-0.1714689999999999,1.10289,-0.1850549999999999,-0.1735249999999999
193,1.0159115,0.65848,-0.134785,0.8606735,0.4697599999999999,-0.15607,0.7371235,0.66287,-0.261968,1.1509635,0.4700529999999999,-0.166066,1.2657435000000001,0.66636,-0.276105,0.7178335,0.87108,-0.341815,1.3220035,0.89579,-0.3543349999999999,0.9193565,0.0045399999999999,-0.0025749999999999,1.0806435,-0.0045399999999999,0.0025749999999999,0.8564635,0.1069699999999999,-0.306375,1.1203835,0.0985899999999999,-0.318405,0.9043734999999999,-0.16926,-0.171482,1.1031465,-0.17635,-0.174576
194,1.0165175,0.657665,-0.133884,0.8611465,0.469614,-0.155201,0.7373865,0.662255,-0.261398,1.1521365,0.470744,-0.165345,1.2667465,0.669645,-0.27651,0.7181065000000001,0.8737349999999999,-0.3415,1.3222665,0.896315,-0.35458,0.9194415,0.004685,-0.0024599999999999,1.0805585,-0.0046849999999999,0.00246,0.8564465,0.113385,-0.30459,1.1216365,0.105615,-0.31811,0.9052265,-0.1612249999999999,-0.170086,1.1036545,-0.1687349999999999,-0.174146
195,1.0168215,0.656025,-0.132959,0.8613025,0.4696899999999999,-0.154279,0.7374025,0.660445,-0.260798,1.1531125,0.4707889999999999,-0.164384,1.2673225,0.6713549999999999,-0.276705,0.7181425,0.8746849999999999,-0.341055,1.3222725,0.8956649999999999,-0.354815,0.9194715,0.004935,-0.002335,1.0805285,-0.004935,0.002335,0.8559925000000002,0.118585,-0.302985,1.1227925,0.1113249999999999,-0.317535,0.9059325,-0.154765,-0.168202,1.1039124999999999,-0.162695,-0.173544
196,1.017044,0.654515,-0.13204,0.8613900000000001,0.4693649999999999,-0.153395,0.73742,0.6584849999999999,-0.260036,1.1541,0.4702949999999999,-0.163327,1.2676,0.6721449999999999,-0.27687,0.71803,0.8747849999999999,-0.3408,1.32219,0.8942049999999999,-0.355,0.919484,0.0051249999999999,-0.0021899999999999,1.080516,-0.005125,0.0021899999999999,0.85533,0.1231449999999999,-0.30139,1.124,0.1160249999999998,-0.31679,0.90669,-0.1493750000000001,-0.166051,1.104165,-0.157615,-0.172865
197,1.017405,0.653473,-0.131122,0.8616090000000001,0.469847,-0.152327,0.7378089999999999,0.656971,-0.258968,1.155249,0.470368,-0.162187,1.268519,0.672725,-0.27733,0.718209,0.874565,-0.34038,1.3223289999999999,0.8933450000000001,-0.35533,0.919621,0.005225,-0.00217,1.080379,-0.005225,0.0021699999999999,0.8548290000000001,0.127195,-0.29953,1.125319,0.1200749999999999,-0.31591,0.907559,-0.144695,-0.163576,1.104603,-0.152995,-0.171834
198,1.0178045,0.6528,-0.1303659999999999,0.8619574999999999,0.470414,-0.151285,0.7383175,0.655625,-0.257789,1.1563775,0.470931,-0.1610839999999999,1.2693675,0.6735949999999999,-0.2779,0.7184575,0.8741049999999999,-0.3400499999999999,1.3225274999999999,0.893335,-0.35572,0.9197085,0.0052949999999999,-0.0021499999999999,1.0802915,-0.005295,0.00215,0.8544575,0.1307849999999999,-0.29767,1.1266775,0.1236649999999999,-0.31475,0.9084775,-0.140785,-0.161149,1.1050835,-0.1489049999999999,-0.1707729999999999
199,1.0182445,0.652095,-0.129512,0.8623495,0.4713569999999999,-0.1502869999999999,0.7388895,0.654625,-0.256652,1.1575795,0.4713659999999999,-0.1599609999999999,1.2700895,0.6748149999999999,-0.2784899999999999,0.7188095,0.873855,-0.3398299999999999,1.3226594999999999,0.893985,-0.35616,0.9197474999999999,0.005425,-0.0020899999999999,1.0802525,-0.005425,0.00209,0.8542495,0.1343249999999999,-0.2957499999999999,1.1280195,0.1272749999999999,-0.3133399999999999,0.9092345,-0.137015,-0.1593779999999999,1.1055994999999998,-0.144945,-0.1698559999999999
200,1.0186104999999999,0.651549,-0.128774,0.8627095,0.4717050000000001,-0.149341,0.7393795000000001,0.6542490000000001,-0.255779,1.1586395,0.4717300000000001,-0.1589829999999999,1.2707995,0.67605,-0.2791,0.7191195,0.87375,-0.3398799999999999,1.3227495,0.8945900000000001,-0.35661,0.9197985,0.00553,-0.0019699999999999,1.0802015,-0.0055299999999999,0.0019699999999999,0.8540295,0.1374,-0.29398,1.1292695,0.13067,-0.31182,0.9098865,-0.1338399999999999,-0.1578139999999999,1.1060325,-0.1415199999999998,-0.16896
201,1.0188905,0.6513420000000001,-0.128047,0.8630285,0.472285,-0.148534,0.7397185,0.6544230000000001,-0.255216,1.1596285,0.471605,-0.1579829999999999,1.2714485,0.677315,-0.2797,0.7193485,0.874055,-0.33991,1.3228085,0.895375,-0.35711,0.9198545,0.005655,-0.00186,1.0801455,-0.0056549999999999,0.00186,0.8538285,0.140065,-0.29237,1.1303684999999999,0.133605,-0.31023,0.9103815000000001,-0.1311949999999999,-0.1565629999999999,1.1064215,-0.1388549999999999,-0.1681109999999999
202,1.0189955,0.652108,-0.127345,0.8631415,0.4725250000000001,-0.147762,0.7397914999999999,0.6557130000000001,-0.255176,1.1600915,0.471425,-0.15716,1.2716414999999999,0.6780050000000001,-0.27999,0.7194214999999999,0.8743850000000001,-0.33987,1.3227015,0.896115,-0.35761,0.9199005,0.005695,-0.00181,1.0800995,-0.0056949999999998,0.0018099999999999,0.8534915000000001,0.141685,-0.29124,1.1310815,0.135495,-0.3087,0.9106845,-0.1296649999999999,-0.155102,1.1066345,-0.1373649999999999,-0.167341
203,1.0190445,0.652108,-0.127237,0.8631785,0.4725250000000001,-0.147907,0.7398285,0.6557130000000001,-0.255321,1.1601285,0.471425,-0.157246,1.2716685,0.6780050000000001,-0.280385,0.7194585,0.8743850000000001,-0.340015,1.3225385,0.896115,-0.358405,0.9199505,0.005695,-0.001695,1.0800494999999999,-0.0056949999999998,0.0016949999999999,0.8531785000000001,0.142135,-0.290915,1.1315985,0.136025,-0.307525,0.9108605,-0.1291049999999999,-0.154423,1.1069055,-0.1373649999999999,-0.167077
204,1.0190545,0.652108,-0.127322,0.8631885,0.4725250000000001,-0.147909,0.7398385000000001,0.6557130000000001,-0.255406,1.1601385,0.471425,-0.157331,1.2716785,0.6780050000000001,-0.28047,0.7193885,0.8743850000000001,-0.34039,1.3222685,0.896115,-0.35927,0.9199665,0.005695,-0.00164,1.0800335,-0.0056949999999998,0.0016399999999999,0.8530685,0.142755,-0.29083,1.1318385,0.136405,-0.30655,0.9108705,-0.1289549999999999,-0.154508,1.1071535,-0.1373649999999999,-0.166878
205,1.0189535,0.652108,-0.127397,0.8631845,0.4725250000000001,-0.147989,0.7395345,0.6560650000000001,-0.255661,1.1601345,0.471425,-0.157411,1.2716745,0.6780050000000001,-0.28055,0.7190945,0.8743850000000001,-0.341,1.3218945,0.896115,-0.36016,0.9199685,0.005695,-0.00161,1.0800315,-0.0056949999999998,0.00161,0.8529645000000001,0.143475,-0.2909,1.1318845,0.136725,-0.30576,0.9108665,-0.1289549999999999,-0.154588,1.1075005,-0.1373649999999999,-0.166856
206,1.018776,0.6526909999999999,-0.127636,0.8631190000000001,0.4733949999999999,-0.148274,0.739089,0.656037,-0.256481,1.159789,0.4714749999999999,-0.157641,1.271409,0.677395,-0.28094,0.718559,0.8743349999999999,-0.34228,1.321239,0.896075,-0.36125,0.919941,0.0056649999999999,-0.00156,1.080059,-0.005665,0.0015599999999999,0.8529590000000001,0.1431849999999999,-0.29115,1.1319489999999999,0.1360349999999999,-0.30573,0.910921,-0.129925,-0.154838,1.107926,-0.1384250000000001,-0.167094
207,1.0183055,0.654647,-0.12858,0.8631015,0.4736849999999999,-0.148986,0.7384815,0.6576209999999999,-0.25795,1.1590415,0.4717679999999999,-0.158556,1.2707315000000001,0.67655,-0.28189,0.7178115,0.87452,-0.34401,1.3202715,0.8976299999999999,-0.3627599999999999,0.9199345,0.0054599999999999,-0.0014899999999999,1.0800655,-0.00546,0.0014899999999999,0.8529615,0.1412199999999999,-0.29183,1.1319515,0.1336499999999999,-0.3064099999999999,0.9106685,-0.1325,-0.155775,1.1082795,-0.1410000000000001,-0.167791
208,1.0177635,0.655559,-0.129486,0.8629315,0.473508,-0.149458,0.7377915000000002,0.657704,-0.259257,1.1581815,0.4713809999999999,-0.159344,1.2695414999999999,0.67458,-0.28245,0.7170815000000001,0.87249,-0.34541,1.3192815,0.89782,-0.36392,0.9199385,0.0050999999999999,-0.00113,1.0800615,-0.0050999999999999,0.0011299999999999,0.8529315,0.1361899999999999,-0.29257,1.1318715,0.1281799999999999,-0.30673,0.9102495,-0.13812,-0.15681,1.1086034999999999,-0.14688,-0.168121
209,1.01701,0.656648,-0.130336,0.8627540000000001,0.472983,-0.150092,0.7370840000000001,0.6584,-0.260542,1.1572040000000001,0.471346,-0.160097,1.268314,0.67534,-0.28285,0.715714,0.8722300000000001,-0.3469,1.3182939999999999,0.8994500000000001,-0.36527,0.919959,0.00473,-0.00084,1.080041,-0.00473,0.00084,0.852854,0.12866,-0.29442,1.131634,0.1203299999999999,-0.3069,0.90965,-0.1463599999999999,-0.158397,1.108884,-0.15525,-0.168315
210,1.0161945000000001,0.6584000000000001,-0.131151,0.8625625,0.473116,-0.150737,0.7363425,0.65886,-0.261858,1.1562325,0.471139,-0.1610369999999999,1.2667725,0.6756300000000001,-0.283325,0.7143325,0.87087,-0.348215,1.3172825000000001,0.90133,-0.366515,0.9199865,0.00419,-0.0006549999999999,1.0800135,-0.0041899999999999,0.0006549999999999,0.8529125000000001,0.11893,-0.296655,1.1311125,0.11049,-0.307455,0.9089825,-0.1568799999999999,-0.160252,1.1091665,-0.16598,-0.168401
211,1.0151994999999998,0.6595449999999999,-0.131925,0.8620125,0.4723359999999999,-0.151386,0.7354825,0.6592749999999999,-0.263215,1.1549525,0.4702279999999999,-0.161957,1.2652525,0.6756049999999999,-0.283665,0.7129825000000001,0.8712749999999999,-0.349315,1.3161025,0.8992549999999999,-0.367595,0.9199395,0.0033449999999999,-0.0005949999999999,1.0800605,-0.003345,0.000595,0.8531625,0.1050449999999998,-0.299465,1.1304325,0.0965849999999999,-0.309075,0.9083325,-0.1717250000000001,-0.162176,1.1094795,-0.1809950000000001,-0.168352
212,1.0143025,0.6623749999999999,-0.132476,0.8615455000000001,0.4717139999999999,-0.151818,0.7347254999999999,0.661485,-0.264091,1.1536255,0.469893,-0.16264,1.2632755,0.6760349999999999,-0.283385,0.7117655,0.870905,-0.349865,1.3151155,0.902355,-0.367695,0.9200105000000001,0.002985,-0.000275,1.0799895,-0.002985,0.0002749999999999,0.8535755,0.0899849999999999,-0.302315,1.1297555,0.0812049999999999,-0.311275,0.9078455,-0.188115,-0.163935,1.1097535,-0.197575,-0.168061
213,1.01303,0.665655,-0.133019,0.860716,0.472948,-0.152062,0.7335860000000001,0.663675,-0.26497,1.1519759999999999,0.469779,-0.163327,1.260986,0.677125,-0.2828,0.7100960000000001,0.871335,-0.34979,1.313786,0.904905,-0.36804,0.9201080000000001,0.0026649999999999,1.000000000001e-05,1.0798919999999999,-0.002665,-1.000000000001e-05,0.853716,0.072915,-0.3052399999999999,1.1285560000000001,0.063855,-0.31352,0.9070860000000001,-0.206625,-0.165689,1.109702,-0.2163549999999999,-0.167675
