sb224sc-HT22-VT27/4dt907/src/data/kinect_good_preprocessed_not_cut_A11_mediapipe/B5_kinect.csv
FrameNo,nose_3d_x,nose_3d_y,nose_3d_z,left_shoulder_3d_x,left_shoulder_3d_y,left_shoulder_3d_z,left_elbow_3d_x,left_elbow_3d_y,left_elbow_3d_z,right_shoulder_3d_x,right_shoulder_3d_y,right_shoulder_3d_z,right_elbow_3d_x,right_elbow_3d_y,right_elbow_3d_z,left_wrist_3d_x,left_wrist_3d_y,left_wrist_3d_z,right_wrist_3d_x,right_wrist_3d_y,right_wrist_3d_z,left_hip_3d_x,left_hip_3d_y,left_hip_3d_z,right_hip_3d_x,right_hip_3d_y,right_hip_3d_z,left_knee_3d_x,left_knee_3d_y,left_knee_3d_z,right_knee_3d_x,right_knee_3d_y,right_knee_3d_z,left_ankle_3d_x,left_ankle_3d_y,left_ankle_3d_z,right_ankle_3d_x,right_ankle_3d_y,right_ankle_3d_z
0,0.019133000000000004,0.739166,0.023126,-0.15117999999999998,0.501476,-0.031751,-0.34748999999999997,0.5995360000000001,-0.09573000000000001,0.20764,0.493686,0.061792,0.35799000000000003,0.506586,0.124333,-0.19012,0.712646,-0.046993999999999994,0.21381,0.642866,0.049821000000000004,-0.069995,0.001887,-0.0050019999999999995,0.069995,-0.001887,0.005002000000000003,-0.10629,-0.33389399999999997,0.126255,0.11577,-0.337304,-0.11099999999999999,-0.13974999999999999,-0.6605139999999999,0.29849,0.14942,-0.651404,-0.23359999999999997
1,0.020871,0.7398939999999999,0.023028500000000007,-0.150703,0.5008539999999999,-0.0330555,-0.34741299999999997,0.599884,-0.09768149999999999,0.210257,0.492624,0.0654715,0.361297,0.5077039999999999,0.1261645,-0.190053,0.7136039999999999,-0.04833649999999999,0.214237,0.6437339999999999,0.05126850000000001,-0.06924,0.002002,-0.005422499999999997,0.06924,-0.002002,0.005422500000000004,-0.106833,-0.333326,0.1247075,0.115397,-0.337056,-0.1116815,-0.140433,-0.660046,0.2972685,0.149277,-0.652626,-0.23611150000000003
2,0.022125,0.73985,0.023555,-0.149897,0.50008,-0.03399,-0.346967,0.60024,-0.099021,0.212623,0.49288,0.067899,0.363733,0.50805,0.128396,-0.189757,0.7140500000000001,-0.04938699999999999,0.213923,0.6439400000000001,0.051663,-0.068835,0.002163,-0.0057929999999999995,0.068835,-0.002163,0.005793000000000003,-0.106887,-0.33274000000000004,0.12362100000000001,0.115023,-0.33757000000000004,-0.11192099999999999,-0.140927,-0.65952,0.296279,0.149293,-0.6534899999999999,-0.23766099999999998
3,0.0225205,0.7398745,0.023274499999999997,-0.1494725,0.5000145,-0.03453350000000001,-0.34650250000000005,0.6004845,-0.09981949999999999,0.2143075,0.49329449999999997,0.0689185,0.3652875,0.5076045,0.1298435,-0.18944249999999999,0.7140645,-0.05050350000000001,0.2141075,0.6444044999999999,0.0530205,-0.0686225,0.0023685,-0.006099500000000001,0.0686225,-0.0023685,0.006099499999999997,-0.1067925,-0.33271550000000005,0.12261949999999999,0.11512750000000001,-0.3382955,-0.11168950000000001,-0.1410625,-0.6595755,0.2959605,0.1500675,-0.6581355,-0.24043949999999997
4,0.022652,0.739425,0.022786499999999994,-0.149559,0.499975,-0.0348605,-0.34618899999999997,0.600495,-0.1003815,0.215561,0.49388499999999996,0.0705375,0.366581,0.507415,0.13154949999999999,-0.19019899999999998,0.713125,-0.0512175,0.217761,0.643265,0.05426449999999999,-0.06830900000000001,0.002454,-0.006267500000000002,0.06830900000000001,-0.002454,0.006267499999999995,-0.10685900000000001,-0.33243500000000004,0.1219635,0.11464099999999999,-0.33782500000000004,-0.11175149999999999,-0.141419,-0.659505,0.29540849999999996,0.14883100000000002,-0.6545150000000001,-0.23767150000000004
5,0.022886499999999997,0.739225,0.022763,-0.1493885,0.499575,-0.03500600000000001,-0.3458485,0.600495,-0.10082500000000001,0.21589150000000001,0.493315,0.07136,0.3667415,0.508005,0.132435,-0.1911085,0.7123250000000001,-0.051924,0.2164415,0.642695,0.054120999999999996,-0.0681045,0.002441,-0.0063560000000000005,0.0681045,-0.002441,0.006355999999999997,-0.1069785,-0.332385,0.121844,0.1143715,-0.337675,-0.11173500000000001,-0.1417385,-0.659565,0.295305,0.14870150000000001,-0.654515,-0.238595
6,0.023548999999999997,0.739082,0.022196,-0.149402,0.49942200000000003,-0.035252,-0.345482,0.600642,-0.101526,0.215928,0.49276200000000003,0.071717,0.366358,0.508872,0.133254,-0.191332,0.712292,-0.052352,0.224938,0.640242,0.05842,-0.067991,0.0024540000000000005,-0.006422999999999998,0.067991,-0.002454,0.006423000000000002,-0.10702199999999999,-0.332528,0.12160499999999999,0.114328,-0.33694799999999997,-0.11169600000000002,-0.141802,-0.659498,0.295184,0.148138,-0.653408,-0.23805600000000002
7,0.021333000000000005,0.7397594999999999,0.022260000000000002,-0.15042799999999998,0.5008695,-0.03554,-0.345278,0.5991795,-0.102471,0.214042,0.4948795,0.069096,0.363592,0.5088395,0.132619,-0.190408,0.7119694999999999,-0.051754999999999995,0.214672,0.6427195,0.055553000000000005,-0.06802,0.0022825,-0.006447999999999995,0.06802,-0.0022825,0.006448000000000002,-0.10694799999999999,-0.3327205,0.121756,0.114392,-0.3375105,-0.111561,-0.141428,-0.6593805,0.295209,0.147762,-0.6518305000000001,-0.236491
8,0.021192,0.7397594999999999,0.0222005,-0.15054,0.5008695,-0.0356705,-0.34503,0.5987994999999999,-0.1031435,0.21391000000000002,0.4950395,0.0690305,0.36351,0.5091494999999999,0.1327465,-0.19054,0.7116294999999999,-0.0520425,0.21426,0.6426394999999999,0.0558695,-0.06791900000000001,0.0022825,-0.006505499999999997,0.06791900000000001,-0.0022825,0.006505500000000001,-0.10696,-0.3327905,0.12160850000000001,0.11430000000000001,-0.3375105,-0.1115535,-0.14143,-0.6593805,0.29512649999999996,0.14784,-0.6519705,-0.2365035
9,0.021102499999999996,0.7397725,0.0222025,-0.1506715,0.5009725,-0.0358625,-0.3448115,0.5983725000000001,-0.1037855,0.2138385,0.4953825,0.0690215,0.3634285,0.5094725,0.1327945,-0.1904015,0.7115625000000001,-0.0521425,0.2137385,0.6426425,0.0560135,-0.0678395,0.0022795000000000003,-0.006536500000000001,0.0678395,-0.0022795000000000003,0.006536500000000001,-0.1069315,-0.33285750000000003,0.12156349999999999,0.1142485,-0.3375075,-0.11153549999999998,-0.1413815,-0.6593574999999999,0.29507449999999996,0.1479085,-0.6519575,-0.2363355
10,0.020773000000000003,0.7398525,0.022075499999999998,-0.150813,0.5012425,-0.03609950000000001,-0.344603,0.5979525,-0.10447750000000001,0.213767,0.4957425,0.06899949999999999,0.363157,0.5098625,0.13290249999999998,-0.190243,0.7115625000000001,-0.0522455,0.21324700000000002,0.6426425,0.056139499999999995,-0.06778100000000001,0.0022795000000000003,-0.006555499999999999,0.06778100000000001,-0.0022795000000000003,0.006555499999999999,-0.106883,-0.33291750000000003,0.1215035,0.114237,-0.3375575,-0.11152749999999999,-0.14130299999999998,-0.6593275,0.2950025,0.147897,-0.6518174999999999,-0.2361875
11,0.0203365,0.7400329999999999,0.021958,-0.1508985,0.5015229999999999,-0.036386,-0.3444385,0.597603,-0.10515100000000001,0.21381150000000002,0.495683,0.068895,0.3627315,0.510543,0.13299899999999998,-0.1900485,0.711623,-0.052350999999999995,0.2126815,0.6427029999999999,0.056292999999999996,-0.0677255,0.0022890000000000002,-0.006534999999999999,0.0677255,-0.002289,0.006534999999999999,-0.1068585,-0.332927,0.121456,0.1142315,-0.337497,-0.111531,-0.1412485,-0.6591870000000001,0.29490900000000003,0.1478515,-0.6515470000000001,-0.23613099999999998
12,0.019708999999999997,0.7401975000000001,0.021860500000000005,-0.151023,0.5016975,-0.0367055,-0.344383,0.5970875,-0.10596249999999999,0.213617,0.49609749999999997,0.06890650000000001,0.362317,0.5105275,0.1329775,-0.189743,0.7115775000000001,-0.0523535,0.211777,0.6426975,0.056511500000000006,-0.06767100000000001,0.0022535000000000003,-0.0065094999999999945,0.06767100000000001,-0.0022535,0.006509500000000001,-0.106873,-0.3331325,0.1213755,0.114147,-0.33749250000000003,-0.1115325,-0.141233,-0.6591425,0.2947875,0.147837,-0.6513424999999999,-0.2360725
13,0.018945499999999997,0.740378,0.021786,-0.15117250000000002,0.501938,-0.036995999999999994,-0.34432250000000003,0.596618,-0.10675799999999999,0.2133775,0.496658,0.06889100000000001,0.36176749999999996,0.5104679999999999,0.132842,-0.1891525,0.7117479999999999,-0.052194,0.2109275,0.642768,0.056851,-0.0676285,0.00222,-0.006471999999999999,0.0676285,-0.00222,0.006471999999999999,-0.1068625,-0.33341200000000004,0.12131800000000001,0.1140975,-0.33756200000000003,-0.11152799999999999,-0.14124250000000002,-0.6591020000000001,0.294672,0.14775749999999999,-0.6512720000000001,-0.236108
14,0.018102000000000004,0.7405309999999999,0.021751,-0.15134999999999998,0.502091,-0.03736,-0.34425,0.596171,-0.107623,0.21298,0.497421,0.06846,0.36089,0.510701,0.132587,-0.18925999999999998,0.711741,-0.052351,0.20992000000000002,0.642911,0.056717,-0.067584,0.002189,-0.006419000000000001,0.067584,-0.002189,0.006418999999999998,-0.10686,-0.333719,0.12126899999999999,0.11406,-0.337679,-0.11152299999999998,-0.14128,-0.659089,0.294537,0.14776,-0.651239,-0.236183
15,0.017030999999999998,0.7402175,0.021656,-0.151748,0.5015775,-0.037815999999999995,-0.344428,0.5953475,-0.108595,0.210352,0.5074175,0.068592,0.35742199999999996,0.5104975,0.13104,-0.189628,0.7113675,-0.052549000000000005,0.20883200000000002,0.6425875,0.0565,-0.067415,0.0019225000000000002,-0.006376,0.067415,-0.0019225000000000002,0.006376,-0.107128,-0.3345125,0.12115799999999999,0.113782,-0.3382425,-0.111565,-0.14160799999999998,-0.6594925,0.29429500000000003,0.147492,-0.6517425,-0.23640499999999998
16,0.015585499999999999,0.7393985,0.0214945,-0.15237150000000002,0.5006185,-0.0383905,-0.34490149999999997,0.5940585,-0.10971150000000002,0.2074685,0.5168585,0.0686915,0.35376850000000004,0.5097685,0.1295425,-0.1906915,0.7103885,-0.0531805,0.2075685,0.6417385,0.0561875,-0.0671465,0.0015085,-0.0064245,0.0671465,-0.0015085,0.0064245,-0.1076915,-0.3358415,0.1209575,0.1132385,-0.3392815,-0.11171150000000002,-0.14219150000000003,-0.6603815,0.2939585,0.1470385,-0.6527315,-0.2367815
17,0.014089,0.738377,0.021401,-0.153091,0.499527,-0.03893100000000001,-0.34558099999999997,0.5924969999999999,-0.110951,0.204319,0.525357,0.068913,0.34969900000000004,0.508837,0.128162,-0.191701,0.709347,-0.053707000000000005,0.20629899999999998,0.640717,0.055968000000000004,-0.06681999999999999,0.0010960000000000002,-0.0065179999999999995,0.06681999999999999,-0.001096,0.0065179999999999995,-0.108351,-0.337333,0.12080099999999999,0.112599,-0.340483,-0.11183100000000001,-0.142871,-0.661463,0.293619,0.146539,-0.653993,-0.23724099999999998
18,0.012609500000000003,0.7372835,0.0213085,-0.1537915,0.4983435,-0.0395025,-0.3463215,0.5909534999999999,-0.11220850000000002,0.20110850000000002,0.5336434999999999,0.0692435,0.3455285,0.5078235,0.1268015,-0.19282149999999998,0.7084235,-0.054217499999999995,0.20485850000000003,0.6396735,0.0558105,-0.0664615,0.0006845000000000002,-0.006621500000000002,0.0664615,-0.0006844999999999998,0.006621499999999999,-0.1090815,-0.3388665,0.1206615,0.1119285,-0.3417165,-0.11195850000000002,-0.14364149999999998,-0.6625765,0.2932615,0.14601850000000002,-0.6553065,-0.2377385
19,0.011125,0.7364195,0.021295,-0.15440399999999999,0.4973695,-0.039979,-0.347014,0.5895994999999999,-0.113458,0.20046599999999998,0.5325095,0.06904099999999999,0.344876,0.5071895,0.126602,-0.193434,0.7077895,-0.0543,0.203536,0.6388395,0.055781,-0.066107,0.0003544999999999998,-0.006652999999999999,0.066107,-0.0003545000000000002,0.006653000000000003,-0.109684,-0.3402005,0.120594,0.111376,-0.3427605,-0.112038,-0.14429399999999998,-0.6635005,0.292962,0.145586,-0.6565305,-0.238178
20,0.0099285,0.7360610000000001,0.021433999999999995,-0.15477549999999998,0.496891,-0.040332,-0.34745550000000003,0.588721,-0.11461200000000002,0.1996745,0.5319210000000001,0.068742,0.34335449999999995,0.507071,0.126501,-0.1933755,0.707721,-0.053931,0.20257450000000002,0.638491,0.055838,-0.0658995,7.300000000000015e-05,-0.0065790000000000015,0.0658995,-7.300000000000015e-05,0.006578999999999998,-0.1100255,-0.341019,0.12062999999999999,0.11106450000000001,-0.343329,-0.11202200000000001,-0.1446655,-0.663899,0.29277800000000004,0.1453345,-0.657129,-0.23841199999999999
21,0.008945500000000002,0.735911,0.0216395,-0.1550305,0.49660099999999996,-0.04066550000000001,-0.3477705,0.588181,-0.11560350000000001,0.19882950000000002,0.530761,0.0684335,0.3418895,0.507491,0.1261955,-0.1930805,0.707791,-0.05349050000000001,0.2017195,0.638321,0.0558025,-0.06576950000000001,-0.00018699999999999967,-0.006503499999999999,0.06576950000000001,0.00018700000000000053,0.006503499999999999,-0.1102805,-0.341539,0.12070149999999999,0.1108595,-0.343699,-0.11199350000000001,-0.1449405,-0.664089,0.29263649999999997,0.1451395,-0.657389,-0.23852349999999997
22,0.008115,0.7358520000000001,0.021857499999999995,-0.155188,0.49625199999999997,-0.0410045,-0.348028,0.5876720000000001,-0.11657950000000002,0.197822,0.529862,0.06794249999999999,0.340572,0.507942,0.12555349999999998,-0.192558,0.707932,-0.0530105,0.201332,0.6381220000000001,0.05540149999999999,-0.065662,-0.000392,-0.006425500000000001,0.065662,0.000392,0.006425499999999997,-0.110518,-0.341968,0.1207665,0.110652,-0.344048,-0.11196950000000001,-0.145218,-0.664148,0.2924705,0.144882,-0.657588,-0.23854949999999997
23,0.007500999999999994,0.7357875,0.022045000000000002,-0.15539799999999998,0.49585749999999995,-0.04114400000000001,-0.34817800000000004,0.5871675,-0.11759899999999998,0.196762,0.5290875,0.067443,0.339452,0.5084275,0.12457499999999999,-0.19284800000000002,0.7083275,-0.05324400000000001,0.200982,0.6380475,0.055057999999999996,-0.065594,-0.0005934999999999994,-0.006373999999999998,0.065594,0.0005935000000000003,0.006374000000000001,-0.11074800000000001,-0.3422625,0.12082499999999999,0.110452,-0.3443725,-0.111929,-0.145468,-0.6641625,0.292321,0.144652,-0.6577425,-0.23853899999999997
24,0.007354499999999996,0.7358849999999999,0.022146,-0.15544449999999999,0.49566499999999997,-0.041256,-0.34798450000000003,0.586675,-0.11896300000000001,0.1958755,0.528555,0.066876,0.3389355,0.5090049999999999,0.12322799999999999,-0.1924645,0.708965,-0.053194000000000005,0.2005955,0.638065,0.05408399999999999,-0.06564049999999999,-0.000621,-0.006357999999999999,0.06564049999999999,0.000621,0.006357999999999999,-0.1108045,-0.342275,0.120846,0.11042549999999998,-0.344515,-0.111923,-0.1455345,-0.664045,0.292187,0.1446155,-0.657645,-0.23850300000000002
25,0.007342999999999998,0.735976,0.0222355,-0.15542699999999998,0.495556,-0.0413395,-0.347567,0.585996,-0.12062550000000001,0.19528299999999998,0.528056,0.0661745,0.338453,0.509666,0.1219575,-0.19237700000000002,0.709646,-0.053289500000000004,0.200793,0.638056,0.0529015,-0.065673,-0.0006419999999999993,-0.006330499999999999,0.065673,0.0006420000000000002,0.006330499999999999,-0.110837,-0.342254,0.1208725,0.110403,-0.344664,-0.11185550000000001,-0.14558700000000002,-0.663904,0.2920545,0.14459299999999997,-0.657544,-0.2384255
26,0.0073105,0.7360325,0.0222915,-0.1554705,0.4955225,-0.041377500000000005,-0.3468005,0.5853825,-0.12252949999999999,0.1947395,0.5283725,0.0651635,0.3380895,0.5088025,0.1210425,-0.1924405,0.7103325,-0.0535025,0.2021795,0.6378925,0.051103499999999996,-0.0657265,-0.0006284999999999997,-0.0063345,0.0657265,0.0006284999999999997,0.006334499999999996,-0.1108905,-0.3422675,0.12086649999999999,0.1103795,-0.34484750000000003,-0.1118295,-0.1456205,-0.6638875,0.2920405,0.1445995,-0.6575575,-0.2383695
27,0.007390000000000003,0.7363185,0.022508,-0.155422,0.4958485,-0.04128799999999999,-0.345522,0.5849885,-0.12456500000000001,0.195898,0.5177085,0.06370100000000001,0.339988,0.5102485,0.120502,-0.192422,0.7112485000000001,-0.053670999999999996,0.203718,0.6378985,0.049095,-0.065809,-0.0005434999999999997,-0.006290999999999998,0.065809,0.0005435000000000006,0.0062910000000000015,-0.110842,-0.3419815,0.120943,0.11047799999999999,-0.3447515,-0.111755,-0.145562,-0.6635215,0.292115,0.14468799999999998,-0.6573215,-0.238375
28,0.008025000000000004,0.737092,0.022853500000000002,-0.15504,0.496622,-0.041147500000000004,-0.34363,0.5851419999999999,-0.1265085,0.19734000000000002,0.507632,0.0623755,0.34296,0.512182,0.1195915,-0.19178,0.7125319999999999,-0.053624500000000005,0.20549,0.638282,0.0468905,-0.066039,-0.0002980000000000001,-0.006186500000000001,0.066039,0.00029799999999999965,0.006186500000000001,-0.11048,-0.34094800000000003,0.1209665,0.11080000000000001,-0.344148,-0.11159849999999999,-0.14527,-0.662658,0.2922715,0.14501000000000003,-0.656568,-0.2380685
29,0.008891499999999997,0.738047,0.0231055,-0.1545975,0.497367,-0.041091499999999996,-0.3413275,0.585597,-0.1284145,0.1992625,0.49845700000000004,0.060928500000000003,0.3467325,0.514347,0.11851049999999999,-0.19021749999999998,0.714267,-0.0531015,0.2074925,0.638677,0.0448655,-0.0663195,-4.200000000000037e-05,-0.006076499999999999,0.0663195,4.199999999999994e-05,0.006076500000000002,-0.10995750000000001,-0.339623,0.12086550000000001,0.1111925,-0.343363,-0.11148449999999999,-0.1449175,-0.661623,0.29234550000000004,0.14548250000000001,-0.655783,-0.23791449999999997
30,0.010016499999999998,0.7390340000000001,0.0232465,-0.1542825,0.498304,-0.040994499999999996,-0.33888250000000003,0.5862940000000001,-0.1300655,0.20113750000000002,0.489804,0.0595195,0.3501975,0.516684,0.11703350000000001,-0.1884225,0.7158540000000001,-0.0525555,0.20956750000000002,0.6390340000000001,0.0424295,-0.0666655,0.00023000000000000017,-0.006019499999999997,0.0666655,-0.00022999999999999974,0.0060195000000000005,-0.1094125,-0.338156,0.12059149999999999,0.1115575,-0.342506,-0.1114655,-0.14461249999999998,-0.6605359999999999,0.2923345,0.1458175,-0.654936,-0.23774549999999997
31,0.011453499999999998,0.7397885,0.02347,-0.15397850000000002,0.4988985,-0.040907,-0.3362985,0.5869885,-0.131123,0.2013615,0.4906185,0.058983,0.35189149999999997,0.5187984999999999,0.115938,-0.18669850000000002,0.7172085,-0.052096,0.2117615,0.6391185,0.040038000000000004,-0.0669525,0.0004335000000000001,-0.005972999999999999,0.0669525,-0.00043349999999999997,0.005972999999999999,-0.1089685,-0.3368715,0.120301,0.11182149999999999,-0.3417515,-0.11142300000000001,-0.1444185,-0.6596315,0.292317,0.14600149999999998,-0.6542415,-0.237753
32,0.012774,0.7400465,0.023710000000000002,-0.153237,0.4988465,-0.040795,-0.334087,0.5873365,-0.13188299999999997,0.201403,0.49096650000000003,0.058634000000000006,0.353333,0.5198565,0.11529,-0.185327,0.7176665,-0.05180699999999999,0.212953,0.6394665,0.037709,-0.06707,0.0005874999999999999,-0.005933000000000001,0.06707,-0.0005874999999999999,0.005933000000000001,-0.108737,-0.3359735,0.12006,0.111853,-0.3414935,-0.111303,-0.144497,-0.6592335,0.29235700000000003,0.146003,-0.6541735,-0.237813
33,0.014198500000000001,0.7401260000000001,0.0240285,-0.15229549999999997,0.498666,-0.04060249999999999,-0.3322655,0.587516,-0.1325055,0.20155450000000003,0.490696,0.0585845,0.3551045,0.520616,0.1153245,-0.18416549999999998,0.717846,-0.0514595,0.21443450000000003,0.639646,0.036236500000000005,-0.0672085,0.000709,-0.005885500000000002,0.0672085,-0.000709,0.005885500000000002,-0.1084455,-0.335244,0.11983150000000001,0.1118645,-0.34138399999999997,-0.1111355,-0.14463549999999997,-0.659014,0.2924145,0.1459145,-0.654064,-0.23761549999999998
34,0.015842000000000002,0.740136,0.024449000000000002,-0.151233,0.49831600000000004,-0.040394,-0.330903,0.587646,-0.133065,0.201327,0.491066,0.058565000000000006,0.35491700000000004,0.520486,0.11529,-0.182983,0.717976,-0.05100099999999999,0.214787,0.639776,0.035652,-0.067436,0.000788,-0.0059050000000000005,0.067436,-0.000788,0.005905000000000004,-0.108213,-0.33459399999999995,0.119559,0.11185700000000001,-0.34132399999999996,-0.111005,-0.14483300000000002,-0.658844,0.292465,0.145777,-0.654014,-0.23750500000000002
35,0.0174495,0.7401639999999999,0.024806499999999995,-0.15010050000000003,0.49796399999999996,-0.040218500000000004,-0.3300205,0.587934,-0.1333725,0.20102950000000003,0.491444,0.0583245,0.35626949999999996,0.520684,0.1144895,-0.18214049999999998,0.718064,-0.0506925,0.21445950000000003,0.640014,0.0354245,-0.0677355,0.000889,-0.006052500000000002,0.0677355,-0.000889,0.006052499999999999,-0.1080305,-0.334006,0.1191475,0.1118095,-0.341266,-0.11101250000000001,-0.1451305,-0.6586960000000001,0.2923175,0.14551950000000002,-0.654076,-0.23768250000000002
36,0.018785500000000004,0.7401865,0.025131,-0.14888749999999998,0.4977265,-0.039993,-0.3294975,0.5885564999999999,-0.13299300000000003,0.2013625,0.4917265,0.058099,0.3570525,0.5208165,0.113738,-0.1814075,0.7178764999999999,-0.050338999999999995,0.2141425,0.6402764999999999,0.035482,-0.0679585,0.0010345,-0.006221999999999998,0.0679585,-0.0010345,0.006221999999999998,-0.10795749999999998,-0.33351349999999996,0.118638,0.11168250000000002,-0.3411935,-0.111133,-0.1455375,-0.6585335,0.292037,0.14524250000000002,-0.6542635,-0.238033
37,0.0197755,0.7402185,0.0254525,-0.1476455,0.4976685,-0.039696499999999996,-0.3291855,0.5895684999999999,-0.1319285,0.20215450000000001,0.4921585,0.0582625,0.35795449999999995,0.5209485,0.1129315,-0.1809655,0.7174785,-0.049949499999999994,0.2141045,0.6406185,0.035569500000000004,-0.0681305,0.0012045,-0.0064034999999999995,0.0681305,-0.0012045,0.0064034999999999995,-0.1080555,-0.33330150000000003,0.1180745,0.1114945,-0.3411115,-0.1112985,-0.1460655,-0.6583715,0.2916115,0.1448945,-0.6543815000000001,-0.2385885
38,0.020637499999999996,0.7402695,0.025769999999999998,-0.1465185,0.49770949999999997,-0.039344000000000004,-0.3290185,0.5907395,-0.13035400000000003,0.2032615,0.4924995,0.058806,0.3583315,0.5209595,0.113337,-0.18033849999999998,0.7173495,-0.048827999999999996,0.2131615,0.6403795,0.03508,-0.06824050000000001,0.0013875,-0.006601000000000003,0.06824050000000001,-0.0013875,0.006600999999999999,-0.1083685,-0.33317050000000004,0.117368,0.11123150000000001,-0.3410105,-0.11156400000000001,-0.1467385,-0.6581105,0.291046,0.1443415,-0.6545305,-0.23937399999999998
39,0.021117499999999997,0.7403780000000001,0.026024,-0.1453635,0.49752799999999997,-0.039033,-0.3287635,0.5919580000000001,-0.128551,0.20437650000000002,0.492658,0.059551999999999994,0.3584165,0.5206780000000001,0.114631,-0.1798235,0.7167380000000001,-0.047682,0.2122465,0.640278,0.035771,-0.06826950000000001,0.001569,-0.006829999999999999,0.06826950000000001,-0.001569,0.006829999999999999,-0.10885349999999999,-0.33301200000000003,0.116611,0.1108265,-0.34084200000000003,-0.111941,-0.14753349999999998,-0.6577419999999999,0.290369,0.1436965,-0.654512,-0.240251
40,0.021502499999999997,0.740521,0.0263415,-0.1443575,0.497201,-0.0387835,-0.3285875,0.593021,-0.12669249999999999,0.2064225,0.492831,0.061353500000000005,0.3587225,0.519601,0.1176025,-0.1796175,0.716071,-0.046615500000000004,0.2125625,0.640281,0.038081500000000004,-0.0682185,0.001742,-0.0070735,0.0682185,-0.001742,0.0070735,-0.1094675,-0.332839,0.1158435,0.1102625,-0.340659,-0.1124525,-0.1485275,-0.657359,0.28955749999999997,0.1428825,-0.654339,-0.24109250000000002
41,0.0219115,0.740641,0.026694,-0.1439435,0.497361,-0.038524,-0.3284735,0.5939709999999999,-0.124829,0.20837650000000002,0.492991,0.063139,0.3585765,0.519331,0.120973,-0.17949350000000003,0.715231,-0.045701000000000006,0.2123565,0.640801,0.041429,-0.0680935,0.001902,-0.007294999999999999,0.0680935,-0.001902,0.007294999999999999,-0.1101135,-0.33275899999999997,0.115127,0.10968649999999999,-0.340479,-0.11299900000000002,-0.14962350000000002,-0.657019,0.288641,0.1420165,-0.654209,-0.24193900000000002
42,0.022414999999999997,0.7407009999999999,0.0270165,-0.143629,0.49727099999999996,-0.03813950000000001,-0.328409,0.594711,-0.1230945,0.210221,0.493121,0.0649195,0.359611,0.517521,0.12511150000000001,-0.179539,0.714151,-0.04510650000000001,0.212031,0.641251,0.0454995,-0.067918,0.002073,-0.0074684999999999994,0.067918,-0.002073,0.0074684999999999994,-0.110769,-0.332469,0.11452849999999999,0.10914099999999999,-0.34019900000000003,-0.1134645,-0.15079900000000002,-0.656689,0.2876555,0.14099099999999998,-0.654109,-0.24289449999999999
43,0.0228615,0.7408155000000001,0.0270985,-0.1435875,0.4971755,-0.0380095,-0.32863749999999997,0.5954155,-0.1216975,0.2119025,0.4930755,0.0665285,0.3601025,0.5155955,0.1292825,-0.1798475,0.7127755,-0.0455405,0.2127425,0.6413055,0.0488765,-0.0677805,0.0022724999999999998,-0.0076845,0.0677805,-0.0022724999999999998,0.0076845,-0.1113575,-0.3321245,0.11379550000000001,0.10851250000000001,-0.3400245,-0.1142575,-0.1521075,-0.6563045,0.28654250000000003,0.1399125,-0.6541345,-0.2440375
44,0.0234605,0.740896,0.0271945,-0.14328049999999998,0.497166,-0.0377635,-0.32872049999999997,0.5959260000000001,-0.1204625,0.2131695,0.49270600000000003,0.0675425,0.3606495,0.513096,0.1329075,-0.1798505,0.711396,-0.0460625,0.21275950000000002,0.641516,0.052055500000000005,-0.0675765,0.002434,-0.0078235,0.0675765,-0.002434,0.0078235,-0.1119205,-0.33178399999999997,0.1130805,0.1080295,-0.339684,-0.1153325,-0.1534305,-0.655874,0.28557750000000004,0.13907950000000002,-0.6541239999999999,-0.2450625
45,0.024673999999999998,0.7408465000000001,0.0279175,-0.14238499999999998,0.4971765,-0.0369305,-0.328435,0.5962265,-0.11883349999999998,0.213515,0.49219650000000004,0.06675149999999999,0.361205,0.5106265,0.1361365,-0.178885,0.7099465,-0.0462025,0.213115,0.6417265,0.0566945,-0.06738,0.0025905,-0.008035499999999998,0.06738,-0.0025905,0.008035500000000001,-0.112405,-0.3315535,0.11248150000000001,0.10828499999999999,-0.3393135,-0.1162935,-0.15467499999999998,-0.6554535,0.28524649999999996,0.139885,-0.6540135,-0.24597349999999998
46,0.026545500000000003,0.7406699999999999,0.028792,-0.1404645,0.49722,-0.035893999999999995,-0.3275045,0.59654,-0.11720499999999999,0.21397549999999999,0.49169,0.066165,0.36166550000000003,0.5082099999999999,0.138885,-0.1777845,0.70829,-0.046252,0.2148955,0.64164,0.061127,-0.0672575,0.0027559999999999998,-0.008261999999999999,0.0672575,-0.0027559999999999998,0.008262,-0.11275450000000001,-0.33116,0.112172,0.1106455,-0.33919,-0.117525,-0.1557545,-0.65503,0.285265,0.1422355,-0.65385,-0.246715
47,0.029815499999999995,0.7402885,0.030065,-0.1379135,0.4972985,-0.034984,-0.32552349999999997,0.5973785,-0.11559799999999999,0.2144065,0.4913485,0.06593,0.3616465,0.5063485,0.140602,-0.1761835,0.7071885,-0.046157000000000004,0.2177465,0.6408585,0.065658,-0.0673035,0.0031634999999999996,-0.008336999999999997,0.0673035,-0.0031635,0.008337,-0.11310350000000001,-0.3303015,0.112202,0.1130465,-0.3386515,-0.118438,-0.1568135,-0.6543215,0.28555200000000003,0.1446965,-0.6535315,-0.246668
48,0.0342815,0.739897,0.0309425,-0.1344715,0.497497,-0.0345105,-0.32287150000000003,0.5983970000000001,-0.11438350000000001,0.21519850000000001,0.490037,0.06565750000000001,0.3623185,0.504247,0.1412565,-0.17270149999999998,0.7064670000000001,-0.0464575,0.22108850000000002,0.640047,0.0699845,-0.0675425,0.0036689999999999995,-0.008255499999999999,0.0675425,-0.003669,0.0082555,-0.11346149999999999,-0.32903299999999996,0.1123235,0.11570850000000002,-0.338033,-0.1192835,-0.1576515,-0.653323,0.2858065,0.1471085,-0.653183,-0.24600349999999999
49,0.039362999999999995,0.7394105,0.031142500000000004,-0.130698,0.4978105,-0.034340499999999996,-0.319278,0.5993505,-0.1138555,0.215972,0.4886405,0.0649575,0.365152,0.5014005,0.1423545,-0.169178,0.7055604999999999,-0.0476615,0.229522,0.6392205,0.0712515,-0.067886,0.0043215,-0.008137499999999999,0.067886,-0.0043215,0.008137500000000002,-0.11365800000000001,-0.32763950000000003,0.11234949999999999,0.11807199999999998,-0.3373395,-0.1197955,-0.157968,-0.6522395,0.28587450000000003,0.150162,-0.6531395,-0.2452855
50,0.044941999999999996,0.738843,0.030694000000000003,-0.1269,0.498193,-0.034376,-0.31517,0.600163,-0.113914,0.21694,0.487153,0.063607,0.36667,0.500623,0.141876,-0.16494,0.704303,-0.049126,0.23847000000000002,0.638213,0.07216,-0.068181,0.004998000000000001,-0.008076,0.068181,-0.004998,0.008076000000000003,-0.11386,-0.32615700000000003,0.112223,0.12001,-0.336977,-0.120164,-0.15801,-0.651127,0.285856,0.15276,-0.652417,-0.24415399999999998
51,0.049779000000000004,0.738339,0.029903,-0.12334,0.49855900000000003,-0.034596999999999996,-0.31116999999999995,0.600989,-0.114476,0.21793,0.485609,0.062152,0.36834,0.500339,0.141564,-0.16063,0.703289,-0.050734999999999995,0.24391,0.637999,0.072485,-0.068322,0.005688,-0.008131,0.068322,-0.005688,0.008131,-0.11403,-0.324601,0.11208100000000001,0.12165000000000001,-0.336891,-0.12037599999999998,-0.1579,-0.650011,0.286004,0.15538,-0.6524909999999999,-0.244286
52,0.053890499999999994,0.7378665,0.029063000000000002,-0.1198965,0.4988865,-0.034655,-0.3075865,0.6016865,-0.115139,0.2185135,0.4842065,0.059552,0.36917350000000004,0.5004565,0.140911,-0.1579265,0.7024865,-0.052535,0.2489935,0.6374065,0.072402,-0.0683415,0.0063205,-0.008189000000000002,0.0683415,-0.006320500000000001,0.008189000000000002,-0.11408650000000001,-0.3229335,0.11192,0.1223835,-0.3368335,-0.12044899999999999,-0.1575765,-0.6488935,0.286371,0.1571835,-0.6522735,-0.24432900000000002
53,0.057541499999999995,0.7374605000000001,0.028647999999999996,-0.1169905,0.4990905,-0.034759000000000005,-0.30441050000000003,0.6019805,-0.11538799999999999,0.21910949999999998,0.4827705,0.056961,0.37003949999999997,0.5006805,0.139562,-0.15570050000000002,0.7015505000000001,-0.054187000000000006,0.2544395,0.6368005000000001,0.072824,-0.0684565,0.0069255,-0.008192999999999999,0.0684565,-0.0069255,0.008192999999999999,-0.1140505,-0.3211195,0.11169799999999999,0.12262949999999999,-0.3367795,-0.120248,-0.1572105,-0.6477094999999999,0.286792,0.15818949999999998,-0.6523395,-0.243838
54,0.060268,0.7373235,0.028816500000000002,-0.114676,0.4994035,-0.0344505,-0.30174599999999996,0.6024035,-0.1152045,0.219574,0.4815935,0.054678500000000005,0.37084399999999995,0.5009635,0.1382455,-0.153686,0.7009635,-0.055635500000000004,0.255074,0.6370935,0.07370750000000001,-0.068744,0.0074975,-0.0080615,0.068744,-0.007497500000000001,0.0080615,-0.11397600000000001,-0.31967650000000003,0.1114595,0.122974,-0.3370665,-0.1202045,-0.156676,-0.6465665,0.28727549999999996,0.158824,-0.6525265,-0.24295450000000002
55,0.06224899999999999,0.7372775,0.029530999999999998,-0.11299700000000001,0.4996075,-0.033462,-0.299757,0.6028275000000001,-0.114698,0.220033,0.4804075,0.05301,0.37111299999999997,0.5014175000000001,0.137382,-0.152577,0.7001275,-0.057473,0.254513,0.6373475000000001,0.074642,-0.069072,0.008116499999999999,-0.007850000000000003,0.069072,-0.0081165,0.00785,-0.114007,-0.3185525,0.111367,0.123663,-0.3372225,-0.11982799999999999,-0.155857,-0.6455124999999999,0.287982,0.15968300000000002,-0.6529124999999999,-0.24207800000000002
56,0.06338400000000001,0.737449,0.030287,-0.111663,0.49970899999999996,-0.032125,-0.298783,0.602959,-0.114411,0.220837,0.47933899999999996,0.052354,0.371697,0.501679,0.136519,-0.151913,0.6992590000000001,-0.059282,0.255727,0.6375190000000001,0.076022,-0.069454,0.008322,-0.0077519999999999985,0.069454,-0.008322,0.0077519999999999985,-0.11394299999999999,-0.317821,0.11146299999999999,0.12470700000000001,-0.33765100000000003,-0.119331,-0.154713,-0.644821,0.288749,0.16084700000000002,-0.653381,-0.241241
57,0.06442900000000001,0.7374539999999999,0.029947500000000002,-0.11035999999999999,0.499614,-0.031698500000000004,-0.29794,0.602594,-0.11532449999999998,0.22228,0.479344,0.053180500000000006,0.3726,0.501854,0.1357755,-0.15166,0.698414,-0.0619175,0.25764,0.637524,0.0760145,-0.06986400000000001,0.008327,-0.007692500000000001,0.06986400000000001,-0.008327000000000001,0.007692500000000001,-0.11391000000000001,-0.317436,0.1115175,0.12506,-0.33793599999999996,-0.11885449999999999,-0.15348,-0.6444960000000001,0.2889555,0.16076000000000001,-0.6533760000000001,-0.24042449999999999
58,0.065349,0.7374539999999999,0.028924000000000002,-0.109188,0.49953400000000003,-0.031991,-0.297218,0.6019939999999999,-0.11693199999999998,0.223732,0.479344,0.053713000000000004,0.373632,0.501914,0.135188,-0.151208,0.6979639999999999,-0.06431599999999998,0.256622,0.637814,0.075006,-0.070233,0.008327,-0.007644999999999999,0.070233,-0.008327000000000001,0.0076450000000000025,-0.113908,-0.317226,0.111402,0.123132,-0.338536,-0.117972,-0.15222799999999997,-0.644366,0.28892799999999996,0.15915200000000002,-0.653126,-0.23974199999999998
59,0.0654125,0.7375705,0.026970499999999998,-0.1081035,0.4995305,-0.0325275,-0.2968635,0.6011905,-0.1194615,0.2254065,0.4793205,0.0539935,0.3745365,0.5021605,0.1349085,-0.1506035,0.6979405,-0.0671745,0.2559765,0.6382205,0.0745975,-0.0704115,0.0083505,-0.007709500000000001,0.0704115,-0.0083505,0.007709499999999998,-0.1137435,-0.3172395,0.1111745,0.12121649999999999,-0.3388795,-0.11709150000000002,-0.15075349999999998,-0.6443895,0.2887685,0.15753650000000002,-0.6528595,-0.23995149999999998
60,0.0639875,0.7377969999999999,0.025349,-0.1080285,0.499487,-0.032837,-0.2974185,0.6002369999999999,-0.12190700000000002,0.2268915,0.479267,0.054368,0.3740615,0.503707,0.135823,-0.15175850000000002,0.697967,-0.070467,0.2551115,0.6388469999999999,0.07560700000000001,-0.07038749999999999,0.008474,-0.007845999999999999,0.07038749999999999,-0.008473999999999999,0.007845999999999999,-0.1133585,-0.317363,0.110932,0.11922150000000001,-0.339313,-0.11543700000000001,-0.1493285,-0.644513,0.28859300000000004,0.15605149999999998,-0.653113,-0.24098700000000003
61,0.061554000000000005,0.7381605,0.0241435,-0.10836699999999999,0.4993305,-0.0330395,-0.299107,0.5989705000000001,-0.12396050000000002,0.227753,0.4793305,0.05505549999999999,0.371633,0.5062505,0.1373895,-0.153117,0.6977905000000001,-0.0716705,0.247543,0.6401505000000001,0.0760345,-0.070296,0.0084075,-0.007987500000000002,0.070296,-0.0084075,0.007987499999999998,-0.112967,-0.31753950000000003,0.1108895,0.117423,-0.3398195,-0.11402050000000001,-0.148237,-0.6446894999999999,0.2886495,0.15432300000000002,-0.6532895,-0.24212050000000002
62,0.058001,0.738659,0.023531,-0.108981,0.49917900000000004,-0.033176,-0.301681,0.5972989999999999,-0.125611,0.228169,0.479499,0.055947,0.36961900000000003,0.508119,0.138729,-0.155641,0.697639,-0.072641,0.239799,0.6413089999999999,0.077026,-0.07016900000000001,0.008291,-0.008135,0.07016900000000001,-0.008291,0.008135,-0.11258100000000001,-0.317691,0.111014,0.11557899999999999,-0.340481,-0.112901,-0.147341,-0.6448710000000001,0.288869,0.152679,-0.653771,-0.24357099999999998
63,0.054481499999999995,0.7391695,0.023419500000000003,-0.10970450000000001,0.4990195,-0.033270499999999995,-0.3047045,0.5954495,-0.1267505,0.2284655,0.4798095,0.0569715,0.3677355,0.5099994999999999,0.1405295,-0.15816449999999999,0.6974795,-0.0733105,0.2346055,0.6424295,0.0780165,-0.07001450000000001,0.0081595,-0.008361500000000001,0.07001450000000001,-0.0081595,0.008361500000000001,-0.11218449999999999,-0.3180005,0.1111465,0.11356549999999999,-0.3410405,-0.11209050000000001,-0.1465845,-0.6452005000000001,0.2891195,0.1518055,-0.6539305,-0.24327049999999997
64,0.051015500000000005,0.7397385,0.023560499999999995,-0.1104415,0.49885850000000004,-0.03349150000000001,-0.30766150000000003,0.5936385000000001,-0.1275775,0.22875850000000003,0.4803085,0.0580285,0.3657585,0.5119685,0.1415925,-0.16023149999999997,0.6978985,-0.0731975,0.2295685,0.6434885,0.0788985,-0.0698545,0.0079985,-0.008592500000000003,0.0698545,-0.0079985,0.008592499999999996,-0.1117415,-0.31853149999999997,0.11131049999999999,0.11218850000000001,-0.3415515,-0.1115175,-0.1459515,-0.6457415,0.2892125,0.1512985,-0.6537515,-0.2430775
65,0.047553,0.7403175,0.023823,-0.111148,0.4985975,-0.033845999999999994,-0.310328,0.5922274999999999,-0.128055,0.22897199999999998,0.48144750000000003,0.060012,0.364352,0.5138075,0.143855,-0.16206800000000002,0.6983174999999999,-0.07292499999999999,0.22456199999999998,0.6441874999999999,0.079924,-0.06961200000000001,0.007807499999999999,-0.008794999999999997,0.06961200000000001,-0.0078075,0.008795,-0.111258,-0.3193025,0.11132600000000001,0.11100199999999999,-0.3419925,-0.111035,-0.145408,-0.6463825000000001,0.28918499999999997,0.151362,-0.6541125,-0.243505
66,0.0446705,0.74077,0.024099000000000002,-0.1116395,0.49833,-0.034304,-0.3126595,0.59113,-0.128364,0.2294305,0.48163,0.06216,0.3633205,0.51573,0.146166,-0.1636995,0.69857,-0.07270399999999999,0.2236105,0.64481,0.080157,-0.0692595,0.007595,-0.008893000000000002,0.0692595,-0.007595,0.008893000000000002,-0.1106595,-0.32016,0.11126,0.1099005,-0.34243999999999997,-0.110684,-0.1447495,-0.647,0.289066,0.1518805,-0.6539699999999999,-0.244144
67,0.041995000000000005,0.7412255,0.024439,-0.113115,0.49782550000000003,-0.035509000000000006,-0.314685,0.5902155,-0.12867199999999998,0.229225,0.4828255,0.063588,0.362495,0.5174555000000001,0.146888,-0.164965,0.6992055,-0.07250200000000001,0.222695,0.6452655,0.08024,-0.068796,0.0073355,-0.008985,0.068796,-0.0073355,0.008985,-0.110075,-0.32116449999999996,0.11116599999999999,0.109095,-0.3438645,-0.110402,-0.14396499999999998,-0.6475845,0.288968,0.152615,-0.6544745,-0.24458200000000002
68,0.039784,0.741707,0.0248715,-0.11481200000000001,0.497357,-0.0369805,-0.316182,0.589457,-0.1288255,0.228998,0.484197,0.0644855,0.362068,0.518927,0.1473045,-0.166092,0.699797,-0.0722155,0.221968,0.645597,0.0803045,-0.06825,0.007111,-0.009063500000000002,0.06825,-0.007110999999999999,0.009063499999999999,-0.109422,-0.322133,0.1110655,0.108508,-0.34526300000000004,-0.11001549999999999,-0.143142,-0.648143,0.28892450000000003,0.153598,-0.654563,-0.24491549999999998
69,0.0374235,0.7422245,0.025057500000000003,-0.11655750000000001,0.49697450000000004,-0.038613499999999995,-0.3177775,0.5887844999999999,-0.12943349999999998,0.2293325,0.48465450000000004,0.0668645,0.36271250000000005,0.5201045,0.1492665,-0.1670575,0.7005245,-0.0717635,0.2225525,0.6458545,0.08106050000000001,-0.0676115,0.0069325,-0.009113499999999997,0.0676115,-0.0069325,0.0091135,-0.1087475,-0.3231055,0.1110965,0.1082655,-0.3464355,-0.10949350000000001,-0.1422575,-0.6486455,0.28898650000000004,0.1546525,-0.6543755,-0.2450735
70,0.0353165,0.7427905,0.0252665,-0.1180725,0.49662049999999996,-0.0404835,-0.31924250000000004,0.5882605,-0.1304015,0.2294975,0.4861605,0.06899050000000001,0.36258749999999995,0.5212105,0.1513085,-0.16782249999999999,0.7012805,-0.0712215,0.2228675,0.6459604999999999,0.08164750000000001,-0.06699949999999999,0.006721499999999999,-0.0092355,0.06699949999999999,-0.0067215,0.0092355,-0.10799249999999999,-0.32398950000000004,0.1112465,0.10840449999999999,-0.34756950000000003,-0.10896149999999999,-0.1411625,-0.6489895,0.2892085,0.1557375,-0.6542695000000001,-0.24523150000000002
71,0.0333155,0.7433765,0.025412499999999998,-0.11953850000000002,0.4963665,-0.0420635,-0.32045850000000003,0.5879165,-0.1315255,0.2283015,0.4877465,0.0715555,0.3622015,0.5223365,0.1534045,-0.1677785,0.7021465,-0.0708055,0.22374149999999998,0.6461064999999999,0.0822955,-0.06633549999999999,0.006467500000000001,-0.0092215,0.06633549999999999,-0.0064675,0.009221499999999997,-0.10718849999999999,-0.3247835,0.1115285,0.10881850000000001,-0.3485235,-0.1084155,-0.14001850000000002,-0.6491835,0.2896145,0.1568715,-0.6539735000000001,-0.24531550000000002
72,0.031332,0.743919,0.0253655,-0.121026,0.496109,-0.0437035,-0.32147600000000004,0.587539,-0.13305150000000002,0.228754,0.488519,0.0743895,0.36225399999999996,0.523319,0.1561485,-0.167456,0.703119,-0.07052149999999999,0.223064,0.646299,0.0836665,-0.065685,0.0062039999999999994,-0.009112500000000003,0.065685,-0.0062039999999999994,0.009112499999999999,-0.106416,-0.32549100000000003,0.1119125,0.109336,-0.34930100000000003,-0.10801150000000001,-0.138886,-0.649251,0.29019849999999997,0.158044,-0.653541,-0.2451915
73,0.029365000000000002,0.7444945,0.0251785,-0.122558,0.49578449999999996,-0.0455375,-0.32251799999999997,0.5871244999999999,-0.13468549999999999,0.227102,0.4901945,0.0764345,0.36170199999999997,0.5242445,0.1578245,-0.167158,0.7040345,-0.0702555,0.222292,0.6464145,0.0847875,-0.065068,0.0059515,-0.0090895,0.065068,-0.0059515,0.0090895,-0.105748,-0.3260755,0.11236950000000001,0.10983,-0.3497755,-0.10743549999999999,-0.137828,-0.6491955,0.2908945,0.159182,-0.6530655,-0.2450155
74,0.027467,0.7450304999999999,0.024857500000000005,-0.124167,0.4954205,-0.04753249999999999,-0.323577,0.5866705,-0.1366095,0.22556299999999999,0.4917605,0.0783955,0.360813,0.5249904999999999,0.1595605,-0.166877,0.7048405,-0.07000949999999999,0.22142299999999998,0.6466605,0.08581150000000001,-0.06450900000000001,0.0057025,-0.009080499999999998,0.06450900000000001,-0.0057025,0.009080500000000005,-0.105207,-0.3265495,0.11289350000000001,0.11014299999999999,-0.3502195,-0.1070295,-0.136797,-0.6491095,0.2916805,0.160213,-0.6526795000000001,-0.24475950000000002
75,0.025632500000000003,0.7454305,0.024563999999999996,-0.1257805,0.49506049999999996,-0.04935,-0.3244305,0.5862105000000001,-0.138538,0.2236595,0.4933705,0.080549,0.3597495,0.5256005,0.161162,-0.1666705,0.7055305000000001,-0.069968,0.22060950000000001,0.6470305000000001,0.086667,-0.0640445,0.005452500000000001,-0.009083,0.0640445,-0.0054525,0.009082999999999997,-0.1048205,-0.3269695,0.11348,0.1104195,-0.34996950000000004,-0.106578,-0.1359005,-0.6490695,0.292632,0.16107950000000001,-0.6523194999999999,-0.24446800000000002
76,0.024167,0.7456595,0.024337499999999998,-0.126243,0.4949095,-0.050383500000000005,-0.325193,0.5856895000000001,-0.1404375,0.22220700000000002,0.4947695,0.0826655,0.35807700000000003,0.5260695000000001,0.1627125,-0.166403,0.7060895,-0.06999749999999999,0.22021700000000002,0.6472695,0.0874895,-0.06370100000000001,0.005243500000000001,-0.009004499999999999,0.06370100000000001,-0.0052435,0.009004499999999999,-0.104433,-0.32717050000000003,0.1141945,0.110834,-0.34976050000000003,-0.1060575,-0.135093,-0.6490505,0.2937825,0.16198700000000002,-0.6519704999999999,-0.24399749999999998
77,0.02286,0.745883,0.023830999999999998,-0.126405,0.49477299999999996,-0.051452,-0.32583500000000004,0.585233,-0.142489,0.220285,0.495813,0.08402,0.35601499999999997,0.526393,0.163801,-0.166205,0.706553,-0.070399,0.221035,0.647213,0.087813,-0.063474,0.0050680000000000005,-0.008971,0.063474,-0.005068,0.008971,-0.10409500000000001,-0.327227,0.114908,0.11130999999999999,-0.34953700000000004,-0.10571900000000001,-0.134425,-0.649027,0.294921,0.162655,-0.6512370000000001,-0.24344900000000003
78,0.022159500000000002,0.7461074999999999,0.023218999999999997,-0.1264765,0.4946175,-0.052439000000000006,-0.3260165,0.5848074999999999,-0.14427700000000002,0.2211135,0.4956475,0.085622,0.35550350000000003,0.5273075,0.16553299999999999,-0.1661665,0.7067775000000001,-0.07114699999999999,0.2216535,0.6471475,0.08821899999999999,-0.0633895,0.004919499999999999,-0.008931000000000001,0.0633895,-0.0049195,0.008930999999999998,-0.10382649999999999,-0.3270025,0.115616,0.1116355,-0.3492425,-0.105357,-0.1339765,-0.6488225000000001,0.29613300000000004,0.1632635,-0.6510125,-0.242687
79,0.021599999999999998,0.7463055,0.022379000000000003,-0.126644,0.4943855,-0.05327,-0.326434,0.5843455,-0.145842,0.221636,0.49498549999999997,0.086803,0.355936,0.5283455,0.16650800000000002,-0.16636399999999998,0.7069755,-0.072032,0.22190600000000002,0.6469955,0.088644,-0.063263,0.0048185,-0.008890999999999996,0.063263,-0.0048185,0.008891000000000003,-0.103674,-0.3268045,0.116386,0.11186299999999999,-0.34866450000000004,-0.105022,-0.133804,-0.6486245,0.29737800000000003,0.16356600000000002,-0.6508145000000001,-0.24153199999999997
80,0.021276,0.74635,0.021432,-0.127047,0.49405000000000004,-0.054423000000000006,-0.32698699999999997,0.58383,-0.147443,0.220673,0.49483000000000005,0.086735,0.355303,0.52838,0.166407,-0.166777,0.70712,-0.07325300000000001,0.220663,0.6471399999999999,0.08902499999999999,-0.063261,0.004735,-0.008884999999999997,0.063261,-0.004735,0.008884999999999997,-0.103467,-0.32665999999999995,0.117005,0.111928,-0.34775999999999996,-0.10483299999999998,-0.133427,-0.6484800000000001,0.29849699999999996,0.163673,-0.6502800000000001,-0.240293
81,0.020987,0.74625,0.020585000000000003,-0.12743600000000002,0.49367999999999995,-0.055582999999999994,-0.327516,0.5832999999999999,-0.14898299999999998,0.22053399999999998,0.49502999999999997,0.086338,0.35521400000000003,0.52742,0.166137,-0.167296,0.7071999999999999,-0.074783,0.22017399999999998,0.6463599999999999,0.087331,-0.063259,0.004667000000000001,-0.008879999999999999,0.063259,-0.004666999999999999,0.008880000000000006,-0.103286,-0.32653000000000004,0.11751,0.112016,-0.34617000000000003,-0.104583,-0.13306600000000002,-0.64834,0.299537,0.163654,-0.64954,-0.23911299999999996
82,0.020661500000000003,0.7460665,0.019712,-0.1275035,0.4933165,-0.056665999999999994,-0.3275535,0.5826865,-0.150642,0.2230565,0.4937765,0.086104,0.3561765,0.5275465,0.16688799999999998,-0.1678435,0.7070465,-0.077102,0.2205965,0.6447865,0.085374,-0.0632545,0.0046365,-0.008940999999999998,0.0632545,-0.0046365,0.008940999999999998,-0.1031135,-0.3262635,0.118095,0.1123745,-0.3439335,-0.10483200000000001,-0.1327035,-0.6481034999999999,0.300678,0.1640265,-0.6486535,-0.23795200000000002
83,0.02059,0.7457360000000001,0.0191395,-0.127335,0.492796,-0.057536500000000004,-0.327415,0.581976,-0.1520865,0.225525,0.492016,0.0861045,0.357235,0.527676,0.16799350000000002,-0.168315,0.706546,-0.0792865,0.21940500000000002,0.643176,0.0829265,-0.063245,0.004606,-0.009063500000000002,0.063245,-0.004606000000000001,0.009063500000000002,-0.10306499999999999,-0.326104,0.1186935,0.11321300000000001,-0.341194,-0.10518649999999999,-0.132635,-0.647414,0.30203349999999995,0.164135,-0.647654,-0.2362065
84,0.0204895,0.7450895000000001,0.018727000000000004,-0.1280215,0.49191949999999995,-0.058025999999999994,-0.3274315,0.5809995,-0.153396,0.2241385,0.4914195,0.086439,0.3561485,0.5268295000000001,0.16903400000000002,-0.1693715,0.7054495000000001,-0.08143600000000001,0.2186285,0.6416095,0.080767,-0.0632635,0.0044625,-0.009479999999999995,0.0632635,-0.0044624999999999995,0.009480000000000002,-0.10339149999999998,-0.3259305,0.119503,0.11464350000000001,-0.33738049999999997,-0.106266,-0.1331215,-0.6462605,0.30397399999999997,0.1635585,-0.6463705,-0.233586
85,0.0199475,0.7442685,0.018629999999999994,-0.1290125,0.4909385,-0.058322,-0.3279625,0.5800685,-0.154252,0.2238575,0.4902185,0.087091,0.3562675,0.5239885,0.169638,-0.17124250000000002,0.7041185,-0.083542,0.2176175,0.6394685,0.08033699999999999,-0.0633025,0.004243500000000001,-0.009798000000000001,0.0633025,-0.004243499999999999,0.009797999999999994,-0.10419250000000001,-0.3252115,0.120435,0.1164725,-0.3326915,-0.108492,-0.1345325,-0.6442915,0.306658,0.1617775,-0.6448115,-0.230192
86,0.018836,0.743278,0.019012,-0.13062600000000002,0.489958,-0.057805999999999996,-0.328886,0.579048,-0.154306,0.223514,0.492048,0.08863700000000001,0.355904,0.521548,0.17109400000000002,-0.17416600000000002,0.702588,-0.08516599999999999,0.216254,0.637928,0.080042,-0.063413,0.004012,-0.010112999999999997,0.063413,-0.004012,0.010113000000000004,-0.105056,-0.323622,0.12097200000000001,0.11930400000000001,-0.326892,-0.11221599999999998,-0.13675600000000002,-0.640942,0.31010400000000005,0.159604,-0.643162,-0.22602599999999998
87,0.017196,0.742036,0.020084000000000005,-0.13282999999999998,0.48859600000000003,-0.057087,-0.33042,0.577706,-0.15398699999999999,0.22083,0.495606,0.092313,0.35523,0.518946,0.173953,-0.17794,0.7003860000000001,-0.08629699999999998,0.2146,0.634626,0.080426,-0.06338,0.0037710000000000018,-0.010627999999999999,0.06338,-0.003771,0.010628000000000005,-0.10642,-0.32151399999999997,0.120499,0.12246,-0.320634,-0.116977,-0.13967,-0.636124,0.313923,0.15675,-0.640784,-0.221027
88,0.014494999999999996,0.740469,0.021173500000000012,-0.136005,0.48722899999999997,-0.05575649999999999,-0.332525,0.5757690000000001,-0.1534865,0.219275,0.49699899999999997,0.09638150000000001,0.353765,0.514209,0.17682350000000002,-0.181575,0.698069,-0.08702649999999998,0.211895,0.630819,0.08114350000000001,-0.06293499999999999,0.0034540000000000005,-0.011610499999999996,0.06293499999999999,-0.0034539999999999987,0.01161050000000001,-0.108685,-0.319091,0.1185815,0.125295,-0.314931,-0.12250649999999999,-0.143645,-0.629761,0.3177535,0.152975,-0.6374909999999999,-0.2154465
89,0.010862499999999997,0.7382295,0.022934499999999997,-0.1392565,0.48456950000000004,-0.0545045,-0.33510650000000003,0.5737295,-0.1523545,0.2153135,0.49821950000000004,0.0973535,0.3505935,0.5094394999999999,0.1777845,-0.18583650000000002,0.6956895,-0.08665450000000001,0.2085735,0.6270595,0.0820095,-0.06267249999999999,0.0029385,-0.0125165,0.06267249999999999,-0.0029385,0.0125165,-0.1116865,-0.31633049999999996,0.1153235,0.1277635,-0.3099405,-0.1283145,-0.14842650000000002,-0.6221605,0.3215155,0.14855349999999998,-0.6333605,-0.2087945
90,0.007185500000000001,0.736027,0.02533600000000001,-0.1422505,0.481827,-0.052925,-0.3375405,0.571577,-0.15079499999999998,0.2089695,0.500667,0.09958700000000001,0.3460195,0.505207,0.17944300000000002,-0.1901405,0.693337,-0.08568499999999998,0.2051395,0.6235769999999999,0.087606,-0.062406500000000004,0.0023689999999999996,-0.013295000000000001,0.062406500000000004,-0.0023689999999999996,0.013295000000000001,-0.1141505,-0.31204299999999996,0.10889900000000001,0.1307995,-0.30414300000000005,-0.135595,-0.1539505,-0.614033,0.323455,0.1436195,-0.627653,-0.20100500000000002
91,0.0035480000000000025,0.733294,0.02833949999999999,-0.14564100000000002,0.479564,-0.050225500000000006,-0.340171,0.569014,-0.14886549999999998,0.201899,0.504444,0.10252549999999999,0.341179,0.5005740000000001,0.18141049999999997,-0.19333099999999998,0.691474,-0.0832155,0.200059,0.622244,0.09198949999999999,-0.062231999999999996,0.0017679999999999987,-0.01384550000000001,0.062231999999999996,-0.0017680000000000057,0.013845499999999997,-0.116091,-0.308266,0.10060649999999999,0.13366899999999998,-0.29687600000000003,-0.1428155,-0.16018100000000002,-0.604446,0.32404449999999996,0.13825900000000002,-0.620476,-0.1926655
92,-0.0001755000000000055,0.7305429999999999,0.031422000000000005,-0.1486685,0.47630300000000003,-0.04808,-0.3428085,0.5665129999999999,-0.14674000000000004,0.1951115,0.510343,0.105713,0.3356215,0.495933,0.18364999999999998,-0.1961885,0.6895429999999999,-0.08037000000000001,0.1933915,0.619853,0.094493,-0.0618835,0.0011079999999999979,-0.014609999999999998,0.0618835,-0.0011079999999999979,0.014609999999999998,-0.11794750000000001,-0.304757,0.09156,0.1363415,-0.287727,-0.15029000000000003,-0.1672285,-0.593767,0.32425,0.1323315,-0.611527,-0.18368
93,-0.003519499999999995,0.727899,0.034638,-0.1512675,0.473279,-0.046215000000000006,-0.3449275,0.564329,-0.144725,0.1888825,0.5173989999999999,0.108042,0.3317925,0.489549,0.18568,-0.1985075,0.687919,-0.077515,0.1862625,0.616729,0.095174,-0.0614165,0.0006349999999999967,-0.014905000000000002,0.0614165,-0.0006350000000000036,0.014905000000000002,-0.1192395,-0.301741,0.08158599999999999,0.1389825,-0.277511,-0.158615,-0.1744175,-0.582081,0.323915,0.12601250000000003,-0.6009410000000001,-0.17523500000000003
94,-0.006452999999999997,0.725247,0.037570000000000006,-0.153581,0.47076700000000005,-0.044300000000000006,-0.346801,0.562307,-0.14306999999999997,0.183169,0.524047,0.109815,0.326559,0.486687,0.18823700000000002,-0.200871,0.6863969999999999,-0.07552,0.179519,0.615877,0.097307,-0.060895,0.00016600000000001336,-0.014919999999999989,0.060895,-0.00016599999999999948,0.014920000000000017,-0.11946000000000001,-0.29987299999999995,0.07017000000000001,0.141399,-0.268153,-0.16645,-0.181251,-0.569163,0.32331,0.11935900000000002,-0.589053,-0.16615999999999997
95,-0.008527,0.7224809999999999,0.040419999999999984,-0.155151,0.467801,-0.042920000000000014,-0.348451,0.560261,-0.14221000000000003,0.177629,0.528651,0.11112899999999998,0.32153899999999996,0.483881,0.19003899999999999,-0.202421,0.685091,-0.07402,0.174099,0.615491,0.10386399999999998,-0.060359,-0.0004890000000000033,-0.015210000000000001,0.060359,0.0004889999999999894,0.015210000000000001,-0.119895,-0.29864900000000005,0.059251999999999985,0.14263900000000002,-0.25953899999999996,-0.17324000000000003,-0.188001,-0.554909,0.32309,0.112399,-0.576679,-0.15665000000000004
96,-0.010637499999999994,0.719916,0.042825,-0.1568835,0.466076,-0.040995000000000004,-0.3500735,0.5578960000000001,-0.141465,0.17226650000000002,0.533066,0.11161199999999999,0.3156565,0.48137599999999997,0.191029,-0.2036835,0.6843060000000001,-0.072655,0.16896650000000002,0.613496,0.10550599999999999,-0.0600765,-0.0011520000000000002,-0.015335000000000015,0.0600765,0.0011520000000000002,0.015334999999999988,-0.1198015,-0.29788400000000004,0.04879499999999999,0.1431765,-0.25186400000000003,-0.180255,-0.1948035,-0.5393239999999999,0.322585,0.1052565,-0.564014,-0.14697500000000002
97,-0.012559,0.71767,0.045655,-0.15783,0.4636,-0.039995,-0.35158,0.55672,-0.140435,0.16734,0.53663,0.110938,0.31184,0.48175999999999997,0.192197,-0.2066,0.6829500000000001,-0.072375,0.16471999999999998,0.61319,0.109251,-0.06017,-0.0018399999999999944,-0.014825000000000005,0.06017,0.0018400000000000083,0.014825000000000005,-0.118496,-0.29774,0.03884499999999999,0.14372999999999997,-0.24444999999999997,-0.18786499999999998,-0.20099,-0.52257,0.321915,0.09834,-0.54896,-0.136865
98,-0.013929499999999997,0.71608,0.047664999999999985,-0.15882949999999998,0.46333,-0.03826499999999999,-0.3526885,0.5552900000000001,-0.140045,0.1649815,0.54029,0.11348699999999999,0.3112415,0.48046,0.195638,-0.2093785,0.68117,-0.07325499999999999,0.1617115,0.61117,0.112869,-0.0600915,-0.0023299999999999987,-0.014454999999999996,0.0600915,0.0023299999999999987,0.014454999999999996,-0.1158875,-0.29811,0.029615000000000002,0.14460150000000002,-0.23697,-0.19573500000000002,-0.2061585,-0.506,0.321115,0.09230150000000001,-0.53238,-0.127435
99,-0.015161000000000008,0.7146950000000001,0.049545000000000006,-0.159363,0.46277500000000005,-0.03709499999999999,-0.35339600000000004,0.554915,-0.13976499999999997,0.16431400000000002,0.542715,0.114932,0.31117399999999995,0.48065500000000005,0.19867400000000002,-0.211706,0.6806450000000001,-0.07382499999999997,0.16199399999999997,0.611745,0.11515600000000001,-0.05987400000000001,-0.0025550000000000017,-0.013924999999999993,0.059874,0.0025550000000000017,0.01392500000000002,-0.11276800000000001,-0.299945,0.02343500000000001,0.14611399999999997,-0.230115,-0.203225,-0.210036,-0.48967499999999997,0.322515,0.08731399999999999,-0.5143749999999999,-0.118695
100,-0.016702500000000002,0.7140249999999999,0.05033499999999999,-0.1596175,0.461885,-0.03686499999999998,-0.3537355,0.554195,-0.13998500000000003,0.1633445,0.544095,0.11606499999999999,0.31108450000000004,0.480145,0.201286,-0.21463549999999998,0.679295,-0.074845,0.16404449999999998,0.609395,0.12035699999999999,-0.0594545,-0.0029850000000000154,-0.013725000000000015,0.05945450000000001,0.0029849999999999877,0.013724999999999987,-0.1100425,-0.301445,0.019144999999999995,0.1475245,-0.222935,-0.210285,-0.2132155,-0.474925,0.325505,0.0834745,-0.496655,-0.11055500000000001
101,-0.018454999999999992,0.71319,0.05131000000000002,-0.160263,0.46177,-0.03619,-0.353968,0.55423,-0.14026,0.162782,0.54283,0.11658000000000002,0.311302,0.48102,0.20336600000000002,-0.218888,0.67753,-0.07796999999999998,0.16595200000000002,0.6081,0.12421000000000001,-0.059222,-0.0032000000000000084,-0.01343999999999998,0.059222,0.0032000000000000084,0.013440000000000007,-0.10717499999999999,-0.30249000000000004,0.015790000000000026,0.14930200000000002,-0.21499,-0.21785,-0.215898,-0.46019,0.32922,0.07966200000000001,-0.47877000000000003,-0.10319
102,-0.0199945,0.7122200000000001,0.051980000000000026,-0.1606305,0.46174000000000004,-0.035629999999999995,-0.35439149999999997,0.55416,-0.14055,0.16231849999999998,0.54217,0.11736000000000002,0.3102585,0.48415,0.204942,-0.2232115,0.6764300000000001,-0.08090999999999998,0.1682785,0.60885,0.12725000000000003,-0.0591385,-0.003679999999999989,-0.013469999999999982,0.0591385,0.0036800000000000166,0.01347000000000001,-0.1041335,-0.30340999999999996,0.01349000000000003,0.15097850000000002,-0.20708,-0.22429,-0.21795150000000002,-0.44514999999999993,0.33329600000000004,0.07621850000000001,-0.46160999999999996,-0.09570999999999996
103,-0.021099000000000014,0.711205,0.05286000000000002,-0.160507,0.461415,-0.035260000000000014,-0.354482,0.554235,-0.14076,0.16221799999999997,0.541485,0.11806,0.310528,0.483525,0.206223,-0.226622,0.6754549999999999,-0.08288000000000001,0.17214800000000002,0.606725,0.13024000000000002,-0.059128000000000014,-0.004035000000000011,-0.013899999999999968,0.059128,0.004035000000000011,0.013899999999999996,-0.10161200000000001,-0.30359499999999995,0.012800000000000006,0.15287800000000001,-0.198785,-0.23054999999999998,-0.219742,-0.431395,0.337195,0.073058,-0.445125,-0.08868999999999999
104,-0.02201349999999999,0.710545,0.05376,-0.1600895,0.46170500000000003,-0.0348,-0.3540965,0.554805,-0.14053,0.16255350000000002,0.541035,0.11867000000000003,0.3114235,0.483015,0.207762,-0.2291065,0.674415,-0.08421000000000001,0.17693350000000002,0.603335,0.13375000000000004,-0.05902349999999999,-0.004174999999999984,-0.013979999999999992,0.05902349999999999,0.00417500000000004,0.01398000000000002,-0.0984285,-0.303705,0.012260000000000021,0.15539350000000002,-0.19055499999999997,-0.23670999999999998,-0.2206365,-0.41886499999999993,0.340295,0.0706535,-0.429075,-0.08249999999999996
105,-0.02180399999999999,0.7102550000000001,0.054895,-0.15855399999999997,0.461245,-0.03479500000000002,-0.352619,0.556325,-0.14009500000000003,0.16385100000000002,0.540875,0.11932499999999999,0.31345100000000004,0.482735,0.209426,-0.230539,0.6737850000000001,-0.08538499999999999,0.180681,0.604075,0.136855,-0.05884099999999999,-0.004294999999999993,-0.014114999999999989,0.058841000000000004,0.004294999999999993,0.014114999999999989,-0.09495599999999998,-0.303615,0.012355000000000005,0.15852100000000002,-0.182365,-0.241925,-0.220439,-0.40567499999999995,0.343887,0.06939100000000001,-0.413565,-0.07731500000000002
106,-0.020312499999999997,0.709955,0.05577500000000002,-0.1564915,0.46162500000000006,-0.03436499999999998,-0.3504155,0.557455,-0.13988499999999998,0.1657745,0.5407850000000001,0.12005500000000002,0.3150745,0.48190500000000003,0.21030000000000004,-0.23029550000000001,0.674015,-0.085725,0.1853645,0.6044750000000001,0.13873500000000002,-0.0586945,-0.004274999999999973,-0.014405000000000001,0.05869450000000001,0.004275000000000029,0.014405000000000001,-0.09163450000000001,-0.303115,0.013355000000000006,0.1617945,-0.17476499999999995,-0.24611500000000003,-0.2194955,-0.39305499999999993,0.34794200000000003,0.06944449999999999,-0.400535,-0.073735
107,-0.01821750000000001,0.709685,0.05687500000000001,-0.15420250000000002,0.461055,-0.03445500000000001,-0.3479765,0.558925,-0.13944499999999999,0.1680235,0.540545,0.120505,0.3154535,0.482565,0.21073,-0.22920649999999998,0.674705,-0.085615,0.18991349999999996,0.606695,0.14097500000000002,-0.0586435,-0.004234999999999989,-0.014664999999999984,0.0586435,0.004234999999999989,0.014664999999999984,-0.0886015,-0.30241500000000004,0.01500499999999999,0.16512349999999998,-0.16780499999999998,-0.24982499999999996,-0.21838649999999998,-0.380835,0.35163,0.07014349999999998,-0.38920499999999997,-0.07100499999999998
108,-0.0161675,0.70919,0.05750000000000002,-0.15253450000000002,0.46091000000000004,-0.03415999999999997,-0.3459225,0.55959,-0.13894999999999996,0.16967749999999998,0.54037,0.12122000000000002,0.31591749999999996,0.48125,0.21100100000000002,-0.22830250000000002,0.67422,-0.08609,0.19186749999999997,0.6066,0.14292000000000002,-0.058717500000000006,-0.004369999999999985,-0.015220000000000011,0.05871749999999999,0.0043700000000000405,0.015220000000000011,-0.0863495,-0.30177,0.016890000000000016,0.16728749999999998,-0.16183999999999998,-0.25265999999999994,-0.21726250000000003,-0.37393999999999994,0.355208,0.0714575,-0.38076,-0.0691
109,-0.013939499999999994,0.7085049999999999,0.05868000000000001,-0.15081050000000001,0.460695,-0.03394999999999998,-0.3440125,0.561185,-0.13823999999999997,0.1715375,0.539435,0.12164000000000003,0.3166375,0.481115,0.21100200000000002,-0.2276725,0.674335,-0.08676,0.19332750000000004,0.607845,0.14544,-0.0589175,-0.004284999999999983,-0.015539999999999998,0.0589175,0.004285000000000039,0.015539999999999998,-0.0839915,-0.301025,0.018630000000000035,0.1694775,-0.15630499999999997,-0.25556,-0.21576250000000002,-0.368005,0.358327,0.0732675,-0.373355,-0.06761999999999996
110,-0.012140000000000012,0.7080949999999999,0.05946499999999999,-0.149624,0.460905,-0.03347499999999998,-0.342612,0.562155,-0.137415,0.17257799999999998,0.539745,0.12237500000000001,0.317198,0.47984499999999997,0.21087699999999998,-0.226392,0.675195,-0.08548499999999998,0.19560799999999998,0.609765,0.146735,-0.059008000000000005,-0.004344999999999988,-0.015805000000000013,0.059008000000000005,0.004344999999999988,0.015805000000000013,-0.082249,-0.300505,0.020405000000000006,0.17079799999999998,-0.15197500000000003,-0.257385,-0.21413200000000002,-0.36241500000000004,0.361005,0.074878,-0.36792500000000006,-0.06636500000000001
111,-0.010966500000000004,0.708115,0.06012500000000001,-0.1490185,0.461425,-0.03286499999999998,-0.3416225,0.563235,-0.13653499999999996,0.17300750000000004,0.540335,0.12306500000000001,0.3174975,0.478335,0.21066000000000001,-0.2253325,0.675705,-0.084345,0.19681750000000003,0.6096349999999999,0.14839500000000003,-0.0590875,-0.004195000000000004,-0.016034999999999966,0.0590875,0.004195000000000004,0.01603500000000002,-0.0810905,-0.29991500000000004,0.021865000000000023,0.1715375,-0.148445,-0.258695,-0.21265250000000002,-0.35829500000000003,0.363495,0.0762375,-0.363885,-0.06550499999999998
112,-0.010514999999999997,0.708115,0.06033500000000003,-0.148848,0.46172499999999994,-0.032445,-0.34099,0.563955,-0.135895,0.17318,0.540735,0.12348500000000001,0.31756,0.479525,0.21051000000000003,-0.22463,0.676185,-0.08354499999999998,0.19715,0.610605,0.148715,-0.05917,-0.004105000000000025,-0.01619499999999996,0.05917,0.00410499999999997,0.016195000000000015,-0.08032500000000001,-0.299535,0.02290500000000001,0.17169,-0.14549500000000004,-0.259675,-0.21137,-0.35333500000000007,0.3659,0.07694999999999999,-0.361015,-0.06486499999999995
113,-0.010110999999999995,0.708005,0.059984999999999955,-0.148331,0.461825,-0.03246500000000002,-0.34034,0.564245,-0.13583500000000004,0.17364,0.540995,0.12330499999999997,0.31789,0.480365,0.20996299999999996,-0.2241,0.676685,-0.08350500000000005,0.19815000000000002,0.611945,0.14947499999999997,-0.0593,-0.004065000000000041,-0.016415000000000013,0.05929999999999999,0.004064999999999985,0.016414999999999957,-0.079514,-0.299265,0.023474999999999968,0.17198,-0.14354500000000003,-0.260625,-0.20983,-0.350465,0.36722899999999997,0.07769000000000001,-0.359125,-0.06475500000000006
114,-0.009812500000000002,0.7074,0.05916999999999997,-0.1479335,0.46153999999999995,-0.03299000000000002,-0.3400535,0.56377,-0.13666,0.1739765,0.54064,0.12261999999999998,0.31835650000000004,0.48058,0.20962999999999998,-0.2237535,0.67643,-0.08419000000000004,0.1989365,0.61195,0.14962999999999999,-0.05942650000000001,-0.004060000000000008,-0.016630000000000034,0.05942649999999999,0.004060000000000008,0.016629999999999978,-0.0788385,-0.29908000000000007,0.02366999999999997,0.1721865,-0.14301000000000003,-0.26171,-0.20837350000000002,-0.34998,0.36758199999999996,0.0783365,-0.35859,-0.06541000000000002
115,-0.009110500000000007,0.7074,0.05872500000000003,-0.14732050000000002,0.46153999999999995,-0.033204999999999985,-0.33938850000000004,0.56377,-0.13722499999999999,0.17432149999999996,0.54064,0.12233500000000003,0.3187115,0.48058,0.209505,-0.22298849999999998,0.67643,-0.084455,0.19902149999999996,0.61195,0.149535,-0.059521500000000005,-0.004060000000000008,-0.01659499999999997,0.05952149999999999,0.004060000000000008,0.016595000000000026,-0.0779985,-0.29908000000000007,0.023375000000000035,0.1728715,-0.14301000000000003,-0.262215,-0.20692850000000002,-0.35085000000000005,0.367562,0.07919149999999998,-0.35832,-0.06571499999999997
116,-0.008351999999999998,0.7074,0.058459999999999956,-0.146973,0.46153999999999995,-0.033320000000000016,-0.33853300000000003,0.56377,-0.13752000000000003,0.17450699999999997,0.54064,0.12225999999999998,0.31915699999999997,0.48058,0.20935099999999995,-0.22230299999999997,0.67643,-0.08469000000000004,0.19987699999999997,0.6119699999999999,0.14923999999999996,-0.05962699999999999,-0.004060000000000008,-0.01656000000000002,0.059627,0.004060000000000008,0.016559999999999964,-0.07714299999999999,-0.29908000000000007,0.02307999999999999,0.17350700000000002,-0.14253,-0.26243000000000005,-0.20581299999999997,-0.35128,0.36799,0.080047,-0.35832,-0.06601000000000001
117,-0.008324999999999999,0.7074,0.05845499999999998,-0.147147,0.46153999999999995,-0.033255000000000035,-0.338051,0.56377,-0.137675,0.174359,0.54064,0.12231499999999998,0.319279,0.48058,0.209312,-0.222231,0.67643,-0.08471499999999998,0.199789,0.61294,0.148145,-0.059809,-0.004060000000000008,-0.016494999999999982,0.059809,0.004060000000000008,0.016494999999999982,-0.076418,-0.29908000000000007,0.023245000000000016,0.173499,-0.14169000000000004,-0.26242499999999996,-0.204831,-0.35084,0.36869399999999997,0.080619,-0.35832,-0.06620500000000001
118,-0.009178999999999993,0.70731,0.058164999999999994,-0.148009,0.46129,-0.033445,-0.338125,0.56331,-0.138235,0.173565,0.5404599999999999,0.122005,0.31855500000000003,0.48267000000000004,0.20912199999999997,-0.222405,0.6756,-0.08494499999999999,0.198565,0.61469,0.148445,-0.05994499999999999,-0.0042200000000000015,-0.016664999999999985,0.059945,0.0042200000000000015,0.016664999999999985,-0.075401,-0.29905000000000004,0.024075000000000013,0.17278500000000002,-0.14156000000000002,-0.26276499999999997,-0.204005,-0.34826999999999997,0.368678,0.080925,-0.35965,-0.06689499999999998
119,-0.011219499999999993,0.7070150000000001,0.057914999999999994,-0.1497235,0.46074500000000007,-0.03339500000000001,-0.3397735,0.5622250000000001,-0.138465,0.17191650000000003,0.5401450000000001,0.12187500000000001,0.3172965,0.484785,0.20825300000000002,-0.22383350000000002,0.6753850000000001,-0.08480500000000002,0.1957465,0.6152550000000001,0.147305,-0.06000649999999999,-0.004274999999999973,-0.016874999999999973,0.060006500000000004,0.004275000000000029,0.01687500000000003,-0.0751635,-0.29913499999999993,0.024355000000000016,0.17053650000000004,-0.14408499999999996,-0.262065,-0.2039535,-0.34940499999999997,0.367273,0.08068650000000001,-0.364405,-0.06832499999999997
120,-0.014026999999999998,0.7081850000000001,0.05860000000000001,-0.15171600000000002,0.45944500000000005,-0.03360999999999997,-0.34251,0.561995,-0.13787,0.1697,0.539165,0.12146000000000001,0.31594999999999995,0.48662500000000003,0.20831600000000003,-0.2246,0.6769050000000001,-0.08226999999999995,0.19226000000000001,0.617775,0.14667000000000002,-0.06009,-0.004444999999999977,-0.017329999999999957,0.060090000000000005,0.004445000000000032,0.017330000000000012,-0.077319,-0.2989449999999999,0.02559,0.16763,-0.14827499999999993,-0.26030999999999993,-0.20544,-0.354085,0.36631800000000003,0.0802,-0.37170499999999995,-0.07024999999999998
121,-0.01793950000000001,0.708755,0.05951999999999996,-0.1545205,0.45826500000000003,-0.03311000000000003,-0.3456205,0.560495,-0.13664000000000004,0.1665295,0.5386850000000001,0.12195999999999996,0.31497949999999997,0.48680500000000004,0.20921199999999995,-0.2256205,0.6768350000000001,-0.07902000000000003,0.18697949999999997,0.6177950000000001,0.14684999999999998,-0.06019950000000001,-0.004475000000000007,-0.017520000000000036,0.0601995,0.004475000000000007,0.01751999999999998,-0.08050950000000001,-0.298935,0.02626999999999996,0.1639895,-0.155105,-0.25673,-0.20749050000000002,-0.363805,0.36422499999999997,0.0793195,-0.38401499999999994,-0.07302000000000003
122,-0.0222235,0.70932,0.06031000000000003,-0.1576345,0.45733,-0.03255999999999998,-0.3488805,0.55829,-0.13515999999999995,0.16306949999999998,0.53864,0.12280000000000005,0.3117295,0.48933,0.20968500000000004,-0.2273505,0.67582,-0.07636999999999994,0.1828595,0.61776,0.14658000000000004,-0.06043949999999999,-0.004620000000000013,-0.01823999999999998,0.06043949999999999,0.0046199999999999575,0.018240000000000034,-0.0845155,-0.2988700000000001,0.027010000000000034,0.15951949999999998,-0.16322000000000003,-0.25178999999999996,-0.21015050000000002,-0.37817,0.36106600000000005,0.0792295,-0.40143000000000006,-0.07785999999999998
123,-0.025850000000000005,0.71095,0.06054999999999999,-0.16065200000000002,0.45691000000000004,-0.03210999999999997,-0.35194,0.55577,-0.13428,0.15993999999999997,0.53929,0.12353,0.30920000000000003,0.48950000000000005,0.209256,-0.22859000000000002,0.6753899999999999,-0.07362000000000002,0.17598000000000003,0.61775,0.14489000000000002,-0.060410000000000005,-0.004689999999999972,-0.018330000000000013,0.060410000000000005,0.0046900000000000275,0.018330000000000013,-0.08993400000000001,-0.29867,0.02807000000000001,0.15496,-0.17274,-0.24619000000000002,-0.21294000000000002,-0.39368000000000003,0.356041,0.08003999999999999,-0.42259,-0.08496999999999999
124,-0.029505999999999998,0.712665,0.060874999999999985,-0.16319499999999998,0.456635,-0.03183500000000003,-0.354666,0.554015,-0.133005,0.157144,0.5398050000000001,0.123915,0.306974,0.490385,0.208564,-0.228556,0.6770050000000001,-0.07034500000000002,0.170944,0.6194850000000001,0.142945,-0.060474,-0.004594999999999988,-0.018265000000000003,0.060474,0.004595000000000016,0.018265000000000003,-0.095617,-0.298265,0.029744999999999994,0.150224,-0.18443500000000002,-0.238505,-0.21490599999999999,-0.412555,0.351305,0.081624,-0.44655500000000004,-0.09396499999999999
125,-0.03274650000000001,0.71448,0.06109500000000001,-0.1653745,0.45626,-0.031945,-0.35704650000000004,0.55261,-0.13176500000000002,0.1547235,0.54027,0.123615,0.30470349999999996,0.49129,0.207293,-0.2295165,0.67658,-0.06771500000000003,0.16710350000000002,0.61923,0.140967,-0.06058350000000001,-0.004489999999999994,-0.018195000000000017,0.0605835,0.004489999999999994,0.01819499999999999,-0.10175550000000001,-0.29723,0.03315499999999999,0.1453935,-0.19769000000000003,-0.229045,-0.21649650000000004,-0.43984999999999996,0.345105,0.08402349999999999,-0.47218000000000004,-0.10507500000000003
126,-0.035359999999999996,0.716555,0.06067,-0.167161,0.455395,-0.03311,-0.359284,0.551405,-0.13086,0.15366600000000002,0.541665,0.123757,0.302876,0.491785,0.205188,-0.23077399999999998,0.676745,-0.06616999999999998,0.162976,0.620555,0.13813999999999999,-0.060565999999999995,-0.004264999999999991,-0.018229999999999996,0.060565999999999995,0.004264999999999991,0.018229999999999996,-0.109183,-0.298065,0.03875000000000001,0.14013599999999998,-0.214185,-0.2179,-0.21734399999999998,-0.4689249999999999,0.33972,0.08706599999999999,-0.49977499999999997,-0.11781
127,-0.036996,0.717175,0.058685000000000015,-0.169048,0.454285,-0.03461499999999998,-0.361418,0.548875,-0.13139499999999998,0.15339200000000003,0.551285,0.12638300000000002,0.301222,0.490045,0.201998,-0.23064800000000002,0.676635,-0.06444499999999997,0.160792,0.617955,0.13411,-0.060042,-0.00412499999999999,-0.01818499999999998,0.060042,0.0041250000000000175,0.018185000000000007,-0.11708199999999999,-0.30161499999999997,0.044005000000000016,0.13517200000000001,-0.23369499999999999,-0.20721499999999998,-0.21743800000000002,-0.5001749999999999,0.333895,0.091382,-0.5297649999999999,-0.13210499999999997
128,-0.037453999999999994,0.71864,0.056455000000000005,-0.169456,0.4539,-0.03661500000000001,-0.36198600000000003,0.54785,-0.13221500000000003,0.154474,0.5605800000000001,0.127574,0.300724,0.488,0.19924999999999998,-0.228896,0.67655,-0.06371500000000002,0.16050399999999998,0.6176,0.131593,-0.05954399999999999,-0.004119999999999999,-0.018165000000000014,0.059544,0.004119999999999999,0.018164999999999987,-0.12445999999999999,-0.30589,0.051565,0.131724,-0.25263,-0.197085,-0.21627599999999997,-0.52808,0.32948500000000003,0.097234,-0.55738,-0.147185
129,-0.0365015,0.718766,0.05307499999999998,-0.1689635,0.45455599999999996,-0.038495,-0.3610735,0.5458959999999999,-0.134305,0.1557065,0.571836,0.129137,0.2997665,0.48712599999999995,0.195567,-0.2268835,0.674666,-0.064525,0.16166650000000002,0.614946,0.12817499999999998,-0.058846499999999996,-0.0038630000000000053,-0.017735,0.0588465,0.0038629999999999914,0.017735,-0.1287955,-0.31086400000000003,0.058294999999999986,0.1295065,-0.27177399999999996,-0.187515,-0.2122335,-0.553624,0.323785,0.10479650000000001,-0.584144,-0.16367500000000001
130,-0.03444099999999999,0.7195905,0.049728999999999995,-0.167634,0.4552205,-0.041080000000000005,-0.359714,0.5454105,-0.13691000000000003,0.157606,0.5835005,0.130601,0.298696,0.4879205,0.191221,-0.225564,0.6745905,-0.06654000000000002,0.164656,0.6150205,0.12432399999999999,-0.058115999999999994,-0.0037044999999999995,-0.01744000000000001,0.058116,0.0037044999999999995,0.017439999999999983,-0.131874,-0.3156295,0.06535099999999999,0.126966,-0.2901095,-0.17757,-0.206954,-0.5776495,0.31816,0.113286,-0.6064795000000001,-0.18030000000000002
131,-0.0314835,0.7205045,0.046275,-0.16502850000000002,0.4556445,-0.044694999999999985,-0.3578485,0.5460945,-0.139585,0.1607615,0.5934745,0.130387,0.3000915,0.4864645,0.18687,-0.2231085,0.6738145,-0.068465,0.1672015,0.6152545,0.120897,-0.0571295,-0.0034555000000000002,-0.016525000000000012,0.0571295,0.0034555000000000002,0.016524999999999998,-0.1336965,-0.32069549999999997,0.07242699999999999,0.1255615,-0.3083055,-0.168585,-0.2004185,-0.5988755,0.31293499999999996,0.1225615,-0.6246955,-0.196505
132,-0.028979999999999995,0.7204195,0.04321,-0.162709,0.4559395,-0.047241000000000005,-0.355919,0.5470995000000001,-0.141621,0.16385100000000002,0.6024295000000001,0.13035,0.300641,0.4875895,0.183282,-0.22007899999999997,0.6736495,-0.069851,0.172531,0.6154595,0.118115,-0.056421,-0.003234499999999998,-0.016381000000000007,0.056421,0.0032345000000000013,0.016380999999999993,-0.133799,-0.3262805,0.078664,0.12416100000000001,-0.3254205,-0.160101,-0.192899,-0.6159905,0.308559,0.13177100000000003,-0.6396505,-0.211681
133,-0.026513000000000002,0.7202295000000001,0.0403745,-0.160938,0.45611949999999996,-0.04906949999999999,-0.354518,0.5473295,-0.1432795,0.166712,0.6112095000000001,0.1306605,0.300542,0.48787949999999997,0.1796355,-0.218088,0.6715295,-0.07146949999999999,0.175912,0.6143195,0.1164425,-0.055696999999999997,-0.0030724999999999997,-0.016369499999999995,0.055696999999999997,0.0030724999999999997,0.016369499999999995,-0.133578,-0.3324805,0.0839105,0.122392,-0.33906050000000004,-0.1531495,-0.185848,-0.6296305,0.3031505,0.140432,-0.6521604999999999,-0.2255995
134,-0.0243585,0.719877,0.038458,-0.1598545,0.45632700000000004,-0.049948000000000006,-0.3535045,0.547377,-0.144098,0.16992549999999998,0.619857,0.13357,0.3004055,0.487667,0.176762,-0.2168245,0.670867,-0.071628,0.1772655,0.6143069999999999,0.11404600000000001,-0.054996500000000004,-0.0028989999999999997,-0.016438999999999995,0.054996500000000004,0.0028989999999999997,0.016438999999999995,-0.1328645,-0.33930299999999997,0.087047,0.1210855,-0.349273,-0.148358,-0.17893450000000002,-0.640533,0.29882200000000003,0.14872549999999998,-0.662373,-0.238048
135,-0.0227225,0.7198025,0.0379225,-0.1591865,0.4575025,-0.0490965,-0.3528765,0.5477425,-0.14337650000000002,0.17214349999999998,0.6279325,0.1364695,0.2996535,0.48812249999999996,0.1747135,-0.21434650000000002,0.6698725000000001,-0.06873649999999999,0.17897349999999998,0.6139325000000001,0.1134655,-0.054391499999999995,-0.0028094999999999995,-0.0162905,0.054391499999999995,0.0028094999999999995,0.0162905,-0.1310665,-0.3442075,0.0876875,0.1206335,-0.3568975,-0.14511649999999998,-0.17246650000000002,-0.6490174999999999,0.2938935,0.1562935,-0.6696574999999999,-0.2487565
136,-0.021733,0.7207985,0.0394705,-0.15790300000000002,0.4589185,-0.0478055,-0.352083,0.5493985,-0.1406615,0.174217,0.6278085,0.1366525,0.300057,0.48698850000000005,0.1745285,-0.213173,0.6695385,-0.0662915,0.179977,0.6145585,0.1147205,-0.054291,-0.002494500000000002,-0.016169500000000003,0.054291,0.0024945,0.0161695,-0.12905299999999997,-0.3462715,0.0882725,0.120647,-0.3623315,-0.1416415,-0.166493,-0.6548515,0.2899885,0.162717,-0.6728715,-0.2576615
137,-0.021348000000000002,0.7213149999999999,0.041739000000000005,-0.157164,0.460015,-0.04628199999999999,-0.351674,0.5503049999999999,-0.137552,0.175716,0.628135,0.137868,0.30004600000000003,0.486265,0.17521799999999998,-0.213144,0.668895,-0.06296399999999999,0.180706,0.613885,0.11594700000000001,-0.05416,-0.0021709999999999993,-0.015978,0.05416,0.0021709999999999993,0.015978000000000003,-0.126974,-0.34751499999999996,0.087169,0.12053599999999999,-0.368685,-0.13869199999999998,-0.161014,-0.6586850000000001,0.285868,0.167596,-0.675535,-0.264852
138,-0.021694999999999996,0.7219715,0.0447955,-0.156773,0.46086150000000004,-0.0447585,-0.351643,0.5514614999999999,-0.13366550000000002,0.178267,0.6274415,0.1387345,0.300567,0.4861115,0.1763845,-0.214333,0.6691014999999999,-0.0604145,0.181347,0.6134314999999999,0.1185755,-0.05415300000000001,-0.0019954999999999973,-0.0160625,0.05415300000000001,0.0019955000000000007,0.0160625,-0.125613,-0.3482085,0.0859345,0.120147,-0.3734985,-0.13621550000000002,-0.156963,-0.6610585,0.28254450000000003,0.171447,-0.6771885000000001,-0.2706455
139,-0.0222005,0.7226815,0.048189499999999996,-0.15652950000000002,0.4616515,-0.043271500000000004,-0.3519195,0.5525215,-0.1294615,0.1810805,0.6274415,0.1389785,0.3014605,0.4861115,0.17880849999999998,-0.21483950000000002,0.6694414999999999,-0.0571335,0.18217049999999999,0.6134314999999999,0.1221885,-0.0542155,-0.0019954999999999973,-0.0161725,0.0542155,0.0019955000000000007,0.016172499999999996,-0.1248195,-0.34819849999999997,0.08491850000000001,0.1206275,-0.37744849999999996,-0.1358715,-0.1540395,-0.6627585,0.2802585,0.1744305,-0.6786185,-0.2754115
140,-0.0231395,0.7230814999999999,0.052239,-0.1571745,0.4622015,-0.040805,-0.3525145,0.5528615,-0.12524600000000002,0.1831355,0.6274415,0.14071399999999998,0.30226549999999996,0.4861115,0.181864,-0.2156345,0.6697614999999999,-0.053367,0.1827955,0.6134314999999999,0.12587399999999999,-0.054349499999999995,-0.0019954999999999973,-0.016191999999999998,0.054349499999999995,0.0019955000000000007,0.016191999999999998,-0.1245345,-0.3481785,0.083819,0.1208185,-0.3809285,-0.136046,-0.1521945,-0.6641485,0.27862400000000004,0.1764655,-0.6801885000000001,-0.27899599999999997
141,-0.024155500000000003,0.7232915,0.0566735,-0.15759350000000003,0.4622015,-0.0388205,-0.3532435,0.5529915,-0.12067649999999999,0.1853365,0.6231114999999999,0.1422435,0.3032965,0.48522150000000003,0.18514350000000002,-0.2170835,0.6700315,-0.0495645,0.1834865,0.6134314999999999,0.1302035,-0.0545685,-0.0019954999999999973,-0.0159615,0.05456849999999999,0.0019955000000000007,0.0159615,-0.12456350000000002,-0.3481785,0.0832155,0.12119249999999998,-0.3840485,-0.13640649999999999,-0.15112350000000002,-0.6651785,0.2779235,0.17789649999999999,-0.6816385,-0.2814565
142,-0.024806,0.7236435,0.061338000000000004,-0.157758,0.4624435,-0.036932999999999994,-0.353638,0.5533535,-0.11627799999999999,0.187382,0.6166535000000001,0.143742,0.306562,0.4838635,0.188082,-0.21848800000000002,0.6697735,-0.045554,0.185732,0.6128535,0.134242,-0.054786,-0.0017905000000000004,-0.015716,0.054786,0.0017905000000000004,0.015716,-0.124618,-0.34845649999999995,0.08323699999999999,0.12228599999999999,-0.3858965,-0.137058,-0.15029800000000001,-0.6656865,0.278032,0.179272,-0.6826065,-0.283118
143,-0.025193,0.7243944999999999,0.065607,-0.157586,0.46304449999999997,-0.035212,-0.353926,0.5540745,-0.11209100000000001,0.188524,0.6112945,0.143599,0.309064,0.48237450000000004,0.191329,-0.217976,0.6699944999999999,-0.041912,0.18810400000000002,0.6120545,0.138429,-0.054975,-0.001574500000000003,-0.015326999999999999,0.054975,0.0015744999999999995,0.015327,-0.12475599999999998,-0.34829550000000004,0.083745,0.12312300000000001,-0.3867355,-0.136981,-0.14973599999999998,-0.6655855,0.27856899999999996,0.180394,-0.6829555,-0.28376100000000004
144,-0.0252485,0.725265,0.0689765,-0.15736050000000001,0.46370500000000003,-0.0334775,-0.3538105,0.5550350000000001,-0.1087805,0.18915949999999998,0.606315,0.1436695,0.3109495,0.480495,0.1943395,-0.2183405,0.670225,-0.0406575,0.18997950000000002,0.611245,0.1416995,-0.0552565,-0.001413000000000001,-0.0150585,0.0552565,0.0014129999999999976,0.015058499999999999,-0.1248105,-0.347755,0.0842735,0.1238785,-0.387075,-0.1368505,-0.14928049999999998,-0.665015,0.2792095,0.18131950000000002,-0.682995,-0.2842005
145,-0.024708,0.727121,0.071078,-0.156814,0.46525099999999997,-0.032328,-0.353254,0.556991,-0.106363,0.19009600000000001,0.598091,0.143777,0.313176,0.47892100000000004,0.197287,-0.218204,0.672071,-0.040018000000000005,0.191656,0.611571,0.143547,-0.05572,-0.0011090000000000006,-0.01486,0.05571999999999999,0.0011089999999999989,0.01486,-0.124534,-0.345909,0.084554,0.12487999999999999,-0.386039,-0.136723,-0.148664,-0.663169,0.279497,0.18232600000000002,-0.681829,-0.284563
146,-0.023832,0.729069,0.072214,-0.156385,0.466949,-0.031197000000000003,-0.35260499999999995,0.559089,-0.10495099999999999,0.191165,0.5903689999999999,0.143929,0.315655,0.477579,0.199299,-0.21762499999999999,0.674339,-0.039808,0.192965,0.6121289999999999,0.14454899999999998,-0.056181999999999996,-0.000815999999999999,-0.014638,0.056182,0.0008160000000000008,0.014637999999999998,-0.12429499999999999,-0.343961,0.084764,0.125838,-0.38473100000000005,-0.13656100000000002,-0.14818499999999998,-0.6612210000000001,0.27964900000000004,0.183165,-0.680521,-0.284971
147,-0.02294700000000001,0.730944,0.0725885,-0.15610200000000002,0.46860399999999997,-0.0300825,-0.35197200000000006,0.561014,-0.1044865,0.192318,0.5827840000000001,0.1443035,0.318508,0.476594,0.2009735,-0.216942,0.676204,-0.040023500000000004,0.193928,0.6125440000000001,0.14501350000000002,-0.056603,-0.0005250000000000012,-0.0144245,0.056602999999999994,0.0005249999999999994,0.0144245,-0.12407200000000002,-0.342086,0.0848705,0.126614,-0.383336,-0.1362765,-0.147862,-0.659346,0.2797135,0.183898,-0.679276,-0.2851965
148,-0.022361,0.732842,0.072465,-0.155716,0.470302,-0.029196,-0.35138600000000003,0.562912,-0.10461,0.19303399999999998,0.573812,0.14338,0.321494,0.47849200000000003,0.20143000000000003,-0.216526,0.677862,-0.040652,0.19450399999999998,0.614442,0.1449,-0.057097,-0.0002009999999999998,-0.014179,0.057097,0.0002009999999999998,0.014179,-0.123866,-0.340038,0.084906,0.12726,-0.381778,-0.13587,-0.147516,-0.657308,0.27967,0.18465399999999998,-0.677978,-0.28538
149,-0.021797499999999997,0.7346465,0.072392,-0.1554025,0.47203649999999997,-0.028283999999999997,-0.35082250000000004,0.5648164999999999,-0.104683,0.1937775,0.5615665,0.142937,0.3240075,0.4803965,0.201067,-0.2160025,0.6795464999999999,-0.040831,0.1950675,0.6163465,0.14482699999999998,-0.0575875,0.00016150000000000019,-0.013892,0.0575875,-0.00016150000000000019,0.013892,-0.12354249999999999,-0.33786350000000004,0.08491399999999999,0.1278785,-0.38004350000000003,-0.135463,-0.14706249999999998,-0.6551935,0.27963699999999997,0.18538749999999998,-0.6766535,-0.285513
150,-0.021096499999999997,0.7362605,0.072307,-0.1549195,0.4737205,-0.028184,-0.35030950000000005,0.5665505,-0.10470399999999999,0.19458050000000002,0.5535005,0.14266600000000002,0.32641050000000005,0.4821305,0.200396,-0.21553950000000002,0.6812805,-0.040836,0.1955805,0.6180805,0.144806,-0.0580055,0.0005065,-0.013595000000000001,0.0580055,-0.0005065,0.013595,-0.1231595,-0.3357695,0.084938,0.1284585,-0.3783095,-0.135074,-0.1465595,-0.6531495,0.279616,0.18606050000000002,-0.6753995,-0.285484
151,-0.020114999999999994,0.7377395000000001,0.07216950000000001,-0.154418,0.4753595,-0.027819500000000004,-0.34975799999999996,0.5680795000000001,-0.1045195,0.19492199999999998,0.5445595000000001,0.14159049999999998,0.328932,0.4847895,0.2000805,-0.21509799999999996,0.6829195,-0.0417195,0.19524200000000003,0.6204395,0.1430005,-0.058323,0.0008015000000000001,-0.0134205,0.05832300000000001,-0.0008015000000000001,0.0134205,-0.122658,-0.3337105,0.0853025,0.129008,-0.3766705,-0.1343895,-0.14607799999999999,-0.6511804999999999,0.27993049999999997,0.18675200000000003,-0.6741204999999999,-0.2849495
152,-0.0188705,0.739253,0.0713985,-0.1539225,0.477083,-0.027160500000000004,-0.3492325,0.5695330000000001,-0.1050005,0.1946975,0.535383,0.13985950000000003,0.3313675,0.485093,0.19990950000000002,-0.2150625,0.683693,-0.043563500000000005,0.1951075,0.6217830000000001,0.1402495,-0.0586805,0.0011420000000000002,-0.013265500000000001,0.058680500000000003,-0.001142,0.0132655,-0.12219250000000001,-0.33138700000000004,0.0858675,0.1295755,-0.37489700000000004,-0.1335205,-0.1456525,-0.6489469999999999,0.2803795,0.1874075,-0.672577,-0.2841005
153,-0.017512,0.7407954999999999,0.06999949999999999,-0.15345599999999998,0.4789255,-0.026228500000000002,-0.34872600000000004,0.5707555,-0.1062085,0.19412400000000002,0.5259555,0.1377315,0.333734,0.4849055,0.1994415,-0.21570599999999998,0.6841155,-0.0469315,0.19492400000000001,0.6232455,0.1367315,-0.059066,0.0014795000000000001,-0.0130835,0.05906600000000001,-0.0014795,0.013083499999999998,-0.12171599999999999,-0.3288545,0.0868255,0.130106,-0.3729445,-0.1324085,-0.145256,-0.6464845,0.2811115,0.18799400000000002,-0.6706945,-0.28292849999999997
154,-0.0160895,0.7413495,0.0677505,-0.15306350000000002,0.4799595,-0.0255915,-0.3484735,0.5702094999999999,-0.1085885,0.1930465,0.5195195,0.1345315,0.3343265,0.48454949999999997,0.1975115,-0.2165535,0.6835195,-0.050589499999999996,0.1944365,0.6237794999999999,0.1323315,-0.0594315,0.0016145,-0.012937500000000001,0.0594315,-0.0016145,0.0129375,-0.1213935,-0.3272105,0.0878665,0.13046049999999998,-0.37169050000000003,-0.1311685,-0.1449935,-0.6449005,0.2819915,0.1883765,-0.6695405,-0.2816285
155,-0.014492999999999999,0.7420785,0.064831,-0.152375,0.48119850000000003,-0.025592999999999998,-0.347875,0.5678685,-0.112081,0.191025,0.5126685,0.128939,0.334225,0.4839985,0.193449,-0.218055,0.6816285,-0.056178000000000006,0.196485,0.6228984999999999,0.126979,-0.059841,0.0018234999999999998,-0.012753,0.059841000000000005,-0.0018235,0.012753,-0.121005,-0.3257215,0.089086,0.130721,-0.3702315,-0.129871,-0.144695,-0.6434615,0.28320900000000004,0.188675,-0.6682015,-0.28010100000000004
156,-0.012632999999999998,0.7431639999999999,0.061286499999999994,-0.151361,0.482784,-0.026408499999999998,-0.346321,0.562094,-0.11408449999999999,0.188459,0.506104,0.12274550000000001,0.332179,0.478784,0.1880555,-0.220281,0.678184,-0.06378049999999999,0.201839,0.619814,0.1209055,-0.060216,0.0020840000000000003,-0.0124535,0.060216000000000006,-0.002084,0.0124535,-0.120641,-0.324016,0.0905355,0.130875,-0.36854600000000004,-0.1283545,-0.144591,-0.641756,0.2847455,0.188739,-0.666496,-0.2782645
157,-0.009895000000000001,0.7448335,0.057322500000000005,-0.15037,0.4846335,-0.026922499999999995,-0.34310999999999997,0.5532535,-0.1132205,0.18665,0.5014135,0.1149195,0.3287,0.4709035,0.1808595,-0.22142,0.6733735,-0.0720375,0.20697000000000002,0.6158335,0.1130095,-0.060716,0.0024575,-0.0118625,0.060716,-0.0024574999999999996,0.0118625,-0.12026,-0.3217665,0.09246349999999999,0.130909,-0.3662965,-0.1264005,-0.14468,-0.6395065,0.28672949999999997,0.18856,-0.6641765,-0.2760305
158,-0.006559000000000002,0.746708,0.053134,-0.149402,0.486338,-0.027260000000000003,-0.339252,0.537778,-0.11236000000000002,0.184838,0.496668,0.10685599999999999,0.323768,0.456708,0.17106,-0.22122199999999997,0.665758,-0.082902,0.212018,0.610748,0.101628,-0.061267999999999996,0.002811000000000001,-0.01117,0.061268,-0.0028109999999999993,0.01117,-0.119952,-0.319302,0.094843,0.131026,-0.363822,-0.12426999999999999,-0.144932,-0.636892,0.28901000000000004,0.188138,-0.661422,-0.27349999999999997
159,-0.002912999999999999,0.7490705,0.048996,-0.14799299999999999,0.4874505,-0.027746000000000003,-0.334623,0.5186205,-0.11171600000000001,0.182707,0.4884405,0.097583,0.318397,0.4407505,0.159174,-0.22129300000000002,0.6496204999999999,-0.098046,0.21862700000000002,0.5998605,0.08726,-0.062033000000000005,0.003124499999999999,-0.010520999999999999,0.062033000000000005,-0.0031245000000000005,0.010520999999999999,-0.119803,-0.3163995,0.097418,0.131419,-0.3613595,-0.12235599999999999,-0.14531300000000003,-0.6338595,0.29143399999999997,0.18755699999999997,-0.6582495,-0.27090600000000004
160,0.0009935000000000013,0.7519875,0.044743500000000005,-0.1463985,0.48829750000000005,-0.028482499999999997,-0.3291785,0.4953075,-0.1110505,0.1806415,0.4852875,0.0891385,0.3114215,0.42364749999999995,0.1461195,-0.2187885,0.6294675000000001,-0.11598050000000001,0.2266015,0.5836475,0.0720315,-0.0627955,0.0032895000000000008,-0.009995500000000001,0.0627955,-0.0032895000000000008,0.009995500000000003,-0.11994849999999999,-0.31327249999999995,0.09998749999999999,0.1319505,-0.3592525,-0.1213205,-0.14600849999999999,-0.6302725,0.29374950000000005,0.18681150000000002,-0.6547025,-0.26865049999999996
161,0.004858499999999998,0.7553195,0.040695999999999996,-0.1454355,0.4896295,-0.028773,-0.3209555,0.4678595,-0.10730999999999999,0.1783845,0.4824395,0.08038200000000001,0.3033745,0.4001895,0.13388,-0.2180855,0.6004895,-0.12703,0.2344645,0.5631195,0.056051000000000004,-0.0635645,0.0033584999999999986,-0.009570000000000002,0.0635645,-0.0033585000000000004,0.00957,-0.1202155,-0.3099605,0.102408,0.1324265,-0.35681050000000003,-0.12056,-0.14687550000000002,-0.6263105,0.29585,0.1858945,-0.6505005,-0.26661
162,0.009196,0.7585124999999999,0.036858,-0.14515999999999998,0.4906825,-0.028675000000000003,-0.31248,0.43829250000000003,-0.100526,0.1757,0.4794125,0.070892,0.29391,0.3764125,0.121561,-0.21819,0.5603824999999999,-0.135216,0.24063,0.5407725,0.037154,-0.06448999999999999,0.0033644999999999994,-0.009174999999999999,0.06448999999999999,-0.0033644999999999994,0.009174999999999999,-0.12070999999999998,-0.3069575,0.104392,0.132856,-0.3545275,-0.120066,-0.14786,-0.6225675,0.297504,0.18477000000000002,-0.6464075,-0.265056
163,0.013611999999999996,0.761564,0.033577499999999996,-0.145399,0.491534,-0.0280945,-0.30351900000000004,0.409204,-0.0905935,0.17291099999999998,0.47647399999999995,0.0620485,0.28357099999999996,0.350444,0.1085325,-0.219399,0.511274,-0.14148349999999998,0.247081,0.515294,0.016073499999999998,-0.065418,0.0033030000000000004,-0.008824499999999999,0.065418,-0.0033030000000000004,0.008824499999999999,-0.121439,-0.30425599999999997,0.10623550000000001,0.133141,-0.35246599999999995,-0.11975349999999998,-0.14902900000000002,-0.619066,0.2989565,0.18345099999999998,-0.642516,-0.2637635
164,0.017879,0.7641475,0.030877,-0.146474,0.49205750000000004,-0.027343,-0.294314,0.38159750000000003,-0.079156,0.171056,0.4741075,0.056068,0.273696,0.3275575,0.095854,-0.221074,0.4591275,-0.144306,0.249176,0.4915275,-0.007377000000000002,-0.066284,0.0031794999999999983,-0.0085,0.066284,-0.0031794999999999983,0.0085,-0.12243399999999999,-0.30202249999999997,0.107864,0.133206,-0.35081249999999997,-0.11969600000000001,-0.150314,-0.6159325,0.30009399999999997,0.18196600000000002,-0.6388725000000001,-0.262816
165,0.021672000000000004,0.7661555,0.0289915,-0.148309,0.49237549999999997,-0.0266585,-0.28551899999999997,0.3573655,-0.06644649999999999,0.169421,0.47183549999999996,0.0512605,0.263081,0.3091555,0.0828025,-0.222909,0.40390550000000003,-0.1436215,0.246971,0.46766549999999996,-0.0314515,-0.067083,0.003026499999999998,-0.0082835,0.067083,-0.0030265000000000014,0.0082835,-0.123809,-0.3003745,0.1093865,0.13298100000000002,-0.34951449999999995,-0.11978150000000001,-0.151859,-0.6132345,0.3009585,0.180311,-0.6355845,-0.2618915
166,0.024553,0.767507,0.028006499999999997,-0.149968,0.492427,-0.026091500000000004,-0.277108,0.335807,-0.052451500000000005,0.167292,0.472067,0.0487485,0.252262,0.294067,0.0709515,-0.224568,0.346787,-0.1430545,0.24366200000000002,0.447087,-0.0550805,-0.067769,0.002721000000000001,-0.008049500000000001,0.067769,-0.0027209999999999943,0.008049499999999998,-0.12514799999999998,-0.299303,0.11084150000000001,0.132902,-0.348773,-0.11994450000000001,-0.153228,-0.611033,0.3017255,0.17880200000000002,-0.632933,-0.2611945
167,0.026650999999999998,0.7685395,0.027289,-0.15112399999999998,0.4925595,-0.024938,-0.268884,0.31913949999999996,-0.03684899999999999,0.165276,0.4722895,0.04678,0.242736,0.2854895,0.061523999999999995,-0.225954,0.2893995,-0.142581,0.241006,0.4258395,-0.075121,-0.068263,0.0023694999999999966,-0.007880000000000002,0.068263,-0.0023695000000000035,0.007880000000000002,-0.126214,-0.2983805,0.11224400000000001,0.132886,-0.34821050000000003,-0.119941,-0.15434399999999998,-0.6091105,0.30235900000000004,0.177576,-0.6305005,-0.26060099999999997
168,0.028527000000000004,0.769004,0.0265825,-0.151698,0.493254,-0.0231775,-0.261638,0.305284,-0.021995499999999998,0.16389199999999998,0.472654,0.045580499999999996,0.235182,0.279054,0.0535235,-0.22710799999999998,0.23859399999999997,-0.1408865,0.237522,0.41050400000000004,-0.0900565,-0.068759,0.0020659999999999984,-0.007775500000000001,0.068759,-0.0020659999999999984,0.007775500000000001,-0.126778,-0.29786599999999996,0.1135735,0.13284200000000002,-0.34743599999999997,-0.11998650000000001,-0.15498800000000001,-0.607606,0.3027535,0.17682199999999998,-0.628576,-0.26022649999999997
169,0.030125,0.768574,0.025876,-0.152291,0.493774,-0.021247999999999996,-0.256211,0.29486399999999996,-0.010049000000000002,0.163159,0.472624,0.044681,0.229689,0.273554,0.045819,-0.22973100000000002,0.190664,-0.137204,0.233129,0.399924,-0.10505400000000001,-0.069361,0.0018950000000000009,-0.007905999999999996,0.069361,-0.0018950000000000009,0.007906,-0.127011,-0.298116,0.11445,0.132479,-0.346716,-0.120394,-0.155421,-0.607016,0.302626,0.176559,-0.627496,-0.260444
170,0.03181,0.7676065,0.025603,-0.153145,0.4937065,-0.019135999999999997,-0.25299499999999997,0.2885065,-0.0015049999999999994,0.162655,0.4724565,0.043938000000000005,0.225305,0.27336649999999996,0.03725,-0.23409500000000003,0.1526465,-0.130331,0.228525,0.3932965,-0.120191,-0.069904,0.0018284999999999968,-0.008140999999999999,0.069904,-0.0018285000000000037,0.008140999999999999,-0.127335,-0.2989835,0.115047,0.132035,-0.3466435,-0.12114100000000001,-0.155915,-0.6068835,0.302189,0.176375,-0.6270935,-0.261061
171,0.03329,0.766544,0.025730999999999997,-0.15451900000000002,0.493634,-0.016596,-0.250629,0.284404,0.004069,0.16220099999999998,0.472214,0.042862,0.222041,0.27306400000000003,0.029063,-0.23790900000000004,0.126421,-0.11913199999999999,0.225411,0.388494,-0.132352,-0.07024999999999999,0.001804,-0.008278,0.07024999999999999,-0.001804,0.008277999999999997,-0.127589,-0.299986,0.115401,0.13170099999999998,-0.346576,-0.12187200000000001,-0.15645900000000001,-0.606636,0.301488,0.176251,-0.626706,-0.26196200000000003
172,0.03460149999999999,0.765476,0.025995499999999998,-0.15631150000000002,0.493896,-0.0137755,-0.2493215,0.28072600000000003,0.006482499999999999,0.1614685,0.472026,0.041415499999999994,0.2194885,0.272826,0.0222875,-0.24401150000000002,0.109634,-0.10519850000000001,0.22290849999999998,0.385426,-0.1425485,-0.07047049999999999,0.0018120000000000011,-0.0083565,0.07047049999999999,-0.0018120000000000011,0.0083565,-0.1278515,-0.301024,0.1152795,0.1314985,-0.346514,-0.12234850000000001,-0.15706150000000002,-0.606434,0.3004115,0.1758185,-0.626274,-0.2632085
173,0.03583600000000001,0.7645075,0.026197,-0.157407,0.4941475,-0.011453999999999999,-0.249067,0.2773975,0.007731000000000002,0.160993,0.4716775,0.040522,0.217483,0.27307750000000003,0.016904000000000002,-0.247667,0.09730749999999999,-0.098086,0.221323,0.38343750000000004,-0.149456,-0.070692,0.001862500000000003,-0.008403,0.070692,-0.001862499999999996,0.008403000000000002,-0.128087,-0.3020625,0.11488500000000001,0.13134300000000002,-0.3464525,-0.12290600000000002,-0.157637,-0.6064025000000001,0.299214,0.175423,-0.6257125,-0.264566
174,0.03726,0.763586,0.026455,-0.15756299999999998,0.494146,-0.009699,-0.249133,0.273836,0.007996999999999999,0.161337,0.471856,0.040982000000000005,0.21632700000000002,0.273256,0.013995,-0.249963,0.089823,-0.09362500000000001,0.22026700000000002,0.381926,-0.155125,-0.070793,0.0018270000000000022,-0.008405,0.070793,-0.0018270000000000022,0.008405,-0.128333,-0.30310400000000004,0.11438699999999999,0.131207,-0.346514,-0.123425,-0.15817299999999998,-0.606514,0.298135,0.175207,-0.625184,-0.26587500000000003
175,0.0387145,0.7626885,0.026111000000000002,-0.1574905,0.4940385,-0.008746,-0.2494005,0.27065849999999997,0.007986,0.1616995,0.4720285,0.041246000000000005,0.2156795,0.2734285,0.011324,-0.2508705,0.0855535,-0.09149,0.2195295,0.3813685,-0.16019,-0.0708365,0.001867500000000001,-0.008462999999999998,0.0708365,-0.001867500000000001,0.008463,-0.1287605,-0.3041315,0.11382300000000001,0.13093950000000001,-0.3465915,-0.12394,-0.1588705,-0.6066915,0.29709,0.1749395,-0.6246615000000001,-0.26704
176,0.040424,0.7618045,0.0246985,-0.157676,0.49413450000000003,-0.008573499999999998,-0.249046,0.2693645,0.006758500000000001,0.162124,0.47204450000000003,0.0406455,0.215574,0.27360450000000003,0.008808500000000002,-0.251006,0.0844235,-0.09116450000000001,0.219334,0.38096450000000004,-0.16274450000000001,-0.070927,0.0020065000000000013,-0.008545499999999998,0.070927,-0.0020065000000000013,0.008545500000000001,-0.129266,-0.3050255,0.11305950000000001,0.130634,-0.3466955,-0.12447450000000002,-0.159616,-0.6069055,0.2961155,0.174714,-0.6241055,-0.2681745
177,0.042550000000000004,0.7610224999999999,0.022231,-0.158086,0.4943225,-0.009355000000000002,-0.24797599999999997,0.2690425,0.004655999999999999,0.16281400000000001,0.47186249999999996,0.039210999999999996,0.215624,0.2730325,0.006366,-0.251666,0.08416749999999999,-0.09267900000000001,0.219084,0.3800725,-0.165959,-0.071017,0.002194499999999995,-0.00862,0.071017,-0.002194500000000002,0.00862,-0.129716,-0.30572750000000004,0.112017,0.130504,-0.3469975,-0.125069,-0.160316,-0.6070975000000001,0.295041,0.17458400000000002,-0.6235475,-0.26940899999999995
178,0.0454765,0.7601929999999999,0.0194405,-0.1583755,0.494493,-0.011047500000000002,-0.24668549999999997,0.269143,0.0024214999999999983,0.16394450000000002,0.471443,0.0370345,0.2160445,0.27230299999999996,0.0036124999999999994,-0.2523155,0.083894,-0.09424750000000001,0.2192145,0.379043,-0.1693875,-0.0711675,0.002364999999999999,-0.008729500000000001,0.0711675,-0.002364999999999999,0.0087295,-0.1301755,-0.306237,0.1106625,0.1304045,-0.347327,-0.1257375,-0.1610255,-0.6072569999999999,0.2938425,0.17435450000000002,-0.622967,-0.27063750000000003
179,0.0495825,0.759315,0.0235025,-0.1574775,0.494245,-0.006087500000000001,-0.24511750000000002,0.269255,0.005027499999999999,0.1669825,0.470265,0.0386745,0.2172525,0.272685,0.0014504999999999987,-0.2539975,0.085875,-0.0944945,0.2191025,0.38127500000000003,-0.1699145,-0.0717065,0.0026259999999999964,-0.0087745,0.0717065,-0.0026260000000000033,0.0087745,-0.1291075,-0.307005,0.1082385,0.1320625,-0.348115,-0.1269245,-0.1602775,-0.6073550000000001,0.29149549999999996,0.1764525,-0.622355,-0.2728245
180,0.053863499999999995,0.758257,0.0217325,-0.1569295,0.493987,-0.0069095000000000024,-0.2420995,0.270437,0.001831499999999998,0.1689105,0.469897,0.038266499999999995,0.2184805,0.270677,-0.0020485000000000017,-0.2507495,0.08788399999999999,-0.0988495,0.2184805,0.379937,-0.1703395,-0.0716285,0.0026249999999999954,-0.0088745,0.0716285,-0.0026250000000000023,0.008874499999999999,-0.1299195,-0.307483,0.1077245,0.1312105,-0.348563,-0.12715949999999998,-0.1613595,-0.607993,0.2915905,0.1759705,-0.622223,-0.27274950000000003
181,0.057911000000000004,0.7580475,0.018219,-0.155301,0.4942875,-0.009946,-0.23887100000000003,0.2689375,-0.003653,0.170049,0.4696475,0.035675,0.21856899999999999,0.2696475,-0.004757000000000001,-0.248341,0.09100849999999999,-0.10348,0.219229,0.3721075,-0.17652,-0.07172400000000001,0.002731499999999998,-0.009138,0.07172400000000001,-0.002731499999999998,0.009137999999999999,-0.130881,-0.3076025,0.106963,0.129879,-0.3483525,-0.12697,-0.16315100000000002,-0.6078725,0.29116,0.174209,-0.6211425,-0.2732
182,0.0619935,0.7570184999999999,0.011785,-0.1536215,0.4945585,-0.014351,-0.2389615,0.2686485,-0.006454999999999999,0.1723785,0.4689185,0.032965999999999995,0.2186485,0.2678485,-0.007636,-0.2462815,0.0904035,-0.106998,0.2177885,0.3710685,-0.177808,-0.0716125,0.0027975000000000014,-0.009472999999999999,0.0716125,-0.0027975000000000014,0.009473,-0.13269150000000002,-0.3079015,0.10585,0.1280585,-0.3487615,-0.127228,-0.1654715,-0.6079515000000001,0.290362,0.1714085,-0.6208215,-0.27426799999999996
