sb224sc-HT22-VT27/4dt907/src/data/kinect_good_preprocessed_not_cut_A11_mediapipe/B8_kinect_mirrored.csv
FrameNo,nose_3d_x,nose_3d_y,nose_3d_z,left_shoulder_3d_x,left_shoulder_3d_y,left_shoulder_3d_z,left_elbow_3d_x,left_elbow_3d_y,left_elbow_3d_z,right_shoulder_3d_x,right_shoulder_3d_y,right_shoulder_3d_z,right_elbow_3d_x,right_elbow_3d_y,right_elbow_3d_z,left_wrist_3d_x,left_wrist_3d_y,left_wrist_3d_z,right_wrist_3d_x,right_wrist_3d_y,right_wrist_3d_z,left_hip_3d_x,left_hip_3d_y,left_hip_3d_z,right_hip_3d_x,right_hip_3d_y,right_hip_3d_z,left_knee_3d_x,left_knee_3d_y,left_knee_3d_z,right_knee_3d_x,right_knee_3d_y,right_knee_3d_z,left_ankle_3d_x,left_ankle_3d_y,left_ankle_3d_z,right_ankle_3d_x,right_ankle_3d_y,right_ankle_3d_z
0,0.993437,0.7648085,0.028804,0.866179,0.4765185,-0.004845,0.757969,0.2818785,-0.0451839999999999,1.173249,0.4968285,0.013815,1.215219,0.2455585,-0.0008299999999999,0.811869,0.4152185,-0.224056,1.214439,0.0613735,-0.075356,0.925236,0.0013815,0.000675,1.074764,-0.0013815,-0.000675,0.904407,-0.3147415,0.0562,1.093693,-0.3287315,0.042063,0.903855,-0.6544115,0.066371,1.0964369999999999,-0.6622815000000001,0.06991
1,0.993414,0.7648784999999999,0.0287965,0.8661449999999999,0.4765685,-0.0048354999999999,0.7579350000000001,0.2818685,-0.0452664999999999,1.173005,0.4967985,0.0137065,1.215325,0.2457985,-0.0007945,0.8118250000000001,0.4149885,-0.2240694999999999,1.214715,0.0619225,-0.0756095,0.925237,0.0013665,0.0006525,1.074763,-0.0013665,-0.0006525,0.904523,-0.3158515,0.0564145,1.093815,-0.3287515,0.0419675,0.903869,-0.6543115,0.0664015,1.096346,-0.6620115000000001,0.0699955
2,0.9933275000000001,0.7647565,0.0286065,0.8661265000000001,0.4765665,-0.0049005,0.7578965,0.2818664999999999,-0.0453074999999999,1.1729865,0.4968165,0.0136695,1.2153965,0.2456065,-0.0009914999999999,0.8118164999999999,0.4147865,-0.2244495,1.2146965,0.0619475,-0.0756495,0.9252405,0.0013755,0.0006255,1.0747595,-0.0013755,-0.0006255,0.9040515000000001,-0.3119435,0.0552875,1.0938415,-0.3287035,0.0419355,0.9038915000000001,-0.6539935,0.0663785,1.0962975,-0.6617935,0.0700065
3,0.993316,0.7648320000000001,0.0286,0.8661110000000001,0.4765419999999999,-0.0049379999999999,0.7578710000000001,0.2818719999999999,-0.045436,1.172771,0.4967519999999999,0.01334,1.215431,0.245672,-0.0009899999999999,0.811791,0.414792,-0.224476,1.2147809999999999,0.0622,-0.075526,0.925235,0.001371,0.000614,1.074765,-0.001371,-0.0006139999999999,0.904573,-0.314708,0.055772,1.093276,-0.328458,0.041964,0.9037920000000002,-0.653868,0.066379,1.0965719999999999,-0.662748,0.069456
4,0.9932755000000001,0.7647484999999999,0.028578,0.8661785000000001,0.4764185,-0.0051119999999999,0.7580085000000001,0.2819785,-0.0453349999999999,1.1727985,0.4967885,0.013392,1.2154384999999999,0.2458185,-0.0010499999999999,0.8117985,0.4150285,-0.2249609999999999,1.2148185,0.0623835,-0.075651,0.9252325,0.0013774999999999,0.000668,1.0747675,-0.0013774999999999,-0.000668,0.9047255,-0.3156015,0.056038,1.0932215,-0.3283514999999999,0.041915,0.9037945000000001,-0.6538015,0.066417,1.0965894999999999,-0.6630615000000001,0.069567
5,0.993184,0.764757,0.0286805,0.866188,0.476417,-0.0051064999999999,0.757988,0.281977,-0.0450715,1.172808,0.496847,0.0134865,1.215398,0.245807,-0.0009814999999999,0.811768,0.415157,-0.2246955,1.214788,0.062384,-0.0755855,0.9252410000000001,0.0013809999999999,0.0006295,1.0747589999999998,-0.0013809999999999,-0.0006294999999999,0.905014,-0.3069329999999999,0.0531045,1.092867,-0.328273,0.0420075,0.9037310000000001,-0.652753,0.0665395,1.096408,-0.662293,0.0695535
6,0.9931405,0.764728,0.028661,0.8661725,0.476458,-0.0051379999999999,0.7580525,0.281908,-0.04441,1.1728025,0.4968579999999999,0.013453,1.2155225,0.246278,-0.0007739999999999,0.8117825,0.4153179999999999,-0.224361,1.2147725,0.062435,-0.075751,0.9252375,0.001379,0.0006009999999999,1.0747625,-0.001379,-0.0006009999999999,0.9048915,-0.305942,0.053007,1.0927375,-0.328282,0.041974,0.9036795,-0.652872,0.066813,1.0962495,-0.662052,0.0698
7,0.9931975000000001,0.764807,0.02863,0.8661885,0.476467,-0.0051439999999999,0.7576685,0.281437,-0.043695,1.1727085,0.496697,0.013293,1.2155685,0.246217,-0.00107,0.8116485,0.415237,-0.224484,1.2148984999999999,0.062681,-0.075894,0.9252335,0.001372,0.000588,1.0747665,-0.001372,-0.0005879999999999,0.9047995,-0.313913,0.055636,1.0932884999999999,-0.327713,0.041868,0.9037325,-0.653133,0.066612,1.0962965,-0.661713,0.0697639999999999
8,0.993184,0.7648015,0.0286094999999999,0.8662110000000001,0.4764515,-0.0051955,0.757611,0.2813415,-0.0434545,1.172661,0.4966615,0.0132574999999999,1.215611,0.2463415,-0.0011775,0.811621,0.4152515,-0.2245215,1.2149510000000001,0.0628175,-0.0759815,0.925231,0.0013695,0.0005694999999999,1.074769,-0.0013695,-0.0005695,0.904896,-0.3135285,0.0554304999999999,1.093239,-0.3274984999999999,0.0418034999999999,0.903714,-0.6530285,0.0666345,1.096277,-0.6615885,0.0697435
9,0.993174,0.7648105,0.0285985,0.866233,0.4764605,-0.0052194999999999,0.757543,0.2812705,-0.0431985,1.172613,0.4966305,0.0131875,1.215683,0.2465005,-0.0012734999999999,0.8115829999999999,0.4153205,-0.2245315,1.214993,0.0629515,-0.0760614999999999,0.925227,0.0013655,0.0005435,1.074773,-0.0013655,-0.0005434999999999,0.904997,-0.3128295,0.0552115,1.093193,-0.3273195,0.0417725,0.903691,-0.6528995000000001,0.0666845,1.096258,-0.6614595,0.0697835
10,0.993167,0.7648400000000001,0.0285649999999999,0.866246,0.47647,-0.005243,0.757486,0.2812,-0.042935,1.172576,0.49661,0.0130839999999999,1.215766,0.24667,-0.001358,0.811546,0.41545,-0.224537,1.215056,0.063095,-0.076157,0.925223,0.001365,0.0005199999999999,1.074777,-0.001365,-0.0005199999999999,0.905101,-0.31284,0.055286,1.093163,-0.32714,0.041766,0.903668,-0.6528499999999999,0.0667379999999999,1.096249,-0.6612699999999999,0.069838
11,0.9931605000000001,0.764879,0.0285329999999999,0.8662595000000001,0.476479,-0.005277,0.7574095000000001,0.281139,-0.042749,1.1725395,0.496609,0.0129809999999999,1.2158295,0.246809,-0.001451,0.8114995,0.415549,-0.2245349999999999,1.2151395,0.063232,-0.076265,0.9252205,0.001365,0.0004879999999999,1.0747795,-0.001365,-0.000488,0.9052135,-0.312691,0.0553149999999999,1.0931515,-0.326971,0.041761,0.9036505000000001,-0.652811,0.066797,1.0962165,-0.6610410000000001,0.0699289999999999
12,0.993154,0.764918,0.0284975,0.8662719999999999,0.476488,-0.0053134999999999,0.757332,0.281178,-0.0426815,1.172512,0.496608,0.0128705,1.215892,0.2469279999999999,-0.0015495,0.811492,0.415648,-0.2244775,1.215212,0.063362,-0.0763575,0.925218,0.001365,0.0004604999999999,1.074782,-0.001365,-0.0004605,0.905345,-0.312602,0.0553474999999999,1.093153,-0.3268419999999999,0.0417615,0.903637,-0.652772,0.0668485,1.096183,-0.660822,0.0700015
13,0.9931535000000001,0.764939,0.028462,0.8662835,0.4764989999999999,-0.0053469999999999,0.7572935000000001,0.281219,-0.0426229999999999,1.1724835,0.496639,0.012797,1.2159535,0.247059,-0.0016609999999999,0.8114835000000001,0.4157389999999999,-0.224448,1.2152835,0.063444,-0.076448,0.9252145,0.001365,0.0004299999999999,1.0747855,-0.001365,-0.0004299999999999,0.9054735,-0.313191,0.055627,1.0931835,-0.326711,0.041765,0.9036265,-0.652731,0.066896,1.0961495,-0.660601,0.070076
14,0.9931555,0.7649805000000001,0.0284274999999999,0.8662935,0.4765205,-0.0053815,0.7572535,0.2812705,-0.0425595,1.1724735,0.4966905,0.0127294999999999,1.2160335,0.2472105,-0.0017925,0.8114735000000001,0.4158005,-0.2244445,1.2153435,0.0635385,-0.0765245,0.9252105,0.0013645,0.0004004999999999,1.0747895,-0.0013645,-0.0004005,0.9055815,-0.3136195,0.0558665,1.0931835,-0.3266595,0.0417834999999999,0.9036175,-0.6526695,0.0669154999999999,1.0961325,-0.6603995,0.0701125
15,0.993166,0.765031,0.0283889999999999,0.8663069999999999,0.4765609999999999,-0.005395,0.7572369999999999,0.2813609999999999,-0.042595,1.172467,0.496751,0.0126629999999999,1.2161170000000001,0.247351,-0.001847,0.8114669999999999,0.415871,-0.224433,1.215397,0.063624,-0.076553,0.925204,0.001367,0.0003709999999999,1.074796,-0.001367,-0.000371,0.905596,-0.313559,0.055963,1.093187,-0.326599,0.041851,0.903598,-0.652609,0.066938,1.09612,-0.660199,0.070186
16,0.9931685,0.7650954999999999,0.0283495,0.8663125,0.4766155,-0.0054104999999999,0.7572225000000001,0.2814855,-0.0426695,1.1724724999999998,0.4968355,0.0125835,1.2161724999999999,0.2474955,-0.0018685,0.8114725,0.4159655,-0.2243985,1.2154525,0.0637305,-0.0765885,0.9251945,0.0013695,0.0003405,1.0748055,-0.0013695,-0.0003405,0.9055995,-0.3135145,0.0560535,1.0931965,-0.3264145,0.0419075,0.9035785000000001,-0.6525145,0.0669885,1.0960965,-0.6600745,0.0702705
17,0.9931655000000001,0.765172,0.028319,0.8663115,0.4767019999999999,-0.0054079999999999,0.7572015000000001,0.2816419999999999,-0.042737,1.1724615,0.496932,0.012483,1.2162315,0.247662,-0.001895,0.8114915,0.416072,-0.224367,1.2154915,0.063837,-0.076627,0.9251785,0.00138,0.0003189999999999,1.0748215,-0.00138,-0.0003189999999999,0.9055785000000001,-0.313048,0.055984,1.0931975,-0.326218,0.04197,0.9035455,-0.6523880000000001,0.067056,1.0960685,-0.659848,0.070338
18,0.9931530000000001,0.7652415,0.028273,0.866316,0.4767915,-0.00541,0.7571760000000001,0.2817815,-0.042821,1.1724459999999999,0.4970315,0.0124209999999999,1.216266,0.2478115,-0.001911,0.8115060000000001,0.4162215,-0.224351,1.215526,0.0639345,-0.0766709999999999,0.925162,0.0013915,0.0003039999999999,1.074838,-0.0013915,-0.0003039999999999,0.905586,-0.3126485,0.05605,1.093176,-0.3261185,0.042016,0.903509,-0.6522585,0.067113,1.0960429999999999,-0.6597284999999999,0.070381
19,0.9931405000000001,0.765323,0.028244,0.8663095000000001,0.476873,-0.0054119999999999,0.7571495,0.281923,-0.0428709999999999,1.1724294999999998,0.497133,0.012398,1.2162995,0.247943,-0.0019209999999999,0.8115395,0.416353,-0.224343,1.2155595,0.064055,-0.0766729999999999,0.9251465000000001,0.001395,0.000283,1.0748535,-0.001395,-0.0002829999999999,0.9054885,-0.312027,0.055969,1.0931475,-0.325997,0.042063,0.9034705000000001,-0.6521170000000001,0.067169,1.0960044999999998,-0.659627,0.070424
20,0.9931270000000001,0.7654044999999999,0.028213,0.866311,0.4769745,-0.0054159999999999,0.7571410000000001,0.2820645,-0.042927,1.172401,0.4972345,0.012376,1.216341,0.2480645,-0.0019339999999999,0.811591,0.4164945,-0.224373,1.215571,0.0641505,-0.076663,0.9251310000000001,0.0013975,0.000271,1.0748689999999999,-0.0013975,-0.000271,0.905388,-0.3113255,0.055882,1.093107,-0.3258855,0.042106,0.9034310000000001,-0.6519855,0.067217,1.095971,-0.6595255,0.070462
21,0.9931175000000001,0.765475,0.028182,0.8663265,0.477065,-0.005424,0.7571565,0.282325,-0.043195,1.1724165,0.497345,0.0123519999999999,1.2163865,0.248165,-0.001935,0.8116865,0.416645,-0.2244149999999999,1.2155965,0.064241,-0.076655,0.9251145000000001,0.001401,0.0002579999999999,1.0748855,-0.001401,-0.000258,0.9054455000000001,-0.311335,0.0560419999999999,1.0930645,-0.325795,0.042155,0.9033975,-0.6518349999999999,0.0672619999999999,1.0959305,-0.6594249999999999,0.07052
22,0.9931010000000001,0.7655645000000001,0.0281495,0.866326,0.4771645,-0.0054255,0.7571559999999999,0.2825845,-0.0434554999999999,1.172426,0.4974544999999999,0.0123355,1.216426,0.2482645,-0.0019174999999999,0.811786,0.4167445,-0.2244835,1.215636,0.0643185,-0.0766335,0.925099,0.0014025,0.0002465,1.074901,-0.0014025,-0.0002464999999999,0.905406,-0.3107355,0.0560455,1.0930209999999998,-0.3257055,0.0422085,0.903362,-0.6517054999999999,0.0673195,1.09588,-0.6593855,0.0705765
23,0.993092,0.7656474999999999,0.028112,0.866344,0.4772575,-0.005419,0.757214,0.2828575,-0.043745,1.172444,0.4975475,0.012292,1.216444,0.2483575,-0.0018799999999999,0.811914,0.4168475,-0.224539,1.215694,0.0643665,-0.076599,0.925085,0.0014025,0.0002219999999999,1.074915,-0.0014025,-0.0002219999999999,0.905304,-0.3104025,0.056119,1.09299,-0.3256425,0.042276,0.903329,-0.6515625,0.067381,1.095828,-0.6593825000000001,0.070644
24,0.993085,0.765745,0.0280839999999999,0.866349,0.477345,-0.005427,0.757309,0.283215,-0.044222,1.172459,0.497635,0.0122379999999999,1.216479,0.2484249999999999,-0.0018419999999999,0.812069,0.416935,-0.224617,1.215739,0.06442,-0.076547,0.9250700000000001,0.001397,0.0001999999999999,1.07493,-0.001397,-0.0001999999999999,0.90528,-0.310465,0.056186,1.092959,-0.325565,0.04235,0.9033059999999999,-0.651455,0.0674329999999999,1.095798,-0.659485,0.0707059999999999
25,0.9930895000000001,0.7658130000000001,0.028072,0.8663585,0.477413,-0.005435,0.7573885000000001,0.283533,-0.044651,1.1724985,0.4977029999999999,0.0121949999999999,1.2165085,0.248453,-0.001813,0.8121985,0.416963,-0.2247199999999999,1.2158085,0.064445,-0.0765,0.9250585,0.0013909999999999,0.0001789999999999,1.0749415,-0.0013909999999999,-0.0001789999999999,0.9051315,-0.310447,0.0560829999999999,1.0929285,-0.325527,0.042381,0.9032855,-0.6513869999999999,0.067473,1.0957675,-0.6596069999999999,0.070753
26,0.993108,0.765864,0.0280695,0.866372,0.477474,-0.0054395,0.757482,0.283824,-0.0450315,1.172522,0.497754,0.0121825,1.216542,0.248444,-0.0017835,0.812312,0.416984,-0.2248095,1.215862,0.064456,-0.0764495,0.925052,0.0013779999999999,0.0001454999999999,1.074948,-0.0013779999999999,-0.0001454999999999,0.904989,-0.309956,0.0559725,1.092902,-0.325486,0.0424365,0.903253,-0.6512960000000001,0.0675185,1.0957409999999999,-0.6598360000000001,0.0708034999999999
27,0.9931550000000001,0.7659105,0.0280775,0.866385,0.4775305,-0.0054554999999999,0.757575,0.2841105,-0.0453804999999999,1.172555,0.4978005,0.0121675,1.2165650000000001,0.2484205,-0.0017604999999999,0.812425,0.4170105,-0.2249135,1.215915,0.0644375,-0.0764335,0.9250480000000001,0.0013665,0.0001135,1.074952,-0.0013665,-0.0001134999999999,0.9048760000000001,-0.3094395,0.0557925,1.092867,-0.3254595,0.0424865,0.9032140000000001,-0.6512295,0.0675625,1.095705,-0.6600795,0.0708785
28,0.993207,0.765959,0.02812,0.866393,0.477579,-0.005459,0.7576430000000001,0.284389,-0.045825,1.172593,0.497829,0.0121579999999999,1.216603,0.248399,-0.001731,0.812493,0.417019,-0.225036,1.215963,0.064441,-0.076406,0.925045,0.001359,8.39999999999938e-05,1.074955,-0.001359,-8.400000000000074e-05,0.904765,-0.308691,0.0555829999999999,1.0928259999999999,-0.325421,0.0425329999999999,0.903174,-0.6511610000000001,0.067619,1.0956569999999999,-0.6602410000000001,0.0709569999999999
29,0.993282,0.766018,0.0281645,0.866394,0.477618,-0.0054535,0.757684,0.284688,-0.0462724999999999,1.1726239999999999,0.497858,0.0121514999999999,1.216624,0.248438,-0.0016994999999999,0.812504,0.417088,-0.2251415,1.216004,0.06448,-0.0763815,0.925041,0.001352,5.050000000000193e-05,1.074959,-0.001352,-5.050000000000193e-05,0.904654,-0.3082419999999999,0.0553634999999999,1.092788,-0.325272,0.0425325,0.903138,-0.651112,0.0676674999999999,1.095608,-0.660212,0.0710385
30,0.9933745,0.766107,0.028214,0.8663945,0.477667,-0.005441,0.7576545,0.284847,-0.046486,1.1726545,0.497887,0.012154,1.2166445,0.248477,-0.0016569999999999,0.8124745000000001,0.417157,-0.225223,1.2160545,0.0645189999999999,-0.076353,0.9250385,0.001346,1.9999999999999185e-05,1.0749615,-0.001346,-1.9999999999999185e-05,0.9046035,-0.308303,0.055317,1.0927425,-0.3251429999999999,0.042535,0.9031095000000001,-0.651053,0.067715,1.0955595,-0.660093,0.071134
31,0.9934925000000001,0.766236,0.0282669999999999,0.8663855,0.4777059999999999,-0.00542,0.7576255000000001,0.285026,-0.046713,1.1726855,0.497926,0.0121719999999999,1.2166755,0.248516,-0.001614,0.8124455000000002,0.417246,-0.22529,1.2161055,0.0645579999999999,-0.0764499999999999,0.9250355,0.001345,0.0,1.0749645,-0.001345,0.0,0.9045355,-0.308264,0.0553189999999999,1.0926945,-0.325144,0.042588,0.9030805000000001,-0.651004,0.067771,1.0955235,-0.660054,0.071237
32,0.9936485,0.7664030000000001,0.0283075,0.8663715000000001,0.477763,-0.0054094999999999,0.7576015,0.285203,-0.0469605,1.1726915,0.497973,0.0121964999999999,1.2167215,0.2485629999999999,-0.0016315,0.8124215000000001,0.417353,-0.2253865,1.2161915,0.064711,-0.0768465,0.9250325000000001,0.001345,-2.2500000000001685e-05,1.0749674999999999,-0.0013449999999999,2.2500000000001685e-05,0.9044855,-0.307947,0.0551395,1.0926385,-0.325177,0.0426075,0.9030565000000002,-0.650967,0.0678095,1.0954895,-0.6600269999999999,0.0713065
33,0.99385,0.7666105,0.0284074999999999,0.866344,0.4778105,-0.0053775,0.757494,0.2852905,-0.0470895,1.172694,0.4980005,0.0122284999999999,1.216934,0.2488305,-0.0015985,0.812364,0.4174205,-0.2254645,1.216424,0.0650795,-0.0775345,0.925028,0.0013405,-5.55e-05,1.074972,-0.0013405,5.55e-05,0.904362,-0.3075795,0.0550465,1.09259,-0.3251995,0.0426444999999999,0.903033,-0.6509295,0.0678445,1.095452,-0.6599995,0.0713824999999999
34,0.9940985000000001,0.7668505,0.0285929999999999,0.8663125,0.4778505,-0.005344,0.7572925,0.2853705,-0.047244,1.1726625,0.4980205,0.0122619999999999,1.2173125,0.2494605,-0.001615,0.8122024999999999,0.4175205,-0.225621,1.2168425,0.0659545,-0.078741,0.9250235,0.0013385,-8.900000000000574e-05,1.0749765,-0.0013385,8.89999999999988e-05,0.9042654999999999,-0.3072395,0.0549109999999999,1.0925375,-0.3252195,0.0426919999999999,0.9030015,-0.6509095,0.067896,1.0954055,-0.6597095,0.071463
35,0.9944055,0.767165,0.0289105,0.8662755,0.477885,-0.0053295,0.7569655,0.285505,-0.0474595,1.1726155,0.4980549999999999,0.0123064999999999,1.2178455,0.250465,-0.0016715,0.8118855,0.417655,-0.2256165,1.2174155,0.067559,-0.0811465,0.9250185,0.001334,-0.0001035,1.0749815,-0.001334,0.0001034999999999,0.9042285,-0.307685,0.0549225,1.0924905,-0.325255,0.0427125,0.9029645,-0.6509050000000001,0.0679545,1.0953485,-0.659435,0.0715125
36,0.9947335,0.767475,0.029277,0.8662195,0.477935,-0.0053399999999999,0.7564695,0.285665,-0.047624,1.1725695,0.498135,0.01236,1.2187195,0.252345,-0.001791,0.8113095,0.417975,-0.225897,1.2186595,0.070839,-0.085147,0.9250095,0.001334,-0.000114,1.0749905,-0.001334,0.000114,0.9040665000000001,-0.307685,0.054844,1.0924365,-0.325265,0.04271,0.9029265,-0.6509050000000001,0.0679869999999999,1.0953125,-0.659065,0.071523
37,0.9950795,0.767795,0.029677,0.8661035,0.478005,-0.005359,0.7557635,0.286135,-0.048006,1.1724935,0.498255,0.0124249999999999,1.2200635,0.2551049999999999,-0.0019199999999999,0.8104435,0.418725,-0.226178,1.2206235,0.07644,-0.090968,0.9249985000000001,0.001334,-0.000135,1.0750015,-0.001334,0.000135,0.9038845000000001,-0.307945,0.054784,1.0923565,-0.325265,0.042685,0.9028695,-0.6509050000000001,0.068018,1.0952695,-0.658765,0.071502
38,0.9954355,0.7681709999999999,0.0301815,0.8658695000000001,0.478131,-0.0053284999999999,0.7545195,0.2870609999999999,-0.0489715,1.1723595,0.498421,0.0125025,1.2219495,0.2589809999999999,-0.0020764999999999,0.8088595000000001,0.419581,-0.2266385,1.2238795,0.085227,-0.0991184999999999,0.9249835,0.0013299999999999,-0.0001644999999999,1.0750165,-0.00133,0.0001645,0.9036445,-0.308629,0.0549045,1.0922625,-0.325229,0.0426765,0.9027835,-0.650949,0.0680465,1.0952095,-0.658599,0.0714715
39,0.9957755000000001,0.768529,0.0307495,0.8654955,0.478309,-0.0053034999999999,0.7527254999999999,0.288519,-0.0505844999999999,1.1721555,0.498659,0.0126255,1.2241155,0.264349,-0.0023105,0.8067055,0.421199,-0.2272754999999999,1.2279655,0.096815,-0.1095955,0.9249595,0.001311,-0.0002295,1.0750405,-0.001311,0.0002295,0.9033635000000001,-0.308921,0.0548425,1.0921085,-0.325181,0.0426335,0.9026185,-0.651021,0.0680365,1.0950564999999999,-0.658231,0.0713965
40,0.9961025000000001,0.7688254999999999,0.0313275,0.8649565000000001,0.4785755,-0.0052465,0.7501265,0.2907355,-0.0528205,1.1718965,0.4989254999999999,0.0127965,1.2265065,0.2711154999999999,-0.0027804999999999,0.8036965,0.4241355,-0.2288484999999999,1.2333165,0.1130255,-0.1208284999999999,0.9249315,0.0012874999999999,-0.0002974999999999,1.0750685,-0.0012875,0.0002974999999999,0.9031845000000001,-0.3089745,0.0547795,1.0919295,-0.3251145,0.0425825,0.9024345,-0.6511345000000001,0.0680175,1.0948944999999999,-0.6580745,0.0713155
41,0.9964465,0.769065,0.03196,0.8642065,0.479025,-0.0050979999999999,0.7468064999999999,0.294855,-0.056679,1.1715864999999999,0.499195,0.013082,1.2300765,0.279245,-0.0040369999999999,0.8002465000000001,0.428995,-0.2310209999999999,1.2389264999999998,0.133595,-0.137331,0.9248965,0.0012529999999999,-0.000382,1.0751035,-0.001253,0.000382,0.9030145,-0.309275,0.054667,1.0918035,-0.325185,0.0425,0.9022465,-0.651215,0.067971,1.0947905,-0.658145,0.071206
42,0.996796,0.769259,0.032629,0.862786,0.480249,-0.004551,0.743126,0.299699,-0.060692,1.171266,0.499459,0.0134009999999999,1.235406,0.288959,-0.009593,0.795986,0.435639,-0.23364,1.244656,0.157979,-0.15764,0.924864,0.00122,-0.000481,1.075136,-0.00122,0.0004809999999999,0.902824,-0.3096109999999999,0.0545839999999999,1.091676,-0.3251909999999999,0.042418,0.902064,-0.651331,0.067916,1.094725,-0.658111,0.071111
43,0.9971505,0.7693525,0.033319,0.8611145,0.4817525,-0.00383,0.7382645,0.3062824999999999,-0.0658359999999999,1.1710345,0.4996025,0.013685,1.2405545,0.2984524999999999,-0.0153439999999999,0.7907645,0.4445825,-0.236726,1.2518745,0.1863725,-0.177736,0.9248305,0.0011684999999999,-0.0006169999999999,1.0751695,-0.0011684999999999,0.0006169999999999,0.9026355,-0.3101875,0.054629,1.0915385,-0.3252575,0.042313,0.9018725,-0.6515175,0.067817,1.0946685,-0.6581775,0.070977
44,0.997517,0.7694155,0.03405,0.8592520000000001,0.4833055,-0.003033,0.7326619999999999,0.3148355,-0.071945,1.170822,0.4996855,0.013975,1.2461820000000001,0.3078155,-0.02151,0.7846420000000001,0.4560055,-0.239845,1.259522,0.2201955,-0.196785,0.924791,0.0011115,-0.0007689999999999,1.075209,-0.0011115,0.0007689999999999,0.9024290000000001,-0.3108245,0.054653,1.091381,-0.3254245,0.042236,0.901676,-0.6517145,0.067698,1.094608,-0.6582645,0.070836
45,0.9979175000000001,0.7694705,0.0348999999999999,0.8573135000000001,0.4849205,-0.00215,0.7261135000000001,0.3259005,-0.078792,1.1706234999999998,0.4997505,0.0142269999999999,1.2536635,0.3185805,-0.028212,0.7777735,0.4698405,-0.242962,1.2697034999999999,0.2572705,-0.214322,0.9247515,0.0010645,-0.000913,1.0752485,-0.0010645,0.0009129999999999,0.9021935,-0.3112795,0.0545439999999999,1.0912455,-0.3255895,0.0421429999999999,0.9014915,-0.6519595,0.067561,1.0945735,-0.6584195,0.070658
46,0.9983670000000001,0.769533,0.035889,0.85518,0.486523,-0.0012379999999999,0.71844,0.339213,-0.086616,1.17045,0.499763,0.014465,1.26366,0.328763,-0.035346,0.77033,0.486213,-0.246416,1.28025,0.298183,-0.230696,0.9247170000000001,0.001019,-0.0010899999999999,1.075283,-0.001019,0.00109,0.901969,-0.3116569999999999,0.054396,1.091092,-0.325837,0.041989,0.901321,-0.652227,0.067359,1.094584,-0.658617,0.070417
47,0.9988465000000001,0.769561,0.036985,0.8529785,0.488081,-0.0003279999999999,0.7102485000000001,0.355351,-0.094641,1.1703285,0.499731,0.014591,1.2740585,0.339721,-0.0429009999999999,0.7626485000000001,0.505561,-0.248191,1.2900485,0.341401,-0.2451809999999999,0.9246855,0.000984,-0.0012609999999999,1.0753145,-0.000984,0.001261,0.9018095000000002,-0.312559,0.054357,1.0909555,-0.326069,0.041814,0.9011875,-0.652469,0.06709,1.0946315,-0.658899,0.070171
48,0.9993580000000001,0.7695325000000001,0.0381394999999999,0.850576,0.4897425,0.0008314999999999,0.7019960000000001,0.3714925,-0.1007015,1.170176,0.4995925,0.0147944999999999,1.2852459999999999,0.3532125,-0.0534045,0.754866,0.5265625,-0.2484215,1.2997459999999998,0.3876625,-0.2571515,0.924661,0.0009584999999999,-0.0013915,1.075339,-0.0009584999999999,0.0013914999999999,0.901722,-0.3135575,0.0543614999999999,1.090865,-0.3263775,0.0417034999999999,0.90112,-0.6527875,0.0668675,1.094725,-0.6592675,0.0699735
49,0.99991,0.7694975000000001,0.039542,0.8480420000000001,0.4916475,0.002391,0.6935720000000001,0.3893275,-0.1055509999999999,1.169992,0.4995175,0.015078,1.296772,0.3672375,-0.0642409999999999,0.747082,0.5520675,-0.248541,1.308432,0.4336175,-0.267631,0.924637,0.0009625,-0.0014319999999999,1.075363,-0.0009625,0.001432,0.901721,-0.3145025,0.054572,1.090824,-0.3267725,0.04174,0.901076,-0.6531625,0.066748,1.094876,-0.6597124999999999,0.069819
50,1.0004185,0.769346,0.040972,0.8455045,0.493496,0.003918,0.6854445,0.405846,-0.107881,1.1701145,0.4995759999999999,0.014999,1.3070645,0.387706,-0.077401,0.7388445,0.575796,-0.2486509999999999,1.3167645000000001,0.479556,-0.2712409999999999,0.9246255,0.000973,-0.0014699999999999,1.0753745,-0.000973,0.0014699999999999,0.9017605,-0.315624,0.054798,1.0907745,-0.327334,0.041781,0.9010184999999999,-0.653694,0.066648,1.0949635,-0.660324,0.069686
51,1.000889,0.7691304999999999,0.0424375,0.843414,0.4946405,0.0051375,0.677254,0.4224004999999999,-0.1113765,1.170294,0.4998405,0.0149535,1.3149639999999998,0.4063104999999999,-0.0863464999999999,0.730324,0.5977705,-0.2487265,1.324484,0.5263105,-0.2712565,0.924613,0.0009564999999999,-0.0014664999999999,1.075387,-0.0009564999999999,0.0014665,0.901876,-0.3167095,0.0551155,1.090732,-0.3279895,0.0418485,0.900953,-0.6543595,0.0665725,1.095049,-0.6611195,0.0695975
52,1.0013195,0.7687355,0.043804,0.8412955000000001,0.4955855,0.006195,0.6702755,0.4375955,-0.113131,1.1704755,0.5001555,0.01491,1.3228654999999998,0.4282055,-0.0967209999999999,0.7219055,0.6180355,-0.246841,1.3300455,0.5724955,-0.271281,0.9246065,0.0009004999999999,-0.001423,1.0753935000000001,-0.0009005,0.001423,0.9019695000000001,-0.3179045,0.055415,1.0906925,-0.3288145,0.041915,0.9008725,-0.6553545,0.066479,1.0951875,-0.6621245,0.069509
53,1.0016635,0.767905,0.0449905,0.8391375,0.496645,0.0072075,0.6643875,0.453105,-0.1132724999999999,1.1705775,0.5011249999999999,0.0145565,1.3293175,0.4523149999999999,-0.1064925,0.7137575,0.636965,-0.2430225,1.3350175,0.616045,-0.2713925,0.9246055,0.0008489999999999,-0.0013014999999999,1.0753945,-0.0008489999999999,0.0013015,0.9020575000000001,-0.319445,0.0556245,1.0906265,-0.329995,0.0418125,0.9007885,-0.6567350000000001,0.0663105,1.0953644999999999,-0.663675,0.0693495
54,1.0019345,0.7667269999999999,0.045908,0.8369405,0.497807,0.008116,0.6617905,0.470667,-0.113481,1.1706005,0.502317,0.013722,1.3324805,0.477227,-0.115741,0.7063205,0.6573669999999999,-0.237871,1.3361805,0.656887,-0.269991,0.9245945,0.000782,-0.0011029999999999,1.0754055,-0.0007819999999999,0.0011029999999999,0.9021795,-0.320903,0.05562,1.0905445,-0.331493,0.041611,0.9007175000000001,-0.658413,0.066079,1.0955445,-0.665493,0.069107
55,1.0021205,0.7652135,0.046664,0.8353305,0.4991535,0.009151,0.6611305000000001,0.4857935,-0.113572,1.1705405,0.5038035000000001,0.012953,1.3324305,0.5039835,-0.120572,0.6992705,0.6772335,-0.231432,1.3361105,0.6951935,-0.267362,0.9245855000000001,0.0007014999999999,-0.000995,1.0754145,-0.0007014999999999,0.000995,0.9022015,-0.3222064999999999,0.055472,1.0904275,-0.3332765,0.04152,0.9006125,-0.6603065,0.06596,1.0956605,-0.6675865,0.0689849999999999
56,1.002209,0.7633165000000001,0.0472569999999999,0.834028,0.5006365,0.0104389999999999,0.661038,0.4981365,-0.113103,1.170448,0.5056765,0.0124529999999999,1.332358,0.5313665,-0.124833,0.692878,0.6954065,-0.2240329999999999,1.336008,0.7293865,-0.264433,0.924577,0.0006065,-0.000856,1.075423,-0.0006064999999999,0.0008559999999999,0.902195,-0.3243534999999999,0.0554609999999999,1.09028,-0.3351335,0.0414659999999999,0.900471,-0.6625535,0.065921,1.095728,-0.6698935,0.068912
57,1.0022339999999998,0.7611224999999999,0.047807,0.8332220000000001,0.5019724999999999,0.011634,0.6609119999999999,0.5151325,-0.111494,1.170122,0.5078825,0.012196,1.3322319999999999,0.5577424999999999,-0.1254839999999999,0.687112,0.7140225,-0.2151639999999999,1.335872,0.7615025,-0.260534,0.9245680000000001,0.0005054999999999,-0.0007469999999999,1.075432,-0.0005055,0.000747,0.90223,-0.3267875,0.055551,1.09005,-0.3370875,0.041554,0.900285,-0.6650775,0.06598,1.0957819999999998,-0.6726975000000001,0.068933
58,1.0022054999999999,0.7584679999999999,0.0481724999999999,0.8327175,0.503198,0.0125734999999999,0.6607375,0.5326979999999999,-0.1077085,1.1694575,0.510488,0.0119234999999999,1.3292374999999998,0.585618,-0.1253185,0.6824175,0.730308,-0.2040684999999999,1.3351275,0.792548,-0.2531985,0.9245555,0.0004139999999999,-0.0005715,1.0754445,-0.000414,0.0005714999999999,0.9023225,-0.329252,0.0557275,1.0898345,-0.339462,0.0417294999999999,0.9000555,-0.668012,0.0661265,1.0957275,-0.675942,0.0690615
59,1.0021814999999998,0.755616,0.0483839999999999,0.8318445000000001,0.504186,0.013484,0.6613845,0.550366,-0.1028639999999999,1.1684845,0.513396,0.0116889999999999,1.3252345,0.606576,-0.125154,0.6789045,0.748036,-0.1933139999999999,1.3336845,0.819136,-0.244874,0.9245575,0.000372,-0.000396,1.0754425,-0.000372,0.000396,0.9025755,-0.331284,0.055746,1.0895975,-0.342034,0.041878,0.8998285,-0.671104,0.066273,1.0956744999999999,-0.679384,0.069188
60,1.002129,0.7523445,0.0485645,0.8312820000000001,0.5052845,0.0144534999999999,0.6630119999999999,0.5683845000000001,-0.0982535,1.167322,0.5160045,0.0114044999999999,1.319162,0.6281445,-0.1249935,0.6768719999999999,0.7667745,-0.1830735,1.331302,0.8420545,-0.2354534999999999,0.924563,0.0003854999999999,-0.0002155,1.075437,-0.0003855,0.0002155,0.902889,-0.3333954999999999,0.0557084999999999,1.089353,-0.3447854999999999,0.0419835,0.899581,-0.6745855,0.0664245,1.095602,-0.6832455,0.0693215
61,1.0021305,0.749085,0.0487035,0.8305875,0.506425,0.0154015,0.6661475,0.586965,-0.0932455,1.1660875,0.5185949999999999,0.0112225,1.3126475,0.647385,-0.1245355,0.6759275,0.785945,-0.1728955,1.3286475,0.861895,-0.2257154999999999,0.9245815,0.0004599999999999,-0.0001494999999999,1.0754185,-0.00046,0.0001495,0.9032805000000002,-0.3352549999999999,0.0554385,1.0891645,-0.347485,0.0419665,0.8994475000000001,-0.6782050000000001,0.0665365,1.0955275,-0.687165,0.0694015
62,1.0021485,0.7457644999999999,0.0489024999999999,0.8302205,0.5081045,0.0169124999999999,0.6703905,0.6043645,-0.0879265,1.1647705,0.5204845,0.0114174999999999,1.3061105,0.6646145,-0.1204165,0.6757905,0.8046045,-0.1631665,1.3260005,0.8803845,-0.2154665,0.9245995,0.0005735,-0.0001715,1.0754005,-0.0005735,0.0001714999999999,0.9036805,-0.3370355,0.0552005,1.0889805,-0.3501355,0.0420085,0.8993255,-0.6818355,0.0667265,1.0954305,-0.6909255,0.0696005
63,1.0021829999999998,0.7426145,0.0490395,0.830132,0.5095244999999999,0.0184035,0.6756520000000001,0.6180945,-0.0821515,1.163612,0.5223644999999999,0.0116295,1.299242,0.6794344999999999,-0.1155815,0.675662,0.8225944999999999,-0.1524115,1.3236919999999999,0.8970444999999999,-0.2054615,0.924626,0.0006955,-0.0003065,1.075374,-0.0006955,0.0003065,0.903964,-0.3385154999999999,0.0548655,1.088817,-0.3525355,0.0420375,0.8992370000000001,-0.6853055,0.0669415,1.095372,-0.6944955,0.0698155
64,1.00225,0.739612,0.04912,0.830218,0.5112720000000001,0.019801,0.681608,0.632932,-0.076623,1.162598,0.5240520000000001,0.011875,1.292078,0.6925220000000001,-0.108553,0.675578,0.838302,-0.1419929999999999,1.321598,0.911672,-0.1945629999999999,0.924654,0.000796,-0.000467,1.075346,-0.0007959999999999,0.000467,0.904277,-0.339898,0.054529,1.088675,-0.354848,0.04208,0.8991830000000001,-0.6885779999999999,0.06719,1.095338,-0.698078,0.0700959999999999
65,1.0023555,0.7368915,0.049139,0.8307215,0.5129015,0.021079,0.6876115,0.6480815000000001,-0.070715,1.1612115,0.5255015000000001,0.012305,1.2855415,0.7038615,-0.101245,0.6755715,0.8553815,-0.130885,1.3192215,0.9250315,-0.182715,0.9246805,0.0009364999999999,-0.0007629999999999,1.0753195,-0.0009364999999999,0.0007629999999999,0.9046105,-0.3397385,0.0539469999999999,1.0884995,-0.3566785,0.042105,0.8991534999999999,-0.6916684999999999,0.067491,1.0953115,-0.7013585,0.070412
66,1.002511,0.7344905,0.0491825,0.8311999999999999,0.5146105,0.0224254999999999,0.6917800000000001,0.6586905,-0.0644245,1.1599599999999999,0.5268605,0.0133364999999999,1.2799,0.7125805,-0.0934245,0.67586,0.8702605,-0.1201445,1.3172199999999998,0.9350605,-0.1705545,0.924682,0.0010775,-0.0011525,1.075318,-0.0010775,0.0011525,0.904899,-0.3397495,0.0535675,1.08837,-0.3585295,0.0422064999999999,0.899161,-0.6946295,0.0678805,1.09533,-0.7044595,0.0707985
67,1.002641,0.7324695,0.049086,0.831659,0.5161795,0.0237469999999999,0.695669,0.6670794999999999,-0.058647,1.159089,0.5278895,0.0143179999999999,1.2770489999999999,0.7180995,-0.089087,0.676729,0.8820095,-0.111467,1.315809,0.9419995,-0.159997,0.924683,0.0011825,-0.00147,1.075317,-0.0011824999999999,0.0014699999999999,0.9051220000000001,-0.3399405,0.053285,1.088259,-0.3600405,0.042223,0.899172,-0.6972705,0.068187,1.095339,-0.7071905,0.0711229999999999
68,1.002721,0.7306984999999999,0.0489334999999999,0.832192,0.5179784999999999,0.0251284999999999,0.699342,0.6756385,-0.0527595,1.158462,0.5286584999999999,0.0151224999999999,1.274052,0.7227684999999999,-0.0843035,0.677982,0.8931285,-0.1021535,1.3145120000000001,0.9491685,-0.1489935,0.924688,0.0012404999999999,-0.0017735,1.075312,-0.0012405,0.0017734999999999,0.905224,-0.3404015,0.0530885,1.088148,-0.3613015,0.0422184999999999,0.899184,-0.6996515000000001,0.0684765,1.095352,-0.7096815000000001,0.0714305
69,1.002829,0.7292664999999999,0.048627,0.832618,0.5198765,0.026462,0.7028180000000002,0.6836565,-0.047584,1.157918,0.5294865,0.0157339999999999,1.271418,0.7271065,-0.079468,0.6794980000000002,0.9019465,-0.093228,1.313288,0.9556065,-0.138218,0.924727,0.0012514999999999,-0.002023,1.075273,-0.0012515,0.0020229999999999,0.905323,-0.3408235,0.052857,1.088088,-0.3625535,0.042175,0.899264,-0.7017835,0.068693,1.095418,-0.7120435,0.071712
70,1.0030014999999999,0.7278725,0.0483249999999999,0.8331435,0.5214325,0.0277249999999999,0.7062435,0.6912625,-0.042478,1.1576035,0.5306225,0.0164269999999999,1.2692735,0.7305825,-0.074682,0.6810235,0.9092925,-0.084702,1.3121635,0.9617725,-0.127132,0.9247745,0.0012624999999999,-0.002238,1.0752255,-0.0012624999999999,0.0022379999999999,0.9054695000000001,-0.3410975,0.052631,1.0881285,-0.3636075,0.0420969999999999,0.8994305,-0.7038175,0.068887,1.0956035,-0.7143075,0.071933
71,1.00316,0.7269985,0.0479925,0.833518,0.5222085000000001,0.0283665,0.709198,0.6977285000000001,-0.0378725,1.157378,0.5317485000000001,0.0170655,1.267558,0.7337185,-0.0699945,0.682388,0.9157585,-0.0766044999999999,1.310928,0.9659985,-0.1170244999999999,0.924808,0.0012475,-0.0024054999999999,1.075192,-0.0012474999999999,0.0024055,0.9056250000000001,-0.3410815,0.0524155,1.088152,-0.3642915,0.0419725,0.899607,-0.7054914999999999,0.0690585,1.095788,-0.7160715,0.0721325
72,1.003341,0.726355,0.047611,0.833717,0.522995,0.028938,0.711867,0.703265,-0.0335059999999999,1.157257,0.532705,0.017672,1.266147,0.736475,-0.06561,0.683667,0.918635,-0.06977,1.3096569999999998,0.969905,-0.10708,0.924817,0.0012399999999999,-0.0025719999999999,1.075183,-0.00124,0.002572,0.905806,-0.340955,0.052188,1.088199,-0.364895,0.041821,0.8997910000000001,-0.706915,0.069199,1.0960169999999998,-0.717635,0.072287
73,1.0035025,0.7258505000000001,0.0472545,0.8338865,0.5231205,0.0295025,0.7139965000000001,0.7077205000000001,-0.0295404999999999,1.1572465,0.5335405000000001,0.0182885,1.2649865,0.7389605,-0.0615355,0.6848565000000001,0.9213305,-0.0631755,1.3086065,0.9723305,-0.0985655,0.9248095000000001,0.0012565,-0.0027454999999999,1.0751905,-0.0012565,0.0027454999999999,0.9058795,-0.3405495,0.0518595,1.0882335,-0.3652995,0.0416525,0.8999645000000001,-0.7081495,0.0693635,1.0962365,-0.7189295,0.0724664999999999
74,1.003658,0.725421,0.046968,0.8343510000000001,0.523131,0.030019,0.715831,0.711601,-0.0260779999999999,1.157191,0.534401,0.01885,1.264011,0.740691,-0.057815,0.6858310000000001,0.921841,-0.0578249999999999,1.307791,0.974611,-0.090842,0.9248,0.001229,-0.00288,1.0752,-0.001229,0.00288,0.9059,-0.341399,0.051908,1.08828,-0.366119,0.041647,0.900141,-0.709209,0.069533,1.096451,-0.720099,0.07268
75,1.0038045,0.7250264999999999,0.0466964999999999,0.8347095,0.5229965,0.0305024999999999,0.7172795000000001,0.7149065,-0.0232725,1.1571595000000001,0.5350765,0.0193444999999999,1.2631795000000001,0.7420065,-0.0544545,0.6867894999999999,0.9213765,-0.0530635,1.3071695,0.9764965,-0.0844455,0.9247915,0.0011975,-0.0030275,1.0752085,-0.0011974999999999,0.0030274999999999,0.9059165000000001,-0.3422135,0.0519645,1.0883114999999999,-0.3669334999999999,0.0416034999999999,0.9003005,-0.7101335000000001,0.0696675,1.0966495,-0.7211435,0.0728584999999999
76,1.0039434999999999,0.7247285,0.046488,0.8350675000000001,0.5226485000000001,0.030735,0.7183174999999999,0.7174385000000001,-0.0210719999999999,1.1571575,0.5355985000000001,0.019804,1.2625575,0.7430185,-0.0516169999999999,0.6875975000000001,0.9206485,-0.0488279999999999,1.3066375,0.9783385,-0.0788659999999999,0.9247845,0.0011665,-0.0031559999999999,1.0752155,-0.0011664999999999,0.003156,0.9059085,-0.3429415,0.052003,1.0883455,-0.3675915,0.041519,0.9004585,-0.7109515,0.069753,1.0968475,-0.7220015,0.072992
77,1.0040525,0.7245105000000001,0.0463285,0.8353315,0.5221505,0.0310265,0.7190915,0.7190705000000001,-0.0194025,1.1571514999999999,0.5359905,0.0201775,1.2621315,0.7439405,-0.0493134999999999,0.6882415,0.9199405,-0.0463195,1.3061315,0.9797305,-0.0743445,0.9247735,0.0011374999999999,-0.0032524999999999,1.0752265,-0.0011374999999999,0.0032524999999999,0.9058775,-0.3439095,0.0520545,1.0883645,-0.3680995,0.0413705,0.9006125,-0.7116595,0.0697945,1.0970215,-0.7227695,0.0730415
78,1.004117,0.7244674999999999,0.0463315,0.835521,0.5217175,0.0310725,0.719661,0.7201275,-0.0182024999999999,1.1571609999999999,0.5364275,0.0205095,1.261851,0.7446075,-0.0475695,0.688381,0.9205275,-0.0445005,1.305771,0.9807975,-0.0709585,0.924752,0.0011144999999999,-0.0033014999999999,1.075248,-0.0011144999999999,0.0033015,0.90583,-0.3444825,0.0520995,1.0883639999999999,-0.3683325,0.0412215,0.900747,-0.7120525,0.0698185,1.097191,-0.7232025,0.0730905
79,1.004147,0.724551,0.046362,0.835676,0.5214409999999999,0.031104,0.719866,0.720611,-0.017557,1.157136,0.536521,0.020845,1.261636,0.7450209999999999,-0.046227,0.6884859999999999,0.921271,-0.043453,1.3054759999999999,0.981121,-0.068888,0.92473,0.001059,-0.0033549999999999,1.07527,-0.0010589999999999,0.0033549999999999,0.9057320000000001,-0.344869,0.052147,1.088284,-0.368419,0.041034,0.9008190000000001,-0.7122890000000001,0.069833,1.097316,-0.7234590000000001,0.0731219999999999
80,1.0041725,0.7246064999999999,0.046334,0.8357865,0.5211764999999999,0.031076,0.7199665,0.7209964999999999,-0.0172319999999999,1.1570765,0.5366664999999999,0.021135,1.2615365,0.7452765,-0.045354,0.6885865,0.9210065,-0.043127,1.3053165,0.9811565,-0.067726,0.9247315,0.0009855,-0.0033829999999999,1.0752685,-0.0009855,0.0033829999999999,0.9056505,-0.3452235,0.052155,1.0882185,-0.3685135,0.040824,0.9008925000000001,-0.7125535000000001,0.069804,1.0974565,-0.7236835,0.073106
81,1.0041849999999999,0.7245795,0.046291,0.835885,0.5209195,0.0310329999999999,0.720065,0.7212495,-0.017256,1.157005,0.5368595,0.021448,1.261465,0.7452495,-0.044812,0.688615,0.9208895,-0.04317,1.3052249999999999,0.9810995,-0.067029,0.924745,0.0008984999999999,-0.0034259999999999,1.075255,-0.0008985,0.0034259999999999,0.905539,-0.3455405,0.05218,1.088144,-0.3686104999999999,0.04061,0.900936,-0.7128504999999999,0.0697339999999999,1.097575,-0.7238804999999999,0.073107
82,1.004152,0.724549,0.046304,0.835964,0.520689,0.0309949999999999,0.720144,0.721479,-0.017294,1.156894,0.537129,0.0217739999999999,1.261404,0.745139,-0.044496,0.688364,0.920699,-0.043209,1.305164,0.980969,-0.066717,0.9247650000000001,0.0008169999999999,-0.003464,1.075235,-0.0008169999999999,0.0034639999999999,0.905499,-0.345791,0.0521829999999999,1.088058,-0.368701,0.0404639999999999,0.9009600000000001,-0.713131,0.069669,1.097674,-0.724021,0.073111
83,1.0040955,0.724548,0.0464179999999999,0.8360265,0.520488,0.0309259999999999,0.7201165,0.721508,-0.017364,1.1568765,0.5372979999999999,0.0220979999999999,1.2613765,0.744988,-0.044365,0.6878965,0.920498,-0.04328,1.3051765,0.980868,-0.066786,0.9247895,0.0007489999999999,-0.003533,1.0752105,-0.0007489999999999,0.0035329999999999,0.9054715,-0.346032,0.05223,1.0879955,-0.368752,0.0403069999999999,0.9009885000000001,-0.713402,0.069574,1.0977765,-0.724152,0.073128
84,1.0040895,0.724414,0.0465285,0.8358205,0.520804,0.0312595,0.7199705000000001,0.7213440000000001,-0.0175105,1.1569305,0.537394,0.0222955,1.2614605,0.7447640000000001,-0.0444615,0.6872404999999999,0.921454,-0.0438844999999999,1.3052805,0.980584,-0.0669314999999999,0.9248195,0.0007059999999999,-0.0035714999999999,1.0751805,-0.0007059999999999,0.0035715,0.9054835,-0.346326,0.0522075,1.0879825,-0.368866,0.0401005,0.9010685,-0.7138559999999999,0.0693985,1.0979305,-0.724436,0.0730695
85,1.004102,0.7241879999999999,0.0466484999999999,0.835584,0.5211079999999999,0.0315074999999999,0.719754,0.7210679999999999,-0.0179065,1.157054,0.5374479999999999,0.0224704999999999,1.261614,0.744398,-0.0446915,0.686544,0.922568,-0.0447655,1.305434,0.980168,-0.0671615,0.924859,0.000647,-0.0035905,1.075141,-0.000647,0.0035904999999999,0.905535,-0.347182,0.0522734999999999,1.088011,-0.369122,0.0398044999999999,0.9011820000000001,-0.7144320000000001,0.0691384999999999,1.0981239999999999,-0.7247520000000001,0.0729475
86,1.0041225,0.7238715,0.046735,0.8354185000000001,0.5215615,0.031715,0.7195685,0.7207215,-0.018516,1.1572185,0.5374415,0.0225979999999999,1.2617985,0.7438815000000001,-0.044993,0.6860185,0.9238415,-0.045901,1.3055885,0.9796515,-0.067563,0.9249115,0.0006034999999999,-0.003601,1.0750885000000001,-0.0006034999999999,0.003601,0.9056095,-0.3479985,0.0522259999999999,1.0880905,-0.3694685,0.039484,0.9013234999999999,-0.7149285,0.068806,1.0983385,-0.7251384999999999,0.0727019999999999
87,1.00412,0.7235685000000001,0.0468195,0.835305,0.5220685,0.0318635,0.7194050000000001,0.7203785,-0.0192584999999999,1.157365,0.5374385,0.0227285,1.2619449999999999,0.7433985,-0.0452945,0.685505,0.9251685,-0.0471365,1.3057050000000001,0.9790485,-0.0682545,0.9249640000000001,0.0005695,-0.0035934999999999,1.0750359999999999,-0.0005694999999999,0.0035934999999999,0.905657,-0.3487515,0.0521445,1.088144,-0.3697815,0.0391695,0.901446,-0.7155414999999999,0.0684885,1.098545,-0.7254815,0.0724495
88,1.004137,0.723259,0.0468685,0.835372,0.522099,0.0317395,0.719292,0.7200289999999999,-0.0200815,1.157502,0.5374089999999999,0.0226635,1.262102,0.7429089999999999,-0.0456235,0.685462,0.924609,-0.0483284999999999,1.305802,0.978389,-0.0691035,0.925015,0.0005549999999999,-0.0035535,1.074985,-0.0005549999999999,0.0035535,0.905745,-0.349501,0.0520285,1.088237,-0.370121,0.0388255,0.901599,-0.7161810000000001,0.0681435,1.098782,-0.725821,0.0721805
89,1.004133,0.7229155,0.0469064999999999,0.835519,0.5222154999999999,0.0316194999999999,0.7192690000000002,0.7197555,-0.0209065,1.157649,0.5374055,0.0226064999999999,1.262229,0.7423854999999999,-0.0459745,0.6852590000000001,0.9247355,-0.0494085,1.3058589999999999,0.9774955,-0.0700655,0.925053,0.0005674999999999,-0.0035145,1.074947,-0.0005675,0.0035144999999999,0.905817,-0.3501545,0.0518384999999999,1.088304,-0.3704745,0.0385094999999999,0.9017340000000001,-0.7168645,0.0678354999999999,1.098999,-0.7261344999999999,0.0719255
90,1.004123,0.7226025,0.0468895,0.835736,0.5225124999999999,0.0314575,0.719306,0.7195725,-0.0217315,1.157806,0.5374025,0.0225005,1.262366,0.7418825,-0.0463515,0.685246,0.9254725,-0.0503695,1.305856,0.9767125,-0.0710455,0.925087,0.0005754999999999,-0.0034775,1.074913,-0.0005755,0.0034775,0.905904,-0.3507975,0.0516115,1.088491,-0.3708175,0.0382025,0.901871,-0.7175175,0.0675405,1.099176,-0.7264975,0.0716555
91,1.00413,0.7223219999999999,0.046833,0.835929,0.522972,0.031316,0.7193890000000001,0.7194419999999999,-0.022555,1.157949,0.5373620000000001,0.022402,1.262459,0.7413719999999999,-0.046738,0.6854290000000001,0.925482,-0.051609,1.305819,0.975832,-0.072042,0.925125,0.000593,-0.003439,1.074875,-0.0005929999999999,0.0034389999999999,0.90598,-0.351438,0.051345,1.088674,-0.371078,0.037887,0.901961,-0.718178,0.0671829999999999,1.0993789999999999,-0.7269079999999999,0.071389
92,1.004156,0.7220405,0.0467265,0.836124,0.5235204999999999,0.0311685,0.719464,0.7191905,-0.0233675,1.1580840000000001,0.5372605,0.0222484999999999,1.262524,0.7408605,-0.0471925,0.685614,0.9252505,-0.0528365,1.3057539999999999,0.9750405,-0.0730665,0.92515,0.0005954999999999,-0.0034025,1.07485,-0.0005954999999999,0.0034024999999999,0.906076,-0.3520695,0.0510805,1.088859,-0.3712295,0.0375044999999999,0.9020420000000001,-0.7188395,0.0668265,1.099564,-0.7274195,0.0711245
93,1.004145,0.7219194999999999,0.0466085,0.836039,0.5235995,0.0311375,0.719509,0.7191595,-0.0241785,1.158159,0.5372195,0.0220454999999999,1.262509,0.7404495,-0.0476665,0.6857489999999999,0.9252595,-0.0540775,1.305629,0.9742695,-0.0740475,0.92516,0.0005954999999999,-0.0033725,1.07484,-0.0005954999999999,0.0033724999999999,0.9061440000000001,-0.3526005,0.0508295,1.089006,-0.3710105,0.0368574999999999,0.9020630000000001,-0.7193805,0.0664375,1.099699,-0.7279005000000001,0.0708415
94,1.0040925,0.721881,0.046415,0.8358975,0.523711,0.031037,0.7195275000000001,0.7193309999999999,-0.025053,1.1581775,0.537201,0.021781,1.2624374999999999,0.740171,-0.048204,0.6859875000000001,0.925031,-0.0552939999999999,1.3054375,0.973601,-0.0750919999999999,0.9251455000000001,0.000597,-0.0033499999999999,1.0748544999999998,-0.000597,0.00335,0.9061515,-0.353049,0.050495,1.0891804999999999,-0.370569,0.03589,0.9020195,-0.719799,0.065978,1.0997774999999999,-0.728289,0.070455
95,1.004026,0.7219555000000001,0.046142,0.835816,0.5238855,0.030849,0.719576,0.7195355,-0.026016,1.158156,0.5371855,0.021511,1.262346,0.7399555,-0.048767,0.686346,0.9247955,-0.0565349999999999,1.305256,0.9729955,-0.076093,0.925107,0.0005895,-0.003333,1.074893,-0.0005894999999999,0.003333,0.906127,-0.3534745,0.049969,1.089347,-0.3700645,0.034573,0.901947,-0.7201845,0.065471,1.099806,-0.7285944999999999,0.069931
96,1.004003,0.7219165,0.0455685,0.836082,0.5239465,0.0300645,0.719642,0.7195565,-0.0272444999999999,1.158122,0.5369365,0.0209825,1.262252,0.7396365,-0.0496435,0.686822,0.9246265,-0.0581205,1.305102,0.9724465,-0.0773875,0.925061,0.0006044999999999,-0.0033585,1.074939,-0.0006045,0.0033585,0.9060650000000001,-0.3539935,0.0489005,1.0896029999999999,-0.3697035,0.0324625,0.901843,-0.7206135,0.0645965,1.099812,-0.7289435,0.0691095
97,1.004004,0.7218559999999999,0.0448265,0.8364460000000001,0.5239159999999999,0.0290614999999999,0.719706,0.719396,-0.0287185,1.158026,0.536776,0.0202665,1.262156,0.739476,-0.0507424999999999,0.6873560000000001,0.924356,-0.0599505,1.305006,0.972086,-0.0788185,0.925038,0.000642,-0.0034625,1.074962,-0.0006419999999999,0.0034625,0.905935,-0.354344,0.0472235,1.089956,-0.369544,0.0297125,0.90174,-0.720794,0.0634585,1.099786,-0.729174,0.0680205
98,1.004029,0.7218559999999999,0.0438705,0.836829,0.523706,0.0278955,0.719789,0.719396,-0.0305194999999999,1.157939,0.536776,0.0192915,1.2620689999999999,0.739476,-0.0520885,0.6879490000000001,0.924096,-0.0619714999999999,1.304919,0.971886,-0.0804525,0.925008,0.000642,-0.0035735,1.074992,-0.0006419999999999,0.0035735,0.9057459999999999,-0.354634,0.0448495,1.0904530000000001,-0.369544,0.0260095,0.9016520000000001,-0.7211540000000001,0.0618435,1.099819,-0.729614,0.0664405
99,1.00411,0.7218559999999999,0.0423374999999999,0.837202,0.523706,0.0262804999999999,0.719912,0.719396,-0.0329135,1.157722,0.536776,0.0177504999999999,1.261962,0.739476,-0.0540115,0.6885220000000001,0.923676,-0.0646595,1.304892,0.971686,-0.0826505,0.924969,0.000642,-0.0037495,1.075031,-0.0006419999999999,0.0037494999999999,0.90542,-0.3550639999999999,0.0412795,1.091072,-0.369544,0.0213454999999999,0.901573,-0.721654,0.0595084999999999,1.099942,-0.730334,0.0640755
100,1.0042005,0.7218559999999999,0.0404285,0.8373215,0.523286,0.0242704999999999,0.7202915000000001,0.719066,-0.0356995,1.1575215,0.536746,0.0158424999999999,1.2617515,0.739206,-0.0562085,0.6890915,0.923126,-0.0675515,1.3049115,0.971286,-0.0852505,0.9248815,0.000642,-0.0040115,1.0751185,-0.0006419999999999,0.0040114999999999,0.9048754999999999,-0.355634,0.0364785,1.0918585,-0.369544,0.0157795,0.9016165,-0.722444,0.0566814999999999,1.1000715,-0.731374,0.0611135
101,1.0044389999999999,0.721818,0.038071,0.8378,0.522968,0.021765,0.72089,0.718398,-0.0390399999999999,1.15736,0.536498,0.013566,1.26166,0.738838,-0.0588009999999999,0.68988,0.922758,-0.070898,1.30501,0.970748,-0.088387,0.924758,0.000668,-0.004239,1.075242,-0.0006679999999999,0.004239,0.904287,-0.356172,0.030517,1.092946,-0.369692,0.008935,0.901852,-0.723342,0.053157,1.10031,-0.732562,0.057383
102,1.0047925,0.7216429999999999,0.035292,0.8384145000000001,0.523023,0.018772,0.7216644999999999,0.717653,-0.042822,1.1572745,0.536083,0.010954,1.2616144999999999,0.7385029999999999,-0.061796,0.6909645,0.921783,-0.07471,1.3051545,0.970073,-0.09178,0.9246065,0.0007689999999999,-0.0044809999999999,1.0753935000000001,-0.000769,0.0044809999999999,0.9036485,-0.3565669999999999,0.023494,1.0941015,-0.3696669999999999,0.001249,0.9022105,-0.723977,0.049047,1.1006645,-0.7337170000000001,0.052816
103,1.0052425,0.720994,0.032219,0.8390455,0.523644,0.015825,0.7225555,0.716864,-0.046957,1.1571655,0.535324,0.008129,1.2616155,0.738024,-0.065359,0.6925455,0.921694,-0.079232,1.3052355,0.968904,-0.095342,0.9243695,0.0008419999999999,-0.00469,1.0756305,-0.000842,0.00469,0.9029315,-0.3567559999999999,0.015506,1.0953655,-0.3694659999999999,-0.007195,0.9026655,-0.724506,0.044338,1.1011255,-0.7344860000000001,0.047663
104,1.005761,0.7197645,0.0288785,0.8396850000000001,0.5232145,0.0127355,0.723555,0.7163545,-0.0513555,1.157125,0.5349745,0.0049285,1.2616450000000001,0.7375444999999999,-0.0693095,0.694545,0.9205645,-0.0841205,1.305355,0.9684245,-0.0998905,0.9241320000000001,0.0008785,-0.0049074999999999,1.0758679999999998,-0.0008784999999999,0.0049075,0.90191,-0.3564754999999999,0.0063495,1.096761,-0.3690455,-0.0163565,0.9031790000000001,-0.7246255,0.0390385,1.1016650000000001,-0.7349255,0.0419645
105,1.0063259999999998,0.718268,0.0255485,0.840333,0.5228780000000001,0.0094025,0.7247330000000001,0.715308,-0.0554795,1.157143,0.5349980000000001,0.0015824999999999,1.261703,0.736978,-0.0733755,0.6967829999999999,0.919278,-0.0890265,1.305493,0.968588,-0.1046365,0.923851,0.000858,-0.0050895,1.076149,-0.0008579999999999,0.0050894999999999,0.900663,-0.355772,-0.0035125,1.098166,-0.368232,-0.0257495,0.903709,-0.7241219999999999,0.0335115,1.102263,-0.734772,0.0356615
106,1.007011,0.717024,0.021968,0.8414670000000001,0.521524,0.0058759999999999,0.726057,0.714484,-0.060195,1.157287,0.533544,-0.000906,1.261187,0.7339640000000001,-0.076889,0.699117,0.919114,-0.094044,1.3052570000000001,0.967664,-0.109764,0.923485,0.0007559999999999,-0.005219,1.076515,-0.0007559999999999,0.005219,0.899267,-0.354056,-0.0139379999999999,1.0996299999999999,-0.366466,-0.035558,0.904298,-0.722386,0.027329,1.102967,-0.733306,0.028816
107,1.0077889999999998,0.7153820000000001,0.0183815,0.842713,0.5205620000000001,0.0024315,0.727473,0.713712,-0.0651404999999999,1.1574829999999998,0.5321220000000001,-0.0034665,1.260883,0.731592,-0.0806095,0.7015830000000001,0.919482,-0.0994215,1.304943,0.962902,-0.1149215,0.923072,0.000689,-0.0053125,1.076928,-0.0006889999999999,0.0053125,0.897693,-0.351648,-0.0250395,1.101097,-0.363938,-0.0454965,0.904998,-0.719428,0.0210745,1.103823,-0.730568,0.0218744999999999
108,1.0086485,0.7135555,0.015141,0.8442375,0.5191755,-0.0006969999999999,0.7289574999999999,0.7128555,-0.069932,1.1578475,0.5311455,-0.0056589999999999,1.2606374999999999,0.7293755,-0.084102,0.7041775,0.9208455,-0.104321,1.3047175,0.9595955,-0.119831,0.9226395000000001,0.0006475,-0.005263,1.0773605,-0.0006475,0.005263,0.8958975000000001,-0.3487645,-0.036216,1.1026935,-0.3603845,-0.055506,0.9058145,-0.7152445,0.014802,1.1046974999999999,-0.7263845,0.014985
109,1.0097269999999998,0.7116410000000001,0.012008,0.845942,0.518181,-0.00365,0.7304920000000001,0.713021,-0.074576,1.158222,0.5289710000000001,-0.007804,1.260832,0.727761,-0.08753,0.7073320000000001,0.920781,-0.109356,1.304732,0.957731,-0.124876,0.922153,0.0006119999999999,-0.005014,1.077847,-0.000612,0.005014,0.894292,-0.344729,-0.047273,1.104502,-0.355449,-0.065616,0.906878,-0.709469,0.008346,1.105792,-0.720499,0.0080509999999999
110,1.010762,0.7094195000000001,0.0092909999999999,0.847444,0.5173795,-0.006323,0.731894,0.7124195,-0.078599,1.158644,0.5275695,-0.009861,1.260954,0.7262295000000001,-0.090658,0.710484,0.9190295,-0.11416,1.304774,0.9562995,-0.12946,0.921704,0.0006405,-0.00481,1.078296,-0.0006404999999999,0.00481,0.8925540000000001,-0.3406205,-0.057924,1.106184,-0.3503005,-0.075374,0.9079000000000002,-0.7031805,0.00219,1.106864,-0.7138605,0.00152
111,1.01188,0.7072385,0.0067489999999999,0.8491569999999999,0.5156584999999999,-0.008762,0.733427,0.7128585,-0.082615,1.1591969999999998,0.5252285,-0.011688,1.261287,0.7249985,-0.0938539999999999,0.713787,0.9167985,-0.1189689999999999,1.3049469999999999,0.9566685,-0.133919,0.9212180000000001,0.0007404999999999,-0.004693,1.078782,-0.0007405,0.0046929999999999,0.890997,-0.3347914999999999,-0.068398,1.1080269999999999,-0.3439915,-0.0853289999999999,0.9090590000000001,-0.6951715,-0.003988,1.108047,-0.7052615000000001,-0.004817
112,1.012986,0.7054295,0.00439,0.8505860000000001,0.5137995,-0.0111689999999999,0.734856,0.7125695,-0.086205,1.159756,0.5237495,-0.013339,1.261636,0.7244794999999999,-0.096813,0.716656,0.9164395,-0.123332,1.305236,0.9582695,-0.138012,0.9207730000000001,0.0007924999999999,-0.0044969999999999,1.079227,-0.0007924999999999,0.004497,0.8893759999999999,-0.3286505,-0.078615,1.109766,-0.3378205,-0.095316,0.9100890000000001,-0.6863805,-0.009883,1.109176,-0.6957805,-0.011163
113,1.0141015,0.704285,0.0021504999999999,0.8521955,0.513225,-0.0136145,0.7363155,0.712085,-0.0895435,1.1602255,0.521105,-0.0147795,1.2620255,0.723305,-0.0998325,0.7195955,0.915085,-0.1278615,1.3051555000000001,0.955905,-0.1420715,0.9202685,0.0009729999999999,-0.0043225,1.0797315,-0.0009729999999999,0.0043225,0.8880855,-0.321685,-0.0883545,1.1114555,-0.330675,-0.1049365,0.9111915,-0.6762050000000001,-0.0156775,1.1102755,-0.684685,-0.0177355
114,1.015172,0.7025565,-2.1499999999997216e-05,0.853611,0.5113465,-0.0157625,0.7376210000000001,0.7112765,-0.0925235,1.160671,0.5193265,-0.0160364999999999,1.262411,0.7224465,-0.1028314999999999,0.722171,0.9130165,-0.1326205,1.305021,0.9538865,-0.1458205,0.919834,0.0011774999999999,-0.0041424999999999,1.080166,-0.0011774999999999,0.0041425,0.886921,-0.3150035,-0.0977784999999999,1.1132209999999998,-0.3246734999999999,-0.1143134999999999,0.912283,-0.6655535,-0.0213044999999999,1.1112009999999999,-0.6730134999999999,-0.0237454999999999
115,1.0161535,0.700829,-0.002032,0.8547245,0.511009,-0.017808,0.7388345000000001,0.710969,-0.095656,1.1612144999999998,0.517189,-0.018066,1.2633045,0.724329,-0.106516,0.7248445,0.911429,-0.136763,1.3050145,0.952159,-0.149393,0.9194805,0.0016649999999999,-0.003961,1.0805195,-0.0016649999999999,0.0039609999999999,0.8858145,-0.307991,-0.106891,1.1149944999999999,-0.318581,-0.123311,0.9132865,-0.654331,-0.026601,1.1119845,-0.660731,-0.02942
116,1.0168705,0.6994100000000001,-0.0041314999999999,0.8555375000000001,0.50966,-0.0201195,0.7397875,0.7102900000000001,-0.0988275,1.1614675,0.51513,-0.0202124999999999,1.2639575,0.7256900000000001,-0.1099695,0.7272175000000001,0.91076,-0.1408705,1.3048075,0.95395,-0.1535105,0.9192435,0.0021149999999999,-0.0038595,1.0807565,-0.0021149999999999,0.0038595,0.8846275000000001,-0.30035,-0.1155055,1.1165775,-0.31183,-0.1318265,0.9140055,-0.64227,-0.0320125,1.1124975,-0.6476299999999999,-0.0349854999999999
117,1.0175745,0.697344,-0.0065119999999999,0.8563725,0.508724,-0.0226419999999999,0.7407925,0.709704,-0.10235,1.1619225,0.512914,-0.0226279999999999,1.2646225,0.726584,-0.1134999999999999,0.7295324999999999,0.910024,-0.144903,1.3045225,0.954644,-0.1578629999999999,0.9189765,0.002471,-0.0039999999999999,1.0810235,-0.002471,0.004,0.8837125,-0.2924759999999999,-0.1237829999999999,1.1181524999999999,-0.305056,-0.140146,0.9148445000000001,-0.629606,-0.037263,1.1129625,-0.6341760000000001,-0.0403669999999999
118,1.0180505,0.695203,-0.0088055,0.8567935,0.506883,-0.0250945,0.7415835,0.707903,-0.1059415,1.1622535,0.5108630000000001,-0.0250115,1.2650235,0.726113,-0.1168595,0.7310035000000001,0.906163,-0.1487355,1.3039535,0.953113,-0.1624455,0.9188165000000001,0.0027749999999999,-0.0041985,1.0811834999999999,-0.0027749999999999,0.0041985,0.8827935000000001,-0.282167,-0.1316594999999999,1.1194235,-0.295697,-0.1479155,0.9153015,-0.616967,-0.0421815,1.1131555,-0.6208370000000001,-0.0455125
119,1.0184844999999998,0.6930685000000001,-0.0114025,0.8572245000000001,0.5043685,-0.0276335,0.7423545,0.7072185,-0.1098285,1.1624845,0.5090185,-0.0274975,1.2649344999999999,0.7238285,-0.1203415,0.7323945000000001,0.9055185,-0.1525805,1.3032745000000001,0.9476485,-0.1662105,0.9186415,0.0029234999999999,-0.0043335,1.0813585,-0.0029235,0.0043334999999999,0.8818745,-0.2702615,-0.1395755,1.1205845,-0.2844315,-0.1553405,0.9157695,-0.6030314999999999,-0.0470785,1.1132865,-0.6063415000000001,-0.0506555
120,1.018653,0.6921999999999999,-0.0192479999999999,0.857602,0.50426,-0.0354269999999999,0.7429319999999999,0.70624,-0.1185119999999999,1.162592,0.50946,-0.0352939999999999,1.264432,0.7228399999999999,-0.128567,0.733402,0.90803,-0.1613979999999999,1.302422,0.94398,-0.174588,0.91856,0.00289,-0.0044719999999999,1.08144,-0.00289,0.004472,0.8808920000000001,-0.25717,-0.152127,1.1214520000000001,-0.27171,-0.167068,0.916045,-0.58802,-0.0568989999999999,1.113157,-0.59062,-0.0606179999999999
121,1.018768,0.69329,-0.0281544999999999,0.8579559999999999,0.50446,-0.0444054999999999,0.743506,0.7077,-0.1282395,1.161726,0.50656,-0.0443004999999999,1.263496,0.72126,-0.1372145,0.734186,0.90848,-0.1716065,1.301526,0.94261,-0.1836165,0.918508,0.00285,-0.0041775,1.081492,-0.0028499999999999,0.0041775,0.8779260000000001,-0.2411499999999999,-0.1703065,1.123636,-0.25565,-0.1823265,0.916403,-0.57013,-0.0678874999999999,1.11297,-0.57256,-0.0711754999999999
122,1.018876,0.69333,-0.037012,0.8582609999999999,0.50498,-0.053458,0.744171,0.7076500000000001,-0.1376109999999999,1.1608209999999999,0.50488,-0.05335,1.262521,0.7204299999999999,-0.14546,0.734811,0.90856,-0.181289,1.300981,0.94484,-0.193249,0.9184559999999999,0.00295,-0.0038959999999999,1.081544,-0.00295,0.0038959999999999,0.874941,-0.22648,-0.187799,1.125881,-0.2405,-0.197239,0.916735,-0.5533399999999999,-0.078523,1.112769,-0.55568,-0.081005
123,1.018999,0.695145,-0.0463765,0.8589490000000001,0.5041450000000001,-0.0631275,0.7449790000000001,0.709045,-0.1474315,1.1598089999999999,0.502675,-0.0628935,1.261539,0.7207450000000001,-0.1545155,0.7352890000000001,0.911945,-0.1919835,1.300279,0.947615,-0.2036835,0.918461,0.002915,-0.0034374999999999,1.081539,-0.002915,0.0034374999999999,0.871969,-0.2095749999999999,-0.2055934999999999,1.128309,-0.222625,-0.2126934999999999,0.917232,-0.534825,-0.0894495,1.112605,-0.537295,-0.0911875
124,1.019108,0.69538,-0.0557964999999999,0.859701,0.50343,-0.0727024999999999,0.745811,0.7099099999999999,-0.1573494999999999,1.158871,0.50084,-0.0724614999999999,1.2604009999999999,0.71964,-0.1638775,0.735781,0.91162,-0.2025305,1.299411,0.95022,-0.2141405,0.918439,0.0028199999999999,-0.0030894999999999,1.081561,-0.00282,0.0030895,0.8692610000000001,-0.19281,-0.2229305,1.130661,-0.20551,-0.2279805,0.917829,-0.51674,-0.1000134999999999,1.112812,-0.51922,-0.1009814999999999
125,1.019169,0.695495,-0.065314,0.860603,0.5033350000000001,-0.08244,0.746633,0.710685,-0.16778,1.157893,0.498725,-0.082205,1.259193,0.718305,-0.17337,0.736163,0.910175,-0.21304,1.298733,0.948435,-0.22483,0.9184680000000001,0.002735,-0.00272,1.081532,-0.0027349999999999,0.00272,0.8668629999999999,-0.176095,-0.23998,1.132973,-0.1887249999999999,-0.24322,0.918426,-0.4984449999999999,-0.110516,1.113114,-0.5009950000000001,-0.110721
126,1.019169,0.69602,-0.074939,0.8614720000000001,0.50282,-0.092199,0.7473719999999999,0.71129,-0.178474,1.156752,0.4967,-0.09197,1.257882,0.71555,-0.183075,0.736502,0.90693,-0.22321,1.298112,0.94789,-0.2355999999999999,0.918521,0.00272,-0.0021999999999999,1.081479,-0.00272,0.0022,0.8646120000000002,-0.15984,-0.25664,1.135182,-0.1715799999999999,-0.2581299999999999,0.919045,-0.48014,-0.1210239999999999,1.113393,-0.48275,-0.1204809999999999
127,1.0189055,0.696385,-0.084825,0.8621905,0.502925,-0.1019849999999999,0.7478605,0.712755,-0.1889529999999999,1.1556605,0.496065,-0.101959,1.2561205,0.715285,-0.192579,0.7365305,0.908285,-0.233565,1.2972505,0.949615,-0.246375,0.9186015,0.0026549999999999,-0.001685,1.0813985,-0.002655,0.0016849999999999,0.8621905,-0.143085,-0.273075,1.1371305,-0.154155,-0.2730249999999999,0.9194025,-0.461505,-0.13154,1.1134015,-0.464575,-0.130366
128,1.018806,0.69641,-0.0944609999999999,0.862804,0.50305,-0.1114219999999999,0.7483240000000001,0.71284,-0.1991919999999999,1.154674,0.49395,-0.1116939999999999,1.254834,0.7168300000000001,-0.2022179999999999,0.736684,0.90762,-0.24405,1.296654,0.95504,-0.25688,0.9186799999999999,0.00274,-0.0011499999999999,1.08132,-0.0027399999999999,0.00115,0.860264,-0.1271899999999999,-0.2888799999999999,1.139134,-0.1371899999999999,-0.28747,0.919811,-0.4434899999999999,-0.1418459999999999,1.113477,-0.44733,-0.1399569999999999
129,1.018659,0.694715,-0.0987479999999999,0.8634850000000001,0.501625,-0.1154339999999999,0.7486550000000001,0.711745,-0.204002,1.153265,0.491225,-0.1160519999999999,1.253585,0.717365,-0.2062009999999999,0.736765,0.903915,-0.24927,1.296005,0.958235,-0.26191,0.91873,0.0028249999999999,-0.0005799999999999,1.08127,-0.002825,0.00058,0.858375,-0.112395,-0.29935,1.141105,-0.121525,-0.2965,0.920099,-0.426845,-0.1466039999999999,1.113514,-0.431605,-0.1440419999999999
130,1.0183975,0.6921200000000001,-0.101734,0.8640295,0.49908,-0.118081,0.7488995,0.71007,-0.207535,1.1526494999999999,0.49046,-0.119388,1.2532295,0.7175,-0.209106,0.7367895,0.90406,-0.253315,1.2952795,0.95868,-0.265405,0.9188355,0.0029899999999999,-0.0005749999999999,1.0811645,-0.0029899999999999,0.0005749999999999,0.8582795,-0.0979599999999999,-0.303525,1.1418395000000001,-0.10658,-0.301185,0.9203565,-0.41159,-0.149799,1.1135905,-0.4169499999999999,-0.146736
131,1.0183845,0.6888700000000001,-0.104596,0.8644485,0.49604,-0.120703,0.7490585000000001,0.7086,-0.210967,1.1521485,0.4899,-0.122532,1.2530085,0.71799,-0.211867,0.7369585000000001,0.90522,-0.257375,1.2948485,0.95251,-0.269385,0.9188545,0.00281,-0.000545,1.0811455,-0.0028099999999999,0.0005449999999999,0.8582784999999999,-0.0821399999999999,-0.307505,1.1426685,-0.0910199999999999,-0.305465,0.9207105,-0.39635,-0.152803,1.1138025,-0.4023599999999999,-0.149177
132,1.018079,0.6861200000000001,-0.106956,0.864143,0.4959099999999999,-0.122885,0.748813,0.70787,-0.2140139999999999,1.151353,0.4866399999999999,-0.125303,1.252593,0.7155,-0.214525,0.7369330000000001,0.90587,-0.2608749999999999,1.294483,0.94771,-0.273065,0.918961,0.0030499999999999,-0.0005949999999999,1.081039,-0.0030499999999999,0.000595,0.857973,-0.06601,-0.3104449999999999,1.142983,-0.07489,-0.308585,0.920614,-0.38083,-0.155361,1.113862,-0.38685,-0.1515359999999999
133,1.0182339999999999,0.684175,-0.109103,0.8645820000000001,0.495345,-0.125245,0.748982,0.7067950000000001,-0.21677,1.151192,0.485365,-0.127698,1.252672,0.7119150000000001,-0.217743,0.7372719999999999,0.904725,-0.26429,1.2945820000000001,0.944005,-0.27646,0.918954,0.0031149999999999,-0.0005499999999999,1.081046,-0.0031149999999999,0.0005499999999999,0.858442,-0.054255,-0.31265,1.143712,-0.0622349999999999,-0.31079,0.920902,-0.364865,-0.157551,1.114381,-0.3717149999999999,-0.153783
134,1.018403,0.682545,-0.110849,0.8648899999999999,0.494465,-0.127044,0.7492099999999999,0.706455,-0.218961,1.1510799999999999,0.484605,-0.129578,1.2523900000000001,0.7101850000000001,-0.22032,0.73769,0.903675,-0.26737,1.2946900000000001,0.946865,-0.27949,0.91887,0.003395,-0.0004899999999999,1.08113,-0.0033949999999999,0.0004899999999999,0.85898,-0.0416149999999999,-0.31439,1.14442,-0.049485,-0.31253,0.921199,-0.348855,-0.159252,1.114981,-0.3564549999999999,-0.155676
135,1.018799,0.68086,-0.112228,0.8652730000000001,0.4942,-0.128323,0.749593,0.70531,-0.2206159999999999,1.151093,0.48368,-0.1308939999999999,1.252333,0.71058,-0.22214,0.7382029999999999,0.90401,-0.2700349999999999,1.294893,0.94862,-0.282165,0.9188570000000001,0.0036499999999999,-0.0004049999999999,1.081143,-0.0036499999999999,0.000405,0.8598130000000002,-0.029,-0.315705,1.145353,-0.03714,-0.313845,0.92156,-0.33332,-0.1605019999999999,1.115711,-0.3416099999999999,-0.157236
136,1.0193994999999998,0.679505,-0.1138899999999999,0.8659755,0.4926049999999999,-0.129552,0.7501555,0.7046250000000001,-0.222488,1.1512555,0.482615,-0.1323939999999999,1.2526955,0.709765,-0.2241189999999999,0.7388555,0.903645,-0.272895,1.2956155,0.949165,-0.285045,0.9189385,0.0039549999999999,-7.499999999999174e-05,1.0810615,-0.0039549999999999,7.50000000000195e-05,0.8609955,-0.016235,-0.316075,1.1464455,-0.024625,-0.314915,0.9219225,-0.3179949999999999,-0.162124,1.1163954999999999,-0.3263649999999999,-0.1586499999999999
137,1.020051,0.67953,-0.1149989999999999,0.8668130000000001,0.49284,-0.130205,0.7508230000000001,0.70562,-0.2239209999999999,1.151573,0.482928,-0.1335039999999999,1.253523,0.70612,-0.225667,0.7395430000000001,0.90447,-0.275015,1.296473,0.94504,-0.288205,0.919073,0.0041499999999999,0.000195,1.080927,-0.0041499999999999,-0.0001949999999999,0.8622529999999999,-0.0022699999999999,-0.315995,1.147663,-0.0106899999999999,-0.314965,0.9222980000000001,-0.30166,-0.1632729999999999,1.1170930000000001,-0.31017,-0.1595639999999999
138,1.0207255,0.6795599999999999,-0.1156869999999999,0.8674465,0.492202,-0.1303679999999999,0.7513164999999999,0.70607,-0.225158,1.1520865,0.482044,-0.13401,1.2537965,0.70253,-0.226858,0.7400964999999999,0.90423,-0.27658,1.2972065,0.94053,-0.29084,0.9191845,0.0042299999999999,0.0005,1.0808155,-0.00423,-0.0005,0.8633265,0.0111599999999999,-0.31543,1.1487965,0.0027299999999999,-0.31455,0.9224815000000001,-0.2861100000000001,-0.1639979999999999,1.1176465,-0.2945500000000001,-0.159966
139,1.0218189999999998,0.678805,-0.116285,0.868541,0.493112,-0.130703,0.752221,0.705995,-0.22631,1.152861,0.482284,-0.134448,1.254341,0.701125,-0.227902,0.7409410000000001,0.902925,-0.278305,1.298131,0.937085,-0.2935149999999999,0.919223,0.004155,0.000805,1.080777,-0.0041549999999999,-0.000805,0.8647210000000001,0.024415,-0.314805,1.150061,0.015705,-0.314105,0.922986,-0.2712249999999999,-0.164713,1.118501,-0.2796349999999999,-0.160487
140,1.0229255,0.67972,-0.116926,0.8696445000000002,0.493986,-0.130854,0.7531945,0.7075,-0.226964,1.1538045000000001,0.481875,-0.134433,1.2554245,0.69946,-0.228894,0.7418545000000001,0.90309,-0.27998,1.2988845,0.94078,-0.29551,0.9192575000000001,0.0042599999999999,0.00112,1.0807425,-0.0042599999999999,-0.00112,0.8659045,0.03894,-0.31401,1.1512645,0.02978,-0.3133599999999999,0.9235265,-0.25557,-0.165368,1.1193545,-0.2639499999999999,-0.161141
141,1.0238675,0.678995,-0.1171819999999999,0.8707155,0.494589,-0.1307149999999999,0.7540755,0.7077450000000001,-0.2273569999999999,1.1544755,0.4838,-0.1341349999999999,1.2558855,0.700015,-0.2296099999999999,0.7423854999999999,0.902215,-0.2817349999999999,1.2992555000000001,0.942445,-0.297165,0.9193495,0.0040649999999999,0.001285,1.0806505,-0.0040649999999999,-0.0012849999999999,0.8668255,0.0519149999999999,-0.312725,1.1521855,0.042345,-0.312215,0.9239195,-0.2418149999999999,-0.1656439999999999,1.1200355,-0.250095,-0.1615349999999999
142,1.0250485,0.6778949999999999,-0.11718,0.8721015,0.494992,-0.130436,0.7551415000000001,0.706735,-0.227596,1.1550814999999999,0.485132,-0.133802,1.2566215,0.702415,-0.230743,0.7431415,0.905075,-0.283225,1.3000015,0.943155,-0.298715,0.9193255,0.0039249999999999,0.001395,1.0806745,-0.003925,-0.001395,0.8678715,0.0637049999999999,-0.311045,1.1533515,0.0536949999999999,-0.3104449999999999,0.9245755,-0.2293049999999999,-0.165777,1.1209715,-0.237585,-0.161615
143,1.026279,0.67653,-0.1169419999999999,0.8735710000000001,0.495937,-0.1300359999999999,0.7563310000000001,0.70312,-0.227677,1.155811,0.486158,-0.133289,1.257311,0.70341,-0.231593,0.7439009999999999,0.90702,-0.2843799999999999,1.300701,0.94163,-0.29998,0.9193709999999999,0.0036499999999999,0.0014699999999999,1.080629,-0.0036499999999999,-0.0014699999999999,0.8689910000000001,0.0738099999999999,-0.3091899999999999,1.154641,0.06377,-0.30837,0.925286,-0.2182699999999999,-0.1655589999999999,1.121931,-0.22663,-0.161525
144,1.0275385,0.675905,-0.1162599999999999,0.8753525,0.4961259999999999,-0.1294179999999999,0.7574225,0.702995,-0.2277739999999999,1.1573925,0.4874179999999999,-0.1325059999999999,1.2581525,0.704835,-0.232217,0.7447825,0.906285,-0.28542,1.3015525000000001,0.941575,-0.30122,0.9194725,0.0032849999999999,0.0014699999999999,1.0805275,-0.0032849999999999,-0.0014699999999999,0.8701525,0.0854149999999999,-0.3063599999999999,1.1559425,0.0754349999999999,-0.30562,0.9261275,-0.205615,-0.164677,1.1230025,-0.214045,-0.1613139999999999
145,1.0281515,0.67496,-0.1155429999999999,0.8764015,0.497294,-0.1288699999999999,0.7578215,0.7014900000000001,-0.227983,1.1584315,0.4888930000000001,-0.1318499999999999,1.2580515,0.7063600000000001,-0.2330249999999999,0.7451215,0.90637,-0.2863949999999999,1.3018915,0.93482,-0.3031149999999999,0.9196315,0.00284,0.001485,1.0803685,-0.0028399999999999,-0.0014849999999999,0.8704815000000001,0.09575,-0.304755,1.1566615,0.08608,-0.3036949999999999,0.9264745,-0.1944499999999999,-0.1632179999999999,1.1233715,-0.2028799999999999,-0.1611189999999999
146,1.0286879999999998,0.6738600000000001,-0.11456,0.877246,0.497641,-0.128052,0.758096,0.70035,-0.228088,1.159666,0.489161,-0.130778,1.258426,0.71048,-0.233738,0.745396,0.90669,-0.287245,1.302036,0.93367,-0.3040049999999999,0.9197760000000001,0.00268,0.001615,1.0802239999999999,-0.0026799999999999,-0.001615,0.870756,0.10521,-0.302765,1.157346,0.09579,-0.3020549999999999,0.9269890000000001,-0.1840899999999999,-0.16085,1.123646,-0.1923799999999998,-0.160744
147,1.0291489999999999,0.6733100000000001,-0.113408,0.87808,0.4989430000000001,-0.127112,0.7583700000000001,0.7005800000000001,-0.227955,1.16094,0.4898570000000001,-0.129742,1.25869,0.7138300000000001,-0.234324,0.7456600000000001,0.90876,-0.28791,1.30202,0.93244,-0.30487,0.91989,0.00274,0.0018199999999999,1.08011,-0.0027399999999999,-0.00182,0.871,0.11482,-0.30056,1.1580300000000001,0.10549,-0.30033,0.92754,-0.1737999999999999,-0.158158,1.1239,-0.1822099999999998,-0.159644
148,1.0294014999999999,0.6722899999999999,-0.11168,0.8784065,0.499731,-0.125444,0.7583865,0.70017,-0.2273919999999999,1.1620165,0.490432,-0.12821,1.2587865,0.7153,-0.23436,0.7456665,0.91004,-0.2877849999999999,1.3018265,0.93008,-0.3050549999999999,0.9200565,0.0029599999999999,0.0017749999999999,1.0799435,-0.0029599999999999,-0.0017749999999999,0.8709365,0.1231899999999999,-0.297495,1.1586165,0.1139799999999999,-0.298355,0.9279165,-0.1648,-0.154882,1.1239465,-0.17328,-0.157996
149,1.0298695,0.6704,-0.110263,0.8791435,0.500416,-0.124222,0.7586835000000001,0.69901,-0.226864,1.1632735,0.490945,-0.127047,1.2595235,0.7127,-0.23475,0.7458935000000001,0.90985,-0.287795,1.3017235,0.92677,-0.3054949999999999,0.9200935,0.00312,0.001705,1.0799065,-0.00312,-0.0017049999999999,0.8711735,0.13023,-0.294685,1.1595035,0.12112,-0.296035,0.9285915,-0.15713,-0.151464,1.1241335,-0.1657499999999999,-0.156269
150,1.0303325,0.668185,-0.109209,0.8798205,0.501007,-0.123348,0.7588305,0.696815,-0.226828,1.1645205,0.4910629999999999,-0.126272,1.2602505,0.709605,-0.235355,0.7461205,0.908125,-0.28792,1.3016405,0.922325,-0.30639,0.9201105,0.003295,0.0017099999999999,1.0798895,-0.003295,-0.0017099999999999,0.8713905,0.1361649999999999,-0.29215,1.1605405,0.1271749999999999,-0.29402,0.9292945,-0.150625,-0.148396,1.1243005,-0.1593149999999999,-0.154677
151,1.03079,0.66722,-0.108236,0.8804930000000001,0.50185,-0.1226,0.758933,0.6967,-0.226673,1.165743,0.490856,-0.125552,1.260853,0.70761,-0.235621,0.7463230000000001,0.90701,-0.288065,1.301693,0.91916,-0.307455,0.920153,0.0035199999999999,0.0017149999999999,1.079847,-0.0035199999999999,-0.0017149999999999,0.871633,0.14281,-0.289205,1.161803,0.13385,-0.291965,0.930044,-0.1433999999999999,-0.145346,1.124443,-0.15203,-0.15325
152,1.0310485,0.666291,-0.107406,0.8809785000000001,0.502112,-0.122044,0.7588885,0.698295,-0.226564,1.1667584999999998,0.490687,-0.124943,1.2611585,0.705665,-0.235931,0.7462485,0.905915,-0.288755,1.3016885,0.916805,-0.308605,0.9203185,0.003645,0.0017149999999999,1.0796815,-0.003645,-0.0017149999999999,0.8716984999999999,0.1495449999999999,-0.286195,1.1629085,0.1406049999999999,-0.290025,0.9306295,-0.1360749999999999,-0.142499,1.1243285,-0.1446049999999999,-0.151801
153,1.0312845,0.665197,-0.107051,0.8814745000000002,0.503019,-0.121755,0.7590045000000001,0.697535,-0.226389,1.1676045,0.490519,-0.124348,1.2615045,0.7031449999999999,-0.236188,0.7463045000000001,0.906865,-0.28957,1.3017645,0.912615,-0.30986,0.9204945,0.0038749999999999,0.0017099999999999,1.0795055,-0.003875,-0.00171,0.8717445,0.1537949999999999,-0.2841,1.1640345,0.145015,-0.28893,0.9312565,-0.131265,-0.140216,1.1242845,-0.1397749999999999,-0.150258
154,1.031462,0.6645449999999999,-0.106886,0.881888,0.504195,-0.12159,0.759028,0.6977049999999999,-0.226493,1.1684379999999999,0.4899319999999999,-0.1238459999999999,1.261638,0.7001449999999999,-0.236401,0.746348,0.907455,-0.290365,1.301858,0.914575,-0.310745,0.920668,0.0042449999999999,0.001765,1.079332,-0.004245,-0.0017649999999999,0.871768,0.1574149999999999,-0.282355,1.165058,0.1487249999999999,-0.287865,0.93181,-0.127205,-0.138514,1.124318,-0.135595,-0.1489359999999999
155,1.031584,0.66393,-0.106836,0.8822220000000001,0.504756,-0.121539,0.758852,0.696975,-0.226942,1.168782,0.489719,-0.123795,1.2617720000000001,0.697055,-0.236654,0.746352,0.907045,-0.291325,1.301882,0.915135,-0.311835,0.9208020000000001,0.004345,0.0017749999999999,1.0791979999999999,-0.004345,-0.0017749999999999,0.871732,0.1592449999999999,-0.281285,1.165842,0.150605,-0.287035,0.932048,-0.1252649999999999,-0.137897,1.124202,-0.133495,-0.147741
156,1.031923,0.6639309999999999,-0.1068259999999999,0.882765,0.5049819999999999,-0.121528,0.758915,0.696255,-0.2275729999999999,1.1691049999999998,0.489289,-0.1237849999999999,1.262665,0.693935,-0.2372909999999999,0.7465649999999999,0.906045,-0.292545,1.3021749999999999,0.914675,-0.312975,0.9208149999999999,0.0044349999999999,0.001785,1.079185,-0.004435,-0.0017849999999999,0.871915,0.159765,-0.2808549999999999,1.166625,0.1510849999999999,-0.286435,0.9324209999999999,-0.124715,-0.137674,1.124245,-0.132815,-0.14676
157,1.0322565,0.6639309999999999,-0.1068969999999999,0.8832275,0.5049819999999999,-0.1215909999999999,0.7588975,0.696255,-0.228323,1.1693375,0.489289,-0.1237849999999999,1.2632475,0.691835,-0.237834,0.7467475,0.905635,-0.2937849999999999,1.3023875,0.914025,-0.3141549999999999,0.9208275,0.0044349999999999,0.001785,1.0791725,-0.004435,-0.0017849999999999,0.8721175000000001,0.159765,-0.2808549999999999,1.1669375,0.1510349999999999,-0.285995,0.9326535,-0.124715,-0.137674,1.1242175,-0.1327249999999999,-0.1461319999999999
158,1.0323225,0.6639309999999999,-0.1075179999999999,0.8835175000000001,0.5049819999999999,-0.122,0.7587775,0.696255,-0.229256,1.1693775,0.489289,-0.1239519999999999,1.2632875000000001,0.691835,-0.2383989999999999,0.7467275,0.905635,-0.29528,1.3024275,0.914025,-0.3155,0.9207875,0.0044349999999999,0.0018299999999999,1.0792125,-0.004435,-0.0018299999999999,0.8721575,0.1595749999999999,-0.2809399999999999,1.1669775,0.1510649999999999,-0.28598,0.9326935,-0.124785,-0.137759,1.1240775,-0.1327249999999999,-0.146037
159,1.0324065,0.6639309999999999,-0.108634,0.8837875,0.5049819999999999,-0.12264,0.7588175,0.696255,-0.230422,1.1694075,0.489289,-0.12445,1.2633174999999999,0.691835,-0.239117,0.7466775,0.905635,-0.296865,1.3024974999999999,0.914025,-0.316875,0.9207575,0.0044349999999999,0.001845,1.0792424999999999,-0.004435,-0.0018449999999999,0.8721875,0.1594749999999999,-0.281085,1.1670075,0.1511249999999999,-0.2861249999999999,0.9327035,-0.124885,-0.137913,1.1239375,-0.1327249999999999,-0.146182
160,1.0324259999999998,0.664984,-0.110175,0.884021,0.504802,-0.123691,0.758811,0.695535,-0.231673,1.169351,0.4887229999999999,-0.125474,1.263311,0.690785,-0.240001,0.746631,0.904585,-0.29879,1.302521,0.912975,-0.31829,0.920751,0.0044549999999999,0.0018299999999999,1.079249,-0.0044549999999999,-0.0018299999999999,0.8721909999999999,0.1583649999999999,-0.28167,1.167001,0.1501449999999999,-0.28647,0.932616,-0.126145,-0.138604,1.123821,-0.1337749999999999,-0.146527
161,1.0324229999999999,0.6653610000000001,-0.113324,0.8841800000000001,0.503021,-0.126373,0.75858,0.6937700000000001,-0.234267,1.1689,0.4872550000000001,-0.128355,1.26309,0.6890100000000001,-0.242092,0.7464500000000001,0.9013600000000002,-0.30167,1.3024499999999999,0.91286,-0.32111,0.92067,0.00445,0.0017199999999999,1.07933,-0.0044499999999999,-0.0017199999999999,0.87233,0.15375,-0.28391,1.16659,0.1458000000000001,-0.28806,0.932083,-0.1307899999999999,-0.141673,1.1235899999999999,-0.1384299999999999,-0.148108
162,1.0323055,0.66811,-0.1167679999999999,0.8841065,0.501307,-0.1290339999999999,0.7582365000000001,0.6946399999999999,-0.2369419999999999,1.1684265,0.485552,-0.131262,1.2626665,0.69129,-0.244665,0.7458065,0.90301,-0.305115,1.3022965,0.91581,-0.324725,0.9205365,0.0044699999999999,0.0016349999999999,1.0794635,-0.0044699999999999,-0.0016349999999999,0.8726065000000001,0.1490099999999999,-0.286265,1.1657365,0.1412999999999999,-0.2897849999999999,0.9315015,-0.1355699999999999,-0.145147,1.1233465,-0.14351,-0.149558
163,1.031845,0.67073,-0.121157,0.883656,0.497368,-0.132266,0.757816,0.69324,-0.240132,1.167366,0.486741,-0.1351399999999999,1.261756,0.6936100000000001,-0.248905,0.744756,0.90263,-0.309235,1.301586,0.91581,-0.329045,0.920536,0.0037599999999999,0.001365,1.079464,-0.0037599999999999,-0.001365,0.872656,0.14099,-0.2897349999999999,1.164076,0.13349,-0.292415,0.930565,-0.14368,-0.149281,1.122796,-0.1519699999999999,-0.151662
164,1.0313455,0.6704150000000001,-0.125393,0.8831595,0.4947020000000001,-0.136031,0.7570495000000002,0.6914450000000001,-0.243567,1.1657895,0.484128,-0.139273,1.2605895,0.692675,-0.252937,0.7434395,0.9000750000000001,-0.3133,1.3008295,0.912135,-0.33346,0.9205395,0.003615,0.0012699999999999,1.0794605,-0.0036149999999999,-0.00127,0.8727495000000001,0.1265150000000001,-0.29383,1.1622495,0.119115,-0.29519,0.9295835,-0.1583449999999999,-0.153289,1.1221895,-0.1670949999999998,-0.153678
165,1.0307864999999998,0.671285,-0.129161,0.8826075,0.491802,-0.139504,0.7558775,0.690525,-0.247023,1.1643375,0.482592,-0.14307,1.2592175,0.692625,-0.256837,0.7419074999999999,0.8982950000000001,-0.317065,1.3000275,0.914725,-0.338155,0.9205875,0.003545,0.0012549999999999,1.0794125,-0.003545,-0.001255,0.8729275,0.111105,-0.297805,1.1603475,0.103825,-0.297805,0.9285395,-0.173945,-0.157243,1.1215075,-0.183305,-0.155702
166,1.0302395,0.6741649999999999,-0.132348,0.8821675,0.4886979999999999,-0.142426,0.7549575,0.690325,-0.249418,1.1628875,0.4805219999999999,-0.146555,1.2580175,0.692655,-0.259663,0.7405075,0.902185,-0.320265,1.2994175000000001,0.917245,-0.342475,0.9208775,0.0035149999999999,0.0011849999999999,1.0791225,-0.003515,-0.0011849999999999,0.8732875,0.0955449999999999,-0.301245,1.1587075,0.0883749999999999,-0.300295,0.9277065,-0.190295,-0.160801,1.1210535,-0.2002250000000001,-0.157233
167,1.0289499999999998,0.674945,-0.134175,0.881233,0.4872579999999999,-0.144251,0.7532930000000001,0.689855,-0.250422,1.161043,0.480066,-0.148896,1.2562229999999999,0.6926749999999999,-0.260904,0.7385730000000001,0.902565,-0.322195,1.298273,0.917325,-0.345435,0.920742,0.0034549999999999,0.001085,1.079258,-0.0034549999999999,-0.001085,0.873093,0.076245,-0.304175,1.156623,0.0692149999999999,-0.302345,0.926479,-0.2106549999999999,-0.16318,1.12014,-0.220895,-0.157672
168,1.027469,0.67724,-0.135005,0.8801860000000001,0.486434,-0.145887,0.751626,0.68998,-0.25133,1.159136,0.4809759999999999,-0.151033,1.254336,0.69375,-0.262764,0.736266,0.90367,-0.3233749999999999,1.296906,0.91805,-0.348445,0.9205650000000001,0.0032899999999999,0.0010249999999999,1.079435,-0.00329,-0.0010249999999999,0.872896,0.0573499999999999,-0.306745,1.154556,0.0500899999999999,-0.304465,0.925181,-0.23134,-0.165381,1.119127,-0.24158,-0.15807
169,1.0258745,0.6792050000000001,-0.135582,0.8790625,0.487987,-0.147235,0.7499425,0.689835,-0.251989,1.1570825,0.48424,-0.152721,1.2525525,0.694545,-0.264512,0.7337525,0.903945,-0.323695,1.2951825,0.921765,-0.3499649999999999,0.9203705000000001,0.003145,0.0010249999999999,1.0796294999999998,-0.003145,-0.0010249999999999,0.8726825,0.037785,-0.308925,1.1524825,0.030135,-0.306425,0.9240145,-0.253555,-0.166856,1.1181305,-0.263845,-0.158246
170,1.0239025,0.6794800000000001,-0.135641,0.8776285,0.486981,-0.147923,0.7479085000000001,0.6900900000000001,-0.252496,1.1553285,0.483431,-0.153777,1.2507285000000001,0.69352,-0.266173,0.7307285,0.90483,-0.323705,1.2932785,0.92028,-0.351605,0.9200045,0.00305,0.0010249999999999,1.0799954999999999,-0.0030499999999999,-0.0010249999999999,0.8720985,0.01618,-0.310705,1.1502985,0.00827,-0.308395,0.9228315,-0.27805,-0.167649,1.1168735,-0.28855,-0.158464
171,1.021931,0.680955,-0.135648,0.876238,0.487749,-0.1483229999999999,0.745788,0.689805,-0.252611,1.1533479999999998,0.484239,-0.154655,1.249268,0.693935,-0.266908,0.728038,0.901945,-0.32371,1.291448,0.919365,-0.35199,0.919739,0.0029949999999999,0.00102,1.080261,-0.002995,-0.0010199999999999,0.871388,-0.004865,-0.31161,1.148328,-0.013705,-0.3096799999999999,0.921679,-0.3032250000000001,-0.168089,1.115615,-0.313875,-0.1588679999999999
172,1.0199859999999998,0.68154,-0.134886,0.874391,0.49099,-0.148107,0.743681,0.69138,-0.25185,1.151531,0.48317,-0.154358,1.247811,0.69389,-0.266332,0.725511,0.90315,-0.322955,1.289861,0.92397,-0.351225,0.91931,0.0033799999999999,0.000945,1.08069,-0.0033799999999999,-0.000945,0.8706610000000001,-0.02606,-0.311115,1.146531,-0.0356199999999999,-0.309345,0.920572,-0.32877,-0.167858,1.114492,-0.33965,-0.158435
173,1.0180535,0.685935,-0.1324489999999999,0.8719265,0.493675,-0.1458559999999999,0.7414065000000001,0.6943549999999999,-0.249413,1.1501265,0.4858049999999999,-0.151919,1.2467565,0.6966749999999999,-0.263892,0.7231164999999999,0.905725,-0.320195,1.2882065,0.931795,-0.348785,0.9188715000000001,0.0033249999999999,0.0009049999999999,1.0811285,-0.003325,-0.0009049999999999,0.8698565,-0.042255,-0.308675,1.1446665,-0.052315,-0.306915,0.9194835000000001,-0.3500150000000001,-0.165881,1.1134385,-0.3608950000000001,-0.156396
174,1.0160794999999998,0.6893050000000001,-0.129002,0.8694485000000001,0.497735,-0.143349,0.7393385,0.6960550000000001,-0.246516,1.1485884999999998,0.487815,-0.149145,1.2455384999999999,0.698075,-0.261117,0.7205985000000001,0.906325,-0.3157,1.2863384999999998,0.931035,-0.34602,0.9184734999999999,0.003065,0.00104,1.0815265,-0.0030649999999999,-0.00104,0.8690285,-0.0597349999999999,-0.3059,1.1425085,-0.0706049999999999,-0.3041399999999999,0.9179245,-0.3739449999999999,-0.16433,1.1122845,-0.384545,-0.154062
175,1.014131,0.69099,-0.123953,0.8665030000000001,0.50122,-0.1399719999999999,0.7371030000000001,0.6972499999999999,-0.2429589999999999,1.146903,0.49053,-0.145586,1.2441229999999999,0.7006600000000001,-0.256746,0.717803,0.905,-0.3097999999999999,1.284213,0.92968,-0.34221,0.918064,0.0027499999999999,0.00134,1.081936,-0.00275,-0.0013399999999999,0.868243,-0.0783099999999999,-0.30234,1.140063,-0.08949,-0.3005799999999999,0.916243,-0.3987699999999999,-0.1621729999999999,1.111078,-0.40869,-0.151076
176,1.0126825,0.6940949999999999,-0.1180499999999999,0.8637635000000001,0.5025949999999999,-0.1357449999999999,0.7353035,0.697985,-0.2376709999999999,1.1454135,0.4918849999999999,-0.141259,1.2425935,0.702155,-0.251577,0.7153235,0.904545,-0.3030699999999999,1.2824635,0.928935,-0.3371699999999999,0.9179285000000001,0.0023349999999999,0.0016,1.0820714999999999,-0.002335,-0.0015999999999999,0.8678035,-0.094565,-0.2973599999999999,1.1376935,-0.106195,-0.29622,0.9147405,-0.421385,-0.159548,1.1101175,-0.4307850000000001,-0.148222
177,1.0112935,0.69624,-0.1119749999999999,0.8609345000000002,0.5044,-0.131346,0.7334645,0.70028,-0.2326889999999999,1.1439445,0.49184,-0.1367109999999999,1.2409945,0.70423,-0.2458759999999999,0.7130845,0.90348,-0.2961049999999999,1.2808545,0.92649,-0.3308149999999999,0.9180524999999999,0.00206,0.001705,1.0819475,-0.00206,-0.0017049999999999,0.8674045000000001,-0.11129,-0.2921049999999999,1.1352445,-0.1231599999999999,-0.291375,0.9130685000000001,-0.44419,-0.1574189999999999,1.1092625,-0.45306,-0.145563
178,1.0097075,0.69721,-0.105395,0.8576265000000001,0.50613,-0.126555,0.7314465,0.70184,-0.227193,1.1421265,0.49043,-0.131671,1.2400865,0.70643,-0.239923,0.7106565,0.90278,-0.288335,1.2793765,0.92188,-0.323435,0.9180695,0.0018299999999999,0.0017449999999999,1.0819305,-0.00183,-0.0017449999999999,0.8667665,-0.12802,-0.286035,1.1327065,-0.13978,-0.285355,0.9109975,-0.4662699999999999,-0.154864,1.1081195,-0.4745399999999999,-0.142575
179,1.0084485,0.70262,-0.099384,0.8546805,0.51181,-0.122168,0.7298605,0.70491,-0.222195,1.1407005,0.49511,-0.127166,1.2391005,0.7153700000000001,-0.23426,0.7086905,0.90772,-0.28099,1.2784205,0.92846,-0.31515,0.9183045,0.00151,0.0016999999999999,1.0816955,-0.0015099999999999,-0.0017,0.8665805,-0.14044,-0.27958,1.1304705,-0.15176,-0.2791,0.9090825,-0.48389,-0.153176,1.1075005,-0.49115,-0.140651
180,1.0072245,0.70556,-0.093012,0.8517065,0.51524,-0.117184,0.7284765,0.70743,-0.216206,1.1394564999999999,0.49748,-0.1222579999999999,1.2381265,0.71785,-0.228024,0.7069065,0.91031,-0.273405,1.2775565,0.93311,-0.306475,0.9185475,0.00114,0.001535,1.0814525,-0.00114,-0.001535,0.8665665,-0.1543199999999999,-0.272375,1.1282665,-0.16458,-0.271735,0.9068235,-0.5021,-0.152036,1.1071265,-0.50846,-0.138104
181,1.00594,0.710295,-0.086861,0.849291,0.519985,-0.1122989999999999,0.727121,0.710115,-0.210474,1.138121,0.5011650000000001,-0.117168,1.237251,0.721005,-0.2221739999999999,0.705151,0.912335,-0.26614,1.276921,0.936635,-0.29838,0.918981,0.000905,0.00152,1.081019,-0.0009049999999999,-0.0015199999999999,0.866691,-0.1665749999999999,-0.26456,1.126101,-0.176145,-0.26383,0.904441,-0.518635,-0.15113,1.106991,-0.524215,-0.1361119999999999
182,1.004562,0.71385,-0.080627,0.847047,0.52362,-0.107408,0.725717,0.71256,-0.204769,1.136707,0.5057400000000001,-0.112038,1.236407,0.72405,-0.216602,0.703357,0.91449,-0.25912,1.276397,0.93971,-0.29049,0.919638,0.0005,0.0015099999999999,1.080362,-0.0005,-0.00151,0.866357,-0.17847,-0.2561,1.123597,-0.1876499999999999,-0.25513,0.9018470000000001,-0.53431,-0.150213,1.106827,-0.53922,-0.133987
183,1.0034385,0.71772,-0.074595,0.8450195,0.5252600000000001,-0.102532,0.7245895,0.7151799999999999,-0.198991,1.1354294999999999,0.5097200000000001,-0.106864,1.2356995,0.72729,-0.209811,0.7018195,0.91732,-0.25234,1.2758494999999999,0.94379,-0.28234,0.9202565,0.00027,0.00124,1.0797435,-0.0002699999999999,-0.00124,0.8661095,-0.1894899999999999,-0.2473199999999999,1.1210295,-0.19807,-0.24566,0.8995795,-0.54799,-0.148192,1.1068794999999998,-0.5525100000000001,-0.130448
184,1.0021715,0.722675,-0.068837,0.8434095,0.527725,-0.097645,0.7235294999999999,0.718675,-0.193359,1.1342995,0.5131950000000001,-0.101783,1.2348295,0.730355,-0.203294,0.7004395,0.922335,-0.2462499999999999,1.2755395,0.948865,-0.27443,0.9208085,5.000000000005e-06,0.0010099999999999,1.0791915,-5.000000000005e-06,-0.0010099999999999,0.8655695,-0.199605,-0.239,1.1184295,-0.207855,-0.2364399999999999,0.8972995,-0.560395,-0.14599,1.1068695,-0.564855,-0.126326
185,1.0009284999999999,0.7277545,-0.063967,0.8417095,0.5308745,-0.093409,0.7224794999999999,0.7237345000000001,-0.188413,1.1330594999999999,0.5162145,-0.097396,1.2340795,0.7352745,-0.197242,0.6990795000000001,0.9292345,-0.2407699999999999,1.2748495,0.9561345,-0.26713,0.9214665,-0.0001614999999999,0.0006199999999999,1.0785335,0.0001614999999999,-0.0006199999999999,0.8651995,-0.2075555,-0.23137,1.1158795,-0.2162454999999999,-0.22746,0.8942195,-0.5705455,-0.144147,1.1065295,-0.5755055,-0.121945
186,1.000065,0.731938,-0.059192,0.8406359999999999,0.535728,-0.089466,0.721966,0.724768,-0.183465,1.132566,0.524958,-0.092859,1.233636,0.737008,-0.19163,0.698326,0.933708,-0.23541,1.274676,0.962798,-0.26022,0.921921,-0.000535,0.0002999999999999,1.078079,0.0005349999999999,-0.0002999999999999,0.865476,-0.2161519999999999,-0.22263,1.1136759999999999,-0.225102,-0.21682,0.8923260000000001,-0.581052,-0.140139,1.106716,-0.586642,-0.117843
187,0.99944,0.737072,-0.0555789999999999,0.8400480000000001,0.538362,-0.086334,0.7216279999999999,0.727452,-0.179852,1.132658,0.5325920000000001,-0.0892439999999999,1.233868,0.740452,-0.187826,0.697928,0.939192,-0.2314449999999999,1.274798,0.969442,-0.255065,0.922026,-0.000938,0.000105,1.077974,0.000938,-0.0001049999999999,0.8661179999999999,-0.226288,-0.214575,1.111708,-0.236848,-0.206575,0.892418,-0.592298,-0.1365239999999999,1.106808,-0.597738,-0.114228
188,0.9990045000000001,0.741436,-0.052406,0.8394855,0.541006,-0.083623,0.7212355000000001,0.729706,-0.176678,1.1327455,0.538416,-0.086194,1.2339555,0.744196,-0.184651,0.6976255,0.940056,-0.22807,1.2749755,0.968266,-0.25113,0.9221235,-0.001235,1.999999999999225e-05,1.0778765,0.001235,-2.0000000000006124e-05,0.8667655,-0.2360939999999999,-0.20657,1.1096055,-0.248554,-0.195844,0.8925055000000001,-0.6031139999999999,-0.133349,1.1069055,-0.6092839999999999,-0.111053
189,0.998972,0.7443385,-0.0487565,0.83935,0.5420685,-0.0802985,0.72115,0.7302885,-0.1730825,1.1332,0.5432285,-0.0827515,1.23491,0.7468484999999999,-0.1811605,0.69771,0.9404985,-0.2243085,1.2754299999999998,0.9636485,-0.2468185,0.92259,-0.0008635,-0.0002275,1.07741,0.0008634999999999,0.0002274999999999,0.86824,-0.2472115,-0.1962665,1.10792,-0.2611415,-0.1841655,0.89296,-0.6147715,-0.1296975,1.10736,-0.6220115,-0.1068865
190,0.999805,0.742125,-0.038335,0.839466,0.5396150000000001,-0.069964,0.721606,0.7258650000000001,-0.162192,1.134706,0.542815,-0.072303,1.236216,0.744075,-0.170247,0.698546,0.937085,-0.213384,1.2765360000000001,0.952735,-0.235244,0.9229670000000001,-0.0006099999999999,-0.000811,1.077033,0.00061,0.0008109999999999,0.872426,-0.263955,-0.174353,1.106466,-0.278165,-0.162863,0.894246,-0.6318349999999999,-0.11478,1.108466,-0.639705,-0.092851
191,1.0005635,0.740491,-0.0283839999999999,0.8398605,0.537991,-0.0601459999999999,0.7220405000000001,0.7219209999999999,-0.15191,1.1363105,0.5420309999999999,-0.0623709999999999,1.2380905,0.742761,-0.160055,0.6994005000000001,0.934971,-0.202935,1.2775705,0.949121,-0.2229249999999999,0.9233565,-0.000304,-0.0013719999999999,1.0766435,0.000304,0.001372,0.8766005,-0.2796289999999999,-0.153272,1.1052875,-0.293469,-0.142365,0.8957605,-0.647679,-0.09983,1.1093905,-0.655819,-0.078497
192,1.0012219999999998,0.73867,-0.019333,0.840226,0.53677,-0.050973,0.7224560000000001,0.71862,-0.142736,1.1378059999999999,0.54196,-0.053086,1.239806,0.74153,-0.1503519999999999,0.7002360000000001,0.93375,-0.193031,1.278526,0.94664,-0.211011,0.923674,-4.800000000000117e-05,-0.0018989999999999,1.076326,4.799999999999943e-05,0.0018989999999999,0.880846,-0.29401,-0.1332539999999999,1.104194,-0.30698,-0.122538,0.8975760000000002,-0.66211,-0.084162,1.110096,-0.67025,-0.064316
193,1.002152,0.7356315,-0.010264,0.841092,0.5354615,-0.041969,0.723142,0.7145815,-0.133775,1.1399119999999998,0.5422415,-0.043883,1.240972,0.7397515,-0.140539,0.7014020000000001,0.9271715,-0.183518,1.279512,0.9440815,-0.199148,0.923947,0.0002325,-0.002429,1.076053,-0.0002325,0.002429,0.885462,-0.3078385,-0.112667,1.103435,-0.3201985,-0.102528,0.899972,-0.6760185,-0.067844,1.110822,-0.6842285,-0.049605
194,1.0032025,0.7324419999999999,-0.0013144999999999,0.8422815000000001,0.5339119999999999,-0.0332094999999999,0.7239915,0.709812,-0.1247824999999999,1.1421815,0.542782,-0.0347484999999999,1.2425215,0.738132,-0.1312025,0.7026615,0.921372,-0.1737915,1.2808115,0.941332,-0.1872915,0.9240405,0.000493,-0.0029364999999999,1.0759595,-0.000493,0.0029365,0.8902015,-0.320968,-0.0917355,1.1026545,-0.333418,-0.0825545,0.9026215000000001,-0.689288,-0.0514595,1.1115715,-0.6978380000000001,-0.0346335
195,1.004268,0.729033,0.0074784999999999,0.843486,0.529853,-0.0242235,0.724896,0.7069230000000001,-0.1161255,1.1443159999999999,0.5381830000000001,-0.0256705,1.2442559999999998,0.7384130000000001,-0.1224455,0.703866,0.918003,-0.1640755,1.281916,0.940603,-0.1758855,0.924131,0.0008939999999999,-0.0034175,1.075869,-0.0008939999999999,0.0034174999999999,0.894916,-0.331737,-0.0715805,1.101869,-0.344557,-0.0639155,0.905376,-0.7001269999999999,-0.0354075,1.112266,-0.708907,-0.0205805
196,1.005276,0.7254475,0.0163615,0.84462,0.5264675,-0.0155295,0.72587,0.7035075,-0.1072695,1.14639,0.5339575,-0.0164935,1.24609,0.7373475,-0.1136155,0.70501,0.9143875,-0.1542485,1.28292,0.9399375,-0.1641585,0.924199,0.0013335,-0.0039275,1.075801,-0.0013335,0.0039275,0.8995500000000001,-0.3414125,-0.0512004999999999,1.101056,-0.3555725,-0.0452165,0.90811,-0.7107225,-0.0191005,1.1129,-0.7197525,-0.0064445
197,1.006323,0.721423,0.025317,0.845728,0.523353,-0.00685,0.726918,0.700143,-0.098312,1.148468,0.530273,-0.007231,1.247918,0.733833,-0.104853,0.7063079999999999,0.911023,-0.144323,1.2840479999999999,0.939783,-0.152443,0.9241,0.001767,-0.004479,1.0759,-0.0017669999999999,0.004479,0.9047080000000001,-0.351097,-0.030905,1.100361,-0.366287,-0.026798,0.911718,-0.721187,-0.002515,1.113568,-0.729737,0.0077529999999999
198,1.0068505,0.7184665,0.0332955,0.8463365,0.5222165,0.0007994999999999,0.7275165,0.6979265,-0.0903715,1.1498765,0.5285265,0.0009774999999999,1.2491765,0.7323664999999999,-0.0970655,0.7071765,0.9097265,-0.1354315,1.2848365,0.9433665,-0.1418715,0.9239625,0.0015224999999999,-0.0047825,1.0760375,-0.0015225,0.0047825,0.9083965,-0.3597235,-0.0128375,1.0991275,-0.3761735,-0.0095455,0.9143665,-0.7305035000000001,0.0117885,1.1138165,-0.7386035000000001,0.0205765
199,1.0067755,0.719443,0.0341859999999999,0.8463925000000001,0.5227930000000001,0.000923,0.7275125,0.700273,-0.089687,1.1501825,0.5302830000000001,0.001891,1.2496325,0.7353230000000001,-0.09623,0.7075525,0.910373,-0.134206,1.2851025,0.950733,-0.139126,0.9239625,0.0014779999999999,-0.0048759999999999,1.0760375,-0.001478,0.004876,0.9093025000000001,-0.360457,-0.006919,1.0977845,-0.377007,-0.0025369999999999,0.9147045,-0.731237,0.014211,1.1136325,-0.739337,0.023384
200,1.006764,0.7202815,0.0351365,0.846479,0.5232815000000001,0.0010395,0.727519,0.7019715000000001,-0.0889514999999999,1.150449,0.5316615,0.0028564999999999,1.249889,0.7369615,-0.0952085,0.708039,0.9109115,-0.1328485,1.285439,0.9514015,-0.1378184999999999,0.923963,0.0014134999999999,-0.0049335,1.076037,-0.0014134999999999,0.0049335,0.910149,-0.3611885,-0.0008235,1.096414,-0.3777485,0.0045655,0.914955,-0.7319685,0.0168265,1.113409,-0.7400685,0.0262424999999999
201,1.0067599999999999,0.7208895,0.0360585,0.846705,0.5238395,0.0010804999999999,0.727515,0.7031495,-0.0881095,1.150675,0.5322695,0.0038164999999999,1.250145,0.7386995,-0.0942125,0.7085049999999999,0.9112595,-0.1314275,1.2857750000000001,0.9522095,-0.1365775,0.923963,0.0013265,-0.0049425,1.076037,-0.0013264999999999,0.0049425,0.910895,-0.3616804999999999,0.0051435,1.095203,-0.3782405,0.0108884999999999,0.915216,-0.7324605000000001,0.0194225,1.11319,-0.7405605000000001,0.0289555
202,1.0063855,0.7212405,0.0370895,0.8470795,0.5243405,0.0012575,0.7273594999999999,0.7038105,-0.0870995,1.1505495,0.5328705,0.0048664999999999,1.2500594999999999,0.7399105,-0.0931785,0.7085695000000001,0.9111605,-0.1298335,1.2853995,0.9525505,-0.1353035,0.9241235,0.0012635,-0.0049885,1.0758765,-0.0012635,0.0049885,0.9110195,-0.3602395,0.0105655,1.0937525,-0.3777195,0.0166375,0.9150335,-0.7323395,0.0219405,1.1126585,-0.7408595,0.0315935
203,1.0059655,0.7216530000000001,0.0380304999999999,0.8473385,0.524853,0.0014285,0.7271885,0.7042630000000001,-0.0862235,1.1503185,0.533433,0.0057265,1.2498385,0.740443,-0.0921765,0.7085185,0.910983,-0.1284725,1.2853085,0.950923,-0.1345725,0.9242685,0.001226,-0.0050164999999999,1.0757315,-0.0012259999999999,0.0050165,0.9109385000000001,-0.358577,0.0152165,1.0924965,-0.377207,0.0216095,0.9147665,-0.7318469999999999,0.0243495,1.1120965,-0.7403869999999999,0.0338935
204,1.0054565,0.7220035,0.038907,0.8474515,0.5253935,0.001576,0.7268414999999999,0.7042835,-0.085332,1.1499915,0.5339335,0.0065229999999999,1.2495215,0.7408435,-0.091255,0.7083014999999999,0.9108935,-0.127293,1.2854215,0.9514335,-0.133563,0.9244435,0.0011695,-0.0050799999999999,1.0755565,-0.0011695,0.0050799999999999,0.9106015000000001,-0.3573465,0.01915,1.0913644999999998,-0.3770765,0.0256869999999999,0.9143635,-0.7317065,0.026653,1.1114125,-0.7397365,0.035943
205,1.004865,0.7222584999999999,0.0397775,0.847198,0.5255384999999999,0.0020784999999999,0.726378,0.7042084999999999,-0.0845264999999999,1.149588,0.5344285,0.0072935,1.249138,0.7411485,-0.0904015,0.707948,0.9108985,-0.1263415,1.285458,0.9528585,-0.1327615,0.924612,0.0010944999999999,-0.0051075,1.075388,-0.0010944999999999,0.0051075,0.910098,-0.3564414999999999,0.0225035,1.090287,-0.3769615,0.0287995,0.9138930000000001,-0.7314415000000001,0.0289515,1.1106399999999998,-0.7389615,0.0378685
206,1.004216,0.7224055,0.0406194999999999,0.846858,0.5255555,0.0026245,0.7258279999999999,0.7042054999999999,-0.0838105,1.149148,0.5348955,0.0079935,1.248708,0.7411854999999999,-0.0897044999999999,0.707518,0.9108955,-0.1254675,1.285288,0.9545555,-0.1321275,0.9247720000000001,0.0010915,-0.0050975,1.0752279999999999,-0.0010914999999999,0.0050975,0.909498,-0.3550044999999999,0.0253145,1.089391,-0.3769045,0.0310564999999999,0.913367,-0.7311245000000001,0.0311085,1.109818,-0.7383145,0.0395665
207,1.0035555,0.7224055,0.0413805,0.8465135,0.5255555,0.0031334999999999,0.7252535,0.7042054999999999,-0.0832315,1.1487235,0.5352055,0.0086035,1.2483235,0.7411854999999999,-0.0891385,0.7069535,0.9108155,-0.1246885,1.2851835,0.9563555,-0.1316284999999999,0.9249245000000001,0.0010915,-0.0050945,1.0750754999999999,-0.0010914999999999,0.0050945,0.9089135000000002,-0.3533745,0.0274314999999999,1.0885745,-0.3768445,0.0325495,0.9128355,-0.7304745,0.0329775,1.1089924999999998,-0.7376645000000001,0.0410905
208,1.0029195,0.7224125,0.0420925,0.8462225,0.5255624999999999,0.0035645,0.7246625,0.7040825,-0.0827405,1.1483325,0.5355025,0.0091455,1.2479725,0.7411924999999999,-0.0886455,0.7063725000000001,0.9106725,-0.1239825,1.2847925,0.9567624999999998,-0.1312925,0.9250685,0.0010845,-0.0050495,1.0749315,-0.0010845,0.0050495,0.9083525,-0.3526175,0.0289145,1.0879225,-0.3767475,0.0335055,0.9123105,-0.7298275000000001,0.0345465,1.1081755,-0.7370375,0.0425265
209,1.0022825,0.7224820000000001,0.042796,0.8459725000000001,0.525632,0.004009,0.7240125,0.7037720000000001,-0.082307,1.1479325,0.535782,0.0096519999999999,1.2476525,0.741262,-0.088191,0.7057925,0.910372,-0.123529,1.2841725,0.955632,-0.131419,0.9252005,0.001015,-0.0050019999999999,1.0747995,-0.001015,0.0050019999999999,0.9078325,-0.3517679999999999,0.0299989999999999,1.0872725,-0.3765779999999999,0.034209,0.9117925,-0.7293379999999999,0.035829,1.1074135,-0.736578,0.04371
210,1.0016429999999998,0.722588,0.0434834999999999,0.845688,0.5256780000000001,0.0044845,0.723358,0.703358,-0.0819184999999999,1.147568,0.536068,0.0101605,1.247358,0.741278,-0.0877835,0.705218,0.910158,-0.1232915,1.283698,0.955768,-0.1315915,0.92533,0.000945,-0.0049675,1.07467,-0.000945,0.0049675,0.907318,-0.351182,0.0308105,1.086618,-0.376322,0.0348965,0.911259,-0.728792,0.0370765,1.106651,-0.735972,0.0448984999999999
211,1.0010765,0.722696,0.044126,0.8455075,0.525636,0.00486,0.7227675,0.702836,-0.0816679999999999,1.1473075,0.5362859999999999,0.010588,1.2471675,0.741286,-0.0874819999999999,0.7046975000000001,0.909976,-0.123269,1.2832575,0.955916,-0.131809,0.9254465000000001,0.0008459999999999,-0.0049289999999999,1.0745535,-0.000846,0.0049289999999999,0.9068775,-0.3510339999999999,0.03162,1.0860344999999998,-0.376154,0.035509,0.9107875,-0.728624,0.03806,1.1059634999999999,-0.7353740000000001,0.045956
