sb224sc-HT22-VT27/4dt907/src/data/kinect_good_vs_bad_not_preprocessed_A13_mediapipe/G02.csv
FrameNo,nose_3d_x,nose_3d_y,nose_3d_z,left_shoulder_3d_x,left_shoulder_3d_y,left_shoulder_3d_z,left_elbow_3d_x,left_elbow_3d_y,left_elbow_3d_z,right_shoulder_3d_x,right_shoulder_3d_y,right_shoulder_3d_z,right_elbow_3d_x,right_elbow_3d_y,right_elbow_3d_z,left_wrist_3d_x,left_wrist_3d_y,left_wrist_3d_z,right_wrist_3d_x,right_wrist_3d_y,right_wrist_3d_z,left_hip_3d_x,left_hip_3d_y,left_hip_3d_z,right_hip_3d_x,right_hip_3d_y,right_hip_3d_z,left_knee_3d_x,left_knee_3d_y,left_knee_3d_z,right_knee_3d_x,right_knee_3d_y,right_knee_3d_z,left_ankle_3d_x,left_ankle_3d_y,left_ankle_3d_z,right_ankle_3d_x,right_ankle_3d_y,right_ankle_3d_z
0,0.0130485,0.744212,-0.029353000000000004,-0.1488105,0.466562,-0.004039000000000001,-0.1777505,0.22820200000000002,0.036078,0.1633595,0.465012,0.004120999999999996,0.2009495,0.21624200000000002,0.04714599999999999,-0.1951405,0.015434,0.015780999999999996,0.2103795,0.0033949999999999996,0.019704,-0.0704765,0.0005429999999999996,0.0006309999999999996,0.0704765,-0.0005430000000000001,-0.0006310000000000066,-0.1205005,-0.31803800000000004,0.007548999999999997,0.1155295,-0.32131800000000005,0.029460999999999998,-0.1257505,-0.631408,0.03349,0.1167895,-0.632558,0.040841999999999996
1,0.013425500000000003,0.7445005,-0.027955,-0.1483935,0.4666305,-0.0009240000000000012,-0.17501350000000002,0.20963050000000003,0.039856,0.1638465,0.4648805,0.005049000000000001,0.2011965,0.2166005,0.046428,-0.1979535,-0.0020924999999999997,0.013006,0.2113765,0.0037195000000000006,0.019471000000000002,-0.07047149999999999,0.0005155000000000003,0.0005669999999999981,0.07047149999999999,-0.0005154999999999995,-0.0005669999999999981,-0.1205235,-0.3195195,0.008237000000000001,0.1154965,-0.3213495,0.029301,-0.1254635,-0.6314194999999999,0.032972,0.11675650000000001,-0.6337695,0.03998
2,0.013329500000000003,0.7446955,-0.027086,-0.14854450000000002,0.46641550000000004,-0.0012019999999999947,-0.1747145,0.2057355,0.040188,0.16395549999999998,0.46497550000000004,0.005469000000000002,0.2015555,0.2181955,0.045538,-0.19494450000000002,-0.005700499999999999,0.007131000000000002,0.21184550000000002,0.005335500000000001,0.018112000000000003,-0.0705085,0.0004955000000000003,0.00047900000000000026,0.0705085,-0.0004954999999999994,-0.00047900000000000026,-0.12052449999999999,-0.31922449999999997,0.007926000000000002,0.1152155,-0.3212345,0.028473000000000002,-0.1266145,-0.6360745,0.032718000000000004,0.1165755,-0.6337245,0.038879000000000004
3,0.013238000000000003,0.7443325000000001,-0.026030499999999998,-0.14847899999999997,0.4662325,-0.0006535000000000013,-0.174749,0.2054725,0.0395775,0.16385100000000002,0.4649625,0.005954499999999998,0.20204100000000003,0.21924249999999998,0.0442405,-0.192529,-0.0057255,0.0023784999999999987,0.212441,0.0063245,0.017162499999999997,-0.070591,0.00040950000000000014,0.0012414999999999995,0.070591,-0.00040950000000000014,-0.0012414999999999995,-0.12039899999999999,-0.3186375,0.007824499999999998,0.11528100000000001,-0.3211175,0.0278715,-0.126629,-0.6363774999999999,0.031683499999999996,0.116861,-0.6337875,0.0380545
4,0.013114499999999998,0.7452965,-0.0248725,-0.1486025,0.4655565,-0.0005724999999999966,-0.17457250000000002,0.2048365,0.0386025,0.1648575,0.4647165,0.007504500000000001,0.2026575,0.2210365,0.043097500000000004,-0.1924625,-0.006351500000000001,0.0013155000000000007,0.2129575,0.008095499999999999,0.0159855,-0.0705955,0.00038549999999999956,0.0015465000000000027,0.0705955,-0.0003855000000000004,-0.0015464999999999993,-0.1204625,-0.3186035,0.006933500000000002,0.1156075,-0.3212435,0.0275765,-0.1266225,-0.6372435,0.030333500000000003,0.1169675,-0.6340035,0.0373685
5,0.013194000000000004,0.7448250000000001,-0.024900000000000002,-0.148768,0.464815,0.0003599999999999992,-0.174518,0.204325,0.038114,0.164912,0.46546499999999996,0.008466999999999999,0.203172,0.22226500000000002,0.042691,-0.193028,-0.006875,0.0012220000000000009,0.213052,0.009305,0.015323999999999999,-0.07054099999999999,0.00038600000000000006,0.0009100000000000011,0.07054099999999999,-0.00038600000000000006,-0.0009100000000000011,-0.12051799999999999,-0.318425,0.0064150000000000006,0.116172,-0.321635,0.02716,-0.126788,-0.6360049999999999,0.029448,0.11744199999999999,-0.634405,0.037071
6,0.013148,0.7451865,-0.0237625,-0.14946399999999999,0.4650965,0.0027114999999999986,-0.182704,0.2333265,0.0331905,0.164576,0.46543650000000003,0.0085305,0.203816,0.22249649999999999,0.0431715,-0.191264,0.0149065,0.0033285000000000016,0.21324600000000002,0.0095785,0.0151035,-0.07055700000000001,0.00036850000000000077,0.0009615000000000005,0.07055700000000001,-0.0003684999999999999,-0.0009615000000000005,-0.120284,-0.3183835,0.006225500000000002,0.116506,-0.3217735,0.0268125,-0.126904,-0.6390735000000001,0.028476500000000002,0.118006,-0.6353035,0.0376245
7,0.013316500000000002,0.7450395,-0.021759999999999998,-0.14919849999999998,0.46527949999999996,0.002905999999999999,-0.17572849999999998,0.21067950000000002,0.037428,0.16455150000000002,0.4646395,0.010025,0.2033115,0.2214595,0.044293,-0.19551849999999998,-0.0008165000000000004,0.0063490000000000005,0.21248150000000002,0.0082325,0.016632,-0.07057350000000001,0.0004184999999999996,0.0012920000000000015,0.07057350000000001,-0.00041850000000000047,-0.0012920000000000015,-0.1202085,-0.31885050000000004,0.0057919999999999985,0.1162215,-0.3215505,0.027194,-0.1263385,-0.6390505,0.027563999999999998,0.1178515,-0.6325905000000001,0.037405
8,0.0133795,0.7452245,-0.020400500000000002,-0.14929350000000002,0.4650545,0.0038445000000000007,-0.17539349999999998,0.20884450000000002,0.037373500000000004,0.16469650000000002,0.4645045,0.011075499999999999,0.2034165,0.2215645,0.044437500000000005,-0.19547350000000002,-0.0025015000000000003,0.004956499999999999,0.21255649999999998,0.0083375,0.0170995,-0.0705865,0.00042049999999999987,0.0013425,0.0705865,-0.00042049999999999987,-0.0013425,-0.1202335,-0.3192355,0.0052295000000000015,0.1162465,-0.3215655,0.0272625,-0.1262835,-0.6396155,0.0268745,0.1179665,-0.6322855,0.0372455
9,0.013367500000000001,0.7453245,-0.019072500000000003,-0.14949849999999998,0.4647845,0.0047705000000000004,-0.1754085,0.20853449999999998,0.0372245,0.1648215,0.46437449999999997,0.0119875,0.2034715,0.2216645,0.0448745,-0.1947785,-0.0027165,0.0036594999999999996,0.2125315,0.0084375,0.0177215,-0.07059850000000001,0.0004264999999999998,0.0013524999999999995,0.07059850000000001,-0.0004264999999999998,-0.0013524999999999995,-0.1202685,-0.31953550000000003,0.004730499999999999,0.11623149999999999,-0.3215655,0.0273485,-0.12621849999999998,-0.6401055,0.0262825,0.11803150000000001,-0.6317155,0.0371965
10,0.0133415,0.745412,-0.01755,-0.1496945,0.464532,0.0056830000000000006,-0.1753745,0.208582,0.036953,0.1649255,0.464222,0.012892,0.2028755,0.22070199999999998,0.045801999999999995,-0.1944445,-0.002639,0.002923000000000002,0.2124255,0.007474000000000001,0.018456,-0.0706035,0.0004300000000000007,0.0014230000000000007,0.0706035,-0.0004299999999999998,-0.0014230000000000007,-0.1203345,-0.31988799999999995,0.004362999999999999,0.1161955,-0.321578,0.027521,-0.1261445,-0.640478,0.025735,0.1181355,-0.631108,0.037216
11,0.013282499999999996,0.745508,-0.016075,-0.1498525,0.464238,0.006450000000000001,-0.17534249999999998,0.208598,0.036684999999999995,0.1650075,0.463928,0.013873,0.2021075,0.21893800000000002,0.046178,-0.1946225,-0.002620000000000001,0.0026440000000000005,0.2121975,0.005787,0.019635,-0.0705955,0.00044099999999999955,0.0014610000000000005,0.0705955,-0.0004410000000000004,-0.0014610000000000005,-0.1204325,-0.320302,0.004087999999999998,0.1161075,-0.321552,0.027743,-0.1261025,-0.6406620000000001,0.025275,0.1182475,-0.630452,0.037197
12,0.013219500000000002,0.7455335,-0.014669000000000001,-0.1500025,0.46394349999999995,0.007214999999999999,-0.1758425,0.20945350000000001,0.036237,0.1649975,0.4635835,0.014708,0.2016075,0.21711350000000001,0.045979000000000006,-0.1950425,-0.0017635000000000003,0.0022900000000000004,0.21183749999999998,0.0039145,0.019801,-0.0705855,0.00045149999999999964,0.001473000000000002,0.0705855,-0.0004515000000000005,-0.0014729999999999986,-0.1205525,-0.32073650000000004,0.003908999999999999,0.1159875,-0.32150650000000003,0.028002,-0.1261025,-0.6408265000000001,0.024902,0.1183575,-0.6297965,0.037233
13,0.013148999999999996,0.7456345000000001,-0.013215999999999999,-0.15013500000000002,0.4637345,0.008029000000000001,-0.176495,0.2107545,0.035743,0.165015,0.4631145,0.015367,0.201435,0.2159345,0.045940999999999996,-0.19570500000000002,-0.0010845000000000004,0.0017269999999999994,0.211745,0.0028604999999999998,0.019767,-0.070581,0.0004555000000000002,0.0015009999999999989,0.070581,-0.0004555000000000002,-0.0015009999999999989,-0.12065500000000001,-0.3211655,0.003811000000000002,0.115815,-0.32143550000000004,0.02833,-0.126115,-0.6408955,0.024725,0.118455,-0.6293955,0.03721
14,0.013108999999999996,0.7456705,-0.011979499999999997,-0.150249,0.46350050000000004,0.008807500000000003,-0.176489,0.2109105,0.0357435,0.165101,0.4627005,0.015745500000000003,0.201441,0.2158105,0.045941499999999996,-0.196239,-0.0009285000000000005,0.0006864999999999996,0.211751,0.0015615,0.0197675,-0.070575,0.0004555000000000002,0.0015014999999999994,0.070575,-0.0004555000000000002,-0.0015014999999999994,-0.12067900000000001,-0.3214895,0.003768500000000001,0.115671,-0.32134949999999995,0.0285165,-0.126109,-0.6407395,0.024591500000000002,0.11851099999999999,-0.6290895000000001,0.0372235
15,0.013096499999999997,0.7456965,-0.011154499999999998,-0.1503465,0.46332650000000003,0.009480500000000003,-0.17724650000000003,0.2128765,0.0342435,0.16523349999999998,0.46221650000000003,0.0158935,0.20146350000000002,0.2159865,0.0455135,-0.19621650000000002,0.0011155000000000002,-0.0015855,0.21175349999999998,0.0017345,0.0197675,-0.0705715,0.0004664999999999999,0.0015014999999999994,0.0705715,-0.0004664999999999999,-0.0015014999999999994,-0.1206765,-0.3217335,0.0037184999999999996,0.1155435,-0.3212735,0.028602500000000003,-0.1261065,-0.6405935,0.0244475,0.1185735,-0.6288435,0.0372465
16,0.013060500000000001,0.7457159999999999,-0.010444499999999999,-0.1504295,0.463186,0.0100985,-0.17720950000000002,0.213006,0.0325895,0.1653405,0.461716,0.0159315,0.2015205,0.21613600000000002,0.0435475,-0.1973995,0.0012449999999999996,-0.007200500000000002,0.2118505,0.0018669999999999993,0.0168765,-0.0705685,0.00044599999999999935,0.0015335000000000001,0.0705685,-0.0004460000000000002,-0.0015335000000000001,-0.1207295,-0.321914,0.0036974999999999994,0.1153805,-0.321204,0.0286465,-0.12609949999999998,-0.6405540000000001,0.0243555,0.1186005,-0.628714,0.0372795
17,0.013023500000000002,0.7457795,-0.009794,-0.15052849999999998,0.4631895,0.010419999999999999,-0.17847849999999998,0.2145695,0.028738,0.1652515,0.4614295,0.016071000000000002,0.2020015,0.21630950000000002,0.039876,-0.2009485,0.0037934999999999996,-0.015274,0.2131615,0.0020404999999999993,0.010353999999999999,-0.0705555,0.0003994999999999997,0.0015000000000000013,0.0705555,-0.00039950000000000055,-0.0015000000000000013,-0.12080849999999999,-0.3217405,0.0037389999999999993,0.1152215,-0.3211005,0.028821,-0.1261285,-0.6405405,0.024369,0.1186615,-0.6285405,0.037408
18,0.013016999999999999,0.745863,-0.009113000000000003,-0.15059799999999998,0.46336299999999997,0.010585,-0.180168,0.215123,0.0234,0.165152,0.461603,0.016234,0.20425200000000002,0.219323,0.033202,-0.206028,0.006464999999999999,-0.026965000000000003,0.21713200000000002,0.004422,-0.0005080000000000015,-0.070542,0.0003519999999999999,0.0014449999999999984,0.070542,-0.00035200000000000075,-0.0014450000000000018,-0.12090799999999999,-0.321567,0.0039019999999999992,0.11505199999999999,-0.320977,0.029068999999999998,-0.12617799999999998,-0.640447,0.024492,0.11871200000000001,-0.628517,0.037547
19,0.012998000000000001,0.746049,-0.0084925,-0.15067999999999998,0.463449,0.010766500000000002,-0.18361,0.219469,0.0150395,0.16505999999999998,0.461689,0.0162695,0.20694,0.222549,0.0253275,-0.21428000000000003,0.014769999999999998,-0.043881500000000004,0.22321999999999997,0.010308,-0.0162845,-0.07053,0.0002999999999999999,0.0014375000000000013,0.07053,-0.0002999999999999999,-0.0014374999999999978,-0.12102,-0.32148099999999996,0.004082499999999999,0.11489,-0.320891,0.0293385,-0.12628,-0.640171,0.0246735,0.11888,-0.628791,0.0375925
20,0.013007500000000002,0.7461475000000001,-0.007811499999999999,-0.15050950000000002,0.4634875,0.0109805,-0.1881895,0.2255075,0.0045965,0.16488049999999999,0.4617275,0.0158395,0.2105705,0.2272075,0.0130955,-0.2240295,0.0265175,-0.0648465,0.23232049999999999,0.0192985,-0.0390985,-0.07051450000000001,0.0002614999999999996,0.0014444999999999979,0.07051450000000001,-0.00026150000000000045,-0.0014445000000000013,-0.12105949999999999,-0.32139249999999997,0.004285500000000001,0.1147205,-0.32082249999999995,0.0295545,-0.1263695,-0.6398625,0.0248735,0.1190705,-0.6283525,0.0377365
21,0.013051000000000005,0.7461565,-0.006959,-0.149899,0.4635565,0.011067,-0.19497899999999999,0.2341065,-0.00893,0.163581,0.4618865,0.014152999999999999,0.215621,0.2341365,-0.0015590000000000014,-0.236649,0.0435275,-0.09090999999999999,0.244031,0.0337635,-0.06739600000000001,-0.070505,0.00025249999999999925,0.0014429999999999998,0.070505,-0.0002525000000000001,-0.0014429999999999998,-0.121109,-0.32125349999999997,0.004514999999999998,0.114551,-0.3207635,0.029761,-0.126419,-0.6396035000000001,0.025069,0.119351,-0.6284735,0.037795999999999996
22,0.013170000000000005,0.7461565,-0.005909499999999998,-0.149071,0.4638065,0.010836500000000002,-0.203401,0.2460465,-0.025847500000000002,0.16257900000000003,0.4621565,0.012292500000000001,0.223209,0.2460165,-0.0199215,-0.250271,0.0659435,-0.12248849999999999,0.258209,0.056097499999999995,-0.10128849999999999,-0.070547,0.00025249999999999925,0.0015345000000000011,0.070547,-0.0002525000000000001,-0.0015344999999999977,-0.12116099999999999,-0.32103349999999997,0.0047195000000000015,0.11437900000000001,-0.3206935,0.029944500000000002,-0.12649100000000002,-0.6389735000000001,0.025496500000000002,0.11977900000000001,-0.6285935,0.0377505
23,0.013305500000000005,0.7461945,-0.0046625,-0.1480335,0.4644245,0.0103755,-0.2133835,0.25986450000000005,-0.0427495,0.16171649999999999,0.46275449999999996,0.010290499999999998,0.23173649999999998,0.2620045,-0.0418025,-0.2672135,0.0963315,-0.15645050000000002,0.2728365,0.0844375,-0.14121050000000002,-0.07060949999999999,0.0002205000000000002,0.001622499999999999,0.07060949999999999,-0.00022049999999999934,-0.0016225000000000024,-0.1212335,-0.3205755,0.0049925,0.1141865,-0.32054550000000004,0.0301285,-0.1265935,-0.6383355,0.0259685,0.1200165,-0.6286155,0.0377635
24,0.013482499999999998,0.746328,-0.0032485000000000014,-0.1468275,0.465068,0.009590499999999998,-0.2242875,0.278738,-0.0620835,0.16096249999999998,0.463568,0.008303499999999998,0.2408725,0.281158,-0.0631295,-0.28421749999999996,0.132108,-0.1931875,0.2889125,0.12082799999999999,-0.1813975,-0.0706435,0.00014400000000000003,0.0016854999999999995,0.0706435,-0.00014400000000000003,-0.0016854999999999995,-0.12128749999999999,-0.319952,0.005371499999999998,0.1140225,-0.320402,0.030318499999999998,-0.12677750000000002,-0.637072,0.0264925,0.12023249999999999,-0.628692,0.0378155
25,0.013772,0.7460575,-0.001684500000000002,-0.14553000000000002,0.4662675,0.008070499999999998,-0.23504,0.3117075,-0.0807345,0.16036,0.4648775,0.0057445,0.25053,0.3155275,-0.0829545,-0.29933,0.1947775,-0.22686450000000002,0.30418,0.1830875,-0.2210145,-0.070662,0.00014449999999999966,0.001693499999999997,0.070662,-0.00014450000000000053,-0.0016935000000000006,-0.12143000000000001,-0.31939249999999997,0.006034499999999998,0.11388000000000001,-0.3206525,0.0304715,-0.12729000000000001,-0.6352325,0.0272765,0.12040000000000001,-0.6293124999999999,0.0378385
26,0.014004000000000006,0.745648,-0.0002459999999999997,-0.144262,0.467538,0.0060750000000000005,-0.244662,0.346098,-0.097776,0.15984800000000002,0.466428,0.003155999999999999,0.259058,0.350548,-0.10179600000000001,-0.310682,0.26079800000000003,-0.256466,0.317588,0.251168,-0.25491600000000003,-0.070688,0.0001760000000000008,0.0016690000000000003,0.070688,-0.00017599999999999994,-0.0016690000000000003,-0.121582,-0.318972,0.0066799999999999984,0.113718,-0.32112199999999996,0.030638,-0.127862,-0.633502,0.028069999999999998,0.12056800000000001,-0.6300720000000001,0.037888
27,0.014211000000000001,0.745079,0.001017500000000001,-0.14302499999999999,0.469059,0.0039035000000000007,-0.25295500000000004,0.383349,-0.11261650000000001,0.159505,0.468279,0.000563499999999998,0.265735,0.385569,-0.1174965,-0.319965,0.330919,-0.2792865,0.327555,0.321249,-0.28098650000000003,-0.07072700000000001,0.0002049999999999999,0.001622499999999999,0.07072700000000001,-0.00020500000000000032,-0.001622499999999999,-0.121695,-0.318881,0.007287499999999999,0.11354500000000001,-0.321851,0.030779499999999998,-0.128335,-0.632161,0.0289565,0.120675,-0.631061,0.0379375
28,0.014411000000000002,0.744328,0.0019964999999999983,-0.142048,0.47064799999999996,0.0014554999999999985,-0.259518,0.42091799999999996,-0.1241775,0.159232,0.470448,-0.0020135000000000014,0.273112,0.42231799999999997,-0.1323475,-0.325228,0.40193799999999996,-0.2955975,0.335562,0.393418,-0.3024775,-0.070776,0.0002459999999999999,0.0015895000000000006,0.070776,-0.0002460000000000001,-0.0015895000000000006,-0.121778,-0.318992,0.007803500000000001,0.113352,-0.322682,0.0308975,-0.128838,-0.630792,0.029832499999999998,0.120722,-0.6321220000000001,0.037990499999999996
29,0.014593499999999999,0.7433315,0.0027605000000000025,-0.1412785,0.4722415,-0.0010954999999999993,-0.26462850000000004,0.46035149999999997,-0.1327855,0.1591215,0.4726915,-0.004272500000000002,0.27775150000000004,0.4626315,-0.1396555,-0.3277685,0.4724215,-0.3058555,0.33990149999999997,0.4653015,-0.3144555,-0.0708245,0.0003205,0.0016024999999999998,0.0708245,-0.0003205,-0.0016024999999999998,-0.1218785,-0.3193685,0.008224500000000003,0.1131715,-0.3235585,0.0309145,-0.1292185,-0.6320385,0.0305835,0.1207115,-0.6332085,0.037971500000000005
30,0.014736500000000007,0.7418210000000001,0.003250999999999997,-0.1409915,0.474091,-0.003611000000000003,-0.2672515,0.498661,-0.137298,0.1590385,0.474521,-0.005301,0.2808585,0.501301,-0.143908,-0.3278015,0.542351,-0.307358,0.3408485,0.535311,-0.318918,-0.07083149999999999,0.00035899999999999994,0.0016129999999999999,0.07083149999999999,-0.00035899999999999994,-0.0016129999999999999,-0.1220115,-0.320119,0.008502,0.1129385,-0.324729,0.030916,-0.1296315,-0.633689,0.031276,0.1206785,-0.634649,0.037920999999999996
31,0.014762999999999998,0.739959,0.0033990000000000027,-0.14081900000000003,0.476109,-0.005797999999999998,-0.267709,0.535749,-0.137235,0.15887099999999998,0.476779,-0.0062349999999999975,0.281851,0.540949,-0.14398499999999997,-0.327969,0.608019,-0.30728500000000003,0.340681,0.604779,-0.318845,-0.070782,0.0004080000000000004,0.001585000000000003,0.070782,-0.00040799999999999994,-0.0015849999999999996,-0.122189,-0.321171,0.008748000000000002,0.112671,-0.32627100000000003,0.030984,-0.130089,-0.636041,0.031569,0.120601,-0.636221,0.038012000000000004
32,0.014748499999999998,0.737854,0.0035689999999999993,-0.1407245,0.47821400000000003,-0.007747000000000004,-0.2678745,0.572094,-0.137073,0.1587155,0.478854,-0.0069180000000000005,0.28168550000000003,0.576024,-0.14382299999999998,-0.3281345,0.6718040000000001,-0.30712300000000003,0.34051549999999997,0.6686340000000001,-0.318683,-0.0707155,0.00047100000000000006,0.0015599999999999989,0.0707155,-0.00047100000000000006,-0.0015600000000000024,-0.1223545,-0.322636,0.008909999999999998,0.1124255,-0.327856,0.031141999999999996,-0.1305745,-0.6375959999999999,0.031774,0.1204755,-0.638096,0.038181999999999994
33,0.014649999999999996,0.7354459999999999,0.003889499999999997,-0.140696,0.480536,-0.0093255,-0.268106,0.6041759999999999,-0.1367595,0.159544,0.48089600000000005,-0.007376500000000001,0.281454,0.608706,-0.14350949999999998,-0.32697600000000004,0.729846,-0.3067395,0.340284,0.7273759999999999,-0.31836949999999997,-0.07062399999999999,0.0005490000000000009,0.0014984999999999998,0.07062399999999999,-0.0005489999999999991,-0.0014984999999999998,-0.122586,-0.324604,0.009223499999999999,0.11213399999999998,-0.329714,0.0313715,-0.130876,-0.640274,0.0320845,0.12026399999999998,-0.6405040000000001,0.038572499999999996
34,0.014444000000000005,0.7332235,0.004367000000000003,-0.140644,0.4823035,-0.009681999999999996,-0.268364,0.6222135,-0.136114,0.160036,0.4825035,-0.006976999999999997,0.281206,0.6261435,-0.143034,-0.324504,0.7635135,-0.300774,0.337746,0.7614235,-0.31489399999999995,-0.070537,0.0005304999999999997,0.0013920000000000009,0.070537,-0.0005304999999999997,-0.0013919999999999974,-0.12278399999999999,-0.3266865,0.009701000000000001,0.111846,-0.3312565,0.03152,-0.131114,-0.6434565,0.032507,0.11995600000000001,-0.6426165,0.039106
35,0.014218999999999996,0.730984,0.004713499999999999,-0.140604,0.483844,-0.0094495,-0.266654,0.638634,-0.1337545,0.160266,0.48388400000000004,-0.0063205,0.280646,0.642274,-0.1374845,-0.318464,0.792394,-0.2903745,0.334586,0.790944,-0.30358450000000003,-0.070443,0.0004609999999999996,0.001305500000000001,0.070443,-0.0004609999999999996,-0.0013054999999999976,-0.12296400000000002,-0.328766,0.010336500000000002,0.111506,-0.33278599999999997,0.0317735,-0.131394,-0.645896,0.0331365,0.119666,-0.6449659999999999,0.0397795
36,0.014008999999999997,0.7288085,0.004958999999999998,-0.140713,0.48502850000000003,-0.008666999999999998,-0.26315299999999997,0.6524184999999999,-0.126962,0.160127,0.48502850000000003,-0.00554,0.27898700000000004,0.6557584999999999,-0.12981199999999998,-0.311683,0.8170784999999999,-0.27395200000000003,0.329307,0.8158285,-0.288752,-0.07031799999999999,0.0003584999999999977,0.0012659999999999998,0.07031799999999999,-0.0003585000000000012,-0.0012659999999999998,-0.12296299999999999,-0.3306215,0.010831999999999998,0.111147,-0.3341815,0.032118,-0.13168300000000002,-0.6483915,0.033875,0.11937700000000001,-0.6472615,0.040622
37,0.013742500000000001,0.726506,0.005215499999999998,-0.1410305,0.48678599999999994,-0.0075905000000000035,-0.2589705,0.663706,-0.1188075,0.1597895,0.485696,-0.0044645,0.2754295,0.667526,-0.1207275,-0.3052305,0.837346,-0.2553475,0.3241795,0.836276,-0.26907749999999997,-0.0701785,0.00025400000000000075,0.0011674999999999984,0.0701785,-0.0002539999999999973,-0.0011674999999999984,-0.12281049999999999,-0.33251400000000003,0.0111145,0.11072950000000001,-0.335784,0.0326855,-0.13171049999999998,-0.652854,0.034402499999999996,0.1190195,-0.6494840000000001,0.0417595
38,0.013536,0.7242740000000001,0.005489500000000001,-0.141276,0.488234,-0.006451499999999999,-0.25441600000000003,0.673304,-0.10878149999999999,0.159474,0.486044,-0.003220500000000001,0.272144,0.6749040000000001,-0.10980150000000001,-0.29887600000000003,0.858124,-0.2329615,0.31918399999999997,0.8539340000000001,-0.2450815,-0.070045,0.0001020000000000014,0.0011865,0.070045,-0.00010199999999999793,-0.0011865,-0.12254599999999999,-0.334306,0.011325499999999999,0.11038400000000001,-0.337366,0.0331555,-0.131576,-0.6575059999999999,0.0349465,0.118724,-0.651686,0.0428805
39,0.013333000000000001,0.722091,0.005912999999999995,-0.140883,0.489881,-0.005067000000000002,-0.249893,0.6825410000000001,-0.097981,0.159157,0.48638100000000006,-0.0014400000000000038,0.269047,0.684951,-0.097461,-0.292353,0.8745310000000001,-0.211551,0.314837,0.870621,-0.22187099999999998,-0.069968,7.000000000000062e-06,0.0012469999999999981,0.069968,-7.000000000000062e-06,-0.001247000000000005,-0.122283,-0.336119,0.011706999999999995,0.110037,-0.33902899999999997,0.03373999999999999,-0.131583,-0.661069,0.035718999999999994,0.118517,-0.6538189999999999,0.04413299999999999
40,0.013202500000000002,0.7202535,0.006365500000000003,-0.1404395,0.4914035,-0.0032664999999999986,-0.2455095,0.6903135,-0.08702349999999999,0.1588905,0.4862035,0.0004425000000000054,0.26603049999999995,0.6916735,-0.08465349999999999,-0.28616949999999997,0.8905235,-0.1897035,0.31045049999999996,0.8822835,-0.1977635,-0.0699335,-9.84999999999979e-05,0.001406500000000005,0.0699335,9.850000000000136e-05,-0.001406499999999998,-0.1220195,-0.33754649999999997,0.012056500000000005,0.1097305,-0.34033650000000004,0.0342015,-0.1315395,-0.6642165,0.036584500000000006,0.1184005,-0.6557965,0.045457500000000005
41,0.013087000000000001,0.718323,0.006721500000000005,-0.139903,0.492463,-0.0009114999999999956,-0.241403,0.698813,-0.07536849999999999,0.15839699999999998,0.48600299999999996,0.002534500000000009,0.263637,0.698403,-0.0730685,-0.28069299999999997,0.901613,-0.16625849999999998,0.30656700000000003,0.893643,-0.17329849999999997,-0.06989999999999999,-0.0002239999999999985,0.0016055000000000028,0.06989999999999999,0.0002239999999999985,-0.0016054999999999958,-0.12176300000000001,-0.338967,0.012445500000000005,0.10941700000000001,-0.341967,0.03467750000000001,-0.131613,-0.666567,0.037771500000000006,0.118277,-0.658237,0.04706250000000001
42,0.013035000000000001,0.7166445,0.006880999999999995,-0.13925700000000002,0.4932245,0.001680999999999995,-0.23741700000000002,0.7064445,-0.06387000000000001,0.157793,0.4856145,0.004465999999999998,0.261443,0.7055745,-0.061408000000000004,-0.275957,0.9137445000000001,-0.14325000000000002,0.303313,0.9037845,-0.14772000000000002,-0.069879,-0.0003004999999999987,0.001793999999999997,0.069879,0.00030050000000000215,-0.001794000000000004,-0.12145700000000001,-0.3401555,0.012839999999999994,0.109233,-0.34346550000000003,0.035150999999999995,-0.13153700000000002,-0.6687255,0.03891499999999999,0.118233,-0.6603954999999999,0.048644999999999994
43,0.013002999999999997,0.7151955000000001,0.006797499999999998,-0.13851400000000003,0.49392549999999996,0.0041675000000000045,-0.233854,0.7137755,-0.053149499999999995,0.157206,0.48516549999999997,0.006316500000000003,0.25952600000000003,0.7122355,-0.0500855,-0.271704,0.9234255,-0.12095250000000002,0.300726,0.9126155,-0.12327250000000001,-0.069866,-0.0003394999999999995,0.001958500000000002,0.069866,0.0003394999999999995,-0.001958500000000002,-0.12116400000000001,-0.3411545,0.0131445,0.10907599999999999,-0.3448545,0.0356685,-0.13146400000000003,-0.6707844999999999,0.0400995,0.118246,-0.6626044999999999,0.0501435
44,0.013014500000000002,0.7138645,0.006548499999999999,-0.13777050000000002,0.49527449999999995,0.006694499999999999,-0.23085050000000001,0.7207745,-0.043328500000000006,0.1566595,0.48463449999999997,0.007953500000000002,0.2578895,0.7188145,-0.03941649999999999,-0.2679105,0.9327645,-0.0992475,0.2985795,0.9201845,-0.10033750000000001,-0.0698695,-0.00032250000000000334,0.002093499999999998,0.0698695,0.0003224999999999964,-0.002093499999999998,-0.1209205,-0.3420955,0.0134225,0.1089995,-0.3460655,0.0361055,-0.1314205,-0.6717055000000001,0.0414205,0.1183095,-0.6646755000000001,0.051527500000000004
45,0.013096999999999998,0.7125795,0.006043499999999993,-0.136913,0.49689950000000005,0.009145499999999994,-0.228333,0.7271795,-0.03418850000000001,0.156157,0.4840995,0.009431499999999995,0.256517,0.7247595,-0.0294735,-0.26464299999999996,0.9413795,-0.07884050000000001,0.296897,0.9270995,-0.07912050000000001,-0.069855,-0.0002534999999999968,0.002194499999999995,0.069855,0.0002535000000000037,-0.002194500000000002,-0.120773,-0.3430705,0.013714499999999994,0.108977,-0.34719049999999996,0.036498499999999996,-0.13144299999999998,-0.6725205,0.0427515,0.118427,-0.6669404999999999,0.052803499999999996
46,0.013201499999999998,0.7115275,0.005308,-0.1362225,0.4979275000000001,0.011036999999999998,-0.2262925,0.7336575000000001,-0.025563999999999996,0.1557075,0.4836575000000001,0.010658,0.25530749999999997,0.7304875000000001,-0.020325000000000003,-0.2618825,0.9493775,-0.059567,0.2954775,0.9335475000000001,-0.058957,-0.06982849999999999,-0.00017049999999999704,0.002252999999999998,0.06982849999999999,0.00017050000000000398,-0.002252999999999998,-0.12073249999999999,-0.34382250000000003,0.013995,0.10895749999999998,-0.34804250000000003,0.036737,-0.1314025,-0.6729025,0.043882000000000004,0.11866750000000001,-0.6691125,0.053933
47,0.013325999999999994,0.71049,0.0043834999999999985,-0.135546,0.49970000000000003,0.012980499999999999,-0.22509600000000002,0.7382799999999999,-0.018633500000000004,0.155294,0.4831,0.011731499999999999,0.254394,0.73557,-0.013145499999999997,-0.260066,0.9545399999999999,-0.0444225,0.294504,0.9403,-0.0445105,-0.06977900000000001,-2.8000000000000247e-05,0.0022415000000000004,0.06977900000000001,2.8000000000000247e-05,-0.0022415000000000004,-0.12074599999999999,-0.34457,0.014284500000000002,0.10892399999999999,-0.34903,0.0370755,-0.13134600000000002,-0.67454,0.044915500000000004,0.11891399999999999,-0.67149,0.054928500000000005
48,0.013488,0.709689,0.0033330000000000026,-0.135301,0.501059,0.014566000000000003,-0.224351,0.7426790000000001,-0.012221999999999997,0.155149,0.48222899999999996,0.012517,0.253689,0.737569,-0.007463999999999998,-0.258921,0.9602590000000001,-0.030705000000000003,0.293549,0.9456190000000001,-0.03142,-0.069718,0.00011300000000000199,0.0022199999999999998,0.069718,-0.00011300000000000199,-0.0022199999999999998,-0.12071100000000001,-0.345091,0.014387,0.10891899999999999,-0.349821,0.037344,-0.131241,-0.6751609999999999,0.045716,0.11917900000000001,-0.6736209999999999,0.055594000000000005
49,0.013641499999999997,0.7087749999999999,0.002350999999999999,-0.1350865,0.502425,0.015989999999999997,-0.2238965,0.746695,-0.006230000000000006,0.1550235,0.48134499999999997,0.013192999999999996,0.25297349999999996,0.7390549999999999,-0.002248000000000007,-0.2580065,0.9661349999999999,-0.01763300000000001,0.29264349999999995,0.951125,-0.018771999999999997,-0.0696585,0.0002570000000000003,0.0021769999999999984,0.0696585,-0.0002570000000000003,-0.0021770000000000053,-0.1206965,-0.345765,0.014518999999999997,0.1089135,-0.35067499999999996,0.037690999999999995,-0.13113650000000002,-0.6757150000000001,0.046557999999999995,0.1194235,-0.6758350000000001,0.056136
50,0.013804,0.7081275,0.0014834999999999987,-0.13492400000000002,0.5039075,0.017156499999999998,-0.22359400000000001,0.7493875,-0.0011255000000000015,0.155026,0.4804475,0.0135985,0.252186,0.7402975,0.0019985000000000003,-0.257374,0.9707574999999999,-0.0076945,0.292126,0.9558475,-0.009055500000000001,-0.069583,0.0004215000000000052,0.0021154999999999993,0.069583,-0.00042149999999999826,-0.0021154999999999993,-0.120664,-0.3462825,0.014587499999999996,0.108986,-0.3512425,0.0380155,-0.131054,-0.6754525,0.0471435,0.119676,-0.6776625,0.0563755
51,0.013936499999999998,0.7074895,0.0007255000000000039,-0.1347805,0.5055495,0.0182895,-0.2234905,0.7517594999999999,0.0031015,0.1550495,0.47963950000000005,0.013715499999999999,0.2514095,0.7408494999999999,0.005376499999999999,-0.2568205,0.9742595000000001,-0.00026249999999999885,0.2913895,0.9595594999999999,-0.002299499999999996,-0.06951650000000001,0.0005544999999999994,0.002096500000000001,0.06951650000000001,-0.0005544999999999994,-0.002096500000000001,-0.12062049999999999,-0.3467705,0.014602500000000004,0.10909949999999999,-0.3517305,0.0382535,-0.1309705,-0.6759005,0.047593500000000004,0.1199395,-0.6793305000000001,0.0565275
52,0.014066500000000003,0.706804,0.0001789999999999986,-0.13466250000000002,0.5073139999999999,0.01937,-0.2235625,0.753944,0.007016000000000001,0.1550975,0.47889399999999993,0.013747999999999996,0.2506875,0.741204,0.008226999999999998,-0.2561525,0.977724,0.0066929999999999976,0.2906775,0.9626239999999999,0.003577999999999998,-0.0694535,0.0006670000000000009,0.002114999999999999,0.0694535,-0.0006670000000000009,-0.002114999999999999,-0.1205725,-0.34724600000000005,0.014630999999999998,0.1092675,-0.352256,0.038405999999999996,-0.13085249999999998,-0.676786,0.047868,0.1201675,-0.681166,0.056599
53,0.014158500000000001,0.7061645,-0.0002114999999999964,-0.1345865,0.5086045,0.0202905,-0.2237265,0.7559145,0.010715500000000003,0.1551535,0.4782345,0.013762500000000004,0.2499135,0.7411745000000001,0.010849499999999998,-0.25550649999999997,0.9804744999999999,0.012649500000000001,0.28979350000000004,0.9654745,0.009078500000000003,-0.0694155,0.0007444999999999952,0.0021484999999999976,0.0694155,-0.0007445000000000021,-0.0021484999999999976,-0.1205365,-0.3477355,0.014682500000000001,0.1094335,-0.3527755,0.0385585,-0.13077650000000002,-0.6776255,0.0481215,0.12037350000000001,-0.6827055,0.0566575
54,0.014226999999999997,0.705618,-0.0004144999999999982,-0.134579,0.5097780000000001,0.021174500000000002,-0.22384900000000002,0.757678,0.014111499999999999,0.155211,0.47764799999999996,0.0138005,0.24929099999999998,0.741208,0.013116500000000003,-0.255009,0.982858,0.0175185,0.288971,0.9682580000000001,0.014102500000000004,-0.06936200000000001,0.000794000000000003,0.0022515000000000035,0.06936200000000001,-0.0007939999999999961,-0.0022514999999999966,-0.120479,-0.348112,0.0147645,0.10955100000000001,-0.353242,0.0387105,-0.130589,-0.678022,0.0484265,0.120561,-0.6842119999999999,0.0567295
55,0.014305499999999999,0.705169,-0.0005070000000000005,-0.1345555,0.510959,0.022079,-0.2239255,0.759129,0.017008,0.1552845,0.47711900000000007,0.013849,0.2488845,0.7410490000000001,0.015095999999999998,-0.2548955,0.9850289999999999,0.021968,0.2883445,0.970429,0.018057,-0.0692935,0.0008309999999999984,0.0023970000000000033,0.0692935,-0.0008310000000000053,-0.0023970000000000033,-0.1203955,-0.34853100000000004,0.014836000000000002,0.1096745,-0.353681,0.038873,-0.1303455,-0.678501,0.048668,0.12063449999999999,-0.6848409999999999,0.056817
56,0.014373999999999994,0.7048175,-0.0004014999999999991,-0.13452000000000003,0.5116375,0.0228505,-0.22418,0.7607875000000001,0.0197095,0.15535,0.47672749999999997,0.013899500000000002,0.24863999999999997,0.7408075000000001,0.0169715,-0.25502,0.9866674999999999,0.0257175,0.28784,0.9720675,0.021316500000000002,-0.069228,0.000843499999999997,0.002556500000000003,0.069228,-0.000843500000000004,-0.0025564999999999963,-0.12032000000000001,-0.34886249999999996,0.014895499999999999,0.1098,-0.3540225,0.0389655,-0.13012,-0.6791925,0.0488475,0.12069999999999999,-0.6856525,0.0568725
57,0.014445000000000003,0.704607,-0.00026199999999999835,-0.13449,0.5120669999999999,0.023476999999999998,-0.22462000000000001,0.761797,0.021741999999999997,0.15541,0.476487,0.013968000000000001,0.24855,0.740507,0.018691,-0.25511,0.987667,0.028832999999999998,0.28754,0.9723670000000001,0.023547,-0.06916800000000001,0.0008449999999999985,0.0027280000000000013,0.06916800000000001,-0.0008449999999999985,-0.0027280000000000013,-0.12022,-0.349073,0.014970999999999998,0.10989000000000002,-0.354183,0.039073,-0.12987,-0.679523,0.049049,0.12078,-0.686173,0.056952
58,0.014469,0.7045055,-0.00014999999999999736,-0.134536,0.5124055,0.024012000000000002,-0.225306,0.7628155,0.023816,0.155424,0.4763155,0.014009,0.248544,0.7403155,0.02023,-0.255176,0.9879754999999999,0.031473,0.287524,0.9721755000000001,0.02529,-0.069128,0.0008365000000000039,0.0028740000000000016,0.069128,-0.000836499999999997,-0.0028740000000000016,-0.120146,-0.3491645,0.015046000000000004,0.10997399999999999,-0.35437450000000004,0.039126,-0.129656,-0.6796345,0.049205,0.12082400000000001,-0.6864845,0.057021
59,0.014471500000000005,0.7044905,-4.749999999999893e-05,-0.1346115,0.5127404999999999,0.024464500000000004,-0.2260915,0.7634105,0.025167500000000002,0.15542850000000002,0.4762305,0.0140155,0.24852850000000004,0.7402305,0.021533500000000004,-0.2552415,0.9886905,0.034008500000000004,0.28748850000000004,0.9720905000000001,0.026990500000000004,-0.0691075,0.0008304999999999979,0.0030085000000000042,0.0691075,-0.0008304999999999979,-0.0030084999999999973,-0.12005149999999999,-0.3491495,0.015122500000000004,0.11007850000000001,-0.35445950000000004,0.039073500000000004,-0.12948149999999997,-0.6799495,0.049322500000000005,0.1208885,-0.6863995,0.0570735
60,0.014457999999999999,0.7045345000000001,1.6999999999996185e-05,-0.13473,0.5130045,0.024856999999999994,-0.227,0.7638145000000001,0.026526999999999995,0.15543,0.47622450000000005,0.013975999999999995,0.24852000000000002,0.7402245000000001,0.022727999999999995,-0.25587,0.9886845000000001,0.036032999999999996,0.28747,0.9720845000000001,0.028427999999999995,-0.069089,0.0008244999999999988,0.003167999999999997,0.069089,-0.0008244999999999988,-0.003168000000000004,-0.11997000000000001,-0.3490655,0.015160999999999994,0.11017,-0.35443549999999996,0.038967999999999996,-0.12935,-0.6799554999999999,0.049349,0.12095,-0.6862655,0.057088999999999994
61,0.014420500000000003,0.7045945,7.800000000000168e-05,-0.1348585,0.5131345,0.025186,-0.2281185,0.7641845,0.027757,0.1554015,0.47622450000000005,0.013922999999999998,0.2485915,0.7400845,0.023794,-0.25667850000000003,0.9891845,0.038188,0.2875215,0.9720845000000001,0.029743,-0.06907450000000001,0.0008244999999999988,0.0033450000000000008,0.06907450000000001,-0.0008244999999999988,-0.0033450000000000008,-0.11988850000000001,-0.3489855,0.015203000000000001,0.11029150000000001,-0.35443549999999996,0.038863999999999996,-0.1292885,-0.6797655,0.049374,0.1209915,-0.6859855,0.05711
62,0.014361999999999996,0.7046545000000001,0.0001744999999999941,-0.135007,0.5132345,0.025472499999999995,-0.22928700000000002,0.7642645,0.028742499999999997,0.15536299999999997,0.47620450000000003,0.013864499999999995,0.24888300000000002,0.7398145,0.024602499999999996,-0.257647,0.9896845,0.040120499999999996,0.287893,0.9722845000000001,0.030850499999999996,-0.069062,0.0008244999999999988,0.0035044999999999937,0.069062,-0.0008244999999999988,-0.0035045000000000007,-0.119817,-0.3489155,0.015233499999999997,0.110403,-0.35448549999999995,0.0387755,-0.129147,-0.6796055,0.049381499999999995,0.12106299999999999,-0.6858655,0.057117499999999995
63,0.014290000000000004,0.7047105,0.00019550000000000817,-0.13517400000000002,0.5133105,0.025704500000000005,-0.230574,0.7642805,0.029631500000000005,0.155316,0.47618049999999995,0.013761500000000003,0.249256,0.7395505,0.025375500000000006,-0.259654,0.9901004999999999,0.041834500000000004,0.288436,0.9726005000000001,0.031873500000000006,-0.06905800000000001,0.0008084999999999967,0.0036255000000000037,0.06905800000000001,-0.0008085000000000037,-0.0036254999999999968,-0.11974399999999999,-0.34885950000000004,0.015218500000000003,0.110516,-0.3545295,0.038643500000000004,-0.129004,-0.6794294999999999,0.04933250000000001,0.12112599999999998,-0.6856895,0.05707450000000001
64,0.014203499999999997,0.704795,0.00017250000000000598,-0.1353305,0.5133749999999999,0.025854500000000002,-0.2319705,0.7643449999999999,0.030365500000000004,0.1552795,0.476185,0.0136335,0.2497295,0.739355,0.026008500000000004,-0.2618405,0.990865,0.0430595,0.2893095,0.972865,0.032940500000000004,-0.0690605,0.0007689999999999989,0.003748500000000002,0.0690605,-0.0007689999999999989,-0.003748499999999995,-0.1196605,-0.348795,0.0151815,0.1106195,-0.35451499999999997,0.038504500000000004,-0.1288805,-0.679335,0.0492555,0.12116949999999999,-0.685335,0.0570175
65,0.014099499999999997,0.704888,0.00015899999999999942,-0.1354845,0.513458,0.025951,-0.23343450000000002,0.764228,0.030906999999999997,0.1552255,0.47621800000000003,0.013497999999999996,0.2502655,0.739138,0.026548999999999996,-0.2640445,0.9919479999999999,0.044105,0.2904755,0.973048,0.03417,-0.0690585,0.0007360000000000005,0.0038650000000000004,0.0690585,-0.0007360000000000005,-0.0038650000000000004,-0.1195745,-0.348712,0.015158999999999999,0.1107455,-0.354662,0.038391999999999996,-0.1287845,-0.679382,0.049171,0.12116549999999998,-0.684912,0.056964
66,0.013967000000000004,0.7050255,0.00015149999999999886,-0.13564500000000002,0.5135755,0.0260395,-0.234795,0.7637955,0.0313635,0.15523499999999998,0.47630550000000005,0.013395499999999998,0.25078500000000004,0.7389654999999999,0.0270165,-0.26618499999999995,0.9930655,0.0449275,0.291785,0.9732655,0.035339499999999996,-0.069054,0.0007014999999999938,0.0039545,0.069054,-0.0007015000000000007,-0.0039545,-0.11949499999999999,-0.34859450000000003,0.015163499999999996,0.11086499999999999,-0.3548245,0.0382855,-0.128725,-0.6795245,0.0491015,0.12115499999999998,-0.6843345,0.0569675
67,0.013834000000000003,0.705198,0.0001465000000000008,-0.13582699999999998,0.513608,0.026135500000000002,-0.235997,0.763188,0.031602500000000006,0.15526299999999998,0.476438,0.013350500000000001,0.251323,0.738868,0.027481500000000002,-0.26814699999999997,0.993228,0.044866500000000004,0.293103,0.973528,0.036228500000000004,-0.06905,0.000675000000000002,0.004042500000000004,0.06905,-0.000675000000000002,-0.0040424999999999975,-0.119417,-0.348532,0.015214499999999999,0.110973,-0.354942,0.038234500000000005,-0.128717,-0.679072,0.049086500000000005,0.121153,-0.6836720000000001,0.057009500000000005
68,0.013682,0.705391,9.10000000000008e-05,-0.136015,0.513601,0.026177000000000002,-0.23728500000000002,0.7625909999999999,0.031731,0.15530500000000003,0.47661099999999995,0.013324000000000003,0.25184500000000004,0.738791,0.027892000000000004,-0.27075499999999997,0.993421,0.044781,0.29463500000000004,0.9738209999999999,0.037082000000000004,-0.069039,0.0006470000000000017,0.004119000000000005,0.069039,-0.0006470000000000017,-0.004118999999999998,-0.119355,-0.348469,0.015258,0.111075,-0.355039,0.038272,-0.128745,-0.678489,0.049069,0.121125,-0.683249,0.057012
69,0.013508,0.7055895000000001,4.049999999999193e-05,-0.136186,0.5135695,0.026228499999999995,-0.238586,0.7617695000000001,0.03172649999999999,0.155344,0.47678950000000003,0.013315499999999994,0.25235399999999997,0.7387295,0.028202499999999995,-0.273446,0.9919195000000001,0.0447005,0.296184,0.9738195000000001,0.03773549999999999,-0.06902900000000001,0.0006175,0.004179499999999996,0.06902900000000001,-0.0006175,-0.004179500000000003,-0.119306,-0.3484205,0.015324499999999998,0.111174,-0.3551205,0.0383255,-0.128676,-0.6785604999999999,0.049020499999999995,0.12110400000000002,-0.6828805,0.057020499999999995
70,0.013346500000000004,0.7057855000000001,-1.9999999999999185e-05,-0.1363605,0.5135255000000001,0.026277000000000002,-0.23989049999999998,0.7607255,0.031716,0.15539950000000002,0.4769855,0.013314,0.2528595,0.7387155000000001,0.028343,-0.2768405,0.9898355000000001,0.043796,0.2977695,0.9740355,0.038099,-0.0690145,0.0005824999999999997,0.004239,0.0690145,-0.0005824999999999997,-0.004239,-0.11926049999999999,-0.3483645,0.015385000000000003,0.11123949999999999,-0.3551745,0.038372,-0.1287405,-0.6784245,0.048975,0.12110950000000001,-0.6827245,0.057042999999999996
71,0.013139499999999995,0.705995,-0.00020850000000000035,-0.1365535,0.513425,0.0263255,-0.2411835,0.759545,0.0317085,0.15544650000000002,0.477215,0.013308500000000001,0.25337649999999995,0.738755,0.0284295,-0.2802335,0.9880650000000001,0.0429575,0.29933649999999995,0.9741650000000001,0.0382415,-0.0690015,0.0005409999999999998,0.004299499999999998,0.0690015,-0.0005409999999999998,-0.004299499999999998,-0.1192135,-0.348335,0.015464499999999999,0.1113065,-0.35524500000000003,0.0384295,-0.1288235,-0.6778449999999999,0.0490215,0.12113650000000001,-0.682325,0.0570545
72,0.01293,0.706221,-0.00041500000000000564,-0.136744,0.513291,0.026291999999999996,-0.242434,0.758441,0.031727,0.155486,0.477461,0.013309999999999995,0.253906,0.738791,0.028541999999999998,-0.282754,0.984811,0.041699999999999994,0.300976,0.974711,0.038411999999999995,-0.068986,0.0005140000000000006,0.004364,0.068986,-0.0005140000000000006,-0.004364000000000007,-0.119184,-0.348449,0.015563999999999995,0.111366,-0.35528899999999997,0.038518,-0.128964,-0.677219,0.049026,0.121156,-0.681959,0.05712299999999999
73,0.012730500000000002,0.706415,-0.0007095000000000018,-0.1369645,0.513075,0.026209499999999997,-0.2437645,0.7573749999999999,0.0314415,0.15552549999999998,0.477675,0.013319499999999998,0.2545255,0.738785,0.028669499999999997,-0.2861645,0.9799250000000002,0.039905499999999997,0.3026255,0.975125,0.0385945,-0.0689655,0.0005029999999999965,0.004422499999999996,0.0689655,-0.0005030000000000034,-0.004422500000000003,-0.11916449999999999,-0.348655,0.015674499999999994,0.11139550000000001,-0.355365,0.0386175,-0.12912449999999998,-0.6765650000000001,0.0490725,0.12113550000000001,-0.6816249999999999,0.057207499999999994
74,0.012551999999999997,0.7066264999999999,-0.0010555000000000009,-0.137145,0.5128765,0.026122499999999996,-0.245035,0.7564664999999999,0.0310405,0.155555,0.4778865,0.0133495,0.255165,0.7388064999999999,0.0287235,-0.289605,0.9755364999999999,0.038045499999999996,0.304235,0.9753364999999999,0.038746499999999996,-0.06894800000000001,0.0004915000000000058,0.004476500000000001,0.06894800000000001,-0.0004914999999999989,-0.004476500000000001,-0.11915500000000001,-0.3487635,0.015789499999999998,0.111425,-0.35534350000000003,0.038723499999999994,-0.129365,-0.6756835,0.0491575,0.12101499999999998,-0.6812835,0.0573115
75,0.012410499999999998,0.7068395000000001,-0.0014429999999999998,-0.13732650000000002,0.5126495,0.026020000000000005,-0.24622650000000001,0.7560595,0.030514000000000003,0.1555935,0.47806950000000004,0.013363,0.2557835,0.7388095,0.028695000000000002,-0.29301649999999996,0.9741194999999999,0.036623,0.3057935,0.9755195,0.038669,-0.0689295,0.0004844999999999988,0.004524,0.0689295,-0.0004844999999999988,-0.004523999999999993,-0.1191565,-0.3488905,0.015942000000000005,0.11145350000000001,-0.35529049999999995,0.038845000000000005,-0.12958650000000002,-0.6751705,0.049247000000000006,0.1209035,-0.6810005,0.057440000000000005
76,0.012308500000000003,0.7069805,-0.0019349999999999992,-0.1374835,0.5125105,0.025928000000000003,-0.2473735,0.7559104999999999,0.029846000000000004,0.1556465,0.4782105,0.013377,0.2563865,0.7387905,0.028594000000000005,-0.29615349999999996,0.9698604999999999,0.034582,0.3073465,0.9756604999999999,0.03823700000000001,-0.06890750000000001,0.00047549999999999676,0.004525000000000001,0.06890750000000001,-0.0004755000000000037,-0.004524999999999994,-0.1191535,-0.3489595,0.016105,0.11148650000000002,-0.35525950000000006,0.038955000000000004,-0.1297435,-0.6750295000000001,0.04934,0.1207965,-0.6808595000000001,0.057493
77,0.0122225,0.707104,-0.0024069999999999994,-0.13762950000000002,0.512384,0.025827000000000003,-0.2483295,0.755814,0.029142,0.15572049999999998,0.478334,0.013360999999999998,0.2569605,0.7387539999999999,0.028344,-0.29849950000000003,0.9656739999999999,0.032466,0.3086505,0.9756739999999999,0.037266,-0.0688955,0.0004699999999999982,0.004515999999999999,0.0688955,-0.00047000000000000514,-0.004515999999999999,-0.11916950000000001,-0.349026,0.016262,0.1115005,-0.355246,0.039031,-0.1300595,-0.674116,0.049437,0.12072050000000001,-0.6805260000000001,0.057522000000000004
78,0.012156499999999997,0.707212,-0.002922000000000001,-0.1377525,0.512262,0.025709999999999997,-0.2491525,0.755732,0.028374999999999997,0.1557875,0.478442,0.013330999999999996,0.2575775,0.7387119999999999,0.027873,-0.3003025,0.9658819999999999,0.031129999999999998,0.30981749999999997,0.975482,0.03607,-0.06888549999999999,0.00046399999999999914,0.004506999999999997,0.06888549999999999,-0.00046399999999999914,-0.004507000000000004,-0.1191825,-0.349098,0.016409,0.11150750000000001,-0.355178,0.039101,-0.1303725,-0.673548,0.049546,0.12066750000000001,-0.680168,0.057602999999999994
79,0.012107,0.7073235,-0.003489999999999993,-0.137852,0.5121335,0.025602000000000003,-0.24976199999999998,0.7556635,0.027553000000000005,0.155858,0.47854349999999996,0.013301000000000007,0.258158,0.7386935,0.027304000000000005,-0.30127200000000004,0.9660835,0.030962000000000003,0.310808,0.9753835000000001,0.03481000000000001,-0.06887599999999999,0.0004674999999999957,0.004500000000000004,0.06887599999999999,-0.00046750000000000264,-0.004499999999999997,-0.11919199999999999,-0.3491665,0.016556000000000008,0.111538,-0.3551265,0.039169,-0.130662,-0.6728164999999999,0.04972000000000001,0.12060799999999999,-0.6801564999999999,0.057696000000000004
80,0.01211,0.707426,-0.003990500000000008,-0.137925,0.5119859999999999,0.025467499999999994,-0.25022500000000003,0.755656,0.026701499999999996,0.15593500000000002,0.47863599999999995,0.013269499999999997,0.258745,0.7386659999999999,0.026589499999999995,-0.302145,0.9660759999999999,0.030707499999999995,0.31165499999999996,0.975176,0.0332895,-0.068861,0.00047599999999999726,0.0044914999999999955,0.068861,-0.00047599999999999726,-0.0044915000000000024,-0.119165,-0.349194,0.016706499999999992,0.11157500000000001,-0.35505400000000004,0.039280499999999996,-0.13092499999999999,-0.672254,0.049921499999999994,0.12048500000000001,-0.680234,0.057790499999999995
81,0.012134500000000003,0.7075115,-0.004567000000000002,-0.1379895,0.5118714999999999,0.025355,-0.25059950000000003,0.7555115,0.025716,0.15600050000000001,0.4786915,0.01321,0.2592905,0.7386315,0.025805,-0.30283950000000004,0.9658315,0.030234,0.3124105,0.9749315000000001,0.031677,-0.0688375,0.00047849999999999976,0.004471000000000003,0.0688375,-0.00047849999999999976,-0.004471000000000003,-0.1191595,-0.34913849999999996,0.016839,0.11160049999999999,-0.3549985,0.039357,-0.1311195,-0.6717485000000001,0.050096,0.1203805,-0.6802685,0.057822
82,0.012147499999999999,0.707628,-0.005104499999999998,-0.1380455,0.511838,0.0253045,-0.2507355,0.7553380000000001,0.024931500000000002,0.15604449999999997,0.47875799999999996,0.013152500000000004,0.2596945,0.7386280000000001,0.025061500000000004,-0.3028055,0.9676980000000001,0.029852500000000004,0.3128645,0.974398,0.0300295,-0.0688285,0.00048500000000000626,0.004455500000000001,0.0688285,-0.0004849999999999993,-0.004455500000000001,-0.1191555,-0.349072,0.016952500000000002,0.1116245,-0.35494200000000004,0.039442500000000005,-0.1313455,-0.671032,0.050279500000000005,0.1203045,-0.680222,0.057910500000000004
83,0.012167499999999998,0.7077635,-0.005672499999999997,-0.13808550000000003,0.5117835,0.025237500000000003,-0.2507955,0.7551935,0.024157500000000002,0.15609450000000002,0.47880349999999994,0.013033500000000003,0.2600345,0.7386235,0.0243375,-0.30278550000000004,0.9696635,0.029441500000000002,0.3132045,0.9742635,0.028491500000000003,-0.0688225,0.0004914999999999989,0.004438499999999998,0.0688225,-0.0004914999999999989,-0.004438499999999998,-0.1191555,-0.3490065,0.0170625,0.1116245,-0.3548565,0.0395225,-0.1314555,-0.6702865,0.0504765,0.1202945,-0.6801265,0.0580525
84,0.012194999999999998,0.707917,-0.006253499999999995,-0.138123,0.511747,0.025184500000000005,-0.250813,0.755047,0.023504500000000005,0.15614699999999998,0.478857,0.012941500000000002,0.260367,0.738627,0.023580500000000004,-0.302763,0.971627,0.029086500000000005,0.313457,0.974127,0.027075500000000006,-0.06881999999999999,0.0004969999999999974,0.004393500000000002,0.06881999999999999,-0.0004970000000000044,-0.004393499999999995,-0.11913299999999999,-0.348883,0.017206500000000007,0.11163699999999999,-0.354783,0.039614500000000004,-0.13154300000000002,-0.669513,0.050709500000000005,0.120287,-0.679893,0.058257500000000004
85,0.012217500000000003,0.70803,-0.006682500000000001,-0.1381415,0.51167,0.0251035,-0.2507815,0.75486,0.0229915,0.1561885,0.47889000000000004,0.012855499999999999,0.26068850000000005,0.7386199999999999,0.0228285,-0.30253149999999995,0.97567,0.0290905,0.3136585,0.97397,0.0258185,-0.0688195,0.0005119999999999986,0.004372500000000001,0.0688195,-0.0005120000000000055,-0.004372500000000001,-0.1190515,-0.34863,0.0173535,0.11167850000000001,-0.35471,0.0397275,-0.13155150000000002,-0.6692400000000001,0.0508715,0.12027850000000001,-0.67961,0.0584975
86,0.012239,0.7081090000000001,-0.007111500000000007,-0.138152,0.511679,0.025042499999999995,-0.25076200000000004,0.7546489999999999,0.022564499999999998,0.156228,0.47888899999999995,0.012808499999999994,0.260978,0.7386189999999999,0.022159499999999995,-0.302162,0.9794990000000001,0.028888499999999998,0.313858,0.9738990000000001,0.024806499999999995,-0.068817,0.0005179999999999976,0.004338499999999995,0.068817,-0.0005180000000000046,-0.004338500000000002,-0.118952,-0.348431,0.017519499999999993,0.111718,-0.354651,0.0398525,-0.131542,-0.6690210000000001,0.05101049999999999,0.120268,-0.6792609999999999,0.0587665
87,0.0122425,0.708184,-0.0075194999999999915,-0.13816050000000002,0.5116740000000001,0.024999500000000004,-0.2507605,0.754464,0.022191500000000006,0.15627950000000002,0.47890399999999994,0.012767500000000008,0.26119950000000003,0.738634,0.021586500000000005,-0.3017105,0.9833140000000001,0.028598500000000006,0.3139995,0.9738140000000001,0.023966500000000005,-0.0688075,0.0005210000000000006,0.004311500000000003,0.0688075,-0.0005210000000000006,-0.004311499999999996,-0.1188805,-0.34822600000000004,0.017689500000000004,0.1117695,-0.354586,0.03997350000000001,-0.13157049999999998,-0.669006,0.0512135,0.1204295,-0.678346,0.059106500000000006
88,0.012232499999999997,0.7082465,-0.007915500000000006,-0.13820749999999998,0.5116765000000001,0.024989499999999998,-0.25059750000000003,0.7544865000000001,0.0218475,0.15631250000000002,0.4788965,0.012715499999999998,0.26138249999999996,0.7386265000000001,0.020904499999999996,-0.3012575,0.9871165,0.028347499999999998,0.3140825,0.9737165000000001,0.023017499999999996,-0.0687825,0.0005215000000000011,0.004245499999999999,0.0687825,-0.0005215000000000011,-0.004245499999999999,-0.1188075,-0.3480235,0.017875499999999996,0.11182249999999999,-0.3544935,0.040083499999999994,-0.1313975,-0.6690434999999999,0.0514455,0.12059249999999999,-0.6772035000000001,0.0594875
89,0.012202000000000001,0.7082975,-0.008274499999999997,-0.138278,0.5116775,0.0250585,-0.25036800000000003,0.7545075,0.0215425,0.156242,0.47890749999999993,0.012674499999999998,0.261502,0.7386275,0.0203295,-0.300718,0.9908174999999999,0.0283775,0.314112,0.9735175,0.0222765,-0.068762,0.0005205000000000001,0.004201500000000004,0.068762,-0.0005205000000000001,-0.004201499999999997,-0.118758,-0.34784249999999994,0.018056500000000003,0.11185200000000001,-0.35440249999999995,0.040204500000000004,-0.131138,-0.6697525,0.0515685,0.120782,-0.6760925,0.0598165
90,0.012154000000000005,0.7083275,-0.008544000000000003,-0.138384,0.5116775,0.025129999999999996,-0.250074,0.7545075,0.021342999999999997,0.156146,0.47890749999999993,0.012648999999999994,0.261586,0.7386375,0.019784999999999997,-0.300164,0.9908174999999999,0.028473999999999996,0.314076,0.9734175,0.021730999999999997,-0.068745,0.0005205000000000001,0.004163,0.068745,-0.0005205000000000001,-0.004163,-0.118714,-0.34760250000000004,0.018247,0.111876,-0.35430249999999996,0.040312999999999995,-0.131094,-0.6696325000000001,0.051718999999999994,0.12098600000000001,-0.6749725,0.060217999999999994
91,0.012107999999999997,0.7083475,-0.008821499999999996,-0.138488,0.5117174999999999,0.025183500000000004,-0.249748,0.7545575,0.021000500000000002,0.156052,0.47890749999999993,0.012560500000000002,0.261642,0.7386475,0.019284500000000003,-0.299528,0.9908174999999999,0.028481500000000003,0.314022,0.9731175000000001,0.021360500000000004,-0.06872600000000001,0.0005205000000000001,0.004119500000000005,0.06872600000000001,-0.0005205000000000001,-0.004119499999999998,-0.11865800000000001,-0.3473425,0.018392500000000006,0.111952,-0.3542025,0.0403285,-0.131038,-0.6696125,0.051896500000000005,0.121442,-0.6737525,0.060706500000000004
92,0.012024999999999997,0.7083415,-0.009014000000000001,-0.13864800000000002,0.5118415,0.025249,-0.249418,0.7545915,0.020638,0.155882,0.47916149999999996,0.012143000000000001,0.261722,0.7387914999999999,0.018829,-0.298898,0.9908014999999999,0.028524,0.313942,0.9729014999999999,0.021065,-0.068711,0.0005094999999999961,0.004087,0.068711,-0.000509500000000003,-0.004087,-0.118668,-0.3471085,0.018561,0.11200199999999999,-0.3541185,0.040356,-0.131008,-0.6693385000000001,0.052132,0.122082,-0.6727585,0.061278
93,0.011939000000000002,0.708324,-0.009149999999999998,-0.138816,0.511974,0.025300999999999997,-0.249086,0.754914,0.020270999999999997,0.15568400000000002,0.479414,0.011702999999999998,0.26179399999999997,0.738924,0.018424999999999997,-0.298256,0.990274,0.02794,0.313884,0.9727739999999999,0.020738999999999997,-0.06869900000000001,0.0004979999999999984,0.004081000000000001,0.06869900000000001,-0.0004979999999999984,-0.004081000000000001,-0.11865599999999998,-0.346836,0.018698,0.11207400000000001,-0.354056,0.040361999999999995,-0.130956,-0.668336,0.052316999999999995,0.12265400000000001,-0.672676,0.061679
94,0.011848499999999998,0.7082605,-0.009279999999999997,-0.13898749999999999,0.5125204999999999,0.025363,-0.24871749999999998,0.7551505,0.019935,0.1553925,0.47968049999999995,0.011133999999999998,0.2618325,0.7390205,0.018092000000000004,-0.2974675,0.9896905,0.027293,0.3138025,0.9726904999999999,0.020451999999999998,-0.0686655,0.0004904999999999979,0.004029999999999999,0.0686655,-0.0004904999999999979,-0.004029999999999999,-0.1186875,-0.3466395,0.018864,0.1121125,-0.3540495,0.04039,-0.1307875,-0.6682595,0.052518,0.1231425,-0.6726495,0.061917
95,0.011746999999999997,0.7081735,-0.009394999999999994,-0.13912999999999998,0.5130435,0.02543,-0.24830999999999998,0.7555035,0.019620000000000005,0.15533999999999998,0.47998349999999995,0.010576000000000002,0.26187,0.7389935000000001,0.01777,-0.29666,0.9893035000000001,0.026683000000000002,0.31371,0.9726035,0.020200000000000003,-0.068633,0.00047749999999999876,0.00401,0.068633,-0.0004775000000000057,-0.00401,-0.11874,-0.3464465,0.019034000000000002,0.11214,-0.3540665,0.040412000000000003,-0.13063999999999998,-0.6681765,0.052715000000000005,0.12366,-0.6723264999999999,0.06217
96,0.011653,0.7080215,-0.0094775,-0.139312,0.5136515,0.0255095,-0.24790199999999998,0.7556115,0.0193355,0.155318,0.48030150000000005,0.010100499999999998,0.261908,0.7389915,0.0175415,-0.29582200000000003,0.9887514999999999,0.026145500000000002,0.31362799999999996,0.9724514999999999,0.019950500000000003,-0.068575,0.00045949999999999463,0.003981499999999999,0.068575,-0.0004595000000000016,-0.003981499999999999,-0.118782,-0.3463285,0.019215500000000003,0.112178,-0.3541485,0.0404365,-0.130472,-0.6686585,0.0529595,0.123918,-0.6723785,0.0624115
97,0.011579500000000003,0.707824,-0.0094845,-0.13949849999999997,0.514324,0.0256205,-0.24761850000000002,0.755684,0.0191485,0.1552615,0.48077400000000003,0.009580499999999999,0.2619715,0.7389439999999999,0.0175105,-0.2949885,0.9883639999999999,0.025610499999999998,0.3135615,0.9721639999999999,0.019867499999999996,-0.0685235,0.0004369999999999999,0.003998500000000002,0.0685235,-0.0004369999999999999,-0.003998500000000002,-0.1188085,-0.346266,0.019396499999999997,0.1122115,-0.354306,0.0405085,-0.13034849999999998,-0.670146,0.0532285,0.1241115,-0.672566,0.0626485
98,0.011513500000000003,0.707599,-0.009474000000000003,-0.1396295,0.5148590000000001,0.025717,-0.24732949999999998,0.755739,0.019035999999999997,0.15528050000000002,0.481499,0.009141999999999997,0.2620505,0.738869,0.017460999999999997,-0.2942295,0.9881489999999999,0.025242,0.3135005,0.971749,0.019826999999999997,-0.06846949999999999,0.00040499999999999564,0.004032000000000001,0.06846949999999999,-0.0004050000000000026,-0.004032000000000001,-0.1187995,-0.34618099999999996,0.019526999999999996,0.11226050000000001,-0.354471,0.040566,-0.13034949999999998,-0.670721,0.053475999999999996,0.12431050000000002,-0.672781,0.062872
99,0.011464500000000006,0.707378,-0.009438000000000002,-0.1397425,0.5153979999999999,0.025822,-0.2469425,0.755818,0.018979000000000003,0.15522750000000002,0.482238,0.008628999999999998,0.26215750000000004,0.738818,0.017479,-0.2935425,0.9879379999999999,0.024963,0.31344750000000005,0.9712379999999999,0.019756999999999997,-0.0684115,0.00037500000000000033,0.004071999999999999,0.0684115,-0.00037500000000000033,-0.004071999999999999,-0.1187925,-0.346192,0.019662,0.1123075,-0.354662,0.040632,-0.13033250000000002,-0.671402,0.053733,0.12440750000000002,-0.6739620000000001,0.062964
100,0.011411499999999998,0.707166,-0.009365000000000005,-0.1399125,0.515936,0.025944,-0.24661249999999998,0.7557459999999999,0.019086,0.1550075,0.482976,0.008156999999999998,0.2622675,0.738756,0.017505,-0.2929525,0.9877259999999999,0.024817999999999996,0.3134075,0.970726,0.019722999999999997,-0.06835849999999999,0.000346000000000006,0.004142,0.06835849999999999,-0.0003459999999999991,-0.004142,-0.11878250000000001,-0.34621399999999997,0.019791999999999997,0.1122775,-0.35486399999999996,0.040722999999999995,-0.1304725,-0.671894,0.054118,0.1243475,-0.6750240000000001,0.063066
101,0.0113745,0.706963,-0.009289500000000006,-0.1400575,0.516453,0.026081499999999997,-0.2462975,0.755653,0.019205499999999993,0.15475250000000002,0.48351299999999997,0.008072499999999996,0.2623425,0.7387130000000001,0.017536499999999997,-0.29239750000000003,0.9876229999999999,0.024679499999999997,0.3134225,0.9701230000000001,0.019549499999999997,-0.06832150000000001,0.00032899999999999596,0.004219499999999994,0.06832150000000001,-0.0003290000000000029,-0.004219500000000001,-0.1187675,-0.346227,0.019915499999999996,0.1122525,-0.355057,0.0407975,-0.13057749999999999,-0.672487,0.054482499999999996,0.12430250000000001,-0.676207,0.0631335
102,0.011338499999999998,0.706751,-0.009220499999999993,-0.14019550000000003,0.517021,0.026236500000000003,-0.2459755,0.755451,0.019348500000000005,0.15442450000000002,0.484031,0.007987500000000002,0.2624245,0.738591,0.0175615,-0.29189550000000003,0.9873209999999999,0.024622500000000002,0.3135145,0.9695210000000001,0.019342500000000006,-0.0682875,0.0003060000000000007,0.0042695000000000025,0.0682875,-0.0003060000000000007,-0.0042694999999999955,-0.1187755,-0.346329,0.020055500000000004,0.1122145,-0.355259,0.0408555,-0.1307855,-0.672319,0.054824500000000005,0.12426449999999999,-0.677219,0.06313450000000001
103,0.011327999999999998,0.7065475,-0.009147000000000002,-0.14027599999999998,0.5172375,0.026463000000000004,-0.245676,0.7552775,0.019501000000000004,0.154164,0.48467749999999993,0.007849000000000002,0.262564,0.7385075,0.017541,-0.291526,0.9871475,0.024640000000000002,0.31369400000000003,0.9690475,0.019064000000000005,-0.06825600000000001,0.00027649999999999897,0.004366000000000002,0.06825600000000001,-0.00027649999999999897,-0.004365999999999995,-0.118756,-0.34644250000000004,0.020201000000000004,0.11221400000000001,-0.3554425,0.040883,-0.130816,-0.6722524999999999,0.055193000000000006,0.124144,-0.6781225,0.063265
104,0.0113435,0.7063255,-0.009112000000000002,-0.1403555,0.5174355,0.026660000000000003,-0.24539550000000002,0.7550355,0.019636,0.15405449999999998,0.48530550000000006,0.007667,0.2627645,0.7383255,0.017484,-0.29122549999999997,0.9868655,0.024666000000000004,0.31391450000000004,0.9684655,0.018758000000000004,-0.0682065,0.0002525000000000027,0.0044399999999999995,0.0682065,-0.0002524999999999958,-0.0044399999999999995,-0.1187155,-0.34658449999999996,0.020322,0.1122245,-0.35563449999999996,0.040898000000000004,-0.1308355,-0.6723844999999999,0.055482000000000004,0.1238745,-0.6794344999999999,0.063163
105,0.011380999999999995,0.7061725,-0.00913,-0.140328,0.5173725,0.026802000000000003,-0.245008,0.7546725000000001,0.019504,0.153952,0.48615249999999993,0.007390000000000001,0.26300199999999996,0.7382325000000001,0.017291,-0.290918,0.9866425,0.024476,0.31416199999999994,0.9677425000000001,0.018137,-0.068163,0.0002354999999999996,0.004507999999999998,0.068163,-0.0002354999999999996,-0.004507999999999998,-0.118658,-0.3466775,0.020408000000000003,0.112262,-0.3557775,0.040909,-0.13067800000000002,-0.6730375,0.055731,0.123642,-0.6800075,0.06316
106,0.0114175,0.705915,-0.0091995,-0.1402925,0.517185,0.026872500000000004,-0.2446525,0.7541950000000001,0.0192135,0.1539875,0.48670500000000005,0.007043500000000001,0.2632675,0.738075,0.0169375,-0.2906325,0.986335,0.024058500000000003,0.31446749999999996,0.9669350000000001,0.017336500000000005,-0.0681135,0.00020499999999999685,0.004562500000000004,0.0681135,-0.0002050000000000038,-0.004562499999999997,-0.11858250000000001,-0.346835,0.0204485,0.1123075,-0.356025,0.0408695,-0.1305125,-0.673795,0.055934500000000005,0.12349750000000001,-0.680295,0.06321850000000001
107,0.011446500000000002,0.7057289999999999,-0.009347000000000008,-0.1402715,0.517069,0.026882999999999997,-0.2443115,0.753719,0.018776,0.1539785,0.486889,0.006608999999999997,0.2635185,0.737959,0.016570999999999995,-0.29031149999999994,0.985949,0.023386999999999998,0.3147685,0.9660489999999999,0.016431,-0.0680665,0.0001860000000000056,0.004576999999999998,0.0680665,-0.00018599999999999867,-0.004577000000000005,-0.1185415,-0.346981,0.020506999999999997,0.1123485,-0.356221,0.040805999999999995,-0.1303515,-0.674581,0.05609,0.1233485,-0.680651,0.063271
108,0.011457000000000002,0.7055669999999999,-0.009654999999999997,-0.140021,0.516907,0.026317000000000004,-0.244151,0.753337,0.018139000000000002,0.15408899999999998,0.48678699999999997,0.0061380000000000046,0.263789,0.737797,0.015968000000000003,-0.289991,0.985587,0.022477000000000004,0.315089,0.965087,0.015229,-0.068048,0.00016599999999999948,0.004604000000000004,0.068048,-0.00016599999999999948,-0.004603999999999997,-0.118501,-0.34708300000000003,0.020364,0.112369,-0.356393,0.040573000000000005,-0.13022099999999998,-0.675283,0.056086000000000004,0.123289,-0.680813,0.063143
109,0.011457500000000006,0.705384,-0.009968499999999991,-0.13976149999999998,0.5166740000000001,0.0256765,-0.2439715,0.7528539999999999,0.017383500000000003,0.1541385,0.48678400000000005,0.005649500000000002,0.26405850000000003,0.737614,0.015335500000000002,-0.28972149999999997,0.985104,0.021297500000000004,0.3153985,0.9641039999999998,0.013894500000000004,-0.0680375,0.0001480000000000023,0.004604500000000004,0.0680375,-0.00014799999999999536,-0.0046044999999999975,-0.1184615,-0.347266,0.0201765,0.1123785,-0.356576,0.0403095,-0.1301215,-0.6761060000000001,0.0559235,0.12328850000000001,-0.6808160000000001,0.0630295
110,0.011468000000000006,0.705238,-0.010305999999999996,-0.139488,0.5164580000000001,0.025038,-0.243828,0.7523580000000001,0.016493,0.154022,0.48619799999999996,0.005221000000000003,0.264422,0.7376579999999999,0.014624000000000005,-0.289478,0.9845380000000001,0.020031,0.315682,0.963138,0.012604000000000004,-0.06803100000000001,0.00011500000000000399,0.004605000000000005,0.06803100000000001,-0.00011499999999999705,-0.004604999999999998,-0.11840799999999999,-0.347482,0.019923000000000003,0.112422,-0.356712,0.039970000000000006,-0.129968,-0.6776420000000001,0.055406000000000004,0.123252,-0.680982,0.06289
111,0.011453999999999999,0.7051149999999999,-0.010627499999999998,-0.13924999999999998,0.516295,0.0244085,-0.24373,0.751965,0.015524500000000004,0.15402,0.485895,0.005015499999999999,0.26481,0.737815,0.013859500000000004,-0.2893,0.9840149999999999,0.018682500000000005,0.316,0.962215,0.011117500000000002,-0.068019,8.500000000000174e-05,0.0046054999999999985,0.068019,-8.500000000000174e-05,-0.0046054999999999985,-0.11835,-0.347645,0.019653500000000004,0.11247,-0.356815,0.0396475,-0.12991,-0.678805,0.0548015,0.12318,-0.681045,0.0627485
112,0.011339999999999996,0.7050855,-0.011087499999999993,-0.139057,0.5160055,0.0236785,-0.24373699999999998,0.7515655,0.014356500000000001,0.153933,0.48559549999999996,0.0048845,0.26514299999999996,0.7380855,0.012867500000000004,-0.289277,0.9832255,0.016696500000000003,0.316223,0.9611255,0.009452500000000003,-0.068026,5.6500000000000994e-05,0.004573500000000001,0.068026,-5.6500000000000994e-05,-0.004573500000000001,-0.118337,-0.3477845,0.019250500000000004,0.112483,-0.3569045,0.039163500000000004,-0.12987700000000002,-0.6805145,0.053962500000000004,0.12300299999999999,-0.6814145,0.062436500000000006
113,0.011162000000000002,0.705178,-0.011805499999999997,-0.13896199999999997,0.5159079999999999,0.022746500000000003,-0.24381199999999997,0.7511479999999999,0.012879500000000002,0.153798,0.48553799999999997,0.0045165,0.26545799999999997,0.7383679999999999,0.011499500000000003,-0.289302,0.982368,0.0142375,0.316438,0.959968,0.007414500000000004,-0.068054,3.600000000000131e-05,0.0044925000000000034,0.068054,-3.600000000000131e-05,-0.0044924999999999965,-0.118312,-0.347952,0.0185945,0.112508,-0.356902,0.0383715,-0.129762,-0.6826220000000001,0.0528515,0.12280799999999999,-0.6817920000000001,0.0618215
114,0.0109315,0.7052875000000001,-0.012691500000000001,-0.1389165,0.5157875000000001,0.0216745,-0.2439465,0.7508275,0.0112825,0.1536235,0.48547749999999995,0.0039384999999999976,0.26571350000000005,0.7386575,0.009931500000000003,-0.28935649999999996,0.9814075,0.011362499999999998,0.31660350000000004,0.9590075,0.005372500000000002,-0.06811249999999999,2.3499999999995747e-05,0.004425499999999999,0.06811249999999999,-2.3500000000002685e-05,-0.004425499999999999,-0.1182765,-0.3481425,0.0177005,0.11254349999999999,-0.3568925,0.0373295,-0.1296965,-0.6847924999999999,0.0514765,0.12256349999999999,-0.6819725000000001,0.0609675
115,0.010655499999999995,0.7054834999999999,-0.013863,-0.13886150000000003,0.5155735,0.020450999999999997,-0.24409150000000002,0.7505235,0.009371999999999998,0.15360849999999998,0.4854035,0.003238999999999999,0.2658985,0.7389435,0.008119000000000001,-0.2894415,0.9802935,0.008261999999999999,0.3167085,0.9579935,0.002824,-0.0682055,3.749999999999587e-05,0.004393999999999995,0.0682055,-3.750000000000281e-05,-0.004394000000000002,-0.1182315,-0.3484565,0.016486999999999995,0.11259849999999999,-0.3568965,0.035921999999999996,-0.1296715,-0.6870165,0.049824999999999994,0.12228850000000001,-0.6821165,0.059725
116,0.010302500000000003,0.7057235,-0.015154999999999995,-0.1388865,0.5152734999999999,0.019015999999999998,-0.2443065,0.7502135,0.007274999999999997,0.15355349999999998,0.4852035,0.00238,0.2660135,0.7391435,0.006066999999999996,-0.2896365,0.9791934999999999,0.005019000000000003,0.3167735,0.9566935,-0.0002149999999999999,-0.06832150000000001,3.749999999999587e-05,0.0043209999999999985,0.06832150000000001,-3.750000000000281e-05,-0.0043209999999999985,-0.11817649999999999,-0.34881650000000003,0.014943999999999999,0.11264350000000001,-0.35692650000000004,0.034199999999999994,-0.1296965,-0.6891765,0.047855,0.1219635,-0.6822865,0.058157
117,0.009920000000000002,0.7059835,-0.016553,-0.13916099999999998,0.5150735,0.017624,-0.24465099999999998,0.7499835,0.004908000000000003,0.153559,0.48497349999999995,0.0014149999999999996,0.266019,0.7391835,0.0037410000000000013,-0.28997100000000003,0.9780935000000001,0.001229000000000001,0.316779,0.9552934999999999,-0.0035149999999999973,-0.068452,3.749999999999587e-05,0.004235000000000003,0.068452,-3.750000000000281e-05,-0.004234999999999996,-0.118131,-0.34920650000000003,0.013151000000000003,0.112689,-0.3569565,0.032204,-0.129741,-0.6914865,0.045544,0.121679,-0.6825565,0.056280000000000004
118,0.009476499999999999,0.7061515,-0.018249500000000002,-0.1394875,0.5149915,0.015933500000000003,-0.24505749999999998,0.7497115,0.002214500000000001,0.1535125,0.4843615,0.0001865000000000061,0.2659625,0.7392615,0.0011565000000000047,-0.2904275,0.9769715,-0.0030124999999999943,0.3167425,0.9540715000000001,-0.007021499999999993,-0.0686085,2.9500000000001747e-05,0.004139500000000004,0.0686085,-2.9499999999994808e-05,-0.004139499999999997,-0.1181475,-0.3496585,0.011011500000000007,0.11271250000000001,-0.3569085,0.029934500000000003,-0.1298475,-0.6933285,0.0429485,0.12133250000000001,-0.6832685,0.0540305
119,0.009108499999999999,0.7062725000000001,-0.020407,-0.13973349999999998,0.5149325,0.013781999999999996,-0.2454035,0.7493425,-0.0008340000000000014,0.1535765,0.4838225,-0.0013160000000000047,0.2659365,0.7393825,-0.0017350000000000004,-0.2908835,0.9757925,-0.007921000000000004,0.3168265,0.9528925,-0.011337,-0.0688245,5.2499999999996994e-05,0.004045,0.0688245,-5.250000000000393e-05,-0.004045,-0.11821350000000001,-0.3503875,0.008324999999999999,0.11287649999999999,-0.3571375,0.027135999999999997,-0.1299035,-0.6940474999999999,0.040061,0.12096649999999999,-0.6839774999999999,0.051107
120,0.008832000000000003,0.706516,-0.023525500000000005,-0.13987899999999998,0.514876,0.010933499999999999,-0.245639,0.748916,-0.004930500000000004,0.153721,0.483356,-0.003519500000000002,0.265971,0.739626,-0.005476500000000002,-0.291249,0.9746360000000001,-0.0141395,0.316971,0.9519359999999999,-0.016435500000000006,-0.069049,0.00010399999999999993,0.003977499999999995,0.069049,-0.00010399999999999993,-0.003977500000000002,-0.118269,-0.351394,0.004549499999999998,0.11324100000000001,-0.35760400000000003,0.023212499999999997,-0.129769,-0.694514,0.036186499999999996,0.12053100000000001,-0.685154,0.0469015
121,0.008704499999999997,0.7069695,-0.027222499999999997,-0.1398585,0.5148294999999999,0.0074205000000000035,-0.2457085,0.7487795,-0.009870499999999997,0.15398150000000002,0.4830995,-0.006372499999999996,0.2661415,0.7399495,-0.009891499999999998,-0.2914485,0.9737895,-0.020908499999999997,0.31730149999999996,0.9514095,-0.022357499999999995,-0.0691895,0.0001794999999999991,0.0038255000000000025,0.0691895,-0.0001794999999999991,-0.0038254999999999956,-0.11816850000000001,-0.3521805,-0.0001724999999999921,0.1138015,-0.3581305,0.018134500000000005,-0.1293385,-0.6943105,0.031443500000000006,0.1201215,-0.6866105,0.041656500000000006
122,0.008650999999999999,0.7073714999999999,-0.030907500000000004,-0.139765,0.5147915,0.0038135000000000044,-0.245695,0.7483115,-0.015010499999999996,0.154295,0.48285150000000004,-0.0094015,0.266375,0.7401814999999999,-0.014316499999999996,-0.291535,0.9730214999999999,-0.0279335,0.317665,0.9509515,-0.028325500000000003,-0.069263,0.00026149999999999785,0.0038004999999999983,0.069263,-0.00026149999999999785,-0.0038004999999999983,-0.117975,-0.3529385,-0.0052315,0.11440499999999999,-0.3585585,0.012744500000000002,-0.128835,-0.6938485000000001,0.0265175,0.11987500000000001,-0.6879085,0.0362395
123,0.008555499999999997,0.7076454999999999,-0.0347185,-0.13966350000000002,0.5147554999999999,4.849999999999993e-05,-0.2456835,0.7479454999999999,-0.0202455,0.15449649999999998,0.48262549999999993,-0.012784499999999997,0.26665649999999996,0.7403155,-0.018967499999999998,-0.2915735,0.9724355,-0.0349165,0.3180865,0.9505155,-0.034449499999999994,-0.0693195,0.00038249999999999396,0.0037265000000000006,0.0693195,-0.0003825000000000009,-0.0037265000000000006,-0.11775350000000001,-0.35366450000000005,-0.010563499999999997,0.1150165,-0.35863449999999997,0.0070285,-0.1283335,-0.6932345000000001,0.0213155,0.11964649999999999,-0.6895645,0.0304325
124,0.008551499999999997,0.70772,-0.038611000000000006,-0.13947350000000003,0.5146999999999999,-0.003949000000000001,-0.24554350000000003,0.74764,-0.025249999999999998,0.15470649999999997,0.48244,-0.016430000000000004,0.26704649999999996,0.7403,-0.023796,-0.29145350000000003,0.9721099999999999,-0.04198,0.3186365,0.95039,-0.04056,-0.0694255,0.0004989999999999994,0.0036279999999999993,0.0694255,-0.0004989999999999994,-0.0036279999999999993,-0.1176935,-0.35442,-0.016242000000000003,0.1156865,-0.35843,0.0010970000000000008,-0.1279635,-0.69284,0.015844999999999998,0.1196665,-0.69071,0.024453
125,0.008539499999999995,0.7074205,-0.0424885,-0.1393065,0.5146305,-0.008040499999999999,-0.2453865,0.7473405000000001,-0.0304125,0.1549535,0.4822805,-0.0202145,0.2674935,0.7401905000000001,-0.0287345,-0.29127650000000005,0.9718005000000001,-0.049174499999999996,0.31935349999999996,0.9506405,-0.046827499999999994,-0.06954350000000001,0.0006024999999999989,0.003464499999999999,0.06954350000000001,-0.0006024999999999989,-0.003464499999999999,-0.1177765,-0.35523950000000004,-0.0221215,0.11634349999999999,-0.35820949999999996,-0.005015499999999999,-0.1276365,-0.6924595,0.0102045,0.11975350000000001,-0.6917895,0.0182945
126,0.008494,0.7067220000000001,-0.04657549999999999,-0.13912,0.514552,-0.012431499999999998,-0.24525,0.747082,-0.0357905,0.15521,0.482142,-0.0243505,0.26818,0.7399220000000001,-0.034076499999999996,-0.29106,0.971752,-0.0564895,0.3204,0.950412,-0.05406649999999999,-0.069645,0.0007160000000000014,0.0032075000000000003,0.069645,-0.0007160000000000014,-0.0032074999999999985,-0.11808,-0.355968,-0.028466500000000002,0.11705,-0.357848,-0.0117715,-0.12729000000000001,-0.6920179999999999,0.0042115,0.11992,-0.692668,0.011730500000000001
127,0.008346499999999998,0.705521,-0.0509865,-0.1390645,0.514461,-0.0168465,-0.2451645,0.7463609999999999,-0.0418855,0.1553855,0.482191,-0.0290075,0.2688855,0.739671,-0.0403315,-0.2908145,0.972131,-0.0643225,0.32161549999999994,0.9503809999999999,-0.062420500000000004,-0.0697715,0.0008210000000000023,0.0031245000000000005,0.0697715,-0.0008210000000000023,-0.0031245000000000005,-0.1185945,-0.356439,-0.0356855,0.1178355,-0.35710899999999995,-0.0195755,-0.1269045,-0.691219,-0.0025835000000000007,0.12027550000000001,-0.693199,0.0043125
128,0.008160500000000003,0.704225,-0.055141,-0.1391015,0.5142049999999999,-0.020804000000000003,-0.24503149999999999,0.7455649999999999,-0.047798,0.1555485,0.48215500000000006,-0.033199,0.2697485,0.737935,-0.046397,-0.2905515,0.972655,-0.071724,0.32293849999999996,0.9504349999999999,-0.070359,-0.06993250000000001,0.0008820000000000008,0.003053,0.06993250000000001,-0.0008820000000000008,-0.003053,-0.11922150000000001,-0.356555,-0.042663,0.11858850000000001,-0.356075,-0.027209000000000004,-0.1265015,-0.690095,-0.009086,0.1207085,-0.693165,-0.0027530000000000002
129,0.007934999999999994,0.7025695,-0.058629,-0.139206,0.5138495,-0.023778999999999998,-0.244936,0.7444095000000001,-0.052925,0.15554400000000002,0.4820995,-0.03662,0.270374,0.7361895,-0.051749,-0.290316,0.9731295,-0.07791,0.32418399999999997,0.9504995,-0.07749099999999999,-0.070078,0.0009165000000000006,0.002881,0.070078,-0.0009165000000000006,-0.002881,-0.119976,-0.3563205,-0.048821,0.119264,-0.3549905,-0.034036000000000004,-0.12620599999999998,-0.6889505,-0.014766000000000001,0.121104,-0.6926005,-0.008792000000000001
130,0.007740999999999998,0.7008555,-0.0616465,-0.13933600000000002,0.5135155,-0.026071499999999997,-0.244846,0.7432355,-0.0574445,0.155444,0.4819755,-0.0395755,0.271314,0.7343255,-0.0565145,-0.29009599999999997,0.9737655000000001,-0.0832805,0.32546400000000003,0.9505155,-0.0840735,-0.070222,0.0009475000000000039,0.0028434999999999997,0.070222,-0.000947499999999997,-0.0028434999999999997,-0.120786,-0.3562345,-0.0544195,0.11993399999999999,-0.3538845,-0.0400815,-0.125936,-0.6874645,-0.0197975,0.12151399999999998,-0.6917745,-0.0141265
131,0.007488999999999996,0.6992695,-0.0646065,-0.13951200000000002,0.5129895,-0.0281455,-0.244842,0.7420895,-0.061838500000000005,0.155188,0.48169950000000006,-0.0424655,0.272028,0.7320795,-0.061268500000000004,-0.290012,0.9745294999999999,-0.0883915,0.32667799999999997,0.9506995,-0.0907565,-0.07031799999999999,0.000952500000000002,0.0026844999999999994,0.07031799999999999,-0.000952499999999995,-0.0026845000000000003,-0.12160200000000002,-0.3561105,-0.0599585,0.120588,-0.3527605,-0.0462795,-0.125782,-0.6858605,-0.0247985,0.121948,-0.6905905,-0.0193705
132,0.0072735000000000005,0.6976289999999999,-0.0673125,-0.13982050000000001,0.512479,-0.0299805,-0.2448805,0.740779,-0.0658945,0.1547695,0.481259,-0.0451475,0.2726095,0.7295889999999999,-0.0658305,-0.2900605,0.975449,-0.09315849999999999,0.32781950000000004,0.950889,-0.0974255,-0.0703575,0.0009320000000000023,0.0026075000000000004,0.0703575,-0.0009319999999999953,-0.0026075000000000004,-0.1223805,-0.35592100000000004,-0.0653755,0.1211895,-0.35123099999999996,-0.0523715,-0.1257305,-0.683891,-0.0295915,0.12248949999999999,-0.688991,-0.0242805
133,0.007085500000000003,0.695875,-0.0699505,-0.1401705,0.511865,-0.0316925,-0.2450105,0.739485,-0.06987950000000001,0.1542595,0.48081500000000005,-0.047573500000000005,0.2730295,0.7269749999999999,-0.0704205,-0.2902205,0.9766249999999999,-0.0977945,0.3288795,0.9510050000000001,-0.10395850000000001,-0.0703555,0.0008809999999999998,0.0025594999999999993,0.0703555,-0.0008809999999999998,-0.002559500000000001,-0.1230605,-0.355645,-0.0707135,0.12172949999999999,-0.349155,-0.0584535,-0.1258505,-0.682285,-0.0342585,0.1230695,-0.6870750000000001,-0.029102500000000003
134,0.006945,0.6945965000000001,-0.072589,-0.14047900000000002,0.5106865,-0.033181,-0.245039,0.7380565,-0.07370399999999999,0.15376099999999998,0.4803865,-0.049844,0.27343100000000004,0.7243265000000001,-0.074833,-0.29050899999999996,0.9779865000000001,-0.102436,0.32977100000000004,0.9516165000000001,-0.11016200000000001,-0.070364,0.0008075000000000027,0.0026180000000000023,0.070364,-0.0008074999999999992,-0.002617999999999999,-0.123719,-0.3550535,-0.07611899999999999,0.12231099999999999,-0.3465935,-0.064837,-0.12620900000000002,-0.6802334999999999,-0.038881,0.123711,-0.6846835,-0.033878
135,0.006851499999999998,0.6934495,-0.075022,-0.1407895,0.5095395,-0.034603999999999996,-0.2450695,0.7365695,-0.077021,0.1533105,0.47993949999999996,-0.051679,0.27372050000000003,0.7218695,-0.07886,-0.2909295,0.9795294999999999,-0.106652,0.33029050000000004,0.9528195,-0.11549999999999999,-0.0704195,0.0006925000000000021,0.0028370000000000027,0.0704195,-0.0006924999999999987,-0.0028369999999999992,-0.1242895,-0.3544805,-0.08119799999999999,0.1228205,-0.3439505,-0.070617,-0.1266195,-0.6782205,-0.043269,0.1242905,-0.6821305,-0.03823
136,0.006841500000000002,0.6924075000000001,-0.0772945,-0.1410325,0.5085175000000001,-0.0360825,-0.2451525,0.7353875000000001,-0.07942550000000001,0.1529875,0.4794175,-0.0530775,0.27390749999999997,0.7181675000000001,-0.08189750000000001,-0.2915825,0.9806675000000001,-0.1101155,0.3305675,0.9535075000000001,-0.1199625,-0.0704925,0.0005905000000000007,0.002908499999999998,0.0704925,-0.0005905000000000007,-0.0029085000000000014,-0.1248425,-0.35437250000000003,-0.08567050000000001,0.12309750000000001,-0.3415125,-0.0754375,-0.1269225,-0.6763224999999999,-0.046727500000000005,0.12462749999999999,-0.6797325,-0.0417205
137,0.0067475,0.691335,-0.0797535,-0.1411715,0.507565,-0.0379305,-0.24522149999999998,0.734005,-0.08211750000000001,0.1528385,0.478745,-0.055107500000000004,0.27414849999999996,0.716075,-0.0849945,-0.2925315,0.9817450000000001,-0.11481849999999999,0.33082849999999997,0.954245,-0.12471950000000001,-0.0705565,0.0005509999999999994,0.0029085000000000014,0.0705565,-0.0005509999999999994,-0.0029085000000000014,-0.1253515,-0.354195,-0.0904055,0.1233285,-0.338925,-0.08047750000000001,-0.1272115,-0.674045,-0.050294500000000006,0.1249385,-0.676895,-0.0453375
138,0.006729500000000003,0.6904035000000001,-0.0822235,-0.1412295,0.5063135000000001,-0.0401585,-0.2452395,0.7331135000000001,-0.08511350000000001,0.1528105,0.4783435,-0.0574145,0.2743805,0.7142935,-0.0882035,-0.2934195,0.9828835000000001,-0.11977550000000001,0.3312005,0.9553035000000001,-0.1295225,-0.0706225,0.0005065,0.0029184999999999975,0.0706225,-0.0005065,-0.002918500000000001,-0.1257795,-0.3539165,-0.09519050000000001,0.12355050000000001,-0.3369265,-0.0856005,-0.1275095,-0.6716365,-0.0539185,0.1252505,-0.6738265,-0.0491465
139,0.006716000000000003,0.6892659999999999,-0.084512,-0.14125300000000002,0.5051159999999999,-0.042448,-0.245193,0.7319659999999999,-0.088655,0.152797,0.478116,-0.059703,0.27442700000000003,0.7128559999999999,-0.09142800000000001,-0.294093,0.9840759999999998,-0.12479299999999999,0.331847,0.9563659999999999,-0.134393,-0.070664,0.0004929999999999969,0.002919999999999999,0.070664,-0.0004930000000000004,-0.002919999999999999,-0.12612299999999999,-0.353424,-0.09972800000000001,0.12382699999999999,-0.335024,-0.090435,-0.127783,-0.669594,-0.057288,0.125447,-0.6706040000000001,-0.052759
140,0.0066645,0.6877479999999999,-0.086762,-0.1413915,0.504208,-0.04454500000000001,-0.2451815,0.730838,-0.092355,0.15271849999999998,0.47806800000000005,-0.061797000000000005,0.2747185,0.711638,-0.094712,-0.2947115,0.984798,-0.13001800000000002,0.3325285,0.9573079999999999,-0.139061,-0.0706725,0.00046299999999999987,0.0029789999999999955,0.0706725,-0.0004630000000000016,-0.0029790000000000025,-0.1264615,-0.353162,-0.10409600000000001,0.1239985,-0.333142,-0.094727,-0.1280715,-0.667652,-0.06039800000000001,0.1255285,-0.6675920000000001,-0.056329000000000004
141,0.0065585,0.686209,-0.089241,-0.1415235,0.5034289999999999,-0.046708000000000006,-0.24520350000000002,0.7296889999999999,-0.096638,0.1526265,0.478179,-0.063958,0.2747365,0.7107389999999999,-0.098361,-0.2952835,0.985089,-0.135913,0.33345650000000004,0.957899,-0.144344,-0.0706685,0.0004109999999999999,0.003037999999999999,0.0706685,-0.0004109999999999999,-0.003038000000000006,-0.12680349999999999,-0.352911,-0.10842700000000001,0.12438649999999998,-0.331901,-0.099141,-0.1283835,-0.665671,-0.063441,0.12549649999999998,-0.664521,-0.060058
142,0.006384999999999997,0.684987,-0.09285950000000001,-0.141784,0.502267,-0.049808500000000006,-0.245164,0.727957,-0.1027445,0.152526,0.47745699999999996,-0.0668555,0.27450600000000003,0.708067,-0.1037145,-0.295894,0.985617,-0.14426650000000002,0.334646,0.958697,-0.1519165,-0.070684,0.00037500000000000033,0.002971500000000002,0.070684,-0.00037499999999999947,-0.002971500000000002,-0.127194,-0.35169300000000003,-0.1134695,0.12509599999999998,-0.331093,-0.10474850000000001,-0.128794,-0.662653,-0.0670515,0.125326,-0.660203,-0.0643605
143,0.006246499999999999,0.6833414999999999,-0.0967665,-0.1419755,0.5017514999999999,-0.0532985,-0.2451555,0.7261814999999999,-0.1090925,0.1525445,0.4766315,-0.0700885,0.2745045,0.7055515,-0.1090865,-0.2963255,0.9853115,-0.1534375,0.3353845,0.9590715,-0.1598475,-0.0706585,0.0003855,0.0028955000000000022,0.0706585,-0.0003855,-0.0028955000000000022,-0.1275255,-0.35052849999999997,-0.1183475,0.1258345,-0.3302885,-0.1098935,-0.1290255,-0.6598085,-0.0705105,0.1251345,-0.6558685000000001,-0.06851650000000001
144,0.006193500000000001,0.681859,-0.101046,-0.1421775,0.501329,-0.057129,-0.24510749999999998,0.724559,-0.115925,0.15271249999999997,0.475709,-0.073569,0.2746525,0.702739,-0.11472500000000001,-0.29659749999999996,0.9850789999999999,-0.16303,0.3360325,0.9591989999999999,-0.16804,-0.0706335,0.0004420000000000001,0.0028569999999999984,0.0706335,-0.0004420000000000001,-0.0028569999999999984,-0.1278375,-0.348881,-0.123161,0.1266525,-0.329381,-0.115079,-0.12925750000000003,-0.656671,-0.07380400000000001,0.1249425,-0.651181,-0.072653
145,0.006170999999999999,0.680627,-0.1055845,-0.142231,0.500267,-0.0615075,-0.24491100000000002,0.723487,-0.1229355,0.15253899999999998,0.47506699999999996,-0.0774745,0.274389,0.701407,-0.1207665,-0.296811,0.985157,-0.1731485,0.336359,0.959737,-0.17667850000000002,-0.070545,0.0005120000000000003,0.0027215000000000017,0.070545,-0.0005120000000000003,-0.0027215000000000017,-0.128041,-0.34331300000000003,-0.1279545,0.12764899999999998,-0.323813,-0.12042050000000001,-0.129441,-0.652923,-0.0771905,0.12476899999999999,-0.6462330000000001,-0.0768535
146,0.006213000000000003,0.679305,-0.110128,-0.14229199999999997,0.49939500000000003,-0.065853,-0.244832,0.7219450000000001,-0.130017,0.15244800000000003,0.47458500000000003,-0.08152,0.274698,0.7000850000000001,-0.127026,-0.296852,0.985255,-0.182527,0.336658,0.9574550000000001,-0.186907,-0.070435,0.0005389999999999995,0.0026560000000000056,0.070435,-0.0005389999999999995,-0.0026559999999999986,-0.128182,-0.33782500000000004,-0.132566,0.128768,-0.31832499999999997,-0.125581,-0.129522,-0.648875,-0.08038,0.124568,-0.641525,-0.08097399999999999
147,0.006319499999999999,0.6777925,-0.11484749999999999,-0.1422505,0.4984925,-0.0702325,-0.2447005,0.7199225,-0.1373125,0.1524095,0.47359249999999997,-0.08567849999999999,0.27506949999999997,0.6986724999999999,-0.13340449999999998,-0.29687050000000004,0.9848425,-0.1921685,0.33694949999999996,0.9553024999999999,-0.1971685,-0.07030249999999999,0.0005225000000000021,0.0026795000000000013,0.07030249999999999,-0.0005224999999999987,-0.0026794999999999944,-0.12833050000000001,-0.3320375,-0.1372445,0.1299895,-0.3127875,-0.1305175,-0.1295805,-0.6443675,-0.0834215,0.1243195,-0.6365375,-0.08467849999999999
148,0.006932000000000004,0.6779815,-0.1246915,-0.139871,0.4954815,-0.0807285,-0.244161,0.7193815,-0.15036349999999998,0.152279,0.47079150000000003,-0.09529449999999999,0.275969,0.6977015,-0.14596949999999997,-0.29676099999999994,0.9845714999999999,-0.2104705,0.33772900000000006,0.9523615,-0.21387050000000002,-0.070159,0.0005604999999999985,0.0024725000000000025,0.070159,-0.0005604999999999985,-0.0024724999999999955,-0.12815100000000001,-0.3210885,-0.1502355,0.132159,-0.3036985,-0.14261249999999998,-0.128971,-0.6361585000000001,-0.0918515,0.124359,-0.6289785,-0.0936235
149,0.007737500000000001,0.678897,-0.1347795,-0.1377605,0.492947,-0.0913575,-0.2435005,0.719587,-0.1633795,0.15238949999999998,0.46856699999999996,-0.10478849999999999,0.27696950000000004,0.697147,-0.15891149999999998,-0.29641049999999997,0.985157,-0.2284975,0.33868950000000003,0.948297,-0.23059749999999998,-0.0701215,0.0006159999999999985,0.0021545000000000036,0.0701215,-0.0006160000000000054,-0.0021544999999999898,-0.1278605,-0.309273,-0.1631445,0.1344495,-0.29440299999999997,-0.15482449999999998,-0.1281505,-0.627433,-0.10041249999999999,0.12447949999999999,-0.621133,-0.10246949999999999
150,0.008639499999999994,0.6796385,-0.14515699999999998,-0.1354955,0.49071849999999995,-0.102021,-0.24267550000000002,0.7201785,-0.176443,0.1524145,0.46676850000000003,-0.114322,0.2780845,0.6967285,-0.172014,-0.2960855,0.9826585,-0.246937,0.3397445,0.9447485,-0.246667,-0.0701025,0.0006994999999999987,0.001802000000000012,0.0701025,-0.0006995000000000057,-0.001801999999999998,-0.1275755,-0.29755149999999997,-0.176,0.1364945,-0.28462149999999997,-0.166902,-0.1273755,-0.6184315,-0.10897299999999999,0.1245745,-0.6131715,-0.11121099999999999
151,0.009458500000000002,0.6801135,-0.1548225,-0.13316050000000001,0.4893935,-0.1117835,-0.24187050000000002,0.7214235,-0.1884225,0.1521295,0.4663235,-0.1231265,0.2786995,0.6984835,-0.1836895,-0.2958805,0.9801535,-0.2630025,0.3405495,0.9408735,-0.2607825,-0.07008249999999999,0.000840500000000001,0.001417500000000002,0.07008249999999999,-0.000840500000000001,-0.001417500000000002,-0.1274005,-0.28698650000000003,-0.1879815,0.1380495,-0.2769265,-0.1776775,-0.1266805,-0.6103664999999999,-0.1169135,0.1246795,-0.6060865,-0.1192635
152,0.010382499999999998,0.678692,-0.1645885,-0.13083050000000002,0.487092,-0.1214985,-0.2410305,0.722172,-0.2007625,0.15168949999999998,0.465672,-0.1318465,0.2795895,0.699982,-0.19557249999999998,-0.2956005,0.978252,-0.2786725,0.3413595,0.936892,-0.2753225,-0.0700395,0.000908000000000006,0.0009875000000000023,0.0700395,-0.000908000000000006,-0.0009875000000000023,-0.1272305,-0.276048,-0.1998725,0.1395795,-0.268948,-0.18860949999999999,-0.1259405,-0.601948,-0.1249765,0.12482949999999998,-0.598598,-0.1273745
153,0.011387499999999998,0.678345,-0.174466,-0.1285825,0.48456499999999997,-0.13151000000000002,-0.24035250000000002,0.722615,-0.21373999999999999,0.1513675,0.464895,-0.141087,0.2803475,0.701385,-0.20825,-0.2952625,0.975575,-0.29557,0.3416975,0.933505,-0.29035,-0.0700215,0.0009610000000000035,0.0005700000000000011,0.0700215,-0.0009610000000000035,-0.0005700000000000011,-0.12713249999999998,-0.26460500000000003,-0.21238,0.14118750000000002,-0.25944500000000004,-0.19996999999999998,-0.12508249999999999,-0.592565,-0.133314,0.12510749999999998,-0.590035,-0.13569799999999999
154,0.012661499999999997,0.6784765,-0.185322,-0.1260555,0.48213649999999997,-0.14216099999999998,-0.2397155,0.7225064999999999,-0.22759000000000001,0.1510145,0.4632965,-0.150752,0.28118449999999995,0.7020665,-0.22141,-0.2948155,0.9733765,-0.31381,0.3420845,0.9299965,-0.3061,-0.0700195,0.0009725000000000011,0.00032000000000000084,0.0700195,-0.0009725000000000011,-0.00032000000000000084,-0.1268555,-0.25083350000000004,-0.22527999999999998,0.1430445,-0.24670350000000002,-0.212338,-0.1239855,-0.5815935,-0.14216,0.1256245,-0.5795535,-0.14455099999999999
155,0.013878999999999997,0.67825,-0.196027,-0.12370500000000001,0.47954,-0.15268,-0.239225,0.7229099999999999,-0.24138500000000002,0.150585,0.46196,-0.160204,0.282165,0.70248,-0.234595,-0.294355,0.96967,-0.332155,0.342945,0.9290700000000001,-0.32003499999999996,-0.070063,0.0010000000000000009,9.499999999999786e-05,0.070063,-0.0010000000000000009,-9.499999999999786e-05,-0.126595,-0.23703000000000002,-0.238105,0.144805,-0.23382999999999998,-0.22447499999999998,-0.122935,-0.5706899999999999,-0.150858,0.126125,-0.5691299999999999,-0.153272
156,0.015172999999999997,0.67749,-0.20689600000000002,-0.121295,0.47697,-0.16351200000000002,-0.238675,0.72136,-0.25606,0.150195,0.46027999999999997,-0.170078,0.283215,0.7020200000000001,-0.24835000000000002,-0.293845,0.9658800000000001,-0.35153,0.34406499999999995,0.92379,-0.33503000000000005,-0.07012,0.0010799999999999976,-0.0002600000000000102,0.07012,-0.0010799999999999976,0.00025999999999998247,-0.12637500000000002,-0.2223,-0.25174,0.146765,-0.21990000000000004,-0.23736000000000002,-0.121835,-0.5587599999999999,-0.15998900000000002,0.12670499999999998,-0.5578299999999999,-0.162397
157,0.0159995,0.6752450000000001,-0.212559,-0.1205705,0.476485,-0.168406,-0.2381105,0.7196549999999999,-0.264895,0.1502695,0.459825,-0.174685,0.2839695,0.700575,-0.256025,-0.2932905,0.9572050000000001,-0.362865,0.3449295,0.9199649999999999,-0.343595,-0.0702245,0.0011549999999999894,-0.00045500000000001095,0.0702245,-0.0011550000000000171,0.00045500000000001095,-0.1263605,-0.211335,-0.257185,0.14797949999999999,-0.20893500000000004,-0.243345,-0.1211505,-0.549185,-0.16381,0.12714950000000003,-0.5483450000000001,-0.166175
158,0.0166995,0.67184,-0.21800399999999998,-0.1198905,0.47461,-0.173455,-0.2378305,0.7165,-0.27402499999999996,0.15034950000000002,0.45901000000000003,-0.179487,0.2846895,0.6987800000000001,-0.263785,-0.29271050000000004,0.9488,-0.374235,0.3458195,0.91746,-0.352705,-0.0703745,0.0011599999999999944,-0.0004949999999999954,0.0703745,-0.0011599999999999944,0.0004949999999999954,-0.1264305,-0.19999999999999998,-0.262835,0.14924949999999998,-0.19760000000000003,-0.249375,-0.1204505,-0.53925,-0.167598,0.1275795,-0.53835,-0.169885
159,0.017323499999999995,0.66856,-0.22332999999999997,-0.11927750000000001,0.47206,-0.17874199999999998,-0.2376475,0.7129699999999999,-0.283145,0.1504825,0.45755999999999997,-0.184494,0.2858525,0.6966300000000001,-0.27139499999999994,-0.2922675,0.94431,-0.38497499999999996,0.3464925,0.9146799999999999,-0.362275,-0.0705955,0.0011499999999999844,-0.0005149999999999877,0.0705955,-0.0011500000000000121,0.0005150000000000154,-0.1265975,-0.18827,-0.268625,0.1505025,-0.18587000000000004,-0.255445,-0.1198275,-0.5289200000000001,-0.17138499999999998,0.1279925,-0.5277700000000001,-0.173668
160,0.017852,0.6656449999999999,-0.2286,-0.11918699999999999,0.469425,-0.184082,-0.237367,0.709655,-0.291675,0.150283,0.45475499999999996,-0.189638,0.286853,0.693465,-0.278745,-0.292027,0.940075,-0.396135,0.34747300000000003,0.912685,-0.371705,-0.07083,0.0011749999999999816,-0.00045500000000001095,0.07083,-0.0011750000000000094,0.00045500000000001095,-0.126807,-0.17956500000000003,-0.27442500000000003,0.151703,-0.17728500000000003,-0.261585,-0.11929699999999999,-0.517895,-0.175329,0.12831299999999998,-0.516625,-0.17746499999999998
161,0.018152499999999995,0.66447,-0.233638,-0.1191195,0.46797999999999995,-0.189223,-0.2373295,0.7070799999999999,-0.30004,0.1500005,0.45254,-0.19457800000000003,0.2872705,0.6904999999999999,-0.28611,-0.2920195,0.9354800000000001,-0.40685,0.3483505,0.91042,-0.38072,-0.0709925,0.0012899999999999856,-0.00034000000000000696,0.0709925,-0.0012900000000000134,0.0003399999999999792,-0.1270895,-0.17163,-0.2801,0.15278049999999999,-0.16956000000000004,-0.26768000000000003,-0.1189095,-0.5074700000000001,-0.179172,0.12855049999999998,-0.5061,-0.181013
162,0.018201999999999996,0.660945,-0.238273,-0.119147,0.465695,-0.194434,-0.237157,0.7035849999999999,-0.307955,0.149503,0.450195,-0.199074,0.287203,0.6863049999999999,-0.292505,-0.292447,0.9320550000000001,-0.416965,0.348983,0.9074949999999999,-0.389295,-0.071128,0.0012350000000000139,-0.00037499999999998646,0.071128,-0.0012349999999999861,0.0003750000000000142,-0.12737700000000002,-0.16297499999999998,-0.285545,0.153673,-0.16136499999999998,-0.273735,-0.11857700000000002,-0.49596499999999993,-0.182763,0.128733,-0.49481499999999995,-0.184442
163,0.018174999999999997,0.6574,-0.242011,-0.11922400000000001,0.4628,-0.198634,-0.236874,0.6996,-0.314985,0.149116,0.44804999999999995,-0.203048,0.286926,0.68321,-0.298125,-0.29305400000000004,0.92848,-0.425595,0.349796,0.90508,-0.396655,-0.071255,0.0011899999999999966,-0.0005450000000000177,0.071255,-0.0011899999999999966,0.0005449999999999899,-0.127694,-0.15583,-0.290595,0.154076,-0.15352000000000002,-0.278665,-0.118274,-0.48553,-0.185804,0.12889599999999998,-0.48466999999999993,-0.187335
164,0.017955999999999996,0.653115,-0.246209,-0.119307,0.459785,-0.203133,-0.237097,0.695075,-0.321945,0.148733,0.445175,-0.207259,0.286683,0.679855,-0.303635,-0.293717,0.9260649999999999,-0.43486499999999995,0.350463,0.9014549999999999,-0.404185,-0.071439,0.0010649999999999826,-0.0008549999999999947,0.071439,-0.0010650000000000104,0.0008549999999999947,-0.128067,-0.14665500000000004,-0.29573499999999997,0.154433,-0.14459500000000003,-0.284095,-0.117997,-0.473335,-0.18912199999999998,0.129013,-0.472625,-0.19050899999999998
165,0.017570000000000002,0.64943,-0.24998499999999996,-0.119598,0.45665,-0.20699499999999998,-0.237458,0.69278,-0.327755,0.148232,0.44317,-0.21092099999999997,0.28618200000000005,0.6773899999999999,-0.30825499999999995,-0.29456800000000005,0.92066,-0.44254499999999997,0.35102200000000006,0.90061,-0.410375,-0.07159,0.0009100000000000219,-0.0010949999999999849,0.07159,-0.0009099999999999941,0.0010950000000000126,-0.128408,-0.13738999999999996,-0.299845,0.154702,-0.13615,-0.288705,-0.117738,-0.46180999999999994,-0.19202999999999998,0.128972,-0.46119999999999994,-0.19321499999999997
166,0.016822999999999998,0.6449199999999999,-0.254314,-0.12032400000000001,0.45289,-0.21177,-0.237834,0.6869799999999999,-0.33397,0.147016,0.44004999999999994,-0.21519,0.28659599999999996,0.67337,-0.31365,-0.29565400000000003,0.91892,-0.45121999999999995,0.351526,0.8990799999999999,-0.41757999999999995,-0.07172600000000001,0.0009199999999999764,-0.0008599999999999997,0.07172600000000001,-0.0009200000000000041,0.0008599999999999997,-0.128624,-0.12528,-0.30482,0.154986,-0.12484,-0.29384,-0.117364,-0.447,-0.195475,0.128826,-0.44689000000000006,-0.196492
167,0.015965,0.640705,-0.258668,-0.12147799999999999,0.449605,-0.21616400000000002,-0.23782799999999998,0.682855,-0.338975,0.145662,0.436805,-0.2188,0.286392,0.669145,-0.318535,-0.296848,0.9164349999999999,-0.459885,0.351722,0.896045,-0.424275,-0.071875,0.0008050000000000002,-0.0007050000000000112,0.071875,-0.0008050000000000002,0.0007049999999999834,-0.12880799999999998,-0.11260500000000001,-0.309335,0.15517199999999998,-0.113035,-0.298245,-0.117028,-0.431715,-0.198611,0.12862200000000001,-0.43217500000000003,-0.199391
168,0.014807499999999998,0.6366350000000001,-0.262489,-0.12271850000000001,0.446025,-0.220404,-0.2381385,0.678455,-0.344475,0.1444415,0.433405,-0.221776,0.2863315,0.665095,-0.323245,-0.2981085,0.9103049999999999,-0.46852499999999997,0.3520715,0.8921749999999999,-0.431405,-0.07204949999999999,0.0007650000000000157,-0.0005349999999999799,0.07204949999999999,-0.0007650000000000157,0.0005350000000000077,-0.1291885,-0.09830500000000003,-0.313445,0.1551415,-0.09914499999999998,-0.301995,-0.1167185,-0.41446500000000003,-0.201794,0.1283515,-0.41565500000000005,-0.202282
169,0.013635500000000002,0.631225,-0.265402,-0.12399750000000001,0.44262500000000005,-0.22420400000000001,-0.2387075,0.673735,-0.34979,0.1435225,0.43089500000000003,-0.224337,0.28659250000000003,0.660965,-0.32744,-0.2993175,0.903725,-0.47669000000000006,0.35242249999999997,0.887985,-0.43808,-0.0722595,0.0006650000000000267,-0.00043999999999999595,0.0722595,-0.0006649999999999712,0.00043999999999999595,-0.1296875,-0.08424499999999996,-0.31671,0.1552125,-0.08527499999999999,-0.30484,-0.1164275,-0.39741499999999996,-0.204521,0.12800250000000002,-0.399285,-0.20474900000000001
