sb224sc-HT22-VT27/4dt907/src/data/kinect_good_vs_bad_not_preprocessed_A13_mediapipe/G05.csv
FrameNo,nose_3d_x,nose_3d_y,nose_3d_z,left_shoulder_3d_x,left_shoulder_3d_y,left_shoulder_3d_z,left_elbow_3d_x,left_elbow_3d_y,left_elbow_3d_z,right_shoulder_3d_x,right_shoulder_3d_y,right_shoulder_3d_z,right_elbow_3d_x,right_elbow_3d_y,right_elbow_3d_z,left_wrist_3d_x,left_wrist_3d_y,left_wrist_3d_z,right_wrist_3d_x,right_wrist_3d_y,right_wrist_3d_z,left_hip_3d_x,left_hip_3d_y,left_hip_3d_z,right_hip_3d_x,right_hip_3d_y,right_hip_3d_z,left_knee_3d_x,left_knee_3d_y,left_knee_3d_z,right_knee_3d_x,right_knee_3d_y,right_knee_3d_z,left_ankle_3d_x,left_ankle_3d_y,left_ankle_3d_z,right_ankle_3d_x,right_ankle_3d_y,right_ankle_3d_z
0,0.0176875,0.744256,0.00013250000000000067,-0.13931749999999998,0.46656600000000004,-0.0013505000000000045,-0.28783749999999997,0.367466,-0.1334065,0.15600250000000002,0.47056600000000004,0.0027834999999999978,0.3082225,0.357646,-0.1118365,-0.3675175,0.29365600000000003,-0.3240965,0.4076825,0.299206,-0.29841650000000003,-0.07065650000000001,-4.999999999999796e-06,0.0006794999999999995,0.07065650000000001,5.000000000000664e-06,-0.0006794999999999995,-0.1362575,-0.325304,0.0152955,0.1116425,-0.31535399999999997,0.0335625,-0.1386475,-0.645644,0.0371595,0.1173825,-0.6176039999999999,0.0556185
1,0.0175325,0.7431424999999999,0.002120000000000004,-0.1394185,0.4663425,-0.0026659999999999948,-0.2954385,0.38373250000000003,-0.142922,0.1554815,0.4717325,0.0019750000000000045,0.3160915,0.3865825,-0.12483199999999998,-0.3903585,0.3566325,-0.33844199999999997,0.4185415,0.3551925,-0.31607199999999996,-0.0706155,0.0001234999999999999,0.0011550000000000032,0.0706155,-0.0001234999999999999,-0.0011549999999999963,-0.1363585,-0.32507749999999996,0.014998000000000004,0.1116715,-0.3159575,0.032691000000000005,-0.1389485,-0.6473275000000001,0.035873,0.11795150000000001,-0.6178375,0.054493
2,0.017554000000000004,0.742117,0.0033614999999999964,-0.13900099999999999,0.467227,-0.0034565000000000012,-0.304871,0.41651699999999997,-0.1401025,0.156439,0.473267,0.0018074999999999966,0.325929,0.416157,-0.1285125,-0.38283100000000003,0.410437,-0.3448425,0.41947900000000005,0.410227,-0.3468825,-0.070661,4.7999999999999866e-05,0.0009584999999999975,0.070661,-4.80000000000003e-05,-0.000958500000000001,-0.136481,-0.325243,0.014553499999999997,0.111599,-0.316313,0.032758499999999996,-0.139741,-0.6480630000000001,0.0351535,0.11763900000000001,-0.616843,0.0542315
3,0.017630499999999997,0.7407739999999999,0.0027810000000000022,-0.14012550000000001,0.469434,-0.0034360000000000016,-0.3088955,0.444574,-0.143073,0.1566945,0.472774,0.0010980000000000018,0.3301345,0.44641400000000003,-0.133183,-0.3945355,0.45986400000000005,-0.366633,0.4174645,0.461704,-0.33341299999999996,-0.0706755,0.000424,0.001743999999999999,0.0706755,-0.0004239999999999999,-0.0017440000000000025,-0.1362855,-0.326186,0.0139,0.1117645,-0.31718599999999997,0.032469,-0.1391755,-0.643506,0.035129,0.1179445,-0.617386,0.053308
4,0.017785000000000002,0.7394865,0.003822499999999996,-0.141842,0.4717165,-0.0014325000000000032,-0.313352,0.4657965,-0.1465175,0.157528,0.4731665,0.0006244999999999966,0.33472799999999997,0.4707665,-0.1301375,-0.40157200000000004,0.5134965,-0.3734075,0.41437799999999997,0.5155765000000001,-0.32865750000000005,-0.070543,0.0005015,0.0016524999999999977,0.070543,-0.0005015,-0.0016525000000000012,-0.136012,-0.3263035,0.013818499999999997,0.112008,-0.3181835,0.0325275,-0.139252,-0.6459435,0.033457499999999994,0.116588,-0.6261534999999999,0.0518825
5,0.018074,0.7381245,0.004975999999999994,-0.141778,0.4723545,-0.0019820000000000046,-0.319918,0.4984345,-0.14269700000000002,0.159962,0.4763545,0.0006049999999999944,0.338402,0.4999745,-0.124757,-0.398378,0.5626745,-0.359827,0.424072,0.5719745,-0.356987,-0.07045599999999999,0.0008345,0.0021239999999999974,0.07045599999999999,-0.0008345000000000002,-0.002124000000000001,-0.136048,-0.32730549999999997,0.013186999999999997,0.111962,-0.3194655,0.032142,-0.139228,-0.6492755,0.032834999999999996,0.11597199999999999,-0.6310055,0.049902999999999996
6,0.018604000000000006,0.7365965,0.005315500000000001,-0.14332599999999998,0.47258649999999996,-0.0026855000000000004,-0.320306,0.5214265,-0.1361675,0.164994,0.4823265,0.004189499999999999,0.33715399999999995,0.5255265,-0.12425749999999999,-0.40171599999999996,0.6143465,-0.3612675,0.42570399999999997,0.6164065,-0.3465575,-0.070409,0.0009985000000000003,0.0023885000000000017,0.070409,-0.0009984999999999998,-0.0023884999999999983,-0.135516,-0.3289135,0.012382500000000001,0.112504,-0.3211835,0.0315435,-0.139086,-0.6515635000000001,0.0316965,0.116554,-0.6328735,0.0489645
7,0.018394499999999998,0.73488,0.005164499999999999,-0.1444485,0.47532,-0.004584499999999998,-0.3015685,0.5463600000000001,-0.1314025,0.16446149999999998,0.47927000000000003,0.0023035,0.32358149999999997,0.5568,-0.1185225,-0.3821685,0.65341,-0.3255625,0.4102715,0.6688000000000001,-0.3018825,-0.07027449999999999,0.000817,0.001416500000000001,0.07027449999999999,-0.000817,-0.001416500000000001,-0.13540850000000001,-0.33055999999999996,0.0132275,0.11240149999999999,-0.32319,0.0322475,-0.1386985,-0.65391,0.0325005,0.11751149999999999,-0.6298699999999999,0.0510865
8,0.018360000000000005,0.732786,0.004912,-0.14537799999999998,0.477206,-0.004737000000000002,-0.301568,0.570056,-0.128406,0.16520200000000002,0.481846,0.002519999999999998,0.323262,0.582576,-0.115596,-0.380698,0.6949960000000001,-0.316806,0.40684200000000004,0.715816,-0.292176,-0.07016700000000001,0.0008319999999999994,0.0011719999999999994,0.07016700000000001,-0.0008320000000000003,-0.0011719999999999994,-0.135378,-0.332344,0.013078,0.11235200000000001,-0.325214,0.032133999999999996,-0.138808,-0.656084,0.032244,0.11755200000000002,-0.631964,0.050946
9,0.018295500000000003,0.730271,0.0047139999999999994,-0.14598250000000002,0.479101,-0.004861000000000004,-0.2993725,0.594031,-0.12346399999999999,0.1655975,0.484481,0.0028140000000000005,0.3204975,0.607691,-0.108764,-0.37502250000000004,0.735651,-0.30205400000000004,0.40001749999999997,0.760011,-0.275154,-0.0700335,0.0007730000000000011,0.0009839999999999988,0.0700335,-0.0007729999999999994,-0.0009840000000000022,-0.1353225,-0.33451899999999996,0.012889,0.1122775,-0.32758899999999996,0.031997,-0.13895249999999998,-0.658709,0.032042,0.1175175,-0.6343989999999999,0.050859
10,0.01823,0.7277835,0.004529500000000002,-0.146628,0.4812835,-0.004990499999999995,-0.295918,0.6147535,-0.11808850000000001,0.165542,0.4867035,0.003058500000000002,0.316472,0.6296735,-0.1019185,-0.369988,0.7709435,-0.2860885,0.392782,0.7979935,-0.25556850000000003,-0.06989600000000001,0.0006395000000000012,0.0008105000000000022,0.06989600000000001,-0.0006394999999999994,-0.0008104999999999987,-0.135198,-0.3366765,0.012714500000000002,0.112212,-0.3300965,0.031871500000000004,-0.139038,-0.6614765,0.031816500000000004,0.117422,-0.6373865,0.0507065
11,0.0181475,0.725042,0.004490000000000001,-0.1470225,0.484192,-0.004832999999999997,-0.2912825,0.6340619999999999,-0.11204199999999999,0.1654475,0.48803199999999997,0.003284000000000002,0.3115675,0.6518919999999999,-0.093842,-0.3625625,0.802532,-0.264882,0.3838975,0.831402,-0.23172199999999998,-0.0697315,0.0004959999999999999,0.000621,0.0697315,-0.0004959999999999999,-0.000621,-0.1350325,-0.339078,0.012735000000000002,0.1121075,-0.332748,0.031877,-0.1392025,-0.664998,0.031749,0.11728749999999999,-0.6405479999999999,0.050799
12,0.018091999999999997,0.7224345,0.004134499999999999,-0.147179,0.48726449999999993,-0.0047154999999999975,-0.286069,0.6539545,-0.10498049999999999,0.165381,0.4891944999999999,0.0036635,0.305731,0.6716545,-0.0846605,-0.354399,0.8315545000000001,-0.2422205,0.374541,0.8606345000000001,-0.20505050000000002,-0.06955800000000001,0.00036649999999999877,0.00041350000000000067,0.06955800000000001,-0.00036649999999999877,-0.00041350000000000067,-0.134779,-0.3413355,0.0128935,0.11202100000000001,-0.3354355,0.0320265,-0.139299,-0.6686255,0.0318125,0.11733099999999999,-0.6430555,0.051125500000000004
13,0.0180165,0.720205,0.0035714999999999983,-0.1472185,0.490155,-0.0044615,-0.2808485,0.669935,-0.09813650000000002,0.16532149999999998,0.49055499999999996,0.004106499999999999,0.29990150000000004,0.687085,-0.07540650000000002,-0.3462385,0.852595,-0.22058650000000002,0.3650715,0.881935,-0.1806565,-0.06940550000000001,0.00023199999999999957,0.00016549999999999898,0.06940550000000001,-0.00023199999999999957,-0.00016550000000000245,-0.1345385,-0.343285,0.013135499999999998,0.1119115,-0.337585,0.0322775,-0.1393885,-0.671825,0.031981499999999996,0.11739150000000001,-0.644745,0.0515715
14,0.0178835,0.7177355,0.0027235000000000002,-0.14728049999999998,0.49269549999999995,-0.004073499999999997,-0.2761705,0.6831754999999999,-0.0904485,0.16460950000000002,0.4917055,0.0044385000000000015,0.29445950000000004,0.6994755,-0.0653055,-0.3381205,0.8705155,-0.1987385,0.3549095,0.8977955,-0.15525850000000002,-0.0692075,6.750000000000159e-05,-0.0002155000000000004,0.0692075,-6.749999999999812e-05,0.0002155000000000004,-0.13434049999999997,-0.3454245,0.0134155,0.1117495,-0.3398145,0.0326395,-0.1394705,-0.6754145,0.0322935,0.1172995,-0.6479745,0.052028500000000005
15,0.01771,0.7152275,0.0016959999999999996,-0.14734999999999998,0.4954875000000001,-0.0036599999999999966,-0.27172999999999997,0.6950875000000001,-0.082935,0.16366999999999998,0.4927075000000001,0.004794,0.28933000000000003,0.7100875,-0.055047,-0.33041,0.8859575000000001,-0.178265,0.34597,0.9128275,-0.132515,-0.069008,-7.949999999999971e-05,-0.0006219999999999976,0.069008,7.949999999999971e-05,0.000622000000000001,-0.13413000000000003,-0.3476625,0.013693,0.11159,-0.3421725,0.033011,-0.13955,-0.6790725,0.032643,0.11721,-0.6514225,0.052551
16,0.017450500000000004,0.712685,0.0005049999999999985,-0.1471545,0.49852500000000005,-0.0031940000000000024,-0.2678145,0.7054549999999999,-0.075679,0.1623755,0.49364500000000006,0.005247999999999999,0.28406549999999997,0.718955,-0.04497,-0.32350450000000003,0.8989750000000001,-0.157669,0.3370655,0.9217550000000001,-0.10935900000000001,-0.06885150000000001,-0.00023999999999999716,-0.0009310000000000013,0.06885150000000001,0.0002400000000000041,0.0009310000000000013,-0.1339845,-0.350055,0.013884,0.1113555,-0.34463499999999997,0.033345,-0.1396345,-0.682525,0.033063,0.1172155,-0.654085,0.053112
17,0.017193499999999997,0.7109305,-0.0008555000000000021,-0.1469295,0.5006905,-0.0026305000000000044,-0.2642595,0.7129605,-0.0689165,0.1610305,0.4929605,0.0057445,0.2801605,0.7252405,-0.036515500000000006,-0.3175995,0.9091305000000001,-0.1397065,0.3294705,0.9279805,-0.0897265,-0.0687825,-0.0003405000000000005,-0.0012014999999999977,0.0687825,0.0003405000000000005,0.0012014999999999977,-0.1337895,-0.3514295,0.013948499999999999,0.1111605,-0.3463295,0.0336765,-0.1396995,-0.6851695,0.0334445,0.11715049999999999,-0.6563995,0.0536775
18,0.017003,0.709747,-0.0021855,-0.146689,0.502687,-0.0020405000000000006,-0.261889,0.717887,-0.06329850000000001,0.15980100000000003,0.492147,0.006258499999999997,0.277741,0.729507,-0.030457500000000005,-0.31326899999999996,0.9143870000000001,-0.1258135,0.323861,0.931157,-0.0751635,-0.068748,-0.00037600000000000133,-0.001403500000000002,0.068748,0.00037600000000000133,0.0014034999999999985,-0.13360899999999998,-0.352363,0.013964499999999998,0.110991,-0.347583,0.0340365,-0.13971899999999998,-0.687363,0.0337895,0.117091,-0.658663,0.054113499999999995
19,0.016796999999999996,0.7086535,-0.003118500000000003,-0.146456,0.5042435,-0.0013885000000000078,-0.259496,0.7224035,-0.057702500000000004,0.158644,0.49143349999999997,0.006825499999999995,0.275404,0.7336035,-0.0244105,-0.309016,0.9196235,-0.11208150000000001,0.318444,0.9342635,-0.0611815,-0.068703,-0.0003835000000000019,-0.0015425000000000022,0.068703,0.0003835000000000019,0.0015424999999999953,-0.133496,-0.3532765,0.014035499999999996,0.110844,-0.34864649999999997,0.034479499999999996,-0.139676,-0.6894565,0.03423349999999999,0.117084,-0.6607465,0.054648499999999996
20,0.016566499999999998,0.7079955,-0.003874499999999996,-0.1462275,0.5049855000000001,-0.000732499999999997,-0.2578475,0.7258255,-0.053248500000000004,0.1578225,0.49097549999999995,0.007386500000000001,0.2734125,0.7346254999999999,-0.0193385,-0.3057375,0.9230655000000001,-0.10174249999999999,0.3146525,0.9370755,-0.0512025,-0.06868250000000001,-0.000393499999999998,-0.0015314999999999981,0.06868250000000001,0.000393499999999998,0.0015315000000000016,-0.1334475,-0.3537645,0.014100500000000002,0.1107225,-0.3493845,0.0349435,-0.1397275,-0.6907945,0.0346975,0.1169325,-0.6626745,0.0551615
21,0.016361999999999995,0.7073615000000001,-0.004368999999999998,-0.146071,0.5053715000000001,-0.0001480000000000023,-0.256311,0.7258815000000001,-0.049513,0.157459,0.4905715,0.007954,0.271829,0.7348915,-0.015219000000000003,-0.30307100000000003,0.9250315,-0.093426,0.311529,0.9387415,-0.044065999999999994,-0.06865399999999999,-0.00038449999999999596,-0.0015229999999999966,0.06865399999999999,0.0003845000000000029,0.001523,-0.133431,-0.3542885,0.014179,0.110619,-0.3499785,0.035413,-0.139771,-0.6917985,0.035224,0.11670900000000001,-0.6646685,0.055614
22,0.016155,0.706734,-0.004755999999999996,-0.145959,0.505394,0.000453000000000002,-0.255049,0.725844,-0.046360000000000005,0.157241,0.49021400000000004,0.008591000000000001,0.270491,0.734944,-0.011621,-0.301269,0.926484,-0.086533,0.308801,0.940074,-0.038209,-0.06861,-0.00037100000000000327,-0.0015420000000000017,0.06861,0.00037099999999999633,0.0015420000000000017,-0.133409,-0.354786,0.014234,0.11055100000000001,-0.350676,0.035924,-0.139819,-0.692586,0.035786,0.116531,-0.665896,0.056109000000000006
23,0.015969499999999998,0.706511,-0.004917000000000005,-0.14586749999999998,0.505181,0.0009889999999999968,-0.2545775,0.726001,-0.04399800000000001,0.15714250000000002,0.490131,0.009208999999999995,0.2695525,0.7350409999999999,-0.009140000000000002,-0.3006575,0.927651,-0.081885,0.3067125,0.941291,-0.034166,-0.0685895,-0.0003270000000000009,-0.0015430000000000027,0.0685895,0.0003270000000000009,0.0015429999999999958,-0.1333875,-0.354889,0.014257999999999996,0.1104925,-0.351109,0.036403,-0.13986749999999998,-0.692879,0.03631399999999999,0.1164425,-0.6663290000000001,0.05658099999999999
24,0.015811000000000002,0.706427,-0.004995000000000006,-0.145834,0.504837,0.0014809999999999962,-0.254354,0.726247,-0.041815000000000005,0.157086,0.49023700000000003,0.009804999999999998,0.268766,0.735127,-0.007216,-0.300364,0.928767,-0.077687,0.304706,0.9424669999999999,-0.030682,-0.06856899999999999,-0.00028700000000000253,-0.0015480000000000008,0.06856899999999999,0.0002869999999999956,0.0015479999999999938,-0.133374,-0.35481300000000005,0.014242999999999999,0.110426,-0.351353,0.036833,-0.139814,-0.692683,0.036745,0.11629600000000001,-0.666913,0.056887999999999994
25,0.015663500000000007,0.7064640000000001,-0.0049980000000000024,-0.14587050000000001,0.504704,0.0019360000000000002,-0.2544805,0.726554,-0.040075999999999994,0.15701950000000003,0.49049400000000004,0.010379,0.2681095,0.735344,-0.005663000000000001,-0.3005405,0.9297340000000001,-0.07511300000000001,0.3030495,0.943724,-0.027937999999999998,-0.0685365,-0.0002500000000000002,-0.0015430000000000027,0.0685365,0.0002500000000000002,0.0015430000000000027,-0.1333705,-0.354586,0.014249999999999999,0.11035950000000001,-0.351416,0.037219,-0.1397405,-0.6922159999999999,0.037201,0.1161895,-0.6667259999999999,0.057217000000000004
26,0.015537500000000003,0.706509,-0.004893500000000002,-0.1459405,0.504619,0.002320499999999996,-0.2546205,0.726929,-0.03829950000000001,0.1569495,0.490709,0.0109515,0.2674795,0.735539,-0.004243499999999997,-0.3007205,0.930909,-0.0726465,0.3017595,0.944349,-0.0261495,-0.06851850000000001,-0.00022500000000000298,-0.0014375000000000013,0.06851850000000001,0.00022499999999999604,0.0014375000000000013,-0.1333905,-0.354541,0.014433499999999998,0.11025950000000001,-0.351391,0.0376035,-0.1396305,-0.6916009999999999,0.0377655,0.11608950000000001,-0.666781,0.0576875
27,0.0153575,0.7065710000000001,-0.004673999999999998,-0.1460665,0.504461,0.002721000000000008,-0.2548165,0.727271,-0.036746,0.1568435,0.49088099999999996,0.011538000000000007,0.26686350000000003,0.735781,-0.002920999999999993,-0.3009465,0.931981,-0.07049599999999999,0.3005635,0.9449110000000001,-0.024661999999999996,-0.0685195,-0.00020399999999999585,-0.001335999999999997,0.0685195,0.0002040000000000028,0.0013360000000000039,-0.1334565,-0.354499,0.014681000000000007,0.1101135,-0.351279,0.037965000000000006,-0.1395665,-0.690849,0.038345000000000004,0.1159435,-0.6667590000000001,0.058204000000000006
28,0.015157,0.7066395,-0.004383999999999992,-0.14622999999999997,0.5038995,0.0030690000000000023,-0.25504,0.7276994999999999,-0.035449999999999995,0.15677000000000002,0.49087949999999997,0.012056000000000004,0.26627999999999996,0.7360395,-0.0017649999999999957,-0.30132000000000003,0.9329995,-0.068713,0.29947999999999997,0.9454294999999999,-0.023397999999999995,-0.068551,-0.00020549999999999735,-0.001238999999999997,0.068551,0.0002055000000000043,0.001239000000000004,-0.13354,-0.3544305,0.014914000000000004,0.10996,-0.3511105,0.038243000000000006,-0.13951000000000002,-0.6904505000000001,0.038831000000000004,0.11581,-0.6666105,0.058718000000000006
29,0.014945999999999997,0.7067095,-0.004025000000000001,-0.146377,0.5033595,0.0034160000000000024,-0.255497,0.7280694999999999,-0.034293,0.156613,0.49087949999999997,0.012559,0.265683,0.7363495,-0.000781999999999998,-0.30189699999999997,0.9337694999999999,-0.06720999999999999,0.29851300000000003,0.9458894999999999,-0.022307,-0.068577,-0.00020549999999999735,-0.0011429999999999982,0.068577,0.0002055000000000043,0.0011429999999999982,-0.133627,-0.35436049999999997,0.015153000000000003,0.109813,-0.3507905,0.038356,-0.139457,-0.6902305000000001,0.039301,0.115673,-0.6666105,0.059164
30,0.014729999999999997,0.7067895,-0.003695999999999998,-0.146535,0.5028094999999999,0.003707000000000002,-0.256175,0.7284295,-0.033326,0.156445,0.49087949999999997,0.012986000000000001,0.265075,0.7366695,-2.5999999999998247e-05,-0.302615,0.9344494999999999,-0.066051,0.297685,0.9462094999999999,-0.021552,-0.068611,-0.00020549999999999735,-0.001003999999999998,0.068611,0.0002055000000000043,0.001003999999999998,-0.133695,-0.35430049999999996,0.015345000000000001,0.10966499999999998,-0.35047049999999996,0.038378,-0.139445,-0.6902305000000001,0.039667,0.115535,-0.6664105,0.059434
31,0.014526499999999998,0.7069365,-0.0033060000000000034,-0.1466685,0.5022465,0.003970000000000001,-0.2571885,0.7289565,-0.032347,0.1563115,0.49084649999999996,0.013345,0.2644715,0.7370365,0.0006659999999999999,-0.3035085,0.9351965,-0.064807,0.2969415,0.9465165,-0.020853000000000003,-0.0686595,-0.00016649999999999998,-0.0008169999999999983,0.0686595,0.00016649999999999998,0.0008169999999999983,-0.1337485,-0.3542035,0.015557999999999999,0.1095515,-0.3500335,0.038354,-0.1393185,-0.6898935,0.039999,0.1154115,-0.6662635,0.059685
32,0.014323500000000006,0.7071335000000001,-0.002964499999999995,-0.14675049999999998,0.5017834999999999,0.0042705000000000035,-0.25817049999999997,0.7295235,-0.03140949999999999,0.1562495,0.4907835,0.013526500000000004,0.26391950000000003,0.7372935,0.0011975000000000041,-0.3044305,0.9360435,-0.06372649999999999,0.2963095,0.9468034999999999,-0.020250499999999998,-0.06869549999999999,-0.00013349999999999473,-0.0005934999999999968,0.06869549999999999,0.00013350000000000167,0.0005935000000000037,-0.13373049999999997,-0.35408649999999997,0.015787500000000003,0.10951950000000002,-0.3496165,0.038296500000000004,-0.1392105,-0.6891965,0.040239500000000004,0.1153495,-0.6661665000000001,0.0598995
33,0.0140985,0.7073895,-0.0026650000000000007,-0.1468275,0.5013295,0.004565,-0.25908749999999997,0.7300595,-0.030535,0.15621249999999998,0.49076949999999997,0.013666000000000001,0.2633525,0.7375695,0.0016180000000000014,-0.3053975,0.9369495,-0.062697,0.2957925,0.9470995,-0.019755,-0.0687165,-0.00010949999999999849,-0.0003820000000000004,0.0687165,0.00010950000000000543,0.0003820000000000004,-0.1337175,-0.35392049999999997,0.015997,0.1095025,-0.3491605,0.038205,-0.1390075,-0.6880404999999999,0.040693,0.1153025,-0.6654505,0.060156
34,0.013669499999999994,0.7079245,-0.002279499999999997,-0.1469165,0.5010344999999999,0.004918500000000006,-0.2602765,0.7308645,-0.029356499999999994,0.1562035,0.4909445,0.013841500000000003,0.26280349999999997,0.7380245,0.002070500000000003,-0.30615650000000005,0.9379845,-0.061162499999999995,0.2952635,0.9475645,-0.019192499999999994,-0.0687295,-0.00010749999999999649,-0.00013849999999999973,0.0687295,0.00010750000000000343,0.00013850000000000667,-0.1337265,-0.35356550000000003,0.016259500000000003,0.1094735,-0.3485455,0.038180500000000006,-0.1390265,-0.6874255,0.041050500000000004,0.11519349999999999,-0.6649055,0.060415500000000004
35,0.013186499999999997,0.708415,-0.001906999999999992,-0.1470505,0.500915,0.005191000000000008,-0.2613605,0.731605,-0.02818699999999999,0.1561295,0.49079500000000004,0.013833000000000005,0.2622995,0.738355,0.002496000000000005,-0.3065305,0.938765,-0.059579999999999994,0.2947795,0.947985,-0.018638999999999996,-0.06874949999999999,-0.00010099999999999693,3.700000000000231e-05,0.06874949999999999,0.00010100000000000386,-3.699999999999537e-05,-0.1337305,-0.35317499999999996,0.016459000000000005,0.10947950000000001,-0.348115,0.038151000000000004,-0.1391205,-0.6874750000000001,0.04122200000000001,0.11505950000000001,-0.6640250000000001,0.060656
36,0.012627000000000006,0.7089114999999999,-0.0014645000000000005,-0.147203,0.5008515,0.005437499999999998,-0.26254299999999997,0.7324514999999999,-0.026909500000000003,0.155917,0.4906215,0.013765499999999996,0.261807,0.7386615,0.0028874999999999942,-0.30683299999999997,0.9395914999999999,-0.0578785,0.294337,0.9484515,-0.018031500000000006,-0.06878000000000001,-0.00010249999999999843,0.00021949999999999747,0.06878000000000001,0.00010249999999999843,-0.00021950000000000441,-0.13372299999999998,-0.3527785,0.016632499999999998,0.10949700000000001,-0.3477285,0.038134499999999995,-0.13916299999999998,-0.6874385000000001,0.0413355,0.11502700000000002,-0.6635685,0.06084049999999999
37,0.0120085,0.7094725,-0.0010020000000000029,-0.1473625,0.5008024999999999,0.005655,-0.26371249999999996,0.7333225,-0.025592000000000004,0.1557575,0.49054250000000005,0.013686999999999998,0.2612975,0.7390325,0.0032929999999999973,-0.3071025,0.9404125,-0.056017,0.2939275,0.9490225,-0.017369000000000002,-0.06882849999999999,-0.00011649999999999855,0.00040699999999999764,0.06882849999999999,0.00011650000000000549,-0.0004070000000000046,-0.1336725,-0.3523775,0.016780999999999997,0.10953750000000001,-0.3472675,0.038145,-0.1391225,-0.6871975,0.041415999999999994,0.1150475,-0.6628975,0.060898999999999995
38,0.011315499999999994,0.7099435000000001,-0.0004055000000000031,-0.1475255,0.5007235000000001,0.005929499999999997,-0.2649055,0.7341735,-0.024235500000000007,0.15563449999999998,0.49055350000000003,0.013618499999999999,0.2608845,0.7393835,0.0036085000000000006,-0.3074155,0.9413335,-0.05387750000000001,0.2935945,0.9493834999999999,-0.016809500000000005,-0.0688545,-0.0001424999999999968,0.0005984999999999949,0.0688545,0.00014250000000000373,-0.0005985000000000018,-0.1336955,-0.3518965,0.016923499999999998,0.1095945,-0.3469165,0.0383065,-0.1390655,-0.6861664999999999,0.041687499999999995,0.1149545,-0.6633564999999999,0.0608535
39,0.010639000000000004,0.7104370000000001,0.0002354999999999996,-0.147635,0.500707,0.006211499999999995,-0.266025,0.734997,-0.022866500000000005,0.15548499999999998,0.49058699999999994,0.013572499999999998,0.260585,0.739747,0.003865500000000001,-0.307655,0.942207,-0.0517495,0.293355,0.949767,-0.0163595,-0.06889,-0.00016399999999999748,0.0007824999999999985,0.06889,0.00016400000000000442,-0.0007824999999999985,-0.133665,-0.351383,0.017083499999999998,0.109685,-0.34653300000000004,0.0384915,-0.139045,-0.6850529999999999,0.0420185,0.11491500000000002,-0.663133,0.0610585
40,0.009976,0.710904,0.0008765000000000023,-0.147724,0.500744,0.006481500000000001,-0.267094,0.7358239999999999,-0.021559500000000002,0.155386,0.49071400000000004,0.013566500000000002,0.260376,0.7400939999999999,0.004087500000000001,-0.307774,0.9430839999999999,-0.0497215,0.293186,0.9501539999999999,-0.015953499999999995,-0.06892100000000001,-0.0001840000000000036,0.000954500000000004,0.06892100000000001,0.00018399999999999667,-0.000954499999999997,-0.13369399999999998,-0.350866,0.0172765,0.109796,-0.346146,0.038678500000000005,-0.13913399999999998,-0.684246,0.0423395,0.11485600000000001,-0.663066,0.0612105
41,0.009245999999999997,0.7114115000000001,0.0013849999999999973,-0.147804,0.5007515,0.006706999999999998,-0.268054,0.7365715,-0.020376,0.155486,0.4909615,0.013663999999999999,0.260166,0.7404915000000001,0.004253,-0.307694,0.9440815,-0.047829,0.29314599999999996,0.9505915,-0.015718000000000003,-0.068957,-0.0002155000000000004,0.0010970000000000008,0.068957,0.0002155000000000004,-0.0010970000000000008,-0.13369399999999998,-0.3503885,0.017450999999999998,0.109976,-0.3458685,0.038836999999999997,-0.13923400000000002,-0.6837985,0.0426,0.114826,-0.6630585,0.061326
42,0.008550500000000004,0.7119044999999999,0.0018215000000000037,-0.14785749999999998,0.5007944999999999,0.006900499999999997,-0.26890749999999997,0.7372945,-0.019368499999999997,0.15560249999999998,0.49121450000000005,0.013756500000000001,0.2600525,0.7407944999999999,0.004407500000000002,-0.30759749999999997,0.9450845,-0.0460725,0.29315250000000004,0.9509544999999999,-0.015552499999999997,-0.0689915,-0.00024450000000000166,0.0012385000000000035,0.0689915,0.0002444999999999947,-0.0012384999999999965,-0.13370749999999998,-0.3498755,0.0176165,0.11016250000000001,-0.3455855,0.0389895,-0.1392775,-0.6828755000000001,0.0428045,0.1148825,-0.6628055,0.0614145
43,0.008027,0.712196,0.002031999999999999,-0.147928,0.5007860000000001,0.007013999999999999,-0.269428,0.737786,-0.018730999999999998,0.155722,0.491336,0.013798000000000001,0.25991200000000003,0.7409760000000001,0.004493000000000004,-0.307458,0.945886,-0.044981,0.293222,0.9511160000000001,-0.015453000000000001,-0.06901199999999999,-0.0002699999999999994,0.0013159999999999977,0.06901199999999999,0.0002699999999999994,-0.0013159999999999977,-0.133738,-0.34954399999999997,0.01771,0.110322,-0.34559399999999996,0.039092,-0.139378,-0.681994,0.043069,0.11482200000000001,-0.663264,0.061367000000000005
44,0.0075420000000000036,0.71247,0.002109999999999994,-0.14794000000000002,0.50078,0.007075999999999999,-0.26971999999999996,0.73823,-0.018418000000000004,0.15576,0.49152000000000007,0.013804999999999998,0.25975000000000004,0.74116,0.004459999999999999,-0.30726,0.9464400000000001,-0.044383000000000006,0.29331,0.9512200000000001,-0.015386000000000004,-0.069036,-0.0003039999999999987,0.0013789999999999983,0.069036,0.0003039999999999987,-0.0013790000000000052,-0.13377,-0.34926,0.017820999999999997,0.11048000000000001,-0.34563,0.039164,-0.13943,-0.68129,0.043299,0.11481000000000001,-0.66304,0.061429
45,0.007090500000000003,0.71271,0.002154999999999997,-0.14794749999999998,0.50076,0.007143999999999998,-0.2697675,0.73854,-0.018352,0.15578250000000002,0.49169,0.013814999999999997,0.2595425,0.74137,0.0043310000000000015,-0.30704750000000003,0.9469599999999999,-0.044063,0.2933825,0.95129,-0.015419000000000002,-0.06905649999999999,-0.0003280000000000019,0.0014230000000000007,0.06905649999999999,0.0003280000000000019,-0.0014230000000000007,-0.1337775,-0.34903999999999996,0.017938999999999997,0.11065250000000001,-0.34569,0.039243,-0.13947749999999998,-0.6810400000000001,0.043456999999999996,0.1149425,-0.66284,0.061465
46,0.0066625,0.7128375,0.0021785,-0.1479485,0.5007375000000001,0.0071895000000000014,-0.2696385,0.7387175,-0.018299499999999996,0.1557615,0.49182750000000003,0.013808500000000001,0.2593415,0.7415175,0.004134499999999999,-0.30684849999999997,0.9473275,-0.044006500000000004,0.2933915,0.9512475,-0.015717499999999995,-0.0690645,-0.00033950000000000646,0.0014375000000000013,0.0690645,0.0003394999999999995,-0.0014375000000000013,-0.1338085,-0.3488925,0.018024500000000002,0.1107815,-0.34583250000000004,0.0393005,-0.1394685,-0.6822725,0.0434645,0.1150015,-0.6626924999999999,0.0615135
47,0.006326999999999996,0.7129465,0.0022129999999999997,-0.147951,0.5007265,0.007226999999999997,-0.269511,0.7388765,-0.01824,0.155749,0.4919665,0.013798999999999999,0.259179,0.7416265,0.0038769999999999985,-0.306501,0.9475865,-0.043934999999999995,0.293359,0.9511465,-0.016089,-0.069073,-0.00035249999999999865,0.001455999999999999,0.069073,0.00035249999999999865,-0.001455999999999999,-0.133791,-0.3488335,0.018113,0.110899,-0.3459335,0.039337,-0.139451,-0.6830835,0.043573,0.11496899999999999,-0.6625435,0.06157
48,0.0059705,0.71304,0.0021545000000000036,-0.1479255,0.50073,0.007267500000000003,-0.2693755,0.73903,-0.018177499999999992,0.1557345,0.49207999999999996,0.013794500000000005,0.25900449999999997,0.74171,0.0035165000000000057,-0.30605550000000004,0.94774,-0.0438375,0.2933345,0.95081,-0.016766499999999997,-0.0690785,-0.0003599999999999992,0.0014795000000000016,0.0690785,0.0003599999999999992,-0.0014794999999999947,-0.1337755,-0.34878,0.018214500000000005,0.1110245,-0.34598,0.0393965,-0.1393855,-0.68398,0.04350350000000001,0.1150045,-0.66205,0.0616955
49,0.005601999999999998,0.7131244999999999,0.0020599999999999993,-0.14791600000000002,0.5007345,0.007286000000000001,-0.269226,0.7391845,-0.018394,0.15570399999999998,0.49217449999999996,0.013803000000000003,0.258784,0.7418144999999999,0.003030999999999999,-0.30548600000000004,0.9478645,-0.043805000000000004,0.293304,0.9504445,-0.017582,-0.069083,-0.00036649999999999877,0.0014780000000000001,0.069083,0.00036649999999999877,-0.0014780000000000001,-0.13370600000000002,-0.3487055,0.018349,0.11114399999999999,-0.34603550000000005,0.039487,-0.13933600000000002,-0.6843355,0.043665,0.115004,-0.6616855,0.061929
50,0.005364000000000006,0.713142,0.0018820000000000017,-0.147891,0.500752,0.007337000000000003,-0.269071,0.739282,-0.018686999999999995,0.155669,0.49220200000000003,0.013805000000000005,0.258629,0.741922,0.002604000000000002,-0.304881,0.947922,-0.04408999999999999,0.293209,0.950092,-0.018406999999999993,-0.069077,-0.00036399999999999627,0.0014970000000000053,0.069077,0.0003640000000000032,-0.0014969999999999983,-0.133621,-0.348628,0.018473000000000003,0.111209,-0.346088,0.039560000000000005,-0.13932099999999997,-0.684578,0.043806000000000005,0.11494900000000001,-0.662258,0.061993000000000006
51,0.0051680000000000025,0.713156,0.0016564999999999983,-0.147858,0.500776,0.007388499999999999,-0.268828,0.739346,-0.019089500000000002,0.155642,0.49222599999999994,0.0138285,0.258502,0.742046,0.002211499999999998,-0.304258,0.947986,-0.044443500000000004,0.293152,0.949816,-0.019181499999999997,-0.069077,-0.0003660000000000052,0.001509499999999997,0.069077,0.00036599999999999827,-0.001509499999999997,-0.133528,-0.34849399999999997,0.0186165,0.111272,-0.34613400000000005,0.0396305,-0.139298,-0.6848540000000001,0.0439575,0.114922,-0.6629240000000001,0.0620855
52,0.005007500000000001,0.7131715000000001,0.001245000000000003,-0.1478095,0.5008015,0.007447000000000002,-0.2685495,0.7394015,-0.019518,0.15561049999999998,0.49225150000000006,0.013819999999999999,0.25839049999999997,0.7420815000000001,0.0018110000000000001,-0.3036995,0.9480515,-0.044856999999999994,0.2931105,0.9495615000000001,-0.019937000000000003,-0.06907650000000001,-0.00037050000000000277,0.0015130000000000005,0.06907650000000001,0.00037050000000000277,-0.0015130000000000005,-0.13343950000000002,-0.34829849999999996,0.018776,0.11134050000000001,-0.3460685,0.039722,-0.1392595,-0.6851785,0.044114,0.11487050000000001,-0.6640685,0.062096
53,0.0048975,0.7131069999999999,0.0007845000000000005,-0.1477595,0.5007969999999999,0.007572500000000003,-0.2682295,0.739417,-0.019874499999999996,0.1556205,0.492207,0.0138245,0.25835050000000004,0.742127,0.001506500000000001,-0.3032895,0.9478470000000001,-0.0451915,0.29308049999999997,0.9492769999999999,-0.020464499999999997,-0.0690655,-0.0003650000000000042,0.0015654999999999974,0.0690655,0.00036499999999999727,-0.0015654999999999974,-0.1333395,-0.348183,0.018974500000000002,0.1114005,-0.346023,0.0398805,-0.1391895,-0.6859930000000001,0.0441575,0.1149705,-0.664023,0.062199500000000005
54,0.004829499999999999,0.7130304999999999,0.0003919999999999965,-0.1476975,0.5007805000000001,0.007737999999999995,-0.2679475,0.7394004999999999,-0.020111000000000004,0.1556525,0.49213049999999997,0.013853999999999998,0.2583825,0.7421905,0.0012809999999999974,-0.3029575,0.9476104999999999,-0.04542500000000001,0.2931025,0.9489905000000001,-0.020884,-0.0690385,-0.00035450000000000065,0.0016159999999999994,0.0690385,0.0003544999999999937,-0.0016160000000000063,-0.1332375,-0.3481295,0.019200999999999996,0.1114525,-0.3460095,0.040073,-0.1391475,-0.6867695,0.044245999999999994,0.1149825,-0.6651695,0.062166
55,0.004804000000000002,0.7129785000000001,8.69999999999968e-05,-0.147638,0.5007685000000001,0.007936999999999993,-0.267648,0.7393485,-0.020329000000000007,0.155692,0.4920485,0.013916999999999995,0.258482,0.7422085,0.0009929999999999939,-0.302738,0.9473985,-0.0456,0.293172,0.9487485,-0.021128000000000008,-0.06901499999999999,-0.0003475000000000006,0.0016679999999999959,0.06901499999999999,0.0003475000000000006,-0.0016680000000000028,-0.13313799999999998,-0.3480715,0.019424999999999994,0.11149200000000001,-0.34595149999999997,0.04019299999999999,-0.139088,-0.6875614999999999,0.04441199999999999,0.115122,-0.6651515,0.062396999999999994
56,0.004780499999999998,0.712891,-0.00016399999999999748,-0.14757550000000003,0.5007710000000001,0.008175000000000002,-0.2673955,0.739301,-0.020482,0.1556945,0.49202100000000004,0.014023000000000004,0.2585945,0.742151,0.0007440000000000016,-0.3026355,0.947181,-0.045707,0.2932745,0.948511,-0.02133199999999999,-0.0689905,-0.0003449999999999981,0.001690000000000004,0.0689905,0.000345000000000005,-0.001689999999999997,-0.1330055,-0.34794899999999995,0.019599000000000002,0.11150449999999999,-0.34579899999999997,0.040265,-0.13909549999999998,-0.688209,0.044625000000000005,0.1152545,-0.665709,0.062475
57,0.004827999999999998,0.712771,-0.0003249999999999989,-0.147547,0.5007710000000001,0.008440000000000003,-0.267217,0.739241,-0.020508,0.155663,0.49199100000000007,0.014175000000000004,0.258673,0.7421110000000001,0.0005800000000000041,-0.302557,0.946961,-0.045722,0.293353,0.948361,-0.021328,-0.06896,-0.0003449999999999981,0.0016470000000000026,0.06896,0.000345000000000005,-0.0016469999999999957,-0.13289700000000002,-0.34787900000000005,0.019805000000000003,0.11149300000000001,-0.345699,0.040362,-0.139127,-0.688429,0.044957000000000004,0.11522299999999999,-0.666979,0.062597
58,0.004901000000000002,0.712701,-0.00046650000000000164,-0.147512,0.5007710000000001,0.008771500000000002,-0.26706199999999997,0.739101,-0.020424500000000005,0.15562800000000002,0.49199100000000007,0.014377500000000001,0.258738,0.742011,0.0004924999999999999,-0.302462,0.946781,-0.0456575,0.293418,0.948261,-0.021287499999999994,-0.06892699999999999,-0.0003449999999999981,0.0016885000000000025,0.06892699999999999,0.000345000000000005,-0.0016885000000000025,-0.132802,-0.34775900000000004,0.0200495,0.111478,-0.345519,0.0404725,-0.139182,-0.6885089999999999,0.0453485,0.11524799999999999,-0.6673589999999999,0.0628995
59,0.004971499999999999,0.7126115000000001,-0.0005339999999999998,-0.1475525,0.5009315000000001,0.009062,-0.2668825,0.7389315000000001,-0.020270999999999997,0.1555675,0.4919815,0.014363,0.2588275,0.7418415,0.0004740000000000022,-0.3023825,0.9465815000000001,-0.04557599999999999,0.2935075,0.9478615,-0.021476999999999996,-0.0688915,-0.00033550000000000246,0.0016340000000000035,0.0688915,0.0003354999999999955,-0.0016339999999999966,-0.13271249999999998,-0.34765850000000004,0.020347,0.11147750000000001,-0.3452985,0.040668,-0.13923249999999998,-0.6885485,0.045809,0.1152675,-0.6674785,0.063339
60,0.005031500000000004,0.712496,-0.000668999999999996,-0.14761749999999998,0.501086,0.009379000000000005,-0.2667075,0.738746,-0.020087999999999995,0.1554425,0.49195600000000006,0.014360000000000005,0.2589625,0.741616,0.00035400000000000015,-0.30235749999999995,0.946356,-0.045447,0.29364250000000003,0.9473860000000001,-0.021695999999999993,-0.0688525,-0.0003190000000000068,0.001573000000000005,0.0688525,0.00031899999999999984,-0.001572999999999998,-0.1326375,-0.34749399999999997,0.020648000000000003,0.1114625,-0.34513400000000005,0.040862,-0.1392975,-0.6885939999999999,0.046316,0.1152925,-0.667014,0.063797
61,0.005098499999999999,0.7123765,-0.0006644999999999984,-0.1477145,0.5013065000000001,0.009661500000000003,-0.26652450000000005,0.7385664999999999,-0.019891499999999993,0.1553155,0.49191650000000003,0.014252500000000001,0.2591755,0.7413265,0.00024550000000000266,-0.3023045,0.9459964999999999,-0.0454055,0.29382549999999996,0.9468665,-0.021886500000000003,-0.0688165,-0.0003114999999999993,0.001522500000000003,0.0688165,0.0003114999999999993,-0.001522499999999996,-0.1325245,-0.3473335,0.0209565,0.11143549999999999,-0.3449735,0.0410355,-0.1393945,-0.6885835,0.0468365,0.1153355,-0.6670535,0.0640875
62,0.005163500000000002,0.7122865,-0.0005814999999999987,-0.1478415,0.5015465,0.009867500000000001,-0.2663515,0.7383865000000001,-0.019761499999999994,0.15516850000000001,0.4918865,0.0141645,0.2594085,0.7410065,5.350000000000493e-05,-0.3022815,0.9456965,-0.0453825,0.2940285,0.9463765000000001,-0.022343499999999995,-0.0687885,-0.00030150000000000315,0.0014155,0.0687885,0.00030150000000000315,-0.0014155,-0.1324515,-0.3472435,0.021199500000000003,0.1113785,-0.3448035,0.0410895,-0.1393715,-0.6885135,0.0472635,0.1154485,-0.6670435,0.0644725
63,0.005211499999999997,0.7122160000000001,-0.0005909999999999943,-0.14808949999999999,0.501986,0.010038000000000005,-0.2661295,0.7380960000000001,-0.01970799999999999,0.15503050000000002,0.491756,0.013967000000000007,0.2596605,0.740626,-0.0002469999999999972,-0.3022395,0.945296,-0.045542,0.2942905,0.945756,-0.02295699999999999,-0.0687625,-0.00029799999999999965,0.0013340000000000019,0.0687625,0.00029799999999999965,-0.001333999999999995,-0.1323495,-0.347314,0.021427000000000005,0.11132049999999999,-0.34467400000000004,0.04112400000000001,-0.1393695,-0.688394,0.047678000000000005,0.11551049999999999,-0.667114,0.06484000000000001
64,0.005250999999999995,0.7121200000000001,-0.0006250000000000006,-0.148345,0.5023599999999999,0.010041000000000001,-0.265895,0.73783,-0.019678,0.154935,0.49169,0.013627,0.259925,0.74024,-0.00047799999999999926,-0.302215,0.9446300000000001,-0.045875,0.294545,0.9451,-0.023578,-0.068751,-0.0003109999999999988,0.0012770000000000004,0.068751,0.0003109999999999988,-0.0012770000000000004,-0.132275,-0.34741,0.021685000000000003,0.11124499999999998,-0.34469,0.041255,-0.139385,-0.6881299999999999,0.048119,0.115505,-0.6672199999999999,0.065253
65,0.005255500000000002,0.712025,-0.0007034999999999958,-0.1486225,0.502775,0.009966500000000003,-0.26561250000000003,0.737515,-0.0198725,0.1548075,0.491675,0.013004500000000002,0.26019749999999997,0.739825,-0.0008034999999999987,-0.3021625,0.943755,-0.0463335,0.2949175,0.944225,-0.02444149999999999,-0.0687295,-0.00033099999999999796,0.0012115000000000042,0.0687295,0.00033099999999999796,-0.0012114999999999973,-0.1322125,-0.34758500000000003,0.022012500000000004,0.1111675,-0.344765,0.041489500000000006,-0.1394125,-0.688105,0.048648500000000004,0.11555750000000001,-0.666305,0.06588350000000001
66,0.005260999999999999,0.7119905,-0.0008815000000000003,-0.148914,0.5032105,0.009668499999999997,-0.26528399999999996,0.7371504999999999,-0.020462499999999995,0.154616,0.4916905,0.012271499999999998,0.260466,0.7393805,-0.0012145000000000003,-0.302034,0.9428004999999999,-0.0471815,0.29540599999999995,0.9432305,-0.025498500000000007,-0.068717,-0.00035650000000000265,0.0012384999999999965,0.068717,0.0003564999999999957,-0.0012385000000000035,-0.132144,-0.3479395,0.022300499999999997,0.111086,-0.34489949999999997,0.0416995,-0.139424,-0.6879395,0.0491805,0.115666,-0.6652395000000001,0.0664825
67,0.005229000000000004,0.7118945000000001,-0.0010329999999999992,-0.149229,0.5036045,0.009288000000000005,-0.26498900000000003,0.7367545000000001,-0.021231,0.154391,0.49206449999999996,0.011410000000000003,0.260661,0.7388245,-0.0017409999999999995,-0.302009,0.9417045,-0.048204,0.29590099999999997,0.9421045,-0.026607999999999993,-0.068676,-0.000394499999999999,0.0011630000000000043,0.068676,0.000394499999999999,-0.0011629999999999974,-0.132119,-0.3483655,0.022590000000000002,0.111001,-0.3450855,0.04189300000000001,-0.139399,-0.6879554999999999,0.049669000000000005,0.115771,-0.6643055,0.06706100000000001
68,0.005205500000000006,0.7118344999999999,-0.0012694999999999998,-0.1494685,0.5037845,0.0089025,-0.2647085,0.7363845,-0.0221385,0.1541615,0.4923545,0.010727500000000001,0.2608415,0.7383345,-0.0023595000000000005,-0.3019685,0.9406144999999999,-0.0496155,0.2963915,0.9413644999999999,-0.027460500000000006,-0.0686405,-0.0004525000000000015,0.001173500000000001,0.0686405,0.0004524999999999946,-0.001173500000000001,-0.1320785,-0.3488155,0.0228035,0.1109215,-0.3453055,0.0420295,-0.1392485,-0.6880755000000001,0.0500925,0.11587150000000002,-0.6635355000000001,0.0675245
69,0.005114999999999998,0.7117650000000001,-0.0015774999999999956,-0.149702,0.5038750000000001,0.008428500000000005,-0.264432,0.7357250000000001,-0.0232835,0.153998,0.49252499999999994,0.009955500000000006,0.260988,0.7378750000000001,-0.0029164999999999955,-0.301912,0.939295,-0.051157499999999995,0.296928,0.9406450000000001,-0.028386499999999995,-0.068601,-0.0005150000000000016,0.0011535000000000017,0.068601,0.0005150000000000016,-0.0011534999999999948,-0.13203199999999998,-0.349245,0.022995500000000002,0.11083799999999999,-0.345545,0.042148500000000005,-0.139102,-0.6882649999999999,0.050417500000000004,0.11599799999999999,-0.662825,0.06800350000000001
70,0.0048400000000000006,0.7117165,-0.002037999999999998,-0.149918,0.5038465,0.007931,-0.264228,0.7350365,-0.024444999999999995,0.15388200000000002,0.4925765,0.009370000000000003,0.26106199999999996,0.7374865,-0.003501999999999998,-0.301918,0.9380065,-0.05311099999999999,0.29753199999999996,0.9399465,-0.02956099999999999,-0.068576,-0.0005744999999999986,0.0011410000000000031,0.068576,0.0005744999999999986,-0.0011409999999999962,-0.131988,-0.3499735,0.023135000000000003,0.11069200000000001,-0.3457235,0.042198000000000006,-0.139008,-0.6877135,0.050837,0.11596200000000001,-0.6630935,0.068479
71,0.004489499999999999,0.7116469999999999,-0.0024300000000000016,-0.1501805,0.503807,0.007494999999999995,-0.2640605,0.7343569999999999,-0.025612999999999997,0.1537695,0.49292700000000006,0.008847,0.2610395,0.737047,-0.003981000000000005,-0.3019505,0.9366669999999999,-0.055081000000000005,0.2980995,0.939147,-0.030560000000000004,-0.0685705,-0.0006160000000000054,0.0012010000000000007,0.0685705,0.0006159999999999985,-0.0012010000000000007,-0.1320005,-0.350763,0.023415,0.11050950000000001,-0.345943,0.042315,-0.1389505,-0.6868230000000001,0.05146,0.1159595,-0.662313,0.06920899999999999
72,0.004051500000000003,0.711623,-0.002692,-0.1503725,0.503673,0.007117000000000005,-0.26400250000000003,0.7336429999999999,-0.026706999999999995,0.1536075,0.49332299999999996,0.008407000000000005,0.2609775,0.7365929999999999,-0.004314999999999999,-0.3020525,0.935423,-0.056874999999999995,0.2985875,0.9384129999999999,-0.03139399999999999,-0.06854550000000001,-0.0006849999999999981,0.0011999999999999997,0.06854550000000001,0.0006849999999999981,-0.0011999999999999997,-0.13205250000000002,-0.351597,0.023753000000000003,0.11028750000000001,-0.346007,0.042411000000000004,-0.1388925,-0.685747,0.052180000000000004,0.11595749999999999,-0.661987,0.07
73,0.003531999999999998,0.711522,-0.002923999999999996,-0.150619,0.5035820000000001,0.007059000000000003,-0.264049,0.7329920000000001,-0.027837999999999995,0.153381,0.49379199999999995,0.008305,0.26084100000000005,0.736132,-0.004616999999999996,-0.30221899999999996,0.934382,-0.058723000000000004,0.299121,0.937652,-0.032388999999999994,-0.06851299999999999,-0.0007339999999999985,0.0011730000000000004,0.06851299999999999,0.0007339999999999985,-0.0011730000000000004,-0.132079,-0.35243800000000003,0.024045000000000004,0.110011,-0.346048,0.0424,-0.138889,-0.684728,0.052936000000000004,0.115841,-0.6620779999999999,0.070804
74,0.002931499999999999,0.71148,-0.003070499999999997,-0.1509355,0.50351,0.007130499999999998,-0.2641755,0.73225,-0.028680500000000005,0.1530645,0.49434000000000006,0.0088665,0.26066449999999997,0.7356699999999999,-0.004846499999999997,-0.3024755,0.93341,-0.0603675,0.2994445,0.93706,-0.0330635,-0.0684685,-0.000789999999999999,0.0011494999999999977,0.0684685,0.000790000000000006,-0.0011494999999999977,-0.1321755,-0.35336,0.0243665,0.1096745,-0.34604999999999997,0.0423775,-0.1389855,-0.6832900000000001,0.0538465,0.1156245,-0.66215,0.0716015
75,0.002290999999999998,0.711401,-0.0030034999999999992,-0.151296,0.503201,0.007406500000000003,-0.26440600000000003,0.731551,-0.029033500000000004,0.152834,0.49489099999999997,0.009458500000000002,0.260474,0.735161,-0.0049815,-0.302836,0.932511,-0.0615015,0.299604,0.936461,-0.033437499999999995,-0.06844800000000001,-0.0008169999999999983,0.001174500000000002,0.06844800000000001,0.0008170000000000052,-0.001174500000000002,-0.13231600000000002,-0.353989,0.0248035,0.10927400000000001,-0.346069,0.0423935,-0.13914600000000002,-0.681869,0.0548805,0.11533399999999999,-0.662279,0.07245650000000001
76,0.0016685000000000024,0.711325,-0.003051999999999999,-0.1516815,0.502865,0.007911000000000001,-0.26468149999999996,0.730805,-0.029106,0.1529585,0.49537499999999995,0.010196999999999998,0.2603185,0.7346250000000001,-0.004982,-0.3032915,0.9315950000000001,-0.062346000000000006,0.29974850000000003,0.9358350000000001,-0.033877,-0.0684555,-0.0008240000000000053,0.0012889999999999985,0.0684555,0.0008239999999999983,-0.0012889999999999985,-0.1323915,-0.354605,0.025206999999999997,0.10887849999999999,-0.34609500000000004,0.042267,-0.1393615,-0.681045,0.055942,0.1149685,-0.6630149999999999,0.073331
77,0.0010719999999999966,0.7112094999999999,-0.0030235000000000053,-0.152031,0.5025195,0.008456499999999999,-0.26499100000000003,0.7300695,-0.029103500000000004,0.153069,0.4957695,0.0110035,0.260169,0.7340595,-0.0049335,-0.303821,0.9307595,-0.0628725,0.29993899999999996,0.9351595,-0.0343725,-0.06846,-0.0008605000000000002,0.0014235000000000012,0.06846,0.0008605000000000002,-0.0014235000000000012,-0.132481,-0.3552205,0.0256595,0.10849899999999998,-0.3462005,0.0421295,-0.139741,-0.6820705,0.0571795,0.11448900000000001,-0.6638205,0.0742535
78,0.0005190000000000004,0.7110595,-0.0027739999999999987,-0.152413,0.5022695,0.009092000000000003,-0.265393,0.7299195,-0.028788,0.152887,0.4961995,0.011890999999999999,0.259997,0.7334595,-0.004797999999999997,-0.30445300000000003,0.9306095,-0.063135,0.300027,0.9344795,-0.034715,-0.06845000000000001,-0.0009095000000000006,0.0015389999999999987,0.06845000000000001,0.0009095000000000006,-0.0015389999999999987,-0.13259300000000002,-0.3558105,0.026103,0.10811699999999999,-0.3463805,0.042007,-0.14011300000000002,-0.6823505,0.05834,0.11404700000000001,-0.6646704999999999,0.075196
79,0.00011949999999999981,0.7109295,-0.0022870000000000043,-0.15277749999999998,0.5022095,0.009884999999999998,-0.2657175,0.7297695000000001,-0.028394000000000003,0.1525225,0.4964795000000001,0.012634,0.25988249999999996,0.7328395,-0.004533000000000009,-0.3049775,0.9304595,-0.062766,0.2999925,0.9338195,-0.034683000000000005,-0.06844249999999999,-0.0010115000000000055,0.0017109999999999972,0.06844249999999999,0.0010114999999999985,-0.0017110000000000042,-0.1327575,-0.35614049999999997,0.026691,0.1077725,-0.34649050000000003,0.04198199999999999,-0.1403875,-0.6826205,0.059487,0.1136325,-0.6657505,0.076103
80,-0.0002584999999999992,0.710782,-0.0017594999999999972,-0.1530705,0.502062,0.0106085,-0.2660205,0.729622,-0.027910500000000005,0.1525895,0.496852,0.013317500000000003,0.25979949999999996,0.7322919999999999,-0.004238499999999992,-0.3054405,0.930312,-0.0623205,0.29995950000000005,0.9332320000000001,-0.034528500000000004,-0.0684025,-0.0011120000000000019,0.0017775000000000013,0.0684025,0.0011120000000000019,-0.0017775000000000013,-0.1328605,-0.356418,0.0272255,0.1074595,-0.346688,0.0418395,-0.1406405,-0.684288,0.0606125,0.1132295,-0.667068,0.0769935
81,-0.0005800000000000033,0.710495,-0.0015390000000000056,-0.153222,0.501725,0.011019000000000001,-0.266322,0.729355,-0.027842,0.152838,0.4972150000000001,0.014265,0.259758,0.731655,-0.004351000000000001,-0.305792,0.9299350000000001,-0.062058999999999996,0.299998,0.9325450000000001,-0.034547,-0.06837399999999999,-0.0011870000000000006,0.0018239999999999992,0.06837399999999999,0.0011870000000000006,-0.0018239999999999992,-0.132882,-0.35678499999999996,0.027199,0.107298,-0.347005,0.041193,-0.140852,-0.686145,0.061489,0.11288799999999999,-0.668605,0.07754
82,-0.0007815000000000001,0.710262,-0.0019454999999999958,-0.1532705,0.5013719999999999,0.010888499999999995,-0.26651050000000004,0.7292019999999999,-0.028178500000000002,0.1531295,0.49748200000000004,0.014690499999999995,0.25978949999999995,0.731042,-0.004935500000000002,-0.3061205,0.9297420000000001,-0.0621475,0.30014949999999996,0.9318919999999999,-0.03502550000000001,-0.06835050000000001,-0.0012599999999999972,0.0017934999999999965,0.06835050000000001,0.0012600000000000042,-0.0017934999999999965,-0.1327805,-0.357178,0.0262135,0.10737949999999999,-0.347358,0.039612499999999995,-0.14098049999999998,-0.686958,0.0616805,0.11248949999999999,-0.670248,0.0772375
83,-0.0008759999999999992,0.710061,-0.0028450000000000003,-0.15319,0.500971,0.010312999999999996,-0.26655999999999996,0.7290610000000001,-0.029035000000000005,0.15342,0.497671,0.014689999999999995,0.25989,0.730431,-0.005995,-0.30633,0.929571,-0.062878,0.30043000000000003,0.931191,-0.03608600000000001,-0.068342,-0.0013000000000000025,0.001793999999999997,0.068342,0.0012999999999999956,-0.001794000000000004,-0.13258999999999999,-0.357619,0.024576999999999995,0.10757,-0.347699,0.037446999999999994,-0.14104,-0.6877289999999999,0.06127699999999999,0.11209,-0.672119,0.07624099999999999
84,-0.001030500000000001,0.710083,-0.003827000000000004,-0.1531795,0.500693,0.009943,-0.26663950000000003,0.728973,-0.030044999999999995,0.1535605,0.497723,0.014697000000000002,0.2598705,0.730013,-0.007202999999999994,-0.3066095,0.929303,-0.063863,0.3008005,0.930643,-0.037332,-0.0683365,-0.0013779999999999973,0.001793999999999997,0.0683365,0.0013780000000000042,-0.001793999999999997,-0.1323895,-0.35795699999999997,0.022753999999999996,0.1077705,-0.348097,0.035066,-0.1411595,-0.688597,0.060683,0.1115005,-0.673867,0.075105
85,-0.0011335000000000026,0.710182,-0.004645500000000011,-0.1531415,0.500532,0.009630499999999993,-0.2666615,0.728602,-0.03124450000000001,0.1535885,0.49759200000000003,0.014841499999999994,0.2598185,0.729792,-0.008263500000000007,-0.3068615,0.928922,-0.0648865,0.3012085,0.930322,-0.03837650000000001,-0.0683585,-0.001466000000000002,0.0017924999999999955,0.0683585,0.001465999999999995,-0.0017925000000000024,-0.1322415,-0.35821800000000004,0.02107649999999999,0.1080185,-0.348488,0.03290649999999999,-0.1412615,-0.6901579999999999,0.059976499999999995,0.1108485,-0.675368,0.07401749999999999
86,-0.0012735000000000003,0.7101945000000001,-0.005636999999999996,-0.15308950000000002,0.5004345,0.009377999999999997,-0.2667195,0.7284945,-0.032635000000000004,0.1535105,0.49759450000000005,0.014998999999999998,0.2597505,0.7297045,-0.009427999999999999,-0.3070995,0.9287945,-0.06612700000000002,0.3016205,0.9301945,-0.039536999999999996,-0.0684185,-0.0015055,0.0018659999999999996,0.0684185,0.0015055,-0.0018659999999999996,-0.1320395,-0.3583155,0.019278999999999998,0.1082605,-0.3488455,0.030641,-0.14134950000000002,-0.6919555,0.059004,0.1102105,-0.6768655,0.072682
87,-0.0013605000000000006,0.7101145,-0.008065000000000003,-0.1530025,0.5003345,0.007896,-0.2665625,0.7283445000000001,-0.03561399999999999,0.15330749999999999,0.49759450000000005,0.013942000000000003,0.25975750000000003,0.7295745,-0.012106999999999993,-0.30729249999999997,0.9286245,-0.06942599999999999,0.3021375,0.9299845,-0.042525999999999994,-0.0685585,-0.0015055,0.0018869999999999998,0.0685585,0.0015055,-0.0018869999999999998,-0.13180250000000002,-0.3586755,0.016216,0.1086075,-0.3493655,0.02722,-0.14143250000000002,-0.6941855,0.056608000000000006,0.1096775,-0.6789155,0.069592
88,-0.001468999999999998,0.710113,-0.011490499999999994,-0.15286,0.500283,0.005336500000000001,-0.26598999999999995,0.727873,-0.0398045,0.15312,0.49759300000000006,0.011523499999999999,0.25978,0.729433,-0.015849499999999996,-0.30744,0.927933,-0.0741725,0.30272000000000004,0.929713,-0.0467325,-0.06869499999999999,-0.0015039999999999984,0.0018885000000000013,0.06869499999999999,0.0015039999999999984,-0.0018885000000000013,-0.13153,-0.35913700000000004,0.0121495,0.10906,-0.34983699999999995,0.0229925,-0.14151,-0.696467,0.0531535,0.10921,-0.680577,0.0654175
89,-0.0015565000000000015,0.710113,-0.017085499999999997,-0.15267150000000002,0.5002530000000001,0.0005795000000000036,-0.26546149999999996,0.7265630000000001,-0.0466725,0.15282849999999998,0.497363,0.0067414999999999975,0.26000850000000003,0.729013,-0.022146500000000006,-0.30748149999999996,0.926343,-0.08200650000000001,0.3038285,0.928923,-0.054506500000000006,-0.0688745,-0.0015039999999999984,0.001863499999999997,0.0688745,0.0015039999999999984,-0.001863499999999997,-0.1313615,-0.35940700000000003,0.006127500000000001,0.1095885,-0.34988699999999995,0.0173185,-0.14154150000000001,-0.696577,0.0475365,0.10892850000000001,-0.682147,0.0590685
90,-0.0016289999999999985,0.7099150000000001,-0.023478500000000006,-0.152673,0.500105,-0.005076499999999998,-0.265093,0.7253149999999999,-0.0543085,0.152497,0.496555,0.0006914999999999977,0.260337,0.7285250000000001,-0.0292875,-0.307553,0.924755,-0.0911785,0.30499699999999996,0.928105,-0.06330849999999999,-0.069081,-0.0015259999999999996,0.0018294999999999978,0.069081,0.0015259999999999996,-0.0018294999999999978,-0.131323,-0.359665,-0.00033450000000000146,0.110117,-0.349805,0.011411499999999998,-0.141673,-0.697095,0.0411135,0.108847,-0.6834450000000001,0.0519595
91,-0.001696999999999998,0.709197,-0.030524500000000003,-0.15278699999999998,0.49992700000000007,-0.011306499999999997,-0.26487700000000003,0.7239169999999999,-0.06286349999999999,0.15205300000000002,0.495667,-0.005967500000000001,0.260773,0.7278469999999999,-0.037233499999999996,-0.307707,0.9228069999999999,-0.1021135,0.306153,0.927087,-0.07287350000000001,-0.069282,-0.0015049999999999994,0.0017204999999999998,0.069282,0.0015049999999999994,-0.0017204999999999998,-0.131417,-0.35995299999999997,-0.006930499999999999,0.110613,-0.34967299999999996,0.005087500000000002,-0.141777,-0.697423,0.0341485,0.108803,-0.684583,0.0444015
92,-0.0017755000000000028,0.708132,-0.0391495,-0.1529125,0.499472,-0.018721500000000002,-0.2647625,0.721822,-0.07335050000000001,0.1515975,0.49483199999999994,-0.013770500000000005,0.2615375,0.726792,-0.047137500000000006,-0.3079925,0.920102,-0.11509049999999998,0.3076975,0.925622,-0.0848505,-0.06948850000000001,-0.001469999999999999,0.0015944999999999987,0.06948850000000001,0.001469999999999999,-0.0015944999999999987,-0.1314925,-0.360228,-0.014816500000000003,0.1112275,-0.349548,-0.002660500000000003,-0.1418525,-0.6974980000000001,0.0257155,0.10875750000000001,-0.685478,0.0355765
93,-0.0018935000000000002,0.70586,-0.0500125,-0.15306450000000002,0.49825,-0.027982500000000004,-0.2647045,0.71804,-0.0866575,0.1508855,0.49248,-0.023609500000000002,0.2625555,0.72379,-0.05984450000000001,-0.3088445,0.91612,-0.1316775,0.3095055,0.9219400000000001,-0.1004375,-0.06969249999999999,-0.0015090000000000034,0.0017035000000000002,0.06969249999999999,0.0015090000000000034,-0.0017035000000000002,-0.1316145,-0.35982000000000003,-0.024623500000000003,0.1119155,-0.3486,-0.012424500000000002,-0.14215450000000002,-0.69672,0.015235499999999999,0.10868549999999999,-0.68543,0.024843499999999998
94,-0.002159500000000001,0.7034345000000001,-0.060858499999999996,-0.15325049999999998,0.4968545,-0.0374475,-0.2646505,0.7140845,-0.0999385,0.1501795,0.49000450000000007,-0.0336105,0.2635595,0.7210445,-0.0727135,-0.31002050000000003,0.9123145,-0.1487985,0.31125949999999997,0.9183245,-0.11640850000000001,-0.06990350000000001,-0.0015604999999999994,0.0020145000000000007,0.06990350000000001,0.0015604999999999994,-0.002014499999999999,-0.1317305,-0.3591655,-0.034798499999999996,0.11264949999999999,-0.3476755,-0.0223275,-0.1425505,-0.6956855,0.004599500000000001,0.1087195,-0.6849755,0.0139485
95,-0.002436499999999997,0.7008565,-0.071739,-0.15350049999999998,0.49531650000000005,-0.04709,-0.2645705,0.7103865,-0.113363,0.14901950000000003,0.4872265,-0.043772,0.2645395,0.7184165,-0.085961,-0.3114205,0.9088165,-0.166043,0.3129595,0.9150565,-0.133103,-0.0700775,-0.0015884999999999996,0.002286,0.0700775,0.0015884999999999996,-0.002286,-0.1318105,-0.3580335,-0.045200000000000004,0.11351950000000001,-0.34623349999999997,-0.032942,-0.14295049999999998,-0.6941035,-0.006167,0.10886950000000001,-0.6838934999999999,0.0030269999999999997
96,-0.0027604999999999947,0.6975195,-0.08172549999999999,-0.1538085,0.49406949999999994,-0.056057499999999996,-0.2646385,0.7065195,-0.1260155,0.1477015,0.48455950000000003,-0.0536385,0.2654415,0.7155495,-0.0983695,-0.3130885,0.9053495,-0.18236549999999999,0.31460150000000003,0.9114395,-0.1486655,-0.07019349999999999,-0.001532500000000006,0.0024335,0.07019349999999999,0.0015324999999999991,-0.0024335000000000008,-0.1319785,-0.3565005,-0.054794499999999996,0.11437150000000001,-0.34443050000000003,-0.0425425,-0.14338849999999997,-0.6921805,-0.016141500000000003,0.1091415,-0.6820505,-0.006828500000000001
97,-0.0031800000000000014,0.6938715,-0.091528,-0.153831,0.49339150000000004,-0.064763,-0.264961,0.7032615,-0.138362,0.14643899999999999,0.48204150000000007,-0.063412,0.266289,0.7120515,-0.110771,-0.315121,0.9031414999999999,-0.198772,0.31615899999999997,0.9071714999999999,-0.164352,-0.0703,-0.0014374999999999978,0.0024399999999999995,0.0703,0.0014375000000000013,-0.0024399999999999995,-0.132161,-0.35518849999999996,-0.064202,0.115299,-0.3420485,-0.051926,-0.143911,-0.6896985,-0.025993,0.109499,-0.6797185,-0.016663999999999998
98,-0.003858500000000001,0.6904025,-0.099576,-0.1539635,0.4912525,-0.071966,-0.2655835,0.7010425,-0.148704,0.1450965,0.4795625,-0.071687,0.2664765,0.7082525,-0.12113,-0.31740349999999995,0.9023525,-0.212934,0.3165165,0.9027824999999999,-0.177134,-0.0704225,-0.0014704999999999996,0.0024810000000000006,0.0704225,0.001470500000000003,-0.0024810000000000006,-0.1325135,-0.3532075,-0.072002,0.1162065,-0.3392775,-0.059585,-0.1444535,-0.6866975000000001,-0.034247,0.1098565,-0.6766275,-0.025019
99,-0.0046440000000000006,0.6873465000000001,-0.1070315,-0.154449,0.4887765,-0.07901749999999999,-0.266449,0.6991565000000001,-0.15874649999999998,0.14337100000000003,0.47703650000000003,-0.0798075,0.266441,0.7051265,-0.1310965,-0.319759,0.9025265,-0.2264265,0.316621,0.8990465000000001,-0.1894465,-0.070593,-0.0015685000000000004,0.0027225000000000027,0.070593,0.0015685000000000004,-0.0027224999999999992,-0.13286900000000001,-0.35073350000000003,-0.07998649999999999,0.11712099999999999,-0.3367735,-0.0673725,-0.145019,-0.6824935,-0.0424255,0.110181,-0.6726734999999999,-0.033195499999999996
100,-0.005359999999999995,0.6845135,-0.114662,-0.15490299999999999,0.48641349999999994,-0.086314,-0.267733,0.6970435,-0.168798,0.141637,0.4744635,-0.088055,0.26660700000000004,0.7026135,-0.14118799999999998,-0.32198299999999996,0.9044135,-0.238988,0.317077,0.8969735,-0.201728,-0.070736,-0.001683500000000001,0.0029840000000000005,0.070736,0.001683500000000001,-0.0029840000000000005,-0.13316299999999998,-0.34754650000000004,-0.08881800000000001,0.11829700000000001,-0.3333065,-0.07600599999999999,-0.14537299999999997,-0.6765365,-0.050957,0.110897,-0.6671065,-0.04196
101,-0.005942499999999999,0.6810820000000001,-0.1211525,-0.1545705,0.48414199999999996,-0.0924865,-0.2687105,0.6947920000000001,-0.1772395,0.1402495,0.472252,-0.0952495,0.2670495,0.697562,-0.1495495,-0.3239405,0.906402,-0.24975950000000002,0.3176195,0.8943920000000001,-0.2118895,-0.0707515,-0.0018510000000000002,0.0032784999999999967,0.0707515,0.0018510000000000002,-0.0032785000000000036,-0.1331605,-0.340718,-0.0969795,0.1197695,-0.327648,-0.0841825,-0.14523049999999998,-0.6702279999999999,-0.0585265,0.11162949999999999,-0.661368,-0.0499935
102,-0.006823000000000004,0.6788275,-0.126648,-0.15429700000000002,0.48243749999999996,-0.09772,-0.269797,0.6939675,-0.18385800000000002,0.13903300000000002,0.4704275,-0.10087399999999999,0.267213,0.6954875,-0.155998,-0.32565700000000003,0.9103375,-0.258008,0.318023,0.8936675,-0.219478,-0.070742,-0.0018845000000000003,0.0030999999999999986,0.070742,0.0018844999999999999,-0.0030999999999999986,-0.13338699999999998,-0.3330725,-0.104814,0.121153,-0.3209425,-0.092023,-0.144887,-0.6623825,-0.064983,0.11211299999999999,-0.6541225,-0.057396
103,-0.0074350000000000015,0.6768854999999999,-0.13655899999999999,-0.15381,0.48106550000000003,-0.107547,-0.27059,0.6942754999999999,-0.195195,0.13813999999999999,0.4695555,-0.111072,0.26739999999999997,0.6938654999999999,-0.16706500000000002,-0.32721,0.9145854999999999,-0.271095,0.31838,0.8927554999999999,-0.23189500000000002,-0.07074,-0.0018835000000000006,0.0030609999999999943,0.07074,0.0018834999999999998,-0.0030610000000000012,-0.13352,-0.32466449999999997,-0.117513,0.12279999999999999,-0.31361449999999996,-0.104834,-0.14431000000000002,-0.6535845,-0.075948,0.11276,-0.6461345000000001,-0.069369
104,-0.007923999999999999,0.67718,-0.1472385,-0.15311999999999998,0.47844,-0.1186015,-0.27104,0.69513,-0.2074955,0.13751999999999998,0.4727,-0.12219250000000001,0.26735000000000003,0.6937,-0.1790855,-0.32863,0.91528,-0.2857155,0.31782,0.8930899999999999,-0.24500550000000001,-0.070628,-0.0017940000000000005,0.0023694999999999966,0.070628,0.0017940000000000005,-0.0023695000000000105,-0.13396999999999998,-0.31242000000000003,-0.1341245,0.12498,-0.30286,-0.12155250000000001,-0.14356999999999998,-0.64241,-0.08785950000000001,0.11355,-0.63505,-0.0823265
105,-0.008175000000000003,0.6729005,-0.157372,-0.15182800000000002,0.47512050000000006,-0.129605,-0.271108,0.6954405,-0.219978,0.136312,0.46944050000000004,-0.133363,0.267262,0.6919605,-0.191058,-0.329668,0.9159904999999999,-0.300888,0.317332,0.8946904999999999,-0.25824800000000003,-0.070561,-0.0018934999999999994,0.0017290000000000083,0.070561,0.0018935000000000028,-0.0017289999999999944,-0.13396800000000003,-0.2993595,-0.150998,0.127602,-0.2912095,-0.139073,-0.14228800000000003,-0.6302795,-0.099605,0.114782,-0.6234595,-0.09520899999999999
106,-0.008223999999999999,0.6695500000000001,-0.1676205,-0.150214,0.47143,-0.14022250000000003,-0.27070399999999994,0.69604,-0.2321715,0.135206,0.46665,-0.1441755,0.26754599999999995,0.69123,-0.20253150000000003,-0.330284,0.91645,-0.3155115,0.316936,0.8973199999999999,-0.2707215,-0.070481,-0.0019460000000000033,0.0011314999999999936,0.070481,0.0019459999999999963,-0.0011315000000000075,-0.133784,-0.28628,-0.16747650000000003,0.130306,-0.27933,-0.15608850000000002,-0.140764,-0.6178999999999999,-0.11090150000000001,0.11619600000000001,-0.61145,-0.10750150000000001
107,-0.008334500000000002,0.6663195,-0.17766900000000002,-0.1485245,0.4689195,-0.15051799999999999,-0.2701945,0.6957995,-0.24400500000000003,0.1341855,0.4644795,-0.154717,0.2675855,0.6913795,-0.21402500000000002,-0.3308245,0.9163595,-0.329905,0.31658549999999996,0.9006895,-0.283275,-0.0704535,-0.0019014999999999935,0.00037500000000000033,0.0704535,0.0019015000000000004,-0.00037500000000000033,-0.13354449999999998,-0.2735905,-0.183765,0.13285550000000002,-0.2675205,-0.17221999999999998,-0.1391945,-0.6057205,-0.12192700000000001,0.1175755,-0.5995405,-0.119274
108,-0.008455999999999998,0.6630260000000001,-0.187594,-0.14696399999999998,0.46739600000000003,-0.160521,-0.269824,0.691506,-0.25573500000000005,0.13345600000000002,0.462616,-0.164807,0.26746600000000004,0.690936,-0.225495,-0.331254,0.911656,-0.34409500000000004,0.316226,0.903546,-0.295905,-0.07042699999999999,-0.0017539999999999917,-0.0004050000000000026,0.07042699999999999,0.0017540000000000056,0.0004050000000000026,-0.133314,-0.26173399999999997,-0.199444,0.135296,-0.25635399999999997,-0.18773600000000001,-0.137614,-0.594044,-0.13249,0.118866,-0.5880939999999999,-0.130548
109,-0.008371,0.660987,-0.197246,-0.145345,0.466437,-0.170408,-0.269275,0.6887070000000001,-0.26716,0.132825,0.461557,-0.174367,0.267455,0.690467,-0.23674,-0.33148500000000003,0.906187,-0.35812,0.315915,0.905587,-0.30862999999999996,-0.07039599999999999,-0.001686000000000007,-0.001020000000000007,0.07039599999999999,0.001685999999999993,0.0010199999999999931,-0.132905,-0.249843,-0.214535,0.137655,-0.245223,-0.202689,-0.135885,-0.582913,-0.142537,0.12013499999999999,-0.5772229999999999,-0.1411
110,-0.007981500000000002,0.6612699999999999,-0.20756,-0.14346150000000002,0.46338,-0.181084,-0.26870150000000004,0.6881499999999999,-0.279455,0.13195849999999998,0.46014,-0.18455,0.2683585,0.69278,-0.24867499999999998,-0.3316615,0.9007299999999999,-0.373105,0.31661849999999997,0.9098999999999999,-0.322585,-0.0703445,-0.0017300000000000093,-0.0015249999999999986,0.0703445,0.0017299999999999954,0.0015249999999999986,-0.1323315,-0.23649,-0.230171,0.1400185,-0.23244,-0.218117,-0.1340515,-0.57001,-0.152839,0.1214085,-0.56469,-0.15184799999999998
111,-0.007349000000000005,0.6607149999999999,-0.21701099999999998,-0.141842,0.46089500000000005,-0.190929,-0.26801200000000003,0.687685,-0.291455,0.131428,0.45945500000000006,-0.19391999999999998,0.269218,0.693815,-0.26003499999999996,-0.331452,0.894515,-0.387395,0.317538,0.915275,-0.335995,-0.070217,-0.0018149999999999972,-0.0018149999999999833,0.070217,0.0018149999999999972,0.001815000000000011,-0.131492,-0.22376500000000002,-0.24476499999999998,0.142428,-0.220305,-0.23249299999999998,-0.132132,-0.558095,-0.16224899999999998,0.12268799999999999,-0.553185,-0.16138399999999997
112,-0.007205000000000005,0.659975,-0.221539,-0.14067000000000002,0.458495,-0.19588,-0.26721999999999996,0.6862250000000001,-0.298835,0.13054,0.457565,-0.19840400000000002,0.26977,0.693665,-0.26644500000000004,-0.33129,0.888015,-0.396335,0.31851,0.920855,-0.344275,-0.070137,-0.0018449999999999855,-0.0023350000000000037,0.070137,0.0018450000000000133,0.0023350000000000037,-0.13091,-0.21048499999999998,-0.254475,0.14451999999999998,-0.208125,-0.24189700000000003,-0.13056,-0.5465850000000001,-0.16677,0.12339999999999998,-0.5421450000000001,-0.16598400000000002
113,-0.007455000000000007,0.65659,-0.22497999999999999,-0.139848,0.45726999999999995,-0.19969699999999999,-0.26728799999999997,0.6836300000000001,-0.30511,0.129132,0.45177,-0.20163499999999998,0.26996200000000004,0.69027,-0.27166999999999997,-0.33142800000000006,0.8849400000000001,-0.4041,0.31948200000000004,0.9184800000000001,-0.35087999999999997,-0.070285,-0.0019500000000000073,-0.0021899999999999975,0.070285,0.0019500000000000073,0.0021900000000000253,-0.13045800000000002,-0.20052,-0.26019,0.145752,-0.19879,-0.24766499999999997,-0.129558,-0.53771,-0.16996499999999998,0.123872,-0.53367,-0.169213
114,-0.0076225000000000025,0.658185,-0.22875599999999996,-0.13915850000000002,0.45638500000000004,-0.20348799999999997,-0.2673785,0.681535,-0.311065,0.1286315,0.45110500000000003,-0.20477299999999998,0.2701615,0.688515,-0.27730499999999997,-0.3315785,0.881615,-0.411825,0.32031149999999997,0.916245,-0.357245,-0.0703895,-0.0018449999999999855,-0.0020349999999999813,0.0703895,0.0018450000000000133,0.002035000000000009,-0.1302385,-0.190345,-0.26563499999999995,0.1469415,-0.18899499999999997,-0.25302499999999994,-0.1287385,-0.528845,-0.17297099999999999,0.12428149999999999,-0.5250950000000001,-0.17235799999999998
115,-0.007809499999999999,0.65806,-0.232595,-0.13851950000000002,0.45435,-0.207609,-0.26764950000000004,0.67518,-0.3172,0.12811050000000002,0.45044999999999996,-0.207952,0.2705605,0.68695,-0.28276999999999997,-0.33175950000000004,0.87723,-0.41970999999999997,0.3210905,0.91397,-0.36397,-0.0705425,-0.0018700000000000105,-0.001779999999999976,0.0705425,0.0018699999999999828,0.0017800000000000038,-0.1302295,-0.18009000000000003,-0.27107,0.1481905,-0.17885,-0.25841,-0.12797950000000002,-0.51985,-0.175887,0.1246305,-0.51646,-0.17529599999999998
116,-0.007716499999999999,0.65711,-0.23680800000000002,-0.13801449999999998,0.45274000000000003,-0.211892,-0.2678145,0.67059,-0.32345,0.1278155,0.44843999999999995,-0.211388,0.2712555,0.68216,-0.28792,-0.3321045,0.8718199999999999,-0.42867,0.32241549999999997,0.9089999999999999,-0.37126000000000003,-0.0705915,-0.0020399999999999863,-0.0015400000000000136,0.0705915,0.0020399999999999863,0.0015400000000000136,-0.1304845,-0.17271,-0.27671,0.1491155,-0.17156999999999997,-0.26433,-0.1272245,-0.50952,-0.178881,0.1249355,-0.50676,-0.178303
117,-0.0073640000000000025,0.656215,-0.24129099999999998,-0.13737700000000003,0.450515,-0.21609499999999998,-0.267567,0.670065,-0.329895,0.127693,0.44659499999999996,-0.214874,0.272633,0.677745,-0.292715,-0.332287,0.868955,-0.43781499999999995,0.323473,0.9038050000000001,-0.37860499999999997,-0.070649,-0.0022149999999999948,-0.001464999999999994,0.070649,0.0022149999999999948,0.001464999999999994,-0.13071700000000003,-0.164645,-0.282145,0.15019300000000002,-0.16366499999999998,-0.270215,-0.12628699999999998,-0.498405,-0.181835,0.125463,-0.496275,-0.181061
118,-0.006890500000000001,0.653735,-0.245722,-0.13649850000000002,0.44650500000000004,-0.220466,-0.2672985,0.668015,-0.337775,0.1276815,0.44350500000000004,-0.218836,0.2739715,0.673015,-0.29830500000000004,-0.33216850000000003,0.8646550000000001,-0.44754499999999997,0.3246515,0.896935,-0.386385,-0.07076350000000001,-0.0022949999999999915,-0.001574999999999993,0.07076350000000001,0.0022949999999999915,0.001574999999999993,-0.13099850000000002,-0.15510500000000002,-0.287605,0.1512915,-0.15449500000000002,-0.276265,-0.1253785,-0.48563499999999993,-0.185014,0.1260015,-0.48431499999999994,-0.183938
119,-0.0065214999999999995,0.649435,-0.249944,-0.1359995,0.444445,-0.224516,-0.2664295,0.661925,-0.34426,0.1278505,0.441245,-0.22231399999999998,0.2749205,0.6694249999999999,-0.30432,-0.3317595,0.859485,-0.4579,0.3259605,0.890255,-0.3943,-0.07098650000000001,-0.0024049999999999905,-0.0019199999999999773,0.07098650000000001,0.0024050000000000182,0.001920000000000005,-0.1314995,-0.14448499999999997,-0.29257,0.1522505,-0.144285,-0.28191,-0.12467950000000001,-0.47149499999999994,-0.18778399999999998,0.1263305,-0.47107499999999997,-0.18639299999999998
120,-0.006111000000000002,0.64496,-0.253807,-0.135555,0.4425,-0.228309,-0.265695,0.65674,-0.34997,0.12833499999999998,0.43994,-0.225195,0.275825,0.66562,-0.31024,-0.330755,0.8508399999999999,-0.46732,0.32708499999999996,0.88017,-0.40152,-0.071243,-0.0026800000000000157,-0.002140000000000003,0.071243,0.002679999999999988,0.0021399999999999753,-0.132155,-0.13323000000000002,-0.29734000000000005,0.153145,-0.13369000000000003,-0.2874,-0.124115,-0.45677,-0.190394,0.126445,-0.45751,-0.18870800000000001
121,-0.005390000000000002,0.64025,-0.257859,-0.135037,0.43994,-0.232313,-0.26487700000000003,0.65256,-0.35555000000000003,0.128913,0.43729,-0.228266,0.276663,0.66164,-0.3164,-0.329787,0.8437300000000001,-0.47726,0.328463,0.87106,-0.40937999999999997,-0.071502,-0.002689999999999998,-0.0022699999999999942,0.071502,0.002689999999999998,0.0022699999999999942,-0.132807,-0.11965999999999999,-0.30226,0.154113,-0.12085999999999997,-0.29298,-0.12345700000000001,-0.43968999999999997,-0.19325,0.126633,-0.44144,-0.191178
122,-0.004754999999999999,0.636045,-0.261521,-0.134405,0.437715,-0.235818,-0.264295,0.643575,-0.36078,0.129435,0.43445500000000004,-0.230842,0.27753500000000003,0.658895,-0.32058,-0.329155,0.836915,-0.48586,0.329915,0.867215,-0.4172,-0.071741,-0.002705000000000013,-0.0024099999999999955,0.071741,0.002705000000000013,0.0024099999999999955,-0.133455,-0.10564499999999999,-0.30695,0.154975,-0.10794500000000001,-0.29835,-0.12290499999999999,-0.42232499999999995,-0.195943,0.126745,-0.425195,-0.193532
123,-0.004400000000000001,0.63186,-0.264916,-0.133993,0.43523,-0.238626,-0.264083,0.63591,-0.36614,0.129707,0.43295,-0.233001,0.278347,0.65622,-0.32387,-0.328943,0.8265,-0.49328000000000005,0.331117,0.86297,-0.42473,-0.071908,-0.002819999999999989,-0.0025499999999999967,0.071908,0.002819999999999989,0.0025499999999999967,-0.13439299999999998,-0.09161999999999998,-0.31145,0.155537,-0.09498000000000001,-0.30325,-0.12261300000000001,-0.40488999999999997,-0.19842100000000001,0.126577,-0.40885000000000005,-0.195603
124,-0.004151499999999999,0.628195,-0.267133,-0.13365049999999998,0.434295,-0.240753,-0.2635905,0.632945,-0.37035,0.1301795,0.43159499999999995,-0.234821,0.2793595,0.6507149999999999,-0.32706,-0.3284305,0.817035,-0.49924999999999997,0.3324495,0.858205,-0.43177,-0.0720955,-0.0028950000000000364,-0.00270999999999999,0.0720955,0.002894999999999981,0.00270999999999999,-0.13526049999999998,-0.07754500000000003,-0.31545,0.1562995,-0.08192500000000003,-0.30664,-0.1222905,-0.387555,-0.200622,0.1264195,-0.39266500000000004,-0.197382
125,-0.003894499999999995,0.623715,-0.268889,-0.1332715,0.43252499999999994,-0.242502,-0.2636715,0.6299349999999999,-0.372125,0.1304485,0.43072499999999997,-0.23657599999999998,0.2801785,0.646085,-0.330125,-0.3279315,0.809295,-0.503325,0.3340285,0.8563149999999999,-0.436855,-0.0722745,-0.0027750000000000274,-0.0026549999999999907,0.0722745,0.002774999999999972,0.0026550000000000185,-0.1360715,-0.06327500000000003,-0.31854499999999997,0.1569985,-0.06828500000000004,-0.309025,-0.12200150000000001,-0.37053500000000006,-0.20266299999999998,0.1262585,-0.3762150000000001,-0.19903099999999999
126,-0.0036355000000000033,0.619985,-0.27064699999999997,-0.1329925,0.430473,-0.244259,-0.2631825,0.626905,-0.37387000000000004,0.1306375,0.42906,-0.238337,0.2813875,0.642525,-0.33297,-0.3269925,0.802985,-0.50657,0.33534749999999997,0.853825,-0.44088,-0.07246849999999999,-0.002595000000000014,-0.0024899999999999922,0.07246849999999999,0.0025949999999999585,0.0024899999999999922,-0.1369325,-0.04662500000000003,-0.32094,0.15749749999999998,-0.052275000000000016,-0.31089,-0.12184250000000002,-0.351205,-0.204616,0.1259175,-0.357375,-0.200693
127,-0.003587,0.6135900000000001,-0.27240600000000004,-0.132974,0.427218,-0.24601900000000002,-0.26329400000000003,0.62092,-0.37563500000000005,0.130336,0.42656,-0.23964100000000002,0.282296,0.63826,-0.334955,-0.326164,0.7943899999999999,-0.509235,0.33616599999999996,0.85042,-0.443745,-0.072864,-0.002630000000000021,-0.002805000000000002,0.072864,0.002630000000000021,0.002804999999999974,-0.13792400000000002,-0.028339999999999976,-0.322815,0.157906,-0.03493000000000002,-0.312635,-0.12197399999999999,-0.33003999999999994,-0.206457,0.125216,-0.33685000000000004,-0.202192
128,-0.003709000000000004,0.607605,-0.273815,-0.133135,0.424369,-0.24730599999999997,-0.26288500000000004,0.614375,-0.375845,0.129995,0.422933,-0.24005299999999996,0.28295499999999996,0.6329549999999999,-0.336425,-0.32521500000000003,0.786415,-0.5106949999999999,0.33663499999999996,0.8412850000000001,-0.445225,-0.073362,-0.0026450000000000085,-0.002904999999999991,0.073362,0.0026450000000000085,0.0029050000000000187,-0.138955,-0.013085000000000013,-0.32437499999999997,0.158145,-0.020114999999999994,-0.314125,-0.122225,-0.31197500000000006,-0.20805099999999999,0.124425,-0.318845,-0.20322799999999996
129,-0.004063500000000001,0.603915,-0.27511199999999997,-0.13359849999999998,0.42134099999999997,-0.24847399999999997,-0.26266849999999997,0.604285,-0.37665499999999996,0.1292915,0.419724,-0.240638,0.2829815,0.630165,-0.33813499999999996,-0.3249785,0.780875,-0.512385,0.3368315,0.837145,-0.44692499999999996,-0.07385449999999999,-0.002035000000000009,-0.003334999999999977,0.07385449999999999,0.0020349999999999535,0.0033350000000000046,-0.1400785,0.0033749999999999614,-0.326145,0.15817150000000002,-0.0036349999999999993,-0.315835,-0.12260849999999998,-0.292625,-0.20992999999999998,0.1235115,-0.29854500000000006,-0.204365
130,-0.004574500000000002,0.599815,-0.27612000000000003,-0.1340365,0.418328,-0.24969500000000003,-0.2625965,0.593805,-0.376575,0.1287435,0.417276,-0.24088500000000002,0.28322349999999996,0.627495,-0.339905,-0.32523650000000004,0.773655,-0.514185,0.33729349999999997,0.8316950000000001,-0.448685,-0.0743635,-0.0018650000000000055,-0.003925000000000012,0.0743635,0.0018650000000000055,0.003924999999999984,-0.14110650000000002,0.017254999999999965,-0.327985,0.15824349999999998,0.010564999999999991,-0.317255,-0.12307649999999999,-0.27595500000000006,-0.21174,0.1225135,-0.28076500000000004,-0.20551500000000003
131,-0.0051035,0.594545,-0.276826,-0.1345285,0.415266,-0.25074,-0.2630685,0.588565,-0.37676,0.1277215,0.414584,-0.241231,0.2825515,0.6225350000000001,-0.34059,-0.3257485,0.7650250000000001,-0.51529,0.33681150000000004,0.825725,-0.45021999999999995,-0.07478950000000001,-0.0016349999999999976,-0.0044399999999999995,0.07478950000000001,0.0016349999999999976,0.0044399999999999995,-0.14215850000000002,0.02996500000000002,-0.32950999999999997,0.1586815,0.023944999999999994,-0.31831,-0.1235385,-0.25973500000000005,-0.213715,0.12139150000000001,-0.264305,-0.206492
132,-0.005631999999999998,0.589545,-0.278438,-0.13502999999999998,0.411724,-0.252788,-0.26363000000000003,0.584295,-0.377675,0.12675,0.411765,-0.24311200000000002,0.28143999999999997,0.619085,-0.341675,-0.32627,0.7610950000000001,-0.516895,0.33634,0.821285,-0.452845,-0.07527600000000001,-0.0015149999999999886,-0.004915000000000003,0.07527600000000001,0.0015149999999999886,0.004914999999999975,-0.14339,0.042655,-0.330905,0.15915,0.03861500000000001,-0.320095,-0.12381999999999999,-0.242365,-0.21694200000000002,0.12,-0.24698499999999995,-0.207912
133,-0.0063025000000000025,0.58412,-0.279999,-0.1358665,0.407632,-0.25483100000000003,-0.26427649999999997,0.5796199999999999,-0.379435,0.12608350000000002,0.40840199999999993,-0.24508600000000003,0.2805635,0.6173599999999999,-0.342465,-0.3269265,0.7564599999999999,-0.518615,0.3356835,0.8153299999999999,-0.454665,-0.0756415,-0.0013100000000000334,-0.005415000000000003,0.0756415,0.0013099999999999778,0.005414999999999975,-0.14476650000000002,0.05448999999999998,-0.33187500000000003,0.1597135,0.05279999999999996,-0.321625,-0.12417650000000001,-0.22591000000000006,-0.22008100000000003,0.1184535,-0.23047000000000006,-0.209348
134,-0.007211499999999999,0.5797100000000001,-0.281706,-0.1364495,0.40465500000000004,-0.257143,-0.2657595,0.573292,-0.382095,0.12547049999999998,0.40580700000000003,-0.247307,0.27878050000000004,0.611415,-0.342445,-0.3277695,0.750885,-0.520655,0.3349805,0.806725,-0.45503499999999997,-0.0758635,-0.001214999999999966,-0.005934999999999996,0.0758635,0.0012150000000000216,0.005934999999999996,-0.1460395,0.06525500000000001,-0.332585,0.1605205,0.065585,-0.322935,-0.1217495,-0.210445,-0.219136,0.1169505,-0.21586499999999997,-0.21089000000000002
135,-0.008154499999999999,0.573392,-0.283404,-0.13695549999999998,0.40209700000000004,-0.259945,-0.2674355,0.566362,-0.38469,0.12472449999999999,0.40386500000000003,-0.24981399999999998,0.2769045,0.6043700000000001,-0.3427,-0.32974549999999997,0.7435700000000001,-0.52329,0.33427450000000003,0.79823,-0.45523,-0.0759985,-0.0012699999999999934,-0.00655,0.0759985,0.0012700000000000489,0.00655,-0.1472455,0.07317000000000001,-0.33296000000000003,0.1616245,0.07499000000000006,-0.32393,-0.1191255,-0.19887999999999995,-0.21836,0.1155445,-0.20460999999999996,-0.212415
136,-0.009323999999999999,0.570357,-0.2861,-0.13775900000000002,0.40054500000000004,-0.263104,-0.269399,0.563528,-0.387845,0.12398100000000001,0.401435,-0.25324599999999997,0.274551,0.598785,-0.343595,-0.33203900000000003,0.739915,-0.5262249999999999,0.33342099999999997,0.791385,-0.455845,-0.075978,-0.0011349999999999971,-0.006605,0.075978,0.0011349999999999971,0.006605,-0.14870899999999998,0.07871500000000003,-0.33396499999999996,0.162211,0.082235,-0.326225,-0.116199,-0.19000499999999998,-0.21748,0.114121,-0.196295,-0.214334
137,-0.010489499999999999,0.566727,-0.288802,-0.13873749999999999,0.398825,-0.26622100000000004,-0.2713175,0.562541,-0.392085,0.1232925,0.399625,-0.256718,0.27305250000000003,0.593013,-0.344465,-0.33519750000000004,0.735735,-0.5295650000000001,0.33232249999999997,0.788385,-0.457355,-0.0758995,-0.0008250000000000757,-0.006725000000000009,0.0758995,0.0008249999999999647,0.006724999999999981,-0.1501575,0.08425499999999997,-0.335245,0.1626125,0.08960499999999999,-0.32867500000000005,-0.1120675,-0.18105499999999997,-0.21474000000000001,0.1126225,-0.18777500000000003,-0.21624600000000002
138,-0.011663999999999997,0.561855,-0.29141700000000004,-0.139741,0.3969349999999999,-0.269367,-0.273341,0.563739,-0.39609000000000005,0.12268899999999999,0.39699499999999993,-0.260014,0.27137900000000004,0.5851489999999999,-0.34516,-0.33852099999999996,0.731675,-0.53281,0.33127900000000005,0.7828949999999999,-0.45909,-0.075882,-0.0010550000000000281,-0.006540000000000018,0.075882,0.0010549999999999171,0.00653999999999999,-0.151611,0.08735499999999996,-0.33677,0.162939,0.09422499999999995,-0.33107000000000003,-0.10714099999999999,-0.17481500000000005,-0.21083900000000003,0.110839,-0.1820750000000001,-0.21773000000000003
139,-0.012888999999999998,0.558454,-0.293776,-0.140833,0.395455,-0.272134,-0.275543,0.564865,-0.39954500000000004,0.122007,0.395575,-0.26290199999999997,0.26904700000000004,0.57782,-0.345335,-0.34318299999999996,0.728005,-0.5355650000000001,0.330367,0.778385,-0.460905,-0.075704,-0.0012050000000000116,-0.0063449999999999895,0.075704,0.0012050000000000116,0.0063449999999999895,-0.153253,0.09015499999999999,-0.338125,0.163057,0.09842499999999998,-0.333075,-0.105213,-0.16962500000000003,-0.209349,0.10910700000000001,-0.17651499999999998,-0.21891
140,-0.014191999999999996,0.5579160000000001,-0.29554099999999994,-0.141958,0.393965,-0.274204,-0.27592799999999995,0.5678340000000001,-0.403825,0.121232,0.39529500000000006,-0.26536899999999997,0.267312,0.5789150000000001,-0.346765,-0.347888,0.728025,-0.5377149999999999,0.329642,0.777835,-0.46255499999999994,-0.075555,-0.001475000000000004,-0.006174999999999986,0.075555,0.001475000000000004,0.006175000000000014,-0.154948,0.09246500000000002,-0.338755,0.162752,0.10226500000000005,-0.334835,-0.103668,-0.16473499999999996,-0.20787799999999998,0.107772,-0.171385,-0.21995899999999996
141,-0.015296999999999998,0.5579810000000001,-0.295067,-0.142696,0.39403,-0.273774,-0.277916,0.567899,-0.40393,0.120824,0.39536000000000004,-0.26498,0.266314,0.57898,-0.34682,-0.350816,0.7274,-0.5372,0.329074,0.7779,-0.46237,-0.075547,-0.0015399999999999858,-0.006170000000000009,0.075547,0.0015399999999999858,0.006169999999999981,-0.156216,0.09249000000000002,-0.33809,0.162414,0.10164000000000001,-0.33433,-0.104006,-0.16447,-0.207352,0.10720400000000001,-0.17133999999999994,-0.21998700000000002
142,-0.0164985,0.5579810000000001,-0.294736,-0.14340350000000002,0.39403,-0.273339,-0.2800435,0.568136,-0.40414,0.1204265,0.39536000000000004,-0.264515,0.2655165,0.57898,-0.34686,-0.3546235,0.7274,-0.5367,0.32828650000000004,0.7779,-0.46185,-0.0755025,-0.0015399999999999858,-0.006170000000000009,0.0755025,0.0015399999999999858,0.006170000000000009,-0.1572635,0.09249000000000002,-0.33807,0.1621265,0.10103000000000001,-0.33415,-0.1043035,-0.16427000000000003,-0.207094,0.1067865,-0.17145,-0.220005
143,-0.0172885,0.5579810000000001,-0.294778,-0.14385350000000002,0.39403,-0.272803,-0.2818635,0.568136,-0.40435,0.1202865,0.39536000000000004,-0.264088,0.2648165,0.57898,-0.34679,-0.3578535,0.7274,-0.53597,0.3277465,0.7779,-0.46113000000000004,-0.0755025,-0.0015399999999999858,-0.006170000000000009,0.0755025,0.0015399999999999858,0.006170000000000009,-0.1578235,0.09249000000000002,-0.3381,0.1621265,0.10073000000000004,-0.33415,-0.1043035,-0.16427000000000003,-0.207094,0.1066665,-0.17191999999999996,-0.220011
144,-0.017864500000000002,0.5588830000000001,-0.294798,-0.1442445,0.39478500000000005,-0.272813,-0.2833145,0.56825,-0.40442,0.1202855,0.3969150000000001,-0.26407800000000003,0.2638655,0.5819540000000001,-0.34739000000000003,-0.3594945,0.7273250000000001,-0.53474,0.3272355,0.7784150000000001,-0.46072,-0.0755025,-0.001614999999999922,-0.006170000000000009,0.0755025,0.001615000000000033,0.006169999999999981,-0.15782449999999998,0.09241500000000008,-0.33809,0.16222550000000002,0.1006550000000001,-0.33414,-0.1045745,-0.16434499999999996,-0.207098,0.1066655,-0.17273499999999997,-0.22001800000000002
145,-0.0183905,0.5618719999999999,-0.294466,-0.14437149999999999,0.39496,-0.272424,-0.28452150000000004,0.5734819999999999,-0.404575,0.1202585,0.39797999999999994,-0.263683,0.2638385,0.583897,-0.346995,-0.3615215,0.7305499999999999,-0.533015,0.32677849999999997,0.7805899999999999,-0.460165,-0.0754965,-0.0018299999999999983,-0.006174999999999986,0.0754965,0.0018299999999999983,0.006175000000000014,-0.15785149999999998,0.09262999999999993,-0.33769499999999997,0.1623485,0.10005999999999998,-0.333735,-0.1048815,-0.16485000000000005,-0.20671799999999999,0.1066585,-0.17388000000000003,-0.22002799999999997
146,-0.018323,0.5659480000000001,-0.293095,-0.144389,0.39350500000000005,-0.271044,-0.284539,0.5776600000000001,-0.40283,0.120611,0.39635500000000007,-0.262287,0.264471,0.5909820000000001,-0.34852000000000005,-0.36190900000000004,0.733365,-0.53023,0.32615099999999997,0.783325,-0.45908000000000004,-0.07534,-0.0018849999999999145,-0.006180000000000019,0.07534,0.0018850000000000255,0.006179999999999991,-0.157719,0.09089500000000006,-0.33728,0.162371,0.09658500000000009,-0.33257000000000003,-0.107819,-0.1687249999999999,-0.20936100000000002,0.106791,-0.17735499999999993,-0.219479
147,-0.017991,0.5738409999999999,-0.291365,-0.14433200000000002,0.396675,-0.268196,-0.285032,0.582265,-0.40015999999999996,0.12118799999999999,0.398315,-0.260082,0.264938,0.601555,-0.34867,-0.362182,0.739395,-0.52582,0.324728,0.791855,-0.45703,-0.07495199999999999,-0.0017449999999999966,-0.005299999999999999,0.07495199999999999,0.0017449999999999966,0.005299999999999999,-0.157032,0.07622499999999999,-0.33713,0.162208,0.08007499999999995,-0.33213,-0.11055200000000001,-0.18733500000000003,-0.210946,0.107768,-0.19570500000000002,-0.218555
148,-0.017435500000000007,0.582597,-0.288237,-0.1440555,0.401972,-0.263814,-0.2850455,0.5905,-0.39475499999999997,0.12192449999999999,0.403533,-0.256671,0.2662245,0.61212,-0.347395,-0.3623155,0.7487699999999999,-0.519375,0.3235645,0.8025899999999999,-0.453545,-0.0745725,-0.0018400000000000083,-0.004585000000000006,0.0745725,0.0018400000000000083,0.004585000000000006,-0.1559355,0.05735999999999997,-0.334945,0.16185449999999998,0.059819999999999984,-0.329925,-0.1134855,-0.21054000000000006,-0.211534,0.1093845,-0.21908000000000005,-0.21663000000000002
149,-0.016600000000000004,0.593225,-0.28414399999999995,-0.143706,0.40800200000000003,-0.258266,-0.284336,0.597365,-0.38826499999999997,0.122894,0.409566,-0.252278,0.26747400000000005,0.622595,-0.344815,-0.361666,0.761965,-0.5120849999999999,0.322614,0.8135749999999999,-0.448115,-0.07415,-0.001915,-0.0039749999999999786,0.07415,0.001915,0.003975000000000006,-0.154476,0.03401500000000002,-0.331395,0.161794,0.035055,-0.32636499999999996,-0.118096,-0.23973500000000003,-0.21390399999999998,0.112034,-0.24766500000000002,-0.21423399999999998
150,-0.0156705,0.605885,-0.27908900000000003,-0.14328749999999998,0.41461000000000003,-0.251803,-0.28358750000000005,0.608515,-0.38106,0.12381249999999999,0.415346,-0.24729600000000002,0.26849249999999997,0.635555,-0.3409,-0.3607175,0.7746850000000001,-0.50396,0.3218025,0.829655,-0.44199,-0.07373350000000001,-0.001674999999999982,-0.0032400000000000206,0.07373350000000001,0.0016750000000000376,0.003239999999999993,-0.1527175,0.007205000000000017,-0.32686000000000004,0.1618625,0.0071450000000000125,-0.32194,-0.1218775,-0.27297499999999997,-0.21471,0.11500250000000001,-0.28032499999999994,-0.211287
151,-0.014726999999999997,0.61754,-0.272967,-0.14276699999999998,0.421985,-0.244589,-0.282347,0.61989,-0.37212999999999996,0.124873,0.422322,-0.241544,0.269513,0.64918,-0.33597,-0.359087,0.7903199999999999,-0.49454,0.320813,0.84336,-0.43506,-0.073319,-0.0015200000000000213,-0.0025499999999999967,0.073319,0.0015200000000000213,0.0025499999999999967,-0.15080700000000002,-0.021040000000000003,-0.32106,0.16202300000000003,-0.02178000000000002,-0.31647000000000003,-0.12350699999999999,-0.30884999999999996,-0.212876,0.117773,-0.31514,-0.207321
152,-0.013762,0.62801,-0.266003,-0.142172,0.429832,-0.237318,-0.280932,0.62774,-0.363145,0.126078,0.42778,-0.23566800000000002,0.270108,0.65646,-0.32916500000000004,-0.357352,0.80114,-0.484655,0.319888,0.85347,-0.427885,-0.07302399999999999,-0.0012300000000000089,-0.0017550000000000066,0.07302399999999999,0.0012300000000000089,0.0017550000000000066,-0.148542,-0.049729999999999996,-0.315025,0.162238,-0.05191000000000001,-0.310135,-0.12484200000000001,-0.34659999999999996,-0.21024900000000002,0.120658,-0.35191,-0.203328
153,-0.012773,0.638285,-0.259673,-0.141552,0.435775,-0.23115599999999997,-0.279432,0.639705,-0.35506,0.127318,0.43223500000000004,-0.23071399999999997,0.271758,0.662275,-0.3233,-0.35559199999999996,0.8149350000000001,-0.47522,0.318888,0.8596750000000001,-0.42112,-0.072557,-0.0009449999999999736,-0.0008199999999999874,0.072557,0.0009450000000000292,0.0008200000000000152,-0.14629199999999998,-0.07789499999999999,-0.30942,0.16231800000000002,-0.08120499999999997,-0.30384999999999995,-0.124212,-0.384405,-0.20480199999999998,0.123158,-0.388405,-0.19944099999999998
154,-0.011583,0.6483,-0.252894,-0.14104899999999998,0.44111999999999996,-0.22429100000000002,-0.278449,0.64595,-0.34636500000000003,0.128671,0.43574999999999997,-0.225499,0.273301,0.66716,-0.316495,-0.353979,0.82501,-0.465135,0.318541,0.86958,-0.412945,-0.07206800000000001,-0.0006400000000000294,1.4999999999987246e-05,0.07206800000000001,0.0006399999999999739,-1.5000000000015001e-05,-0.144089,-0.10642000000000001,-0.302585,0.162531,-0.11108000000000001,-0.29712500000000003,-0.12361899999999999,-0.42168000000000005,-0.19904100000000002,0.125621,-0.42601,-0.194808
155,-0.010483000000000003,0.6585300000000001,-0.24617,-0.140765,0.44702,-0.217868,-0.277505,0.6536,-0.337075,0.129795,0.44167,-0.21984700000000001,0.273895,0.67418,-0.309805,-0.353565,0.83623,-0.453955,0.31860499999999997,0.88096,-0.404465,-0.071716,-0.0006200000000000094,0.0007149999999999934,0.071716,0.0006199999999999817,-0.0007149999999999934,-0.142035,-0.13398,-0.295805,0.162415,-0.13926,-0.290465,-0.123385,-0.45769,-0.193254,0.127845,-0.46234000000000003,-0.19001300000000002
156,-0.009668,0.66275,-0.23860199999999998,-0.140638,0.45159,-0.211189,-0.277148,0.6591199999999999,-0.32813,0.130692,0.44623999999999997,-0.21270699999999998,0.274042,0.67885,-0.30154000000000003,-0.354358,0.84704,-0.44212,0.318892,0.88646,-0.39482,-0.071548,-0.0005400000000000127,0.00029000000000001247,0.071548,0.0005399999999999849,-0.0002899999999999847,-0.140858,-0.15197,-0.28859,0.162332,-0.15679000000000004,-0.28323,-0.12339800000000001,-0.48219999999999996,-0.18680999999999998,0.12931199999999998,-0.48602999999999996,-0.184159
157,-0.008425000000000002,0.666825,-0.22875,-0.140378,0.454825,-0.20310299999999998,-0.276758,0.664535,-0.316445,0.13217199999999998,0.449825,-0.204146,0.27446200000000004,0.681905,-0.291205,-0.35409799999999997,0.853305,-0.427585,0.319332,0.890975,-0.383695,-0.071208,-0.0004949999999999954,0.00033500000000000196,0.071208,0.0004949999999999954,-0.00033500000000000196,-0.139138,-0.169145,-0.278845,0.16244199999999998,-0.173825,-0.272875,-0.12330799999999999,-0.505385,-0.179116,0.130862,-0.508735,-0.176919
158,-0.007740500000000004,0.66961,-0.21921600000000002,-0.1403125,0.45767,-0.194975,-0.2767125,0.67352,-0.304305,0.1338275,0.45297,-0.19572,0.27479750000000003,0.68588,-0.280735,-0.35424249999999996,0.86212,-0.411805,0.31942750000000003,0.89791,-0.372575,-0.0707655,-0.0002999999999999947,0.0006750000000000089,0.0707655,0.0002999999999999947,-0.0006750000000000089,-0.13747250000000003,-0.18250000000000002,-0.267495,0.16198749999999998,-0.18649000000000002,-0.261405,-0.1235225,-0.5234599999999999,-0.171371,0.1322875,-0.52638,-0.16955800000000001
159,-0.006728500000000002,0.6709,-0.208513,-0.1398655,0.46137,-0.186008,-0.2761055,0.6775,-0.29134,0.13568449999999999,0.45684,-0.186912,0.27540450000000005,0.68773,-0.26866999999999996,-0.3549555,0.87019,-0.39541000000000004,0.32050449999999997,0.8986799999999999,-0.36074,-0.0705615,-0.00012999999999999123,0.0008499999999999897,0.0705615,0.000130000000000019,-0.0008499999999999897,-0.1355455,-0.19389999999999996,-0.25408,0.16088449999999999,-0.19741999999999998,-0.24744,-0.12350549999999999,-0.53864,-0.163367,0.1336745,-0.54165,-0.161606
160,-0.005818,0.672535,-0.19699100000000003,-0.13942100000000002,0.464125,-0.17625200000000002,-0.275351,0.683555,-0.27704,0.137409,0.45919499999999996,-0.176868,0.275259,0.691685,-0.25601,-0.354731,0.874715,-0.37635,0.321689,0.900435,-0.34706,-0.070372,0.00020499999999999685,0.0011000000000000038,0.070372,-0.00020499999999999685,-0.0011000000000000038,-0.133901,-0.20510500000000004,-0.23942000000000002,0.159909,-0.209075,-0.23215000000000002,-0.12385100000000002,-0.553165,-0.155336,0.135499,-0.557025,-0.152905
161,-0.0048705,0.6784745,-0.18562299999999998,-0.13895049999999998,0.4668345,-0.16661499999999999,-0.27555050000000003,0.6914245,-0.263495,0.13862950000000002,0.4626745,-0.16719099999999998,0.2754895,0.6962045,-0.242995,-0.35471050000000004,0.8853345,-0.356535,0.32296949999999996,0.9035845,-0.333005,-0.0701975,0.00037550000000000083,0.0011850000000000055,0.0701975,-0.00037550000000000083,-0.0011849999999999916,-0.1323705,-0.21634549999999997,-0.225105,0.15912949999999998,-0.2202755,-0.216795,-0.12429050000000001,-0.5670855,-0.146782,0.1374395,-0.5713155,-0.14318899999999998
162,-0.004242999999999997,0.6838989999999999,-0.17374,-0.139147,0.46923899999999996,-0.15628,-0.275557,0.695479,-0.248355,0.139953,0.465479,-0.15745599999999998,0.276373,0.699979,-0.229725,-0.354847,0.892749,-0.335965,0.32382299999999997,0.908029,-0.317655,-0.07008400000000001,0.0005340000000000067,0.0012250000000000039,0.07008400000000001,-0.0005339999999999928,-0.0012250000000000039,-0.130827,-0.22931100000000001,-0.21013500000000002,0.157753,-0.23327099999999998,-0.200198,-0.12427700000000001,-0.582091,-0.136622,0.13764300000000002,-0.5868610000000001,-0.133019
163,-0.0037309999999999947,0.688832,-0.1621715,-0.139477,0.472832,-0.1461115,-0.275507,0.7006220000000001,-0.2333035,0.14108300000000001,0.46971199999999996,-0.14773350000000002,0.276213,0.705092,-0.2161435,-0.35506699999999997,0.900802,-0.3151335,0.324453,0.9090020000000001,-0.3026835,-0.06996,0.0007540000000000047,0.0013655000000000056,0.06996,-0.0007539999999999977,-0.0013655000000000056,-0.129467,-0.242218,-0.19543349999999998,0.15607300000000002,-0.24563800000000002,-0.1834345,-0.12447699999999998,-0.596758,-0.1265235,0.137693,-0.6011679999999999,-0.1229075
164,-0.003547500000000002,0.6923435,-0.14549050000000002,-0.1401485,0.4786835,-0.1302425,-0.2761385,0.7067334999999999,-0.2131985,0.14185150000000002,0.4741335,-0.1322315,0.2759015,0.7100034999999999,-0.1966785,-0.3557585,0.9073334999999999,-0.2890585,0.3247815,0.9105835,-0.2811785,-0.0698525,0.001073499999999998,0.001503499999999991,0.0698525,-0.0010735000000000015,-0.0015035000000000048,-0.1286985,-0.2555965,-0.1733935,0.1537715,-0.2587565,-0.1592015,-0.1251485,-0.6116965000000001,-0.1106675,0.13726149999999998,-0.6156165,-0.1063835
165,-0.0033069999999999974,0.6967175,-0.129589,-0.141408,0.4810875,-0.11483499999999999,-0.27638799999999997,0.7144275,-0.193247,0.142852,0.4770575,-0.117072,0.27551200000000003,0.7133275,-0.177837,-0.35648799999999997,0.9115375,-0.263387,0.325542,0.9127875,-0.260087,-0.06977900000000001,0.0008045000000000014,0.001903000000000002,0.06977900000000001,-0.0008044999999999997,-0.001902999999999995,-0.126768,-0.2689025,-0.148203,0.149442,-0.2729525,-0.13326100000000002,-0.12598800000000002,-0.6265425,-0.093678,0.136602,-0.6302925,-0.088741
166,-0.0035975000000000035,0.7007535,-0.11534900000000001,-0.1428935,0.4841935,-0.10087,-0.27680350000000004,0.7179235,-0.17438099999999998,0.1431565,0.47956350000000003,-0.103489,0.2748565,0.7182235,-0.160961,-0.3570235,0.9170435,-0.238311,0.3256765,0.9149935,-0.240151,-0.0697545,0.0009185,0.0018449999999999994,0.0697545,-0.0009185,-0.0018449999999999994,-0.12548350000000003,-0.2809365,-0.126037,0.1449865,-0.2856665,-0.110154,-0.1269035,-0.6393365,-0.07777200000000001,0.1357465,-0.6423765,-0.072224
167,-0.003813500000000001,0.704946,-0.10173750000000001,-0.1443585,0.486866,-0.0875735,-0.2775885,0.720306,-0.1566835,0.1433115,0.481466,-0.09042150000000002,0.2741415,0.722926,-0.1449535,-0.3564285,0.917316,-0.2151635,0.3255615,0.915356,-0.22052349999999998,-0.0697195,0.0008699999999999992,0.001620499999999997,0.0697195,-0.000870000000000001,-0.0016205000000000039,-0.12455850000000002,-0.292074,-0.10531650000000001,0.1407115,-0.296804,-0.0882125,-0.1277685,-0.650474,-0.0621135,0.1349715,-0.652044,-0.05590350000000001
168,-0.0041110000000000035,0.70873,-0.0887645,-0.145758,0.48812999999999995,-0.07477349999999999,-0.278438,0.72372,-0.1398035,0.14316199999999998,0.48266,-0.0778045,0.272972,0.7276699999999999,-0.1298235,-0.355568,0.91957,-0.1926635,0.325322,0.9173399999999999,-0.2014135,-0.069666,0.0005850000000000022,0.0014474999999999974,0.069666,-0.0005849999999999987,-0.0014475000000000009,-0.12367800000000001,-0.30131,-0.0855165,0.136572,-0.30604000000000003,-0.0669815,-0.128608,-0.65971,-0.0468705,0.134202,-0.65995,-0.0397035
169,-0.0043505,0.7123525,-0.07779,-0.14711950000000001,0.48956249999999996,-0.06344,-0.27822949999999996,0.7243725000000001,-0.124679,0.1430205,0.4840925,-0.066519,0.27195050000000004,0.7297425000000001,-0.115739,-0.35426949999999996,0.9220325,-0.173099,0.32479050000000004,0.9202825,-0.183919,-0.0696495,0.0002784999999999975,0.0011930000000000014,0.0696495,-0.00027850000000000097,-0.0011929999999999996,-0.12300950000000001,-0.3078775,-0.067714,0.1323705,-0.31260750000000004,-0.047460999999999996,-0.12941950000000002,-0.6664775,-0.032401,0.1331905,-0.6653475,-0.024328999999999996
170,-0.0046485,0.7111875,-0.06661550000000001,-0.14856049999999998,0.4905975,-0.0521685,-0.2778505,0.7248475,-0.10932750000000001,0.1427895,0.48546749999999994,-0.0557425,0.27084949999999997,0.7319675,-0.1021875,-0.3519605,0.9206575,-0.1550975,0.3238895,0.9232575,-0.1671075,-0.0695895,7.500000000000562e-06,0.0009274999999999999,0.0695895,-7.500000000000562e-06,-0.0009274999999999999,-0.12256049999999999,-0.31440250000000003,-0.050076499999999996,0.1280195,-0.3203325,-0.0283965,-0.1303305,-0.6737825000000001,-0.0181255,0.1315895,-0.6717225,-0.008667500000000002
171,-0.004968500000000002,0.709213,-0.05631049999999999,-0.1499695,0.492553,-0.041631499999999995,-0.27768950000000003,0.725583,-0.0957255,0.14243050000000002,0.48673299999999997,-0.0457235,0.2697405,0.7334430000000001,-0.0894895,-0.34951950000000004,0.919493,-0.13859549999999998,0.32287049999999995,0.925543,-0.1517555,-0.06952649999999999,-0.00023300000000000404,0.0007124999999999996,0.06952649999999999,0.0002329999999999971,-0.0007124999999999996,-0.12213949999999998,-0.32090700000000005,-0.0334355,0.1239605,-0.32797699999999996,-0.010962499999999998,-0.1312795,-0.680987,-0.0046815,0.1299705,-0.6778069999999999,0.0061175000000000005
