sb224sc-HT22-VT27/4dt907/src/data/kinect_good_vs_bad_not_preprocessed_A13_mediapipe/G07.csv
FrameNo,nose_3d_x,nose_3d_y,nose_3d_z,left_shoulder_3d_x,left_shoulder_3d_y,left_shoulder_3d_z,left_elbow_3d_x,left_elbow_3d_y,left_elbow_3d_z,right_shoulder_3d_x,right_shoulder_3d_y,right_shoulder_3d_z,right_elbow_3d_x,right_elbow_3d_y,right_elbow_3d_z,left_wrist_3d_x,left_wrist_3d_y,left_wrist_3d_z,right_wrist_3d_x,right_wrist_3d_y,right_wrist_3d_z,left_hip_3d_x,left_hip_3d_y,left_hip_3d_z,right_hip_3d_x,right_hip_3d_y,right_hip_3d_z,left_knee_3d_x,left_knee_3d_y,left_knee_3d_z,right_knee_3d_x,right_knee_3d_y,right_knee_3d_z,left_ankle_3d_x,left_ankle_3d_y,left_ankle_3d_z,right_ankle_3d_x,right_ankle_3d_y,right_ankle_3d_z
0,0.019003499999999996,0.758211,-0.010821500000000005,-0.1464675,0.472011,-0.0017595000000000041,-0.23251750000000002,0.29335100000000003,-0.0680535,0.1653425,0.469281,-0.005581500000000003,0.2554725,0.29313100000000003,-0.0751935,-0.2799975,0.143151,-0.2042835,0.3154225,0.133601,-0.19353350000000002,-0.0688115,0.0012000000000000001,0.0007444999999999952,0.0688115,-0.0011999999999999997,-0.0007445000000000021,-0.1265975,-0.323799,0.014730499999999997,0.1138025,-0.319439,0.0410545,-0.13471750000000002,-0.636369,0.0362035,0.11662249999999999,-0.651309,0.0444645
1,0.0185965,0.755957,-0.009549500000000002,-0.1444125,0.472257,-0.0056225000000000025,-0.2421625,0.303097,-0.0810675,0.1619775,0.471827,-0.0089505,0.25897749999999997,0.300347,-0.08115750000000001,-0.3066225,0.188907,-0.24320750000000002,0.3377575,0.18759699999999999,-0.23788750000000003,-0.0688945,0.0011829999999999996,0.0017744999999999983,0.0688945,-0.001183,-0.0017745000000000052,-0.1272425,-0.324133,0.013367499999999997,0.1128975,-0.320243,0.0394555,-0.1357125,-0.637683,0.033916499999999995,0.1161975,-0.652083,0.043138499999999996
2,0.018259999999999995,0.753818,-0.007605000000000004,-0.142247,0.476028,-0.009757000000000005,-0.27669699999999997,0.355918,-0.118113,0.157573,0.474158,-0.012175000000000002,0.296453,0.360248,-0.123053,-0.344917,0.289368,-0.303993,0.37800300000000003,0.278528,-0.29708300000000004,-0.06923699999999999,0.000735,0.0017649999999999992,0.06923699999999999,-0.0007350000000000001,-0.0017649999999999992,-0.127787,-0.325242,0.011813999999999998,0.111683,-0.320112,0.037431,-0.135907,-0.635822,0.031603,0.11472299999999999,-0.652042,0.039733
3,0.01802,0.752598,-0.007363500000000002,-0.14249199999999998,0.475688,-0.010967499999999998,-0.297472,0.39001800000000003,-0.1787665,0.15704800000000002,0.474018,-0.0131905,0.31807799999999997,0.385378,-0.1878265,-0.37470200000000004,0.336718,-0.3651365,0.424378,0.307848,-0.4288165,-0.06933600000000001,0.000812,0.0018665,0.06933600000000001,-0.000812,-0.0018665,-0.127652,-0.32284199999999996,0.011924500000000001,0.11160800000000001,-0.319262,0.0368375,-0.136492,-0.6365820000000001,0.030638500000000003,0.128478,-0.5962820000000001,0.0504705
4,0.016750999999999995,0.750691,-0.007738999999999996,-0.142436,0.475951,-0.015427999999999997,-0.307556,0.459031,-0.183973,0.157684,0.475611,-0.015819,0.329014,0.451021,-0.181023,-0.386726,0.453011,-0.376433,0.40999399999999997,0.43729100000000004,-0.37276299999999996,-0.069483,0.000941,0.002153000000000002,0.069483,-0.0009410000000000002,-0.0021529999999999987,-0.128556,-0.32369899999999996,0.009554000000000003,0.111264,-0.32053899999999996,0.035078000000000005,-0.137666,-0.643239,0.029058000000000004,0.11329399999999999,-0.652509,0.03744
5,0.0170575,0.7493885,-0.007994000000000001,-0.1426845,0.4758685,-0.017771000000000002,-0.3090545,0.47698850000000004,-0.186895,0.1586155,0.4754985,-0.017043999999999997,0.3316155,0.4636385,-0.185615,-0.3873645,0.5145985,-0.40463499999999997,0.4198655,0.4985985,-0.397165,-0.0695525,0.0010545000000000003,0.0021950000000000025,0.0695525,-0.0010545000000000003,-0.002194999999999999,-0.1287845,-0.32252149999999996,0.008910000000000001,0.1114255,-0.32131149999999997,0.035254,-0.1339545,-0.6537615,0.021968,0.1252555,-0.6058315000000001,0.047916
6,0.017387000000000003,0.7480859999999999,-0.008813999999999995,-0.14298099999999997,0.475706,-0.020506999999999997,-0.30788099999999996,0.505706,-0.179641,0.162729,0.480146,-0.017667000000000002,0.335279,0.5005959999999999,-0.174621,-0.385451,0.5674359999999999,-0.398291,0.40547900000000003,0.5448459999999999,-0.364981,-0.06948,0.0008330000000000004,0.001577000000000002,0.06948,-0.0008329999999999995,-0.0015769999999999985,-0.128581,-0.32190399999999997,0.007759000000000002,0.111779,-0.321974,0.034225000000000005,-0.13566099999999998,-0.6291340000000001,0.025908,0.11326900000000001,-0.653544,0.043381
7,0.017519999999999997,0.7456055,-0.007342000000000001,-0.14406000000000002,0.4790955,-0.021794,-0.29484,0.5357355,-0.164879,0.16557,0.4822055,-0.015151999999999999,0.32233999999999996,0.5271755,-0.149959,-0.35918,0.6072555000000001,-0.339729,0.39435,0.5883655,-0.320679,-0.069131,0.0009744999999999997,0.0008069999999999987,0.069131,-0.0009745000000000005,-0.0008070000000000022,-0.12847000000000003,-0.3261145,0.008395999999999999,0.11133,-0.3252345,0.035037,-0.13291999999999998,-0.6510345,0.028897,0.11297,-0.6566945,0.039109
8,0.017372499999999996,0.7436155,-0.006893,-0.14412950000000002,0.4804555,-0.023792,-0.29498949999999996,0.5647755,-0.165487,0.1661405,0.4845655,-0.014797999999999999,0.3226505,0.5558455,-0.15054700000000001,-0.35932949999999997,0.6606255000000001,-0.340337,0.3942005,0.6417555,-0.321287,-0.06905549999999999,0.0009814999999999997,0.0003960000000000005,0.06905549999999999,-0.0009815000000000015,-0.00039599999999999705,-0.1285795,-0.32745450000000004,0.007938000000000002,0.1110205,-0.32695450000000004,0.035122,-0.13243950000000002,-0.6535445,0.028321000000000002,0.1123805,-0.6585145,0.039277000000000006
9,0.017272000000000003,0.741765,-0.0064875,-0.144245,0.48213500000000004,-0.025327500000000003,-0.295135,0.587035,-0.16581449999999998,0.16708499999999998,0.486845,-0.014197500000000002,0.32254499999999997,0.579095,-0.15087450000000002,-0.359475,0.703905,-0.3406645,0.394055,0.6845049999999999,-0.32161449999999997,-0.06898499999999999,0.0009659999999999998,7.949999999999971e-05,0.06898499999999999,-0.0009659999999999998,-7.949999999999971e-05,-0.128655,-0.32896499999999995,0.0076235,0.11072499999999999,-0.32880499999999996,0.035242499999999996,-0.131715,-0.655935,0.0281915,0.11172499999999999,-0.660455,0.0393505
10,0.017157500000000003,0.739865,-0.006153000000000002,-0.14459349999999999,0.483995,-0.02665,-0.2952935,0.608335,-0.16602499999999998,0.1682165,0.48916499999999996,-0.013498000000000003,0.32238649999999996,0.601975,-0.15108500000000002,-0.3578735,0.741525,-0.33774499999999996,0.39343649999999997,0.721195,-0.316125,-0.0689135,0.0009469999999999999,-0.00011900000000000105,0.0689135,-0.0009469999999999999,0.00011899999999999758,-0.1287335,-0.330825,0.0074179999999999975,0.1104865,-0.33081499999999997,0.035238,-0.13186350000000002,-0.658065,0.028401999999999997,0.11107650000000001,-0.6623249999999999,0.039153999999999994
11,0.017015999999999996,0.7379665,-0.005920499999999999,-0.144863,0.48589650000000006,-0.027652499999999997,-0.29279299999999997,0.6275065,-0.1613015,0.168887,0.49109650000000005,-0.012709499999999999,0.321867,0.6221865,-0.1448915,-0.352363,0.7747865,-0.3260015,0.38840699999999995,0.7547765,-0.3002615,-0.068832,0.0009454999999999984,-0.0001705000000000005,0.068832,-0.0009455000000000002,0.0001705000000000005,-0.128803,-0.3326735,0.007357500000000001,0.110137,-0.3329235,0.0352615,-0.131243,-0.6608134999999999,0.029621500000000002,0.110387,-0.6645234999999999,0.038323499999999996
12,0.0169365,0.736021,-0.005747500000000003,-0.1450085,0.488221,-0.028241500000000003,-0.2892285,0.644421,-0.1553845,0.16915149999999998,0.492861,-0.0117395,0.3203015,0.641571,-0.1370645,-0.3450685,0.805331,-0.3083945,0.3823415,0.785281,-0.2806945,-0.0686775,0.000903000000000001,-0.0003285000000000024,0.0686775,-0.0009029999999999976,0.00032849999999999893,-0.1288085,-0.334579,0.007523499999999999,0.10973150000000001,-0.335009,0.0354065,-0.13113850000000002,-0.661249,0.0298275,0.1097715,-0.666469,0.0384575
13,0.0168635,0.734167,-0.0054519999999999985,-0.1451855,0.490247,-0.028485999999999997,-0.28490550000000003,0.654917,-0.148405,0.1692445,0.494557,-0.010721999999999995,0.3172345,0.653977,-0.129145,-0.3377955,0.828857,-0.289485,0.37640450000000003,0.807457,-0.262025,-0.0685095,0.0008470000000000005,-0.000618999999999998,0.0685095,-0.0008470000000000005,0.0006190000000000015,-0.1287355,-0.336373,0.007670000000000003,0.1092745,-0.336893,0.035682000000000005,-0.1308755,-0.662923,0.030412,0.1092945,-0.668723,0.037935
14,0.0168165,0.73244,-0.005073500000000002,-0.14542049999999998,0.49237,-0.0282805,-0.2813505,0.66515,-0.1420435,0.16915950000000002,0.49587000000000003,-0.009683499999999998,0.31436949999999997,0.6663,-0.1210135,-0.3326505,0.84644,-0.27351349999999996,0.36987949999999997,0.82568,-0.2420435,-0.0683485,0.000788999999999998,-0.0009925000000000003,0.0683485,-0.0007890000000000015,0.0009925000000000003,-0.1286105,-0.338,0.0078105,0.1088395,-0.33854,0.0360405,-0.1310605,-0.66456,0.030842500000000002,0.10884950000000002,-0.67043,0.0377305
15,0.016846999999999994,0.730958,-0.004531500000000001,-0.145647,0.494278,-0.0277515,-0.278437,0.6741980000000001,-0.1348705,0.16899299999999998,0.49684800000000007,-0.008819500000000001,0.312063,0.674558,-0.11235049999999999,-0.32782700000000004,0.860948,-0.25640050000000003,0.364053,0.841808,-0.2224305,-0.068195,0.000721999999999997,-0.0013655000000000021,0.068195,-0.0007220000000000004,0.0013654999999999987,-0.128417,-0.339402,0.008021499999999997,0.108453,-0.33994199999999997,0.0365275,-0.13198700000000002,-0.6630119999999999,0.0296335,0.10858299999999999,-0.671852,0.0377515
16,0.016874500000000008,0.7297524999999999,-0.004144000000000002,-0.14580749999999998,0.49620250000000005,-0.027184,-0.27644749999999996,0.6811625,-0.127971,0.16886250000000003,0.49729249999999997,-0.008085000000000002,0.3097325,0.6824125,-0.10301099999999999,-0.3235975,0.8737125,-0.239901,0.3590525,0.8566024999999999,-0.203561,-0.0681065,0.0006765,-0.001642000000000001,0.0681065,-0.0006765,0.0016419999999999976,-0.12815749999999998,-0.3405275,0.008265999999999999,0.1081125,-0.3410375,0.037022,-0.13296750000000002,-0.6611375,0.029204,0.10833250000000001,-0.6729675,0.038019
17,0.0169655,0.7287199999999999,-0.004187000000000003,-0.1459415,0.4981,-0.026619000000000004,-0.2752715,0.68733,-0.12007300000000001,0.1687785,0.49746999999999997,-0.007386000000000004,0.3075885,0.68935,-0.092583,-0.3203215,0.88478,-0.22204300000000002,0.3542585,0.87219,-0.182513,-0.0680515,0.0006430000000000012,-0.0018470000000000014,0.0680515,-0.0006429999999999977,0.001846999999999998,-0.1278215,-0.34155,0.008509999999999997,0.1078385,-0.34197999999999995,0.037460999999999994,-0.1339215,-0.65924,0.028921999999999996,0.1082385,-0.6739200000000001,0.038302
18,0.017061500000000004,0.7278325,-0.0047820000000000015,-0.1460805,0.4997925,-0.025892,-0.27438049999999997,0.6944125,-0.11126399999999999,0.1685495,0.49748250000000005,-0.006737,0.30521950000000003,0.6965925000000001,-0.081254,-0.31795049999999997,0.8937625,-0.20351400000000003,0.3503195,0.8851325,-0.16149400000000003,-0.0680145,0.0006245000000000001,-0.00196,0.0680145,-0.0006245000000000001,0.00196,-0.1274205,-0.3422375,0.008740999999999999,0.1076095,-0.3425975,0.037841,-0.13477050000000002,-0.6571175,0.029311999999999998,0.1081895,-0.6745875,0.038644
19,0.0171755,0.7271814999999999,-0.0056774999999999985,-0.1462115,0.5014314999999999,-0.0250225,-0.2731715,0.7006015,-0.1026515,0.1682885,0.49750149999999993,-0.006228500000000001,0.3030385,0.7028915,-0.0702005,-0.3163415,0.9024015,-0.1853215,0.3467185,0.8978915,-0.1399715,-0.0679935,0.0006014999999999979,-0.0019815000000000006,0.0679935,-0.0006015000000000013,0.0019815000000000006,-0.12703150000000002,-0.34270849999999997,0.008892499999999998,0.1074085,-0.34298850000000003,0.0381225,-0.1356215,-0.6547785,0.0296125,0.1081585,-0.6750285,0.0388815
20,0.017318999999999994,0.72672,-0.0068534999999999985,-0.146322,0.50308,-0.024073499999999998,-0.273062,0.70628,-0.0947075,0.16804799999999998,0.49738,-0.005823500000000002,0.300908,0.7078500000000001,-0.05982150000000001,-0.315502,0.91001,-0.16831749999999998,0.343848,0.9088499999999999,-0.1199875,-0.06798799999999999,0.0005869999999999972,-0.0019365000000000007,0.06798799999999999,-0.0005870000000000042,0.0019365000000000007,-0.126722,-0.34326,0.009136499999999999,0.107298,-0.34317,0.0383255,-0.13637200000000002,-0.65232,0.0299185,0.108148,-0.6752499999999999,0.0391855
21,0.017443499999999997,0.7265345000000001,-0.0082075,-0.14627250000000003,0.5042345,-0.0231675,-0.2731925,0.7111645,-0.0875065,0.16782750000000002,0.4970945,-0.005473499999999999,0.2988975,0.7113545,-0.050766500000000006,-0.3156525,0.9155445,-0.1552865,0.34239749999999997,0.9172845000000001,-0.1039465,-0.0679695,0.0006094999999999989,-0.0018384999999999999,0.0679695,-0.0006094999999999989,0.0018384999999999999,-0.12641249999999998,-0.34352550000000004,0.009333500000000002,0.1072375,-0.34315549999999995,0.0385445,-0.13640249999999998,-0.6522454999999999,0.0302715,0.1083975,-0.6752555,0.0390255
22,0.017552999999999996,0.7264875,-0.00971,-0.146264,0.5052774999999999,-0.022343,-0.273414,0.7156374999999999,-0.08088200000000001,0.167656,0.4968975,-0.0051629999999999975,0.298246,0.7147574999999999,-0.042758000000000004,-0.315864,0.9211874999999999,-0.142272,0.34106600000000004,0.9251674999999999,-0.087982,-0.067946,0.0006304999999999991,-0.001729999999999999,0.067946,-0.0006304999999999991,0.001729999999999999,-0.126144,-0.3436525,0.009517000000000001,0.10725599999999999,-0.34311250000000004,0.038749,-0.136904,-0.6494725,0.030543,0.10863599999999998,-0.6752325,0.039091
23,0.017684499999999995,0.726513,-0.0111845,-0.14624150000000002,0.506273,-0.021554499999999997,-0.2736415,0.720183,-0.07468449999999999,0.1675885,0.49675299999999994,-0.004858500000000002,0.2977785,0.718183,-0.035582499999999996,-0.3162315,0.9268730000000001,-0.1295945,0.3404085,0.9332229999999999,-0.07413449999999999,-0.0679195,0.0006530000000000008,-0.0016164999999999999,0.0679195,-0.0006530000000000008,0.0016164999999999999,-0.12589150000000002,-0.343707,0.0096825,0.10729849999999999,-0.343067,0.0389265,-0.1373915,-0.6466369999999999,0.0307415,0.10881849999999998,-0.675187,0.0391705
24,0.017839,0.7265735,-0.0126075,-0.14616700000000002,0.5071335,-0.020858499999999995,-0.27364700000000003,0.7240234999999999,-0.06910649999999999,0.167493,0.4966435,-0.004793499999999999,0.297483,0.7215235,-0.029048499999999998,-0.316627,0.9320735,-0.1182445,0.339833,0.9408835,-0.061207500000000005,-0.06792100000000001,0.0006914999999999977,-0.001518499999999999,0.06792100000000001,-0.0006915000000000046,0.0015185000000000025,-0.125637,-0.3437065,0.009810500000000003,0.107373,-0.3430365,0.039066500000000004,-0.137627,-0.6468265,0.030919500000000003,0.108963,-0.6751565,0.0392175
25,0.017976500000000003,0.7266365,-0.013942500000000004,-0.1461135,0.5078564999999999,-0.0201275,-0.27441350000000003,0.7279765,-0.06390950000000001,0.1674365,0.4965765,-0.004742500000000004,0.2972565,0.7246765,-0.023356500000000002,-0.31709350000000003,0.9375765,-0.1075595,0.3393365,0.9464265,-0.05022650000000001,-0.0679245,0.0007374999999999951,-0.0014285000000000027,0.0679245,-0.000737500000000002,0.0014284999999999992,-0.1254335,-0.3437035,0.0099115,0.1074465,-0.3429935,0.0391985,-0.13754349999999999,-0.6470735,0.0309965,0.1090565,-0.6751135,0.0392645
26,0.018070000000000003,0.726693,-0.015042,-0.146139,0.508403,-0.019499000000000002,-0.275369,0.731553,-0.059881000000000004,0.167431,0.496563,-0.004681999999999999,0.297371,0.727063,-0.01935,-0.31743899999999997,0.941733,-0.09978500000000001,0.339061,0.9492430000000001,-0.042212,-0.067931,0.000788999999999998,-0.0013340000000000019,0.067931,-0.000788999999999998,0.0013339999999999984,-0.12526900000000002,-0.34367699999999995,0.010010999999999999,0.10755100000000001,-0.342927,0.039373,-0.137499,-0.646927,0.031107,0.109181,-0.675057,0.039296
27,0.018053999999999997,0.7268,-0.015676499999999996,-0.146183,0.5088199999999999,-0.0189495,-0.275813,0.73336,-0.056593500000000005,0.16744699999999998,0.49657999999999997,-0.004619499999999999,0.29741700000000004,0.72725,-0.016517499999999997,-0.317693,0.9453699999999999,-0.0937405,0.33904700000000004,0.9509799999999999,-0.036999500000000005,-0.067935,0.0008410000000000015,-0.0012484999999999996,0.067935,-0.0008410000000000015,0.001248500000000003,-0.125233,-0.34364,0.0101125,0.10763699999999998,-0.34286,0.0395645,-0.13748300000000002,-0.64674,0.0312905,0.10927699999999999,-0.6749900000000001,0.039330500000000004
28,0.018054500000000005,0.726873,-0.016222,-0.14622549999999998,0.509123,-0.018438000000000003,-0.2761155,0.734483,-0.053350999999999996,0.1674545,0.49656300000000003,-0.004580000000000001,0.2974645,0.727183,-0.014251,-0.3180455,0.9484830000000001,-0.088113,0.3390645,0.952153,-0.033319,-0.06793550000000001,0.0008890000000000009,-0.0011650000000000028,0.06793550000000001,-0.0008890000000000009,0.0011649999999999994,-0.1252155,-0.34359700000000004,0.010220999999999997,0.1077245,-0.342797,0.039758999999999996,-0.1374755,-0.6468069999999999,0.031474,0.10934450000000001,-0.674937,0.039347999999999994
29,0.0180235,0.726916,-0.0165365,-0.14628249999999998,0.509456,-0.0178705,-0.2764725,0.735606,-0.050407499999999994,0.1674675,0.496526,-0.0045495000000000015,0.2975675,0.727136,-0.012660500000000002,-0.3183725,0.951486,-0.0827775,0.3389975,0.953076,-0.030569500000000003,-0.0679395,0.0009360000000000063,-0.0010655000000000005,0.0679395,-0.0009359999999999993,0.0010655000000000005,-0.1252025,-0.34355399999999997,0.010336499999999998,0.1078375,-0.342734,0.039973499999999995,-0.13739249999999997,-0.646544,0.0316815,0.1094075,-0.674874,0.0393785
30,0.0179615,0.726997,-0.016734000000000002,-0.14633249999999998,0.509707,-0.017324000000000003,-0.27683250000000004,0.736677,-0.04760700000000001,0.16760750000000002,0.496487,-0.004395,0.2975175,0.727097,-0.011593999999999997,-0.31862250000000003,0.954117,-0.077821,0.3389675,0.953597,-0.028824,-0.0679435,0.0009750000000000036,-0.0009629999999999986,0.0679435,-0.0009749999999999967,0.0009629999999999986,-0.12519249999999998,-0.343513,0.010461999999999999,0.1079575,-0.34269299999999997,0.040176,-0.1373125,-0.646373,0.031836,0.1094175,-0.674833,0.039431
31,0.017879000000000006,0.7271265,-0.016735,-0.146378,0.5100165,-0.016626999999999996,-0.27716799999999997,0.7376965,-0.04489099999999999,0.167792,0.4964565,-0.004165999999999996,0.297752,0.7270665,-0.011160999999999997,-0.318868,0.9567565,-0.072711,0.338942,0.9538565,-0.027771999999999998,-0.067941,0.0010055000000000064,-0.0008609999999999972,0.067941,-0.0010054999999999994,0.0008610000000000007,-0.125178,-0.3434835,0.010628000000000002,0.10809200000000001,-0.3426435,0.040402,-0.137208,-0.6462035,0.032071,0.10945200000000001,-0.6747935,0.039554
32,0.017760500000000002,0.727297,-0.016603999999999997,-0.1464125,0.510297,-0.015887999999999996,-0.2772725,0.7381369999999999,-0.042214,0.1679275,0.496447,-0.003917,0.2980075,0.726927,-0.010901999999999998,-0.3190925,0.959117,-0.067977,0.3389475,0.953847,-0.027526,-0.06793650000000001,0.0010360000000000022,-0.000725,0.06793650000000001,-0.0010360000000000022,0.000725,-0.1251525,-0.343443,0.01082,0.1082275,-0.34258299999999997,0.040655000000000004,-0.1370325,-0.646023,0.03233,0.1094975,-0.674743,0.039765
33,0.017635,0.727492,-0.016376500000000002,-0.14643699999999998,0.510592,-0.015116499999999998,-0.277167,0.738152,-0.03970050000000001,0.16809300000000002,0.496432,-0.003680500000000003,0.298213,0.726772,-0.010600499999999999,-0.319247,0.961332,-0.0633775,0.338973,0.953862,-0.0272335,-0.06792400000000001,0.0010729999999999976,-0.0005495000000000014,0.06792400000000001,-0.0010730000000000045,0.0005494999999999979,-0.125107,-0.343398,0.0110525,0.108373,-0.342508,0.0409535,-0.136907,-0.645828,0.0326275,0.109483,-0.674678,0.0400555
34,0.0175055,0.7276675,-0.01611,-0.1464745,0.5108275,-0.014324999999999997,-0.27743450000000003,0.7388175,-0.037279999999999994,0.1682355,0.49634749999999994,-0.0034490000000000007,0.2983655,0.7267275,-0.010264999999999996,-0.3191345,0.9631075,-0.058976,0.3390055,0.9538475,-0.026903999999999997,-0.0678995,0.0010874999999999982,-0.00037199999999999733,0.0678995,-0.0010875000000000051,0.0003720000000000008,-0.1250445,-0.34338250000000003,0.011308000000000002,0.1084755,-0.34243250000000003,0.041280000000000004,-0.1367845,-0.6456625,0.032962000000000005,0.1095155,-0.6746125000000001,0.040366
35,0.017343499999999998,0.727873,-0.015802,-0.1465015,0.511073,-0.013524999999999999,-0.2776715,0.739433,-0.034638,0.1683485,0.49624300000000005,-0.003309000000000003,0.2984485,0.726653,-0.010085,-0.3188815,0.964803,-0.05473600000000001,0.3389585,0.953843,-0.026614000000000002,-0.06787750000000001,0.0011140000000000039,-0.00020399999999999932,0.06787750000000001,-0.001113999999999997,0.00020399999999999932,-0.1249815,-0.34334699999999996,0.011581000000000001,0.1085585,-0.342377,0.041566,-0.1366615,-0.645757,0.033228,0.1095585,-0.6745570000000001,0.04055
36,0.017177500000000002,0.7281115,-0.015477000000000001,-0.1465635,0.5113315,-0.012719999999999999,-0.2777635,0.7399215,-0.032399,0.1684565,0.4961315,-0.0032769999999999987,0.2985065,0.7265815,-0.010051000000000001,-0.3184435,0.9662514999999999,-0.050953,0.3388865,0.9537315000000001,-0.02668,-0.0678505,0.0011385000000000006,-1.8000000000000654e-05,0.0678505,-0.0011385000000000006,1.8000000000000654e-05,-0.1249135,-0.3433085,0.011862000000000001,0.10864650000000001,-0.3422985,0.041824,-0.1366135,-0.6459685,0.033519,0.1096065,-0.6744785,0.040727
37,0.017001000000000002,0.72836,-0.014974500000000002,-0.14669,0.51162,-0.011736500000000004,-0.27767,0.7399600000000001,-0.030288500000000003,0.16854999999999998,0.49605,-0.003190499999999999,0.29858,0.72657,-0.010160500000000003,-0.31779999999999997,0.96746,-0.04747950000000001,0.33876,0.9536,-0.027091500000000004,-0.067814,0.0011670000000000014,0.00023849999999999913,0.067814,-0.0011670000000000014,-0.0002385000000000026,-0.12479,-0.34327,0.012216499999999998,0.10874,-0.34216,0.042055499999999996,-0.13646999999999998,-0.64603,0.0340045,0.1096,-0.67433,0.0410635
38,0.01684,0.728591,-0.014395499999999999,-0.146787,0.511861,-0.0107605,-0.277747,0.7402810000000001,-0.0281825,0.16863299999999998,0.495951,-0.0030805,0.29867299999999997,0.7265710000000001,-0.0103235,-0.317087,0.9681609999999999,-0.044525499999999996,0.33858299999999997,0.953431,-0.027702499999999998,-0.067772,0.0011899999999999966,0.0004825000000000003,0.067772,-0.0011900000000000036,-0.0004825000000000003,-0.124647,-0.343239,0.012626500000000002,0.108853,-0.342019,0.0423345,-0.13627699999999998,-0.6489389999999999,0.0345975,0.109633,-0.6741889999999999,0.0415015
39,0.016718999999999998,0.7288184999999999,-0.013763999999999998,-0.146934,0.5121685,-0.009697999999999998,-0.27784400000000004,0.7407585,-0.026217000000000004,0.16872600000000001,0.4958785,-0.002931000000000003,0.298786,0.7265785,-0.010575000000000001,-0.31631400000000004,0.9687685,-0.04199,0.338366,0.9532685,-0.028449000000000002,-0.067712,0.0012145000000000003,0.0007789999999999984,0.067712,-0.0012145000000000003,-0.0007790000000000019,-0.124504,-0.3432115,0.013073999999999999,0.10896600000000001,-0.3418515,0.042616,-0.136204,-0.6487015,0.035282,0.10972599999999999,-0.6740115,0.04199
40,0.016612000000000005,0.7289965,-0.013145500000000004,-0.14707199999999998,0.5123965,-0.0087565,-0.277822,0.7412065,-0.0249295,0.16882800000000003,0.4958165,-0.0028135000000000035,0.298828,0.7265765000000001,-0.011058500000000006,-0.315542,0.9689665000000001,-0.0402135,0.338138,0.9530665,-0.0293555,-0.067662,0.0012305000000000024,0.0010824999999999967,0.067662,-0.0012305000000000024,-0.0010825000000000001,-0.124342,-0.3432035,0.013503499999999998,0.109088,-0.3417135,0.042852499999999995,-0.13613199999999998,-0.6502534999999999,0.0357735,0.109848,-0.6738635,0.0423975
41,0.016507500000000005,0.7291515,-0.012478499999999997,-0.1472315,0.5126115,-0.007732499999999996,-0.2778115,0.7416015,-0.0239245,0.16890850000000002,0.4957915,-0.0026904999999999984,0.29869850000000003,0.7266315000000001,-0.0116635,-0.3147815,0.9690715000000001,-0.0388055,0.3378485,0.9527515,-0.030433499999999995,-0.0676165,0.0012385000000000035,0.0013535000000000005,0.0676165,-0.0012384999999999965,-0.0013535000000000005,-0.12417149999999999,-0.3431885,0.013921500000000003,0.1092185,-0.3415585,0.0430655,-0.1361615,-0.6513285,0.0362545,0.11001849999999999,-0.6736985,0.043000500000000004
42,0.016399499999999997,0.729278,-0.0118015,-0.1474395,0.512798,-0.006708499999999999,-0.2778195,0.7420180000000001,-0.022950500000000006,0.16896049999999999,0.495788,-0.0024885000000000046,0.2984605,0.726738,-0.012087500000000001,-0.3140995,0.969068,-0.0377015,0.3375405,0.952428,-0.031434500000000004,-0.0675805,0.001242,0.0016124999999999959,0.0675805,-0.001242,-0.0016125000000000028,-0.1240195,-0.343172,0.014343499999999999,0.1093705,-0.341422,0.0432305,-0.1362795,-0.652272,0.0367105,0.1101905,-0.673552,0.043589499999999996
43,0.0162725,0.7294115,-0.011103999999999996,-0.14764750000000001,0.5129315,-0.005692999999999997,-0.2778775,0.7425215,-0.022021,0.1689625,0.4957815,-0.002259999999999998,0.2979925,0.7270314999999999,-0.012485999999999997,-0.3136075,0.9690615,-0.036986,0.3371825,0.9520815,-0.032477,-0.06754950000000001,0.0012484999999999996,0.0018659999999999996,0.06754950000000001,-0.0012484999999999996,-0.0018659999999999996,-0.1238775,-0.3431685,0.014712000000000003,0.10951249999999998,-0.3412985,0.043362000000000005,-0.1365175,-0.6500085,0.037201000000000005,0.11034250000000001,-0.6734185,0.044173000000000004
44,0.016176,0.7294815,-0.0103665,-0.147877,0.5130414999999999,-0.0046105000000000035,-0.277787,0.7423615,-0.0212245,0.168953,0.49576149999999997,-0.0019445000000000018,0.297543,0.7273115,-0.012776500000000003,-0.313247,0.9690415,-0.0362305,0.336843,0.9517415,-0.03332450000000001,-0.067512,0.0012445000000000025,0.0020304999999999976,0.067512,-0.0012444999999999956,-0.0020305000000000045,-0.12371700000000001,-0.3431685,0.015093499999999996,0.10967299999999999,-0.3411885,0.0435555,-0.136577,-0.6530985,0.037710499999999994,0.110453,-0.6732885000000001,0.044824499999999996
45,0.016071999999999996,0.729509,-0.009565999999999998,-0.148105,0.513109,-0.0035130000000000022,-0.277785,0.742259,-0.020430999999999998,0.168925,0.495749,-0.0015060000000000004,0.297115,0.727639,-0.012964999999999997,-0.313115,0.969009,-0.035431000000000004,0.336505,0.951379,-0.034147,-0.06748,0.001229999999999995,0.0022109999999999977,0.06748,-0.001230000000000002,-0.0022109999999999977,-0.123555,-0.343181,0.015534,0.109835,-0.341071,0.043733,-0.13654500000000003,-0.656211,0.038114,0.11054499999999999,-0.673151,0.045527
46,0.015964499999999993,0.729532,-0.008851500000000005,-0.1482675,0.513122,-0.002555500000000002,-0.2778175,0.742362,-0.019730500000000005,0.1688825,0.495772,-0.001078500000000003,0.2966725,0.727892,-0.013067500000000003,-0.3131175,0.968882,-0.0347335,0.3361425,0.951012,-0.03489350000000001,-0.0674545,0.0012119999999999978,0.002307499999999997,0.0674545,-0.0012120000000000047,-0.002307500000000004,-0.1234375,-0.343188,0.015945499999999994,0.10997249999999999,-0.340998,0.043954499999999994,-0.1362875,-0.6593180000000001,0.038349499999999995,0.11060249999999999,-0.673058,0.0462055
47,0.01586,0.7295475,-0.008218999999999997,-0.148437,0.5131475,-0.0016670000000000018,-0.277897,0.7423375,-0.019239,0.168833,0.4957975,-0.0006540000000000018,0.296273,0.7281375,-0.013151000000000003,-0.313117,0.9687575,-0.034282,0.335833,0.9506575,-0.035528,-0.067435,0.0011945000000000011,0.0023839999999999972,0.067435,-0.0011945000000000011,-0.0023839999999999972,-0.123307,-0.3431825,0.016256,0.110133,-0.3409125,0.044084,-0.13597700000000001,-0.6624325,0.038489999999999996,0.110633,-0.6729625,0.046782000000000004
48,0.0157045,0.729555,-0.0075789999999999955,-0.14855849999999998,0.513135,-0.0008739999999999998,-0.2779185,0.742315,-0.018848999999999998,0.1687515,0.495825,-0.00022900000000000004,0.2958515,0.728355,-0.013165999999999997,-0.31312850000000003,0.9682350000000001,-0.03406599999999999,0.3355015,0.9503149999999999,-0.036032,-0.06743650000000001,0.0011769999999999975,0.0024080000000000004,0.06743650000000001,-0.0011769999999999975,-0.0024080000000000004,-0.1231785,-0.34318499999999996,0.016507,0.1102715,-0.34085499999999996,0.044205,-0.1355185,-0.665455,0.038899,0.11065150000000001,-0.672875,0.047346
49,0.015519999999999999,0.7295864999999999,-0.006873999999999998,-0.14868,0.5131365,-6.799999999999862e-05,-0.27786,0.7416164999999999,-0.018448,0.16863999999999998,0.4958765,0.00023100000000000204,0.29544000000000004,0.7285665,-0.013025000000000002,-0.31325,0.9677364999999999,-0.034065000000000005,0.33519000000000004,0.9500265,-0.036349,-0.067436,0.001169499999999997,0.0024100000000000024,0.067436,-0.0011695000000000039,-0.0024100000000000024,-0.12307000000000001,-0.34317349999999996,0.016756,0.11043,-0.3407635,0.044307,-0.13520000000000001,-0.6655335,0.039527,0.11057,-0.6727635000000001,0.047924
50,0.015345499999999995,0.7296065,-0.006229499999999999,-0.14881149999999999,0.5131165000000001,0.0005944999999999978,-0.2779015,0.7414365,-0.018148499999999998,0.1685285,0.49591650000000004,0.0007124999999999979,0.2951285,0.7287165,-0.0126345,-0.3134815,0.9673165,-0.0341875,0.3349585,0.9498365000000001,-0.036410500000000005,-0.0674325,0.0011545000000000027,0.002413499999999999,0.0674325,-0.0011544999999999958,-0.002413499999999999,-0.1229615,-0.3431935,0.0169855,0.1105585,-0.3407035,0.0444065,-0.1349015,-0.6655534999999999,0.0400845,0.11042849999999999,-0.6726734999999999,0.048397499999999996
51,0.015161999999999998,0.7296195,-0.0056164999999999965,-0.148935,0.5130595,0.0011965000000000031,-0.27800499999999995,0.7412195,-0.017869499999999996,0.168395,0.4959595,0.0011675000000000019,0.29478499999999996,0.7288595,-0.012235499999999996,-0.313835,0.9666995,-0.0345195,0.334735,0.9496795,-0.0363935,-0.067415,0.0011334999999999956,0.0023675000000000015,0.067415,-0.0011335000000000026,-0.0023675000000000015,-0.122875,-0.3432105,0.0171415,0.110635,-0.3406405,0.0445525,-0.134385,-0.6633705,0.040974500000000004,0.110285,-0.6725905,0.0488535
52,0.0149585,0.7296284999999999,-0.005054000000000003,-0.1490825,0.5129984999999999,0.0017189999999999983,-0.2783325,0.7411285,-0.017626000000000003,0.1682575,0.4959385,0.0015879999999999991,0.2944875,0.7289485,-0.011806999999999998,-0.3142625,0.9660784999999998,-0.034950999999999996,0.3344875,0.9495585,-0.036276,-0.0674035,0.0011084999999999984,0.0023190000000000016,0.0674035,-0.0011084999999999984,-0.0023190000000000016,-0.1227925,-0.34323149999999997,0.017251,0.1106975,-0.3405915,0.044677999999999995,-0.13466250000000002,-0.6611815000000001,0.041860999999999995,0.11025750000000001,-0.6725115,0.049367
53,0.014749500000000002,0.729637,-0.004567000000000002,-0.1492105,0.512937,0.002152000000000001,-0.2785705,0.740167,-0.017499,0.1680995,0.495947,0.0019570000000000004,0.2941895,0.729047,-0.011445000000000004,-0.3148305,0.965367,-0.035504999999999995,0.3342395,0.949447,-0.036132,-0.0673995,0.0010849999999999957,0.0023309999999999997,0.0673995,-0.0010850000000000026,-0.0023309999999999997,-0.1227205,-0.343253,0.017291,0.1107395,-0.34052299999999996,0.044742,-0.1348305,-0.658933,0.042401,0.1102595,-0.672443,0.049807
54,0.014518,0.7296705,-0.004133499999999998,-0.14935700000000002,0.5128604999999999,0.002537499999999998,-0.278787,0.7391105,-0.0175175,0.167943,0.4959405,0.0022795000000000037,0.29389299999999996,0.7290605,-0.0111295,-0.315437,0.9647605,-0.036094499999999995,0.33397299999999996,0.9493604999999999,-0.0359025,-0.067388,0.001074499999999999,0.0022734999999999977,0.067388,-0.001074499999999999,-0.0022734999999999977,-0.122657,-0.3432595,0.017254500000000002,0.110753,-0.3404895,0.0448495,-0.13475700000000002,-0.6589395,0.0424625,0.110293,-0.6723895,0.0501985
55,0.014279499999999997,0.7297015,-0.003745499999999999,-0.1495095,0.5127715,0.002853500000000002,-0.27896950000000004,0.7379415,-0.017613499999999997,0.1677305,0.4959715,0.002531500000000006,0.29357049999999996,0.7290915,-0.010883499999999997,-0.31603950000000003,0.9640515000000001,-0.036794499999999994,0.33376049999999996,0.9493115,-0.03567949999999999,-0.06737950000000001,0.001067500000000006,0.0022425000000000014,0.06737950000000001,-0.001067499999999999,-0.0022424999999999945,-0.12260950000000001,-0.34325849999999997,0.017140500000000003,0.1107705,-0.3404685,0.044922500000000004,-0.1345995,-0.6581985,0.042496500000000006,0.11024049999999999,-0.6723785,0.0504585
56,0.014025,0.7297365,-0.003380000000000001,-0.149671,0.5126864999999999,0.003129,-0.279131,0.7367965,-0.017726,0.167509,0.49601649999999997,0.0027690000000000006,0.293269,0.7291365,-0.010639999999999997,-0.316631,0.9633165,-0.03749999999999999,0.333549,0.9492665,-0.035491999999999996,-0.06737199999999999,0.001062500000000001,0.0022180000000000047,0.06737199999999999,-0.001062500000000001,-0.0022179999999999978,-0.122591,-0.3432735,0.017043000000000003,0.110769,-0.3404535,0.045011,-0.134501,-0.6578235,0.042589,0.11007900000000001,-0.6723535,0.050613000000000005
57,0.013779,0.7297745,-0.003098499999999997,-0.14983,0.5126545,0.0033665000000000014,-0.27928,0.7357545000000001,-0.018001500000000004,0.16727,0.4960345,0.0030065000000000022,0.29299,0.7291645,-0.010397499999999997,-0.31716999999999995,0.9628345,-0.03823650000000001,0.33335000000000004,0.9492245,-0.0353465,-0.067365,0.0010544999999999999,0.002188500000000003,0.067365,-0.0010544999999999999,-0.002188500000000003,-0.12256,-0.34330550000000004,0.016913499999999998,0.11076,-0.3404455,0.0450785,-0.13446,-0.6567554999999999,0.0426585,0.10993,-0.6723254999999999,0.0507235
58,0.013570000000000002,0.7297929999999999,-0.002913000000000006,-0.149994,0.512613,0.0035449999999999995,-0.279654,0.7357229999999999,-0.018312000000000002,0.167056,0.496053,0.0032169999999999976,0.29276599999999997,0.729223,-0.010170000000000005,-0.31770400000000004,0.962283,-0.039005,0.333186,0.949173,-0.035243,-0.067362,0.0010439999999999963,0.0021709999999999993,0.067362,-0.0010440000000000033,-0.0021709999999999993,-0.122524,-0.343347,0.016749999999999998,0.110736,-0.340427,0.045146,-0.13450399999999998,-0.655797,0.042712,0.10982600000000001,-0.672307,0.050816
59,0.013352,0.729833,-0.0027065000000000006,-0.150154,0.5125930000000001,0.0036954999999999974,-0.280004,0.7357229999999999,-0.0186295,0.166846,0.49609299999999995,0.0034684999999999994,0.292556,0.729263,-0.009920499999999999,-0.318214,0.961733,-0.0397955,0.333056,0.949133,-0.035154500000000005,-0.067362,0.0010309999999999972,0.0021634999999999988,0.067362,-0.0010310000000000041,-0.0021634999999999988,-0.122494,-0.343397,0.0165915,0.110706,-0.340407,0.0452165,-0.134564,-0.6524669999999999,0.0431585,0.10968599999999999,-0.672277,0.050825499999999996
60,0.013155999999999998,0.7298614999999999,-0.0025459999999999997,-0.15035400000000002,0.5125815,0.0038559999999999983,-0.280234,0.7351015000000001,-0.018960000000000005,0.166636,0.49612150000000005,0.003698,0.29240599999999994,0.7293215,-0.009658,-0.31866400000000006,0.9613115000000001,-0.04058900000000001,0.33302600000000004,0.9491015,-0.035063000000000004,-0.067368,0.0010165000000000035,0.0021730000000000013,0.067368,-0.0010164999999999966,-0.0021730000000000013,-0.122464,-0.3434385,0.016454999999999997,0.11068599999999999,-0.3403885,0.045264,-0.134974,-0.6492685,0.043412,0.109566,-0.6722485,0.050874
61,0.012981500000000003,0.729898,-0.0023929999999999993,-0.15052549999999998,0.512568,0.004004000000000001,-0.28023549999999997,0.734288,-0.01967,0.1664445,0.496178,0.003925999999999999,0.29237450000000004,0.729318,-0.009411000000000003,-0.3190655,0.960878,-0.041568999999999995,0.33300450000000004,0.949048,-0.034986,-0.0673705,0.0010050000000000059,0.0021749999999999964,0.0673705,-0.001004999999999999,-0.0021750000000000033,-0.1224355,-0.343472,0.016388,0.1106645,-0.340362,0.045325,-0.1353255,-0.648152,0.043643,0.1095445,-0.6722319999999999,0.051091
62,0.012836500000000004,0.7299105,-0.0024010000000000004,-0.15067550000000002,0.5125004999999999,0.0039959999999999996,-0.28045549999999997,0.7346904999999999,-0.020433,0.1662845,0.4962405,0.004048999999999997,0.29237450000000004,0.7292905,-0.009411000000000003,-0.3193255,0.9604105,-0.042718000000000006,0.33300450000000004,0.9489405,-0.035027,-0.0673705,0.0009964999999999974,0.0021749999999999964,0.0673705,-0.0009965000000000043,-0.0021750000000000033,-0.1223955,-0.34349949999999996,0.016318,0.11067450000000001,-0.34034949999999997,0.045301,-0.13558549999999997,-0.6476795000000001,0.04371,0.1095345,-0.6722095,0.051149
63,0.012717500000000003,0.729927,-0.0024069999999999994,-0.15074549999999998,0.512437,0.0039919999999999956,-0.2806855,0.7355170000000001,-0.021107,0.1661245,0.496307,0.004193999999999996,0.29237450000000004,0.729257,-0.009411000000000003,-0.3195055,0.9599770000000001,-0.043886999999999995,0.3330145,0.9487570000000001,-0.035172999999999996,-0.0673705,0.0009829999999999978,0.0021749999999999964,0.0673705,-0.0009829999999999978,-0.0021750000000000033,-0.1223655,-0.34353300000000003,0.016311,0.1106845,-0.340343,0.045283,-0.1358855,-0.647153,0.043753,0.1096145,-0.6721929999999999,0.051212999999999995
64,0.012602000000000002,0.729939,-0.002412500000000005,-0.15077400000000002,0.5123690000000001,0.0039825,-0.280944,0.736469,-0.021746500000000002,0.166016,0.496359,0.004333499999999997,0.292606,0.7288990000000001,-0.009399500000000005,-0.319614,0.959589,-0.0450685,0.33311599999999997,0.9484090000000001,-0.035417500000000005,-0.067379,0.0009729999999999947,0.002174499999999996,0.067379,-0.0009730000000000016,-0.002174500000000003,-0.122334,-0.343561,0.016312499999999997,0.110686,-0.34035099999999996,0.045273499999999994,-0.136074,-0.646871,0.043561499999999996,0.10966600000000001,-0.6722009999999999,0.0512615
65,0.0125165,0.7299365,-0.002475000000000005,-0.1507825,0.5122964999999999,0.003935999999999995,-0.2806925,0.7359465000000001,-0.022829000000000002,0.1659375,0.49640650000000003,0.0044459999999999986,0.2932475,0.7284865,-0.009537000000000004,-0.3196525,0.9590065000000001,-0.04654900000000001,0.3335475,0.9475365,-0.03615500000000001,-0.0673835,0.0009604999999999961,0.0021759999999999974,0.0673835,-0.000960500000000003,-0.0021760000000000043,-0.1223225,-0.3435935,0.0163,0.1106875,-0.3403635,0.045259,-0.1361725,-0.6468035000000001,0.043317,0.1096975,-0.6722135,0.051238
66,0.012474000000000002,0.729941,-0.002625499999999996,-0.150785,0.512211,0.003748500000000002,-0.280365,0.735241,-0.023905499999999996,0.16589500000000001,0.496441,0.004472500000000004,0.293925,0.728071,-0.009780499999999998,-0.319585,0.958481,-0.04801849999999999,0.334175,0.946811,-0.03700149999999999,-0.067391,0.0009449999999999945,0.002210500000000004,0.067391,-0.0009450000000000014,-0.002210499999999997,-0.12229499999999999,-0.343619,0.016209500000000005,0.110705,-0.340379,0.0451685,-0.136175,-0.646799,0.0430825,0.10975499999999999,-0.672229,0.051120500000000006
67,0.012439999999999996,0.7299399999999999,-0.002867500000000002,-0.15077600000000002,0.5121399999999999,0.003433499999999999,-0.280106,0.7353,-0.025038500000000005,0.16587400000000002,0.49652,0.004408499999999996,0.294674,0.72763,-0.0101505,-0.319506,0.95802,-0.0496935,0.33494399999999996,0.9461299999999999,-0.0380625,-0.067396,0.0009289999999999993,0.002211499999999998,0.067396,-0.0009289999999999993,-0.002211499999999998,-0.12227600000000001,-0.34366,0.0160955,0.110734,-0.34041,0.0450135,-0.13628600000000002,-0.6468200000000001,0.0427615,0.109794,-0.6722800000000001,0.050727499999999995
68,0.012431500000000002,0.7299300000000001,-0.0032080000000000025,-0.1507425,0.5121,0.003007999999999997,-0.2799925,0.7353000000000001,-0.026213,0.16584749999999998,0.49655999999999995,0.004240999999999995,0.2954375,0.72716,-0.010602000000000007,-0.3194225,0.9574400000000001,-0.05160200000000001,0.3357675,0.94547,-0.039261000000000004,-0.0674135,0.0009160000000000001,0.0022069999999999937,0.0674135,-0.0009160000000000001,-0.0022070000000000006,-0.1222625,-0.3437,0.015934999999999994,0.11075750000000001,-0.34045000000000003,0.044804,-0.13629249999999998,-0.64684,0.042436999999999996,0.1098475,-0.6723399999999999,0.050324999999999995
69,0.012435499999999999,0.7299165,-0.0036774999999999933,-0.15069549999999998,0.5120565,0.0024515000000000023,-0.2799255,0.7351665,-0.0275155,0.1658445,0.4965965,0.0039365000000000025,0.2963645,0.7267064999999999,-0.011186499999999995,-0.3193455,0.9568665,-0.0535355,0.33682449999999997,0.9448265,-0.0407405,-0.0674305,0.0009084999999999996,0.002193500000000001,0.0674305,-0.0009084999999999996,-0.002193499999999994,-0.12224549999999999,-0.3437435,0.015729500000000004,0.1107845,-0.3404935,0.0445185,-0.13607550000000002,-0.6477235,0.0421095,0.1098245,-0.6724235000000001,0.049779500000000004
70,0.012440999999999997,0.72988,-0.0043219999999999995,-0.150598,0.51202,0.0017589999999999967,-0.27977799999999997,0.73512,-0.028881000000000004,0.165832,0.49659,0.003460999999999999,0.29733200000000004,0.72617,-0.011948,-0.319148,0.95626,-0.055653999999999995,0.337932,0.94406,-0.04242,-0.067454,0.000898999999999997,0.002112999999999997,0.067454,-0.000899000000000004,-0.0021130000000000038,-0.122198,-0.3438,0.015382,0.110822,-0.34059,0.044093,-0.135888,-0.65056,0.041477,0.109942,-0.67251,0.049305
71,0.012448999999999995,0.729862,-0.0051119999999999985,-0.15046,0.511992,0.0009470000000000034,-0.27949,0.735082,-0.030426999999999996,0.16583,0.49658199999999997,0.0028810000000000016,0.29830999999999996,0.725452,-0.012946,-0.31884,0.955552,-0.05798299999999999,0.33908000000000005,0.943352,-0.044176999999999994,-0.067481,0.000889999999999995,0.002012,0.067481,-0.0008900000000000019,-0.002012,-0.12215000000000001,-0.343868,0.014940000000000002,0.11087,-0.340728,0.043588,-0.13511,-0.653878,0.040783,0.11005999999999999,-0.672648,0.048759000000000004
72,0.012434499999999998,0.7298370000000001,-0.005998499999999997,-0.1502235,0.511907,-8.500000000001562e-06,-0.2790335,0.735037,-0.032157500000000006,0.1658465,0.4965669999999999,0.002187500000000002,0.2992965,0.7246670000000001,-0.014067499999999997,-0.3185135,0.9547570000000001,-0.0605315,0.3402365,0.942687,-0.046008499999999994,-0.0675155,0.0008879999999999999,0.0019274999999999987,0.0675155,-0.0008879999999999999,-0.0019274999999999987,-0.1221235,-0.343953,0.0144005,0.1108865,-0.340903,0.0429955,-0.1343535,-0.6572129999999999,0.0399875,0.1101365,-0.672813,0.0480765
73,0.012417999999999998,0.7297885000000001,-0.007004500000000004,-0.14999700000000002,0.5118585,-0.0010405000000000067,-0.278267,0.7339885,-0.0340135,0.16583299999999998,0.4965385,0.001388499999999994,0.299943,0.7242185,-0.015345500000000005,-0.318177,0.9539785000000001,-0.0631555,0.341463,0.9420885,-0.048044500000000004,-0.067557,0.0008775000000000033,0.0018014999999999975,0.067557,-0.0008774999999999963,-0.0018015000000000045,-0.122107,-0.3440115,0.013743499999999995,0.11091300000000001,-0.34110149999999995,0.0422935,-0.133557,-0.6605314999999999,0.039044499999999996,0.110213,-0.6728615,0.04736649999999999
74,0.012383000000000002,0.729727,-0.007927999999999998,-0.14978599999999997,0.511797,-0.0019940000000000027,-0.27749599999999996,0.733107,-0.035479000000000004,0.16577399999999998,0.49650700000000003,0.0005710000000000021,0.300294,0.723707,-0.016549,-0.31785599999999997,0.9533969999999999,-0.065753,0.342414,0.941797,-0.049699,-0.067608,0.0008729999999999988,0.0016740000000000019,0.067608,-0.0008729999999999988,-0.0016740000000000019,-0.122096,-0.344073,0.013026,0.110924,-0.34132300000000004,0.041551,-0.132726,-0.663013,0.037998,0.110134,-0.673083,0.046506
75,0.012305000000000003,0.729646,-0.008946499999999996,-0.14968499999999998,0.511706,-0.002959499999999997,-0.276885,0.7330260000000001,-0.03700749999999999,0.165695,0.4964660000000001,-0.0003625000000000017,0.300595,0.723506,-0.0178325,-0.317545,0.952686,-0.0685055,0.343275,0.941486,-0.051520500000000004,-0.067663,0.0008640000000000037,0.0015345000000000011,0.067663,-0.0008639999999999967,-0.0015345000000000011,-0.12210499999999999,-0.34415399999999996,0.0121455,0.110915,-0.341554,0.0407015,-0.132065,-0.665604,0.036839500000000004,0.110095,-0.6731739999999999,0.0457045
76,0.012169999999999997,0.729506,-0.010196499999999997,-0.149707,0.511566,-0.004123500000000002,-0.276487,0.733256,-0.0387955,0.16560299999999997,0.49646599999999996,-0.001514500000000002,0.300843,0.723436,-0.019332500000000002,-0.317307,0.9519259999999999,-0.0713195,0.344013,0.941076,-0.0534955,-0.067724,0.0008449999999999985,0.0013724999999999987,0.067724,-0.0008449999999999985,-0.0013724999999999987,-0.122097,-0.344314,0.011012500000000001,0.110883,-0.34185400000000005,0.0396105,-0.13140700000000002,-0.667344,0.0354415,0.109903,-0.673334,0.0445305
77,0.011988499999999996,0.7293655,-0.011573499999999994,-0.1498215,0.5114455,-0.005440499999999994,-0.2762715,0.7329955,-0.04078749999999999,0.1654785,0.4964855,-0.0027794999999999973,0.3010585,0.7231255,-0.020974499999999993,-0.3171315,0.9511255000000001,-0.07421549999999999,0.3446785,0.9408155,-0.05558249999999999,-0.0677865,0.0008195000000000008,0.0011555000000000037,0.0677865,-0.0008195000000000008,-0.0011554999999999968,-0.12212150000000001,-0.3445145,0.009730500000000007,0.11080849999999999,-0.34220449999999997,0.03834750000000001,-0.1307715,-0.6700545,0.03373450000000001,0.1110085,-0.6718345,0.04351050000000001
78,0.011761499999999998,0.7291965,-0.013025499999999995,-0.14999050000000003,0.5113565,-0.006830499999999996,-0.27615049999999997,0.7327265000000001,-0.0432075,0.16531949999999998,0.4962865,-0.004075499999999996,0.3010995,0.7228064999999999,-0.022782499999999997,-0.3169805,0.9501865,-0.07731450000000001,0.3451095,0.9404665000000001,-0.057792500000000004,-0.0678605,0.0008025000000000046,0.0009364999999999998,0.0678605,-0.0008024999999999977,-0.0009364999999999998,-0.1221105,-0.3447135,0.0083785,0.1107195,-0.3425935,0.0369675,-0.1303205,-0.6728235,0.0318475,0.1118295,-0.6714735000000001,0.0424495
79,0.01148,0.729024,-0.014490000000000003,-0.150211,0.5112840000000001,-0.008206999999999999,-0.276231,0.732434,-0.045487999999999994,0.165119,0.495984,-0.005392000000000001,0.30094899999999997,0.722394,-0.024721,-0.316901,0.949184,-0.08030899999999999,0.345479,0.940064,-0.060067,-0.067944,0.0008130000000000012,0.0007799999999999994,0.067944,-0.0008129999999999943,-0.0007800000000000029,-0.12216099999999999,-0.344986,0.007037000000000002,0.110579,-0.34297599999999995,0.035551,-0.129951,-0.6741659999999999,0.030009,0.11265900000000001,-0.6709459999999999,0.041278999999999996
80,0.0111595,0.728925,-0.016056999999999995,-0.15049849999999998,0.511055,-0.009784000000000001,-0.2764085,0.732525,-0.047919,0.16491150000000002,0.49575499999999995,-0.006823999999999997,0.3007415,0.722005,-0.026632999999999997,-0.3168785,0.948235,-0.083382,0.3457615,0.939815,-0.06249099999999999,-0.0680175,0.0008289999999999964,0.0007520000000000027,0.0680175,-0.0008290000000000033,-0.0007519999999999992,-0.1221885,-0.345235,0.005556000000000002,0.1104315,-0.343285,0.034013,-0.13032849999999999,-0.674945,0.028058000000000003,0.1135215,-0.670275,0.040076
81,0.010780999999999995,0.728911,-0.018019999999999998,-0.150898,0.510901,-0.011764,-0.27655799999999997,0.732321,-0.050732,0.16467199999999999,0.49560099999999996,-0.008617000000000003,0.300402,0.721611,-0.02895,-0.316938,0.947251,-0.08694199999999999,0.34595200000000004,0.939401,-0.065345,-0.068138,0.0008069999999999952,0.0005730000000000006,0.068138,-0.0008070000000000022,-0.0005730000000000006,-0.12221800000000001,-0.345419,0.0036859999999999983,0.110282,-0.343609,0.032062,-0.130808,-0.675489,0.025566,0.114522,-0.668769,0.038263
82,0.010428,0.7288125,-0.020163,-0.151313,0.5106625,-0.013894999999999998,-0.276673,0.7315524999999999,-0.05368,0.16445700000000002,0.49524250000000003,-0.010534000000000002,0.300087,0.7214725,-0.031369,-0.316973,0.9461824999999999,-0.09059,0.346037,0.9389225,-0.068213,-0.06826299999999999,0.0007515000000000022,0.000392,0.06826299999999999,-0.0007515000000000022,-0.000392,-0.122193,-0.34568750000000004,0.0016850000000000025,0.110157,-0.34408750000000005,0.029958000000000002,-0.131103,-0.6759975,0.023297000000000002,0.115567,-0.6672975,0.036249
83,0.010009,0.7287335,-0.022547499999999998,-0.15170399999999998,0.5100935,-0.016355500000000002,-0.276824,0.7309635,-0.056837500000000006,0.16420600000000002,0.4948435,-0.012667499999999998,0.29954600000000003,0.7210835,-0.0339195,-0.317104,0.9451335000000001,-0.09427949999999999,0.346016,0.9385035,-0.07127149999999999,-0.068395,0.0006805000000000005,0.00029749999999999915,0.068395,-0.0006805000000000005,-0.00029749999999999915,-0.122234,-0.34594650000000005,-0.000505499999999999,0.110016,-0.3444965,0.0275855,-0.131484,-0.6762965,0.0206925,0.116566,-0.6657465,0.0339485
84,0.009514999999999996,0.7285874999999999,-0.02518,-0.152099,0.5092774999999999,-0.019098999999999998,-0.27703900000000004,0.7310274999999999,-0.060242,0.163871,0.4947475,-0.015016000000000002,0.298991,0.7209975,-0.03672,-0.317349,0.9439774999999999,-0.09845400000000001,0.345831,0.9380674999999999,-0.074569,-0.06855800000000001,0.0006654999999999994,0.0001549999999999989,0.06855800000000001,-0.0006655000000000064,-0.00015500000000000236,-0.122329,-0.34628250000000005,-0.002908000000000001,0.10989099999999999,-0.3448725,0.024828,-0.131939,-0.6766625000000001,0.017841,0.117451,-0.6641525,0.0314
85,0.009026000000000003,0.728554,-0.0280725,-0.152415,0.508444,-0.022116499999999997,-0.277245,0.731454,-0.0639845,0.163505,0.494504,-0.0175525,0.29840500000000003,0.721044,-0.039787499999999996,-0.317595,0.942884,-0.10304849999999999,0.345555,0.9378040000000001,-0.0781325,-0.068728,0.0005970000000000003,1.7500000000000154e-05,0.068728,-0.0005970000000000003,-1.7500000000000154e-05,-0.12249499999999999,-0.346536,-0.0056124999999999994,0.109795,-0.345066,0.0216165,-0.132465,-0.676916,0.014946500000000001,0.11835500000000002,-0.6623659999999999,0.0285715
86,0.008545499999999998,0.728433,-0.030974,-0.1526785,0.507563,-0.025006,-0.27750850000000005,0.732213,-0.067715,0.16316150000000001,0.49449299999999996,-0.020115,0.2977915,0.720913,-0.042873,-0.3178385,0.941643,-0.10771299999999999,0.34528149999999996,0.937493,-0.081704,-0.0688855,0.0005529999999999979,1.4999999999999389e-05,0.0688855,-0.0005530000000000049,-1.4999999999999389e-05,-0.1226485,-0.346707,-0.008419000000000001,0.10977150000000001,-0.345177,0.018282,-0.1331385,-0.677117,0.011696,0.11820150000000001,-0.662167,0.025634999999999998
87,0.008035999999999998,0.728306,-0.033963,-0.152951,0.506726,-0.027860000000000003,-0.277891,0.732726,-0.07133300000000001,0.162709,0.494406,-0.022630000000000004,0.297189,0.7208060000000001,-0.04596,-0.318141,0.940446,-0.112395,0.344929,0.937256,-0.085178,-0.069026,0.0005030000000000034,2.499999999999898e-05,0.069026,-0.0005029999999999965,-2.5000000000000716e-05,-0.122911,-0.346804,-0.011383,0.109699,-0.345304,0.014825999999999999,-0.133841,-0.677254,0.008509,0.11799899999999999,-0.661914,0.022532
88,0.007498000000000001,0.7281075,-0.036974,-0.153242,0.5059375,-0.030729,-0.278372,0.7329275000000001,-0.075069,0.162228,0.49422750000000004,-0.025108,0.296618,0.7206075000000001,-0.049037000000000004,-0.318522,0.9392475,-0.11698499999999999,0.344528,0.9369075,-0.088684,-0.069174,0.00046650000000000164,5.099999999999896e-05,0.069174,-0.0004664999999999947,-5.10000000000007e-05,-0.123202,-0.3469325,-0.014429,0.109648,-0.34550250000000005,0.011295999999999999,-0.13451200000000002,-0.6772425,0.005273999999999999,0.11768799999999999,-0.6624325,0.018871
89,0.0069619999999999994,0.7279025,-0.039885,-0.153501,0.5051424999999999,-0.033481,-0.278901,0.7330924999999999,-0.07874,0.161659,0.4940325,-0.027486000000000003,0.296029,0.7204125,-0.052107,-0.318911,0.9379925,-0.121458,0.344089,0.9365325,-0.092144,-0.06933500000000001,0.0004315000000000013,-7.300000000000015e-05,0.06933500000000001,-0.0004315000000000013,7.300000000000015e-05,-0.123551,-0.3470675,-0.017428,0.10957900000000001,-0.3456675,0.00775,-0.135231,-0.6774375,0.0021009999999999996,0.117529,-0.6620275,0.01598
90,0.006494,0.7276750000000001,-0.042598000000000004,-0.153639,0.5043850000000001,-0.035995000000000006,-0.279099,0.733185,-0.082084,0.161171,0.49386499999999994,-0.029643,0.295431,0.7200850000000001,-0.054938,-0.319199,0.9368749999999999,-0.12559499999999998,0.343671,0.9361349999999999,-0.09550700000000001,-0.069448,0.00037299999999999833,4.399999999999977e-05,0.069448,-0.00037300000000000527,-4.40000000000002e-05,-0.12389900000000001,-0.347185,-0.020111,0.109581,-0.34569500000000003,0.004351,-0.135839,-0.677575,-0.0007720000000000006,0.11735099999999998,-0.662185,0.012563000000000001
91,0.005993499999999999,0.7273265,-0.045474,-0.1537715,0.5033765,-0.038852000000000005,-0.2791715,0.7328665,-0.085598,0.1606885,0.49340649999999997,-0.031937,0.2948985,0.7198264999999999,-0.057844000000000007,-0.3194815,0.9357165,-0.130198,0.3432585,0.9355865,-0.099326,-0.06954650000000001,0.0002694999999999989,0.000151,0.06954650000000001,-0.0002694999999999989,-0.00015099999999999998,-0.1243215,-0.34704349999999995,-0.02289,0.1095785,-0.34528349999999997,0.0006900000000000001,-0.1365815,-0.6775835,-0.003682,0.1171385,-0.6621935,0.008947
92,0.005553499999999999,0.726929,-0.048237,-0.1539125,0.502919,-0.041435,-0.2791525,0.732369,-0.08909500000000001,0.1602475,0.49304900000000007,-0.034068,0.2944275,0.719479,-0.060661,-0.3196425,0.934359,-0.134794,0.3429175,0.9349890000000001,-0.103204,-0.0696295,0.00016000000000000042,0.00017399999999999968,0.0696295,-0.00016000000000000042,-0.0001740000000000001,-0.12470250000000001,-0.34679099999999996,-0.025594,0.1096775,-0.34470100000000004,-0.003006,-0.1373725,-0.6773009999999999,-0.006331,0.11700749999999999,-0.661921,0.0054719999999999994
93,0.005197499999999997,0.726294,-0.0510025,-0.1540145,0.502514,-0.0442615,-0.2792545,0.731884,-0.0930135,0.15989549999999997,0.49286399999999997,-0.0362855,0.29405549999999997,0.718784,-0.0636195,-0.3195345,0.932934,-0.1396385,0.34283549999999996,0.934144,-0.1074985,-0.0696905,9.900000000000186e-05,0.00020250000000000042,0.0696905,-9.900000000000186e-05,-0.00020249999999999956,-0.1250845,-0.346506,-0.0285705,0.1098455,-0.343756,-0.006742499999999999,-0.1381145,-0.676936,-0.0089915,0.1171155,-0.660806,0.002153500000000001
94,0.004916500000000001,0.7252865,-0.053646,-0.1541325,0.5020865,-0.046781,-0.2792825,0.7313565,-0.096814,0.1596175,0.49279649999999997,-0.038356,0.2937675,0.7179365,-0.066527,-0.3191825,0.9309365,-0.144761,0.3430475,0.9328164999999999,-0.112231,-0.0697525,1.6500000000002624e-05,0.0002859999999999998,0.0697525,-1.6499999999995685e-05,-0.0002859999999999998,-0.1253925,-0.3463435,-0.031467,0.1100775,-0.3427235,-0.010199,-0.13879249999999999,-0.6766835,-0.011463000000000001,0.1172175,-0.6599235,-0.0008549999999999999
95,0.004694500000000001,0.724126,-0.0564325,-0.1542685,0.5016160000000001,-0.0492315,-0.2792585,0.730736,-0.1008595,0.1593915,0.492726,-0.0405575,0.2936115,0.7169460000000001,-0.0697995,-0.3187585,0.929106,-0.1498265,0.3433015,0.931146,-0.11737650000000001,-0.0698275,-3.299999999999831e-05,0.0002544999999999995,0.0698275,3.299999999999831e-05,-0.0002544999999999995,-0.1256485,-0.346094,-0.0346185,0.11034150000000001,-0.34171399999999996,-0.0137085,-0.1393385,-0.676334,-0.0142635,0.11736150000000001,-0.659314,-0.0038745000000000003
96,0.004610999999999997,0.7227685,-0.059177499999999994,-0.15431399999999998,0.5012085000000001,-0.051394499999999996,-0.279094,0.7303885,-0.1050315,0.15926600000000002,0.4925385,-0.0427245,0.29360600000000003,0.7156385000000001,-0.0731515,-0.318174,0.9270785,-0.15506650000000002,0.343716,0.9270485,-0.1225965,-0.069909,-6.549999999999612e-05,0.00020449999999999982,0.069909,6.550000000000306e-05,-0.00020449999999999982,-0.125774,-0.34577149999999995,-0.0379255,0.11075600000000001,-0.3407415,-0.017167500000000002,-0.139704,-0.6759315,-0.0167885,0.11759599999999999,-0.6589214999999999,-0.0068095000000000004
97,0.004625500000000001,0.7212835,-0.0620585,-0.1542835,0.5006735,-0.0536965,-0.2785035,0.7291435,-0.1091725,0.1593265,0.4922035,-0.044886499999999996,0.2937265,0.7139935000000001,-0.0767875,-0.3174535,0.9249535,-0.1606055,0.3443065,0.9228835,-0.12791550000000002,-0.0699735,-0.00010650000000000243,0.0001694999999999995,0.0699735,0.00010650000000000243,-0.00016950000000000125,-0.1258335,-0.34536649999999997,-0.0412615,0.11125650000000001,-0.3396065,-0.020712500000000002,-0.1401535,-0.6754365,-0.0195775,0.11789650000000002,-0.6585365,-0.009704500000000001
98,0.0047224999999999975,0.7197825,-0.0650955,-0.15417550000000002,0.5003025,-0.0559115,-0.27795549999999997,0.7280825,-0.1133585,0.1594545,0.49188250000000006,-0.0470895,0.2939645,0.7122925,-0.0805585,-0.3166655,0.9228824999999999,-0.1664745,0.34499450000000004,0.9185924999999999,-0.1334745,-0.0700375,-0.00015450000000000186,0.00019550000000000123,0.0700375,0.00015450000000000186,-0.00019550000000000123,-0.1258755,-0.3448675,-0.044741500000000003,0.11185450000000001,-0.33840749999999997,-0.0243855,-0.14049550000000002,-0.6748375000000001,-0.022339499999999998,0.1182345,-0.6581275000000001,-0.0125925
99,0.004796000000000002,0.718454,-0.068124,-0.154055,0.49982400000000005,-0.058395,-0.277185,0.726634,-0.117736,0.159505,0.49126400000000003,-0.04943600000000001,0.294225,0.710804,-0.084385,-0.315865,0.9206840000000001,-0.172817,0.345705,0.914204,-0.139287,-0.070106,-0.00019500000000000073,0.00016599999999999948,0.070106,0.00019500000000000073,-0.00016599999999999948,-0.125955,-0.344126,-0.048262,0.112455,-0.336976,-0.028089000000000003,-0.140895,-0.674006,-0.025226000000000002,0.11846500000000001,-0.657496,-0.015434000000000002
100,0.004909499999999997,0.71717,-0.0710505,-0.1539085,0.49946,-0.060759499999999994,-0.2761385,0.72457,-0.1222965,0.15962149999999997,0.49074000000000007,-0.051672499999999996,0.2945715,0.70895,-0.08825949999999999,-0.3151485,0.91857,-0.17886649999999998,0.34644149999999996,0.91011,-0.1448365,-0.0701315,-0.00019600000000000173,0.00011450000000000002,0.0701315,0.0001959999999999948,-0.00011450000000000002,-0.1260385,-0.34345000000000003,-0.051611500000000005,0.1130315,-0.33577,-0.031628500000000004,-0.14117849999999998,-0.6733,-0.0279415,0.11874149999999999,-0.65723,-0.0180985
101,0.005064999999999997,0.7158009999999999,-0.0740835,-0.15374600000000002,0.49901100000000004,-0.0633245,-0.274916,0.7222409999999999,-0.12683450000000002,0.159694,0.490091,-0.05404250000000001,0.294864,0.707131,-0.0922035,-0.314576,0.9167209999999999,-0.18494449999999998,0.347184,0.9060109999999999,-0.1502745,-0.070128,-0.00018199999999999467,5.4499999999998994e-05,0.070128,0.0001820000000000016,-5.4499999999998994e-05,-0.126166,-0.342589,-0.0549655,0.11355399999999999,-0.334499,-0.0350305,-0.14147600000000002,-0.672439,-0.0306685,0.119034,-0.656379,-0.0207555
102,0.005198499999999995,0.7145984999999999,-0.07710349999999999,-0.1535995,0.4984485,-0.0659945,-0.2737195,0.7198085,-0.1310195,0.1598705,0.4894485,-0.0563525,0.2951605,0.7056085,-0.09594849999999999,-0.3142495,0.9151885,-0.19097950000000002,0.3477905,0.9020085,-0.1553695,-0.07012650000000001,-0.00016050000000000092,1.8500000000001154e-05,0.07012650000000001,0.00016050000000000092,-1.8499999999997685e-05,-0.1263395,-0.3415915,-0.0580035,0.11401049999999999,-0.3332715,-0.038191499999999996,-0.14179950000000002,-0.6714315000000001,-0.0331425,0.1192405,-0.6555315,-0.023191499999999997
103,0.005357999999999998,0.7136129999999999,-0.08009949999999999,-0.15338400000000002,0.49816299999999997,-0.0687925,-0.27260399999999996,0.717753,-0.13529449999999998,0.160056,0.48906299999999997,-0.0586965,0.295416,0.704093,-0.09969549999999999,-0.313894,0.914183,-0.19678449999999997,0.348216,0.898133,-0.1600045,-0.070183,-0.00016499999999999848,2.5000000000025002e-06,0.070183,0.00016499999999999848,-2.4999999999990308e-06,-0.126474,-0.340787,-0.0609945,0.114456,-0.332007,-0.0412405,-0.142124,-0.670537,-0.0357245,0.11948599999999998,-0.654587,-0.0256945
104,0.005457999999999998,0.7124055,-0.08319599999999999,-0.153175,0.4978755,-0.071513,-0.271415,0.7154155,-0.13970300000000002,0.160285,0.4886355,-0.061048,0.29573499999999997,0.7023755,-0.103722,-0.313465,0.9131455,-0.20304300000000003,0.34868499999999997,0.8942555,-0.16469299999999998,-0.070269,-0.00017550000000000204,5.999999999999062e-06,0.070269,0.0001754999999999951,-6.000000000002531e-06,-0.126605,-0.33995450000000005,-0.063942,0.11492499999999999,-0.3307445,-0.044156,-0.142445,-0.6696345,-0.038333,0.11981499999999999,-0.6535445,-0.028294000000000003
105,0.005597999999999999,0.7110325000000001,-0.086641,-0.152867,0.4976825,-0.074464,-0.270067,0.7128425,-0.144362,0.16062300000000002,0.4884725,-0.063516,0.296153,0.7009325000000001,-0.107973,-0.312927,0.9122125,-0.209412,0.34919300000000003,0.8922625000000001,-0.169812,-0.070337,-0.00019349999999999923,7.000000000000062e-06,0.070337,0.00019350000000000617,-7.000000000000062e-06,-0.126627,-0.3390475,-0.066976,0.115463,-0.3295575,-0.047208,-0.142647,-0.6687474999999999,-0.041159,0.12019300000000001,-0.6528674999999999,-0.031063
106,0.0057435000000000055,0.709613,-0.0901015,-0.1524855,0.497413,-0.0775845,-0.2688955,0.710843,-0.1493215,0.1609945,0.48844299999999996,-0.0660275,0.2965645,0.699243,-0.11234650000000002,-0.31253549999999997,0.911033,-0.21636149999999998,0.34965450000000003,0.890163,-0.1751615,-0.0703915,-0.00023300000000000057,-2.0499999999999685e-05,0.0703915,0.00023300000000000057,2.0499999999999685e-05,-0.1266455,-0.338167,-0.0701245,0.1160145,-0.328367,-0.050250500000000003,-0.1428255,-0.667837,-0.0440055,0.12059450000000001,-0.652297,-0.034008500000000004
107,0.005910000000000002,0.7080810000000001,-0.093669,-0.152082,0.49721100000000007,-0.08075099999999999,-0.26773199999999997,0.709001,-0.154748,0.161398,0.48846100000000003,-0.06869700000000001,0.296858,0.697121,-0.117054,-0.31219199999999997,0.910041,-0.223578,0.350098,0.887881,-0.180858,-0.070428,-0.00026500000000000135,-7.899999999999574e-05,0.070428,0.0002649999999999979,7.900000000000268e-05,-0.126672,-0.33777900000000005,-0.07345199999999999,0.116588,-0.32711900000000005,-0.053392999999999996,-0.142982,-0.667389,-0.046969,0.121038,-0.651849,-0.037118
108,0.005998500000000004,0.7063605,-0.0975155,-0.1516615,0.49716049999999995,-0.08392949999999999,-0.2665815,0.7072205,-0.1603635,0.1617785,0.4885105,-0.07148650000000001,0.2971485,0.6950505,-0.1220465,-0.3119015,0.9085505,-0.2305935,0.3506685,0.8855705,-0.1865435,-0.07044249999999999,-0.00028749999999999956,-0.00019349999999999923,0.07044249999999999,0.00028749999999999956,0.00019349999999999923,-0.12669149999999998,-0.3374395,-0.0767915,0.11717849999999999,-0.3257995,-0.056555499999999995,-0.1430115,-0.6669894999999999,-0.0498445,0.1215185,-0.6516694999999999,-0.0405245
109,0.006208000000000002,0.7045295,-0.101662,-0.151182,0.4972995,-0.087245,-0.265482,0.7058095,-0.165997,0.16208799999999998,0.48794950000000004,-0.07500100000000001,0.297528,0.6936395,-0.127295,-0.311532,0.9073595,-0.23796699999999998,0.351378,0.8829795,-0.192747,-0.07047400000000001,-0.00033149999999999846,-0.00013600000000000417,0.07047400000000001,0.00033149999999999846,0.00013599999999999723,-0.126582,-0.3371505,-0.080389,0.117948,-0.3245305,-0.059964,-0.142902,-0.6666005,-0.052798000000000005,0.12207799999999999,-0.6514405,-0.04404
110,0.006453999999999998,0.702556,-0.105962,-0.150677,0.49746599999999996,-0.090794,-0.264417,0.704486,-0.17185099999999998,0.16236299999999998,0.487526,-0.078676,0.297943,0.692396,-0.132739,-0.311127,0.906376,-0.24562099999999998,0.35208300000000003,0.880226,-0.199361,-0.07048600000000001,-0.00036299999999999874,-1.8999999999998185e-05,0.07048600000000001,0.0003630000000000022,1.9000000000005124e-05,-0.126467,-0.337154,-0.08409,0.118743,-0.323314,-0.063451,-0.14269700000000002,-0.666514,-0.055832,0.12261300000000001,-0.651124,-0.04768
111,0.006786999999999994,0.7007085,-0.1105555,-0.150175,0.4973185,-0.0946545,-0.263285,0.7030485,-0.17807450000000002,0.162665,0.48713850000000003,-0.0826025,0.298315,0.6913385,-0.1385825,-0.310675,0.9055685,-0.2533245,0.352665,0.8779085,-0.20615450000000002,-0.070495,-0.00041949999999999973,0.00010150000000000436,0.070495,0.0004195000000000032,-0.00010149999999999743,-0.12638500000000003,-0.3371315,-0.0879935,0.11957499999999999,-0.3220015,-0.0671635,-0.142415,-0.6663915,-0.0591695,0.123135,-0.6506615,-0.0515935
112,0.007172999999999999,0.6986945,-0.115398,-0.14965499999999998,0.49718450000000003,-0.09854399999999999,-0.262095,0.7017045,-0.18441999999999997,0.16292500000000001,0.4859145,-0.086895,0.29867499999999997,0.6901845,-0.144762,-0.310095,0.9051045,-0.26095,0.35329499999999997,0.8755045,-0.21331,-0.07048299999999999,-0.000446499999999999,0.00017800000000000454,0.07048299999999999,0.00044650000000000245,-0.0001779999999999976,-0.126305,-0.3372055,-0.091869,0.12062500000000001,-0.3209055,-0.071162,-0.142005,-0.6662455,-0.062405,0.12373500000000001,-0.6502455,-0.055452999999999995
113,0.0075889999999999985,0.6967665,-0.1201795,-0.149238,0.49718650000000003,-0.1024715,-0.260938,0.7005165,-0.1906905,0.163182,0.4848965,-0.0912525,0.299022,0.6890864999999999,-0.1507905,-0.309478,0.9047965,-0.2684105,0.353852,0.8732765,-0.22036050000000001,-0.070468,-0.0004794999999999973,0.00022649999999999754,0.070468,0.00047950000000000076,-0.00022649999999999754,-0.126418,-0.33772349999999995,-0.0957555,0.12166199999999999,-0.3198135,-0.0752185,-0.141548,-0.6660535000000001,-0.0656625,0.12424199999999999,-0.6497435,-0.0593115
114,0.008011499999999998,0.6949,-0.1250565,-0.1488255,0.49673000000000006,-0.10666049999999999,-0.2598355,0.6997399999999999,-0.1968765,0.1633645,0.48361000000000004,-0.0957725,0.2993245,0.68813,-0.1570165,-0.3088555,0.90479,-0.2760865,0.3542345,0.8712,-0.2274565,-0.0704535,-0.00047799999999999926,0.0003594999999999987,0.0704535,0.00047799999999999926,-0.0003594999999999987,-0.12669550000000002,-0.33820999999999996,-0.0997085,0.1227445,-0.31849999999999995,-0.0794605,-0.1410755,-0.66544,-0.0690805,0.12472449999999999,-0.649,-0.0633845
115,0.008323499999999998,0.6927960000000001,-0.1299915,-0.1482955,0.496546,-0.1107545,-0.2587155,0.698616,-0.2030235,0.1634145,0.48242599999999997,-0.10040750000000001,0.2996145,0.6875760000000001,-0.1630635,-0.3082955,0.9050060000000001,-0.2835235,0.3544845,0.869156,-0.2344935,-0.07048750000000001,-0.00046400000000000087,0.0005264999999999992,0.07048750000000001,0.00046399999999999914,-0.0005264999999999992,-0.1270755,-0.338574,-0.10360849999999999,0.12378449999999999,-0.31730400000000003,-0.0837105,-0.1406155,-0.664554,-0.0726475,0.1250645,-0.6481239999999999,-0.0674405
116,0.008480999999999999,0.6906795,-0.1352605,-0.147954,0.4959595,-0.11500650000000001,-0.257784,0.6978095,-0.2090765,0.163256,0.4806295,-0.1053075,0.299526,0.6861395,-0.1690565,-0.307874,0.9055995,-0.2909265,0.354426,0.8674995,-0.2414865,-0.070368,-0.00038749999999999896,0.000615499999999998,0.070368,0.0003875000000000007,-0.0006155000000000049,-0.12759399999999999,-0.3353505,-0.1075205,0.12470600000000001,-0.31408050000000004,-0.0881595,-0.140294,-0.6613305,-0.0764415,0.125186,-0.6449005,-0.0716585
117,0.008772000000000002,0.688704,-0.1406435,-0.14765899999999998,0.49521399999999993,-0.11942849999999999,-0.256929,0.697224,-0.2152265,0.16290100000000002,0.47854399999999997,-0.1104155,0.29929100000000003,0.6844939999999999,-0.1749465,-0.307509,0.907264,-0.2986165,0.354331,0.866074,-0.24850650000000002,-0.070315,-0.0003499999999999996,0.000850500000000004,0.070315,0.0003500000000000005,-0.0008504999999999971,-0.128169,-0.331696,-0.1117335,0.125741,-0.31042600000000004,-0.09302150000000001,-0.140019,-0.657676,-0.0804985,0.125281,-0.641246,-0.0759685
118,0.008952499999999992,0.6868925,-0.14588849999999998,-0.1474195,0.4938625,-0.1240365,-0.2563195,0.6963325,-0.22133350000000002,0.1626105,0.4769325,-0.1149685,0.2989605,0.6829325,-0.1805935,-0.3071895,0.9087325,-0.3065935,0.3541905,0.8649925,-0.2552335,-0.07031950000000001,-0.0002655000000000001,0.0009455000000000019,0.07031950000000001,0.0002655000000000001,-0.0009455000000000019,-0.12877950000000002,-0.3276575,-0.1158625,0.1267305,-0.30638750000000003,-0.0977875,-0.1398195,-0.6536375,-0.0845535,0.1253705,-0.6372074999999999,-0.0802555
119,0.009354499999999998,0.6869455,-0.1577135,-0.1457935,0.4915155,-0.1351105,-0.2553235,0.6951554999999999,-0.2340185,0.1620965,0.47560549999999996,-0.1261775,0.2987665,0.6819554999999999,-0.19288850000000002,-0.30665349999999997,0.9082755,-0.3217285,0.3544065,0.8661854999999999,-0.2688785,-0.07022049999999999,-0.00017949999999999997,0.0007024999999999948,0.07022049999999999,0.00017949999999999997,-0.0007024999999999948,-0.1289535,-0.3198145,-0.1286435,0.12866650000000002,-0.2991045,-0.11040849999999999,-0.1389935,-0.6453845,-0.0955285,0.1255365,-0.6299745,-0.0912115
120,0.009669500000000004,0.6852499999999999,-0.169402,-0.14421849999999997,0.48992,-0.14577400000000001,-0.2544385,0.69399,-0.246734,0.16139150000000002,0.47421,-0.13702999999999999,0.2984115,0.6797599999999999,-0.205214,-0.3062085,0.90803,-0.336994,0.35461149999999997,0.8659899999999999,-0.28338399999999997,-0.0700495,-0.00015899999999999942,0.0005170000000000036,0.0700495,0.00015899999999999942,-0.0005170000000000036,-0.1292485,-0.3121,-0.141366,0.1305615,-0.29179,-0.122808,-0.1382485,-0.63722,-0.106073,0.1255615,-0.62239,-0.101975
121,0.009907499999999996,0.683743,-0.18105349999999998,-0.1426105,0.488633,-0.1567005,-0.2533505,0.6934530000000001,-0.2598285,0.1607295,0.474483,-0.1478435,0.2980195,0.678463,-0.2176485,-0.3058405,0.9071130000000001,-0.3531485,0.3548595,0.8660429999999999,-0.2977385,-0.0698655,-0.00018500000000000114,0.0002385000000000026,0.0698655,0.00018500000000000114,-0.0002385000000000026,-0.1295905,-0.303587,-0.1544785,0.1322895,-0.283787,-0.1352145,-0.1375405,-0.6282570000000001,-0.11684649999999999,0.1255295,-0.6140969999999999,-0.1129655
122,0.010269499999999997,0.682761,-0.193079,-0.1406435,0.48478099999999996,-0.168265,-0.2521435,0.691931,-0.27319000000000004,0.15971649999999998,0.471591,-0.159478,0.2974365,0.676941,-0.23038000000000003,-0.3053535,0.9041009999999999,-0.36984000000000006,0.3553965,0.866551,-0.31265,-0.06970950000000001,-0.00017299999999999954,-5.000000000000837e-05,0.06970950000000001,0.00017299999999999954,4.999999999999449e-05,-0.12969350000000002,-0.293789,-0.168114,0.1341665,-0.274949,-0.148099,-0.1366835,-0.617969,-0.127976,0.1255865,-0.604859,-0.12433300000000001
123,0.010624999999999999,0.6821929999999999,-0.205041,-0.13861,0.48173299999999997,-0.179598,-0.251,0.690343,-0.28657,0.15862,0.468453,-0.171273,0.29722,0.674813,-0.24303,-0.30505,0.901083,-0.38624,0.356,0.867213,-0.32744,-0.069552,-0.00013399999999999523,-0.0004600000000000021,0.069552,0.00013400000000000217,0.0004599999999999882,-0.12968000000000002,-0.28364700000000004,-0.181826,0.13607,-0.265787,-0.160976,-0.13572,-0.607317,-0.138956,0.12564,-0.595297,-0.135582
124,0.010909499999999996,0.681867,-0.21710600000000002,-0.1364375,0.478537,-0.191031,-0.25010750000000004,0.689347,-0.30023500000000003,0.1570825,0.465497,-0.18327200000000002,0.2967825,0.672747,-0.256255,-0.3043875,0.898447,-0.402625,0.3565525,0.868257,-0.342465,-0.06943150000000001,-0.0001239999999999991,-0.0008650000000000047,0.06943150000000001,0.0001239999999999991,0.0008649999999999769,-0.1296875,-0.272723,-0.19579200000000002,0.1379525,-0.255863,-0.17417600000000003,-0.1347675,-0.595973,-0.14998,0.1255725,-0.584923,-0.146901
125,0.011217499999999995,0.68105,-0.22864,-0.1343485,0.47493,-0.20239600000000002,-0.2492985,0.68721,-0.31376000000000004,0.1554915,0.46299,-0.194983,0.29653149999999995,0.67176,-0.26944999999999997,-0.30364850000000004,0.89519,-0.41913,0.3571815,0.8690100000000001,-0.35744,-0.0693345,-0.0001250000000000001,-0.0012600000000000111,0.0693345,0.00012499999999999317,0.0012600000000000111,-0.1296285,-0.26164,-0.209566,0.1400015,-0.24614999999999998,-0.187493,-0.1337785,-0.58489,-0.160757,0.1255615,-0.57466,-0.157891
126,0.0114475,0.6799864999999999,-0.239867,-0.1323385,0.4719965,-0.21354499999999998,-0.2487385,0.6851065,-0.3273,0.1540115,0.4613065,-0.20645699999999997,0.2965515,0.6710665,-0.28285,-0.30305849999999995,0.8914664999999999,-0.43517999999999996,0.35790150000000004,0.8682565,-0.37233,-0.0692815,-0.00013649999999999773,-0.001669999999999977,0.0692815,0.00013649999999999773,0.0016700000000000048,-0.1295985,-0.2505835,-0.22312699999999996,0.14190149999999999,-0.23632350000000002,-0.200479,-0.1328185,-0.5740935,-0.17132799999999998,0.1255315,-0.5645535,-0.168626
127,0.011771000000000004,0.678781,-0.251034,-0.13039699999999999,0.468851,-0.22474,-0.248057,0.680231,-0.340765,0.15266300000000002,0.459611,-0.218165,0.296543,0.6698310000000001,-0.29657500000000003,-0.302757,0.883051,-0.450875,0.358833,0.865941,-0.38700500000000004,-0.069247,-0.00019399999999999973,-0.0020150000000000168,0.069247,0.00019399999999999973,0.002014999999999989,-0.129497,-0.23894899999999997,-0.236792,0.143933,-0.226049,-0.213757,-0.131937,-0.562919,-0.181967,0.12560300000000002,-0.553719,-0.179361
128,0.0116155,0.6754645,-0.25567,-0.1298685,0.4661545,-0.22951300000000002,-0.2477885,0.6765345,-0.34739000000000003,0.15109150000000002,0.45692449999999996,-0.22336500000000004,0.2969015,0.6672645,-0.30367,-0.30275850000000004,0.8770645,-0.45903,0.35960149999999996,0.8621345,-0.39453000000000005,-0.06924250000000001,-0.0002595000000000097,-0.0021000000000000185,0.06924250000000001,0.00025949999999999585,0.0020999999999999908,-0.1298885,-0.2304955,-0.242037,0.1450015,-0.2182955,-0.21942,-0.1317585,-0.5544655,-0.185562,0.12556150000000002,-0.5453155,-0.18329700000000002
129,0.011455999999999994,0.6734215,-0.260304,-0.12951000000000001,0.46242150000000004,-0.234707,-0.24739,0.6733615000000001,-0.354305,0.1495,0.45451149999999996,-0.228849,0.29725,0.6657315,-0.310435,-0.30278,0.8710915,-0.466995,0.36069,0.8596515,-0.401555,-0.069238,-0.00027649999999999897,-0.0021849999999999925,0.069238,0.00027649999999999897,0.0021849999999999925,-0.13026000000000001,-0.22151849999999998,-0.247586,0.14611,-0.2093185,-0.225653,-0.13153,-0.5454884999999999,-0.18931800000000001,0.12552,-0.5363585,-0.187291
130,0.011366000000000005,0.671215,-0.264865,-0.129071,0.458625,-0.23977700000000002,-0.247111,0.6696949999999999,-0.36099000000000003,0.148139,0.450785,-0.23419600000000002,0.297639,0.6631549999999999,-0.31699,-0.302761,0.866055,-0.47486,0.362049,0.857225,-0.40871,-0.06919,-0.00015500000000000236,-0.0021000000000000185,0.06919,0.00015500000000000236,0.0020999999999999908,-0.130601,-0.212615,-0.25314400000000004,0.147289,-0.200415,-0.232026,-0.131251,-0.536585,-0.193025,0.125499,-0.527655,-0.19118700000000002
131,0.0114575,0.66882,-0.26918699999999995,-0.1283685,0.4569,-0.24438,-0.2468985,0.66684,-0.36755499999999997,0.1475515,0.44945,-0.238834,0.2984215,0.6584800000000001,-0.323225,-0.3023285,0.86216,-0.48228499999999996,0.3638115,0.85456,-0.415875,-0.06938649999999999,-8.000000000001062e-05,-0.0019849999999999868,0.06938649999999999,7.999999999999674e-05,0.0019850000000000145,-0.13071850000000002,-0.20674,-0.258493,0.1487315,-0.19457,-0.23830099999999999,-0.13071850000000002,-0.53025,-0.19634599999999997,0.12572149999999999,-0.52125,-0.19478199999999998
132,0.011691000000000002,0.665495,-0.273086,-0.12753899999999999,0.45418499999999995,-0.24885999999999997,-0.246109,0.663265,-0.37407999999999997,0.147081,0.44852499999999995,-0.243025,0.299381,0.6546449999999999,-0.32908,-0.301359,0.857995,-0.49004,0.365761,0.852075,-0.42308999999999997,-0.069635,-5.4999999999999494e-05,-0.001789999999999986,0.069635,5.4999999999999494e-05,0.0017900000000000138,-0.130719,-0.20069499999999998,-0.26359,0.150311,-0.188885,-0.24439299999999997,-0.129989,-0.5237550000000001,-0.19948,0.126091,-0.514985,-0.198116
133,0.0118865,0.662085,-0.276547,-0.1267165,0.45131499999999997,-0.253197,-0.24534650000000002,0.659355,-0.38041,0.1469835,0.446775,-0.246958,0.30026349999999996,0.650625,-0.33440000000000003,-0.30041650000000003,0.853095,-0.49804,0.3676135,0.849255,-0.4305,-0.0698165,7.499999999999174e-05,-0.001590000000000008,0.0698165,-7.50000000000195e-05,0.001590000000000008,-0.13072650000000002,-0.194535,-0.268524,0.1518835,-0.18322500000000003,-0.250299,-0.1292065,-0.517145,-0.20255700000000001,0.1265035,-0.508715,-0.201265
134,0.011943000000000004,0.658025,-0.279874,-0.12616,0.449305,-0.25746800000000003,-0.24482,0.656005,-0.38519000000000003,0.1468,0.445355,-0.250879,0.30135999999999996,0.646145,-0.33947,-0.30003,0.845915,-0.5055499999999999,0.36905,0.844055,-0.4379,-0.070008,0.00016499999999999848,-0.0012699999999999934,0.070008,-0.00016499999999999848,0.0012699999999999934,-0.13089,-0.188255,-0.27354500000000004,0.15321,-0.17724499999999999,-0.255892,-0.12847,-0.510395,-0.205823,0.12682000000000002,-0.502175,-0.20449900000000001
135,0.012065000000000003,0.65468,-0.28310199999999996,-0.125719,0.44619000000000003,-0.261746,-0.24479900000000002,0.65204,-0.38963000000000003,0.146571,0.44285,-0.254865,0.30263100000000004,0.64157,-0.34436,-0.29955899999999996,0.83928,-0.51312,0.37047100000000005,0.84165,-0.44521,-0.070192,0.00015999999999999348,-0.0012199999999999989,0.070192,-0.00015999999999999348,0.0012199999999999989,-0.130859,-0.18102999999999997,-0.278667,0.154371,-0.17048000000000002,-0.261564,-0.127749,-0.50268,-0.209064,0.127191,-0.49482000000000004,-0.207722
136,0.012337500000000001,0.65147,-0.286105,-0.1250745,0.44357,-0.265519,-0.2444945,0.6501399999999999,-0.39358000000000004,0.1463555,0.43962999999999997,-0.25838300000000003,0.3040755,0.63713,-0.34868,-0.2990945,0.83692,-0.5200400000000001,0.3717255,0.84069,-0.45255,-0.0703385,0.0002999999999999947,-0.0012000000000000066,0.0703385,-0.0002999999999999947,0.0011999999999999789,-0.1306545,-0.17396999999999999,-0.28359,0.1553755,-0.16391000000000003,-0.266978,-0.1270645,-0.4951,-0.212087,0.1276455,-0.48761999999999994,-0.21074400000000001
137,0.012597000000000002,0.647805,-0.288894,-0.124475,0.441035,-0.268975,-0.244405,0.643585,-0.397775,0.146385,0.437395,-0.261278,0.305375,0.633345,-0.352985,-0.298695,0.831575,-0.526365,0.372755,0.839415,-0.459905,-0.07051099999999999,0.00025499999999997747,-0.0011850000000000194,0.07051099999999999,-0.0002550000000000052,0.0011849999999999916,-0.130465,-0.165775,-0.28856800000000005,0.156295,-0.156895,-0.273018,-0.12640500000000002,-0.48628499999999997,-0.21497500000000003,0.12795499999999999,-0.47972500000000007,-0.21355600000000002
138,0.012779499999999996,0.64398,-0.291501,-0.12405350000000001,0.43936000000000003,-0.271714,-0.2446335,0.63693,-0.40081500000000003,0.14636649999999998,0.43529,-0.263918,0.3062265,0.6298,-0.35680500000000004,-0.2982635,0.82584,-0.531795,0.3734865,0.83694,-0.465895,-0.0706675,0.0002600000000000102,-0.0011750000000000094,0.0706675,-0.00025999999999998247,0.0011749999999999816,-0.13033350000000002,-0.15765999999999997,-0.293315,0.1570665,-0.14997,-0.278675,-0.12575350000000002,-0.47748999999999997,-0.21758100000000002,0.1281765,-0.47190999999999994,-0.21605200000000002
139,0.012824499999999997,0.639975,-0.29344,-0.1237595,0.437735,-0.273912,-0.2449795,0.629935,-0.403055,0.1462705,0.434215,-0.266159,0.3067105,0.626755,-0.359935,-0.2982495,0.819305,-0.535595,0.3740905,0.8329549999999999,-0.47102499999999997,-0.0707805,0.00011500000000000399,-0.0012749999999999984,0.0707805,-0.00011500000000000399,0.0012750000000000261,-0.1302495,-0.149395,-0.297625,0.1577405,-0.143005,-0.284015,-0.1251695,-0.46854500000000004,-0.219764,0.1282505,-0.46397499999999997,-0.218105
140,0.012655,0.6363449999999999,-0.29462,-0.123605,0.434045,-0.275806,-0.245645,0.623725,-0.40499,0.146065,0.43122499999999997,-0.268072,0.307055,0.624065,-0.36194000000000004,-0.29833499999999996,0.8141149999999999,-0.5388999999999999,0.374545,0.829385,-0.47526,-0.070878,0.00014499999999997848,-0.0011700000000000044,0.070878,-0.00014500000000000624,0.0011699999999999766,-0.13022499999999998,-0.14014500000000002,-0.30175,0.158335,-0.13510500000000003,-0.289169,-0.12463500000000001,-0.458575,-0.221585,0.128205,-0.455085,-0.219841
141,0.012405000000000003,0.6332949999999999,-0.295656,-0.12358399999999999,0.431905,-0.277765,-0.246234,0.618325,-0.406975,0.145806,0.428775,-0.269931,0.307706,0.622045,-0.364915,-0.298574,0.808595,-0.541365,0.374756,0.824025,-0.47939499999999996,-0.070992,0.00019500000000000073,-0.0010449999999999904,0.070992,-0.00019500000000000073,0.0010450000000000181,-0.130204,-0.13030500000000003,-0.306035,0.15887600000000002,-0.12662500000000002,-0.29437399999999997,-0.12416400000000001,-0.44796500000000006,-0.22346699999999997,0.12807600000000002,-0.4455950000000001,-0.22158399999999998
142,0.0120565,0.630155,-0.296696,-0.12378950000000001,0.429705,-0.279725,-0.2471195,0.611755,-0.408275,0.14515050000000002,0.42617499999999997,-0.271686,0.3078905,0.620185,-0.36668500000000004,-0.2985995,0.802115,-0.543895,0.3745805,0.819745,-0.482255,-0.0710975,0.00016499999999999848,-0.0009550000000000114,0.0710975,-0.00016499999999999848,0.0009549999999999836,-0.13019950000000002,-0.11991500000000002,-0.310545,0.15936050000000002,-0.11768500000000001,-0.299716,-0.1236695,-0.436735,-0.225419,0.1278705,-0.435585,-0.223421
143,0.011763500000000001,0.62799,-0.297673,-0.1241775,0.42735,-0.281357,-0.24822750000000002,0.60606,-0.40975,0.1447225,0.42369,-0.27342500000000003,0.3069925,0.61659,-0.36865000000000003,-0.2986975,0.7985800000000001,-0.54657,0.37416249999999995,0.81945,-0.48521000000000003,-0.0711685,0.00010999999999999899,-0.0008100000000000052,0.0711685,-0.00010999999999999899,0.0008100000000000052,-0.13037749999999998,-0.10902,-0.31505,0.1597725,-0.10819000000000001,-0.30498000000000003,-0.12321749999999998,-0.42492,-0.22724,0.1275925,-0.42499000000000003,-0.225119
144,0.0114425,0.62504,-0.29830999999999996,-0.1246195,0.4253,-0.282544,-0.24945949999999997,0.6003400000000001,-0.41114,0.1441705,0.42169,-0.27469,0.30589049999999995,0.6139100000000001,-0.37041999999999997,-0.2988695,0.7944800000000001,-0.5490200000000001,0.3736905,0.81793,-0.48789,-0.0712035,0.00019000000000002348,-0.0005300000000000027,0.0712035,-0.00018999999999996797,0.0005300000000000027,-0.1307195,-0.09814999999999996,-0.31932,0.1601205,-0.09863999999999995,-0.30991,-0.12283949999999999,-0.41296999999999995,-0.22888,0.1272005,-0.4143199999999999,-0.226622
145,0.011175999999999995,0.621985,-0.2989,-0.125276,0.424285,-0.28346899999999997,-0.250516,0.595985,-0.412235,0.143704,0.42098500000000005,-0.27560799999999996,0.304044,0.608175,-0.37178500000000003,-0.299006,0.790495,-0.551155,0.37241399999999997,0.8146150000000001,-0.49028499999999997,-0.07127800000000001,0.00019500000000000073,-0.00011500000000000399,0.07127800000000001,-0.00019500000000000073,0.00011500000000000399,-0.13126600000000002,-0.086945,-0.323435,0.160374,-0.08860499999999999,-0.314455,-0.122586,-0.40043499999999993,-0.23027699999999998,0.12670399999999998,-0.40308499999999997,-0.227955
146,0.010829499999999997,0.620085,-0.299487,-0.1260305,0.422585,-0.284172,-0.25118050000000003,0.5962350000000001,-0.41261000000000003,0.1434795,0.419245,-0.276381,0.3026795,0.6042350000000001,-0.37328,-0.2989805,0.789655,-0.5532,0.37120949999999997,0.812575,-0.49258,-0.0713805,0.0004149999999999987,0.00028000000000000247,0.0713805,-0.0004149999999999987,-0.00028000000000000247,-0.1319305,-0.075625,-0.32716,0.1605195,-0.07770500000000002,-0.31795,-0.1224605,-0.387605,-0.231718,0.12621949999999998,-0.39129499999999995,-0.229329
147,0.0105015,0.61826,-0.30016,-0.1268035,0.42063,-0.28477399999999997,-0.2514635,0.59625,-0.41332,0.1433665,0.41724000000000006,-0.276915,0.3012365,0.60066,-0.37458,-0.2990235,0.78902,-0.5549,0.3699765,0.812,-0.49482000000000004,-0.0715235,0.0005300000000000304,0.0006299999999999917,0.0715235,-0.0005299999999999749,-0.0006299999999999917,-0.1326435,-0.06390999999999997,-0.33050999999999997,0.1605565,-0.06624999999999998,-0.32101,-0.12242349999999999,-0.37427999999999995,-0.233045,0.12572650000000002,-0.37888999999999995,-0.230602
148,0.010066000000000004,0.61561,-0.300681,-0.12766899999999998,0.41908799999999996,-0.28515999999999997,-0.251299,0.5957999999999999,-0.413655,0.143081,0.4153899999999999,-0.277269,0.300221,0.59644,-0.375855,-0.299259,0.7857299999999999,-0.5561849999999999,0.368571,0.80907,-0.496945,-0.071711,0.0006899999999999684,0.0009549999999999836,0.071711,-0.0006900000000000239,-0.0009550000000000114,-0.133679,-0.05277000000000004,-0.333495,0.16037099999999999,-0.05502000000000007,-0.323445,-0.12257900000000001,-0.3613200000000001,-0.234125,0.125081,-0.3666600000000001,-0.231622
149,0.009633500000000003,0.6131249999999999,-0.30082299999999995,-0.1285875,0.419257,-0.284918,-0.2516875,0.593215,-0.41401999999999994,0.14248249999999998,0.415308,-0.277118,0.2992825,0.596625,-0.37549,-0.2995575,0.7828550000000001,-0.55628,0.3670525,0.8080849999999999,-0.49776,-0.07190450000000001,0.0005649999999999822,0.0010100000000000109,0.07190450000000001,-0.0005649999999999822,-0.0010099999999999831,-0.1350875,-0.04106500000000002,-0.33582999999999996,0.1601825,-0.043045,-0.32506999999999997,-0.1228475,-0.34768499999999997,-0.23479399999999997,0.12425250000000002,-0.354015,-0.23212999999999998
150,0.008831499999999999,0.6112249999999999,-0.300359,-0.1297515,0.418776,-0.28421799999999997,-0.2521715,0.591245,-0.413895,0.1416485,0.41502799999999995,-0.276301,0.2980685,0.595545,-0.374645,-0.3000015,0.780475,-0.555925,0.3653085,0.808155,-0.497835,-0.0720485,0.0005149999999999877,0.0009149999999999991,0.0720485,-0.0005150000000000432,-0.0009149999999999991,-0.1369315,-0.029565000000000063,-0.337345,0.1600685,-0.031205000000000038,-0.325905,-0.1234215,-0.3339850000000001,-0.234905,0.1231485,-0.341275,-0.23207999999999998
151,0.007983,0.60968,-0.29981800000000003,-0.13072499999999998,0.419004,-0.283561,-0.252935,0.5909599999999999,-0.414165,0.140775,0.416255,-0.27539,0.296925,0.59385,-0.37326499999999996,-0.300435,0.77972,-0.555965,0.36360499999999996,0.80702,-0.497765,-0.072103,0.00029999999999996696,0.0009149999999999991,0.072103,-0.00030000000000002247,-0.0009149999999999991,-0.138645,-0.018030000000000046,-0.338565,0.160215,-0.01927000000000001,-0.326455,-0.12396499999999999,-0.32031,-0.23493,0.12210499999999999,-0.3282900000000001,-0.231929
152,0.007342500000000002,0.60838,-0.29887600000000003,-0.1313915,0.41866400000000004,-0.282984,-0.2534615,0.59085,-0.414195,0.1400885,0.416748,-0.274443,0.2963085,0.59414,-0.37199499999999996,-0.3009315,0.7747200000000001,-0.556315,0.3620485,0.80374,-0.497935,-0.0721685,3.0000000000030003e-05,0.0009149999999999991,0.0721685,-2.999999999997449e-05,-0.0009149999999999991,-0.1401615,-0.006479999999999986,-0.339465,0.1604985,-0.007330000000000003,-0.326675,-0.1244115,-0.30665,-0.234955,0.1211585,-0.31531,-0.231772
153,0.006616000000000006,0.607065,-0.297685,-0.132064,0.41909599999999997,-0.282196,-0.25413399999999997,0.592135,-0.414385,0.139356,0.418081,-0.273688,0.295646,0.594875,-0.371075,-0.301514,0.771755,-0.5567949999999999,0.360426,0.8005450000000001,-0.497955,-0.072318,-0.0002949999999999897,0.0008450000000000124,0.072318,0.0002949999999999897,-0.0008449999999999847,-0.141674,0.005324999999999969,-0.339985,0.16084600000000002,0.004994999999999972,-0.32659499999999997,-0.12492400000000001,-0.292655,-0.234925,0.120196,-0.301855,-0.231546
154,0.005846,0.607095,-0.29594,-0.13282,0.41901000000000005,-0.280817,-0.25475,0.594005,-0.414825,0.13889,0.418926,-0.27206800000000003,0.29548,0.597995,-0.37000500000000003,-0.30215,0.770165,-0.556745,0.3595,0.7999350000000001,-0.497315,-0.07237,-0.0004949999999999677,0.0006149999999999767,0.07237,0.0004950000000000232,-0.0006150000000000044,-0.14306999999999997,0.017345000000000055,-0.339365,0.16127000000000002,0.017535000000000023,-0.325885,-0.12546000000000002,-0.278755,-0.234276,0.1192,-0.288195,-0.230597
155,0.005053,0.60606,-0.293679,-0.13350900000000002,0.419929,-0.27897500000000003,-0.255459,0.59507,-0.414785,0.13850099999999999,0.420976,-0.269882,0.295761,0.59994,-0.368235,-0.302769,0.76736,-0.556065,0.358541,0.79825,-0.495775,-0.072405,-0.0010600000000000054,4.499999999998949e-05,0.072405,0.0010600000000000054,-4.500000000001725e-05,-0.144289,0.027969999999999995,-0.338065,0.16178099999999998,0.02862999999999999,-0.32449500000000003,-0.125999,-0.26631,-0.23300400000000002,0.118281,-0.27574000000000004,-0.228964
156,0.004325,0.6056699999999999,-0.290835,-0.134078,0.421574,-0.276502,-0.255958,0.59699,-0.414185,0.13814200000000001,0.422339,-0.26696000000000003,0.295132,0.60239,-0.36589499999999997,-0.303328,0.7648900000000001,-0.554905,0.357392,0.79522,-0.493005,-0.072494,-0.0011300000000000199,-0.0003650000000000042,0.072494,0.0011300000000000199,0.00036499999999997645,-0.14526799999999998,0.03865000000000002,-0.336195,0.162412,0.03985,-0.322495,-0.126428,-0.25365000000000004,-0.23121,0.11744199999999999,-0.26281,-0.226614
157,0.003708500000000001,0.6056349999999999,-0.28783400000000003,-0.1346755,0.422435,-0.273946,-0.2566655,0.599715,-0.413965,0.1377845,0.423577,-0.263905,0.2956545,0.605255,-0.36380500000000005,-0.3044555,0.7653449999999999,-0.553305,0.3563345,0.796055,-0.490985,-0.07255349999999999,-0.001385000000000025,-0.0006349999999999967,0.07255349999999999,0.0013849999999999696,0.0006349999999999967,-0.14597549999999998,0.04917499999999997,-0.33416500000000005,0.1630045,0.05096499999999998,-0.320105,-0.1268955,-0.24099500000000007,-0.22928,0.1163245,-0.24970500000000007,-0.223923
158,0.0031439999999999984,0.605275,-0.28492399999999996,-0.13531800000000002,0.424432,-0.271586,-0.257758,0.6048049999999999,-0.41398999999999997,0.137232,0.42452399999999996,-0.260901,0.295722,0.6060249999999999,-0.36188,-0.305958,0.7655749999999999,-0.55159,0.355202,0.794945,-0.48830999999999997,-0.072513,-0.0013250000000000206,-0.0008699999999999819,0.072513,0.001324999999999965,0.0008700000000000097,-0.14655800000000002,0.05803499999999995,-0.3319,0.163582,0.060594999999999954,-0.3177,-0.127328,-0.22996500000000009,-0.22750099999999998,0.115372,-0.2379650000000001,-0.22119899999999998
159,0.0025679999999999982,0.6043,-0.281959,-0.135776,0.426535,-0.269212,-0.258706,0.6090599999999999,-0.4135,0.13680399999999998,0.425268,-0.257987,0.296574,0.6072299999999999,-0.35981,-0.307626,0.76571,-0.54949,0.353894,0.79455,-0.48515,-0.072605,-0.0013500000000000179,-0.0010799999999999976,0.072605,0.0013499999999999623,0.0010799999999999976,-0.147046,0.06644,-0.32935000000000003,0.16416399999999998,0.06994,-0.31529,-0.127556,-0.21886000000000005,-0.225576,0.114414,-0.22686000000000006,-0.218413
160,0.0017030000000000014,0.60356,-0.27926399999999996,-0.13606600000000002,0.42793899999999996,-0.267185,-0.258726,0.61341,-0.41201499999999996,0.136424,0.426228,-0.255658,0.296794,0.60969,-0.35811499999999996,-0.30930599999999997,0.76599,-0.547955,0.352364,0.7955099999999999,-0.482375,-0.072695,-0.0013700000000000379,-0.0012349999999999861,0.072695,0.0013699999999999823,0.0012350000000000139,-0.147656,0.07456999999999997,-0.326835,0.164694,0.07966999999999996,-0.313465,-0.127726,-0.20835000000000004,-0.22432899999999997,0.113494,-0.21559000000000006,-0.21592899999999998
161,0.0008660000000000013,0.602965,-0.27710199999999996,-0.136305,0.43047299999999994,-0.265573,-0.259725,0.617475,-0.41259,0.135945,0.42670899999999995,-0.25360299999999997,0.296435,0.6131249999999999,-0.35653999999999997,-0.311505,0.7702749999999999,-0.54664,0.350725,0.797465,-0.48018,-0.07278,-0.0011750000000000371,-0.0013199999999999878,0.07278,0.0011749999999999816,0.0013200000000000156,-0.148265,0.08178499999999994,-0.32413,0.165205,0.08887499999999998,-0.31179999999999997,-0.127825,-0.1981050000000001,-0.223519,0.112275,-0.2044950000000001,-0.213169
162,-4.899999999999696e-05,0.6031019999999999,-0.275793,-0.136574,0.4330719999999999,-0.264735,-0.261364,0.62098,-0.412665,0.135386,0.42647499999999994,-0.252054,0.295986,0.61381,-0.354655,-0.314054,0.7732299999999999,-0.545905,0.348946,0.80029,-0.478575,-0.072799,-0.0008200000000000429,-0.0012049999999999839,0.072799,0.0008199999999999319,0.0012050000000000116,-0.148904,0.08841999999999994,-0.321915,0.165586,0.09724999999999995,-0.310525,-0.12747399999999998,-0.18839000000000006,-0.223032,0.110996,-0.19344000000000006,-0.210419
163,-0.0011345000000000044,0.60223,-0.274593,-0.1370525,0.43229100000000004,-0.263787,-0.2634825,0.62154,-0.41276999999999997,0.1346675,0.426918,-0.250956,0.2953575,0.61592,-0.35302999999999995,-0.3167125,0.77501,-0.5453600000000001,0.3467975,0.8028500000000001,-0.47696,-0.0727205,-0.0008399999999999519,-0.0011999999999999789,0.0727205,0.0008400000000000629,0.0012000000000000066,-0.1496225,0.09472000000000003,-0.31969,0.1658275,0.10495000000000004,-0.30916,-0.1274925,-0.18037999999999998,-0.22289599999999998,0.10959749999999999,-0.1824,-0.2079
164,-0.0022125000000000014,0.602076,-0.27340200000000003,-0.13757250000000001,0.43210899999999997,-0.262836,-0.2654125,0.622251,-0.41287,0.1341775,0.42603199999999997,-0.24981,0.2938775,0.615853,-0.35079000000000005,-0.3192925,0.7752699999999999,-0.5448,0.3445875,0.80488,-0.47509,-0.0725765,-0.00036000000000002697,-0.0011900000000000244,0.0725765,0.00036000000000002697,0.0011899999999999966,-0.1503325,0.10108999999999996,-0.31748,0.1660975,0.11245,-0.3078,-0.1274925,-0.17251000000000005,-0.222697,0.1080875,-0.17173000000000005,-0.205236
165,-0.003278500000000005,0.601091,-0.272195,-0.1380235,0.43149,-0.261946,-0.26753350000000004,0.62079,-0.41298500000000005,0.1337265,0.42557999999999996,-0.248924,0.29208649999999997,0.614773,-0.348545,-0.32177350000000005,0.77397,-0.543545,0.34269649999999996,0.80759,-0.47369500000000003,-0.07249649999999999,-0.0002300000000000635,-0.0011850000000000194,0.07249649999999999,0.00022999999999995246,0.0011849999999999916,-0.1511735,0.10661999999999999,-0.31528500000000004,0.1663065,0.11901999999999996,-0.306465,-0.1272135,-0.16363000000000005,-0.222273,0.10657649999999999,-0.16202000000000005,-0.202708
166,-0.004380000000000004,0.600776,-0.27129899999999996,-0.138629,0.431015,-0.26131099999999996,-0.269499,0.614825,-0.409755,0.133231,0.424695,-0.248241,0.29009100000000004,0.613612,-0.346935,-0.32408899999999996,0.772445,-0.542075,0.34087100000000004,0.809485,-0.47261499999999995,-0.07231699999999999,7.500000000004725e-05,-0.0009849999999999859,0.07231699999999999,-7.500000000004725e-05,0.0009850000000000136,-0.152119,0.11212499999999997,-0.31354499999999996,0.166451,0.125485,-0.30544499999999997,-0.127009,-0.15495499999999995,-0.22198099999999998,0.10522100000000001,-0.15269500000000003,-0.20057599999999998
167,-0.005553000000000002,0.600135,-0.271019,-0.139322,0.43060499999999996,-0.261313,-0.271212,0.6086199999999999,-0.40686500000000003,0.13275800000000001,0.42487499999999995,-0.248346,0.287908,0.61251,-0.345675,-0.326012,0.7704949999999999,-0.5411950000000001,0.339228,0.811215,-0.472395,-0.07209499999999999,0.00018499999999999073,-0.0005150000000000154,0.07209499999999999,-0.00018500000000010175,0.0005149999999999877,-0.153052,0.11725499999999994,-0.312545,0.16661800000000002,0.13140499999999994,-0.305105,-0.125652,-0.14620500000000003,-0.219749,0.103828,-0.14397500000000008,-0.199322
168,-0.006535500000000003,0.599758,-0.271216,-0.1399435,0.42985,-0.261803,-0.2727735,0.602587,-0.404005,0.13240649999999998,0.42489,-0.248951,0.2855465,0.611206,-0.344845,-0.32776350000000004,0.76824,-0.540525,0.33792649999999996,0.81262,-0.472835,-0.0718505,0.000280000000000058,-0.00019500000000000073,0.0718505,-0.00027999999999994696,0.00019500000000000073,-0.15397349999999999,0.12180000000000002,-0.312245,0.16676649999999998,0.13654,-0.305395,-0.1236835,-0.13927,-0.217789,0.1026465,-0.13610999999999995,-0.198857
169,-0.007280000000000003,0.600053,-0.271811,-0.140499,0.4291449999999999,-0.262534,-0.274069,0.596606,-0.400515,0.132101,0.42391499999999993,-0.249554,0.283741,0.6120749999999999,-0.345035,-0.32957899999999996,0.7659649999999999,-0.5395449999999999,0.336921,0.8142649999999999,-0.47341500000000003,-0.071588,0.0004849999999999577,-8.500000000000174e-05,0.071588,-0.0004850000000000687,8.500000000000174e-05,-0.15498900000000002,0.12511499999999992,-0.312595,0.166801,0.14005499999999993,-0.305875,-0.12171900000000001,-0.13404500000000008,-0.215849,0.101531,-0.13020500000000013,-0.198758
170,-0.007818,0.601186,-0.27236099999999996,-0.14087300000000003,0.42801500000000003,-0.26290899999999995,-0.274503,0.590301,-0.39613,0.131747,0.423875,-0.249963,0.282007,0.613048,-0.34493999999999997,-0.331013,0.763765,-0.53806,0.336187,0.8164750000000001,-0.47370999999999996,-0.071301,0.0005549999999999722,-6.999999999998674e-05,0.071301,-0.0005549999999999722,7.00000000000145e-05,-0.155903,0.127805,-0.31311,0.16685699999999998,0.14247500000000002,-0.30633,-0.119863,-0.13014499999999996,-0.21375399999999997,0.100977,-0.12584499999999998,-0.19921399999999997
171,-0.008234000000000002,0.602508,-0.272741,-0.141151,0.42613500000000004,-0.262852,-0.274651,0.589529,-0.394775,0.131389,0.424985,-0.249978,0.280879,0.614808,-0.345115,-0.33221100000000003,0.764035,-0.536935,0.33562899999999996,0.817125,-0.47362499999999996,-0.071173,0.0003250000000000197,-6.50000000000095e-05,0.071173,-0.0003250000000000197,6.50000000000095e-05,-0.156701,0.128695,-0.313435,0.166889,0.14314500000000002,-0.30666499999999997,-0.119331,-0.128235,-0.213117,0.10056899999999999,-0.123645,-0.199761
172,-0.008572000000000001,0.602643,-0.272389,-0.141182,0.42627000000000004,-0.262582,-0.275502,0.589255,-0.39092000000000005,0.13106800000000002,0.42496999999999996,-0.24954300000000001,0.280358,0.614943,-0.34419,-0.333502,0.76417,-0.53593,0.335458,0.81726,-0.47318000000000005,-0.07114999999999999,0.00032999999999994145,-7.999999999999674e-05,0.07114999999999999,-0.0003300000000000525,7.999999999999674e-05,-0.15734199999999998,0.12817,-0.3135,0.16686800000000002,0.14276,-0.3067,-0.11932200000000001,-0.12871,-0.212783,0.10025799999999999,-0.12351000000000001,-0.19981100000000002
173,-0.009024000000000003,0.602643,-0.272412,-0.141189,0.42627000000000004,-0.262277,-0.276489,0.589255,-0.38749,0.130851,0.42496999999999996,-0.249468,0.28037100000000004,0.614943,-0.34411,-0.33485899999999996,0.76417,-0.53545,0.33526100000000003,0.81726,-0.47297,-0.071137,0.00032999999999994145,-7.999999999999674e-05,0.071137,-0.0003300000000000525,7.999999999999674e-05,-0.15779900000000002,0.12817,-0.31353,0.166881,0.14257999999999998,-0.3067,-0.119309,-0.12902999999999998,-0.212783,0.100271,-0.12351000000000001,-0.19981100000000002
174,-0.009527500000000003,0.602643,-0.272136,-0.1413865,0.42627000000000004,-0.261905,-0.2773665,0.589255,-0.38453499999999996,0.1307035,0.42496999999999996,-0.24938,0.2801435,0.614943,-0.344125,-0.3368365,0.76417,-0.5355449999999999,0.3350835,0.81726,-0.472805,-0.07105449999999999,0.00032999999999994145,-7.499999999999174e-05,0.07105449999999999,-0.0003300000000000525,7.499999999999174e-05,-0.1580565,0.12817,-0.313535,0.16696350000000001,0.14257999999999998,-0.306695,-0.1206865,-0.13026000000000004,-0.215701,0.10035349999999998,-0.12404000000000004,-0.19989
175,-0.009999000000000001,0.603969,-0.27195199999999997,-0.141641,0.4274,-0.261831,-0.27843100000000004,0.589628,-0.38204,0.13053900000000002,0.42496999999999996,-0.249481,0.27985899999999997,0.616775,-0.34423000000000004,-0.338691,0.76462,-0.53539,0.334989,0.81997,-0.47274,-0.070958,0.00032999999999994145,-0.00017000000000000348,0.070958,-0.0003300000000000525,0.00017000000000000348,-0.158181,0.12817,-0.31388,0.16697900000000002,0.14257999999999998,-0.30718,-0.12085100000000001,-0.12904000000000004,-0.21608,0.10050899999999999,-0.12478,-0.199992
